site/assets/luts/arri-alexa--alexav3-k1s1-logc2video-ee-nuke1d--b76eaab8f.cube
# LUTr-Project: LUTr — LUTrepository
# LUTr-Schema-Version: 1
# LUTr-ID: arri-alexa--alexav3-k1s1-logc2video-ee-nuke1d--b76eaab8f
# LUTr-Title: AlexaV3 K1S1 LogC2Video EE nuke1d
# LUTr-Collection: ARRI Alexa
# LUTr-Collection-ID: vfxwiki-arri-alexa-luts
# LUTr-Source: https://github.com/vfxwiki/ArriAlexaLuts
# LUTr-Source-File: submissions/vfxwiki-arri-alexa-luts/AlexaV3_K1S1_LogC2Video_EE_nuke1d.cube
# LUTr-Source-Format: CUBE
# LUTr-Source-SHA256: f3f49cae29e827def76fe3c4788f36e77ce11f9205a2b091833ad2e6c9227863
# LUTr-License: LGPL-3.0
# LUTr-License-URL: https://github.com/vfxwiki/ArriAlexaLuts/blob/master/LICENSE
# LUTr-Tags: technical, camera, arri, alexa, logc, 3d-lut, cube
# LUTr-Transform-Class: camera-transform
# LUTr-Input-Color-Space: Unknown
# LUTr-Output-Color-Space: srgb
# LUTr-Color-Space-Confidence: partial-unverified-input-gamut
# LUTr-Conversion-Method: Metadata normalization; numeric LUT samples preserved
# LUTr-Conversion-Date: 2026-07-27
# LUTr-Conversion-Tool: LUTr scripts/convert-all-to-cube.mjs
# LUTr-Conversion-Grid: 4096-sample 1D
# LUTr-Note: Preserve this metadata and the upstream license notices when redistributing.
# LUTr-Upstream-Comment: Alexa conversion LUT, logc2video. Full in/full out.
# LUTr-Upstream-Comment: created by alexalutconv (2.09)
TITLE "AlexaV3 K1S1 LogC2Video EE nuke1d"
LUT_1D_SIZE 4096
DOMAIN_MIN 0 0 0
DOMAIN_MAX 1 1 1
0 0 0
0.000089 0.000089 0.000089
0.000179 0.000179 0.000179
0.000268 0.000268 0.000268
0.000358 0.000358 0.000358
0.000447 0.000447 0.000447
0.000537 0.000537 0.000537
0.000627 0.000627 0.000627
0.000716 0.000716 0.000716
0.000806 0.000806 0.000806
0.000896 0.000896 0.000896
0.000986 0.000986 0.000986
0.001076 0.001076 0.001076
0.001166 0.001166 0.001166
0.001256 0.001256 0.001256
0.001346 0.001346 0.001346
0.001436 0.001436 0.001436
0.001526 0.001526 0.001526
0.001617 0.001617 0.001617
0.001707 0.001707 0.001707
0.001797 0.001797 0.001797
0.001888 0.001888 0.001888
0.001979 0.001979 0.001979
0.002069 0.002069 0.002069
0.00216 0.00216 0.00216
0.00225 0.00225 0.00225
0.002341 0.002341 0.002341
0.002432 0.002432 0.002432
0.002523 0.002523 0.002523
0.002614 0.002614 0.002614
0.002705 0.002705 0.002705
0.002796 0.002796 0.002796
0.002887 0.002887 0.002887
0.002978 0.002978 0.002978
0.003069 0.003069 0.003069
0.00316 0.00316 0.00316
0.003251 0.003251 0.003251
0.003343 0.003343 0.003343
0.003434 0.003434 0.003434
0.003525 0.003525 0.003525
0.003617 0.003617 0.003617
0.003708 0.003708 0.003708
0.0038 0.0038 0.0038
0.003892 0.003892 0.003892
0.003983 0.003983 0.003983
0.004075 0.004075 0.004075
0.004167 0.004167 0.004167
0.004259 0.004259 0.004259
0.004351 0.004351 0.004351
0.004443 0.004443 0.004443
0.004535 0.004535 0.004535
0.004627 0.004627 0.004627
0.004719 0.004719 0.004719
0.004811 0.004811 0.004811
0.004904 0.004904 0.004904
0.004996 0.004996 0.004996
0.005089 0.005089 0.005089
0.005181 0.005181 0.005181
0.005274 0.005274 0.005274
0.005366 0.005366 0.005366
0.005459 0.005459 0.005459
0.005552 0.005552 0.005552
0.005645 0.005645 0.005645
0.005738 0.005738 0.005738
0.005831 0.005831 0.005831
0.005924 0.005924 0.005924
0.006017 0.006017 0.006017
0.006111 0.006111 0.006111
0.006204 0.006204 0.006204
0.006297 0.006297 0.006297
0.00639 0.00639 0.00639
0.006484 0.006484 0.006484
0.006577 0.006577 0.006577
0.006671 0.006671 0.006671
0.006765 0.006765 0.006765
0.006858 0.006858 0.006858
0.006952 0.006952 0.006952
0.007046 0.007046 0.007046
0.00714 0.00714 0.00714
0.007234 0.007234 0.007234
0.007328 0.007328 0.007328
0.007422 0.007422 0.007422
0.007516 0.007516 0.007516
0.00761 0.00761 0.00761
0.007705 0.007705 0.007705
0.007799 0.007799 0.007799
0.007893 0.007893 0.007893
0.007988 0.007988 0.007988
0.008083 0.008083 0.008083
0.008177 0.008177 0.008177
0.008272 0.008272 0.008272
0.008367 0.008367 0.008367
0.008462 0.008462 0.008462
0.008557 0.008557 0.008557
0.008652 0.008652 0.008652
0.008747 0.008747 0.008747
0.008842 0.008842 0.008842
0.008937 0.008937 0.008937
0.009032 0.009032 0.009032
0.009128 0.009128 0.009128
0.009223 0.009223 0.009223
0.009319 0.009319 0.009319
0.009414 0.009414 0.009414
0.00951 0.00951 0.00951
0.009606 0.009606 0.009606
0.009702 0.009702 0.009702
0.009798 0.009798 0.009798
0.009895 0.009895 0.009895
0.009991 0.009991 0.009991
0.010087 0.010087 0.010087
0.010183 0.010183 0.010183
0.010279 0.010279 0.010279
0.010376 0.010376 0.010376
0.010472 0.010472 0.010472
0.010569 0.010569 0.010569
0.010665 0.010665 0.010665
0.010762 0.010762 0.010762
0.010859 0.010859 0.010859
0.010956 0.010956 0.010956
0.011053 0.011053 0.011053
0.01115 0.01115 0.01115
0.011247 0.011247 0.011247
0.011344 0.011344 0.011344
0.011441 0.011441 0.011441
0.011538 0.011538 0.011538
0.011636 0.011636 0.011636
0.011733 0.011733 0.011733
0.011831 0.011831 0.011831
0.011929 0.011929 0.011929
0.012026 0.012026 0.012026
0.012124 0.012124 0.012124
0.012222 0.012222 0.012222
0.01232 0.01232 0.01232
0.012418 0.012418 0.012418
0.012516 0.012516 0.012516
0.012614 0.012614 0.012614
0.012713 0.012713 0.012713
0.012811 0.012811 0.012811
0.01291 0.01291 0.01291
0.013008 0.013008 0.013008
0.013107 0.013107 0.013107
0.013205 0.013205 0.013205
0.013304 0.013304 0.013304
0.013403 0.013403 0.013403
0.013502 0.013502 0.013502
0.013601 0.013601 0.013601
0.0137 0.0137 0.0137
0.0138 0.0138 0.0138
0.013899 0.013899 0.013899
0.013998 0.013998 0.013998
0.014099 0.014099 0.014099
0.014198 0.014198 0.014198
0.014298 0.014298 0.014298
0.014398 0.014398 0.014398
0.014498 0.014498 0.014498
0.014597 0.014597 0.014597
0.014697 0.014697 0.014697
0.014798 0.014798 0.014798
0.014898 0.014898 0.014898
0.014998 0.014998 0.014998
0.015098 0.015098 0.015098
0.015199 0.015199 0.015199
0.015299 0.015299 0.015299
0.0154 0.0154 0.0154
0.015501 0.015501 0.015501
0.015602 0.015602 0.015602
0.015703 0.015703 0.015703
0.015804 0.015804 0.015804
0.015905 0.015905 0.015905
0.016006 0.016006 0.016006
0.016108 0.016108 0.016108
0.016209 0.016209 0.016209
0.01631 0.01631 0.01631
0.016412 0.016412 0.016412
0.016514 0.016514 0.016514
0.016615 0.016615 0.016615
0.016717 0.016717 0.016717
0.016819 0.016819 0.016819
0.016921 0.016921 0.016921
0.017023 0.017023 0.017023
0.017126 0.017126 0.017126
0.017228 0.017228 0.017228
0.01733 0.01733 0.01733
0.017433 0.017433 0.017433
0.017536 0.017536 0.017536
0.017638 0.017638 0.017638
0.017741 0.017741 0.017741
0.017844 0.017844 0.017844
0.017947 0.017947 0.017947
0.01805 0.01805 0.01805
0.018153 0.018153 0.018153
0.018257 0.018257 0.018257
0.01836 0.01836 0.01836
0.018464 0.018464 0.018464
0.018568 0.018568 0.018568
0.018671 0.018671 0.018671
0.018775 0.018775 0.018775
0.018879 0.018879 0.018879
0.018983 0.018983 0.018983
0.019087 0.019087 0.019087
0.019191 0.019191 0.019191
0.019295 0.019295 0.019295
0.0194 0.0194 0.0194
0.019505 0.019505 0.019505
0.019609 0.019609 0.019609
0.019714 0.019714 0.019714
0.019819 0.019819 0.019819
0.019924 0.019924 0.019924
0.020029 0.020029 0.020029
0.020134 0.020134 0.020134
0.020239 0.020239 0.020239
0.020344 0.020344 0.020344
0.02045 0.02045 0.02045
0.020555 0.020555 0.020555
0.020661 0.020661 0.020661
0.020767 0.020767 0.020767
0.020872 0.020872 0.020872
0.020978 0.020978 0.020978
0.021084 0.021084 0.021084
0.02119 0.02119 0.02119
0.021297 0.021297 0.021297
0.021403 0.021403 0.021403
0.021509 0.021509 0.021509
0.021616 0.021616 0.021616
0.021723 0.021723 0.021723
0.021829 0.021829 0.021829
0.021936 0.021936 0.021936
0.022043 0.022043 0.022043
0.02215 0.02215 0.02215
0.022258 0.022258 0.022258
0.022365 0.022365 0.022365
0.022472 0.022472 0.022472
0.02258 0.02258 0.02258
0.022687 0.022687 0.022687
0.022795 0.022795 0.022795
0.022903 0.022903 0.022903
0.023011 0.023011 0.023011
0.023119 0.023119 0.023119
0.023228 0.023228 0.023228
0.023336 0.023336 0.023336
0.023445 0.023445 0.023445
0.023553 0.023553 0.023553
0.023662 0.023662 0.023662
0.023771 0.023771 0.023771
0.02388 0.02388 0.02388
0.023988 0.023988 0.023988
0.024098 0.024098 0.024098
0.024207 0.024207 0.024207
0.024316 0.024316 0.024316
0.024425 0.024425 0.024425
0.024535 0.024535 0.024535
0.024645 0.024645 0.024645
0.024754 0.024754 0.024754
0.024864 0.024864 0.024864
0.024974 0.024974 0.024974
0.025084 0.025084 0.025084
0.025194 0.025194 0.025194
0.025305 0.025305 0.025305
0.025415 0.025415 0.025415
0.025526 0.025526 0.025526
0.025636 0.025636 0.025636
0.025747 0.025747 0.025747
0.025858 0.025858 0.025858
0.025969 0.025969 0.025969
0.02608 0.02608 0.02608
0.026191 0.026191 0.026191
0.026303 0.026303 0.026303
0.026414 0.026414 0.026414
0.026526 0.026526 0.026526
0.026637 0.026637 0.026637
0.026749 0.026749 0.026749
0.026861 0.026861 0.026861
0.026973 0.026973 0.026973
0.027085 0.027085 0.027085
0.027198 0.027198 0.027198
0.027311 0.027311 0.027311
0.027424 0.027424 0.027424
0.027536 0.027536 0.027536
0.027649 0.027649 0.027649
0.027762 0.027762 0.027762
0.027875 0.027875 0.027875
0.027988 0.027988 0.027988
0.028101 0.028101 0.028101
0.028215 0.028215 0.028215
0.028328 0.028328 0.028328
0.028442 0.028442 0.028442
0.028556 0.028556 0.028556
0.028669 0.028669 0.028669
0.028783 0.028783 0.028783
0.028898 0.028898 0.028898
0.029012 0.029012 0.029012
0.029126 0.029126 0.029126
0.029241 0.029241 0.029241
0.029355 0.029355 0.029355
0.02947 0.02947 0.02947
0.029585 0.029585 0.029585
0.0297 0.0297 0.0297
0.029815 0.029815 0.029815
0.02993 0.02993 0.02993
0.030045 0.030045 0.030045
0.030161 0.030161 0.030161
0.030277 0.030277 0.030277
0.030392 0.030392 0.030392
0.030508 0.030508 0.030508
0.030624 0.030624 0.030624
0.03074 0.03074 0.03074
0.030857 0.030857 0.030857
0.030973 0.030973 0.030973
0.03109 0.03109 0.03109
0.031206 0.031206 0.031206
0.031323 0.031323 0.031323
0.031441 0.031441 0.031441
0.031558 0.031558 0.031558
0.031675 0.031675 0.031675
0.031792 0.031792 0.031792
0.031909 0.031909 0.031909
0.032027 0.032027 0.032027
0.032145 0.032145 0.032145
0.032262 0.032262 0.032262
0.03238 0.03238 0.03238
0.032498 0.032498 0.032498
0.032617 0.032617 0.032617
0.032735 0.032735 0.032735
0.032853 0.032853 0.032853
0.032972 0.032972 0.032972
0.033091 0.033091 0.033091
0.033209 0.033209 0.033209
0.033328 0.033328 0.033328
0.033448 0.033448 0.033448
0.033567 0.033567 0.033567
0.033686 0.033686 0.033686
0.033806 0.033806 0.033806
0.033925 0.033925 0.033925
0.034045 0.034045 0.034045
0.034165 0.034165 0.034165
0.034285 0.034285 0.034285
0.034406 0.034406 0.034406
0.034526 0.034526 0.034526
0.034646 0.034646 0.034646
0.034767 0.034767 0.034767
0.034888 0.034888 0.034888
0.035009 0.035009 0.035009
0.03513 0.03513 0.03513
0.035251 0.035251 0.035251
0.035372 0.035372 0.035372
0.035494 0.035494 0.035494
0.035615 0.035615 0.035615
0.035737 0.035737 0.035737
0.035859 0.035859 0.035859
0.035981 0.035981 0.035981
0.036103 0.036103 0.036103
0.036225 0.036225 0.036225
0.036348 0.036348 0.036348
0.03647 0.03647 0.03647
0.036593 0.036593 0.036593
0.036716 0.036716 0.036716
0.036839 0.036839 0.036839
0.036962 0.036962 0.036962
0.037085 0.037085 0.037085
0.037208 0.037208 0.037208
0.037332 0.037332 0.037332
0.037455 0.037455 0.037455
0.037579 0.037579 0.037579
0.037703 0.037703 0.037703
0.037827 0.037827 0.037827
0.037951 0.037951 0.037951
0.038076 0.038076 0.038076
0.0382 0.0382 0.0382
0.038326 0.038326 0.038326
0.03845 0.03845 0.03845
0.038575 0.038575 0.038575
0.0387 0.0387 0.0387
0.038826 0.038826 0.038826
0.038951 0.038951 0.038951
0.039077 0.039077 0.039077
0.039202 0.039202 0.039202
0.039328 0.039328 0.039328
0.039454 0.039454 0.039454
0.03958 0.03958 0.03958
0.039706 0.039706 0.039706
0.039833 0.039833 0.039833
0.039959 0.039959 0.039959
0.040086 0.040086 0.040086
0.040213 0.040213 0.040213
0.04034 0.04034 0.04034
0.040467 0.040467 0.040467
0.040594 0.040594 0.040594
0.040722 0.040722 0.040722
0.040849 0.040849 0.040849
0.040977 0.040977 0.040977
0.041105 0.041105 0.041105
0.041233 0.041233 0.041233
0.041361 0.041361 0.041361
0.041489 0.041489 0.041489
0.041618 0.041618 0.041618
0.041746 0.041746 0.041746
0.041875 0.041875 0.041875
0.042004 0.042004 0.042004
0.042133 0.042133 0.042133
0.042262 0.042262 0.042262
0.042392 0.042392 0.042392
0.042522 0.042522 0.042522
0.042652 0.042652 0.042652
0.042781 0.042781 0.042781
0.042911 0.042911 0.042911
0.043042 0.043042 0.043042
0.043172 0.043172 0.043172
0.043302 0.043302 0.043302
0.043433 0.043433 0.043433
0.043564 0.043564 0.043564
0.043694 0.043694 0.043694
0.043826 0.043826 0.043826
0.043957 0.043957 0.043957
0.044088 0.044088 0.044088
0.04422 0.04422 0.04422
0.044352 0.044352 0.044352
0.044483 0.044483 0.044483
0.044615 0.044615 0.044615
0.044747 0.044747 0.044747
0.04488 0.04488 0.04488
0.045012 0.045012 0.045012
0.045145 0.045145 0.045145
0.045278 0.045278 0.045278
0.045411 0.045411 0.045411
0.045544 0.045544 0.045544
0.045677 0.045677 0.045677
0.04581 0.04581 0.04581
0.045944 0.045944 0.045944
0.046078 0.046078 0.046078
0.046211 0.046211 0.046211
0.046345 0.046345 0.046345
0.04648 0.04648 0.04648
0.046615 0.046615 0.046615
0.046749 0.046749 0.046749
0.046884 0.046884 0.046884
0.047019 0.047019 0.047019
0.047154 0.047154 0.047154
0.047289 0.047289 0.047289
0.047424 0.047424 0.047424
0.04756 0.04756 0.04756
0.047695 0.047695 0.047695
0.047832 0.047832 0.047832
0.047967 0.047967 0.047967
0.048104 0.048104 0.048104
0.04824 0.04824 0.04824
0.048376 0.048376 0.048376
0.048513 0.048513 0.048513
0.04865 0.04865 0.04865
0.048787 0.048787 0.048787
0.048924 0.048924 0.048924
0.049061 0.049061 0.049061
0.049199 0.049199 0.049199
0.049336 0.049336 0.049336
0.049474 0.049474 0.049474
0.049612 0.049612 0.049612
0.04975 0.04975 0.04975
0.049888 0.049888 0.049888
0.050027 0.050027 0.050027
0.050165 0.050165 0.050165
0.050304 0.050304 0.050304
0.050443 0.050443 0.050443
0.050582 0.050582 0.050582
0.050721 0.050721 0.050721
0.050861 0.050861 0.050861
0.051001 0.051001 0.051001
0.051141 0.051141 0.051141
0.05128 0.05128 0.05128
0.051421 0.051421 0.051421
0.051561 0.051561 0.051561
0.051701 0.051701 0.051701
0.051843 0.051843 0.051843
0.051984 0.051984 0.051984
0.052124 0.052124 0.052124
0.052266 0.052266 0.052266
0.052407 0.052407 0.052407
0.052548 0.052548 0.052548
0.05269 0.05269 0.05269
0.052832 0.052832 0.052832
0.052974 0.052974 0.052974
0.053116 0.053116 0.053116
0.053258 0.053258 0.053258
0.053401 0.053401 0.053401
0.053544 0.053544 0.053544
0.053686 0.053686 0.053686
0.053829 0.053829 0.053829
0.053973 0.053973 0.053973
0.054116 0.054116 0.054116
0.05426 0.05426 0.05426
0.054403 0.054403 0.054403
0.054547 0.054547 0.054547
0.054691 0.054691 0.054691
0.054836 0.054836 0.054836
0.05498 0.05498 0.05498
0.055125 0.055125 0.055125
0.055269 0.055269 0.055269
0.055414 0.055414 0.055414
0.055559 0.055559 0.055559
0.055705 0.055705 0.055705
0.055851 0.055851 0.055851
0.055997 0.055997 0.055997
0.056143 0.056143 0.056143
0.056289 0.056289 0.056289
0.056435 0.056435 0.056435
0.056581 0.056581 0.056581
0.056728 0.056728 0.056728
0.056875 0.056875 0.056875
0.057021 0.057021 0.057021
0.057169 0.057169 0.057169
0.057316 0.057316 0.057316
0.057463 0.057463 0.057463
0.057611 0.057611 0.057611
0.057759 0.057759 0.057759
0.057907 0.057907 0.057907
0.058055 0.058055 0.058055
0.058203 0.058203 0.058203
0.058352 0.058352 0.058352
0.0585 0.0585 0.0585
0.058649 0.058649 0.058649
0.058798 0.058798 0.058798
0.058948 0.058948 0.058948
0.059097 0.059097 0.059097
0.059247 0.059247 0.059247
0.059397 0.059397 0.059397
0.059547 0.059547 0.059547
0.059697 0.059697 0.059697
0.059847 0.059847 0.059847
0.059998 0.059998 0.059998
0.060149 0.060149 0.060149
0.0603 0.0603 0.0603
0.060451 0.060451 0.060451
0.060603 0.060603 0.060603
0.060754 0.060754 0.060754
0.060906 0.060906 0.060906
0.061058 0.061058 0.061058
0.06121 0.06121 0.06121
0.061362 0.061362 0.061362
0.061514 0.061514 0.061514
0.061667 0.061667 0.061667
0.06182 0.06182 0.06182
0.061973 0.061973 0.061973
0.062126 0.062126 0.062126
0.062279 0.062279 0.062279
0.062433 0.062433 0.062433
0.062586 0.062586 0.062586
0.06274 0.06274 0.06274
0.062894 0.062894 0.062894
0.063049 0.063049 0.063049
0.063203 0.063203 0.063203
0.063358 0.063358 0.063358
0.063512 0.063512 0.063512
0.063668 0.063668 0.063668
0.063823 0.063823 0.063823
0.063979 0.063979 0.063979
0.064135 0.064135 0.064135
0.06429 0.06429 0.06429
0.064447 0.064447 0.064447
0.064603 0.064603 0.064603
0.064759 0.064759 0.064759
0.064916 0.064916 0.064916
0.065072 0.065072 0.065072
0.065229 0.065229 0.065229
0.065387 0.065387 0.065387
0.065544 0.065544 0.065544
0.065701 0.065701 0.065701
0.065859 0.065859 0.065859
0.066017 0.066017 0.066017
0.066175 0.066175 0.066175
0.066334 0.066334 0.066334
0.066492 0.066492 0.066492
0.066651 0.066651 0.066651
0.06681 0.06681 0.06681
0.066969 0.066969 0.066969
0.067128 0.067128 0.067128
0.067288 0.067288 0.067288
0.067447 0.067447 0.067447
0.067607 0.067607 0.067607
0.067768 0.067768 0.067768
0.067928 0.067928 0.067928
0.068089 0.068089 0.068089
0.06825 0.06825 0.06825
0.06841 0.06841 0.06841
0.068572 0.068572 0.068572
0.068733 0.068733 0.068733
0.068894 0.068894 0.068894
0.069056 0.069056 0.069056
0.069218 0.069218 0.069218
0.06938 0.06938 0.06938
0.069542 0.069542 0.069542
0.069705 0.069705 0.069705
0.069867 0.069867 0.069867
0.07003 0.07003 0.07003
0.070193 0.070193 0.070193
0.070356 0.070356 0.070356
0.07052 0.07052 0.07052
0.070684 0.070684 0.070684
0.070848 0.070848 0.070848
0.071012 0.071012 0.071012
0.071176 0.071176 0.071176
0.071341 0.071341 0.071341
0.071505 0.071505 0.071505
0.07167 0.07167 0.07167
0.071835 0.071835 0.071835
0.072001 0.072001 0.072001
0.072167 0.072167 0.072167
0.072332 0.072332 0.072332
0.072498 0.072498 0.072498
0.072664 0.072664 0.072664
0.072831 0.072831 0.072831
0.072997 0.072997 0.072997
0.073164 0.073164 0.073164
0.073331 0.073331 0.073331
0.073498 0.073498 0.073498
0.073665 0.073665 0.073665
0.073833 0.073833 0.073833
0.074001 0.074001 0.074001
0.074169 0.074169 0.074169
0.074337 0.074337 0.074337
0.074506 0.074506 0.074506
0.074674 0.074674 0.074674
0.074843 0.074843 0.074843
0.075012 0.075012 0.075012
0.075181 0.075181 0.075181
0.075351 0.075351 0.075351
0.075521 0.075521 0.075521
0.07569 0.07569 0.07569
0.07586 0.07586 0.07586
0.076031 0.076031 0.076031
0.076201 0.076201 0.076201
0.076372 0.076372 0.076372
0.076543 0.076543 0.076543
0.076714 0.076714 0.076714
0.076886 0.076886 0.076886
0.077057 0.077057 0.077057
0.077229 0.077229 0.077229
0.077401 0.077401 0.077401
0.077573 0.077573 0.077573
0.077745 0.077745 0.077745
0.077918 0.077918 0.077918
0.078091 0.078091 0.078091
0.078264 0.078264 0.078264
0.078438 0.078438 0.078438
0.078611 0.078611 0.078611
0.078785 0.078785 0.078785
0.078959 0.078959 0.078959
0.079133 0.079133 0.079133
0.079307 0.079307 0.079307
0.079482 0.079482 0.079482
0.079656 0.079656 0.079656
0.079831 0.079831 0.079831
0.080007 0.080007 0.080007
0.080182 0.080182 0.080182
0.080358 0.080358 0.080358
0.080533 0.080533 0.080533
0.08071 0.08071 0.08071
0.080886 0.080886 0.080886
0.081062 0.081062 0.081062
0.081239 0.081239 0.081239
0.081416 0.081416 0.081416
0.081593 0.081593 0.081593
0.08177 0.08177 0.08177
0.081948 0.081948 0.081948
0.082126 0.082126 0.082126
0.082304 0.082304 0.082304
0.082482 0.082482 0.082482
0.082661 0.082661 0.082661
0.08284 0.08284 0.08284
0.083019 0.083019 0.083019
0.083198 0.083198 0.083198
0.083377 0.083377 0.083377
0.083557 0.083557 0.083557
0.083736 0.083736 0.083736
0.083916 0.083916 0.083916
0.084097 0.084097 0.084097
0.084277 0.084277 0.084277
0.084458 0.084458 0.084458
0.084639 0.084639 0.084639
0.08482 0.08482 0.08482
0.085001 0.085001 0.085001
0.085183 0.085183 0.085183
0.085365 0.085365 0.085365
0.085547 0.085547 0.085547
0.085729 0.085729 0.085729
0.085911 0.085911 0.085911
0.086094 0.086094 0.086094
0.086277 0.086277 0.086277
0.08646 0.08646 0.08646
0.086643 0.086643 0.086643
0.086827 0.086827 0.086827
0.087011 0.087011 0.087011
0.087195 0.087195 0.087195
0.087379 0.087379 0.087379
0.087564 0.087564 0.087564
0.087749 0.087749 0.087749
0.087934 0.087934 0.087934
0.088119 0.088119 0.088119
0.088305 0.088305 0.088305
0.08849 0.08849 0.08849
0.088676 0.088676 0.088676
0.088862 0.088862 0.088862
0.089048 0.089048 0.089048
0.089235 0.089235 0.089235
0.089422 0.089422 0.089422
0.089609 0.089609 0.089609
0.089796 0.089796 0.089796
0.089983 0.089983 0.089983
0.090171 0.090171 0.090171
0.090359 0.090359 0.090359
0.090547 0.090547 0.090547
0.090736 0.090736 0.090736
0.090924 0.090924 0.090924
0.091113 0.091113 0.091113
0.091302 0.091302 0.091302
0.091492 0.091492 0.091492
0.091681 0.091681 0.091681
0.091871 0.091871 0.091871
0.092062 0.092062 0.092062
0.092252 0.092252 0.092252
0.092442 0.092442 0.092442
0.092633 0.092633 0.092633
0.092824 0.092824 0.092824
0.093015 0.093015 0.093015
0.093207 0.093207 0.093207
0.093398 0.093398 0.093398
0.09359 0.09359 0.09359
0.093782 0.093782 0.093782
0.093975 0.093975 0.093975
0.094167 0.094167 0.094167
0.09436 0.09436 0.09436
0.094553 0.094553 0.094553
0.094746 0.094746 0.094746
0.09494 0.09494 0.09494
0.095134 0.095134 0.095134
0.095328 0.095328 0.095328
0.095522 0.095522 0.095522
0.095716 0.095716 0.095716
0.095911 0.095911 0.095911
0.096107 0.096107 0.096107
0.096302 0.096302 0.096302
0.096497 0.096497 0.096497
0.096693 0.096693 0.096693
0.096889 0.096889 0.096889
0.097085 0.097085 0.097085
0.097282 0.097282 0.097282
0.097478 0.097478 0.097478
0.097675 0.097675 0.097675
0.097872 0.097872 0.097872
0.09807 0.09807 0.09807
0.098267 0.098267 0.098267
0.098465 0.098465 0.098465
0.098663 0.098663 0.098663
0.098861 0.098861 0.098861
0.09906 0.09906 0.09906
0.099259 0.099259 0.099259
0.099458 0.099458 0.099458
0.099657 0.099657 0.099657
0.099857 0.099857 0.099857
0.100056 0.100056 0.100056
0.100257 0.100257 0.100257
0.100458 0.100458 0.100458
0.100658 0.100658 0.100658
0.100859 0.100859 0.100859
0.10106 0.10106 0.10106
0.101261 0.101261 0.101261
0.101463 0.101463 0.101463
0.101664 0.101664 0.101664
0.101866 0.101866 0.101866
0.102069 0.102069 0.102069
0.102271 0.102271 0.102271
0.102474 0.102474 0.102474
0.102677 0.102677 0.102677
0.10288 0.10288 0.10288
0.103084 0.103084 0.103084
0.103287 0.103287 0.103287
0.103491 0.103491 0.103491
0.103695 0.103695 0.103695
0.1039 0.1039 0.1039
0.104105 0.104105 0.104105
0.104309 0.104309 0.104309
0.104516 0.104516 0.104516
0.104721 0.104721 0.104721
0.104927 0.104927 0.104927
0.105133 0.105133 0.105133
0.105339 0.105339 0.105339
0.105545 0.105545 0.105545
0.105752 0.105752 0.105752
0.105959 0.105959 0.105959
0.106166 0.106166 0.106166
0.106374 0.106374 0.106374
0.106581 0.106581 0.106581
0.106789 0.106789 0.106789
0.106998 0.106998 0.106998
0.107206 0.107206 0.107206
0.107415 0.107415 0.107415
0.107624 0.107624 0.107624
0.107833 0.107833 0.107833
0.108042 0.108042 0.108042
0.108252 0.108252 0.108252
0.108462 0.108462 0.108462
0.108673 0.108673 0.108673
0.108884 0.108884 0.108884
0.109095 0.109095 0.109095
0.109306 0.109306 0.109306
0.109517 0.109517 0.109517
0.109728 0.109728 0.109728
0.10994 0.10994 0.10994
0.110152 0.110152 0.110152
0.110365 0.110365 0.110365
0.110577 0.110577 0.110577
0.11079 0.11079 0.11079
0.111003 0.111003 0.111003
0.111216 0.111216 0.111216
0.11143 0.11143 0.11143
0.111644 0.111644 0.111644
0.111858 0.111858 0.111858
0.112072 0.112072 0.112072
0.112287 0.112287 0.112287
0.112502 0.112502 0.112502
0.112717 0.112717 0.112717
0.112933 0.112933 0.112933
0.113149 0.113149 0.113149
0.113365 0.113365 0.113365
0.113581 0.113581 0.113581
0.113797 0.113797 0.113797
0.114014 0.114014 0.114014
0.114231 0.114231 0.114231
0.114448 0.114448 0.114448
0.114665 0.114665 0.114665
0.114883 0.114883 0.114883
0.115101 0.115101 0.115101
0.115319 0.115319 0.115319
0.115538 0.115538 0.115538
0.115757 0.115757 0.115757
0.115976 0.115976 0.115976
0.116196 0.116196 0.116196
0.116415 0.116415 0.116415
0.116635 0.116635 0.116635
0.116855 0.116855 0.116855
0.117076 0.117076 0.117076
0.117297 0.117297 0.117297
0.117517 0.117517 0.117517
0.117739 0.117739 0.117739
0.11796 0.11796 0.11796
0.118182 0.118182 0.118182
0.118404 0.118404 0.118404
0.118626 0.118626 0.118626
0.118848 0.118848 0.118848
0.119071 0.119071 0.119071
0.119294 0.119294 0.119294
