site/assets/luts/arri-alexa--linnormalprimarys2arrirec709--c142802ea.cube
# LUTr-Project: LUTr — LUTrepository
# LUTr-Schema-Version: 1
# LUTr-ID: arri-alexa--linnormalprimarys2arrirec709--c142802ea
# LUTr-Title: LinNormalPrimarys2Arrirec709
# LUTr-Collection: ARRI Alexa
# LUTr-Collection-ID: vfxwiki-arri-alexa-luts
# LUTr-Source: https://github.com/vfxwiki/ArriAlexaLuts
# LUTr-Source-File: submissions/vfxwiki-arri-alexa-luts/LinNormalPrimarys2Arrirec709.csp
# LUTr-Source-Format: CSP
# LUTr-Source-SHA256: 6159f222627996828e450ac7432e74458e8b219ecda4e21e3fb0c5873b8b0f7f
# LUTr-License: LGPL-3.0
# LUTr-License-URL: https://github.com/vfxwiki/ArriAlexaLuts/blob/master/LICENSE
# LUTr-Tags: technical, camera, arri, alexa, logc, cube
# LUTr-Transform-Class: camera-transform
# LUTr-Input-Color-Space: Unknown
# LUTr-Output-Color-Space: srgb
# LUTr-Color-Space-Confidence: partial-unverified-input-gamut
# LUTr-Conversion-Method: CSP pre-LUT and 3D mesh evaluated at native grid resolution
# LUTr-Conversion-Date: 2026-07-27
# LUTr-Conversion-Tool: LUTr scripts/convert-all-to-cube.mjs
# LUTr-Conversion-Grid: 32x32x32
# LUTr-Upstream-Metadata: Generated by Foundry::NukeX::MatchGrade
# LUTr-Note: Preserve this metadata and the upstream license notices when redistributing.
TITLE "LinNormalPrimarys2Arrirec709"
LUT_3D_SIZE 8
DOMAIN_MIN 0.000000 0.000000 0.000000
DOMAIN_MAX 0.903226 0.903226 0.903226
0.001047 0.000821 0.000621
0.12099832 0.0011202496 0.00060816934
0.24586819 0.0016604531 0.0006333752
0.37454042 0.0022274239 0.00067465457
0.50510565 0.0026731458 0.00070748944
0.63640527 0.0030009094 0.00073075554
0.7678524 0.0032277886 0.00074691347
0.89905949 0.0033815001 0.00075768637
0.0012538366 0.120201 0.00076918669
0.12104974 0.11949713 0.0020271679
0.25415645 0.12240986 0.0042500264
0.39912424 0.12559093 0.0068239508
0.54480036 0.12728676 0.0082463828
0.68859074 0.12808929 0.0088325255
0.83140337 0.12852274 0.0091229182
0.97360061 0.12879154 0.0093047153
0.0016819484 0.24103891 0.00087466153
0.12652924 0.2425299 0.0040148237
0.27275984 0.25189277 0.010366178
0.44234066 0.26315349 0.020889615
0.60192225 0.26626951 0.024441803
0.74727802 0.26477769 0.022292805
0.88938775 0.26308557 0.020081344
1.0340175 0.2623655 0.019180949
0.0020015599 0.36193516 0.00094610641
0.13218778 0.36997827 0.0059235643
0.2803212 0.38272969 0.012775628
0.44584462 0.39583569 0.021955789
0.60393983 0.39951767 0.024962987
0.7517679 0.39810275 0.02353688
0.89726048 0.39643623 0.02198612
1.0439727 0.39560361 0.021235301
0.0022275944 0.48284839 0.00099468765
0.13567939 0.49822031 0.0071529532
0.28372865 0.51312217 0.013740933
0.44451794 0.52640081 0.020955018
0.60094248 0.53064259 0.023542756
0.7507389 0.53012681 0.023075873
0.89894958 0.52916516 0.022362315
1.0474098 0.52858844 0.021941823
0.0023875029 0.60376617 0.0010284836
0.1378351 0.62643407 0.0079364176
0.28538084 0.64289159 0.014078933
0.44265426 0.65582624 0.019716263
0.59780628 0.66074691 0.022084725
0.74901438 0.66145443 0.022377661
0.89914563 0.66141127 0.022305867
1.0491986 0.6613842 0.022261165
0.0024931603 0.72468367 0.0010513049
0.13913624 0.7544014 0.0084198743
0.28632118 0.77246768 0.014245697
0.44127228 0.78505672 0.018838381
0.59554584 0.79066059 0.021067063
0.74771469 0.79265745 0.021864058
0.89913395 0.79356756 0.022222794
1.0502818 0.79412764 0.022445758
0.0025625176 0.84559847 0.0010661864
0.13994396 0.88202954 0.0087237439
0.28690723 0.90191901 0.014350117
0.44037076 0.91445894 0.018277641
0.59405553 0.92075293 0.020410295
0.74686591 0.9239524 0.021532027
0.89912588 0.92573008 0.02216901
1.0509786 0.92681757 0.022564871
0.0016843829 0.0010634175 0.11956355
0.1332551 0.010833389 0.11638073
0.28308227 0.038695427 0.11306528
0.43817593 0.038842318 0.11256871
0.60401376 0.023577035 0.11217393
0.75355628 0.027370329 0.11507729
0.90532771 0.02814537 0.11658366
1.0574511 0.028669854 0.1171072
0.024995894 0.11478375 0.1152113
0.11370484 0.11396516 0.11414064
0.25528273 0.11487947 0.11383639
0.43031424 0.11793729 0.11305138
0.59302077 0.12109011 0.11314497
0.74634565 0.12491866 0.11532012
0.89863696 0.12682409 0.11656076
1.0534411 0.12716132 0.11680239
0.024288515 0.24297864 0.11956148
0.1172706 0.2404793 0.11703692
0.256521 0.24907103 0.11574591
0.42782754 0.25292305 0.11544059
0.61024022 0.25324579 0.11391075
0.76133139 0.25494166 0.11456692
0.91384146 0.25543173 0.11537087
1.0639755 0.25538653 0.11663678
0.015627292 0.3870161 0.12467897
0.12088851 0.37113915 0.11972486
0.26681272 0.38703116 0.11870893
0.431604 0.40089937 0.11850879
0.59508327 0.40177807 0.11820385
0.75151427 0.39927835 0.11843359
0.90534182 0.39819857 0.11878829
1.0587897 0.39846979 0.11914999
0.012897991 0.53179298 0.12779705
0.12276374 0.50269258 0.12128683
0.26913674 0.52425438 0.12118812
0.42931878 0.53872799 0.12100837
0.58860553 0.54338361 0.12102555
0.7442841 0.54281712 0.12126974
0.89822991 0.54229634 0.12144107
1.0515279 0.54243388 0.1215307
0.012935838 0.67336292 0.1298418
0.12455045 0.63486448 0.12276921
0.26994905 0.66249014 0.12344995
0.42760876 0.67900315 0.1233397
0.58455633 0.68510159 0.12343844
0.73836242 0.68560096 0.12375661
0.89063507 0.68535881 0.12398037
1.0422198 0.68532257 0.12410554
0.013211444 0.81397017 0.13113308
0.12569896 0.76658308 0.12371591
0.27037134 0.80020233 0.12484358
0.42684385 0.81967592 0.12472628
0.58245908 0.82700109 0.12488874
0.7346923 0.82795463 0.12535089
0.88549621 0.82780395 0.12569185
1.0357219 0.82771185 0.12589654
0.01338679 0.9539038 0.13195272
0.12639655 0.8976254 0.12429028
0.27062252 0.93709719 0.12567683
0.42653077 0.95996183 0.12552978
0.5813402 0.96857076 0.12573788
0.73250192 0.96973159 0.12632585
0.88230222 0.9695785 0.12676768
1.0316364 0.96948262 0.12703636
0.0024750111 0.0014027429 0.23966942
0.13955024 0.014757847 0.23645686
0.29608585 0.042222235 0.23737505
0.45401271 0.054388295 0.24351602
0.6125596 0.059517378 0.25022143
0.76216361 0.046662121 0.25345345
0.90888773 0.049617864 0.25711886
1.0579224 0.051380223 0.25803272
0.024264198 0.11858545 0.24218712
0.11702413 0.11743746 0.24019648
0.26136836 0.11992082 0.24332364
0.44286541 0.12073656 0.2474663
0.61214255 0.12207805 0.25212314
0.76361775 0.12269548 0.25420404
0.91198663 0.12480034 0.25888699
1.0592262 0.12602064 0.26077188
0.032995857 0.2505125 0.25363564
0.11721203 0.25137849 0.251437
0.25266612 0.25261733 0.25074137
0.43149878 0.25420644 0.25082447
0.60923875 0.25103924 0.25374636
0.761942 0.25252676 0.25866501
0.91034846 0.25425763 0.26357503
1.0554758 0.25598376 0.26672157
0.0082992998 0.42296564 0.25802831
0.11863643 0.39218154 0.25870616
0.25644487 0.41317739 0.25825617
0.43569648 0.42337406 0.25433411
0.60757574 0.43257839 0.25387709
0.76202188 0.4262334 0.26032521
0.91149026 0.42202575 0.26494769
1.0566754 0.41762004 0.2685686
0.011567239 0.58101423 0.27061759
0.12101043 0.53239713 0.26133208
0.26248747 0.56691607 0.26566082
0.43891328 0.58382291 0.26208538
0.60834091 0.59885021 0.25912597
0.76185084 0.59654037 0.26404829
0.91125727 0.5906222 0.26835921
1.0576805 0.58284679 0.27191597
0.014634742 0.73011783 0.27691653
0.12346183 0.67149215 0.26250357
0.26827439 0.71691836 0.26967853
0.43667933 0.73452236 0.26902203
0.60323832 0.74657843 0.26895371
0.75733664 0.74775421 0.27191502
0.90736848 0.7452551 0.27465838
1.0566301 0.74192099 0.27683497
0.016399321 0.88011536 0.28039065
0.12498387 0.80995763 0.26316696
0.27100276 0.8669292 0.27179987
0.43609403 0.88566854 0.2722586
0.60111752 0.89711485 0.2730034
0.75488453 0.89903067 0.27595984
0.90546511 0.89870567 0.27819292
1.056002 0.89829557 0.27964157
0.016892402 1.0319922 0.28209808
0.12588336 0.94784498 0.26357077
0.27206145 1.0172976 0.27302588
0.4366536 1.0380986 0.273558
0.5998897 1.0478712 0.27501018
0.75368613 1.0514672 0.278002
0.90478318 1.0528077 0.28000104
1.055739 1.0534849 0.28115822
0.0028606088 0.001561202 0.35981098
0.1442619 0.017014183 0.35904198
0.29819158 0.034900434 0.36469713
0.45317254 0.051295275 0.37819763
0.60615642 0.061899868 0.39030892
0.75393423 0.065276352 0.39793522
0.90220122 0.064940069 0.39989349
1.0523933 0.062963991 0.39853147
0.021718493 0.12402599 0.37847147
0.12071349 0.12193683 0.36961662
0.26798306 0.12516968 0.37898829
0.44199773 0.12565999 0.3883802
0.6056815 0.12469974 0.39764371
0.75465685 0.12351415 0.40646447
0.89875319 0.12249535 0.41288845
1.0460127 0.12242011 0.41361453
0.023621749 0.26415127 0.40861777
0.11871029 0.25974297 0.39270485
0.25548896 0.26275938 0.40668706
0.43157965 0.26254464 0.40950152
0.61031928 0.25370329 0.42191693
0.75766017 0.25177895 0.42773085
0.88867911 0.24984904 0.43437258
1.0163508 0.25002286 0.44022835
0.016054682 0.43184463 0.43171273
0.11825052 0.40724652 0.40741811
0.24739029 0.43060305 0.43227972
0.43468586 0.43461933 0.4273559
0.60934913 0.43524309 0.4300195
0.76121487 0.42851517 0.43586233
0.8904992 0.42714871 0.44091615
1.0184816 0.42657947 0.44332627
0.010325287 0.61009545 0.4342658
0.12033539 0.55184481 0.41106934
0.25546838 0.58746934 0.43189212
0.43745212 0.59894863 0.4341923
0.61144983 0.60882327 0.43764092
0.7635631 0.61104659 0.4358926
0.89814026 0.60441224 0.44015668
1.0319864 0.59754345 0.44668976
0.021333456 0.7609084 0.440761
0.12279176 0.69355527 0.41166166
0.26568533 0.73580014 0.43131721
0.43960504 0.75220297 0.43680958
0.60695723 0.76105421 0.43852768
0.75861698 0.76504387 0.44043114
0.89751058 0.76260592 0.44136285
1.0401956 0.75711749 0.44663221
0.023504509 0.91232517 0.44140351
0.12426382 0.83470447 0.41187873
0.27022115 0.88548117 0.43179618
0.43912666 0.90380071 0.43759664
0.60369866 0.91175119 0.4401495
0.75327694 0.91190405 0.44380605
0.89796041 0.90994576 0.44598892
1.041845 0.90778679 0.44695057
0.022086043 1.0604523 0.43908864
0.12509483 0.97566227 0.41204995
0.27143402 1.0370593 0.43301115
0.43720287 1.0539215 0.43720461
0.59947032 1.0592723 0.440207
0.74913938 1.0584189 0.44447156
0.89515095 1.0565409 0.44670912
1.0406524 1.054781 0.44753697
0.0030914807 0.0016553867 0.4799524
0.14691873 0.018464021 0.48181835
0.29928779 0.031393893 0.49052119
0.4531508 0.045970412 0.50610407
0.60529138 0.053237913 0.51502103
0.75536356 0.055302482 0.52019491
0.9051389 0.055974516 0.52297064
1.0550887 0.056349368 0.52453293
0.020117058 0.12687272 0.51417923
0.12308202 0.12527418 0.50053479
0.27014532 0.12903685 0.51561753
0.43385441 0.13016095 0.5273304
0.5940977 0.12931645 0.53729677
0.74508953 0.12661281 0.54818902
0.89386831 0.12550009 0.553226
1.0428304 0.12562934 0.55425571
0.018608964 0.27401144 0.56111166
0.12066477 0.26403592 0.53312695
0.26119356 0.27283806 0.56305246
0.42822337 0.27303927 0.57181286
0.59750961 0.26635082 0.57658407
0.74242181 0.2615845 0.58439589
0.87551777 0.2592567 0.59123182
1.0059469 0.25834321 0.59604317
0.015095939 0.43551029 0.58483113
0.11953604 0.41392089 0.5550037
0.25506867 0.4368769 0.59121226
0.43169385 0.44081516 0.60237332
0.6054389 0.44106285 0.60235284
0.75227055 0.43772292 0.60429345
0.87957961 0.43538234 0.60941071
0.98856272 0.43165767 0.61155731
0.016602775 0.6028017 0.58985565
0.12118238 0.55959373 0.55969584
0.25380806 0.59884995 0.60228826
0.4318255 0.61000375 0.61143934
0.61158421 0.61233907 0.60960951
0.76098812 0.6112949 0.6112302
0.88700894 0.60933377 0.61286793
0.99712419 0.6087692 0.61350667
0.026969542 0.7611569 0.59362502
0.12337878 0.70213356 0.55928674
0.26780798 0.74517391 0.59386434
0.44182739 0.76120417 0.60680389
0.61124786 0.76585292 0.61217331
0.75999353 0.76398768 0.61318702
0.89416082 0.76064367 0.61314149
1.016935 0.75854399 0.6122957
0.028201775 0.91304159 0.59245063
0.12475065 0.84409784 0.55882574
0.27271138 0.89511389 0.59207842
0.44184055 0.91143138 0.60370774
0.60428449 0.91170899 0.60633251
0.75252162 0.9072916 0.61114206
0.8888964 0.90241491 0.6118094
1.0223541 0.89866424 0.61097857
0.024340992 1.0616855 0.58909392
0.12554727 0.98590154 0.5586492
0.2739516 1.046685 0.59281802
0.4392144 1.0589684 0.59944108
0.60094671 1.0581572 0.60349458
0.74688964 1.0520565 0.60769098
0.88704157 1.0469707 0.6090448
1.0259294 1.0433439 0.6087873
0.0032387514 0.0017145184 0.60009115
0.14847253 0.019493562 0.60442267
0.30007302 0.030249399 0.61361068
0.45278194 0.038622178 0.62705845
0.60467223 0.042922282 0.6351269
0.75539786 0.04462659 0.64007811
0.90587025 0.045411205 0.64290212
1.0563814 0.045876312 0.64456259
0.01879307 0.12885614 0.64872715
0.12542829 0.1284672 0.63203771
0.27106781 0.13324869 0.65299841
0.4304165 0.13371 0.66747883
0.58776153 0.13222486 0.67883607
0.7390411 0.12982958 0.68885251
0.88833579 0.12845632 0.69433611
1.0373122 0.12782514 0.69703893
0.018665744 0.27549659 0.6964398
0.12269157 0.26686127 0.6729275
0.26485155 0.27896286 0.71459664
0.42750967 0.27809962 0.72357766
0.58681305 0.27456743 0.72908193
0.73176973 0.2712394 0.73635257
0.8678592 0.26876201 0.74300246
1.0000392 0.26696068 0.74843085
0.016888181 0.43424166 0.7211937
0.12166957 0.4158346 0.69739036
0.26286268 0.43903345 0.74056405
0.43379055 0.44646974 0.75537449
0.59952354 0.44728587 0.75761205
0.74227022 0.44412852 0.75953921
0.87165721 0.44208703 0.76264463
0.98913267 0.43964212 0.76377305
0.017738819 0.59255035 0.72927763
0.1225632 0.5622517 0.70479535
0.26320336 0.59750815 0.7509291
0.43753453 0.60784339 0.7625091
0.60884226 0.61180389 0.76376143
0.75674274 0.61102574 0.76408448
0.87781338 0.61059661 0.76431106
0.98159127 0.61082426 0.76380226
0.021165558 0.74748549 0.7317458
0.12445326 0.70495963 0.70431785
0.27168268 0.748574 0.74893749
0.44396833 0.76155726 0.76104438
0.61023921 0.76318855 0.76176356
0.7584137 0.75822517 0.76250777
0.89081442 0.75612605 0.76155568
0.994861 0.76009279 0.75934681
0.022543249 0.90023055 0.73203196
0.12576095 0.84691773 0.70337773
0.27585324 0.89977811 0.74848727
0.44397239 0.91120183 0.757711
0.60687499 0.90736084 0.75758065
0.7528631 0.89995919 0.75797576
0.88699597 0.89175006 0.75868194
1.0151763 0.88879939 0.7565757
0.022568168 1.0517704 0.73160947
0.12655778 0.98872834 0.70282376
0.27725202 1.0517589 0.74933884
0.44161236 1.0589645 0.75413001
0.60359811 1.0526781 0.75443243
0.74777192 1.0432758 0.75417067
0.88163819 1.0336212 0.7546913
1.0182873 1.0299456 0.75249977
0.0033352442 0.0017536353 0.72023215
0.14944174 0.020148181 0.72685364
0.30056726 0.029550057 0.73665631
0.45252705 0.034098781 0.74809135
0.60422268 0.036365554 0.75496265
0.75541903 0.037474506 0.75918659
0.90644711 0.038067994 0.76166864
1.0574322 0.038428969 0.76316795
0.017933104 0.13019991 0.78311659
0.12686979 0.1304357 0.76290967
0.27161737 0.13581836 0.78944816
0.42842767 0.1358218 0.80660993
0.58412194 0.13383946 0.8197274
0.73536872 0.13116922 0.83076158
0.88478788 0.12956395 0.83703082
1.0336835 0.12869069 0.84049279
0.018332838 0.27708416 0.83758234
0.12383822 0.2685964 0.81216283
0.26629228 0.28245356 0.86693727
0.42765339 0.28124299 0.8769721
0.58453222 0.27803708 0.88242177
0.72925465 0.2747665 0.88857715
0.8689688 0.2725071 0.89340461
1.0068794 0.27095633 0.89713019
0.017290059 0.43481598 0.86571329
0.12262212 0.41739502 0.84067809
0.26623485 0.44014167 0.89166159
0.43242553 0.44511953 0.90434452
0.59401734 0.44537755 0.90671891
0.73724103 0.44303566 0.90850899
0.8701735 0.44172768 0.91010795
0.99921014 0.44145265 0.91139159
0.018019643 0.59014 0.8746397
0.12327629 0.56396191 0.84959245
0.26822869 0.59723433 0.90154375
0.43792169 0.60512477 0.91057988
0.60496825 0.60844725 0.90932026
0.74954044 0.60721843 0.90880981
0.87509539 0.60650817 0.90885001
0.99196001 0.60676842 0.90892715
0.019897014 0.74294875 0.87553329
0.12507665 0.70666092 0.84876548
0.27431989 0.75011678 0.90270479
0.44247469 0.75845645 0.91018347
0.60884571 0.75879406 0.90278614
0.75898995 0.75441307 0.89867177
0.88560022 0.75386096 0.89930739
0.98778664 0.75657607 0.8969944
0.02126258 0.89493406 0.8754549
0.12637339 0.84860158 0.84737567
0.27758123 0.90233017 0.90340515
0.44314663 0.90877269 0.908233
0.6066848 0.90302524 0.89995166
0.75327068 0.89352862 0.89332154
0.88397122 0.88522882 0.89278287
1.0045415 0.88209791 0.88831733
0.022116044 1.0463865 0.87540657
0.12717829 0.99043399 0.84651945
0.2790408 1.0544882 0.90428155
0.4423159 1.0580482 0.90627118
0.60372351 1.0482616 0.89882129
0.74813868 1.0359801 0.89083551
0.87809703 1.0241547 0.88753735
1.0065085 1.0124747 0.87909503
0.0033912966 0.0017759299 0.84037751
0.1499821 0.020517783 0.84902124
0.30084445 0.029163668 0.85966091
0.45237558 0.031613281 0.86976917
0.60394363 0.032690002 0.87562049
0.75543392 0.033314875 0.87903468
0.90683553 0.033683119 0.88104181
1.0581515 0.033910211 0.88227576
0.017441079 0.1309934 0.9168157
0.12766335 0.13152242 0.89291939
0.27191534 0.1372275 0.92471856
0.42736961 0.13696217 0.94455285
0.58219979 0.1346806 0.95958568
0.7333848 0.13174111 0.97222827
0.88283551 0.12998877 0.97940238
1.0316777 0.12903718 0.98335976
0.018050245 0.278116 0.97995781
0.12444116 0.26954407 0.95047337
0.266887 0.28427538 1.0177273
0.42785592 0.2829452 1.0291106
0.58424203 0.27954401 1.0345351
0.72878143 0.27611347 1.0399105
0.8710015 0.27409535 1.043123
1.0137248 0.27297188 1.0449527
0.017278741 0.43549037 1.012286
0.12305288 0.41833664 0.98348952
0.26773198 0.44068785 1.0425282
0.43107875 0.44341674 1.0516677
0.59032322 0.44310865 1.0541347
0.73434716 0.4413065 1.0561326
0.87087202 0.44103096 1.0577647
1.0046359 0.44186879 1.05909
0.01804319 0.59004282 1.0216605
0.12363187 0.56491411 0.99363643
0.2711817 0.5968687 1.0519027
0.43756597 0.60319987 1.0586226
0.60430592 0.60726877 1.0569498
0.74819402 0.60612165 1.0560024
0.87481983 0.60553802 1.0559501
0.99425762 0.60594762 1.056297
0.019858167 0.74186517 1.021433
0.12540867 0.7075868 0.99245392
0.27579463 0.75082867 1.0554199
0.4411407 0.75620253 1.0589462
0.6062521 0.75633911 1.0515109
0.75060511 0.75176778 1.047493
0.88086124 0.74829894 1.0436243
1.0030786 0.74879108 1.0441923
0.021197699 0.8929687 1.0204948
0.12670787 0.84951844 0.99067473
0.2784651 0.90363515 1.0570034
0.44228455 0.90706805 1.0582595
0.60497554 0.90115233 1.0468585
0.74760885 0.89248462 1.0405708
0.88429152 0.87876849 1.0226479
1.0060202 0.87717841 1.0273452
0.022045476 1.0436607 1.0199204
0.12751951 0.99137026 0.98957082
0.27994916 1.055872 1.0579112
0.44252406 1.0574032 1.0576227
0.60353391 1.0460711 1.0439539
0.74444129 1.0340823 1.0363438
0.87774287 1.0191059 1.022448
1.0021451 1.0037195 1.0113233
