site/assets/luts/arri-alexa--linaces2rec709a--20d412c53.cube
# LUTr-Project: LUTr — LUTrepository
# LUTr-Schema-Version: 1
# LUTr-ID: arri-alexa--linaces2rec709a--20d412c53
# LUTr-Title: LinAces2rec709A
# LUTr-Collection: ARRI Alexa
# LUTr-Collection-ID: vfxwiki-arri-alexa-luts
# LUTr-Source: https://github.com/vfxwiki/ArriAlexaLuts
# LUTr-Source-File: submissions/vfxwiki-arri-alexa-luts/LinAces2rec709A.csp
# LUTr-Source-Format: CSP
# LUTr-Source-SHA256: 88e44b5ef6985fa73fc1d9a16e12d86b713efd2b07385b3dc169323cdc359544
# LUTr-License: LGPL-3.0
# LUTr-License-URL: https://github.com/vfxwiki/ArriAlexaLuts/blob/master/LICENSE
# LUTr-Tags: technical, camera, arri, alexa, logc, cube
# LUTr-Transform-Class: camera-transform
# LUTr-Input-Color-Space: Unknown
# LUTr-Output-Color-Space: srgb
# LUTr-Color-Space-Confidence: partial-unverified-input-gamut
# LUTr-Conversion-Method: CSP pre-LUT and 3D mesh evaluated at native grid resolution
# LUTr-Conversion-Date: 2026-07-27
# LUTr-Conversion-Tool: LUTr scripts/convert-all-to-cube.mjs
# LUTr-Conversion-Grid: 32x32x32
# LUTr-Upstream-Metadata: Generated by Foundry::NukeX::MatchGrade
# LUTr-Note: Preserve this metadata and the upstream license notices when redistributing.
TITLE "LinAces2rec709A"
LUT_3D_SIZE 8
DOMAIN_MIN 0.000000 0.000000 0.000000
DOMAIN_MAX 0.903226 0.903226 0.903226
0.041023 0.041224 0.03948
0.134815 0.045376 0.041237
0.283932 0.046005 0.026993
0.437085 0.040427 0.027991
0.552916 0.036698 0.039257
0.661606 0.044593 0.040617
0.770541 0.047116 0.036912
0.882517 0.045486 0.035626
0.018938139 0.14294323 0.029057106
0.13786796 0.13923559 0.042375139
0.27327966 0.14103386 0.048651036
0.42699659 0.14628013 0.059314569
0.54509772 0.15374806 0.076104964
0.65627514 0.15857622 0.065521964
0.76751544 0.16625033 0.043734969
0.87996614 0.16860788 0.036499854
0.016806629 0.27038099 0.02164455
0.14118039 0.2693253 0.026987132
0.27213528 0.26861079 0.040032651
0.40981316 0.2734011 0.038318129
0.53087919 0.2770546 0.062778608
0.64629964 0.28000714 0.069873841
0.76214295 0.28354853 0.048732167
0.87479937 0.28517254 0.038031025
0.016113562 0.39965933 0.025674595
0.14304518 0.40028752 0.027995204
0.27313787 0.40424795 0.027826093
0.39885787 0.40695251 0.029381436
0.51798766 0.40658922 0.035373537
0.63595535 0.40353454 0.044777817
0.74839092 0.39998536 0.044191368
0.86551704 0.39824095 0.040591542
0.016170758 0.52500632 0.032075094
0.14266891 0.5259763 0.032255692
0.26743187 0.52925998 0.031540021
0.38723094 0.53007997 0.03283965
0.50246017 0.52653645 0.036275194
0.61634519 0.51985126 0.040786425
0.73093249 0.51349975 0.04362037
0.85162246 0.51032422 0.044356909
0.014549227 0.64813545 0.033632195
0.13996761 0.64900315 0.033789697
0.2609118 0.65094489 0.03414148
0.37660417 0.64995452 0.036012991
0.48836026 0.64382772 0.039921823
0.60162149 0.63655619 0.043489972
0.71877547 0.63043264 0.045445714
0.84099212 0.62676059 0.04631076
0.0080904564 0.76935034 0.031748199
0.1333222 0.76984773 0.031813816
0.25414305 0.77092247 0.031956601
0.3682439 0.76892155 0.034453413
0.47775297 0.76270628 0.039749163
0.59213963 0.75688458 0.043569058
0.71258536 0.75243621 0.044792508
0.8370529 0.74966894 0.04504614
0.00038997394 0.89034674 0.028841235
0.12588257 0.89053563 0.028918309
0.24756627 0.89092845 0.029078021
0.36144249 0.88898552 0.032562109
0.47076576 0.88457095 0.039254078
0.5869287 0.88086603 0.043289066
0.70975427 0.87792698 0.043899123
0.83581542 0.87599509 0.043581562
0.024014576 0.017872642 0.14537855
0.14219217 0.018832956 0.14602398
0.28708788 0.054941149 0.146845
0.43859824 0.064297486 0.15179475
0.5545371 0.060497096 0.15561656
0.65591923 0.058094579 0.15864833
0.76013893 0.056413449 0.16151932
0.87015441 0.053349141 0.16353751
0.032939572 0.14147239 0.14530728
0.14021757 0.1429268 0.14783718
0.28133873 0.14181306 0.14784795
0.43346649 0.14676776 0.15196558
0.54821143 0.15784313 0.15861374
0.6518215 0.17059036 0.16202181
0.76075513 0.17201231 0.16528826
0.8734328 0.17115696 0.16424472
0.024679567 0.27281383 0.15118908
0.14040501 0.27308247 0.15068834
0.27307026 0.2746304 0.15023386
0.40797403 0.27791078 0.15337408
0.53085167 0.28028072 0.15884341
0.64692941 0.28358644 0.1699775
0.7573284 0.28692945 0.16857423
0.87199007 0.28536738 0.16535426
0.013311415 0.40267818 0.15903705
0.14306794 0.40436268 0.15785085
0.27314908 0.40682163 0.15706103
0.39682191 0.40820325 0.15773851
0.51074561 0.40630348 0.1611936
0.62815354 0.40131812 0.16927863
0.7422339 0.39795542 0.17016525
0.86211602 0.39644501 0.16777675
0.015317797 0.52319672 0.16429405
0.14277378 0.5251864 0.1620585
0.26680406 0.52810787 0.16122835
0.38527655 0.52831844 0.16399795
0.4979294 0.52378672 0.16800885
0.6079705 0.51513922 0.1730485
0.72133027 0.50709254 0.17628156
0.84677231 0.50622138 0.17305152
0.016177234 0.64321088 0.16308315
0.14086888 0.64462116 0.16224505
0.26044993 0.64751729 0.16206537
0.37531727 0.64742972 0.16410205
0.4857214 0.64124069 0.16855749
0.59408394 0.63215985 0.17540519
0.70994693 0.62534362 0.17923914
0.83718017 0.62329197 0.17509589
0.012266568 0.76170478 0.15937722
0.13618578 0.76302767 0.15925689
0.25407238 0.76577633 0.15905957
0.36646155 0.76540974 0.1608412
0.47625294 0.75978191 0.16559841
0.58959682 0.75351477 0.17025321
0.70989325 0.74894052 0.17174554
0.83587907 0.74643712 0.1702081
0.0083900092 0.8809902 0.15631531
0.13170984 0.88235302 0.15616909
0.24855872 0.88524737 0.1558585
0.35970924 0.88554841 0.15828043
0.46980864 0.88168718 0.16389012
0.58644826 0.87771614 0.16740404
0.70932755 0.87444445 0.16759215
0.83545328 0.87231244 0.16696567
0.018827167 0.012386827 0.27612221
0.14450407 0.013110596 0.27718046
0.28468185 0.020995747 0.27919011
0.42477465 0.038048595 0.28250477
0.54036019 0.07187559 0.28701374
0.64869537 0.076954115 0.29103573
0.74317503 0.087736053 0.29302444
0.84983541 0.068699295 0.2938796
0.02530647 0.14184703 0.2797092
0.14197086 0.14092328 0.28008232
0.27875821 0.14502877 0.28213173
0.4237215 0.14965403 0.28419994
0.541673 0.15547696 0.28954174
0.64509142 0.16705492 0.2929173
0.74740475 0.17065916 0.294006
0.85673652 0.16959785 0.29179122
0.026553386 0.27836955 0.28823736
0.14254122 0.2768704 0.28514042
0.27382867 0.2797065 0.28929914
0.41258854 0.28020813 0.28951493
0.53329355 0.28141837 0.29219965
0.63873554 0.28369361 0.29407416
0.74379076 0.28609656 0.29489285
0.85545486 0.27960642 0.28983355
0.0088028131 0.40476859 0.29299522
0.14509951 0.40563606 0.28990856
0.27443676 0.4079351 0.29170998
0.39692797 0.40612119 0.29426196
0.50771748 0.40426102 0.29598918
0.62280304 0.40125412 0.29703461
0.7350845 0.39806862 0.29406026
0.85122818 0.39430618 0.28887406
0.021723775 0.51420168 0.29801426
0.1449078 0.51985444 0.29178089
0.26740923 0.5257971 0.29167994
0.38510574 0.52429386 0.29463086
0.49594159 0.51743815 0.29941074
0.60047891 0.51013421 0.30441899
0.71430927 0.50261916 0.30365391
0.84126069 0.50219874 0.29505699
0.020472739 0.62558448 0.29256498
0.14325297 0.63252564 0.28998035
0.26008641 0.64080715 0.28903848
0.3732621 0.64153932 0.29037865
0.48320633 0.6350408 0.29481034
0.59000405 0.62585111 0.30199296
0.70124122 0.61670219 0.30898505
0.8323579 0.61569459 0.29852319
0.019459193 0.7446201 0.2867037
0.1414595 0.74951749 0.28567259
0.25390084 0.75626597 0.28445509
0.36296595 0.75846063 0.28475177
0.47371786 0.75357791 0.2879182
0.58700035 0.74649557 0.29148845
0.70633429 0.74082069 0.29269597
0.83303224 0.73829208 0.29018301
0.020268799 0.86665471 0.2830005
0.14060027 0.86972982 0.28243577
0.25010312 0.87611959 0.28119593
0.3566211 0.87945289 0.28137271
0.4678631 0.87589246 0.28404879
0.58501055 0.87068922 0.28596704
0.70764143 0.8664386 0.28557075
0.83427851 0.86415425 0.2842228
0.017951103 0.015474017 0.41033145
0.14571229 0.016583319 0.41154051
0.27829344 0.020959085 0.41339868
0.40689116 0.028261245 0.41579347
0.52427579 0.04369749 0.41980386
0.63808327 0.052571833 0.42216596
0.74028401 0.055058937 0.42204255
0.8460913 0.059116461 0.42089313
0.019495733 0.14755483 0.41476644
0.14607278 0.14719131 0.41445793
0.27623533 0.1492715 0.41582568
0.40619814 0.15285729 0.4182566
0.52389023 0.16052857 0.42084355
0.63303165 0.16510342 0.42231055
0.73663462 0.16580958 0.42141118
0.84294709 0.15635207 0.41691491
0.01751363 0.28095645 0.41769032
0.14617424 0.27886793 0.41743721
0.27390362 0.27899598 0.41930026
0.40080346 0.27864475 0.42035078
0.51809585 0.27991889 0.42123587
0.62695136 0.28337632 0.42056913
0.73109099 0.285406 0.4171256
0.83945982 0.27271516 0.41421202
0.017991689 0.40644809 0.41320201
0.14523133 0.4024313 0.41756968
0.27088328 0.40331835 0.41989521
0.3945809 0.40181498 0.41909116
0.50894423 0.39889363 0.41960175
0.62279064 0.4005143 0.41687585
0.72585754 0.39590804 0.41742473
0.84086374 0.38742049 0.40949816
0.02897463 0.50411101 0.42153404
0.14480742 0.51153225 0.41720756
0.26551277 0.52014629 0.41793015
0.38503784 0.51788561 0.41649713
0.49649067 0.50861433 0.41753654
0.60196335 0.50635683 0.41865095
0.71555281 0.50222427 0.41631064
0.84211858 0.49681378 0.40708277
0.01185348 0.60844013 0.41818103
0.14372631 0.62147552 0.41459737
0.25820831 0.63288832 0.41347197
0.37135291 0.63342189 0.41157064
0.48323539 0.62603941 0.41200505
0.59075291 0.61642052 0.41645406
0.69825593 0.60777182 0.42180626
0.83199656 0.60612682 0.41209764
0.026112255 0.72829006 0.41052902
0.14593759 0.73767959 0.41036673
0.25279003 0.74778141 0.40840972
0.3595015 0.75081236 0.4059841
0.47122561 0.74553121 0.40537544
0.58337672 0.73654671 0.40763593
0.70143429 0.728985 0.40949295
0.8306338 0.72621808 0.40591968
0.028963492 0.85585087 0.40899982
0.14654649 0.86079658 0.40817644
0.25015021 0.86890572 0.40536174
0.35304095 0.87310047 0.40262444
0.4650938 0.86916482 0.401608
0.58260848 0.86257507 0.40170907
0.70616163 0.85779541 0.40049747
0.83458969 0.85555508 0.39841746
0.015978844 0.018670623 0.5436911
0.14446523 0.019623871 0.5444625
0.27229692 0.021724583 0.54616121
0.39511513 0.024614245 0.54748149
0.51121487 0.0306923 0.54806437
0.62501806 0.032812254 0.54736935
0.73533615 0.029266956 0.54505099
0.85084374 0.024544322 0.54295927
0.016447897 0.14736376 0.54420932
0.14413466 0.14757319 0.54450703
0.27085979 0.14874236 0.54587972
0.39365196 0.15048179 0.54699827
0.50915501 0.1537207 0.54690595
0.62126082 0.15476804 0.54555072
0.72887517 0.15161311 0.54296477
0.84518975 0.13960334 0.53946262
0.016014068 0.27583549 0.54181509
0.14323193 0.27463523 0.54347616
0.26776982 0.27359081 0.54497208
0.38878824 0.27275732 0.54505822
0.50384469 0.2732653 0.5440877
0.61457851 0.27519164 0.54150082
0.72411266 0.27275973 0.53787381
0.84113562 0.2592271 0.53193927
0.017168869 0.40168137 0.53549679
0.14258132 0.39692461 0.54063995
0.26359568 0.39408404 0.54289849
0.38265588 0.39170172 0.54093556
0.49858179 0.38872355 0.53810131
0.6089712 0.39115159 0.53560198
0.72055179 0.39257586 0.52941623
0.83496736 0.3854603 0.52169116
0.016759824 0.4990984 0.53825587
0.14171548 0.50401954 0.53972159
0.2590079 0.50990416 0.53980281
0.37522746 0.50862152 0.53597807
0.49338752 0.50260602 0.52784822
0.60240925 0.49871371 0.52797372
0.71539559 0.50330353 0.52418219
0.84446897 0.4891045 0.518682
0.016761427 0.60014866 0.53458168
0.14337084 0.61374716 0.53755092
0.25408405 0.62425053 0.5354871
0.36616185 0.62486157 0.53044443
0.48285999 0.61641325 0.52336573
0.5922515 0.60652519 0.52279362
0.70039053 0.60320925 0.52303175
0.84256607 0.59730512 0.51628415
0.039176109 0.72094918 0.53295922
0.1489261 0.73168003 0.53442772
0.25034933 0.74098503 0.53067634
0.35501991 0.74343756 0.52503792
0.46787973 0.7357627 0.51842584
0.58211126 0.72662059 0.51585355
0.69960792 0.71997593 0.51871429
0.83842883 0.71921602 0.51499702
0.034906815 0.85176441 0.5348127
0.14938426 0.85626127 0.53315537
0.24840405 0.86311417 0.52770594
0.34880745 0.86637526 0.52153192
0.46179758 0.86156043 0.51635108
0.58101957 0.85542445 0.51280349
0.70855367 0.85237357 0.50828613
0.84438135 0.85329217 0.50467732
0.012799546 0.017746047 0.6732531
0.14061888 0.018190136 0.67382216
0.26705829 0.019140081 0.6750373
0.38877121 0.020385852 0.67545834
0.50391439 0.021785422 0.67423674
0.61769841 0.020289252 0.6718427
0.73318568 0.013971252 0.66852172
0.85362169 0.008513052 0.66613723
0.012763192 0.14514883 0.67244804
0.14007519 0.14524471 0.67286955
0.26540992 0.14545227 0.67377105
0.38618334 0.14570352 0.67368879
0.50107798 0.14595288 0.67177343
0.61528191 0.14358624 0.66870248
0.73111567 0.13701135 0.66487404
0.852399 0.12960185 0.66192395
0.012641516 0.27101493 0.67028578
0.1389113 0.2700878 0.67068417
0.26182167 0.26853683 0.67101474
0.38061409 0.26658899 0.66981822
0.49506971 0.26456619 0.66651153
0.61008134 0.26096841 0.66200195
0.72803424 0.25399018 0.65685807
0.857922 0.23261364 0.64936466
0.013176474 0.39249114 0.66732806
0.13779918 0.39015782 0.66786095
0.25714905 0.38772249 0.66725616
0.37342616 0.38449454 0.66423461
0.48816974 0.37973115 0.65897801
0.60350306 0.37634709 0.6539848
0.72040052 0.37284434 0.6472688
0.85740278 0.34957877 0.63780917
0.013673623 0.50067772 0.66622596
0.13675339 0.50196669 0.6655075
0.25199104 0.50301098 0.66283104
0.36531003 0.50073482 0.65759632
0.48045938 0.49343605 0.64930299
0.59592822 0.48710467 0.64288488
0.71479408 0.48505017 0.63645401
0.8430731 0.48339613 0.62598487
0.017461073 0.61141181 0.66466237
0.1378513 0.6151247 0.66300713
0.24783203 0.61900138 0.65839643
0.35769577 0.61851685 0.6518322
0.47170986 0.60957794 0.64148518
0.58812585 0.59963263 0.62938216
0.70521674 0.59492435 0.62810899
0.85339646 0.59078336 0.61882758
0.02532028 0.73011157 0.66280198
0.14177977 0.73344881 0.66047282
0.24543011 0.73787669 0.65431307
0.35030479 0.73876463 0.64683462
0.46242432 0.72908815 0.63508236
0.57912248 0.71831429 0.62380307
0.69667562 0.71536317 0.62140114
0.85081448 0.71679275 0.6206425
0.028352039 0.85461823 0.66219505
0.14379537 0.85689581 0.65904191
0.24425841 0.8610713 0.65181388
0.34592023 0.86263569 0.64369707
0.45885745 0.85713696 0.63523235
0.57580191 0.85096016 0.62483886
0.707865 0.85404326 0.61982144
0.85778297 0.86461978 0.61560836
0.00616926 0.012701512 0.80025682
0.13344808 0.012407578 0.80019123
0.25892583 0.011812756 0.80006006
0.38104448 0.010918527 0.79909753
0.49877418 0.0096936024 0.79688267
0.61623011 0.0068441162 0.79409662
0.73580952 0.001433535 0.79107466
0.85895641 -0.0029146154 0.78895495
0.0056107442 0.13974947 0.79935721
0.13252757 0.1391975 0.79914854
0.25727566 0.13807938 0.79872579
0.3784246 0.13623401 0.79703165
0.49518287 0.13355694 0.7935319
0.6128686 0.1290167 0.78937311
0.73442056 0.12183555 0.78509555
0.85940358 0.11625811 0.7821666
0.0044788271 0.2647118 0.79753417
0.13065894 0.26364352 0.79703028
0.25392114 0.26148386 0.79601268
0.37319174 0.25784138 0.79290312
0.48828353 0.25264936 0.78709161
0.60664868 0.2454044 0.7806631
0.73173971 0.23565041 0.77445597
0.86133041 0.22548856 0.76962343
0.0031834339 0.38573237 0.79531029
0.12811149 0.38436721 0.79416986
0.24892461 0.38163561 0.79188879
0.36615688 0.37692247 0.78717886
0.48062435 0.37012985 0.77967885
0.60003979 0.36207246 0.77226895
0.72726296 0.35284553 0.76527837
0.8668591 0.33503421 0.75621248
0.0018980446 0.5018166 0.79284112
0.12499403 0.50069666 0.79066427
0.24240281 0.49850662 0.78640517
0.35774544 0.49404929 0.78010596
0.47263509 0.48651588 0.77140589
0.59238141 0.47809096 0.76331501
0.71990183 0.47183488 0.75422952
0.86456689 0.45694374 0.74644864
0.0023035906 0.61879822 0.79067027
0.1236132 0.61824025 0.78770565
0.23775417 0.61717046 0.78199208
0.35109059 0.61364554 0.77470921
0.4650093 0.60504956 0.76407415
0.58221284 0.59549348 0.75343343
0.71156314 0.59080228 0.74668322
0.86137536 0.58202795 0.74164247
0.0053620105 0.73903894 0.78900487
0.12510628 0.73907223 0.78573597
0.23623226 0.7391428 0.77943745
0.34698438 0.73686482 0.77175597
0.45986542 0.72915837 0.76098175
0.57522514 0.72081521 0.74992885
0.69749267 0.7160012 0.74367269
0.86843057 0.71165841 0.74415432
0.0079619159 0.86284592 0.78799129
0.12670341 0.86325685 0.78461249
0.23583802 0.86405738 0.77808299
0.34475188 0.86271205 0.77024665
0.45793435 0.8577678 0.76156522
0.57311879 0.85392621 0.75261578
0.70177561 0.86056214 0.75139966
0.86456117 0.88303115 0.74901191
-0.0005774402 0.0072808066 0.92693494
0.12645321 0.0064604469 0.92630282
0.25163146 0.0048796367 0.92508634
0.37465641 0.0025424667 0.92314164
0.49492562 -0.00073532667 0.92025305
0.61566273 -0.0047104582 0.91720019
0.738774 -0.0093906342 0.9143911
0.86429647 -0.012862714 0.91248674
-0.0014683351 0.13422967 0.92611834
0.12539915 0.13328451 0.92537749
0.25028 0.13147183 0.92395715
0.37234121 0.12835983 0.92117888
0.4909369 0.12363519 0.91664643
0.61137356 0.1176578 0.91179402
0.7365385 0.11033202 0.90724324
0.86411705 0.10495538 0.90419311
-0.0031881533 0.25922966 0.92454142
0.12336537 0.25805846 0.92359256
0.24768306 0.25583117 0.92178721
0.36803729 0.2514172 0.91752888
0.48395793 0.2444928 0.9103307
0.60431562 0.23572181 0.90290407
0.73305405 0.22493085 0.89616268
0.86387899 0.21720859 0.89180306
-0.0056610866 0.38195551 0.92228294
0.12005302 0.38034141 0.92072696
0.242897 0.37733178 0.91782527
0.36178091 0.37195408 0.91216013
0.47666649 0.36406942 0.90346823
0.59783375 0.35465138 0.89517271
0.72940848 0.34365733 0.88829825
0.86411001 0.3342754 0.88324063
-0.0090209892 0.50185847 0.91921546
0.1152178 0.49966414 0.91657617
0.23561652 0.49571319 0.91182375
0.35350951 0.48992419 0.90500915
0.46907696 0.48215151 0.8960042
0.59136523 0.47383924 0.88817112
0.72449538 0.46575763 0.88237114
0.86359417 0.45635647 0.87816954
-0.011665593 0.62276348 0.9165371
0.11157445 0.62042984 0.91322981
0.23045224 0.61634189 0.90743334
0.34753342 0.6107549 0.90004673
0.46298237 0.60332021 0.89077418
0.58406843 0.59612642 0.883095
0.71759646 0.59128883 0.8799745
0.87311909 0.57541059 0.87855315
-0.012911936 0.74600796 0.91467096
0.11020241 0.74405339 0.91144122
0.22897048 0.7406678 0.90584301
0.3451281 0.73596546 0.89852117
0.45941197 0.72985893 0.88955458
0.57476287 0.72528132 0.88459381
0.70758853 0.72855716 0.88930179
0.87066145 0.72361273 0.89363588
-0.013493972 0.87140214 0.91351049
0.10972186 0.86982708 0.91050172
0.22870634 0.86711261 0.90530786
0.34418619 0.86323313 0.89816691
0.45767242 0.8584966 0.88976077
0.57365188 0.85897079 0.88959779
0.70618486 0.87092689 0.90409041
0.86159679 0.89350222 0.92941086
