site/assets/luts/arri-alexa--linaces2rec709a--20d412c53.cube
# LUTr-Project: LUTr — LUTrepository
# LUTr-Schema-Version: 1
# LUTr-ID: arri-alexa--linaces2rec709a--20d412c53
# LUTr-Title: LinAces2rec709A
# LUTr-Collection: ARRI Alexa
# LUTr-Collection-ID: vfxwiki-arri-alexa-luts
# LUTr-Source: https://github.com/vfxwiki/ArriAlexaLuts
# LUTr-Source-File: submissions/vfxwiki-arri-alexa-luts/LinAces2rec709A.csp
# LUTr-Source-Format: CSP
# LUTr-Source-SHA256: 88e44b5ef6985fa73fc1d9a16e12d86b713efd2b07385b3dc169323cdc359544
# LUTr-License: LGPL-3.0
# LUTr-License-URL: https://github.com/vfxwiki/ArriAlexaLuts/blob/master/LICENSE
# LUTr-Tags: technical, camera, arri, alexa, logc, cube
# LUTr-Transform-Class: camera-transform
# LUTr-Input-Color-Space: Unknown
# LUTr-Output-Color-Space: srgb
# LUTr-Color-Space-Confidence: partial-unverified-input-gamut
# LUTr-Conversion-Method: CSP pre-LUT and 3D mesh evaluated at native grid resolution
# LUTr-Conversion-Date: 2026-07-27
# LUTr-Conversion-Tool: LUTr scripts/convert-all-to-cube.mjs
# LUTr-Conversion-Grid: 32x32x32
# LUTr-Upstream-Metadata: Generated by Foundry::NukeX::MatchGrade
# LUTr-Note: Preserve this metadata and the upstream license notices when redistributing.
TITLE "LinAces2rec709A"
LUT_3D_SIZE 5
DOMAIN_MIN 0.000000 0.000000 0.000000
DOMAIN_MAX 0.903226 0.903226 0.903226
0.041023 0.041224 0.03948
0.245767 0.053302 0.043487
0.499172 0.035736 0.032557
0.689137 0.046328 0.039537
0.882517 0.045486 0.035626
0.017093984 0.23825161 0.022023983
0.23595024 0.23428467 0.049750855
0.47338843 0.24116533 0.057867812
0.6783884 0.248829 0.070816354
0.87639132 0.25673819 0.037580608
0.016015685 0.46322436 0.029790826
0.2390959 0.46701009 0.029291359
0.45263683 0.46968388 0.031319511
0.65399159 0.46074819 0.040973498
0.85907175 0.45435433 0.042352184
0.013522816 0.6787513 0.033539243
0.22989014 0.68080857 0.033849684
0.43050924 0.67744865 0.037705447
0.62789572 0.664779 0.044283405
0.83940185 0.65690218 0.046285956
0.00038997394 0.89034674 0.028841235
0.21756968 0.89080767 0.029028638
0.41626937 0.886962 0.035684295
0.61716039 0.88010332 0.043716609
0.83581542 0.87599509 0.043581562
0.018873948 0.012981778 0.24333859
0.24793813 0.019691893 0.24591224
0.49128385 0.056434291 0.25105055
0.67373985 0.075749987 0.25710335
0.85553201 0.062162477 0.26097051
0.028493461 0.24197747 0.25114963
0.23880327 0.24432973 0.25262754
0.48270812 0.24579636 0.25560943
0.66899432 0.25418088 0.26053216
0.86138099 0.25219446 0.25919928
0.011279933 0.4619872 0.26297743
0.23943854 0.46865047 0.25787497
0.44722041 0.46349919 0.26384442
0.6404205 0.45455842 0.26831811
0.84913984 0.44957539 0.2613116
0.018599382 0.65951918 0.2589923
0.23006036 0.67053128 0.25652672
0.42651232 0.67035861 0.25957206
0.61643953 0.65544183 0.27132754
0.83279092 0.64824711 0.26740773
0.017278352 0.87030854 0.25137719
0.22306185 0.87676213 0.25025898
0.41246851 0.88004593 0.25231834
0.61567906 0.87175737 0.25704173
0.83462566 0.8665996 0.2554873
0.017007263 0.018030481 0.47804538
0.24244854 0.021005931 0.48001384
0.4582349 0.030338877 0.48332218
0.65985907 0.043780553 0.48562848
0.84782589 0.040137695 0.48233522
0.017806586 0.24612973 0.48027245
0.24035098 0.24513019 0.48210966
0.45644849 0.24566539 0.4838144
0.64870321 0.24968672 0.48144216
0.83887862 0.23724374 0.47415433
0.018450263 0.45876815 0.47343733
0.23507198 0.45675952 0.48031779
0.44494598 0.45322455 0.47463343
0.64001565 0.45183139 0.47286092
0.84035659 0.43923713 0.46682468
0.016430829 0.62962195 0.47292771
0.22837398 0.65514794 0.47413602
0.42315199 0.65554949 0.46794923
0.61543012 0.63743933 0.47027829
0.83396424 0.63031417 0.46518758
0.032314945 0.85304638 0.47191064
0.22585462 0.86373874 0.46810968
0.40586873 0.86867844 0.46063305
0.61219637 0.85749837 0.45751089
0.83856387 0.85334245 0.45172096
0.01154913 0.016935034 0.70526964
0.23400533 0.017625447 0.70638304
0.44559467 0.018957254 0.70625324
0.64592955 0.016369108 0.70200496
0.85446497 0.0059221091 0.69703349
0.011227203 0.23851323 0.70301911
0.2306794 0.23705588 0.70328958
0.43847265 0.23393709 0.70061119
0.64042719 0.22684715 0.69283267
0.85814852 0.205054 0.68297731
0.011484434 0.4469089 0.69905504
0.22399387 0.44486038 0.69688933
0.42475264 0.43819427 0.68852675
0.62827733 0.42826779 0.67702275
0.856966 0.4080803 0.66139354
0.016022537 0.64340898 0.69611558
0.21877362 0.64718638 0.68995798
0.4104762 0.64379944 0.67639277
0.61424968 0.62485701 0.6521653
0.85398017 0.61885132 0.64666799
0.024566544 0.85619326 0.69390334
0.21873552 0.86031239 0.68549449
0.40084388 0.86049409 0.67077529
0.60574354 0.85084026 0.65321939
0.86060586 0.87023055 0.64470152
-0.0005774402 0.0072808066 0.92693494
0.22051874 0.0053496036 0.92544805
0.43519608 0.0010451922 0.92183491
0.64623271 -0.0057973291 0.91648462
0.86429647 -0.012862714 0.91248674
-0.002678522 0.22817229 0.92500895
0.2175478 0.22558484 0.92293632
0.42813428 0.21800898 0.91567573
0.63751163 0.20416924 0.90373724
0.86393385 0.18931508 0.89502085
-0.0072250053 0.4422745 0.92085819
0.20939883 0.43789159 0.91614128
0.41582187 0.42755469 0.9046352
0.62688879 0.41197836 0.88997579
0.86387484 0.39495325 0.88039026
-0.012102376 0.65338171 0.91600311
0.20042569 0.64824808 0.90845487
0.40450989 0.63832793 0.89500469
0.61377119 0.62651991 0.88175075
0.87412515 0.60888264 0.88060211
-0.013493972 0.87140214 0.91351049
0.19928954 0.86787941 0.90677629
0.40108411 0.86094306 0.89407248
0.60561902 0.86068836 0.89129752
0.86159679 0.89350222 0.92941086
