site/assets/luts/arri-alexa--linnormalprimarys2arrirec709--c142802ea.cube
# LUTr-Project: LUTr — LUTrepository
# LUTr-Schema-Version: 1
# LUTr-ID: arri-alexa--linnormalprimarys2arrirec709--c142802ea
# LUTr-Title: LinNormalPrimarys2Arrirec709
# LUTr-Collection: ARRI Alexa
# LUTr-Collection-ID: vfxwiki-arri-alexa-luts
# LUTr-Source: https://github.com/vfxwiki/ArriAlexaLuts
# LUTr-Source-File: submissions/vfxwiki-arri-alexa-luts/LinNormalPrimarys2Arrirec709.csp
# LUTr-Source-Format: CSP
# LUTr-Source-SHA256: 6159f222627996828e450ac7432e74458e8b219ecda4e21e3fb0c5873b8b0f7f
# LUTr-License: LGPL-3.0
# LUTr-License-URL: https://github.com/vfxwiki/ArriAlexaLuts/blob/master/LICENSE
# LUTr-Tags: technical, camera, arri, alexa, logc, cube
# LUTr-Transform-Class: camera-transform
# LUTr-Input-Color-Space: Unknown
# LUTr-Output-Color-Space: srgb
# LUTr-Color-Space-Confidence: partial-unverified-input-gamut
# LUTr-Conversion-Method: CSP pre-LUT and 3D mesh evaluated at native grid resolution
# LUTr-Conversion-Date: 2026-07-27
# LUTr-Conversion-Tool: LUTr scripts/convert-all-to-cube.mjs
# LUTr-Conversion-Grid: 32x32x32
# LUTr-Upstream-Metadata: Generated by Foundry::NukeX::MatchGrade
# LUTr-Note: Preserve this metadata and the upstream license notices when redistributing.
TITLE "LinNormalPrimarys2Arrirec709"
LUT_3D_SIZE 32
DOMAIN_MIN 0 0 0
DOMAIN_MAX 1 1 1
0.001047 0.000821 0.000621
0.029817835 0.00073043863 0.00061221931
0.059864999 0.00081773026 0.00060929926
0.090284337 0.00096551039 0.000608
0.12099832 0.0011202496 0.00060816934
0.15191037 0.0012600879 0.00061250254
0.18300891 0.0013945232 0.00061826844
0.2143198 0.0015267283 0.00062519623
0.24586819 0.0016604531 0.0006333752
0.27766946 0.0017983026 0.00064262199
0.30970901 0.0019410914 0.0006528002
0.34207167 0.0020913954 0.00066446172
0.37454042 0.0022274239 0.00067465457
0.40705523 0.0023572336 0.00068420767
0.43969717 0.0024685786 0.00069259928
0.47235048 0.0025782533 0.00070088581
0.50510565 0.0026731458 0.00070748944
0.53787652 0.0027657416 0.00071383161
0.57069073 0.0028498078 0.000719753
0.603548 0.0029253586 0.00072525427
0.63640527 0.0030009094 0.00073075554
0.66927032 0.0030630478 0.00073520012
0.70213753 0.0031212649 0.00073933576
0.73500474 0.003179482 0.0007434714
0.7678524 0.0032277886 0.00074691347
0.80068851 0.0032702842 0.00074994887
0.83352462 0.0033127797 0.00075298427
0.86635987 0.0033551706 0.00075601086
0.89905949 0.0033815001 0.00075768637
0.93175911 0.0034078297 0.00075936189
0.96445873 0.0034341592 0.00076103741
0.99715835 0.0034604888 0.00076271292
0.00087592187 0.029688798 0.00064226082
0.029631434 0.02956815 0.00067645994
0.05946767 0.029659266 0.00070659563
0.089399606 0.029831717 0.0007300912
0.11950402 0.030034439 0.0007502835
0.14993174 0.030270859 0.0007708075
0.18065322 0.030522422 0.00078938238
0.21169698 0.030784966 0.00080821892
0.24308016 0.031054558 0.00082670509
0.27480123 0.03133069 0.00084468405
0.30682287 0.031612101 0.00086234798
0.3392308 0.031899013 0.00087969932
0.37167291 0.032141937 0.0008946071
0.40412977 0.032365699 0.00090845045
0.436625 0.032543878 0.00091908696
0.46912359 0.032717933 0.00092943341
0.50164653 0.032857591 0.00093791466
0.53417313 0.032991906 0.00094610613
0.56670413 0.033110076 0.00095338704
0.59923933 0.033212128 0.00095975891
0.63177453 0.033314181 0.00096613078
0.66427459 0.033394057 0.00097076372
0.69676426 0.03346745 0.00097488827
0.72925393 0.033540843 0.00097901282
0.76170395 0.033599778 0.00098244473
0.79413061 0.033650235 0.00098547051
0.82655727 0.033700693 0.00098849629
0.85898312 0.033751017 0.00099151396
0.89128041 0.033780972 0.0009932873
0.9235777 0.033810928 0.00099506063
0.95587499 0.033840883 0.00099683396
0.98817227 0.033870838 0.00099860729
0.00094171972 0.059817426 0.00068044206
0.029633591 0.059536014 0.00075404338
0.059333753 0.059497609 0.00087673322
0.089248706 0.059577883 0.001002728
0.119481 0.059743797 0.0011321872
0.15024411 0.060033186 0.0012781858
0.18147139 0.060377101 0.0014293111
0.2131892 0.060753424 0.0015832763
0.24540563 0.061149457 0.0017376041
0.27809982 0.061556778 0.0018921757
0.31120612 0.061970602 0.0020469443
0.34482743 0.062389788 0.0022016961
0.37844955 0.062736807 0.0023301595
0.41207186 0.063052389 0.0024471717
0.44569743 0.06329615 0.0025382324
0.47932317 0.063533414 0.0026269458
0.51294669 0.063719139 0.0026969052
0.54656974 0.063896858 0.0027639511
0.58018304 0.064051695 0.0028223966
0.61378641 0.064183689 0.0028722561
0.64738977 0.064315683 0.0029221155
0.68093024 0.064417195 0.0029606494
0.7144522 0.064509796 0.0029958723
0.74797417 0.064602396 0.0030310951
0.78143632 0.06467633 0.003059299
0.81486329 0.064739317 0.0030833873
0.84829027 0.064802305 0.0031074756
0.88171616 0.064865123 0.0031314995
0.91497089 0.064901898 0.0031456372
0.94822561 0.064938673 0.0031597749
0.98148033 0.064975448 0.0031739126
1.0147351 0.065012222 0.0031880503
0.0010945942 0.089996224 0.00072637985
0.029717072 0.089345002 0.00082780794
0.059344576 0.089195442 0.0010533622
0.089457709 0.089289069 0.0013030594
0.12011349 0.089525186 0.0015703502
0.15149032 0.089940073 0.0018801987
0.18348407 0.09043012 0.0022062836
0.21611858 0.090963978 0.0025413568
0.24939248 0.091520485 0.0028807372
0.28326853 0.092087117 0.0032222302
0.31765707 0.092658175 0.0035648227
0.35267773 0.093231443 0.0039082251
0.38767794 0.093701223 0.0041944244
0.42266908 0.094125923 0.0044557063
0.45764346 0.094450809 0.0046595209
0.4926162 0.094766667 0.0048581374
0.52757063 0.095012063 0.0050148814
0.5625221 0.095246511 0.0051651201
0.59745468 0.09544989 0.0052962484
0.63236822 0.095622251 0.0054082981
0.66728175 0.095794613 0.0055203478
0.70210893 0.095926436 0.0056068382
0.73691075 0.096046407 0.0056858562
0.77171256 0.096166378 0.0057648742
0.80643564 0.096261848 0.0058281007
0.84111244 0.09634295 0.0058820681
0.87578924 0.096424053 0.0059360354
0.91046466 0.096504936 0.0059898592
0.94492264 0.096552104 0.0060216544
0.97938062 0.096599272 0.0060534496
1.0138386 0.09664644 0.0060852448
1.0482966 0.096693608 0.00611704
0.0012538366 0.120201 0.00076918669
0.029862048 0.11910253 0.00089344586
0.059517599 0.11889962 0.0012257211
0.089907474 0.1190997 0.0016070326
0.12104974 0.11949713 0.0020271679
0.15310194 0.12011392 0.00252365
0.18592116 0.12081765 0.0030515286
0.21960049 0.12159173 0.003628457
0.25415645 0.12240986 0.0042500264
0.28952046 0.12324626 0.0049022318
0.32556049 0.12408823 0.0055751169
0.36242098 0.12492774 0.0062678136
0.39912424 0.12559093 0.0068239508
0.43575883 0.12617733 0.0073206036
0.47219177 0.12659664 0.0076744426
0.50860635 0.12700083 0.0080153643
0.54480036 0.12728676 0.0082463828
0.58095997 0.12755432 0.0084603275
0.61694993 0.1277683 0.0086203085
0.65277034 0.12792879 0.008726417
0.68859074 0.12808929 0.0088325255
0.72433005 0.1282117 0.0089142338
0.76004553 0.12832297 0.0089888086
0.795761 0.12843425 0.0090633835
0.83140337 0.12852274 0.0091229182
0.86700275 0.12859787 0.0091736342
0.90260213 0.12867299 0.0092243502
0.93820027 0.12874791 0.0092749306
0.97360061 0.12879154 0.0093047153
1.009001 0.12883516 0.0093345001
1.0444013 0.12887879 0.0093642849
1.0798016 0.12892242 0.0093940696
0.0013818907 0.15040669 0.00080222266
0.030082729 0.14893654 0.00094978786
0.05991112 0.14877494 0.001399036
0.090639345 0.14915853 0.0019252919
0.12227982 0.14979519 0.0025139724
0.15502666 0.15070606 0.003220584
0.18869097 0.15171577 0.0039793294
0.22353984 0.15287732 0.0048816429
0.25963338 0.15415327 0.0059306771
0.29683301 0.15547294 0.0070804539
0.33492903 0.15680238 0.008298605
0.37407833 0.15811934 0.0095842218
0.41274561 0.15909853 0.010566812
0.45120276 0.1599306 0.011417406
0.48904342 0.16045245 0.011944798
0.5268282 0.16094625 0.012442957
0.56395032 0.16122172 0.012687271
0.60096937 0.16146326 0.01289215
0.63749005 0.16160168 0.012968592
0.67351302 0.16163715 0.012916814
0.70953599 0.16167262 0.012865036
0.74552443 0.1616997 0.012825958
0.78150267 0.16172434 0.012790592
0.8174809 0.16174898 0.012755227
0.85342826 0.16176852 0.0127272
0.88935741 0.16178507 0.012703475
0.92528655 0.16180163 0.012679751
0.96121519 0.16181814 0.012656093
0.99706082 0.16182779 0.012642528
1.0329064 0.16183744 0.012628964
1.0687521 0.16184709 0.012615399
1.1045977 0.16185673 0.012601835
0.0014922811 0.18061422 0.00083003807
0.030348226 0.17885428 0.0010012319
0.060421641 0.17881938 0.0015739068
0.091513887 0.17945583 0.0022510683
0.12364664 0.18039909 0.0030162011
0.15707561 0.18168074 0.0039457795
0.19155987 0.18307034 0.0049492179
0.22757186 0.18473372 0.0062190532
0.26520088 0.18660961 0.0077685066
0.30420567 0.18855431 0.0095080429
0.34428448 0.19050292 0.011374343
0.38557672 0.19240852 0.013362828
0.42600072 0.19375572 0.01482921
0.46604634 0.1948597 0.016068169
0.50502578 0.19546983 0.016751281
0.54390865 0.19603529 0.01738412
0.58167121 0.19625775 0.017582536
0.6192596 0.19642693 0.017713466
0.6560101 0.19643082 0.017626336
0.69192394 0.19626971 0.017321519
0.72783778 0.1961086 0.017016702
0.7637756 0.19598556 0.016788134
0.79972032 0.19587365 0.016581857
0.83566503 0.19576174 0.016375579
0.87163111 0.19567272 0.016213449
0.90760961 0.19559712 0.016077205
0.94358811 0.19552151 0.01594096
0.97956702 0.19544612 0.015805091
1.0156028 0.19540235 0.015726891
1.0516387 0.19535858 0.015648691
1.0876745 0.19531481 0.01557049
1.1237103 0.19527104 0.01549229
0.0015914812 0.21082467 0.00085395904
0.030649577 0.20887122 0.0010499095
0.06101997 0.20905679 0.0017515604
0.092489979 0.21001787 0.0025856152
0.12507224 0.21130759 0.0035172824
0.15904445 0.2129607 0.0046267179
0.19413208 0.2147106 0.0058152757
0.23093057 0.21682998 0.0073514499
0.26953148 0.2192348 0.0092543504
0.30978584 0.2217776 0.011464514
0.35131438 0.22435239 0.013887057
0.39415529 0.22684519 0.016481588
0.43581811 0.22855878 0.018371084
0.47696757 0.22993296 0.019953476
0.51672556 0.23064387 0.020799707
0.55635757 0.23129479 0.021579357
0.59442857 0.23145131 0.021709515
0.63225694 0.23153103 0.021738777
0.6689387 0.231367 0.021439839
0.7044756 0.23095964 0.020813265
0.7400125 0.23055228 0.020186691
0.77564956 0.23024161 0.01972345
0.81131579 0.22995921 0.019307959
0.84698201 0.22967681 0.018892469
0.88287437 0.22947756 0.018603575
0.91889921 0.22932707 0.018388909
0.95492405 0.22917658 0.018174244
0.99094984 0.22902649 0.017960176
1.0271157 0.22893895 0.017837842
1.0632816 0.22885141 0.017715507
1.0994476 0.22876386 0.017593172
1.1356135 0.22867632 0.017470837
0.0016819484 0.24103891 0.00087466153
0.030982571 0.23900392 0.0010975138
0.061688554 0.23951078 0.0019340902
0.093542109 0.24086554 0.0029291778
0.12652924 0.2425299 0.0040148237
0.16091502 0.24452785 0.005260586
0.19641175 0.24659034 0.006573507
0.23366511 0.24907794 0.0082683021
0.27275984 0.25189277 0.010366178
0.31377576 0.25496164 0.012896088
0.35625432 0.25812253 0.015727049
0.4000438 0.26114018 0.018742455
0.44234066 0.26315349 0.020889615
0.48398717 0.26472933 0.022658581
0.52395091 0.26548644 0.023553545
0.56376232 0.26616949 0.024369462
0.60192225 0.26626951 0.024441803
0.6398255 0.26627895 0.024398632
0.67647654 0.26598226 0.023959927
0.71187728 0.26537998 0.023126366
0.74727802 0.26477769 0.022292805
0.78269302 0.26428965 0.021645444
0.81811207 0.26383501 0.021052518
0.85353112 0.26338037 0.020459593
0.88938775 0.26308557 0.020081344
0.92550083 0.2628845 0.019828966
0.96161391 0.26268344 0.019576589
0.99772817 0.26248291 0.019324914
1.0340175 0.2623655 0.019180949
1.0703067 0.26224808 0.019036985
1.106596 0.26213067 0.01889302
1.1428853 0.26201325 0.018749056
0.0017678434 0.27125692 0.00089419167
0.031346008 0.26926493 0.0011447033
0.062416835 0.27019382 0.0021226363
0.094655092 0.27200637 0.0032828271
0.12800964 0.27406538 0.004513609
0.16271763 0.2763762 0.005863197
0.19849095 0.27870009 0.0072556737
0.23598502 0.28147007 0.0090310578
0.27527657 0.28458367 0.01121082
0.31649961 0.28799019 0.013846174
0.35917827 0.29150167 0.016792941
0.40309225 0.29482482 0.019901737
0.44543124 0.29701131 0.022083203
0.48708399 0.29870269 0.023860737
0.52770213 0.29971935 0.024995539
0.56822655 0.30067499 0.026072207
0.60595654 0.3005985 0.025944899
0.64325229 0.30036168 0.025630559
0.67967215 0.29990063 0.025043866
0.71521741 0.29921573 0.024185288
0.75076267 0.29853084 0.023326711
0.78626994 0.29796338 0.022644788
0.82176598 0.29743024 0.022014512
0.85726203 0.2968971 0.021384235
0.89322059 0.29655433 0.020985789
0.92945022 0.29632317 0.020723274
0.96567986 0.29609201 0.020460759
1.0019107 0.29586147 0.020198973
1.0383233 0.29572617 0.020049064
1.0747358 0.29559088 0.019899155
1.1111484 0.29545559 0.019749246
1.1475609 0.2953203 0.019599337
0.0018511668 0.30148014 0.00091288938
0.03173675 0.2996551 0.0011923466
0.063196098 0.30109932 0.0023174533
0.095816813 0.30342295 0.0036468083
0.1295095 0.3058878 0.0050164223
0.16447466 0.30847866 0.0064454431
0.20043524 0.31101568 0.0078852668
0.23802998 0.31399062 0.0096861513
0.27732913 0.31730513 0.011869318
0.31840643 0.32088368 0.014461874
0.36081492 0.32454161 0.017326239
0.40436028 0.32799062 0.020319351
0.44642781 0.33026009 0.022409948
0.48785143 0.33201579 0.024107424
0.52843374 0.3330888 0.025226932
0.56893981 0.33410007 0.026294164
0.60664757 0.33401795 0.026154831
0.64392049 0.33376597 0.025828066
0.68045025 0.33329358 0.025268833
0.71623791 0.33260115 0.024477534
0.75202558 0.33190872 0.023686235
0.78777961 0.33133731 0.023056863
0.82352371 0.33080129 0.022474831
0.8592678 0.33026526 0.021892799
0.89540423 0.32991411 0.021517782
0.93177059 0.32967136 0.021264147
0.96813696 0.3294286 0.021010512
1.0045045 0.3291865 0.020757578
1.0410429 0.32904407 0.020612216
1.0775813 0.32890165 0.020466854
1.1141197 0.32875922 0.020321492
1.1506581 0.3286168 0.020176131
0.0019328996 0.33170788 0.00093097779
0.03214801 0.33014606 0.0012405527
0.064013119 0.33217649 0.0025172038
0.097013769 0.33505012 0.0040188833
0.13102366 0.33792745 0.0055229785
0.16620121 0.34077263 0.0070142502
0.20228909 0.34348599 0.0084791807
0.23989175 0.34660759 0.010267825
0.27907467 0.35004994 0.012401049
0.31978453 0.35367997 0.014853619
0.36163379 0.3573378 0.017508534
0.40451595 0.36078637 0.020256418
0.4461381 0.36307906 0.022184758
0.48721123 0.36486825 0.023756116
0.52690408 0.36572633 0.024539934
0.56647195 0.3665002 0.025252524
0.60471921 0.36662299 0.025335198
0.64276117 0.36664464 0.025320017
0.67981149 0.36632911 0.024974111
0.71587163 0.36567697 0.024298046
0.75193178 0.36502484 0.023621981
0.78800753 0.36450064 0.023095032
0.82408772 0.36401385 0.022611677
0.86016791 0.36352706 0.022128322
0.89652355 0.36319561 0.021803529
0.93304058 0.36295526 0.021571709
0.96955761 0.36271491 0.021339888
1.0060756 0.3624752 0.021108702
1.0427425 0.36233374 0.020974886
1.0794093 0.36219228 0.02084107
1.1160762 0.36205081 0.020707253
1.152743 0.36190935 0.020573437
0.0020015599 0.36193516 0.00094610641
0.032490264 0.36067159 0.0012797691
0.064673241 0.36330019 0.0026795274
0.097954137 0.36671093 0.004317228
0.13218778 0.36997827 0.0059235643
0.16750924 0.37305966 0.0074579905
0.20367835 0.37593713 0.0089359958
0.24126168 0.37918448 0.010700783
0.2803212 0.38272969 0.012775628
0.32074079 0.38640441 0.015107841
0.36217424 0.39006827 0.017596255
0.40456549 0.39352136 0.020154124
0.44584462 0.39583569 0.021955789
0.48663914 0.39765398 0.023428063
0.52621354 0.39854771 0.024175473
0.56567745 0.39935782 0.024857324
0.60393983 0.39951767 0.024962987
0.64201541 0.3995765 0.024979142
0.67919562 0.39930506 0.024696947
0.71548176 0.3987039 0.024116913
0.7517679 0.39810275 0.02353688
0.78808402 0.39762603 0.023088815
0.8244088 0.39718569 0.022679331
0.86073357 0.39674535 0.022269847
0.89726048 0.39643623 0.02198612
0.9339058 0.39620406 0.021776131
0.97055112 0.39597189 0.021566142
1.0071973 0.39574034 0.021356726
1.0439727 0.39560361 0.021235301
1.080748 0.39546687 0.021113877
1.1175233 0.39533014 0.020992452
1.1542987 0.39519341 0.020871028
0.0020672521 0.39216275 0.00096039175
0.032815526 0.39120602 0.0013171067
0.065296711 0.3944351 0.0028330158
0.098837234 0.39837962 0.0045986077
0.13327579 0.4020321 0.0062999905
0.16872796 0.40534527 0.0078734391
0.20496967 0.40838378 0.0093622016
0.24252868 0.41175084 0.011101112
0.28146394 0.41539071 0.01311569
0.32160849 0.4191063 0.01533137
0.36265441 0.42277603 0.017662024
0.40458988 0.42623402 0.020041243
0.44554811 0.42856991 0.021724072
0.48608048 0.43041702 0.023103563
0.52553957 0.43134615 0.023817236
0.56490145 0.43219224 0.024470689
0.60317624 0.43239053 0.024598785
0.64128201 0.43248819 0.024645267
0.67858434 0.43226269 0.024423773
0.71508436 0.43171459 0.023934761
0.75158439 0.43116648 0.023445748
0.78812425 0.43073757 0.023071566
0.82467563 0.4303435 0.022730955
0.86122701 0.42994943 0.022390344
0.89791595 0.42966391 0.022145994
0.93468543 0.42944204 0.021958085
0.9714549 0.42922017 0.021770176
1.0082251 0.4289989 0.021582779
1.0451052 0.42886814 0.021473899
1.0819853 0.42873739 0.02136502
1.1188654 0.42860664 0.021256141
1.1557455 0.42847589 0.021147261
0.0021253446 0.42239105 0.00097251539
0.033097263 0.42176315 0.0013496357
0.065826317 0.42559863 0.0029638763
0.0995737 0.43006841 0.0048365438
0.13416896 0.43409355 0.0066145535
0.16971811 0.43762713 0.0082164468
0.20601034 0.44081882 0.0097100378
0.24353226 0.44429012 0.011417908
0.28234105 0.4480036 0.013367386
0.32224956 0.45175027 0.015476316
0.36298027 0.45542542 0.017671574
0.40454985 0.45888931 0.019901231
0.44524382 0.46124656 0.021485291
0.48555619 0.46312177 0.022788138
0.52490558 0.46408484 0.023474002
0.56416773 0.46496541 0.024104063
0.60244964 0.46520623 0.024253785
0.64057912 0.46534768 0.024328889
0.67798479 0.46517325 0.024160817
0.71466768 0.46468351 0.023749986
0.75135056 0.46419376 0.023339156
0.78807155 0.46381349 0.023026057
0.82480356 0.46346522 0.022741531
0.86153558 0.46311695 0.022457006
0.89836289 0.46285829 0.022247708
0.93524598 0.46265217 0.022082521
0.97212906 0.46244605 0.021917333
1.0090128 0.46224049 0.021752594
1.045988 0.46211892 0.021656652
1.0829633 0.46199736 0.02156071
1.1199385 0.4618758 0.021464769
1.1569138 0.46175423 0.021368827
0.0021802201 0.45261959 0.00098416002
0.033363359 0.45232775 0.0013802788
0.066323185 0.45677098 0.003086906
0.10026058 0.46176295 0.0050592497
0.13499844 0.46615596 0.0069081716
0.17063489 0.46990603 0.0085352354
0.20697134 0.47324792 0.01003187
0.24445259 0.47681589 0.011706615
0.28313353 0.48059181 0.013589106
0.32281444 0.4843615 0.015593205
0.36324618 0.48803682 0.017658071
0.40446954 0.4915015 0.019744503
0.44491245 0.49387733 0.021234341
0.48501522 0.49577887 0.022464311
0.52425785 0.49677578 0.023124174
0.56342255 0.49769087 0.023732473
0.60171058 0.49797698 0.02390393
0.63986228 0.49816538 0.024007525
0.67736684 0.49804606 0.023891507
0.71422517 0.49761956 0.023556252
0.75108349 0.49719307 0.023220997
0.7879754 0.49686402 0.022966257
0.82487701 0.49656347 0.022735056
0.86177861 0.49626292 0.022503854
0.89873891 0.49603384 0.022328917
0.93573351 0.49584667 0.02218697
0.97272811 0.49565949 0.022045023
1.0097232 0.49547282 0.02190346
1.0467914 0.49536238 0.021820859
1.0838597 0.49525195 0.021738257
1.1209279 0.49514151 0.021655656
1.1579961 0.49503107 0.021573055
0.0022275944 0.48284839 0.00099468765
0.033592985 0.48290945 0.0014065246
0.066743718 0.48796359 0.0031916767
0.10083184 0.49347057 0.0052464437
0.13567939 0.49822031 0.0071529532
0.17138063 0.50217774 0.0087975535
0.20774658 0.50566282 0.010293071
0.24517878 0.50930984 0.011929827
0.28372865 0.51312217 0.013740933
0.32320166 0.5168961 0.015644677
0.36337232 0.5205593 0.017590819
0.4042953 0.52401289 0.019548798
0.44451794 0.52640081 0.020955018
0.48443534 0.52832454 0.022120899
0.52357809 0.52935506 0.022758975
0.56265063 0.53030479 0.023349314
0.60094248 0.53064259 0.023542756
0.63911291 0.53088532 0.023674541
0.67670598 0.53083051 0.023607386
0.71372244 0.53047866 0.02334163
0.7507389 0.53012681 0.023075873
0.78777791 0.52985504 0.022873136
0.82482339 0.52960668 0.022688822
0.86186888 0.52935832 0.022504508
0.89894958 0.52916516 0.022362315
0.93605082 0.52900437 0.022244819
0.97315206 0.52884359 0.022127323
1.0102537 0.52868323 0.022010145
1.0474098 0.52858844 0.021941823
1.0845659 0.52849365 0.021873501
1.121722 0.52839886 0.021805179
1.1588781 0.52830407 0.021736857
0.0022747947 0.51307729 0.0010051636
0.033821658 0.51349157 0.0014326566
0.067162357 0.51915662 0.003295974
0.10140035 0.52517839 0.0054327799
0.13635689 0.53028457 0.0073965493
0.17212242 0.53444909 0.0090585077
0.20851758 0.53807717 0.010552818
0.24590051 0.54180257 0.012151448
0.28431913 0.54565028 0.013890985
0.32358449 0.5494276 0.015694392
0.3634947 0.55307806 0.017521997
0.40411812 0.55652003 0.019351784
0.44412116 0.55891986 0.020674639
0.4838538 0.56086575 0.021776682
0.52289705 0.56193013 0.022393193
0.56187782 0.56291478 0.02296579
0.60017344 0.56330453 0.023181233
0.63836248 0.56360185 0.023341193
0.67604368 0.56361179 0.023322781
0.71321767 0.56333484 0.023126302
0.75039167 0.56305789 0.022929823
0.78757724 0.56284359 0.022778947
0.82476609 0.56264762 0.022641402
0.86195493 0.56245164 0.022503857
0.89915586 0.56229468 0.022394406
0.93636376 0.56216061 0.022301429
0.97357166 0.56202654 0.022208451
1.0107798 0.56189282 0.022115725
1.0480238 0.56181386 0.022061721
1.0852677 0.5617349 0.022007716
1.1225117 0.56165594 0.021953712
1.1597556 0.56157699 0.021899707
0.0023136478 0.54330693 0.0010131628
0.034004669 0.54408999 0.0014533294
0.067490201 0.55036531 0.0033775813
0.10183707 0.55689125 0.0055780114
0.1368691 0.56234032 0.0075833318
0.17267515 0.5666992 0.0092541069
0.20908555 0.5704608 0.010742917
0.24640844 0.57423266 0.012296825
0.2846868 0.57806601 0.013956072
0.32375682 0.58180651 0.01565993
0.36343688 0.58541466 0.017378027
0.40380043 0.58881913 0.019092075
0.44361593 0.59122204 0.020343729
0.48319253 0.59318868 0.02139397
0.52215524 0.5942994 0.021999544
0.5610623 0.5953327 0.022564901
0.59935915 0.59578642 0.022803068
0.63756108 0.5961501 0.022990407
0.67531289 0.59623674 0.023015036
0.71261513 0.59604682 0.022877231
0.74991737 0.59585691 0.022739426
0.78722404 0.59570993 0.022633609
0.82453188 0.59557551 0.022537144
0.86183972 0.59544109 0.022440678
0.89915242 0.59533353 0.022363904
0.93646784 0.59524171 0.022298676
0.97378327 0.59514989 0.022233447
1.0110988 0.59505832 0.022168396
1.0484292 0.59500425 0.022130529
1.0857596 0.59495018 0.022092663
1.12309 0.59489611 0.022054796
1.1604204 0.59484205 0.02201693
0.0023525009 0.57353656 0.001021162
0.034187681 0.57468842 0.0014740021
0.067818045 0.58157399 0.0034591886
0.1022738 0.58860411 0.0057232429
0.13738131 0.59439608 0.0077701143
0.17322787 0.5989493 0.009449706
0.20965353 0.60284442 0.010933016
0.24691636 0.60666276 0.012442201
0.28505448 0.61048174 0.014021158
0.32392915 0.61418541 0.015625469
0.36337905 0.61775127 0.017234057
0.40348275 0.62111822 0.018832365
0.44311071 0.62352421 0.020012818
0.48253125 0.62551162 0.021011259
0.52141342 0.62666867 0.021605896
0.56024677 0.62775062 0.022164011
0.59854487 0.62826831 0.022424903
0.63675968 0.62869834 0.022639621
0.6745821 0.62886169 0.02270729
0.71201259 0.62875881 0.022628159
0.74944307 0.62865592 0.022549029
0.78687083 0.62857627 0.022488271
0.82429767 0.62850341 0.022432885
0.86172451 0.62843055 0.0223775
0.89914897 0.62837237 0.022333402
0.93657192 0.62832281 0.022295923
0.97399488 0.62827324 0.022258444
1.0114178 0.62822381 0.022221066
1.0488347 0.62819463 0.022199338
1.0862515 0.62816546 0.022177609
1.1236683 0.62813628 0.022155881
1.1610851 0.6281071 0.022134152
0.0023875029 0.60376617 0.0010284836
0.034352497 0.60528476 0.0014926398
0.068111317 0.61277496 0.0035323803
0.10266225 0.62030302 0.0058528837
0.1378351 0.62643407 0.0079364176
0.17371687 0.63118166 0.0096234964
0.21015568 0.63521174 0.01110174
0.24736605 0.63908128 0.012571263
0.28538084 0.64289159 0.014078933
0.32408239 0.64656288 0.015594606
0.3633269 0.6500891 0.017105405
0.40319645 0.65341838 0.018599922
0.44265426 0.65582624 0.019716263
0.48193253 0.65783274 0.020667874
0.5207411 0.65903519 0.021252332
0.55950705 0.66016491 0.021803583
0.59780628 0.66074691 0.022084725
