site/assets/luts/arri-alexa--linnormalprimarys2arrirec709--c142802ea.cube
# LUTr-Project: LUTr — LUTrepository
# LUTr-Schema-Version: 1
# LUTr-ID: arri-alexa--linnormalprimarys2arrirec709--c142802ea
# LUTr-Title: LinNormalPrimarys2Arrirec709
# LUTr-Collection: ARRI Alexa
# LUTr-Collection-ID: vfxwiki-arri-alexa-luts
# LUTr-Source: https://github.com/vfxwiki/ArriAlexaLuts
# LUTr-Source-File: submissions/vfxwiki-arri-alexa-luts/LinNormalPrimarys2Arrirec709.csp
# LUTr-Source-Format: CSP
# LUTr-Source-SHA256: 6159f222627996828e450ac7432e74458e8b219ecda4e21e3fb0c5873b8b0f7f
# LUTr-License: LGPL-3.0
# LUTr-License-URL: https://github.com/vfxwiki/ArriAlexaLuts/blob/master/LICENSE
# LUTr-Tags: technical, camera, arri, alexa, logc, cube
# LUTr-Transform-Class: camera-transform
# LUTr-Input-Color-Space: Unknown
# LUTr-Output-Color-Space: srgb
# LUTr-Color-Space-Confidence: partial-unverified-input-gamut
# LUTr-Conversion-Method: CSP pre-LUT and 3D mesh evaluated at native grid resolution
# LUTr-Conversion-Date: 2026-07-27
# LUTr-Conversion-Tool: LUTr scripts/convert-all-to-cube.mjs
# LUTr-Conversion-Grid: 32x32x32
# LUTr-Upstream-Metadata: Generated by Foundry::NukeX::MatchGrade
# LUTr-Note: Preserve this metadata and the upstream license notices when redistributing.
TITLE "LinNormalPrimarys2Arrirec709"
LUT_3D_SIZE 5
DOMAIN_MIN 0.000000 0.000000 0.000000
DOMAIN_MAX 0.903226 0.903226 0.903226
0.001047 0.000821 0.000621
0.2143198 0.0015267283 0.00062519623
0.43969717 0.0024685786 0.00069259928
0.66927032 0.0030630478 0.00073520012
0.89905949 0.0033815001 0.00075768637
0.0015914812 0.21082467 0.00085395904
0.23093057 0.21682998 0.0073514499
0.51672556 0.23064387 0.020799707
0.77564956 0.23024161 0.01972345
1.0271157 0.22893895 0.017837842
0.0021253446 0.42239105 0.00097251539
0.24353226 0.44429012 0.011417908
0.52490558 0.46408484 0.023474002
0.78807155 0.46381349 0.023026057
1.045988 0.46211892 0.021656652
0.0024166107 0.63399556 0.0010347682
0.24772661 0.67148189 0.012675354
0.52017515 0.69139729 0.020960119
0.786285 0.69430802 0.022248832
1.049499 0.69457231 0.022312309
0.0025625176 0.84559847 0.0010661864
0.2494488 0.89796272 0.013176703
0.51733683 0.9181699 0.019521124
0.78495644 0.92445645 0.021711665
1.0509786 0.92681757 0.022564871
0.0023297943 0.0013416618 0.2096423
0.25575511 0.038212138 0.20540434
0.53141205 0.056664567 0.21271416
0.80186493 0.035598185 0.21721613
1.0614639 0.045113239 0.22094684
0.03176128 0.21380719 0.21545613
0.21460427 0.21486564 0.21401236
0.52453773 0.21462667 0.21531071
0.80047949 0.21592599 0.22087811
1.0601533 0.22019583 0.22575147
0.010619031 0.49159474 0.2287513
0.22407129 0.47634774 0.22488273
0.52670266 0.51211591 0.21821713
0.79879101 0.50622612 0.22452308
1.0601232 0.4964726 0.23002552
0.014551082 0.75691997 0.23992382
0.23139754 0.73754801 0.23164713
0.51883778 0.77012118 0.23141194
0.79201766 0.7753815 0.23537776
1.056806 0.77391446 0.23825535
0.01581687 1.0204264 0.24383755
0.23391884 0.99579418 0.23410947
0.51791609 1.0339022 0.23537821
0.79042543 1.043296 0.23953269
1.0556702 1.0459556 0.24188557
0.0029888876 0.001613973 0.41988085
0.26032627 0.028825517 0.42472901
0.52983051 0.054673632 0.44883948
0.79203572 0.060836241 0.46038059
1.0538475 0.060512962 0.46234065
0.021361133 0.23157216 0.47489717
0.22239774 0.22930616 0.47186011
0.51830829 0.22557686 0.48654374
0.78113301 0.21652801 0.50457723
1.0075852 0.21321868 0.51828687
0.011736332 0.52528726 0.51993822
0.21116928 0.51479052 0.51823721
0.52734277 0.52762136 0.52070366
0.79333194 0.5237475 0.52608141
1.0099096 0.51927853 0.53059067
0.038328398 0.80333221 0.52233383
0.2292822 0.77251306 0.50939485
0.52595653 0.79972989 0.52532005
0.79159631 0.80032888 0.52938411
1.0289885 0.7946727 0.53052577
0.023970219 1.0631704 0.5151037
0.23386602 1.0344738 0.50975472
0.52051233 1.0596632 0.5212707
0.78323404 1.0546162 0.52941562
1.0313771 1.0484353 0.53155496
0.0032686846 0.0017266342 0.63012625
0.26225524 0.027968343 0.64138778
0.52874351 0.039370462 0.66173958
0.79306047 0.042626933 0.67071248
1.056678 0.043625132 0.67434951
0.019034625 0.23772749 0.72129173
0.22832884 0.2410175 0.73601956
0.5075836 0.23919937 0.7557047
0.76674681 0.23384547 0.76745817
1.0128049 0.23125815 0.77482396
0.017325878 0.51280135 0.76146939
0.22724421 0.51427069 0.7770549
0.52245178 0.53007559 0.80018093
0.77915317 0.52816373 0.80076449
0.98019587 0.52832358 0.80214481
0.020624621 0.78313138 0.76671963
0.23544356 0.78128099 0.78165007
0.52845159 0.79945631 0.79795191
0.79127288 0.79061965 0.79705652
0.99847461 0.79054815 0.79339806
0.022273443 1.0498147 0.7673182
0.23906577 1.045953 0.78314021
0.52494651 1.0556826 0.79206174
0.78165658 1.0385203 0.78999912
1.0170075 1.0277288 0.78696865
0.0033912966 0.0017759299 0.84037751
0.26306203 0.027960928 0.8569811
0.52817097 0.032232216 0.8731367
0.79328968 0.033418898 0.87960286
1.0581515 0.033910211 0.88227576
0.018236948 0.24000022 0.96807586
0.2298869 0.24509091 0.99540186
0.50679032 0.24283897 1.0205635
0.76446742 0.23686985 1.031703
1.0153124 0.23427285 1.0366021
0.0174938 0.51320369 1.0187996
0.2308211 0.51570265 1.0412342
0.51857962 0.52594932 1.0568907
0.77591434 0.52596976 1.0577353
0.99647463 0.52682362 1.0592432
0.020231355 0.77966463 1.0211693
0.2377536 0.78417453 1.0493118
0.52565396 0.79380482 1.0544552
0.78411629 0.7849964 1.0429987
1.0049056 0.78264193 1.0412214
0.022045476 1.0436607 1.0199204
0.24112709 1.049693 1.0514922
0.52521772 1.0517092 1.0500677
0.77841917 1.0306062 1.0331273
1.0021451 1.0037195 1.0113233
