site/assets/luts/arri-alexa--linaces2rec709a--20d412c53.cube
# LUTr-Project: LUTr — LUTrepository
# LUTr-Schema-Version: 1
# LUTr-ID: arri-alexa--linaces2rec709a--20d412c53
# LUTr-Title: LinAces2rec709A
# LUTr-Collection: ARRI Alexa
# LUTr-Collection-ID: vfxwiki-arri-alexa-luts
# LUTr-Source: https://github.com/vfxwiki/ArriAlexaLuts
# LUTr-Source-File: submissions/vfxwiki-arri-alexa-luts/LinAces2rec709A.csp
# LUTr-Source-Format: CSP
# LUTr-Source-SHA256: 88e44b5ef6985fa73fc1d9a16e12d86b713efd2b07385b3dc169323cdc359544
# LUTr-License: LGPL-3.0
# LUTr-License-URL: https://github.com/vfxwiki/ArriAlexaLuts/blob/master/LICENSE
# LUTr-Tags: technical, camera, arri, alexa, logc, cube
# LUTr-Transform-Class: camera-transform
# LUTr-Input-Color-Space: Unknown
# LUTr-Output-Color-Space: srgb
# LUTr-Color-Space-Confidence: partial-unverified-input-gamut
# LUTr-Conversion-Method: CSP pre-LUT and 3D mesh evaluated at native grid resolution
# LUTr-Conversion-Date: 2026-07-27
# LUTr-Conversion-Tool: LUTr scripts/convert-all-to-cube.mjs
# LUTr-Conversion-Grid: 32x32x32
# LUTr-Upstream-Metadata: Generated by Foundry::NukeX::MatchGrade
# LUTr-Note: Preserve this metadata and the upstream license notices when redistributing.
TITLE "LinAces2rec709A"
LUT_3D_SIZE 32
DOMAIN_MIN 0 0 0
DOMAIN_MAX 1 1 1
0.041023 0.041224 0.03948
0.05615 0.040361 0.040323
0.075695 0.041754 0.040433
0.101255 0.043446 0.040656
0.134815 0.045376 0.041237
0.171494 0.047181 0.041674
0.20922 0.052198 0.042061
0.245767 0.053302 0.043487
0.283932 0.046005 0.026993
0.322848 0.04778 0.026154
0.362544 0.048551 0.026148
0.400572 0.046169 0.026745
0.437085 0.040427 0.027991
0.470173 0.036937 0.029803
0.499172 0.035736 0.032557
0.526948 0.035502 0.035654
0.552916 0.036698 0.039257
0.57903 0.038299 0.041779
0.606919 0.039995 0.042285
0.634444 0.042093 0.041898
0.661606 0.044593 0.040617
0.689137 0.046328 0.039537
0.716727 0.047367 0.038593
0.744027 0.047682 0.037735
0.770541 0.047116 0.036912
0.797283 0.046576 0.036205
0.824557 0.046093 0.035688
0.852782 0.045711 0.035455
0.882517 0.045486 0.035626
0.912648 0.045297 0.03577
0.943183 0.045143 0.035886
0.974249 0.045037 0.035967
0.040889912 0.058510699 0.040186604
0.054723246 0.05493181 0.040797873
0.079219658 0.053087569 0.040936161
0.10664516 0.053855601 0.04132651
0.13769547 0.056216209 0.041436302
0.17161963 0.059606233 0.041980081
0.20785596 0.065976394 0.030871619
0.24443831 0.068818058 0.030158395
0.2822301 0.071171136 0.028869689
0.32088503 0.072651779 0.02845716
0.36042493 0.073352041 0.028652952
0.39835913 0.071777526 0.030032128
0.434803 0.06782043 0.032666165
0.46787342 0.065297701 0.035509979
0.49711722 0.06419546 0.03886708
0.52485966 0.063942756 0.043564148
0.55064882 0.06479938 0.050003178
0.57724133 0.066548374 0.052584896
0.60551696 0.069158798 0.050184261
0.63345561 0.071963081 0.047128291
0.66107075 0.074950015 0.043391166
0.68876334 0.076988887 0.041001647
0.71639673 0.078040471 0.040031681
0.74369057 0.078449613 0.038998043
0.77015002 0.078089338 0.037800243
0.7968715 0.077737378 0.036763974
0.82415386 0.077409291 0.035986001
0.85240472 0.077125493 0.035594188
0.88215941 0.076918137 0.035748645
0.91231929 0.076743721 0.035877181
0.94288422 0.076602225 0.035980799
0.97397599 0.076505567 0.036052517
0.039826729 0.082275629 0.039825856
0.052607652 0.081296678 0.0408919
0.079018058 0.080346156 0.04109
0.10824648 0.079906767 0.041113598
0.13906976 0.080284048 0.041609605
0.17122129 0.080795873 0.042451277
0.20456327 0.082076549 0.043348331
0.24079146 0.084022438 0.045472216
0.27885648 0.089628412 0.03302246
0.31708813 0.090574977 0.033425756
0.35630125 0.091200934 0.033531036
0.39409297 0.09129705 0.036347474
0.43048237 0.090920518 0.041436327
0.46383986 0.090718887 0.046284055
0.49370858 0.090208799 0.049200838
0.52172911 0.090528834 0.05525522
0.54763813 0.09157323 0.064055453
0.57494253 0.093707767 0.066202407
0.60357511 0.097195276 0.060884036
0.63198818 0.10072334 0.054755267
0.66021742 0.10422672 0.047782145
0.6881521 0.10665105 0.043469136
0.71586595 0.10775232 0.042373889
0.74315384 0.1083353 0.041007376
0.76953382 0.10832243 0.039201387
0.79622885 0.10828227 0.037636432
0.82353022 0.10820769 0.036448283
0.85182588 0.10808903 0.035809155
0.88161593 0.10791553 0.035935625
0.91182155 0.10777158 0.036040296
0.94243417 0.10765627 0.036124249
0.97356522 0.1075774 0.036181524
0.022490027 0.11265411 0.030447176
0.052728343 0.10987621 0.040256179
0.078097128 0.10959722 0.04038971
0.10790638 0.10920675 0.041363101
0.13874594 0.10915281 0.04199469
0.17018016 0.10944094 0.043220038
0.20255991 0.10984071 0.044342503
0.23804225 0.1105641 0.045888018
0.27479926 0.11127847 0.047732284
0.31456617 0.11261497 0.048505702
0.3531588 0.11457035 0.038050002
0.39069527 0.1157175 0.040734479
0.42726637 0.11730177 0.046983661
0.46329476 0.12205723 0.065358653
0.49101472 0.11883466 0.055087036
0.51934697 0.11973833 0.060813169
0.54566791 0.12113347 0.068685015
0.57301991 0.12324007 0.071249969
0.60118604 0.12619536 0.068171751
0.62977048 0.12892947 0.06275626
0.65859214 0.13200037 0.055431419
0.6870111 0.134464 0.049911639
0.71506034 0.13611446 0.04675556
0.74239775 0.13724506 0.043843604
0.76867456 0.13775821 0.041153546
0.79534559 0.13818326 0.038837173
0.82268358 0.13848398 0.037075506
0.85104874 0.13860876 0.036096988
0.88089263 0.13850116 0.036183666
0.91116613 0.13841148 0.036254008
0.94184651 0.1383407 0.036310833
0.97303068 0.13829166 0.036349323
0.018938139 0.14294323 0.029057106
0.049435061 0.14256456 0.029161636
0.078181019 0.14181089 0.029367731
0.10729951 0.13949126 0.042048503
0.13786796 0.13923559 0.042375139
0.1685978 0.13886946 0.044524502
0.20049126 0.13903173 0.046182563
0.23571373 0.14002226 0.047341962
0.27327966 0.14103386 0.048651036
0.31218345 0.14157955 0.049880828
0.35207178 0.14233398 0.049321978
0.38807229 0.14447361 0.043693668
0.42699659 0.14628013 0.059314569
0.45999126 0.1483115 0.065419055
0.48971908 0.14970725 0.069599517
0.51794739 0.15120018 0.07351608
0.54509772 0.15374806 0.076104964
0.57119568 0.15661578 0.078879716
0.59747734 0.15852543 0.080441323
0.62661027 0.15664037 0.071974241
0.65627514 0.15857622 0.065521964
0.68534508 0.1607489 0.059457115
0.71392407 0.16307834 0.053072473
0.74135971 0.16498293 0.047653404
0.76751544 0.16625033 0.043734969
0.79416903 0.16732902 0.040401952
0.82157193 0.16814678 0.037884849
0.85003929 0.16861024 0.036468156
0.87996614 0.16860788 0.036499854
0.91033206 0.16860547 0.036526196
0.94110251 0.16860401 0.036547102
0.97235618 0.16860343 0.036560652
0.017273403 0.17419077 0.027245922
0.048200941 0.17384068 0.027374667
0.077961697 0.17318296 0.027613024
0.10783026 0.17233517 0.029079405
0.13777091 0.17130618 0.031661173
0.16751787 0.16880014 0.045604646
0.19951679 0.16869681 0.048684956
0.23382759 0.16932412 0.050449649
0.2715547 0.17044707 0.051984981
0.30996232 0.17129403 0.053148427
0.3483089 0.17179994 0.05304847
0.38536591 0.17265076 0.049963034
0.42049272 0.17357568 0.050428127
0.45434896 0.17559843 0.059831988
0.48533713 0.17773496 0.068636762
0.51431743 0.1798041 0.074097852
0.54147693 0.1814604 0.076997416
0.56772176 0.18328093 0.079849191
0.59435598 0.18521259 0.081966737
0.62078392 0.18710301 0.082205607
0.65323881 0.18692687 0.071776094
0.68287668 0.18863776 0.066540003
0.71243712 0.19116406 0.057978076
0.74027405 0.193458 0.05059357
0.76631187 0.19515278 0.04573562
0.79293233 0.19659135 0.04164116
0.82036903 0.1976877 0.0385705
0.84891467 0.19833303 0.036838653
0.87892863 0.19839846 0.036829734
0.90938209 0.19845127 0.036823317
0.94023334 0.19849239 0.036818505
0.97154557 0.1985207 0.036814398
0.017259845 0.2062251 0.024312982
0.048406605 0.2059043 0.024534118
0.078844972 0.20537974 0.024892906
0.10855876 0.20429763 0.027301633
0.13762958 0.20275728 0.031332802
0.16890521 0.20205093 0.034834338
0.2004729 0.19992184 0.047882823
0.23449894 0.20067934 0.052007967
0.27040767 0.20160479 0.055200399
0.30804708 0.2025565 0.054124495
0.3456612 0.20337178 0.053430542
0.38136672 0.2043833 0.052542974
0.41564765 0.20536619 0.052323212
0.44837582 0.20666138 0.053319854
0.47878212 0.20812756 0.059993458
0.50853636 0.21029445 0.067809198
0.53630452 0.21177851 0.075868139
0.56337735 0.21324748 0.080908017
0.59041951 0.21459113 0.082455032
0.61679907 0.21545922 0.082242226
0.64979308 0.21672646 0.074795213
0.67998838 0.21797756 0.071102526
0.71071323 0.2203191 0.061399981
0.73913205 0.22261379 0.052716829
0.76504449 0.22438516 0.047216008
0.7916051 0.22588463 0.042607643
0.81904448 0.2270279 0.039165185
0.84764422 0.22771003 0.037223083
0.8777497 0.22780567 0.037185909
0.90828849 0.22788306 0.037156217
0.9392127 0.2279427 0.037133768
0.97057738 0.22798258 0.037118801
0.017093984 0.23825161 0.022023983
0.048542987 0.23803948 0.022483493
0.079567467 0.23771508 0.023185923
0.10961102 0.23681837 0.02572323
0.13878007 0.23544843 0.029754586
0.17001124 0.2347234 0.033944127
0.20295581 0.2345133 0.038482771
0.23595024 0.23428467 0.049750855
0.27097212 0.23509317 0.053460685
0.3073819 0.2362524 0.041286127
0.34351427 0.23729669 0.040392405
0.37886278 0.23840808 0.041202066
0.41349659 0.23962576 0.043797154
0.44626887 0.24088056 0.047827116
0.47338843 0.24116533 0.057867812
0.5062955 0.24342741 0.058777664
0.53124544 0.24374595 0.066944853
0.55915982 0.24514697 0.076751008
0.58601059 0.24641246 0.078717342
0.61196417 0.24737449 0.079005438
0.64761475 0.24789736 0.074048518
0.6783884 0.248829 0.070816354
0.7093897 0.25060859 0.062185143
0.73792281 0.25240927 0.054055281
0.76369184 0.25388573 0.048218133
0.7901588 0.25513358 0.043335125
0.81756123 0.25608406 0.039691809
0.84618837 0.25665252 0.037634594
0.87639132 0.25673819 0.037580608
0.90701274 0.25680542 0.037537621
0.93800576 0.25685805 0.037504057
0.96941796 0.2568938 0.037481634
0.016806629 0.27038099 0.02164455
0.048537402 0.2703032 0.022133483
0.079963706 0.27017998 0.022904477
0.11087314 0.26985529 0.024505787
0.14118039 0.2693253 0.026987132
0.17248978 0.26872085 0.031484798
0.20472703 0.26809622 0.037362755
0.2379724 0.26808922 0.040003646
0.27213528 0.26861079 0.040032651
0.30672859 0.26954543 0.038684884
0.34183191 0.27091729 0.035962023
0.37615937 0.27217242 0.035777543
0.40981316 0.2734011 0.038318129
0.44218478 0.27446336 0.042530633
0.47316949 0.27525288 0.048173567
0.50263628 0.27613811 0.055105049
0.53087919 0.2770546 0.062778608
0.55852603 0.27795704 0.067904811
0.58530052 0.27891021 0.071011321
0.60811414 0.27957517 0.074391967
0.64629964 0.28000714 0.069873841
0.67758625 0.28066414 0.066461608
0.70821949 0.28168508 0.060704222
0.73651427 0.28268925 0.054590736
0.76214295 0.28354853 0.048732167
0.78850623 0.28427353 0.043825861
0.8158555 0.28481993 0.040162145
0.84449736 0.2851404 0.038091025
0.87479937 0.28517254 0.038031025
0.90550197 0.28519761 0.037982025
0.93655899 0.28521797 0.037945025
0.96801511 0.28523043 0.037920025
0.01657775 0.30258477 0.021720179
0.048447461 0.30257994 0.022219179
0.080086797 0.30257165 0.023015273
0.11146985 0.30256025 0.024141193
0.14248705 0.30254366 0.025736219
0.17395835 0.30224101 0.029420065
0.20591707 0.30172673 0.034526891
0.23881739 0.30181016 0.03674324
0.27255237 0.3024017 0.036647517
0.30644127 0.30336425 0.03534212
0.34054602 0.30472191 0.032828498
0.37390649 0.30593325 0.032500869
0.40656019 0.3070846 0.03449576
0.43838861 0.30796918 0.037972617
0.46936035 0.3084935 0.042743884
0.49922513 0.30905544 0.049075554
0.5282117 0.30961626 0.056450892
0.55656991 0.31023249 0.061455879
0.58407139 0.31094543 0.06459349
0.61371609 0.31141993 0.065500842
0.64548794 0.31167575 0.064041361
0.67642861 0.31198735 0.061793597
0.70630798 0.31237846 0.058510225
0.73422879 0.31274139 0.054123402
0.75989059 0.31304604 0.048584134
0.78632917 0.31329538 0.043973623
0.8137794 0.31347321 0.040547359
0.84252584 0.31356088 0.038616114
0.87291461 0.31353582 0.038557382
0.90368866 0.31351613 0.038509469
0.93480136 0.31350042 0.038473194
0.96629516 0.31348989 0.038448738
0.016391589 0.33486836 0.022310644
0.048289032 0.33488819 0.02280159
0.079977107 0.33491926 0.023579495
0.11143683 0.33496334 0.02466854
0.14257922 0.33502405 0.026189686
0.17429187 0.3351739 0.028105269
0.20655513 0.33540466 0.030307714
0.23950872 0.33598526 0.031343728
0.27310724 0.33689629 0.031338539
0.30639928 0.33785994 0.031060693
0.33942344 0.33889722 0.030514164
0.37183832 0.33983026 0.030884344
0.40364313 0.34069242 0.032200192
0.43491941 0.34135147 0.03432759
0.46567655 0.34178525 0.037226608
0.49582929 0.34212733 0.041019437
0.52543632 0.34237251 0.045597463
0.55486346 0.34259398 0.049373562
0.58402439 0.3428001 0.052487975
0.61396548 0.3428657 0.05483077
0.64464833 0.34278554 0.056436393
0.67452354 0.34270159 0.056706998
0.70342341 0.34261223 0.055483272
0.73096271 0.3424887 0.052598582
0.75687312 0.34232238 0.047753749
0.78360017 0.34217055 0.043773565
0.81132594 0.34203582 0.040847909
0.84027592 0.3419216 0.039209659
0.87073961 0.3418327 0.039159478
0.90157368 0.34176243 0.039119095
0.93273333 0.34170797 0.039087907
0.96425876 0.34167133 0.039067116
0.016238206 0.36725256 0.023604094
0.048170509 0.36730354 0.024038287
0.079918678 0.36738272 0.02471909
0.11147459 0.36749067 0.025656401
0.14277501 0.36763782 0.026936812
0.17465294 0.36808405 0.027806229
0.20706596 0.36880393 0.028294526
0.23997519 0.36977668 0.028430024
0.27334341 0.37098199 0.028239268
0.30610103 0.37198729 0.028350896
0.33829014 0.37282333 0.02874892
0.36992942 0.3735111 0.029431241
0.40101664 0.37406693 0.030403521
0.43175092 0.37446743 0.031769585
0.4621317 0.37471317 0.033529211
0.49215955 0.37480515 0.035682398
0.52183268 0.3747418 0.038229147
0.55162824 0.37457516 0.040855964
0.58150248 0.37430077 0.043611506
0.61141286 0.37390766 0.046550312
0.64131498 0.37338028 0.049740354
0.67054219 0.37286076 0.051448402
0.69899591 0.37234529 0.051557926
0.7265418 0.37183077 0.049891898
0.75299842 0.37131104 0.04619222
0.78028051 0.37086529 0.043215828
0.80848559 0.37050117 0.041062116
0.83775041 0.37023015 0.0398706
0.86827482 0.37006865 0.039836694
0.89915723 0.36993969 0.039810681
0.93035388 0.36984106 0.039789782
0.96190509 0.36977475 0.039775997
0.016113562 0.39965933 0.025674595
0.048085328 0.39974534 0.025989942
0.079902409 0.39987773 0.026475925
0.11156874 0.4000543 0.027130096
0.14304518 0.40028752 0.027995204
0.17499391 0.4008643 0.028451252
0.20735716 0.40174025 0.028547657
0.24008617 0.40287921 0.028326351
0.27313787 0.40424795 0.027826093
0.30550005 0.40529247 0.027706125
0.3372332 0.40606931 0.027931371
0.36835709 0.40661542 0.028487383
0.39885787 0.40695251 0.029381436
0.42907121 0.40711874 0.030517702
0.45899763 0.4071131 0.031895181
0.48863662 0.40693659 0.033513631
0.51798766 0.40658922 0.035373537
0.54747259 0.40609884 0.037362824
0.57701461 0.4054481 0.039539737
0.60653723 0.40460766 0.041978757
0.63595535 0.40353454 0.044777817
0.6648704 0.4025166 0.046539528
0.69325928 0.40157185 0.04712258
0.72110311 0.40072226 0.046385222
0.74839092 0.39998536 0.044191368
0.77645068 0.39936591 0.042474142
0.80528891 0.39886378 0.04125981
0.83494541 0.39848352 0.040601018
0.86551704 0.39824095 0.040591542
0.8964375 0.39804797 0.040584616
0.92766402 0.39789989 0.040578482
0.95923413 0.3978004 0.04057514
0.016030315 0.43168698 0.02782973
0.048024362 0.43180126 0.028013795
0.079882241 0.4319749 0.028293061
0.11161526 0.43220137 0.028661835
0.14319852 0.43249362 0.029135931
0.17512622 0.43314531 0.029247873
0.20734399 0.4341009 0.029053877
0.23980775 0.43531713 0.028599324
0.2724839 0.43675858 0.027920122
0.30445739 0.43779268 0.02766606
0.33578706 0.43849501 0.027785354
0.36648578 0.43890907 0.028257696
0.39652414 0.43905836 0.029087299
0.42632341 0.43902045 0.030052532
0.45588362 0.43879463 0.031152395
0.48520525 0.43838187 0.032386149
0.51428983 0.43778219 0.033755532
0.5434873 0.43701175 0.035263084
0.57269846 0.43603719 0.036965971
0.60181756 0.4348116 0.038936528
0.63071753 0.4332612 0.0412764
0.6593021 0.43180266 0.042961848
0.68762232 0.43048382 0.043863938
0.71575416 0.42935797 0.04387231
0.74378955 0.42846887 0.042909982
0.77250959 0.42772927 0.042176423
0.80186339 0.42712759 0.041672062
0.83183404 0.42666069 0.04141102
0.86244977 0.42633575 0.041429873
0.89340515 0.426079 0.041444893
0.9246587 0.42588017 0.041455867
0.95624615 0.42574854 0.041464008
0.016015685 0.46322436 0.029790826
0.048004792 0.46336031 0.02986312
0.079859234 0.46356423 0.029970266
0.11159542 0.46382727 0.030110263
0.14319548 0.46415917 0.030286549
0.17500477 0.46483394 0.030178359
0.20698135 0.46579741 0.029835466
0.2390959 0.46701009 0.029291359
0.27132752 0.46844463 0.028572374
0.30290025 0.46943277 0.028276112
0.33385733 0.47005056 0.028351676
0.3641991 0.47034158 0.028776474
0.39388542 0.47032586 0.029552507
0.42336367 0.47010662 0.030400519
0.45263683 0.46968388 0.031319511
0.48170448 0.46905863 0.032309482
0.51056989 0.46823172 0.033370868
0.53951656 0.46721695 0.034559334
0.5684335 0.46597378 0.035922653
0.5971987 0.46444279 0.037519158
0.62566544 0.46253511 0.039436803
0.65399159 0.46074819 0.040973498
0.68228535 0.45915458 0.042031237
0.71067112 0.45782555 0.042530221
0.73928287 0.45682111 0.042416089
0.76849175 0.45598758 0.04233972
0.79821806 0.45530531 0.042299932
0.82841532 0.45476089 0.042301881
0.85907175 0.45435433 0.042352184
0.89005893 0.45403201 0.042391795
0.92133741 0.4537832 0.042422433
0.95294164 0.4536179 0.042443098
0.016088774 0.49425879 0.031222318
0.048038444 0.49440389 0.031241734
0.079835053 0.49462138 0.031271057
0.1114986 0.49490087 0.031308285
0.14301318 0.49525105 0.031355722
0.17460241 0.49588697 0.031208039
0.20623999 0.49676915 0.030898499
0.23790593 0.49787595 0.030445476
0.26958542 0.49919632 0.029861743
0.3007069 0.50008299 0.029640598
0.3312885 0.50059261 0.029746593
0.36131972 0.50076005 0.03016405
0.39076029 0.50059848 0.030894365
0.42000966 0.50021678 0.03167821
0.44907054 0.49961495 0.032514586
0.47794514 0.49879488 0.033402888
0.50663746 0.49775929 0.034342418
0.53538516 0.49654427 0.035378243
0.56408478 0.49511023 0.036544342
0.59262278 0.49339962 0.037883976
0.62086616 0.49133428 0.039457783
0.64910581 0.48940574 0.040788275
0.67745487 0.48768423 0.04181391
0.70603364 0.48623481 0.042480049
0.73496073 0.48511082 0.04275213
0.76443471 0.48417979 0.042971004
0.79436415 0.48341058 0.043143575
0.82469046 0.4827847 0.043272844
0.85538343 0.48229594 0.043357717
0.88639988 0.48190761 0.043425476
0.91770093 0.48160851 0.043477422
0.94932015 0.48140924 0.043511953
0.016170758 0.52500632 0.032075094
0.048058683 0.52514771 0.032101383
0.079763909 0.52535945 0.03214096
0.11130708 0.5256332 0.032191504
0.14266891 0.5259763 0.032255692
0.17398388 0.52652056 0.032209754
0.20523199 0.52724913 0.032070791
0.23638937 0.52815921 0.031846546
0.26743187 0.52925998 0.031540021
0.29804462 0.52997828 0.031496111
0.32822633 0.53034395 0.031701328
0.35796461 0.53037517 0.03214896
0.38723094 0.53007997 0.03283965
0.41630963 0.52954632 0.033598851
0.44520364 0.52877552 0.034425563
0.47391894 0.52777124 0.035317784
0.50246017 0.52653645 0.036275194
0.53105549 0.52516309 0.037275207
0.55962566 0.52362006 0.038341923
0.58808635 0.52186688 0.039501477
0.61634519 0.51985126 0.040786425
0.6446823 0.51796481 0.04187187
0.67317471 0.51625109 0.042722901
0.70190054 0.51475168 0.043311672
0.73093249 0.51349975 0.04362037
0.7605 0.51246133 0.043872424
0.79050703 0.51159946 0.044076834
0.82089261 0.51089052 0.044237888
0.85162246 0.51032422 0.044356909
0.8826691 0.50987511 0.044451674
0.91399247 0.50952887 0.044525151
0.94562727 0.50929749 0.044573695
0.016071405 0.55580359 0.032737105
0.047908344 0.55594022 0.032767132
0.079536067 0.55614516 0.032813159
0.11097794 0.55641108 0.032872528
0.14221026 0.55674466 0.032947239
0.17330125 0.55720972 0.032977751
0.20422852 0.55780439 0.032972323
0.23495629 0.5585367 0.032934299
0.26544067 0.559425 0.032866679
0.2955809 0.55996924 0.032985232
0.32537504 0.56018326 0.033286643
0.35481785 0.56007439 0.033767939
0.38389816 0.5596476 0.034429409
0.41278673 0.55896163 0.035174697
0.44149026 0.55802149 0.036001778
0.47001643 0.55683019 0.036908308
0.49837329 0.55539376 0.037892604
0.52681592 0.5538742 0.03886647
0.55528616 0.55224824 0.039845166
0.58372722 0.55048932 0.040844298
0.61207764 0.5485659 0.041879441
0.6405668 0.54675531 0.042759619
0.66923947 0.54508208 0.043468254
0.69813774 0.54356708 0.043992112
0.72730235 0.5422292 0.044324247
0.75698142 0.5411174 0.044598039
0.78708063 0.54019097 0.044823174
0.81753764 0.53942256 0.045006308
0.84831479 0.5387985 0.045150812
0.87939816 0.53830352 0.045264604
0.91075012 0.53792194 0.045353369
0.9424043 0.53766678 0.045412108
0.01578285 0.58661562 0.033217478
0.04757744 0.58674817 0.033249115
0.079140506 0.586947 0.03329639
0.11049841 0.58720446 0.033357303
0.14162307 0.5875282 0.033434216
0.17254177 0.5879347 0.033510189
0.20322464 0.58843105 0.033587861
0.23362539 0.58902962 0.033670507
0.2636776 0.58975049 0.033762576
0.29343069 0.59014781 0.033995947
0.32288993 0.59022486 0.034368982
0.35205986 0.58998654 0.034879955
0.38094555 0.58943586 0.035525868
0.40962916 0.58860493 0.036271855
0.43812142 0.58750039 0.037113553
0.46643115 0.58612705 0.038047601
0.49456998 0.58449327 0.03907136
0.52285326 0.5828368 0.040038985
0.55123891 0.58114051 0.040959749
0.57968789 0.57938715 0.041843566
0.60816066 0.57755769 0.042698711
0.6368162 0.57582453 0.043434193
0.6656739 0.57419803 0.044042547
0.6947526 0.57268593 0.044519586
0.72406751 0.57129669 0.044863036
0.75387226 0.57014054 0.045147848
0.78407404 0.56917312 0.045385023
0.81461112 0.56836606 0.045580922
0.8454456 0.56770327 0.045740822
0.87657472 0.5671773 0.045866721
0.90796113 0.56677114 0.045964896
0.93963819 0.56650015 0.046029983
0.015286039 0.61740688 0.033518159
0.047045945 0.61753611 0.033546863
0.078557112 0.61773035 0.033589803
0.10984807 0.61798182 0.033644594
0.14088767 0.6182979 0.033714238
0.17168792 0.61867661 0.033797735
0.20221457 0.61912655 0.0338967
0.23241449 0.61966111 0.034013901
0.26221014 0.62030075 0.034154424
0.2917119 0.62061136 0.034426303
0.32093116 0.62059379 0.03482739
0.34987768 0.62025256 0.035355068
0.37856584 0.61959145 0.036006337
0.40703497 0.61862855 0.036770814
0.43529783 0.61737099 0.037644647
0.46336719 0.61582754 0.038622689
0.49125672 0.61400835 0.039702174
0.51936747 0.61221977 0.040693007
0.54766283 0.61044863 0.041603189
0.57611233 0.60868048 0.042441101
0.60468634 0.60690292 0.04321298
0.6334819 0.60521451 0.043879477
0.66250193 0.60361734 0.044439121
0.69174984 0.60211225 0.044891295
0.72122835 0.60070057 0.045235382
0.75116738 0.59952389 0.045522234
0.78147985 0.59853721 0.045762086
0.81210466 0.59771077 0.045962704
0.84300621 0.59702656 0.046127704
0.87418863 0.5964835 0.046258704
0.90561546 0.59606421 0.046360321
0.93731956 0.59578429 0.046427704
0.014549227 0.64813545 0.033632195
0.046281965 0.64826144 0.033655181
0.077752273 0.64845081 0.033689959
0.10899196 0.64869538 0.033733932
0.13996761 0.64900315 0.033789697
0.17069205 0.6493713 0.033856656
0.20113186 0.64980784 0.033935408
0.23123164 0.65032637 0.034029548
0.2609118 0.65094489 0.03414148
0.29027528 0.65121375 0.034399051
0.31933569 0.65113398 0.034799064
0.34810645 0.65071176 0.035338313
0.37660417 0.64995452 0.036012991
0.40486144 0.64887644 0.036813711
0.43289466 0.64748774 0.037736457
0.46072107 0.64580043 0.03877423
0.48836026 0.64382772 0.039921823
0.51630409 0.64193132 0.040958347
0.54451534 0.64009543 0.041893012
0.57296401 0.63830806 0.042734818
0.60162149 0.63655619 0.043489972
0.63053766 0.63489533 0.044137112
0.65970609 0.63332366 0.044678044
0.68911997 0.63183696 0.045114379
0.71877547 0.63043264 0.045445714
0.74885928 0.6292601 0.045723063
0.77929062 0.62827554 0.045954619
0.81001269 0.62744837 0.046149787
0.84099212 0.62676059 0.04631076
0.87223489 0.62621461 0.046438941
0.90370903 0.62579322 0.046537927
0.93544432 0.62551183 0.046603914
0.013522816 0.6787513 0.033539243
0.04523505 0.67887007 0.033557129
0.076675325 0.67904815 0.033584592
0.10787664 0.67927854 0.033618786
0.13880584 0.67956839 0.033662558
0.16947735 0.67991413 0.033715061
0.19985717 0.68032333 0.033776295
