site/assets/luts/blender-filmic--filmic-srgb-07-very-high-contrast--ba25709df.cube
# LUTr-Project: LUTr — LUTrepository
# LUTr-Schema-Version: 1
# LUTr-ID: blender-filmic--filmic-srgb-07-very-high-contrast--ba25709df
# LUTr-Title: Filmic sRGB 07 Very High Contrast
# LUTr-Collection: Blender Filmic
# LUTr-Collection-ID: lauloque-linear-to-blender-filmic
# LUTr-Source: https://github.com/Lauloque/LUTs-Linear-to-Blender-s-Filmic-sRGB
# LUTr-Source-File: submissions/lauloque-linear-to-blender-filmic/Filmic sRGB 07 Very High Contrast.3dl
# LUTr-Source-Format: 3DL
# LUTr-Source-SHA256: e4676a1f8015c15c1d1a01324c2337f995c2abfdc7fb90de9454c6bca76c4d7d
# LUTr-License: GPL-3.0
# LUTr-License-URL: https://github.com/Lauloque/LUTs-Linear-to-Blender-s-Filmic-sRGB/blob/master/LICENSE
# LUTr-Tags: technical, linear, blender-filmic, srgb, display-transform, 3dl, high-contrast, cube
# LUTr-Transform-Class: display-transform
# LUTr-Input-Color-Space: linear-rec709
# LUTr-Output-Color-Space: srgb
# LUTr-Color-Space-Confidence: documented-primaries-assumed
# LUTr-Conversion-Method: Native 3DL mesh and shaper converted to 3D CUBE
# LUTr-Conversion-Date: 2026-07-27
# LUTr-Conversion-Tool: LUTr scripts/convert-all-to-cube.mjs
# LUTr-Conversion-Grid: 17x17x17
# LUTr-Note: Preserve this metadata and the upstream license notices when redistributing.
TITLE "Filmic sRGB 07 Very High Contrast"
LUT_3D_SIZE 5
DOMAIN_MIN 0 0 0
DOMAIN_MAX 1 1 1
0 0 0
0.59771253 0 0
0.77486073 0 0
0.85010779 0 0
0.88986569 0 0
0 0.59771253 0
0.59771253 0.59771253 0
0.77486073 0.59771253 0
0.85010779 0.59771253 0
0.88986569 0.59771253 0
0 0.77486073 0
0.59771253 0.77486073 0
0.77486073 0.77486073 0
0.85010779 0.77486073 0
0.88986569 0.77486073 0
0 0.85010779 0
0.59771253 0.85010779 0
0.77486073 0.85010779 0
0.85010779 0.85010779 0
0.88986569 0.85010779 0
0 0.88986569 0
0.59771253 0.88986569 0
0.77486073 0.88986569 0
0.85010779 0.88986569 0
0.88986569 0.88986569 0
0 0 0.59771253
0.59771253 0 0.59771253
0.77486073 0 0.59771253
0.85010779 0 0.59771253
0.88986569 0 0.59771253
0 0.59771253 0.59771253
0.59771253 0.59771253 0.59771253
0.77486073 0.59771253 0.59771253
0.85010779 0.59771253 0.59771253
0.88986569 0.59771253 0.59771253
0 0.77486073 0.59771253
0.59771253 0.77486073 0.59771253
0.77486073 0.77486073 0.59771253
0.85010779 0.77486073 0.59771253
0.88986569 0.77486073 0.59771253
0 0.85010779 0.59771253
0.59771253 0.85010779 0.59771253
0.77486073 0.85010779 0.59771253
0.85010779 0.85010779 0.59771253
0.88986569 0.85010779 0.59771253
0 0.88986569 0.59771253
0.59771253 0.88986569 0.59771253
0.77486073 0.88986569 0.59771253
0.85010779 0.88986569 0.59771253
0.88986569 0.88986569 0.59771253
0 0 0.77486073
0.59771253 0 0.77486073
0.77486073 0 0.77486073
0.85010779 0 0.77486073
0.88986569 0 0.77486073
0 0.59771253 0.77486073
0.59771253 0.59771253 0.77486073
0.77486073 0.59771253 0.77486073
0.85010779 0.59771253 0.77486073
0.88986569 0.59771253 0.77486073
0 0.77486073 0.77486073
0.59771253 0.77486073 0.77486073
0.77486073 0.77486073 0.77486073
0.85010779 0.77486073 0.77486073
0.88986569 0.77486073 0.77486073
0 0.85010779 0.77486073
0.59771253 0.85010779 0.77486073
0.77486073 0.85010779 0.77486073
0.85010779 0.85010779 0.77486073
0.88986569 0.85010779 0.77486073
0 0.88986569 0.77486073
0.59771253 0.88986569 0.77486073
0.77486073 0.88986569 0.77486073
0.85010779 0.88986569 0.77486073
0.88986569 0.88986569 0.77486073
0 0 0.85010779
0.59771253 0 0.85010779
0.77486073 0 0.85010779
0.85010779 0 0.85010779
0.88986569 0 0.85010779
0 0.59771253 0.85010779
0.59771253 0.59771253 0.85010779
0.77486073 0.59771253 0.85010779
0.85010779 0.59771253 0.85010779
0.88986569 0.59771253 0.85010779
0 0.77486073 0.85010779
0.59771253 0.77486073 0.85010779
0.77486073 0.77486073 0.85010779
0.85010779 0.77486073 0.85010779
0.88986569 0.77486073 0.85010779
0 0.85010779 0.85010779
0.59771253 0.85010779 0.85010779
0.77486073 0.85010779 0.85010779
0.85010779 0.85010779 0.85010779
0.88986569 0.85010779 0.85010779
0 0.88986569 0.85010779
0.59771253 0.88986569 0.85010779
0.77486073 0.88986569 0.85010779
0.85010779 0.88986569 0.85010779
0.88986569 0.88986569 0.85010779
0 0 0.88986569
0.59771253 0 0.88986569
0.77486073 0 0.88986569
0.85010779 0 0.88986569
0.88986569 0 0.88986569
0 0.59771253 0.88986569
0.59771253 0.59771253 0.88986569
0.77486073 0.59771253 0.88986569
0.85010779 0.59771253 0.88986569
0.88986569 0.59771253 0.88986569
0 0.77486073 0.88986569
0.59771253 0.77486073 0.88986569
0.77486073 0.77486073 0.88986569
0.85010779 0.77486073 0.88986569
0.88986569 0.77486073 0.88986569
0 0.85010779 0.88986569
0.59771253 0.85010779 0.88986569
0.77486073 0.85010779 0.88986569
0.85010779 0.85010779 0.88986569
0.88986569 0.85010779 0.88986569
0 0.88986569 0.88986569
0.59771253 0.88986569 0.88986569
0.77486073 0.88986569 0.88986569
0.85010779 0.88986569 0.88986569
0.88986569 0.88986569 0.88986569
