site/assets/luts/blender-filmic--filmic-srgb-06-high-contrast--0f1b9e4a5.cube
# LUTr-Project: LUTr — LUTrepository
# LUTr-Schema-Version: 1
# LUTr-ID: blender-filmic--filmic-srgb-06-high-contrast--0f1b9e4a5
# LUTr-Title: Filmic sRGB 06 High Contrast
# LUTr-Collection: Blender Filmic
# LUTr-Collection-ID: lauloque-linear-to-blender-filmic
# LUTr-Source: https://github.com/Lauloque/LUTs-Linear-to-Blender-s-Filmic-sRGB
# LUTr-Source-File: submissions/lauloque-linear-to-blender-filmic/Filmic sRGB 06 High Contrast.3dl
# LUTr-Source-Format: 3DL
# LUTr-Source-SHA256: 0846de8be0c34616b5d3375940ad9e6ab526cce760b5b1d3c5f1f3e97d2e2c4f
# LUTr-License: GPL-3.0
# LUTr-License-URL: https://github.com/Lauloque/LUTs-Linear-to-Blender-s-Filmic-sRGB/blob/master/LICENSE
# LUTr-Tags: technical, linear, blender-filmic, srgb, display-transform, 3dl, high-contrast, cube
# LUTr-Transform-Class: display-transform
# LUTr-Input-Color-Space: linear-rec709
# LUTr-Output-Color-Space: srgb
# LUTr-Color-Space-Confidence: documented-primaries-assumed
# LUTr-Conversion-Method: Native 3DL mesh and shaper converted to 3D CUBE
# LUTr-Conversion-Date: 2026-07-27
# LUTr-Conversion-Tool: LUTr scripts/convert-all-to-cube.mjs
# LUTr-Conversion-Grid: 17x17x17
# LUTr-Note: Preserve this metadata and the upstream license notices when redistributing.
TITLE "Filmic sRGB 06 High Contrast"
LUT_3D_SIZE 9
DOMAIN_MIN 0 0 0
DOMAIN_MAX 1 1 1
0 0 0
0.4077586 0 0
0.58408406 0 0
0.68228785 0 0
0.74483555 0 0
0.78837712 0 0
0.81983078 0 0
0.8439756 0 0
0.86300366 0 0
0 0.4077586 0
0.4077586 0.4077586 0
0.58408406 0.4077586 0
0.68228785 0.4077586 0
0.74483555 0.4077586 0
0.78837712 0.4077586 0
0.81983078 0.4077586 0
0.8439756 0.4077586 0
0.86300366 0.4077586 0
0 0.58408406 0
0.4077586 0.58408406 0
0.58408406 0.58408406 0
0.68228785 0.58408406 0
0.74483555 0.58408406 0
0.78837712 0.58408406 0
0.81983078 0.58408406 0
0.8439756 0.58408406 0
0.86300366 0.58408406 0
0 0.68228785 0
0.4077586 0.68228785 0
0.58408406 0.68228785 0
0.68228785 0.68228785 0
0.74483555 0.68228785 0
0.78837712 0.68228785 0
0.81983078 0.68228785 0
0.8439756 0.68228785 0
0.86300366 0.68228785 0
0 0.74483555 0
0.4077586 0.74483555 0
0.58408406 0.74483555 0
0.68228785 0.74483555 0
0.74483555 0.74483555 0
0.78837712 0.74483555 0
0.81983078 0.74483555 0
0.8439756 0.74483555 0
0.86300366 0.74483555 0
0 0.78837712 0
0.4077586 0.78837712 0
0.58408406 0.78837712 0
0.68228785 0.78837712 0
0.74483555 0.78837712 0
0.78837712 0.78837712 0
0.81983078 0.78837712 0
0.8439756 0.78837712 0
0.86300366 0.78837712 0
0 0.81983078 0
0.4077586 0.81983078 0
0.58408406 0.81983078 0
0.68228785 0.81983078 0
0.74483555 0.81983078 0
0.78837712 0.81983078 0
0.81983078 0.81983078 0
0.8439756 0.81983078 0
0.86300366 0.81983078 0
0 0.8439756 0
0.4077586 0.8439756 0
0.58408406 0.8439756 0
0.68228785 0.8439756 0
0.74483555 0.8439756 0
0.78837712 0.8439756 0
0.81983078 0.8439756 0
0.8439756 0.8439756 0
0.86300366 0.8439756 0
0 0.86300366 0
0.4077586 0.86300366 0
0.58408406 0.86300366 0
0.68228785 0.86300366 0
0.74483555 0.86300366 0
0.78837712 0.86300366 0
0.81983078 0.86300366 0
0.8439756 0.86300366 0
0.86300366 0.86300366 0
0 0 0.4077586
0.4077586 0 0.4077586
0.58408406 0 0.4077586
0.68228785 0 0.4077586
0.74483555 0 0.4077586
0.78837712 0 0.4077586
0.81983078 0 0.4077586
0.8439756 0 0.4077586
0.86300366 0 0.4077586
0 0.4077586 0.4077586
0.4077586 0.4077586 0.4077586
0.58408406 0.4077586 0.4077586
0.68228785 0.4077586 0.4077586
0.74483555 0.4077586 0.4077586
0.78837712 0.4077586 0.4077586
0.81983078 0.4077586 0.4077586
0.8439756 0.4077586 0.4077586
0.86300366 0.4077586 0.4077586
0 0.58408406 0.4077586
0.4077586 0.58408406 0.4077586
0.58408406 0.58408406 0.4077586
0.68228785 0.58408406 0.4077586
0.74483555 0.58408406 0.4077586
0.78837712 0.58408406 0.4077586
0.81983078 0.58408406 0.4077586
0.8439756 0.58408406 0.4077586
0.86300366 0.58408406 0.4077586
0 0.68228785 0.4077586
0.4077586 0.68228785 0.4077586
0.58408406 0.68228785 0.4077586
0.68228785 0.68228785 0.4077586
0.74483555 0.68228785 0.4077586
0.78837712 0.68228785 0.4077586
0.81983078 0.68228785 0.4077586
0.8439756 0.68228785 0.4077586
0.86300366 0.68228785 0.4077586
0 0.74483555 0.4077586
0.4077586 0.74483555 0.4077586
0.58408406 0.74483555 0.4077586
0.68228785 0.74483555 0.4077586
0.74483555 0.74483555 0.4077586
0.78837712 0.74483555 0.4077586
0.81983078 0.74483555 0.4077586
0.8439756 0.74483555 0.4077586
0.86300366 0.74483555 0.4077586
0 0.78837712 0.4077586
0.4077586 0.78837712 0.4077586
0.58408406 0.78837712 0.4077586
0.68228785 0.78837712 0.4077586
0.74483555 0.78837712 0.4077586
0.78837712 0.78837712 0.4077586
0.81983078 0.78837712 0.4077586
0.8439756 0.78837712 0.4077586
0.86300366 0.78837712 0.4077586
0 0.81983078 0.4077586
0.4077586 0.81983078 0.4077586
0.58408406 0.81983078 0.4077586
0.68228785 0.81983078 0.4077586
0.74483555 0.81983078 0.4077586
0.78837712 0.81983078 0.4077586
0.81983078 0.81983078 0.4077586
0.8439756 0.81983078 0.4077586
0.86300366 0.81983078 0.4077586
0 0.8439756 0.4077586
0.4077586 0.8439756 0.4077586
0.58408406 0.8439756 0.4077586
0.68228785 0.8439756 0.4077586
0.74483555 0.8439756 0.4077586
0.78837712 0.8439756 0.4077586
0.81983078 0.8439756 0.4077586
0.8439756 0.8439756 0.4077586
0.86300366 0.8439756 0.4077586
0 0.86300366 0.4077586
0.4077586 0.86300366 0.4077586
0.58408406 0.86300366 0.4077586
0.68228785 0.86300366 0.4077586
0.74483555 0.86300366 0.4077586
0.78837712 0.86300366 0.4077586
0.81983078 0.86300366 0.4077586
0.8439756 0.86300366 0.4077586
0.86300366 0.86300366 0.4077586
0 0 0.58408406
0.4077586 0 0.58408406
0.58408406 0 0.58408406
0.68228785 0 0.58408406
0.74483555 0 0.58408406
0.78837712 0 0.58408406
0.81983078 0 0.58408406
0.8439756 0 0.58408406
0.86300366 0 0.58408406
0 0.4077586 0.58408406
0.4077586 0.4077586 0.58408406
0.58408406 0.4077586 0.58408406
0.68228785 0.4077586 0.58408406
0.74483555 0.4077586 0.58408406
0.78837712 0.4077586 0.58408406
0.81983078 0.4077586 0.58408406
0.8439756 0.4077586 0.58408406
0.86300366 0.4077586 0.58408406
0 0.58408406 0.58408406
0.4077586 0.58408406 0.58408406
0.58408406 0.58408406 0.58408406
0.68228785 0.58408406 0.58408406
0.74483555 0.58408406 0.58408406
0.78837712 0.58408406 0.58408406
0.81983078 0.58408406 0.58408406
0.8439756 0.58408406 0.58408406
0.86300366 0.58408406 0.58408406
0 0.68228785 0.58408406
0.4077586 0.68228785 0.58408406
0.58408406 0.68228785 0.58408406
0.68228785 0.68228785 0.58408406
0.74483555 0.68228785 0.58408406
0.78837712 0.68228785 0.58408406
0.81983078 0.68228785 0.58408406
0.8439756 0.68228785 0.58408406
0.86300366 0.68228785 0.58408406
0 0.74483555 0.58408406
0.4077586 0.74483555 0.58408406
0.58408406 0.74483555 0.58408406
0.68228785 0.74483555 0.58408406
0.74483555 0.74483555 0.58408406
0.78837712 0.74483555 0.58408406
0.81983078 0.74483555 0.58408406
0.8439756 0.74483555 0.58408406
0.86300366 0.74483555 0.58408406
0 0.78837712 0.58408406
0.4077586 0.78837712 0.58408406
0.58408406 0.78837712 0.58408406
0.68228785 0.78837712 0.58408406
0.74483555 0.78837712 0.58408406
0.78837712 0.78837712 0.58408406
0.81983078 0.78837712 0.58408406
0.8439756 0.78837712 0.58408406
0.86300366 0.78837712 0.58408406
0 0.81983078 0.58408406
0.4077586 0.81983078 0.58408406
0.58408406 0.81983078 0.58408406
0.68228785 0.81983078 0.58408406
0.74483555 0.81983078 0.58408406
0.78837712 0.81983078 0.58408406
0.81983078 0.81983078 0.58408406
0.8439756 0.81983078 0.58408406
0.86300366 0.81983078 0.58408406
0 0.8439756 0.58408406
0.4077586 0.8439756 0.58408406
0.58408406 0.8439756 0.58408406
0.68228785 0.8439756 0.58408406
0.74483555 0.8439756 0.58408406
0.78837712 0.8439756 0.58408406
0.81983078 0.8439756 0.58408406
0.8439756 0.8439756 0.58408406
0.86300366 0.8439756 0.58408406
0 0.86300366 0.58408406
0.4077586 0.86300366 0.58408406
0.58408406 0.86300366 0.58408406
0.68228785 0.86300366 0.58408406
0.74483555 0.86300366 0.58408406
0.78837712 0.86300366 0.58408406
0.81983078 0.86300366 0.58408406
0.8439756 0.86300366 0.58408406
0.86300366 0.86300366 0.58408406
0 0 0.68228785
0.4077586 0 0.68228785
0.58408406 0 0.68228785
0.68228785 0 0.68228785
0.74483555 0 0.68228785
0.78837712 0 0.68228785
0.81983078 0 0.68228785
0.8439756 0 0.68228785
0.86300366 0 0.68228785
0 0.4077586 0.68228785
0.4077586 0.4077586 0.68228785
0.58408406 0.4077586 0.68228785
0.68228785 0.4077586 0.68228785
0.74483555 0.4077586 0.68228785
0.78837712 0.4077586 0.68228785
0.81983078 0.4077586 0.68228785
0.8439756 0.4077586 0.68228785
0.86300366 0.4077586 0.68228785
0 0.58408406 0.68228785
0.4077586 0.58408406 0.68228785
0.58408406 0.58408406 0.68228785
0.68228785 0.58408406 0.68228785
0.74483555 0.58408406 0.68228785
0.78837712 0.58408406 0.68228785
0.81983078 0.58408406 0.68228785
0.8439756 0.58408406 0.68228785
0.86300366 0.58408406 0.68228785
0 0.68228785 0.68228785
0.4077586 0.68228785 0.68228785
0.58408406 0.68228785 0.68228785
0.68228785 0.68228785 0.68228785
0.74483555 0.68228785 0.68228785
0.78837712 0.68228785 0.68228785
0.81983078 0.68228785 0.68228785
0.8439756 0.68228785 0.68228785
0.86300366 0.68228785 0.68228785
0 0.74483555 0.68228785
0.4077586 0.74483555 0.68228785
0.58408406 0.74483555 0.68228785
0.68228785 0.74483555 0.68228785
0.74483555 0.74483555 0.68228785
0.78837712 0.74483555 0.68228785
0.81983078 0.74483555 0.68228785
0.8439756 0.74483555 0.68228785
0.86300366 0.74483555 0.68228785
0 0.78837712 0.68228785
0.4077586 0.78837712 0.68228785
0.58408406 0.78837712 0.68228785
0.68228785 0.78837712 0.68228785
0.74483555 0.78837712 0.68228785
0.78837712 0.78837712 0.68228785
0.81983078 0.78837712 0.68228785
0.8439756 0.78837712 0.68228785
0.86300366 0.78837712 0.68228785
0 0.81983078 0.68228785
0.4077586 0.81983078 0.68228785
0.58408406 0.81983078 0.68228785
0.68228785 0.81983078 0.68228785
0.74483555 0.81983078 0.68228785
0.78837712 0.81983078 0.68228785
0.81983078 0.81983078 0.68228785
0.8439756 0.81983078 0.68228785
0.86300366 0.81983078 0.68228785
0 0.8439756 0.68228785
0.4077586 0.8439756 0.68228785
0.58408406 0.8439756 0.68228785
0.68228785 0.8439756 0.68228785
0.74483555 0.8439756 0.68228785
0.78837712 0.8439756 0.68228785
0.81983078 0.8439756 0.68228785
0.8439756 0.8439756 0.68228785
0.86300366 0.8439756 0.68228785
0 0.86300366 0.68228785
0.4077586 0.86300366 0.68228785
0.58408406 0.86300366 0.68228785
0.68228785 0.86300366 0.68228785
0.74483555 0.86300366 0.68228785
0.78837712 0.86300366 0.68228785
0.81983078 0.86300366 0.68228785
0.8439756 0.86300366 0.68228785
0.86300366 0.86300366 0.68228785
0 0 0.74483555
0.4077586 0 0.74483555
0.58408406 0 0.74483555
0.68228785 0 0.74483555
0.74483555 0 0.74483555
0.78837712 0 0.74483555
0.81983078 0 0.74483555
0.8439756 0 0.74483555
0.86300366 0 0.74483555
0 0.4077586 0.74483555
0.4077586 0.4077586 0.74483555
0.58408406 0.4077586 0.74483555
0.68228785 0.4077586 0.74483555
0.74483555 0.4077586 0.74483555
0.78837712 0.4077586 0.74483555
0.81983078 0.4077586 0.74483555
0.8439756 0.4077586 0.74483555
0.86300366 0.4077586 0.74483555
0 0.58408406 0.74483555
0.4077586 0.58408406 0.74483555
0.58408406 0.58408406 0.74483555
0.68228785 0.58408406 0.74483555
0.74483555 0.58408406 0.74483555
0.78837712 0.58408406 0.74483555
0.81983078 0.58408406 0.74483555
0.8439756 0.58408406 0.74483555
0.86300366 0.58408406 0.74483555
0 0.68228785 0.74483555
0.4077586 0.68228785 0.74483555
0.58408406 0.68228785 0.74483555
0.68228785 0.68228785 0.74483555
0.74483555 0.68228785 0.74483555
0.78837712 0.68228785 0.74483555
0.81983078 0.68228785 0.74483555
0.8439756 0.68228785 0.74483555
0.86300366 0.68228785 0.74483555
0 0.74483555 0.74483555
0.4077586 0.74483555 0.74483555
0.58408406 0.74483555 0.74483555
0.68228785 0.74483555 0.74483555
0.74483555 0.74483555 0.74483555
0.78837712 0.74483555 0.74483555
0.81983078 0.74483555 0.74483555
0.8439756 0.74483555 0.74483555
0.86300366 0.74483555 0.74483555
0 0.78837712 0.74483555
0.4077586 0.78837712 0.74483555
0.58408406 0.78837712 0.74483555
0.68228785 0.78837712 0.74483555
0.74483555 0.78837712 0.74483555
0.78837712 0.78837712 0.74483555
0.81983078 0.78837712 0.74483555
0.8439756 0.78837712 0.74483555
0.86300366 0.78837712 0.74483555
0 0.81983078 0.74483555
0.4077586 0.81983078 0.74483555
0.58408406 0.81983078 0.74483555
0.68228785 0.81983078 0.74483555
0.74483555 0.81983078 0.74483555
0.78837712 0.81983078 0.74483555
0.81983078 0.81983078 0.74483555
0.8439756 0.81983078 0.74483555
0.86300366 0.81983078 0.74483555
0 0.8439756 0.74483555
0.4077586 0.8439756 0.74483555
0.58408406 0.8439756 0.74483555
0.68228785 0.8439756 0.74483555
0.74483555 0.8439756 0.74483555
0.78837712 0.8439756 0.74483555
0.81983078 0.8439756 0.74483555
0.8439756 0.8439756 0.74483555
0.86300366 0.8439756 0.74483555
0 0.86300366 0.74483555
0.4077586 0.86300366 0.74483555
0.58408406 0.86300366 0.74483555
0.68228785 0.86300366 0.74483555
0.74483555 0.86300366 0.74483555
0.78837712 0.86300366 0.74483555
0.81983078 0.86300366 0.74483555
0.8439756 0.86300366 0.74483555
0.86300366 0.86300366 0.74483555
0 0 0.78837712
0.4077586 0 0.78837712
0.58408406 0 0.78837712
0.68228785 0 0.78837712
0.74483555 0 0.78837712
0.78837712 0 0.78837712
0.81983078 0 0.78837712
0.8439756 0 0.78837712
0.86300366 0 0.78837712
0 0.4077586 0.78837712
0.4077586 0.4077586 0.78837712
0.58408406 0.4077586 0.78837712
0.68228785 0.4077586 0.78837712
0.74483555 0.4077586 0.78837712
0.78837712 0.4077586 0.78837712
0.81983078 0.4077586 0.78837712
0.8439756 0.4077586 0.78837712
0.86300366 0.4077586 0.78837712
0 0.58408406 0.78837712
0.4077586 0.58408406 0.78837712
0.58408406 0.58408406 0.78837712
0.68228785 0.58408406 0.78837712
0.74483555 0.58408406 0.78837712
0.78837712 0.58408406 0.78837712
0.81983078 0.58408406 0.78837712
0.8439756 0.58408406 0.78837712
0.86300366 0.58408406 0.78837712
0 0.68228785 0.78837712
0.4077586 0.68228785 0.78837712
0.58408406 0.68228785 0.78837712
0.68228785 0.68228785 0.78837712
0.74483555 0.68228785 0.78837712
0.78837712 0.68228785 0.78837712
0.81983078 0.68228785 0.78837712
0.8439756 0.68228785 0.78837712
0.86300366 0.68228785 0.78837712
0 0.74483555 0.78837712
0.4077586 0.74483555 0.78837712
0.58408406 0.74483555 0.78837712
0.68228785 0.74483555 0.78837712
0.74483555 0.74483555 0.78837712
0.78837712 0.74483555 0.78837712
0.81983078 0.74483555 0.78837712
0.8439756 0.74483555 0.78837712
0.86300366 0.74483555 0.78837712
0 0.78837712 0.78837712
0.4077586 0.78837712 0.78837712
0.58408406 0.78837712 0.78837712
0.68228785 0.78837712 0.78837712
0.74483555 0.78837712 0.78837712
0.78837712 0.78837712 0.78837712
0.81983078 0.78837712 0.78837712
0.8439756 0.78837712 0.78837712
0.86300366 0.78837712 0.78837712
0 0.81983078 0.78837712
0.4077586 0.81983078 0.78837712
0.58408406 0.81983078 0.78837712
0.68228785 0.81983078 0.78837712
0.74483555 0.81983078 0.78837712
0.78837712 0.81983078 0.78837712
0.81983078 0.81983078 0.78837712
0.8439756 0.81983078 0.78837712
0.86300366 0.81983078 0.78837712
0 0.8439756 0.78837712
0.4077586 0.8439756 0.78837712
0.58408406 0.8439756 0.78837712
0.68228785 0.8439756 0.78837712
0.74483555 0.8439756 0.78837712
0.78837712 0.8439756 0.78837712
0.81983078 0.8439756 0.78837712
0.8439756 0.8439756 0.78837712
0.86300366 0.8439756 0.78837712
0 0.86300366 0.78837712
0.4077586 0.86300366 0.78837712
0.58408406 0.86300366 0.78837712
0.68228785 0.86300366 0.78837712
0.74483555 0.86300366 0.78837712
0.78837712 0.86300366 0.78837712
0.81983078 0.86300366 0.78837712
0.8439756 0.86300366 0.78837712
0.86300366 0.86300366 0.78837712
0 0 0.81983078
0.4077586 0 0.81983078
0.58408406 0 0.81983078
0.68228785 0 0.81983078
0.74483555 0 0.81983078
0.78837712 0 0.81983078
0.81983078 0 0.81983078
0.8439756 0 0.81983078
0.86300366 0 0.81983078
0 0.4077586 0.81983078
0.4077586 0.4077586 0.81983078
0.58408406 0.4077586 0.81983078
0.68228785 0.4077586 0.81983078
0.74483555 0.4077586 0.81983078
0.78837712 0.4077586 0.81983078
0.81983078 0.4077586 0.81983078
0.8439756 0.4077586 0.81983078
0.86300366 0.4077586 0.81983078
0 0.58408406 0.81983078
0.4077586 0.58408406 0.81983078
0.58408406 0.58408406 0.81983078
0.68228785 0.58408406 0.81983078
0.74483555 0.58408406 0.81983078
0.78837712 0.58408406 0.81983078
0.81983078 0.58408406 0.81983078
0.8439756 0.58408406 0.81983078
0.86300366 0.58408406 0.81983078
0 0.68228785 0.81983078
0.4077586 0.68228785 0.81983078
0.58408406 0.68228785 0.81983078
0.68228785 0.68228785 0.81983078
0.74483555 0.68228785 0.81983078
0.78837712 0.68228785 0.81983078
0.81983078 0.68228785 0.81983078
0.8439756 0.68228785 0.81983078
0.86300366 0.68228785 0.81983078
0 0.74483555 0.81983078
0.4077586 0.74483555 0.81983078
0.58408406 0.74483555 0.81983078
0.68228785 0.74483555 0.81983078
0.74483555 0.74483555 0.81983078
0.78837712 0.74483555 0.81983078
0.81983078 0.74483555 0.81983078
0.8439756 0.74483555 0.81983078
0.86300366 0.74483555 0.81983078
0 0.78837712 0.81983078
0.4077586 0.78837712 0.81983078
0.58408406 0.78837712 0.81983078
0.68228785 0.78837712 0.81983078
0.74483555 0.78837712 0.81983078
0.78837712 0.78837712 0.81983078
0.81983078 0.78837712 0.81983078
0.8439756 0.78837712 0.81983078
0.86300366 0.78837712 0.81983078
0 0.81983078 0.81983078
0.4077586 0.81983078 0.81983078
0.58408406 0.81983078 0.81983078
0.68228785 0.81983078 0.81983078
0.74483555 0.81983078 0.81983078
0.78837712 0.81983078 0.81983078
0.81983078 0.81983078 0.81983078
0.8439756 0.81983078 0.81983078
0.86300366 0.81983078 0.81983078
0 0.8439756 0.81983078
0.4077586 0.8439756 0.81983078
0.58408406 0.8439756 0.81983078
0.68228785 0.8439756 0.81983078
0.74483555 0.8439756 0.81983078
0.78837712 0.8439756 0.81983078
0.81983078 0.8439756 0.81983078
0.8439756 0.8439756 0.81983078
0.86300366 0.8439756 0.81983078
0 0.86300366 0.81983078
0.4077586 0.86300366 0.81983078
0.58408406 0.86300366 0.81983078
0.68228785 0.86300366 0.81983078
0.74483555 0.86300366 0.81983078
0.78837712 0.86300366 0.81983078
0.81983078 0.86300366 0.81983078
0.8439756 0.86300366 0.81983078
0.86300366 0.86300366 0.81983078
0 0 0.8439756
0.4077586 0 0.8439756
0.58408406 0 0.8439756
0.68228785 0 0.8439756
0.74483555 0 0.8439756
0.78837712 0 0.8439756
0.81983078 0 0.8439756
0.8439756 0 0.8439756
0.86300366 0 0.8439756
0 0.4077586 0.8439756
0.4077586 0.4077586 0.8439756
0.58408406 0.4077586 0.8439756
0.68228785 0.4077586 0.8439756
0.74483555 0.4077586 0.8439756
0.78837712 0.4077586 0.8439756
0.81983078 0.4077586 0.8439756
0.8439756 0.4077586 0.8439756
0.86300366 0.4077586 0.8439756
0 0.58408406 0.8439756
0.4077586 0.58408406 0.8439756
0.58408406 0.58408406 0.8439756
0.68228785 0.58408406 0.8439756
0.74483555 0.58408406 0.8439756
0.78837712 0.58408406 0.8439756
0.81983078 0.58408406 0.8439756
0.8439756 0.58408406 0.8439756
0.86300366 0.58408406 0.8439756
0 0.68228785 0.8439756
0.4077586 0.68228785 0.8439756
0.58408406 0.68228785 0.8439756
0.68228785 0.68228785 0.8439756
0.74483555 0.68228785 0.8439756
0.78837712 0.68228785 0.8439756
0.81983078 0.68228785 0.8439756
0.8439756 0.68228785 0.8439756
0.86300366 0.68228785 0.8439756
0 0.74483555 0.8439756
0.4077586 0.74483555 0.8439756
0.58408406 0.74483555 0.8439756
0.68228785 0.74483555 0.8439756
0.74483555 0.74483555 0.8439756
0.78837712 0.74483555 0.8439756
0.81983078 0.74483555 0.8439756
0.8439756 0.74483555 0.8439756
0.86300366 0.74483555 0.8439756
0 0.78837712 0.8439756
0.4077586 0.78837712 0.8439756
0.58408406 0.78837712 0.8439756
0.68228785 0.78837712 0.8439756
0.74483555 0.78837712 0.8439756
0.78837712 0.78837712 0.8439756
0.81983078 0.78837712 0.8439756
0.8439756 0.78837712 0.8439756
0.86300366 0.78837712 0.8439756
0 0.81983078 0.8439756
0.4077586 0.81983078 0.8439756
0.58408406 0.81983078 0.8439756
0.68228785 0.81983078 0.8439756
0.74483555 0.81983078 0.8439756
0.78837712 0.81983078 0.8439756
0.81983078 0.81983078 0.8439756
0.8439756 0.81983078 0.8439756
0.86300366 0.81983078 0.8439756
0 0.8439756 0.8439756
0.4077586 0.8439756 0.8439756
0.58408406 0.8439756 0.8439756
0.68228785 0.8439756 0.8439756
0.74483555 0.8439756 0.8439756
0.78837712 0.8439756 0.8439756
0.81983078 0.8439756 0.8439756
0.8439756 0.8439756 0.8439756
0.86300366 0.8439756 0.8439756
0 0.86300366 0.8439756
0.4077586 0.86300366 0.8439756
0.58408406 0.86300366 0.8439756
0.68228785 0.86300366 0.8439756
0.74483555 0.86300366 0.8439756
0.78837712 0.86300366 0.8439756
0.81983078 0.86300366 0.8439756
0.8439756 0.86300366 0.8439756
0.86300366 0.86300366 0.8439756
0 0 0.86300366
0.4077586 0 0.86300366
0.58408406 0 0.86300366
0.68228785 0 0.86300366
0.74483555 0 0.86300366
0.78837712 0 0.86300366
0.81983078 0 0.86300366
0.8439756 0 0.86300366
0.86300366 0 0.86300366
0 0.4077586 0.86300366
0.4077586 0.4077586 0.86300366
0.58408406 0.4077586 0.86300366
0.68228785 0.4077586 0.86300366
0.74483555 0.4077586 0.86300366
0.78837712 0.4077586 0.86300366
0.81983078 0.4077586 0.86300366
0.8439756 0.4077586 0.86300366
0.86300366 0.4077586 0.86300366
0 0.58408406 0.86300366
0.4077586 0.58408406 0.86300366
0.58408406 0.58408406 0.86300366
0.68228785 0.58408406 0.86300366
0.74483555 0.58408406 0.86300366
0.78837712 0.58408406 0.86300366
0.81983078 0.58408406 0.86300366
0.8439756 0.58408406 0.86300366
0.86300366 0.58408406 0.86300366
0 0.68228785 0.86300366
0.4077586 0.68228785 0.86300366
0.58408406 0.68228785 0.86300366
0.68228785 0.68228785 0.86300366
0.74483555 0.68228785 0.86300366
0.78837712 0.68228785 0.86300366
0.81983078 0.68228785 0.86300366
0.8439756 0.68228785 0.86300366
0.86300366 0.68228785 0.86300366
0 0.74483555 0.86300366
0.4077586 0.74483555 0.86300366
0.58408406 0.74483555 0.86300366
0.68228785 0.74483555 0.86300366
0.74483555 0.74483555 0.86300366
0.78837712 0.74483555 0.86300366
0.81983078 0.74483555 0.86300366
0.8439756 0.74483555 0.86300366
0.86300366 0.74483555 0.86300366
0 0.78837712 0.86300366
0.4077586 0.78837712 0.86300366
0.58408406 0.78837712 0.86300366
0.68228785 0.78837712 0.86300366
0.74483555 0.78837712 0.86300366
0.78837712 0.78837712 0.86300366
0.81983078 0.78837712 0.86300366
0.8439756 0.78837712 0.86300366
0.86300366 0.78837712 0.86300366
0 0.81983078 0.86300366
0.4077586 0.81983078 0.86300366
0.58408406 0.81983078 0.86300366
0.68228785 0.81983078 0.86300366
0.74483555 0.81983078 0.86300366
0.78837712 0.81983078 0.86300366
0.81983078 0.81983078 0.86300366
0.8439756 0.81983078 0.86300366
0.86300366 0.81983078 0.86300366
0 0.8439756 0.86300366
0.4077586 0.8439756 0.86300366
0.58408406 0.8439756 0.86300366
0.68228785 0.8439756 0.86300366
0.74483555 0.8439756 0.86300366
0.78837712 0.8439756 0.86300366
0.81983078 0.8439756 0.86300366
0.8439756 0.8439756 0.86300366
0.86300366 0.8439756 0.86300366
0 0.86300366 0.86300366
0.4077586 0.86300366 0.86300366
0.58408406 0.86300366 0.86300366
0.68228785 0.86300366 0.86300366
0.74483555 0.86300366 0.86300366
0.78837712 0.86300366 0.86300366
0.81983078 0.86300366 0.86300366
0.8439756 0.86300366 0.86300366
0.86300366 0.86300366 0.86300366
