site/assets/luts/christophwurst-hald--krakow--4ac8d3eb5.cube
# LUTr-Project: LUTr — LUTrepository
# LUTr-Schema-Version: 1
# LUTr-ID: christophwurst-hald--krakow--4ac8d3eb5
# LUTr-Title: Krakow
# LUTr-Collection: ChristophWurst Hald
# LUTr-Collection-ID: christophwurst-haldclut
# LUTr-Source: https://github.com/ChristophWurst/haldclut
# LUTr-Source-File: submissions/christophwurst-haldclut/v1/Krakow.tif
# LUTr-Source-Format: TIF
# LUTr-Source-SHA256: 2f771ef7634ba5e0c6d0f858ce9be8651f74001b8412241a52d38e63fce6d8eb
# LUTr-License: CC-BY-SA-4.0
# LUTr-License-URL: https://github.com/ChristophWurst/haldclut/blob/master/LICENSE
# LUTr-Tags: creative, hald-clut, rawtherapee, tif, cube
# LUTr-Transform-Class: creative-look
# LUTr-Input-Color-Space: srgb
# LUTr-Output-Color-Space: srgb
# LUTr-Color-Space-Confidence: assumed-display-referred
# LUTr-Conversion-Method: TIF LUT image decoded at 16-bit and sampled to 25x25x25 3D CUBE
# LUTr-Conversion-Date: 2026-07-27
# LUTr-Conversion-Tool: LUTr scripts/convert-all-to-cube.mjs
# LUTr-Conversion-Grid: 25x25x25
# LUTr-Note: Preserve this metadata and the upstream license notices when redistributing.
TITLE "Krakow"
LUT_3D_SIZE 9
DOMAIN_MIN 0 0 0
DOMAIN_MAX 1 1 1
0 0 0
0.10891508 0.019584955 0.015581369
0.24019608 0.042984665 0.049717708
0.37597467 0.085963607 0.10387961
0.51567864 0.11915007 0.15020981
0.65920119 0.15242046 0.20043107
0.8184329 0.18755245 0.25846494
0.98540093 0.22708858 0.32039178
0.99607843 0.2695964 0.35898375
0.081584268 0.10108148 0.084981308
0.096689746 0.10446946 0.077185378
0.21729038 0.12356184 0.045873865
0.37205859 0.1504406 0.10149372
0.50832475 0.17510395 0.14634928
0.65919285 0.19879239 0.2004387
0.81838188 0.22610199 0.25847448
0.98541404 0.26135677 0.31999719
0.99610323 0.30034142 0.35899138
0.1620737 0.21388952 0.16700237
0.1708896 0.21391241 0.16215
0.20505455 0.20998798 0.12476349
0.32795548 0.22561704 0.10001955
0.49261082 0.26080911 0.1424239
0.64778172 0.28364614 0.19266709
0.8182908 0.30450713 0.25460727
0.98534276 0.33416114 0.3165384
0.99606317 0.36530098 0.36684215
0.25241855 0.32524224 0.2563592
0.26021592 0.3251812 0.25242237
0.27877995 0.32521506 0.23923619
0.3212408 0.32135309 0.18603609
0.44207103 0.33454833 0.15354105
0.61905947 0.37505961 0.19271477
0.80081254 0.4115754 0.24589055
0.97134451 0.43728661 0.30393897
0.99604028 0.44394598 0.35911345
0.35150683 0.44926375 0.35359731
0.35543603 0.44927901 0.35159838
0.36901656 0.45071908 0.34565499
0.39493687 0.44927138 0.32568189
0.44130617 0.4453727 0.26462959
0.57311551 0.45784218 0.20398928
0.75041772 0.50058175 0.24988746
0.93250267 0.54722667 0.29668498
0.9960174 0.54501411 0.34744793
0.46236744 0.59283207 0.4678378
0.46752332 0.59282897 0.46778487
0.47731699 0.59672742 0.46392863
0.49655027 0.59675603 0.45311189
0.52750534 0.59673266 0.42674144
0.58188468 0.58894627 0.35691186
0.70555476 0.59740024 0.27489223
0.85481446 0.63050064 0.30467284
0.99595254 0.65929465 0.33818189
0.57219043 0.73538567 0.58299763
0.57607767 0.73643091 0.58017853
0.58387121 0.73636988 0.5762417
0.60137236 0.73636893 0.56835708
0.62588693 0.73635653 0.55229839
0.66248474 0.73212119 0.52391279
0.71664282 0.72471199 0.44163615
0.8132825 0.72390755 0.34823281
0.93534371 0.74330892 0.34747845
0.67228199 0.84823568 0.67629511
0.67269732 0.84817607 0.6723683
0.68003357 0.84823377 0.66848249
0.69212754 0.84480406 0.66459668
0.71136034 0.84429694 0.64893568
0.73868925 0.84040589 0.62166781
0.77073987 0.83649481 0.56594425
0.82455701 0.82527395 0.47262913
0.90599489 0.82092203 0.37538338
0.74201572 0.92976272 0.73827726
0.74601358 0.92979324 0.73450828
0.75373465 0.92974746 0.73444724
0.76154726 0.92584115 0.72657359
0.77723354 0.92584115 0.71100938
0.79824331 0.92196345 0.6914435
0.82409018 0.91808576 0.64748989
0.85974289 0.91025216 0.58932631
0.90998703 0.90247959 0.49993133
0.054177157 0.054169528 0.081059739
0.081540875 0.053812371 0.084934339
0.22462377 0.070695525 0.13216936
0.37990339 0.089677749 0.15948348
0.51956588 0.12110323 0.18896963
0.66310607 0.15235204 0.23148461
0.82230297 0.18757153 0.28176642
0.98591235 0.22710121 0.33909242
0.99616999 0.26958114 0.37068742
0.078080892 0.1083803 0.1049258
0.11619224 0.12054541 0.11961714
0.24293948 0.13223164 0.12401114
0.37987174 0.15042779 0.15198805
0.51560545 0.17142796 0.18710803
0.66310219 0.19631378 0.22992151
0.82227376 0.22610729 0.28141004
0.98930414 0.26132124 0.33608473
0.99611801 0.30032688 0.37416457
0.18122997 0.21680304 0.19301661
0.19036202 0.21777676 0.19302186
0.21260061 0.21453005 0.1521222
0.34158429 0.23230746 0.14006405
0.50220922 0.2607948 0.17905437
0.65527563 0.28326824 0.22076151
0.82223335 0.30375849 0.2780375
0.98663173 0.33162426 0.33560818
0.99606317 0.36530337 0.38195287
0.26022307 0.32913353 0.27149996
0.26803199 0.32911856 0.26809511
0.2836564 0.32914068 0.25460584
0.32271046 0.32135157 0.20242222
0.44778327 0.33647872 0.17776379
0.62920893 0.37842762 0.21960257
0.8086521 0.40962004 0.26991672
0.97748803 0.43484299 0.32754554
0.99603552 0.44784657 0.37205835
0.35735199 0.45291066 0.36523899
0.36128786 0.45316243 0.36330968
0.37440323 0.45316601 0.35589499
0.39766489 0.45317197 0.33664752
0.44523442 0.4453398 0.27620451
0.57508595 0.45978974 0.22854796
0.75644908 0.50303464 0.26642038
0.93686007 0.54917506 0.31272281
0.99601453 0.54306287 0.3666762
0.46769379 0.59430958 0.47780241
0.47155528 0.59674029 0.47556268
0.48176064 0.59673707 0.47171108
0.50026587 0.59818659 0.46079623
0.53141451 0.59672217 0.43459411
0.5848671 0.58896415 0.36475357
0.70883903 0.59739506 0.28755019
0.85657929 0.63067305 0.31754633
0.9959144 0.65934043 0.35132372
0.57605859 0.73638895 0.58793011
0.57976666 0.73641721 0.58789518
0.5877625 0.73638561 0.58320602
0.60306373 0.73636749 0.5751936
0.62765722 0.73638967 0.55813926
0.66526647 0.73248193 0.53084981
0.71664759 0.72468051 0.44623579
0.81587463 0.72391995 0.35636397
0.93243687 0.74428931 0.36810483
0.67273642 0.84819824 0.68017424
0.67617494 0.84815747 0.68020142
0.68393988 0.84822042 0.67634089
0.6957351 0.84821851 0.66849775
0.71523995 0.84482719 0.65291066
0.74012413 0.84089588 0.62769816
0.77085241 0.83655179 0.57030261
0.82454232 0.82795551 0.47697077
0.90604067 0.82095254 0.38321126
0.74598306 0.92976272 0.74225986
0.7497909 0.92974579 0.74168526
0.75383145 0.92977512 0.73801499
0.7654736 0.92944109 0.73048466
0.78112268 0.92588216 0.71656558
0.8005951 0.9219501 0.69533837
0.82412356 0.91806048 0.65223259
0.8596437 0.91026551 0.59710269
0.90995651 0.90243381 0.50768292
0.12017624 0.12013428 0.19046311
0.13923333 0.12010376 0.19038539
0.20122835 0.11545834 0.19721904
0.3261964 0.14744364 0.23215505
0.50886168 0.14748989 0.27427138
0.66461385 0.16411078 0.29953841
0.82627699 0.19142824 0.33859102
0.99277152 0.23089332 0.38531701
0.99613947 0.27344167 0.40199893
0.12013428 0.1513695 0.19432364
0.14710031 0.15481327 0.18764782
0.2125416 0.15024164 0.20587329
0.35481035 0.17431626 0.24359562
0.51937824 0.18214098 0.27180538
0.66798157 0.19988663 0.29675662
0.83002272 0.22708488 0.33564961
0.99275226 0.26222599 0.3819264
0.99609798 0.30033951 0.40483759
0.17085813 0.21776627 0.21361963
0.19422327 0.2248095 0.22135679
0.2376669 0.23767929 0.22932069
0.38060006 0.24908017 0.23685006
0.52026827 0.2633402 0.25976625
0.66890104 0.28032278 0.28979136
0.83083658 0.30377065 0.33174759
0.99270333 0.33157974 0.37952001
0.99613661 0.36531815 0.4127575
0.27583734 0.33451781 0.29929046
0.28755698 0.33839915 0.3032072
0.30920119 0.3380473 0.3050592
0.33407971 0.3295479 0.24687124
0.46773599 0.34679441 0.23722677
0.65133701 0.38508806 0.27973042
0.82566675 0.40936451 0.32692144
0.98577287 0.43464376 0.37076526
0.99610227 0.4517319 0.41672913
0.37251087 0.45706302 0.39165522
0.37693027 0.45708972 0.39015602
0.38971304 0.46098507 0.38664454
0.40909748 0.46097386 0.36716807
0.45282673 0.45002098 0.30638495
0.58654273 0.46444028 0.27451076
0.77773756 0.51082628 0.31579738
0.95376969 0.54916242 0.35865473
0.9960193 0.54698062 0.4035668
0.47945039 0.60003099 0.49866197
0.48331092 0.60061942 0.4969873
0.49344708 0.60060571 0.49475495
0.50989297 0.60458081 0.4831848
0.53820192 0.60301533 0.45558456
0.5887665 0.59287112 0.384671
0.7163684 0.60113227 0.32072068
0.86658614 0.63438972 0.35054271
0.99593156 0.6593018 0.38440051
0.58682765 0.73933013 0.60569734
0.58975106 0.74003812 0.60330143
0.5978306 0.74028382 0.60184277
0.61075415 0.74032006 0.59251891
0.63370527 0.74028716 0.57337587
0.67002604 0.73641446 0.54666686
0.72057536 0.72688973 0.46440857
0.82009673 0.7276416 0.38047286
0.93732261 0.74719711 0.39367323
0.68012465 0.8486882 0.69489586
0.68397421 0.84869917 0.69191272
0.69160587 0.84871681 0.6880386
0.70139829 0.84869851 0.68017776
0.7191043 0.84821016 0.6660296
0.74401471 0.84430117 0.64074308
0.77473249 0.84019393 0.58552157
0.82731287 0.82873649 0.49521308
0.90997082 0.8209473 0.40577077
0.75387198 0.92976272 0.75394827
0.75384527 0.92975509 0.75296407
0.76061265 0.92977035 0.74903487
0.76940518 0.92975175 0.73943456
0.78500038 0.92879759 0.72654307
0.80456245 0.92588693 0.70707256
0.82802415 0.92197776 0.66622606
0.86311799 0.9141537 0.61184863
0.91004807 0.90247959 0.52344549
0.18998817 0.19626535 0.29395552
0.20555428 0.19385061 0.29146258
0.24181353 0.18602131 0.29145256
0.32225051 0.18303769 0.30702249
0.43511673 0.218019 0.33825055
0.63095436 0.22663272 0.39286665
0.81941949 0.22902171 0.42683061
0.99277819 0.2503438 0.46301595
0.99616236 0.28131533 0.4591249
0.19388113 0.21336881 0.29788472
0.20950089 0.21334187 0.2975495
0.24734833 0.20643269 0.29539738
0.32613787 0.20544983 0.31247914
0.44291719 0.23731296 0.34280132
0.64284766 0.24444673 0.39376448
0.82659218 0.25216195 0.42687871
0.99616212 0.27582589 0.46156023
0.99615043 0.30685798 0.46299592
0.1977574 0.2593018 0.30957361
0.21990158 0.25929137 0.31101987
0.2634668 0.26073377 0.30736367
0.34217457 0.26074032 0.3238461
0.48680238 0.28420834 0.35997416
0.67098527 0.29293644 0.39198222
0.83893208 0.31047198 0.42076431
0.99614179 0.33549552 0.45518837
0.99615377 0.36625372 0.4669542
0.25634871 0.33783093 0.32915522
0.28308925 0.33839694 0.33301182
0.32200571 0.35194421 0.34544274
0.36815344 0.35941491 0.34561103
0.52390636 0.37556888 0.35708948
0.68040303 0.39166717 0.38061022
0.84460194 0.41118981 0.41300021
0.99609572 0.43464352 0.44793157
0.99613661 0.45953689 0.47569667
0.38476005 0.4648661 0.4231384
0.39448863 0.46780025 0.42701097
0.41691176 0.47359116 0.43409557
0.43748081 0.47659969 0.4289323
0.46870184 0.46256247 0.36436875
0.61465283 0.47949176 0.35096311
0.81305171 0.52594391 0.39656195
0.97479829 0.55306325 0.43207959
0.99605268 0.55477512 0.46703765
0.50048567 0.6084287 0.53275969
0.50436527 0.6084349 0.53364805
0.51573771 0.6108736 0.53185643
0.5323257 0.61235102 0.52734303
0.55415141 0.61234586 0.50073911
0.60048912 0.60031758 0.42575964
0.72879634 0.60739341 0.38335235
0.88398986 0.64220157 0.4088902
0.99600452 0.661733 0.44520819
0.60246433 0.74419013 0.63385977
0.6063611 0.74418631 0.63272774
0.61463889 0.7441949 0.63052877
0.62875181 0.74773928 0.6249156
0.64714132 0.74810597 0.60800622
0.67815331 0.74367394 0.57184412
0.72832957 0.73198744 0.49680645
0.82797587 0.73155095 0.42490892
0.9469749 0.75110962 0.43979267
0.69574416 0.8525988 0.71783589
0.69791887 0.85258748 0.71536688
0.70351768 0.85259952 0.71392767
0.71522526 0.85262589 0.70742441
0.7301523 0.85213436 0.6930364
0.75184521 0.84866144 0.66606811
0.78163911 0.84429044 0.61358625
0.83235637 0.83218321 0.52601678
0.91385853 0.8248281 0.44438635
0.76556802 0.93366903 0.77597848
0.76560616 0.93366903 0.77355612
0.77185378 0.93366379 0.77021344
0.781178 0.93369955 0.76417372
0.79286831 0.93100443 0.75002289
0.80992432 0.92976415 0.72997587
0.83549058 0.92259718 0.69628157
0.86709201 0.91759747 0.6386511
0.9138819 0.90634203 0.55321202
0.26758221 0.27345693 0.40230411
0.27933165 0.27146563 0.40231174
0.30621233 0.26757076 0.40236133
0.35211528 0.25461395 0.40226596
0.44050889 0.25587472 0.42174792
0.55769722 0.2898146 0.45247578
0.74179446 0.32228008 0.5104963
0.96447795 0.31641108 0.56433108
0.9962005 0.32620737 0.54848554
0.27154288 0.28688296 0.40624094
0.28330043 0.28490501 0.40604043
0.30959339 0.28143406 0.40425369
0.35274197 0.26756659 0.40533494
0.44442664 0.27148089 0.42572671
0.56533758 0.30527247 0.45638614
0.75657521 0.33376488 0.51620651
0.97224193 0.33007458 0.56438163
0.99620813 0.34182498 0.54848554
0.27884146 0.31836042 0.41802472
0.29105058 0.31838521 0.41554322
0.31828412 0.31625658 0.41400683
0.3635121 0.3058535 0.41352402
0.45586042 0.30958743 0.43423362
0.58255989 0.34294962 0.46605035
0.79914263 0.36075427 0.5272488
0.98931415 0.36824526 0.56220579
0.99617952 0.38577668 0.54851797
0.28832971 0.37671092 0.43287556
0.30092675 0.37672606 0.43286078
0.33636702 0.37939531 0.43286483
0.38915334 0.38257968 0.43040038
0.47780003 0.38772173 0.45171712
0.64798104 0.40945225 0.49476627
0.84549978 0.42465786 0.53103089
0.9961533 0.44144887 0.55229863
0.99610323 0.4634308 0.55246433
0.35838102 0.46485847 0.45508125
0.37194009 0.46876144 0.45801766
0.40623522 0.47658598 0.46655795
0.46275463 0.49220264 0.48462654
0.5087644 0.49757191 0.477533
0.68917945 0.52128443 0.49182784
0.85107576 0.53911173 0.51546883
0.99606126 0.55502499 0.53881895
0.99606699 0.57233921 0.55934997
0.50677882 0.61232929 0.56277943
0.5146241 0.6148611 0.56664187
0.53410868 0.62014096 0.57245365
0.56539397 0.62963302 0.58423958
0.58771887 0.63187657 0.5741207
0.62247034 0.61507126 0.4945449
0.75624809 0.62310979 0.47197347
0.92726525 0.66319071 0.50643525
0.99600786 0.66952201 0.53424411
0.62203784 0.75197795 0.66945525
0.62689212 0.7519913 0.67140269
0.63959001 0.75590953 0.67333486
0.65467641 0.75739228 0.6709206
0.67305447 0.75910582 0.66239319
0.69641175 0.75592789 0.62717131
0.74012884 0.74031767 0.54976301
0.84231756 0.73789054 0.4905704
0.96179713 0.75696193 0.50769055
0.71528286 0.8599136 0.75221542
0.71720455 0.85992218 0.75053883
0.72451362 0.85993362 0.75029254
0.73477293 0.85992218 0.74523036
0.75039197 0.85991598 0.73667601
0.7678496 0.85821794 0.71192183
0.79403611 0.85211719 0.6586409
0.84021217 0.83696307 0.57617638
0.9217155 0.82896639 0.50625715
0.78313878 0.93756008 0.80665293
0.78506905 0.93755245 0.80660716
0.78898299 0.93760586 0.80476081
0.79877928 0.93757534 0.79887846
0.80949111 0.93756771 0.78810941
0.82414931 0.93367762 0.76883154
0.84461547 0.9297837 0.73584916
0.87490368 0.92197871 0.681178
0.91782254 0.91025406 0.59958801
0.35305562 0.35691424 0.51855116
0.36059143 0.35692426 0.51854877
0.38042458 0.35303082 0.5185359
0.41410101 0.34519913 0.51850919
0.46830606 0.32835889 0.52239643
0.57240978 0.33348974 0.54577659
0.69733825 0.36817159 0.58042315
0.85948348 0.41211185 0.63448038
0.99618906 0.42094682 0.66518845
0.35307469 0.36473449 0.52248798
0.360935 0.36472686 0.52248798
0.38143323 0.36115178 0.52099176
0.41689171 0.35660289 0.51927942
0.46954764 0.33805421 0.52346003
0.57423601 0.34524488 0.54955314
0.7012656 0.38117835 0.58367481
0.86727792 0.42333274 0.63845428
0.9961347 0.4284359 0.66276513
0.36089685 0.39108635 0.52992199
0.36862447 0.38930033 0.52880391
0.38822623 0.38722248 0.52638476
0.42298313 0.38216107 0.52630924
0.47615682 0.36527118 0.52873369
0.58480935 0.37550224 0.55657568
0.7160265 0.41361808 0.59139868
0.8862977 0.44982476 0.64622399
0.99615091 0.44789092 0.65889029
0.36569057 0.43361014 0.54442998
0.37641009 0.43360448 0.54588501
0.40307344 0.4375031 0.54532776
0.43971286 0.43361378 0.54348189
0.4917469 0.41992638 0.54195706
0.60642157 0.43028353 0.57145696
0.7420116 0.46828388 0.6073778
0.94098907 0.49278579 0.66478033
0.99616426 0.4991238 0.65497063
0.38818379 0.51244182 0.56668956
0.39786767 0.51246769 0.56669456
0.423785 0.51319953 0.56666428
0.46998038 0.51637448 0.56666536
0.53333333 0.52347314 0.57128443
0.6357414 0.53545696 0.59732741
0.82638499 0.55398833 0.64240005
0.99611539 0.56849417 0.66674535
0.99610323 0.58402953 0.65502689
0.47944824 0.61231975 0.59761316
0.49084801 0.61624755 0.59968856
0.5164705 0.62260964 0.60545796
0.56188538 0.63465214 0.61920655
0.6220376 0.65340217 0.64129687
0.66305627 0.6510774 0.62005572
0.83262933 0.67159426 0.6217596
0.97735683 0.68769998 0.63822978
0.9960627 0.69049101 0.65119402
0.62300298 0.75587091 0.70019837
0.63081166 0.75590852 0.70220314
0.64781939 0.75980011 0.70758564
0.6760037 0.76762459 0.71620449
0.70945106 0.77545491 0.72511826
0.73139293 0.77544299 0.71035182
0.76104384 0.75922968 0.63461259
0.86451622 0.75337654 0.592746
0.99164521 0.77560893 0.60621901
0.73091478 0.86433204 0.78564889
0.73476196 0.86774624 0.78708705
0.74650568 0.86821927 0.78957046
0.76309558 0.87161774 0.79342956
0.77916202 0.87162978 0.79067066
0.79563383 0.87164409 0.77535805
0.81498871 0.86403001 0.73874617
0.85214351 0.84869887 0.6463916
0.93707346 0.840455 0.58753433
0.80459297 0.94540322 0.84771496
0.80852598 0.94537079 0.84520104
0.81350519 0.9453646 0.84523442
0.82327192 0.94538438 0.84377003
0.83462749 0.94538033 0.83745327
0.84809763 0.94445501 0.82423204
0.86357385 0.94149548 0.79840829
0.88659447 0.9336986 0.743122
0.92712673 0.91809148 0.66546883
0.43850614 0.44335851 0.64256123
0.44324931 0.44237526 0.64251068
0.45879873 0.44238003 0.64250877
0.48787289 0.43553826 0.64158465
0.53033494 0.42675669 0.64152934
0.59956655 0.40614271 0.64746653
0.71369783 0.41529049 0.6807269
0.83697595 0.44971628 0.71179379
0.96399634 0.49611276 0.75077058
0.43850996 0.45016403 0.64258412
0.44631113 0.45017929 0.64259556
0.46194901 0.44791857 0.64255348
0.48989549 0.44329104 0.64252081
0.53425174 0.43436975 0.64253166
0.60128879 0.41486962 0.65020629
0.71686885 0.42673667 0.68219558
0.84054537 0.46073329 0.71304092
0.9649176 0.50476034 0.75465972
0.44561971 0.47045186 0.6503872
0.45114157 0.46972753 0.65036908
0.46826553 0.46874666 0.65013399
0.49683518 0.46493977 0.64867866
0.53972448 0.45445087 0.64640269
0.6079943 0.43749535 0.65418717
0.7247034 0.45018788 0.68846942
0.84544113 0.48749797 0.71889317
0.97174315 0.52663939 0.75856794
0.45415808 0.50875486 0.66208515
0.46194686 0.50768006 0.66211376
0.47942893 0.50733339 0.66216001
0.50884213 0.50341039 0.66173514
0.55376278 0.49579805 0.65997535
0.62080997 0.47998356 0.66515954
0.74030993 0.49562483 0.69785182
0.86018003 0.53376363 0.72741796
0.98981317 0.56593805 0.76641203
0.46580644 0.56446937 0.67529183
0.47350009 0.56543069 0.67658575
0.49322309 0.56544976 0.67774662
0.53079247 0.57117428 0.68485971
0.57914187 0.56811437 0.68160906
0.64364939 0.55269369 0.68498393
0.76370165 0.5708176 0.71584745
0.88266265 0.60226787 0.74323119
0.9961471 0.62699512 0.76736858
0.48929675 0.65980821 0.70809491
0.49706025 0.65979725 0.70902953
0.52144632 0.66198835 0.70901546
0.56274659 0.6652117 0.7100942
0.61768926 0.66872926 0.71097863
0.68795026 0.67876171 0.71727131
0.78459125 0.69046728 0.74078546
0.96145762 0.70221739 0.77814288
0.99612135 0.7128233 0.7674649
0.5956302 0.75587472 0.73321221
0.60606129 0.75843502 0.73631063
0.62665751 0.76273532 0.74030671
0.66362595 0.77056237 0.750206
0.71309176 0.78286412 0.76404116
0.77049442 0.79914502 0.78430908
0.79918364 0.79479596 0.76010338
0.92280425 0.79926649 0.7395006
0.99605268 0.80283246 0.75110151
0.72740854 0.86774577 0.81692512
0.73366367 0.86822762 0.81694973
0.74676342 0.87162799 0.82077587
0.77019645 0.87556178 0.82866634
0.80187614 0.88334764 0.83734836
0.83257682 0.88864145 0.84470476
0.84896906 0.88725931 0.82832814
0.87270107 0.87135482 0.75581351
0.95645933 0.85961748 0.71198358
0.81246662 0.94926375 0.87891966
0.81634241 0.94921798 0.87895018
0.82804608 0.9531548 0.88285649
0.84368658 0.9531548 0.88674754
0.86318761 0.95710689 0.89066911
0.87882811 0.957084 0.88373388
0.89222457 0.95415904 0.87202449
0.90751841 0.94932336 0.83641852
0.94126421 0.93370718 0.74795529
0.52784771 0.53219463 0.76656558
0.53178264 0.53175593 0.76654841
0.54390354 0.53170634 0.7665775
0.56942116 0.52783341 0.76606608
0.6059968 0.51998169 0.76607919
0.6583021 0.50079442 0.76651884
0.73876888 0.48588397 0.77708286
0.84878667 0.5004871 0.80983349
0.95326352 0.51948768 0.83227855
0.52789158 0.53953803 0.76663996
0.5321839 0.5395273 0.76654603
0.54741479 0.5360759 0.76660277
0.57090867 0.53215779 0.76651846
0.60801337 0.52590887 0.76649834
0.65827358 0.50814647 0.76649119
0.74140488 0.49362554 0.77707523
0.84919962 0.50831688 0.81286884
0.9532063 0.52736133 0.83233005
0.53180743 0.55515564 0.77392424
0.53844052 0.55517174 0.77305763
0.55139668 0.55162652 0.77052386
0.57667116 0.55030488 0.77045108
0.61387665 0.54299921 0.77044614
0.66607526 0.52583805 0.7704298
0.74640853 0.5123889 0.78118575
0.85604978 0.52785445 0.81366058
0.95716793 0.55075341 0.8362459
0.53963841 0.58495747 0.78222896
0.54586928 0.58495827 0.78200857
0.55936701 0.58248443 0.78166491
0.58593702 0.58102794 0.77829586
0.62361286 0.57409459 0.77825732
0.67524847 0.56062904 0.77824248
0.7520698 0.54694146 0.78905922
0.86388377 0.56517361 0.8207078
0.96353571 0.59231136 0.84276579
0.54962711 0.63134108 0.79349489
0.55521262 0.63134036 0.7939157
0.57433838 0.6333021 0.79568885
0.60141682 0.63134358 0.79563592
0.64187982 0.62743906 0.79363508
0.69137579 0.6195511 0.79364724
0.76537895 0.60401241 0.80132229
0.87556959 0.62356863 0.83235771
0.97075132 0.65430018 0.85184348
0.5591249 0.69854014 0.80925865
0.56474007 0.70070862 0.80928064
0.58254439 0.70088097 0.80930467
0.61459162 0.70380149 0.81086711
0.66652481 0.70900187 0.81348659
0.72060552 0.70870071 0.81312917
0.78060793 0.69479405 0.81682212
0.8833336 0.71638664 0.8441577
0.98004191 0.73603943 0.86150769
0.58993858 0.79532979 0.83311303
0.59820283 0.79787643 0.83305796
0.61821164 0.79798819 0.83649434
0.65420905 0.7983733 0.83597541
0.70560578 0.80311975 0.83779231
0.76207531 0.80964418 0.83948236
0.82227543 0.81866763 0.85164321
0.89627883 0.82660381 0.8676284
0.99610037 0.8343471 0.88061627
0.69578279 0.86767996 0.84866484
0.70358754 0.86818422 0.84865911
0.71916104 0.87159223 0.85258855
0.74870611 0.87584774 0.85990132
0.78731034 0.88359178 0.86791397
0.83608663 0.8950792 0.87992056
0.88033213 0.90781357 0.89629569
0.90754091 0.90684442 0.88286406
0.99601859 0.90335031 0.86719263
0.80467689 0.94924849 0.90677882
0.80855077 0.95319486 0.90680934
0.82025063 0.95316434 0.91060311
0.83976883 0.95710117 0.91451514
0.86711204 0.96103895 0.92209316
0.89809644 0.9663467 0.93014849
0.92706283 0.97271687 0.93800355
0.94224794 0.96930743 0.93014444
0.96086633 0.95704967 0.87203975
0.61333639 0.61718166 0.88671702
0.61721218 0.6171664 0.88662547
0.62903792 0.6171664 0.88673228
0.6509823 0.61326581 0.8866598
0.67780575 0.60936904 0.88662547
0.72420653 0.59765011 0.88663691
0.7823682 0.57417792 0.89047837
0.8561017 0.570346 0.89827192
0.95709163 0.5781033 0.92945754
0.61724269 0.62499428 0.8866865
0.62112612 0.62447738 0.8867113
0.63283742 0.62105745 0.88670176
0.65236896 0.6171664 0.8866865
0.67980468 0.61324483 0.88667124
0.72426566 0.60153735 0.88664454
0.78233244 0.5807145 0.89054179
0.85657092 0.57763027 0.89827573
0.96099794 0.58593118 0.92942702
0.62113375 0.63668269 0.89059281
0.62507057 0.63672847 0.89057755
0.6367895 0.63282216 0.89054704
0.65634394 0.63180743 0.89060807
0.68563554 0.6279221 0.89054704
0.72994345 0.61679351 0.89053655
0.7861944 0.59373999 0.8944419
0.85998417 0.59278773 0.898785
0.96109331 0.60448997 0.92948806
0.62508583 0.66013581 0.89843595
0.62896162 0.66012055 0.8983444
0.64252832 0.65870956 0.8983854
0.66414893 0.65626001 0.8944686
0.6934081 0.65237659 0.8944686
0.73835737 0.64305333 0.89446098
0.79405327 0.6235132 0.89831102
0.86390097 0.62107843 0.90262646
0.96497101 0.63527314 0.93340391
0.63287556 0.70118257 0.91012436
0.64068818 0.7011368 0.91009384
0.65242237 0.70117494 0.90817121
0.67588312 0.69728389 0.90621805
0.70906004 0.69333944 0.90621805
0.75001717 0.68677424 0.90546464
0.80182155 0.67286183 0.90616464
0.87214847 0.66602483 0.91784733
0.96492714 0.68557259 0.94125277
0.6367361 0.7553769 0.91798466
0.64281252 0.75538858 0.91798133
0.66023499 0.75539216 0.91800565
0.68750668 0.75927176 0.92186046
0.72538148 0.75927939 0.92576677
0.7695697 0.75537499 0.9218204
0.81711299 0.74866913 0.91892214
0.87310407 0.73977765 0.91788167
0.96878386 0.75298505 0.94908064
0.66109712 0.82911421 0.92971313
0.66510262 0.82911421 0.92978561
0.68045701 0.82913329 0.92978752
0.70556144 0.82911326 0.92784867
0.74267948 0.83298047 0.92675669
0.79336948 0.83694543 0.92971981
0.84155222 0.84011788 0.93352121
0.8872096 0.83012417 0.93354553
0.96489662 0.84087129 0.95404746
0.69580949 0.90678836 0.94542992
0.70359922 0.90680362 0.94592775
0.71912671 0.90680457 0.94932002
0.74266804 0.90675784 0.94928283
0.77949187 0.91069371 0.94974537
0.82174673 0.91244874 0.95328212
0.86814155 0.91458715 0.95702106
0.92193246 0.92240454 0.96136988
0.97314031 0.92239834 0.97252232
0.76173037 0.95704585 0.95324636
0.76949722 0.9609369 0.95706111
0.7812314 0.96099794 0.95716793
0.80074769 0.96098268 0.96095216
0.83008316 0.96488136 0.96490425
0.86477073 0.96878195 0.96878386
0.90627909 0.97659266 0.97662318
0.94973297 0.98441672 0.98437667
0.99615473 0.99615473 0.99615473
