site/assets/luts/christophwurst-hald--krakow--4ac8d3eb5.cube
# LUTr-Project: LUTr — LUTrepository
# LUTr-Schema-Version: 1
# LUTr-ID: christophwurst-hald--krakow--4ac8d3eb5
# LUTr-Title: Krakow
# LUTr-Collection: ChristophWurst Hald
# LUTr-Collection-ID: christophwurst-haldclut
# LUTr-Source: https://github.com/ChristophWurst/haldclut
# LUTr-Source-File: submissions/christophwurst-haldclut/v1/Krakow.tif
# LUTr-Source-Format: TIF
# LUTr-Source-SHA256: 2f771ef7634ba5e0c6d0f858ce9be8651f74001b8412241a52d38e63fce6d8eb
# LUTr-License: CC-BY-SA-4.0
# LUTr-License-URL: https://github.com/ChristophWurst/haldclut/blob/master/LICENSE
# LUTr-Tags: creative, hald-clut, rawtherapee, tif, cube
# LUTr-Transform-Class: creative-look
# LUTr-Input-Color-Space: srgb
# LUTr-Output-Color-Space: srgb
# LUTr-Color-Space-Confidence: assumed-display-referred
# LUTr-Conversion-Method: TIF LUT image decoded at 16-bit and sampled to 25x25x25 3D CUBE
# LUTr-Conversion-Date: 2026-07-27
# LUTr-Conversion-Tool: LUTr scripts/convert-all-to-cube.mjs
# LUTr-Conversion-Grid: 25x25x25
# LUTr-Note: Preserve this metadata and the upstream license notices when redistributing.
TITLE "Krakow"
LUT_3D_SIZE 5
DOMAIN_MIN 0 0 0
DOMAIN_MAX 1 1 1
0 0 0
0.24019608 0.042984665 0.049717708
0.51567864 0.11915007 0.15020981
0.8184329 0.18755245 0.25846494
0.99607843 0.2695964 0.35898375
0.1620737 0.21388952 0.16700237
0.20505455 0.20998798 0.12476349
0.49261082 0.26080911 0.1424239
0.8182908 0.30450713 0.25460727
0.99606317 0.36530098 0.36684215
0.35150683 0.44926375 0.35359731
0.36901656 0.45071908 0.34565499
0.44130617 0.4453727 0.26462959
0.75041772 0.50058175 0.24988746
0.9960174 0.54501411 0.34744793
0.57219043 0.73538567 0.58299763
0.58387121 0.73636988 0.5762417
0.62588693 0.73635653 0.55229839
0.71664282 0.72471199 0.44163615
0.93534371 0.74330892 0.34747845
0.74201572 0.92976272 0.73827726
0.75373465 0.92974746 0.73444724
0.77723354 0.92584115 0.71100938
0.82409018 0.91808576 0.64748989
0.90998703 0.90247959 0.49993133
0.12017624 0.12013428 0.19046311
0.20122835 0.11545834 0.19721904
0.50886168 0.14748989 0.27427138
0.82627699 0.19142824 0.33859102
0.99613947 0.27344167 0.40199893
0.17085813 0.21776627 0.21361963
0.2376669 0.23767929 0.22932069
0.52026827 0.2633402 0.25976625
0.83083658 0.30377065 0.33174759
0.99613661 0.36531815 0.4127575
0.37251087 0.45706302 0.39165522
0.38971304 0.46098507 0.38664454
0.45282673 0.45002098 0.30638495
0.77773756 0.51082628 0.31579738
0.9960193 0.54698062 0.4035668
0.58682765 0.73933013 0.60569734
0.5978306 0.74028382 0.60184277
0.63370527 0.74028716 0.57337587
0.72057536 0.72688973 0.46440857
0.93732261 0.74719711 0.39367323
0.75387198 0.92976272 0.75394827
0.76061265 0.92977035 0.74903487
0.78500038 0.92879759 0.72654307
0.82802415 0.92197776 0.66622606
0.91004807 0.90247959 0.52344549
0.26758221 0.27345693 0.40230411
0.30621233 0.26757076 0.40236133
0.44050889 0.25587472 0.42174792
0.74179446 0.32228008 0.5104963
0.9962005 0.32620737 0.54848554
0.27884146 0.31836042 0.41802472
0.31828412 0.31625658 0.41400683
0.45586042 0.30958743 0.43423362
0.79914263 0.36075427 0.5272488
0.99617952 0.38577668 0.54851797
0.35838102 0.46485847 0.45508125
0.40623522 0.47658598 0.46655795
0.5087644 0.49757191 0.477533
0.85107576 0.53911173 0.51546883
0.99606699 0.57233921 0.55934997
0.62203784 0.75197795 0.66945525
0.63959001 0.75590953 0.67333486
0.67305447 0.75910582 0.66239319
0.74012884 0.74031767 0.54976301
0.96179713 0.75696193 0.50769055
0.78313878 0.93756008 0.80665293
0.78898299 0.93760586 0.80476081
0.80949111 0.93756771 0.78810941
0.84461547 0.9297837 0.73584916
0.91782254 0.91025406 0.59958801
0.43850614 0.44335851 0.64256123
0.45879873 0.44238003 0.64250877
0.53033494 0.42675669 0.64152934
0.71369783 0.41529049 0.6807269
0.96399634 0.49611276 0.75077058
0.44561971 0.47045186 0.6503872
0.46826553 0.46874666 0.65013399
0.53972448 0.45445087 0.64640269
0.7247034 0.45018788 0.68846942
0.97174315 0.52663939 0.75856794
0.46580644 0.56446937 0.67529183
0.49322309 0.56544976 0.67774662
0.57914187 0.56811437 0.68160906
0.76370165 0.5708176 0.71584745
0.9961471 0.62699512 0.76736858
0.5956302 0.75587472 0.73321221
0.62665751 0.76273532 0.74030671
0.71309176 0.78286412 0.76404116
0.79918364 0.79479596 0.76010338
0.99605268 0.80283246 0.75110151
0.81246662 0.94926375 0.87891966
0.82804608 0.9531548 0.88285649
0.86318761 0.95710689 0.89066911
0.89222457 0.95415904 0.87202449
0.94126421 0.93370718 0.74795529
0.61333639 0.61718166 0.88671702
0.62903792 0.6171664 0.88673228
0.67780575 0.60936904 0.88662547
0.7823682 0.57417792 0.89047837
0.95709163 0.5781033 0.92945754
0.62113375 0.63668269 0.89059281
0.6367895 0.63282216 0.89054704
0.68563554 0.6279221 0.89054704
0.7861944 0.59373999 0.8944419
0.96109331 0.60448997 0.92948806
0.63287556 0.70118257 0.91012436
0.65242237 0.70117494 0.90817121
0.70906004 0.69333944 0.90621805
0.80182155 0.67286183 0.90616464
0.96492714 0.68557259 0.94125277
0.66109712 0.82911421 0.92971313
0.68045701 0.82913329 0.92978752
0.74267948 0.83298047 0.92675669
0.84155222 0.84011788 0.93352121
0.96489662 0.84087129 0.95404746
0.76173037 0.95704585 0.95324636
0.7812314 0.96099794 0.95716793
0.83008316 0.96488136 0.96490425
0.90627909 0.97659266 0.97662318
0.99615473 0.99615473 0.99615473
