site/assets/luts/christophwurst-hald--krakow--4ac8d3eb5.cube
# LUTr-Project: LUTr — LUTrepository
# LUTr-Schema-Version: 1
# LUTr-ID: christophwurst-hald--krakow--4ac8d3eb5
# LUTr-Title: Krakow
# LUTr-Collection: ChristophWurst Hald
# LUTr-Collection-ID: christophwurst-haldclut
# LUTr-Source: https://github.com/ChristophWurst/haldclut
# LUTr-Source-File: submissions/christophwurst-haldclut/v1/Krakow.tif
# LUTr-Source-Format: TIF
# LUTr-Source-SHA256: 2f771ef7634ba5e0c6d0f858ce9be8651f74001b8412241a52d38e63fce6d8eb
# LUTr-License: CC-BY-SA-4.0
# LUTr-License-URL: https://github.com/ChristophWurst/haldclut/blob/master/LICENSE
# LUTr-Tags: creative, hald-clut, rawtherapee, tif, cube
# LUTr-Transform-Class: creative-look
# LUTr-Input-Color-Space: srgb
# LUTr-Output-Color-Space: srgb
# LUTr-Color-Space-Confidence: assumed-display-referred
# LUTr-Conversion-Method: TIF LUT image decoded at 16-bit and sampled to 25x25x25 3D CUBE
# LUTr-Conversion-Date: 2026-07-27
# LUTr-Conversion-Tool: LUTr scripts/convert-all-to-cube.mjs
# LUTr-Conversion-Grid: 25x25x25
# LUTr-Note: Preserve this metadata and the upstream license notices when redistributing.
TITLE "Krakow"
LUT_3D_SIZE 25
DOMAIN_MIN 0 0 0
DOMAIN_MAX 1 1 1
0 0 0
0.03114875 0.0076651153 0.0076797386
0.066014343 0.01562651 0.015189085
0.10891508 0.019584955 0.015581369
0.14709188 0.03126065 0.023404796
0.19362745 0.035181582 0.035004832
0.24019608 0.042984665 0.049717708
0.29071616 0.054727754 0.065215788
0.3372549 0.065156023 0.081900257
0.37597467 0.085963607 0.10387961
0.42256682 0.096051728 0.11927723
0.46907314 0.10762379 0.13477404
0.51567864 0.11915007 0.15020981
0.56215953 0.13073739 0.16773671
0.60876122 0.14229801 0.18496351
0.65920119 0.15242046 0.20043107
0.70963099 0.16409552 0.21979604
0.76401795 0.17588184 0.23909489
0.8184329 0.18755245 0.25846494
0.87360952 0.2000693 0.27784454
0.93102159 0.21166552 0.30040945
0.98540093 0.22708858 0.32039178
0.99608733 0.242209 0.33199944
0.99608288 0.2541193 0.34724002
0.99607843 0.2695964 0.35898375
0.027164874 0.034803286 0.02719412
0.031102337 0.034948246 0.023229318
0.050622812 0.03892958 0.019082467
0.088969158 0.050772726 0.026787133
0.13928181 0.058456783 0.02333115
0.18975275 0.062377981 0.034330865
0.24025918 0.073078953 0.046813408
0.28678256 0.080753737 0.06515401
0.3335175 0.088414588 0.080622314
0.37594765 0.10393659 0.10143276
0.42254902 0.11312811 0.11930929
0.46516053 0.12488754 0.13086431
0.51180699 0.1347165 0.1483444
0.56218006 0.14238715 0.16773787
0.60871523 0.15394504 0.18500425
0.65918895 0.16398394 0.20045809
0.70963183 0.17317612 0.21973097
0.76398744 0.18475761 0.23912901
0.81835931 0.19629683 0.25846494
0.87363901 0.20785108 0.27790136
0.93100591 0.22256163 0.29712887
0.98543701 0.23489063 0.32042833
0.99612908 0.24991311 0.33193438
0.99612548 0.26195989 0.3472928
0.99612421 0.27743954 0.35904479
0.054399685 0.069676509 0.05444419
0.058266575 0.069665064 0.054367895
0.06580538 0.069998432 0.05019148
0.081011419 0.070003942 0.035215279
0.12368645 0.078114536 0.023322991
0.1783697 0.089514774 0.031217416
0.23265208 0.097378627 0.045852725
0.28285871 0.10515803 0.06244564
0.33335877 0.1128926 0.080581623
0.37593779 0.12470769 0.10146312
0.41877601 0.1325476 0.11552478
0.46519036 0.14243661 0.13083536
0.51173037 0.15204217 0.14644528
0.55827489 0.15991836 0.16562778
0.60873145 0.16783123 0.18348995
0.65918545 0.17716249 0.20043631
0.70965981 0.1873206 0.219774
0.76400519 0.19892434 0.23914093
0.81840778 0.20796775 0.25849292
0.87356163 0.21951804 0.27784056
0.93096734 0.23417745 0.29711774
0.98540745 0.24633958 0.32044264
0.99611128 0.25820172 0.33555055
0.99619197 0.27318831 0.34729534
0.99609369 0.28520638 0.35904479
0.081584268 0.10108148 0.084981308
0.0854448 0.10453765 0.084996567
0.089373999 0.10452049 0.081528954
0.096689746 0.10446946 0.077185378
0.11300768 0.10447407 0.039762786
0.1616482 0.1120079 0.033887188
0.21729038 0.12356184 0.045873865
0.27538934 0.13235938 0.062385319
0.32191831 0.14392882 0.084527988
0.37205859 0.1504406 0.10149372
0.41518034 0.15949524 0.11542576
0.46151095 0.16574596 0.13088513
0.50832475 0.17510395 0.14634928
0.55828859 0.1810227 0.16565639
0.60643692 0.19095665 0.18107484
0.65919285 0.19879239 0.2004387
0.70960937 0.20657155 0.21977824
0.7640147 0.21554243 0.23912008
0.81838188 0.22610199 0.25847448
0.87357352 0.23786129 0.27786647
0.93098376 0.24956099 0.29716977
0.98541404 0.26135677 0.31999719
0.99611928 0.27335362 0.33559548
0.99611062 0.28533449 0.34740056
0.99610323 0.30034142 0.35899138
0.11196816 0.1393403 0.11268788
0.1126421 0.13934284 0.11268279
0.11649246 0.13997609 0.11260141
0.12386034 0.13999358 0.10913952
0.13146156 0.1399638 0.089202547
0.15458216 0.13935492 0.058142596
0.20160601 0.14684583 0.050567763
0.25613985 0.15609322 0.062412261
0.3126972 0.16997957 0.084589236
0.36221993 0.1788173 0.097578266
0.41077351 0.18685117 0.11353751
0.45769659 0.19438055 0.12876813
0.5077821 0.20215279 0.14439104
0.55434183 0.20792452 0.16025936
0.60479345 0.21423857 0.18108242
0.65528121 0.22207853 0.19699016
0.70962336 0.22990684 0.21589651
0.76404233 0.23767972 0.23805812
0.81838966 0.24891915 0.25847003
0.87353015 0.25804913 0.27788215
0.93099786 0.2696248 0.29721014
0.98541873 0.28116751 0.31650168
0.99607462 0.29270894 0.3355923
0.99613311 0.30429054 0.34746817
0.99612421 0.31650263 0.36298161
0.13193077 0.17805689 0.13899316
0.13590003 0.17808677 0.1359191
0.13972019 0.17807427 0.13594035
0.14371328 0.17805371 0.13199817
0.15407215 0.17808879 0.12417347
0.166475 0.17500315 0.10857478
0.19409953 0.17480163 0.074402037
0.24070606 0.1816789 0.075872864
0.29319617 0.19063986 0.084558294
0.34793431 0.20512997 0.097557921
0.39984582 0.21588851 0.11282044
0.45030383 0.22355553 0.12700773
0.50077535 0.2296788 0.14432142
0.5504516 0.23753102 0.16001164
0.60090871 0.24485872 0.17596142
0.65330859 0.2523336 0.19458726
0.70699351 0.25708676 0.21589206
0.76121427 0.26578178 0.23528077
0.81835883 0.27368264 0.25777352
0.8735275 0.28443771 0.27783948
0.93100909 0.29541117 0.29723144
0.98533536 0.30442082 0.31653347
0.99611939 0.31600661 0.33593325
0.99610845 0.32755732 0.35139111
0.99605109 0.33908726 0.36598637
0.1620737 0.21388952 0.16700237
0.16304265 0.21388571 0.16697948
0.16696422 0.21386664 0.16301213
0.1708896 0.21391241 0.16215
0.17865263 0.21388571 0.15530632
0.18960718 0.21290564 0.14748147
0.20505455 0.20998798 0.12476349
0.23595534 0.20971571 0.089973392
0.28051677 0.21652298 0.091386282
0.32795548 0.22561704 0.10001955
0.38272838 0.239621 0.11280836
0.43877937 0.25120356 0.12701483
0.49261082 0.26080911 0.1424239
0.54357261 0.26811468 0.15790735
0.59524968 0.27584974 0.17390834
0.64778172 0.28364614 0.19266709
0.70570687 0.28812339 0.21594568
0.76007684 0.29595207 0.23527377
0.8182908 0.30450713 0.25460727
0.87351336 0.31474546 0.27477302
0.93097454 0.32330116 0.29717454
0.98534276 0.33416114 0.3165384
0.99610736 0.34286831 0.33594898
0.99605062 0.35455482 0.35133834
0.99606317 0.36530098 0.36684215
0.19020879 0.24884922 0.19417614
0.193019 0.25161618 0.19420857
0.19416724 0.25163399 0.19420411
0.20046397 0.25166117 0.19032777
0.20588235 0.25165751 0.18639658
0.21364069 0.2516444 0.17912031
0.22537178 0.24775772 0.17059777
0.2437615 0.2450014 0.14260099
0.2746448 0.24500076 0.109141
0.31776174 0.25135909 0.10572261
0.36502659 0.26227085 0.11666873
0.41756046 0.27444919 0.12699006
0.47766651 0.28602909 0.14304856
0.53323688 0.29760115 0.15787
0.58752898 0.30750871 0.1733373
0.64348607 0.31530098 0.19122352
0.69824882 0.32312653 0.20889559
0.75617683 0.3317714 0.22749559
0.8153617 0.33791851 0.2546389
0.87269965 0.34717851 0.27394233
0.92704344 0.35737297 0.29328942
0.98159301 0.36615167 0.31244008
0.9960415 0.37024268 0.33562054
0.9960961 0.37800211 0.35142219
0.99610068 0.38957872 0.36685995
0.22132194 0.28648814 0.22530963
0.223824 0.28778558 0.22529692
0.22523842 0.28778007 0.22397192
0.22914982 0.28773429 0.22141858
0.23515679 0.28779872 0.21742919
0.24085434 0.28778007 0.21255266
0.25063452 0.28650085 0.20250502
0.2639139 0.28465387 0.19386418
0.28249027 0.28257674 0.16271712
0.3133917 0.27998652 0.12855281
0.35680383 0.28782966 0.12364725
0.40259679 0.2977459 0.13416622
0.45566746 0.30932072 0.14444953
0.51441172 0.32297288 0.15794253
0.57586743 0.33632664 0.17562117
0.63569848 0.3464243 0.1927348
0.69135915 0.35728491 0.20815849
0.74867501 0.36856557 0.22394861
0.80753669 0.37441952 0.24683757
0.86695786 0.38318223 0.26879424
0.92490781 0.38984512 0.29316142
0.97766715 0.4000267 0.30878411
0.99602672 0.40503632 0.32813425
0.99608988 0.4090397 0.34363105
0.99606317 0.41546756 0.36686758
0.25241855 0.32524224 0.2563592
0.25241283 0.32521363 0.25487716
0.25628529 0.32523413 0.25267001
0.26021592 0.3251812 0.25242237
0.26412795 0.32671092 0.24861524
0.27163229 0.32550784 0.24465791
0.27877995 0.32521506 0.23923619
0.2903288 0.32523675 0.2317878
0.30186351 0.32279761 0.21709138
0.3212408 0.32135309 0.18603609
0.3498738 0.31888701 0.15102744
0.39477148 0.32605081 0.14173589
0.44207103 0.33454833 0.15354105
0.49436839 0.3462737 0.16191269
0.55314447 0.35960253 0.17569174
0.61905947 0.37505961 0.19271477
0.68269245 0.38825373 0.21210676
0.74091826 0.40169852 0.22711473
0.80081254 0.4115754 0.24589055
0.86122134 0.41934709 0.26615978
0.91720391 0.42872352 0.2855389
0.97134451 0.43728661 0.30393897
0.99605554 0.43858625 0.32783246
0.99604911 0.44013298 0.34345761
0.99604028 0.44394598 0.35911345
0.28349864 0.36395056 0.28746471
0.2858142 0.36558328 0.28748633
0.28741004 0.36558328 0.28588413
0.28964421 0.36560108 0.28356985
0.29489713 0.36559811 0.28192929
0.29908679 0.3655757 0.27834819
0.30691234 0.36561507 0.27414486
0.31471097 0.36558073 0.26633224
0.32644728 0.36397854 0.26083857
0.34060712 0.36400842 0.24267185
0.35992017 0.36007254 0.2093044
0.38870303 0.35779715 0.17230742
0.43352534 0.3648305 0.16240686
0.48167731 0.37344766 0.17284011
0.53696276 0.38515318 0.18053489
0.59718455 0.39835934 0.1941914
0.6656121 0.41642591 0.21211015
0.72924582 0.4327359 0.22916227
0.78924144 0.44645641 0.24300946
0.85001272 0.45776626 0.26229263
0.90771386 0.46733086 0.27937129
0.96575303 0.47339272 0.3048716
0.9960264 0.47731757 0.32035183
0.99603377 0.47504154 0.33584577
0.99608097 0.47502861 0.35521986
0.31661453 0.40661224 0.32065118
0.31849393 0.40661224 0.3185448
0.3204108 0.40660467 0.31849934
0.32234223 0.40660835 0.31695484
0.32626989 0.40662051 0.31499093
0.33186261 0.4066066 0.31287008
0.33803756 0.40660652 0.3089615
0.34528994 0.4066172 0.30351866
0.35500199 0.40664001 0.29389639
0.36663265 0.4066186 0.29010619
0.37933457 0.4027373 0.27043379
0.39868534 0.40272233 0.23649343
0.4296184 0.39881425 0.19754075
0.47613235 0.40551558 0.18177882
0.52662313 0.41397165 0.18975071
0.58161677 0.42686796 0.20186041
0.64231348 0.44102261 0.21350084
0.70827564 0.45647481 0.23149846
0.77759292 0.47584735 0.25032743
0.83437285 0.49299192 0.26234219
0.89431739 0.50397667 0.27997306
0.95404507 0.51031542 0.30105915
0.99601104 0.51605694 0.31648992
0.99604664 0.5121341 0.33566796
0.99602948 0.51001373 0.34742568
0.35150683 0.44926375 0.35359731
0.35150683 0.44926375 0.35359731
0.35343709 0.44925612 0.35355154
0.35543603 0.44927901 0.35159838
0.35930419 0.44924086 0.3516289
0.36322576 0.44923355 0.34807323
0.36901656 0.45071908 0.34565499
0.37632595 0.45122676 0.34042751
0.38472572 0.45120165 0.33594263
0.39493687 0.44927138 0.32568189
0.40732815 0.44925422 0.32033583
0.42195805 0.44822105 0.29955685
0.44130617 0.4453727 0.26462959
0.47222127 0.44145876 0.22282241
0.51877368 0.44817464 0.20502848
0.57311551 0.45784218 0.20398928
0.62749421 0.47141985 0.22321406
0.68830078 0.48504679 0.23484779
0.75041772 0.50058175 0.24988746
0.81636435 0.51847041 0.26624132
0.87488746 0.53396785 0.28137636
0.93250267 0.54722667 0.29668498
0.98700122 0.5549471 0.31613387
0.99595954 0.55090346 0.32807183
0.9960174 0.54501411 0.34744793
0.38636861 0.49579105 0.39035121
0.38636861 0.49579105 0.39035121
0.38844574 0.49580377 0.38853221
0.39021515 0.49579678 0.38848325
0.39383472 0.49584976 0.38648252
0.39769764 0.49580621 0.38461591
0.40352388 0.49582284 0.38253939
0.40923685 0.49708237 0.37864601
0.41697884 0.49974314 0.37473191
0.42672832 0.49837698 0.36692528
0.43634953 0.49582311 0.35674422
0.44997428 0.49578658 0.34913135
0.46549109 0.49475471 0.32760643
0.4878411 0.49189931 0.29261291
0.51788485 0.48806548 0.24979978
0.56531314 0.49474867 0.22940652
0.61965743 0.50436811 0.22507227
0.67277936 0.51601479 0.24654524
0.7289346 0.52970439 0.25608597
0.78876645 0.54483792 0.26764637
0.84770479 0.5604909 0.28176165
0.90952004 0.57611264 0.29720998
0.95996091 0.5917347 0.30868493
0.99597768 0.59735696 0.32021155
0.99597734 0.57998652 0.34743521
0.42510618 0.54231708 0.4291104
0.42510618 0.54231708 0.4291104
0.42510618 0.54231708 0.4291104
0.42904301 0.54400575 0.42744844
0.43091817 0.54627108 0.42516679
0.43468635 0.54624686 0.42513315
0.44034231 0.54627076 0.42129714
0.44461346 0.54626742 0.42007123
0.45238931 0.54632385 0.41734569
0.46022545 0.54626281 0.4103809
0.47031654 0.54627733 0.40333706
0.48288891 0.54629206 0.39172908
0.49649551 0.54625391 0.38411536
0.51199349 0.54237112 0.36085012
0.53439839 0.5394451 0.32483353
0.56629664 0.53848675 0.27927412
0.61183846 0.54130787 0.25656943
0.6645836 0.55091634 0.2515712
0.71542846 0.56249555 0.26985072
0.76975201 0.5741696 0.27544405
0.82372841 0.58792609 0.28569043
0.87811268 0.59988572 0.29720124
0.93250066 0.61501774 0.31023139
0.9831836 0.62893264 0.32431271
0.99599959 0.61895171 0.34355179
0.46236744 0.59283207 0.4678378
0.46384375 0.59284352 0.46787213
0.46384375 0.59284352 0.46787213
0.46752332 0.59282897 0.46778487
0.47013619 0.59279965 0.46658846
0.47160868 0.59425307 0.46391241
0.47731699 0.59672742 0.46392863
0.48287675 0.59670572 0.45991693
0.4888927 0.59672821 0.45690089
0.49655027 0.59675603 0.45311189
0.50610647 0.59673695 0.44824807
0.51590642 0.59674442 0.4383464
0.52750534 0.59673266 0.42674144
0.54300882 0.59285163 0.41776667
0.56054319 0.59282762 0.39336391
0.58188468 0.58894627 0.35691186
0.6128392 0.58505697 0.31036405
0.65449299 0.58894539 0.28374485
0.70555476 0.59740024 0.27489223
0.75877362 0.60510096 0.27728917
0.80435677 0.61875588 0.2970442
0.85481446 0.63050064 0.30467284
0.90161571 0.64219724 0.31249078
0.95341929 0.65252171 0.32562212
0.99595254 0.65929465 0.33818189
0.50125378 0.6432695 0.50913761
0.50125378 0.6432695 0.50913761
0.50251011 0.64328476 0.50656392
0.50509397 0.64327459 0.50650289
0.50638081 0.64327459 0.50647237
0.51033799 0.64330002 0.50527708
0.5139175 0.64328985 0.50260929
0.51998423 0.64328306 0.50133305
0.52551902 0.64414605 0.49874961
0.53244831 0.64719615 0.49479922
0.5410616 0.64721141 0.49018591
0.55078584 0.64720082 0.48241822
0.56178632 0.64329747 0.47136136
0.5739537 0.64330383 0.46324801
0.58875029 0.64330468 0.45019031
0.60813497 0.63940515 0.42384604
0.62833431 0.63549079 0.38800471
0.65927049 0.63252164 0.3414151
0.69709951 0.63456423 0.31017904
0.74421132 0.64232577 0.2991527
0.79282063 0.65006994 0.29784339
0.83676534 0.65930927 0.31760128
0.88201173 0.6695201 0.32166866
0.92854285 0.67858735 0.33183689
0.9750871 0.68894484 0.33972178
0.53738206 0.68985466 0.54529068
0.53738206 0.68985466 0.54529068
0.5401166 0.68983304 0.5453123
0.54124704 0.68981969 0.5453212
0.54405343 0.68986292 0.54417995
0.54517086 0.68981569 0.54193706
0.54910544 0.68983495 0.54145622
0.55494313 0.68984835 0.54028016
0.56039881 0.693758 0.53743674
0.5674843 0.69375397 0.53356095
0.57527233 0.69371259 0.52897397
0.58372069 0.69377011 0.52186666
0.59338903 0.69262608 0.5140205
0.60499823 0.68984841 0.50379385
0.62055268 0.68986351 0.49675142
0.63429831 0.68595685 0.47734814
0.65078308 0.68595407 0.45136144
0.6740185 0.68208268 0.41519396
0.70188163 0.6781308 0.37250626
0.73586554 0.67816537 0.33740177
0.78122017 0.68487895 0.32482918
0.82507502 0.69266287 0.31747913
0.87019447 0.69796234 0.31855794
0.90898648 0.70837474 0.34083696
0.9479305 0.71611162 0.34472674
0.57219043 0.73538567 0.58299763
0.57219043 0.73538567 0.58299763
0.57512907 0.73630725 0.58306376
0.57607767 0.73643091 0.58017853
0.57898133 0.73640358 0.57928969
0.58231146 0.7363613 0.57913615
0.58387121 0.73636988 0.5762417
0.58985513 0.73638752 0.57524319
0.59462501 0.73637751 0.57230106
0.60137236 0.73636893 0.56835708
0.60901808 0.73638609 0.56445315
0.61671848 0.736412 0.56004997
0.62588693 0.73635653 0.55229839
0.6360318 0.73639611 0.54262036
0.64704833 0.73249536 0.53098917
0.66248474 0.73212119 0.52391279
0.67696396 0.72858142 0.50454719
0.69338188 0.72831312 0.47737405
0.71664282 0.72471199 0.44163615
0.74287277 0.72079296 0.39896461
0.77392424 0.7198558 0.36164645
0.8132825 0.72390755 0.34823281
0.85495473 0.73152546 0.34075017
0.89749895 0.73645857 0.3367841
0.93534371 0.74330892 0.34747845
0.60622505 0.77510173 0.61498817
0.60620372 0.77509563 0.61420218
0.60702296 0.77510173 0.61418708
0.61013962 0.77515005 0.61416292
0.61076153 0.77823046 0.61419534
0.61400015 0.77821838 0.61105135
0.61787658 0.77819994 0.61015234
0.62186173 0.77823364 0.60717556
0.62574706 0.7782152 0.60627654
0.63240953 0.77823046 0.60242054
0.63790463 0.77824387 0.59855961
0.645688 0.77819812 0.59291611
0.65541123 0.77512589 0.58675453
0.66474022 0.77512525 0.57892983
0.6746642 0.7751447 0.56770423
0.68933879 0.77315692 0.55786587
0.70380204 0.77042674 0.54721269
0.71667043 0.76735494 0.5260934
0.73440941 0.7657551 0.49964427
0.7551825 0.76261847 0.46166428
0.779169 0.75940443 0.42230541
0.80889657 0.75567381 0.38739652
0.84418525 0.75884912 0.36797364
0.88680775 0.76360027 0.32957368
0.92557539 0.77051194 0.32493706
0.63730322 0.81383993 0.64518196
0.63859261 0.81317871 0.64582793
0.63859261 0.81317871 0.64582793
0.64183992 0.81323752 0.64307813
0.64249129 0.81325246 0.64267185
0.64571857 0.81323974 0.64194959
0.64883523 0.81321813 0.63872104
0.65261713 0.81323116 0.63826772
0.65750108 0.81322703 0.63486687
0.66176979 0.81320796 0.63412744
0.66920475 0.8132194 0.63026373
0.67549963 0.81322088 0.62309559
0.68638514 0.81322449 0.62174665
0.694076 0.80995895 0.61430247
0.70366047 0.81000738 0.60476293
0.71532896 0.80931818 0.59322944
0.72448649 0.80826106 0.56989734
0.73649132 0.80539894 0.55096195
0.75149793 0.80216932 0.52762646
0.76947517 0.80084592 0.49963611
0.79010452 0.79765859 0.46090427
0.81382881 0.79372918 0.41836423
0.84388283 0.79047879 0.38043073
0.87830559 0.79378915 0.35977902
0.9138908 0.7976552 0.34821851
0.67228199 0.84823568 0.67629511
0.67228199 0.84823568 0.67629511
0.67228199 0.84823568 0.67629511
0.67269732 0.84817607 0.6723683
0.67620356 0.84820325 0.67244984
0.67620356 0.84820325 0.67244984
0.68003357 0.84823377 0.66848249
0.68396086 0.84825666 0.66857977
0.68789197 0.84591694 0.66461306
0.69212754 0.84480406 0.66459668
0.6996128 0.8447509 0.66065461
0.70564314 0.84455452 0.65466998
0.71136034 0.84429694 0.64893568
0.71911192 0.84429694 0.64112306
0.72857061 0.84089688 0.63330075
0.73868925 0.84040589 0.62166781
0.74777854 0.84041098 0.60857557
0.75918005 0.83698159 0.58531478
0.77073987 0.83649481 0.56594425
0.78622802 0.83261393 0.53919264
0.8018047 0.82914219 0.51097601
0.82455701 0.82527395 0.47262913
0.8478062 0.82452125 0.43390618
0.8749787 0.82096017 0.39907405
0.90599489 0.82092203 0.37538338
0.69551385 0.87575341 0.69964141
0.69551385 0.87575341 0.69964141
0.69583556 0.8757496 0.69964396
0.69943542 0.87573561 0.69568424
0.69943542 0.87573561 0.69568424
0.70330231 0.87569874 0.69571094
0.70353946 0.87570001 0.6953797
0.70729127 0.87543043 0.69181862
0.71119419 0.87539652 0.68906818
0.71754915 0.87540754 0.68785747
0.72284148 0.8754317 0.684006
0.7268101 0.87541517 0.67793927
0.73452862 0.87540119 0.67222604
0.74240318 0.87183555 0.66632615
0.75026067 0.87150886 0.65661606
0.75803642 0.8714944 0.64735002
0.76710664 0.86762375 0.63577223
0.774769 0.86758284 0.61261423
0.78897631 0.86399062 0.59702258
0.80171129 0.86367516 0.57408186
0.8171611 0.85981346 0.55039758
0.83584694 0.85590095 0.51921095
0.85558544 0.8523039 0.48048572
0.8789079 0.84841603 0.44555708
0.90210447 0.84811424 0.41069657
0.71878831 0.90278859 0.71899748
0.7227512 0.90272882 0.71891101
0.72275374 0.90256606 0.71890847
0.72275374 0.90256606 0.71890847
0.72285727 0.90261078 0.71503374
0.72658376 0.90258132 0.7150632
0.73052059 0.90264235 0.71503332
0.73329391 0.90258768 0.71116115
0.73701796 0.9025864 0.71101935
0.74078633 0.90255271 0.70723937
0.74613057 0.90264235 0.70335953
0.75006739 0.90262709 0.69939218
0.75784822 0.89885367 0.69349521
0.76357128 0.89866102 0.68768724
0.77112516 0.89868412 0.67985454
0.77887357 0.89730575 0.67065849
0.78900587 0.89479328 0.65906979
0.79425437 0.89478841 0.6398617
0.80566618 0.89099304 0.62419731
0.81724956 0.89088973 0.60479896
0.831901 0.88701606 0.5817216
0.84756603 0.88323248 0.55826944
0.86338259 0.88278364 0.52697011
0.88285 0.87919104 0.49214123
0.90609534 0.87530009 0.45734595
0.74201572 0.92976272 0.73827726
0.7460441 0.92974746 0.73838407
0.7460441 0.92974746 0.73838407
0.74601358 0.92979324 0.73450828
0.74601358 0.92979324 0.73450828
0.74987411 0.92977798 0.73441672
0.75373465 0.92974746 0.73444724
0.75379568 0.92974746 0.73057145
0.75770199 0.92584115 0.72795707
0.76154726 0.92584115 0.72657359
0.76780601 0.92586913 0.72268508
0.77334249 0.92584115 0.71873045
0.77723354 0.92584115 0.71100938
0.78504298 0.92407556 0.70702678
0.79055467 0.921959 0.69922179
0.79824331 0.92196345 0.6914435
0.80584421 0.92066835 0.68231734
0.81628328 0.91802663 0.67077452
0.82409018 0.91808576 0.64748989
0.83268101 0.91415846 0.63199054
0.84744793 0.91413748 0.61264464
0.85974289 0.91025216 0.58932631
0.87485695 0.90637446 0.56607665
0.89060235 0.906178 0.53491073
0.90998703 0.90247959 0.49993133
0.015447217 0.015431957 0.023214059
0.023501702 0.015475244 0.027003329
0.050489401 0.023139194 0.035171304
0.099817766 0.027670249 0.053843843
0.14716935 0.035002395 0.058372117
0.19759896 0.035165582 0.066184736
0.24419505 0.042987367 0.076928518
0.29071555 0.054678877 0.088370082
0.33729941 0.065101345 0.10002204
0.37990339 0.085918545 0.1169914
0.42252126 0.096047913 0.13091722
0.46911471 0.10763054 0.14637498
0.51567229 0.11918822 0.16181748
0.5621785 0.13075451 0.1773136
0.60876355 0.14067038 0.19278895
0.65918021 0.15236515 0.20824941
0.70965578 0.16410633 0.22754465
0.76401785 0.17582126 0.24572011
0.81839475 0.18754101 0.26234073
0.87362952 0.20009245 0.2847187
0.93100305 0.21486981 0.30498525
0.98540665 0.22715534 0.32431907
0.99618016 0.24223697 0.33594517
0.99608034 0.2541193 0.34740152
0.99607843 0.2695964 0.35898375
0.023599852 0.038920917 0.035187013
0.042673123 0.042835891 0.04283243
0.065618691 0.050449185 0.046568345
0.097200029 0.058441779 0.054519525
0.14707772 0.061685722 0.05447024
0.19364297 0.065305429 0.062219695
0.24039486 0.072978928 0.073020102
0.29068939 0.080767621 0.085698836
0.33722517 0.08587547 0.099972449
0.37599311 0.10386472 0.11564953
0.42253489 0.11316529 0.13090952
0.46907545 0.12318132 0.14630579
0.51568197 0.13278499 0.15990826
0.56219699 0.14236951 0.17548241
0.60876195 0.15397554 0.19276452
0.65921184 0.16399157 0.20824822
0.70964646 0.17314539 0.22618872
0.76403284 0.18471332 0.24299473
0.8184259 0.19631224 0.26238731
0.87359108 0.20786592 0.2817803
0.93104063 0.22258227 0.3047819
0.98538551 0.23489741 0.32430671
0.99615483 0.24989011 0.3358267
0.99615096 0.26191849 0.35101382
0.99612421 0.27743954 0.35904479
0.058299159 0.073558552 0.065636153
0.066077327 0.073894414 0.066125967
0.069960072 0.073879098 0.06585921
0.081814584 0.07391851 0.054157454
0.13181762 0.081987837 0.050040399
0.18620408 0.092603454 0.0583965
0.23653893 0.10003276 0.070113629
0.28677849 0.10516927 0.084565422
0.33115288 0.11407454 0.099905267
0.37592278 0.12468665 0.11545807
0.42254917 0.13251969 0.12703836
0.46517642 0.14244799 0.14249014
0.5116887 0.15204966 0.15778973
0.56220454 0.15989231 0.17549254
0.60873979 0.16782938 0.19104403
0.65920636 0.17717151 0.20820788
0.70965889 0.18734437 0.22617067
0.7640027 0.19641678 0.24299547
0.81835025 0.20797157 0.26236998
0.87354891 0.21958162 0.28176441
