site/assets/luts/colour-blind-luts--tritanope-correct-lut--5a48f5a71.cube
# LUTr-Project: LUTr — LUTrepository
# LUTr-Schema-Version: 1
# LUTr-ID: colour-blind-luts--tritanope-correct-lut--5a48f5a71
# LUTr-Title: tritanope correct lut
# LUTr-Collection: Colour-Blind LUTs
# LUTr-Collection-ID: andrewwillmott-colour-blind-luts
# LUTr-Source: https://github.com/andrewwillmott/colour-blind-luts
# LUTr-Source-File: submissions/andrewwillmott-colour-blind-luts/luts/tritanope_correct_lut.png
# LUTr-Source-Format: PNG
# LUTr-Source-SHA256: 1f962b5dbd9d27d4eaa6acc8032fc030eb25086bc9f795f0949fcb785f702345
# LUTr-License: Unlicense
# LUTr-License-URL: https://github.com/andrewwillmott/colour-blind-luts/blob/master/LICENSE
# LUTr-Tags: technical, accessibility, color-vision, simulation, correction, png, tritanopia, cube
# LUTr-Transform-Class: accessibility
# LUTr-Input-Color-Space: srgb
# LUTr-Output-Color-Space: srgb
# LUTr-Color-Space-Confidence: assumed-display-referred
# LUTr-Conversion-Method: PNG LUT image decoded at 16-bit and sampled to 32x32x32 3D CUBE
# LUTr-Conversion-Date: 2026-07-27
# LUTr-Conversion-Tool: LUTr scripts/convert-all-to-cube.mjs
# LUTr-Conversion-Grid: 32x32x32
# LUTr-Note: Preserve this metadata and the upstream license notices when redistributing.
TITLE "tritanope correct lut"
LUT_3D_SIZE 5
DOMAIN_MIN 0.000000 0.000000 0.000000
DOMAIN_MAX 0.903226 0.903226 0.903226
0.01170367 0.01559472 0.015533684
0.23442435 0.011749447 0.015457389
0.44921035 0.015671015 0.015381094
0.67186999 0.011749447 0.015228504
0.89059281 0.015716793 0.015243763
0 0.24614328 0.00018310826
0.17567712 0.24612802 0.000015259022
0.42957198 0.24615854 0
0.65609216 0.2461738 0
0.87884337 0.24615854 0
0 0.47663081 0.00024414435
0 0.47663081 0.00024414435
0.33968109 0.47666133 0.000061036088
0.60523384 0.47666133 0
0.84359503 0.47672236 0
0 0.7110399 0.00032043946
0 0.7110399 0.00032043946
0 0.7110399 0.00032043946
0.50360876 0.71110094 0.000045777066
0.78100252 0.7111162 0
0 0.94158846 0.00045777066
0 0.94158846 0.00045777066
0 0.94158846 0.00045777066
0.2730602 0.94157321 0.00030518044
0.66761273 0.94161898 0.000091554131
0.16412604 0 0.23422599
0.27742428 0.000015259022 0.23427176
0.47273976 0 0.23413443
0.68372625 0.000015259022 0.23408865
0.89858854 0.000045777066 0.23393606
0.015609979 0.23431754 0.23443961
0.23439384 0.23439384 0.23439384
0.44925612 0.23443961 0.2342565
0.66797894 0.23443961 0.23413443
0.89063859 0.23447013 0.23411917
0 0.47270924 0.23074693
0 0.47270924 0.23074693
0.37096208 0.47275502 0.23051804
0.62098116 0.47278553 0.23042649
0.85540551 0.47278553 0.23031968
0 0.70710307 0.22687114
0 0.70710307 0.22687114
0.050522621 0.70713359 0.22693217
0.52323186 0.70711833 0.22664225
0.79272145 0.70717937 0.22645914
0 0.93762112 0.21918059
0 0.93762112 0.21918059
0 0.93762112 0.21918059
0.31216907 0.93765164 0.21907378
0.68322271 0.93769741 0.21884489
0.31665522 0 0.45296407
0.38294041 0 0.45284199
0.53537804 0 0.45285725
0.72672618 0 0.4526894
0.92991531 0 0.45262837
0.2813611 0.17962921 0.45311666
0.35555047 0.17962921 0.45300984
0.51970703 0.17967498 0.45299458
0.71493095 0.17967498 0.45285725
0.92199588 0.17969024 0.45270466
0.015640497 0.45308614 0.45331502
0.23050278 0.45311666 0.45317769
0.4492256 0.45311666 0.45305562
0.66800946 0.45319295 0.45300984
0.88673228 0.45319295 0.45290303
0 0.69140154 0.4495613
0 0.69140154 0.4495613
0.28506905 0.69144732 0.44939345
0.58191806 0.6914931 0.44927138
0.82801556 0.6914931 0.44907301
0 0.92977798 0.44568551
0 0.92977798 0.44568551
0 0.92977798 0.44568551
0.40604257 0.92977798 0.4455024
0.72639048 0.92982376 0.44539559
0.47295338 0 0.67161059
0.51590753 0 0.67167163
0.63308156 0 0.67150378
0.79716182 0 0.67141222
0.98466468 0 0.67135119
0.44951553 0 0.67167163
0.49634546 0 0.67162585
0.61747158 0 0.67161059
0.78550393 0 0.67150378
0.97299153 0 0.67142748
0.36723888 0.41013199 0.67191577
0.42195773 0.41010147 0.67188525
0.56649119 0.41013199 0.67176318
0.74618143 0.41014725 0.67168688
0.94543374 0.41014725 0.67151904
0.015640497 0.66796368 0.67225147
0.23430228 0.67188525 0.67206836
0.45308614 0.67188525 0.66808576
0.66797894 0.67188525 0.67180896
0.89060807 0.6680705 0.67174792
0 0.91407645 0.66836042
0 0.91407645 0.66836042
0.12095827 0.91413748 0.6684062
0.53113603 0.91410697 0.66813153
0.79674983 0.91418326 0.66805524
0.62537575 0 0.89036393
0.65661097 0 0.89031815
0.7504387 0 0.89031815
0.89092851 0 0.89008927
0.99642939 0 0.89011978
0.60978103 0 0.89034867
0.64098573 0 0.89036393
0.73867399 0 0.89027237
0.87927062 0 0.89016556
0.99642939 0 0.89011978
0.55487907 0.34366369 0.89047074
0.59397269 0.34372473 0.89050126
0.69553674 0.34369421 0.89044022
0.84393072 0.34367895 0.89034867
0.99626154 0.34372473 0.8902266
0.44150454 0.63276112 0.89060807
0.48833448 0.63276112 0.89057755
0.60943008 0.63282216 0.89062333
0.78132296 0.63282216 0.89054704
0.96881056 0.63285267 0.89047074
0.011688411 0.89060807 0.89095903
0.23041123 0.89062333 0.89085222
0.44919509 0.89068437 0.89080644
0.67177844 0.89065385 0.89071489
0.88664073 0.89069963 0.89057755
