site/assets/luts/colour-blind-luts--viridis-lut--1414673a3.cube
# LUTr-Project: LUTr — LUTrepository
# LUTr-Schema-Version: 1
# LUTr-ID: colour-blind-luts--viridis-lut--1414673a3
# LUTr-Title: viridis lut
# LUTr-Collection: Colour-Blind LUTs
# LUTr-Collection-ID: andrewwillmott-colour-blind-luts
# LUTr-Source: https://github.com/andrewwillmott/colour-blind-luts
# LUTr-Source-File: submissions/andrewwillmott-colour-blind-luts/luts/viridis_lut.png
# LUTr-Source-Format: PNG
# LUTr-Source-SHA256: b4882689a70d9d36819a8b59ee010133d24c35a13e5180841f4fde7ff6e02cd0
# LUTr-License: Unlicense
# LUTr-License-URL: https://github.com/andrewwillmott/colour-blind-luts/blob/master/LICENSE
# LUTr-Tags: technical, accessibility, color-vision, simulation, correction, png, cube
# LUTr-Transform-Class: accessibility
# LUTr-Input-Color-Space: srgb
# LUTr-Output-Color-Space: srgb
# LUTr-Color-Space-Confidence: assumed-display-referred
# LUTr-Conversion-Method: PNG LUT image decoded at 16-bit and sampled to 32x32x32 3D CUBE
# LUTr-Conversion-Date: 2026-07-27
# LUTr-Conversion-Tool: LUTr scripts/convert-all-to-cube.mjs
# LUTr-Conversion-Grid: 32x32x32
# LUTr-Conversion-Warning: Source is a 256-sample false-colour ramp; converted as Rec.709 luminance to RGB.
# LUTr-Note: Preserve this metadata and the upstream license notices when redistributing.
TITLE "viridis lut"
LUT_3D_SIZE 8
DOMAIN_MIN 0.000000 0.000000 0.000000
DOMAIN_MAX 0.903226 0.903226 0.903226
0.26573587 0.0038910506 0.32793164
0.27351855 0.042920165 0.3669766
0.28140717 0.08583355 0.40615757
0.28131576 0.12095296 0.43731296
0.28139221 0.15607209 0.46868197
0.27361085 0.18734894 0.49196443
0.26581681 0.22250241 0.51149259
0.25792223 0.2537043 0.52341701
0.28136824 0.13299938 0.45115367
0.27750141 0.16812685 0.47649516
0.27359357 0.20121769 0.49811108
0.26367427 0.23448073 0.51558874
0.25197392 0.26759577 0.52937955
0.24028029 0.29882741 0.53912374
0.22662688 0.32613032 0.54498256
0.2129132 0.35739275 0.55078962
0.257907 0.24636184 0.51979418
0.24619181 0.27752407 0.53147539
0.23448455 0.3088125 0.53935685
0.22259528 0.3363223 0.54691771
0.20705106 0.36732436 0.55087842
0.19515882 0.39468117 0.55478814
0.1835012 0.42203452 0.55480112
0.171952 0.44541174 0.55481612
0.21648782 0.34997285 0.54694735
0.20315862 0.37731297 0.55085069
0.19144236 0.40459416 0.55477761
0.17970044 0.43197717 0.55479894
0.1679737 0.45535473 0.55481398
0.15794772 0.48269804 0.55485079
0.14839399 0.50777447 0.55478752
0.13670752 0.53345831 0.5548294
0.17528381 0.4413997 0.55479938
0.16409743 0.46528673 0.55480278
0.15233448 0.4926717 0.55482536
0.1445722 0.51608298 0.55493308
0.13278906 0.54340344 0.5510118
0.12503243 0.57033646 0.54706645
0.12104982 0.59410744 0.54274765
0.12096707 0.6214802 0.53139338
0.14063768 0.52602605 0.55485909
0.13017639 0.55334627 0.55090126
0.12241301 0.57679585 0.5471474
0.11851016 0.60413648 0.53934989
0.12102802 0.62893656 0.52896496
0.13272297 0.65484618 0.51727689
0.15472682 0.67827811 0.501669
0.18837525 0.70565194 0.48219271
0.1178971 0.61405902 0.53535685
0.12486956 0.63747179 0.52362411
0.14127827 0.664778 0.51124046
0.16531594 0.68821912 0.49565209
0.20367525 0.71169576 0.47287174
0.24655526 0.73509782 0.44869484
0.29798818 0.75857048 0.42140201
0.35260588 0.78131015 0.39017764
0.17854364 0.69817712 0.48565116
0.21753657 0.72164464 0.4661337
0.26328633 0.74507226 0.43884504
0.31787869 0.76847843 0.41143881
0.37251671 0.78799155 0.37742995
0.43496072 0.80750179 0.34112562
0.50129707 0.82433353 0.30206289
0.57035264 0.84001037 0.25639199
0.2696517 0.017067712 0.34260801
0.27745085 0.05753412 0.38161089
0.28140389 0.096582333 0.4168677
0.28137085 0.13166006 0.45048009
0.27749619 0.16678491 0.47648472
0.27359879 0.20055455 0.49745839
0.26434002 0.23315185 0.51557308
0.25263967 0.26693003 0.52871381
0.28137917 0.14410059 0.46045765
0.27743511 0.17929548 0.48394972
0.26962382 0.21405057 0.50389248
0.25832656 0.24569419 0.51953593
0.24662473 0.27685127 0.53123946
0.23494155 0.30814229 0.53914348
0.22278409 0.33545241 0.54691202
0.20754342 0.36665357 0.55087738
0.25616264 0.25556756 0.52512854
0.2423113 0.28685091 0.53517575
0.23054645 0.31805251 0.54300333
0.21715879 0.34930188 0.54694212
0.20315862 0.37662895 0.55085069
0.19143714 0.40393625 0.55476716
0.17971089 0.43131142 0.55479111
0.16796847 0.45469682 0.55480615
0.2110479 0.35925804 0.55080408
0.19926757 0.38661247 0.55082017
0.18745933 0.41387995 0.55477001
0.17578647 0.44123479 0.55479005
0.16409411 0.46461027 0.5548056
0.1525312 0.49200911 0.55481726
0.14457326 0.51541377 0.55493329
0.13302276 0.54273829 0.55101669
0.17192308 0.4472698 0.5547872
0.16015873 0.47459525 0.55483334
0.15040209 0.501898 0.55483316
0.14065073 0.52535509 0.55487214
0.13084736 0.55267269 0.55089604
0.12308398 0.57612227 0.54714218
0.11918113 0.6034629 0.53934467
0.12101758 0.62893917 0.5296281
0.13672084 0.53529526 0.55465954
0.1288772 0.56266713 0.55084374
0.12107863 0.58605539 0.54316143
0.11724702 0.61339589 0.53536207
0.12485129 0.63680082 0.52360061
0.1406047 0.66409659 0.51191665
0.16398183 0.68754554 0.49632567
0.2030069 0.71104046 0.47287696
0.12101045 0.62333827 0.53145845
0.12878217 0.64675542 0.51972626
0.14659003 0.67408771 0.50588206
0.17788312 0.69750876 0.4863404
0.216863 0.72096845 0.46679162
0.26195222 0.74440129 0.43949773
0.31655503 0.76781791 0.41212544
0.37118522 0.78733102 0.37877711
0.19166686 0.70750278 0.48036751
0.23105871 0.73093278 0.4568507
0.28175446 0.75398021 0.42947323
0.33644434 0.7738779 0.40180508
0.39496241 0.79336826 0.36669675
0.45738366 0.81293973 0.32800426
0.52410379 0.83216939 0.28502089
0.59426135 0.84413779 0.24174654
0.27356754 0.030244374 0.35729585
0.27748918 0.072216009 0.39347806
0.28135322 0.10834838 0.42859634
0.28138439 0.14343745 0.45980757
0.27742727 0.17862451 0.4832657
0.2696186 0.21270863 0.50388204
0.25900014 0.24502061 0.51953071
0.2472957 0.2761803 0.53123424
0.2813873 0.15732109 0.46983474
0.27353073 0.18962454 0.4920747
0.26570953 0.22370118 0.51164212
0.25684666 0.25489398 0.52446279
0.24230608 0.286193 0.5351653
0.23054123 0.3173946 0.54299289
0.21782976 0.34863091 0.5469369
0.20315862 0.37594493 0.55085069
0.25079606 0.26877363 0.53055741
0.2390701 0.29999603 0.53910989
0.22661764 0.32730356 0.5461327
0.21172148 0.35858446 0.55079886
0.19926757 0.38593106 0.55082017
0.18746977 0.4132142 0.55475957
0.17579691 0.44056382 0.5548005
0.16408889 0.46394713 0.55481605
0.2070603 0.3684976 0.55085994
0.19399944 0.39585903 0.55479276
0.18231872 0.42318928 0.55478727
0.17193353 0.44659883 0.55479765
0.16014306 0.47392428 0.55481246
0.1510574 0.50123487 0.55482794
0.14066379 0.52468412 0.5548852
0.13151832 0.55199911 0.55089082
0.16798293 0.45651873 0.55482784
0.15678834 0.48387127 0.55486003
0.14839399 0.50777447 0.55478752
0.13671676 0.53463155 0.55481093
0.12887559 0.56198611 0.55097276
0.12107597 0.58539183 0.54316888
0.117152 0.61273275 0.53537181
0.12426003 0.63613684 0.52419436
0.13280292 0.54457206 0.55099332
0.12503243 0.57033646 0.54706645
0.12104982 0.59528992 0.54155593
0.12099478 0.6226673 0.53143495
0.12879261 0.64608967 0.51971582
0.14592951 0.67342458 0.50655302
0.17722259 0.69684041 0.48702964
0.21618942 0.72029226 0.46744953
0.1210465 0.62893194 0.52779173
0.13272297 0.65602866 0.51608056
0.15592316 0.67943749 0.50048652
0.19073558 0.70683442 0.48104257
0.23000522 0.73027113 0.45750976
0.2804147 0.75367045 0.43013973
0.33511158 0.77321372 0.40281436
0.39362456 0.79304591 0.36769163
0.20485773 0.71285514 0.4728625
0.24777469 0.7362803 0.44753546
0.30037623 0.7597391 0.42024725
0.35498931 0.78131477 0.38900902
0.41534824 0.80089328 0.35384714
0.47986201 0.81831037 0.31478855
0.54792865 0.83606547 0.2717514
0.61824724 0.84953615 0.2270503
0.27401925 0.043931766 0.36799923
0.28140502 0.08638139 0.40665895
0.2813207 0.12152683 0.43784005
0.28138991 0.15665796 0.46918466
0.2735229 0.18828522 0.49206426
0.26570692 0.22302238 0.51161863
0.25753068 0.2542204 0.52379705
0.24230086 0.28553508 0.53515486
0.27750543 0.16915911 0.4765032
0.27358955 0.20172779 0.49861315
0.26316216 0.23550295 0.51560079
0.25146181 0.26810789 0.52989167
0.23975412 0.29933551 0.53911772
0.22662286 0.32664042 0.54548262
0.21239506 0.35791088 0.55079364
0.19926757 0.38524964 0.55082017
0.24619783 0.27804422 0.5319855
0.23448254 0.30932261 0.53985691
0.22206911 0.33735255 0.54692775
0.20705508 0.36783447 0.55087039
0.19465474 0.39519328 0.55479015
0.18298708 0.42253659 0.5547951
0.17194397 0.44592787 0.55480809
0.1601274 0.47325331 0.55479157
0.20315862 0.37783914 0.55085069
0.19144638 0.40510025 0.55478564
0.17969241 0.43248928 0.55480496
0.16797771 0.45586082 0.55482001
0.15744365 0.48320814 0.55485481
0.14839399 0.50777447 0.55478752
0.13671154 0.53396842 0.55482137
0.12887298 0.56130208 0.55097276
0.16409943 0.4658109 0.55480278
0.15233849 0.49317779 0.55483339
0.14456417 0.5165971 0.55492504
0.13279509 0.54391153 0.55100377
0.12503243 0.57033646 0.54706645
0.12104982 0.59462156 0.54222951
0.12097912 0.62199633 0.53141145
0.12880305 0.64542392 0.51970538
0.12966026 0.5538644 0.55090528
0.12189688 0.57731398 0.54715142
0.11799403 0.60465462 0.53935391
0.12103605 0.62893455 0.52845486
0.13272297 0.6553603 0.51675675
0.15524697 0.67878219 0.50115488
0.18940148 0.70616606 0.48169265
0.2293447 0.729608 0.45818072
0.12488362 0.63798792 0.52364218
0.14179641 0.66530216 0.51072031
0.16634217 0.68873726 0.49513396
0.20418938 0.71219984 0.47286772
0.24708545 0.73561194 0.44819077
0.29902646 0.75907858 0.42089994
0.35364215 0.78131216 0.38966954
0.41334056 0.80089589 0.35450506
0.21805471 0.72216478 0.46562762
0.26431256 0.74558839 0.43834297
0.31889689 0.76898653 0.41091063
0.37354093 0.78849964 0.37639367
0.43598695 0.80801792 0.34060748
0.50233133 0.82433554 0.30155279
0.57189099 0.8400164 0.25535973
0.64214052 0.85493604 0.2117697
0.27745487 0.058560354 0.38263913
0.28139184 0.0976166 0.41789595
0.28136884 0.13269031 0.45099823
0.27750021 0.16781717 0.47649275
0.27359477 0.20106465 0.49796046
0.26382791 0.23417407 0.51558513
0.25212756 0.26744214 0.52922592
0.24043814 0.29867499 0.53912555
0.27743847 0.17981001 0.48446952
0.269626 0.21496355 0.50401291
0.2579076 0.24621001 0.51963874
0.24619 0.27736803 0.53132236
0.23448515 0.30865947 0.53920683
0.22275313 0.33601322 0.5469147
0.20704986 0.36717133 0.55088083
0.19531004 0.39452753 0.55478754
0.24231532 0.287357 0.53518378
0.23055047 0.3185586 0.54301137
0.21664266 0.34981801 0.54694614
0.20315862 0.37715512 0.55085069
0.19144116 0.40444234 0.5547752
0.17970285 0.43182354 0.55479713
0.16797249 0.4552029 0.55481217
0.15809895 0.482545 0.55484959
0.19887997 0.38712751 0.55120929
0.18709385 0.41439206 0.55477515
0.17543624 0.4413991 0.55479576
0.16409682 0.46512948 0.55480278
0.15233327 0.49251988 0.55482295
0.14457461 0.51592874 0.55493549
0.13278726 0.54325101 0.55101421
0.12503243 0.57033646 0.54706645
0.16017078 0.47511138 0.55484941
0.14989801 0.50240811 0.55483718
0.14064069 0.52587121 0.5548621
0.13033123 0.55319083 0.55090006
0.12256785 0.57664041 0.54714619
0.118665 0.60398104 0.53934869
0.12102561 0.62893716 0.529118
0.13272297 0.65469195 0.51743294
0.12887519 0.56318125 0.5503256
0.1210706 0.5865675 0.54316745
0.11774708 0.61390599 0.53535806
0.12486535 0.63731695 0.52361869
0.14112283 0.66462075 0.5113965
0.16500807 0.68806368 0.49580754
0.20352102 0.71154454 0.47287295
0.24639621 0.73494358 0.44884607
0.12877413 0.64726753 0.5197343
0.14709813 0.67459782 0.50536593
0.17839121 0.69802289 0.48581021
0.21738113 0.72148859 0.46628553
0.26297846 0.74491742 0.43899566
0.31757323 0.768326 0.41159726
0.37220944 0.78783912 0.37774083
0.43465285 0.80734695 0.34128106
0.23209699 0.73144088 0.45635063
0.28278873 0.75398221 0.42896513
0.33746857 0.77438198 0.40078487
0.39599667 0.79388439 0.36567052
0.45842395 0.81345184 0.32748613
0.52563411 0.83217542 0.28449873
0.59580371 0.84464991 0.24072231
0.6660305 0.85955596 0.19384129
0.27748717 0.073248267 0.3939962
0.28135724 0.10886451 0.42912452
0.28138038 0.14394756 0.46030763
0.2774333 0.17914064 0.48379187
0.26962261 0.21374089 0.50389007
0.258482 0.24553875 0.51953473
0.24677957 0.27669643 0.53123825
0.23509699 0.30798685 0.53914228
0.27353676 0.19065479 0.49208273
0.26571154 0.22422333 0.5116602
0.25632049 0.25541212 0.5249749
0.2423101 0.28669908 0.53517334
0.23054525 0.31790069 0.54300092
0.21731363 0.34914704 0.54694092
0.20315862 0.3764711 0.55085069
0.19143594 0.40378442 0.55476475
0.23854393 0.30050413 0.53910386
0.22661362 0.32781366 0.54663276
0.21120334 0.3591026 0.55080288
0.19926757 0.38645522 0.55082017
0.18746174 0.41372632 0.5547676
0.17578888 0.44107995 0.55479246
0.1640929 0.46445724 0.55480801
0.15268603 0.49185367 0.55481665
0.19349536 0.39637114 0.55479477
0.1818046 0.42369135 0.55478124
0.17192549 0.44711496 0.55478961
0.16015511 0.47444041 0.55482852
0.15055332 0.50174497 0.55483196
0.14065375 0.52520025 0.55487515
0.13100219 0.55251725 0.55089484
0.12323882 0.57596683 0.54714097
0.15631296 0.48438173 0.55486335
0.14838286 0.50778565 0.5547876
0.13672078 0.53514166 0.5548029
0.1288776 0.56251228 0.55097276
0.12107999 0.58590193 0.54316084
0.11715803 0.61324285 0.53536378
0.12476812 0.63664695 0.52368024
0.14045044 0.66394328 0.51197188
0.12503243 0.57033646 0.54706645
0.12104982 0.59580404 0.54103779
0.12100683 0.62318343 0.53145303
0.12878458 0.64660178 0.51972385
0.14643761 0.67393468 0.50603689
0.17773069 0.69735453 0.48649946
0.21670755 0.7208124 0.46694344
0.26164435 0.74424645 0.43964835
0.13300795 0.65654609 0.51556925
0.15644227 0.67994879 0.49997652
0.19151443 0.70734854 0.48052716
0.23074722 0.73078035 0.45700072
0.28144418 0.7539796 0.42962566
0.33613708 0.77372667 0.40211114
0.39465213 0.79321342 0.36700462
0.45707157 0.8127861 0.32815971
0.24830488 0.73679442 0.44703138
0.30141451 0.7602472 0.41974517
0.35602558 0.78131678 0.38850092
0.41689261 0.80089127 0.35334106
0.4808782 0.81881445 0.31427845
0.54947302 0.83606346 0.27124732
0.61979161 0.85004826 0.22602808
0.6916037 0.86344701 0.17916329
0.28140301 0.086891494 0.40715901
0.28132672 0.12204497 0.43836822
0.2813879 0.15716806 0.46968472
0.27352892 0.18931547 0.49207229
0.26570893 0.22354453 0.5116367
0.25700451 0.25473854 0.52430916
0.24230488 0.28604117 0.53516289
0.23054002 0.31724277 0.54299048
0.27358553 0.20223789 0.49911522
0.26265005 0.23652517 0.51561284
0.2509497 0.26862 0.53040378
0.23922795 0.29984361 0.53911169
0.22661885 0.32715053 0.54598268
0.21187692 0.35842902 0.55079766
0.19926757 0.38577381 0.55082017
0.18747218 0.41306057 0.55475716
0.23448053 0.30983271 0.54035698
0.22154294 0.3383828 0.54693779
0.2070591 0.36834457 0.55086235
0.19415066 0.39570539 0.55479216
0.18247296 0.42303866 0.55478907
0.17193594 0.446444 0.55480006
0.16013945 0.47376944 0.55480764
0.15120862 0.50108184 0.55482673
0.1914504 0.40560634 0.55479367
0.17968438 0.4330014 0.55481099
0.16798173 0.45636691 0.55482603
0.15693957 0.48371824 0.55485882
0.14839399 0.50777447 0.55478752
0.13671556 0.53447852 0.55481334
0.12887499 0.56182826 0.55097276
0.12107477 0.5852388 0.54317129
0.15234251 0.49368388 0.55484143
0.14455613 0.51711122 0.55491701
0.13280111 0.54441963 0.55099573
0.12503243 0.57033646 0.54706645
0.12104982 0.59513568 0.54171137
0.12099117 0.62251246 0.53142953
0.12879502 0.64593604 0.51971341
0.14577708 0.67327155 0.50670786
0.12138075 0.57783212 0.54715543
0.1174779 0.60517275 0.53935793
0.12104409 0.62893254 0.52794476
0.13272297 0.65587442 0.5162366
0.15576711 0.67928627 0.50064075
0.19042771 0.70668019 0.48119259
0.22985279 0.7301181 0.4576646
0.28010683 0.75351501 0.43029517
0.14231455 0.66582632 0.51020017
0.1673684 0.68925539 0.49461582
0.2047035 0.71270392 0.47286371
0.24761564 0.73612606 0.44768669
0.30006474 0.75958667 0.42039787
0.35467842 0.78131417 0.38916145
0.41488493 0.80089388 0.35399897
0.47955715 0.81815915 0.31494158
0.26533879 0.74610452 0.4378409
0.31991509 0.76949462 0.41038245
0.37456516 0.78900774 0.3753574
0.43701318 0.80853404 0.34008935
0.5033656 0.82433755 0.30104268
0.57342933 0.84002242 0.25432747
0.64368489 0.8554582 0.21126362
0.717815 0.86733806 0.16062041
0.28137979 0.098650866 0.41892419
0.28136683 0.13372056 0.45151637
0.27750423 0.16884943 0.47650079
0.27359075 0.20157476 0.49846253
0.2633158 0.23519628 0.51559718
0.25161544 0.26795425 0.52973803
0.23991197 0.29918308 0.53911952
0.22662407 0.32648739 0.5453326
0.26962198 0.21547366 0.50451297
0.25790559 0.2467161 0.52015688
0.24619602 0.27788817 0.53183247
0.23448314 0.30916958 0.53970689
0.22222696 0.33704347 0.54692474
0.20705387 0.36768143 0.5508728
0.19480596 0.39503965 0.55478955
0.18314131 0.42238597 0.55479691
0.23055448 0.31906469 0.5430194
0.21612653 0.35033414 0.54695016
0.20315862 0.37768129 0.55085069
0.19144517 0.40494842 0.55478323
0.17969482 0.43233565 0.55480316
0.16797651 0.45570899 0.5548182
0.15759487 0.48305511 0.5548536
0.14839399 0.50777447 0.55478752
0.18658977 0.41490418 0.55477917
0.17492814 0.44140111 0.55480781
0.16409883 0.46565365 0.55480278
0.15233729 0.49302596 0.55483098
0.14456658 0.51644286 0.55492745
0.13279328 0.5437591 0.55100617
0.12503243 0.57033646 0.54706645
0.12104982 0.59446733 0.54238495
0.14939393 0.50291821 0.55484119
0.14063065 0.52638734 0.55485206
0.1298151 0.55370896 0.55090408
0.12205172 0.57715854 0.54715021
0.11814887 0.60449917 0.5393527
0.12103364 0.62893515 0.52860789
0.13272297 0.65520607 0.51691279
0.15509092 0.67863096 0.50130911
0.12106256 0.58707962 0.54317347
0.11824714 0.61441609 0.53535404
0.1248794 0.63783308 0.52363676
0.14164097 0.66514491 0.51087636
0.1660343 0.68858182 0.4952894
0.20403514 0.71204862 0.47286893
0.24692639 0.7354577 0.44834199
0.29871498 0.75892615 0.42105056
0.14760623 0.67510792 0.5048498
0.17889931 0.69853701 0.48528003
0.21789927 0.72200874 0.46577944
0.26400469 0.74543355 0.43849359
0.31859143 0.7688341 0.41106908
0.37323367 0.78834721 0.37670456
0.43567908 0.80786308 0.34076293
0.50202105 0.82433494 0.30170582
0.283823 0.75398422 0.42845704
0.33849279 0.77488606 0.39976466
0.39703094 0.79440052 0.36464429
0.45946424 0.81396395 0.32696799
0.52716442 0.83218144 0.28397658
0.59734608 0.84516202 0.23969809
0.6675829 0.85955596 0.19280903
0.7417066 0.87131082 0.14719935
