site/assets/luts/colour-blind-luts--protanope-correct-lut--1a552b602.cube
# LUTr-Project: LUTr — LUTrepository
# LUTr-Schema-Version: 1
# LUTr-ID: colour-blind-luts--protanope-correct-lut--1a552b602
# LUTr-Title: protanope correct lut
# LUTr-Collection: Colour-Blind LUTs
# LUTr-Collection-ID: andrewwillmott-colour-blind-luts
# LUTr-Source: https://github.com/andrewwillmott/colour-blind-luts
# LUTr-Source-File: submissions/andrewwillmott-colour-blind-luts/luts/protanope_correct_lut.png
# LUTr-Source-Format: PNG
# LUTr-Source-SHA256: 338fbebbca98b9a604eb4c85f450dff1587480225aadc7f1247ed3e55b96b83b
# LUTr-License: Unlicense
# LUTr-License-URL: https://github.com/andrewwillmott/colour-blind-luts/blob/master/LICENSE
# LUTr-Tags: technical, accessibility, color-vision, simulation, correction, png, protanopia, cube
# LUTr-Transform-Class: accessibility
# LUTr-Input-Color-Space: srgb
# LUTr-Output-Color-Space: srgb
# LUTr-Color-Space-Confidence: assumed-display-referred
# LUTr-Conversion-Method: PNG LUT image decoded at 16-bit and sampled to 32x32x32 3D CUBE
# LUTr-Conversion-Date: 2026-07-27
# LUTr-Conversion-Tool: LUTr scripts/convert-all-to-cube.mjs
# LUTr-Conversion-Grid: 32x32x32
# LUTr-Note: Preserve this metadata and the upstream license notices when redistributing.
TITLE "protanope correct lut"
LUT_3D_SIZE 8
DOMAIN_MIN 0.000000 0.000000 0.000000
DOMAIN_MAX 0.903226 0.903226 0.903226
0.011657893 0.015640497 0.011657893
0.15629816 0 0.1288777
0.29697108 0.000015259022 0.24600595
0.43767453 0 0.36304265
0.57834745 0 0.4801709
0.71895933 0 0.59722286
0.85972381 0 0.71445792
0.99647517 0 0.83147936
0 0.15237659 0.000015259022
0.14059663 0.1406424 0.015548943
0.28915846 0.085923552 0.21870756
0.43378347 0 0.34744793
0.57450217 0 0.46845197
0.71503777 0 0.58948653
0.8558175 0 0.70661479
0.99642939 0 0.82760357
0 0.28912795 0.00018310826
0.046707866 0.28130007 0.000076295109
0.26544594 0.26567483 0.01559472
0.41795987 0.22661173 0.281178
0.5626154 0.15625238 0.4255436
0.70719463 0 0.55823606
0.85188067 0 0.68320745
0.99259937 0 0.80419623
0 0.42191196 0.0001373312
0 0.42191196 0.0001373312
0.21069657 0.41025406 0.000091554131
0.38658732 0.39067674 0.011734188
0.54296178 0.35550469 0.33580529
0.69143206 0.30470741 0.49594873
0.84000916 0.22269017 0.63640803
0.98077363 0 0.76908522
0 0.55872435 0.00028992142
0 0.55872435 0.00028992142
0.054413672 0.55086595 0.00019836728
0.33958953 0.53528649 0.00010681315
0.51541924 0.51572442 0.015640497
0.67186999 0.48445869 0.38664836
0.82038605 0.4414435 0.55835813
0.96890211 0.37889677 0.70667582
0 0.69541466 0.00038147555
0 0.69541466 0.00038147555
0 0.68758679 0.00032043946
0.26143282 0.67594415 0.00021362631
0.46848249 0.66033417 0.0001373312
0.64040589 0.63685054 0.011749447
0.79674983 0.60949111 0.42963302
0.94927901 0.57036698 0.61695277
0 0.83218128 0.0003509575
0 0.83218128 0.0003509575
0 0.82436866 0.0003509575
0.034821088 0.81652552 0.0003509575
0.40588998 0.80482185 0.00010681315
0.59729915 0.78530556 0.000076295109
0.76142519 0.76578927 0.011688411
0.92179751 0.73447776 0.46863508
0 0.96888685 0.00044251164
0 0.96888685 0.00044251164
0 0.96498054 0.00038147555
0 0.95719844 0.00050354772
0.30431067 0.94552529 0.00027466239
0.53871977 0.92988479 0.00022888533
0.72231632 0.91036851 0.000076295109
0.88628977 0.89083696 0.011612116
0.011825742 0.015609979 0.13675135
0.15631342 0 0.18352026
0.29701686 0 0.27725643
0.43770504 0 0.38268101
0.57837797 0 0.49585718
0.71903563 0 0.60903334
0.85970855 0 0.72616159
0.99652094 0 0.83942931
0 0.15233082 0.054779889
0.13667506 0.14065766 0.13667506
0.28911269 0.085969329 0.24985122
0.43375296 0 0.36700999
0.57442588 0 0.48413825
0.71512932 0 0.6011902
0.85580224 0 0.7183032
0.99641413 0 0.83535515
0 0.28912795 0.00018310826
0.046707866 0.28130007 0.000076295109
0.26559854 0.26565957 0.14056611
0.41806668 0.22656596 0.30856794
0.56264591 0.15622187 0.44122988
0.70728618 0 0.56992447
0.85192645 0 0.69102007
0.9924773 0 0.81194781
0 0.42191196 0.0001373312
0 0.42191196 0.0001373312
0.21069657 0.41025406 0.000091554131
0.39046311 0.390692 0.14061189
0.54303807 0.35550469 0.35930419
0.69146258 0.30470741 0.51151293
0.84002441 0.22258335 0.64815747
0.98081941 0 0.77689784
0 0.55872435 0.00028992142
0 0.55872435 0.00028992142
0.054413672 0.55086595 0.00019836728
0.33958953 0.53528649 0.00010681315
0.51548028 0.51567864 0.1366598
0.67188525 0.48445869 0.40221256
0.82038605 0.44145876 0.57016861
0.96888685 0.37891203 0.71850156
0 0.69541466 0.00038147555
0 0.69541466 0.00038147555
0 0.68758679 0.00032043946
0.26143282 0.67594415 0.00021362631
0.46848249 0.66033417 0.0001373312
0.64040589 0.64078737 0.13678187
0.79678035 0.60947585 0.44521248
0.94926375 0.57038224 0.62876326
0 0.83218128 0.0003509575
0 0.83218128 0.0003509575
0 0.82436866 0.0003509575
0.034821088 0.81652552 0.0003509575
0.40588998 0.80482185 0.00010681315
0.59729915 0.78530556 0.000076295109
0.76148623 0.76580453 0.13678187
0.92173648 0.73450828 0.48432136
0 0.96888685 0.00044251164
0 0.96888685 0.00044251164
0 0.96498054 0.00038147555
0 0.95719844 0.00050354772
0.30431067 0.94552529 0.00027466239
0.53871977 0.92988479 0.00022888533
0.72231632 0.91036851 0.000076295109
0.88644236 0.89080644 0.13670558
0.011749447 0.015579461 0.2655375
0.15634394 0 0.28897536
0.2970016 0 0.35146105
0.43765927 0 0.43724727
0.57836271 0 0.53493553
0.71898985 0 0.64028382
0.85970855 0 0.74959945
0.99641413 0 0.8627451
0.000015259022 0.1523003 0.23445487
0.1406424 0.14061189 0.26555276
0.28915846 0.085862516 0.3319295
0.43376822 0 0.42165255
0.5744564 0 0.52709239
0.71506828 0 0.63244068
0.8558175 0 0.74569314
0.99644465 0 0.85499351
0 0.28909743 0.10563821
0.046753643 0.28128481 0.16031128
0.26555276 0.26564431 0.26172274
0.41799039 0.22656596 0.37482261
0.5626154 0.15622187 0.48805982
0.70733196 0 0.60512703
0.85188067 0 0.72227054
0.99253834 0 0.83544671
0 0.42191196 0.0001373312
0 0.42191196 0.0001373312
0.21069657 0.41025406 0.000091554131
0.3906157 0.39067674 0.26558328
0.54297704 0.35545892 0.41388571
0.69155413 0.30469215 0.55059129
0.84003967 0.22261387 0.67541009
0.98081941 0 0.80021363
0 0.55872435 0.00028992142
0 0.55872435 0.00028992142
0.054413672 0.55086595 0.00019836728
0.33958953 0.53528649 0.00010681315
0.51548028 0.51570916 0.26562905
0.67180896 0.48442817 0.4530251
0.82037079 0.44142824 0.60529488
0.96890211 0.37892729 0.74575418
0 0.69541466 0.00038147555
0 0.69541466 0.00038147555
0 0.68758679 0.00032043946
0.26143282 0.67594415 0.00021362631
0.46848249 0.66033417 0.0001373312
0.64039063 0.63683528 0.26561379
0.79685664 0.60943008 0.49202716
0.94930953 0.57035172 0.66001373
0 0.83218128 0.0003509575
0 0.83218128 0.0003509575
0 0.82436866 0.0003509575
0.034821088 0.81652552 0.0003509575
0.40588998 0.80482185 0.00010681315
0.59729915 0.78530556 0.000076295109
0.76148623 0.76577401 0.26169223
0.92176699 0.73449302 0.5272755
0 0.96888685 0.00044251164
0 0.96888685 0.00044251164
0 0.96498054 0.00038147555
0 0.95719844 0.00050354772
0.30431067 0.94552529 0.00027466239
0.53871977 0.92988479 0.00022888533
0.72231632 0.91036851 0.000076295109
0.88644236 0.89077592 0.26161593
0.015777829 0.015533684 0.39053941
0.15645075 0 0.40613413
0.29715419 0 0.44905776
0.43775082 0 0.51540398
0.57839322 0 0.60131228
0.71900511 0 0.69492638
0.85975433 0 0.79649042
0.99650568 0 0.90180819
0.00015259022 0.1523003 0.37123674
0.14070344 0.14062715 0.39064622
0.28915846 0.085862516 0.43350881
0.43381399 0 0.50360876
0.5744564 0 0.58959335
0.7150988 0 0.68708324
0.85584802 0 0.78863203
0.99645991 0 0.89399557
0 0.28908217 0.31268788
0.046921492 0.28119326 0.33609522
0.26572061 0.26562905 0.38669413
0.41811246 0.22656596 0.4686656
0.56266117 0.15622187 0.55838865
0.70728618 0 0.65981537
0.85194171 0 0.76910048
0.99258412 0 0.87840085
0 0.42195773 0.15249866
0 0.42192721 0.19555962
0.21083391 0.41014725 0.28522164
0.38675517 0.39064622 0.39058518
0.54305333 0.3554284 0.49990082
0.69153887 0.30466163 0.61309224
0.84011597 0.22261387 0.72629892
0.98084993 0 0.84328985
0 0.55872435 0.00028992142
0 0.55872435 0.00028992142
0.054413672 0.55086595 0.00019836728
0.33968109 0.53517967 0.21490806
0.51552605 0.51566339 0.38666361
0.67182422 0.48439765 0.53110552
0.82041657 0.44141299 0.66381323
0.96893263 0.37891203 0.7888304
0 0.69541466 0.00038147555
0 0.69541466 0.00038147555
0 0.68758679 0.00032043946
0.26143282 0.67594415 0.00021362631
0.46851301 0.66025788 0.066514076
0.63662165 0.64068055 0.38667887
0.79688716 0.60943008 0.56235599
0.94921798 0.57035172 0.71071946
0 0.83218128 0.0003509575
0 0.83218128 0.0003509575
0 0.82436866 0.0003509575
0.034821088 0.81652552 0.0003509575
0.40588998 0.80482185 0.00010681315
0.59729915 0.78530556 0.000076295109
0.76154726 0.76577401 0.38678569
0.92175174 0.73449302 0.58965438
0 0.96888685 0.00044251164
0 0.96888685 0.00044251164
0 0.96498054 0.00038147555
0 0.95719844 0.00050354772
0.30431067 0.94552529 0.00027466239
0.53871977 0.92988479 0.00022888533
0.72231632 0.91036851 0.000076295109
0.8865034 0.89077592 0.38670939
0.011902037 0.015503166 0.51552605
0.15646601 0 0.52341497
0.29710842 0 0.55838865
0.4377203 0 0.61304646
0.57842374 0 0.68334478
0.71905089 0 0.76527047
0.85981537 0 0.85513085
0.99652094 0 0.952636
0.000091554131 0.15226978 0.50002289
0.13693446 0.14055085 0.51564813
0.28923476 0.085862516 0.54679179
0.43387503 0 0.60132753
0.57451743 0 0.67550164
0.71514458 0 0.75741207
0.85584802 0 0.85114824
0.99649042 0 0.9487602
0.000076295109 0.28900587 0.46497292
0.047013046 0.28122377 0.47664607
0.26572061 0.26167697 0.51554131
0.41814298 0.22653544 0.5741207
0.56266117 0.15620661 0.64827955
0.70736248 0 0.73401999
0.85194171 0 0.83161669
0.99258412 0 0.9292134
0.000045777066 0.42188144 0.38304723
0 0.42192721 0.39861143
0.21089494 0.41014725 0.4453193
0.38680095 0.39058518 0.51174182
0.54309911 0.35544366 0.59761959
0.69156939 0.30463111 0.69117266
0.84005493 0.22259861 0.79269093
0.98088045 0 0.8979324
0 0.55864805 0.20347906
0 0.55867857 0.23460746
0.054566262 0.55075914 0.31271839
0.3397879 0.53514916 0.40627146
0.51165026 0.51563287 0.51165026
0.67193103 0.48439765 0.6249485
0.82040131 0.44142824 0.73801785
0.96891737 0.37889677 0.85122454
0 0.69541466 0.00038147555
0 0.69541466 0.00038147555
0 0.68758679 0.00032043946
0.26143282 0.67591363 0.15249866
0.46854353 0.66024262 0.36333257
0.63668269 0.64069581 0.51177234
0.79685664 0.60946059 0.64838636
0.94932479 0.57035172 0.7771725
0 0.83218128 0.0003509575
0 0.83218128 0.0003509575
0 0.82436866 0.0003509575
0.034821088 0.81652552 0.0003509575
0.40588998 0.80482185 0.00010681315
0.59740597 0.78525978 0.30859846
0.76163882 0.76569772 0.51169604
0.92182803 0.7344625 0.67568475
0 0.96888685 0.00044251164
0 0.96888685 0.00044251164
0 0.96498054 0.00038147555
0 0.95719844 0.00050354772
0.30431067 0.94552529 0.00027466239
0.53871977 0.92988479 0.00022888533
0.72234684 0.91035325 0.23450065
0.89045548 0.89073014 0.51558709
0.012024109 0.011596857 0.64069581
0.15646601 0 0.64831006
0.29712367 0 0.67566949
0.43775082 0 0.71850156
0.57846952 0 0.77698939
0.71911192 0 0.84721141
0.85980011 0 0.92933547
0.99645991 0 0.99559014
0.00018310826 0.15223926 0.62899214
0.1369192 0.14052033 0.64054322
0.28934157 0.085816739 0.66395056
0.43384451 0 0.71065843
0.57456321 0 0.76926833
0.71520562 0 0.84344244
0.8558175 0 0.92535286
0.99645991 0 0.99559014
0.000045777066 0.28897536 0.60169375
0.047058824 0.28119326 0.60947585
0.26184482 0.26555276 0.63671321
0.41811246 0.22650492 0.68346685
0.56281376 0.15617609 0.74587625
0.70743877 0 0.82386511
0.85192645 0 0.90582132
0.99259937 0 0.99555962
0.000030518044 0.42186618 0.54715801
0.000015259022 0.4218204 0.55489433
0.21097124 0.41014725 0.58597696
0.38680095 0.39063096 0.64057374
0.54306859 0.35541314 0.70695048
0.69158465 0.30467689 0.78501564
0.840177 0.22258335 0.87472343
0.98091096 0 0.96826123
0 0.55857176 0.44940871
0 0.55858701 0.4612192
0.054627298 0.5507744 0.500206
0.3397879 0.53516442 0.5626154
0.51175708 0.51560235 0.64061952
0.67202258 0.48438239 0.726421
0.82046235 0.44139773 0.82403296
0.96900893 0.37886625 0.92542916
0 0.69535363 0.25426108
0 0.69536889 0.2776379
0 0.68758679 0.34402991
0.26153964 0.6758526 0.43375296
0.46872663 0.66019684 0.53138018
0.64065003 0.64065003 0.64065003
0.7969482 0.60941482 0.74996567
0.94927901 0.5703212 0.85912871
0 0.83218128 0.0003509575
0 0.83218128 0.0003509575
0 0.82436866 0.0003509575
0.034805829 0.816495 0.062851911
0.40601205 0.80483711 0.34007782
0.59749752 0.78519875 0.50006867
0.76169986 0.76571298 0.6367895
0.92187381 0.73438621 0.76945144
0 0.96888685 0.00044251164
0 0.96888685 0.00044251164
0 0.96498054 0.00038147555
0 0.95719844 0.00050354772
0.30431067 0.94552529 0.00027466239
0.53875029 0.92985428 0.19546807
0.72243839 0.91029221 0.46099031
0.88665599 0.89071489 0.63669795
0.012024109 0.011566339 0.76559091
0.15658808 0 0.76940566
0.29724575 0 0.792813
0.43788815 0 0.82790875
0.57846952 0 0.87858396
0.71912718 0 0.9410544
0.85983062 0 0.99559014
0.99645991 0 0.99559014
0.00028992142 0.152224 0.75783932
0.13698024 0.14053559 0.76563668
0.2892958 0.085831998 0.78496986
0.43392081 0 0.82394141
0.57459373 0 0.87472343
0.71525139 0 0.93708705
0.85597009 0 0.9956817
0.99645991 0 0.99559014
0.00018310826 0.28892958 0.73441672
0.047089342 0.281178 0.7423209
0.2657969 0.26550698 0.76559091
0.41821927 0.22645914 0.80061036
0.56278325 0.15616083 0.85520714
0.707393 0 0.9176318
0.85192645 0 0.99559014
0.99259937 0 0.99555962
0.000091554131 0.42175937 0.69161517
0.0001373312 0.42178988 0.69942779
0.21104753 0.41008621 0.7226978
0.38684672 0.39055467 0.76173037
0.54314488 0.35541314 0.82023346
0.6916762 0.30466163 0.88648814
0.84019226 0.22258335 0.96449226
0.98092622 0 0.99563592
0 0.55858701 0.62131685
0 0.55854124 0.62906844
0.054734112 0.55075914 0.65642786
0.33987945 0.53517967 0.70327306
0.51180285 0.51557183 0.76165408
0.67199207 0.48433661 0.83587396
0.82052338 0.44139773 0.92175174
0.96903944 0.37886625 0.99575799
0 0.69535363 0.51207752
0 0.69533837 0.52376593
0 0.68752575 0.55495537
0.26161593 0.67582208 0.60955215
0.46878767 0.66016632 0.67978943
0.64060426 0.63674372 0.76560616
0.79697871 0.60941482 0.8552987
0.94940108 0.5703212 0.95297169
0 0.83212024 0.30124361
0 0.83212024 0.3245594
0 0.82424659 0.37924773
0.034927901 0.81644923 0.46126497
0.40611887 0.8047303 0.55486381
0.59761959 0.78519875 0.65630579
0.7616846 0.7656672 0.7616846
0.92188907 0.73438621 0.87478447
0 0.96888685 0.00044251164
0 0.96888685 0.00044251164
0 0.96498054 0.00038147555
0 0.95719844 0.00050354772
0.30443275 0.94546426 0.32446784
0.53884184 0.92982376 0.48841077
0.72245365 0.91023117 0.62896162
0.88664073 0.89066911 0.7616083
0.012085145 0.011581598 0.89068437
0.15657282 0 0.89443809
0.29729152 0 0.91384756
0.43790341 0 0.94506752
0.57853056 0 0.98791485
0.719234 0 0.99581903
0.85983062 0 0.99559014
0.99645991 0 0.99559014
0.00027466239 0.15217823 0.88285649
0.13704128 0.14048981 0.88667124
0.28941787 0.085847257 0.90618753
0.4339971 0 0.93734646
0.57462425 0 0.98019379
0.71529717 0 0.99572747
0.85597009 0 0.9956817
0.99645991 0 0.99559014
0.00018310826 0.28894484 0.86338598
0.04711986 0.28108644 0.87110704
0.26198215 0.26547646 0.88671702
0.41826505 0.22639811 0.92176699
0.56281376 0.15619135 0.96461433
0.70740826 0 0.99571221
0.85192645 0 0.99559014
0.99259937 0 0.99555962
0.0001373312 0.4218204 0.82827497
0.00010681315 0.42175937 0.83614862
0.21109331 0.4100557 0.85554284
0.39078355 0.39055467 0.88673228
0.54322118 0.35541314 0.93351644
0.69169146 0.30463111 0.99194324
0.84013123 0.22259861 0.99574273
0.98092622 0 0.99563592
0.000076295109 0.5584802 0.77372396
0.000030518044 0.55857176 0.78155184
0.054749371 0.5507744 0.80096132
0.33995575 0.53511864 0.83987182
0.51180285 0.51558709 0.89062333
0.67206836 0.48433661 0.94915694
0.82059968 0.44135195 0.99595636
0.96903944 0.37886625 0.99575799
0 0.69527733 0.69173724
0 0.69524681 0.69948882
0.000015259022 0.68747997 0.72687877
0.26172274 0.67580682 0.76577401
0.46880293 0.66009003 0.82038605
0.63682002 0.640589 0.88667124
0.7969482 0.60935378 0.96476692
0.9494316 0.5703212 0.99591058
0 0.83208972 0.57067216
0 0.83205921 0.57842374
0 0.82424659 0.60968948
0.035065232 0.81641871 0.66056306
0.40621042 0.80474556 0.72291142
0.59763485 0.78521401 0.80083925
0.76174563 0.76568246 0.88677806
0.92199588 0.73441672 0.98031586
0 0.96882582 0.35202564
0 0.96888685 0.37152667
0 0.96496529 0.41841764
0 0.95709163 0.49256123
0.3045243 0.9453727 0.57846952
0.53893339 0.92976272 0.67989624
0.72263676 0.91021592 0.78132296
0.88670176 0.89068437 0.88670176
