site/assets/luts/colour-blind-luts--tritanope-correct-lut--5a48f5a71.cube
# LUTr-Project: LUTr — LUTrepository
# LUTr-Schema-Version: 1
# LUTr-ID: colour-blind-luts--tritanope-correct-lut--5a48f5a71
# LUTr-Title: tritanope correct lut
# LUTr-Collection: Colour-Blind LUTs
# LUTr-Collection-ID: andrewwillmott-colour-blind-luts
# LUTr-Source: https://github.com/andrewwillmott/colour-blind-luts
# LUTr-Source-File: submissions/andrewwillmott-colour-blind-luts/luts/tritanope_correct_lut.png
# LUTr-Source-Format: PNG
# LUTr-Source-SHA256: 1f962b5dbd9d27d4eaa6acc8032fc030eb25086bc9f795f0949fcb785f702345
# LUTr-License: Unlicense
# LUTr-License-URL: https://github.com/andrewwillmott/colour-blind-luts/blob/master/LICENSE
# LUTr-Tags: technical, accessibility, color-vision, simulation, correction, png, tritanopia, cube
# LUTr-Transform-Class: accessibility
# LUTr-Input-Color-Space: srgb
# LUTr-Output-Color-Space: srgb
# LUTr-Color-Space-Confidence: assumed-display-referred
# LUTr-Conversion-Method: PNG LUT image decoded at 16-bit and sampled to 32x32x32 3D CUBE
# LUTr-Conversion-Date: 2026-07-27
# LUTr-Conversion-Tool: LUTr scripts/convert-all-to-cube.mjs
# LUTr-Conversion-Grid: 32x32x32
# LUTr-Note: Preserve this metadata and the upstream license notices when redistributing.
TITLE "tritanope correct lut"
LUT_3D_SIZE 32
DOMAIN_MIN 0 0 0
DOMAIN_MAX 1 1 1
0.01170367 0.01559472 0.015533684
0.042999924 0.015640497 0.015564202
0.078171969 0.015625238 0.015609979
0.1055314 0.015625238 0.015533684
0.1366598 0.015640497 0.015487907
0.16795605 0.015671015 0.015518425
0.19919127 0.015640497 0.015472648
0.23442435 0.011749447 0.015457389
0.26564431 0.01170367 0.015411612
0.29684901 0.011795224 0.01544213
0.32425422 0.015640497 0.015426871
0.35544366 0.015640497 0.011505303
0.38673991 0.015671015 0.011520562
0.41797513 0.015640497 0.011474784
0.44921035 0.015671015 0.015381094
0.48044556 0.015640497 0.015335317
0.51174182 0.015671015 0.015350576
0.54297704 0.015640497 0.015304799
0.57427329 0.015671015 0.015335317
0.60550851 0.015625238 0.01528954
0.63671321 0.015716793 0.015304799
0.67186999 0.011749447 0.015228504
0.70310521 0.015671015 0.015320058
0.73046464 0.015671015 0.015243763
0.76176089 0.015701534 0.015259022
0.79299611 0.015671015 0.015213245
0.82418555 0.011764706 0.015228504
0.85552758 0.015671015 0.015197986
0.89059281 0.015716793 0.015243763
0.91795224 0.015716793 0.015167468
0.94918746 0.015671015 0.015121691
0.98048371 0.015716793 0.015152209
0.000015259022 0.046860456 0.011734188
0.035187304 0.046890974 0.011673152
0.070344091 0.046890974 0.011718929
0.10551614 0.046906233 0.011657893
0.13664454 0.046921492 0.011612116
0.16794079 0.04695201 0.011627375
0.19917601 0.046906233 0.011581598
0.23047227 0.04695201 0.011612116
0.26170748 0.046906233 0.011566339
0.2929427 0.046875715 0.011520562
0.32423896 0.046906233 0.011535821
0.35547417 0.046875715 0.011490043
0.38666361 0.04695201 0.011520562
0.41789883 0.046921492 0.011474784
0.44919509 0.04695201 0.011490043
0.4804303 0.046906233 0.011444266
0.51172656 0.04695201 0.011474784
0.54296178 0.046906233 0.011429007
0.57425803 0.046936751 0.011444266
0.60549325 0.046906233 0.011398489
0.63669795 0.046982528 0.011429007
0.66791791 0.04695201 0.01138323
0.69922942 0.046982528 0.011398489
0.73044938 0.04695201 0.011352712
0.76174563 0.046982528 0.01138323
0.79298085 0.046936751 0.011337453
0.82421607 0.046906233 0.011291676
0.85551232 0.046936751 0.011306935
0.88664073 0.04695201 0.011261158
0.91795224 0.046982528 0.011291676
0.9491722 0.04695201 0.011245899
0.98046845 0.046982528 0.011261158
0 0.081986725 0.011795224
0 0.081986725 0.011795224
0.058548867 0.082078279 0.011734188
0.097581445 0.08206302 0.01170367
0.1288777 0.082093538 0.011718929
0.16403449 0.082108797 0.011657893
0.1952697 0.082078279 0.011612116
0.22650492 0.082032502 0.011566339
0.26166171 0.082032502 0.011612116
0.29297322 0.08206302 0.011642634
0.32419318 0.082032502 0.011596857
0.35548943 0.08206302 0.011612116
0.3866331 0.082078279 0.011566339
0.41792935 0.082108797 0.011596857
0.44916457 0.082078279 0.01155108
0.48046082 0.082108797 0.011566339
0.51169604 0.08206302 0.011520562
0.54299229 0.082108797 0.01155108
0.57421225 0.08206302 0.011505303
0.60552377 0.082093538 0.011520562
0.63665217 0.082108797 0.011474784
0.66788739 0.082078279 0.011429007
0.69918364 0.082108797 0.011459525
0.7304036 0.08206302 0.011413748
0.76171511 0.082108797 0.011429007
0.79293507 0.08206302 0.01138323
0.82424659 0.082093538 0.011413748
0.85546654 0.08206302 0.011367971
0.88667124 0.082139315 0.01138323
0.91790646 0.082108797 0.011337453
0.94920272 0.082139315 0.011367971
0.98043793 0.082108797 0.011322194
0 0.11326772 0.0079041733
0 0.11326772 0.0079041733
0.015564202 0.11329824 0.0079194324
0.081956207 0.11328298 0.0077973602
0.12106508 0.11334401 0.0078278782
0.15622187 0.11335927 0.0077668421
0.19131762 0.11328298 0.0077515831
0.22261387 0.11332876 0.0077668421
0.25384909 0.11328298 0.0077210651
0.28902113 0.11329824 0.007660029
0.32031739 0.11334401 0.007675288
0.35155261 0.11329824 0.0076295109
0.38274205 0.11338979 0.007660029
0.41397726 0.11334401 0.0076142519
0.44527352 0.11337453 0.0076295109
0.48044556 0.11337453 0.007690547
0.51168078 0.11334401 0.00764477
0.54290074 0.11329824 0.0075989929
0.57419699 0.11334401 0.0076142519
0.60543221 0.11329824 0.0075684749
0.63672847 0.11332876 0.0075989929
0.66787213 0.11334401 0.0075532158
0.69916838 0.11337453 0.0075684749
0.7304036 0.11334401 0.0075226978
0.76169986 0.11337453 0.0075532158
0.79291981 0.11334401 0.0075074388
0.82423133 0.11337453 0.0075226978
0.85545129 0.11332876 0.0074769207
0.8867628 0.11337453 0.0075074388
0.9178912 0.11337453 0.0074616617
0.94918746 0.11342031 0.0074769207
0.98042267 0.11337453 0.0074311437
0 0.14845502 0.0039673457
0 0.14845502 0.0039673457
0 0.14845502 0.0039673457
0.050751507 0.14847028 0.0039063096
0.10537881 0.14848554 0.0038757916
0.14441138 0.14847028 0.0038300145
0.17958343 0.14847028 0.0038910506
0.21474022 0.1485008 0.0038147555
0.24991226 0.14848554 0.0038757916
0.28120851 0.14853132 0.0038910506
0.31630426 0.14847028 0.0037537194
0.34760052 0.1485008 0.0037842374
0.37883574 0.14847028 0.0037232013
0.41013199 0.1485008 0.0037537194
0.44530404 0.1485008 0.0038147555
0.47652399 0.14847028 0.0037537194
0.50783551 0.1485008 0.0037842374
0.53896391 0.14851606 0.0037384604
0.57026017 0.14854658 0.0037689784
0.60149538 0.1485008 0.0037232013
0.63279164 0.14854658 0.0037384604
0.66402686 0.1485008 0.0036926833
0.69524681 0.14847028 0.0036469062
0.72654307 0.1485008 0.0036774243
0.76171511 0.14851606 0.0036011292
0.79284352 0.14853132 0.0035553521
0.82415503 0.14856184 0.0035706111
0.85537499 0.14853132 0.0035248341
0.88667124 0.14856184 0.0035553521
0.91790646 0.14853132 0.003509575
0.94920272 0.14856184 0.0035400931
0.98043793 0.14851606 0.003479057
0 0.17972076 0.000076295109
0 0.17972076 0.000076295109
0 0.17972076 0.000076295109
0 0.17972076 0.000076295109
0.078095674 0.17972076 0.000061036088
0.1288014 0.1797055 0
0.16789502 0.17976654 0
0.2069276 0.17975128 0
0.24208438 0.17973602 0
0.27725643 0.17976654 0
0.30849165 0.17972076 0
0.34364843 0.17972076 0
0.37495995 0.17975128 0
0.4061799 0.17972076 0
0.44135195 0.17973602 0
0.4726482 0.17976654 0
0.50388342 0.17973602 0
0.53508812 0.17981231 0
0.56630808 0.1797818 0
0.5975433 0.17975128 0
0.63270008 0.17973602 0
0.6640116 0.1797818 0
0.69523156 0.17973602 0
0.72654307 0.17976654 0
0.75776303 0.17973602 0
0.78896773 0.17981231 0
0.82020294 0.1797818 0
0.8514992 0.17981231 0
0.88273442 0.1797818 0
0.91403067 0.17981231 0
0.94525063 0.17979706 0
0.97656214 0.17982757 0
0 0.21493858 0.000076295109
0 0.21493858 0.000076295109
0 0.21493858 0.000076295109
0 0.21493858 0.000076295109
0 0.21493858 0.000076295109
0.10145724 0.21492332 0.000015259022
0.15225452 0.21484703 0
0.19134813 0.21489281 0.000030518044
0.23038071 0.21487755 0
0.26555276 0.21490806 0
0.30070954 0.21489281 0
0.33588159 0.21492332 0
0.36711681 0.21487755 0
0.40227359 0.21487755 0
0.43356985 0.21490806 0
0.46874189 0.21493858 0
0.4998703 0.21493858 0
0.53110552 0.21490806 0
0.56240177 0.21493858 0
0.59757382 0.21493858 0
0.62879377 0.21490806 0
0.66010529 0.21493858 0
0.69132525 0.21489281 0
0.72263676 0.21493858 0
0.75376516 0.21493858 0
0.78506142 0.21498436 0
0.81629664 0.21493858 0
0.85145342 0.21495384 0
0.88268864 0.21492332 0
0.91398489 0.21495384 0
0.94522011 0.21492332 0
0.97651637 0.21495384 0
0 0.24614328 0.00018310826
0 0.24614328 0.00018310826
0 0.24614328 0.00018310826
0 0.24614328 0.00018310826
0 0.24614328 0.00018310826
0.054551003 0.2461738 0.00016784924
0.12884718 0.24612802 0.000045777066
0.17567712 0.24612802 0.000015259022
0.2147097 0.24611276 0
0.25380331 0.2461738 0
0.29283589 0.24615854 0
0.32800793 0.2461738 0
0.35930419 0.24620432 0
0.39439994 0.24614328 0
0.42957198 0.24615854 0
0.46086824 0.24618906 0
0.49602502 0.24618906 0
0.52726024 0.24614328 0
0.5585565 0.24618906 0
0.58970016 0.24618906 0
0.62485695 0.24621958 0
0.65609216 0.2461738 0
0.68738842 0.24621958 0
0.71862364 0.2461738 0
0.74991989 0.24620432 0
0.78507668 0.24620432 0
0.81631189 0.2461738 0
0.84760815 0.24620432 0
0.87884337 0.24615854 0
0.91004807 0.2462501 0
0.94128328 0.24620432 0
0.97257954 0.2462501 0
0 0.27742428 0.00018310826
0 0.27742428 0.00018310826
0 0.27742428 0.00018310826
0 0.27742428 0.00018310826
0 0.27742428 0.00018310826
0 0.27742428 0.00018310826
0.089738308 0.27742428 0.000076295109
0.15226978 0.27742428 0.000061036088
0.19909972 0.27742428 0.000030518044
0.2381323 0.27740902 0
0.27722591 0.27747005 0.000015259022
0.31625849 0.27743954 0
0.35143053 0.27743954 0.000030518044
0.38658732 0.27747005 0
0.42175937 0.2774548 0.000015259022
0.45299458 0.27742428 0
0.48815137 0.27743954 0
0.51938659 0.27740902 0
0.55454337 0.27742428 0
0.58585489 0.2774548 0
0.61707485 0.27742428 0
0.65224689 0.27742428 0
0.68354314 0.2774548 0
0.71467155 0.27747005 0
0.74598306 0.27750057 0
0.78107881 0.2774548 0
0.81237507 0.27748531 0
0.84359503 0.27743954 0
0.87490654 0.27748531 0
0.9061265 0.27743954 0
0.93743801 0.27747005 0
0.9725948 0.27747005 0
0 0.31258106 0.00010681315
0 0.31258106 0.00010681315
0 0.31258106 0.00010681315
0 0.31258106 0.00010681315
0 0.31258106 0.00010681315
0 0.31258106 0.00010681315
0 0.31258106 0.00010681315
0.11706722 0.31255055 0.000061036088
0.17563134 0.31261158 0.00012207218
0.22255283 0.3125658 0.000091554131
0.26552224 0.31259632 0.000030518044
0.30455482 0.31258106 0
0.33972686 0.31258106 0.000045777066
0.37488365 0.31259632 0
0.4100557 0.31259632 0.000030518044
0.44521248 0.31262684 0
0.48030823 0.31255055 0
0.51548028 0.3125658 0
0.54677653 0.31259632 0
0.58194858 0.31262684 0
0.61316854 0.31258106 0
0.64448005 0.31261158 0
0.67963684 0.31261158 0
0.71076524 0.31262684 0
0.74200046 0.31259632 0
0.7771725 0.31261158 0
0.80846876 0.3126421 0
0.83968872 0.31261158 0
0.87100023 0.3126421 0
0.90222019 0.31259632 0
0.93739223 0.31259632 0
0.96868849 0.31262684 0
0 0.34380102 0.000091554131
0 0.34380102 0.000091554131
0 0.34380102 0.000091554131
0 0.34380102 0.000091554131
0 0.34380102 0.000091554131
0 0.34380102 0.000091554131
0 0.34380102 0.000091554131
0.046662089 0.34380102 0.000061036088
0.14435035 0.34380102 0.000091554131
0.19908446 0.3437705 0.000061036088
0.24599069 0.3438468 0.00010681315
0.2888838 0.34381628 0
0.32797742 0.34387732 0
0.36314946 0.34387732 0.000045777066
0.40218204 0.34386206 0.000015259022
0.43733883 0.34387732 0
0.47251087 0.34387732 0
0.50766766 0.34389258 0
0.53890288 0.34386206 0
0.57407492 0.3438468 0
0.60529488 0.34381628 0
0.64046693 0.34383154 0
0.67176318 0.34387732 0
0.70693523 0.34386206 0
0.73815518 0.34383154 0
0.76945144 0.34389258 0
0.80462348 0.34387732 0
0.83575189 0.34389258 0
0.86698711 0.34386206 0
0.89828336 0.34389258 0
0.93345541 0.34390784 0
0.96467536 0.34387732 0
0 0.37900359 0.00021362631
0 0.37900359 0.00021362631
0 0.37900359 0.00021362631
0 0.37900359 0.00021362631
0 0.37900359 0.00021362631
0 0.37900359 0.00021362631
0 0.37900359 0.00021362631
0 0.37900359 0.00021362631
0.093614099 0.37895781 0.00015259022
0.16781872 0.37895781 0.000045777066
0.22244602 0.37898833 0.000015259022
0.26936751 0.37894255 0
0.31233692 0.37895781 0.000030518044
0.35144579 0.37901884 0.000061036088
0.39046311 0.37900359 0.000030518044
0.42563516 0.37901884 0
0.4608072 0.37901884 0.000015259022
0.49596399 0.3790341 0
0.53113603 0.3790341 0
0.56623178 0.37898833 0
0.59752804 0.37901884 0
0.63268482 0.37900359 0
0.66785687 0.3790341 0
0.69909209 0.37898833 0
0.73424887 0.37898833 0
0.76545357 0.37907988 0
0.79668879 0.37906462 0
0.83184558 0.37906462 0
0.8630808 0.37901884 0
0.89437705 0.37904936 0
0.92561227 0.37901884 0
0.96076905 0.3790341 0
0 0.41022354 0.00021362631
0 0.41022354 0.00021362631
0 0.41022354 0.00021362631
0 0.41022354 0.00021362631
0 0.41022354 0.00021362631
0 0.41022354 0.00021362631
0 0.41022354 0.00021362631
0 0.41022354 0.00021362631
0 0.41022354 0.00021362631
0.12483406 0.41026932 0.00016784924
0.19510185 0.41020829 0.000076295109
0.24586862 0.41026932 0.000015259022
0.29279011 0.4102388 0
0.33575952 0.41025406 0.000045777066
0.3747921 0.4102388 0
0.41390097 0.41028458 0.000030518044
0.44905776 0.4103151 0
0.48809033 0.41028458 0
0.52324712 0.41028458 0
0.55841917 0.4103151 0
0.58965438 0.41026932 0
0.62481117 0.41026932 0
0.65998322 0.41028458 0
0.69120317 0.41025406 0
0.72637522 0.41025406 0
0.75767147 0.41028458 0
0.79284352 0.41029984 0
0.82406348 0.41026932 0
0.85923552 0.41026932 0
0.89044022 0.41034562 0
0.92167544 0.4103151 0
0.9528954 0.41026932 0
0 0.44534981 0.00025940337
0 0.44534981 0.00025940337
0 0.44534981 0.00025940337
0 0.44534981 0.00025940337
0 0.44534981 0.00025940337
0 0.44534981 0.00025940337
0 0.44534981 0.00025940337
0 0.44534981 0.00025940337
0 0.44534981 0.00025940337
0 0.44534981 0.00025940337
0.1560235 0.44538033 0.000045777066
0.21855497 0.44538033 0.000015259022
0.26932174 0.44541085 0.000091554131
0.31615167 0.44541085 0.000045777066
0.35921263 0.44541085 0
0.39824521 0.44539559 0
0.43735409 0.44544137 0
0.47638666 0.44542611 0
0.51154345 0.44542611 0
0.5467155 0.44544137 0
0.58187228 0.44544137 0
0.61704433 0.44547189 0
0.65214008 0.44539559 0
0.68343633 0.44542611 0
0.71860838 0.44544137 0
0.75376516 0.44544137 0
0.78500038 0.44541085 0
0.82015717 0.44542611 0
0.85136187 0.4455024 0
0.88259709 0.44547189 0
0.91776913 0.44547189 0
0.94898909 0.44542611 0
0 0.47663081 0.00024414435
0 0.47663081 0.00024414435
0 0.47663081 0.00024414435
0 0.47663081 0.00024414435
0 0.47663081 0.00024414435
0 0.47663081 0.00024414435
0 0.47663081 0.00024414435
0 0.47663081 0.00024414435
0 0.47663081 0.00024414435
0 0.47663081 0.00024414435
0.089662013 0.47661555 0.00015259022
0.18338293 0.4767071 0.00015259022
0.24197757 0.47664607 0.00015259022
0.29274434 0.4767071 0.000091554131
0.33968109 0.47666133 0.000061036088
0.38265049 0.4767071 0
0.42166781 0.47667659 0
0.46070039 0.47666133 0
0.49980926 0.47672236 0
0.53496605 0.47672236 0
0.5700618 0.47666133 0
0.60523384 0.47666133 0
0.64039063 0.47669184 0
0.67556268 0.47667659 0
0.71073472 0.4767071 0
0.74589151 0.47669184 0
0.77712673 0.47666133 0
0.81228351 0.47667659 0
0.84359503 0.47672236 0
0.87875181 0.4767071 0
0.90998703 0.47667659 0
0.94514382 0.47669184 0
0 0.51184863 0.00024414435
0 0.51184863 0.00024414435
0 0.51184863 0.00024414435
0 0.51184863 0.00024414435
0 0.51184863 0.00024414435
0 0.51184863 0.00024414435
0 0.51184863 0.00024414435
0 0.51184863 0.00024414435
0 0.51184863 0.00024414435
0 0.51184863 0.00024414435
0 0.51184863 0.00024414435
0.12870985 0.51180285 0.00022888533
0.21071183 0.51183337 0.00012207218
0.26930648 0.51175708 0.00012207218
0.31621271 0.51183337 0.00016784924
0.36304265 0.51186389 0
0.40601205 0.51187915 0.000061036088
0.44513619 0.51181811 0.000030518044
0.48416876 0.51180285 0
0.52326238 0.51186389 0.000015259022
0.55843442 0.51187915 0
0.597467 0.51186389 0
0.63262379 0.51186389 0
0.66779583 0.51187915 0
0.70295262 0.51187915 0
0.73804837 0.51181811 0
0.76934463 0.51186389 0
0.80451667 0.51184863 0
0.83968872 0.51187915 0
0.87081712 0.51189441 0
0.90597391 0.51187915 0
0.93728542 0.51192493 0
0 0.54306859 0.00024414435
0 0.54306859 0.00024414435
0 0.54306859 0.00024414435
0 0.54306859 0.00024414435
0 0.54306859 0.00024414435
0 0.54306859 0.00024414435
0 0.54306859 0.00024414435
0 0.54306859 0.00024414435
0 0.54306859 0.00024414435
0 0.54306859 0.00024414435
0 0.54306859 0.00024414435
0 0.54306859 0.00024414435
0.1638056 0.54309911 0.00015259022
0.23413443 0.54311437 0.0001373312
0.29272908 0.54305333 0.0001373312
0.33955901 0.54305333 0.00010681315
0.38646525 0.54312963 0.0001373312
0.42944991 0.54305333 0
0.46855879 0.54311437 0.000030518044
0.50759136 0.54309911 0
0.54662394 0.54308385 0
0.58571756 0.54312963 0
0.6208896 0.54316014 0
0.65598535 0.54308385 0
0.69114214 0.54309911 0
0.72631418 0.54309911 0
0.76147097 0.54311437 0
0.79664302 0.54311437 0
0.8317998 0.54312963 0
0.86303502 0.54309911 0
0.89820706 0.54309911 0
0.92950332 0.54312963 0
0 0.57819486 0.00028992142
0 0.57819486 0.00028992142
0 0.57819486 0.00028992142
0 0.57819486 0.00028992142
0 0.57819486 0.00028992142
0 0.57819486 0.00028992142
0 0.57819486 0.00028992142
0 0.57819486 0.00028992142
0 0.57819486 0.00028992142
0 0.57819486 0.00028992142
0 0.57819486 0.00028992142
0 0.57819486 0.00028992142
0.077897307 0.57824063 0.00027466239
0.19113451 0.57822538 0.00012207218
0.26146334 0.57824063 0.00010681315
0.31609064 0.57827115 0.000076295109
0.36694896 0.57825589 0.00015259022
0.40991836 0.57830167 0.000076295109
0.45281147 0.57824063 0.000076295109
0.49192035 0.57830167 0.00010681315
0.53490501 0.57821012 0
0.57007706 0.57821012 0.000015259022
0.60917067 0.57827115 0.000045777066
0.64434272 0.57828641 0
0.6833753 0.57827115 0
0.71853208 0.57828641 0
0.75370413 0.57828641 0
0.78887617 0.57831693 0
0.82009613 0.57827115 0
0.85526818 0.57827115 0
0.89042496 0.57828641 0
0.92156863 0.57830167 0
0 0.60947585 0.00027466239
0 0.60947585 0.00027466239
0 0.60947585 0.00027466239
0 0.60947585 0.00027466239
0 0.60947585 0.00027466239
0 0.60947585 0.00027466239
0 0.60947585 0.00027466239
0 0.60947585 0.00027466239
0 0.60947585 0.00027466239
0 0.60947585 0.00027466239
0 0.60947585 0.00027466239
0 0.60947585 0.00027466239
0 0.60947585 0.00027466239
0.1286183 0.60946059 0.0001373312
0.22235447 0.60953689 0.0001373312
0.28488594 0.60953689 0.00012207218
0.33962005 0.60950637 0.000091554131
0.39031052 0.60947585 0.000091554131
0.43327993 0.60952163 0.000015259022
0.47634089 0.60947585 0.000076295109
0.51931029 0.60952163 0.000015259022
0.55832761 0.60950637 0
0.59736019 0.60949111 0
0.63253223 0.60949111 0
0.67162585 0.60953689 0.000015259022
0.70679789 0.60956741 0
0.74196994 0.60956741 0
0.77705043 0.60950637 0
0.81222248 0.60950637 0
0.84739452 0.60952163 0
0.88255131 0.60955215 0
0.91384756 0.60958267 0
0 0.64469368 0.00027466239
0 0.64469368 0.00027466239
0 0.64469368 0.00027466239
0 0.64469368 0.00027466239
0 0.64469368 0.00027466239
0 0.64469368 0.00027466239
0 0.64469368 0.00027466239
0 0.64469368 0.00027466239
0 0.64469368 0.00027466239
0 0.64469368 0.00027466239
0 0.64469368 0.00027466239
0 0.64469368 0.00027466239
0 0.64469368 0.00027466239
0 0.64469368 0.00027466239
0.16768139 0.64463264 0.00021362631
0.24968338 0.64466316 0.00012207218
0.31219959 0.6446479 0.000091554131
0.36296635 0.64469368 0.00015259022
0.41376364 0.64463264 0.000030518044
0.45673304 0.6446479 0.000091554131
0.49970245 0.64469368 0.000030518044
0.54267185 0.64470893 0.000091554131
0.58168917 0.64469368 0.000045777066
0.62082856 0.64463264 0
0.65598535 0.6446479 0
0.69509422 0.64470893 0
0.73025101 0.64469368 0.000015259022
0.76534676 0.6446479 0
0.80051881 0.6446479 0
0.83567559 0.64466316 0
0.87084764 0.64466316 0
0.90600443 0.64467842 0
0 0.67589837 0.00039673457
0 0.67589837 0.00039673457
0 0.67589837 0.00039673457
0 0.67589837 0.00039673457
0 0.67589837 0.00039673457
0 0.67589837 0.00039673457
0 0.67589837 0.00039673457
0 0.67589837 0.00039673457
0 0.67589837 0.00039673457
0 0.67589837 0.00039673457
0 0.67589837 0.00039673457
0 0.67589837 0.00039673457
0 0.67589837 0.00039673457
0 0.67589837 0.00039673457
0.054383154 0.67592889 0.00036621653
0.19890135 0.67594415 0.00024414435
0.27310597 0.67594415 0.00012207218
0.33563745 0.67594415 0.00010681315
0.38649577 0.67592889 0.00016784924
0.43718624 0.67592889 0.000045777066
0.48015564 0.67594415 0.00010681315
0.52312505 0.67598993 0.000030518044
0.56610971 0.67588312 0.000030518044
0.60521859 0.67592889 0.000061036088
0.64425116 0.67591363 0.000015259022
0.68328374 0.67589837 0
0.71844053 0.67592889 0
0.75361257 0.67591363 0
0.79270619 0.67597467 0
0.82787823 0.67598993 0
0.86297398 0.67591363 0
0.89813077 0.67594415 0
0 0.7110399 0.00032043946
0 0.7110399 0.00032043946
0 0.7110399 0.00032043946
0 0.7110399 0.00032043946
0 0.7110399 0.00032043946
0 0.7110399 0.00032043946
0 0.7110399 0.00032043946
0 0.7110399 0.00032043946
0 0.7110399 0.00032043946
0 0.7110399 0.00032043946
0 0.7110399 0.00032043946
0 0.7110399 0.00032043946
0 0.7110399 0.00032043946
0 0.7110399 0.00032043946
0 0.7110399 0.00032043946
0.12072938 0.71102464 0.00028992142
0.23016709 0.71113146 0.00018310826
0.30041962 0.71107042 0.00010681315
0.35909056 0.71108568 0.00016784924
0.40985733 0.71114672 0.00010681315
0.46065461 0.71105516 0.00010681315
0.50360876 0.71110094 0.000045777066
0.54657816 0.7111162 0.00010681315
0.58947127 0.71108568 0
0.62858015 0.71114672 0
0.66761273 0.71113146 0
0.7066453 0.7111162 0
0.74180209 0.71110094 0
0.78100252 0.7111162 0
0.81617456 0.71113146 0
0.85133135 0.71113146 0
0.8864271 0.71108568 0
0 0.7423209 0.00030518044
0 0.7423209 0.00030518044
0 0.7423209 0.00030518044
0 0.7423209 0.00030518044
0 0.7423209 0.00030518044
0 0.7423209 0.00030518044
0 0.7423209 0.00030518044
0 0.7423209 0.00030518044
0 0.7423209 0.00030518044
0 0.7423209 0.00030518044
0 0.7423209 0.00030518044
0 0.7423209 0.00030518044
0 0.7423209 0.00030518044
0 0.7423209 0.00030518044
0 0.7423209 0.00030518044
0 0.7423209 0.00030518044
0.16765087 0.74233616 0.00032043946
0.25745022 0.74238193 0.00022888533
0.32777905 0.74239719 0.00021362631
0.38251316 0.74236667 0.00018310826
0.43714046 0.74239719 0.00015259022
0.48407721 0.74235142 0.00012207218
0.52704662 0.74239719 0.000045777066
0.56993973 0.74233616 0.000045777066
0.61289387 0.74238193 0
0.6520943 0.74238193 0.000015259022
0.69112688 0.74236667 0
0.73015946 0.74235142 0
0.76926833 0.74241245 0
0.80434882 0.74233616 0
0.83952087 0.74235142 0
0.87862974 0.74241245 0
0 0.77355612 0.00030518044
0 0.77355612 0.00030518044
0 0.77355612 0.00030518044
0 0.77355612 0.00030518044
0 0.77355612 0.00030518044
0 0.77355612 0.00030518044
0 0.77355612 0.00030518044
0 0.77355612 0.00030518044
0 0.77355612 0.00030518044
0 0.77355612 0.00030518044
0 0.77355612 0.00030518044
0 0.77355612 0.00030518044
0 0.77355612 0.00030518044
0 0.77355612 0.00030518044
0 0.77355612 0.00030518044
0 0.77355612 0.00030518044
0 0.77355612 0.00030518044
0.20274662 0.77363241 0.00024414435
0.28484016 0.77358663 0.00025940337
0.35123217 0.77357137 0.00015259022
0.40979629 0.77361715 0.00021362631
0.46059358 0.77357137 0.000091554131
0.50749981 0.77364767 0.00012207218
0.55039292 0.77358663 0.00012207218
0.59336233 0.77363241 0.000045777066
0.63642329 0.77360189 0.00010681315
0.67545586 0.77358663 0.000076295109
0.71454948 0.77366293 0
0.75358206 0.77364767 0
0.79261463 0.77363241 0
0.82778668 0.77361715 0
0.866804 0.77360189 0
0 0.80874342 0.00042725261
0 0.80874342 0.00042725261
0 0.80874342 0.00042725261
0 0.80874342 0.00042725261
0 0.80874342 0.00042725261
0 0.80874342 0.00042725261
0 0.80874342 0.00042725261
0 0.80874342 0.00042725261
0 0.80874342 0.00042725261
0 0.80874342 0.00042725261
0 0.80874342 0.00042725261
0 0.80874342 0.00042725261
0 0.80874342 0.00042725261
0 0.80874342 0.00042725261
0 0.80874342 0.00042725261
0 0.80874342 0.00042725261
0 0.80874342 0.00042725261
0.10904097 0.80874342 0.00036621653
0.23787289 0.80877394 0.00022888533
