site/assets/luts/colour-blind-luts--protanope-correct-lut--1a552b602.cube
# LUTr-Project: LUTr — LUTrepository
# LUTr-Schema-Version: 1
# LUTr-ID: colour-blind-luts--protanope-correct-lut--1a552b602
# LUTr-Title: protanope correct lut
# LUTr-Collection: Colour-Blind LUTs
# LUTr-Collection-ID: andrewwillmott-colour-blind-luts
# LUTr-Source: https://github.com/andrewwillmott/colour-blind-luts
# LUTr-Source-File: submissions/andrewwillmott-colour-blind-luts/luts/protanope_correct_lut.png
# LUTr-Source-Format: PNG
# LUTr-Source-SHA256: 338fbebbca98b9a604eb4c85f450dff1587480225aadc7f1247ed3e55b96b83b
# LUTr-License: Unlicense
# LUTr-License-URL: https://github.com/andrewwillmott/colour-blind-luts/blob/master/LICENSE
# LUTr-Tags: technical, accessibility, color-vision, simulation, correction, png, protanopia, cube
# LUTr-Transform-Class: accessibility
# LUTr-Input-Color-Space: srgb
# LUTr-Output-Color-Space: srgb
# LUTr-Color-Space-Confidence: assumed-display-referred
# LUTr-Conversion-Method: PNG LUT image decoded at 16-bit and sampled to 32x32x32 3D CUBE
# LUTr-Conversion-Date: 2026-07-27
# LUTr-Conversion-Tool: LUTr scripts/convert-all-to-cube.mjs
# LUTr-Conversion-Grid: 32x32x32
# LUTr-Note: Preserve this metadata and the upstream license notices when redistributing.
TITLE "protanope correct lut"
LUT_3D_SIZE 5
DOMAIN_MIN 0.000000 0.000000 0.000000
DOMAIN_MAX 0.903226 0.903226 0.903226
0.011657893 0.015640497 0.011657893
0.26179904 0.000015259022 0.21857023
0.50795758 0 0.42166781
0.7541619 0 0.62853437
0.99647517 0 0.83147936
0 0.25394064 0.000061036088
0.23031968 0.23443961 0.011673152
0.49619287 0.1367361 0.37477684
0.74631876 0 0.59726864
0.9924773 0 0.81194781
0 0.49225605 0.00018310826
0.054535744 0.48445869 0.00016784924
0.45291829 0.44937819 0.015609979
0.71880674 0.38672465 0.48809033
0.97672999 0.25778592 0.74178683
0 0.73057145 0.00030518044
0 0.72280461 0.00032043946
0.35512322 0.70717937 0.0001373312
0.67159533 0.67203784 0.015564202
0.94142061 0.61335164 0.58579385
0 0.96888685 0.00044251164
0 0.96498054 0.00038147555
0 0.94935531 0.00044251164
0.58551919 0.92605478 0.0001373312
0.88628977 0.89083696 0.011612116
0.011810483 0.015548943 0.23439384
0.26189059 0 0.30846113
0.50803388 0 0.47243458
0.75419242 0 0.65986114
0.99644465 0 0.85499351
0 0.25394064 0.093904021
0.23439384 0.23439384 0.23439384
0.49620813 0.13675135 0.42954147
0.7463798 0 0.6324712
0.99253834 0 0.83544671
0 0.49225605 0.00018310826
0.054535744 0.48445869 0.00016784924
0.44911879 0.45316243 0.23431754
0.71885252 0.38672465 0.53104448
0.97674525 0.25778592 0.76917678
0 0.73057145 0.00030518044
0 0.72280461 0.00032043946
0.35512322 0.70717937 0.0001373312
0.6677348 0.67199207 0.23045701
0.94140536 0.61332113 0.62093538
0 0.96888685 0.00044251164
0 0.96498054 0.00038147555
0 0.94935531 0.00044251164
0.58551919 0.92605478 0.0001373312
0.88639658 0.89079118 0.23047227
0.015747311 0.011627375 0.45311666
0.26192111 0 0.49207294
0.50806439 0 0.60134279
0.75422293 0 0.75350576
0.99649042 0 0.92532235
0.000061036088 0.25389487 0.40640879
0.23056382 0.23430228 0.45316243
0.49622339 0.13669032 0.57013809
0.74636454 0 0.73011368
0.99262989 0 0.90965133
0 0.49222553 0.17985809
0.054581521 0.48436713 0.27359426
0.4492256 0.45311666 0.45305562
0.718822 0.38677043 0.64432746
0.97676051 0.2577554 0.84725719
0 0.73057145 0.00030518044
0 0.72280461 0.00032043946
0.35512322 0.70717937 0.0001373312
0.66784161 0.67196155 0.44919509
0.94146639 0.61335164 0.71851682
0 0.96888685 0.00044251164
0 0.96498054 0.00038147555
0 0.94935531 0.00044251164
0.58551919 0.92605478 0.0001373312
0.88648814 0.89076066 0.4492256
0.01200885 0.015472648 0.67188525
0.26202792 0 0.69517052
0.50811017 0 0.77312886
0.75429923 0 0.89021134
0.99645991 0 0.99559014
0.00012207218 0.25384909 0.64458686
0.23064012 0.23431754 0.66802472
0.49633021 0.13661402 0.74979782
0.74644083 0 0.87077134
0.99259937 0 0.99555962
0.000015259022 0.49214923 0.54312963
0.054657816 0.48435187 0.57836271
0.44928664 0.45313191 0.66791791
0.71891356 0.38670939 0.80842298
0.97688258 0.25778592 0.96835279
0 0.73054093 0.2658732
0 0.72266728 0.33238727
0.35533684 0.70704204 0.48844129
0.66794842 0.67193103 0.66794842
0.94149691 0.61333639 0.86317235
0 0.96888685 0.00044251164
0 0.96498054 0.00038147555
0 0.94935531 0.00044251164
0.585626 0.92594797 0.35947204
0.88659495 0.89071489 0.66796368
0.012085145 0.011581598 0.89068437
0.26215 0 0.90617227
0.50820172 0 0.96461433
0.75432975 0 0.9956817
0.99645991 0 0.99559014
0.00019836728 0.25375753 0.8711986
0.23077745 0.23424125 0.89063859
0.49643702 0.13664454 0.94509804
0.74650187 0 0.99574273
0.99259937 0 0.99555962
0.00015259022 0.4920882 0.80494392
0.054779889 0.48435187 0.82436866
0.45325399 0.44914931 0.89063859
0.71895933 0.3866331 0.9919585
0.97688258 0.25778592 0.99572747
0 0.7304799 0.66834516
0 0.72263676 0.69179828
0.35550469 0.7070573 0.76975662
0.6679942 0.67190051 0.89056229
0.94161898 0.61327535 0.99589532
0 0.96882582 0.35202564
0 0.96490425 0.40277714
0 0.94923323 0.53557641
0.58582437 0.92581064 0.70324254
0.88670176 0.89068437 0.88670176
