site/assets/luts/colour-blind-luts--tritanope-simulate-lut--911fb5f08.cube
# LUTr-Project: LUTr — LUTrepository
# LUTr-Schema-Version: 1
# LUTr-ID: colour-blind-luts--tritanope-simulate-lut--911fb5f08
# LUTr-Title: tritanope simulate lut
# LUTr-Collection: Colour-Blind LUTs
# LUTr-Collection-ID: andrewwillmott-colour-blind-luts
# LUTr-Source: https://github.com/andrewwillmott/colour-blind-luts
# LUTr-Source-File: submissions/andrewwillmott-colour-blind-luts/luts/tritanope_simulate_lut.png
# LUTr-Source-Format: PNG
# LUTr-Source-SHA256: ca0384991824a7c559f820aa9485696c42ee118ca153e09451e2fedbdbff8bbb
# LUTr-License: Unlicense
# LUTr-License-URL: https://github.com/andrewwillmott/colour-blind-luts/blob/master/LICENSE
# LUTr-Tags: technical, accessibility, color-vision, simulation, correction, png, tritanopia, cube
# LUTr-Transform-Class: accessibility
# LUTr-Input-Color-Space: srgb
# LUTr-Output-Color-Space: srgb
# LUTr-Color-Space-Confidence: assumed-display-referred
# LUTr-Conversion-Method: PNG LUT image decoded at 16-bit and sampled to 32x32x32 3D CUBE
# LUTr-Conversion-Date: 2026-07-27
# LUTr-Conversion-Tool: LUTr scripts/convert-all-to-cube.mjs
# LUTr-Conversion-Grid: 32x32x32
# LUTr-Note: Preserve this metadata and the upstream license notices when redistributing.
TITLE "tritanope simulate lut"
LUT_3D_SIZE 8
DOMAIN_MIN 0.000000 0.000000 0.000000
DOMAIN_MAX 0.903226 0.903226 0.903226
0.01170367 0.01559472 0.015533684
0.14059663 0.015671015 0.01559472
0.26564431 0.01170367 0.015411612
0.38667887 0.015686275 0.015396353
0.51174182 0.015671015 0.015350576
0.63671321 0.015716793 0.015304799
0.76176089 0.015701534 0.015259022
0.89059281 0.015716793 0.015243763
0.054734112 0.12893874 0.12890822
0.14839399 0.12895399 0.12884718
0.26564431 0.12892348 0.12878614
0.3906157 0.12896925 0.12874037
0.51567864 0.12895399 0.12869459
0.64063478 0.12899977 0.12864881
0.76562142 0.12892348 0.128542
0.89059281 0.12896925 0.12849622
0.10159457 0.24612802 0.24612802
0.16798657 0.24608225 0.24612802
0.27734798 0.24608225 0.24608225
0.39844358 0.24615854 0.24600595
0.5195697 0.24609751 0.24597543
0.64454108 0.24614328 0.24592966
0.76960403 0.24614328 0.24588388
0.89062333 0.24614328 0.24574655
0.15237659 0.36720836 0.36725414
0.19920653 0.36722362 0.36720836
0.29689479 0.36720836 0.36725414
0.41013199 0.3671931 0.36710155
0.53122759 0.36725414 0.36714733
0.6523537 0.36720836 0.36699474
0.7734493 0.3672694 0.36704051
0.89843595 0.3671931 0.3669337
0.19923705 0.48439765 0.48445869
0.23826963 0.48438239 0.48442817
0.32027161 0.48438239 0.48444343
0.42963302 0.48438239 0.48438239
0.54293126 0.48444343 0.4843061
0.66018158 0.48441291 0.48426032
0.78121614 0.48439765 0.4842298
0.90231174 0.48447395 0.48415351
0.2499733 0.60154116 0.60170901
0.27733272 0.60154116 0.60163272
0.35159838 0.60158694 0.60170901
0.44913405 0.60158694 0.60155642
0.5585565 0.60166323 0.60157168
0.67582208 0.60163272 0.60151064
0.79298085 0.60164797 0.60146487
0.91401541 0.60163272 0.60143435
0.29683375 0.71871519 0.71892882
0.32420844 0.71871519 0.71885252
0.3866331 0.71876097 0.718822
0.47652399 0.71874571 0.71885252
0.57816434 0.71879149 0.71885252
0.69138628 0.71877623 0.71869993
0.80468452 0.71880674 0.71874571
0.92571908 0.718822 0.71860838
0.3476463 0.83596551 0.8361181
0.36710155 0.83596551 0.83616388
0.42577249 0.83599603 0.83610285
0.50383764 0.83596551 0.83602655
0.60540169 0.83595026 0.83596551
0.71088731 0.83596551 0.83599603
0.82418555 0.83601129 0.83591974
0.93740749 0.83598077 0.83588922
0 0.054673075 0.054688334
0.12892348 0.054734112 0.054612039
0.26170748 0.054673075 0.054505226
0.38667887 0.054718853 0.054459449
0.51172656 0.054703593 0.054413672
0.63669795 0.054749371 0.054367895
0.76176089 0.054749371 0.054322118
0.88671702 0.054779889 0.054276341
0.011657893 0.14062715 0.14059663
0.13672084 0.14061189 0.14055085
0.26167697 0.14065766 0.14050507
0.39060044 0.14061189 0.14048981
0.51557183 0.14065766 0.14044404
0.64061952 0.14065766 0.14039826
0.76173037 0.14073396 0.14032197
0.88671702 0.14065766 0.14021515
0.089799344 0.25004959 0.25001907
0.16014343 0.25006485 0.25000381
0.27345693 0.2499733 0.2499733
0.39455253 0.25004959 0.249897
0.51952392 0.25009537 0.24986648
0.64451057 0.25001907 0.24974441
0.76560616 0.25008011 0.24979019
0.89066911 0.25006485 0.24974441
0.14457923 0.3671931 0.36723888
0.1952697 0.36716258 0.36723888
0.29295796 0.36717784 0.36714733
0.41013199 0.3671931 0.36710155
0.52729076 0.36722362 0.36704051
0.64847791 0.36722362 0.36708629
0.7734493 0.3672694 0.36704051
0.89457542 0.36722362 0.36690318
0.19530022 0.48433661 0.4844892
0.23440909 0.48439765 0.48451972
0.32027161 0.48438239 0.48444343
0.42575723 0.48441291 0.48435187
0.53899443 0.48438239 0.48432136
0.66018158 0.48441291 0.48426032
0.78121614 0.48439765 0.4842298
0.90231174 0.48447395 0.48415351
0.24611276 0.60157168 0.60167849
0.27347219 0.60155642 0.60172427
0.34766155 0.60155642 0.60161746
0.44913405 0.60158694 0.60155642
0.5585565 0.60166323 0.60157168
0.67188525 0.60157168 0.60154116
0.79298085 0.60164797 0.60146487
0.91401541 0.60163272 0.60143435
0.29683375 0.71871519 0.71892882
0.32024109 0.71877623 0.71894408
0.38277256 0.71877623 0.71891356
0.47266346 0.71877623 0.718822
0.57816434 0.71879149 0.71885252
0.69138628 0.71877623 0.71869993
0.80468452 0.71880674 0.71874571
0.92571908 0.718822 0.71860838
0.34370947 0.83590448 0.83613336
0.36710155 0.83596551 0.83616388
0.42183566 0.835935 0.83613336
0.50383764 0.83596551 0.83602655
0.6015259 0.83595026 0.83605707
0.71088731 0.83596551 0.83599603
0.82024872 0.83596551 0.835935
0.93740749 0.83598077 0.83588922
0 0.10157931 0.10162509
0.097703517 0.10159457 0.10153353
0.24608225 0.10157931 0.10144198
0.37894255 0.10159457 0.1013962
0.50777447 0.10160983 0.10138094
0.63283742 0.10159457 0.10133516
0.75779355 0.10164034 0.10128939
0.88671702 0.10162509 0.10115206
0 0.16018921 0.16031128
0.10933089 0.16020447 0.16012818
0.24992752 0.16017395 0.16002136
0.38278782 0.16018921 0.15999084
0.50785077 0.16017395 0.15994507
0.6328069 0.16021973 0.15989929
0.76173037 0.16017395 0.15988403
0.8866865 0.16021973 0.15983825
0.01170367 0.26559854 0.26565957
0.14061189 0.26567483 0.26572061
0.26559854 0.26559854 0.26559854
0.39055467 0.26564431 0.26555276
0.51558709 0.26178378 0.26544594
0.640589 0.26567483 0.2654612
0.76559091 0.261738 0.26141756
0.89060807 0.26570535 0.26536965
0.11721981 0.37499046 0.37512779
0.1757229 0.37500572 0.37500572
0.28508431 0.37500572 0.37494469
0.40233463 0.3749752 0.37489891
0.52344549 0.37503624 0.37494469
0.64446479 0.37503624 0.37480735
0.76952773 0.37503624 0.37476158
0.89448386 0.37508202 0.3747158
0.17575341 0.49217975 0.49225605
0.21872282 0.49219501 0.49231708
0.30861372 0.49219501 0.49222553
0.41797513 0.49219501 0.49216449
0.5351339 0.49221027 0.49210346
0.65624475 0.49227131 0.49216449
0.77735561 0.49222553 0.4920119
0.902327 0.49227131 0.49196612
0.23045701 0.60550851 0.60567636
0.26561379 0.60552377 0.60560006
0.33981842 0.60550851 0.60561532
0.44136721 0.60549325 0.60555428
0.55466545 0.60553902 0.60546273
0.66790265 0.60550851 0.60544747
0.7890898 0.60553902 0.60537118
0.91012436 0.60552377 0.60534066
0.28511482 0.72271305 0.72289616
0.30855268 0.72265202 0.72283513
0.37502098 0.7226978 0.72278935
0.46877241 0.72266728 0.72272831
0.57416648 0.72272831 0.72275883
0.68749523 0.72266728 0.72260624
0.80079347 0.7226978 0.72265202
0.92181277 0.72271305 0.72249943
0.33585107 0.83987182 0.84000916
0.35541314 0.83982605 0.84005493
0.41408408 0.83985657 0.84000916
0.49994659 0.83985657 0.83993286
0.59763485 0.83984131 0.83996338
0.70699626 0.83984131 0.83990234
0.8202945 0.83990234 0.83982605
0.93351644 0.83987182 0.83979553
0.000045777066 0.15233082 0.15249866
0.000045777066 0.15233082 0.15249866
0.22264439 0.15233082 0.15228504
0.36330205 0.15236133 0.15225452
0.49616236 0.15237659 0.152224
0.62499428 0.15240711 0.15208667
0.75391775 0.15236133 0.15205615
0.87887388 0.15240711 0.15201038
0 0.19530022 0.19536126
0 0.19530022 0.19536126
0.23047227 0.19533074 0.19523919
0.3671931 0.19530022 0.19522393
0.49996185 0.19536126 0.19519341
0.62888533 0.195346 0.19504082
0.75394827 0.195346 0.19499504
0.88278019 0.195346 0.19497978
0 0.28123903 0.28137636
0.081971466 0.28125429 0.28126955
0.24220645 0.28125429 0.28126955
0.37495995 0.28131533 0.28123903
0.50388342 0.28128481 0.2811017
0.63282216 0.28125429 0.28107118
0.75777829 0.28128481 0.28104067
0.88284123 0.28128481 0.28099489
0.011657893 0.3906157 0.39072251
0.13672084 0.3906157 0.39067674
0.26169223 0.39066148 0.39063096
0.38675517 0.39064622 0.39058518
0.5117113 0.390692 0.39053941
0.64063478 0.39064622 0.39052415
0.76166934 0.39066148 0.39037156
0.88671702 0.39064622 0.39032578
0.14061189 0.49996185 0.50014496
0.19137865 0.50002289 0.50008392
0.2929427 0.49999237 0.50002289
0.40622568 0.50003815 0.50006867
0.5273518 0.49999237 0.49991608
0.64846265 0.50005341 0.49996185
0.77341878 0.50008392 0.49991608
0.8945449 0.50005341 0.49977874
0.20697337 0.61329061 0.61345846
0.24213016 0.61330587 0.61339742
0.3242237 0.61326009 0.61341268
0.42972457 0.61330587 0.61332113
0.54294652 0.61326009 0.61330587
0.66404211 0.61335164 0.61322957
0.78516823 0.61327535 0.61319905
0.90626383 0.61335164 0.61312276
0.26559854 0.73043412 0.73058671
0.29286641 0.73044938 0.73063249
0.36319524 0.73046464 0.73061723
0.45702296 0.73049516 0.73061723
0.56638437 0.73051041 0.73057145
0.67962158 0.73049516 0.73041886
0.79678035 0.73051041 0.73035782
0.9179675 0.73052567 0.73041886
0.32030213 0.84376287 0.84400702
0.34372473 0.84370184 0.84394598
0.40228885 0.84377813 0.84390021
0.48831922 0.84379339 0.84390021
0.58977646 0.84382391 0.84382391
0.69924468 0.84377813 0.84377813
0.81254292 0.84380865 0.84380865
0.92970169 0.84382391 0.84376287
0 0.19922179 0.19937438
0 0.19922179 0.19937438
0.18352026 0.19922179 0.19920653
0.34373999 0.19923705 0.19908446
0.48439765 0.19926757 0.19905394
0.61322957 0.19928283 0.19903868
0.74608988 0.19929808 0.1989929
0.87115282 0.19928283 0.19894713
0 0.23045701 0.23062486
0 0.23045701 0.23062486
0.18751812 0.23047227 0.23042649
0.3476463 0.23050278 0.23044175
0.48436713 0.23050278 0.23030442
0.61724269 0.23051804 0.23025864
0.74605936 0.2305333 0.23024338
0.87498283 0.23050278 0.23010605
0 0.30859846 0.30881209
0 0.30859846 0.30881209
0.20703441 0.30861372 0.30865949
0.3554284 0.30859846 0.30856794
0.4882887 0.30861372 0.30852216
0.621149 0.30862898 0.30847639
0.74998093 0.30865949 0.30833906
0.87502861 0.30864424 0.30829328
0 0.4062562 0.40642405
0 0.4062562 0.40642405
0.23048753 0.40628672 0.40630198
0.36722362 0.40627146 0.40628672
0.49997711 0.40633249 0.4062562
0.62890059 0.40630198 0.40610361
0.75396353 0.40630198 0.40605783
0.88279545 0.40630198 0.40604257
0.011718929 0.51560235 0.51578546
0.13667506 0.51563287 0.51573968
0.261738 0.51563287 0.5156939
0.38670939 0.51567864 0.51564813
0.51175708 0.51566339 0.51560235
0.63672847 0.51570916 0.51555657
0.76171511 0.51563287 0.5154345
0.89060807 0.51570916 0.51549554
0.16012818 0.62496376 0.62511635
0.20703441 0.62504005 0.62516213
0.30078584 0.62499428 0.62508583
0.41408408 0.6250248 0.62513161
0.53124285 0.62505531 0.62508583
0.65227741 0.62505531 0.62493324
0.77346456 0.62507057 0.62497902
0.89835966 0.62504005 0.62487221
0.23439384 0.738262 0.73844511
0.26558328 0.73835355 0.73847562
0.3397879 0.73832303 0.73849088
0.44135195 0.73830777 0.73842985
0.55465019 0.73836881 0.73833829
0.66796368 0.73827726 0.73830777
0.78905928 0.73835355 0.73824674
0.91009384 0.73833829 0.73821622
0.29681849 0.85154498 0.85180438
0.32031739 0.85156023 0.85181964
0.38274205 0.85160601 0.85178912
0.47263294 0.85159075 0.85169757
0.57813382 0.85160601 0.85172808
0.69135576 0.85159075 0.85157549
0.804654 0.85163653 0.85162127
0.92578012 0.85159075 0.85146868
0.000015259022 0.25000381 0.25012589
0.000015259022 0.25000381 0.25012589
0.097703517 0.25001907 0.25003433
0.3125658 0.25003433 0.25000381
0.46095979 0.25001907 0.24991226
0.60161746 0.25004959 0.24988174
0.73430991 0.25003433 0.24977493
0.86330968 0.25009537 0.24969863
0 0.27344167 0.27356374
0 0.27344167 0.27356374
0.10933089 0.27344167 0.27350271
0.31638056 0.27345693 0.27335012
0.46483558 0.27351797 0.2733196
0.60157168 0.27348745 0.2733196
0.73443198 0.27350271 0.27327382
0.8632639 0.27353323 0.27313649
0 0.33983368 0.34006256
0 0.33983368 0.34006256
0.13667506 0.33983368 0.33992523
0.32416266 0.33987945 0.33984894
0.46869612 0.33989471 0.33972686
0.60541695 0.33987945 0.3397116
0.73827726 0.33987945 0.33968109
0.86720073 0.33986419 0.33954376
0 0.42964828 0.42986191
0 0.42964828 0.42986191
0.17581445 0.42970932 0.42977035
0.33980316 0.42972457 0.4296788
0.48047608 0.42977035 0.42964828
0.61326009 0.42970932 0.42954147
0.74225986 0.42973983 0.42958724
0.87107652 0.42977035 0.42944991
0 0.53122759 0.53148699
0 0.53122759 0.53148699
0.21870756 0.53122759 0.53138018
0.36324102 0.53125811 0.53125811
0.49610132 0.53127337 0.53121233
0.62493324 0.53127337 0.53119707
0.75391775 0.53131914 0.53112078
0.87888914 0.53136492 0.531075
0.015609979 0.63666743 0.64093996
0.14062715 0.63672847 0.63689631
0.26169223 0.64065003 0.64075685
0.38675517 0.64065003 0.64071107
0.51564813 0.63675898 0.64063478
0.64065003 0.64065003 0.64065003
0.76560616 0.64068055 0.64060426
0.89066911 0.64068055 0.64055848
0.17972076 0.75001144 0.75028611
0.21875334 0.74999619 0.75025559
0.30855268 0.75004196 0.75014878
0.41791409 0.75004196 0.750103
0.53516442 0.75001144 0.75004196
0.65619898 0.74999619 0.7500267
0.77729458 0.75007248 0.74995041
0.90235752 0.75007248 0.74990463
0.25784695 0.86329442 0.86352331
0.28511482 0.86332494 0.86356909
0.35536736 0.8632639 0.86349279
0.45307088 0.86329442 0.86340124
0.56243229 0.86329442 0.8633402
0.67573053 0.86332494 0.86338598
0.79298085 0.86329442 0.86332494
0.91401541 0.86330968 0.86318761
0.000015259022 0.29683375 0.29698634
0.000015259022 0.29683375 0.29698634
0.000015259022 0.29683375 0.29698634
0.26564431 0.29691005 0.29691005
0.43360037 0.29686427 0.2967422
0.58205539 0.29692531 0.29671168
0.71877623 0.29689479 0.29669642
0.85154498 0.29697108 0.2966659
0 0.32027161 0.3204242
0 0.32027161 0.3204242
0 0.32027161 0.3204242
0.26945907 0.32033265 0.32025635
0.43749142 0.32034791 0.32027161
0.58200961 0.32036316 0.32014954
0.71873045 0.32034791 0.32013428
0.85159075 0.32036316 0.3200885
0 0.37502098 0.37518883
0 0.37502098 0.37518883
0 0.37502098 0.37518883
0.28122377 0.37502098 0.3750515
0.44530404 0.37499046 0.37495995
0.5859617 0.37503624 0.37492943
0.7226978 0.37503624 0.3747921
0.85545129 0.37509728 0.37476158
0 0.45700771 0.45731289
0 0.45700771 0.45731289
0 0.45700771 0.45731289
0.30070954 0.45703822 0.457084
0.45313191 0.45703822 0.45696193
0.59378958 0.45706874 0.45693141
0.72655833 0.45712978 0.45688563
0.85934234 0.45706874 0.45677882
0 0.55466545 0.55492485
0 0.55466545 0.55492485
0.13667506 0.55466545 0.55478752
0.32416266 0.55471122 0.55472648
0.46869612 0.55471122 0.55472648
0.60541695 0.55471122 0.55458915
0.73827726 0.55472648 0.55454337
0.86710918 0.55472648 0.55452811
0 0.65626001 0.65654994
0 0.65626001 0.65654994
0.20306706 0.65621424 0.65642786
0.35539788 0.65626001 0.65630579
0.48825818 0.65627527 0.65626001
0.62111849 0.65629053 0.6562295
0.74993515 0.65629053 0.65621424
0.87499809 0.65627527 0.65616846
0.015548943 0.76560616 0.76206607
0.13669032 0.76563668 0.76586557
0.26561379 0.76559091 0.76583505
0.38670939 0.7616846 0.76575875
0.51563287 0.76562142 0.76575875
0.64066529 0.7656672 0.76183719
0.76173037 0.76562142 0.76556039
0.8866865 0.7656672 0.76551461
0.19530022 0.87495232 0.87530327
0.23440909 0.87501335 0.87533379
0.32027161 0.87499809 0.8752575
0.42575723 0.87502861 0.87516594
0.53899443 0.87499809 0.87513542
0.66018158 0.87502861 0.87505913
0.78121614 0.87501335 0.87504387
0.90231174 0.87508965 0.87496757
0 0.34378576 0.34393835
0 0.34378576 0.34393835
0 0.34378576 0.34393835
0.19531548 0.34372473 0.34380102
0.39841306 0.34380102 0.34373999
0.55469596 0.34375525 0.34364843
0.69922942 0.34378576 0.34352636
0.83595026 0.34375525 0.3435111
0 0.36322576 0.36348516
0 0.36322576 0.36348516
0 0.36322576 0.36348516
0.19916075 0.36327153 0.36333257
0.40234989 0.36330205 0.36328679
0.55854124 0.36331731 0.36319524
0.6991989 0.36334783 0.36314946
0.835935 0.36334783 0.36302739
0 0.41405356 0.41423667
0 0.41405356 0.41423667
0 0.41405356 0.41423667
0.21481651 0.41409934 0.41409934
0.41020829 0.41409934 0.4140383
0.56252384 0.4141146 0.4140383
0.70312047 0.41408408 0.41393149
0.83984131 0.41408408 0.41379416
0 0.48824292 0.4885481
0 0.48824292 0.4885481
0 0.48824292 0.4885481
0.2383154 0.48830396 0.48842603
0.42186618 0.48830396 0.48825818
0.57026017 0.4882887 0.48816663
0.71091783 0.48831922 0.48812085
0.84377813 0.48833448 0.48809033
0 0.57805753 0.57836271
0 0.57805753 0.57836271
0 0.57805753 0.57836271
0.26948959 0.57813382 0.57819486
0.43750668 0.57813382 0.57821012
0.58204013 0.57816434 0.57807279
0.71876097 0.57813382 0.57807279
0.85152972 0.57819486 0.57802701
0.000030518044 0.6757763 0.6761883
0.000030518044 0.6757763 0.6761883
0.070283055 0.67574578 0.67597467
0.30853742 0.67582208 0.67597467
0.45703822 0.67574578 0.67586786
0.59758907 0.67583734 0.67583734
0.73046464 0.6758526 0.67579156
0.86324865 0.67579156 0.67568475
0 0.7812314 0.78161288
0 0.7812314 0.78161288
0.1874876 0.78126192 0.78155184
0.34755474 0.78126192 0.78135348
0.48435187 0.7813077 0.78141451
0.61713588 0.78124666 0.7813077
0.74613565 0.78129244 0.78124666
0.87495232 0.7813077 0.7812314
0.011688411 0.89060807 0.89095903
0.13664454 0.89065385 0.89091325
0.26170748 0.89065385 0.89086748
0.38666361 0.89069963 0.8908217
0.51166552 0.89060807 0.89071489
0.63662165 0.89065385 0.89066911
0.7616846 0.89065385 0.89062333
0.88664073 0.89069963 0.89057755
