site/assets/luts/colour-blind-luts--protanope-daltonise-lut--980a4baf9.cube
# LUTr-Project: LUTr — LUTrepository
# LUTr-Schema-Version: 1
# LUTr-ID: colour-blind-luts--protanope-daltonise-lut--980a4baf9
# LUTr-Title: protanope daltonise lut
# LUTr-Collection: Colour-Blind LUTs
# LUTr-Collection-ID: andrewwillmott-colour-blind-luts
# LUTr-Source: https://github.com/andrewwillmott/colour-blind-luts
# LUTr-Source-File: submissions/andrewwillmott-colour-blind-luts/luts/protanope_daltonise_lut.png
# LUTr-Source-Format: PNG
# LUTr-Source-SHA256: d271f7cc290739e29ffd38a9e5136d8bdff444d6d7751c79a6e75de0a0ed31d5
# LUTr-License: Unlicense
# LUTr-License-URL: https://github.com/andrewwillmott/colour-blind-luts/blob/master/LICENSE
# LUTr-Tags: technical, accessibility, color-vision, simulation, correction, png, protanopia, cube
# LUTr-Transform-Class: accessibility
# LUTr-Input-Color-Space: srgb
# LUTr-Output-Color-Space: srgb
# LUTr-Color-Space-Confidence: assumed-display-referred
# LUTr-Conversion-Method: PNG LUT image decoded at 16-bit and sampled to 32x32x32 3D CUBE
# LUTr-Conversion-Date: 2026-07-27
# LUTr-Conversion-Tool: LUTr scripts/convert-all-to-cube.mjs
# LUTr-Conversion-Grid: 32x32x32
# LUTr-Note: Preserve this metadata and the upstream license notices when redistributing.
TITLE "protanope daltonise lut"
LUT_3D_SIZE 32
DOMAIN_MIN 0 0 0
DOMAIN_MAX 1 1 1
0.015640497 0.015640497 0.015640497
0.046845197 0.035187304 0.03509575
0.078202487 0.054703593 0.062485695
0.10939193 0.078095674 0.085877775
0.1406424 0.10157931 0.10934615
0.1719234 0.12500191 0.13667506
0.20311284 0.14840925 0.16006714
0.23430228 0.17189288 0.18739605
0.26565957 0.19531548 0.21084916
0.29692531 0.21487755 0.23825437
0.32809949 0.23828489 0.26164645
0.35934997 0.26175326 0.28509957
0.39064622 0.28519112 0.31244373
0.4218967 0.30865949 0.33589685
0.45311666 0.33202106 0.36316472
0.48438239 0.35548943 0.38661784
0.51566339 0.37892729 0.41394675
0.54692912 0.40239567 0.43741512
0.57816434 0.42188144 0.46086824
0.60936904 0.44536507 0.48819715
0.64061952 0.46883345 0.51166552
0.67183948 0.49219501 0.53891814
0.70308995 0.51566339 0.56238651
0.73444724 0.53910124 0.58583963
0.76563668 0.56256962 0.61318379
0.79682612 0.58597696 0.63656062
0.82818341 0.60549325 0.66396582
0.85943389 0.62896162 0.68741894
0.89062333 0.65244526 0.7147631
0.92190433 0.67579156 0.73813993
0.9531548 0.6992752 0.7616083
0.98445106 0.7226978 0.78893721
0.015564202 0.035172045 0.000061036088
0.046784161 0.046875715 0.015579461
0.078080415 0.062470436 0.050797284
0.10937667 0.082017243 0.081940948
0.1406424 0.10548562 0.10539406
0.1719234 0.12889296 0.1328603
0.20311284 0.14840925 0.16006714
0.23436332 0.17189288 0.18352026
0.26565957 0.19531548 0.21084916
0.29691005 0.21878386 0.23431754
0.3282063 0.24222171 0.26164645
0.35939574 0.26562905 0.28503853
0.39064622 0.28519112 0.31244373
0.4218967 0.30865949 0.33589685
0.45308614 0.33206683 0.35928893
0.48438239 0.35548943 0.38661784
0.51563287 0.37897307 0.41008621
0.54692912 0.40239567 0.43741512
0.5781033 0.42580301 0.4608072
0.60936904 0.44536507 0.48819715
0.64061952 0.46883345 0.51166552
0.67190051 0.49219501 0.53504234
0.70308995 0.51566339 0.56238651
0.73444724 0.53910124 0.58583963
0.76563668 0.56256962 0.61318379
0.79682612 0.58597696 0.63656062
0.82810712 0.60941482 0.66390478
0.85943389 0.62896162 0.68741894
0.89062333 0.65244526 0.7147631
0.92190433 0.67579156 0.73813993
0.9531548 0.6992752 0.7616083
0.98445106 0.7226978 0.78893721
0.015609979 0.054657816 0
0.046784161 0.062516213 0
0.078110933 0.078141451 0.01559472
0.10933089 0.093781949 0.066376745
0.14062715 0.11329824 0.097642481
0.17189288 0.1328603 0.12504768
0.20311284 0.15622187 0.15231556
0.23436332 0.17579919 0.17958343
0.26561379 0.19926757 0.20303655
0.29691005 0.22267491 0.23050278
0.32809949 0.2421912 0.25770962
0.35934997 0.26567483 0.28116274
0.39064622 0.28909743 0.30849165
0.4218967 0.31258106 0.33196002
0.45311666 0.33592737 0.35922789
0.48444343 0.35548943 0.38274205
0.51563287 0.37897307 0.41008621
0.54682231 0.40236515 0.43346304
0.5781033 0.42580301 0.4608072
0.60935378 0.44927138 0.48426032
0.64065003 0.47270924 0.51158923
0.67183948 0.49611658 0.53498131
0.70308995 0.51566339 0.56238651
0.73444724 0.53910124 0.58583963
0.76563668 0.56249332 0.60923171
0.79682612 0.58597696 0.63656062
0.82816815 0.60939956 0.66002899
0.85937285 0.63288319 0.6873579
0.89062333 0.65635157 0.71082628
0.92190433 0.67579156 0.73813993
0.9531548 0.6992752 0.7616083
0.98445106 0.7226978 0.78893721
0.015564202 0.07815671 0.000045777066
0.046890974 0.082047761 0.000015259022
0.078095674 0.09376669 0
0.10933089 0.10945296 0.015609979
0.14062715 0.12498665 0.07426566
0.17186236 0.1445182 0.10928511
0.20306706 0.16409552 0.14055085
0.23442435 0.18359655 0.16795605
0.26564431 0.20703441 0.19916075
0.29680323 0.22656596 0.22261387
0.32809949 0.25000381 0.24994278
0.35934997 0.26956588 0.27734798
0.39064622 0.29298848 0.30467689
0.4218204 0.31639582 0.32806897
0.45308614 0.33597314 0.3553521
0.48442817 0.35939574 0.37880522
0.51563287 0.38287938 0.40613413
0.54680705 0.40628672 0.42952621
0.5781033 0.42970932 0.45687037
0.60935378 0.44927138 0.48426032
0.64061952 0.47275502 0.50772869
0.67190051 0.49610132 0.53110552
0.70308995 0.51958495 0.55844968
0.73444724 0.54300755 0.5819028
0.76563668 0.56649119 0.60923171
0.79688716 0.58597696 0.63268482
0.82816815 0.60939956 0.66002899
0.85943389 0.63288319 0.68348211
0.89062333 0.65635157 0.71082628
0.92190433 0.67971313 0.7342031
0.95309377 0.70319677 0.76154726
0.98445106 0.72661936 0.78500038
0.015609979 0.10160983 0.000045777066
0.046784161 0.10547036 0.000061036088
0.078049897 0.11329824 0
0.10933089 0.1250782 0
0.14059663 0.1406424 0.015548943
0.17177081 0.15625238 0.085893034
0.20311284 0.17579919 0.12498665
0.23437858 0.19147021 0.15620661
0.26561379 0.21487755 0.18753338
0.29678798 0.23439384 0.21474022
0.32814527 0.25391012 0.24213016
0.35934997 0.27739376 0.26947433
0.39060044 0.29695583 0.29686427
0.4218204 0.32030213 0.32413214
0.45307088 0.34378576 0.34758526
0.48442817 0.36328679 0.37499046
0.51563287 0.38677043 0.40231937
0.54680705 0.41017777 0.42571145
0.57816434 0.42970932 0.45299458
0.60935378 0.45319295 0.48032349
0.64061952 0.47666133 0.50377661
0.67183948 0.50000763 0.53116655
0.70308995 0.52347601 0.55463493
0.73444724 0.54300755 0.5819028
0.76562142 0.56641489 0.60529488
0.79682612 0.58989853 0.63262379
0.82816815 0.61332113 0.65609216
0.85937285 0.63680476 0.68342107
0.89060807 0.65627527 0.70687419
0.92190433 0.67971313 0.7342031
0.9531548 0.70318151 0.75767147
0.98445106 0.72661936 0.78500038
0.015564202 0.12112612 0.000045777066
0.046890974 0.12503243 0
0.078065156 0.13289082 0.000015259022
0.10933089 0.14068818 0.000030518044
0.14058137 0.15625238 0.000045777066
0.17181659 0.1719234 0.015701534
0.20314336 0.18754864 0.093736172
0.23431754 0.20315862 0.13669032
0.26561379 0.22267491 0.16797131
0.29691005 0.2421912 0.19923705
0.32809949 0.26178378 0.23038071
0.35939574 0.28519112 0.25784695
0.39060044 0.3047837 0.28899062
0.4218204 0.32813001 0.31625849
0.45307088 0.34769207 0.34364843
0.48442817 0.37111467 0.36711681
0.51561761 0.3906157 0.39444572
0.54680705 0.41408408 0.42177462
0.5781033 0.43752193 0.44910353
0.60941482 0.45706874 0.47263294
0.64060426 0.48055238 0.49996185
0.67188525 0.50391394 0.52335393
0.70308995 0.52738231 0.55068284
0.73443198 0.5468986 0.57808804
0.76562142 0.5703212 0.60135805
0.79681086 0.59378958 0.62880903
0.82816815 0.61721218 0.65227741
0.85943389 0.6367895 0.67954528
0.89060807 0.66019684 0.70293736
0.92190433 0.68361944 0.73026627
0.9531548 0.70710307 0.75373465
0.98445106 0.73052567 0.78106355
0.015533684 0.1445182 0
0.046784161 0.14845502 0.000045777066
0.078019379 0.15240711 0.000015259022
0.10928511 0.16020447 0.000030518044
0.14048981 0.1719234 0
0.17180133 0.1875639 0.000061036088
0.20306706 0.20311284 0.015640497
0.23434806 0.21879911 0.10162509
0.26561379 0.23437858 0.14445716
0.29686427 0.25398642 0.18355077
0.32808423 0.27342641 0.21474022
0.35928893 0.29298848 0.24602121
0.39058518 0.31250477 0.27728695
0.42186618 0.33594263 0.30463111
0.45313191 0.35548943 0.33202106
0.48438239 0.37508202 0.35930419
0.51560235 0.39844358 0.3865568
0.54686809 0.41800565 0.41396201
0.57814908 0.44142824 0.44129091
0.60935378 0.46491188 0.46863508
0.640589 0.48439765 0.4920882
0.67188525 0.50782025 0.51941711
0.70307469 0.53130388 0.54674601
0.73432517 0.55078965 0.57019913
0.76562142 0.57421225 0.5975433
0.79681086 0.59769589 0.62487221
0.82816815 0.62111849 0.64832532
0.85941863 0.64068055 0.67573053
0.89060807 0.66408789 0.69912261
0.92190433 0.68751049 0.72645151
0.9531548 0.71099413 0.74991989
0.98434424 0.73051041 0.77711147
0.01559472 0.16795605 0.000091554131
0.046829938 0.1719234 0.000045777066
0.078065156 0.17584497 0.0001373312
0.10933089 0.18367285 0.000030518044
0.14061189 0.19147021 0.000045777066
0.17181659 0.20318914 0
0.2030518 0.21875334 0
0.23428702 0.23442435 0.015655756
0.26555276 0.25006485 0.10937667
0.29683375 0.26570535 0.1562829
0.32809949 0.28519112 0.19530022
0.35933471 0.30470741 0.23045701
0.39063096 0.3242237 0.26172274
0.4218204 0.34381628 0.29288167
0.45308614 0.36336309 0.32027161
0.48436713 0.38280308 0.34760052
0.51560235 0.40624094 0.37880522
0.54685283 0.42580301 0.40621042
0.57814908 0.44924086 0.43353933
0.60939956 0.46881819 0.46082246
0.640589 0.49222553 0.48419928
0.67185473 0.51178759 0.51160449
0.70313573 0.53521019 0.53893339
0.73443198 0.55864805 0.56627756
0.76562142 0.57813382 0.59360647
0.7968719 0.6016022 0.61705959
0.82816815 0.62504005 0.64438849
0.85941863 0.64460212 0.6717937
0.89060807 0.6679942 0.69518578
0.92188907 0.69143206 0.72251469
0.9531548 0.71490043 0.7459678
0.98434424 0.73440146 0.77329671
0.015548943 0.19147021 0.000091554131
0.046768902 0.19143969 0.000045777066
0.078019379 0.19539178 0
0.10928511 0.20318914 0.000015259022
0.14055085 0.2109865 0.000030518044
0.17175555 0.22270542 0
0.20296025 0.23442435 0
0.23427176 0.25006485 0.000015259022
0.26544594 0.26567483 0.01559472
0.29684901 0.28128481 0.11714351
0.32806897 0.29694057 0.16792554
0.35933471 0.31641108 0.20694285
0.39064622 0.33600366 0.24216068
0.42177462 0.35550469 0.27336538
0.45307088 0.37500572 0.30463111
0.48436713 0.39452201 0.33591211
0.51555657 0.4141146 0.36705577
0.54691386 0.43363088 0.39446098
0.5781033 0.45711452 0.42178988
0.60929274 0.47660029 0.44911879
0.640589 0.50002289 0.4764477
0.67183948 0.51958495 0.5038529
0.70313573 0.54302281 0.53118181
0.73432517 0.56250858 0.55851072
0.76560616 0.58593118 0.58583963
0.7968719 0.60552377 0.61312276
0.82812238 0.62899214 0.63657588
0.85941863 0.65243 0.66392004
0.89060807 0.67191577 0.69124895
0.92185855 0.69538415 0.71470207
0.95313954 0.718822 0.74203098
0.98432898 0.73830777 0.76935988
0.015533684 0.21486229 0.000015259022
0.046829938 0.21490806 0.000045777066
0.077988861 0.21875334 0.000045777066
0.10922408 0.22270542 0.000015259022
0.14050507 0.23051804 0.000030518044
0.17170977 0.24223697 0
0.20308232 0.25397116 0
0.23428702 0.26569009 0
0.26543069 0.28130007 0
0.29677272 0.29692531 0.015609979
0.32805371 0.31253529 0.12503243
0.35927367 0.32817578 0.17581445
0.39055467 0.34773785 0.2187686
0.42185092 0.36336309 0.25386435
0.45308614 0.38287938 0.28900587
0.48438239 0.40239567 0.32028687
0.51557183 0.42195773 0.35155261
0.54680705 0.44539559 0.38275731
0.57808804 0.46483558 0.41008621
0.60935378 0.48442817 0.43736934
0.64063478 0.50394446 0.46863508
0.67183948 0.52741283 0.49597925
0.70308995 0.5469749 0.52336919
0.73430991 0.57033646 0.55063706
0.76557565 0.58989853 0.57802701
0.79685664 0.61332113 0.60537118
0.82810712 0.63283742 0.62870222
0.85929656 0.65629053 0.6561532
0.89059281 0.67971313 0.68348211
0.92185855 0.69930571 0.71076524
0.95310903 0.72277409 0.73421836
0.98432898 0.74613565 0.76148623
0.015548943 0.23445487 0.000076295109
0.046707866 0.2383154 0.000091554131
0.078049897 0.24222171 0.000045777066
0.10928511 0.24614328 0.0001373312
0.14055085 0.25397116 0.000030518044
0.17181659 0.26176852 0.000045777066
0.20299077 0.26962692 0.000061036088
0.23421073 0.28134585 0.000015259022
0.26552224 0.29697108 0.000091554131
0.29675746 0.3125658 0
0.32799268 0.32823682 0.015625238
0.35924315 0.34381628 0.13279927
0.39056992 0.359411 0.18356603
0.42185092 0.37895781 0.22653544
0.45308614 0.39456779 0.26562905
0.48432136 0.41408408 0.30077058
0.51561761 0.43363088 0.33191424
0.54685283 0.45314717 0.36707103
0.5781033 0.47270924 0.39446098
0.609308 0.49227131 0.42574197
0.64063478 0.51566339 0.45694667
0.67188525 0.53521019 0.48433661
0.70307469 0.55472648 0.51154345
0.73437095 0.57813382 0.53900969
0.76562142 0.59772641 0.56627756
0.79682612 0.62119478 0.59362173
0.82810712 0.64063478 0.62093538
0.85929656 0.66411841 0.64827955
0.89065385 0.6836347 0.67566949
0.92184329 0.70710307 0.70301366
0.95310903 0.72666514 0.7304036
0.98439002 0.7500267 0.75379568
0.015533684 0.25783169 0.0001373312
0.046829938 0.25786221 0.00015259022
0.077988861 0.261738 0.000045777066
0.10922408 0.26567483 0.00012207218
0.14050507 0.27350271 0.000015259022
0.17177081 0.28130007 0.000030518044
0.20294499 0.28914321 0.000045777066
0.23424125 0.30081636 0
0.26552224 0.31259632 0.000030518044
0.29677272 0.32816052 0.000045777066
0.32797742 0.34387732 0
0.35924315 0.35942626 0.015579461
0.39050889 0.37508202 0.13669032
0.42171359 0.39067674 0.19520867
0.45299458 0.4102388 0.23817807
0.48432136 0.42578775 0.27725643
0.51563287 0.44538033 0.31247425
0.54686809 0.46489662 0.34763104
0.57805753 0.48447395 0.37889677
0.60935378 0.50399023 0.41016251
0.64057374 0.52346075 0.44124514
0.67177844 0.54302281 0.47252613
0.70313573 0.56252384 0.49991608
0.73432517 0.58600748 0.52726024
0.76562142 0.60552377 0.55852598
0.79681086 0.6290074 0.58585489
0.82809186 0.64844739 0.61318379
0.8593576 0.66802472 0.64046693
0.89065385 0.69146258 0.66779583
0.92190433 0.71102464 0.69520104
0.95309377 0.73449302 0.72252995
0.98431373 0.75785458 0.74979782
0.015487907 0.28134585 0.00012207218
0.046707866 0.28130007 0.000076295109
0.078049897 0.28520638 0.000045777066
0.10928511 0.28912795 0.00012207218
0.14044404 0.293019 0.000015259022
0.17172503 0.30081636 0.000030518044
0.20299077 0.30861372 0.000045777066
0.23427176 0.32040894 0.000076295109
0.26547646 0.33212787 0.000015259022
0.29668116 0.3438468 0
0.32799268 0.35947204 0.000061036088
0.35922789 0.37506676 0
0.39046311 0.39073777 0.01559472
0.42171359 0.40634775 0.1444419
0.45308614 0.42195773 0.20317388
0.48426032 0.43758297 0.24600595
0.51554131 0.45711452 0.28909743
0.54677653 0.47666133 0.32411688
0.57801175 0.49617762 0.35925841
0.60933852 0.51564813 0.3944152
0.64052796 0.53521019 0.42568093
0.67182422 0.55472648 0.45694667
0.70308995 0.57428855 0.48435187
0.73438621 0.59383536 0.51549554
0.76557565 0.61339742 0.54677653
0.79679561 0.63675898 0.5740444
0.82806134 0.65632105 0.60143435
0.85931182 0.67588312 0.62883955
0.89060807 0.69930571 0.65616846
0.92179751 0.71879149 0.68349737
0.95307851 0.74222934 0.71082628
0.98434424 0.76180667 0.73810941
0.015457389 0.30473793 0.000061036088
0.046768902 0.30476844 0.000076295109
0.07800412 0.30869001 0.00016784924
0.10926986 0.31252003 0.000045777066
0.14050507 0.31645686 0.0001373312
0.17177081 0.32428473 0.000030518044
0.20294499 0.33212787 0.000045777066
0.23421073 0.33992523 0.000061036088
0.26541543 0.35164416 0.000015259022
0.29672694 0.36331731 0
0.32800793 0.37509728 0
0.3591516 0.39072251 0
0.39046311 0.40637827 0
0.42162203 0.42198825 0.015533684
0.45297932 0.43759823 0.14845502
0.48427558 0.45322347 0.21092546
0.51549554 0.46878767 0.25777066
0.54677653 0.48834974 0.3007248
0.57801175 0.50786603 0.33588159
0.60924697 0.52738231 0.37102312
0.64054322 0.54300755 0.40610361
0.67183948 0.56252384 0.4373846
0.70302892 0.58208591 0.46865034
0.73432517 0.6016022 0.49993133
0.76556039 0.62504005 0.53113603
0.79685664 0.64455634 0.56240177
0.82810712 0.66411841 0.58980697
0.85937285 0.68369574 0.6170901
0.89059281 0.70713359 0.6482948
0.92178225 0.72661936 0.67562371
0.95307851 0.75005722 0.70295262
0.98432898 0.76961929 0.73035782
0.015487907 0.32433051 0.00012207218
0.046738384 0.32813001 0.0001373312
0.077943084 0.32822156 0.00015259022
0.10928511 0.33211261 0.00010681315
0.14044404 0.33597314 0.00012207218
0.17172503 0.34380102 0.000015259022
0.20299077 0.35159838 0.000030518044
0.23416495 0.35944152 0.000045777066
0.2655375 0.37119097 0.000076295109
0.2967422 0.3829099 0.000030518044
0.3279469 0.39462882 0
0.3591516 0.40634775 0
0.39046311 0.42197299 0.000015259022
0.42160678 0.43759823 0.000030518044
0.45294881 0.45322347 0.015671015
0.48427558 0.46881819 0.15622187
0.51548028 0.4844892 0.2186923
0.54676127 0.5001297 0.26559854
0.57798123 0.51961547 0.30849165
0.60932326 0.53916228 0.34758526
0.64055848 0.55477226 0.38666361
0.67185473 0.57428855 0.41794461
0.70308995 0.59380484 0.45308614
0.73427939 0.6133669 0.48436713
0.76557565 0.63291371 0.5155108
0.7968719 0.65243 0.54677653
0.82806134 0.67199207 0.57805753
0.8592813 0.69535363 0.6053254
0.89054704 0.71491569 0.63271534
0.92184329 0.73443198 0.66399634
0.95312428 0.75785458 0.69132525
0.98439002 0.77744717 0.71859312
0.015457389 0.34769207 0.00016784924
0.046768902 0.34772259 0.00019836728
0.077927825 0.35161364 0.000076295109
0.10916304 0.35556573 0.000045777066
0.14050507 0.35944152 0.00012207218
0.17174029 0.36339361 0.000076295109
0.20300603 0.37119097 0.00010681315
0.23427176 0.37898833 0.00012207218
0.26547646 0.39070726 0.000076295109
0.29675746 0.39850462 0.000091554131
0.32796216 0.41022354 0.000045777066
0.35918212 0.42594034 0
0.39047837 0.43758297 0.000076295109
0.42162203 0.45322347 0
0.45293355 0.46886397 0.000045777066
0.48416876 0.48453498 0.015686275
0.5154345 0.5001297 0.16011292
0.54677653 0.5156939 0.22658122
0.57801175 0.5313344 0.27736324
0.60929274 0.55089647 0.32031739
0.64055848 0.57036698 0.35934997
0.6717937 0.58599222 0.39830625
0.70302892 0.60552377 0.43344778
0.73421836 0.62508583 0.46472877
0.76556039 0.64455634 0.4998703
0.79674983 0.66411841 0.53115129
0.82804608 0.6836347 0.56241703
0.85929656 0.70321202 0.58970016
0.89059281 0.72272831 0.6209659
0.92182803 0.74616617 0.6521706
0.95309377 0.76572824 0.6795758
0.98426795 0.78521401 0.70690471
0.015518425 0.37116045 0.00016784924
0.04664683 0.37116045 0.00012207218
0.077973602 0.37506676 0.000076295109
0.10922408 0.37900359 0.00016784924
0.140383 0.38287938 0.000045777066
0.17170977 0.38675517 0.0001373312
0.20288396 0.39462882 0.000030518044
0.23416495 0.40242618 0.000045777066
0.26543069 0.4102388 0.000061036088
0.29669642 0.41803616 0.000076295109
0.32790112 0.42975509 0.000030518044
0.35918212 0.44153506 0.000061036088
0.39043259 0.45709926 0.000061036088
0.42163729 0.46881819 0.000015259022
0.45294881 0.4844892 0
0.48415351 0.50017548 0.000061036088
0.51541924 0.51572442 0.015640497
0.54673075 0.5313344 0.16800183
0.57798123 0.54695964 0.23434806
0.60920119 0.5626154 0.28511482
0.64048219 0.5821622 0.32808423
0.67176318 0.59772641 0.37103838
0.7029984 0.61731899 0.41013199
0.73434043 0.6367895 0.44528878
0.76557565 0.65630579 0.4804303
0.79676509 0.67588312 0.51169604
0.82806134 0.69541466 0.54285496
0.8593576 0.71493095 0.5741207
0.89054704 0.73449302 0.60540169
0.92184329 0.75400931 0.63666743
0.95306325 0.77346456 0.66787213
0.98432898 0.79304189 0.69514
0.015396353 0.39459831 0.000091554131
0.046692607 0.39462882 0.00012207218
0.077927825 0.39458305 0.000076295109
0.10916304 0.39851987 0.00015259022
0.14050507 0.40242618 0.00010681315
0.17174029 0.40634775 0.00019836728
0.20292973 0.41409934 0.000015259022
0.23410391 0.42195773 0.000030518044
0.26538491 0.42975509 0.000045777066
0.29665064 0.43755245 0.000076295109
0.32793164 0.44934768 0.000091554131
0.35913634 0.46106661 0.000045777066
0.39043259 0.4727245 0
0.42171359 0.48451972 0.000015259022
0.45285725 0.5001297 0.000030518044
0.48416876 0.51580072 0
0.51537346 0.52751965 0
0.54665446 0.54703593 0.015655756
0.57799649 0.56260014 0.17189288
0.60924697 0.57822538 0.23823911
0.64049744 0.59383536 0.29288167
0.67173266 0.6133669 0.33984894
0.70296788 0.62899214 0.37880522
0.73430991 0.64853895 0.41789883
0.76548409 0.6680705 0.45691615
0.79670405 0.68758679 0.49207294
0.82806134 0.70318151 0.52339971
0.85929656 0.72272831 0.55843442
0.89050126 0.74229038 0.58970016
0.92182803 0.76568246 0.62090486
0.95301747 0.78524453 0.65218585
0.98428321 0.80480659 0.6795758
0.015457389 0.41803616 0.00021362631
0.046677348 0.41799039 0.00016784924
0.077973602 0.41803616 0.00019836728
0.10922408 0.42198825 0.00015259022
0.140383 0.42583352 0.00016784924
0.17170977 0.42973983 0.00012207218
0.20288396 0.43759823 0.0001373312
0.23422599 0.44148928 0.00010681315
0.26540017 0.44934768 0.00012207218
0.29669642 0.46102083 0.000076295109
0.3278706 0.46886397 0.000091554131
0.35918212 0.48053712 0.000045777066
0.39046311 0.49231708 0.000061036088
0.42166781 0.50403601 0.000015259022
0.45287251 0.51575494 0
0.48418402 0.53139544 0.000045777066
0.51541924 0.54699016 0
0.54662394 0.55867857 0.000015259022
0.57790494 0.57822538 0.01559472
0.60915541 0.59391165 0.17578393
0.64045167 0.60947585 0.24611276
0.67170214 0.62508583 0.30077058
0.7029221 0.64463264 0.34761578
0.73426413 0.66027314 0.39064622
0.76554513 0.67974365 0.42966354
0.79678035 0.69933623 0.46875715
0.82801556 0.71490043 0.50377661
0.85931182 0.73449302 0.53899443
0.89060807 0.75400931 0.57026017
0.92173648 0.77349508 0.60146487
0.95304799 0.79308766 0.63668269
0.98422217 0.81260395 0.66388952
0.015396353 0.43755245 0.00021362631
0.046631571 0.44150454 0.00016784924
0.077866789 0.44147402 0.00012207218
0.10919356 0.44538033 0.000076295109
0.14039826 0.44545663 0.00010681315
0.171664 0.45325399 0.00012207218
0.20292973 0.45706874 0.0001373312
0.23410391 0.4649424 0.000030518044
0.26538491 0.47273976 0.000045777066
0.29665064 0.48053712 0.000061036088
0.32791638 0.48833448 0.000076295109
0.35919738 0.5001297 0.00010681315
0.39040208 0.51184863 0.000061036088
0.42160678 0.52356756 0
0.45281147 0.53528649 0
0.48419928 0.54702068 0
0.51534295 0.56263066 0
0.54665446 0.57827115 0.000076295109
0.57785916 0.58999008 0.000030518044
0.6091249 0.60953689 0.015609979
0.64046693 0.62513161 0.18353552
0.67164111 0.64075685 0.25387961
0.70290684 0.65635157 0.30853742
0.73423362 0.67592889 0.35931945
0.76551461 0.6914931 0.40227359
0.79668879 0.71102464 0.44129091
0.82803082 0.73057145 0.48038453
0.85932708 0.74616617 0.51560235
0.89056229 0.76569772 0.55074388
0.92178225 0.78522927 0.58576333
0.95298695 0.80480659 0.61704433
0.98428321 0.82432288 0.64831006
0.01544213 0.46102083 0.00021362631
0.046677348 0.46097505 0.00015259022
0.077912566 0.46492714 0.00012207218
0.10920882 0.46497292 0.0001373312
0.140383 0.46881819 0.00015259022
0.17161822 0.47278553 0.00010681315
0.20288396 0.48058289 0.0001373312
0.23422599 0.48447395 0.000091554131
0.26540017 0.49233234 0.00010681315
0.2966659 0.5001297 0.00012207218
0.32793164 0.50792706 0.0001373312
0.3591516 0.51964599 0.000091554131
0.3903563 0.53136492 0.000045777066
0.42162203 0.53916228 0.000061036088
0.45293355 0.55481804 0.000015259022
0.48413825 0.56653696 0
0.51534295 0.57824063 0.000045777066
0.54665446 0.59389639 0
0.57779812 0.60950637 0.000015259022
0.60917067 0.62125582 0.000045777066
0.64028382 0.64077211 0.015548943
0.6717174 0.65638209 0.18754864
0.70295262 0.67197681 0.26164645
0.7342031 0.68757153 0.31630426
0.76552987 0.70713359 0.36720836
0.79670405 0.72277409 0.41004044
0.82798505 0.7423209 0.45300984
0.85923552 0.75793088 0.4920882
0.89045548 0.77744717 0.52724498
0.9216907 0.79696345 0.56238651
0.95300221 0.81655604 0.59760433
0.98422217 0.83601129 0.62880903
0.015335317 0.48445869 0.0001373312
0.046631571 0.4844892 0.00015259022
0.077973602 0.488365 0.00024414435
0.10910201 0.48838025 0.00019836728
0.14042878 0.49228656 0.00015259022
0.171664 0.49622339 0.00022888533
0.20283818 0.50009918 0.00012207218
0.23410391 0.50789654 0.0001373312
0.26544594 0.51180285 0.00010681315
0.29662013 0.51964599 0.00012207218
