site/assets/luts/colour-blind-luts--tritanope-simulate-lut--911fb5f08.cube
# LUTr-Project: LUTr — LUTrepository
# LUTr-Schema-Version: 1
# LUTr-ID: colour-blind-luts--tritanope-simulate-lut--911fb5f08
# LUTr-Title: tritanope simulate lut
# LUTr-Collection: Colour-Blind LUTs
# LUTr-Collection-ID: andrewwillmott-colour-blind-luts
# LUTr-Source: https://github.com/andrewwillmott/colour-blind-luts
# LUTr-Source-File: submissions/andrewwillmott-colour-blind-luts/luts/tritanope_simulate_lut.png
# LUTr-Source-Format: PNG
# LUTr-Source-SHA256: ca0384991824a7c559f820aa9485696c42ee118ca153e09451e2fedbdbff8bbb
# LUTr-License: Unlicense
# LUTr-License-URL: https://github.com/andrewwillmott/colour-blind-luts/blob/master/LICENSE
# LUTr-Tags: technical, accessibility, color-vision, simulation, correction, png, tritanopia, cube
# LUTr-Transform-Class: accessibility
# LUTr-Input-Color-Space: srgb
# LUTr-Output-Color-Space: srgb
# LUTr-Color-Space-Confidence: assumed-display-referred
# LUTr-Conversion-Method: PNG LUT image decoded at 16-bit and sampled to 32x32x32 3D CUBE
# LUTr-Conversion-Date: 2026-07-27
# LUTr-Conversion-Tool: LUTr scripts/convert-all-to-cube.mjs
# LUTr-Conversion-Grid: 32x32x32
# LUTr-Note: Preserve this metadata and the upstream license notices when redistributing.
TITLE "tritanope simulate lut"
LUT_3D_SIZE 5
DOMAIN_MIN 0.000000 0.000000 0.000000
DOMAIN_MAX 0.903226 0.903226 0.903226
0.01170367 0.01559472 0.015533684
0.23442435 0.011749447 0.015457389
0.44921035 0.015671015 0.015381094
0.67186999 0.011749447 0.015228504
0.89059281 0.015716793 0.015243763
0.089829862 0.21879911 0.21878386
0.24612802 0.21875334 0.21867704
0.45705348 0.21873808 0.21857023
0.67190051 0.21875334 0.21853971
0.89069963 0.21882963 0.21849393
0.17576867 0.42575723 0.4258793
0.28513008 0.42575723 0.42583352
0.47655451 0.42584878 0.42574197
0.68747997 0.42583352 0.4256199
0.89840543 0.42581827 0.42549783
0.26163119 0.62891585 0.62905318
0.33986419 0.62890059 0.62905318
0.50778973 0.62897688 0.62894636
0.70704204 0.62896162 0.62890059
0.91410697 0.62897688 0.62876326
0.3476463 0.83596551 0.8361181
0.40624094 0.83590448 0.8361181
0.55469596 0.83595026 0.83608759
0.738262 0.83595026 0.83591974
0.93740749 0.83598077 0.83588922
0 0.089845121 0.089936675
0.21875334 0.089814603 0.089692531
0.44534981 0.089906157 0.089662013
0.66794842 0.089875639 0.089570459
0.88673228 0.089951934 0.089524681
0.015609979 0.23431754 0.23443961
0.23439384 0.23439384 0.23439384
0.44925612 0.23443961 0.2342565
0.66797894 0.23443961 0.23413443
0.89063859 0.23447013 0.23411917
0.15625238 0.42972457 0.42984665
0.27341115 0.42973983 0.42980087
0.47266346 0.42973983 0.42963302
0.68358892 0.42972457 0.42951095
0.89845121 0.42973983 0.42949569
0.24994278 0.63277638 0.63295949
0.3320058 0.63286793 0.63292897
0.50389868 0.63286793 0.63283742
0.70315099 0.63283742 0.6328069
0.91407645 0.63282216 0.63268482
0.33987945 0.83985657 0.84011597
0.39838254 0.83987182 0.8399939
0.54683757 0.83993286 0.83996338
0.73437095 0.83984131 0.83982605
0.93745327 0.83993286 0.83976501
0 0.17578393 0.17593652
0.16409552 0.17578393 0.1757229
0.42578775 0.17579919 0.17567712
0.65230793 0.17581445 0.17555505
0.87496757 0.17587549 0.17541772
0 0.27344167 0.27356374
0.17965972 0.27345693 0.27348745
0.4296788 0.27348745 0.2733959
0.65629053 0.27345693 0.27328908
0.87895018 0.27351797 0.27315175
0.015640497 0.45308614 0.45331502
0.23050278 0.45311666 0.45317769
0.44917983 0.45316243 0.44917983
0.66800946 0.45319295 0.45300984
0.88673228 0.45319295 0.45290303
0.2030518 0.64841688 0.64861524
0.30074006 0.64843214 0.64852369
0.48436713 0.64849317 0.64855421
0.69143206 0.64850843 0.64840162
0.90621805 0.64844739 0.64831006
0.3085069 0.84766918 0.84789807
0.37489891 0.84765393 0.847776
0.53125811 0.84768444 0.84776074
0.7226215 0.84768444 0.84773022
0.92581064 0.84771496 0.84766918
0 0.26164645 0.26186007
0 0.26164645 0.26186007
0.38278782 0.26176852 0.26161593
0.62887007 0.261738 0.26153964
0.85943389 0.26176852 0.26141756
0.000030518044 0.33199054 0.33224994
0.000030518044 0.33199054 0.33224994
0.39053941 0.33206683 0.3319295
0.63276112 0.33208209 0.33182269
0.86332494 0.33208209 0.33182269
0 0.48439765 0.48462654
0.12504768 0.48439765 0.48458076
0.41409934 0.48441291 0.48444343
0.64841688 0.48445869 0.48433661
0.87110704 0.48439765 0.48413825
0.015640497 0.66796368 0.67225147
0.23430228 0.67188525 0.67206836
0.45311666 0.67183948 0.67196155
0.66797894 0.67188525 0.67180896
0.89059281 0.6679942 0.66779583
0.24214542 0.86330968 0.86352331
0.32809949 0.86324865 0.86344701
0.49990082 0.86329442 0.86335546
0.70308995 0.86332494 0.86330968
0.91401541 0.86330968 0.86318761
0 0.34378576 0.34393835
0 0.34378576 0.34393835
0.30861372 0.34378576 0.34372473
0.59372854 0.34373999 0.34361791
0.83595026 0.34375525 0.3435111
0.000015259022 0.39841306 0.39862669
0.000015259022 0.39841306 0.39862669
0.32036316 0.39845884 0.39851987
0.59758907 0.3984741 0.39827573
0.83981079 0.39848936 0.39818418
0 0.53122759 0.53148699
0 0.53122759 0.53148699
0.34770733 0.53128862 0.53130388
0.60939956 0.53130388 0.53125811
0.84768444 0.53128862 0.53105974
0 0.70308995 0.70342565
0 0.70308995 0.70342565
0.39450675 0.70313573 0.70321202
0.63672847 0.70315099 0.70310521
0.86324865 0.70318151 0.7029984
0.011688411 0.89060807 0.89095903
0.23041123 0.89062333 0.89085222
0.44919509 0.89068437 0.89080644
0.67177844 0.89065385 0.89071489
0.88664073 0.89069963 0.89057755
