site/assets/luts/colour-blind-luts--viridis-lut--1414673a3.cube
# LUTr-Project: LUTr — LUTrepository
# LUTr-Schema-Version: 1
# LUTr-ID: colour-blind-luts--viridis-lut--1414673a3
# LUTr-Title: viridis lut
# LUTr-Collection: Colour-Blind LUTs
# LUTr-Collection-ID: andrewwillmott-colour-blind-luts
# LUTr-Source: https://github.com/andrewwillmott/colour-blind-luts
# LUTr-Source-File: submissions/andrewwillmott-colour-blind-luts/luts/viridis_lut.png
# LUTr-Source-Format: PNG
# LUTr-Source-SHA256: b4882689a70d9d36819a8b59ee010133d24c35a13e5180841f4fde7ff6e02cd0
# LUTr-License: Unlicense
# LUTr-License-URL: https://github.com/andrewwillmott/colour-blind-luts/blob/master/LICENSE
# LUTr-Tags: technical, accessibility, color-vision, simulation, correction, png, cube
# LUTr-Transform-Class: accessibility
# LUTr-Input-Color-Space: srgb
# LUTr-Output-Color-Space: srgb
# LUTr-Color-Space-Confidence: assumed-display-referred
# LUTr-Conversion-Method: PNG LUT image decoded at 16-bit and sampled to 32x32x32 3D CUBE
# LUTr-Conversion-Date: 2026-07-27
# LUTr-Conversion-Tool: LUTr scripts/convert-all-to-cube.mjs
# LUTr-Conversion-Grid: 32x32x32
# LUTr-Conversion-Warning: Source is a 256-sample false-colour ramp; converted as Rec.709 luminance to RGB.
# LUTr-Note: Preserve this metadata and the upstream license notices when redistributing.
TITLE "viridis lut"
LUT_3D_SIZE 32
DOMAIN_MIN 0 0 0
DOMAIN_MAX 1 1 1
0.26573587 0.0038910506 0.32793164
0.26869153 0.013628408 0.33868466
0.27160119 0.023388763 0.34943768
0.27358255 0.033141379 0.36022852
0.27351855 0.042920165 0.3669766
0.27744735 0.05365048 0.37774112
0.27748509 0.064372618 0.38850411
0.27844032 0.07514119 0.39635674
0.28140717 0.08583355 0.40615757
0.28142546 0.092683136 0.41296139
0.2813384 0.10345569 0.4236748
0.28135749 0.11027947 0.43053301
0.28131576 0.12095296 0.43731296
0.28137231 0.12781499 0.44701984
0.28138323 0.13855506 0.45493409
0.28138699 0.14536734 0.46173864
0.28139221 0.15607209 0.46868197
0.27853703 0.162937 0.47540712
0.27745742 0.17370838 0.47834942
0.2774326 0.18055604 0.48520379
0.27361085 0.18734894 0.49196443
0.27359693 0.19811259 0.49501691
0.27169228 0.2049321 0.50178192
0.26962013 0.21570958 0.50474425
0.26581681 0.22250241 0.51149259
0.26569863 0.22937241 0.51447807
0.26182051 0.24007725 0.51745049
0.25790467 0.24695017 0.52039652
0.25792223 0.2537043 0.52341701
0.25395813 0.26337062 0.5273606
0.25009428 0.2712887 0.53124503
0.24619881 0.27812874 0.53206839
0.27363112 0.038105782 0.36273501
0.2760153 0.047885349 0.37199905
0.27745115 0.057611088 0.381688
0.2774986 0.067377299 0.39104929
0.28095652 0.077608819 0.40131143
0.28139731 0.088338915 0.40857794
0.28140298 0.096659903 0.41694482
0.28133439 0.10592903 0.4261205
0.28134778 0.1127471 0.43295206
0.28134382 0.12351518 0.43986693
0.2813707 0.13173733 0.45051895
0.28140322 0.14104634 0.45746352
0.28141613 0.14786412 0.4642937
0.2813822 0.15861548 0.47110365
0.27749649 0.16686233 0.47648532
0.27739903 0.17620515 0.48079928
0.27741317 0.18302367 0.48763256
0.27354602 0.1922388 0.49209508
0.27359849 0.20059281 0.49749604
0.26959977 0.20786993 0.50384438
0.2696007 0.21817721 0.50716331
0.26571463 0.22502614 0.51168799
0.26430161 0.23322852 0.51557398
0.26142891 0.24259184 0.51951188
0.25789495 0.24939836 0.52290301
0.2555115 0.25620875 0.52576228
0.25260126 0.26696844 0.52875222
0.24971506 0.27376095 0.53121541
0.24622796 0.28064494 0.53453602
0.24231627 0.28747719 0.53518569
0.24092485 0.298205 0.53913112
0.2380439 0.30503995 0.53911944
0.27748888 0.072370847 0.39355578
0.28142168 0.082111772 0.4042858
0.2814037 0.09081862 0.41105335
0.28134565 0.10161293 0.42186832
0.28135382 0.1084258 0.42867557
0.28133027 0.11723119 0.43544119
0.28136506 0.125994 0.44337061
0.28136146 0.13669054 0.45302604
0.28138379 0.14351397 0.45988258
0.28140672 0.15234306 0.4668102
0.28038703 0.16108699 0.47354986
0.27751546 0.17184386 0.47653569
0.27742818 0.17870193 0.48334463
0.27546086 0.18549894 0.49010717
0.27357517 0.19624807 0.49311612
0.27357906 0.20306044 0.49992481
0.2696192 0.21286347 0.50388324
0.26766681 0.2206524 0.50963533
0.26571314 0.22752966 0.51267159
0.26182427 0.23817349 0.51563227
0.25892242 0.24509833 0.51953131
0.25790772 0.25186155 0.52344603
0.25393637 0.25964884 0.52732433
0.25012392 0.26944578 0.53122956
0.24721828 0.27625772 0.53123484
0.24432014 0.28315373 0.53513348
0.24232494 0.29086554 0.53613598
0.2383795 0.30066291 0.53910198
0.23553741 0.30754644 0.53913887
0.23257423 0.3143628 0.54296121
0.22966034 0.32114809 0.5430451
0.22661237 0.32797307 0.54678903
0.28133594 0.10408056 0.42428738
0.28135503 0.11090435 0.43114559
0.28132205 0.12164341 0.43795889
0.28137477 0.12843249 0.4482573
0.28139061 0.13918731 0.45558111
0.28139437 0.1459996 0.46238565
0.28138945 0.15677273 0.46929717
0.27790969 0.16356433 0.47603692
0.27743774 0.17434064 0.47896445
0.27742768 0.18118092 0.48581883
0.27352426 0.18851702 0.49206606
0.27360431 0.19874485 0.49566147
0.27105018 0.20556682 0.50241171
0.2696152 0.21633446 0.50535683
0.26570737 0.22313986 0.51162269
0.26569371 0.22999729 0.51509064
0.26182789 0.24071443 0.51807537
0.2579022 0.24757012 0.52103124
0.25741229 0.25433698 0.52391227
0.25396551 0.26463268 0.5273729
0.2500992 0.27191358 0.53123519
0.24620619 0.27876592 0.53269327
0.24230176 0.28564895 0.53515667
0.24231522 0.29585908 0.53864247
0.2383817 0.30316818 0.53911071
0.23447975 0.31003038 0.54055075
0.23053691 0.31685055 0.54298425
0.22716357 0.32365458 0.54306453
0.22419655 0.33047829 0.54688688
0.22133905 0.33878202 0.54694169
0.2183846 0.34807607 0.54693259
0.21488175 0.35489466 0.55024907
0.28136824 0.13299938 0.45115367
0.2813983 0.14167122 0.4580761
0.28142123 0.14861402 0.46493843
0.28137974 0.15924036 0.47171623
0.27750141 0.16812685 0.47649516
0.27740641 0.17683741 0.48144384
0.27731086 0.18364893 0.48824991
0.2735534 0.19350086 0.49210492
0.27359357 0.20121769 0.49811108
0.26960469 0.20913444 0.50385422
0.26951682 0.2188024 0.50777807
0.26571709 0.22566578 0.51171013
0.26367427 0.23448073 0.51558874
0.26079419 0.24322656 0.5195168
0.25789321 0.2500188 0.52347505
0.25486694 0.25684347 0.52638961
0.25197392 0.26759577 0.52937955
0.2490828 0.27439321 0.53122033
0.24619191 0.28128196 0.53511897
0.24232119 0.28809715 0.53519553
0.24028029 0.29882741 0.53912374
0.23740918 0.30567467 0.53912436
0.234446 0.31249829 0.5429467
0.23055634 0.31929875 0.54302311
0.22662688 0.32613032 0.54498256
0.22271714 0.33298478 0.54690246
0.21879916 0.3437605 0.54699008
0.21588782 0.35057285 0.54695202
0.2129132 0.35739275 0.55078962
0.21001105 0.36418594 0.55085825
0.20708008 0.37100986 0.55082038
0.20315862 0.37792464 0.55085069
0.2797597 0.16171433 0.47417966
0.27749578 0.17247612 0.47715072
0.27743556 0.17933419 0.48398919
0.27483352 0.18612627 0.49073697
0.27358255 0.19688033 0.49376068
0.27294371 0.20369505 0.50055445
0.26962412 0.21412799 0.50389308
0.26703948 0.22127974 0.51026513
0.26570822 0.22815454 0.51328417
0.26180612 0.2388354 0.51623262
0.2582877 0.24573305 0.51953623
0.25791264 0.25248643 0.52343619
0.25394375 0.2609109 0.52733663
0.25008469 0.27007083 0.53126421
0.24658602 0.27688998 0.53123976
0.24368542 0.28378845 0.5351384
0.24232248 0.29213005 0.5367707
0.23833091 0.30129641 0.53910346
0.23490269 0.30818116 0.53914379
0.23193951 0.31499506 0.54296613
0.22902808 0.32178281 0.54305002
0.22606107 0.32860652 0.54687237
0.22278515 0.33549127 0.54691217
0.21881859 0.34622813 0.54695121
0.21489626 0.35305191 0.54843533
0.21094693 0.35988682 0.55081112
0.20750456 0.36669243 0.55087768
0.20459682 0.37350648 0.5508395
0.20167199 0.38040003 0.55083903
0.19875834 0.38724914 0.55133139
0.19532282 0.39405383 0.55478017
0.19144711 0.4008777 0.55476442
0.27353164 0.18977908 0.4920759
0.27360808 0.19937493 0.49629735
0.27040808 0.20620154 0.50304151
0.26961028 0.21695933 0.50596941
0.26570983 0.2237795 0.51164483
0.26552428 0.23078798 0.51554522
0.26183527 0.24135161 0.51870024
0.25789974 0.24819008 0.52166595
0.25676774 0.2549717 0.52453961
0.25382393 0.26574577 0.52752955
0.25010412 0.27253846 0.53122535
0.24621357 0.2794031 0.53331815
0.24230668 0.28626891 0.53516651
0.24218108 0.29699192 0.53914551
0.23839892 0.30380289 0.53911317
0.23447729 0.31065525 0.54116333
0.23054183 0.31747051 0.54299409
0.22664139 0.32428757 0.54317608
0.2235643 0.33111301 0.5468918
0.22069449 0.34004407 0.54695399
0.21775234 0.34870833 0.54693751
0.21478497 0.35552098 0.55077511
0.21097607 0.36233502 0.55084027
0.20706557 0.36916711 0.5508494
0.20315862 0.37602385 0.55085069
0.19926757 0.38283195 0.55082017
0.196281 0.38972648 0.55381845
0.19333783 0.39653117 0.5547954
0.19143252 0.40335425 0.55475793
0.18751727 0.41018634 0.55471208
0.18453565 0.41699103 0.55479554
0.18164394 0.42384825 0.55477936
0.26888948 0.21942974 0.50840786
0.26571955 0.22630542 0.51173227
0.26304694 0.23573295 0.51560351
0.26015947 0.24386128 0.51952172
0.25789813 0.25064368 0.52346521
0.25422239 0.25747819 0.52701695
0.25134658 0.26822311 0.53000689
0.24845054 0.27502547 0.53122525
0.24555719 0.28191667 0.53512389
0.24232611 0.28871711 0.53520537
0.23963573 0.29944983 0.53911636
0.23677446 0.30630938 0.53912928
0.23381128 0.31313054 0.54295162
0.23056126 0.31991871 0.54303295
0.22662196 0.3267552 0.54559513
0.22273436 0.3336195 0.54690492
0.21880408 0.34438537 0.54698023
0.21525557 0.3512051 0.54695694
0.21227848 0.35802747 0.55079454
0.20937633 0.36482066 0.55086317
0.20646134 0.37164197 0.55082499
0.20315862 0.3785692 0.55085069
0.19926757 0.38536758 0.55082017
0.19535184 0.39220382 0.55475115
0.19147613 0.39901319 0.55479344
0.19145195 0.40580245 0.55479679
0.18747841 0.41266368 0.55475094
0.18363316 0.41950495 0.55480278
0.17973602 0.42630417 0.55475926
0.17968127 0.43319984 0.55481332
0.17580555 0.44000899 0.55480913
0.17193544 0.44294267 0.55485498
0.257907 0.24636184 0.51979418
0.25791756 0.25311131 0.52342635
0.25395113 0.26217295 0.52734893
0.25008961 0.27069571 0.53125437
0.24619181 0.27752407 0.53147539
0.2430507 0.28442316 0.53514332
0.24232002 0.29339457 0.53740542
0.23834813 0.30193112 0.53910592
0.23448455 0.3088125 0.53935685
0.23130479 0.31562732 0.54297105
0.22839583 0.32241752 0.54305494
0.22542881 0.32924124 0.54687729
0.22259528 0.3363223 0.54691771
0.21882351 0.346853 0.54694137
0.21489134 0.35367679 0.54905037
0.21095431 0.36050677 0.5508185
0.20705106 0.36732436 0.55087842
0.20396456 0.37413874 0.55084442
0.20104465 0.38101507 0.55083411
0.198131 0.38787647 0.55196119
0.19515882 0.39468117 0.55478814
0.19143726 0.40150996 0.55475458
0.1893349 0.40830817 0.55475347
0.18635663 0.41514103 0.55478103
0.1835012 0.42203452 0.55480112
0.17973602 0.42884952 0.55476898
0.17763074 0.43566904 0.55483432
0.17469315 0.44140204 0.55481339
0.171952 0.44541174 0.55481612
0.16882152 0.4522698 0.55478081
0.16591219 0.45905964 0.55484944
0.16409976 0.46589607 0.55480278
0.25010904 0.27316334 0.53121551
0.24622095 0.28004028 0.53394302
0.2423116 0.28688887 0.53517635
0.24153652 0.29761434 0.53913813
0.23841614 0.30443761 0.53911563
0.23447483 0.31128013 0.5417759
0.23054675 0.31809047 0.54300393
0.22663647 0.32491245 0.54378866
0.22293204 0.33174773 0.54689672
0.22004993 0.34130613 0.54696629
0.21712008 0.34934059 0.54694243
0.21415025 0.35615569 0.55078003
0.21098345 0.36295497 0.55084765
0.20707049 0.36979199 0.55083956
0.20315862 0.37666841 0.55085069
0.19926757 0.38347405 0.55082017
0.19565366 0.39035382 0.55444825
0.19272034 0.39715851 0.55479786
0.19143744 0.40397421 0.55476777
0.18750743 0.41081368 0.55472192
0.18391815 0.41761837 0.55480046
0.18101414 0.42446329 0.55477198
0.17971029 0.43134983 0.55479156
0.17583457 0.43814447 0.55483815
0.17223523 0.44141175 0.55487168
0.17191314 0.44790851 0.55477726
0.16796878 0.45473477 0.5548066
0.16407006 0.46155602 0.5548537
0.16410948 0.46843171 0.55480278
0.16017364 0.47523396 0.55485322
0.15856522 0.48207316 0.55484587
0.15562152 0.48890676 0.55480523
0.23899117 0.30007225 0.53910898
0.23613975 0.3069441 0.5391342
0.23317657 0.3137628 0.54295654
0.23026034 0.32054575 0.54304043
0.22661704 0.32738007 0.54620771
0.22275158 0.33425422 0.54690738
0.218809 0.34501025 0.54697039
0.21490585 0.35183404 0.54723664
0.21164376 0.35866218 0.55079946
0.20874162 0.36545538 0.55086809
0.20582908 0.37227422 0.55082991
0.20289465 0.37920134 0.55084862
0.19926757 0.38600968 0.55082017
0.195342 0.39283116 0.55476099
0.19146628 0.39964545 0.5547836
0.19120667 0.40642914 0.554797
0.18746857 0.41329102 0.55476078
0.18363562 0.42014705 0.55480278
0.17973602 0.42694873 0.55476172
0.17945173 0.43382629 0.55481982
0.17579571 0.44064124 0.55479929
0.17194036 0.44356755 0.55484514
0.17069329 0.45040529 0.5547663
0.1677767 0.45718787 0.55483493
0.16408949 0.46402365 0.55481484
0.16190744 0.47090006 0.55478596
0.16018616 0.47773073 0.55487602
0.15631045 0.48454302 0.55486084
0.15312474 0.49141325 0.55481495
0.15232799 0.49819811 0.55484572
0.14844776 0.5050104 0.55483054
0.14822157 0.50794757 0.55478886
0.22776357 0.32305224 0.54305986
0.22479655 0.32987595 0.54688221
0.22195072 0.33758435 0.54693001
0.21882843 0.34747788 0.54693153
0.21488642 0.35430167 0.54966541
0.21096169 0.36112673 0.55082588
0.20705598 0.36794924 0.55086858
0.20333231 0.374771 0.55084934
0.20041731 0.38163011 0.55082919
0.19750367 0.38850381 0.55259099
0.19454132 0.39530851 0.5547906
0.19142742 0.40214222 0.55474474
0.18870018 0.40894534 0.55473871
0.18573914 0.41576837 0.55478595
0.1828714 0.42264956 0.55479374
0.17973602 0.42949408 0.55477144
0.17701325 0.43629392 0.55483925
0.17407073 0.4414045 0.55482815
0.17194216 0.446044 0.55480628
0.1681868 0.45290206 0.55478573
0.16527993 0.45969436 0.55485436
0.16410222 0.46653817 0.55480278
0.16013011 0.47336944 0.55479519
0.1601473 0.4802275 0.55483716
0.15627158 0.48703979 0.55482198
0.15234407 0.49387999 0.55484454
0.15159928 0.50068651 0.55482362
0.14839919 0.50750717 0.55479168
0.14572479 0.51045405 0.55480829
0.14455302 0.51731044 0.5549139
0.14067458 0.52412928 0.55489599
0.13697634 0.53098734 0.55486159
0.21648782 0.34997285 0.54694735
0.21351553 0.35679041 0.55078495
0.21061339 0.36358361 0.55085358
0.20707541 0.37041687 0.55082972
0.20315862 0.37731297 0.55085069
0.19926757 0.38411614 0.55082017
0.19537102 0.39098116 0.55473198
0.19210284 0.39778585 0.55480032
0.19144236 0.40459416 0.55477761
0.18749759 0.41144102 0.55473176
0.18362837 0.41825351 0.55480278
0.18038434 0.42507833 0.5547646
0.17970044 0.43197717 0.55479894
0.17582473 0.43877673 0.55482831
0.17192585 0.4417248 0.55487416
0.1719033 0.44854077 0.55476742
0.1679737 0.45535473 0.55481398
0.16407498 0.4621809 0.55484386
0.16380823 0.46906457 0.55480047
0.1601884 0.47586621 0.55487291
0.15794772 0.48269804 0.55485079
0.15498926 0.48954148 0.55480769
0.15235701 0.49633359 0.55487474
0.1491608 0.50315414 0.55484305
0.14839399 0.50777447 0.55478752
0.14450631 0.5129557 0.55485677
0.14426492 0.51979649 0.55488109
0.14062601 0.52662605 0.55484741
0.13670752 0.53345831 0.5548294
0.13549039 0.54027066 0.55099756
0.1328251 0.54707817 0.55095282
0.12957639 0.5539486 0.55090593
0.20519682 0.37290648 0.55083483
0.20226732 0.37981637 0.5508437
0.19926757 0.38665178 0.55082017
0.19533216 0.3934585 0.55477084
0.19145644 0.4002777 0.55477376
0.19057196 0.40706632 0.55478224
0.18745873 0.41391836 0.55477062
0.18363809 0.42078915 0.55480278
0.17973602 0.42759329 0.55476418
0.17883423 0.43445116 0.55482474
0.17578587 0.4412735 0.55478945
0.17194529 0.44419243 0.5548353
0.17005857 0.45103754 0.55477122
0.16714445 0.45782259 0.55483985
0.16409441 0.46464853 0.554805
0.16126288 0.47152248 0.55478104
0.16017632 0.47836299 0.55486618
0.1563006 0.48517528 0.554851
0.15249249 0.49204797 0.55481741
0.15231815 0.49883037 0.55483588
0.14843546 0.50564266 0.5548207
0.14758931 0.50858228 0.55479378
0.14457432 0.51545248 0.55493449
0.14182644 0.52227383 0.55490052
0.13884086 0.52912283 0.55484708
0.13672084 0.535929 0.55403823
0.1329839 0.54277715 0.55101699
0.13277653 0.54957495 0.55090425
0.12884556 0.55641418 0.550939
0.12887471 0.56330335 0.55020254
0.12524518 0.57012032 0.54706476
0.12499011 0.57303396 0.54710877
0.19392383 0.39593584 0.55479306
0.19142785 0.40276592 0.55474859
0.18806547 0.40958252 0.55472395
0.18512164 0.4163957 0.55479087
0.1822416 0.42326459 0.55478636
0.17972946 0.43012716 0.55477717
0.17639575 0.43691879 0.55484417
0.17344831 0.44140696 0.55484291
0.17193232 0.44667625 0.55479644
0.16795919 0.45352649 0.55479222
0.16464767 0.46032908 0.55485928
0.16410468 0.46718027 0.55480278
0.16014487 0.4740017 0.55481487
0.15976871 0.48085528 0.55483628
0.15626174 0.48767205 0.55481214
0.15234899 0.49449994 0.55485438
0.15098178 0.50131138 0.55482854
0.14839399 0.50777447 0.55478752
0.14509253 0.51108877 0.55481321
0.14454318 0.51794024 0.55490406
0.14066228 0.52476154 0.55488369
0.13669301 0.53161556 0.55485842
0.13672084 0.53840634 0.55160946
0.13281083 0.54523893 0.55098278
0.1314409 0.55207683 0.55089142
0.12886371 0.55887512 0.55097276
0.128865 0.56579041 0.54769605
0.12503243 0.57033646 0.54706645
0.12367752 0.57552641 0.54713756
0.12105222 0.58237584 0.54321637
0.12102983 0.58916647 0.54319803
0.12104982 0.5959647 0.54087587
0.18363083 0.41889561 0.55480278
0.17975454 0.42569336 0.55475722
0.1796906 0.43260451 0.55480632
0.17581489 0.43940899 0.55481847
0.17193078 0.44234968 0.55486432
0.17189346 0.44917303 0.55475758
0.16797862 0.45597469 0.55482136
0.1640799 0.46280578 0.55483402
0.16316367 0.46968698 0.55479555
0.16020316 0.47649847 0.55489259
0.15733023 0.48332291 0.55485571
0.154357 0.4901762 0.55481015
0.15234717 0.49696585 0.5548649
0.1485433 0.50377901 0.55484797
0.14839399 0.50777447 0.55478752
0.14452353 0.51358796 0.55487645
0.14364742 0.52042383 0.55488601
0.14061371 0.52725831 0.55483511
0.13671244 0.53408319 0.55481956
0.13485567 0.54090537 0.55100248
0.1328128 0.54771043 0.55094052
0.12894413 0.55458332 0.55091085
0.12887343 0.56142047 0.55097276
0.12706616 0.56827031 0.54705025
0.12501913 0.57118396 0.54707975
0.12118075 0.5780329 0.54715699
0.12107165 0.58484347 0.54317751
0.12103347 0.59163673 0.54317759
0.12104982 0.59846477 0.53923406
0.1172779 0.60537353 0.53935948
0.11714552 0.61218439 0.53538044
0.12095827 0.61898343 0.53351647
0.17528381 0.4413997 0.55479938
0.17195021 0.44481731 0.55482546
0.16942386 0.4516698 0.55477614
0.16651219 0.45845731 0.55484477
0.16409743 0.46528673 0.55480278
0.16061832 0.4721449 0.55477612
0.16016648 0.47899525 0.55485634
0.15629076 0.48580753 0.55484116
0.15233448 0.4926717 0.55482536
0.15230831 0.49946263 0.55482604
0.14842316 0.50627491 0.55481086
0.14695705 0.509217 0.5547987
0.1445722 0.51608298 0.55493308
0.14120894 0.52290117 0.55490544
0.1382086 0.52975509 0.554852
0.13672084 0.53655634 0.55342319
0.13278906 0.54340344 0.5510118
0.13276423 0.55020721 0.55089195
0.12885048 0.55703414 0.55094884
0.12887225 0.56393315 0.54956782
0.12503243 0.57033646 0.54706645
0.12498027 0.5736613 0.54711861
0.12104982 0.58052098 0.54478296
0.12105885 0.58731647 0.54317626
0.12104982 0.59410744 0.54274765
0.12104982 0.60099068 0.53931178
0.11711912 0.60786176 0.53700439
0.11847842 0.61465202 0.53535218
0.12096707 0.6214802 0.53139338
0.12099825 0.62833827 0.53146594
0.12101358 0.63125951 0.52753538
0.12488591 0.63807179 0.52364512
0.16406539 0.46096303 0.55486304
0.16410714 0.46782237 0.55480278
0.16015963 0.47463396 0.55483455
0.15915121 0.48148016 0.5548412
0.15622152 0.48830443 0.5548029
0.15235391 0.4951199 0.55486422
0.15036429 0.50193626 0.55483346
0.14839399 0.50777447 0.55478752
0.14447275 0.51172344 0.55481841
0.14453334 0.51857003 0.55489422
0.14064998 0.5253938 0.55487139
0.13669793 0.53224044 0.55484858
0.13672084 0.53903368 0.55099442
0.13281821 0.54586135 0.55097294
0.13080865 0.55271155 0.55089634
0.12886617 0.55951968 0.55097276
0.12886254 0.56642021 0.54706133
0.12503243 0.57033646 0.54706645
0.12304527 0.57616113 0.54714248
0.12105714 0.58300071 0.54320653
0.12101999 0.58979381 0.54320541
0.12104982 0.5965945 0.54024116
0.11914242 0.60350176 0.53934497
0.11712376 0.61034164 0.53540946
0.12089747 0.61711965 0.53533275
0.12102536 0.62397698 0.53148082
0.12101818 0.62893902 0.52958984
0.12187833 0.63374573 0.5266043
0.12495391 0.64056857 0.52373256
0.12877223 0.64738915 0.5197362
0.13272297 0.65421638 0.51791407
0.1375378 0.66107632 0.51200615
0.15671273 0.48394779 0.55486063
0.15372474 0.49081092 0.55481261
0.15233732 0.49759811 0.55485506
0.14845944 0.5044104 0.55483988
0.14839399 0.50777447 0.55478752
0.14454076 0.51422022 0.55489613
0.14302993 0.52105116 0.55489093
0.14007311 0.52789057 0.55483749
0.13671736 0.53470807 0.55480972
0.13422095 0.54154009 0.5510074
0.1328005 0.54834269 0.55092822
0.12883597 0.5552059 0.55091982
0.12887589 0.56206503 0.55097276
0.12644867 0.56889765 0.54705517
0.12500929 0.5718113 0.54708959
0.12104982 0.57866372 0.54665473
0.12107657 0.58546834 0.54316767
0.12103839 0.59226161 0.54316775
0.12104982 0.5991044 0.53925374
0.11712637 0.60600449 0.53887616
0.1171529 0.61280927 0.5353706
0.12095827 0.61961569 0.53287929
0.12102727 0.62647375 0.53149496
0.1210426 0.62939499 0.52757166
0.12433624 0.63621336 0.52411724
0.12733384 0.64305594 0.52124492
0.13020256 0.64987206 0.5197695
0.13316987 0.65670864 0.51541173
0.14001514 0.66351481 0.51197701
0.14445038 0.67040265 0.50805592
0.14970418 0.67581353 0.50415259
0.15660419 0.68011071 0.49981837
0.14841086 0.50690717 0.55480102
0.14632479 0.50985172 0.55480362
0.14456236 0.51671277 0.55492323
0.14068625 0.52352928 0.55490766
0.13757634 0.53038734 0.55485692
0.13672084 0.53718367 0.55280815
0.13279645 0.54402585 0.55100196
0.13267316 0.55083978 0.55088183
0.1288554 0.5576541 0.55095868
0.12886979 0.56456295 0.5489331
0.12503243 0.57033646 0.54706645
0.12490978 0.57428936 0.54712797
0.12104982 0.58115078 0.54414824
0.12104901 0.5879438 0.54318364
0.12104982 0.59473724 0.54211293
0.12100694 0.60162999 0.53933046
0.11711666 0.60849155 0.53636967
0.119091 0.61527689 0.53534726
0.12098183 0.62211246 0.53141552
0.12098916 0.62894627 0.53143259
0.12100374 0.63189176 0.52752308
0.12490313 0.63870405 0.52366726
0.12880125 0.64553915 0.51970718
0.13272297 0.65235912 0.5197931
0.13567636 0.65922484 0.51297324
0.14251533 0.66602943 0.50999861
0.14538331 0.67287622 0.50710786
0.15221067 0.67585239 0.50414288
0.15911068 0.6826172 0.49737017
0.16776607 0.68945617 0.49441504
0.17667639 0.69628773 0.4875996
0.18344285 0.70316451 0.48458051
0.14063768 0.52602605 0.55485909
0.13670285 0.53286532 0.55483874
0.13609272 0.53966832 0.55099289
0.13282559 0.54648377 0.5509631
0.13017639 0.55334627 0.55090126
0.12886863 0.56016424 0.55097276
0.12826965 0.56704765 0.54704066
0.12503243 0.57033646 0.54706645
0.12241301 0.57679585 0.5471474
0.12106206 0.58362559 0.54319669
0.12102388 0.59041886 0.54319677
0.12104982 0.5972243 0.53960644
0.11851016 0.60413648 0.53934989
0.11713114 0.61096651 0.53539962
0.12095827 0.61775117 0.53475832
0.12104012 0.62460924 0.53150296
0.12102802 0.62893656 0.52896496
0.12250074 0.63437061 0.5259745
0.12549835 0.64119868 0.52316747
0.12876239 0.64801649 0.51974604
0.13272297 0.65484618 0.51727689
0.13816513 0.66169382 0.51199877
0.1444794 0.66855265 0.5080269
0.14784122 0.67534385 0.50461109
0.15472682 0.67827811 0.501669
0.16156469 0.6851062 0.49637958
0.1722371 0.69195667 0.49192054
0.1791343 0.69877479 0.48503482
0.18837525 0.70565194 0.48219271
0.19809752 0.71101514 0.47528096
0.20788055 0.71535121 0.47235002
0.21813891 0.72224931 0.46554538
0.1327882 0.54897495 0.55091592
0.12884089 0.55582585 0.55092966
0.12887705 0.56270569 0.55080488
0.12583117 0.56952499 0.54706009
0.12499945 0.57243863 0.54709943
0.12104982 0.57929352 0.54602001
0.12107803 0.5860938 0.54316188
0.12104331 0.59288649 0.5431579
0.12104982 0.59974404 0.53927342
0.11712391 0.60663429 0.53824144
0.11728452 0.61343414 0.53536177
0.12095827 0.62024795 0.53224212
0.12101743 0.62710601 0.53148512
0.12103276 0.63002725 0.52755936
0.12485234 0.63683953 0.52360197
0.12795626 0.64368574 0.52059298
0.13084219 0.65050186 0.51977688
0.13380458 0.65734582 0.51479423
0.14064356 0.6641359 0.51187764
0.14444054 0.67102999 0.50806576
