site/assets/luts/colour-blind-luts--tritanope-simulate-lut--911fb5f08.cube
# LUTr-Project: LUTr — LUTrepository
# LUTr-Schema-Version: 1
# LUTr-ID: colour-blind-luts--tritanope-simulate-lut--911fb5f08
# LUTr-Title: tritanope simulate lut
# LUTr-Collection: Colour-Blind LUTs
# LUTr-Collection-ID: andrewwillmott-colour-blind-luts
# LUTr-Source: https://github.com/andrewwillmott/colour-blind-luts
# LUTr-Source-File: submissions/andrewwillmott-colour-blind-luts/luts/tritanope_simulate_lut.png
# LUTr-Source-Format: PNG
# LUTr-Source-SHA256: ca0384991824a7c559f820aa9485696c42ee118ca153e09451e2fedbdbff8bbb
# LUTr-License: Unlicense
# LUTr-License-URL: https://github.com/andrewwillmott/colour-blind-luts/blob/master/LICENSE
# LUTr-Tags: technical, accessibility, color-vision, simulation, correction, png, tritanopia, cube
# LUTr-Transform-Class: accessibility
# LUTr-Input-Color-Space: srgb
# LUTr-Output-Color-Space: srgb
# LUTr-Color-Space-Confidence: assumed-display-referred
# LUTr-Conversion-Method: PNG LUT image decoded at 16-bit and sampled to 32x32x32 3D CUBE
# LUTr-Conversion-Date: 2026-07-27
# LUTr-Conversion-Tool: LUTr scripts/convert-all-to-cube.mjs
# LUTr-Conversion-Grid: 32x32x32
# LUTr-Note: Preserve this metadata and the upstream license notices when redistributing.
TITLE "tritanope simulate lut"
LUT_3D_SIZE 32
DOMAIN_MIN 0 0 0
DOMAIN_MAX 1 1 1
0.01170367 0.01559472 0.015533684
0.042999924 0.015640497 0.015564202
0.078126192 0.015671015 0.011734188
0.1055314 0.015625238 0.015533684
0.14059663 0.015671015 0.01559472
0.16795605 0.015671015 0.015518425
0.19919127 0.015640497 0.015472648
0.23442435 0.011749447 0.015457389
0.26564431 0.01170367 0.015411612
0.29691005 0.011779965 0.011566339
0.32425422 0.015640497 0.015426871
0.35555047 0.015671015 0.01544213
0.38667887 0.015686275 0.015396353
0.42185092 0.015671015 0.015457389
0.44921035 0.015671015 0.015381094
0.48044556 0.015640497 0.015335317
0.51174182 0.015671015 0.015350576
0.54297704 0.015640497 0.015304799
0.57427329 0.015671015 0.015335317
0.60550851 0.015625238 0.01528954
0.63671321 0.015716793 0.015304799
0.67186999 0.011749447 0.015228504
0.70316625 0.015671015 0.011444266
0.73046464 0.015671015 0.015243763
0.76176089 0.015701534 0.015259022
0.79299611 0.015671015 0.015213245
0.82418555 0.011764706 0.015228504
0.85552758 0.015671015 0.015197986
0.89059281 0.015716793 0.015243763
0.91795224 0.015716793 0.015167468
0.94924849 0.015671015 0.011245899
0.98048371 0.015716793 0.015152209
0.01950103 0.042984665 0.042984665
0.046860456 0.042984665 0.04290837
0.078095674 0.042954147 0.042862593
0.10939193 0.042984665 0.042877852
0.14062715 0.042938888 0.042832074
0.1719234 0.042984665 0.042862593
0.2030518 0.042984665 0.042816815
0.23436332 0.043030442 0.042832074
0.26558328 0.042984665 0.042786297
0.29687953 0.043015183 0.042816815
0.32811475 0.042984665 0.042771038
0.359411 0.043015183 0.042786297
0.39064622 0.042984665 0.04274052
0.42194247 0.043015183 0.042771038
0.45307088 0.043030442 0.042725261
0.48438239 0.04306096 0.04274052
0.51560235 0.043015183 0.042694743
0.54691386 0.04306096 0.042725261
0.57813382 0.043015183 0.042679484
0.60936904 0.042984665 0.042633707
0.64066529 0.043015183 0.042648966
0.67190051 0.042984665 0.042603189
0.70310521 0.04306096 0.042633707
0.73432517 0.043030442 0.04258793
0.76563668 0.04306096 0.042603189
0.79685664 0.043015183 0.042557412
0.82816815 0.04306096 0.04258793
0.85938811 0.043015183 0.042542153
0.89068437 0.043045701 0.042557412
0.92191958 0.043015183 0.042511635
0.95312428 0.043091478 0.042542153
0.9843595 0.04306096 0.042496376
0.031265736 0.070313573 0.070328832
0.050720989 0.070328832 0.070252537
0.082032502 0.070374609 0.070267796
0.10939193 0.070344091 0.070313573
0.14062715 0.070313573 0.070267796
0.1719234 0.070344091 0.070298314
0.20315862 0.070298314 0.070252537
0.23445487 0.070344091 0.070267796
0.26558328 0.070344091 0.070222019
0.29681849 0.070313573 0.070176242
0.32811475 0.070344091 0.07020676
0.35934997 0.070313573 0.070160983
0.39064622 0.070344091 0.070176242
0.42186618 0.070298314 0.070130465
0.45317769 0.070344091 0.070160983
0.48439765 0.070298314 0.070115206
0.51560235 0.070389868 0.070130465
0.54683757 0.070344091 0.070084688
0.57813382 0.070374609 0.070115206
0.60936904 0.070344091 0.070069429
0.64066529 0.070374609 0.070099947
0.67190051 0.070344091 0.070038911
0.70319677 0.070374609 0.070069429
0.73443198 0.070344091 0.070023651
0.76562142 0.070420386 0.07005417
0.79685664 0.070389868 0.069993133
0.82809186 0.070344091 0.069947356
0.85938811 0.070374609 0.069977874
0.89062333 0.070344091 0.069932097
0.92191958 0.070374609 0.069947356
0.9531548 0.070344091 0.069901579
0.98445106 0.070374609 0.069932097
0.042969406 0.10162509 0.10156405
0.058594644 0.10154879 0.10150301
0.08595407 0.10151827 0.10154879
0.11322194 0.10156405 0.1014725
0.14453346 0.10160983 0.10150301
0.17189288 0.10157931 0.10154879
0.2031281 0.10154879 0.10150301
0.23442435 0.10157931 0.10151827
0.26565957 0.10153353 0.1014725
0.29684901 0.10162509 0.10150301
0.32808423 0.10157931 0.10145724
0.35938048 0.10162509 0.1014725
0.3906157 0.10157931 0.10142672
0.42191196 0.10160983 0.10145724
0.45314717 0.10157931 0.10141146
0.48444343 0.10160983 0.10142672
0.51567864 0.10157931 0.10138094
0.54680705 0.10157931 0.10133516
0.5781033 0.10162509 0.10136568
0.60933852 0.10157931 0.10131991
0.64063478 0.10160983 0.10133516
0.67186999 0.10157931 0.10128939
0.70316625 0.10160983 0.10131991
0.73440146 0.10157931 0.10127413
0.76569772 0.10160983 0.10128939
0.79682612 0.10162509 0.10124361
0.82813764 0.1016556 0.10127413
0.8593576 0.10162509 0.10122835
0.89065385 0.1016556 0.10124361
0.92188907 0.10160983 0.10119783
0.95318532 0.1016556 0.10122835
0.98442054 0.10160983 0.10118257
0.054734112 0.12893874 0.12890822
0.066392004 0.12892348 0.12895399
0.089829862 0.1288777 0.12889296
0.11718929 0.1288777 0.12881666
0.14839399 0.12895399 0.12884718
0.17575341 0.12892348 0.12889296
0.20698863 0.12889296 0.12884718
0.23828489 0.12892348 0.12886244
0.26564431 0.12892348 0.12878614
0.29687953 0.12889296 0.12874037
0.32817578 0.12892348 0.12877089
0.35931945 0.12893874 0.12872511
0.3906157 0.12896925 0.12874037
0.42183566 0.12892348 0.12869459
0.45314717 0.12896925 0.12872511
0.48436713 0.12892348 0.12867933
0.51567864 0.12895399 0.12869459
0.5468986 0.12892348 0.12864881
0.57821012 0.12895399 0.12867933
0.60933852 0.12896925 0.12863355
0.64063478 0.12899977 0.12864881
0.67186999 0.12896925 0.12860304
0.70316625 0.12899977 0.12863355
0.73440146 0.12896925 0.12858778
0.76562142 0.12892348 0.128542
0.79691768 0.12895399 0.12855726
0.8281529 0.12892348 0.12851148
0.8593576 0.12899977 0.128542
0.89059281 0.12896925 0.12849622
0.92188907 0.12899977 0.12851148
0.95312428 0.12896925 0.12846571
0.98442054 0.12899977 0.12849622
0.066361486 0.16017395 0.16018921
0.078126192 0.16012818 0.16011292
0.097672999 0.16020447 0.16021973
0.12503243 0.16020447 0.16014343
0.15239185 0.16017395 0.16018921
0.17965972 0.16021973 0.16011292
0.21089494 0.16018921 0.16006714
0.23825437 0.16015869 0.16011292
0.26955062 0.16020447 0.16014343
0.30078584 0.16015869 0.16009766
0.33208209 0.16018921 0.16011292
0.36331731 0.16015869 0.16006714
0.39058518 0.16020447 0.15999084
0.42188144 0.16023499 0.16002136
0.45311666 0.16020447 0.15997559
0.48433661 0.16015869 0.15992981
0.51564813 0.16020447 0.15994507
0.54686809 0.16015869 0.15989929
0.5781796 0.16018921 0.15992981
0.609308 0.16020447 0.15988403
0.64060426 0.16023499 0.15989929
0.67183948 0.16020447 0.15985351
0.70313573 0.16023499 0.15988403
0.73437095 0.16020447 0.15983825
0.7656672 0.16023499 0.15985351
0.79690242 0.16020447 0.15980774
0.82819867 0.16023499 0.15983825
0.85932708 0.16025025 0.15979248
0.89062333 0.16028077 0.15980774
0.92185855 0.16023499 0.15976196
0.95309377 0.16020447 0.15971618
0.98439002 0.16023499 0.1597467
0.078126192 0.1874876 0.18754864
0.089799344 0.18750286 0.18745708
0.10548562 0.1874876 0.18747234
0.12889296 0.18754864 0.1874876
0.15625238 0.18751812 0.18753338
0.18362707 0.18751812 0.18745708
0.2109865 0.18750286 0.18750286
0.2421149 0.18751812 0.18745708
0.27342641 0.18754864 0.1874876
0.30078584 0.18754864 0.18741131
0.33202106 0.18750286 0.18736553
0.36331731 0.18754864 0.18738079
0.39453727 0.18750286 0.18733501
0.42584878 0.18753338 0.18736553
0.45697719 0.18754864 0.18731975
0.48827344 0.18757916 0.18733501
0.51564813 0.1875639 0.18738079
0.54686809 0.18751812 0.18733501
0.5781796 0.1875639 0.18736553
0.60939956 0.18751812 0.18731975
0.64069581 0.18754864 0.18733501
0.67183948 0.1875639 0.18728923
0.70305943 0.18753338 0.18724346
0.73437095 0.1875639 0.18727398
0.76559091 0.18753338 0.1872282
0.79688716 0.1875639 0.18724346
0.82812238 0.18751812 0.18719768
0.85941863 0.1875639 0.1872282
0.89065385 0.18751812 0.18718242
0.92185855 0.18760967 0.18719768
0.95309377 0.1875639 0.1871519
0.98439002 0.18759442 0.18718242
0.089829862 0.21879911 0.21878386
0.09765774 0.21870756 0.21870756
0.11326772 0.21875334 0.21872282
0.13676661 0.21875334 0.21873808
0.16009766 0.21875334 0.2186923
0.18745708 0.21872282 0.21873808
0.21483177 0.21872282 0.21866178
0.24612802 0.21875334 0.21867704
0.2733959 0.21878386 0.21873808
0.30461585 0.21875334 0.21867704
0.33592737 0.21878386 0.21870756
0.36714733 0.21873808 0.21866178
0.39452201 0.21873808 0.21858549
0.42581827 0.21878386 0.21861601
0.45705348 0.21873808 0.21857023
0.48824292 0.21882963 0.21858549
0.51947814 0.21878386 0.21853971
0.5507744 0.21881437 0.21857023
0.58200961 0.21878386 0.21852445
0.61330587 0.21881437 0.21853971
0.64454108 0.21878386 0.21849393
0.67190051 0.21875334 0.21853971
0.70310521 0.21884489 0.21857023
0.73434043 0.21879911 0.21852445
0.76563668 0.21882963 0.21853971
0.7968719 0.21879911 0.21849393
0.82816815 0.21882963 0.21852445
0.85940337 0.21879911 0.21847868
0.89069963 0.21882963 0.21849393
0.92191958 0.21878386 0.21844816
0.95306325 0.21879911 0.21840238
0.9843595 0.21882963 0.2184329
0.10159457 0.24612802 0.24612802
0.10933089 0.24608225 0.24606699
0.12492561 0.24611276 0.24606699
0.14448768 0.24606699 0.24611276
0.16798657 0.24608225 0.24612802
0.19525444 0.24612802 0.24605173
0.22262913 0.24611276 0.24609751
0.24998856 0.24611276 0.24603647
0.27734798 0.24608225 0.24608225
0.30865949 0.24611276 0.24609751
0.33592737 0.2461738 0.24602121
0.36714733 0.24612802 0.24597543
0.39844358 0.24615854 0.24600595
0.4296788 0.24612802 0.24596017
0.46097505 0.24615854 0.24597543
0.48834974 0.24614328 0.24602121
0.5195697 0.24609751 0.24597543
0.55071336 0.24611276 0.24592966
0.58200961 0.24614328 0.24596017
0.61322957 0.24611276 0.2459144
0.64454108 0.24614328 0.24592966
0.67576104 0.24611276 0.24588388
0.70707256 0.24614328 0.2459144
0.73829252 0.24609751 0.24586862
0.76960403 0.24614328 0.24588388
0.80073243 0.24614328 0.2458381
0.83202869 0.24618906 0.24586862
0.85938811 0.24618906 0.24579232
0.89062333 0.24614328 0.24574655
0.92191958 0.2461738 0.24576181
0.9531548 0.24614328 0.24571603
0.98445106 0.2461738 0.24574655
0.1132372 0.27734798 0.27740902
0.12103456 0.27736324 0.27740902
0.13279927 0.27733272 0.27733272
0.15226978 0.27733272 0.27736324
0.17576867 0.27734798 0.27739376
0.19926757 0.27736324 0.27740902
0.22653544 0.27740902 0.27733272
0.25389487 0.2773785 0.2773785
0.28125429 0.2773785 0.2773022
0.31248951 0.27734798 0.27725643
0.33984894 0.27731746 0.2773022
0.37105364 0.27740902 0.27733272
0.40228885 0.27736324 0.27727169
0.42964828 0.27736324 0.27719539
0.46094453 0.27739376 0.27722591
0.49217975 0.27736324 0.27718013
0.52347601 0.27739376 0.27721065
0.55471122 0.27736324 0.27714961
0.5819791 0.2773785 0.27721065
0.61327535 0.27742428 0.27722591
0.64451057 0.2773785 0.27718013
0.67580682 0.27740902 0.27721065
0.70704204 0.2773785 0.27716487
0.73833829 0.27740902 0.27718013
0.76957351 0.2773785 0.27713436
0.80079347 0.27733272 0.27708858
0.83199817 0.27742428 0.2771191
0.86323339 0.2773785 0.27707332
0.89452964 0.27740902 0.27708858
0.92576486 0.2773785 0.2770428
0.95706111 0.27740902 0.27707332
0.98829633 0.2773785 0.27702754
0.12890822 0.3085832 0.30867475
0.13284504 0.30862898 0.30864424
0.14450294 0.30861372 0.30867475
0.16020447 0.30861372 0.30869001
0.18353552 0.30859846 0.30864424
0.20703441 0.30861372 0.30865949
0.23045701 0.30855268 0.30859846
0.25772488 0.30861372 0.30853742
0.28509957 0.3085832 0.3085832
0.31639582 0.30861372 0.30859846
0.34375525 0.30861372 0.30852216
0.37499046 0.3085832 0.30847639
0.40225834 0.30859846 0.30852216
0.43355459 0.30864424 0.30855268
0.46478981 0.30859846 0.3085069
0.49608606 0.30862898 0.30852216
0.52344549 0.30862898 0.30844587
0.5546807 0.30859846 0.30840009
0.58597696 0.30862898 0.30843061
0.61712062 0.30864424 0.30838483
0.64841688 0.30867475 0.30840009
0.67965209 0.30864424 0.30835431
0.70701152 0.30861372 0.30840009
0.73830777 0.30864424 0.30843061
0.76954299 0.30861372 0.30838483
0.80083925 0.30864424 0.30841535
0.83207446 0.30861372 0.30835431
0.86327916 0.30869001 0.30838483
0.89449912 0.30865949 0.30833906
0.92579538 0.30869001 0.30836957
0.95703059 0.30864424 0.30830854
0.98832685 0.30869001 0.30833906
0.14056611 0.33594263 0.33601892
0.14450294 0.33600366 0.33600366
0.15626764 0.33594263 0.33603418
0.17186236 0.3359884 0.33604944
0.19142443 0.33595789 0.33595789
0.21475547 0.33595789 0.33591211
0.23826963 0.33595789 0.33592737
0.26562905 0.33594263 0.33597314
0.29298848 0.33594263 0.33589685
0.32025635 0.33597314 0.33594263
0.34763104 0.33597314 0.33586633
0.37892729 0.33600366 0.33589685
0.40628672 0.33597314 0.33594263
0.43752193 0.33594263 0.33589685
0.46478981 0.3359884 0.33582055
0.49608606 0.33601892 0.33583581
0.52732128 0.3359884 0.33579004
0.55861753 0.33601892 0.33582055
0.58597696 0.3359884 0.33586633
0.61721218 0.33595789 0.33582055
0.64843214 0.33591211 0.33577478
0.67963684 0.33600366 0.33580529
0.71087205 0.33595789 0.33574426
0.74216831 0.33600366 0.33577478
0.77340352 0.33595789 0.335729
0.80469978 0.3359884 0.33575952
0.83207446 0.3359884 0.33568322
0.86329442 0.33595789 0.33562219
0.89449912 0.33603418 0.3356527
0.92573434 0.33600366 0.33560693
0.95703059 0.33603418 0.33563745
0.98826581 0.33600366 0.33559167
0.15237659 0.36720836 0.36725414
0.15623713 0.36717784 0.36728466
0.16791028 0.3671931 0.3671931
0.17973602 0.3671931 0.36729992
0.19920653 0.36722362 0.36720836
0.22262913 0.36716258 0.36716258
0.24603647 0.36722362 0.36717784
0.26953536 0.36723888 0.3671931
0.29689479 0.36720836 0.36725414
0.32426947 0.36720836 0.36717784
0.35153735 0.36723888 0.36722362
0.38275731 0.3671931 0.36717784
0.41013199 0.3671931 0.36710155
0.44142824 0.36723888 0.36711681
0.46878767 0.36720836 0.36716258
0.50002289 0.36717784 0.36711681
0.53122759 0.36725414 0.36714733
0.55858701 0.36725414 0.36707103
0.58982223 0.36722362 0.36702525
0.62111849 0.36725414 0.36704051
0.6523537 0.36720836 0.36699474
0.67971313 0.3671931 0.36704051
0.71091783 0.3672694 0.36707103
0.74213779 0.36723888 0.36702525
0.7734493 0.3672694 0.36704051
0.80466926 0.36723888 0.36699474
0.83598077 0.3672694 0.36702525
0.86720073 0.36722362 0.36697948
0.89843595 0.3671931 0.3669337
0.9297322 0.36722362 0.36694896
0.95700008 0.3672694 0.36687266
0.98823529 0.36723888 0.36682689
0.16403449 0.39458305 0.39459831
0.16789502 0.39455253 0.39462882
0.17579919 0.39452201 0.39464408
0.19139391 0.39456779 0.39464408
0.20703441 0.39447623 0.39458305
0.23042649 0.39455253 0.39461357
0.25392538 0.39455253 0.39462882
0.27736324 0.39450675 0.39456779
0.30075532 0.39456779 0.39459831
0.32813001 0.39456779 0.39452201
0.35548943 0.39453727 0.39456779
0.38672465 0.39450675 0.39452201
0.41399252 0.39455253 0.39444572
0.44528878 0.39458305 0.39446098
0.4726482 0.39455253 0.39450675
0.50388342 0.39452201 0.39446098
0.53124285 0.39452201 0.39438468
0.56255436 0.39455253 0.3944152
0.59368276 0.39456779 0.39436942
0.62104219 0.39453727 0.3944152
0.65233845 0.39458305 0.39443046
0.68357366 0.39453727 0.39438468
0.71486992 0.39456779 0.3944152
0.74610513 0.39453727 0.39436942
0.77740139 0.39456779 0.39438468
0.80466926 0.39461357 0.39430838
0.83590448 0.39458305 0.39426261
0.86720073 0.39461357 0.39429313
0.89843595 0.39458305 0.39424735
0.9297322 0.39461357 0.39427787
0.96096742 0.39458305 0.39421683
0.99226368 0.39461357 0.39424735
0.17576867 0.42575723 0.4258793
0.1797055 0.42581827 0.42586404
0.18750286 0.42583352 0.42586404
0.2031281 0.42575723 0.42580301
0.21873808 0.42580301 0.42581827
0.23830014 0.42575723 0.42586404
0.25777066 0.42578775 0.42577249
0.28513008 0.42575723 0.42583352
0.30862898 0.42577249 0.42584878
0.33589685 0.42581827 0.42577249
0.36325628 0.42580301 0.42581827
0.39063096 0.42580301 0.42574197
0.41799039 0.42577249 0.42578775
0.44919509 0.42584878 0.42581827
0.47655451 0.42584878 0.42574197
0.50778973 0.42581827 0.42569619
0.53514916 0.42578775 0.42574197
0.56646067 0.42583352 0.42575723
0.59372854 0.4258793 0.42568093
0.6249485 0.42583352 0.42563516
0.65624475 0.4258793 0.42566567
0.68747997 0.42583352 0.4256199
0.7148394 0.42581827 0.42566567
0.74615091 0.42584878 0.42568093
0.77737087 0.42580301 0.42563516
0.80860609 0.42577249 0.42558938
0.83981079 0.42584878 0.4256199
0.87103075 0.42581827 0.42557412
0.89840543 0.42581827 0.42549783
0.92970169 0.42584878 0.42551308
0.9609369 0.42581827 0.42546731
0.99223316 0.42584878 0.42549783
0.18744182 0.45313191 0.45323873
0.19136339 0.45319295 0.45320821
0.19926757 0.45316243 0.45322347
0.21094072 0.45314717 0.45325399
0.22653544 0.45317769 0.45326925
0.24609751 0.45316243 0.45317769
0.26565957 0.45311666 0.45322347
0.28899062 0.4531014 0.45317769
0.31642634 0.45317769 0.45316243
0.33986419 0.45311666 0.45311666
0.36713207 0.45314717 0.45316243
0.39449149 0.45314717 0.45308614
0.42185092 0.45311666 0.45313191
0.45316243 0.45316243 0.45316243
0.48052186 0.45316243 0.45308614
0.50778973 0.45317769 0.45313191
0.53902495 0.45314717 0.45308614
0.5703212 0.45317769 0.4531014
0.59768063 0.45317769 0.4530251
0.62891585 0.45314717 0.45297932
0.6602121 0.45317769 0.45300984
0.68747997 0.45319295 0.45305562
0.71871519 0.45316243 0.45300984
0.75001144 0.45319295 0.4530251
0.78124666 0.45316243 0.45297932
0.80860609 0.45316243 0.45290303
0.83990234 0.45319295 0.45293355
0.87103075 0.45320821 0.45288777
0.90234226 0.45323873 0.45290303
0.93356222 0.45320821 0.45285725
0.96479744 0.45316243 0.45281147
0.99609369 0.45319295 0.45284199
0.19923705 0.48439765 0.48445869
0.20309758 0.48435187 0.4844892
0.2109102 0.48438239 0.48450446
0.22256809 0.48438239 0.48441291
0.23826963 0.48438239 0.48442817
0.25386435 0.48442817 0.48444343
0.2773022 0.48436713 0.48438239
0.29694057 0.48438239 0.4844892
0.32027161 0.48438239 0.48444343
0.34763104 0.48438239 0.48436713
0.37499046 0.48435187 0.48441291
0.3983978 0.48441291 0.48442817
0.42963302 0.48438239 0.48438239
0.45699245 0.48438239 0.4843061
0.48435187 0.48435187 0.48435187
0.51172656 0.48435187 0.48427558
0.54293126 0.48444343 0.4843061
0.57029068 0.48441291 0.48435187
0.6015259 0.48438239 0.4843061
0.63282216 0.48441291 0.48433661
0.66018158 0.48441291 0.48426032
0.6914168 0.48438239 0.48419928
0.7226215 0.48445869 0.4842298
0.74998093 0.48442817 0.48427558
0.78121614 0.48439765 0.4842298
0.8125124 0.48442817 0.48426032
0.84374762 0.48439765 0.48421454
0.87504387 0.48442817 0.4842298
0.90231174 0.48447395 0.48415351
0.9335317 0.48444343 0.48410773
0.96484321 0.48447395 0.48413825
0.99606317 0.48442817 0.48409247
0.2109102 0.51177234 0.51181811
0.21477073 0.51172656 0.51184863
0.22265965 0.51169604 0.51184863
0.2343328 0.5117113 0.51175708
0.24606699 0.51175708 0.51186389
0.26562905 0.51174182 0.51178759
0.28509957 0.51174182 0.51183337
0.30466163 0.51172656 0.51174182
0.32816052 0.51174182 0.51175708
0.3554284 0.51175708 0.51181811
0.37886625 0.5117113 0.51175708
0.40622568 0.5117113 0.51168078
0.43358511 0.51168078 0.51172656
0.46092927 0.51180285 0.51172656
0.4882887 0.51177234 0.51177234
0.51564813 0.51177234 0.51169604
0.54688334 0.51174182 0.51165026
0.57415122 0.51177234 0.51169604
0.60544747 0.51180285 0.51172656
0.63282216 0.51180285 0.51165026
0.66404211 0.51175708 0.51160449
0.69535363 0.51180285 0.51161975
0.72271305 0.51177234 0.51166552
0.75394827 0.51174182 0.51161975
0.78507668 0.51174182 0.51157397
0.81637293 0.51178759 0.51160449
0.84373236 0.51178759 0.51152819
0.87496757 0.51174182 0.51148241
0.90626383 0.51177234 0.51149767
0.93749905 0.51174182 0.5114519
0.9687953 0.51177234 0.51148241
0.99606317 0.51180285 0.51152819
0.22658122 0.54299229 0.54306859
0.22658122 0.54299229 0.54306859
0.23437858 0.54302281 0.54308385
0.24603647 0.54300755 0.54311437
0.25780117 0.54296178 0.54302281
0.27341115 0.54300755 0.54303807
0.29297322 0.54296178 0.54308385
0.31242847 0.54297704 0.54300755
0.33592737 0.54299229 0.54302281
0.35936522 0.54294652 0.54296178
0.3866331 0.54296178 0.54300755
0.41013199 0.54297704 0.54303807
0.43749142 0.54297704 0.54296178
0.4648661 0.54294652 0.54300755
0.49213397 0.54300755 0.54293126
0.52343023 0.54303807 0.54294652
0.55078965 0.54300755 0.54299229
0.57816434 0.54300755 0.542916
0.6093843 0.54297704 0.54287022
0.63665217 0.54300755 0.542916
0.66794842 0.54303807 0.54294652
0.69532311 0.54303807 0.54287022
0.72654307 0.54299229 0.54282444
0.75785458 0.54302281 0.54285496
0.78907454 0.54299229 0.54279393
0.81634241 0.54302281 0.54285496
0.84763867 0.54305333 0.54287022
0.87887388 0.54300755 0.54282444
0.91017014 0.54305333 0.54285496
0.93754482 0.54305333 0.54277867
0.96876478 0.54300755 0.54273289
0.99603265 0.54303807 0.54277867
0.23823911 0.57036698 0.57042802
0.23823911 0.57036698 0.57042802
0.24614328 0.57033646 0.57042802
0.25386435 0.57029068 0.57036698
0.26947433 0.57033646 0.57038224
0.2851606 0.5703212 0.5703975
0.30077058 0.57036698 0.5703975
0.32419318 0.57030594 0.57035172
0.34366369 0.57030594 0.5703975
0.36716258 0.5703212 0.57041276
0.39066148 0.57033646 0.57042802
0.41792935 0.57038224 0.57035172
0.44528878 0.57036698 0.5703975
0.47266346 0.57036698 0.5703212
0.50002289 0.57033646 0.57036698
0.52738231 0.57033646 0.57029068
0.55465019 0.57036698 0.57033646
0.58202487 0.57036698 0.57026017
0.61324483 0.5703212 0.57021439
0.64061952 0.57030594 0.57026017
0.67191577 0.57033646 0.57029068
0.69918364 0.57038224 0.57021439
0.7304036 0.57035172 0.57016861
0.76171511 0.57038224 0.57019913
0.78907454 0.57035172 0.57024491
0.82030976 0.5703212 0.57019913
0.85160601 0.57035172 0.57021439
0.87887388 0.5703975 0.57013809
0.9101091 0.57036698 0.57009232
0.94140536 0.5703975 0.57012284
0.97262531 0.57036698 0.57007706
0.99613947 0.57036698 0.57009232
0.2499733 0.60154116 0.60170901
0.2499733 0.60154116 0.60170901
0.25777066 0.60155642 0.60170901
0.26556802 0.60158694 0.60172427
0.27733272 0.60154116 0.60163272
0.2929427 0.60158694 0.60164797
0.31250477 0.60154116 0.60169375
0.33197528 0.60157168 0.6016022
0.35159838 0.60158694 0.60170901
0.37492943 0.60158694 0.60166323
0.39842832 0.6016022 0.60167849
0.42580301 0.6016022 0.6016022
0.44913405 0.60158694 0.60155642
0.47649348 0.60155642 0.6016022
0.5038529 0.60155642 0.6015259
0.53122759 0.60154116 0.60157168
0.5585565 0.60166323 0.60157168
0.58593118 0.60163272 0.60161746
0.61715114 0.6016022 0.60157168
0.64452583 0.6016022 0.60149538
0.67582208 0.60163272 0.60151064
0.70318151 0.6016022 0.60155642
0.73432517 0.60161746 0.60151064
0.7616846 0.60161746 0.60143435
0.79298085 0.60164797 0.60146487
0.82421607 0.60161746 0.60141909
0.85157549 0.60158694 0.60146487
0.88287175 0.60161746 0.60149538
0.91401541 0.60163272 0.60143435
0.94523537 0.6016022 0.60138857
0.97261006 0.6016022 0.60131228
0.99610895 0.60161746 0.60134279
0.26163119 0.62891585 0.62905318
0.26567483 0.62891585 0.62903792
0.26953536 0.62888533 0.62906844
0.27733272 0.62890059 0.62906844
0.28900587 0.62891585 0.62897688
0.30469215 0.62890059 0.62899214
0.32030213 0.62894636 0.6290074
0.33986419 0.62890059 0.62905318
0.35933471 0.62893111 0.62896162
0.3828336 0.62894636 0.62899214
0.40616464 0.62893111 0.62893111
0.42966354 0.62894636 0.62894636
0.45702296 0.62891585 0.62899214
0.48052186 0.62893111 0.62902266
0.50778973 0.62897688 0.62894636
0.53516442 0.62896162 0.62899214
