site/assets/luts/colour-blind-luts--protanope-daltonise-lut--980a4baf9.cube
# LUTr-Project: LUTr — LUTrepository
# LUTr-Schema-Version: 1
# LUTr-ID: colour-blind-luts--protanope-daltonise-lut--980a4baf9
# LUTr-Title: protanope daltonise lut
# LUTr-Collection: Colour-Blind LUTs
# LUTr-Collection-ID: andrewwillmott-colour-blind-luts
# LUTr-Source: https://github.com/andrewwillmott/colour-blind-luts
# LUTr-Source-File: submissions/andrewwillmott-colour-blind-luts/luts/protanope_daltonise_lut.png
# LUTr-Source-Format: PNG
# LUTr-Source-SHA256: d271f7cc290739e29ffd38a9e5136d8bdff444d6d7751c79a6e75de0a0ed31d5
# LUTr-License: Unlicense
# LUTr-License-URL: https://github.com/andrewwillmott/colour-blind-luts/blob/master/LICENSE
# LUTr-Tags: technical, accessibility, color-vision, simulation, correction, png, protanopia, cube
# LUTr-Transform-Class: accessibility
# LUTr-Input-Color-Space: srgb
# LUTr-Output-Color-Space: srgb
# LUTr-Color-Space-Confidence: assumed-display-referred
# LUTr-Conversion-Method: PNG LUT image decoded at 16-bit and sampled to 32x32x32 3D CUBE
# LUTr-Conversion-Date: 2026-07-27
# LUTr-Conversion-Tool: LUTr scripts/convert-all-to-cube.mjs
# LUTr-Conversion-Grid: 32x32x32
# LUTr-Note: Preserve this metadata and the upstream license notices when redistributing.
TITLE "protanope daltonise lut"
LUT_3D_SIZE 5
DOMAIN_MIN 0.000000 0.000000 0.000000
DOMAIN_MAX 0.903226 0.903226 0.903226
0.015640497 0.015640497 0.015640497
0.23430228 0.17189288 0.18739605
0.45311666 0.33202106 0.36316472
0.67183948 0.49219501 0.53891814
0.89062333 0.65244526 0.7147631
0.01559472 0.16795605 0.000091554131
0.23428702 0.23442435 0.015655756
0.45308614 0.36336309 0.32027161
0.67185473 0.51178759 0.51160449
0.89060807 0.6679942 0.69518578
0.015487907 0.32433051 0.00012207218
0.23416495 0.35944152 0.000045777066
0.45294881 0.45322347 0.015671015
0.67185473 0.57428855 0.41794461
0.89054704 0.71491569 0.63271534
0.015335317 0.48445869 0.0001373312
0.23410391 0.50789654 0.0001373312
0.45284199 0.57047379 0.000076295109
0.67159533 0.67203784 0.015564202
0.89042496 0.78919661 0.49985504
0.015350576 0.64461738 0.00021362631
0.23405814 0.66033417 0.00022888533
0.45281147 0.70719463 0.000045777066
0.67156481 0.78538186 0.000045777066
0.89025711 0.89083696 0.01559472
0.015747311 0.015609979 0.23437858
0.23439384 0.1718471 0.28899062
0.45314717 0.33202106 0.41792935
0.67190051 0.49222553 0.5741207
0.89066911 0.65232319 0.74207675
0.015548943 0.16797131 0.1485008
0.23439384 0.23439384 0.23439384
0.45311666 0.36330205 0.38666361
0.67194629 0.51177234 0.55068284
0.89060807 0.66800946 0.72256046
0.015487907 0.32433051 0.00012207218
0.23416495 0.35944152 0.000045777066
0.45305562 0.45319295 0.23440909
0.67176318 0.57428855 0.46863508
0.89059281 0.71486992 0.66396582
0.015335317 0.48445869 0.0001373312
0.23410391 0.50789654 0.0001373312
0.45284199 0.57047379 0.000076295109
0.67170214 0.67200732 0.23431754
0.89045548 0.78916609 0.54293126
0.015350576 0.64461738 0.00021362631
0.23405814 0.66033417 0.00022888533
0.45281147 0.70719463 0.000045777066
0.67156481 0.78538186 0.000045777066
0.89036393 0.89080644 0.2343328
0.015838865 0.015564202 0.45311666
0.23448539 0.17178607 0.48046082
0.45316243 0.33203632 0.56246281
0.67193103 0.49219501 0.67959106
0.89069963 0.65236896 0.824094
0.015777829 0.16791028 0.42200351
0.23450065 0.23436332 0.45313191
0.45311666 0.36327153 0.53894865
0.67194629 0.51169604 0.66388952
0.89068437 0.6679942 0.8084535
0.015564202 0.32419318 0.28925002
0.23437858 0.35936522 0.33594263
0.45316243 0.45316243 0.45316243
0.67185473 0.57425803 0.59760433
0.89060807 0.71494621 0.75768673
0.015335317 0.48445869 0.0001373312
0.23410391 0.50789654 0.0001373312
0.45300984 0.57042802 0.1875639
0.67180896 0.67194629 0.45317769
0.89053178 0.78916609 0.65621424
0.015350576 0.64461738 0.00021362631
0.23405814 0.66033417 0.00022888533
0.45281147 0.70719463 0.000045777066
0.67156481 0.78538186 0.000045777066
0.89047074 0.89076066 0.45307088
0.015884642 0.015457389 0.6717937
0.23451591 0.17180133 0.68738842
0.45320821 0.33196002 0.74599832
0.67203784 0.49219501 0.83581292
0.89068437 0.65233845 0.94898909
0.015793088 0.16783398 0.65236896
0.23460746 0.2343328 0.67188525
0.45326925 0.36322576 0.72643626
0.67196155 0.51172656 0.82023346
0.89077592 0.66796368 0.93743801
0.015686275 0.32413214 0.58606851
0.23439384 0.35931945 0.60550851
0.45325399 0.45311666 0.67190051
0.67199207 0.57422751 0.76952773
0.89068437 0.71486992 0.89440757
0.015609979 0.48436713 0.43385977
0.23439384 0.50783551 0.46112764
0.45311666 0.57033646 0.5468986
0.67191577 0.67191577 0.67191577
0.89057755 0.7890898 0.81235981
0.015350576 0.64461738 0.00021362631
0.23405814 0.66033417 0.00022888533
0.45293355 0.70716411 0.2461738
0.67176318 0.78527504 0.4726482
0.89057755 0.89073014 0.67180896
0.015991455 0.015426871 0.89053178
0.23468376 0.17175555 0.90226596
0.45342184 0.33196002 0.94129854
0.67208362 0.49217975 0.99604791
0.8908217 0.65232319 0.9960174
0.01591516 0.16787976 0.87505913
0.23463798 0.23422599 0.89054704
0.4533608 0.36319524 0.92961013
0.67202258 0.51169604 0.99603265
0.8907454 0.66800946 0.9959411
0.015854124 0.32408637 0.82832074
0.23463798 0.35930419 0.84376287
0.45329976 0.4530251 0.89056229
0.67208362 0.57418173 0.96089113
0.89077592 0.7148394 0.99600214
0.015777829 0.48432136 0.73850614
0.23447013 0.50780499 0.7540856
0.45322347 0.57033646 0.80471504
0.67194629 0.67180896 0.89059281
0.89069963 0.78910506 0.99597162
0.015533684 0.64449531 0.57454795
0.23430228 0.66016632 0.5940032
0.45307088 0.70707256 0.66025788
0.67183948 0.78515297 0.76177615
0.89066911 0.89066911 0.89066911
