site/assets/luts/colour-blind-luts--tritanope-correct-lut--5a48f5a71.cube
# LUTr-Project: LUTr — LUTrepository
# LUTr-Schema-Version: 1
# LUTr-ID: colour-blind-luts--tritanope-correct-lut--5a48f5a71
# LUTr-Title: tritanope correct lut
# LUTr-Collection: Colour-Blind LUTs
# LUTr-Collection-ID: andrewwillmott-colour-blind-luts
# LUTr-Source: https://github.com/andrewwillmott/colour-blind-luts
# LUTr-Source-File: submissions/andrewwillmott-colour-blind-luts/luts/tritanope_correct_lut.png
# LUTr-Source-Format: PNG
# LUTr-Source-SHA256: 1f962b5dbd9d27d4eaa6acc8032fc030eb25086bc9f795f0949fcb785f702345
# LUTr-License: Unlicense
# LUTr-License-URL: https://github.com/andrewwillmott/colour-blind-luts/blob/master/LICENSE
# LUTr-Tags: technical, accessibility, color-vision, simulation, correction, png, tritanopia, cube
# LUTr-Transform-Class: accessibility
# LUTr-Input-Color-Space: srgb
# LUTr-Output-Color-Space: srgb
# LUTr-Color-Space-Confidence: assumed-display-referred
# LUTr-Conversion-Method: PNG LUT image decoded at 16-bit and sampled to 32x32x32 3D CUBE
# LUTr-Conversion-Date: 2026-07-27
# LUTr-Conversion-Tool: LUTr scripts/convert-all-to-cube.mjs
# LUTr-Conversion-Grid: 32x32x32
# LUTr-Note: Preserve this metadata and the upstream license notices when redistributing.
TITLE "tritanope correct lut"
LUT_3D_SIZE 8
DOMAIN_MIN 0.000000 0.000000 0.000000
DOMAIN_MAX 0.903226 0.903226 0.903226
0.01170367 0.01559472 0.015533684
0.1366598 0.015640497 0.015487907
0.26564431 0.01170367 0.015411612
0.38673991 0.015671015 0.011520562
0.51174182 0.015671015 0.015350576
0.63671321 0.015716793 0.015304799
0.76176089 0.015701534 0.015259022
0.89059281 0.015716793 0.015243763
0 0.14845502 0.0039673457
0.10537881 0.14848554 0.0038757916
0.24991226 0.14848554 0.0038757916
0.37883574 0.14847028 0.0037232013
0.50783551 0.1485008 0.0037842374
0.63279164 0.14854658 0.0037384604
0.76171511 0.14851606 0.0036011292
0.88667124 0.14856184 0.0035553521
0 0.27742428 0.00018310826
0 0.27742428 0.00018310826
0.19909972 0.27742428 0.000030518044
0.35143053 0.27743954 0.000030518044
0.48815137 0.27743954 0
0.61707485 0.27742428 0
0.74598306 0.27750057 0
0.87490654 0.27748531 0
0 0.41022354 0.00021362631
0 0.41022354 0.00021362631
0 0.41022354 0.00021362631
0.29279011 0.4102388 0
0.44905776 0.4103151 0
0.58965438 0.41026932 0
0.72637522 0.41025406 0
0.85923552 0.41026932 0
0 0.54306859 0.00024414435
0 0.54306859 0.00024414435
0 0.54306859 0.00024414435
0.1638056 0.54309911 0.00015259022
0.38646525 0.54312963 0.0001373312
0.54662394 0.54308385 0
0.69114214 0.54309911 0
0.8317998 0.54312963 0
0 0.67589837 0.00039673457
0 0.67589837 0.00039673457
0 0.67589837 0.00039673457
0 0.67589837 0.00039673457
0.27310597 0.67594415 0.00012207218
0.48015564 0.67594415 0.00010681315
0.64425116 0.67591363 0.000015259022
0.79270619 0.67597467 0
0 0.80874342 0.00042725261
0 0.80874342 0.00042725261
0 0.80874342 0.00042725261
0 0.80874342 0.00042725261
0 0.80874342 0.00042725261
0.37853056 0.80880446 0.00019836728
0.57384604 0.80874342 0.000061036088
0.73791104 0.80885023 0.000045777066
0 0.94158846 0.00045777066
0 0.94158846 0.00045777066
0 0.94158846 0.00045777066
0 0.94158846 0.00045777066
0 0.94158846 0.00045777066
0.15580987 0.94160372 0.00036621653
0.47609674 0.94157321 0.00018310826
0.66761273 0.94161898 0.000091554131
0.097703517 0 0.14050507
0.16417182 0 0.14058137
0.27740902 0 0.14042878
0.39850462 0.000030518044 0.14047456
0.51963073 0 0.14032197
0.64458686 0.000030518044 0.14027619
0.76568246 0.000076295109 0.14033722
0.89066911 0.000030518044 0.14009308
0.011657893 0.14062715 0.14059663
0.13672084 0.14061189 0.14055085
0.26167697 0.14065766 0.14050507
0.39060044 0.14061189 0.14048981
0.51557183 0.14065766 0.14044404
0.64061952 0.14065766 0.14039826
0.76173037 0.14073396 0.14032197
0.88671702 0.14065766 0.14021515
0 0.27734798 0.13690394
0 0.27734798 0.13690394
0.21478599 0.27739376 0.13675135
0.35930419 0.27740902 0.13662928
0.49602502 0.27739376 0.13661402
0.6249485 0.2773785 0.13647669
0.74991989 0.27740902 0.13643091
0.87891966 0.27743954 0.13649195
0 0.41019303 0.13305867
0 0.41019303 0.13305867
0.054551003 0.41022354 0.13302815
0.30457008 0.41025406 0.1329366
0.4568246 0.41022354 0.13273823
0.59748226 0.41026932 0.13270771
0.73034257 0.41028458 0.1326772
0.8592813 0.41025406 0.13252461
0 0.54302281 0.1291371
0 0.54302281 0.1291371
0 0.54302281 0.1291371
0.18336767 0.54309911 0.12904555
0.39429313 0.54306859 0.12892348
0.55451286 0.54306859 0.12892348
0.69518578 0.54309911 0.12889296
0.83190661 0.54309911 0.12875563
0 0.67586786 0.12529183
0 0.67586786 0.12529183
0 0.67586786 0.12529183
0 0.67586786 0.12529183
0.28879225 0.67588312 0.12516976
0.48804456 0.67588312 0.12500191
0.64817273 0.67591363 0.12501717
0.79664302 0.67597467 0.12498665
0 0.80874342 0.11757076
0 0.80874342 0.11757076
0 0.80874342 0.11757076
0 0.80874342 0.11757076
0 0.80874342 0.11757076
0.38637369 0.8087129 0.11728084
0.58167391 0.80877394 0.11721981
0.74189364 0.80875868 0.11721981
0 0.94155795 0.10978866
0 0.94155795 0.10978866
0 0.94155795 0.10978866
0 0.94155795 0.10978866
0 0.94155795 0.10978866
0.17927825 0.94158846 0.10971237
0.48403143 0.94158846 0.1095903
0.67537957 0.94161898 0.10943771
0.18362707 0 0.26552224
0.22670329 0 0.2654612
0.31262684 0 0.26544594
0.42198825 0 0.26540017
0.53914702 0.000030518044 0.26533913
0.6564126 0 0.26529335
0.77743191 0 0.26526284
0.90249485 0 0.26509499
0.16412604 0.10940719 0.26558328
0.20701915 0.10934615 0.26556802
0.30084688 0.10937667 0.26556802
0.41406882 0.10936141 0.26541543
0.5313344 0.10933089 0.26536965
0.65243 0.10939193 0.26541543
0.7734493 0.10940719 0.2652781
0.89851225 0.10939193 0.26523232
0.01170367 0.26559854 0.26565957
0.14061189 0.26567483 0.26572061
0.26559854 0.26559854 0.26559854
0.39055467 0.26564431 0.26555276
0.51558709 0.26178378 0.26544594
0.640589 0.26567483 0.2654612
0.76560616 0.2618143 0.26535439
0.89060807 0.26570535 0.26536965
0 0.40233463 0.26196689
0 0.40233463 0.26196689
0.16791028 0.40241093 0.26184482
0.33586633 0.40238041 0.26167697
0.48038453 0.40238041 0.26166171
0.61324483 0.40238041 0.26163119
0.74207675 0.40241093 0.26149386
0.87107652 0.40244144 0.26153964
0 0.53517967 0.26198215
0 0.53517967 0.26198215
0 0.53517967 0.26198215
0.23810178 0.53521019 0.26179904
0.42172885 0.53525597 0.2618143
0.57021439 0.53519493 0.26172274
0.7107805 0.53530175 0.26157015
0.8436408 0.53531701 0.26152438
0 0.67193103 0.25807584
0 0.67193103 0.25807584
0 0.67193103 0.25807584
0 0.67193103 0.25807584
0.32405585 0.67196155 0.25799954
0.50762188 0.67196155 0.25783169
0.66387427 0.67203784 0.25781643
0.80447089 0.67199207 0.25770962
0 0.80480659 0.25435264
0 0.80480659 0.25435264
0 0.80480659 0.25435264
0 0.80480659 0.25435264
0.042633707 0.80477607 0.25423056
0.40991836 0.80479133 0.25407797
0.59740597 0.80482185 0.25401694
0.75359731 0.80482185 0.25392538
0 0.93757534 0.25044633
0 0.93757534 0.25044633
0 0.93757534 0.25044633
0 0.93757534 0.25044633
0 0.93757534 0.25044633
0.23398184 0.93762112 0.25033951
0.50357824 0.93763638 0.25017166
0.68720531 0.93771267 0.25006485
0.27359426 0 0.39052415
0.30095369 0 0.39044785
0.36734569 0 0.39044785
0.46108186 0 0.39044785
0.57053483 0 0.39038682
0.68377203 0 0.39023423
0.8009308 0 0.39018845
0.91808957 0 0.39014267
0.25798428 0 0.39050889
0.2892958 0 0.39052415
0.35954833 0 0.39044785
0.45714504 0 0.39034104
0.56264591 0 0.39038682
0.67989624 0 0.39034104
0.79707027 0 0.39028
0.91422904 0.000015259022 0.39011215
0.21097124 0.24214542 0.39060044
0.24614328 0.24214542 0.39064622
0.32813001 0.24216068 0.39055467
0.43363088 0.24220645 0.39046311
0.54692912 0.24223697 0.39050889
0.66419471 0.24220645 0.39044785
0.78521401 0.24222171 0.39031052
0.90630961 0.24228275 0.3903563
0.011657893 0.3906157 0.39072251
0.13672084 0.3906157 0.39067674
0.26169223 0.39066148 0.39063096
0.38675517 0.39064622 0.39058518
0.5117113 0.390692 0.39053941
0.64063478 0.39064622 0.39052415
0.76166934 0.39066148 0.39037156
0.88671702 0.39064622 0.39032578
0 0.5273518 0.38701457
0 0.5273518 0.38701457
0.085786221 0.52733654 0.38693828
0.30855268 0.5273518 0.38680095
0.46086824 0.52739757 0.38669413
0.59760433 0.52736706 0.38667887
0.73035782 0.52742809 0.3866331
0.86321813 0.52744335 0.38660258
0 0.66411841 0.38698405
0 0.66411841 0.38698405
0 0.66411841 0.38698405
0.12872511 0.66407263 0.3869688
0.37488365 0.66414893 0.38684672
0.53897917 0.66411841 0.38677043
0.68737316 0.66410315 0.38666361
0.82415503 0.66417945 0.38660258
0 0.79696345 0.38313878
0 0.79696345 0.38313878
0 0.79696345 0.38313878
0 0.79696345 0.38313878
0.21464866 0.79697871 0.38312352
0.45293355 0.79696345 0.38292515
0.62482643 0.7969482 0.38284886
0.77715724 0.79697871 0.38284886
0 0.93365377 0.38323033
0 0.93365377 0.38323033
0 0.93365377 0.38323033
0 0.93365377 0.38323033
0 0.93365377 0.38323033
0.30827802 0.93369955 0.38301671
0.53490501 0.93366903 0.3829099
0.71073472 0.93369955 0.38292515
0.35960937 0 0.51541924
0.38310826 0 0.5154345
0.43381399 0 0.51541924
0.51580072 0 0.51532769
0.60962844 0 0.51532769
0.71505303 0 0.51528191
0.82835126 0 0.51520562
0.9416495 0.000030518044 0.51512932
0.35181201 0 0.51540398
0.37128252 0 0.51544976
0.42600137 0 0.51541924
0.50800336 0 0.51531243
0.60569162 0 0.51534295
0.71119249 0 0.51526665
0.82449073 0 0.51529717
0.9416495 0.000030518044 0.51512932
0.32043946 0.20303655 0.51558709
0.34383154 0.20311284 0.51560235
0.40242618 0.20306706 0.51548028
0.48845655 0.20308232 0.51548028
0.58992905 0.20311284 0.51540398
0.69929046 0.20311284 0.51535821
0.81268025 0.20311284 0.51526665
0.92983902 0.20314336 0.51522087
0.25400168 0.36713207 0.51572442
0.28126955 0.36717784 0.51564813
0.35545892 0.3671931 0.51554131
0.45314717 0.36717784 0.51557183
0.56250858 0.36717784 0.5155108
0.67580682 0.36723888 0.51541924
0.7930724 0.36720836 0.51537346
0.91409171 0.3671931 0.51535821
0.011718929 0.51560235 0.51578546
0.13667506 0.51563287 0.51573968
0.261738 0.51563287 0.5156939
0.38670939 0.51567864 0.51564813
0.51175708 0.51566339 0.51560235
0.63672847 0.51570916 0.51555657
0.76171511 0.51563287 0.5154345
0.89060807 0.51570916 0.51549554
0 0.65236896 0.51207752
0 0.65236896 0.51207752
0 0.65236896 0.51207752
0.27727169 0.65241474 0.51190967
0.44136721 0.65238422 0.51183337
0.5858854 0.65241474 0.51169604
0.7226215 0.65238422 0.51169604
0.85143816 0.65241474 0.51155871
0 0.7890898 0.512047
0 0.7890898 0.512047
0 0.7890898 0.512047
0 0.7890898 0.512047
0.32021057 0.78915084 0.51194018
0.50763714 0.78912032 0.51180285
0.66388952 0.78919661 0.51177234
0.80448615 0.78915084 0.51168078
0 0.92582589 0.50826276
0 0.92582589 0.50826276
0 0.92582589 0.50826276
0 0.92582589 0.50826276
0 0.92582589 0.50826276
0.38654154 0.92587167 0.50803388
0.5818265 0.92593271 0.50797284
0.7419852 0.92587167 0.50778973
0.44950027 0 0.64034485
0.46509499 0 0.64034485
0.50806439 0 0.64040589
0.57839322 0 0.64039063
0.66436255 0 0.64031434
0.75808347 0 0.64031434
0.86350805 0 0.64016175
0.97294575 0 0.640177
0.44167239 0 0.64040589
0.45729763 0 0.64034485
0.50412757 0 0.64031434
0.57059586 0 0.64039063
0.65645838 0 0.64031434
0.75414664 0 0.64022278
0.85964752 0 0.6402533
0.97294575 0 0.640177
0.4181735 0.1288777 0.64048219
0.43379873 0.1288014 0.64042115
0.48070497 0.1288777 0.64045167
0.55489433 0.12886244 0.64046693
0.64478523 0.12886244 0.64037537
0.74238193 0.12892348 0.64028382
0.85185016 0.1288777 0.64022278
0.96121157 0.1288777 0.64016175
0.37123674 0.33983368 0.640589
0.39079881 0.3397879 0.64061952
0.44542611 0.33981842 0.64060426
0.5235523 0.33984894 0.640589
0.61731899 0.33981842 0.6405127
0.72281987 0.33984894 0.64043641
0.83218128 0.33984894 0.64037537
0.94540322 0.33983368 0.64022278
0.28905165 0.49610132 0.64065003
0.31255055 0.49611658 0.64066529
0.37894255 0.4960708 0.64066529
0.47277028 0.49610132 0.64068055
0.57424277 0.49613184 0.64060426
0.68755627 0.4960708 0.64045167
0.8047303 0.49608606 0.64040589
0.92188907 0.49611658 0.64036011
0.015609979 0.63666743 0.64093996
0.14056611 0.63669795 0.64089418
0.26169223 0.64065003 0.64075685
0.38675517 0.64065003 0.64071107
0.51564813 0.63675898 0.64063478
0.64065003 0.64065003 0.64065003
0.76560616 0.64068055 0.64060426
0.89066911 0.64068055 0.64055848
0 0.77735561 0.63714046
0 0.77735561 0.63714046
0 0.77735561 0.63714046
0.2381323 0.77738613 0.63694209
0.41791409 0.77734035 0.6368658
0.57024491 0.77738613 0.63675898
0.71090257 0.77741665 0.63671321
0.84359503 0.77741665 0.63660639
0 0.91412222 0.63710994
0 0.91412222 0.63710994
0 0.91412222 0.63710994
0 0.91412222 0.63710994
0.24983597 0.91415274 0.63701839
0.46855879 0.91415274 0.63689631
0.63657588 0.91418326 0.6367895
0.78496986 0.914168 0.63669795
0.53936065 0 0.7653315
0.55112535 0 0.76537728
0.58628214 0 0.76530098
0.64486152 0 0.76537728
0.72301823 0 0.76528573
0.80894179 0 0.76528573
0.9066453 0 0.76519417
0.99642939 0 0.76510262
0.53156329 0 0.7653315
0.54322118 0 0.76536202
0.58242161 0 0.76539254
0.6409247 0 0.76527047
0.71905089 0 0.76527047
0.80500496 0 0.76519417
0.9066453 0 0.76519417
0.99642939 0 0.76510262
0.51209277 0 0.7654078
0.5276875 0 0.76542306
0.56285954 0 0.76536202
0.62531472 0 0.76525521
0.70344091 0 0.76525521
0.79728389 0 0.76525521
0.8948043 0 0.76508736
0.99642939 0 0.76510262
0.47672236 0.29683375 0.76552987
0.4924239 0.29681849 0.76554513
0.53144121 0.29680323 0.76549935
0.59784848 0.29678798 0.76539254
0.6799115 0.29686427 0.76548409
0.77366293 0.29681849 0.7654078
0.87916381 0.29686427 0.76531624
0.98458839 0.29680323 0.76528573
0.41805142 0.46871138 0.7656672
0.43761349 0.46868086 0.76559091
0.48444343 0.46869612 0.76556039
0.55477226 0.46871138 0.76552987
0.64467842 0.46871138 0.76543832
0.74227512 0.46874189 0.76546883
0.85163653 0.46874189 0.7654078
0.96502632 0.46875715 0.7653315
0.32040894 0.62110323 0.76572824
0.34373999 0.62110323 0.76568246
0.40239567 0.62110323 0.7657435
0.48825818 0.62108797 0.76568246
0.58982223 0.62107271 0.76560616
0.69925994 0.621149 0.76562142
0.81257343 0.62108797 0.76546883
0.92974746 0.62110323 0.76542306
0.01559472 0.76556039 0.7659266
0.13669032 0.76563668 0.76586557
0.26558328 0.76563668 0.76197452
0.38670939 0.76559091 0.76182193
0.51563287 0.76562142 0.76575875
0.64066529 0.76177615 0.76565194
0.7616846 0.7656672 0.7616846
0.88674754 0.7656672 0.76163882
0 0.90237278 0.7622034
0 0.90237278 0.7622034
0 0.90237278 0.7622034
0.18345922 0.90237278 0.76203555
0.39436942 0.90235752 0.76191348
0.55460441 0.90237278 0.76180667
0.69526207 0.9024033 0.76176089
0.83198291 0.90238804 0.76176089
0.62537575 0 0.89036393
0.63704891 0 0.89027237
0.66834516 0 0.89028763
0.71914244 0 0.89028763
0.78561074 0 0.89024186
0.86759747 0 0.89025711
0.95739681 0 0.89016556
0.99642939 0 0.89011978
0.62151522 0 0.89033341
0.63317311 0 0.89036393
0.6605478 0 0.89028763
0.71526665 0 0.89025711
0.7815671 0 0.89027237
0.86366064 0 0.89016556
0.95345998 0 0.89005875
0.99642939 0 0.89011978
0.60581369 0 0.89031815
0.61757839 0 0.89034867
0.64887465 0 0.89037919
0.69958038 0 0.89024186
0.76990921 0 0.8902266
0.85189593 0 0.89024186
0.94566262 0 0.89005875
0.99642939 0 0.89011978
0.57839322 0.23035019 0.89045548
0.59012741 0.23042649 0.89044022
0.62134737 0.23039597 0.89039445
0.67608148 0.23036545 0.89036393
0.75028611 0.23035019 0.89037919
0.83620966 0.23041123 0.89036393
0.92997635 0.23036545 0.89030289
0.99642939 0.23042649 0.89025711
0.53147173 0.43353933 0.89056229
0.54314488 0.43352407 0.89059281
0.58217746 0.43350881 0.89056229
0.64083314 0.43353933 0.89050126
0.71503777 0.43353933 0.89039445
0.80483711 0.43355459 0.89042496
0.9063859 0.43353933 0.89036393
0.99629206 0.43353933 0.89025711
0.46100557 0.59765011 0.89060807
0.4767071 0.59763485 0.89060807
0.51967651 0.59765011 0.89066911
0.58606851 0.59763485 0.89056229
0.67193103 0.59761959 0.890486
0.76575875 0.59765011 0.890486
0.87125963 0.59766537 0.89051652
0.98062104 0.59766537 0.89045548
0.35159838 0.74608988 0.8907454
0.37116045 0.7460441 0.89079118
0.42578775 0.74607462 0.89076066
0.50778973 0.74608988 0.89065385
0.60547799 0.74608988 0.89068437
0.71097887 0.74613565 0.89059281
0.82420081 0.74608988 0.89057755
0.94146639 0.74605936 0.89051652
0.011688411 0.89060807 0.89095903
0.13664454 0.89065385 0.89091325
0.26170748 0.89065385 0.89086748
0.38666361 0.89069963 0.8908217
0.51166552 0.89060807 0.89071489
0.63662165 0.89065385 0.89066911
0.7616846 0.89065385 0.89062333
0.88664073 0.89069963 0.89057755
