site/assets/luts/colour-blind-luts--protanope-daltonise-lut--980a4baf9.cube
# LUTr-Project: LUTr — LUTrepository
# LUTr-Schema-Version: 1
# LUTr-ID: colour-blind-luts--protanope-daltonise-lut--980a4baf9
# LUTr-Title: protanope daltonise lut
# LUTr-Collection: Colour-Blind LUTs
# LUTr-Collection-ID: andrewwillmott-colour-blind-luts
# LUTr-Source: https://github.com/andrewwillmott/colour-blind-luts
# LUTr-Source-File: submissions/andrewwillmott-colour-blind-luts/luts/protanope_daltonise_lut.png
# LUTr-Source-Format: PNG
# LUTr-Source-SHA256: d271f7cc290739e29ffd38a9e5136d8bdff444d6d7751c79a6e75de0a0ed31d5
# LUTr-License: Unlicense
# LUTr-License-URL: https://github.com/andrewwillmott/colour-blind-luts/blob/master/LICENSE
# LUTr-Tags: technical, accessibility, color-vision, simulation, correction, png, protanopia, cube
# LUTr-Transform-Class: accessibility
# LUTr-Input-Color-Space: srgb
# LUTr-Output-Color-Space: srgb
# LUTr-Color-Space-Confidence: assumed-display-referred
# LUTr-Conversion-Method: PNG LUT image decoded at 16-bit and sampled to 32x32x32 3D CUBE
# LUTr-Conversion-Date: 2026-07-27
# LUTr-Conversion-Tool: LUTr scripts/convert-all-to-cube.mjs
# LUTr-Conversion-Grid: 32x32x32
# LUTr-Note: Preserve this metadata and the upstream license notices when redistributing.
TITLE "protanope daltonise lut"
LUT_3D_SIZE 8
DOMAIN_MIN 0.000000 0.000000 0.000000
DOMAIN_MAX 0.903226 0.903226 0.903226
0.015640497 0.015640497 0.015640497
0.1406424 0.10157931 0.10934615
0.26565957 0.19531548 0.21084916
0.39064622 0.28519112 0.31244373
0.51566339 0.37892729 0.41394675
0.64061952 0.46883345 0.51166552
0.76563668 0.56256962 0.61318379
0.89062333 0.65244526 0.7147631
0.015609979 0.10160983 0.000045777066
0.14059663 0.1406424 0.015548943
0.26561379 0.21487755 0.18753338
0.39060044 0.29695583 0.29686427
0.51563287 0.38677043 0.40231937
0.64061952 0.47666133 0.50377661
0.76562142 0.56641489 0.60529488
0.89060807 0.65627527 0.70687419
0.015548943 0.19147021 0.000091554131
0.14055085 0.2109865 0.000030518044
0.26544594 0.26567483 0.01559472
0.39064622 0.33600366 0.24216068
0.51555657 0.4141146 0.36705577
0.640589 0.50002289 0.4764477
0.76560616 0.58593118 0.58583963
0.89060807 0.67191577 0.69124895
0.015487907 0.28134585 0.00012207218
0.14044404 0.293019 0.000015259022
0.26547646 0.33212787 0.000015259022
0.39046311 0.39073777 0.01559472
0.51554131 0.45711452 0.28909743
0.64052796 0.53521019 0.42568093
0.76557565 0.61339742 0.54677653
0.89060807 0.69930571 0.65616846
0.015518425 0.37116045 0.00016784924
0.140383 0.38287938 0.000045777066
0.26543069 0.4102388 0.000061036088
0.39043259 0.45709926 0.000061036088
0.51541924 0.51572442 0.015640497
0.64048219 0.5821622 0.32808423
0.76557565 0.65630579 0.4804303
0.89054704 0.73449302 0.60540169
0.01544213 0.46102083 0.00021362631
0.140383 0.46881819 0.00015259022
0.26540017 0.49233234 0.00010681315
0.3903563 0.53136492 0.000045777066
0.51534295 0.57824063 0.000045777066
0.64028382 0.64077211 0.015548943
0.76552987 0.70713359 0.36720836
0.89045548 0.77744717 0.52724498
0.015381094 0.55088121 0.00024414435
0.14032197 0.55869383 0.00019836728
0.26540017 0.57827115 0.00021362631
0.39031052 0.60947585 0.000091554131
0.51526665 0.65250629 0.000030518044
0.64037537 0.70331884 0.000045777066
0.76530098 0.76583505 0.015671015
0.89037919 0.83215076 0.40225834
0.015350576 0.64461738 0.00021362631
0.14035248 0.64850843 0.00022888533
0.26532387 0.66416419 0.00012207218
0.39028 0.69156939 0.0001373312
0.51529717 0.72671092 0.000015259022
0.64028382 0.77358663 0.000015259022
0.76522469 0.82836652 0
0.89025711 0.89083696 0.01559472
0.015625238 0.01559472 0.14053559
0.1406424 0.10154879 0.1718471
0.26564431 0.19528496 0.24599069
0.39064622 0.28511482 0.33588159
0.51558709 0.37894255 0.42964828
0.64063478 0.46883345 0.52722972
0.76565194 0.56249332 0.62479591
0.89060807 0.65239948 0.72249943
0.015609979 0.10159457 0.089951934
0.14065766 0.14065766 0.14065766
0.26562905 0.21480125 0.22653544
0.39060044 0.29689479 0.32018006
0.51564813 0.38677043 0.41789883
0.64063478 0.47663081 0.51947814
0.76560616 0.56643015 0.61710536
0.89065385 0.65630579 0.71468681
0.015548943 0.19147021 0.000091554131
0.14055085 0.2109865 0.000030518044
0.26559854 0.26565957 0.14056611
0.39060044 0.33601892 0.27341115
0.51561761 0.4140383 0.38661784
0.64060426 0.50002289 0.4920119
0.76559091 0.58597696 0.5975433
0.89065385 0.67194629 0.69906157
0.015487907 0.28134585 0.00012207218
0.14044404 0.293019 0.000015259022
0.26547646 0.33212787 0.000015259022
0.39046311 0.390692 0.14061189
0.51554131 0.45706874 0.31241321
0.64055848 0.53517967 0.44136721
0.76559091 0.61329061 0.55852598
0.89051652 0.6992752 0.66779583
0.015518425 0.37116045 0.00016784924
0.140383 0.38287938 0.000045777066
0.26543069 0.4102388 0.000061036088
0.39043259 0.45709926 0.000061036088
0.51548028 0.51575494 0.14061189
0.64048219 0.58208591 0.35152209
0.76556039 0.65635157 0.49211872
0.89056229 0.73441672 0.61701381
0.01544213 0.46102083 0.00021362631
0.140383 0.46881819 0.00015259022
0.26540017 0.49233234 0.00010681315
0.3903563 0.53136492 0.000045777066
0.51534295 0.57824063 0.000045777066
0.64043641 0.64074159 0.1406424
0.76549935 0.70713359 0.38664836
0.89054704 0.77743191 0.53893339
0.015381094 0.55088121 0.00024414435
0.14032197 0.55869383 0.00019836728
0.26540017 0.57827115 0.00021362631
0.39031052 0.60947585 0.000091554131
0.51526665 0.65250629 0.000030518044
0.64037537 0.70331884 0.000045777066
0.76530098 0.76578927 0.14056611
0.89039445 0.83215076 0.41782254
0.015350576 0.64461738 0.00021362631
0.14035248 0.64850843 0.00022888533
0.26532387 0.66416419 0.00012207218
0.39028 0.69156939 0.0001373312
0.51529717 0.72671092 0.000015259022
0.64028382 0.77358663 0.000015259022
0.76522469 0.82836652 0
0.89031815 0.89085222 0.14068818
0.015686275 0.015609979 0.26562905
0.14076448 0.10154879 0.28125429
0.26567483 0.19530022 0.32813001
0.39070726 0.28517586 0.39833677
0.51566339 0.37889677 0.47646296
0.64063478 0.46878767 0.56235599
0.7656672 0.56256962 0.65612268
0.89060807 0.65241474 0.74988937
0.015655756 0.10151827 0.24609751
0.1406424 0.14061189 0.26555276
0.26559854 0.21484703 0.31242847
0.39070726 0.29689479 0.38664836
0.51566339 0.38669413 0.46871138
0.64061952 0.47660029 0.55460441
0.76565194 0.56641489 0.64824903
0.89066911 0.65632105 0.74207675
0.015609979 0.19136339 0.17193866
0.14062715 0.21089494 0.19926757
0.26559854 0.26559854 0.26559854
0.39067674 0.33597314 0.34761578
0.51560235 0.4141146 0.4373846
0.64060426 0.50003815 0.53121233
0.76563668 0.58593118 0.62879377
0.89065385 0.67194629 0.72643626
0.015487907 0.28134585 0.00012207218
0.14044404 0.293019 0.000015259022
0.26549172 0.33212787 0.11717403
0.3906157 0.39067674 0.26558328
0.51563287 0.45706874 0.37886625
0.64052796 0.53519493 0.48819715
0.76565194 0.61332113 0.59371328
0.89062333 0.69922942 0.69517052
0.015518425 0.37116045 0.00016784924
0.140383 0.38287938 0.000045777066
0.26543069 0.4102388 0.000061036088
0.39043259 0.45709926 0.000061036088
0.51548028 0.51570916 0.26562905
0.64054322 0.58208591 0.41004044
0.76559091 0.65635157 0.53507286
0.89059281 0.73449302 0.64834058
0.01544213 0.46102083 0.00021362631
0.140383 0.46881819 0.00015259022
0.26540017 0.49233234 0.00010681315
0.3903563 0.53136492 0.000045777066
0.51534295 0.57824063 0.000045777066
0.64043641 0.64071107 0.26555276
0.76549935 0.7070573 0.4374609
0.89054704 0.77747768 0.57801175
0.015381094 0.55088121 0.00024414435
0.14032197 0.55869383 0.00019836728
0.26540017 0.57827115 0.00021362631
0.39031052 0.60947585 0.000091554131
0.51526665 0.65250629 0.000030518044
0.64037537 0.70331884 0.000045777066
0.76545357 0.76575875 0.26565957
0.890486 0.83215076 0.46871138
0.015350576 0.64461738 0.00021362631
0.14035248 0.64850843 0.00022888533
0.26532387 0.66416419 0.00012207218
0.39028 0.69156939 0.0001373312
0.51529717 0.72671092 0.000015259022
0.64028382 0.77358663 0.000015259022
0.76522469 0.82836652 0
0.89031815 0.89080644 0.26558328
0.015777829 0.015533684 0.39053941
0.14077974 0.10154879 0.39841306
0.26570535 0.1952697 0.43360037
0.39078355 0.28514534 0.48435187
0.51564813 0.37889677 0.55066758
0.64061952 0.46875715 0.62487221
0.76568246 0.56250858 0.70695048
0.89063859 0.65239948 0.79284352
0.015686275 0.10148775 0.37894255
0.14070344 0.14062715 0.39064622
0.26573587 0.21484703 0.42183566
0.39070726 0.29687953 0.47653925
0.51563287 0.38670939 0.542916
0.64061952 0.47656977 0.61712062
0.76568246 0.56641489 0.70301366
0.89063859 0.65632105 0.78889143
0.015701534 0.19137865 0.33998627
0.14070344 0.21092546 0.3516289
0.26565957 0.26562905 0.39056992
0.39066148 0.33591211 0.44525826
0.51572442 0.41408408 0.51953918
0.64071107 0.50005341 0.5975433
0.7656672 0.5859617 0.68343633
0.89062333 0.67196155 0.77326619
0.015640497 0.28126955 0.25012589
0.14062715 0.29298848 0.26964218
0.26567483 0.33205158 0.32034791
0.3906157 0.3906157 0.3906157
0.51564813 0.45703822 0.46875715
0.64057374 0.53519493 0.55852598
0.76560616 0.6133669 0.65223163
0.89060807 0.69930571 0.74593729
0.015518425 0.37116045 0.00016784924
0.140383 0.38287938 0.000045777066
0.26550698 0.41026932 0.15242237
0.39049363 0.45711452 0.27731746
0.51554131 0.51573968 0.39060044
0.64060426 0.58205539 0.49605554
0.76559091 0.65632105 0.59758907
0.89053178 0.73443198 0.70304417
0.01544213 0.46102083 0.00021362631
0.140383 0.46881819 0.00015259022
0.26540017 0.49233234 0.00010681315
0.3903563 0.53136492 0.000045777066
0.51549554 0.57824063 0.22661173
0.64049744 0.64071107 0.39064622
0.76552987 0.70710307 0.5194934
0.89059281 0.77744717 0.63663691
0.015381094 0.55088121 0.00024414435
0.14032197 0.55869383 0.00019836728
0.26540017 0.57827115 0.00021362631
0.39031052 0.60947585 0.000091554131
0.51526665 0.65250629 0.000030518044
0.64043641 0.70327306 0.14845502
0.76545357 0.76572824 0.39056992
0.89045548 0.83215076 0.542916
0.015350576 0.64461738 0.00021362631
0.14035248 0.64850843 0.00022888533
0.26532387 0.66416419 0.00012207218
0.39028 0.69156939 0.0001373312
0.51529717 0.72671092 0.000015259022
0.64028382 0.77358663 0.000015259022
0.76522469 0.82836652 0
0.89047074 0.89077592 0.39067674
0.015838865 0.015533684 0.51563287
0.14077974 0.10148775 0.52343023
0.26578164 0.1952697 0.54686809
0.39070726 0.28508431 0.58587015
0.51564813 0.37888151 0.64055848
0.64071107 0.46880293 0.70301366
0.76572824 0.56250858 0.77727932
0.8907454 0.65232319 0.85534447
0.01576257 0.10151827 0.50391394
0.140795 0.14055085 0.51555657
0.26575113 0.21484703 0.53899443
0.39079881 0.29683375 0.57811856
0.51564813 0.38670939 0.63268482
0.64074159 0.47655451 0.69913787
0.76568246 0.56646067 0.7694667
0.89073014 0.65624475 0.85140764
0.015716793 0.19131762 0.48056764
0.14077974 0.21086442 0.48833448
0.26564431 0.26556802 0.51558709
0.390692 0.33594263 0.55466545
0.51567864 0.41408408 0.61318379
0.64066529 0.50000763 0.67962158
0.76571298 0.58597696 0.75376516
0.89062333 0.67193103 0.83578241
0.015701534 0.28123903 0.42592508
0.14065766 0.2929427 0.43749142
0.26569009 0.33206683 0.46488136
0.39067674 0.39064622 0.51558709
0.51567864 0.45700771 0.57421225
0.64068055 0.5351339 0.6482948
0.76568246 0.61332113 0.72643626
0.89060807 0.6992752 0.8084535
0.015533684 0.37109941 0.33211261
0.1406424 0.38280308 0.34389258
0.26561379 0.41013199 0.3829099
0.39056992 0.45703822 0.44142824
0.51563287 0.51563287 0.51563287
0.64066529 0.58205539 0.59377432
0.76562142 0.65635157 0.67960632
0.89063859 0.73443198 0.76949722
0.015487907 0.46102083 0.043152514
0.14048981 0.46877241 0.11731136
0.26549172 0.49222553 0.21490806
0.39049363 0.53125811 0.31255055
0.51548028 0.57816434 0.41402304
0.64048219 0.64068055 0.51554131
0.76557565 0.7070573 0.61313802
0.89062333 0.77740139 0.71471733
0.015381094 0.55088121 0.00024414435
0.14032197 0.55869383 0.00019836728
0.26540017 0.57827115 0.00021362631
0.39031052 0.60947585 0.000091554131
0.51549554 0.65246052 0.21103227
0.64046693 0.7032578 0.38287938
0.76551461 0.76572824 0.51566339
0.89056229 0.83210498 0.63268482
0.015350576 0.64461738 0.00021362631
0.14035248 0.64850843 0.00022888533
0.26532387 0.66416419 0.00012207218
0.39028 0.69156939 0.0001373312
0.51529717 0.72671092 0.000015259022
0.64028382 0.77358663 0.000015259022
0.76542306 0.82822919 0.34372473
0.89045548 0.89073014 0.51558709
0.015838865 0.015503166 0.64052796
0.14082551 0.10144198 0.64446479
0.2657969 0.1952697 0.66402686
0.39084459 0.28508431 0.69527733
0.51573968 0.37886625 0.74203098
0.64075685 0.46872663 0.79679561
0.76568246 0.56247807 0.85923552
0.89071489 0.65233845 0.9295491
0.015854124 0.10148775 0.63288319
0.14085603 0.14055085 0.64065003
0.26585794 0.21477073 0.65627527
0.39070726 0.29681849 0.69134051
0.51573968 0.38666361 0.73427939
0.64075685 0.47655451 0.78890669
0.76568246 0.56638437 0.85528344
0.89071489 0.65624475 0.92561227
0.01576257 0.19130236 0.61329061
0.14077974 0.21089494 0.61718166
0.26581216 0.26555276 0.64057374
0.39081407 0.33591211 0.67182422
0.5156939 0.41405356 0.7186389
0.64071107 0.49996185 0.77326619
0.76577401 0.58594644 0.83978027
0.89069963 0.67188525 0.90998703
0.01576257 0.28119326 0.57433433
0.14077974 0.29288167 0.58214694
0.26576638 0.33199054 0.6016022
0.39066148 0.39058518 0.64060426
0.51575494 0.45700771 0.68749523
0.64072633 0.53514916 0.74601358
0.76569772 0.61330587 0.81634241
0.89073014 0.69925994 0.89047074
0.015701534 0.37109941 0.51184863
0.1407187 0.38277256 0.51967651
0.26561379 0.41013199 0.54688334
0.390692 0.45700771 0.5859617
0.5156939 0.51566339 0.64060426
0.64063478 0.58202487 0.70310521
0.76569772 0.65624475 0.7772488
0.89069963 0.73443198 0.85539025
0.01559472 0.46092927 0.4142977
0.14056611 0.46877241 0.42206455
0.26562905 0.49222553 0.4532845
0.39060044 0.53122759 0.50391394
0.51564813 0.57816434 0.56638437
0.64065003 0.64065003 0.64065003
0.76568246 0.70710307 0.71866941
0.89062333 0.77738613 0.80462348
0.015503166 0.55080491 0.20729381
0.14050507 0.55864805 0.23062486
0.26547646 0.57816434 0.2892195
0.39047837 0.60939956 0.36723888
0.5155108 0.65239948 0.45320821
0.64054322 0.70313573 0.542916
0.76549935 0.76569772 0.64055848
0.89056229 0.83212024 0.73427939
0.015350576 0.64461738 0.00021362631
0.14035248 0.64850843 0.00022888533
0.26532387 0.66416419 0.00012207218
0.39028 0.69156939 0.0001373312
0.51538872 0.72669566 0.23056382
0.64042115 0.77357137 0.39067674
0.76549935 0.82819867 0.51952392
0.89053178 0.8907454 0.64068055
0.015899901 0.015518425 0.76562142
0.14088655 0.10145724 0.76955825
0.26584268 0.19522393 0.78506142
0.39085985 0.28508431 0.8124361
0.5157702 0.37883574 0.84748608
0.64080262 0.46874189 0.89449912
0.76575875 0.5625391 0.94906538
0.8908217 0.65232319 0.9960174
0.015854124 0.10145724 0.75779355
0.14085603 0.14052033 0.76554513
0.26581216 0.21478599 0.77729458
0.39078355 0.29681849 0.80460822
0.51587701 0.38666361 0.84368658
0.64083314 0.47652399 0.89050126
0.76568246 0.56636912 0.94518959
0.89076066 0.65624475 0.9959411
0.015854124 0.19127184 0.74225986
0.14087129 0.21086442 0.74615091
0.2657969 0.26550698 0.76559091
0.39076829 0.33589685 0.79298085
0.5157702 0.41397726 0.82798505
0.64080262 0.49999237 0.87879759
0.76571298 0.58594644 0.93344015
0.89077592 0.67185473 0.99600214
0.015747311 0.281178 0.7110399
0.14076448 0.29288167 0.71874571
0.26581216 0.33196002 0.73444724
0.39082933 0.39056992 0.76557565
0.5157702 0.45700771 0.804654
0.64069581 0.53511864 0.85534447
0.7657435 0.61330587 0.91404593
0.89073014 0.69916838 0.97642481
0.015747311 0.3709926 0.66813153
0.1407187 0.38274205 0.67196155
0.26573587 0.41010147 0.6914168
0.39067674 0.45697719 0.72268254
0.51567864 0.51560235 0.76562142
0.64071107 0.58202487 0.81638819
0.76568246 0.65626001 0.87884337
0.89071489 0.73441672 0.94517433
0.015640497 0.46085298 0.59784848
0.14061189 0.46869612 0.60561532
0.26569009 0.49211872 0.62513161
0.39060044 0.53127337 0.66015106
0.51566339 0.5781033 0.70696574
0.64063478 0.64060426 0.76554513
0.76565194 0.70704204 0.82812238
0.89066911 0.77738613 0.902327
0.015548943 0.55075914 0.4924239
0.14052033 0.55858701 0.50019074
0.2655375 0.57813382 0.52739757
0.39055467 0.6093843 0.57041276
0.51563287 0.65238422 0.62499428
0.64066529 0.70318151 0.69140154
0.7656672 0.7656672 0.7656672
0.89062333 0.83204395 0.84361028
0.015457389 0.64455634 0.30885786
0.140383 0.64849317 0.32443732
0.26549172 0.66407263 0.36739147
0.39049363 0.69146258 0.42592508
0.51549554 0.72661936 0.50000763
0.64055848 0.77347982 0.58591592
0.76556039 0.82822919 0.67186999
0.89051652 0.89071489 0.76557565
0.015991455 0.015426871 0.89053178
0.14088655 0.10142672 0.8944686
0.26590372 0.19516289 0.90620279
0.3908751 0.28509957 0.92957961
0.51584649 0.37880522 0.96089113
0.64083314 0.46865034 0.99589532
0.76583505 0.56247807 0.9960174
0.8908217 0.65232319 0.9960174
0.016006714 0.10141146 0.88288701
0.14091707 0.14053559 0.89063859
0.26590372 0.21467918 0.902327
0.39082933 0.29677272 0.92564279
0.51578546 0.3866331 0.95689326
0.64086366 0.47649348 0.99595636
0.76575875 0.56639963 0.99595636
0.89076066 0.65624475 0.9959411
0.015854124 0.1912871 0.87122911
0.14090181 0.21075761 0.87505913
0.26585794 0.2655375 0.89056229
0.3908751 0.33585107 0.91012436
0.51578546 0.41396201 0.94525063
0.64083314 0.49996185 0.98426795
0.76571298 0.58591592 0.9959411
0.89077592 0.67185473 0.99600214
0.015823606 0.2811017 0.84776074
0.140795 0.29286641 0.85159075
0.26590372 0.33196002 0.86329442
0.39081407 0.39050889 0.89060807
0.51578546 0.45702296 0.92181277
0.64083314 0.53511864 0.96475166
0.76580453 0.61322957 0.99600214
0.89076066 0.69922942 0.9959411
0.015823606 0.3709926 0.80880446
0.14081025 0.38275731 0.81261921
0.26570535 0.41007095 0.82813764
0.39072251 0.45697719 0.85539025
0.51573968 0.51564813 0.89059281
0.64072633 0.58202487 0.93354696
0.76571298 0.65621424 0.98429847
0.89071489 0.73435569 0.99598688
0.015686275 0.46085298 0.75794614
0.1407187 0.46869612 0.76183719
0.26576638 0.49216449 0.77747768
0.39072251 0.53122759 0.80468452
0.51570916 0.57807279 0.83981079
0.64069581 0.64061952 0.89063859
0.7656672 0.70704204 0.94528115
0.89071489 0.77734035 0.99597162
0.01559472 0.55075914 0.6799115
0.14067292 0.55854124 0.68767834
0.26561379 0.5781033 0.70318151
0.39064622 0.60933852 0.73438621
0.51563287 0.65233845 0.77740139
0.64065003 0.70315099 0.82810712
0.76565194 0.76562142 0.89056229
0.89060807 0.83205921 0.95701534
0.015533684 0.64449531 0.57454795
0.14058137 0.64844739 0.58225376
0.26552224 0.66408789 0.60170901
0.39055467 0.69140154 0.63685054
0.51555657 0.7266041 0.6876173
0.64060426 0.77346456 0.74613565
0.76557565 0.82816815 0.81246662
0.89066911 0.89066911 0.89066911
