site/assets/luts/colour-blind-luts--viridis-lut--1414673a3.cube
# LUTr-Project: LUTr — LUTrepository
# LUTr-Schema-Version: 1
# LUTr-ID: colour-blind-luts--viridis-lut--1414673a3
# LUTr-Title: viridis lut
# LUTr-Collection: Colour-Blind LUTs
# LUTr-Collection-ID: andrewwillmott-colour-blind-luts
# LUTr-Source: https://github.com/andrewwillmott/colour-blind-luts
# LUTr-Source-File: submissions/andrewwillmott-colour-blind-luts/luts/viridis_lut.png
# LUTr-Source-Format: PNG
# LUTr-Source-SHA256: b4882689a70d9d36819a8b59ee010133d24c35a13e5180841f4fde7ff6e02cd0
# LUTr-License: Unlicense
# LUTr-License-URL: https://github.com/andrewwillmott/colour-blind-luts/blob/master/LICENSE
# LUTr-Tags: technical, accessibility, color-vision, simulation, correction, png, cube
# LUTr-Transform-Class: accessibility
# LUTr-Input-Color-Space: srgb
# LUTr-Output-Color-Space: srgb
# LUTr-Color-Space-Confidence: assumed-display-referred
# LUTr-Conversion-Method: PNG LUT image decoded at 16-bit and sampled to 32x32x32 3D CUBE
# LUTr-Conversion-Date: 2026-07-27
# LUTr-Conversion-Tool: LUTr scripts/convert-all-to-cube.mjs
# LUTr-Conversion-Grid: 32x32x32
# LUTr-Conversion-Warning: Source is a 256-sample false-colour ramp; converted as Rec.709 luminance to RGB.
# LUTr-Note: Preserve this metadata and the upstream license notices when redistributing.
TITLE "viridis lut"
LUT_3D_SIZE 5
DOMAIN_MIN 0.000000 0.000000 0.000000
DOMAIN_MAX 0.903226 0.903226 0.903226
0.26573587 0.0038910506 0.32793164
0.27844032 0.07514119 0.39635674
0.28138323 0.13855506 0.45493409
0.27359693 0.19811259 0.49501691
0.25792223 0.2537043 0.52341701
0.26888948 0.21942974 0.50840786
0.24845054 0.27502547 0.53122525
0.22662196 0.3267552 0.54559513
0.20315862 0.3785692 0.55085069
0.17973602 0.42630417 0.55475926
0.19392383 0.39593584 0.55479306
0.17344831 0.44140696 0.55484291
0.15626174 0.48767205 0.55481214
0.13669301 0.53161556 0.55485842
0.12367752 0.57552641 0.54713756
0.1327882 0.54897495 0.55091592
0.12104331 0.59288649 0.5431579
0.12485234 0.63683953 0.52360197
0.15723891 0.68074543 0.49919842
0.2226205 0.7247577 0.46305814
0.17854364 0.69817712 0.48565116
0.24976952 0.73821468 0.44563886
0.34517906 0.7781976 0.3939089
0.45251294 0.81264284 0.3325972
0.57035264 0.84001037 0.25639199
0.2735766 0.027915341 0.3526106
0.28140087 0.0968409 0.41712477
0.28138185 0.15870475 0.47119116
0.26959999 0.21826648 0.50725082
0.24962473 0.27385127 0.53121611
0.26181456 0.23956361 0.51694676
0.24231967 0.29357521 0.53749609
0.21882421 0.34694227 0.54693997
0.19507061 0.39477079 0.55478849
0.17460423 0.44140239 0.5548155
0.18748634 0.41215797 0.554743
0.16797932 0.45606325 0.55482242
0.14846998 0.50386846 0.55484831
0.13281105 0.54780076 0.55093876
0.12103417 0.591726 0.54317618
0.12886698 0.56528272 0.54820771
0.11711385 0.60921132 0.53564428
0.13272297 0.65307889 0.5190649
0.17738772 0.6970075 0.48685733
0.24856335 0.73704505 0.44678564
0.20207945 0.71102287 0.47332479
0.28201303 0.75398071 0.42934621
0.37910233 0.79057761 0.37371534
0.49122295 0.82278942 0.30785923
0.61185726 0.84779968 0.23110001
0.27746045 0.051986265 0.37610966
0.28132887 0.11759177 0.43562254
0.27743029 0.17888257 0.48352879
0.26180085 0.23838028 0.51578627
0.24232424 0.29122683 0.53631733
0.25593902 0.25578777 0.52534619
0.23447413 0.31145867 0.54195093
0.21098556 0.3631321 0.55084976
0.18750462 0.41099292 0.55472473
0.16797018 0.4549119 0.55480871
0.17973602 0.428422 0.55476735
0.16043416 0.47232273 0.55477471
0.14456939 0.51626292 0.55493026
0.12887155 0.56411309 0.54938648
0.11711842 0.6080417 0.53682304
0.12160011 0.57761191 0.54715372
0.12104364 0.62542214 0.53151133
0.14446674 0.66935922 0.50803955
0.19972649 0.7110183 0.4744807
0.27967068 0.7532948 0.43051538
0.22658828 0.72684068 0.46098072
0.31455682 0.76682077 0.41316199
0.41612043 0.80089228 0.3535941
0.53215706 0.8322011 0.28227305
0.6560316 0.85560496 0.203112
0.27935057 0.076033872 0.39814913
0.28139377 0.13945828 0.4558584
0.27360747 0.19901581 0.49593771
0.25713605 0.254609 0.52418113
0.2344787 0.31029818 0.54081328
0.24754731 0.27592869 0.53123228
0.22661493 0.32764788 0.54647024
0.20262579 0.37946493 0.55084651
0.17973602 0.42722497 0.55476278
0.1616312 0.47116681 0.55478385
0.17255914 0.44141047 0.554864
0.15595055 0.48857645 0.55480395
0.13670004 0.53250824 0.55484437
0.1227743 0.57643315 0.54714459
0.12103168 0.62424795 0.5314903
0.12104982 0.59377969 0.54307796
0.12487694 0.63774276 0.5236336
0.15814565 0.68165217 0.49831276
0.2244164 0.72566444 0.46215492
0.31223941 0.7656636 0.41436209
0.25144616 0.73911742 0.4447355
0.34697497 0.77910434 0.39300216
0.45429831 0.81263932 0.33079778
0.57304475 0.84002092 0.25458553
0.69686302 0.86409004 0.17453092
0.28137979 0.098650866 0.41892419
0.28137833 0.15959743 0.47206627
0.26915834 0.21916088 0.50813795
0.24872151 0.2747545 0.53122314
0.22662407 0.32648739 0.5453326
0.24231615 0.29538167 0.53840283
0.21862331 0.34783736 0.54693073
0.19418847 0.39566698 0.55479201
0.17371506 0.4414059 0.55483658
0.15626596 0.48740108 0.55481635
0.16798635 0.45694891 0.55483296
0.14845241 0.50477169 0.55483425
0.13279347 0.54870398 0.55092119
0.1210412 0.59261868 0.54316212
0.12469191 0.63657043 0.52375735
0.11712097 0.61010571 0.53541318
0.13272297 0.6539786 0.51815464
0.17827689 0.69790721 0.48592951
0.24949117 0.73794476 0.44590351
0.34464029 0.77792558 0.39418093
0.283823 0.75398422 0.42845704
0.38180498 0.79149138 0.37282969
0.4939256 0.82369265 0.30603872
0.61398092 0.84812144 0.22987417
0.7417066 0.87131082 0.14719935
