site/assets/luts/colour-blind-luts--protanope-correct-lut--1a552b602.cube
# LUTr-Project: LUTr — LUTrepository
# LUTr-Schema-Version: 1
# LUTr-ID: colour-blind-luts--protanope-correct-lut--1a552b602
# LUTr-Title: protanope correct lut
# LUTr-Collection: Colour-Blind LUTs
# LUTr-Collection-ID: andrewwillmott-colour-blind-luts
# LUTr-Source: https://github.com/andrewwillmott/colour-blind-luts
# LUTr-Source-File: submissions/andrewwillmott-colour-blind-luts/luts/protanope_correct_lut.png
# LUTr-Source-Format: PNG
# LUTr-Source-SHA256: 338fbebbca98b9a604eb4c85f450dff1587480225aadc7f1247ed3e55b96b83b
# LUTr-License: Unlicense
# LUTr-License-URL: https://github.com/andrewwillmott/colour-blind-luts/blob/master/LICENSE
# LUTr-Tags: technical, accessibility, color-vision, simulation, correction, png, protanopia, cube
# LUTr-Transform-Class: accessibility
# LUTr-Input-Color-Space: srgb
# LUTr-Output-Color-Space: srgb
# LUTr-Color-Space-Confidence: assumed-display-referred
# LUTr-Conversion-Method: PNG LUT image decoded at 16-bit and sampled to 32x32x32 3D CUBE
# LUTr-Conversion-Date: 2026-07-27
# LUTr-Conversion-Tool: LUTr scripts/convert-all-to-cube.mjs
# LUTr-Conversion-Grid: 32x32x32
# LUTr-Note: Preserve this metadata and the upstream license notices when redistributing.
TITLE "protanope correct lut"
LUT_3D_SIZE 32
DOMAIN_MIN 0 0 0
DOMAIN_MAX 1 1 1
0.011657893 0.015640497 0.011657893
0.050797284 0.000030518044 0.043015183
0.085908293 0 0.070252537
0.12111086 0 0.10144198
0.15629816 0 0.1288777
0.19150072 0 0.16006714
0.22667277 0 0.18738079
0.26179904 0.000015259022 0.21857023
0.29697108 0.000015259022 0.24600595
0.33217365 0 0.27718013
0.36728466 0 0.30443275
0.40256352 0 0.33580529
0.43767453 0 0.36304265
0.47278553 0 0.39423209
0.50795758 0 0.42166781
0.5431754 0 0.45285725
0.57834745 0 0.4801709
0.61356527 0 0.51148241
0.64873732 0 0.53879606
0.68384833 0 0.56997024
0.71895933 0 0.59722286
0.7541619 0 0.62853437
0.78933394 0 0.65584802
0.82446021 0 0.6870222
0.85972381 0 0.71445792
0.89485008 0 0.74564736
0.93002213 0 0.77296101
0.96522469 0 0.80427253
0.99647517 0 0.83147936
0.99641413 0 0.8627451
0.99642939 0 0.89011978
0.99647517 0 0.92138552
0 0.046875715 0.000045777066
0.046784161 0.046875715 0.015579461
0.082017243 0.035187304 0.062531472
0.11720455 0 0.093720912
0.1563592 0 0.12487984
0.19147021 0 0.15619135
0.22664225 0.000030518044 0.183505
0.26186007 0 0.21469444
0.29697108 0.000015259022 0.24600595
0.33206683 0 0.27324331
0.36728466 0 0.30443275
0.4024567 0 0.33186847
0.43767453 0 0.36304265
0.47284657 0 0.3903563
0.50795758 0 0.42166781
0.5431754 0 0.45285725
0.57834745 0 0.4801709
0.61356527 0 0.51148241
0.64873732 0 0.53879606
0.68384833 0 0.56997024
0.71895933 0 0.59722286
0.7541619 0 0.62853437
0.78933394 0 0.65584802
0.82446021 0 0.6870222
0.85972381 0 0.71445792
0.89485008 0 0.74564736
0.93002213 0 0.77296101
0.96522469 0 0.80427253
0.99647517 0 0.83147936
0.99641413 0 0.8627451
0.99642939 0 0.89011978
0.99647517 0 0.92138552
0 0.082093538 0.000045777066
0.027328908 0.082078279 0.000091554131
0.074143587 0.074235142 0.015564202
0.11325246 0.066422522 0.074158846
0.15237659 0.050766766 0.11326772
0.18762493 0.01559472 0.1445182
0.22276646 0 0.17952239
0.25787747 0 0.21083391
0.29304952 0.000015259022 0.23814755
0.32826734 0 0.269337
0.36337835 0 0.30064851
0.40251774 0 0.3278706
0.43762875 0 0.35916686
0.47284657 0 0.3903563
0.50801862 0 0.41766995
0.54312963 0 0.44898146
0.57840848 0 0.47629511
0.61351949 0 0.50748455
0.64873732 0 0.53879606
0.68383307 0 0.56603342
0.71895933 0 0.59722286
0.75413138 0 0.62465858
0.78933394 0 0.65584802
0.82452125 0 0.68314641
0.85972381 0 0.71445792
0.89491112 0 0.74177157
0.93002213 0 0.77296101
0.96519417 0 0.80027466
0.99647517 0 0.83147936
0.99647517 0 0.85886931
0.99642939 0 0.89011978
0.99647517 0 0.92138552
0 0.11721981 0.000091554131
0 0.11721981 0.000091554131
0.062516213 0.11332876 0.000015259022
0.1054551 0.10939193 0.011764706
0.14450294 0.097703517 0.089875639
0.18365759 0.085923552 0.12890822
0.21879911 0.070283055 0.16403449
0.25792325 0.035172045 0.19914549
0.29300374 0 0.23033494
0.32822156 0 0.26152438
0.36343938 0 0.29282063
0.39855039 0 0.32401007
0.43375296 0 0.35519951
0.46894026 0 0.38251316
0.50405127 0 0.41382467
0.53925383 0 0.44501411
0.57444114 0 0.47232776
0.6096437 0 0.50362402
0.64476997 0 0.53481346
0.67994202 0 0.56212711
0.71514458 0 0.59343862
0.75027085 0 0.62462806
0.78544289 0 0.65194171
0.82064546 0 0.68325322
0.85575647 0 0.71049058
0.89097429 0 0.74168002
0.92614633 0 0.76911574
0.96125734 0 0.80028992
0.99642939 0 0.82760357
0.99647517 0 0.85886931
0.99642939 0 0.89011978
0.9965362 0 0.91750973
0 0.15237659 0.000015259022
0 0.14845502 0.000091554131
0.038971542 0.14843977 0.000045777066
0.097611963 0.14459449 0.000061036088
0.14059663 0.1406424 0.015548943
0.17972076 0.13282979 0.10154879
0.21484703 0.12111086 0.14454871
0.2539559 0.10548562 0.18352026
0.28915846 0.085923552 0.21870756
0.32434577 0.054688334 0.24991226
0.35951781 0 0.28497749
0.39856565 0 0.31627375
0.43378347 0 0.34744793
0.46889448 0 0.37863737
0.50411231 0 0.40994888
0.53928435 0 0.43726253
0.57450217 0 0.46845197
0.60961318 0 0.49976349
0.64483101 0 0.53093767
0.67992676 0 0.55819028
0.71503777 0 0.58948653
0.75025559 0 0.62067597
0.78542763 0 0.64798962
0.82053864 0 0.67930114
0.8558175 0 0.70661479
0.89092851 0 0.73780423
0.92614633 0 0.76911574
0.96131838 0 0.79642939
0.99642939 0 0.82760357
0.99644465 0 0.85499351
0.99649042 0 0.88624399
0.99650568 0 0.91363394
0 0.18359655 0.000015259022
0 0.18359655 0.000015259022
0 0.18359655 0.000015259022
0.078095674 0.17972076 0.000061036088
0.12886244 0.17578393 0
0.16794079 0.17189288 0.011718929
0.2109102 0.16409552 0.10930037
0.24608225 0.15234607 0.15617609
0.2852369 0.1406424 0.19916075
0.32037842 0.12500191 0.23428702
0.35944152 0.10542458 0.26938277
0.39464408 0.074250401 0.3045243
0.42983139 0.000030518044 0.335729
0.46504921 0 0.36704051
0.50016022 0.000015259022 0.39822995
0.53537804 0 0.42941939
0.57058061 0 0.46071565
0.60956741 0 0.49181353
0.64476997 0 0.52312505
0.67989624 0 0.55431449
0.71506828 0 0.58162814
0.75027085 0 0.61293965
0.78539712 0 0.64411383
0.82059968 0 0.67542535
0.85578698 0 0.70273899
0.89098955 0 0.73392844
0.92610056 0 0.76511788
0.96128786 0 0.7925536
0.99649042 0 0.82372778
0.99642939 0 0.85104143
0.99655146 0 0.8823682
0.99650568 0 0.91363394
0 0.21879911 0.0001373312
0 0.21879911 0.0001373312
0 0.21879911 0.0001373312
0.042893111 0.21484703 0.000061036088
0.11319142 0.2109865 0.00010681315
0.1600824 0.20709545 0.000015259022
0.19916075 0.20320439 0.011734188
0.24216068 0.19530022 0.12106508
0.27733272 0.18362707 0.17189288
0.31642634 0.17584497 0.21480125
0.35165942 0.16014343 0.24992752
0.39067674 0.14456397 0.28889906
0.42583352 0.1210956 0.3200885
0.46106661 0.089768826 0.35529107
0.50017548 0 0.38652628
0.53533227 0 0.42159152
0.57053483 0 0.45278096
0.60564584 0 0.48409247
0.64086366 0 0.51528191
0.67597467 0 0.54645609
0.71119249 0 0.57776761
0.74636454 0 0.60508125
0.78147555 0 0.6362707
0.81669337 0 0.66758221
0.85583276 0 0.6988632
0.89095903 0 0.73005264
0.92605478 0 0.75729
0.9612726 0 0.78860151
0.99638361 0 0.81979095
0.99649042 0 0.84716564
0.99644465 0 0.87843137
0.99649042 0 0.90955978
0 0.25394064 0.000061036088
0 0.25394064 0.000061036088
0 0.25006485 0.00012207218
0 0.25006485 0.00012207218
0.089723049 0.24618906 0.000091554131
0.1444419 0.24217594 0.000061036088
0.19124132 0.23834592 0
0.23031968 0.23443961 0.011673152
0.27335012 0.22658122 0.12883192
0.30856794 0.21484703 0.18352026
0.34766155 0.20706493 0.22644388
0.38670939 0.19533074 0.26547646
0.42195773 0.17972076 0.30453956
0.4571603 0.16015869 0.33974212
0.49619287 0.1367361 0.37477684
0.53138018 0.10547036 0.40608835
0.56662852 0.046829938 0.4411078
0.60180056 0 0.47237354
0.63691157 0 0.50354772
0.67598993 0 0.53476768
0.71110094 0 0.56607919
0.74631876 0 0.59726864
0.78153658 0 0.62845808
0.81672389 0 0.65983062
0.85192645 0 0.69102007
0.88703746 0 0.72220951
0.92225528 0 0.75352102
0.95736629 0 0.78075837
0.9924773 0 0.81194781
0.99645991 0 0.8433051
0.99650568 0 0.87455558
0.99650568 0 0.90180819
0 0.28912795 0.00018310826
0 0.28519112 0.00016784924
0 0.28519112 0.00016784924
0 0.28519112 0.00016784924
0.046707866 0.28130007 0.000076295109
0.12491035 0.27742428 0.0001373312
0.17953765 0.27347219 0
0.22256809 0.2695964 0
0.26544594 0.26567483 0.01559472
0.30463111 0.25792325 0.1366598
0.34367895 0.25003433 0.19519341
0.37891203 0.23834592 0.24214542
0.41795987 0.22661173 0.281178
0.45323873 0.21487755 0.32018006
0.49225605 0.19926757 0.35928893
0.52738231 0.17965972 0.39427787
0.5626154 0.15625238 0.4255436
0.59774166 0.12498665 0.46073091
0.63685054 0.074204623 0.49184405
0.67208362 0 0.52692454
0.70719463 0 0.55823606
0.74241245 0 0.5894255
0.77769131 0 0.62079805
0.81280232 0 0.65198749
0.85188067 0 0.68320745
0.88699168 0 0.71438163
0.92220951 0 0.74557107
0.95732052 0 0.77688258
0.99259937 0 0.80419623
0.99641413 0 0.83535515
0.99652094 0 0.86668193
0.99647517 0 0.89794766
0 0.32040894 0.00016784924
0 0.32040894 0.00016784924
0 0.32040894 0.00016784924
0 0.32040894 0.00016784924
0 0.31642634 0.00016784924
0.10136568 0.31255055 0.000045777066
0.16009766 0.30867475 0.000061036088
0.21075761 0.3047837 0
0.25371176 0.30084688 0
0.29279011 0.29694057 0.011642634
0.33592737 0.28911269 0.14454871
0.37499046 0.28130007 0.20703441
0.41014725 0.26956588 0.25378805
0.44924086 0.26176852 0.29681849
0.48441291 0.24608225 0.33582055
0.52346075 0.23434806 0.37485313
0.55866331 0.21481651 0.40991836
0.5978027 0.19531548 0.44509041
0.63297475 0.17190814 0.48023194
0.66810101 0.14056611 0.51146715
0.70337987 0.093736172 0.54654765
0.73855192 0 0.57769131
0.77759976 0 0.60898756
0.81275654 0 0.64415961
0.84797436 0 0.67534905
0.88308537 0 0.70653849
0.9183032 0 0.73785
0.95341421 0 0.76903944
0.98861677 0 0.80021363
0.99642939 0 0.82760357
0.99647517 0 0.85886931
0.99642939 0 0.89011978
0 0.35553521 0.00021362631
0 0.35553521 0.00021362631
0 0.35553521 0.00021362631
0 0.35164416 0.00016784924
0 0.35164416 0.00016784924
0.050629435 0.34770733 0.00010681315
0.14048981 0.34383154 0.000061036088
0.19511711 0.34386206 0.000030518044
0.24208438 0.33604944 0.000015259022
0.28503853 0.33208209 0.000061036088
0.32411688 0.3282063 0.011657893
0.36713207 0.32039368 0.15231556
0.4061799 0.31258106 0.21478599
0.44138247 0.30077058 0.2655375
0.48041505 0.29298848 0.31233692
0.51963073 0.28128481 0.35143053
0.55471122 0.26564431 0.39043259
0.58995956 0.25392538 0.42569619
0.62896162 0.23436332 0.46466773
0.66422522 0.21481651 0.49585718
0.69929046 0.18747234 0.53098344
0.73846036 0.15622187 0.56615549
0.77367819 0.11320668 0.59734493
0.80891127 0 0.63244068
0.84402228 0 0.66363012
0.87922484 0 0.69494163
0.9183032 0 0.72603952
0.95342947 0 0.75733577
0.98863203 0 0.78852522
0.99638361 0 0.81979095
0.99642939 0 0.85104143
0.99655146 0 0.8823682
0 0.39067674 0.00015259022
0 0.39067674 0.00015259022
0 0.38677043 0.00021362631
0 0.38677043 0.00021362631
0 0.38677043 0.00021362631
0 0.3829099 0.00015259022
0.10922408 0.37900359 0.00016784924
0.17561608 0.37898833 0.000045777066
0.22636759 0.3750515 0
0.27322805 0.3672694 0.000076295109
0.31625849 0.36339361 0.000076295109
0.35533684 0.3594873 0.011795224
0.39833677 0.35165942 0.1600824
0.43743038 0.34378576 0.2265507
0.47263294 0.33597314 0.2773022
0.51172656 0.32426947 0.32416266
0.55080491 0.31248951 0.36707103
0.58599222 0.3008011 0.40607309
0.62510109 0.28514534 0.44518196
0.66024262 0.26950484 0.48030823
0.69538415 0.25389487 0.51531243
0.73458457 0.23047227 0.55054551
0.76969558 0.20700389 0.58559548
0.80488289 0.17575341 0.61680018
0.84010071 0.13279927 0.65206378
0.87917906 0.04679942 0.68317693
0.91436637 0 0.71442741
0.9495079 0 0.74949264
0.98472572 0 0.78068208
0.99650568 0 0.81203937
0.99645991 0 0.8433051
0.99650568 0 0.87455558
0 0.42191196 0.0001373312
0 0.42191196 0.0001373312
0 0.42191196 0.0001373312
0 0.42191196 0.0001373312
0 0.42191196 0.0001373312
0 0.41803616 0.00019836728
0.054551003 0.4141146 0.00012207218
0.15214771 0.41416037 0.00015259022
0.21069657 0.41025406 0.000091554131
0.25760281 0.40636301 0
0.30455482 0.39853513 0.000091554131
0.34750896 0.39458305 0.000015259022
0.38658732 0.39067674 0.011734188
0.42963302 0.38286412 0.16795605
0.46861982 0.3750515 0.23431754
0.50780499 0.36722362 0.28905165
0.54296178 0.35550469 0.33580529
0.58211643 0.34378576 0.3787747
0.61724269 0.33208209 0.42178988
0.65629053 0.32034791 0.46082246
0.69143206 0.30470741 0.49594873
0.73060197 0.28908217 0.53104448
0.76580453 0.26953536 0.56610971
0.80091554 0.25003433 0.60131228
0.84000916 0.22269017 0.63640803
0.87524224 0.19137865 0.67159533
0.91035325 0.14842451 0.70280003
0.94551003 0.081986725 0.7338674
0.98077363 0 0.76908522
0.99642939 0 0.80022889
0.99647517 0 0.83147936
0.99641413 0 0.8627451
0 0.45709926 0.00025940337
0 0.45709926 0.00025940337
0 0.45709926 0.00025940337
0 0.45709926 0.00025940337
0 0.45325399 0.00019836728
0 0.45325399 0.00019836728
0 0.44927138 0.00019836728
0.11692988 0.44928664 0.0001373312
0.18733501 0.44541085 0.000076295109
0.24202335 0.4415198 0.00010681315
0.29279011 0.43758297 0.000045777066
0.33571374 0.42977035 0.000030518044
0.37874418 0.42589456 0.000030518044
0.42162203 0.42198825 0.015533684
0.46083772 0.41412985 0.1757229
0.49993133 0.40634775 0.24602121
0.53904021 0.39845884 0.30067903
0.57421225 0.38677043 0.35150683
0.61322957 0.37892729 0.39435416
0.6523537 0.36725414 0.43346304
0.68757153 0.35550469 0.47646296
0.72271305 0.33987945 0.51146715
0.76182193 0.32423896 0.55056077
0.79696345 0.30859846 0.58568704
0.83610285 0.28909743 0.62085908
0.87121386 0.26561379 0.65592432
0.90643168 0.23820859 0.68717479
0.94163424 0.20704967 0.72231632
0.98075837 0.16795605 0.75741207
0.99638361 0.10537881 0.78863203
0.99638361 0 0.81979095
0.99642939 0 0.85104143
0 0.49225605 0.00018310826
0 0.49225605 0.00018310826
0 0.49225605 0.00018310826
0 0.48838025 0.00024414435
0 0.48838025 0.00024414435
0 0.48838025 0.00024414435
0 0.4844892 0.00019836728
0.054535744 0.48445869 0.00016784924
0.15992981 0.48055238 0.000076295109
0.2224155 0.47669184 0.00010681315
0.2771191 0.47278553 0.00015259022
0.32401007 0.46889448 0.000061036088
0.36702525 0.46103609 0.000045777066
0.40988785 0.45712978 0
0.45291829 0.44937819 0.015609979
0.49202716 0.44539559 0.18348974
0.53113603 0.43759823 0.25391012
0.57024491 0.42980087 0.31239796
0.60544747 0.41800565 0.36314946
0.64454108 0.41019303 0.4061799
0.6836347 0.39841306 0.44908827
0.71880674 0.38672465 0.48809033
0.75785458 0.37499046 0.52713817
0.79310292 0.35938048 0.56620127
0.82824445 0.34373999 0.60132753
0.8673228 0.32416266 0.63642329
0.90241855 0.30467689 0.67148852
0.93769741 0.28122377 0.70663005
0.97672999 0.25778592 0.74178683
0.99632258 0.22650492 0.77297627
0.99630732 0.18747234 0.8081178
0.99635309 0.12884718 0.8393225
0 0.52744335 0.00030518044
0 0.52744335 0.00030518044
0 0.52353704 0.00018310826
0 0.52353704 0.00018310826
0 0.52353704 0.00018310826
0 0.51961547 0.00024414435
0 0.51961547 0.00024414435
0 0.5156939 0.00030518044
0.12478828 0.51573968 0.00025940337
0.19903868 0.51181811 0.00021362631
0.25760281 0.5079118 0.00015259022
0.30836957 0.50399023 0.000091554131
0.35526055 0.50008392 0
0.39819944 0.49626917 0
0.44121462 0.48839551 0
0.48416876 0.48056764 0.015564202
0.5232929 0.47664607 0.18750286
0.56243229 0.46881819 0.26167697
0.60149538 0.46100557 0.3241474
0.63669795 0.45319295 0.37491417
0.67571527 0.44142824 0.42169833
0.71486992 0.42972457 0.46466773
0.75005722 0.41800565 0.50380713
0.78910506 0.40630198 0.54271763
0.82429236 0.39458305 0.58184176
0.86340124 0.37895781 0.62081331
0.89854276 0.36331731 0.65593957
0.93374533 0.34375525 0.69114214
0.97282368 0.32417792 0.72623789
0.99632258 0.3008011 0.76133364
0.99629206 0.27342641 0.79266041
0.99635309 0.24213016 0.82766461
0 0.55872435 0.00028992142
0 0.55872435 0.00028992142
0 0.55872435 0.00028992142
0 0.55872435 0.00028992142
0 0.55872435 0.00028992142
0 0.554757 0.00016784924
0 0.554757 0.00016784924
0 0.55083543 0.00022888533
0.054413672 0.55086595 0.00019836728
0.17163348 0.54695964 0.00021362631
0.23799496 0.54308385 0.00016784924
0.29269856 0.53920806 0.000076295109
0.33958953 0.53528649 0.00010681315
0.38648051 0.53139544 0.000015259022
0.42944991 0.52742809 0.000076295109
0.47243458 0.51970703 0.000015259022
0.51541924 0.51572442 0.015640497
0.5544976 0.5079118 0.1952697
0.59366751 0.50005341 0.27330434
0.63268482 0.49228656 0.33191424
0.67186999 0.48445869 0.38664836
0.70702678 0.47270924 0.43352407
0.74612039 0.46491188 0.47643244
0.78133822 0.45317769 0.51932555
0.82038605 0.4414435 0.55835813
0.85546654 0.42581827 0.59736019
0.89468223 0.41409934 0.6364538
0.92982376 0.39845884 0.67158007
0.96890211 0.37889677 0.70667582
0.99630732 0.36330205 0.74187839
0.99624628 0.33980316 0.77700465
0.99624628 0.31641108 0.81208515
0 0.59386587 0.00022888533
0 0.59386587 0.00022888533
0 0.59386587 0.00022888533
0 0.59386587 0.00022888533
0 0.58995956 0.00028992142
0 0.58995956 0.00028992142
0 0.58995956 0.00028992142
0 0.58603799 0.0003509575
0 0.58603799 0.0003509575
0.12870985 0.58214694 0.00027466239
0.21069657 0.5781796 0.00016784924
0.27318227 0.57433433 0.000091554131
0.32394903 0.5703975 0.000030518044
0.37477684 0.56653696 0.000030518044
0.41773098 0.56256962 0.000091554131
0.46066987 0.5587396 0.000091554131
0.50370031 0.55089647 0
0.54271763 0.54700542 0.015548943
0.58579385 0.53914702 0.20303655
0.62487221 0.53130388 0.28119326
0.6639353 0.52349126 0.34367895
0.70307469 0.51572442 0.3944152
0.738262 0.5039292 0.4451667
0.77729458 0.49613184 0.49207294
0.81634241 0.48441291 0.53098344
0.85157549 0.47266346 0.57398337
0.89068437 0.46099031 0.61309224
0.92587167 0.4453193 0.6520943
0.96498054 0.43356985 0.68725109
0.99618524 0.41797513 0.72622263
0.99623102 0.39842832 0.76136416
0.99626154 0.37886625 0.79650568
0 0.62899214 0.00027466239
0 0.62899214 0.00027466239
0 0.62899214 0.00027466239
0 0.62507057 0.00033569848
0 0.62507057 0.00033569848
0 0.62507057 0.00033569848
0 0.6212253 0.00027466239
0 0.6212253 0.00027466239
0 0.61730373 0.0003509575
0.050431067 0.61730373 0.00021362631
0.17941558 0.6133669 0.0001373312
0.24971389 0.60950637 0.00018310826
0.30827802 0.60560006 0.0001373312
0.35904479 0.60167849 0.000076295109
0.40593576 0.59775692 0.000091554131
0.4489662 0.59388113 0.00010681315
0.49192035 0.58992905 0.000030518044
0.53492027 0.58220798 0
0.57399863 0.57830167 0.011688411
0.61705959 0.57038224 0.20703441
0.65607691 0.56256962 0.2889601
0.69529259 0.55477226 0.35150683
0.73430991 0.54692912 0.40616464
0.76948196 0.53527123 0.45687037
0.80860609 0.52742809 0.50377661
0.8476997 0.51564813 0.54668498
0.88281071 0.50395972 0.58956283
0.92187381 0.49222553 0.62861067
0.95704585 0.4805066 0.6677348
0.99623102 0.46488136 0.70283055
0.99624628 0.45316243 0.7419089
0.9962768 0.43361563 0.77705043
0 0.6602884 0.00033569848
0 0.6602884 0.00033569848
0 0.6602884 0.00033569848
0 0.6602884 0.00033569848
0 0.6602884 0.00033569848
0 0.6602884 0.00033569848
0 0.65635157 0.00033569848
0 0.65635157 0.00033569848
0 0.65246052 0.00027466239
0 0.65246052 0.00027466239
0.13638514 0.64858473 0.00019836728
0.22230869 0.64466316 0.00019836728
0.2849012 0.64075685 0.00010681315
0.33960479 0.6368658 0.00015259022
0.3903563 0.63292897 0.000091554131
0.43726253 0.62902266 0.00012207218
0.48018616 0.62519265 0.00012207218
0.52314031 0.62124056 0.000045777066
0.56607919 0.61342794 0.000045777066
0.60918593 0.60953689 0.011734188
0.64824903 0.60164797 0.21480125
0.68734264 0.59391165 0.29678798
0.72643626 0.58605325 0.36314946
0.76554513 0.57816434 0.41780728
0.80074769 0.57035172 0.46855879
0.83984131 0.55864805 0.51541924
0.87882811 0.54692912 0.55832761
0.91406119 0.53916228 0.60134279
0.9531548 0.52738231 0.64425116
0.98840314 0.51177234 0.68331426
0.99613947 0.50000763 0.72233158
0.99618524 0.48441291 0.75759518
0 0.69541466 0.00038147555
0 0.69541466 0.00038147555
0 0.69541466 0.00038147555
0 0.69541466 0.00038147555
0 0.69541466 0.00038147555
0 0.69156939 0.00032043946
0 0.69156939 0.00032043946
0 0.69156939 0.00032043946
0 0.68758679 0.00032043946
0 0.68758679 0.00032043946
0.046555276 0.68369574 0.00022888533
0.18718242 0.67985046 0.00025940337
0.26143282 0.67594415 0.00021362631
0.31999695 0.67203784 0.00015259022
0.37468528 0.66813153 0.00019836728
0.42159152 0.66424048 0.00010681315
0.46848249 0.66033417 0.0001373312
0.51143664 0.65638209 0.000061036088
0.55446708 0.65250629 0.000061036088
0.59739071 0.64467842 0.000061036088
0.64040589 0.63685054 0.011749447
0.67951476 0.63292897 0.2186923
0.7186389 0.62511635 0.30467689
0.75773251 0.61725795 0.37103838
0.79674983 0.60949111 0.42963302
0.83582818 0.60166323 0.48030823
0.87098497 0.58989853 0.52718395
0.91012436 0.58207065 0.57396811
0.94927901 0.57036698 0.61695277
0.98445106 0.55864805 0.65607691
0.99618524 0.5468986 0.6989395
0.9962005 0.53519493 0.73801785
0 0.73057145 0.00030518044
0 0.73057145 0.00030518044
0 0.73057145 0.00030518044
0 0.73057145 0.00030518044
0 0.72669566 0.00038147555
0 0.72669566 0.00038147555
0 0.72669566 0.00038147555
0 0.72280461 0.00032043946
0 0.72280461 0.00032043946
0 0.71888304 0.00038147555
0 0.71888304 0.00038147555
0.14030671 0.71499199 0.00021362631
0.23402762 0.71108568 0.00021362631
0.30041962 0.71107042 0.00010681315
0.35512322 0.70717937 0.0001373312
0.40595102 0.70331884 0.0001373312
0.45677882 0.6954757 0.0001373312
0.49964141 0.69156939 0.000076295109
0.54653239 0.68767834 0
0.585626 0.68374151 0
0.62854963 0.67592889 0
0.67159533 0.67203784 0.015564202
0.71071946 0.66419471 0.22645914
0.7498436 0.65638209 0.31244373
0.78893721 0.64852369 0.37878996
0.82806134 0.64071107 0.43739986
0.8670634 0.63286793 0.49205768
0.90229648 0.62121004 0.53888762
0.94142061 0.61335164 0.58579385
0.98040742 0.60161746 0.62870222
0.99607843 0.58991379 0.67167163
0.99618524 0.57814908 0.71074998
0 0.76575875 0.00042725261
0 0.76575875 0.00042725261
0 0.76183719 0.00030518044
0 0.76183719 0.00030518044
0 0.76183719 0.00030518044
0 0.76183719 0.00030518044
0 0.76183719 0.00030518044
0 0.75793088 0.00036621653
0 0.75793088 0.00036621653
0 0.75402457 0.00030518044
0 0.75402457 0.00030518044
0.042572671 0.75013352 0.00024414435
0.19496452 0.74622721 0.00030518044
0.27309071 0.74628824 0.00016784924
0.33560693 0.74229038 0.0001373312
0.39031052 0.73839933 0.00018310826
0.44113832 0.7345388 0.00018310826
0.4880293 0.73064775 0.000091554131
0.53095293 0.72283513 0.000091554131
0.57785916 0.71891356 0.00012207218
0.61684596 0.71505303 0.000015259022
0.6598764 0.70719463 0.000015259022
0.69895476 0.70328832 0.011734188
0.7419852 0.69542992 0.23047227
0.78104829 0.68764782 0.32021057
0.82017243 0.67975891 0.39043259
0.85929656 0.67193103 0.4490425
0.89837491 0.66416419 0.50377661
0.9335317 0.65241474 0.55065232
0.97267109 0.6445716 0.59743648
0.99606317 0.63288319 0.64428168
0.99612421 0.62510109 0.6873579
0 0.79703975 0.00042725261
0 0.79703975 0.00042725261
0 0.79703975 0.00042725261
0 0.79703975 0.00042725261
0 0.79703975 0.00042725261
0 0.79703975 0.00042725261
0 0.7931487 0.00036621653
0 0.7931487 0.00036621653
0 0.7931487 0.00036621653
0 0.78915084 0.00036621653
0 0.78915084 0.00036621653
0 0.78527504 0.00042725261
0.14421302 0.78138399 0.00036621653
0.24182498 0.78144503 0.00027466239
0.31213855 0.77747768 0.00024414435
0.37070268 0.77357137 0.00018310826
0.42153048 0.76971084 0.00019836728
0.47229725 0.76578927 0.0001373312
0.51918822 0.76189822 0.000045777066
0.56211185 0.75407034 0.000030518044
0.60900282 0.75016403 0.000061036088
0.64809644 0.74624247 0
0.69109636 0.73850614 0.000030518044
0.73017472 0.73060197 0.011749447
0.77325093 0.72669566 0.23436332
0.81234455 0.71885252 0.32809949
0.85145342 0.71107042 0.3983978
0.89050126 0.7032578 0.46086824
0.92961013 0.69536889 0.51552605
0.96864271 0.68758679 0.56232547
0.99610895 0.67583734 0.61313802
0.99610895 0.6679942 0.65601587
0 0.83218128 0.0003509575
0 0.83218128 0.0003509575
