site/assets/luts/dji-blockbuster--gyroflow-conversion-legal-to-full--ef9a7f1b5.cube
# LUTr-Project: LUTr — LUTrepository
# LUTr-Schema-Version: 1
# LUTr-ID: dji-blockbuster--gyroflow-conversion-legal-to-full--ef9a7f1b5
# LUTr-Title: GYROFLOW CONVERSION Legal to Full
# LUTr-Collection: DJI Blockbuster
# LUTr-Collection-ID: ircgraphic-d-cinelike-blockbuster
# LUTr-Source: https://github.com/IRCGraphic/D-Cinelike-and-Normal-Blockbuster-LUTs
# LUTr-Source-File: submissions/ircgraphic-d-cinelike-blockbuster/GYROFLOW CONVERSION Legal to Full.cube
# LUTr-Source-Format: CUBE
# LUTr-Source-SHA256: 35bcc5dbc780961630af597d6836df112d30bef11ee789f05a530cee353b3a5b
# LUTr-License: CC0-1.0
# LUTr-License-URL: https://github.com/IRCGraphic/D-Cinelike-and-Normal-Blockbuster-LUTs/blob/main/LICENSE
# LUTr-Tags: creative, camera, dji, d-cinelike, cinematic, blockbuster, 3d-lut, cube
# LUTr-Transform-Class: creative-look
# LUTr-Input-Color-Space: Unknown
# LUTr-Output-Color-Space: srgb
# LUTr-Color-Space-Confidence: camera-profile-input-required
# LUTr-Conversion-Method: Metadata normalization; numeric LUT samples preserved
# LUTr-Conversion-Date: 2026-07-27
# LUTr-Conversion-Tool: LUTr scripts/convert-all-to-cube.mjs
# LUTr-Conversion-Grid: 4096-sample 1D
# LUTr-Note: Preserve this metadata and the upstream license notices when redistributing.
TITLE "GYROFLOW CONVERSION Legal to Full"
LUT_1D_SIZE 4096
DOMAIN_MIN 0 0 0
DOMAIN_MAX 1 1 1
-0.073059361 -0.073059361 -0.073059361
-0.072774182 -0.072774182 -0.072774182
-0.072489003 -0.072489003 -0.072489003
-0.072203824 -0.072203824 -0.072203824
-0.071918645 -0.071918645 -0.071918645
-0.071633465 -0.071633465 -0.071633465
-0.071348286 -0.071348286 -0.071348286
-0.071063107 -0.071063107 -0.071063107
-0.070777928 -0.070777928 -0.070777928
-0.070492749 -0.070492749 -0.070492749
-0.07020757 -0.07020757 -0.07020757
-0.069922391 -0.069922391 -0.069922391
-0.069637212 -0.069637212 -0.069637212
-0.069352033 -0.069352033 -0.069352033
-0.069066854 -0.069066854 -0.069066854
-0.068781675 -0.068781675 -0.068781675
-0.068496496 -0.068496496 -0.068496496
-0.068211317 -0.068211317 -0.068211317
-0.067926138 -0.067926138 -0.067926138
-0.067640959 -0.067640959 -0.067640959
-0.06735578 -0.06735578 -0.06735578
-0.067070601 -0.067070601 -0.067070601
-0.066785422 -0.066785422 -0.066785422
-0.066500243 -0.066500243 -0.066500243
-0.066215064 -0.066215064 -0.066215064
-0.065929884 -0.065929884 -0.065929884
-0.065644705 -0.065644705 -0.065644705
-0.065359526 -0.065359526 -0.065359526
-0.065074347 -0.065074347 -0.065074347
-0.064789168 -0.064789168 -0.064789168
-0.064503989 -0.064503989 -0.064503989
-0.06421881 -0.06421881 -0.06421881
-0.063933631 -0.063933631 -0.063933631
-0.063648452 -0.063648452 -0.063648452
-0.063363273 -0.063363273 -0.063363273
-0.063078094 -0.063078094 -0.063078094
-0.062792915 -0.062792915 -0.062792915
-0.062507736 -0.062507736 -0.062507736
-0.062222557 -0.062222557 -0.062222557
-0.061937378 -0.061937378 -0.061937378
-0.061652199 -0.061652199 -0.061652199
-0.06136702 -0.06136702 -0.06136702
-0.06108184 -0.06108184 -0.06108184
-0.060796662 -0.060796662 -0.060796662
-0.060511482 -0.060511482 -0.060511482
-0.060226303 -0.060226303 -0.060226303
-0.059941124 -0.059941124 -0.059941124
-0.059655945 -0.059655945 -0.059655945
-0.059370766 -0.059370766 -0.059370766
-0.059085587 -0.059085587 -0.059085587
-0.058800408 -0.058800408 -0.058800408
-0.058515229 -0.058515229 -0.058515229
-0.05823005 -0.05823005 -0.05823005
-0.057944871 -0.057944871 -0.057944871
-0.057659692 -0.057659692 -0.057659692
-0.057374513 -0.057374513 -0.057374513
-0.057089334 -0.057089334 -0.057089334
-0.056804155 -0.056804155 -0.056804155
-0.056518976 -0.056518976 -0.056518976
-0.056233797 -0.056233797 -0.056233797
-0.055948618 -0.055948618 -0.055948618
-0.055663439 -0.055663439 -0.055663439
-0.055378259 -0.055378259 -0.055378259
-0.05509308 -0.05509308 -0.05509308
-0.054807901 -0.054807901 -0.054807901
-0.054522722 -0.054522722 -0.054522722
-0.054237543 -0.054237543 -0.054237543
-0.053952364 -0.053952364 -0.053952364
-0.053667185 -0.053667185 -0.053667185
-0.053382006 -0.053382006 -0.053382006
-0.053096827 -0.053096827 -0.053096827
-0.052811648 -0.052811648 -0.052811648
-0.052526469 -0.052526469 -0.052526469
-0.05224129 -0.05224129 -0.05224129
-0.051956111 -0.051956111 -0.051956111
-0.051670932 -0.051670932 -0.051670932
-0.051385753 -0.051385753 -0.051385753
-0.051100574 -0.051100574 -0.051100574
-0.050815395 -0.050815395 -0.050815395
-0.050530216 -0.050530216 -0.050530216
-0.050245036 -0.050245036 -0.050245036
-0.049959858 -0.049959858 -0.049959858
-0.049674678 -0.049674678 -0.049674678
-0.049389499 -0.049389499 -0.049389499
-0.04910432 -0.04910432 -0.04910432
-0.048819141 -0.048819141 -0.048819141
-0.048533962 -0.048533962 -0.048533962
-0.048248783 -0.048248783 -0.048248783
-0.047963604 -0.047963604 -0.047963604
-0.047678425 -0.047678425 -0.047678425
-0.047393246 -0.047393246 -0.047393246
-0.047108067 -0.047108067 -0.047108067
-0.046822888 -0.046822888 -0.046822888
-0.046537709 -0.046537709 -0.046537709
-0.04625253 -0.04625253 -0.04625253
-0.045967351 -0.045967351 -0.045967351
-0.045682172 -0.045682172 -0.045682172
-0.045396993 -0.045396993 -0.045396993
-0.045111814 -0.045111814 -0.045111814
-0.044826635 -0.044826635 -0.044826635
-0.044541456 -0.044541456 -0.044541456
-0.044256276 -0.044256276 -0.044256276
-0.043971097 -0.043971097 -0.043971097
-0.043685918 -0.043685918 -0.043685918
-0.043400739 -0.043400739 -0.043400739
-0.04311556 -0.04311556 -0.04311556
-0.042830381 -0.042830381 -0.042830381
-0.042545202 -0.042545202 -0.042545202
-0.042260023 -0.042260023 -0.042260023
-0.041974844 -0.041974844 -0.041974844
-0.041689665 -0.041689665 -0.041689665
-0.041404486 -0.041404486 -0.041404486
-0.041119307 -0.041119307 -0.041119307
-0.040834128 -0.040834128 -0.040834128
-0.040548949 -0.040548949 -0.040548949
-0.04026377 -0.04026377 -0.04026377
-0.039978591 -0.039978591 -0.039978591
-0.039693412 -0.039693412 -0.039693412
-0.039408233 -0.039408233 -0.039408233
-0.039123053 -0.039123053 -0.039123053
-0.038837875 -0.038837875 -0.038837875
-0.038552695 -0.038552695 -0.038552695
-0.038267516 -0.038267516 -0.038267516
-0.037982337 -0.037982337 -0.037982337
-0.037697158 -0.037697158 -0.037697158
-0.037411979 -0.037411979 -0.037411979
-0.0371268 -0.0371268 -0.0371268
-0.036841621 -0.036841621 -0.036841621
-0.036556442 -0.036556442 -0.036556442
-0.036271263 -0.036271263 -0.036271263
-0.035986084 -0.035986084 -0.035986084
-0.035700905 -0.035700905 -0.035700905
-0.035415726 -0.035415726 -0.035415726
-0.035130547 -0.035130547 -0.035130547
-0.034845368 -0.034845368 -0.034845368
-0.034560189 -0.034560189 -0.034560189
-0.03427501 -0.03427501 -0.03427501
-0.033989831 -0.033989831 -0.033989831
-0.033704652 -0.033704652 -0.033704652
-0.033419472 -0.033419472 -0.033419472
-0.033134293 -0.033134293 -0.033134293
-0.032849114 -0.032849114 -0.032849114
-0.032563935 -0.032563935 -0.032563935
-0.032278756 -0.032278756 -0.032278756
-0.031993577 -0.031993577 -0.031993577
-0.031708398 -0.031708398 -0.031708398
-0.031423219 -0.031423219 -0.031423219
-0.03113804 -0.03113804 -0.03113804
-0.030852861 -0.030852861 -0.030852861
-0.030567682 -0.030567682 -0.030567682
-0.030282503 -0.030282503 -0.030282503
-0.029997324 -0.029997324 -0.029997324
-0.029712145 -0.029712145 -0.029712145
-0.029426966 -0.029426966 -0.029426966
-0.029141787 -0.029141787 -0.029141787
-0.028856608 -0.028856608 -0.028856608
-0.028571429 -0.028571429 -0.028571429
-0.028286249 -0.028286249 -0.028286249
-0.02800107 -0.02800107 -0.02800107
-0.027715891 -0.027715891 -0.027715891
-0.027430712 -0.027430712 -0.027430712
-0.027145533 -0.027145533 -0.027145533
-0.026860354 -0.026860354 -0.026860354
-0.026575175 -0.026575175 -0.026575175
-0.026289996 -0.026289996 -0.026289996
-0.026004817 -0.026004817 -0.026004817
-0.025719638 -0.025719638 -0.025719638
-0.025434459 -0.025434459 -0.025434459
-0.02514928 -0.02514928 -0.02514928
-0.024864101 -0.024864101 -0.024864101
-0.024578922 -0.024578922 -0.024578922
-0.024293743 -0.024293743 -0.024293743
-0.024008564 -0.024008564 -0.024008564
-0.023723385 -0.023723385 -0.023723385
-0.023438206 -0.023438206 -0.023438206
-0.023153027 -0.023153027 -0.023153027
-0.022867847 -0.022867847 -0.022867847
-0.022582668 -0.022582668 -0.022582668
-0.022297489 -0.022297489 -0.022297489
-0.02201231 -0.02201231 -0.02201231
-0.021727131 -0.021727131 -0.021727131
-0.021441952 -0.021441952 -0.021441952
-0.021156773 -0.021156773 -0.021156773
-0.020871594 -0.020871594 -0.020871594
-0.020586415 -0.020586415 -0.020586415
-0.020301236 -0.020301236 -0.020301236
-0.020016057 -0.020016057 -0.020016057
-0.019730878 -0.019730878 -0.019730878
-0.019445699 -0.019445699 -0.019445699
-0.01916052 -0.01916052 -0.01916052
-0.018875341 -0.018875341 -0.018875341
-0.018590162 -0.018590162 -0.018590162
-0.018304983 -0.018304983 -0.018304983
-0.018019804 -0.018019804 -0.018019804
-0.017734625 -0.017734625 -0.017734625
-0.017449446 -0.017449446 -0.017449446
-0.017164267 -0.017164267 -0.017164267
-0.016879087 -0.016879087 -0.016879087
-0.016593908 -0.016593908 -0.016593908
-0.016308729 -0.016308729 -0.016308729
-0.01602355 -0.01602355 -0.01602355
-0.015738371 -0.015738371 -0.015738371
-0.015453192 -0.015453192 -0.015453192
-0.015168013 -0.015168013 -0.015168013
-0.014882834 -0.014882834 -0.014882834
-0.014597655 -0.014597655 -0.014597655
-0.014312476 -0.014312476 -0.014312476
-0.014027297 -0.014027297 -0.014027297
-0.013742118 -0.013742118 -0.013742118
-0.013456939 -0.013456939 -0.013456939
-0.01317176 -0.01317176 -0.01317176
-0.012886581 -0.012886581 -0.012886581
-0.012601402 -0.012601402 -0.012601402
-0.012316223 -0.012316223 -0.012316223
-0.012031043 -0.012031043 -0.012031043
-0.011745864 -0.011745864 -0.011745864
-0.011460685 -0.011460685 -0.011460685
-0.011175506 -0.011175506 -0.011175506
-0.010890327 -0.010890327 -0.010890327
-0.010605148 -0.010605148 -0.010605148
-0.010319969 -0.010319969 -0.010319969
-0.01003479 -0.01003479 -0.01003479
-0.0097496111 -0.0097496111 -0.0097496111
-0.0094644321 -0.0094644321 -0.0094644321
-0.009179253 -0.009179253 -0.009179253
-0.008894074 -0.008894074 -0.008894074
-0.0086088949 -0.0086088949 -0.0086088949
-0.0083237159 -0.0083237159 -0.0083237159
-0.0080385368 -0.0080385368 -0.0080385368
-0.0077533578 -0.0077533578 -0.0077533578
-0.0074681787 -0.0074681787 -0.0074681787
-0.0071829996 -0.0071829996 -0.0071829996
-0.0068978206 -0.0068978206 -0.0068978206
-0.0066126415 -0.0066126415 -0.0066126415
-0.0063274625 -0.0063274625 -0.0063274625
-0.0060422834 -0.0060422834 -0.0060422834
-0.0057571044 -0.0057571044 -0.0057571044
-0.0054719253 -0.0054719253 -0.0054719253
-0.0051867463 -0.0051867463 -0.0051867463
-0.0049015672 -0.0049015672 -0.0049015672
-0.0046163882 -0.0046163882 -0.0046163882
-0.0043312091 -0.0043312091 -0.0043312091
-0.0040460301 -0.0040460301 -0.0040460301
-0.003760851 -0.003760851 -0.003760851
-0.003475672 -0.003475672 -0.003475672
-0.0031904929 -0.0031904929 -0.0031904929
-0.0029053139 -0.0029053139 -0.0029053139
-0.0026201348 -0.0026201348 -0.0026201348
-0.0023349558 -0.0023349558 -0.0023349558
-0.0020497767 -0.0020497767 -0.0020497767
-0.0017645977 -0.0017645977 -0.0017645977
-0.0014794186 -0.0014794186 -0.0014794186
-0.0011942396 -0.0011942396 -0.0011942396
-0.0009090605 -0.0009090605 -0.0009090605
-0.0006238814 -0.0006238814 -0.0006238814
-0.0003387024 -0.0003387024 -0.0003387024
-0.0000535233 -0.0000535233 -0.0000535233
0.0002316557 0.0002316557 0.0002316557
0.0005168348 0.0005168348 0.0005168348
0.0008020138 0.0008020138 0.0008020138
0.0010871929 0.0010871929 0.0010871929
0.0013723719 0.0013723719 0.0013723719
0.001657551 0.001657551 0.001657551
0.00194273 0.00194273 0.00194273
0.0022279091 0.0022279091 0.0022279091
0.0025130881 0.0025130881 0.0025130881
0.0027982672 0.0027982672 0.0027982672
0.0030834462 0.0030834462 0.0030834462
0.0033686253 0.0033686253 0.0033686253
0.0036538043 0.0036538043 0.0036538043
0.0039389834 0.0039389834 0.0039389834
0.0042241624 0.0042241624 0.0042241624
0.0045093415 0.0045093415 0.0045093415
0.0047945205 0.0047945205 0.0047945205
0.0050796996 0.0050796996 0.0050796996
0.0053648787 0.0053648787 0.0053648787
0.0056500577 0.0056500577 0.0056500577
0.0059352368 0.0059352368 0.0059352368
0.0062204158 0.0062204158 0.0062204158
0.0065055949 0.0065055949 0.0065055949
0.0067907739 0.0067907739 0.0067907739
0.007075953 0.007075953 0.007075953
0.007361132 0.007361132 0.007361132
0.0076463111 0.0076463111 0.0076463111
0.0079314901 0.0079314901 0.0079314901
0.0082166692 0.0082166692 0.0082166692
0.0085018482 0.0085018482 0.0085018482
0.0087870273 0.0087870273 0.0087870273
0.0090722063 0.0090722063 0.0090722063
0.0093573854 0.0093573854 0.0093573854
0.0096425644 0.0096425644 0.0096425644
0.0099277435 0.0099277435 0.0099277435
0.010212923 0.010212923 0.010212923
0.010498102 0.010498102 0.010498102
0.010783281 0.010783281 0.010783281
0.01106846 0.01106846 0.01106846
0.011353639 0.011353639 0.011353639
0.011638818 0.011638818 0.011638818
0.011923997 0.011923997 0.011923997
0.012209176 0.012209176 0.012209176
0.012494355 0.012494355 0.012494355
0.012779534 0.012779534 0.012779534
0.013064713 0.013064713 0.013064713
0.013349892 0.013349892 0.013349892
0.013635071 0.013635071 0.013635071
0.01392025 0.01392025 0.01392025
0.014205429 0.014205429 0.014205429
0.014490608 0.014490608 0.014490608
0.014775787 0.014775787 0.014775787
0.015060966 0.015060966 0.015060966
0.015346146 0.015346146 0.015346146
0.015631325 0.015631325 0.015631325
0.015916504 0.015916504 0.015916504
0.016201683 0.016201683 0.016201683
0.016486862 0.016486862 0.016486862
0.016772041 0.016772041 0.016772041
0.01705722 0.01705722 0.01705722
0.017342399 0.017342399 0.017342399
0.017627578 0.017627578 0.017627578
0.017912757 0.017912757 0.017912757
0.018197936 0.018197936 0.018197936
0.018483115 0.018483115 0.018483115
0.018768294 0.018768294 0.018768294
0.019053473 0.019053473 0.019053473
0.019338652 0.019338652 0.019338652
0.019623831 0.019623831 0.019623831
0.01990901 0.01990901 0.01990901
0.020194189 0.020194189 0.020194189
0.020479368 0.020479368 0.020479368
0.020764548 0.020764548 0.020764548
0.021049727 0.021049727 0.021049727
0.021334906 0.021334906 0.021334906
0.021620085 0.021620085 0.021620085
0.021905264 0.021905264 0.021905264
0.022190443 0.022190443 0.022190443
0.022475622 0.022475622 0.022475622
0.022760801 0.022760801 0.022760801
0.02304598 0.02304598 0.02304598
0.023331159 0.023331159 0.023331159
0.023616338 0.023616338 0.023616338
0.023901517 0.023901517 0.023901517
0.024186696 0.024186696 0.024186696
0.024471875 0.024471875 0.024471875
0.024757054 0.024757054 0.024757054
0.025042233 0.025042233 0.025042233
0.025327412 0.025327412 0.025327412
0.025612591 0.025612591 0.025612591
0.02589777 0.02589777 0.02589777
0.02618295 0.02618295 0.02618295
0.026468129 0.026468129 0.026468129
0.026753308 0.026753308 0.026753308
0.027038487 0.027038487 0.027038487
0.027323666 0.027323666 0.027323666
0.027608845 0.027608845 0.027608845
0.027894024 0.027894024 0.027894024
0.028179203 0.028179203 0.028179203
0.028464382 0.028464382 0.028464382
0.028749561 0.028749561 0.028749561
0.02903474 0.02903474 0.02903474
0.029319919 0.029319919 0.029319919
0.029605098 0.029605098 0.029605098
0.029890277 0.029890277 0.029890277
0.030175456 0.030175456 0.030175456
0.030460635 0.030460635 0.030460635
0.030745814 0.030745814 0.030745814
0.031030993 0.031030993 0.031030993
0.031316172 0.031316172 0.031316172
0.031601351 0.031601351 0.031601351
0.031886531 0.031886531 0.031886531
0.03217171 0.03217171 0.03217171
0.032456889 0.032456889 0.032456889
0.032742068 0.032742068 0.032742068
0.033027247 0.033027247 0.033027247
0.033312426 0.033312426 0.033312426
0.033597605 0.033597605 0.033597605
0.033882784 0.033882784 0.033882784
0.034167963 0.034167963 0.034167963
0.034453142 0.034453142 0.034453142
0.034738321 0.034738321 0.034738321
0.0350235 0.0350235 0.0350235
0.035308679 0.035308679 0.035308679
0.035593858 0.035593858 0.035593858
0.035879037 0.035879037 0.035879037
0.036164216 0.036164216 0.036164216
0.036449395 0.036449395 0.036449395
0.036734574 0.036734574 0.036734574
0.037019754 0.037019754 0.037019754
0.037304932 0.037304932 0.037304932
0.037590112 0.037590112 0.037590112
0.037875291 0.037875291 0.037875291
0.03816047 0.03816047 0.03816047
0.038445649 0.038445649 0.038445649
0.038730828 0.038730828 0.038730828
0.039016007 0.039016007 0.039016007
0.039301186 0.039301186 0.039301186
0.039586365 0.039586365 0.039586365
0.039871544 0.039871544 0.039871544
0.040156723 0.040156723 0.040156723
0.040441902 0.040441902 0.040441902
0.040727081 0.040727081 0.040727081
0.04101226 0.04101226 0.04101226
0.041297439 0.041297439 0.041297439
0.041582618 0.041582618 0.041582618
0.041867797 0.041867797 0.041867797
0.042152976 0.042152976 0.042152976
0.042438155 0.042438155 0.042438155
0.042723335 0.042723335 0.042723335
0.043008514 0.043008514 0.043008514
0.043293693 0.043293693 0.043293693
0.043578872 0.043578872 0.043578872
0.043864051 0.043864051 0.043864051
0.04414923 0.04414923 0.04414923
0.044434409 0.044434409 0.044434409
0.044719588 0.044719588 0.044719588
0.045004767 0.045004767 0.045004767
0.045289946 0.045289946 0.045289946
0.045575125 0.045575125 0.045575125
0.045860304 0.045860304 0.045860304
0.046145483 0.046145483 0.046145483
0.046430662 0.046430662 0.046430662
0.046715841 0.046715841 0.046715841
0.04700102 0.04700102 0.04700102
0.047286199 0.047286199 0.047286199
0.047571378 0.047571378 0.047571378
0.047856557 0.047856557 0.047856557
0.048141736 0.048141736 0.048141736
0.048426916 0.048426916 0.048426916
0.048712095 0.048712095 0.048712095
0.048997274 0.048997274 0.048997274
0.049282453 0.049282453 0.049282453
0.049567632 0.049567632 0.049567632
0.049852811 0.049852811 0.049852811
0.05013799 0.05013799 0.05013799
0.050423169 0.050423169 0.050423169
0.050708348 0.050708348 0.050708348
0.050993527 0.050993527 0.050993527
0.051278706 0.051278706 0.051278706
0.051563885 0.051563885 0.051563885
0.051849064 0.051849064 0.051849064
0.052134243 0.052134243 0.052134243
0.052419422 0.052419422 0.052419422
0.052704601 0.052704601 0.052704601
0.05298978 0.05298978 0.05298978
0.053274959 0.053274959 0.053274959
0.053560138 0.053560138 0.053560138
0.053845318 0.053845318 0.053845318
0.054130497 0.054130497 0.054130497
0.054415676 0.054415676 0.054415676
0.054700855 0.054700855 0.054700855
0.054986034 0.054986034 0.054986034
0.055271213 0.055271213 0.055271213
0.055556392 0.055556392 0.055556392
0.055841571 0.055841571 0.055841571
0.05612675 0.05612675 0.05612675
0.056411929 0.056411929 0.056411929
0.056697108 0.056697108 0.056697108
0.056982287 0.056982287 0.056982287
0.057267466 0.057267466 0.057267466
0.057552645 0.057552645 0.057552645
0.057837824 0.057837824 0.057837824
0.058123003 0.058123003 0.058123003
0.058408182 0.058408182 0.058408182
0.058693361 0.058693361 0.058693361
0.058978541 0.058978541 0.058978541
0.059263719 0.059263719 0.059263719
0.059548899 0.059548899 0.059548899
0.059834078 0.059834078 0.059834078
0.060119257 0.060119257 0.060119257
0.060404436 0.060404436 0.060404436
0.060689615 0.060689615 0.060689615
0.060974794 0.060974794 0.060974794
0.061259973 0.061259973 0.061259973
0.061545152 0.061545152 0.061545152
0.061830331 0.061830331 0.061830331
0.06211551 0.06211551 0.06211551
0.062400689 0.062400689 0.062400689
0.062685868 0.062685868 0.062685868
0.062971047 0.062971047 0.062971047
0.063256226 0.063256226 0.063256226
0.063541405 0.063541405 0.063541405
0.063826584 0.063826584 0.063826584
0.064111763 0.064111763 0.064111763
0.064396942 0.064396942 0.064396942
0.064682121 0.064682121 0.064682121
0.064967301 0.064967301 0.064967301
0.06525248 0.06525248 0.06525248
0.065537659 0.065537659 0.065537659
0.065822838 0.065822838 0.065822838
0.066108017 0.066108017 0.066108017
0.066393196 0.066393196 0.066393196
0.066678375 0.066678375 0.066678375
0.066963554 0.066963554 0.066963554
0.067248733 0.067248733 0.067248733
0.067533912 0.067533912 0.067533912
0.067819091 0.067819091 0.067819091
0.06810427 0.06810427 0.06810427
0.068389449 0.068389449 0.068389449
0.068674628 0.068674628 0.068674628
0.068959807 0.068959807 0.068959807
0.069244986 0.069244986 0.069244986
0.069530165 0.069530165 0.069530165
0.069815345 0.069815345 0.069815345
0.070100523 0.070100523 0.070100523
0.070385703 0.070385703 0.070385703
0.070670882 0.070670882 0.070670882
0.070956061 0.070956061 0.070956061
0.07124124 0.07124124 0.07124124
0.071526419 0.071526419 0.071526419
0.071811598 0.071811598 0.071811598
0.072096777 0.072096777 0.072096777
0.072381956 0.072381956 0.072381956
0.072667135 0.072667135 0.072667135
0.072952314 0.072952314 0.072952314
0.073237493 0.073237493 0.073237493
0.073522672 0.073522672 0.073522672
0.073807851 0.073807851 0.073807851
0.07409303 0.07409303 0.07409303
0.074378209 0.074378209 0.074378209
0.074663388 0.074663388 0.074663388
0.074948567 0.074948567 0.074948567
0.075233747 0.075233747 0.075233747
0.075518926 0.075518926 0.075518926
0.075804105 0.075804105 0.075804105
0.076089284 0.076089284 0.076089284
0.076374463 0.076374463 0.076374463
0.076659642 0.076659642 0.076659642
0.076944821 0.076944821 0.076944821
0.07723 0.07723 0.07723
0.077515179 0.077515179 0.077515179
0.077800358 0.077800358 0.077800358
0.078085537 0.078085537 0.078085537
0.078370716 0.078370716 0.078370716
0.078655895 0.078655895 0.078655895
0.078941074 0.078941074 0.078941074
0.079226253 0.079226253 0.079226253
0.079511432 0.079511432 0.079511432
0.079796611 0.079796611 0.079796611
0.08008179 0.08008179 0.08008179
0.080366969 0.080366969 0.080366969
0.080652149 0.080652149 0.080652149
0.080937328 0.080937328 0.080937328
0.081222507 0.081222507 0.081222507
0.081507686 0.081507686 0.081507686
0.081792865 0.081792865 0.081792865
0.082078044 0.082078044 0.082078044
0.082363223 0.082363223 0.082363223
0.082648402 0.082648402 0.082648402
0.082933581 0.082933581 0.082933581
0.08321876 0.08321876 0.08321876
0.083503939 0.083503939 0.083503939
0.083789118 0.083789118 0.083789118
0.084074297 0.084074297 0.084074297
0.084359476 0.084359476 0.084359476
0.084644655 0.084644655 0.084644655
0.084929834 0.084929834 0.084929834
0.085215013 0.085215013 0.085215013
0.085500192 0.085500192 0.085500192
0.085785371 0.085785371 0.085785371
0.08607055 0.08607055 0.08607055
0.08635573 0.08635573 0.08635573
0.086640909 0.086640909 0.086640909
0.086926088 0.086926088 0.086926088
0.087211267 0.087211267 0.087211267
0.087496446 0.087496446 0.087496446
0.087781625 0.087781625 0.087781625
0.088066804 0.088066804 0.088066804
0.088351983 0.088351983 0.088351983
0.088637162 0.088637162 0.088637162
0.088922341 0.088922341 0.088922341
0.08920752 0.08920752 0.08920752
0.089492699 0.089492699 0.089492699
0.089777878 0.089777878 0.089777878
0.090063057 0.090063057 0.090063057
0.090348236 0.090348236 0.090348236
0.090633415 0.090633415 0.090633415
0.090918594 0.090918594 0.090918594
0.091203773 0.091203773 0.091203773
0.091488952 0.091488952 0.091488952
0.091774131 0.091774131 0.091774131
0.092059311 0.092059311 0.092059311
0.09234449 0.09234449 0.09234449
0.092629669 0.092629669 0.092629669
0.092914848 0.092914848 0.092914848
0.093200027 0.093200027 0.093200027
0.093485206 0.093485206 0.093485206
0.093770385 0.093770385 0.093770385
0.094055564 0.094055564 0.094055564
0.094340743 0.094340743 0.094340743
0.094625922 0.094625922 0.094625922
0.094911101 0.094911101 0.094911101
0.09519628 0.09519628 0.09519628
0.095481459 0.095481459 0.095481459
0.095766638 0.095766638 0.095766638
0.096051817 0.096051817 0.096051817
0.096336996 0.096336996 0.096336996
0.096622175 0.096622175 0.096622175
0.096907354 0.096907354 0.096907354
0.097192533 0.097192533 0.097192533
0.097477712 0.097477712 0.097477712
0.097762892 0.097762892 0.097762892
0.098048071 0.098048071 0.098048071
0.09833325 0.09833325 0.09833325
0.098618429 0.098618429 0.098618429
0.098903608 0.098903608 0.098903608
0.099188787 0.099188787 0.099188787
0.099473966 0.099473966 0.099473966
0.099759145 0.099759145 0.099759145
