site/assets/luts/filmsim--classic-chrome--5830b3dfc.cube
# LUTr-Project: LUTr — LUTrepository
# LUTr-Schema-Version: 1
# LUTr-ID: filmsim--classic-chrome--5830b3dfc
# LUTr-Title: Classic Chrome
# LUTr-Collection: FilmSim
# LUTr-Collection-ID: sguyader-filmsim
# LUTr-Source: https://github.com/sguyader/FilmSim
# LUTr-Source-File: submissions/sguyader-filmsim/Classic_Chrome.tif
# LUTr-Source-Format: TIF
# LUTr-Source-SHA256: cc303723b76205aedf970dc814dbecd6d9795955411aa2d6b265873864de7a66
# LUTr-License: CC0-1.0
# LUTr-License-URL: https://github.com/sguyader/FilmSim/blob/master/LICENSE
# LUTr-Tags: creative, film, film-emulation, hald-clut, rawtherapee, tif, cube
# LUTr-Transform-Class: film-emulation
# LUTr-Input-Color-Space: srgb
# LUTr-Output-Color-Space: srgb
# LUTr-Color-Space-Confidence: assumed-display-referred
# LUTr-Conversion-Method: TIF LUT image decoded at 16-bit and sampled to 25x25x25 3D CUBE
# LUTr-Conversion-Date: 2026-07-27
# LUTr-Conversion-Tool: LUTr scripts/convert-all-to-cube.mjs
# LUTr-Conversion-Grid: 25x25x25
# LUTr-Note: Preserve this metadata and the upstream license notices when redistributing.
TITLE "Classic Chrome"
LUT_3D_SIZE 5
DOMAIN_MIN 0 0 0
DOMAIN_MAX 1 1 1
0 0 0
0.13960479 0.02636759 0
0.44532692 0.000045777066 0
0.74418631 0.083039597 0.074853132
0.99604791 0.16021973 0.13240253
0.0038338293 0.1816701 0.000091554131
0.19793431 0.19336805 0.014338712
0.46377508 0.26864652 0.057005798
0.76196117 0.17098688 0.15113489
0.99609369 0.20315862 0.1910277
0.12483406 0.45710689 0.090043488
0.27132639 0.44342718 0.091405356
0.49784085 0.48836118 0.1708629
0.71276989 0.51231022 0.16735714
0.99603265 0.42586404 0.2829633
0.20383001 0.68562219 0.15647364
0.29565881 0.67004559 0.14106489
0.57249943 0.71252193 0.21487373
0.7517586 0.73647478 0.27732509
0.95188449 0.75014878 0.27620356
0.25746548 0.89463645 0.1956054
0.33068589 0.88684672 0.18867781
0.49968719 0.85560388 0.17400626
0.83367666 0.95722133 0.30857176
0.99584955 0.98455787 0.37888151
0.00011062791 0.0038834211 0.19437705
0.17853532 0.018550202 0.18156615
0.42975509 0.099608988 0.21668574
0.72856489 0.24101625 0.29275578
0.99608606 0.30473411 0.3024033
0.000026703288 0.19017891 0.19031243
0.20355368 0.20356513 0.20410229
0.47166972 0.24807355 0.22837606
0.7441093 0.30691997 0.25270109
0.99604791 0.35359922 0.27041848
0.12295338 0.46490425 0.24922942
0.26599384 0.46880436 0.25252728
0.49306191 0.48640135 0.28659495
0.72033789 0.52122768 0.28160716
0.99608797 0.43857671 0.36006714
0.21072614 0.69732109 0.27946517
0.3113551 0.69655575 0.27971766
0.53532845 0.68675755 0.28777562
0.74786755 0.73645619 0.35839699
0.94119841 0.74035344 0.33965057
0.269234 0.90931182 0.30010681
0.3463922 0.90637064 0.30002289
0.49969291 0.87072747 0.27260243
0.82979992 0.95720607 0.38187705
0.9958381 0.9845388 0.44041733
0.00011444266 0.079987793 0.40238041
0.27400816 0.25730335 0.44677462
0.47182422 0.17868696 0.4744564
0.69344816 0.28173495 0.49245251
0.97077897 0.32035554 0.51719692
0.000099183642 0.27192531 0.45714122
0.20659619 0.27339923 0.46718261
0.47835222 0.29150549 0.48039311
0.70513514 0.35842918 0.49980402
0.98391318 0.38821431 0.51726177
0.099588006 0.46876097 0.46598001
0.25900568 0.4765631 0.47470054
0.49951553 0.50001144 0.49951362
0.748023 0.51957065 0.50084592
0.9960708 0.54694438 0.50167086
0.17612345 0.70900092 0.48607424
0.2918698 0.71293536 0.48602464
0.50964275 0.71688506 0.49619574
0.74404374 0.73568227 0.52927777
0.95300412 0.75155833 0.51013581
0.26932937 0.9219501 0.4924239
0.35427062 0.92586404 0.49634737
0.52907988 0.93273442 0.50215915
0.78938354 0.93614862 0.52201495
0.99591058 0.98453498 0.58399329
0.00020981155 0.21176852 0.70908675
0.13980697 0.24209964 0.73705844
0.54748608 0.4218452 0.7206321
0.76068132 0.33592355 0.76349851
0.94155032 0.4023537 0.7389868
0.00013923857 0.33681907 0.7142958
0.23160811 0.39057374 0.78328708
0.5498846 0.48411965 0.7269317
0.75507029 0.3991629 0.75567803
0.94248589 0.45635252 0.73996338
0.183608 0.54586671 0.72280461
0.29741407 0.54978161 0.73409962
0.48857862 0.54270619 0.74240101
0.73932345 0.54494545 0.74010071
0.95075532 0.59184024 0.74787137
0.15619993 0.6962768 0.69261463
0.28262617 0.70116493 0.70037551
0.49996281 0.72219139 0.720171
0.75360137 0.75417144 0.75358277
0.98895819 0.75981537 0.74329747
0.24985885 0.945346 0.72884337
0.33873026 0.94924182 0.73268482
0.52332341 0.95712024 0.72870031
0.75570974 0.96589895 0.74415579
0.99210727 0.98444343 0.7753872
0.14476234 0.39827573 0.97668421
0.33424125 0.42083238 0.9687953
0.63882658 0.61125353 0.98631266
0.7980621 0.50580987 0.9890898
0.99629206 0.44525826 0.99572747
0.34297704 0.51455329 0.96887541
0.39762627 0.52239548 0.97484836
0.6026875 0.59275578 0.98338293
0.78653105 0.55564202 0.97348077
0.99630732 0.49221027 0.99583429
0.18959335 0.63079271 0.99633783
0.26279088 0.6156672 0.99623865
0.54505226 0.64254597 0.98244831
0.76717784 0.67674907 0.94474708
0.98062104 0.60743114 0.98420691
0.26569772 0.78316548 0.95336843
0.34769875 0.78219177 0.95330358
0.52147707 0.77831693 0.96002899
0.70881209 0.76026646 0.95852789
0.96491951 0.77053483 0.96859693
0.19134813 0.91012436 0.90656901
0.29981689 0.91798657 0.914374
0.50386053 0.93749142 0.93379873
0.74410239 0.96873808 0.96495003
0.99615473 0.99615473 0.99615473
