site/assets/luts/filmsim--classic-chrome--5830b3dfc.cube
# LUTr-Project: LUTr — LUTrepository
# LUTr-Schema-Version: 1
# LUTr-ID: filmsim--classic-chrome--5830b3dfc
# LUTr-Title: Classic Chrome
# LUTr-Collection: FilmSim
# LUTr-Collection-ID: sguyader-filmsim
# LUTr-Source: https://github.com/sguyader/FilmSim
# LUTr-Source-File: submissions/sguyader-filmsim/Classic_Chrome.tif
# LUTr-Source-Format: TIF
# LUTr-Source-SHA256: cc303723b76205aedf970dc814dbecd6d9795955411aa2d6b265873864de7a66
# LUTr-License: CC0-1.0
# LUTr-License-URL: https://github.com/sguyader/FilmSim/blob/master/LICENSE
# LUTr-Tags: creative, film, film-emulation, hald-clut, rawtherapee, tif, cube
# LUTr-Transform-Class: film-emulation
# LUTr-Input-Color-Space: srgb
# LUTr-Output-Color-Space: srgb
# LUTr-Color-Space-Confidence: assumed-display-referred
# LUTr-Conversion-Method: TIF LUT image decoded at 16-bit and sampled to 25x25x25 3D CUBE
# LUTr-Conversion-Date: 2026-07-27
# LUTr-Conversion-Tool: LUTr scripts/convert-all-to-cube.mjs
# LUTr-Conversion-Grid: 25x25x25
# LUTr-Note: Preserve this metadata and the upstream license notices when redistributing.
TITLE "Classic Chrome"
LUT_3D_SIZE 25
DOMAIN_MIN 0 0 0
DOMAIN_MAX 1 1 1
0 0 0
0.0076333257 0.000014623229 0
0.019562066 0 0
0.046347372 0.0000057221332 0
0.077470054 0.000038147555 0
0.11164327 0.0078215203 0
0.13960479 0.02636759 0
0.17344867 0.039089164 0
0.21873808 0.040355027 0
0.2704757 0.037640192 0
0.32155845 0.032242313 0
0.37919178 0.023476641 0
0.44532692 0.000045777066 0
0.49577452 0.000047048651 0.0054690878
0.54625645 0.000052134991 0.023193713
0.59674601 0.017149233 0.038780804
0.64717581 0.0443122 0.051778948
0.69486089 0.063664454 0.063293787
0.74418631 0.083039597 0.074853132
0.79069263 0.098529412 0.086413113
0.8372193 0.11335419 0.097337301
0.87990005 0.1255436 0.10562104
0.92645533 0.13711121 0.11678747
0.96906043 0.14867819 0.12460263
0.99604791 0.16021973 0.13240253
0.000045777066 0.0078431373 0.000061036088
0.0077668421 0.0077821012 0
0.027170967 0.011254482 0.000042068276
0.065429891 0.014798788 0.000001112637
0.089007252 0.014844697 1.0596543e-7
0.11932815 0.023414386 0
0.1463558 0.039017796 0
0.18243851 0.049565171 0
0.22519858 0.05077821 0
0.27440013 0.050732195 0
0.32879722 0.041291125 0
0.38736744 0.022462499 0.001727157
0.44919509 0.000015259022 0
0.49967882 0.000013987437 0.017114
0.55019217 0.011660489 0.034815472
0.60065097 0.032592953 0.048090397
0.64834821 0.05587875 0.062028772
0.69760309 0.07524523 0.07114307
0.74409984 0.090853329 0.082626173
0.79070055 0.10630378 0.093290958
0.83723244 0.11794207 0.10184231
0.8799107 0.1327062 0.11280621
0.92643117 0.14447602 0.12072599
0.96909158 0.152629 0.12848351
0.99609369 0.16415656 0.13627832
0.0000038147555 0.027035172 0.000055949747
0.015201801 0.027020496 0.000056161678
0.030572192 0.026997766 0.000016318676
0.06150562 0.034332799 3.1789629e-7
0.10033803 0.049820918 0.0000072056492
0.13597076 0.04774744 0.0066686694
0.15794169 0.050683159 0.0046803871
0.19276627 0.054602449 0.0098902304
0.23685732 0.05462857 0.011209023
0.2874973 0.050699213 0.013718814
0.34415283 0.03539648 0.013569721
0.398745 0.023164997 0.017216998
0.45670507 0.0018425269 0.022709239
0.50528264 0.011427683 0.040169216
0.55406907 0.024971707 0.051805121
0.60447932 0.048050978 0.062018069
0.65107407 0.067472428 0.073608674
0.69861196 0.083220586 0.082731503
0.74775502 0.098688042 0.093230399
0.79358644 0.1133499 0.10122146
0.83726041 0.12568602 0.10962717
0.88382115 0.1372061 0.1172996
0.92641835 0.1488667 0.12818564
0.97250181 0.1602369 0.13600477
0.99607716 0.16808703 0.14382264
0.0000019073777 0.065375372 0.000045777066
0.018723217 0.062121465 0.000034014903
0.04993356 0.065147281 0.0000017484296
0.073263333 0.065927796 0.0000042915999
0.10077503 0.072696841 0.0000057221332
0.13508621 0.084646007 0.0000085831998
0.17733415 0.096241512 0.000020027466
0.22739781 0.068937161 0.018298269
0.26589418 0.058621983 0.019932097
0.3127718 0.050378376 0.023172255
0.36344685 0.038381844 0.026614913
0.4178107 0.022786329 0.032692852
0.46485084 0.030323491 0.048089761
0.51486284 0.042038526 0.059656338
0.56188026 0.05563805 0.069785547
0.60842584 0.0698682 0.081329633
0.65837975 0.082878742 0.089197884
0.70492111 0.097346361 0.098307759
0.75147726 0.10904717 0.1086099
0.79457272 0.12187603 0.11630434
0.84118219 0.13345382 0.12418046
0.88379516 0.14504964 0.13200198
0.93033335 0.15630468 0.13971669
0.9729901 0.16757235 0.14427071
0.99609369 0.17589075 0.1519646
0.0071615676 0.10028992 0.000050863406
0.034267842 0.097133105 1.0596543e-7
0.066007986 0.097036147 0.000012927782
0.092547875 0.099871888 0
0.11194061 0.10367488 0.000016954469
0.13975145 0.10877712 0
0.17815925 0.11657893 0.000012715852
0.22817176 0.13202498 0.000012715852
0.27078067 0.14759713 0.0000042386172
0.34258443 0.087285102 0.042547557
0.38277935 0.072561524 0.04793876
0.42939258 0.06904008 0.057785916
0.47590346 0.072630401 0.06755169
0.52246361 0.0771529 0.077211816
0.5696905 0.086974094 0.086693285
0.61620731 0.097035935 0.096758412
0.66276544 0.10619686 0.10479218
0.70913168 0.11657776 0.11392555
0.75196523 0.12537639 0.12163856
0.79851977 0.13609956 0.12923374
0.84116121 0.14403033 0.13685562
0.88776513 0.1528404 0.14456079
0.93036164 0.16355722 0.15195591
0.97296377 0.17204611 0.15914344
0.99607335 0.18364996 0.16688284
0.020250629 0.13509639 0.0000095368887
0.043587502 0.13511175 0.000039366157
0.06990656 0.13513808 0.000072957198
0.10103086 0.1386422 0.000022729585
0.13077798 0.13969603 0.0000026491357
0.15128841 0.14685924 0
0.18545926 0.15386943 0.000012239007
0.22424041 0.15914121 0.0000067552962
0.27130605 0.17765041 0.0030844417
0.32119685 0.19424767 0.014699127
0.36741351 0.20936167 0.022996882
0.44228497 0.13324602 0.084579142
0.48435537 0.1249752 0.088843112
0.5309098 0.12343388 0.096606431
0.57745803 0.12339897 0.10444583
0.62370346 0.12762797 0.11216994
0.66666073 0.1320715 0.12025741
0.71324401 0.13985559 0.12801329
0.75588219 0.14767602 0.13719148
0.80225343 0.15547025 0.14420414
0.84506381 0.16074945 0.15134523
0.88769861 0.1673596 0.15907069
0.93029859 0.17509373 0.16675674
0.97300377 0.18288491 0.1715904
0.99609941 0.19069263 0.17847079
0.0038338293 0.1816701 0.000091554131
0.027110513 0.18163036 0.000060400295
0.06175199 0.17777778 0.000060082399
0.10437743 0.17779955 0.000011444266
0.14232471 0.18562219 0.000020981155
0.17389007 0.18636352 0.0000095368887
0.19793431 0.19336805 0.014338712
0.23288574 0.20397466 0.029063668
0.27400117 0.21098777 0.030558735
0.32012379 0.22417887 0.03411965
0.3716659 0.24085953 0.041893963
0.41724905 0.25648079 0.048410042
0.46377508 0.26864652 0.057005798
0.54165602 0.1793466 0.11990285
0.58426731 0.17291905 0.12541931
0.62790684 0.16997406 0.13164721
0.67443478 0.16706086 0.13739986
0.71712825 0.17000092 0.14353558
0.76196117 0.17098688 0.15113489
0.80609836 0.17569969 0.15657521
0.84879835 0.18270263 0.16422967
0.8911059 0.18658589 0.17151713
0.93391604 0.19175472 0.17841834
0.97578854 0.19835171 0.18618788
0.99609369 0.20315862 0.1910277
0.010442257 0.22825907 0.00014114595
0.03752371 0.22824935 0.000099157151
0.068439256 0.22430418 0.000080109865
0.10476129 0.22431247 0.000042200732
0.15487377 0.22920026 0.0099548163
0.19244994 0.23216891 0.017593758
0.22521108 0.23900969 0.030293291
0.2504126 0.24662572 0.046564972
0.28633639 0.25470041 0.059999746
0.32829333 0.26340545 0.066275336
0.36776897 0.27006932 0.061299518
0.41821607 0.2861922 0.069099739
0.46478408 0.30168453 0.072995346
0.50738791 0.31473269 0.07687474
0.55884658 0.31546751 0.090345119
0.63701799 0.22219846 0.15488352
0.67836801 0.21260798 0.15874045
0.72100547 0.20871282 0.16260077
0.76365889 0.20594625 0.16686726
0.80849498 0.2059853 0.17437261
0.85128504 0.20597825 0.17839195
0.89161111 0.20988872 0.1836103
0.93421269 0.21379924 0.18999427
0.9769042 0.21770174 0.19768998
0.99605046 0.22157689 0.20273391
0.029866992 0.27479464 0.018336258
0.057002408 0.27481371 0.018349822
0.083980146 0.27358239 0.015880403
0.1161078 0.27090613 0.015741588
0.16086993 0.270879 0.023259836
0.20975115 0.28259221 0.03783199
0.24662394 0.28551665 0.044599578
0.28148 0.29046332 0.061348686
0.30460399 0.29822063 0.07682748
0.33684482 0.30686211 0.088550647
0.38205836 0.31667345 0.096325543
0.4174826 0.31780982 0.08846206
0.4634165 0.33080034 0.091073472
0.50738643 0.34432852 0.094853471
0.55000763 0.35586201 0.096228478
0.59118219 0.36696358 0.096267898
0.65572764 0.35032341 0.1296203
0.72676411 0.25880848 0.18205984
0.76757966 0.25137331 0.18590066
0.81017692 0.24356112 0.18979256
0.85288184 0.24072802 0.19390148
0.89547634 0.23966583 0.19921543
0.93781991 0.23705526 0.20537414
0.97689275 0.23969338 0.20934657
0.99610386 0.24098573 0.21446555
0.060906386 0.32529183 0.037727932
0.080301318 0.32132917 0.037726819
0.10353882 0.32133656 0.037710129
0.13075837 0.31745441 0.03380827
0.16897968 0.31740228 0.038862821
0.21700896 0.32200208 0.050016769
0.26417086 0.33308871 0.064935721
0.2990452 0.33584901 0.072014556
0.33307902 0.34187012 0.088564635
0.35634251 0.3487037 0.10399405
0.38725506 0.35737106 0.11469476
0.4330303 0.36643611 0.12346536
0.46911669 0.36822499 0.1161326
0.50738807 0.37281589 0.11173514
0.55005404 0.38532781 0.11565067
0.59262036 0.39707218 0.11559091
0.63137636 0.40569734 0.11559536
0.67014533 0.41658719 0.11556889
0.75112297 0.37558795 0.17109035
0.81211248 0.29373808 0.20921112
0.85285026 0.28557705 0.21307317
0.89549477 0.27837797 0.21691081
0.93793743 0.27427853 0.22090709
0.97826177 0.27058839 0.22471667
0.99608988 0.26812772 0.22858968
0.084191653 0.37180896 0.057120877
0.10355917 0.36791589 0.057098412
0.12290379 0.36791611 0.057090783
0.14619923 0.36399602 0.053369383
0.17685651 0.36208875 0.054495901
0.22090422 0.36007382 0.062192276
0.27524255 0.37514305 0.081120775
0.31465878 0.37962375 0.088218499
0.34958928 0.3835406 0.097084679
0.38453641 0.39052637 0.11571902
0.40676102 0.39820749 0.12818023
0.4348444 0.40397127 0.13896296
0.48033557 0.41366 0.14758335
0.5183228 0.41799161 0.14511764
0.5493463 0.41480772 0.13108591
0.59265628 0.42508106 0.1327244
0.63401575 0.4359723 0.1327111
0.67287693 0.4444615 0.13105603
0.70881717 0.45260739 0.13105974
0.74708531 0.46169456 0.13097354
0.85088735 0.38953019 0.21746628
0.8974732 0.3249671 0.23440592
0.93421518 0.31713048 0.23635589
0.97683495 0.30932814 0.24026157
0.99610513 0.30312174 0.24408586
0.10741143 0.41445919 0.076503649
0.12084957 0.41445596 0.076453475
0.1383562 0.41253656 0.074348525
0.16163691 0.41054398 0.072514687
0.18847795 0.40666025 0.070390928
0.22480108 0.40274445 0.073972957
0.27269478 0.40613429 0.08366776
0.32834872 0.42354189 0.10551333
0.36394124 0.42617283 0.11079533
0.39815191 0.43009802 0.11963566
0.43305189 0.43704371 0.13899978
0.45332329 0.44473606 0.15149618
0.48140974 0.44965031 0.16122428
0.52415238 0.45825995 0.17004935
0.56486748 0.46315238 0.16929636
0.59328897 0.45745824 0.15438228
0.63139141 0.4638785 0.15044166
0.6739924 0.47488945 0.15046461
0.71172847 0.4827012 0.14987236
0.74759896 0.49050269 0.14652423
0.78566224 0.49830773 0.14611668
0.82086918 0.50437235 0.14435949
0.9418395 0.40659942 0.25577082
0.97891155 0.35589878 0.25961006
0.99605872 0.34806338 0.25957758
0.12483406 0.45710689 0.090043488
0.13834751 0.45711357 0.090011063
0.1537836 0.45516709 0.08995702
0.17340639 0.45316434 0.087996872
0.19836093 0.4476819 0.084097556
0.22949982 0.44539718 0.084102642
0.27132639 0.44342718 0.091405356
0.32841993 0.45677596 0.10961255
0.3768012 0.46882582 0.12500699
0.41168555 0.47080949 0.13012894
0.44660741 0.474691 0.14171244
0.48050278 0.48356349 0.16224187
0.49784085 0.48836118 0.1708629
0.52599088 0.49425498 0.18157664
0.56954299 0.50285852 0.19020053
0.60824941 0.50790894 0.19330129
0.63983368 0.50462857 0.17892729
0.670092 0.50262741 0.1698113
0.71276989 0.51231022 0.16735714
0.75066663 0.52003446 0.16590499
0.78631902 0.52581191 0.16193383
0.821149 0.53331903 0.15976768
0.85595102 0.54113197 0.15783869
0.89288103 0.54291441 0.15620311
0.99603265 0.42586404 0.2829633
0.14224969 0.49795974 0.10346125
0.15388188 0.49583741 0.10347339
0.16760351 0.49589384 0.10347593
0.18683973 0.49405637 0.10167659
0.20797284 0.48836235 0.098081814
0.23683753 0.48411928 0.095629191
0.27225163 0.48233864 0.099088273
0.32124636 0.48362903 0.10826557
0.3833399 0.506981 0.13545052
0.42336124 0.51147439 0.14242533
0.45826689 0.51361979 0.1484341
0.49317522 0.51851065 0.16224913
0.52525018 0.52621087 0.18165611
0.54248249 0.53196913 0.19139147
0.57055258 0.53705415 0.1999059
0.61213951 0.54552203 0.20877036
0.65088312 0.55056437 0.21262303
0.68696644 0.55058061 0.20549327
0.71173959 0.54276277 0.18822385
0.75148095 0.54917162 0.18524251
0.78955827 0.55658872 0.1813574
0.82456345 0.56254005 0.17743358
0.85953588 0.568472 0.17351993
0.89080106 0.57414094 0.16957754
0.92556776 0.58005582 0.16562524
0.15766639 0.53684418 0.11511533
0.16763042 0.53685981 0.11507305
0.17931576 0.53459432 0.11506012
0.19855405 0.53316882 0.11365269
0.2181398 0.52933844 0.11114544
0.24279859 0.52333841 0.10722154
0.27560051 0.51954363 0.10558703
0.31782699 0.51899171 0.11337962
0.37088663 0.52775743 0.12766206
0.43108867 0.55165926 0.1563042
0.46790964 0.55413117 0.16018858
0.50284136 0.55641266 0.16690414
0.5377362 0.56195099 0.1816345
0.56964663 0.56977771 0.20097425
0.58512267 0.57460125 0.20955617
0.61317521 0.57984458 0.21936656
0.65350618 0.58765799 0.22706866
0.69352567 0.59204867 0.23204294
0.73132677 0.59550367 0.22754063
0.7527186 0.58540019 0.20595817
0.78952744 0.58771458 0.20073243
0.82502591 0.59351968 0.19682294
0.85987969 0.59940363 0.19290127
0.89455518 0.60332588 0.1888767
0.92722464 0.60724295 0.1811958
0.16922255 0.57578965 0.12661936
0.17937791 0.57345645 0.12660108
0.19097731 0.5733231 0.12662922
0.20812519 0.57206121 0.12518263
0.22963938 0.56941965 0.12267491
0.25044283 0.5620896 0.1172938
0.27945468 0.55767815 0.1148723
0.3178095 0.55623482 0.11833999
0.36389779 0.55625938 0.1276875
0.42751869 0.57921197 0.15579175
0.4776511 0.592892 0.17276455
0.51252917 0.59530419 0.17658908
0.54743458 0.59800011 0.18434424
0.58229405 0.60457985 0.20097332
0.61229369 0.61154679 0.22036825
0.62774376 0.61632191 0.22707666
0.6539737 0.62024936 0.23658986
0.69351857 0.62803591 0.24324335
0.732259 0.63257467 0.25139763
0.77099435 0.63589144 0.24745492
0.79988874 0.63240094 0.23224581
0.82630536 0.62444281 0.21618553
0.86356018 0.63052202 0.21226889
0.89846631 0.63443016 0.20683239
0.92950713 0.63833448 0.20053025
0.18338801 0.6120648 0.13689886
0.19118537 0.61209023 0.13690394
0.20266355 0.61210295 0.13692768
0.21815442 0.6107627 0.13462526
0.2374236 0.60706154 0.1329917
0.25812649 0.60091279 0.12907289
0.2839704 0.59544773 0.12512652
0.31782953 0.59163636 0.12509855
0.35916855 0.59123963 0.13160906
0.41043781 0.59759734 0.14315506
0.4808779 0.6286734 0.17994329
0.52216521 0.63553763 0.18885816
0.55515119 0.63555352 0.192106
0.59142782 0.63946025 0.2016946
0.6269771 0.64648195 0.22035808
0.65491722 0.6537747 0.23826327
0.6703763 0.65767402 0.24609072
0.69623484 0.66195714 0.2542365
0.73420183 0.66936751 0.25973144
0.77405267 0.67357265 0.2668502
0.81298458 0.67740817 0.26685486
0.84778426 0.67817515 0.25836449
0.86493434 0.66288794 0.23525427
0.89852899 0.66556759 0.22753321
0.93342997 0.66942346 0.21990285
0.1950885 0.64965476 0.14587752
0.20279863 0.64966202 0.14587662
0.21426364 0.64965831 0.1458266
0.22730459 0.64687802 0.14466586
0.24631876 0.64574909 0.1419355
0.26629407 0.63969597 0.13859216
0.28904339 0.63199356 0.13294741
0.31897298 0.62739188 0.13018499
0.35653955 0.62624552 0.13289421
0.40268161 0.6252091 0.14314123
0.46415401 0.64252822 0.16759847
0.52745824 0.67186522 0.19929684
0.56479807 0.67429141 0.20316466
0.59920237 0.67703517 0.20757828
0.63470119 0.68095388 0.22036936
0.66964345 0.68876896 0.23974196
0.69754075 0.69380674 0.25519824
0.70995985 0.69769774 0.26171368
0.735475 0.70160538 0.26978014
0.77097289 0.70741541 0.27509034
0.81296635 0.71237252 0.28279439
0.85182298 0.71627685 0.28608107
0.88822793 0.72003367 0.27809748
0.90354139 0.70271576 0.25089851
0.93732293 0.7016715 0.24318685
0.20383001 0.68562219 0.15647364
0.21163294 0.68563792 0.15358174
0.22213989 0.68467708 0.15353819
0.23757153 0.68466278 0.15266175
0.25399914 0.68169299 0.15253236
0.27334821 0.67707872 0.14863114
0.29565881 0.67004559 0.14106489
0.32199429 0.6630622 0.13686214
0.35389487 0.6612548 0.1368569
0.39525492 0.65830663 0.14456636
0.44746351 0.6635303 0.15475128
0.52128745 0.69673139 0.19703212
0.57249943 0.71252193 0.21487373
0.60705984 0.71304392 0.21719851
0.64204655 0.71638215 0.22308913
0.67736849 0.72081855 0.23582341
0.7123331 0.7286628 0.25515373
0.73628119 0.73254098 0.27132099
0.7517586 0.73647478 0.27732509
0.77503401 0.74036949 0.28529444
0.80955914 0.74398095 0.28998372
0.84845359 0.75110199 0.2977431
0.88720658 0.75501132 0.301675
0.92589758 0.75895991 0.29479429
0.95188449 0.75014878 0.27620356
0.21458127 0.72051639 0.16433967
0.22225446 0.72048752 0.161222
0.23093549 0.72048932 0.16120553
0.24538065 0.71966689 0.1603972
0.26097876 0.71656695 0.16032601
0.28014115 0.71269437 0.15641398
0.30035779 0.7056371 0.15021712
0.32340654 0.70016218 0.14468303
0.3539133 0.69422552 0.14074837
0.3913386 0.6923387 0.14460013
0.43788783 0.69232869 0.15246433
0.49604754 0.70537835 0.17368452
0.57204674 0.74508501 0.21682085
0.61482006 0.75177201 0.22744409
0.64802687 0.7517816 0.23089295
0.68290846 0.75515612 0.23833909
0.71985623 0.76059824 0.25124912
0.75263348 0.7673964 0.27287039
0.77798632 0.77131113 0.28610793
0.79045167 0.77523591 0.29293952
0.81305007 0.77912025 0.30076655
0.84450445 0.78220758 0.30542291
0.88714125 0.79002643 0.31251457
0.92590028 0.79393886 0.31712444
0.96855116 0.79867882 0.31323275
0.22239261 0.75533176 0.16815188
0.23004056 0.75533271 0.16815241
0.2379992 0.75476569 0.16816375
0.25032108 0.75466704 0.16820306
0.26859142 0.75143265 0.16493689
0.28795968 0.74821607 0.16427227
0.30737837 0.74311309 0.15792134
0.3266964 0.73535515 0.15019021
0.35390165 0.72797233 0.14492002
0.38886727 0.72410671 0.14468223
0.43007808 0.72341158 0.15246815
0.48025112 0.7255471 0.16387013
0.55316243 0.75599171 0.20061418
0.61659715 0.78595757 0.2347059
0.65535337 0.78986419 0.23899697
0.68894992 0.79052764 0.24406233
0.72389987 0.7939676 0.25393217
0.76028914 0.80155335 0.26901179
0.79384871 0.80616083 0.28987055
0.81765829 0.81006502 0.30087676
0.82917483 0.81393445 0.30579461
0.85250502 0.81783398 0.31634305
0.88320109 0.82111679 0.32094809
0.92585726 0.82896247 0.32805668
0.96856133 0.83350627 0.33585107
0.23018997 0.7896849 0.17602045
0.23785525 0.78970556 0.17603626
0.24551353 0.7896574 0.17259766
0.25709473 0.78623994 0.17207837
0.2724794 0.78577573 0.17209634
0.29188983 0.78235938 0.16829382
0.31126068 0.77805276 0.1643802
0.33055635 0.7702821 0.15658673
0.3564622 0.76249396 0.15020854
0.38745518 0.75844015 0.14864505
0.42588137 0.75453288 0.15242777
0.4687926 0.75451039 0.16025128
0.52487221 0.76431487 0.17779622
0.61006929 0.80866704 0.2297477
0.66175914 0.82502543 0.25006644
0.69656028 0.8253481 0.25182894
0.73154612 0.82894573 0.25802625
0.76666253 0.83312829 0.26949006
0.80282435 0.84146735 0.28613241
0.83659415 0.84841409 0.30547688
0.859617 0.85224975 0.31746077
0.87177081 0.8561532 0.32424301
0.89462978 0.86008653 0.33201025
0.92571407 0.86052594 0.33974856
0.96903944 0.87221904 0.34755093
0.23799496 0.82463951 0.17994965
0.24192543 0.82467892 0.17992421
0.25001197 0.8210388 0.17991733
0.26174674 0.82111292 0.17991054
0.27731471 0.82075757 0.1763091
0.29576552 0.8169355 0.1759778
0.31517764 0.81304201 0.17208394
0.33457069 0.80526177 0.16426581
0.35774777 0.79744454 0.1564249
0.38500404 0.78985386 0.15249676
0.41993835 0.78595471 0.15252823
0.46095179 0.78563448 0.16025624
0.51143537 0.78758234 0.17000076
0.57902043 0.81229671 0.20257491
0.66073907 0.85608411 0.25170022
0.70446628 0.86407152 0.26341459
0.73941024 0.86769707 0.26718039
0.77438439 0.86904787 0.2748294
0.81047436 0.87579697 0.28640294
0.84935239 0.88730026 0.30627639
0.88027051 0.89144647 0.32813043
0.90324811 0.89534075 0.33987755
0.91474636 0.89921522 0.34431008
0.94131979 0.9031344 0.35195591
0.97241932 0.90709417 0.35970219
0.24578978 0.85964307 0.18782076
0.2497784 0.85591486 0.18779146
0.25767587 0.85589904 0.18780666
0.26938555 0.8558996 0.18400139
0.28422408 0.85575996 0.18385521
0.30356619 0.8520277 0.18384284
0.32293987 0.84807625 0.17989751
0.34235663 0.84138414 0.17220214
0.36165387 0.83251634 0.16428308
0.3888513 0.82609023 0.15650837
0.41996648 0.82076212 0.15641663
0.45704045 0.82063118 0.16027422
0.50358778 0.81688252 0.17002651
0.55970951 0.82635723 0.18547929
0.64275843 0.87220839 0.23912842
0.70970935 0.90273677 0.27495406
0.75108975 0.90675614 0.28148614
0.78607103 0.91064743 0.28644882
0.82215213 0.91454662 0.29689717
0.86090056 0.92238843 0.30953368
0.89958875 0.93393034 0.33262273
0.93009683 0.93795109 0.35152193
0.94954244 0.94189751 0.3597698
0.9611158 0.94579283 0.3670852
0.98428066 0.94956385 0.37497648
0.25746548 0.89463645 0.1956054
0.2614023 0.89469749 0.19557488
0.26919966 0.89471275 0.19559014
0.28096437 0.89465171 0.19562066
0.2959055 0.89138628 0.19550367
0.31140993 0.89075113 0.19164441
0.33068589 0.88684672 0.18867781
0.35010618 0.88295249 0.18382162
0.36947178 0.87255665 0.17597721
0.39271954 0.86486038 0.16810483
0.42380662 0.859514 0.1642354
0.45886994 0.85561786 0.16421887
0.49968719 0.85560388 0.17400626
0.55191183 0.85562168 0.18546324
0.61556293 0.87681519 0.21430406
0.7071603 0.93129816 0.27637522
0.76405483 0.95068793 0.29693039
0.79885621 0.95328133 0.30077058
0.83367666 0.95722133 0.30857176
0.8716551 0.96108377 0.31723761
0.9072811 0.96895806 0.33274332
0.94549477 0.97676623 0.35204089
0.97266601 0.98066555 0.36743343
0.99194069 0.98065156 0.37512144
0.99584955 0.98455787 0.37888151
0.000017802192 0 0.027228453
0.015463747 0.000029246459 0.015418632
0.046113135 5.2982715e-8 0.011819331
0.077609849 0.0000019073777 0.0075858002
0.11957107 0.000022464671 0
0.14353047 0.000018808864 0
0.17327939 0.0081065143 0
0.19506331 0.018668062 0
0.23560481 0.022269907 0
0.28606398 0.014364223 0
0.34413958 0.00045962505 0
0.39485511 0.0037694817 0
0.441502 0.017422942 0.0073736044
0.49365466 0.036667324 0.024786374
0.54622964 0.058373653 0.042516509
0.59671216 0.077913361 0.054333085
0.64711456 0.094893102 0.065995058
0.69368057 0.11034827 0.077687151
0.74022787 0.12475697 0.086536615
0.78680616 0.13659498 0.097253853
0.83333068 0.14837417 0.10515034
0.87986238 0.15667018 0.11340203
0.92249434 0.16787462 0.12447166
0.96885496 0.1758469 0.13224774
0.99607652 0.18744628 0.14010897
0.000056082204 0.01155553 0.011636594
0.0078059677 0.0076550133 0.0078014741
0.049991064 0.0005040908 0.00015689506
0.081352386 0.00018873436 5.3313857e-7
0.10856972 0.0038873815 0
0.13179163 0.015640146 1.3245679e-7
0.16178079 0.031363946 0
0.19688591 0.037907624 0
0.24344683 0.035094982 0
0.29509154 0.02397543 0
0.34826868 0.017611801 0
0.39491221 0.026971541 0
0.44535336 0.040632908 0.017148438
0.4957947 0.05621236 0.034703529
0.54622633 0.073902699 0.048192925
0.59670561 0.090849849 0.059722911
0.64713194 0.10512708 0.071309683
0.69371667 0.11820146 0.081727255
0.7441891 0.13246645 0.093276381
0.79065666 0.14417176 0.10122954
0.83331066 0.15290413 0.10958508
0.87992835 0.16398171 0.11734331
0.92253897 0.17213904 0.1282231
0.96909244 0.18331442 0.13603293
0.99605162 0.19132337 0.14376261
5.2982715e-8 0.034802014 0.00035026873
0.0000017771286 0.034646132 0.000040498663
0.030897069 0.030675659 0.000016331922
0.077567655 0.034132001 5.0995863e-7
0.11873831 0.035960278 0.0035105817
0.13589442 0.041575053 0
0.16691902 0.04694152 0
0.20819891 0.048392855 0
0.25489154 0.049261809 0
0.30604711 0.039969942 0
0.35235097 0.042219819 0.0019548414
0.40235066 0.05028095 0.017045356
0.44929562 0.061975259 0.032617087
0.4996936 0.075477792 0.048032125
0.55013206 0.089465932 0.059742117
0.60056146 0.10279624 0.069744194
0.6507864 0.11674868 0.07908223
0.69758304 0.12858147 0.089551363
0.74418052 0.14054768 0.098213807
