site/assets/luts/filmsim--classic-chrome--5830b3dfc.cube
# LUTr-Project: LUTr — LUTrepository
# LUTr-Schema-Version: 1
# LUTr-ID: filmsim--classic-chrome--5830b3dfc
# LUTr-Title: Classic Chrome
# LUTr-Collection: FilmSim
# LUTr-Collection-ID: sguyader-filmsim
# LUTr-Source: https://github.com/sguyader/FilmSim
# LUTr-Source-File: submissions/sguyader-filmsim/Classic_Chrome.tif
# LUTr-Source-Format: TIF
# LUTr-Source-SHA256: cc303723b76205aedf970dc814dbecd6d9795955411aa2d6b265873864de7a66
# LUTr-License: CC0-1.0
# LUTr-License-URL: https://github.com/sguyader/FilmSim/blob/master/LICENSE
# LUTr-Tags: creative, film, film-emulation, hald-clut, rawtherapee, tif, cube
# LUTr-Transform-Class: film-emulation
# LUTr-Input-Color-Space: srgb
# LUTr-Output-Color-Space: srgb
# LUTr-Color-Space-Confidence: assumed-display-referred
# LUTr-Conversion-Method: TIF LUT image decoded at 16-bit and sampled to 25x25x25 3D CUBE
# LUTr-Conversion-Date: 2026-07-27
# LUTr-Conversion-Tool: LUTr scripts/convert-all-to-cube.mjs
# LUTr-Conversion-Grid: 25x25x25
# LUTr-Note: Preserve this metadata and the upstream license notices when redistributing.
TITLE "Classic Chrome"
LUT_3D_SIZE 9
DOMAIN_MIN 0 0 0
DOMAIN_MAX 1 1 1
0 0 0
0.046347372 0.0000057221332 0
0.13960479 0.02636759 0
0.2704757 0.037640192 0
0.44532692 0.000045777066 0
0.59674601 0.017149233 0.038780804
0.74418631 0.083039597 0.074853132
0.87990005 0.1255436 0.10562104
0.99604791 0.16021973 0.13240253
0.0000019073777 0.065375372 0.000045777066
0.073263333 0.065927796 0.0000042915999
0.17733415 0.096241512 0.000020027466
0.3127718 0.050378376 0.023172255
0.46485084 0.030323491 0.048089761
0.60842584 0.0698682 0.081329633
0.75147726 0.10904717 0.1086099
0.88379516 0.14504964 0.13200198
0.99609369 0.17589075 0.1519646
0.0038338293 0.1816701 0.000091554131
0.10437743 0.17779955 0.000011444266
0.19793431 0.19336805 0.014338712
0.32012379 0.22417887 0.03411965
0.46377508 0.26864652 0.057005798
0.62790684 0.16997406 0.13164721
0.76196117 0.17098688 0.15113489
0.8911059 0.18658589 0.17151713
0.99609369 0.20315862 0.1910277
0.060906386 0.32529183 0.037727932
0.13075837 0.31745441 0.03380827
0.26417086 0.33308871 0.064935721
0.35634251 0.3487037 0.10399405
0.46911669 0.36822499 0.1161326
0.59262036 0.39707218 0.11559091
0.75112297 0.37558795 0.17109035
0.89549477 0.27837797 0.21691081
0.99608988 0.26812772 0.22858968
0.12483406 0.45710689 0.090043488
0.17340639 0.45316434 0.087996872
0.27132639 0.44342718 0.091405356
0.41168555 0.47080949 0.13012894
0.49784085 0.48836118 0.1708629
0.60824941 0.50790894 0.19330129
0.71276989 0.51231022 0.16735714
0.821149 0.53331903 0.15976768
0.99603265 0.42586404 0.2829633
0.16922255 0.57578965 0.12661936
0.20812519 0.57206121 0.12518263
0.27945468 0.55767815 0.1148723
0.42751869 0.57921197 0.15579175
0.54743458 0.59800011 0.18434424
0.62774376 0.61632191 0.22707666
0.732259 0.63257467 0.25139763
0.82630536 0.62444281 0.21618553
0.92950713 0.63833448 0.20053025
0.20383001 0.68562219 0.15647364
0.23757153 0.68466278 0.15266175
0.29565881 0.67004559 0.14106489
0.39525492 0.65830663 0.14456636
0.57249943 0.71252193 0.21487373
0.67736849 0.72081855 0.23582341
0.7517586 0.73647478 0.27732509
0.84845359 0.75110199 0.2977431
0.95188449 0.75014878 0.27620356
0.23018997 0.7896849 0.17602045
0.25709473 0.78623994 0.17207837
0.31126068 0.77805276 0.1643802
0.38745518 0.75844015 0.14864505
0.52487221 0.76431487 0.17779622
0.69656028 0.8253481 0.25182894
0.80282435 0.84146735 0.28613241
0.87177081 0.8561532 0.32424301
0.96903944 0.87221904 0.34755093
0.25746548 0.89463645 0.1956054
0.28096437 0.89465171 0.19562066
0.33068589 0.88684672 0.18867781
0.39271954 0.86486038 0.16810483
0.49968719 0.85560388 0.17400626
0.7071603 0.93129816 0.27637522
0.83367666 0.95722133 0.30857176
0.94549477 0.97676623 0.35204089
0.99584955 0.98455787 0.37888151
0.000085831998 0 0.10111009
0.084530451 0.000003337911 0.084859474
0.17396096 0.0073019188 0.076637007
0.29788996 0.012533618 0.08174115
0.43775845 0.10719749 0.12992008
0.59669785 0.12064522 0.11564789
0.74022278 0.16849155 0.13203822
0.87591006 0.20659571 0.15153711
0.99611849 0.23397612 0.1670901
0 0.077621929 0.073771649
0.06980624 0.070172576 0.069756589
0.18176612 0.076398108 0.065370246
0.30915899 0.095234774 0.076884579
0.45308685 0.12994571 0.096709297
0.60055582 0.17113082 0.12040095
0.74413767 0.20613222 0.1433637
0.87637313 0.2335739 0.15973543
0.99609917 0.25689946 0.17840133
0 0.18554112 0.080261501
0.085277368 0.18557373 0.08147221
0.19723299 0.19339511 0.095829042
0.32903279 0.23195513 0.1126961
0.48346637 0.20079633 0.1589971
0.61924008 0.22309185 0.17060099
0.75495048 0.25011432 0.18578133
0.88682157 0.27289116 0.19833635
0.99609226 0.29244678 0.21311608
0.060933804 0.32914688 0.11898175
0.13202893 0.32913519 0.11926609
0.25219903 0.32817906 0.12744574
0.35338557 0.34867828 0.15729
0.4647513 0.36432238 0.16202792
0.59656043 0.40002888 0.16738074
0.76911324 0.31537752 0.24050281
0.89156033 0.30673301 0.24949043
0.99612039 0.31599718 0.26088731
0.12680056 0.4609884 0.15369459
0.17711862 0.46100104 0.15368744
0.26404092 0.44928759 0.14804088
0.4078249 0.4718452 0.17919003
0.4959659 0.48836547 0.2114023
0.60756216 0.50595853 0.22657084
0.71277872 0.51420806 0.20603161
0.82457215 0.53698739 0.19878893
0.99603552 0.40829614 0.30585851
0.17314126 0.58092169 0.17938101
0.21173985 0.5793594 0.17939162
0.28370825 0.56805977 0.1712945
0.4067649 0.56326799 0.181703
0.54474577 0.59796674 0.22217577
0.62775828 0.61632626 0.25888665
0.73223003 0.63200777 0.27856662
0.82817024 0.6265974 0.24676157
0.92955291 0.63959621 0.23133631
0.20782406 0.68953374 0.19897574
0.24116521 0.68953988 0.1989184
0.30348275 0.68167689 0.1928006
0.39140011 0.66221842 0.18347448
0.56668479 0.7105621 0.24570816
0.67460505 0.72020867 0.26530861
0.7507955 0.7364513 0.30221959
0.84839113 0.7510968 0.32107033
0.94617094 0.74233186 0.29168956
0.23410034 0.79399152 0.2145819
0.26098679 0.79358516 0.21201362
0.31910191 0.7862006 0.20735229
0.38891805 0.76396123 0.19106212
0.5170907 0.76039783 0.20473745
0.69439401 0.82850335 0.28082716
0.80251655 0.84061373 0.30911923
0.87138975 0.85616909 0.34450139
0.96900893 0.87219234 0.36709773
0.26141375 0.89851797 0.23027962
0.28483253 0.89857328 0.23030823
0.33822051 0.89468223 0.22635138
0.40059296 0.87484526 0.20854767
0.49968719 0.85951781 0.20668822
0.69337305 0.9188828 0.28781281
0.83268387 0.95719654 0.32901217
0.945552 0.9767071 0.37159724
0.99581903 0.98452735 0.39844358
0.00011062791 0.0038834211 0.19437705
0.084542134 0.068331331 0.16699903
0.17853532 0.018550202 0.18156615
0.28618057 0.06884966 0.19383249
0.42975509 0.099608988 0.21668574
0.58926289 0.14995136 0.24597353
0.72856489 0.24101625 0.29275578
0.86036374 0.30120832 0.32298962
0.99608606 0.30473411 0.3024033
0.000048161288 0.09315156 0.17909562
0.04690069 0.084004373 0.17503272
0.17869066 0.089216044 0.18158403
0.29789056 0.12687853 0.20096996
0.44576896 0.14942302 0.22102121
0.59278516 0.2106806 0.25859154
0.72853974 0.2770304 0.29644167
0.86916003 0.28961784 0.28740111
0.99612802 0.29598306 0.2633402
0.000026703288 0.19017891 0.19031243
0.084316944 0.19408677 0.19332084
0.20355368 0.20356513 0.20410229
0.33227045 0.22118894 0.21282759
0.47166972 0.24807355 0.22837606
0.61131194 0.2775293 0.24184381
0.7441093 0.30691997 0.25270109
0.87595309 0.33114486 0.26265927
0.99604791 0.35359922 0.27041848
0.037510491 0.3330024 0.22473726
0.12267467 0.33689214 0.22359289
0.23516692 0.33995539 0.22913996
0.35248978 0.34867586 0.2449563
0.47759904 0.37553621 0.25521954
0.63971035 0.37127185 0.30552019
0.75627658 0.37062316 0.29876307
0.88630807 0.39237651 0.29809542
0.99604982 0.4117318 0.30588188
0.12295338 0.46490425 0.24922942
0.17714103 0.46811508 0.2506044
0.26599384 0.46880436 0.25252728
0.39415174 0.46618243 0.25876917
0.49306191 0.48640135 0.28659495
0.60096442 0.4984443 0.28709421
0.72033789 0.52122768 0.28160716
0.85690971 0.52451886 0.30357896
0.99608797 0.43857671 0.36006714
0.17315938 0.58499323 0.26482795
0.21420937 0.58500372 0.2674965
0.2894131 0.58502971 0.26808385
0.38756241 0.56835589 0.25986001
0.53964795 0.59798462 0.29419752
0.62390344 0.61482831 0.32320611
0.73225781 0.6319357 0.3362974
0.8311042 0.63049635 0.30755149
0.93346494 0.64368706 0.29569886
0.21072614 0.69732109 0.27946517
0.24286259 0.69734565 0.27972505
0.3113551 0.69655575 0.27971766
0.39287678 0.68057622 0.26805893
0.53532845 0.68675755 0.28777562
0.66988561 0.71984114 0.32471795
0.74786755 0.73645619 0.35839699
0.84845991 0.75107052 0.37395428
0.94119841 0.74035344 0.33965057
0.23805886 0.80134089 0.28835355
0.26567829 0.80137278 0.28831147
0.32605526 0.80051678 0.28766725
0.40366115 0.78711453 0.27947828
0.50412542 0.76539898 0.2699588
0.69019095 0.82873172 0.33889119
0.79773225 0.83790186 0.35932624
0.86837139 0.85617722 0.39354436
0.96899176 0.87219234 0.41306458
0.269234 0.90931182 0.30010681
0.29216783 0.90638542 0.30003958
0.3463922 0.90637064 0.30002289
0.41980287 0.89855421 0.29512808
0.49969291 0.87072747 0.27260243
0.65073529 0.884792 0.30560435
0.82979992 0.95720607 0.38187705
0.94163424 0.97328145 0.41355764
0.9958381 0.9845388 0.44041733
0.00013160906 0.023390173 0.29154269
0.00010371366 0.045867189 0.28797374
0.20467069 0.13085899 0.2910935
0.31266022 0.088365473 0.31724508
0.429757 0.14649805 0.32967498
0.56550817 0.20796449 0.36254911
0.71330301 0.2216001 0.37784199
0.86039163 0.26225681 0.3954056
0.99080453 0.31549935 0.41762226
0.000051976043 0.10835527 0.29054322
0.00006449321 0.11258631 0.29719824
0.21243396 0.17868642 0.29869196
0.3183597 0.14257368 0.32118855
0.4373728 0.19222958 0.33751431
0.57299722 0.23710121 0.3663369
0.72210716 0.25248716 0.37967427
0.86432202 0.29140247 0.39671189
0.98440003 0.35825036 0.42933332
0.000021458 0.22128443 0.30578508
0.091801673 0.22349484 0.31217753
0.19245871 0.21977283 0.31522779
0.3320024 0.23628732 0.33293201
0.45315313 0.27338874 0.3529829
0.59218464 0.29095706 0.36799867
0.73573854 0.32035494 0.38391496
0.85701468 0.37762908 0.41650978
0.98049659 0.41707675 0.43577144
0.04055395 0.33691801 0.33406791
0.12660554 0.3399441 0.33792514
0.23621532 0.34773737 0.34608064
0.35943315 0.36036791 0.35943538
0.48707847 0.3725638 0.36511859
0.61676511 0.39011802 0.37102187
0.74802396 0.40934931 0.37601735
0.87595101 0.42859952 0.37976162
0.99607247 0.44783536 0.38260328
0.11054685 0.47386797 0.36831273
0.1674382 0.47584199 0.36829843
0.26002065 0.47657168 0.36434396
0.37470734 0.48003798 0.36820127
0.49213684 0.48737459 0.38313878
0.60762629 0.50594303 0.38374247
0.76484345 0.51232309 0.42562181
0.88620871 0.50472672 0.42291142
0.99605459 0.52157816 0.41822404
0.14050937 0.59134551 0.36445077
0.19637941 0.59283175 0.36829044
0.28988559 0.59437252 0.37439643
0.3899812 0.59617604 0.37605481
0.52211604 0.59283577 0.38257718
0.6209273 0.61330169 0.40958612
0.73095722 0.62761847 0.41322242
0.83679928 0.63748239 0.39672986
0.95458128 0.64604815 0.39538677
0.20785697 0.70305705 0.37825685
0.24249471 0.70416214 0.38009556
0.31208717 0.7051436 0.38124094
0.40353598 0.70514944 0.3815016
0.50764286 0.68356246 0.36965982
0.66293333 0.72019287 0.4099971
0.74694069 0.7356874 0.43602941
0.84851093 0.74852774 0.44766769
0.9436842 0.7403706 0.41343891
0.2380684 0.80789201 0.38158641
0.26886248 0.80917639 0.3815986
0.32997909 0.8094079 0.3840061
0.41236899 0.80918486 0.38392724
0.50175193 0.78735242 0.37022393
0.65724237 0.80546952 0.39769443
0.7902589 0.83702655 0.43304496
0.86797316 0.85610406 0.46409954
0.97246676 0.87220736 0.48286316
0.27317273 0.91418708 0.38942931
0.2966125 0.91808194 0.3918822
0.35315623 0.91807431 0.39333658
0.43041886 0.91809696 0.39327649
0.51729038 0.90491722 0.38468948
0.62768392 0.87901789 0.37604143
0.82492466 0.95999275 0.45556144
0.93384833 0.97281724 0.47933404
0.99587243 0.98450256 0.50239948
0.00011444266 0.079987793 0.40238041
0.00014496071 0.083901732 0.41020066
0.27400816 0.25730335 0.44677462
0.35459487 0.19359503 0.45232605
0.47182422 0.17868696 0.4744564
0.5725948 0.2241083 0.47123674
0.69344816 0.28173495 0.49245251
0.82524605 0.31835946 0.51146715
0.97077897 0.32035554 0.51719692
0.000081063554 0.14962139 0.42365435
0.00010132944 0.15526424 0.42974126
0.24921464 0.24861334 0.45214747
0.35831271 0.2367932 0.45156894
0.47472152 0.21765421 0.47642338
0.57453102 0.25487883 0.47321159
0.69733897 0.30534328 0.49441424
0.82919623 0.33402285 0.51149863
0.97467575 0.33960002 0.51726272
0.000099183642 0.27192531 0.45714122
0.075280385 0.26532006 0.46101511
0.20659619 0.27339923 0.46718261
0.36772717 0.32048095 0.4570058
0.47835222 0.29150549 0.48039311
0.58111648 0.32081497 0.48106546
0.70513514 0.35842918 0.49980402
0.841073 0.36818041 0.50758993
0.98391318 0.38821431 0.51726177
0.089126993 0.37400053 0.45713169
0.15023783 0.37281391 0.45714814
0.24496524 0.37531758 0.46489328
0.35096311 0.37462568 0.47447106
0.48307155 0.38454786 0.48433804
0.59280275 0.40962332 0.49252999
0.72269398 0.42238785 0.50127222
0.86037256 0.43999557 0.50971594
0.98513485 0.47371538 0.52633707
0.099588006 0.46876097 0.46598001
0.16062457 0.47071174 0.46789025
0.25900568 0.4765631 0.47470054
0.37437676 0.48635128 0.48504854
0.49951553 0.50001144 0.49951362
0.62229725 0.50786078 0.49952983
0.748023 0.51957065 0.50084592
0.87208505 0.53229047 0.50179723
0.9960708 0.54694438 0.50167086
0.15764286 0.6018368 0.4962768
0.20332289 0.60305002 0.49627596
0.28555328 0.60453861 0.49623007
0.38640362 0.6065032 0.49228084
0.50323777 0.60904812 0.49612993
0.62097698 0.61672937 0.51090555
0.73254177 0.6289838 0.50776851
0.88298559 0.63312054 0.54463192
0.9960565 0.63093194 0.54566167
0.17612345 0.70900092 0.48607424
0.2168369 0.71177496 0.48606971
0.2918698 0.71293536 0.48602464
0.40412923 0.71586557 0.49426213
0.50964275 0.71688506 0.49619574
0.6429067 0.71533794 0.50157979
0.74404374 0.73568227 0.52927777
0.8519708 0.74813053 0.53147889
0.95300412 0.75155833 0.51013581
0.22907797 0.8135071 0.48850519
0.2620042 0.81526188 0.48854417
0.32700155 0.81696732 0.49044499
0.41507365 0.81919299 0.49238921
0.51352426 0.82087577 0.49428216
0.61997072 0.79370243 0.47853449
0.78219344 0.8370172 0.52538744
0.86755705 0.85610707 0.55273542
0.97250706 0.8721685 0.56486229
0.26932937 0.9219501 0.4924239
0.29663539 0.9258793 0.49437705
0.35427062 0.92586404 0.49634737
0.43580816 0.92980564 0.50022889
0.52907988 0.93273442 0.50215915
0.62308881 0.90950828 0.48692969
0.78938354 0.93614862 0.52201495
0.92438487 0.96886873 0.56054017
0.99591058 0.98453498 0.58399329
0.00020027466 0.13418593 0.54202525
0.00017500191 0.14202502 0.55343948
0.19887417 0.22051909 0.58787051
0.41952773 0.35592527 0.59510305
0.51455138 0.27169928 0.61606203
0.62415312 0.26315065 0.62679747
0.70852312 0.28611334 0.60429637
0.81752928 0.34424258 0.61630951
0.94150835 0.38677234 0.63399519
0.00010013733 0.20401098 0.57299392
0.00014469248 0.21182786 0.58038375
0.17438123 0.23062736 0.59659843
0.42587483 0.37858191 0.60055704
0.51256271 0.30075866 0.61350257
0.62323782 0.29050913 0.62381123
0.70848366 0.31296391 0.60484277
0.82095275 0.36373279 0.61840584
0.94150359 0.40366526 0.63398089
0.000091077287 0.30266175 0.6032702
0.039191546 0.28875792 0.57437665
0.21982862 0.33073584 0.62406109
0.42456017 0.41403681 0.60571713
0.50862755 0.36179832 0.60580081
0.62115145 0.34811837 0.62386136
0.71013247 0.36718667 0.6082022
0.82138045 0.40919845 0.62019889
0.9478275 0.44044022 0.63547341
0.11969129 0.42185235 0.60461776
0.17001191 0.42184704 0.60852559
0.26057355 0.41946807 0.61628024
0.36453726 0.42299457 0.62068089
0.50709545 0.45163951 0.59561959
0.61538273 0.42490618 0.61669704
0.71587332 0.44484323 0.61390866
0.82918997 0.47512374 0.62627711
0.95951233 0.49221981 0.63794513
0.15384051 0.51244659 0.59541085
0.1987583 0.51242907 0.59536698
0.27857896 0.5088376 0.59408021
0.37988921 0.50930991 0.59991464
0.48442006 0.50915875 0.60959459
0.61477502 0.51487564 0.61615883
0.72366817 0.53764234 0.62244411
0.84794575 0.55033379 0.63164626
0.98050469 0.55742065 0.63156996
0.1342813 0.58498107 0.58369574
0.18456568 0.5888844 0.58514355
0.27313089 0.59278642 0.59142908
0.38154278 0.60304569 0.60034512
0.50193599 0.6147575 0.61357004
0.62980394 0.63003318 0.62978203
0.74936168 0.63524298 0.6270726
0.87165774 0.64214658 0.62455931
0.99218619 0.65088002 0.62087387
0.19524252 0.72070792 0.61643206
0.23376464 0.72365709 0.61641239
0.30756549 0.72464868 0.61994783
0.40324516 0.72757228 0.62026285
0.50773656 0.72912423 0.61629997
0.62641808 0.73186269 0.62014996
0.74408498 0.73984739 0.63424315
0.85150242 0.74753215 0.62687561
0.99606889 0.749238 0.66137512
0.20687037 0.82261888 0.60473983
0.24157285 0.82473243 0.60425184
0.30749152 0.82495834 0.60085731
0.39926599 0.82867513 0.60076069
0.51549852 0.8325835 0.60961211
0.62483102 0.83437116 0.6123613
0.76161069 0.83274878 0.61904946
0.86458828 0.8569717 0.65008586
0.98040646 0.87608625 0.6581538
0.22391089 0.93124285 0.59554437
0.25506838 0.93368143 0.59698134
0.3191968 0.93476005 0.59695964
0.43587921 0.9414919 0.61105898
0.53496033 0.94539082 0.61634527
0.63949416 0.94932288 0.62023156
0.74785945 0.91914912 0.60063897
0.91485204 0.96884442 0.65399357
0.99594873 0.9844873 0.67715343
0.00020981155 0.21176852 0.70908675
0.00015640497 0.21960021 0.71689937
0.13980697 0.24209964 0.73705844
0.48153372 0.45760758 0.74615139
0.54748608 0.4218452 0.7206321
0.6599589 0.34472038 0.76347086
0.76068132 0.33592355 0.76349851
0.8378872 0.33945602 0.73297284
0.94155032 0.4023537 0.7389868
0.00017309453 0.2746643 0.73730116
0.00018120089 0.2816 0.74388781
0.17645533 0.2940075 0.75872625
0.47225147 0.45798047 0.75303887
0.54599546 0.440903 0.72062519
0.65791073 0.3646213 0.75958487
0.75920226 0.35593791 0.75962284
0.83792898 0.3623092 0.7330064
0.94153887 0.41884632 0.73991331
0.00013923857 0.33681907 0.7142958
0.11734998 0.37265333 0.76531171
0.23160811 0.39057374 0.78328708
0.3969935 0.41527094 0.78301277
0.5498846 0.48411965 0.7269317
0.65012171 0.41014105 0.75136282
0.75507029 0.3991629 0.75567803
0.83703245 0.40967267 0.73218128
0.94248589 0.45635252 0.73996338
0.12791829 0.46820783 0.75600395
0.17435203 0.46577229 0.75746464
0.23187288 0.44639923 0.75523408
0.38690096 0.47995489 0.77948866
0.55132491 0.53465562 0.72849813
0.63608556 0.4784933 0.73603013
0.74719055 0.4643467 0.74791094
0.83784786 0.48108978 0.73615345
0.94540322 0.51514696 0.74388113
0.183608 0.54586671 0.72280461
0.22224336 0.54587863 0.72475967
0.29741407 0.54978161 0.73409962
0.38951753 0.54734064 0.74418321
0.48857862 0.54270619 0.74240101
0.62858158 0.56890736 0.71782659
0.73932345 0.54494545 0.74010071
0.84087558 0.5683938 0.74007854
0.95075532 0.59184024 0.74787137
0.19812982 0.63856193 0.71698997
0.23488397 0.63853612 0.71882033
0.30689052 0.63816413 0.71986391
0.39828324 0.63466164 0.71983196
0.50229148 0.63337482 0.72447738
0.60705229 0.63104591 0.7312506
0.73746579 0.63821396 0.73928411
0.84817363 0.66165873 0.74693127
0.96779536 0.67047808 0.75178006
0.15619993 0.6962768 0.69261463
0.19992883 0.69726279 0.69354996
0.28262617 0.70116493 0.70037551
0.38541536 0.71193935 0.70813866
0.49996281 0.72219139 0.720171
0.62370239 0.73635545 0.73572948
0.75360137 0.75417144 0.75358277
0.87099856 0.75569197 0.74779889
0.98895819 0.75981537 0.74329747
0.22267252 0.83646334 0.73266861
0.25723433 0.83646829 0.732685
0.3231595 0.83695819 0.73263201
0.41499253 0.84084238 0.73652819
0.51793197 0.84478547 0.73775058
0.62671819 0.84847571 0.73641989
0.74727555 0.85346308 0.7402738
0.86929092 0.86442282 0.75898184
0.98382067 0.87948377 0.75667868
0.24985885 0.945346 0.72884337
0.27803607 0.94535506 0.73169966
0.33873026 0.94924182 0.73268482
0.42416648 0.95026513 0.72877279
0.52332341 0.95712024 0.72870031
0.64344816 0.96487755 0.74035248
0.75570974 0.96589895 0.74415579
0.89408522 0.96406786 0.74716516
0.99210727 0.98444343 0.7753872
0.00023270008 0.30118067 0.88835355
0.00024629015 0.30897755 0.89610466
0.16472686 0.32373779 0.91150959
0.44159323 0.43552038 0.92848239
0.60020123 0.53953136 0.86225013
0.67370513 0.47458944 0.8537089
0.79121128 0.40585613 0.89528305
0.8874795 0.39495832 0.88737912
0.96500916 0.39062524 0.86002136
0.00022149424 0.35536164 0.91173538
0.00019216831 0.35921478 0.91563334
0.19996954 0.37102187 0.92726847
0.41647629 0.42697327 0.93499019
0.60022161 0.54928318 0.86195389
0.67134701 0.48965334 0.84978411
0.78763536 0.42220659 0.89136006
0.88439503 0.41063888 0.88740129
0.96502418 0.40665746 0.8600824
0.089892329 0.44476568 0.93521305
0.1574135 0.44861006 0.94134343
0.24776992 0.45548085 0.94488715
0.3957 0.46039592 0.9466901
0.5967031 0.57079924 0.86031462
0.6658124 0.52548638 0.84201292
0.77981458 0.45966897 0.88362004
0.8796211 0.44872009 0.88276547
0.96503204 0.4482352 0.85973287
0.00018000877 0.49697466 0.90333004
0.075580051 0.48919113 0.89763554
0.24492721 0.47552477 0.86449315
0.39961599 0.53674033 0.93471368
0.54323596 0.55342064 0.90158706
0.66220859 0.58007428 0.83927726
0.76770851 0.5146371 0.8715089
0.87170757 0.50634266 0.87295982
0.96109498 0.51367065 0.85622163
0.18564698 0.59198901 0.87422751
0.22420272 0.59175989 0.87614812
0.29989939 0.58834068 0.87807326
0.3716994 0.57308785 0.88386525
0.50411946 0.59298371 0.89259413
0.66168865 0.64219787 0.84029169
0.75226143 0.5878357 0.85248341
0.86089661 0.57662401 0.86410744
0.9610132 0.59354543 0.85620279
0.23053855 0.66728895 0.84100099
0.26125612 0.66599116 0.84098466
0.323287 0.66567781 0.84095176
0.41137363 0.66600156 0.84817762
0.5078584 0.66550507 0.86040343
0.60100608 0.65351375 0.85272499
0.74419472 0.68104639 0.83381328
0.85305574 0.65950422 0.85632308
0.9609791 0.68510219 0.86018444
0.23100776 0.75878681 0.83624018
0.26442991 0.75873764 0.83697744
0.3275963 0.75878097 0.83708455
0.4165068 0.75622753 0.83706381
0.51369831 0.75362688 0.83700623
0.62012552 0.75110401 0.84179339
0.7228145 0.74783393 0.84894105
0.85563708 0.75492103 0.8559028
0.9687705 0.78224517 0.86801518
0.16400063 0.79786016 0.79424735
0.20609762 0.80124164 0.79763569
0.28413872 0.80516297 0.80146487
0.3834934 0.81328727 0.80929397
0.49605876 0.82497055 0.82115914
0.61645855 0.84053815 0.83702405
0.7476007 0.86038794 0.85763672
0.88337494 0.8838291 0.88337181
0.99607867 0.88859197 0.88018759
0.26556992 0.95700961 0.85630961
0.2963252 0.96095836 0.85674544
0.3544275 0.9614662 0.86009432
0.4398909 0.96877241 0.86398108
0.5408875 0.97270161 0.86831941
0.64770638 0.97840085 0.87220808
0.7587973 0.98054713 0.86821689
0.8759215 0.98404073 0.86818303
0.99216449 0.98834401 0.88326276
0.14476234 0.39827573 0.97668421
0.24188602 0.40614176 0.95655756
0.33424125 0.42083238 0.9687953
0.45823033 0.45404364 0.98434424
0.63882658 0.61125353 0.98631266
0.70327306 0.59225032 0.96477646
0.7980621 0.50580987 0.9890898
0.91137942 0.45700198 0.99590295
0.99629206 0.44525826 0.99572747
0.23796826 0.44081216 0.96885252
0.27274381 0.44474565 0.97277934
0.35078727 0.45647269 0.983052
0.46730421 0.47499952 0.96858549
0.63295186 0.61130694 0.98242161
0.70327115 0.6039807 0.96718929
0.79424926 0.52104839 0.98517348
0.90788415 0.47252208 0.99587577
0.99630732 0.46086824 0.99577325
0.34297704 0.51455329 0.96887541
0.35469596 0.51848631 0.97143606
0.39762627 0.52239548 0.97484836
0.47918002 0.53020523 0.98045653
0.6026875 0.59275578 0.98338293
0.70471075 0.62851101 0.9654221
0.78653105 0.55564202 0.97348077
0.90304036 0.50290017 0.99584955
0.99630732 0.49221027 0.99583429
0.061684596 0.51797513 0.98747044
0.19890016 0.5153594 0.97276765
0.40322156 0.56682975 0.97591363
0.48696093 0.58978575 0.97412642
0.5665341 0.59101625 0.98823243
0.70076104 0.66169628 0.96180238
0.77842327 0.61083772 0.95726997
0.89126493 0.55320463 0.99592203
0.98845655 0.54152171 0.99196612
0.18959335 0.63079271 0.99633783
0.22255856 0.62689784 0.99628538
0.26279088 0.6156672 0.99623865
0.36758984 0.59246967 0.98981079
0.54505226 0.64254597 0.98244831
0.65953498 0.66381228 0.98410391
0.76717784 0.67674907 0.94474708
0.87608625 0.61520466 0.98028534
0.98062104 0.60743114 0.98420691
0.24229801 0.70454528 0.97536049
0.27056153 0.70453646 0.97917716
0.32867695 0.70455148 0.98305676
0.40878991 0.70062943 0.98837978
0.49328222 0.686491 0.99472705
0.6061265 0.69010238 0.98277996
0.7627966 0.74158608 0.94140726
0.86260705 0.69288572 0.96131909
0.96888304 0.68118181 0.97252613
0.26569772 0.78316548 0.95336843
0.29254168 0.7821808 0.95333028
0.34769875 0.78219177 0.95330358
0.42827974 0.77867218 0.95327497
0.52147707 0.77831693 0.96002899
0.61870565 0.77440776 0.9717174
0.70881209 0.76026646 0.95852789
0.8551566 0.78973116 0.94558442
0.96491951 0.77053483 0.96859693
0.25588617 0.87061303 0.9445697
0.2871519 0.87449454 0.94852011
0.34665446 0.87548352 0.9494111
0.42823873 0.87550593 0.95330167
0.52537671 0.8720903 0.95328832
0.62798242 0.86818089 0.95321584
0.73926528 0.87161154 0.96096742
0.84123226 0.86473569 0.96569963
0.98440337 0.88385214 0.9847467
0.19134813 0.91012436 0.90656901
0.2265507 0.91406119 0.91050584
0.29981689 0.91798657 0.914374
0.39544137 0.92580301 0.92207027
0.50386053 0.93749142 0.93379873
0.62008087 0.95310521 0.94937057
0.74410239 0.96873808 0.96495003
0.86812963 0.98439384 0.98040742
0.99615473 0.99615473 0.99615473
