site/assets/luts/freshluts--0002710-mahaicony.cube
# LUTr-Schema-Version: 2
# LUTr-ID: freshluts--0002710-mahaicony
# LUTr-Title: Mahaicony
# LUTr-Collection: Fresh LUTs
# LUTr-Collection-ID: freshluts-community
# LUTr-Source: https://freshluts.com
# LUTr-Retrieved: 2026-07-27
# LUTr-Source-File: submissions-raw/freshluts/cubes/2710__MAHAICONY.cube
# LUTr-Source-Format: CUBE
# LUTr-Source-SHA256: 3a47e505303a7f1f0971911bacf381ba05913c09ea1bc70c260f48c301911cb5
# LUTr-License: CC0-1.0
# LUTr-License-URL: https://freshluts.com/termsandconditions
# LUTr-License-Basis: site-terms
# LUTr-Transform-Class: creative-look
# LUTr-Tags: creative, freshluts, community, cube, teal, high-key, sony-s-log2
# LUTr-Input-Color-Space:
# LUTr-Input-Gamut: sony-s-gamut
# LUTr-Input-Transfer: sony-s-log2
# LUTr-Output-Color-Space: srgb
# LUTr-Output-Gamut: rec709
# LUTr-Output-Transfer: srgb
# LUTr-Color-Space-Confidence: camera-profile-input-required
# LUTr-Domain-Normalized: true
# LUTr-Shaper: none
# LUTr-Original-Grid: 33x33x33
# LUTr-Conversion-Grid: 33x33x33
# LUTr-Conversion-Interpolation: none
# LUTr-Conversion-Method: Metadata normalization; numeric LUT samples preserved
# LUTr-Conversion-Tool: LUTr scripts/convert-all-to-cube.mjs 2.0.0
# LUTr-Conversion-Date: 2026-07-28
# LUTr-Asset-URL: https://freshluts.com/luts/2710
# LUTr-Author: Daniel Fordyce
# LUTr-Author-URL: https://freshluts.com/users/30654
# LUTr-Attribution: Daniel Fordyce via Fresh LUTs
# LUTr-Source-Labels: gamma=Sony S-Log 2; color=Teal; key=High Key; style=Colorful
# LUTr-Note: Preserve this metadata and the upstream license notices when redistributing.
TITLE "Mahaicony"
LUT_3D_SIZE 5
DOMAIN_MIN 0 0 0
DOMAIN_MAX 1 1 1
0.0266423 0 0.0276341
0.267277 0 0
0.692485 0 0
1 0 0
1 0 0
0 0.184634 0
0.169345 0.175006 0
0.617761 0.131182 0
0.995468 0.107836 0
1 0.117052 0
0 0.549798 0
0 0.563333 0
0.458244 0.521553 0
0.847074 0.497169 0
1 0.49987 0
0 0.902861 0
0 0.918761 0
0.324681 0.866056 0
0.720684 0.822873 0
1 0.80795 0
0 1 0
0 1 0
0.218082 1 0
0.630228 1 0
0.910124 1 0
0 0 0.336156
0.290562 0 0.246143
0.727352 0 0.112795
1 0 0.0163729
1 0 0
0 0.237568 0.0141756
0.184436 0.16376 0.184405
0.638498 0.123857 0.0923476
1 0.10367 0.0222477
1 0.114656 0
0 0.541207 0.0688792
0 0.552483 0.0725567
0.48159 0.513008 0
0.860212 0.491814 0
1 0.495277 0
0 0.882521 0.0788739
0 0.90132 0.019852
0.330999 0.856931 0
0.731106 0.811444 0
1 0.797009 0
0 1 0.112612
0 1 0.0238193
0.212924 1 0
0.632776 1 0
0.912352 1 0
0 0.000198367 0.859297
0.186938 0 0.76759
0.737118 0 0.605951
1 0 0.46743
1 0 0.371771
0 0.319707 0.255543
0 0.198947 0.695583
0.662776 0.0895552 0.588403
1 0.0775158 0.47808
1 0.095491 0.407141
0 0.659693 0
0 0.606485 0.249928
0.486717 0.487282 0.467048
0.859342 0.468986 0.384298
1 0.472663 0.32369
0 0.910536 0.281971
0 0.873075 0.465019
0.327733 0.824048 0.405554
0.724178 0.781582 0.294957
0.992386 0.768612 0.237186
0 1 0.475822
0 1 0.521935
0.217426 1 0.392248
0.613748 1 0.237446
0.897856 0.993606 0.172717
0 0.00906386 1
0.0495308 0 1
0.666072 0 1
1 0 0.977966
1 0 0.894484
0 0.351858 0.766415
0 0.231815 1
0.556222 0.098085 1
1 0.0465248 1
1 0.0624704 0.931517
0 0.749477 0.18854
0 0.681773 0.602014
0.188571 0.550057 0.963104
0.875715 0.439902 0.873091
1 0.444633 0.798566
0 1 0.139849
0 0.98352 0.405386
0.140978 0.881743 0.616419
0.719478 0.754696 0.755657
0.982712 0.742031 0.692546
0 1 0.491447
0 1 0.717372
0.244938 1 0.782467
0.603784 0.992508 0.714412
0.885771 0.963897 0.631785
0 0.0296788 1
0 0 1
0.517266 0 1
1 0 1
1 0 1
0 0.390463 1
0 0.279561 1
0.355901 0.151431 1
1 0.0491951 1
1 0.0460517 1
0 0.791577 0.669093
0 0.722789 1
0 0.618463 1
0.801404 0.451743 1
1 0.423407 1
0 1 0.33666
0 1 0.655177
0 0.992782 0.960525
0.507424 0.804608 1
0.994873 0.720043 1
0 1 0.356054
0 1 0.602655
0 1 0.789715
0.472892 1 0.868544
0.883772 0.945129 0.966705
