site/assets/luts/freshluts--0001253-sandy-4k-lut.cube
# LUTr-Schema-Version: 2
# LUTr-ID: freshluts--0001253-sandy-4k-lut
# LUTr-Title: SANDY 4K LUT
# LUTr-Collection: Fresh LUTs
# LUTr-Collection-ID: freshluts-community
# LUTr-Source: https://freshluts.com
# LUTr-Retrieved: 2026-07-27
# LUTr-Source-File: submissions-raw/freshluts/cubes/1253__san_4k_lut.cube
# LUTr-Source-Format: CUBE
# LUTr-Source-SHA256: 704904a67fe8692d089d205ab133173093972110b4fabd2351cc964b730edc76
# LUTr-License: CC0-1.0
# LUTr-License-URL: https://freshluts.com/termsandconditions
# LUTr-License-Basis: site-terms
# LUTr-Transform-Class: creative-look
# LUTr-Tags: creative, freshluts, community, cube, sony-s-log3
# LUTr-Input-Color-Space: sony-slog3-sgamut3
# LUTr-Input-Gamut: sony-s-gamut3
# LUTr-Input-Transfer: sony-s-log3
# LUTr-Output-Color-Space: srgb
# LUTr-Output-Gamut: rec709
# LUTr-Output-Transfer: srgb
# LUTr-Color-Space-Confidence: inferred-from-source-label
# LUTr-Domain-Normalized: true
# LUTr-Shaper: none
# LUTr-Original-Grid: 33x33x33
# LUTr-Conversion-Grid: 33x33x33
# LUTr-Conversion-Interpolation: none
# LUTr-Conversion-Method: Metadata normalization; numeric LUT samples preserved
# LUTr-Conversion-Tool: LUTr scripts/convert-all-to-cube.mjs 2.0.0
# LUTr-Conversion-Date: 2026-07-28
# LUTr-Asset-URL: https://freshluts.com/luts/1253
# LUTr-Author: Antony Eliezer
# LUTr-Author-URL: https://freshluts.com/users/32961
# LUTr-Attribution: Antony Eliezer via Fresh LUTs
# LUTr-Source-Labels: gamma=Sony S-Log 3; color=None; key=Neutral; style=Teal - Orange
# LUTr-Note: Preserve this metadata and the upstream license notices when redistributing.
# LUTr-Upstream-Comment: VEGAS Pro LUT
TITLE "SANDY 4K LUT"
LUT_3D_SIZE 33
DOMAIN_MIN 0 0 0
DOMAIN_MAX 1 1 1
-0.06030042 0.00817912 -0.02540345
-0.04638392 0.00565659 -0.02846384
-0.03206853 0.00301235 -0.03167359
-0.01690077 -0.00012099 -0.0348914
0.00053273 -0.00361455 -0.03844621
0.02706885 -0.00745192 -0.04238466
0.06746428 -0.01274406 -0.0476512
0.11276522 -0.01857572 -0.05332461
0.16146803 -0.02488093 -0.05939073
0.21289921 -0.03142864 -0.06574443
0.26672578 -0.03816969 -0.07242067
0.32340664 -0.04523306 -0.07945553
0.38267446 -0.0524708 -0.08667963
0.44341993 -0.05984651 -0.09397686
0.50436753 -0.0672396 -0.10119954
0.56251347 -0.07441131 -0.10814141
0.61667359 -0.0812635 -0.11476338
0.66850793 -0.08792142 -0.12120287
0.7178809 -0.09439113 -0.12748832
0.76471388 -0.10063331 -0.13361147
0.80922306 -0.10669923 -0.13963114
0.85104996 -0.11246109 -0.14547263
0.89077514 -0.11790851 -0.15110782
0.9285621 -0.12312115 -0.15658857
0.96438175 -0.12804535 -0.16184929
0.98651201 -0.13106953 -0.16513926
1.0011705 -0.13303594 -0.16734515
1.0158731 -0.13497858 -0.1695631
1.0306208 -0.13689841 -0.17179759
1.0454147 -0.13879606 -0.1740528
1.0602558 -0.14067233 -0.17633277
1.0751448 -0.14252789 -0.17864114
1.0900825 -0.14436343 -0.1809814
-0.06492855 0.01918414 -0.03048048
-0.05101044 0.01652469 -0.03330227
-0.03692756 0.01407126 -0.03661309
-0.02211755 0.01110833 -0.03971499
-0.00620499 0.00747998 -0.0433753
0.01607218 0.00398543 -0.04694827
0.05259065 -0.00077737 -0.05173693
0.0967438 -0.00628687 -0.05713254
0.14496738 -0.01238812 -0.06299751
0.19613208 -0.01881327 -0.06919108
0.24933614 -0.02536904 -0.07563427
0.305675 -0.03228763 -0.08251421
0.36473456 -0.03943693 -0.08964847
0.42546925 -0.04671457 -0.09687907
0.48695269 -0.05406056 -0.10408361
0.54659057 -0.06127519 -0.11108472
0.60223413 -0.06816859 -0.11775354
0.65484154 -0.07482014 -0.12420585
0.70530283 -0.0813074 -0.13051422
0.75309646 -0.08756368 -0.1366647
0.7983501 -0.09362485 -0.14269616
0.84130728 -0.09946271 -0.14860766
0.88166291 -0.10492563 -0.15430355
0.92012012 -0.11015328 -0.15983388
0.95667434 -0.11511405 -0.16518624
0.98357016 -0.11873505 -0.16917613
0.99831915 -0.12065711 -0.17141137
1.0131142 -0.12255697 -0.17366715
1.0279565 -0.12443549 -0.17594753
1.0428464 -0.1262932 -0.17825623
1.0577853 -0.12813087 -0.18059668
1.0727731 -0.12994903 -0.18297151
1.0878104 -0.1317482 -0.1853832
-0.06976993 0.03151624 -0.03359924
-0.05566893 0.0275724 -0.03820149
-0.04189217 0.02500839 -0.04159575
-0.02736598 0.02212539 -0.04472015
-0.01179269 0.01881426 -0.04806156
0.00663199 0.0155335 -0.05139132
0.03867311 0.0113228 -0.05566614
0.08230187 0.00599411 -0.06090434
0.12938271 0.00020157 -0.06649101
0.18015355 -0.00608928 -0.0725271
0.23327187 -0.01255302 -0.0788402
0.28874597 -0.01925969 -0.08549207
0.34755442 -0.02632516 -0.09254205
0.40836269 -0.03351836 -0.09971247
0.47021022 -0.04080538 -0.10690942
0.53095484 -0.04804204 -0.11395597
0.58798939 -0.05497649 -0.12068614
0.64173037 -0.06165054 -0.12718573
0.69293869 -0.06813285 -0.13351342
0.74183583 -0.07442185 -0.13971701
0.78796673 -0.08049129 -0.14578401
0.83161652 -0.08634747 -0.15174976
0.8730005 -0.09188573 -0.15755272
0.9120158 -0.09711634 -0.16313747
0.94927096 -0.10211457 -0.16859457
0.98080933 -0.10631575 -0.17327936
0.99565268 -0.10819644 -0.17556018
1.0105437 -0.11005631 -0.17786922
1.0254836 -0.11189614 -0.18020983
1.0404725 -0.11371642 -0.18258485
1.0555111 -0.11551779 -0.18499652
1.070599 -0.11730061 -0.18744658
1.0857359 -0.11906537 -0.1899357
-0.07560667 0.04941295 -0.02834806
-0.06139801 0.04437934 -0.03465808
-0.0472058 0.04019491 -0.04006102
-0.03276856 0.03682998 -0.04604501
-0.01726915 0.03210631 -0.0508014
0.00056332 0.02745562 -0.05545013
0.02712007 0.02339078 -0.05959474
0.06846817 0.01840515 -0.06453663
0.11501887 0.01281579 -0.06994563
0.16501762 0.00671995 -0.0757844
0.21783611 0.00035942 -0.08195489
0.27302948 -0.00621894 -0.08847466
0.33114347 -0.01314124 -0.09538409
0.39194006 -0.0202525 -0.10250175
0.45397729 -0.02749089 -0.10968917
0.51595062 -0.0347458 -0.11680888
0.57415318 -0.04171109 -0.12360321
0.62891507 -0.04840554 -0.13015546
0.68112832 -0.05490356 -0.13653798
0.73078674 -0.06120684 -0.14279501
0.77804142 -0.06730495 -0.1489286
0.82242525 -0.07318473 -0.1549668
0.86453086 -0.07876464 -0.16085903
0.90437633 -0.08403354 -0.16654733
0.94216847 -0.08905206 -0.17210613
0.97823691 -0.09381731 -0.17748012
0.99317777 -0.09565931 -0.17982094
1.0081677 -0.09748177 -0.18219608
1.0232073 -0.09928516 -0.1846078
1.0382963 -0.10107015 -0.18705785
1.0534345 -0.10283698 -0.18954702
1.0686214 -0.10458624 -0.19207527
1.0838556 -0.10631803 -0.19464162
-0.08191767 0.07052307 -0.0174357
-0.06757876 0.06574339 -0.02371627
-0.05318899 0.0610612 -0.02980387
-0.03843991 0.05701168 -0.03671431
-0.02330084 0.05307464 -0.04548436
-0.00626213 0.0455466 -0.05342605
0.01916771 0.0390792 -0.05984902
0.05840246 0.03297607 -0.06601834
0.10358097 0.02689242 -0.07199828
0.15277217 0.02020711 -0.07846645
0.20446156 0.01358778 -0.08484773
0.25837976 0.00690947 -0.09141382
0.3157379 0.00008997 -0.09821838
0.37622839 -0.00693351 -0.10528143
0.43840849 -0.01412075 -0.11246851
0.50094652 -0.02135084 -0.11962328
0.56093371 -0.02839503 -0.12654871
0.61653227 -0.03510224 -0.13315788
0.66970891 -0.04161903 -0.13961586
0.72030401 -0.04794937 -0.14595063
0.76827818 -0.0540565 -0.15215796
0.81375808 -0.05998306 -0.15829438
0.85649502 -0.06559625 -0.16428235
0.89711863 -0.07090299 -0.17009239
0.93554294 -0.07595207 -0.17577022
0.97215891 -0.08073671 -0.18126822
0.99089944 -0.0830504 -0.18421702
1.0059896 -0.08483747 -0.18666707
1.0211287 -0.08660645 -0.18915623
1.0363167 -0.0883577 -0.19168448
1.0515519 -0.09009162 -0.19425096
1.0668334 -0.09180847 -0.19685353
1.0821587 -0.09350832 -0.19948916
-0.08818706 0.09223614 -0.00451762
-0.07369444 0.08752824 -0.01084238
-0.05915685 0.0829105 -0.01704243
-0.0445055 0.07896055 -0.02283045
-0.02876581 0.07580899 -0.03156263
-0.013008 0.07165719 -0.04236149
0.00799184 0.06506909 -0.04989605
0.04780102 0.05765169 -0.05728308
0.0936688 0.04997598 -0.06518794
0.14294791 0.04162063 -0.07371648
0.19573328 0.03269538 -0.08286911
0.24993502 0.02372142 -0.09162308
0.30691016 0.01441969 -0.10054875
0.36649784 0.00599462 -0.10854767
0.42785206 -0.00113052 -0.11570374
0.48981184 -0.00829863 -0.12283081
0.54980803 -0.01527749 -0.12975299
0.6058079 -0.02192306 -0.13636687
0.65888977 -0.02832366 -0.1428086
0.71036518 -0.03465439 -0.14921692
0.75909948 -0.04077727 -0.1555171
0.80536455 -0.04672241 -0.16174781
0.84899575 -0.05239734 -0.16786346
0.890203 -0.0577263 -0.17379868
0.92940795 -0.06282051 -0.17961168
0.96649086 -0.06761569 -0.18523122
0.98881882 -0.07037371 -0.18876339
1.0040078 -0.07212719 -0.19129166
1.0192444 -0.07386313 -0.19385819
1.0345269 -0.07558197 -0.19646096
1.0498536 -0.07728397 -0.19909687
1.0652215 -0.07896912 -0.20176169
1.0806277 -0.08063753 -0.20444994
-0.09466407 0.11566783 0.01077785
-0.08000855 0.11078377 0.00433374
-0.06531371 0.10598703 -0.00199389
-0.05054709 0.10165407 -0.00786223
-0.03466105 0.09851725 -0.01501377
-0.01799981 0.09541462 -0.02577855
0.00061759 0.09193163 -0.03790169
0.03666698 0.08487768 -0.04548838
0.08261098 0.07722809 -0.05361747
0.13264342 0.06910687 -0.06280994
0.18594646 0.0602561 -0.07276542
0.24175873 0.0510869 -0.08317286
0.29950336 0.04172271 -0.09329164
0.36017472 0.03206929 -0.10351139
0.42225623 0.02240933 -0.11321131
0.4847278 0.01315883 -0.12222317
0.54479784 0.00417446 -0.13075574
0.60106838 -0.00437716 -0.13849486
0.6543594 -0.01268771 -0.14594954
0.70553744 -0.02083236 -0.15292805
0.7542994 -0.02817163 -0.15955351
0.80024898 -0.03391367 -0.16573733
0.84403145 -0.03951172 -0.17189439
0.88511556 -0.04476068 -0.17787343
0.92439991 -0.04978937 -0.18373846
0.96164924 -0.05453848 -0.18943761
0.98699999 -0.05764615 -0.19347276
1.0022163 -0.0593534 -0.19606625
1.0175443 -0.06105741 -0.19870251
1.0329137 -0.06274467 -0.20136781
1.0483215 -0.06441519 -0.20405672
1.063764 -0.06606895 -0.2067626
1.0792369 -0.06770583 -0.20947747
-0.10152698 0.14118777 0.02875549
-0.0867046 0.13622446 0.02216523
-0.07184704 0.13134466 0.01568414
-0.05698497 0.12669393 0.00953023
-0.04135728 0.12325256 0.00361601
-0.02375108 0.12007913 -0.00628512
-0.00541135 0.11622899 -0.01976782
0.02555936 0.11388683 -0.0319761
0.07133054 0.10607399 -0.03953875
0.12136941 0.09808998 -0.04941939
0.17536101 0.08942007 -0.0604612
0.2320659 0.08019472 -0.07202528
0.29117632 0.07074372 -0.08387288
0.3525728 0.06108088 -0.0953499
0.41573378 0.05149211 -0.10660022
0.47913277 0.04194979 -0.11722811
0.5403226 0.0327417 -0.12714899
0.59670079 0.02395121 -0.13634576
0.65067452 0.01536844 -0.14486802
0.70180351 0.00700084 -0.15320189
0.75086856 -0.0011423 -0.16096464
0.79717308 -0.00892949 -0.16841681
0.84092635 -0.01619371 -0.17546339
0.88237572 -0.02302308 -0.18206814
0.92163903 -0.02957386 -0.18838781
0.95924783 -0.03602597 -0.19434048
0.98746926 -0.04130358 -0.19884922
1.0026764 -0.044861 -0.20138223
1.0179246 -0.04838134 -0.2039409
1.0331124 -0.05018362 -0.20660034
1.0483221 -0.0517687 -0.2092793
1.0635611 -0.05333741 -0.21195903
1.0788236 -0.05488962 -0.21462923
-0.10885633 0.16869549 0.04951658
-0.09387791 0.16363584 0.04277646
-0.07886688 0.15865682 0.03613796
-0.06382333 0.15375498 0.02959405
-0.04874955 0.15015344 0.02470537
-0.03088265 0.14671411 0.01576398
-0.01150792 0.14203265 0.00181659
0.01380457 0.1403244 -0.0117344
0.05972747 0.13712244 -0.02441413
0.10992467 0.12880121 -0.03322703
0.16437213 0.12028083 -0.04533175
0.22275355 0.11097711 -0.0585754
0.2825672 0.10151564 -0.07174874
0.3443239 0.09204227 -0.08478077
0.40806362 0.08237771 -0.09748819
0.47189233 0.07286349 -0.10981468
0.53405041 0.06355757 -0.1213333
0.59111232 0.05475187 -0.13190979
0.64511585 0.0462383 -0.14192453
0.69680589 0.03788469 -0.15138721
0.74595821 0.02978075 -0.16054684
0.79284579 0.02191409 -0.1691729
0.83691424 0.01445749 -0.17735933
0.878905 0.00731979 -0.18514301
0.91831505 0.00074374 -0.19229196
0.95612699 -0.00557484 -0.19906171
0.98703349 -0.01106816 -0.20454702
1.0023985 -0.01477288 -0.20722812
1.0177959 -0.01843773 -0.20991951
1.033221 -0.02206221 -0.21261206
1.0486681 -0.02564564 -0.21529572
1.0640656 -0.02900818 -0.21787424
1.0794623 -0.03229945 -0.22040696
-0.11640032 0.19784866 0.07228223
-0.10132071 0.19271986 0.06547839
-0.08621269 0.18772615 0.05883168
-0.07107225 0.18280603 0.05226892
-0.05610098 0.1788608 0.04714144
-0.03878489 0.17561932 0.04036171
-0.01859466 0.17087229 0.02706489
0.00357728 0.1675175 0.01225642
0.04653502 0.16593246 -0.00281981
0.09771327 0.16172227 -0.01581929
0.15286554 0.15278146 -0.02734362
0.2120135 0.14384826 -0.04177046
0.27427435 0.13420397 -0.05697651
0.33576739 0.1250589 -0.07110148
0.39990884 0.11549447 -0.08550881
0.46417418 0.10586648 -0.09953019
0.52645838 0.09643421 -0.11289029
0.58438826 0.08741683 -0.12524226
0.63874811 0.07872857 -0.13681528
0.69085848 0.07041211 -0.14776313
0.74028701 0.06237116 -0.1582216
0.78747898 0.05462601 -0.16807535
0.83207798 0.04722272 -0.17747901
0.87436783 0.04016241 -0.18625775
0.91438949 0.03347793 -0.1945993
0.9525333 0.02705787 -0.20237508
0.98602343 0.02134054 -0.20899087
1.0014954 0.01756522 -0.21181275
1.0169894 0.01383276 -0.21462463
1.0324994 0.01014379 -0.21741509
1.0480194 0.00649959 -0.22017212
1.0635431 0.00290084 -0.22288269
1.0790632 -0.00065098 -0.22553314
-0.12391599 0.22829144 0.09650122
-0.10877213 0.22312842 0.08968721
-0.09359507 0.21810451 0.08301443
-0.07838414 0.21320218 0.07646214
-0.06324942 0.20889521 0.07076512
-0.04678421 0.20588496 0.06548788
-0.02646295 0.20194888 0.0547341
-0.00327653 0.19683039 0.03845617
0.03241557 0.19498478 0.0229549
0.08409597 0.19291089 0.00669135
0.13895994 0.18752639 -0.00706411
0.20051768 0.1778605 -0.02234325
0.26107451 0.16963261 -0.03754528
0.3247388 0.16057816 -0.05362207
0.39056286 0.15089861 -0.07007259
0.45589015 0.14111137 -0.08602335
0.51861888 0.13135716 -0.1016014
0.5770461 0.12209533 -0.11579758
0.63179219 0.11320388 -0.12931597
0.684232 0.10463125 -0.14196168
0.73427868 0.09636495 -0.15407537
0.78181159 0.08868723 -0.16532356
0.82699478 0.0814039 -0.17576663
0.86970407 0.07450788 -0.18573888
0.91026318 0.06785592 -0.19500965
0.94869399 0.06159603 -0.20372055
0.98463398 0.05563959 -0.21165046
1.0002121 0.05167365 -0.21474721
1.015765 0.04789323 -0.21765232
1.0313196 0.04416563 -0.2205033
1.0468706 0.04048672 -0.22329277
1.0624112 0.03685774 -0.22600679
1.077934 0.03328006 -0.22863124
-0.13131484 0.25996268 0.12191857
-0.11611962 0.25481418 0.11514002
-0.10088985 0.24973656 0.10843071
-0.08561992 0.24478118 0.10183266
-0.07033869 0.24011153 0.09557602
-0.05444303 0.23719867 0.09114258
-0.03508147 0.23437041 0.08344944
-0.01110737 0.22813898 0.06685323
0.02110451 0.22550623 0.05060245
0.06937321 0.22341378 0.03375739
0.12482488 0.22104408 0.01612625
0.18394177 0.21418522 0.00111286
0.25247392 0.20428981 -0.01824516
0.31482521 0.19691193 -0.03407504
0.38033462 0.18843962 -0.05125714
0.44691259 0.17861955 -0.0692941
0.51086497 0.16852096 -0.08702067
0.5697251 0.15874965 -0.10370778
0.62496746 0.14953816 -0.1190109
0.67763674 0.14071032 -0.13369021
0.72820622 0.13244265 -0.14730553
0.77614403 0.12459978 -0.16014245
0.82188398 0.11723735 -0.17207153
0.86489964 0.11042182 -0.18310361
0.90583289 0.10399031 -0.1933488
0.9445948 0.09795129 -0.20292604
0.98170841 0.09210628 -0.21178395
0.99845719 0.08798294 -0.21526289
1.014074 0.08401196 -0.218389
1.0296795 0.08009516 -0.22143549
1.0452459 0.07633035 -0.22427455
1.0607764 0.07267162 -0.22694778
1.076275 0.06906918 -0.22950172
-0.13842161 0.29315627 0.1486868
-0.12320319 0.28796363 0.14189203
-0.10794756 0.28283924 0.13515469
-0.09265357 0.27778062 0.12846798
-0.07731371 0.27281207 0.12184663
-0.06183787 0.26963374 0.11741332
-0.04329922 0.2673355 0.11175609
-0.01964066 0.26116633 0.09654263
0.01076847 0.25763151 0.08009147
0.05541333 0.25553989 0.06273112
0.11017065 0.25290588 0.04428335
0.16888142 0.25014472 0.02514634
0.23382448 0.24195628 0.00771219
0.30711469 0.232869 -0.01401696
0.37196821 0.22616786 -0.03112998
0.43744051 0.21805972 -0.04942053
0.50288832 0.2080214 -0.06917521
0.56265432 0.19773683 -0.08814297
0.61815697 0.18791324 -0.1058168
0.67105001 0.17876765 -0.12246004
0.7218259 0.17023949 -0.13791277
0.77007771 0.16239107 -0.15234795
0.81611717 0.15507522 -0.16554737
0.85970718 0.14827353 -0.17784601
0.90096051 0.14201324 -0.18909955
0.94009078 0.13618296 -0.19942954
0.97747779 0.13068698 -0.20899387
0.99628979 0.12638518 -0.21312149
1.0119013 0.12237521 -0.21628894
1.0274872 0.11842451 -0.21934526
1.0430409 0.11453467 -0.2222764
1.0585551 0.11070734 -0.22506906
1.0740231 0.10694946 -0.22770254
-0.14489703 0.32824409 0.17682467
-0.1296877 0.32298252 0.17001197
-0.11443781 0.31778711 0.16324513
-0.09914619 0.31265536 0.15651742
-0.08381166 0.30758497 0.14982256
-0.06862249 0.3037214 0.14477362
-0.05102809 0.30167675 0.14031455
-0.02790988 0.29628101 0.12750328
0.00105803 0.29147643 0.11092006
0.04288448 0.28929469 0.09323451
0.09595963 0.28662673 0.07431754
0.15534846 0.28349495 0.05416984
0.21643947 0.2804293 0.03424024
0.28802189 0.27170694 0.01364853
0.36538965 0.26349938 -0.01017967
0.4317016 0.25700101 -0.02926076
0.49494946 0.24901211 -0.04853301
0.55523598 0.23919436 -0.06899612
0.61114603 0.22883552 -0.08890414
0.66439956 0.2189915 -0.10784813
0.7151767 0.21007288 -0.12533751
0.76365942 0.20198262 -0.14126235
0.8098765 0.19477972 -0.15582687
0.8538453 0.18816859 -0.16910364
0.89550114 0.18217537 -0.18124051
0.93509316 0.17658675 -0.19242194
0.97275704 0.17131427 -0.20270567
0.99372429 0.16694126 -0.20768368
1.0092958 0.16290531 -0.21084774
1.0248282 0.15893441 -0.21386981
1.0403153 0.15502971 -0.21673736
1.0557511 0.15119271 -0.21943888
1.071131 0.14742428 -0.22196472
-0.15033062 0.36552095 0.20605938
-0.13523693 0.36005777 0.19922417
-0.12001252 0.35478085 0.19243988
-0.10474294 0.34956601 0.18568391
-0.08942722 0.34441078 0.1789508
-0.07415644 0.34018287 0.17338727
-0.05783367 0.33812499 0.16987103
-0.03600276 0.33374795 0.15984176
-0.00798072 0.32731828 0.14280067
0.03192433 0.32491359 0.12501316
0.08280747 0.32215512 0.10591286
0.14270014 0.31884241 0.08486982
0.20416963 0.31551307 0.06397987
0.26919788 0.3120999 0.04350495
0.34662268 0.30371401 0.01910037
0.42644882 0.29592925 -0.00710562
0.4925212 0.2889601 -0.02842918
0.54976302 0.28147799 -0.04751323
0.60430968 0.27213877 -0.06786995
0.65761983 0.26201573 -0.08862793
0.70836884 0.25243944 -0.1082067
0.75692856 0.24378125 -0.12617835
0.80325997 0.23654202 -0.14196654
0.84754509 0.22998753 -0.15633301
0.88952941 0.22438458 -0.1691619
0.92951572 0.21908183 -0.18091847
0.96761411 0.21443497 -0.191577
0.99084443 0.20999086 -0.19753969
1.0063125 0.20581292 -0.20097569
1.0217307 0.20170894 -0.20423181
1.0371218 0.19780236 -0.20702587
1.0524525 0.19396789 -0.20963095
1.0677196 0.19020601 -0.21204107
-0.15424788 0.40489674 0.23555294
-0.13928819 0.39936763 0.22886725
-0.12427871 0.39390221 0.22220373
-0.10906714 0.3886013 0.21546449
-0.09380269 0.38336134 0.20873708
-0.07850599 0.37874338 0.20270376
-0.06284761 0.37661341 0.19947959
-0.04311281 0.37382749 0.19315773
-0.01498456 0.36596283 0.17534232
0.02331676 0.36255127 0.15757042
0.07164268 0.35964379 0.13850658
0.1309934 0.35625321 0.11710451
0.19307011 0.35264108 0.09540209
0.2568185 0.34926736 0.07413457
0.32491201 0.34583491 0.05344559
0.40708819 0.33813253 0.02494934
0.4873578 0.33033407 -0.00374208
0.54976034 0.32286021 -0.0261402
0.60123092 0.31576863 -0.04502552
0.65227228 0.30712113 -0.06504288
0.70201212 0.29778087 -0.08550544
0.75042307 0.28874403 -0.10494104
0.79669881 0.28092256 -0.12253502
0.84091169 0.27416259 -0.13830245
0.88325918 0.26854753 -0.15208633
0.92366409 0.26368278 -0.16442525
0.96225572 0.25940326 -0.17549905
0.98822898 0.2552256 -0.18234284
1.0035441 0.25107622 -0.18572704
1.0188005 0.24700348 -0.18891113
1.0339949 0.2430086 -0.19188842
1.0491252 0.2390912 -0.19465502
1.0641899 0.23525155 -0.1972087
-0.15662585 0.44511491 0.2637468
-0.14172211 0.43972448 0.25735435
-0.12676598 0.43439388 0.2509723
-0.11175728 0.42912114 0.24459717
-0.0966405 0.42389941 0.23813319
-0.08138206 0.41902405 0.23186292
-0.06607012 0.41685745 0.22866815
-0.04906896 0.41613567 0.22638468
-0.02099223 0.40713322 0.20824854
0.01650739 0.40255198 0.19048245
0.06289724 0.3993293 0.17168763
0.12125693 0.39584494 0.15023817
0.18373425 0.39203119 0.12815076
0.24753605 0.38832745 0.10638703
0.31346554 0.38506898 0.08506437
0.38473573 0.38199967 0.06396362
0.46931183 0.37534973 0.0323003
0.54477656 0.36730748 0.00259713
0.60278732 0.35908002 -0.02097221
0.65190476 0.35205817 -0.04009575
0.69862646 0.34457332 -0.05873638
0.74502432 0.33627912 -0.07789852
0.79076314 0.3282316 -0.09647436
0.83489293 0.32115456 -0.11343271
0.8774637 0.31536621 -0.12849459
0.91811717 0.3104558 -0.14189261
0.95729744 0.30638459 -0.15384908
0.98621726 0.3025848 -0.16169447
1.0013366 0.29846832 -0.16499344
1.0163931 0.29443228 -0.16807482
1.0313855 0.29047635 -0.1709369
1.0463138 0.28659999 -0.17358036
1.0611786 0.28280252 -0.17600803
-0.15756704 0.48510748 0.28954726
-0.14269197 0.47991857 0.28344405
-0.12776321 0.47478503 0.27734232
-0.11278134 0.46970582 0.27124092
-0.09774719 0.46467948 0.26513907
-0.08265971 0.45974335 0.2590766
-0.06735387 0.45743299 0.2556861
-0.05187151 0.45807979 0.25564206
-0.02615573 0.44981411 0.24017976
0.01019164 0.44456595 0.22302049
0.0557958 0.44111437 0.20475377
0.11368633 0.43770024 0.18384972
0.17676666 0.43394697 0.16196701
0.24057496 0.42989114 0.14003773
0.30549183 0.42579445 0.11792891
0.3738445 0.42348629 0.09779523
0.44716668 0.42127392 0.07607622
0.52804857 0.41512507 0.04350489
0.59803408 0.40677905 0.01326535
0.65319067 0.397926 -0.01116969
0.70073038 0.39033553 -0.03119531
0.74389011 0.38390484 -0.04824085
0.78722543 0.3770977 -0.06542091
0.83031279 0.37045464 -0.08243152
0.87292612 0.36448711 -0.09840196
0.91386265 0.35983419 -0.11259595
0.95350844 0.35597515 -0.12513745
0.98581237 0.35241818 -0.13462663
1.0005991 0.34820431 -0.13814083
1.015326 0.34407568 -0.14142242
1.0300452 0.34013253 -0.14423518
1.0447273 0.33631134 -0.14673018
1.0593535 0.33256847 -0.14901681
-0.15728572 0.52459347 0.3128095
-0.14244452 0.51962763 0.3070569
-0.12751357 0.51466906 0.30120111
-0.11253085 0.50976199 0.29534322
-0.09749815 0.50490564 0.28948534
-0.08241786 0.50009942 0.28363058
-0.06712586 0.49745867 0.27995262
-0.05155983 0.49804741 0.2796357
-0.02942409 0.49217141 0.26896542
0.00424014 0.48707032 0.25371426
0.04823127 0.48379913 0.23653087
0.10624741 0.48081964 0.21679536
0.170028 0.47750565 0.19574019
0.23438059 0.4735806 0.1742104
0.29878715 0.46883002 0.15177579
0.36610869 0.46549368 0.13106953
0.43686321 0.4649235 0.11375111
0.50738734 0.46273011 0.09141742
0.58147776 0.45646501 0.05942675
0.6477443 0.44758156 0.02815137
0.70097208 0.43845645 0.00332796
0.74761212 0.43063524 -0.01719897
0.78947973 0.42480028 -0.03361096
0.82996899 0.41999507 -0.04852492
0.87069589 0.41527689 -0.06319275
0.91010159 0.41154942 -0.07620879
0.94795352 0.40858501 -0.08775222
0.98312026 0.40596205 -0.09773786
0.99827141 0.40164486 -0.10160591
1.0133544 0.39741653 -0.10523237
1.0283723 0.39327493 -0.10862575
1.0433296 0.38921744 -0.11179726
1.0582316 0.38524127 -0.11476067
-0.1558606 0.5631215 0.3333905
-0.14105386 0.55843729 0.32799515
-0.12619543 0.55380154 0.32259461
-0.11122081 0.54912084 0.31701395
-0.09618555 0.54446834 0.31139868
-0.08110806 0.53986478 0.30579504
-0.06579746 0.53684586 0.30178714
-0.05008348 0.53705031 0.30098051
-0.03083174 0.53351647 0.29450294
0.00012135 0.52900755 0.28162283
0.04189041 0.5261054 0.26607144
0.09961343 0.52368003 0.24772404
0.16351277 0.52091461 0.22771771
0.22765869 0.51723778 0.20680878
0.29188704 0.51284099 0.18500151
0.35857382 0.5090006 0.1644126
0.42830086 0.50739962 0.14719079
0.49705365 0.5072462 0.13212438
0.56168377 0.50445849 0.11087357
0.63029927 0.49776617 0.08064677
0.69473034 0.48880523 0.05030923
0.74697977 0.48020834 0.02632318
0.79302788 0.47293115 0.00660764
0.83211511 0.46848372 -0.0070269
0.86929291 0.46543506 -0.01831547
0.90587425 0.46315226 -0.0287848
0.93860108 0.46255636 -0.03614478
0.97168511 0.46104068 -0.04460786
0.989434 0.45734042 -0.0493941
1.004584 0.453345 -0.05340265
1.0196736 0.4494299 -0.05718439
1.0347096 0.44559169 -0.06075597
1.0496987 0.441827 -0.06413539
