site/assets/luts/freshluts--0000934-picturefx-faux-infrared-yp-set-strength-or-opacity-to-taste-.cube
# LUTr-Schema-Version: 2
# LUTr-ID: freshluts--0000934-picturefx-faux-infrared-yp-set-strength-or-opacity-to-taste-
# LUTr-Title: PictureFX Faux Infrared YP - set strength or opacity to taste - sample set @ 80%
# LUTr-Collection: Fresh LUTs
# LUTr-Collection-ID: freshluts-community
# LUTr-Source: https://freshluts.com
# LUTr-Retrieved: 2026-07-27
# LUTr-Source-File: submissions-raw/freshluts/cubes/934__PictureFX-Faux-Infrared-YP-N125.cube
# LUTr-Source-Format: CUBE
# LUTr-Source-SHA256: 194abb93ca02bc006254fe89d176086f9e326092369fbd0982e3a8de3b00872d
# LUTr-License: CC0-1.0
# LUTr-License-URL: https://freshluts.com/termsandconditions
# LUTr-License-Basis: site-terms
# LUTr-Transform-Class: creative-look
# LUTr-Tags: creative, freshluts, community, cube, film-emulation
# LUTr-Input-Color-Space:
# LUTr-Input-Gamut: unspecified
# LUTr-Input-Transfer: unspecified
# LUTr-Output-Color-Space: srgb
# LUTr-Output-Gamut: rec709
# LUTr-Output-Transfer: srgb
# LUTr-Color-Space-Confidence: camera-profile-input-required
# LUTr-Domain-Normalized: true
# LUTr-Shaper: none
# LUTr-Original-Grid: 25x25x25
# LUTr-Conversion-Grid: 25x25x25
# LUTr-Conversion-Interpolation: none
# LUTr-Conversion-Method: Metadata normalization; numeric LUT samples preserved
# LUTr-Conversion-Tool: LUTr scripts/convert-all-to-cube.mjs 2.0.0
# LUTr-Conversion-Date: 2026-07-28
# LUTr-Asset-URL: https://freshluts.com/luts/934
# LUTr-Author: MarcR.
# LUTr-Author-URL: https://freshluts.com/users/86490
# LUTr-Attribution: MarcR. via Fresh LUTs
# LUTr-Source-Labels: gamma=Other; color=None; key=Neutral; style=Film emulation
# LUTr-Note: Preserve this metadata and the upstream license notices when redistributing.
# LUTr-Upstream-Comment: Generated with IWLTBAP LUT Generator
# LUTr-Upstream-Comment: Website: http://luts.iwltbap.com
# LUTr-Upstream-Comment: LUT size
# LUTr-Upstream-Comment: LUT data points
TITLE "PictureFX Faux Infrared YP - set strength or opacity to taste - sample set @ 80%"
LUT_3D_SIZE 5
DOMAIN_MIN 0 0 0
DOMAIN_MAX 1 1 1
0 0 0
0.678431 0.494118 0.105882
1 0.894118 0.176471
1 0.941176 0.431373
1 0.945098 0.466667
0.380392 0.070588 0.172549
0.796078 0.337255 0.25098
1 0.85098 0.258824
1 0.933333 0.447059
1 0.941176 0.47451
0.72549 0.152941 0.313725
0.984314 0.215686 0.380392
1 0.654902 0.427451
1 0.921569 0.486275
1 0.937255 0.505882
1 0.231373 0.45098
1 0.266667 0.494118
1 0.301961 0.52549
1 0.890196 0.505882
1 0.956863 0.537255
1 0.290196 0.580392
1 0.298039 0.576471
1 0.298039 0.545098
1 0.301961 0.517647
1 0.301961 0.513725
0 0.25098 0.156863
0.498039 0.556863 0.164706
1 0.901961 0.2
1 0.94902 0.439216
1 0.94902 0.47451
0.152941 0.156863 0.266667
0.611765 0.380392 0.266667
1 0.862745 0.270588
1 0.941176 0.454902
1 0.945098 0.486275
0.545098 0.164706 0.356863
0.878431 0.188235 0.407843
1 0.678431 0.439216
1 0.929412 0.490196
1 0.945098 0.513725
0.956863 0.203922 0.47451
1 0.247059 0.509804
1 0.298039 0.552941
1 0.898039 0.513725
1 0.956863 0.537255
1 0.278431 0.592157
1 0.298039 0.607843
1 0.298039 0.564706
1 0.301961 0.529412
1 0.333333 0.52549
0 0.470588 0.27451
0 0.686275 0.278431
0.984314 0.960784 0.294118
1 0.960784 0.470588
1 0.960784 0.501961
0.247059 0.301961 0.384314
0 0.564706 0.352941
1 0.913725 0.329412
1 0.960784 0.478431
1 0.956863 0.509804
0.337255 0.313725 0.47451
0.45098 0.337255 0.517647
1 0.729412 0.458824
1 0.945098 0.513725
1 0.956863 0.533333
0.635294 0.34902 0.564706
0.898039 0.290196 0.576471
1 0.294118 0.635294
1 0.929412 0.52549
1 0.956863 0.537255
1 0.282353 0.639216
1 0.262745 0.65098
1 0.294118 0.623529
1 0.298039 0.564706
1 0.478431 0.545098
0 0.690196 0.388235
0 0.823529 0.392157
0.047059 1 0.407843
1 0.960784 0.52549
1 0.956863 0.537255
0.219608 0.603922 0.458824
0 0.745098 0.435294
0.321569 1 0.443137
1 0.960784 0.533333
1 0.956863 0.537255
0.443137 0.4 0.592157
0.462745 0.447059 0.619608
0.658824 0.87451 0.517647
1 0.956863 0.537255
1 0.956863 0.537255
0.505882 0.454902 0.662745
0.52549 0.470588 0.686275
1 0.380392 0.709804
1 0.956863 0.537255
1 0.956863 0.537255
0.607843 0.509804 0.741176
0.882353 0.466667 0.737255
1 0.321569 0.733333
1 0.352941 0.627451
1 0.647059 0.572549
0 0.882353 0.490196
0 0.964706 0.490196
0 1 0.454902
0.988235 0.992157 0.458824
1 0.968627 0.509804
0.129412 0.835294 0.533333
0 0.917647 0.517647
0 1 0.486275
1 0.988235 0.47451
1 0.964706 0.521569
0.490196 0.607843 0.670588
0.411765 0.74902 0.639216
0 1 0.580392
1 0.976471 0.505882
1 0.956863 0.537255
0.584314 0.521569 0.752941
0.6 0.533333 0.768627
0.541176 0.713725 0.737255
1 0.956863 0.537255
1 0.956863 0.537255
0.619608 0.54902 0.792157
0.619608 0.54902 0.792157
0.756863 0.52549 0.784314
1 0.666667 0.658824
1 0.811765 0.603922
