site/assets/luts/freshluts--0001236-correction-clean.cube
# LUTr-Schema-Version: 2
# LUTr-ID: freshluts--0001236-correction-clean
# LUTr-Title: Correction-clean
# LUTr-Collection: Fresh LUTs
# LUTr-Collection-ID: freshluts-community
# LUTr-Source: https://freshluts.com
# LUTr-Retrieved: 2026-07-27
# LUTr-Source-File: submissions-raw/freshluts/cubes/1236__correction-clean.cube
# LUTr-Source-Format: CUBE
# LUTr-Source-SHA256: 41c191b82fb135c34e29ef7e9d69e6c42810c5873baff14434b4ad3eeeaf37fd
# LUTr-License: CC0-1.0
# LUTr-License-URL: https://freshluts.com/termsandconditions
# LUTr-License-Basis: site-terms
# LUTr-Transform-Class: creative-look
# LUTr-Tags: creative, freshluts, community, cube, cool, high-key, sony-s-log3, correction
# LUTr-Input-Color-Space:
# LUTr-Input-Gamut: sony-s-gamut3
# LUTr-Input-Transfer: sony-s-log3
# LUTr-Output-Color-Space: srgb
# LUTr-Output-Gamut: rec709
# LUTr-Output-Transfer: srgb
# LUTr-Color-Space-Confidence: camera-profile-input-required
# LUTr-Domain-Normalized: true
# LUTr-Shaper: none
# LUTr-Original-Grid: 16x16x16
# LUTr-Conversion-Grid: 16x16x16
# LUTr-Conversion-Interpolation: none
# LUTr-Conversion-Method: Metadata normalization; numeric LUT samples preserved
# LUTr-Conversion-Tool: LUTr scripts/convert-all-to-cube.mjs 2.0.0
# LUTr-Conversion-Date: 2026-07-28
# LUTr-Asset-URL: https://freshluts.com/luts/1236
# LUTr-Author: lvannoeun@gmail.com
# LUTr-Author-URL: https://freshluts.com/users/57563
# LUTr-Attribution: lvannoeun@gmail.com via Fresh LUTs
# LUTr-Source-Labels: gamma=Sony S-Log 3; color=Cool; key=High Key; style=fresh
# LUTr-Note: Preserve this metadata and the upstream license notices when redistributing.
TITLE "Correction-clean"
LUT_3D_SIZE 6
DOMAIN_MIN 0 0 0
DOMAIN_MAX 1 1 1
0 0 0
0 0 0
0.549774 0 0.032831
0.904751 0.106864 0.150212
0.921296 0.139401 0.191765
0.921296 0.139361 0.194584
0 0 0
0 0 0
0.487984 0.045123 0
0.859374 0.076024 0.123248
0.921296 0.139398 0.18924
0.921296 0.139361 0.19417
0.018596 0.565257 0.093301
0.003225 0.525583 0.075134
0.399294 0.491575 0.036406
0.816341 0.403278 0.124291
0.921296 0.139644 0.188585
0.921296 0.139361 0.193999
0.239655 0.861819 0.29213
0.221612 0.839632 0.275448
0.247058 0.830142 0.27294
0.723133 0.81071 0.292172
0.915869 0.738215 0.304923
0.921296 0.184578 0.197251
0.286357 0.909634 0.469505
0.28715 0.909634 0.414292
0.287733 0.909634 0.395117
0.654476 0.909634 0.404677
0.882434 0.909634 0.388655
0.914157 0.907856 0.389408
0.438916 0.909634 0.760019
0.352674 0.909634 0.71649
0.48113 0.909634 0.707965
0.703093 0.909634 0.721394
0.860322 0.909433 0.704094
0.909808 0.909634 0.501715
0 0 0
0 0 0
0.548349 0 0.170235
0.90273 0.10539 0.172156
0.921296 0.139401 0.191588
0.921296 0.139361 0.194548
0 0 0
0 0 0
0.553407 0 0.094819
0.898436 0.102458 0.146319
0.921296 0.139389 0.191056
0.921296 0.139361 0.194489
0.011104 0.548322 0.103176
0.00614 0.534769 0.078998
0.381783 0.483216 0.030805
0.83165 0.340955 0.115717
0.921296 0.139364 0.189255
0.921296 0.139361 0.194151
0.231116 0.851454 0.28515
0.225823 0.844825 0.279291
0.215101 0.829042 0.267656
0.714943 0.806078 0.287647
0.916307 0.718132 0.295941
0.921296 0.149252 0.194081
0.28599 0.909634 0.502984
0.28657 0.909634 0.457121
0.287167 0.909634 0.41158
0.629727 0.909634 0.413051
0.878688 0.909634 0.388407
0.915047 0.904573 0.387345
0.397098 0.909634 0.755436
0.325385 0.909634 0.713578
0.43432 0.909634 0.700975
0.683679 0.909634 0.715779
0.853722 0.909316 0.701348
0.909475 0.909634 0.515642
0.000318 0 0.561274
0.014496 0 0.572946
0.540803 0 0.625206
0.899171 0.116333 0.64342
0.921296 0.143806 0.532567
0.921296 0.139361 0.194561
0.00021 0 0.553949
0.001634 0 0.615194
0.525546 0 0.624776
0.888507 0.106284 0.586086
0.921296 0.139969 0.388203
0.921296 0.139361 0.194475
0.000108 0.49322 0.577244
0 0.470411 0.562104
0.304543 0.401309 0.537818
0.865061 0.14496 0.469207
0.921296 0.13939 0.201599
0.921296 0.139361 0.194223
0.215522 0.832287 0.586686
0.208543 0.824232 0.538492
0.20811 0.82439 0.418938
0.699929 0.797244 0.361648
0.91874 0.665431 0.273955
0.921296 0.139361 0.194151
0.285806 0.909634 0.658657
0.285579 0.909634 0.614678
0.285663 0.909634 0.524254
0.5716 0.909634 0.519531
0.873015 0.909647 0.406616
0.915353 0.896305 0.383109
0.375882 0.909634 0.798744
0.309975 0.909634 0.758571
0.411935 0.909634 0.744726
0.675077 0.909634 0.754352
0.851446 0.90923 0.748501
0.909559 0.909634 0.632087
0.006166 0 0.896624
0.006173 0 0.896624
0.500731 0.015378 0.896624
0.88074 0.145118 0.896624
0.921296 0.176271 0.896624
0.921296 0.169189 0.888816
0.006062 0 0.896624
0.006353 0 0.896624
0.435039 0.005817 0.896624
0.855589 0.133197 0.896624
0.921296 0.172907 0.896624
0.921296 0.162904 0.845655
0 0.34608 0.896544
0 0.258352 0.896624
0.103812 0.010047 0.896624
0.821196 0.11762 0.896624
0.921296 0.169917 0.896624
0.921296 0.156928 0.769402
0.197395 0.764628 0.889193
0.187813 0.751339 0.88265
0.179097 0.737305 0.88102
0.678267 0.730672 0.865674
0.917962 0.606711 0.845161
0.921296 0.173673 0.801608
0.288355 0.909634 0.89076
0.287495 0.909634 0.876358
0.28708 0.90965 0.842159
0.466867 0.909634 0.811722
0.866933 0.903013 0.793598
0.911071 0.878576 0.718555
0.361709 0.909634 0.896679
0.293024 0.909634 0.886514
0.375034 0.909634 0.874614
0.68616 0.909363 0.883805
0.850448 0.908604 0.881324
0.906936 0.90918 0.859979
0.006595 0 0.896624
0.006595 0 0.896624
0.4562 0.021383 0.896624
0.877973 0.152751 0.896624
0.921296 0.183148 0.896624
0.921296 0.183148 0.896624
0.006594 0 0.896624
0 0.029247 0.896624
0.312951 0.004572 0.896624
0.832699 0.135232 0.896624
0.921296 0.183148 0.896624
0.921296 0.183148 0.896624
0.022592 0.400166 0.896624
0.009629 0.350763 0.896624
0.009781 0.282045 0.896624
0.757609 0.142594 0.896624
0.921296 0.183148 0.896624
0.921296 0.183148 0.896624
0.198914 0.749552 0.896624
0.186395 0.727802 0.896624
0.174466 0.705929 0.896624
0.648965 0.707692 0.896624
0.912634 0.599681 0.896624
0.921296 0.18979 0.896624
0.28418 0.899838 0.896624
0.281785 0.895757 0.896624
0.279919 0.892288 0.896624
0.38457 0.88513 0.896624
0.853181 0.873712 0.896624
0.90701 0.856269 0.896624
0.360871 0.909634 0.896624
0.29854 0.909634 0.896624
0.368438 0.909634 0.896624
0.677275 0.906581 0.896624
0.855015 0.903416 0.896624
0.900613 0.902981 0.896624
0.021163 0.394365 0.896624
0.018542 0.384685 0.896624
0.355007 0.421433 0.896624
0.79702 0.384536 0.896624
0.921296 0.183148 0.896624
0.921296 0.183148 0.896624
0.012433 0.364804 0.896624
0.000505 0.285891 0.896624
0.087448 0.241622 0.896624
0.721683 0.168225 0.896624
0.921296 0.182949 0.896624
0.921296 0.183148 0.896624
0.073148 0.523606 0.896624
0.043989 0.459442 0.896624
0.045037 0.428359 0.896624
0.669112 0.406901 0.896624
0.921296 0.194513 0.896624
0.921296 0.183148 0.896624
0.197901 0.747002 0.896624
0.175731 0.708184 0.896624
0.166418 0.691989 0.896624
0.668636 0.728527 0.896624
0.883012 0.700152 0.896624
0.921296 0.310655 0.896624
0.278785 0.889448 0.896624
0.272369 0.878047 0.896624
0.268812 0.872183 0.896624
0.618128 0.866533 0.896624
0.858291 0.872707 0.896624
0.905536 0.8638 0.896624
0.372078 0.909634 0.896624
0.307645 0.909634 0.896624
0.381776 0.909634 0.896624
0.678688 0.90427 0.896624
0.854412 0.901321 0.896624
0.899705 0.900816 0.896624
