site/assets/luts/freshluts--0001215-orangetil-lut.cube
# LUTr-Schema-Version: 2
# LUTr-ID: freshluts--0001215-orangetil-lut
# LUTr-Title: OrangeTil_LUT
# LUTr-Collection: Fresh LUTs
# LUTr-Collection-ID: freshluts-community
# LUTr-Source: https://freshluts.com
# LUTr-Retrieved: 2026-07-27
# LUTr-Source-File: submissions-raw/freshluts/cubes/1215__Orangetil_sister_2.SISTER.00_00_13_00.Still002.cube
# LUTr-Source-Format: CUBE
# LUTr-Source-SHA256: b48be046eda3268d7f007aefc764fac53ac2e4a94d4f766aea779b6a5befdc66
# LUTr-License: CC0-1.0
# LUTr-License-URL: https://freshluts.com/termsandconditions
# LUTr-License-Basis: site-terms
# LUTr-Transform-Class: creative-look
# LUTr-Tags: creative, freshluts, community, cube, teal, sony-s-log3
# LUTr-Input-Color-Space:
# LUTr-Input-Gamut: sony-s-gamut3
# LUTr-Input-Transfer: sony-s-log3
# LUTr-Output-Color-Space: srgb
# LUTr-Output-Gamut: rec709
# LUTr-Output-Transfer: srgb
# LUTr-Color-Space-Confidence: camera-profile-input-required
# LUTr-Domain-Normalized: true
# LUTr-Shaper: none
# LUTr-Original-Grid: 33x33x33
# LUTr-Conversion-Grid: 33x33x33
# LUTr-Conversion-Interpolation: none
# LUTr-Conversion-Method: Metadata normalization; numeric LUT samples preserved
# LUTr-Conversion-Tool: LUTr scripts/convert-all-to-cube.mjs 2.0.0
# LUTr-Conversion-Date: 2026-07-28
# LUTr-Asset-URL: https://freshluts.com/luts/1215
# LUTr-Author: lvannoeun@gmail.com
# LUTr-Author-URL: https://freshluts.com/users/57563
# LUTr-Attribution: lvannoeun@gmail.com via Fresh LUTs
# LUTr-Source-Labels: gamma=Sony S-Log 3; color=Teal; key=Neutral; style=cine drama
# LUTr-Note: Preserve this metadata and the upstream license notices when redistributing.
TITLE "OrangeTil_LUT"
LUT_3D_SIZE 5
DOMAIN_MIN 0 0 0
DOMAIN_MAX 1 1 1
0.0445106 0.0445106 0.0445106
0.242451 0.0356146 0.0332036
0.463264 0.0245212 0.0194095
0.696056 0.0134585 0.00550851
0.930648 0.00560006 0
0.0135805 0.237171 0.014847
0.220981 0.237354 0.0137331
0.450843 0.234958 0.00953689
0.692256 0.23212 0.0047303
0.93489 0.231861 0.002533
0 0.473533 0
0.190799 0.481285 0
0.427543 0.48574 0
0.674907 0.488914 0
0.922362 0.493538 0
0 0.73492 0
0.173693 0.747402 0
0.41384 0.75523 0
0.663966 0.76112 0
0.912627 0.766979 0
0 0.998276 0
0.187411 1 0
0.427115 1 0
0.675547 1 0
0.921309 1 0
0 0.071107 0.250431
0.236194 0.0282292 0.298955
0.459037 0.0176242 0.2878
0.693584 0.00708019 0.276982
0.929702 0 0.269139
0 0.254444 0.16878
0.19881 0.240635 0.26331
0.449363 0.231067 0.278569
0.692195 0.228748 0.276005
0.935851 0.228641 0.275654
0 0.471366 0.242222
0.190646 0.479393 0.254688
0.427741 0.484092 0.258045
0.675822 0.487953 0.260044
0.923598 0.492866 0.263005
0 0.733944 0.228595
0.174884 0.746899 0.240528
0.415259 0.754818 0.247196
0.665415 0.760723 0.251499
0.91397 0.766476 0.255451
0 0.997925 0.243336
0.188571 1 0.255634
0.428092 1 0.261448
0.675883 1 0.263447
0.921386 1 0.264485
0 0.0999771 0.479789
0.127672 0.0495308 0.58674
0.450675 0.00947585 0.582879
0.6869 0 0.572396
0.92372 0 0.565301
0 0.290043 0.39089
0.0837415 0.273548 0.496742
0.432502 0.228733 0.581216
0.688136 0.224262 0.574105
0.932311 0.224781 0.574334
0 0.511543 0.307393
0.133852 0.506767 0.403632
0.391104 0.495384 0.514214
0.674723 0.484504 0.561273
0.923461 0.489494 0.566018
0 0.747433 0.397559
0.172198 0.747982 0.505745
0.41442 0.752132 0.547875
0.664424 0.757656 0.552117
0.913115 0.763531 0.556161
0 0.996582 0.529702
0.187106 1 0.555703
0.426673 1 0.561517
0.674144 1 0.563256
0.919005 1 0.563699
0 0.128206 0.698589
0.00466926 0.0812848 0.818235
0.370001 0.0233158 0.879255
0.681544 0 0.854597
0.919356 0 0.84799
0 0.322728 0.611719
0 0.305821 0.719448
0.32018 0.258885 0.848646
0.682017 0.2215 0.860609
0.930251 0.222141 0.859358
0 0.550332 0.513344
0.0187228 0.544732 0.618875
0.283955 0.530907 0.739559
0.643229 0.49102 0.85417
0.92256 0.488136 0.852247
0 0.794186 0.456733
0.0939651 0.793347 0.555764
0.353933 0.786084 0.661234
0.624262 0.774289 0.776394
0.912963 0.761288 0.843259
0 1 0.528771
0.166583 1 0.640635
0.41976 1 0.764797
0.673152 1 0.847898
0.917418 1 0.848722
0 0.155032 0.893751
0 0.109636 1
0.272923 0.0487984 1
0.636942 0.00135805 1
0.917723 0 1
0 0.352941 0.8103
0 0.336339 0.918257
0.217807 0.29221 1
0.610162 0.240742 1
0.930495 0.222156 1
0 0.585534 0.707515
0 0.579355 0.817136
0.193057 0.564202 0.941299
0.543542 0.524636 1
0.918349 0.490242 1
0 0.833524 0.629206
0 0.831861 0.737728
0.255207 0.823163 0.853086
0.530282 0.809262 0.976715
0.87509 0.773312 1
0 1 0.620859
0.0866712 1 0.719356
0.344594 1 0.821637
0.611429 1 0.926177
0.875975 1 1
