site/assets/luts/freshluts--0001158-flashback1-sad.cube
# LUTr-Schema-Version: 2
# LUTr-ID: freshluts--0001158-flashback1-sad
# LUTr-Title: flashback1_sad
# LUTr-Collection: Fresh LUTs
# LUTr-Collection-ID: freshluts-community
# LUTr-Source: https://freshluts.com
# LUTr-Retrieved: 2026-07-27
# LUTr-Source-File: submissions-raw/freshluts/cubes/1158__flashback1.cube
# LUTr-Source-Format: CUBE
# LUTr-Source-SHA256: 09309340eab82a08c3ee5b0e26f3106b1076ef75007f7e9d2ed51f472deefeb1
# LUTr-License: CC0-1.0
# LUTr-License-URL: https://freshluts.com/termsandconditions
# LUTr-License-Basis: site-terms
# LUTr-Transform-Class: creative-look
# LUTr-Tags: creative, freshluts, community, cube, warm, low-key, sony-s-log2
# LUTr-Input-Color-Space:
# LUTr-Input-Gamut: sony-s-gamut
# LUTr-Input-Transfer: sony-s-log2
# LUTr-Output-Color-Space: srgb
# LUTr-Output-Gamut: rec709
# LUTr-Output-Transfer: srgb
# LUTr-Color-Space-Confidence: camera-profile-input-required
# LUTr-Domain-Normalized: true
# LUTr-Shaper: none
# LUTr-Original-Grid: 16x16x16
# LUTr-Conversion-Grid: 16x16x16
# LUTr-Conversion-Interpolation: none
# LUTr-Conversion-Method: Metadata normalization; numeric LUT samples preserved
# LUTr-Conversion-Tool: LUTr scripts/convert-all-to-cube.mjs 2.0.0
# LUTr-Conversion-Date: 2026-07-28
# LUTr-Asset-URL: https://freshluts.com/luts/1158
# LUTr-Author: lvannoeun@gmail.com
# LUTr-Author-URL: https://freshluts.com/users/57563
# LUTr-Attribution: lvannoeun@gmail.com via Fresh LUTs
# LUTr-Source-Labels: gamma=Sony S-Log 2; color=Warm; key=Low Key; style=cine drama
# LUTr-Note: Preserve this metadata and the upstream license notices when redistributing.
TITLE "flashback1_sad"
LUT_3D_SIZE 16
DOMAIN_MIN 0 0 0
DOMAIN_MAX 1 1 1
0 0 0
0 0 0
0 0 0
0.006699 0 0
0.065459 0 0
0.156637 0 0
0.316691 0 0
0.467396 0 0
0.590557 0.009913 0.009913
0.675271 0.032049 0.032049
0.7302 0.052668 0.052668
0.776118 0.072118 0.072118
0.822655 0.125441 0.111933
0.871211 0.183492 0.172364
0.912713 0.237443 0.22827
0.941921 0.27642 0.267819
0 0 0
0 0 0
0 0 0
0.008221 0.00296 0
0.066367 0.018009 0
0.15816 0.030363 0
0.318338 0.038783 0
0.468787 0.041013 0
0.592052 0.041522 0.011584
0.677168 0.048659 0.033358
0.732423 0.062362 0.0538
0.778244 0.080102 0.073097
0.824432 0.134945 0.115605
0.872587 0.191117 0.176419
0.913748 0.243588 0.231489
0.942718 0.28152 0.270559
0 0 0
0 0 0
0 0 0
0.014233 0.009726 0
0.070092 0.036504 0
0.165046 0.05978 0
0.32556 0.074967 0
0.474777 0.078832 0
0.598706 0.079305 0.018393
0.684817 0.082191 0.038906
0.741537 0.089453 0.058509
0.787917 0.123178 0.077897
0.832237 0.170118 0.131584
0.87809 0.221105 0.1929
0.918032 0.26835 0.24438
0.946146 0.302311 0.281673
0 0.020166 0
0.00733 0.020527 0
0.015099 0.022109 0
0.025246 0.025246 0
0.077309 0.058972 0
0.178685 0.091601 0
0.341297 0.111116 0
0.487089 0.115863 0.011858
0.61044 0.116696 0.030873
0.699035 0.118044 0.049392
0.758567 0.142313 0.067511
0.805241 0.184987 0.097164
0.847815 0.227444 0.161999
0.888583 0.272482 0.220265
0.925771 0.312791 0.26826
0.952452 0.340439 0.301579
0 0.100789 0.022375
0.012828 0.101455 0
0.04562 0.104349 0
0.072898 0.110665 0
0.103287 0.124118 0
0.18956 0.155659 0.001425
0.362353 0.178557 0.016286
0.506372 0.184669 0.031999
0.627926 0.190462 0.048153
0.718924 0.205752 0.064498
0.78119 0.23257 0.082678
0.827972 0.263483 0.136582
0.868782 0.299996 0.198176
0.905993 0.337072 0.2512
0.939028 0.370669 0.296988
0.962835 0.392639 0.327836
0.010266 0.2288 0.116052
0.015632 0.229769 0.114832
0.035665 0.234152 0.107305
0.067728 0.242556 0.084867
0.126145 0.256838 0.058846
0.201067 0.273493 0.033384
0.376508 0.288853 0.042167
0.525811 0.297712 0.055248
0.648243 0.301577 0.069077
0.741508 0.309602 0.084267
0.805637 0.326583 0.122344
0.852682 0.351564 0.183563
0.892071 0.380834 0.237871
0.928058 0.410949 0.287932
0.959756 0.438113 0.329973
0.968156 0.450967 0.357658
0.046953 0.36932 0.21776
0.050902 0.370495 0.216954
0.066367 0.375049 0.213672
0.093095 0.383683 0.204234
0.129407 0.397466 0.178751
0.218983 0.41717 0.115945
0.361264 0.425786 0.070157
0.536024 0.426019 0.080578
0.663568 0.421638 0.092485
0.758236 0.420385 0.110571
0.826078 0.427486 0.17002
0.87584 0.445566 0.229755
0.916771 0.468683 0.284944
0.95314 0.492257 0.332235
0.968156 0.508046 0.370612
0.968156 0.511869 0.394382
0.081703 0.508987 0.321153
0.084774 0.509906 0.320439
0.097245 0.513594 0.317635
0.126041 0.520735 0.307624
0.186462 0.532178 0.285713
0.261827 0.548243 0.243992
0.359164 0.563502 0.158387
0.518104 0.562161 0.112313
0.669704 0.546892 0.123475
0.771902 0.53429 0.159334
0.841882 0.535533 0.217302
0.894378 0.546114 0.273503
0.936438 0.561539 0.324532
0.968156 0.575669 0.368456
0.968156 0.579778 0.403818
0.968156 0.579361 0.42611
0.127546 0.630568 0.41229
0.132442 0.631247 0.411332
0.152616 0.634024 0.407653
0.198198 0.639541 0.3961
0.256216 0.648653 0.37846
0.321276 0.661259 0.352201
0.385782 0.675906 0.297045
0.489722 0.684979 0.212261
0.653891 0.680002 0.171888
0.774926 0.657351 0.210494
0.851279 0.646956 0.265838
0.90597 0.648219 0.31661
0.949115 0.654473 0.359896
0.968144 0.655399 0.398411
0.968156 0.654108 0.428886
0.968156 0.646429 0.448108
0.239491 0.732421 0.493712
0.243835 0.733003 0.49295
0.261754 0.735554 0.489183
0.294972 0.74046 0.481122
0.338966 0.748259 0.467936
0.391227 0.758781 0.449329
0.445686 0.770783 0.421794
0.50414 0.781836 0.354192
0.619893 0.783238 0.284797
0.762952 0.777359 0.277734
0.850364 0.756017 0.316532
0.908409 0.745928 0.358526
0.953312 0.742642 0.39449
0.968156 0.731086 0.426443
0.968156 0.72277 0.45225
0.968156 0.709115 0.467669
0.354953 0.817416 0.571757
0.357901 0.81775 0.571093
0.3705 0.819752 0.567629
0.394456 0.823462 0.561435
0.427404 0.829516 0.551317
0.467982 0.837409 0.537616
0.515241 0.846531 0.521384
0.554175 0.855243 0.469973
0.623726 0.859447 0.401012
0.736214 0.854943 0.366372
0.841606 0.850584 0.377434
0.905011 0.832804 0.404385
0.951146 0.821676 0.431489
0.968156 0.800821 0.455939
0.968156 0.78376 0.47696
0.968156 0.765911 0.488409
0.449959 0.884848 0.637968
0.452113 0.885025 0.637228
0.461156 0.8863 0.634198
0.478838 0.888979 0.628746
0.503652 0.893239 0.620011
0.535223 0.898448 0.607509
0.573169 0.904827 0.591421
0.605109 0.911375 0.553284
0.65229 0.914968 0.495217
0.731518 0.912714 0.449993
0.822472 0.907823 0.441422
0.899927 0.905207 0.455805
0.947997 0.889834 0.473074
0.968144 0.862385 0.490254
0.968144 0.836691 0.505955
0.968156 0.816197 0.512704
0.52128 0.936452 0.688473
0.522927 0.936665 0.687941
0.530084 0.937621 0.685442
0.543808 0.939425 0.680684
0.563606 0.942224 0.672171
0.589411 0.945942 0.659825
0.620633 0.950545 0.643722
0.648408 0.955344 0.612694
0.682875 0.958377 0.564406
0.74077 0.95725 0.521164
0.813565 0.953251 0.502501
0.884409 0.949433 0.505074
0.945245 0.947673 0.518705
0.968144 0.918263 0.52972
0.968156 0.883295 0.54009
0.968156 0.859707 0.542259
0.575293 0.968156 0.723324
0.576691 0.968144 0.722753
0.582359 0.968156 0.720286
0.593822 0.968156 0.715495
0.610355 0.968156 0.707078
0.631963 0.968144 0.695969
0.658487 0.968156 0.682341
0.681775 0.968156 0.659137
0.703285 0.968156 0.619349
0.7416 0.968156 0.581416
0.797293 0.968156 0.559186
0.85812 0.968156 0.553883
0.91596 0.968144 0.560184
0.968156 0.968141 0.572872
0.968156 0.924413 0.578319
0.968156 0.898718 0.576788
0.616885 0.968156 0.739675
0.617981 0.968156 0.739167
0.622792 0.968156 0.737375
0.632409 0.968144 0.733925
0.646691 0.968156 0.728364
0.665171 0.968156 0.720768
0.68825 0.968156 0.712297
0.709585 0.968156 0.69801
0.723351 0.968156 0.666072
0.747779 0.968156 0.633926
0.784213 0.968156 0.609074
0.828893 0.968144 0.600014
0.877305 0.968156 0.599678
0.924227 0.968156 0.606821
0.968156 0.967673 0.618485
0.968156 0.934081 0.613395
0.644301 0.968144 0.753022
0.645438 0.968156 0.75268
0.649856 0.968156 0.75157
0.657687 0.968144 0.748707
0.669784 0.968156 0.744652
0.68588 0.968156 0.739177
0.705796 0.968156 0.733096
0.728477 0.968156 0.726966
0.737905 0.968156 0.701737
0.754269 0.968156 0.675239
0.779341 0.968156 0.652102
0.812634 0.968156 0.637235
0.850413 0.968156 0.630013
0.890394 0.968156 0.633276
0.932146 0.968144 0.640347
0.968156 0.968144 0.650452
0 0 0
0 0 0
0 0 0
0.006879 0 0.002512
0.065581 0 0.017794
0.156167 0 0.030136
0.316689 0 0.038711
0.467336 0 0.041007
0.590872 0.010046 0.041382
0.675914 0.032164 0.047929
0.730977 0.052793 0.061634
0.776765 0.072257 0.077798
0.822994 0.124977 0.117177
0.871446 0.184536 0.17764
0.9128 0.238874 0.232568
0.942093 0.27788 0.271971
0 0 0
0 0 0
0 0 0
0.008358 0 0
0.066408 0 0
0.157435 0 0
0.318092 0 0
0.468648 0 0
0.592085 0.015887 0.015887
0.677346 0.036821 0.036821
0.732638 0.056679 0.056679
0.778404 0.076052 0.075622
0.824448 0.133232 0.119469
0.872498 0.191052 0.180389
0.913897 0.244214 0.234964
0.942823 0.282664 0.274256
0 0 0
0 0 0
0 0 0
0.014363 0.009314 0
0.070091 0.034113 0
0.163919 0.055218 0
0.325294 0.069189 0
0.474665 0.072714 0.001738
0.598821 0.073784 0.022408
0.684988 0.07795 0.042234
0.741764 0.086366 0.06125
0.788157 0.120722 0.081275
0.832242 0.16898 0.135297
0.878074 0.221204 0.196589
0.917982 0.268971 0.247728
0.946158 0.30343 0.285294
0 0.020282 0.00724
0 0.02064 0
0.014417 0.022256 0
0.025344 0.025344 0
0.077357 0.058142 0
0.178044 0.089331 0
0.340993 0.108158 0
0.48691 0.112863 0.016223
0.610431 0.114044 0.034431
0.699191 0.115931 0.052447
0.758822 0.140214 0.070124
0.805443 0.183465 0.10121
0.847907 0.226874 0.165689
0.888643 0.272618 0.223614
0.925804 0.313374 0.271691
0.952444 0.341344 0.304864
0 0.101457 0.032046
0 0.102014 0.024866
0.040881 0.104626 0
0.071054 0.110596 0
0.102555 0.123798 0
0.190155 0.1552 0.006173
0.362339 0.177298 0.020504
0.506195 0.183275 0.035567
0.627834 0.189113 0.051236
0.719205 0.204542 0.067153
0.781446 0.231398 0.085954
0.828282 0.262723 0.140258
0.869218 0.299688 0.201557
0.906225 0.337148 0.253941
0.939633 0.370907 0.299882
0.962995 0.393291 0.330757
0.01043 0.229186 0.121614
0.015286 0.229998 0.120173
0.035408 0.234236 0.113658
0.06759 0.242594 0.094483
0.123559 0.256666 0.065855
0.20114 0.273445 0.037782
0.376903 0.28854 0.045506
0.525898 0.297218 0.058253
0.648247 0.300983 0.071705
0.741588 0.308993 0.086879
0.805992 0.325974 0.12596
0.853006 0.351211 0.186813
0.892286 0.380765 0.2405
0.928333 0.411041 0.29067
0.960048 0.438352 0.332319
0.968156 0.451348 0.360345
0.047068 0.369538 0.222283
0.050533 0.370595 0.22117
0.06609 0.375046 0.218089
0.092895 0.383607 0.209176
0.129959 0.397335 0.184629
0.219322 0.417072 0.122173
0.361736 0.425847 0.073028
0.536355 0.425776 0.083038
0.663574 0.421423 0.094671
0.758523 0.419968 0.11546
0.826362 0.427239 0.173847
0.876189 0.445458 0.233095
0.917164 0.468627 0.287637
0.95344 0.492253 0.334587
0.968156 0.50818 0.372869
0.968156 0.512324 0.39646
0.08178 0.509129 0.325146
0.084395 0.509901 0.324006
0.096907 0.513663 0.321295
0.126674 0.520585 0.311479
0.187689 0.53201 0.289874
0.263174 0.548128 0.248846
0.359669 0.563427 0.163262
0.51856 0.56222 0.116238
0.669946 0.546762 0.12617
0.772168 0.534039 0.163647
0.842135 0.535406 0.22089
0.894741 0.546016 0.2762
0.936913 0.561555 0.327286
0.968156 0.575463 0.370764
0.968156 0.579989 0.406086
0.968156 0.579742 0.428264
0.128248 0.630565 0.415782
0.132316 0.631214 0.414411
0.152868 0.633964 0.410756
0.198734 0.639429 0.399359
0.25712 0.648469 0.381806
0.322306 0.661111 0.355725
0.387148 0.675772 0.301942
0.490134 0.684971 0.217341
0.654312 0.680058 0.176252
0.775377 0.657186 0.214047
0.851522 0.646769 0.269219
0.906322 0.647993 0.319171
0.949477 0.654503 0.362567
0.968156 0.655428 0.400545
0.968156 0.654254 0.430869
0.968156 0.646645 0.449939
0.240242 0.732388 0.496759
0.243784 0.732892 0.49557
0.261776 0.735392 0.491918
0.295224 0.740339 0.483769
0.339511 0.748149 0.470588
0.392064 0.758566 0.452371
0.447143 0.770617 0.425496
0.50504 0.781789 0.35824
0.620103 0.783267 0.288295
0.763139 0.777377 0.280637
0.850702 0.755766 0.31938
0.908617 0.745867 0.360817
0.953441 0.74244 0.396417
0.968156 0.73113 0.428488
0.968156 0.722769 0.454024
0.968156 0.709416 0.469427
0.355335 0.817366 0.574269
0.357744 0.81768 0.573295
0.370566 0.819694 0.569943
0.394709 0.823452 0.56374
0.427892 0.829439 0.553524
0.468587 0.837427 0.539995
0.515771 0.846472 0.523633
0.55512 0.855302 0.473074
0.624039 0.859398 0.403795
0.736311 0.855 0.368987
0.842035 0.850586 0.379936
0.90515 0.832796 0.406444
0.951308 0.821611 0.433198
0.968156 0.800743 0.457779
0.968156 0.783764 0.478682
0.968156 0.766016 0.490095
0.450301 0.884606 0.640022
0.452027 0.884909 0.6391
0.461203 0.886234 0.636102
0.479055 0.888877 0.63073
0.503968 0.893048 0.621979
0.535707 0.89836 0.609455
0.573564 0.904679 0.593242
0.605881 0.911199 0.555664
0.652718 0.914863 0.497666
0.731629 0.912721 0.452328
0.822755 0.907881 0.443453
0.900108 0.90519 0.45755
0.948282 0.889866 0.474759
0.968144 0.862159 0.491981
0.968156 0.836649 0.507641
0.968156 0.81625 0.514305
0.521584 0.936335 0.690273
0.523026 0.936448 0.689564
0.530042 0.937417 0.686947
0.544075 0.93923 0.682211
0.563944 0.94212 0.673736
0.589761 0.945826 0.661491
0.621009 0.950479 0.645299
0.649049 0.955282 0.614725
0.68323 0.958361 0.566412
0.740848 0.957222 0.523227
0.813729 0.953094 0.504408
0.884638 0.949469 0.5067
0.945433 0.947652 0.520198
0.968156 0.917817 0.531127
0.968156 0.883152 0.541752
0.968156 0.859691 0.543861
0.575629 0.968156 0.724832
0.576692 0.968156 0.724094
0.582532 0.968156 0.72154
0.594092 0.968156 0.716792
0.61067 0.968156 0.70864
0.632318 0.968156 0.697266
0.658805 0.968156 0.683682
0.682366 0.968156 0.660868
0.703892 0.968156 0.621005
0.741928 0.968156 0.58321
0.797567 0.968156 0.560926
0.858166 0.968156 0.555491
0.916319 0.968144 0.561725
0.968156 0.967896 0.574315
0.968156 0.92426 0.579846
0.968156 0.898717 0.578164
0.617222 0.968144 0.740732
0.618257 0.968156 0.7404
0.622983 0.968156 0.738524
0.632654 0.968156 0.735082
0.647074 0.968156 0.729632
0.66563 0.968156 0.721915
0.688626 0.968156 0.713295
0.710242 0.968156 0.699726
0.724112 0.968156 0.66778
0.748196 0.968156 0.635519
0.784587 0.968156 0.610753
0.829169 0.968156 0.601557
0.877574 0.968156 0.601333
0.924455 0.968144 0.608214
0.968156 0.967368 0.61997
0.968144 0.934029 0.614738
0.644682 0.968156 0.754072
0.645702 0.968156 0.753774
0.650135 0.968156 0.752605
0.658054 0.968144 0.749812
0.670221 0.968144 0.745842
0.686244 0.968156 0.740242
0.706226 0.968156 0.734061
0.729357 0.968156 0.728487
0.738561 0.968156 0.703294
0.754813 0.968156 0.676833
0.779754 0.968144 0.653594
0.812932 0.968156 0.638773
0.850714 0.968156 0.63162
0.890484 0.968144 0.634748
0.932174 0.968144 0.641728
0.968156 0.968144 0.651652
0 0 0
0 0 0
0 0 0
0.007548 0 0.005159
0.065937 0 0.034346
0.154438 0 0.057611
0.31701 0 0.074396
0.467387 0 0.078747
0.592657 0.010772 0.078796
0.678513 0.032728 0.080579
0.734133 0.053296 0.086815
0.779889 0.072651 0.097896
0.824748 0.125258 0.139568
0.872183 0.187471 0.196797
0.913407 0.24272 0.248668
0.942573 0.281885 0.286616
0 0 0
0 0 0
0 0 0
0.008956 0 0.005836
0.066764 0 0.03249
0.155132 0 0.053585
0.318385 0 0.068777
0.468684 0 0.07262
0.594095 0.016565 0.07311
0.679972 0.037357 0.076314
0.73591 0.057139 0.084115
0.781805 0.076745 0.096422
0.826312 0.133196 0.141498
0.873197 0.19485 0.200175
0.914256 0.249256 0.252258
0.943089 0.287906 0.290032
0 0 0
0 0 0
0 0 0
0.014657 0 0
0.070122 0 0
0.159264 0 0
0.32405 0.002941 0.002941
0.4738 0.019782 0.019782
0.598884 0.037143 0.037143
0.685464 0.054612 0.054612
0.742609 0.072009 0.072009
0.788838 0.109146 0.093529
0.832772 0.163321 0.150192
0.877741 0.220551 0.21072
0.918041 0.270835 0.262058
0.946072 0.307211 0.299323
0 0.02082 0.014226
0 0.021194 0.013719
0 0.022663 0
0.02585 0.02585 0
0.07748 0.053282 0
0.175032 0.077853 0.003427
0.33929 0.093726 0.017039
0.486031 0.098907 0.032015
0.610237 0.101994 0.047761
0.699742 0.106471 0.063928
0.75971 0.129443 0.080186
0.806162 0.176155 0.116214
0.848995 0.223653 0.180236
0.889 0.27229 0.236418
0.926069 0.315037 0.285095
0.952483 0.344612 0.317877
0 0.104848 0.053201
0 0.105306 0.050983
0.003913 0.10672 0.035279
0.05996 0.11103 0.020128
0.099577 0.122749 0.018361
0.192174 0.152709 0.024309
0.362017 0.171205 0.036017
0.505319 0.176753 0.049036
0.627163 0.182753 0.062969
0.719499 0.198385 0.077518
0.782544 0.225691 0.098218
0.829459 0.258818 0.155405
0.870478 0.297996 0.214565
0.907534 0.336992 0.266748
0.940614 0.371785 0.311414
0.963906 0.395786 0.342345
0.011084 0.231122 0.140387
0.01593 0.231877 0.139818
0.033506 0.23509 0.134752
0.066525 0.242697 0.124478
0.112755 0.255759 0.092521
0.201645 0.273623 0.054449
0.378488 0.286927 0.058285
0.526006 0.294478 0.069658
0.647966 0.298011 0.081965
0.741957 0.305663 0.097143
0.806743 0.322995 0.141187
0.854017 0.349331 0.19928
0.893581 0.379673 0.252125
0.929644 0.410903 0.301001
0.9615 0.438925 0.342347
0.968144 0.452747 0.370534
0.047539 0.370628 0.240309
0.050984 0.371481 0.239436
0.064091 0.375088 0.235099
0.091515 0.38348 0.228317
0.131567 0.396718 0.206502
0.220884 0.416661 0.146863
0.363843 0.426195 0.085571
0.537469 0.42475 0.0927
0.663604 0.4199 0.104993
0.759133 0.417677 0.134819
0.82754 0.425413 0.188896
0.877516 0.444307 0.246033
0.918502 0.467993 0.298161
0.954681 0.492314 0.344347
0.968144 0.508474 0.381663
0.968156 0.513472 0.404883
0.082168 0.509659 0.341473
0.084771 0.510382 0.340484
0.09507 0.513293 0.335796
0.128022 0.520207 0.32675
0.191944 0.53122 0.306416
0.268276 0.547207 0.268824
0.36171 0.562983 0.186755
0.520224 0.562294 0.131763
0.67114 0.54588 0.137015
0.772852 0.532867 0.181894
0.843186 0.534437 0.235092
0.896215 0.545201 0.288401
0.938518 0.56088 0.338057
0.968156 0.574489 0.379936
0.968144 0.580735 0.41538
0.968144 0.581062 0.436941
0.131207 0.630912 0.429908
0.135551 0.631393 0.428678
0.152477 0.633555 0.423204
0.199789 0.638855 0.41246
0.26025 0.647584 0.39566
0.326753 0.660046 0.370951
0.392306 0.674844 0.321288
0.491844 0.684695 0.237716
0.655771 0.680059 0.193552
0.776551 0.656345 0.230701
0.852695 0.646149 0.282419
0.907824 0.647412 0.329522
0.950704 0.654127 0.372626
0.968156 0.655252 0.409216
0.968144 0.65449 0.438549
0.968156 0.647429 0.457787
0.243343 0.73268 0.509399
0.246858 0.733098 0.508343
0.260973 0.73513 0.503164
0.295719 0.739787 0.495123
0.341731 0.7473 0.482523
0.395452 0.757631 0.464623
0.452734 0.769778 0.440482
0.508231 0.781159 0.374404
0.620932 0.783347 0.302257
0.764581 0.777384 0.294374
0.851913 0.755214 0.330945
0.909982 0.74523 0.370148
0.954665 0.742055 0.405455
0.968156 0.731187 0.43665
0.968156 0.722956 0.46132
0.968156 0.709954 0.47629
0.357468 0.817495 0.585247
0.359887 0.817725 0.584447
0.369972 0.819224 0.579524
0.3951 0.822924 0.573377
0.429421 0.828758 0.563393
0.470746 0.836461 0.549756
0.517778 0.845678 0.533082
0.558229 0.854702 0.48554
0.624928 0.859225 0.415641
0.737141 0.854787 0.380231
0.843001 0.850396 0.389614
0.90621 0.832278 0.414647
0.952447 0.821002 0.440715
0.968156 0.800385 0.465448
0.968144 0.783814 0.485655
0.968156 0.766341 0.496832
0.451692 0.884575 0.649072
0.45352 0.88487 0.648007
0.460843 0.88589 0.643945
0.479444 0.888219 0.638481
0.505264 0.892531 0.629955
0.537228 0.897785 0.617407
0.57514 0.904159 0.600902
0.608737 0.910759 0.565725
0.65413 0.914574 0.507629
0.732342 0.912727 0.4618
0.823246 0.907783 0.451701
0.901079 0.904809 0.464872
0.948958 0.889249 0.481187
0.968156 0.861633 0.499306
0.968156 0.836682 0.514401
0.968144 0.816328 0.521071
0.522897 0.936245 0.697657
0.524385 0.936336 0.696929
0.530041 0.937015 0.693495
0.544587 0.938755 0.688752
0.565 0.941419 0.680363
0.590994 0.945189 0.668122
0.622287 0.94982 0.651793
0.651555 0.954661 0.623
0.68481 0.957977 0.574981
0.74186 0.957043 0.531951
0.814215 0.952959 0.511993
0.885177 0.949112 0.513514
0.946186 0.947329 0.526291
0.968156 0.916996 0.537922
0.968156 0.883072 0.548366
0.968156 0.859969 0.550453
0.576898 0.968144 0.731369
0.57805 0.968156 0.730577
0.582867 0.968156 0.727445
0.594715 0.968156 0.722721
0.611753 0.968156 0.714362
0.633604 0.968156 0.703171
0.660031 0.968156 0.68923
0.685126 0.968156 0.668137
0.706023 0.968144 0.628572
0.743808 0.968156 0.591416
0.798439 0.968156 0.568192
0.85887 0.968156 0.561985
0.916989 0.968156 0.567677
0.968144 0.966902 0.580704
0.968156 0.923852 0.586063
0.968156 0.89859 0.583969
0.618496 0.968156 0.746191
0.619513 0.968156 0.745687
0.623614 0.968156 0.743383
0.633607 0.968156 0.739854
0.648363 0.968144 0.734546
0.666993 0.968156 0.726939
0.689996 0.968144 0.718272
0.713267 0.968156 0.706171
0.726434 0.968144 0.674609
0.749766 0.968156 0.642251
0.786056 0.968156 0.618268
0.830257 0.968144 0.608237
0.87828 0.968156 0.607215
0.925232 0.968156 0.613767
0.968156 0.96686 0.626007
0.968156 0.93389 0.620013
0.646141 0.968156 0.758433
0.647219 0.968156 0.758061
0.65133 0.968156 0.756773
0.659208 0.968156 0.753913
0.671623 0.968156 0.750066
0.687988 0.968156 0.744482
0.708146 0.968156 0.73856
0.731675 0.968156 0.73339
0.741621 0.968156 0.709607
0.757289 0.968156 0.683521
0.781383 0.968156 0.660029
0.813978 0.968144 0.644606
0.851651 0.968144 0.638049
0.891336 0.968156 0.640686
0.933015 0.968156 0.647068
0.968144 0.968144 0.656605
0 0 0.002604
0.001274 0 0.00319
0.003492 0 0.005034
0.008756 0 0.008756
0.066732 0 0.050894
0.151806 0 0.083889
0.317634 0 0.109062
0.468637 0 0.115387
0.595254 0.01224 0.115247
0.68307 0.033916 0.115075
0.74023 0.054246 0.11778
0.785978 0.073492 0.135497
0.829526 0.126086 0.179705
0.873769 0.189903 0.228715
0.914289 0.244855 0.275428
0.943124 0.28372 0.308704
0 0.00144 0.004038
0 0 0.004533
0.004159 0 0.006397
0.010261 0 0.010261
0.067558 0 0.050773
0.152067 0 0.082203
0.318989 0 0.106289
0.469837 0 0.112221
0.596632 0.017945 0.112254
0.68447 0.038503 0.112711
0.742004 0.058136 0.116142
0.787856 0.078447 0.135665
0.831447 0.133961 0.181623
0.87515 0.197147 0.231553
0.915278 0.251273 0.278782
0.943917 0.289673 0.311817
0 0.007138 0.010421
0 0.007006 0.01079
0 0 0.012313
0.015869 0 0.015869
0.070909 0 0.048746
0.155431 0 0.073491
0.324841 0.004293 0.092287
0.474984 0.0211 0.097347
0.601375 0.038285 0.09937
0.690255 0.055605 0.102905
0.748832 0.072868 0.109368
0.794833 0.10617 0.136598
0.838108 0.16488 0.189918
0.880314 0.225209 0.243419
0.919195 0.276673 0.2911
0.947076 0.313087 0.324293
0 0.021937 0.021937
0 0.022279 0.022279
0 0.023778 0.023778
0.026923 0.026923 0.026923
0.077858 0.032176 0.032176
0.169558 0.039539 0.039539
0.337204 0.049028 0.049028
0.484999 0.060189 0.060189
0.609986 0.072694 0.072694
0.701404 0.086257 0.086087
0.762298 0.112489 0.100057
0.809005 0.165207 0.15079
0.851416 0.221519 0.210041
0.891516 0.275118 0.266149
0.927147 0.321394 0.31284
0.954227 0.353846 0.346227
0 0.111507 0.077714
0 0.112015 0.077207
0.005427 0.11309 0.074201
0.043558 0.11467 0.068791
0.093217 0.121896 0.064021
0.194551 0.147306 0.056457
0.360818 0.159709 0.0638
0.503204 0.164587 0.074022
0.626382 0.170942 0.085468
0.720927 0.187303 0.097843
0.785275 0.215872 0.12954
0.832477 0.254343 0.187838
0.873452 0.297475 0.243779
0.910881 0.339039 0.29346
0.944141 0.376054 0.336818
0.968144 0.402228 0.367535
0.012428 0.236272 0.167041
0.017167 0.236839 0.167366
0.034619 0.239086 0.16732
0.064817 0.244036 0.164808
0.108006 0.254426 0.149374
0.20616 0.272893 0.091323
0.380962 0.284054 0.084646
0.525708 0.28996 0.093857
0.646882 0.293389 0.102003
0.742381 0.300206 0.12872
0.808674 0.318904 0.173398
0.856708 0.347557 0.227419
0.896602 0.379792 0.277382
0.932783 0.412426 0.324296
0.965113 0.442083 0.364919
0.968156 0.457521 0.391984
0.048522 0.373534 0.269779
0.05193 0.37417 0.269528
0.064944 0.377286 0.268177
0.089287 0.383611 0.26247
0.140984 0.395468 0.245944
0.228153 0.415182 0.196271
0.3683 0.426772 0.112677
0.539568 0.422861 0.123174
0.663479 0.417183 0.144512
0.760543 0.414727 0.173962
0.829667 0.423599 0.222471
0.880429 0.443514 0.272328
0.921527 0.468371 0.321389
0.957808 0.493526 0.364779
0.968156 0.510328 0.400571
0.968144 0.518121 0.42414
0.082896 0.510966 0.370374
0.085536 0.511622 0.369723
0.09576 0.51422 0.366766
0.129213 0.519637 0.356762
0.200735 0.529689 0.33928
0.279401 0.545283 0.306657
0.36725 0.562236 0.232219
0.523962 0.562366 0.16853
