site/assets/luts/freshluts--0000986-ocean.cube
# LUTr-Schema-Version: 2
# LUTr-ID: freshluts--0000986-ocean
# LUTr-Title: Ocean
# LUTr-Collection: Fresh LUTs
# LUTr-Collection-ID: freshluts-community
# LUTr-Source: https://freshluts.com
# LUTr-Retrieved: 2026-07-27
# LUTr-Source-File: submissions-raw/freshluts/cubes/986__Ocean.cube
# LUTr-Source-Format: CUBE
# LUTr-Source-SHA256: ac7021fd9fe30fc31434df5a5f283c0ed83f879f808f7305548a64909710fe65
# LUTr-License: CC0-1.0
# LUTr-License-URL: https://freshluts.com/termsandconditions
# LUTr-License-Basis: site-terms
# LUTr-Transform-Class: creative-look
# LUTr-Tags: creative, freshluts, community, cube, blue, high-key, rec709
# LUTr-Input-Color-Space: rec709
# LUTr-Input-Gamut: rec709
# LUTr-Input-Transfer: rec709
# LUTr-Output-Color-Space: srgb
# LUTr-Output-Gamut: rec709
# LUTr-Output-Transfer: srgb
# LUTr-Color-Space-Confidence: declared-by-source
# LUTr-Domain-Normalized: true
# LUTr-Shaper: none
# LUTr-Original-Grid: 32x32x32
# LUTr-Conversion-Grid: 32x32x32
# LUTr-Conversion-Interpolation: none
# LUTr-Conversion-Method: Metadata normalization; numeric LUT samples preserved
# LUTr-Conversion-Tool: LUTr scripts/convert-all-to-cube.mjs 2.0.0
# LUTr-Conversion-Date: 2026-07-28
# LUTr-Asset-URL: https://freshluts.com/luts/986
# LUTr-Author: ButterflyBD
# LUTr-Author-URL: https://freshluts.com/users/53416
# LUTr-Attribution: ButterflyBD via Fresh LUTs
# LUTr-Source-Labels: gamma=Rec 709; color=Blue; key=High Key; style=Colorful
# LUTr-Note: Preserve this metadata and the upstream license notices when redistributing.
# LUTr-Upstream-Comment: Created by: Adobe Photoshop Export Color Lookup Plugin
# LUTr-Upstream-Comment: LUT size
# LUTr-Upstream-Comment: data domain
# LUTr-Upstream-Comment: LUT data points
TITLE "Ocean"
LUT_3D_SIZE 32
DOMAIN_MIN 0 0 0
DOMAIN_MAX 1 1 1
0 0 0
0.02298 0 0
0.06662 0 0
0.109314 0 0
0.151062 0 0
0.192627 0 0
0.233551 0 0
0.274231 0 0
0.314819 0 0
0.354889 0 0
0.39502 0 0
0.434662 0 0
0.47171 0 0
0.511963 0 0
0.552368 0 0
0.591522 0 0
0.629425 0 0
0.66571 0 0
0.700195 0 0
0.733337 0 0
0.765259 0 0
0.796173 0 0
0.826782 0 0
0.856506 0 0
0.885712 0 0
0.914703 0 0
0.943512 0 0
0.971954 0 0
1 0 0
1 0 0
1 0 0
1 0 0
0 0.017029 0
0.02298 0.017029 0
0.06662 0.013458 0
0.109314 0.010101 0
0.151062 0.006439 0
0.192627 0.00293 0
0.233551 0 0
0.274231 0 0
0.314819 0 0
0.354889 0 0
0.39502 0 0
0.434662 0 0
0.47171 0 0
0.511963 0 0
0.552368 0 0
0.591522 0 0
0.629425 0 0
0.66571 0 0
0.700195 0 0
0.733337 0 0
0.765259 0 0
0.796173 0 0
0.826782 0 0
0.856506 0 0
0.885712 0 0
0.914703 0 0
0.943512 0 0
0.971954 0 0
1 0 0
1 0 0
1 0 0
1 0.013458 0
0 0.045197 0
0.016022 0.045197 0
0.06662 0.045197 0
0.109314 0.037781 0
0.151062 0.032928 0
0.192627 0.029633 0
0.233551 0.026215 0
0.274231 0.022888 0
0.314819 0.019562 0
0.354889 0.016083 0
0.39502 0.012695 0
0.434662 0.009155 0
0.47171 0.007141 0
0.511963 0.006012 0
0.552368 0.005066 0
0.591522 0.004364 0
0.629425 0.003601 0
0.66571 0.003052 0
0.700195 0.002563 0
0.733337 0.001923 0
0.765259 0.001617 0
0.796173 0.00119 0
0.826782 0.000641 0
0.856506 0.000336 0
0.885712 0.000031 0
0.914703 0 0
0.943512 0 0
0.971954 0 0
1 0 0
1 0 0
1 0.016113 0
1 0.032898 0
0 0.094238 0
0.009705 0.094238 0
0.060303 0.094238 0
0.109314 0.094238 0
0.151062 0.087036 0
0.192627 0.079926 0
0.233551 0.072662 0
0.274231 0.065552 0
0.314819 0.058258 0
0.354889 0.050781 0
0.39502 0.04364 0
0.434662 0.035736 0
0.47171 0.033203 0
0.511963 0.031677 0
0.552368 0.030457 0
0.591522 0.029419 0
0.629425 0.028442 0
0.66571 0.027588 0
0.700195 0.026917 0
0.733337 0.026154 0
0.765259 0.025513 0
0.796173 0.025055 0
0.826782 0.024567 0
0.856506 0.024109 0
0.885712 0.02359 0
0.914703 0.023285 0
0.943512 0.022949 0
0.971954 0.022583 0
1 0.022247 0
1 0.022003 0
1 0.03894 0
1 0.072479 0
0 0.141205 0
0.006195 0.141205 0
0.05365 0.141205 0
0.102905 0.141205 0
0.151062 0.141205 0
0.192627 0.134399 0
0.233551 0.12738 0
0.274231 0.120605 0
0.314819 0.113617 0
0.354889 0.106476 0
0.39502 0.09964 0
0.434662 0.092438 0
0.47171 0.086761 0
0.511963 0.082764 0
0.552368 0.079102 0
0.591522 0.075928 0
0.629425 0.073242 0
0.66571 0.070892 0
0.700195 0.068573 0
0.733337 0.066467 0
0.765259 0.064911 0
0.796173 0.063171 0
0.826782 0.062103 0
0.856506 0.060455 0
0.885712 0.059479 0
0.914703 0.058258 0
0.943512 0.057159 0
0.971954 0.056335 0
1 0.055511 0
1 0.054504 0
1 0.083527 0
1 0.113861 0
0 0.187256 0
0.002808 0.187256 0
0.047394 0.187256 0
0.096802 0.187256 0
0.14502 0.187256 0
0.192627 0.187256 0
0.233551 0.18045 0
0.274231 0.173798 0
0.314819 0.167114 0
0.354889 0.160187 0
0.39502 0.153503 0
0.434662 0.146515 0
0.47171 0.140442 0
0.511963 0.135193 0
0.552368 0.131073 0
0.591522 0.127075 0
0.629425 0.123901 0
0.66571 0.121002 0
0.700195 0.118408 0
0.733337 0.116028 0
0.765259 0.114075 0
0.796173 0.112061 0
0.826782 0.11026 0
0.856506 0.108765 0
0.885712 0.107178 0
0.914703 0.105988 0
0.943512 0.104858 0
0.971954 0.103424 0
1 0.102509 0
1 0.101379 0
1 0.126984 0
1 0.153595 0
0 0.231537 0
0 0.231537 0
0.04071 0.231537 0
0.090363 0.231537 0
0.138672 0.231537 0
0.18634 0.231537 0
0.233551 0.231537 0
0.274231 0.225128 0
0.314819 0.218781 0
0.354889 0.212128 0
0.39502 0.205475 0
0.434662 0.198822 0
0.47171 0.192322 0
0.511963 0.186401 0
0.552368 0.181366 0
0.591522 0.176849 0
0.629425 0.173187 0
0.66571 0.169586 0
0.700195 0.166565 0
0.733337 0.163788 0
0.765259 0.161713 0
0.796173 0.159332 0
0.826782 0.157288 0
0.856506 0.155273 0
0.885712 0.153839 0
0.914703 0.152161 0
0.943512 0.150757 0
0.971954 0.149323 0
1 0.148376 0
1 0.146881 0
1 0.168915 0
1 0.192352 0
0 0.274048 0
0 0.274048 0
0.034363 0.274048 0
0.084198 0.274048 0
0.13269 0.274048 0
0.18042 0.274048 0
0.227448 0.274048 0
0.274231 0.274048 0
0.314819 0.268036 0
0.354889 0.261658 0
0.39502 0.255524 0
0.434662 0.248962 0
0.47171 0.242188 0
0.511963 0.235718 0
0.552368 0.230011 0
0.591522 0.225037 0
0.629425 0.220703 0
0.66571 0.21698 0
0.700195 0.213715 0
0.733337 0.210571 0
0.765259 0.207916 0
0.796173 0.205261 0
0.826782 0.203064 0
0.856506 0.200989 0
0.885712 0.198944 0
0.914703 0.197327 0
0.943512 0.195648 0
0.971954 0.194 0
1 0.192657 0
1 0.191406 0
1 0.209961 0
1 0.230042 0
0 0.315338 0
0 0.315338 0
0.027832 0.315338 0
0.07785 0.315338 0
0.126434 0.315338 0
0.174347 0.315338 0
0.221619 0.315338 0
0.268433 0.315338 0
0.314819 0.315338 0
0.354889 0.309143 0
0.39502 0.303253 0
0.434662 0.297028 0
0.47171 0.289642 0
0.511963 0.282593 0
0.552368 0.276489 0
0.591522 0.271179 0
0.629425 0.266388 0
0.66571 0.262054 0
0.700195 0.258484 0
0.733337 0.255402 0
0.765259 0.251892 0
0.796173 0.249207 0
0.826782 0.246735 0
0.856506 0.244873 0
0.885712 0.242523 0
0.914703 0.240692 0
0.943512 0.238708 0
0.971954 0.237366 0
1 0.235535 0
1 0.234161 0
1 0.24939 0
1 0.266388 0
0 0.356262 0
0 0.356262 0
0.021118 0.356262 0
0.071381 0.356262 0
0.120239 0.356262 0
0.168121 0.356262 0
0.215332 0.356262 0
0.262207 0.356262 0
0.308685 0.356262 0
0.354889 0.356262 0
0.39502 0.350006 0
0.434662 0.34375 0
0.47171 0.335968 0
0.511963 0.328156 0
0.552368 0.321228 0
0.591522 0.315399 0
0.629425 0.310364 0
0.66571 0.305664 0
0.700195 0.301636 0
0.733337 0.298065 0
0.765259 0.294647 0
0.796173 0.291656 0
0.826782 0.289124 0
0.856506 0.286591 0
0.885712 0.284302 0
0.914703 0.281982 0
0.943512 0.280426 0
0.971954 0.278473 0
1 0.276886 0
1 0.275146 0
1 0.287567 0
1 0.301575 0
0 0.399353 0
0 0.399353 0
0.014496 0.399353 0
0.065155 0.399353 0
0.114075 0.399353 0
0.162018 0.399353 0
0.20932 0.399353 0
0.256317 0.399353 0
0.302917 0.399353 0
0.348999 0.399353 0
0.39502 0.399353 0
0.434662 0.392944 0
0.47171 0.384003 0
0.511963 0.374664 0
0.552368 0.36676 0
0.591522 0.360046 0
0.629425 0.353821 0
0.66571 0.348358 0
0.700195 0.343781 0
0.733337 0.340118 0
0.765259 0.336304 0
0.796173 0.333038 0
0.826782 0.330261 0
0.856506 0.327545 0
0.885712 0.325165 0
0.914703 0.322693 0
0.943512 0.320465 0
0.971954 0.318604 0
1 0.316711 0
1 0.315125 0
1 0.324585 0
1 0.336243 0
0 0.442932 0
0 0.442932 0
0.00882 0.442932 0
0.058624 0.442932 0
0.107758 0.442932 0
0.155792 0.442932 0
0.203125 0.442932 0
0.250092 0.442932 0
0.296753 0.442932 0
0.342957 0.442932 0
0.388947 0.442932 0
0.434662 0.442932 0
0.47171 0.432648 0
0.511963 0.422394 0
0.552368 0.413422 0
0.591522 0.405945 0
0.629425 0.399475 0
0.66571 0.393646 0
0.700195 0.388428 0
0.733337 0.383789 0
0.765259 0.379547 0
0.796173 0.375977 0
0.826782 0.372314 0
0.856506 0.369232 0
0.885712 0.366272 0
0.914703 0.363617 0
0.943512 0.361206 0
0.971954 0.358948 0
1 0.35672 0
1 0.355103 0
1 0.362701 0
1 0.372192 0
0 0.487396 0
0 0.487396 0
0.006866 0.487396 0
0.054321 0.487396 0
0.102722 0.487396 0
0.150299 0.487396 0
0.197235 0.487396 0
0.243622 0.487396 0
0.289459 0.487396 0
0.335236 0.487396 0
0.380707 0.487396 0
0.425934 0.487396 0
0.47171 0.487396 0
0.511963 0.474548 0
0.552368 0.463562 0
0.591522 0.454285 0
0.629425 0.446106 0
0.66571 0.439117 0
0.700195 0.432892 0
0.733337 0.427795 0
0.765259 0.423248 0
0.796173 0.418915 0
0.826782 0.415314 0
0.856506 0.412018 0
0.885712 0.408813 0
0.914703 0.405823 0
0.943512 0.403046 0
0.971954 0.400665 0
1 0.398254 0
1 0.396515 0
1 0.401459 0
1 0.408997 0
0 0.530182 0
0 0.530182 0
0.005798 0.530182 0
0.051239 0.530182 0
0.099243 0.530182 0
0.14566 0.530182 0
0.191895 0.530182 0
0.237396 0.530182 0
0.282562 0.530182 0
0.327515 0.530182 0
0.371979 0.530182 0
0.416504 0.530182 0
0.46048 0.530182 0
0.511963 0.530182 0
0.552368 0.518341 0
0.591522 0.507782 0
0.629425 0.498566 0
0.66571 0.490387 0
0.700195 0.483337 0
0.733337 0.476837 0
0.765259 0.47113 0
0.796173 0.465851 0
0.826782 0.461487 0
0.856506 0.457062 0
0.885712 0.453186 0
0.914703 0.449951 0
0.943512 0.446716 0
0.971954 0.443787 0
1 0.441071 0
1 0.438477 0
1 0.441284 0
1 0.446838 0
0 0.572296 0
0 0.572296 0
0.004883 0.572296 0
0.04895 0.572296 0
0.096039 0.572296 0
0.14209 0.572296 0
0.187195 0.572296 0
0.232117 0.572296 0
0.27655 0.572296 0
0.320679 0.572296 0
0.364685 0.572296 0
0.408112 0.572296 0
0.451691 0.572296 0
0.500671 0.572296 0
0.552368 0.572296 0
0.591522 0.56131 0
0.629425 0.551849 0
0.66571 0.543182 0
0.700195 0.535309 0
0.733337 0.528625 0
0.765259 0.522369 0
0.796173 0.516815 0
0.826782 0.511383 0
0.856506 0.506958 0
0.885712 0.50238 0
0.914703 0.498657 0
0.943512 0.494843 0
0.971954 0.491699 0
1 0.488617 0
1 0.485504 0
1 0.485535 0
1 0.488678 0
0 0.611115 0
0 0.611115 0
0.004211 0.611115 0
0.046967 0.611115 0
0.093292 0.611115 0
0.138397 0.611115 0
0.183197 0.611115 0
0.227356 0.611115 0
0.271454 0.611115 0
0.314911 0.611115 0
0.358307 0.611115 0
0.401123 0.611115 0
0.444061 0.611115 0
0.490753 0.611115 0
0.541779 0.611115 0
0.591522 0.611115 0
0.629425 0.601685 0
0.66571 0.593353 0
0.700195 0.585571 0
0.733337 0.578888 0
0.765259 0.572632 0
0.796173 0.567017 0
0.826782 0.561646 0
0.856506 0.556519 0
0.885712 0.552246 0
0.914703 0.548187 0
0.943512 0.544189 0
0.971954 0.540588 0
1 0.537262 0
1 0.534485 0
1 0.531403 0
1 0.531433 0
0 0.645752 0
0 0.645752 0
0.003479 0.645752 0
0.045074 0.645752 0
0.090912 0.645752 0
0.135559 0.645752 0
0.179901 0.645752 0
0.223389 0.645752 0
0.266846 0.645752 0
0.309875 0.645752 0
0.35257 0.645752 0
0.395142 0.645752 0
0.437286 0.645752 0
0.482208 0.645752 0
0.532532 0.645752 0
0.581909 0.645752 0
0.629425 0.645752 0
0.66571 0.638062 0
0.700195 0.631134 0
0.733337 0.624481 0
0.765259 0.618713 0
0.796173 0.613251 0
0.826782 0.608154 0
0.856506 0.603302 0
0.885712 0.598999 0
0.914703 0.594971 0
0.943512 0.591156 0
0.971954 0.587524 0
1 0.584534 0
1 0.58139 0
1 0.575928 0
1 0.572998 0
0 0.676605 0
0 0.676605 0
0.00293 0.676605 0
0.043427 0.676605 0
0.088806 0.676605 0
0.133057 0.676605 0
0.176483 0.676605 0
0.219879 0.676605 0
0.262604 0.676605 0
0.305328 0.676605 0
0.347473 0.676605 0
0.389771 0.676605 0
0.431488 0.676605 0
0.474426 0.676605 0
0.524353 0.676605 0
0.573334 0.676605 0
0.620758 0.676605 0
0.66571 0.676605 0
0.700195 0.670074 0
0.733337 0.664032 0
0.765259 0.658752 0
0.796173 0.653534 0
0.826782 0.648895 0
0.856506 0.644714 0
0.885712 0.640656 0
0.914703 0.636841 0
0.943512 0.633423 0
0.971954 0.630096 0
1 0.627045 0
1 0.624115 0
1 0.616608 0
1 0.611694 0
0 0.705383 0
0 0.705383 0
0.002472 0.705383 0
0.042145 0.705383 0
0.086792 0.705383 0
0.130768 0.705383 0
0.173798 0.705383 0
0.216919 0.705383 0
0.259155 0.705383 0
0.301239 0.705383 0
0.342987 0.705383 0
0.384796 0.705383 0
0.426178 0.705383 0
0.467896 0.705383 0
0.516754 0.705383 0
0.565552 0.705383 0
0.613068 0.705383 0
0.657806 0.705383 0
0.700195 0.705383 0
0.733337 0.699524 0
0.765259 0.694305 0
0.796173 0.68924 0
0.826782 0.684753 0
0.856506 0.680725 0
0.885712 0.67688 0
0.914703 0.67334 0
0.943512 0.670197 0
0.971954 0.667084 0
1 0.664062 0
1 0.661407 0
1 0.652924 0
1 0.646301 0
0 0.733856 0
0 0.733856 0
0.001862 0.733856 0
0.040558 0.733856 0
0.085022 0.733856 0
0.128632 0.733856 0
0.171356 0.733856 0
0.213898 0.733856 0
0.256195 0.733856 0
0.29776 0.733856 0
0.339264 0.733856 0
0.380493 0.733856 0
0.42157 0.733856 0
0.462311 0.733856 0
0.510529 0.733856 0
0.55896 0.733856 0
0.605804 0.733856 0
0.650787 0.733856 0
0.693268 0.733856 0
0.733337 0.733856 0
0.765259 0.728088 0
0.796173 0.723145 0
0.826782 0.718445 0
0.856506 0.714417 0
0.885712 0.710541 0
0.914703 0.706879 0
0.943512 0.70343 0
0.971954 0.700531 0
1 0.697479 0
1 0.695068 0
1 0.684906 0
1 0.677032 0
0 0.765167 0
0 0.765167 0
0.001556 0.765167 0
0.039398 0.765167 0
0.08371 0.765167 0
0.126831 0.765167 0
0.169464 0.765167 0
0.211517 0.765167 0
0.252899 0.765167 0
0.294403 0.765167 0
0.335571 0.765167 0
0.376495 0.765167 0
0.417358 0.765167 0
0.457764 0.765167 0
0.504486 0.765167 0
0.552765 0.765167 0
0.59967 0.765167 0
0.64447 0.765167 0
0.68692 0.765167 0
0.726746 0.765167 0
0.765259 0.765167 0
0.796173 0.758698 0
0.826782 0.752777 0
0.856506 0.748169 0
0.885712 0.743774 0
0.914703 0.73996 0
0.943512 0.73645 0
0.971954 0.733215 0
1 0.730133 0
1 0.727356 0
1 0.715515 0
1 0.705994 0
0 0.800293 0
0 0.800293 0
0.001129 0.800293 0
0.038452 0.800293 0
0.082184 0.800293 0
0.125061 0.800293 0
0.167358 0.800293 0
0.209106 0.800293 0
0.250305 0.800293 0
0.291504 0.800293 0
0.332367 0.800293 0
0.373169 0.800293 0
0.413177 0.800293 0
0.453552 0.800293 0
0.499268 0.800293 0
0.54715 0.800293 0
0.593811 0.800293 0
0.638458 0.800293 0
0.680878 0.800293 0
0.721069 0.800293 0
0.759369 0.800293 0
0.796173 0.800293 0
0.826782 0.794159 0
0.856506 0.788422 0
0.885712 0.783051 0
0.914703 0.77829 0
0.943512 0.773743 0
0.971954 0.769531 0
1 0.765533 0
1 0.762024 0
1 0.746155 0
1 0.73468 0
0 0.835602 0
0 0.835602 0
0.00061 0.835602 0
0.037537 0.835602 0
0.081177 0.835602 0
0.123474 0.835602 0
0.165436 0.835602 0
0.207031 0.835602 0
0.247925 0.835602 0
0.28891 0.835602 0
0.329651 0.835602 0
0.369751 0.835602 0
0.409882 0.835602 0
0.44989 0.835602 0
0.494232 0.835602 0
0.541992 0.835602 0
0.588531 0.835602 0
0.632996 0.835602 0
0.675415 0.835602 0
0.715729 0.835602 0
0.753967 0.835602 0
0.790863 0.835602 0
0.826782 0.835602 0
0.856506 0.829437 0
0.885712 0.823975 0
0.914703 0.818787 0
0.943512 0.814178 0
0.971954 0.809845 0
1 0.805847 0
1 0.80188 0
1 0.782379 0
1 0.766174 0
0 0.870544 0
0 0.870544 0
0.000336 0.870544 0
0.036621 0.870544 0
0.079803 0.870544 0
0.122131 0.870544 0
0.163605 0.870544 0
0.2052 0.870544 0
0.246094 0.870544 0
0.286499 0.870544 0
0.326874 0.870544 0
0.366913 0.870544 0
0.40683 0.870544 0
0.446381 0.870544 0
0.489929 0.870544 0
0.537048 0.870544 0
0.583557 0.870544 0
0.628235 0.870544 0
0.670654 0.870544 0
0.710876 0.870544 0
0.748962 0.870544 0
0.785797 0.870544 0
0.821503 0.870544 0
0.856506 0.870544 0
0.885712 0.864532 0
0.914703 0.859253 0
0.943512 0.854309 0
0.971954 0.849762 0
1 0.845947 0
1 0.841858 0
1 0.819763 0
1 0.80127 0
0 0.905365 0
0 0.905365 0
0.000031 0.905365 0
0.035645 0.905365 0
0.078888 0.905365 0
0.120758 0.905365 0
0.162354 0.905365 0
0.203247 0.905365 0
0.243958 0.905365 0
0.28421 0.905365 0
0.324493 0.905365 0
0.364075 0.905365 0
0.40387 0.905365 0
0.443207 0.905365 0
0.485718 0.905365 0
0.532928 0.905365 0
0.579102 0.905365 0
0.623718 0.905365 0
0.666016 0.905365 0
0.70639 0.905365 0
0.744324 0.905365 0
0.781097 0.905365 0
0.816803 0.905365 0
0.851379 0.905365 0
0.885712 0.905365 0
0.914703 0.899841 0
0.943512 0.894745 0
0.971954 0.890106 0
1 0.885651 0
1 0.881561 0
1 0.857147 0
1 0.836182 0
0 0.940155 0
0 0.940155 0
0 0.940155 0
0.035095 0.940155 0
0.07785 0.940155 0
0.11972 0.940155 0
0.160858 0.940155 0
0.201782 0.940155 0
0.242218 0.940155 0
0.282013 0.940155 0
0.322083 0.940155 0
0.361633 0.940155 0
0.401001 0.940155 0
0.440582 0.940155 0
0.4823 0.940155 0
0.529053 0.940155 0
0.574951 0.940155 0
0.619324 0.940155 0
0.661743 0.940155 0
0.702026 0.940155 0
0.740204 0.940155 0
0.776886 0.940155 0
0.812317 0.940155 0
0.846985 0.940155 0
0.881104 0.940155 0
0.914703 0.940155 0
0.943512 0.935059 0
0.971954 0.930054 0
1 0.925323 0
1 0.921112 0
1 0.894257 0
1 0.871124 0
0 0.967133 0
0 0.967133 0
0 0.967133 0
0.034485 0.967133 0
0.076843 0.967133 0
0.118805 0.967133 0
0.159637 0.967133 0
0.200256 0.967133 0
0.240234 0.967133 0
0.280518 0.967133 0
0.319977 0.967133 0
0.359436 0.967133 0
0.398468 0.967133 0
0.437775 0.967133 0
0.47876 0.967133 0
0.525238 0.967133 0
0.571136 0.967133 0
0.615631 0.967133 0
0.657959 0.967133 0
0.697876 0.967133 0
0.736176 0.967133 0
0.772766 0.967133 0
0.808258 0.967133 0
0.842834 0.967133 0
0.876923 0.967133 0
0.910492 0.967133 0
0.943512 0.967133 0
0.971954 0.964691 0
1 0.962402 0
1 0.960266 0
1 0.93161 0
1 0.905975 0
0 0.983704 0
0 0.983704 0
0 0.983704 0
0.033783 0.983704 0
0.076202 0.983704 0
0.117523 0.983704 0
0.158356 0.983704 0
0.19873 0.983704 0
0.238983 0.983704 0
0.278595 0.983704 0
0.318054 0.983704 0
0.35733 0.983704 0
0.39621 0.983704 0
0.435303 0.983704 0
0.475708 0.983704 0
0.521667 0.983704 0
0.567596 0.983704 0
0.611938 0.983704 0
0.654388 0.983704 0
0.694427 0.983704 0
0.732544 0.983704 0
0.769104 0.983704 0
0.804565 0.983704 0
0.838898 0.983704 0
0.872955 0.983704 0
0.906342 0.983704 0
0.939209 0.983704 0
0.971954 0.983704 0
1 0.981384 0
1 0.979218 0
1 0.964294 0
1 0.940948 0
0 1 0
0 1 0
0 1 0
0.033142 1 0
