site/assets/luts/freshluts--0001550-chemical-hot.cube
# LUTr-Schema-Version: 2
# LUTr-ID: freshluts--0001550-chemical-hot
# LUTr-Title: Chemical Hot
# LUTr-Collection: Fresh LUTs
# LUTr-Collection-ID: freshluts-community
# LUTr-Source: https://freshluts.com
# LUTr-Retrieved: 2026-07-27
# LUTr-Source-File: submissions-raw/freshluts/cubes/1550__Chemical_Hot.cube
# LUTr-Source-Format: CUBE
# LUTr-Source-SHA256: 7172a9fc4de689098f7df6465e6401bb71a1b0296f3dd9a0c8128208040fd8e0
# LUTr-License: CC0-1.0
# LUTr-License-URL: https://freshluts.com/termsandconditions
# LUTr-License-Basis: site-terms
# LUTr-Transform-Class: creative-look
# LUTr-Tags: creative, freshluts, community, cube, film-emulation, warm, rec709
# LUTr-Input-Color-Space: rec709
# LUTr-Input-Gamut: rec709
# LUTr-Input-Transfer: rec709
# LUTr-Output-Color-Space: srgb
# LUTr-Output-Gamut: rec709
# LUTr-Output-Transfer: srgb
# LUTr-Color-Space-Confidence: declared-by-source
# LUTr-Domain-Normalized: true
# LUTr-Shaper: none
# LUTr-Original-Grid: 33x33x33
# LUTr-Conversion-Grid: 33x33x33
# LUTr-Conversion-Interpolation: none
# LUTr-Conversion-Method: Metadata normalization; numeric LUT samples preserved
# LUTr-Conversion-Tool: LUTr scripts/convert-all-to-cube.mjs 2.0.0
# LUTr-Conversion-Date: 2026-07-28
# LUTr-Asset-URL: https://freshluts.com/luts/1550
# LUTr-Author: Suchithya
# LUTr-Author-URL: https://freshluts.com/users/192577
# LUTr-Attribution: Suchithya via Fresh LUTs
# LUTr-Source-Labels: gamma=Rec 709; color=Warm; key=Neutral; style=Film emulation
# LUTr-Note: Preserve this metadata and the upstream license notices when redistributing.
TITLE "Chemical Hot"
LUT_3D_SIZE 33
DOMAIN_MIN 0 0 0
DOMAIN_MAX 1 1 1
0.15312654 0.065854445 0.063987218
0.17826366 0.062948138 0.060626827
0.20526618 0.057073276 0.05768289
0.23458189 0.052828897 0.051498022
0.27433544 0.044505488 0.044620164
0.31055409 0.037532881 0.038241249
0.34801537 0.030148406 0.029979138
0.38576019 0.020966262 0.020497249
0.42480707 0.012250284 0.011390372
0.46581787 0.004504821 0.002702893
0.50779509 0 0
0.55282974 0 0
0.60420984 0 0
0.64367747 0 0
0.68163955 0 0
0.72452951 0 0
0.76592624 0 0
0.8017143 0 0
0.8359859 0 0
0.88302684 0 0
0.92636734 0 0
0.96847635 0 0
0.99860084 0 0
0.99860084 0 0
0.99860084 0 0
0.99860084 0 0
0.99860084 0 0
0.99860084 0 0
0.99860084 0 0
0.99860084 0 0
0.99860084 0 0
0.99860084 0 0
0.99860084 0 0
0.14442998 0.076603703 0.0629889
0.17164016 0.0726486 0.059346661
0.20127332 0.067877561 0.056096189
0.23203111 0.064097174 0.049800768
0.26713461 0.058070213 0.042229898
0.30445242 0.051167045 0.035724986
0.33994114 0.04338564 0.027058031
0.37717992 0.035130244 0.018489569
0.41632014 0.025674583 0.008870163
0.456985 0.013142332 0.003798485
0.49671507 0.005061169 0
0.53917396 0 0
0.5909574 0 0
0.63145852 0 0
0.66778201 0 0
0.70965445 0 0
0.74749273 0 0
0.78398955 0 0
0.8152259 0 0
0.86175895 0 0
0.89614272 0 0
0.94641465 0 0
0.97323227 0 0
0.97323227 0 0
0.99860084 0 0
0.99860084 0 0
0.99860084 0 0
0.99860084 0 0
0.99860084 0 0
0.99860084 0 0
0.99860084 0 0
0.99860084 0 0
0.99860084 0 0
0.13328636 0.091719031 0.062848546
0.16452795 0.087841816 0.058995567
0.19661069 0.084005542 0.053347655
0.22541964 0.080214046 0.046544738
0.25749946 0.074451484 0.040723041
0.29494387 0.068252459 0.033133842
0.33181572 0.061172333 0.02518728
0.36886746 0.054428056 0.016677778
0.40535319 0.045024171 0.007230192
0.44505608 0.034900684 0.002782388
0.48555988 0.023717441 0
0.5279094 0.007846855 0
0.57759726 0.001051341 0
0.6170584 0.000051999 0
0.65376794 0.000051999 0
0.69025719 0 0
0.72872579 0 0
0.76184535 0 0
0.79387808 0 0
0.82850701 0 0
0.86372429 0 0
0.90348303 0 0
0.93800992 0 0
0.97323227 0 0
0.99860084 0 0
0.99860084 0 0
0.99860084 0 0
0.99860084 0 0
0.99860084 0 0
0.99860084 0 0
0.99860084 0 0
0.99860084 0 0
0.99860084 0 0
0.12900066 0.11630406 0.055987503
0.16145462 0.11512127 0.054946981
0.19172841 0.11003634 0.051351357
0.22142834 0.10593153 0.045112424
0.25283819 0.10201606 0.037022125
0.28906375 0.097869091 0.028668012
0.3269285 0.094593845 0.021307603
0.36407661 0.088126831 0.012492098
0.40047497 0.081084006 0.005491002
0.43829376 0.075309046 0.001151092
0.47995442 0.066143945 0
0.52244949 0.051365618 0
0.56863147 0.035440966 0
0.60860306 0.022112176 0
0.64569539 0.015627034 0
0.68162429 0.005009566 0
0.71604091 0.003954585 0
0.74954867 0.002247126 0
0.78000259 0 0
0.8152259 0 0
0.84581798 0 0
0.88680846 0 0
0.91427213 0 0
0.95451438 0 0
0.97890115 0 0
0.97890115 0 0
0.99860084 0 0
0.99860084 0 0
0.99860084 0 0
0.99860084 0 0
0.99860084 0 0
0.99860084 0 0
0.99860084 0 0
0.12536359 0.14412662 0.050806638
0.1583631 0.14197902 0.047384094
0.18771988 0.13722153 0.044914648
0.21712041 0.13517857 0.040170547
0.24817658 0.13308519 0.0336583
0.28407085 0.12986481 0.02640323
0.31975389 0.12670162 0.016569423
0.35919851 0.12267531 0.009883328
0.39577115 0.11585844 0.003820719
0.43253881 0.11015527 0
0.47433054 0.10365921 0
0.51513946 0.09475518 0
0.55961919 0.084688358 0
0.59980446 0.074594453 0
0.63757372 0.059217706 0
0.66976261 0.047313113 0
0.70321703 0.036047887 0
0.73501492 0.025727887 0
0.76591045 0.014131655 0
0.79780161 0.012896231 0
0.82850701 0.003748037 0
0.85781008 0 0
0.88680846 0 0
0.92305076 0 0
0.95184994 0 0
0.97890115 0 0
0.99860084 0 0
0.99860084 0 0
0.99860084 0 0
0.99860084 0 0
0.99860084 0 0
0.99860084 0 0
0.99860084 0 0
0.11942464 0.17796126 0.041677002
0.15340859 0.17295916 0.038625017
0.18311429 0.17159745 0.035457015
0.21181923 0.16780344 0.032184951
0.24373072 0.16392049 0.02594956
0.28207362 0.16102874 0.017193824
0.31539595 0.15930896 0.011094213
0.35468972 0.15495029 0.004835601
0.39261973 0.14886495 0.001588851
0.42869252 0.14334303 0
0.46868849 0.13946208 0
0.5096345 0.13343701 0
0.55282974 0.12548006 0
0.59317362 0.11774158 0
0.62940347 0.10716789 0
0.66179049 0.098372594 0
0.694592 0.086772323 0
0.72662139 0.075771697 0
0.75571585 0.066364616 0
0.78795862 0.052093349 0
0.8152259 0.039050929 0
0.84379858 0.028767115 0
0.87152255 0.026630621 0
0.90891141 0.00986633 0
0.93370038 0.000006999 0
0.96354181 0.000006999 0
0.98107481 0.000003876 0
0.98107481 0.000003876 0
0.99860084 2.87e-7 0
0.99860084 2.87e-7 0
0.99860084 2.87e-7 0
0.99860084 2.87e-7 0
0.99860084 2.87e-7 0
0.11393076 0.21751155 0.025442686
0.14535838 0.21617286 0.022373997
0.17539525 0.21256009 0.019386154
0.20739371 0.21107106 0.015959056
0.23979539 0.20734245 0.011692841
0.27514702 0.20411582 0.006137026
0.31155664 0.19959022 0.000687891
0.34892684 0.19726367 0
0.38696784 0.19360627 0
0.4226886 0.18991502 0
0.46013355 0.18307105 0
0.50190061 0.17780994 0
0.5455535 0.17318194 0
0.58195907 0.16601397 0
0.61778712 0.15735146 0
0.65217984 0.15012075 0
0.68590748 0.14312558 0
0.71604091 0.13458046 0
0.74541664 0.12675202 0
0.77398932 0.11644221 0
0.80170667 0.10620426 0
0.82850701 0.098285981 0
0.85582644 0.082558438 0
0.88492101 0.066952422 0
0.91249287 0.058064975 0
0.93658107 0.050312512 0
0.95714206 0.046691835 0
0.98107481 0.035932221 0
0.99860084 0.025787946 0
0.99860084 0.025787946 0
0.99860084 0.025787946 0
0.99860084 0.023827787 0
0.99860084 0.021866556 0
0.10466862 0.25537565 0.010903049
0.13898438 0.25391144 0.008311229
0.17004192 0.25098035 0.006196789
0.20354944 0.24783987 0.003325657
0.23513949 0.24539927 0.001899435
0.27234876 0.24274154 0
0.30893421 0.23824573 0
0.34648287 0.23448253 0
0.38354987 0.23108825 0
0.41861612 0.22896653 0
0.45444113 0.2249397 0
0.49598789 0.21916209 0
0.53897512 0.2127392 0
0.57547396 0.20746963 0
0.61343086 0.2028197 0
0.64792585 0.19574706 0
0.68158382 0.18748151 0
0.71124715 0.18095499 0
0.73757935 0.17436114 0
0.76539677 0.1688427 0
0.79367346 0.16133232 0
0.82202625 0.15400132 0
0.84581798 0.14669494 0
0.8753835 0.13728774 0
0.89982724 0.12991528 0
0.92636734 0.12235936 0
0.94364578 0.10997497 0
0.96968263 0.095163353 0
0.98624569 0.089929514 0
0.98624569 0.089929514 0
0.99860084 0.082900897 0
0.99860084 0.079772763 0
0.99860084 0.079772763 0
0.09465915 0.30056885 0
0.13090521 0.29682743 0
0.16483188 0.2930809 0
0.1970439 0.29120565 0
0.22873694 0.2887238 0
0.26666331 0.28452531 0
0.30350065 0.2825017 0
0.34134299 0.2778933 0
0.37867957 0.27364439 0
0.41016781 0.26900473 0
0.44773215 0.2665506 0
0.48895669 0.26211837 0
0.52944624 0.25496072 0
0.56919849 0.25121537 0
0.60906237 0.24739051 0
0.64365888 0.24001324 0
0.67742384 0.23296368 0
0.70421326 0.22664393 0
0.73039407 0.22038382 0
0.75797677 0.21563172 0
0.78747225 0.20825864 0
0.81201351 0.20325383 0
0.83582443 0.1989363 0
0.86175919 0.19246334 0
0.88680846 0.18585657 0
0.90891141 0.17978418 0
0.9293226 0.17350398 0
0.95050418 0.16681071 0
0.96968269 0.1607504 0
0.98624569 0.15427084 0
0.99860084 0.14931789 0
0.99860084 0.14931789 0
0.99860084 0.14931789 0
0.078294694 0.34729508 0
0.1205982 0.34276795 0
0.15562254 0.33596399 0
0.19017917 0.33369252 0
0.2253288 0.33141929 0
0.26328045 0.32914433 0
0.29884249 0.32208157 0
0.33657831 0.31878522 0
0.37277359 0.31417003 0
0.40679294 0.30955365 0
0.44281209 0.30575585 0
0.48235643 0.30041009 0
0.52336478 0.29788458 0
0.5624612 0.29386923 0
0.60028827 0.2878806 0
0.63508594 0.28019986 0
0.66945559 0.27810553 0
0.69607949 0.27154946 0
0.72480416 0.26425111 0
0.75384158 0.25918663 0
0.78122819 0.252238 0
0.80594486 0.24771889 0
0.82994288 0.24326667 0
0.85582644 0.23719525 0
0.87921834 0.22860154 0
0.90165877 0.22234896 0
0.92122912 0.21676561 0
0.94337386 0.21256347 0
0.95831472 0.20698312 0
0.97667247 0.20069617 0
0.99187094 0.1974965 0
0.99187094 0.1974965 0
0.99860084 0.19375567 0
0.055829942 0.40147218 0
0.10392201 0.3931427 0
0.14358372 0.38547975 0
0.18088734 0.38324869 0
0.21661562 0.38101569 0
0.25554359 0.37654397 0
0.29131925 0.3710539 0
0.3277995 0.36610436 0
0.36698717 0.35880545 0
0.40121102 0.35519907 0
0.43641323 0.35117832 0
0.47427386 0.34649044 0
0.51575452 0.34409401 0
0.55179197 0.3395794 0
0.58996129 0.33381829 0
0.6260249 0.33186266 0
0.66094065 0.32995531 0
0.69067037 0.32272187 0
0.72059154 0.31463271 0
0.74768698 0.30681825 0
0.77494204 0.29906604 0
0.79983121 0.29413632 0
0.82401329 0.28927201 0
0.84763873 0.28211141 0
0.87053824 0.27510712 0
0.89063805 0.27077845 0
0.90993196 0.26652476 0
0.92778063 0.26179609 0
0.9435944 0.25611842 0
0.96424276 0.25302115 0
0.98230541 0.25031176 0
0.9914431 0.2463628 0
0.99852723 0.24272002 0
0.020837903 0.45640492 0
0.084236562 0.44823387 0
0.12806827 0.43925095 0
0.17013937 0.4356496 0
0.20958769 0.42702988 0
0.24878156 0.42180574 0
0.28493309 0.41657159 0
0.32407767 0.40985429 0
0.3618167 0.4030911 0
0.39620852 0.40032211 0
0.43173039 0.39327574 0
0.46990222 0.38807851 0
0.50947982 0.38529956 0
0.54488027 0.38169834 0
0.58314717 0.37697345 0
0.62037623 0.37501231 0
0.65461445 0.37070253 0
0.68416256 0.36385381 0
0.71424323 0.36084574 0
0.74149501 0.35308993 0
0.77283722 0.34751317 0
0.7968455 0.34355456 0
0.81831694 0.33716679 0
0.8412407 0.33049962 0
0.86427593 0.32298675 0
0.88476759 0.31839657 0
0.90318775 0.3113631 0
0.92249185 0.30687097 0
0.93773037 0.30190039 0
0.95895964 0.29871601 0
0.97425085 0.29373541 0
0.98446685 0.28981718 0
0.99721146 0.28854272 0
0.012765646 0.51673347 0
0.060922027 0.50754338 0
0.10221344 0.49620214 0
0.15786129 0.48611772 0
0.20052785 0.47642738 0
0.24051642 0.46994927 0
0.27995408 0.46345708 0
0.3172605 0.45791659 0
0.35515511 0.45248336 0
0.38984632 0.44703877 0
0.42557997 0.44020969 0
0.46359026 0.43495277 0
0.50323176 0.43219471 0
0.53799272 0.42887646 0
0.57635653 0.4241243 0
0.61168647 0.41952923 0
0.64621645 0.41497347 0
0.67562038 0.41342589 0
0.70581818 0.41044256 0
0.73751843 0.40557048 0
0.76830077 0.40114981 0
0.79042917 0.39427206 0
0.81211233 0.38741127 0
0.83582062 0.38045269 0
0.8598026 0.372455 0
0.87910509 0.36487219 0
0.89773703 0.35733986 0
0.91564131 0.35285488 0
0.93173093 0.34848052 0
0.94931555 0.34393325 0
0.96553546 0.33951998 0
0.98230517 0.337843 0
0.99572205 0.3365013 0
0.003794789 0.57363778 0
0.028871894 0.56310028 0
0.082250655 0.54669678 0
0.14196062 0.53722698 0
0.18770462 0.52772027 0
0.23181844 0.52136242 0
0.27255935 0.51113427 0
0.31144595 0.50362182 0
0.3500002 0.49439889 0
0.38495129 0.48823237 0
0.42092866 0.48080605 0
0.45911133 0.47573954 0
0.49907494 0.46926853 0
0.53394967 0.4652665 0
0.57013273 0.46026006 0
0.6055581 0.45531985 0
0.64018858 0.45067617 0
0.66968644 0.44912365 0
0.69762647 0.44760785 0
0.72950161 0.4431729 0
0.75844443 0.43888158 0
0.78147399 0.43206829 0
0.81010467 0.43070492 0
0.83385229 0.42385143 0
0.8558659 0.41330683 0
0.87529653 0.40578881 0
0.89406681 0.3983196 0
0.91212183 0.3937926 0
0.92714632 0.38948756 0
0.94503808 0.38480723 0
0.96029633 0.38038745 0
0.97779024 0.37901899 0
0.99050868 0.37534845 0
0.003794789 0.63587368 0
0.014662504 0.61875761 0
0.064900637 0.60149831 0
0.11550444 0.59108496 0
0.17302149 0.58062398 0
0.22137129 0.57011664 0
0.2662257 0.55702466 0
0.3058902 0.54621577 0
0.34442371 0.53715259 0
0.37930679 0.53109062 0
0.41527653 0.52389502 0
0.45375949 0.51744086 0
0.49409229 0.51060921 0
0.52764857 0.50560957 0
0.56392193 0.50075632 0
0.599442 0.49749175 0
0.63417196 0.49246666 0
0.66167146 0.49101928 0
0.68942493 0.48960206 0
0.71937227 0.48490336 0
0.7485435 0.48023975 0
0.77801609 0.47882912 0
0.80671519 0.47746247 0
0.82897335 0.46676433 0
0.85133433 0.45530945 0
0.87116128 0.4470534 0
0.8903383 0.4388425 0
0.90678406 0.43441618 0
0.92249167 0.43013185 0
0.93920898 0.42611396 0
0.9548859 0.42234027 0
0.97058988 0.41856211 0
0.98446625 0.4148722 0
0 0.70327348 0
0 0.68508619 0
0.031669259 0.65618432 0
0.087038398 0.64605039 0
0.15802848 0.62560302 0
0.21124679 0.61530626 0
0.25681949 0.59922987 0
0.29867554 0.58843088 0
0.33893549 0.57758242 0
0.37492353 0.57032335 0
0.41192597 0.55939478 0
0.45086229 0.55220711 0
0.49055779 0.54413557 0
0.52391124 0.53917623 0
0.56022883 0.53570116 0
0.59579516 0.53254455 0
0.62843233 0.52772409 0
0.65601778 0.52627212 0
0.68593907 0.52157724 0
0.71593845 0.51691473 0
0.7431134 0.51238954 0
0.77250797 0.51097286 0
0.79931516 0.5096963 0
0.82173955 0.49910471 0
0.84773725 0.4940514 0
0.86762297 0.48587862 0
0.88499653 0.47797501 0
0.90167648 0.47388127 0
0.91961724 0.46638298 0
0.93662095 0.46218947 0
0.95114517 0.45811293 0
0.96724606 0.45395371 0
0.98049349 0.44993335 0
0 0.76852643 0
0 0.74100012 0
0.027538359 0.71265006 0
0.068575978 0.69151646 0
0.1423918 0.67009968 0
0.20216566 0.65617126 0
0.24919939 0.64190233 0
0.29123348 0.63131601 0
0.33277959 0.62067401 0
0.36925858 0.60927475 0
0.40623534 0.59780645 0
0.4443351 0.59086955 0
0.48476529 0.58172405 0
0.51821232 0.57728243 0
0.55479371 0.57366085 0
0.58893871 0.57003397 0
0.62207973 0.56496787 0
0.65211582 0.55976325 0
0.68210572 0.55458802 0
0.71017504 0.54954952 0
0.73758328 0.54453891 0
0.76479316 0.54321623 0
0.79178697 0.54193085 0
0.81818116 0.53714961 0
0.84415758 0.53264505 0
0.8621611 0.52528435 0
0.87964982 0.51792955 0
0.8984046 0.51050001 0
0.91641962 0.5030871 0
0.93216997 0.499008 0
0.94687069 0.49496618 0
0.96245176 0.4909023 0
0.97667658 0.48690328 0
0 0.83853144 0
0 0.81201559 0
0 0.78090334 0
0.031707883 0.76064068 0
0.10586089 0.72306949 0
0.18003905 0.70912355 0
0.23566472 0.68439859 0
0.28170145 0.67368543 0
0.32534707 0.65941757 0
0.36187017 0.64696395 0
0.39922821 0.63215542 0
0.43849993 0.62533182 0
0.47883689 0.61675245 0
0.51231706 0.61319298 0
0.54907989 0.60605651 0
0.58430737 0.60247946 0
0.61760742 0.59757608 0
0.64768583 0.59241802 0
0.67544287 0.58739716 0
0.70360744 0.58240169 0
0.73318458 0.57733005 0
0.76034903 0.5760045 0
0.7856096 0.57120311 0
0.81235349 0.56652552 0
0.83897698 0.56613398 0
0.85708737 0.55781549 0
0.87834185 0.55309337 0
0.89709306 0.54471296 0
0.91336453 0.53642392 0
0.9299019 0.53198421 0
0.94379318 0.52477729 0
0.95969975 0.52074045 0
0.97295856 0.51682538 0
0 0.89803922 0
0 0.87539655 0
0 0.84809762 0
0.020790696 0.81198931 0
0.075414658 0.77400911 0
0.16043019 0.75052279 0
0.21925175 0.72653401 0
0.26893413 0.71262288 0
0.3151198 0.6985752 0
0.35359049 0.68207145 0
0.39291716 0.66643173 0
0.43271714 0.65921438 0
0.47297043 0.65200621 0
0.50685829 0.64500648 0
0.5443207 0.63798076 0
0.57970607 0.63445812 0
0.6131649 0.62972206 0
0.64117312 0.62472624 0
0.66879761 0.6197536 0
0.69918424 0.61469907 0
0.72881341 0.60967642 0
0.75406796 0.60488951 0
0.77943766 0.60012793 0
0.8070184 0.60002524 0
0.83378845 0.59981704 0
0.85580027 0.59512371 0
0.87705267 0.59045881 0
0.89398301 0.58227378 0
0.91031963 0.57409227 0
0.92557859 0.56591737 0
0.93988931 0.55775207 0
0.95473695 0.55329496 0
0.96849304 0.54888415 0
0 0.89803922 0
0 0.87539655 0
0 0.87539655 0
0.020790696 0.84174311 0
0.04358542 0.84174311 0
0.12713152 0.81874222 0
0.20489091 0.77737773 0
0.25603604 0.76400942 0
0.30719626 0.73687249 0
0.3460753 0.72122806 0
0.38618886 0.70680124 0
0.42666721 0.69953501 0
0.46876281 0.68490219 0
0.50324619 0.67717379 0
0.54170012 0.66999477 0
0.57720494 0.66641015 0
0.61115575 0.65777731 0
0.63916588 0.6528278 0
0.66460627 0.64801562 0
0.6950419 0.64300925 0
0.72264677 0.63813776 0
0.74779588 0.63339549 0
0.77398676 0.62939078 0
0.80180454 0.62939018 0
0.82871926 0.62936622 0
0.85086131 0.62471718 0
0.87035358 0.62018228 0
0.88746864 0.61208707 0
0.90741342 0.60751224 0
0.92281979 0.59944075 0
0.93720591 0.59137672 0
0.95215124 0.58696645 0
0.9648881 0.58266419 0
0 0.89803922 0
0 0.89803922 0
0 0.89803922 0
0 0.89803922 0
0.013923883 0.89803922 0
0.09779042 0.86661446 0
0.17322552 0.82871836 0
0.24448079 0.80176967 0
0.2995128 0.77400911 0
0.3395952 0.76010841 0
0.37963688 0.74611318 0
0.42234498 0.73195165 0
0.46439844 0.71763486 0
0.49995774 0.70896167 0
0.53839701 0.70192498 0
0.57425916 0.69488567 0
0.60819739 0.68637359 0
0.63420475 0.68147606 0
0.66044194 0.67730188 0
0.68879056 0.67225039 0
0.71649385 0.6671825 0
0.74158841 0.66229582 0
0.76837933 0.65858567 0
0.79633045 0.65858507 0
0.82338822 0.65858442 0
0.84379905 0.6541124 0
0.86360371 0.64949912 0
0.88449222 0.64494276 0
0.90451688 0.64042389 0
0.92006993 0.6324662 0
0.93474078 0.62451321 0
0.94885129 0.62022352 0
0.96208048 0.61596757 0
0 0.89803922 0
0 0.89803922 0
0 0.89803922 0
0 0.89803922 0
0.013923883 0.89803922 0
0.09779042 0.86661446 0
0.15977853 0.86661446 0
0.23029661 0.84174311 0
0.28844035 0.81429958 0
0.33033937 0.80095357 0
0.37526363 0.77734852 0
0.41812789 0.76357973 0
0.46130139 0.74541318 0
0.49709463 0.73663855 0
0.53350842 0.72629863 0
0.56940496 0.7193799 0
0.60349381 0.71109849 0
0.62977755 0.70649952 0
0.65897858 0.69925058 0
0.68732393 0.69424856 0
0.71502399 0.68922883 0
0.74011529 0.68438995 0
0.7647177 0.68072683 0
0.79273498 0.68072605 0
0.82010853 0.67705482 0
0.84057516 0.67271173 0
0.86019409 0.67181998 0
0.88127261 0.66718668 0
0.89947486 0.6663593 0
0.91569525 0.65824836 0
0.93286353 0.65006405 0
0.94731295 0.64569414 0
0.96207959 0.63779634 0
0 0.89803922 0
0 0.89803922 0
0 0.89803922 0
0 0.89803922 0
0.013923883 0.89803922 0
0.078530133 0.89803922 0
0.14862782 0.89803922 0
0.21863204 0.87782294 0
0.2783705 0.85206151 0
0.32292992 0.8302142 0
0.36921525 0.80757082 0
0.41351771 0.79091835 0
0.45852029 0.7722972 0
0.4924683 0.76046896 0
0.52866369 0.75021946 0
0.56459314 0.74343544 0
0.598831 0.73539823 0
0.62834215 0.72802991 0
0.65753585 0.72089022 0
0.68587756 0.71594161 0
0.71357417 0.71097505 0
0.73651707 0.70623666 0
0.76107049 0.70257562 0
0.78939515 0.69895464 0
0.81683654 0.69532502 0
0.83711594 0.69475108 0
0.85679686 0.69385648 0
0.87583643 0.69299108 0
0.89418399 0.69215709 0
0.91226304 0.68407422 0
0.9295122 0.67599583 0
0.94582999 0.66792738 0
0.96107763 0.65987617 0
0 0.89803922 0
0 0.89803922 0
0 0.89803922 0
0 0.89803922 0
0.013923883 0.89803922 0
0.078530133 0.89803922 0
0.14862782 0.89803922 0
0.21863204 0.87782294 0
0.27221525 0.87514383 0
0.31799221 0.85488653 0
0.36342221 0.83651727 0
0.4083997 0.82061464 0
0.4525255 0.7960338 0
0.4871574 0.78412592 0
0.52658451 0.77031827 0
0.56250048 0.76366431 0
0.59739202 0.7527042 0
0.62716365 0.74570632 0
0.65392804 0.74219137 0
0.68231422 0.73740846 0
0.71029425 0.72895211 0
0.73327917 0.7242583 0
0.75987273 0.72054118 0
0.78819436 0.71696556 0
0.81357312 0.71338075 0
0.83391035 0.71289778 0
0.85365289 0.71200037 0
0.87275869 0.71113193 0
0.89141762 0.70670146 0
0.90957058 0.69868463 0
0.92805499 0.69784445 0
0.9443661 0.68987614 0
0.95818484 0.68198687 0
0 0.89803922 0
0 0.89803922 0
0 0.89803922 0
0 0.89803922 0
0.013923883 0.89803922 0
0.078530133 0.89803922 0
0.14862782 0.89803922 0
0.21352595 0.89697075 0
0.26710916 0.89429164 0
0.31290114 0.88032538 0
0.35798085 0.86370659 0
0.40245056 0.84273583 0
0.44647634 0.81914896 0
0.48381984 0.80468595 0
0.52336204 0.79094946 0
0.56027591 0.78049409 0
0.59623879 0.77000266 0
0.62353939 0.76656616 0
0.65034169 0.76311785 0
0.67900306 0.75503606 0
0.7070266 0.74668211 0
0.73210061 0.74193507 0
0.75869083 0.73826802 0
0.78487933 0.73474181 0
0.81031966 0.73120534 0
0.83071423 0.73081344 0
0.85051787 0.72991329 0
0.86992586 0.72549635 0
0.8886534 0.72110045 0
0.90813464 0.72021496 0
0.92661893 0.71937478 0
0.94138545 0.7115857 0
0.95529973 0.70379782 0
0 0.89803922 0
0 0.89803922 0
0 0.89803922 0
0 0.89803922 0
0.013923883 0.89803922 0
0.078530133 0.89803922 0
0.14862782 0.89803922 0
0.21352595 0.89697075 0
0.26710916 0.89429164 0
0.31290114 0.88032538 0
0.35505879 0.88032538 0
0.39944023 0.86079782 0
0.44176847 0.84739619 0
0.47899544 0.83459729 0
0.5189724 0.81816453 0
0.55622685 0.80808091 0
0.59097075 0.79440618 0
0.61852896 0.79094946 0
0.64868784 0.78049386 0
0.67782432 0.77227622 0
0.70564032 0.767474 0
0.73070979 0.76279551 0
0.7553311 0.75573504 0
0.78157634 0.75226253 0
0.80707735 0.74877888 0
0.82752889 0.74847841 0
0.84739339 0.74757546 0
0.86686313 0.74320757 0
0.88565785 0.73885948 0
0.90522432 0.73797011 0
0.9221589 0.73720032 0
0.93709409 0.72950274 0
0.95266074 0.72173572 0
0 0.89803922 0
0 0.89803922 0
0 0.89803922 0
0 0.89803922 0
0.013923883 0.89803922 0
0.078530133 0.89803922 0
0.14862782 0.89803922 0
0.21352595 0.89697075 0
0.26710916 0.89429164 0
0.31014091 0.89411765 0
0.35276008 0.89411765 0
0.39533508 0.88542861 0
0.43741709 0.87433159 0
0.47494865 0.85968721 0
0.51477301 0.84420067 0
0.55078119 0.83135116 0
0.58562392 0.81816453 0
0.61631846 0.80808079 0
0.64700508 0.79729122 0
0.67579675 0.79255045 0
0.70368969 0.78782725 0
0.72727168 0.78007126 0
0.75198567 0.77305913 0
0.77828681 0.7695322 0
0.80384779 0.76607758 0
0.82435614 0.76586878 0
0.84428102 0.76496309 0
0.86381167 0.76064926 0
0.88267255 0.75635415 0
0.9005757 0.75554037 0
0.91768008 0.75476289 0
0.93435723 0.74709457 0
0.95002633 0.73942745 0
0 0.89803922 0
0 0.89803922 0
0 0.89803922 0
0 0.89803922 0
0.013923883 0.89803922 0
0.078530133 0.89803922 0
0.14862782 0.89803922 0
0.21352595 0.89697075 0
0.26710916 0.89429164 0
