site/assets/luts/freshluts--0001299-picturefx-js-style-ethereal-pink-adjust-strenght-to-taste-ex.cube
# LUTr-Schema-Version: 2
# LUTr-ID: freshluts--0001299-picturefx-js-style-ethereal-pink-adjust-strenght-to-taste-ex
# LUTr-Title: PictureFX J.S. Style Ethereal Pink - adjust strenght to taste, exposure, bloom, etc - more at my website, PictureFX home.
# LUTr-Collection: Fresh LUTs
# LUTr-Collection-ID: freshluts-community
# LUTr-Source: https://freshluts.com
# LUTr-Retrieved: 2026-07-27
# LUTr-Source-File: submissions-raw/freshluts/cubes/1299__PictureFX_J.S._Style_Ethereal_Pink.cube
# LUTr-Source-Format: CUBE
# LUTr-Source-SHA256: 97dd552039e8fe490984f276ec6a4d7935a300e8562451534fcd7164b904681e
# LUTr-License: CC0-1.0
# LUTr-License-URL: https://freshluts.com/termsandconditions
# LUTr-License-Basis: site-terms
# LUTr-Transform-Class: creative-look
# LUTr-Tags: creative, freshluts, community, cube, film-emulation, rec709, assumed-input
# LUTr-Input-Color-Space: rec709
# LUTr-Input-Gamut: rec709
# LUTr-Input-Transfer: rec709
# LUTr-Output-Color-Space: srgb
# LUTr-Output-Gamut: rec709
# LUTr-Output-Transfer: srgb
# LUTr-Color-Space-Confidence: assumed-display-referred
# LUTr-Domain-Normalized: true
# LUTr-Shaper: none
# LUTr-Original-Grid: 25x25x25
# LUTr-Conversion-Grid: 25x25x25
# LUTr-Conversion-Interpolation: none
# LUTr-Conversion-Method: Metadata normalization; numeric LUT samples preserved
# LUTr-Conversion-Tool: LUTr scripts/convert-all-to-cube.mjs 2.0.0
# LUTr-Conversion-Date: 2026-07-28
# LUTr-Asset-URL: https://freshluts.com/luts/1299
# LUTr-Author: MarcR.
# LUTr-Author-URL: https://freshluts.com/users/86490
# LUTr-Attribution: MarcR. via Fresh LUTs
# LUTr-Source-Labels: gamma=Other; color=None; key=Neutral; style=Film emulation; LUTr assumption=input Rec.709 per repository policy
# LUTr-Conversion-Warning: Input Rec.709 is a LUTr catalog assumption requested for this otherwise unspecified Fresh LUT; it is not verified by the upstream asset.
# LUTr-Note: Preserve this metadata and the upstream license notices when redistributing.
# LUTr-Upstream-Comment: Generated by lutCreator.js
# LUTr-Upstream-Comment: Coded by SirSerch
# LUTr-Upstream-Comment: https://github.com/SirSerch/LutCreatorJs
TITLE "PictureFX J.S. Style Ethereal Pink - adjust strenght to taste, exposure, bloom, etc - more at my website, PictureFX home."
LUT_3D_SIZE 25
DOMAIN_MIN 0 0 0
DOMAIN_MAX 1 1 1
0.058824 0.003922 0.098039
0.070588 0.003922 0.105882
0.090196 0.003922 0.113725
0.117647 0 0.121569
0.152941 0.003922 0.12549
0.356863 0.164706 0.282353
0.411765 0.192157 0.305882
0.458824 0.215686 0.32549
0.505882 0.235294 0.337255
0.545098 0.254902 0.352941
0.584314 0.270588 0.360784
0.623529 0.286275 0.368627
0.658824 0.298039 0.376471
0.690196 0.305882 0.384314
0.721569 0.317647 0.392157
0.752941 0.329412 0.396078
0.784314 0.337255 0.403922
0.815686 0.34902 0.411765
0.847059 0.356863 0.419608
0.878431 0.368627 0.427451
0.905882 0.376471 0.435294
0.937255 0.384314 0.443137
0.968627 0.396078 0.45098
0.996078 0.403922 0.458824
1 0.411765 0.466667
0.070588 0.039216 0.113725
0.082353 0.039216 0.117647
0.098039 0.043137 0.12549
0.25098 0.164706 0.270588
0.305882 0.176471 0.278431
0.356863 0.196078 0.298039
0.407843 0.211765 0.313725
0.45098 0.231373 0.32549
0.498039 0.247059 0.337255
0.537255 0.262745 0.34902
0.576471 0.27451 0.356863
0.611765 0.286275 0.364706
0.647059 0.298039 0.372549
0.682353 0.309804 0.380392
0.713725 0.317647 0.388235
0.745098 0.329412 0.396078
0.780392 0.341176 0.403922
0.811765 0.34902 0.411765
0.839216 0.356863 0.419608
0.870588 0.368627 0.427451
0.901961 0.376471 0.435294
0.933333 0.388235 0.443137
0.964706 0.396078 0.45098
0.992157 0.403922 0.458824
1 0.411765 0.466667
0.188235 0.188235 0.239216
0.207843 0.192157 0.25098
0.227451 0.2 0.266667
0.262745 0.207843 0.301961
0.313725 0.219608 0.305882
0.360784 0.231373 0.317647
0.407843 0.239216 0.32549
0.45098 0.25098 0.333333
0.494118 0.266667 0.345098
0.533333 0.27451 0.352941
0.572549 0.286275 0.360784
0.607843 0.298039 0.364706
0.643137 0.305882 0.372549
0.67451 0.317647 0.380392
0.709804 0.32549 0.388235
0.741176 0.337255 0.396078
0.776471 0.345098 0.403922
0.807843 0.352941 0.411765
0.839216 0.364706 0.419608
0.870588 0.372549 0.427451
0.898039 0.384314 0.435294
0.929412 0.392157 0.443137
0.960784 0.4 0.45098
0.988235 0.407843 0.458824
1 0.415686 0.466667
0.215686 0.25098 0.27451
0.235294 0.254902 0.282353
0.258824 0.258824 0.294118
0.290196 0.262745 0.309804
0.32549 0.266667 0.329412
0.364706 0.27451 0.34902
0.411765 0.282353 0.352941
0.454902 0.290196 0.356863
0.498039 0.298039 0.360784
0.537255 0.305882 0.364706
0.576471 0.313725 0.372549
0.611765 0.321569 0.376471
0.643137 0.329412 0.380392
0.678431 0.337255 0.388235
0.709804 0.345098 0.396078
0.745098 0.352941 0.403922
0.776471 0.360784 0.407843
0.807843 0.368627 0.415686
0.839216 0.376471 0.423529
0.866667 0.384314 0.431373
0.898039 0.392157 0.439216
0.929412 0.4 0.447059
0.956863 0.407843 0.454902
0.988235 0.415686 0.458824
1 0.423529 0.466667
0.25098 0.309804 0.313725
0.270588 0.313725 0.317647
0.294118 0.313725 0.32549
0.321569 0.317647 0.333333
0.352941 0.321569 0.34902
0.388235 0.32549 0.364706
0.423529 0.329412 0.376471
0.466667 0.333333 0.380392
0.509804 0.337255 0.384314
0.545098 0.341176 0.388235
0.584314 0.34902 0.388235
0.615686 0.352941 0.392157
0.65098 0.356863 0.396078
0.686275 0.364706 0.403922
0.717647 0.372549 0.407843
0.74902 0.376471 0.415686
0.780392 0.384314 0.423529
0.811765 0.388235 0.427451
0.843137 0.396078 0.435294
0.870588 0.403922 0.439216
0.901961 0.407843 0.447059
0.929412 0.415686 0.454902
0.960784 0.423529 0.458824
0.988235 0.427451 0.466667
1 0.435294 0.470588
0.298039 0.372549 0.34902
0.309804 0.372549 0.352941
0.329412 0.372549 0.356863
0.352941 0.372549 0.360784
0.380392 0.372549 0.372549
0.407843 0.372549 0.380392
0.443137 0.376471 0.392157
0.478431 0.376471 0.4
0.513725 0.376471 0.403922
0.54902 0.380392 0.403922
0.584314 0.380392 0.407843
0.619608 0.384314 0.407843
0.654902 0.388235 0.411765
0.686275 0.392157 0.415686
0.717647 0.396078 0.423529
0.74902 0.4 0.427451
0.780392 0.407843 0.431373
0.811765 0.411765 0.439216
0.843137 0.419608 0.443137
0.87451 0.423529 0.45098
0.905882 0.431373 0.458824
0.933333 0.435294 0.462745
0.964706 0.443137 0.470588
0.992157 0.447059 0.47451
1 0.454902 0.482353
0.313725 0.403922 0.360784
0.32549 0.403922 0.360784
0.341176 0.4 0.364706
0.360784 0.4 0.368627
0.384314 0.4 0.372549
0.411765 0.4 0.380392
0.439216 0.4 0.388235
0.470588 0.4 0.4
0.505882 0.4 0.403922
0.541176 0.403922 0.407843
0.576471 0.403922 0.411765
0.611765 0.407843 0.415686
0.643137 0.407843 0.419608
0.678431 0.411765 0.423529
0.709804 0.415686 0.427451
0.745098 0.419608 0.431373
0.776471 0.423529 0.439216
0.807843 0.431373 0.443137
0.839216 0.435294 0.45098
0.870588 0.443137 0.454902
0.901961 0.447059 0.462745
0.929412 0.45098 0.466667
0.960784 0.458824 0.47451
0.992157 0.462745 0.482353
1 0.470588 0.486275
0.329412 0.431373 0.372549
0.341176 0.431373 0.376471
0.352941 0.431373 0.376471
0.368627 0.431373 0.380392
0.392157 0.431373 0.384314
0.415686 0.431373 0.388235
0.443137 0.431373 0.396078
0.47451 0.431373 0.403922
0.505882 0.431373 0.411765
0.537255 0.431373 0.419608
0.572549 0.431373 0.423529
0.607843 0.435294 0.427451
0.639216 0.435294 0.431373
0.67451 0.439216 0.435294
0.705882 0.443137 0.439216
0.737255 0.443137 0.443137
0.772549 0.447059 0.447059
0.803922 0.45098 0.45098
0.835294 0.458824 0.458824
0.866667 0.462745 0.462745
0.898039 0.466667 0.466667
0.92549 0.470588 0.47451
0.956863 0.47451 0.478431
0.988235 0.482353 0.486275
1 0.486275 0.490196
0.34902 0.466667 0.392157
0.356863 0.466667 0.392157
0.368627 0.466667 0.396078
0.384314 0.466667 0.396078
0.403922 0.466667 0.4
0.427451 0.466667 0.403922
0.454902 0.466667 0.411765
0.482353 0.466667 0.415686
0.509804 0.466667 0.423529
0.541176 0.466667 0.431373
0.576471 0.466667 0.435294
0.607843 0.466667 0.443137
0.639216 0.466667 0.443137
0.67451 0.470588 0.447059
0.705882 0.470588 0.45098
0.737255 0.47451 0.454902
0.768627 0.478431 0.458824
0.8 0.478431 0.462745
0.831373 0.482353 0.466667
0.862745 0.486275 0.470588
0.894118 0.490196 0.478431
0.921569 0.494118 0.482353
0.952941 0.498039 0.486275
0.984314 0.501961 0.490196
1 0.505882 0.498039
0.372549 0.505882 0.411765
0.380392 0.505882 0.415686
0.388235 0.505882 0.415686
0.403922 0.505882 0.415686
0.419608 0.505882 0.419608
0.443137 0.505882 0.423529
0.466667 0.505882 0.427451
0.494118 0.501961 0.435294
0.521569 0.501961 0.439216
0.54902 0.501961 0.447059
0.580392 0.501961 0.45098
0.611765 0.501961 0.454902
0.643137 0.501961 0.462745
0.67451 0.505882 0.462745
0.709804 0.505882 0.466667
0.741176 0.505882 0.470588
0.772549 0.505882 0.47451
0.803922 0.509804 0.478431
0.831373 0.509804 0.478431
0.862745 0.513725 0.482353
0.890196 0.513725 0.486275
0.921569 0.517647 0.490196
0.94902 0.517647 0.494118
0.980392 0.521569 0.498039
1 0.521569 0.501961
0.396078 0.54902 0.439216
0.403922 0.54902 0.439216
0.411765 0.545098 0.439216
0.423529 0.545098 0.439216
0.439216 0.545098 0.443137
0.458824 0.545098 0.447059
0.482353 0.541176 0.447059
0.505882 0.541176 0.45098
0.533333 0.541176 0.454902
0.560784 0.541176 0.462745
0.588235 0.541176 0.466667
0.619608 0.541176 0.470588
0.65098 0.541176 0.478431
0.682353 0.541176 0.482353
0.713725 0.541176 0.482353
0.745098 0.541176 0.486275
0.776471 0.541176 0.490196
0.807843 0.541176 0.494118
0.835294 0.545098 0.498039
0.866667 0.545098 0.501961
0.898039 0.54902 0.501961
0.929412 0.54902 0.505882
0.956863 0.552941 0.513725
0.988235 0.556863 0.517647
1 0.556863 0.521569
0.407843 0.572549 0.447059
0.411765 0.572549 0.447059
0.419608 0.572549 0.45098
0.431373 0.572549 0.45098
0.447059 0.572549 0.45098
0.466667 0.568627 0.454902
0.486275 0.568627 0.454902
0.509804 0.568627 0.458824
0.533333 0.568627 0.462745
0.560784 0.568627 0.470588
0.588235 0.568627 0.47451
0.619608 0.568627 0.478431
0.647059 0.568627 0.482353
0.678431 0.568627 0.490196
0.709804 0.568627 0.494118
0.741176 0.568627 0.498039
0.772549 0.568627 0.501961
0.803922 0.568627 0.501961
0.835294 0.572549 0.505882
0.866667 0.572549 0.509804
0.894118 0.572549 0.513725
0.92549 0.576471 0.517647
0.956863 0.580392 0.521569
0.984314 0.580392 0.52549
1 0.584314 0.529412
0.419608 0.6 0.458824
0.423529 0.6 0.462745
0.431373 0.6 0.462745
0.443137 0.6 0.462745
0.454902 0.6 0.462745
0.47451 0.6 0.466667
0.494118 0.6 0.466667
0.513725 0.6 0.470588
0.537255 0.596078 0.47451
0.564706 0.596078 0.478431
0.592157 0.596078 0.482353
0.619608 0.596078 0.486275
0.647059 0.596078 0.494118
0.678431 0.596078 0.498039
0.709804 0.596078 0.501961
0.737255 0.596078 0.505882
0.768627 0.596078 0.509804
0.8 0.596078 0.513725
0.831373 0.6 0.517647
0.862745 0.6 0.521569
0.894118 0.6 0.521569
0.921569 0.6 0.52549
0.952941 0.603922 0.529412
0.980392 0.603922 0.533333
1 0.603922 0.537255
0.435294 0.631373 0.47451
0.439216 0.631373 0.47451
0.443137 0.631373 0.47451
0.454902 0.631373 0.47451
0.466667 0.631373 0.478431
0.482353 0.627451 0.478431
0.501961 0.627451 0.482353
0.521569 0.627451 0.482353
0.545098 0.627451 0.486275
0.568627 0.627451 0.490196
0.596078 0.627451 0.494118
0.623529 0.627451 0.498039
0.65098 0.623529 0.501961
0.678431 0.623529 0.505882
0.705882 0.623529 0.509804
0.737255 0.623529 0.513725
0.764706 0.623529 0.517647
0.796078 0.623529 0.521569
0.827451 0.623529 0.52549
0.854902 0.623529 0.52549
0.886275 0.623529 0.529412
0.917647 0.623529 0.533333
0.945098 0.627451 0.537255
0.972549 0.627451 0.537255
1 0.627451 0.541176
0.447059 0.658824 0.486275
0.45098 0.658824 0.486275
0.458824 0.658824 0.490196
0.466667 0.658824 0.490196
0.478431 0.658824 0.490196
0.494118 0.658824 0.490196
0.509804 0.658824 0.494118
0.529412 0.658824 0.494118
0.552941 0.658824 0.498039
0.572549 0.654902 0.501961
0.6 0.654902 0.501961
0.623529 0.654902 0.505882
0.65098 0.654902 0.509804
0.678431 0.65098 0.513725
0.705882 0.65098 0.517647
0.733333 0.65098 0.521569
0.764706 0.65098 0.52549
0.792157 0.65098 0.529412
0.819608 0.65098 0.529412
0.85098 0.647059 0.533333
0.878431 0.647059 0.537255
0.909804 0.647059 0.537255
0.937255 0.647059 0.541176
0.964706 0.647059 0.541176
0.992157 0.647059 0.545098
0.466667 0.698039 0.505882
0.470588 0.698039 0.509804
0.478431 0.698039 0.509804
0.486275 0.698039 0.509804
0.498039 0.698039 0.509804
0.509804 0.694118 0.509804
0.52549 0.694118 0.513725
0.545098 0.694118 0.513725
0.564706 0.694118 0.517647
0.588235 0.694118 0.517647
0.611765 0.694118 0.521569
0.635294 0.690196 0.52549
0.662745 0.690196 0.529412
0.690196 0.690196 0.533333
0.717647 0.690196 0.537255
0.745098 0.690196 0.541176
0.772549 0.686275 0.541176
0.8 0.686275 0.545098
0.831373 0.686275 0.54902
0.858824 0.686275 0.552941
0.890196 0.686275 0.556863
0.917647 0.686275 0.556863
0.94902 0.686275 0.560784
0.976471 0.686275 0.564706
1 0.686275 0.564706
0.482353 0.729412 0.521569
0.486275 0.729412 0.521569
0.490196 0.72549 0.521569
0.498039 0.72549 0.521569
0.509804 0.72549 0.52549
0.521569 0.72549 0.52549
0.537255 0.72549 0.52549
0.556863 0.72549 0.529412
0.576471 0.72549 0.529412
0.596078 0.72549 0.533333
0.619608 0.721569 0.533333
0.643137 0.721569 0.537255
0.666667 0.721569 0.541176
0.694118 0.721569 0.545098
0.721569 0.721569 0.54902
0.74902 0.717647 0.54902
0.776471 0.717647 0.552941
0.803922 0.717647 0.556863
0.831373 0.717647 0.560784
0.862745 0.717647 0.564706
0.890196 0.717647 0.568627
0.917647 0.717647 0.568627
0.94902 0.717647 0.572549
0.976471 0.717647 0.576471
1 0.717647 0.576471
0.494118 0.756863 0.533333
0.498039 0.756863 0.533333
0.501961 0.756863 0.533333
0.509804 0.756863 0.537255
0.517647 0.752941 0.537255
0.529412 0.752941 0.537255
0.545098 0.752941 0.537255
0.560784 0.752941 0.541176
0.580392 0.752941 0.541176
0.6 0.752941 0.545098
0.623529 0.752941 0.545098
0.647059 0.74902 0.54902
0.670588 0.74902 0.54902
0.694118 0.74902 0.552941
0.721569 0.74902 0.556863
0.74902 0.74902 0.560784
0.776471 0.745098 0.564706
0.803922 0.745098 0.564706
0.831373 0.745098 0.568627
0.858824 0.745098 0.572549
0.886275 0.745098 0.576471
0.917647 0.741176 0.576471
0.945098 0.741176 0.580392
0.972549 0.741176 0.584314
1 0.741176 0.584314
0.501961 0.780392 0.545098
0.505882 0.780392 0.545098
0.509804 0.780392 0.545098
0.517647 0.780392 0.545098
0.52549 0.780392 0.545098
0.537255 0.780392 0.545098
0.552941 0.780392 0.545098
0.568627 0.776471 0.54902
0.584314 0.776471 0.54902
0.603922 0.776471 0.54902
0.623529 0.776471 0.552941
0.647059 0.772549 0.552941
0.670588 0.772549 0.556863
0.694118 0.772549 0.560784
0.721569 0.772549 0.560784
0.745098 0.768627 0.564706
0.772549 0.768627 0.568627
0.8 0.768627 0.568627
0.827451 0.768627 0.572549
0.854902 0.768627 0.576471
0.882353 0.764706 0.580392
0.909804 0.764706 0.580392
0.937255 0.764706 0.584314
0.964706 0.764706 0.588235
0.992157 0.760784 0.588235
0.509804 0.803922 0.552941
0.513725 0.803922 0.552941
0.517647 0.803922 0.552941
0.521569 0.803922 0.552941
0.533333 0.803922 0.552941
0.541176 0.8 0.552941
0.552941 0.8 0.552941
0.568627 0.8 0.552941
0.584314 0.8 0.556863
0.603922 0.8 0.556863
0.623529 0.796078 0.556863
0.647059 0.796078 0.560784
0.666667 0.796078 0.560784
0.690196 0.792157 0.560784
0.713725 0.792157 0.564706
0.741176 0.792157 0.568627
0.764706 0.788235 0.568627
0.792157 0.788235 0.572549
0.819608 0.788235 0.572549
0.843137 0.784314 0.576471
0.870588 0.784314 0.580392
0.898039 0.784314 0.580392
0.92549 0.780392 0.584314
0.952941 0.780392 0.584314
0.980392 0.780392 0.588235
0.521569 0.831373 0.564706
0.52549 0.831373 0.564706
0.529412 0.831373 0.564706
0.533333 0.831373 0.564706
0.545098 0.831373 0.564706
0.552941 0.831373 0.564706
0.564706 0.831373 0.568627
0.580392 0.831373 0.568627
0.596078 0.831373 0.568627
0.615686 0.831373 0.572549
0.635294 0.831373 0.572549
0.654902 0.827451 0.576471
0.678431 0.827451 0.576471
0.701961 0.827451 0.580392
0.72549 0.827451 0.580392
0.74902 0.827451 0.584314
0.776471 0.823529 0.588235
0.8 0.823529 0.588235
0.827451 0.823529 0.592157
0.854902 0.823529 0.596078
0.882353 0.823529 0.6
0.909804 0.823529 0.603922
0.937255 0.823529 0.603922
0.968627 0.823529 0.607843
0.996078 0.823529 0.611765
0.537255 0.866667 0.580392
0.541176 0.866667 0.580392
0.545098 0.866667 0.580392
0.552941 0.866667 0.584314
0.560784 0.866667 0.584314
0.568627 0.866667 0.584314
0.580392 0.866667 0.584314
0.596078 0.866667 0.584314
0.611765 0.866667 0.588235
0.627451 0.862745 0.588235
0.647059 0.862745 0.588235
0.666667 0.862745 0.592157
0.690196 0.862745 0.592157
0.709804 0.862745 0.596078
0.733333 0.862745 0.596078
0.760784 0.858824 0.6
0.784314 0.858824 0.603922
0.811765 0.858824 0.603922
0.835294 0.858824 0.607843
0.862745 0.858824 0.611765
0.890196 0.858824 0.615686
0.917647 0.854902 0.615686
0.945098 0.854902 0.619608
0.972549 0.854902 0.623529
1 0.854902 0.627451
0.552941 0.894118 0.596078
0.556863 0.894118 0.596078
0.560784 0.894118 0.596078
0.564706 0.894118 0.596078
0.572549 0.894118 0.596078
0.580392 0.894118 0.596078
0.592157 0.894118 0.596078
0.603922 0.894118 0.6
0.619608 0.894118 0.6
0.635294 0.894118 0.6
0.654902 0.894118 0.603922
0.67451 0.894118 0.603922
0.698039 0.894118 0.607843
0.717647 0.890196 0.607843
0.741176 0.890196 0.611765
0.764706 0.890196 0.611765
0.788235 0.890196 0.615686
0.815686 0.890196 0.615686
0.839216 0.886275 0.619608
0.866667 0.886275 0.623529
0.894118 0.886275 0.623529
0.917647 0.886275 0.627451
0.945098 0.886275 0.631373
0.972549 0.886275 0.635294
1 0.886275 0.635294
0.560784 0.921569 0.603922
0.564706 0.921569 0.603922
0.568627 0.921569 0.603922
0.572549 0.921569 0.603922
0.580392 0.921569 0.603922
0.588235 0.917647 0.603922
0.596078 0.917647 0.603922
0.611765 0.917647 0.607843
0.623529 0.917647 0.607843
0.639216 0.917647 0.607843
0.658824 0.917647 0.607843
0.67451 0.913725 0.611765
0.698039 0.913725 0.611765
0.717647 0.913725 0.611765
0.741176 0.913725 0.615686
0.760784 0.913725 0.615686
0.788235 0.909804 0.619608
0.811765 0.909804 0.619608
0.835294 0.909804 0.623529
0.862745 0.909804 0.627451
0.886275 0.909804 0.627451
0.913725 0.905882 0.631373
0.941176 0.905882 0.635294
0.968627 0.905882 0.635294
0.996078 0.905882 0.639216
0.564706 0.941176 0.607843
0.568627 0.941176 0.607843
0.568627 0.941176 0.607843
0.572549 0.941176 0.607843
0.580392 0.937255 0.607843
0.588235 0.937255 0.607843
0.596078 0.937255 0.607843
0.607843 0.937255 0.607843
0.623529 0.933333 0.607843
0.639216 0.933333 0.607843
0.654902 0.933333 0.611765
0.670588 0.933333 0.611765
0.690196 0.929412 0.611765
0.709804 0.929412 0.611765
0.733333 0.929412 0.615686
0.756863 0.929412 0.615686
0.776471 0.92549 0.619608
0.8 0.92549 0.619608
0.827451 0.92549 0.619608
0.85098 0.921569 0.623529
0.87451 0.921569 0.623529
0.901961 0.921569 0.627451
0.929412 0.921569 0.631373
0.956863 0.921569 0.635294
0.984314 0.921569 0.639216
0.066667 0.003922 0.101961
0.078431 0.003922 0.109804
0.098039 0.003922 0.117647
0.121569 0.003922 0.12549
0.298039 0.145098 0.270588
0.356863 0.164706 0.294118
0.407843 0.192157 0.317647
0.454902 0.215686 0.333333
0.501961 0.235294 0.34902
0.541176 0.254902 0.364706
0.580392 0.270588 0.372549
0.619608 0.282353 0.380392
0.65098 0.294118 0.388235
0.686275 0.305882 0.396078
0.717647 0.317647 0.403922
0.74902 0.32549 0.411765
0.780392 0.337255 0.419608
0.811765 0.345098 0.427451
0.843137 0.356863 0.431373
0.87451 0.364706 0.439216
0.905882 0.376471 0.447059
0.933333 0.384314 0.454902
0.964706 0.392157 0.462745
0.996078 0.403922 0.470588
1 0.411765 0.478431
0.07451 0.043137 0.109804
0.086275 0.043137 0.117647
0.098039 0.047059 0.133333
0.25098 0.168627 0.270588
0.305882 0.176471 0.286275
0.356863 0.192157 0.305882
0.403922 0.211765 0.321569
0.447059 0.227451 0.333333
0.490196 0.243137 0.34902
0.533333 0.258824 0.356863
0.572549 0.270588 0.368627
0.607843 0.282353 0.376471
0.643137 0.294118 0.384314
0.67451 0.305882 0.392157
0.709804 0.317647 0.4
0.741176 0.32549 0.407843
0.772549 0.337255 0.415686
0.803922 0.34902 0.423529
0.835294 0.356863 0.431373
0.870588 0.368627 0.439216
0.898039 0.376471 0.447059
0.929412 0.384314 0.454902
0.960784 0.396078 0.462745
0.992157 0.403922 0.466667
1 0.411765 0.47451
0.192157 0.188235 0.247059
0.207843 0.192157 0.258824
0.231373 0.2 0.27451
0.262745 0.203922 0.309804
0.313725 0.215686 0.317647
0.360784 0.227451 0.32549
0.403922 0.239216 0.333333
0.447059 0.25098 0.345098
0.486275 0.262745 0.352941
0.529412 0.27451 0.360784
0.564706 0.282353 0.368627
0.6 0.294118 0.376471
0.635294 0.301961 0.384314
0.670588 0.313725 0.392157
0.701961 0.321569 0.4
0.737255 0.333333 0.407843
0.768627 0.345098 0.415686
0.8 0.352941 0.423529
0.835294 0.360784 0.431373
0.866667 0.372549 0.439216
0.898039 0.380392 0.447059
0.92549 0.392157 0.454902
0.956863 0.4 0.458824
0.988235 0.407843 0.466667
1 0.415686 0.47451
0.215686 0.247059 0.286275
0.235294 0.25098 0.294118
0.258824 0.254902 0.301961
0.286275 0.258824 0.321569
0.32549 0.262745 0.341176
0.364706 0.270588 0.352941
0.407843 0.278431 0.360784
0.45098 0.286275 0.364706
0.494118 0.294118 0.368627
0.533333 0.301961 0.376471
0.568627 0.309804 0.380392
0.603922 0.317647 0.388235
0.639216 0.32549 0.392157
0.67451 0.333333 0.4
0.705882 0.341176 0.407843
0.737255 0.34902 0.415686
0.772549 0.356863 0.419608
0.803922 0.364706 0.427451
0.835294 0.376471 0.435294
0.866667 0.384314 0.443137
0.894118 0.392157 0.45098
0.92549 0.4 0.454902
0.956863 0.407843 0.462745
0.984314 0.415686 0.470588
1 0.423529 0.47451
0.25098 0.309804 0.321569
0.270588 0.309804 0.32549
0.290196 0.309804 0.333333
0.317647 0.313725 0.345098
0.34902 0.317647 0.360784
0.380392 0.321569 0.380392
0.419608 0.32549 0.392157
0.462745 0.329412 0.396078
0.501961 0.337255 0.396078
0.541176 0.341176 0.4
0.576471 0.345098 0.403922
0.611765 0.34902 0.407843
0.647059 0.356863 0.411765
0.682353 0.364706 0.415686
0.713725 0.368627 0.423529
0.745098 0.376471 0.427451
0.776471 0.380392 0.435294
0.807843 0.388235 0.439216
0.839216 0.396078 0.447059
0.870588 0.403922 0.45098
0.898039 0.407843 0.458824
0.929412 0.415686 0.462745
0.956863 0.419608 0.466667
0.984314 0.427451 0.47451
1 0.435294 0.478431
0.298039 0.368627 0.360784
0.309804 0.368627 0.364706
0.32549 0.368627 0.368627
0.34902 0.368627 0.372549
0.376471 0.368627 0.384314
0.403922 0.372549 0.396078
0.435294 0.372549 0.407843
0.470588 0.372549 0.419608
0.505882 0.376471 0.419608
0.545098 0.376471 0.419608
0.580392 0.380392 0.419608
0.615686 0.380392 0.423529
0.65098 0.384314 0.427451
0.682353 0.392157 0.431373
0.713725 0.396078 0.435294
0.74902 0.4 0.439216
0.780392 0.403922 0.443137
0.811765 0.411765 0.45098
0.843137 0.415686 0.454902
0.870588 0.423529 0.462745
0.901961 0.431373 0.466667
0.933333 0.435294 0.47451
0.964706 0.443137 0.478431
0.992157 0.447059 0.486275
1 0.454902 0.490196
0.309804 0.4 0.372549
0.321569 0.4 0.372549
0.337255 0.396078 0.376471
0.356863 0.396078 0.380392
0.380392 0.396078 0.384314
0.403922 0.396078 0.392157
0.435294 0.396078 0.403922
0.466667 0.4 0.411765
0.498039 0.4 0.419608
0.533333 0.4 0.423529
0.568627 0.4 0.427451
0.603922 0.403922 0.427451
0.639216 0.407843 0.431373
0.67451 0.411765 0.435294
0.705882 0.415686 0.439216
0.741176 0.419608 0.443137
0.772549 0.423529 0.447059
0.803922 0.427451 0.454902
0.835294 0.435294 0.458824
0.866667 0.439216 0.466667
0.898039 0.447059 0.470588
0.929412 0.45098 0.478431
0.960784 0.458824 0.482353
0.988235 0.462745 0.490196
1 0.470588 0.494118
0.32549 0.431373 0.384314
0.333333 0.427451 0.384314
0.34902 0.427451 0.388235
0.364706 0.427451 0.388235
0.388235 0.427451 0.396078
0.411765 0.427451 0.4
0.439216 0.427451 0.407843
0.466667 0.427451 0.415686
0.498039 0.427451 0.423529
0.533333 0.427451 0.431373
0.564706 0.431373 0.435294
0.6 0.431373 0.439216
0.635294 0.435294 0.439216
0.670588 0.435294 0.443137
0.701961 0.439216 0.447059
0.733333 0.443137 0.45098
0.768627 0.447059 0.454902
0.8 0.45098 0.462745
0.831373 0.454902 0.466667
0.862745 0.458824 0.470588
0.894118 0.466667 0.478431
0.92549 0.470588 0.482353
0.956863 0.47451 0.486275
0.984314 0.482353 0.494118
1 0.486275 0.498039
0.345098 0.462745 0.4
0.352941 0.462745 0.4
0.364706 0.462745 0.403922
0.380392 0.462745 0.407843
