site/assets/luts/freshluts--0000934-picturefx-faux-infrared-yp-set-strength-or-opacity-to-taste-.cube
# LUTr-Schema-Version: 2
# LUTr-ID: freshluts--0000934-picturefx-faux-infrared-yp-set-strength-or-opacity-to-taste-
# LUTr-Title: PictureFX Faux Infrared YP - set strength or opacity to taste - sample set @ 80%
# LUTr-Collection: Fresh LUTs
# LUTr-Collection-ID: freshluts-community
# LUTr-Source: https://freshluts.com
# LUTr-Retrieved: 2026-07-27
# LUTr-Source-File: submissions-raw/freshluts/cubes/934__PictureFX-Faux-Infrared-YP-N125.cube
# LUTr-Source-Format: CUBE
# LUTr-Source-SHA256: 194abb93ca02bc006254fe89d176086f9e326092369fbd0982e3a8de3b00872d
# LUTr-License: CC0-1.0
# LUTr-License-URL: https://freshluts.com/termsandconditions
# LUTr-License-Basis: site-terms
# LUTr-Transform-Class: creative-look
# LUTr-Tags: creative, freshluts, community, cube, film-emulation
# LUTr-Input-Color-Space:
# LUTr-Input-Gamut: unspecified
# LUTr-Input-Transfer: unspecified
# LUTr-Output-Color-Space: srgb
# LUTr-Output-Gamut: rec709
# LUTr-Output-Transfer: srgb
# LUTr-Color-Space-Confidence: camera-profile-input-required
# LUTr-Domain-Normalized: true
# LUTr-Shaper: none
# LUTr-Original-Grid: 25x25x25
# LUTr-Conversion-Grid: 25x25x25
# LUTr-Conversion-Interpolation: none
# LUTr-Conversion-Method: Metadata normalization; numeric LUT samples preserved
# LUTr-Conversion-Tool: LUTr scripts/convert-all-to-cube.mjs 2.0.0
# LUTr-Conversion-Date: 2026-07-28
# LUTr-Asset-URL: https://freshluts.com/luts/934
# LUTr-Author: MarcR.
# LUTr-Author-URL: https://freshluts.com/users/86490
# LUTr-Attribution: MarcR. via Fresh LUTs
# LUTr-Source-Labels: gamma=Other; color=None; key=Neutral; style=Film emulation
# LUTr-Note: Preserve this metadata and the upstream license notices when redistributing.
# LUTr-Upstream-Comment: Generated with IWLTBAP LUT Generator
# LUTr-Upstream-Comment: Website: http://luts.iwltbap.com
# LUTr-Upstream-Comment: LUT size
# LUTr-Upstream-Comment: LUT data points
TITLE "PictureFX Faux Infrared YP - set strength or opacity to taste - sample set @ 80%"
LUT_3D_SIZE 25
DOMAIN_MIN 0 0 0
DOMAIN_MAX 1 1 1
0 0 0
0.160784 0.113725 0.015686
0.266667 0.192157 0.054902
0.368627 0.270588 0.070588
0.470588 0.345098 0.086275
0.572549 0.419608 0.098039
0.678431 0.494118 0.105882
0.784314 0.572549 0.109804
0.878431 0.643137 0.117647
0.968627 0.713725 0.12549
1 0.776471 0.137255
1 0.839216 0.152941
1 0.894118 0.176471
1 0.921569 0.215686
1 0.92549 0.270588
1 0.929412 0.317647
1 0.933333 0.356863
1 0.937255 0.396078
1 0.941176 0.431373
1 0.945098 0.462745
1 0.945098 0.466667
1 0.945098 0.466667
1 0.945098 0.466667
1 0.945098 0.466667
1 0.945098 0.466667
0.082353 0.003922 0.031373
0.207843 0.047059 0.078431
0.294118 0.164706 0.086275
0.388235 0.25098 0.094118
0.486275 0.329412 0.105882
0.584314 0.407843 0.113725
0.690196 0.486275 0.121569
0.788235 0.564706 0.12549
0.886275 0.639216 0.129412
0.976471 0.709804 0.137255
1 0.772549 0.145098
1 0.835294 0.164706
1 0.890196 0.180392
1 0.917647 0.223529
1 0.921569 0.27451
1 0.92549 0.317647
1 0.929412 0.360784
1 0.937255 0.396078
1 0.941176 0.431373
1 0.945098 0.462745
1 0.945098 0.466667
1 0.945098 0.466667
1 0.945098 0.466667
1 0.945098 0.466667
1 0.945098 0.466667
0.145098 0.015686 0.066667
0.239216 0.035294 0.098039
0.32549 0.105882 0.117647
0.411765 0.223529 0.117647
0.501961 0.309804 0.12549
0.6 0.392157 0.133333
0.701961 0.47451 0.137255
0.8 0.552941 0.141176
0.894118 0.631373 0.145098
0.980392 0.701961 0.14902
1 0.768627 0.156863
1 0.831373 0.172549
1 0.886275 0.188235
1 0.913725 0.227451
1 0.921569 0.278431
1 0.92549 0.321569
1 0.929412 0.364706
1 0.933333 0.4
1 0.941176 0.435294
1 0.945098 0.462745
1 0.945098 0.466667
1 0.945098 0.466667
1 0.945098 0.466667
1 0.945098 0.466667
1 0.945098 0.466667
0.207843 0.027451 0.098039
0.278431 0.043137 0.117647
0.356863 0.062745 0.141176
0.443137 0.168627 0.152941
0.52549 0.278431 0.152941
0.619608 0.372549 0.156863
0.717647 0.454902 0.160784
0.811765 0.541176 0.164706
0.901961 0.619608 0.164706
0.988235 0.694118 0.168627
1 0.760784 0.176471
1 0.823529 0.188235
1 0.882353 0.2
1 0.909804 0.239216
1 0.917647 0.286275
1 0.921569 0.32549
1 0.929412 0.364706
1 0.933333 0.403922
1 0.937255 0.435294
1 0.945098 0.466667
1 0.945098 0.466667
1 0.945098 0.466667
1 0.945098 0.466667
1 0.945098 0.466667
1 0.945098 0.466667
0.266667 0.039216 0.12549
0.321569 0.054902 0.137255
0.392157 0.070588 0.156863
0.47451 0.094118 0.184314
0.556863 0.227451 0.184314
0.643137 0.337255 0.184314
0.737255 0.431373 0.188235
0.831373 0.517647 0.188235
0.917647 0.6 0.188235
1 0.678431 0.192157
1 0.74902 0.196078
1 0.815686 0.203922
1 0.87451 0.215686
1 0.901961 0.25098
1 0.909804 0.294118
1 0.917647 0.333333
1 0.92549 0.372549
1 0.929412 0.407843
1 0.937255 0.439216
1 0.941176 0.466667
1 0.945098 0.470588
1 0.945098 0.470588
1 0.945098 0.470588
1 0.945098 0.470588
1 0.945098 0.470588
0.321569 0.054902 0.14902
0.368627 0.066667 0.160784
0.427451 0.082353 0.176471
0.505882 0.101961 0.196078
0.596078 0.121569 0.223529
0.67451 0.282353 0.219608
0.764706 0.392157 0.219608
0.85098 0.486275 0.219608
0.937255 0.576471 0.215686
1 0.658824 0.215686
1 0.733333 0.219608
1 0.803922 0.227451
1 0.866667 0.235294
1 0.894118 0.266667
1 0.901961 0.305882
1 0.913725 0.341176
1 0.921569 0.376471
1 0.929412 0.411765
1 0.937255 0.443137
1 0.941176 0.470588
1 0.941176 0.47451
1 0.941176 0.47451
1 0.941176 0.47451
1 0.941176 0.47451
1 0.941176 0.47451
0.380392 0.070588 0.172549
0.419608 0.078431 0.184314
0.470588 0.090196 0.196078
0.541176 0.109804 0.215686
0.623529 0.129412 0.239216
0.713725 0.184314 0.258824
0.796078 0.337255 0.25098
0.878431 0.447059 0.25098
0.956863 0.545098 0.247059
1 0.635294 0.247059
1 0.713725 0.247059
1 0.788235 0.25098
1 0.85098 0.258824
1 0.878431 0.282353
1 0.894118 0.317647
1 0.905882 0.352941
1 0.917647 0.384314
1 0.92549 0.415686
1 0.933333 0.447059
1 0.941176 0.47451
1 0.941176 0.47451
1 0.941176 0.47451
1 0.941176 0.47451
1 0.941176 0.47451
1 0.941176 0.47451
0.439216 0.082353 0.196078
0.470588 0.090196 0.203922
0.513725 0.101961 0.215686
0.576471 0.117647 0.231373
0.654902 0.137255 0.254902
0.745098 0.156863 0.278431
0.831373 0.25098 0.290196
0.909804 0.396078 0.286275
0.984314 0.501961 0.282353
1 0.603922 0.278431
1 0.690196 0.278431
1 0.768627 0.278431
1 0.835294 0.282353
1 0.866667 0.301961
1 0.882353 0.333333
1 0.898039 0.360784
1 0.909804 0.392157
1 0.921569 0.423529
1 0.929412 0.45098
1 0.941176 0.478431
1 0.941176 0.478431
1 0.941176 0.478431
1 0.941176 0.478431
1 0.941176 0.478431
1 0.941176 0.478431
0.494118 0.098039 0.219608
0.521569 0.101961 0.227451
0.560784 0.113725 0.235294
0.619608 0.129412 0.25098
0.690196 0.145098 0.270588
0.776471 0.164706 0.290196
0.862745 0.188235 0.317647
0.941176 0.313725 0.321569
1 0.447059 0.317647
1 0.560784 0.313725
1 0.654902 0.309804
1 0.741176 0.305882
1 0.815686 0.305882
1 0.847059 0.32549
1 0.870588 0.34902
1 0.890196 0.376471
1 0.905882 0.403922
1 0.917647 0.431373
1 0.929412 0.458824
1 0.937255 0.482353
1 0.941176 0.486275
1 0.941176 0.486275
1 0.941176 0.486275
1 0.941176 0.486275
1 0.941176 0.486275
0.552941 0.109804 0.243137
0.576471 0.117647 0.25098
0.611765 0.12549 0.258824
0.662745 0.137255 0.270588
0.729412 0.152941 0.286275
0.807843 0.172549 0.305882
0.890196 0.192157 0.329412
0.976471 0.215686 0.356863
1 0.372549 0.352941
1 0.501961 0.34902
1 0.611765 0.345098
1 0.705882 0.337255
1 0.784314 0.337255
1 0.827451 0.34902
1 0.854902 0.364706
1 0.878431 0.388235
1 0.898039 0.411765
1 0.913725 0.439216
1 0.92549 0.462745
1 0.937255 0.486275
1 0.937255 0.490196
1 0.937255 0.490196
1 0.937255 0.490196
1 0.937255 0.490196
1 0.937255 0.490196
0.607843 0.12549 0.266667
0.631373 0.129412 0.270588
0.662745 0.137255 0.278431
0.709804 0.14902 0.290196
0.772549 0.164706 0.305882
0.843137 0.180392 0.32549
0.921569 0.2 0.345098
0.996078 0.219608 0.368627
1 0.243137 0.396078
1 0.427451 0.388235
1 0.556863 0.380392
1 0.662745 0.372549
1 0.74902 0.368627
1 0.803922 0.372549
1 0.839216 0.384314
1 0.866667 0.403922
1 0.890196 0.423529
1 0.909804 0.447059
1 0.92549 0.470588
1 0.937255 0.494118
1 0.937255 0.494118
1 0.937255 0.494118
1 0.937255 0.494118
1 0.937255 0.494118
1 0.937255 0.494118
0.666667 0.137255 0.290196
0.686275 0.141176 0.294118
0.713725 0.14902 0.301961
0.760784 0.160784 0.309804
0.815686 0.176471 0.32549
0.882353 0.192157 0.341176
0.952941 0.207843 0.360784
1 0.227451 0.384314
1 0.243137 0.407843
1 0.305882 0.427451
1 0.478431 0.419608
1 0.607843 0.407843
1 0.709804 0.4
1 0.776471 0.396078
1 0.823529 0.403922
1 0.854902 0.419608
1 0.882353 0.435294
1 0.905882 0.454902
1 0.921569 0.478431
1 0.937255 0.498039
1 0.937255 0.498039
1 0.937255 0.498039
1 0.937255 0.498039
1 0.937255 0.498039
1 0.937255 0.498039
0.72549 0.152941 0.313725
0.741176 0.156863 0.317647
0.768627 0.164706 0.321569
0.807843 0.172549 0.333333
0.858824 0.184314 0.345098
0.921569 0.2 0.360784
0.984314 0.215686 0.380392
1 0.231373 0.4
1 0.25098 0.423529
1 0.266667 0.447059
1 0.372549 0.458824
1 0.533333 0.447059
1 0.654902 0.427451
1 0.74902 0.419608
1 0.803922 0.423529
1 0.843137 0.435294
1 0.87451 0.447059
1 0.901961 0.466667
1 0.921569 0.486275
1 0.937255 0.505882
1 0.937255 0.505882
1 0.937255 0.505882
1 0.937255 0.505882
1 0.937255 0.505882
1 0.937255 0.505882
0.784314 0.164706 0.337255
0.8 0.168627 0.341176
0.823529 0.176471 0.345098
0.858824 0.184314 0.352941
0.905882 0.196078 0.364706
0.960784 0.207843 0.380392
1 0.223529 0.396078
1 0.239216 0.415686
1 0.254902 0.439216
1 0.270588 0.462745
1 0.286275 0.486275
1 0.427451 0.486275
1 0.580392 0.454902
1 0.698039 0.439216
1 0.784314 0.443137
1 0.835294 0.447059
1 0.870588 0.458824
1 0.898039 0.47451
1 0.917647 0.494118
1 0.937255 0.509804
1 0.937255 0.509804
1 0.937255 0.509804
1 0.937255 0.509804
1 0.937255 0.509804
1 0.937255 0.509804
0.839216 0.180392 0.360784
0.854902 0.184314 0.360784
0.87451 0.188235 0.368627
0.905882 0.196078 0.376471
0.94902 0.207843 0.384314
0.996078 0.219608 0.4
1 0.231373 0.415686
1 0.247059 0.435294
1 0.262745 0.454902
1 0.278431 0.47451
1 0.290196 0.498039
1 0.301961 0.517647
1 0.47451 0.482353
1 0.623529 0.458824
1 0.737255 0.45098
1 0.823529 0.462745
1 0.862745 0.470588
1 0.894118 0.486275
1 0.917647 0.498039
1 0.937255 0.513725
1 0.941176 0.517647
1 0.941176 0.517647
1 0.941176 0.517647
1 0.941176 0.517647
1 0.941176 0.517647
0.894118 0.192157 0.384314
0.905882 0.196078 0.384314
0.92549 0.2 0.388235
0.956863 0.207843 0.396078
0.992157 0.215686 0.407843
1 0.227451 0.419608
1 0.239216 0.435294
1 0.254902 0.45098
1 0.266667 0.470588
1 0.282353 0.490196
1 0.294118 0.513725
1 0.301961 0.521569
1 0.309804 0.513725
1 0.521569 0.482353
1 0.666667 0.462745
1 0.780392 0.466667
1 0.858824 0.482353
1 0.894118 0.494118
1 0.921569 0.505882
1 0.941176 0.521569
1 0.941176 0.521569
1 0.941176 0.521569
1 0.941176 0.521569
1 0.941176 0.521569
1 0.941176 0.521569
0.94902 0.207843 0.407843
0.960784 0.207843 0.407843
0.976471 0.211765 0.411765
1 0.219608 0.419608
1 0.227451 0.427451
1 0.239216 0.439216
1 0.247059 0.454902
1 0.262745 0.470588
1 0.27451 0.486275
1 0.286275 0.505882
1 0.298039 0.52549
1 0.301961 0.52549
1 0.301961 0.517647
1 0.368627 0.505882
1 0.568627 0.478431
1 0.709804 0.470588
1 0.815686 0.478431
1 0.894118 0.501961
1 0.921569 0.513725
1 0.945098 0.52549
1 0.945098 0.52549
1 0.945098 0.52549
1 0.945098 0.52549
1 0.945098 0.52549
1 0.945098 0.52549
1 0.219608 0.431373
1 0.219608 0.431373
1 0.223529 0.435294
1 0.231373 0.443137
1 0.239216 0.45098
1 0.247059 0.458824
1 0.258824 0.47451
1 0.266667 0.486275
1 0.278431 0.505882
1 0.290196 0.521569
1 0.301961 0.533333
1 0.301961 0.52549
1 0.301961 0.521569
1 0.301961 0.517647
1 0.427451 0.501961
1 0.619608 0.482353
1 0.752941 0.478431
1 0.854902 0.494118
1 0.92549 0.521569
1 0.94902 0.529412
1 0.952941 0.533333
1 0.952941 0.533333
1 0.952941 0.533333
1 0.952941 0.533333
1 0.952941 0.533333
1 0.231373 0.45098
1 0.231373 0.454902
1 0.235294 0.458824
1 0.239216 0.462745
1 0.247059 0.470588
1 0.254902 0.482353
1 0.266667 0.494118
1 0.27451 0.505882
1 0.286275 0.521569
1 0.298039 0.537255
1 0.301961 0.537255
1 0.301961 0.529412
1 0.301961 0.52549
1 0.301961 0.521569
1 0.301961 0.517647
1 0.482353 0.498039
1 0.666667 0.482353
1 0.792157 0.486275
1 0.890196 0.505882
1 0.956863 0.533333
1 0.956863 0.537255
1 0.956863 0.537255
1 0.956863 0.537255
1 0.956863 0.537255
1 0.956863 0.537255
1 0.243137 0.47451
1 0.243137 0.478431
1 0.247059 0.478431
1 0.25098 0.486275
1 0.258824 0.490196
1 0.262745 0.501961
1 0.27451 0.509804
1 0.282353 0.52549
1 0.294118 0.537255
1 0.298039 0.54902
1 0.301961 0.541176
1 0.301961 0.533333
1 0.301961 0.529412
1 0.301961 0.52549
1 0.301961 0.517647
1 0.301961 0.513725
1 0.537255 0.494118
1 0.709804 0.486275
1 0.831373 0.498039
1 0.921569 0.521569
1 0.92549 0.521569
1 0.92549 0.521569
1 0.92549 0.521569
1 0.92549 0.521569
1 0.92549 0.521569
1 0.25098 0.498039
1 0.254902 0.498039
1 0.254902 0.501961
1 0.258824 0.505882
1 0.266667 0.513725
1 0.27451 0.521569
1 0.282353 0.529412
1 0.290196 0.541176
1 0.298039 0.552941
1 0.298039 0.54902
1 0.298039 0.545098
1 0.301961 0.537255
1 0.301961 0.533333
1 0.301961 0.52549
1 0.301961 0.521569
1 0.301961 0.517647
1 0.321569 0.513725
1 0.592157 0.494118
1 0.756863 0.490196
1 0.866667 0.505882
1 0.87451 0.509804
1 0.87451 0.509804
1 0.87451 0.509804
1 0.87451 0.509804
1 0.87451 0.509804
1 0.262745 0.517647
1 0.262745 0.521569
1 0.266667 0.521569
1 0.270588 0.52549
1 0.27451 0.533333
1 0.282353 0.541176
1 0.286275 0.54902
1 0.294118 0.560784
1 0.298039 0.560784
1 0.298039 0.552941
1 0.298039 0.545098
1 0.301961 0.541176
1 0.301961 0.537255
1 0.301961 0.529412
1 0.301961 0.52549
1 0.301961 0.521569
1 0.301961 0.517647
1 0.403922 0.509804
1 0.647059 0.494118
1 0.796078 0.498039
1 0.803922 0.498039
1 0.803922 0.498039
1 0.803922 0.498039
1 0.803922 0.498039
1 0.803922 0.498039
1 0.270588 0.537255
1 0.27451 0.541176
1 0.27451 0.541176
1 0.278431 0.545098
1 0.282353 0.552941
1 0.290196 0.560784
1 0.294118 0.568627
1 0.298039 0.568627
1 0.298039 0.560784
1 0.298039 0.556863
1 0.298039 0.54902
1 0.298039 0.545098
1 0.301961 0.537255
1 0.301961 0.533333
1 0.301961 0.529412
1 0.301961 0.52549
1 0.301961 0.521569
1 0.301961 0.517647
1 0.47451 0.505882
1 0.694118 0.494118
1 0.705882 0.494118
1 0.705882 0.494118
1 0.705882 0.494118
1 0.705882 0.494118
1 0.705882 0.494118
1 0.282353 0.560784
1 0.282353 0.560784
1 0.286275 0.564706
1 0.286275 0.564706
1 0.290196 0.572549
1 0.294118 0.576471
1 0.298039 0.576471
1 0.298039 0.572549
1 0.298039 0.564706
1 0.298039 0.556863
1 0.298039 0.552941
1 0.298039 0.545098
1 0.301961 0.541176
1 0.301961 0.537255
1 0.301961 0.533333
1 0.301961 0.52549
1 0.301961 0.521569
1 0.301961 0.517647
1 0.301961 0.517647
1 0.533333 0.501961
1 0.552941 0.501961
1 0.552941 0.501961
1 0.552941 0.501961
1 0.552941 0.501961
1 0.552941 0.501961
1 0.290196 0.580392
1 0.290196 0.580392
1 0.294118 0.584314
1 0.294118 0.584314
1 0.298039 0.588235
1 0.298039 0.584314
1 0.298039 0.576471
1 0.298039 0.572549
1 0.298039 0.568627
1 0.298039 0.560784
1 0.298039 0.556863
1 0.298039 0.54902
1 0.298039 0.545098
1 0.301961 0.537255
1 0.301961 0.533333
1 0.301961 0.529412
1 0.301961 0.52549
1 0.301961 0.521569
1 0.301961 0.517647
1 0.301961 0.513725
1 0.301961 0.513725
1 0.301961 0.513725
1 0.301961 0.513725
1 0.301961 0.513725
1 0.301961 0.513725
0 0.054902 0.031373
0.027451 0.145098 0.054902
0.215686 0.207843 0.066667
0.333333 0.278431 0.078431
0.447059 0.34902 0.086275
0.552941 0.423529 0.098039
0.662745 0.498039 0.105882
0.768627 0.572549 0.113725
0.866667 0.647059 0.117647
0.960784 0.713725 0.12549
1 0.780392 0.137255
1 0.839216 0.156863
1 0.894118 0.176471
1 0.92549 0.215686
1 0.92549 0.270588
1 0.929412 0.317647
1 0.933333 0.360784
1 0.937255 0.396078
1 0.941176 0.431373
1 0.945098 0.462745
1 0.945098 0.466667
1 0.945098 0.466667
1 0.945098 0.466667
1 0.945098 0.466667
1 0.945098 0.466667
0.011765 0.023529 0.07451
0.105882 0.07451 0.086275
0.239216 0.172549 0.086275
0.352941 0.254902 0.098039
0.458824 0.333333 0.105882
0.564706 0.411765 0.113725
0.670588 0.486275 0.121569
0.776471 0.564706 0.12549
0.87451 0.639216 0.129412
0.964706 0.709804 0.137255
1 0.776471 0.14902
1 0.835294 0.164706
1 0.890196 0.184314
1 0.921569 0.223529
1 0.92549 0.27451
1 0.929412 0.321569
1 0.933333 0.360784
1 0.937255 0.4
1 0.941176 0.431373
1 0.945098 0.462745
1 0.945098 0.466667
1 0.945098 0.466667
1 0.945098 0.466667
1 0.945098 0.466667
1 0.945098 0.466667
0.019608 0.035294 0.098039
0.164706 0.019608 0.113725
0.278431 0.121569 0.121569
0.376471 0.227451 0.121569
0.478431 0.317647 0.12549
0.580392 0.396078 0.133333
0.682353 0.478431 0.141176
0.784314 0.556863 0.141176
0.882353 0.631373 0.145098
0.972549 0.701961 0.14902
1 0.768627 0.160784
1 0.831373 0.176471
1 0.890196 0.192157
1 0.917647 0.227451
1 0.921569 0.278431
1 0.92549 0.321569
1 0.929412 0.364706
1 0.937255 0.4
1 0.941176 0.435294
1 0.945098 0.466667
1 0.945098 0.466667
1 0.945098 0.466667
1 0.945098 0.466667
1 0.945098 0.466667
1 0.945098 0.466667
0.12549 0.035294 0.117647
0.219608 0.031373 0.129412
0.321569 0.054902 0.14902
0.411765 0.176471 0.152941
0.501961 0.286275 0.152941
0.6 0.372549 0.156863
0.701961 0.458824 0.160784
0.8 0.541176 0.164706
0.894118 0.619608 0.164706
0.980392 0.694118 0.168627
1 0.760784 0.176471
1 0.827451 0.188235
1 0.882353 0.203922
1 0.913725 0.239216
1 0.917647 0.286275
1 0.921569 0.329412
1 0.929412 0.368627
1 0.933333 0.403922
1 0.937255 0.435294
1 0.945098 0.466667
1 0.945098 0.470588
1 0.945098 0.470588
1 0.945098 0.470588
1 0.945098 0.470588
1 0.945098 0.470588
0.203922 0.031373 0.137255
0.278431 0.043137 0.14902
0.356863 0.062745 0.164706
0.45098 0.086275 0.188235
0.537255 0.231373 0.188235
0.627451 0.341176 0.188235
0.721569 0.431373 0.188235
0.819608 0.521569 0.188235
0.909804 0.603922 0.188235
0.992157 0.682353 0.192157
1 0.752941 0.196078
1 0.815686 0.207843
1 0.87451 0.219608
1 0.905882 0.25098
1 0.913725 0.294118
1 0.917647 0.333333
1 0.92549 0.372549
1 0.933333 0.407843
1 0.937255 0.439216
1 0.945098 0.470588
1 0.945098 0.470588
1 0.945098 0.470588
1 0.945098 0.470588
1 0.945098 0.470588
1 0.945098 0.470588
0.278431 0.043137 0.156863
0.333333 0.054902 0.168627
0.4 0.07451 0.184314
0.482353 0.094118 0.203922
0.576471 0.121569 0.227451
0.658824 0.286275 0.219608
0.74902 0.396078 0.219608
0.839216 0.490196 0.219608
0.92549 0.580392 0.219608
1 0.662745 0.219608
1 0.737255 0.219608
1 0.803922 0.227451
1 0.866667 0.235294
1 0.894118 0.266667
1 0.905882 0.305882
1 0.913725 0.341176
1 0.921569 0.376471
1 0.929412 0.411765
1 0.937255 0.443137
1 0.941176 0.470588
1 0.941176 0.47451
1 0.941176 0.47451
1 0.941176 0.47451
1 0.941176 0.47451
1 0.941176 0.47451
0.345098 0.058824 0.180392
0.388235 0.070588 0.188235
0.443137 0.086275 0.2
0.517647 0.101961 0.219608
0.603922 0.12549 0.243137
0.698039 0.192157 0.258824
0.780392 0.341176 0.254902
0.866667 0.45098 0.25098
0.94902 0.54902 0.25098
1 0.635294 0.247059
1 0.717647 0.247059
1 0.788235 0.25098
1 0.854902 0.258824
1 0.882353 0.282353
1 0.894118 0.317647
1 0.905882 0.352941
1 0.917647 0.384314
1 0.92549 0.415686
1 0.933333 0.447059
1 0.941176 0.47451
1 0.941176 0.478431
1 0.941176 0.478431
1 0.941176 0.478431
1 0.941176 0.478431
1 0.941176 0.478431
0.407843 0.07451 0.203922
0.443137 0.082353 0.211765
0.494118 0.098039 0.219608
0.560784 0.113725 0.235294
0.639216 0.133333 0.254902
0.729412 0.152941 0.278431
0.819608 0.258824 0.290196
0.898039 0.396078 0.286275
0.976471 0.505882 0.282353
1 0.603922 0.278431
1 0.690196 0.278431
1 0.768627 0.278431
1 0.835294 0.282353
1 0.866667 0.305882
1 0.886275 0.333333
1 0.898039 0.364706
1 0.913725 0.392157
1 0.921569 0.423529
1 0.933333 0.45098
1 0.941176 0.478431
1 0.941176 0.482353
1 0.941176 0.482353
1 0.941176 0.482353
1 0.941176 0.482353
1 0.941176 0.482353
0.470588 0.090196 0.227451
0.501961 0.098039 0.231373
0.541176 0.109804 0.243137
0.603922 0.121569 0.254902
0.67451 0.141176 0.27451
0.760784 0.160784 0.294118
0.85098 0.184314 0.317647
0.933333 0.317647 0.321569
1 0.45098 0.317647
1 0.560784 0.313725
1 0.658824 0.309804
1 0.741176 0.309804
1 0.815686 0.309804
1 0.85098 0.32549
1 0.870588 0.34902
1 0.890196 0.376471
1 0.905882 0.403922
1 0.917647 0.431373
1 0.929412 0.458824
1 0.937255 0.482353
1 0.941176 0.486275
1 0.941176 0.486275
1 0.941176 0.486275
1 0.941176 0.486275
1 0.941176 0.486275
0.529412 0.105882 0.247059
0.556863 0.109804 0.254902
0.592157 0.121569 0.262745
0.647059 0.133333 0.27451
0.717647 0.14902 0.290196
0.796078 0.168627 0.309804
0.878431 0.192157 0.333333
0.964706 0.211765 0.356863
1 0.376471 0.356863
1 0.505882 0.34902
1 0.615686 0.345098
1 0.709804 0.341176
1 0.788235 0.337255
1 0.827451 0.34902
1 0.858824 0.368627
1 0.882353 0.388235
1 0.898039 0.411765
1 0.913725 0.439216
1 0.92549 0.462745
1 0.937255 0.486275
1 0.937255 0.490196
1 0.937255 0.490196
1 0.937255 0.490196
1 0.937255 0.490196
1 0.937255 0.490196
0.592157 0.121569 0.270588
0.611765 0.12549 0.27451
0.647059 0.133333 0.282353
0.694118 0.145098 0.294118
0.760784 0.160784 0.309804
0.831373 0.180392 0.32549
0.909804 0.2 0.34902
0.992157 0.219608 0.372549
1 0.243137 0.396078
1 0.427451 0.388235
1 0.556863 0.380392
1 0.666667 0.372549
1 0.752941 0.368627
1 0.803922 0.372549
1 0.843137 0.384314
1 0.870588 0.403922
1 0.890196 0.423529
1 0.909804 0.447059
1 0.92549 0.470588
1 0.937255 0.494118
1 0.937255 0.494118
1 0.937255 0.494118
1 0.937255 0.494118
1 0.937255 0.494118
1 0.937255 0.494118
