site/assets/luts/freshluts--0000871-picturefx-faux-infrared-viii.cube
# LUTr-Schema-Version: 2
# LUTr-ID: freshluts--0000871-picturefx-faux-infrared-viii
# LUTr-Title: PictureFX Faux Infrared vIII
# LUTr-Collection: Fresh LUTs
# LUTr-Collection-ID: freshluts-community
# LUTr-Source: https://freshluts.com
# LUTr-Retrieved: 2026-07-27
# LUTr-Source-File: submissions-raw/freshluts/cubes/871__PictureFX-Faux-Infrared-vIII.cube
# LUTr-Source-Format: CUBE
# LUTr-Source-SHA256: 7f01a6d8d20a187b5d12ff86785d6c32dec0823fae8d80304d0e42a180a845ec
# LUTr-License: CC0-1.0
# LUTr-License-URL: https://freshluts.com/termsandconditions
# LUTr-License-Basis: site-terms
# LUTr-Transform-Class: creative-look
# LUTr-Tags: creative, freshluts, community, cube, film-emulation
# LUTr-Input-Color-Space:
# LUTr-Input-Gamut: unspecified
# LUTr-Input-Transfer: unspecified
# LUTr-Output-Color-Space: srgb
# LUTr-Output-Gamut: rec709
# LUTr-Output-Transfer: srgb
# LUTr-Color-Space-Confidence: camera-profile-input-required
# LUTr-Domain-Normalized: true
# LUTr-Shaper: none
# LUTr-Original-Grid: 25x25x25
# LUTr-Conversion-Grid: 25x25x25
# LUTr-Conversion-Interpolation: none
# LUTr-Conversion-Method: Metadata normalization; numeric LUT samples preserved
# LUTr-Conversion-Tool: LUTr scripts/convert-all-to-cube.mjs 2.0.0
# LUTr-Conversion-Date: 2026-07-28
# LUTr-Asset-URL: https://freshluts.com/luts/871
# LUTr-Author: MarcR.
# LUTr-Author-URL: https://freshluts.com/users/86490
# LUTr-Attribution: MarcR. via Fresh LUTs
# LUTr-Source-Labels: gamma=Other; color=None; key=Neutral; style=Film emulation
# LUTr-Note: Preserve this metadata and the upstream license notices when redistributing.
# LUTr-Upstream-Comment: Generated with IWLTBAP LUT Generator
# LUTr-Upstream-Comment: Website: http://luts.iwltbap.com
# LUTr-Upstream-Comment: LUT size
# LUTr-Upstream-Comment: LUT data points
TITLE "PictureFX Faux Infrared vIII"
LUT_3D_SIZE 5
DOMAIN_MIN 0 0 0
DOMAIN_MAX 1 1 1
0 0 0
0.603922 0.517647 0.380392
1 0.933333 0.705882
1 0.984314 0.905882
1 0.988235 0.933333
0.356863 0.090196 0.243137
0.729412 0.372549 0.458824
1 0.894118 0.737255
1 0.976471 0.913725
1 0.984314 0.945098
0.670588 0.203922 0.470588
0.913725 0.290196 0.6
1 0.709804 0.807843
1 0.964706 0.945098
1 0.980392 0.968627
0.968627 0.313725 0.694118
1 0.360784 0.768627
1 0.407843 0.839216
1 0.933333 0.952941
1 1 1
1 0.396078 0.886275
1 0.407843 0.894118
1 0.407843 0.858824
1 0.407843 0.831373
1 0.407843 0.827451
0 0.254902 0.235294
0.380392 0.572549 0.423529
0.992157 0.941176 0.713725
1 0.992157 0.913725
1 0.992157 0.945098
0.07451 0.164706 0.32549
0.537255 0.4 0.45098
1 0.901961 0.745098
1 0.984314 0.92549
1 0.988235 0.952941
0.486275 0.196078 0.482353
0.807843 0.254902 0.603922
1 0.733333 0.827451
1 0.972549 0.952941
1 0.988235 0.976471
0.87451 0.282353 0.694118
1 0.341176 0.772549
1 0.407843 0.866667
1 0.945098 0.960784
1 1 1
1 0.384314 0.890196
1 0.407843 0.92549
1 0.407843 0.878431
1 0.407843 0.843137
1 0.431373 0.843137
0 0.478431 0.447059
0 0.698039 0.556863
0.792157 0.996078 0.780392
1 1 0.945098
1 1 0.972549
0.05098 0.313725 0.505882
0 0.576471 0.564706
0.835294 0.945098 0.784314
1 1 0.952941
1 1 0.976471
0.172549 0.329412 0.611765
0.313725 0.356863 0.678431
0.996078 0.772549 0.835294
1 0.992157 0.976471
1 1 0.996078
0.513725 0.380392 0.756863
0.796078 0.34902 0.8
1 0.407843 0.952941
1 0.972549 0.980392
1 1 1
0.984314 0.364706 0.901961
1 0.368627 0.941176
1 0.407843 0.941176
1 0.407843 0.878431
1 0.54902 0.882353
0 0.705882 0.658824
0 0.843137 0.72549
0 1 0.854902
0.992157 1 0.992157
1 1 1
0 0.619608 0.690196
0 0.760784 0.729412
0 1 0.882353
1 1 1
1 1 1
0.227451 0.423529 0.776471
0.211765 0.470588 0.815686
0.305882 0.901961 0.894118
1 1 1
1 1 1
0.262745 0.482353 0.87451
0.27451 0.498039 0.905882
0.960784 0.447059 0.992157
1 1 1
1 1 1
0.356863 0.541176 0.984314
0.72549 0.509804 1
1 0.423529 1
1 0.45098 0.94902
1 0.705882 0.945098
0 0.901961 0.843137
0 0.988235 0.882353
0 1 0.894118
0.760784 1 0.921569
0.94902 1 0.976471
0 0.854902 0.862745
0 0.937255 0.886275
0 1 0.921569
0.796078 1 0.937255
0.968627 1 0.988235
0 0.631373 0.929412
0 0.772549 0.945098
0 1 0.992157
0.890196 1 0.968627
1 1 1
0.305882 0.552941 0.996078
0.309804 0.564706 1
0 0.741176 1
1 1 1
1 1 1
0.321569 0.580392 1
0.321569 0.580392 1
0.545098 0.564706 1
1 0.721569 1
1 0.858824 1
