site/assets/luts/freshluts--0000930-picturefx-lijiang-old-china-town-by-night-created-for-night-.cube
# LUTr-Schema-Version: 2
# LUTr-ID: freshluts--0000930-picturefx-lijiang-old-china-town-by-night-created-for-night-
# LUTr-Title: PictureFX Lijiang old China Town by Night - created for night shots from illuminated streets, cafe's, night shops and architecture
# LUTr-Collection: Fresh LUTs
# LUTr-Collection-ID: freshluts-community
# LUTr-Source: https://freshluts.com
# LUTr-Retrieved: 2026-07-27
# LUTr-Source-File: submissions-raw/freshluts/cubes/930__PictureFX-Lijiang-old-China-Town-by-Night-3DL25.cube
# LUTr-Source-Format: CUBE
# LUTr-Source-SHA256: 03577b6588e8a6cd44c8c4c8f4776ec6c37f14129ed29efd4cee733fc19ad01b
# LUTr-License: CC0-1.0
# LUTr-License-URL: https://freshluts.com/termsandconditions
# LUTr-License-Basis: site-terms
# LUTr-Transform-Class: creative-look
# LUTr-Tags: creative, freshluts, community, cube, vintage, rec709, assumed-input
# LUTr-Input-Color-Space: rec709
# LUTr-Input-Gamut: rec709
# LUTr-Input-Transfer: rec709
# LUTr-Output-Color-Space: srgb
# LUTr-Output-Gamut: rec709
# LUTr-Output-Transfer: srgb
# LUTr-Color-Space-Confidence: assumed-display-referred
# LUTr-Domain-Normalized: true
# LUTr-Shaper: none
# LUTr-Original-Grid: 25x25x25
# LUTr-Conversion-Grid: 25x25x25
# LUTr-Conversion-Interpolation: none
# LUTr-Conversion-Method: Metadata normalization; numeric LUT samples preserved
# LUTr-Conversion-Tool: LUTr scripts/convert-all-to-cube.mjs 2.0.0
# LUTr-Conversion-Date: 2026-07-28
# LUTr-Asset-URL: https://freshluts.com/luts/930
# LUTr-Author: MarcR.
# LUTr-Author-URL: https://freshluts.com/users/86490
# LUTr-Attribution: MarcR. via Fresh LUTs
# LUTr-Source-Labels: gamma=Other; color=None; key=Neutral; style=Correction; LUTr assumption=input Rec.709 per repository policy
# LUTr-Conversion-Warning: Input Rec.709 is a LUTr catalog assumption requested for this otherwise unspecified Fresh LUT; it is not verified by the upstream asset.
# LUTr-Note: Preserve this metadata and the upstream license notices when redistributing.
# LUTr-Upstream-Comment: Generated with IWLTBAP LUT Generator
# LUTr-Upstream-Comment: Website: http://luts.iwltbap.com
# LUTr-Upstream-Comment: LUT size
# LUTr-Upstream-Comment: LUT data points
TITLE "PictureFX Lijiang old China Town by Night - created for night shots from illuminated streets, cafe's, night shops and architecture"
LUT_3D_SIZE 9
DOMAIN_MIN 0 0 0
DOMAIN_MAX 1 1 1
0.117647 0 0
0.188235 0 0
0.376471 0 0
0.564706 0 0
0.74902 0 0
0.917647 0 0
1 0 0
1 0 0
1 0 0
0.07451 0.090196 0
0.188235 0.054902 0
0.380392 0 0
0.533333 0 0
0.709804 0 0
0.882353 0 0
1 0 0
1 0 0
1 0 0
0.035294 0.231373 0
0.176471 0.219608 0
0.345098 0.180392 0
0.505882 0.058824 0
0.658824 0 0
0.823529 0 0
0.996078 0 0
1 0 0
1 0 0
0 0.356863 0
0 0.34902 0
0.258824 0.333333 0
0.439216 0.294118 0
0.603922 0.219608 0
0.760784 0 0
0.929412 0 0
1 0 0
1 0 0
0 0.462745 0
0 0.462745 0
0 0.454902 0
0.337255 0.435294 0
0.529412 0.4 0
0.705882 0.345098 0
0.87451 0.243137 0
1 0 0
1 0 0
0 0.576471 0
0 0.576471 0
0 0.572549 0
0.105882 0.560784 0
0.419608 0.541176 0
0.627451 0.513725 0
0.815686 0.466667 0
0.996078 0.396078 0
1 0.254902 0
0 0.713725 0
0 0.709804 0
0 0.709804 0
0 0.701961 0
0.239216 0.690196 0
0.529412 0.67451 0
0.745098 0.643137 0
0.941176 0.603922 0
1 0.552941 0
0 0.847059 0
0 0.85098 0
0 0.85098 0
0 0.847059 0
0 0.843137 0
0.376471 0.839216 0
0.662745 0.823529 0
0.890196 0.803922 0
1 0.772549 0
0 1 0
0 1 0
0 1 0
0 1 0
0 1 0
0 1 0
0.529412 1 0
0.803922 0.984314 0
1 0.960784 0
0.223529 0 0
0.278431 0 0
0.403922 0 0
0.576471 0 0
0.74902 0 0
0.913725 0 0
1 0 0
1 0 0
1 0 0
0.078431 0.078431 0
0.160784 0.062745 0
0.309804 0 0
0.521569 0 0
0.705882 0 0
0.878431 0 0
1 0 0
1 0 0
1 0 0
0 0.227451 0
0.156863 0.219608 0
0.317647 0.184314 0
0.521569 0 0
0.65098 0 0
0.815686 0 0
0.992157 0 0
1 0 0
1 0 0
0 0.352941 0
0 0.345098 0
0.254902 0.329412 0
0.447059 0.286275 0
0.607843 0.207843 0
0.760784 0.003922 0
0.929412 0 0
1 0 0
1 0 0
0 0.462745 0
0 0.462745 0
0.003922 0.454902 0
0.345098 0.435294 0
0.541176 0.4 0
0.713725 0.341176 0
0.878431 0.247059 0
1 0 0
1 0 0
0 0.580392 0
0 0.576471 0
0 0.572549 0
0.133333 0.564706 0
0.431373 0.545098 0
0.635294 0.513725 0
0.819608 0.470588 0
1 0.4 0
1 0.262745 0
0 0.717647 0
0 0.713725 0
0 0.713725 0
0 0.705882 0
0.254902 0.694118 0
0.541176 0.67451 0
0.752941 0.647059 0
0.945098 0.607843 0
1 0.552941 0
0 0.85098 0
0 0.85098 0
0 0.85098 0
0 0.85098 0
0 0.847059 0
0.388235 0.839216 0
0.666667 0.823529 0
0.894118 0.8 0
1 0.768627 0
0 1 0
0 1 0
0 1 0
0 1 0
0 1 0
0 1 0
0.533333 1 0
0.807843 0.980392 0
1 0.956863 0
0.32549 0 0.117647
0.407843 0 0.121569
0.513725 0 0.105882
0.647059 0 0.098039
0.792157 0 0.07451
0.941176 0 0.027451
1 0 0
1 0 0
1 0 0
0.227451 0 0
0.321569 0 0
0.431373 0 0.047059
0.572549 0 0.066667
0.733333 0 0.035294
0.898039 0 0
1 0 0
1 0 0
1 0 0
0.047059 0.219608 0
0.180392 0.207843 0
0.294118 0.192157 0.078431
0.439216 0.137255 0.098039
0.647059 0 0
0.823529 0 0
1 0 0
1 0 0
1 0 0
0 0.34902 0
0 0.345098 0
0.254902 0.32549 0
0.431373 0.290196 0
0.643137 0.160784 0
0.760784 0 0
0.929412 0 0
1 0 0
1 0 0
0 0.466667 0
0 0.462745 0
0.066667 0.454902 0
0.360784 0.431373 0
0.560784 0.392157 0
0.733333 0.333333 0
0.886275 0.25098 0
1 0 0
1 0 0
0 0.580392 0
0 0.580392 0
0 0.576471 0
0.176471 0.564706 0
0.454902 0.541176 0
0.654902 0.509804 0
0.835294 0.466667 0
1 0.4 0
1 0.270588 0
0 0.721569 0
0 0.717647 0
0 0.713725 0
0 0.709804 0
0.294118 0.694118 0
0.560784 0.67451 0
0.768627 0.643137 0
0.960784 0.603922 0
1 0.552941 0
0 0.854902 0
0 0.854902 0
0 0.854902 0
0 0.85098 0
0 0.847059 0
0.411765 0.835294 0
0.682353 0.819608 0
0.901961 0.796078 0
1 0.760784 0
0 1 0
0 1 0
0 1 0
0 1 0
0 1 0
0 1 0
0.552941 0.996078 0
0.815686 0.972549 0
1 0.952941 0
0.427451 0 0.364706
0.494118 0 0.333333
0.611765 0 0.294118
0.74902 0 0.262745
0.878431 0 0.231373
1 0 0.196078
1 0 0.172549
1 0 0.160784
1 0 0.152941
0.372549 0 0.215686
0.447059 0 0.211765
0.564706 0 0.215686
0.690196 0 0.215686
0.823529 0 0.2
0.960784 0 0.176471
1 0 0.156863
1 0 0.145098
1 0 0.137255
0.211765 0.196078 0.035294
0.317647 0.160784 0.003922
0.466667 0 0.078431
0.580392 0 0.156863
0.717647 0 0.164706
0.878431 0 0.141176
1 0 0.121569
1 0 0.105882
1 0 0.098039
0 0.345098 0.019608
0.098039 0.337255 0.019608
0.294118 0.317647 0.058824
0.411765 0.301961 0.180392
0.552941 0.258824 0.207843
0.764706 0 0.113725
0.94902 0 0.05098
1 0 0
1 0 0
0 0.466667 0
0 0.462745 0
0.129412 0.45098 0
0.372549 0.431373 0
0.54902 0.4 0.007843
0.772549 0.298039 0.109804
0.898039 0.239216 0
1 0 0
1 0 0
0 0.580392 0
0 0.580392 0
0 0.572549 0
0.223529 0.560784 0
0.478431 0.541176 0
0.682353 0.501961 0
0.862745 0.45098 0
1 0.392157 0
1 0.270588 0
0 0.721569 0
0 0.721569 0
0 0.717647 0
0 0.709804 0
0.337255 0.694118 0
0.592157 0.670588 0
0.796078 0.639216 0
0.980392 0.6 0
1 0.54902 0
0 0.854902 0
0 0.854902 0
0 0.854902 0
0 0.85098 0
0 0.847059 0
0.454902 0.835294 0
0.709804 0.815686 0
0.92549 0.788235 0
1 0.752941 0
0 1 0
0 1 0
0 1 0
0 1 0
0 1 0
0.121569 1 0
0.584314 0.988235 0
0.839216 0.968627 0
1 0.945098 0
0.501961 0 0.584314
0.560784 0 0.564706
0.682353 0 0.521569
0.823529 0 0.470588
0.956863 0 0.419608
1 0 0.368627
1 0 0.321569
1 0 0.286275
1 0 0.262745
0.45098 0 0.490196
0.513725 0 0.478431
0.635294 0 0.45098
0.776471 0 0.419608
0.909804 0 0.380392
1 0 0.345098
1 0 0.305882
1 0 0.27451
1 0 0.25098
0.392157 0.054902 0.301961
0.462745 0 0.294118
0.588235 0 0.298039
0.713725 0 0.313725
0.839216 0 0.317647
0.972549 0 0.301961
1 0 0.27451
1 0 0.25098
1 0 0.227451
0.129412 0.333333 0.188235
0.239216 0.32549 0.160784
0.419608 0.282353 0.129412
0.596078 0.176471 0.168627
0.705882 0.007843 0.25098
0.847059 0 0.258824
1 0 0.231373
1 0 0.203922
1 0 0.176471
0 0.466667 0.14902
0 0.462745 0.145098
0.2 0.45098 0.141176
0.411765 0.427451 0.172549
0.533333 0.411765 0.286275
0.67451 0.380392 0.321569
0.898039 0.25098 0.227451
1 0 0.168627
1 0 0.117647
0 0.580392 0
0 0.580392 0
0 0.572549 0
0.266667 0.560784 0
0.494118 0.541176 0.05098
0.670588 0.513725 0.164706
0.898039 0.427451 0.223529
1 0.384314 0.168627
1 0.266667 0
0 0.721569 0
0 0.721569 0
0 0.717647 0
0 0.709804 0
0.384314 0.694118 0
0.623529 0.666667 0
0.827451 0.631373 0
1 0.584314 0
1 0.541176 0
0 0.854902 0
0 0.854902 0
0 0.854902 0
0 0.85098 0
0 0.843137 0
0.501961 0.831373 0
0.745098 0.807843 0
0.952941 0.776471 0
1 0.741176 0
0 1 0
0 1 0
0 1 0
0 1 0
0 1 0
0.262745 1 0
0.627451 0.984314 0
0.87451 0.960784 0
1 0.937255 0
0.576471 0 0.815686
0.627451 0 0.8
0.737255 0 0.760784
0.87451 0 0.705882
1 0 0.639216
1 0 0.572549
1 0 0.513725
1 0 0.462745
1 0 0.419608
0.521569 0 0.741176
0.576471 0 0.729412
0.690196 0 0.698039
0.831373 0 0.654902
0.976471 0 0.6
1 0 0.545098
1 0 0.498039
1 0 0.45098
1 0 0.411765
0.470588 0 0.615686
0.52549 0 0.607843
0.639216 0 0.584314
0.780392 0 0.556863
0.921569 0 0.52549
1 0 0.494118
1 0 0.458824
1 0 0.423529
1 0 0.388235
0.333333 0.290196 0.407843
0.407843 0.266667 0.392157
0.556863 0.176471 0.364706
0.721569 0 0.372549
0.85098 0 0.403922
0.972549 0 0.411765
1 0 0.4
1 0 0.372549
1 0 0.345098
0 0.462745 0.321569
0 0.454902 0.305882
0.301961 0.439216 0.270588
0.529412 0.392157 0.235294
0.72549 0.305882 0.258824
0.835294 0.239216 0.352941
0.980392 0 0.364706
1 0 0.341176
1 0 0.309804
0 0.580392 0.258824
0 0.580392 0.254902
0 0.572549 0.247059
0.309804 0.556863 0.243137
0.52549 0.533333 0.27451
0.65098 0.517647 0.392157
0.792157 0.498039 0.431373
1 0.396078 0.341176
1 0.215686 0.282353
0 0.721569 0.133333
0 0.717647 0.129412
0 0.713725 0.129412
0 0.705882 0.133333
0.411765 0.690196 0.160784
0.627451 0.666667 0.219608
0.803922 0.639216 0.298039
1 0.564706 0.345098
1 0.533333 0.313725
0 0.854902 0
0 0.854902 0
0 0.854902 0
0 0.85098 0
0.176471 0.843137 0
0.537255 0.827451 0
0.772549 0.803922 0
0.980392 0.768627 0.129412
1 0.72549 0.215686
0 1 0
0 1 0
0 1 0
0 1 0
0 1 0
0.356863 1 0
0.67451 0.980392 0
0.909804 0.956863 0
1 0.929412 0
0.639216 0 1
0.686275 0 1
0.784314 0 0.996078
0.913725 0 0.941176
1 0 0.870588
1 0 0.8
1 0 0.729412
1 0 0.666667
1 0 0.611765
0.584314 0 0.980392
0.631373 0 0.968627
0.733333 0 0.941176
0.870588 0 0.894118
1 0 0.835294
1 0 0.772549
1 0 0.709804
1 0 0.654902
1 0 0.6
0.521569 0 0.882353
0.572549 0 0.870588
0.678431 0 0.847059
0.815686 0 0.811765
0.968627 0 0.764706
1 0 0.717647
1 0 0.666667
1 0 0.623529
1 0 0.576471
0.427451 0.192157 0.721569
0.482353 0.152941 0.713725
0.6 0 0.694118
0.752941 0 0.67451
0.905882 0 0.65098
1 0 0.623529
1 0 0.596078
1 0 0.564706
1 0 0.529412
0.168627 0.435294 0.533333
0.27451 0.427451 0.517647
0.447059 0.4 0.482353
0.658824 0.317647 0.439216
0.85098 0.105882 0.45098
0.984314 0 0.498039
1 0 0.517647
1 0 0.513725
1 0 0.490196
0 0.580392 0.447059
0 0.576471 0.435294
0 0.568627 0.411765
0.384314 0.54902 0.368627
0.643137 0.498039 0.337255
0.847059 0.419608 0.356863
0.960784 0.380392 0.454902
1 0.278431 0.470588
1 0 0.45098
0 0.721569 0.388235
0 0.717647 0.384314
0 0.713725 0.380392
0 0.705882 0.368627
0.439216 0.686275 0.364706
0.658824 0.658824 0.396078
0.784314 0.647059 0.513725
0.929412 0.627451 0.560784
1 0.54902 0.47451
0 0.858824 0.282353
0 0.858824 0.282353
0 0.854902 0.282353
0 0.85098 0.282353
0.227451 0.843137 0.290196
0.556863 0.827451 0.313725
0.776471 0.803922 0.364706
0.956863 0.784314 0.443137
1 0.717647 0.482353
0 1 0.070588
0 1 0.070588
0 1 0.07451
0 1 0.07451
0 1 0.086275
0.407843 0.996078 0.121569
0.705882 0.980392 0.176471
0.937255 0.952941 0.247059
1 0.921569 0.329412
0.694118 0 1
0.733333 0 1
0.823529 0 1
0.945098 0 1
1 0 1
1 0 1
1 0 0.956863
1 0 0.886275
1 0 0.823529
0.635294 0 1
0.682353 0 1
0.776471 0 1
0.905882 0 1
1 0 1
1 0 1
1 0 0.937255
1 0 0.87451
1 0 0.811765
0.568627 0 1
0.611765 0 1
0.713725 0 1
0.847059 0 1
1 0 1
1 0 0.952941
1 0 0.894118
1 0 0.839216
1 0 0.784314
0.470588 0 0.992157
0.521569 0 0.988235
0.627451 0 0.968627
0.776471 0 0.941176
0.933333 0 0.905882
1 0 0.862745
1 0 0.819608
1 0 0.776471
1 0 0.733333
0.317647 0.380392 0.827451
0.388235 0.368627 0.819608
0.521569 0.329412 0.803922
0.690196 0.231373 0.784314
0.870588 0 0.760784
1 0 0.745098
1 0 0.729412
1 0 0.709804
1 0 0.686275
0 0.564706 0.658824
0 0.560784 0.647059
0.247059 0.54902 0.623529
0.505882 0.513725 0.572549
0.764706 0.435294 0.513725
0.976471 0.290196 0.533333
1 0.062745 0.592157
1 0 0.619608
1 0 0.623529
0 0.717647 0.588235
0 0.717647 0.580392
0 0.709804 0.564706
0.117647 0.701961 0.533333
0.501961 0.67451 0.486275
0.772549 0.623529 0.45098
0.992157 0.552941 0.466667
1 0.52549 0.580392
1 0.462745 0.607843
0 0.858824 0.521569
0 0.858824 0.517647
0 0.858824 0.513725
0 0.854902 0.505882
0.247059 0.843137 0.494118
0.584314 0.827451 0.498039
0.811765 0.803922 0.533333
0.941176 0.796078 0.658824
1 0.780392 0.705882
0 1 0.45098
0 1 0.447059
0 1 0.447059
0 1 0.443137
0 1 0.443137
0.431373 1 0.447059
0.721569 0.980392 0.466667
0.941176 0.960784 0.521569
1 0.941176 0.596078
0.733333 0 1
0.768627 0 1
0.85098 0 1
0.968627 0 1
1 0 1
1 0 1
1 0 1
1 0 1
1 0 1
0.678431 0 1
0.721569 0 1
0.807843 0 1
0.933333 0 1
1 0 1
1 0 1
1 0 1
1 0 1
1 0 1
0.603922 0 1
0.647059 0 1
0.741176 0 1
0.870588 0 1
1 0 1
1 0 1
1 0 1
1 0 1
1 0 1
0.494118 0 1
0.545098 0 1
0.65098 0 1
0.792157 0 1
0.952941 0 1
1 0 1
1 0 1
1 0 1
1 0 0.956863
0.364706 0.305882 1
0.423529 0.286275 1
0.54902 0.231373 1
0.705882 0.019608 1
0.882353 0 1
1 0 1
1 0 0.968627
1 0 0.937255
1 0 0.901961
0 0.52549 0.933333
0.137255 0.521569 0.929412
0.372549 0.501961 0.913725
0.580392 0.458824 0.894118
0.792157 0.376471 0.870588
0.992157 0.2 0.85098
1 0 0.843137
1 0 0.835294
1 0 0.823529
0 0.705882 0.803922
0 0.705882 0.8
0 0.698039 0.780392
0.286275 0.682353 0.745098
0.603922 0.647059 0.682353
0.890196 0.568627 0.607843
1 0.447059 0.639216
1 0.34902 0.713725
1 0.219608 0.760784
0 0.862745 0.733333
0 0.862745 0.729412
0 0.858824 0.717647
0 0.854902 0.698039
0.290196 0.847059 0.666667
0.643137 0.823529 0.619608
0.937255 0.776471 0.596078
1 0.713725 0.611765
1 0.690196 0.729412
0 1 0.686275
0 1 0.686275
0 1 0.678431
0 1 0.670588
0 1 0.658824
0.439216 1 0.647059
0.745098 0.984314 0.643137
0.976471 0.960784 0.686275
1 0.956863 0.811765
