site/assets/luts/freshluts--0001238-correction-cine1.cube
# LUTr-Schema-Version: 2
# LUTr-ID: freshluts--0001238-correction-cine1
# LUTr-Title: Correction-cine1
# LUTr-Collection: Fresh LUTs
# LUTr-Collection-ID: freshluts-community
# LUTr-Source: https://freshluts.com
# LUTr-Retrieved: 2026-07-27
# LUTr-Source-File: submissions-raw/freshluts/cubes/1238__correction-cine1.cube
# LUTr-Source-Format: CUBE
# LUTr-Source-SHA256: 48c18b40689fdc9670b7b95fd0941c548b97752e20d3aae32e233394878a0301
# LUTr-License: CC0-1.0
# LUTr-License-URL: https://freshluts.com/termsandconditions
# LUTr-License-Basis: site-terms
# LUTr-Transform-Class: creative-look
# LUTr-Tags: creative, freshluts, community, cube, purple, low-key, sony-s-log3, correction
# LUTr-Input-Color-Space: sony-slog3-sgamut3
# LUTr-Input-Gamut: sony-s-gamut3
# LUTr-Input-Transfer: sony-s-log3
# LUTr-Output-Color-Space: srgb
# LUTr-Output-Gamut: rec709
# LUTr-Output-Transfer: srgb
# LUTr-Color-Space-Confidence: inferred-from-source-label
# LUTr-Domain-Normalized: true
# LUTr-Shaper: none
# LUTr-Original-Grid: 16x16x16
# LUTr-Conversion-Grid: 16x16x16
# LUTr-Conversion-Interpolation: none
# LUTr-Conversion-Method: Metadata normalization; numeric LUT samples preserved
# LUTr-Conversion-Tool: LUTr scripts/convert-all-to-cube.mjs 2.0.0
# LUTr-Conversion-Date: 2026-07-28
# LUTr-Asset-URL: https://freshluts.com/luts/1238
# LUTr-Author: lvannoeun@gmail.com
# LUTr-Author-URL: https://freshluts.com/users/57563
# LUTr-Attribution: lvannoeun@gmail.com via Fresh LUTs
# LUTr-Source-Labels: gamma=Sony S-Log 3; color=Purple; key=Low Key; style=cine drama
# LUTr-Note: Preserve this metadata and the upstream license notices when redistributing.
TITLE "Correction-cine1"
LUT_3D_SIZE 16
DOMAIN_MIN 0 0 0
DOMAIN_MAX 1 1 1
0 0 0
0.028803 -0.000246 -0.000246
0.082794 -0.000507 -0.000507
0.149009 -0.000773 -0.000773
0.218134 -0.001043 -0.001043
0.289236 -0.001315 -0.001315
0.361881 -0.001589 -0.001589
0.435564 -0.001863 -0.001863
0.509857 -0.002136 -0.002136
0.58383 -0.002406 -0.002406
0.657113 -0.002671 -0.002671
0.729297 -0.00293 -0.00293
0.799731 -0.003181 -0.003181
0.867657 -0.003423 -0.003423
0.928893 -0.003647 -0.003647
0.96931 -0.003828 -0.003828
-0.000437 0.034125 -0.000437
0.028803 0.034125 -0.00048
0.082794 0.035502 -0.00064
0.149009 0.036328 -0.000858
0.218134 0.0369 -0.001102
0.289236 0.037339 -0.00136
0.361881 0.037689 -0.001624
0.435564 0.037939 -0.001891
0.509857 0.038122 -0.00216
0.58383 0.03817 -0.002426
0.657113 0.038125 -0.002688
0.729297 0.03798 -0.002945
0.799731 0.037738 -0.003195
0.867657 0.037377 -0.003435
0.928893 0.036837 -0.003658
0.96931 0.035797 -0.003837
-0.000899 0.092075 -0.000899
0.030042 0.092066 -0.000917
0.082794 0.092066 -0.000988
0.149009 0.094179 -0.001132
0.218134 0.095641 -0.001317
0.289236 0.096748 -0.00153
0.361881 0.097625 -0.001763
0.435564 0.098272 -0.002007
0.509857 0.098714 -0.002258
0.58383 0.098867 -0.00251
0.657113 0.098745 -0.002761
0.729296 0.098392 -0.00301
0.799731 0.097784 -0.003252
0.867657 0.096872 -0.003485
0.928893 0.09551 -0.003703
0.96931 0.09287 -0.003877
-0.001372 0.158877 -0.001372
0.030783 0.158877 -0.001382
0.084869 0.158877 -0.001425
0.149008 0.158877 -0.001507
0.218133 0.161141 -0.001645
0.289236 0.162852 -0.001813
0.361881 0.164183 -0.002006
0.435563 0.165196 -0.002216
0.509856 0.165898 -0.00244
0.58383 0.166119 -0.002669
0.657113 0.165951 -0.002901
0.729296 0.165412 -0.003134
0.799731 0.16446 -0.003362
0.867657 0.163024 -0.003585
0.928893 0.160911 -0.003792
0.96931 0.156849 -0.003957
-0.00185 0.228364 -0.00185
0.031305 0.228364 -0.001857
0.086291 0.228364 -0.001887
0.151281 0.228364 -0.001945
0.218132 0.228364 -0.002032
0.289222 0.230696 -0.002167
0.36188 0.23253 -0.002326
0.435563 0.233882 -0.002503
0.509856 0.234862 -0.002697
0.58383 0.235138 -0.002899
0.657113 0.234905 -0.003108
0.729296 0.234178 -0.003319
0.79973 0.232927 -0.00353
0.867656 0.230957 -0.003736
0.928892 0.22808 -0.003929
0.96931 0.222509 -0.004081
-0.002333 0.29984 -0.002333
0.031699 0.29984 -0.002338
0.087386 0.29984 -0.00236
0.152983 0.29984 -0.002403
0.220466 0.299839 -0.002471
0.289222 0.299839 -0.002562
0.361905 0.302164 -0.002695
0.435563 0.303932 -0.002846
0.509856 0.305088 -0.003012
0.58383 0.305523 -0.003188
0.657112 0.305176 -0.003372
0.729295 0.30422 -0.003561
0.79973 0.302623 -0.00375
0.867656 0.300175 -0.003937
0.928892 0.296525 -0.004113
0.96931 0.289451 -0.004247
-0.002818 0.372808 -0.002818
0.032004 0.372808 -0.002822
0.088238 0.372808 -0.002839
0.154312 0.372808 -0.002874
0.222303 0.372808 -0.002927
0.291583 0.372807 -0.003001
0.361904 0.372807 -0.003095
0.435562 0.374922 -0.003225
0.509855 0.376397 -0.003369
0.58383 0.376852 -0.003521
0.657112 0.376494 -0.003682
0.729294 0.375305 -0.003848
0.79973 0.373312 -0.004017
0.867656 0.370394 -0.004184
0.928892 0.365901 -0.00434
0.96931 0.357356 -0.004454
-0.003304 0.446785 -0.003304
0.032235 0.446785 -0.003307
0.088884 0.446785 -0.003321
0.155306 0.446784 -0.003349
0.223645 0.446784 -0.003393
0.293316 0.446784 -0.003454
0.363957 0.446784 -0.003533
0.435561 0.446784 -0.003629
0.509854 0.448525 -0.003755
0.583829 0.449076 -0.003888
0.657112 0.448609 -0.004028
0.729293 0.44726 -0.004174
0.799729 0.444933 -0.004321
0.867655 0.441419 -0.004468
0.928892 0.436148 -0.004605
0.969309 0.426046 -0.004698
-0.003789 0.521438 -0.003789
0.032392 0.521438 -0.003792
0.089313 0.521438 -0.003803
0.156012 0.521438 -0.003827
0.224592 0.521438 -0.003864
0.294505 0.521438 -0.003916
0.3655 0.521438 -0.003982
0.437284 0.521437 -0.004065
0.509853 0.521437 -0.004162
0.583829 0.522018 -0.004279
0.657111 0.521491 -0.004401
0.729291 0.519965 -0.004528
0.799729 0.517274 -0.004657
0.867655 0.513195 -0.004785
0.928891 0.507132 -0.004902
0.969309 0.495443 -0.004974
-0.004267 0.595643 -0.004267
0.032435 0.595643 -0.00427
0.08947 0.595643 -0.00428
0.156231 0.595643 -0.004299
0.22491 0.595643 -0.004331
0.294867 0.595643 -0.004375
0.365863 0.595643 -0.004433
0.437829 0.595643 -0.004504
0.510548 0.595643 -0.004589
0.583828 0.595643 -0.004688
0.657111 0.595027 -0.004795
0.729289 0.593251 -0.004906
0.799728 0.590241 -0.005018
0.867654 0.585599 -0.005127
0.92889 0.578782 -0.005225
0.969309 0.56551 -0.005277
-0.004737 0.669025 -0.004737
0.032382 0.669025 -0.004739
0.089328 0.669025 -0.004748
0.156056 0.669025 -0.004765
0.224642 0.669025 -0.004792
0.294591 0.669025 -0.004831
0.365512 0.669025 -0.00488
0.437358 0.669025 -0.004942
0.51004 0.669025 -0.005018
0.583224 0.669025 -0.005104
0.65711 0.669025 -0.005203
0.729288 0.66714 -0.0053
0.799728 0.663731 -0.005397
0.867653 0.658544 -0.005491
0.92889 0.650878 -0.005572
0.969308 0.636057 -0.005603
-0.005197 0.74158 -0.005197
0.032249 0.74158 -0.0052
0.088981 0.74158 -0.005207
0.155502 0.74158 -0.005222
0.223895 0.74158 -0.005246
0.293654 0.74158 -0.005279
0.364328 0.74158 -0.005323
0.436034 0.74158 -0.005378
0.508482 0.74158 -0.005444
0.581496 0.741579 -0.005521
0.655111 0.741579 -0.00561
0.729285 0.741579 -0.005709
0.799727 0.737726 -0.005792
0.867653 0.732148 -0.005871
0.928889 0.723488 -0.005936
0.969307 0.707119 -0.005948
-0.005643 0.812185 -0.005643
0.032024 0.812185 -0.005645
0.088386 0.812185 -0.005652
0.154588 0.812185 -0.005665
0.222634 0.812185 -0.005686
0.292028 0.812184 -0.005716
0.362422 0.812184 -0.005755
0.43373 0.812184 -0.005804
0.505805 0.812184 -0.005862
0.578498 0.812184 -0.005931
0.651735 0.812184 -0.00601
0.725445 0.812184 -0.0061
0.799726 0.812183 -0.006199
0.867652 0.805902 -0.006264
0.928888 0.796501 -0.006314
0.969307 0.778548 -0.006308
-0.006072 0.880407 -0.006072
0.031688 0.880407 -0.006073
0.08748 0.880407 -0.006079
0.153132 0.880407 -0.006091
0.220714 0.880407 -0.00611
0.289586 0.880407 -0.006136
0.359478 0.880407 -0.00617
0.430216 0.880407 -0.006214
0.501736 0.880406 -0.006267
0.573891 0.880406 -0.006329
0.646619 0.880406 -0.0064
0.71968 0.880406 -0.00648
0.793415 0.880406 -0.00657
0.867651 0.880405 -0.00667
0.928887 0.870244 -0.006706
0.969306 0.850607 -0.006681
-0.006469 0.943882 -0.006469
0.031185 0.943882 -0.00647
0.086135 0.943882 -0.006475
0.15104 0.943882 -0.006486
0.21786 0.943882 -0.006503
0.285938 0.943881 -0.006527
0.355043 0.943881 -0.006557
0.425021 0.943881 -0.006596
0.495685 0.943881 -0.006644
0.567055 0.943881 -0.006699
0.638884 0.943881 -0.006763
0.711368 0.943881 -0.006837
0.784031 0.94388 -0.006918
0.857531 0.94388 -0.007008
0.928886 0.94388 -0.007106
0.969305 0.922698 -0.007065
-0.00679 0.994634 -0.00679
0.030241 0.994634 -0.006791
0.083553 0.994634 -0.006796
0.147016 0.994634 -0.006805
0.212317 0.994634 -0.00682
0.278879 0.994634 -0.00684
0.346558 0.994634 -0.006868
0.414906 0.994634 -0.006903
0.484052 0.994634 -0.006945
0.553866 0.994634 -0.006995
0.62411 0.994634 -0.007053
0.695002 0.994634 -0.007118
0.766238 0.994633 -0.007191
0.837851 0.994633 -0.007272
0.909453 0.994633 -0.007361
0.969304 0.994633 -0.007458
-0.00018 -0.00018 0.004284
0.028803 -0.000289 0.004284
0.082794 -0.000525 0.004987
0.149009 -0.000784 0.005422
0.218134 -0.00105 0.005731
0.289236 -0.001321 0.005972
0.361881 -0.001593 0.006164
0.435564 -0.001866 0.006307
0.509857 -0.002139 0.006402
0.58383 -0.002408 0.006431
0.657113 -0.002673 0.006405
0.729297 -0.002932 0.006331
0.799731 -0.003183 0.006199
0.867657 -0.003425 0.005993
0.928893 -0.003648 0.005698
0.96931 -0.003829 0.005146
-0.000458 0.034125 0.004284
0.028262 0.034195 0.004608
0.088933 0.03078 0.003232
0.158494 0.024715 0.001213
0.227222 0.019978 0.000185
0.297065 0.017006 0
0.368493 0.01522 0
0.441103 0.014171 0
0.514608 0.013591 0
0.587938 0.013321 0
0.660523 0.013258 0
0.732409 0.013344 0
0.80244 0.013534 0
0.870113 0.013792 0
0.930965 0.014095 0
0.970678 0.01437 0
-0.000908 0.092075 0.004988
0.017963 0.093689 0.001122
0.082275 0.09274 0.000213
0.153421 0.092156 0
0.224227 0.091221 0
0.295578 0.090484 0
0.367864 0.09003 0
0.440953 0.089784 0
0.514746 0.089615 0
0.588174 0.089355 0
0.660895 0.089026 0
0.732551 0.088541 0
0.802793 0.087907 0
0.870461 0.087058 0
0.931242 0.085816 0
0.970879 0.083472 0
-0.001377 0.158877 0.005421
0.012911 0.16016 0.000139
0.078419 0.160123 0
0.148695 0.159381 0
0.22035 0.160345 0
0.292611 0.16097 0
0.36567 0.161396 0
0.43947 0.161687 0
0.513614 0.161842 0
0.587395 0.161653 0
0.660298 0.161192 0
0.732199 0.160456 0
0.802465 0.15942 0
0.870204 0.157942 0
0.930983 0.155825 0
0.970786 0.15185 0
-0.001854 0.228364 0.005733
0.011098 0.229298 0.000021
0.077186 0.229487 0
0.148092 0.229164 0
0.217915 0.228762 0
0.290462 0.230368 0
0.363923 0.231551 0
0.438002 0.232424 0
0.512522 0.232931 0
0.586539 0.232842 0
0.659671 0.232334 0
0.731774 0.23141 0
0.802059 0.229949 0
0.869871 0.227966 0
0.93073 0.225044 0
0.9706 0.219519 0
-0.002335 0.29984 0.00597
0.010565 0.300541 0
0.077038 0.300754 0
0.148318 0.300609 0
0.218618 0.3004 0
0.289101 0.300133 0
0.362601 0.302002 0
0.436857 0.303341 0
0.511537 0.304212 0
0.585662 0.30428 0
0.658964 0.303711 0
0.7313 0.302621 0
0.801546 0.300856 0
0.869508 0.298312 0
0.930485 0.294562 0
0.970471 0.287504 0
-0.00282 0.372808 0.006161
0.010658 0.37331 0
0.077308 0.373544 0
0.148933 0.373473 0
0.219549 0.373346 0
0.290399 0.373193 0
0.361812 0.373053 0
0.436042 0.374786 0
0.510768 0.376003 0
0.584959 0.376264 0
0.658321 0.375638 0
0.730522 0.374386 0
0.801164 0.372302 0
0.869092 0.369186 0
0.930314 0.364686 0
0.970317 0.356076 0
-0.003306 0.446785 0.006302
0.011114 0.447229 0.000014
0.077703 0.447383 0
0.149523 0.447307 0
0.220359 0.447242 0
0.29151 0.447162 0
0.363213 0.447093 0
0.435484 0.446979 0
0.51018 0.448493 0
0.584413 0.448806 0
0.657844 0.448216 0
0.730225 0.446735 0
0.800694 0.444284 0
0.868794 0.440705 0
0.929924 0.435374 0
0.970071 0.42521 0
-0.00379 0.521438 0.006396
0.011813 0.52172 0.000024
0.078121 0.521914 0
0.15004 0.52187 0
0.22101 0.521837 0
0.292331 0.521822 0
0.36426 0.521634 0
0.436734 0.521582 0
0.509811 0.521573 0
0.584053 0.521992 0
0.657465 0.521343 0
0.729905 0.519683 0
0.800409 0.516888 0
0.86846 0.512761 0
0.929696 0.506635 0
0.969919 0.494945 0
-0.004269 0.595643 0.006423
0.012684 0.595888 0.000069
0.078384 0.596063 0
0.150225 0.596045 0
0.22115 0.596017 0
0.29248 0.595935 0
0.36436 0.595887 0
0.436917 0.59586 0
0.510086 0.59583 0
0.583745 0.595721 0
0.657184 0.595026 0
0.729475 0.593175 0
0.800095 0.590058 0
0.868236 0.585399 0
0.929538 0.578437 0
0.969771 0.56519 0
-0.004738 0.669025 0.006394
0.013681 0.669224 0.000152
0.0785 0.669414 0
0.150055 0.669398 0
0.220876 0.669435 0
0.29206 0.6694 0
0.363846 0.669387 0
0.436299 0.669207 0
0.509346 0.669148 0
0.582918 0.669146 0
0.6571 0.669179 0
0.729432 0.667033 0
0.799811 0.663636 0
0.868007 0.658439 0
0.92931 0.650663 0
0.969694 0.635897 0
-0.005198 0.74158 0.006317
0.014775 0.741619 0.000279
0.078499 0.741759 0
0.149667 0.74174 0
0.220158 0.741711 0
0.291082 0.741764 0
0.362625 0.741714 0
0.434805 0.741653 0
0.507659 0.741583 0
0.580987 0.741647 0
0.654775 0.741672 0
0.729336 0.741585 0
0.79981 0.737761 0
0.867787 0.732137 0
0.929115 0.72345 0
0.96947 0.706978 0
-0.005644 0.812185 0.006179
0.015927 0.812273 0.00046
0.078348 0.812445 0
0.148943 0.812434 0
0.218987 0.812417 0
0.289478 0.812394 0
0.360633 0.812364 0
0.432407 0.812328 0
0.504837 0.812286 0
0.577871 0.81224 0
0.651332 0.812243 0
0.725437 0.812208 0
0.799662 0.812207 0
0.867721 0.805937 0
0.92897 0.796459 0
0.969461 0.778525 0
-0.006073 0.880407 0.005972
0.017115 0.8805 0.000675
0.077962 0.880568 0
0.147765 0.880559 0
0.217196 0.880544 0
0.287144 0.880573 0
0.357677 0.880547 0
0.428921 0.880513 0
0.500806 0.880549 0
0.573203 0.880507 0
0.646058 0.880525 0
0.719456 0.880545 0
0.793305 0.880493 0
0.867585 0.88044 0
0.928958 0.870293 0
0.969386 0.8506 0
-0.006469 0.943882 0.005672
0.018277 0.944071 0.000919
0.07721 0.944204 0
0.145946 0.944196 0
0.214511 0.944181 0
0.283553 0.944162 0
0.353254 0.944139 0
0.423651 0.94411 0
0.494708 0.944154 0
0.566329 0.944116 0
0.638398 0.944073 0
0.71098 0.944028 0
0.783767 0.944105 0
0.857417 0.944055 0.000015
0.928826 0.944004 0.000023
0.969257 0.92277 0.000021
-0.00679 0.994634 0.005118
0.02871 0.994634 0.00425
0.08277 0.994634 0.00425
0.146545 0.994634 0.00425
0.212006 0.994634 0.00425
0.27867 0.994634 0.004249
0.346353 0.994634 0.004249
0.414799 0.994634 0.004248
0.483968 0.994634 0.004247
0.553718 0.994634 0.004247
0.62407 0.994634 0.004246
0.694938 0.994634 0.004246
0.766187 0.994633 0.004245
0.837814 0.994633 0.004243
0.909432 0.994633 0.004241
0.969304 0.994633 0.004239
-0.00037 -0.00037 0.048646
0.03004 -0.000426 0.048646
0.082794 -0.000595 0.048645
0.149009 -0.000828 0.050637
0.218134 -0.001081 0.052047
0.289236 -0.001343 0.053108
0.361881 -0.001611 0.053952
0.435564 -0.001881 0.054585
0.509857 -0.002151 0.055028
0.58383 -0.002418 0.055154
0.657113 -0.002682 0.055051
0.729297 -0.00294 0.054704
0.799731 -0.00319 0.054111
0.867657 -0.003431 0.053227
0.928893 -0.003654 0.05191
0.96931 -0.003834 0.049397
-0.000551 0.035503 0.048646
0.026577 0.032626 0.056268
0.088068 0.029143 0.054998
0.15754 0.023782 0.053122
0.226617 0.019561 0.050974
0.296694 0.016822 0.049677
0.368231 0.015134 0.049041
0.440968 0.01413 0.048746
0.51457 0.013572 0.048586
0.587867 0.013315 0.048372
0.660521 0.013258 0.048064
0.732278 0.013349 0.047639
0.802406 0.01354 0.047076
0.870083 0.013799 0.0463
0.930941 0.014104 0.04519
0.970661 0.01438 0.043114
-0.000942 0.092066 0.048645
0.017372 0.093153 0.050407
0.081241 0.092264 0.050262
0.156106 0.088924 0.047628
0.231667 0.083113 0.043224
0.307681 0.074984 0.037216
0.382448 0.066805 0.03135
0.456252 0.059798 0.026533
0.529718 0.054124 0.022825
0.602273 0.049714 0.020074
0.674131 0.046314 0.018043
0.7451 0.043695 0.016521
0.814248 0.041687 0.015409
0.881265 0.040152 0.014565
0.939784 0.039022 0.013963
0.977053 0.038279 0.013569
-0.001397 0.158877 0.050637
0.01279 0.159991 0.04789
0.06609 0.161748 0.04013
0.147544 0.160029 0.036993
0.22555 0.158069 0.032931
0.302308 0.155201 0.028305
0.378234 0.151933 0.02379
0.453382 0.148756 0.019801
0.52803 0.145849 0.016487
0.601623 0.143195 0.013858
0.674148 0.14079 0.011802
0.745483 0.138543 0.010218
0.815038 0.136355 0.008999
0.882158 0.134095 0.008068
0.940656 0.131533 0.00738
0.977857 0.127679 0.006925
-0.001868 0.228364 0.052045
0.011069 0.229255 0.047386
0.051662 0.231897 0.030678
0.137248 0.231538 0.0249
0.216955 0.229838 0.02299
0.294725 0.229244 0.020522
0.3714 0.228201 0.018004
0.447575 0.226861 0.015658
0.523163 0.225435 0.013565
0.597686 0.223688 0.011815
0.670901 0.221756 0.01037
0.743003 0.219689 0.009205
0.812944 0.21733 0.008279
0.880507 0.214621 0.007548
0.9395 0.211227 0.007003
0.977088 0.205614 0.00664
-0.002346 0.29984 0.053109
0.010563 0.300506 0.047562
0.042614 0.303089 0.025135
0.129529 0.303393 0.016841
0.211441 0.302429 0.015952
0.288331 0.301173 0.014876
0.365624 0.30151 0.013534
0.442271 0.301329 0.012211
0.518557 0.300797 0.010985
0.593697 0.299622 0.009895
0.667622 0.297989 0.008958
0.74008 0.295919 0.008165
0.810567 0.293361 0.007508
0.878521 0.290179 0.006983
0.938163 0.286011 0.006575
0.976228 0.278783 0.006308
-0.002828 0.372808 0.053954
0.010665 0.373341 0.047957
0.037155 0.375594 0.022006
0.124703 0.376173 0.01196
0.207911 0.37561 0.011546
0.285484 0.374803 0.011016
0.361171 0.373943 0.010397
0.438133 0.374669 0.009666
0.514729 0.374773 0.008961
0.590273 0.374057 0.008307
0.664532 0.372594 0.00773
0.737308 0.37053 0.007219
0.808178 0.36777 0.006785
0.876483 0.3641 0.006426
0.936643 0.359217 0.006151
0.975264 0.350422 0.00597
-0.003312 0.446785 0.054577
0.011123 0.447216 0.048379
0.033888 0.449179 0.020216
0.121789 0.449789 0.009038
0.205729 0.449444 0.008832
0.283626 0.448946 0.00857
0.359694 0.448386 0.008246
0.43498 0.447746 0.007891
0.511724 0.448464 0.007484
0.58743 0.44803 0.007106
0.661914 0.446728 0.006758
0.73515 0.444658 0.006447
0.806095 0.441681 0.006184
0.87455 0.437606 0.005956
0.935177 0.431901 0.005777
0.974267 0.421538 0.005668
-0.003796 0.521438 0.055019
0.011821 0.521713 0.048767
0.031949 0.523469 0.01918
0.119944 0.524122 0.007272
0.204308 0.523847 0.007163
0.282403 0.523543 0.007032
0.358609 0.523111 0.006862
0.434112 0.522739 0.006672
0.509438 0.52224 0.006464
0.585143 0.522087 0.006253
0.659743 0.520849 0.006051
0.733036 0.51863 0.005874
0.804184 0.515418 0.005714
0.872852 0.510932 0.005585
0.933785 0.504493 0.005482
0.973348 0.492626 0.005423
-0.004273 0.595643 0.055157
0.012695 0.595885 0.048985
0.030881 0.597377 0.018602
0.118589 0.597951 0.006217
0.203052 0.597859 0.006163
0.281095 0.597625 0.006088
0.357246 0.597362 0.006
0.432714 0.597041 0.005904
0.508087 0.596726 0.005794
0.583436 0.596342 0.005677
0.658014 0.595177 0.005572
0.731287 0.592867 0.005477
0.802697 0.589398 0.005392
0.871369 0.584329 0.005324
0.932602 0.577128 0.005274
0.97247 0.563707 0.005251
-0.004742 0.669025 0.055043
0.013689 0.669221 0.049046
0.030398 0.670611 0.018314
0.117442 0.671166 0.005603
0.201802 0.670946 0.005576
0.279635 0.67093 0.00554
0.355571 0.670762 0.005499
0.430882 0.67046 0.005447
0.506078 0.670269 0.005391
0.581333 0.669995 0.005337
0.656702 0.669817 0.005282
0.729937 0.667292 0.005242
0.801257 0.663513 0.005208
0.870003 0.65808 0.00518
0.931466 0.650018 0.005164
0.971654 0.634925 0.005157
-0.005202 0.74158 0.054696
0.014783 0.741616 0.048975
0.030308 0.74289 0.018219
0.116383 0.743438 0.005273
0.200413 0.743376 0.005264
0.277885 0.743268 0.005251
0.353529 0.742998 0.005233
0.428506 0.742953 0.005215
0.50345 0.742823 0.005193
0.578422 0.742576 0.005175
0.653476 0.742242 0.005157
0.728981 0.742168 0.005143
0.80023 0.738011 0.005138
0.868959 0.732014 0.00514
0.930535 0.723237 0.005142
0.970968 0.70664 0.005143
-0.005647 0.812185 0.054098
0.015935 0.812271 0.048731
0.030505 0.813441 0.01826
0.11523 0.813842 0.00515
0.198783 0.813776 0.005145
0.275819 0.813628 0.005143
0.350963 0.813626 0.00514
0.42549 0.813557 0.005138
0.499918 0.813458 0.005139
0.574494 0.813235 0.005142
0.649136 0.812974 0.005149
0.724093 0.81289 0.005163
0.799406 0.812676 0.005181
0.868116 0.806108 0.005195
0.929821 0.796506 0.005209
0.970418 0.77835 0.005205
-0.006075 0.880407 0.053215
0.017124 0.880569 0.048264
0.030898 0.881481 0.018402
0.113887 0.882022 0.00516
0.196731 0.881973 0.005164
0.273098 0.881951 0.005168
0.347592 0.881775 0.005176
0.421507 0.88174 0.005184
0.495377 0.881563 0.005196
0.569293 0.881486 0.005212
0.64337 0.881343 0.005233
0.717796 0.88123 0.005258
0.792425 0.881009 0.005294
0.867342 0.8808 0.005337
0.929258 0.870453 0.005352
0.969952 0.850656 0.005341
-0.006472 0.943882 0.051882
0.018286 0.944069 0.047462
0.031408 0.944982 0.018599
0.112071 0.945356 0.005262
0.19388 0.945262 0.005267
0.269351 0.945332 0.005276
0.342939 0.945246 0.005289
0.415948 0.945214 0.005304
0.488875 0.944973 0.005324
0.561953 0.94502 0.005349
0.635139 0.944789 0.005381
0.708841 0.944774 0.005418
0.782473 0.944513 0.005464
0.856656 0.944574 0.005518
0.928697 0.944417 0.005579
0.969502 0.922995 0.005553
-0.006792 0.994634 0.049378
0.02871 0.994634 0.048621
0.082762 0.994634 0.04861
0.14653 0.994634 0.04861
0.212001 0.994634 0.048609
0.278664 0.994634 0.048609
0.346348 0.994634 0.048608
0.414796 0.994634 0.048607
0.483966 0.994634 0.048617
0.553717 0.994634 0.048615
0.624069 0.994634 0.048613
0.694937 0.994634 0.048611
0.766187 0.994633 0.048609
0.837813 0.994633 0.048607
0.909432 0.994633 0.048604
0.969304 0.994633 0.048605
-0.000565 -0.000565 0.121184
0.030786 -0.000599 0.121184
0.084871 -0.000722 0.121184
0.149009 -0.000908 0.121184
0.218134 -0.001139 0.123802
0.289236 -0.001388 0.125762
0.361881 -0.001646 0.127283
0.435564 -0.00191 0.128443
0.509857 -0.002175 0.129257
0.58383 -0.002439 0.129501
0.657113 -0.002699 0.129285
0.729297 -0.002955 0.128663
0.799731 -0.003204 0.127595
0.867657 -0.003443 0.125958
0.928893 -0.003665 0.123541
0.96931 -0.003843 0.118883
-0.000687 0.036328 0.121184
0.023049 0.029331 0.136229
0.087562 0.026127 0.134574
0.155936 0.022232 0.130362
0.225558 0.018826 0.128475
0.296056 0.016473 0.127231
0.36788 0.014967 0.126709
0.440755 0.014054 0.12649
0.514387 0.013539 0.12637
0.587753 0.013304 0.126043
0.660523 0.01326 0.125444
0.732272 0.013359 0.124568
0.80234 0.013552 0.123389
0.870023 0.013815 0.121704
0.930893 0.014119 0.119286
0.970627 0.014396 0.114785
-0.001025 0.094179 0.121184
0.016225 0.093626 0.128046
0.079442 0.090721 0.133016
0.155133 0.087307 0.131301
0.231 0.08138 0.12971
0.306866 0.07355 0.126365
0.381646 0.065801 0.122185
0.455564 0.059112 0.118226
0.529223 0.053682 0.114849
0.60192 0.049417 0.111915
0.673828 0.046116 0.109403
0.744871 0.043552 0.107086
0.814072 0.041585 0.104897
0.88112 0.040086 0.102612
0.939716 0.038977 0.099993
0.977017 0.038241 0.095992
-0.001437 0.158877 0.121183
0.012558 0.159708 0.12273
0.064573 0.160899 0.125728
0.14648 0.15918 0.124272
0.225375 0.156029 0.121276
0.303979 0.151361 0.11685
0.383183 0.144767 0.110629
0.462395 0.136347 0.102767
0.540324 0.127363 0.094291
0.616109 0.118751 0.086238
0.689624 0.110954 0.079122
0.761419 0.104124 0.073082
0.830961 0.098258 0.068098
0.897955 0.093306 0.064013
0.953136 0.089233 0.060772
0.986411 0.086315 0.058497
-0.001895 0.228364 0.1238
0.011011 0.229141 0.122514
0.050983 0.231443 0.117888
0.13106 0.231858 0.112114
0.215804 0.229791 0.108868
0.297044 0.227536 0.103885
0.377529 0.224171 0.097295
0.457409 0.219784 0.089717
0.536116 0.214888 0.081749
0.61286 0.209649 0.074171
0.68772 0.204453 0.067325
0.760587 0.199428 0.061279
0.830861 0.194615 0.056092
0.89841 0.189906 0.051701
0.954031 0.185109 0.048126
0.987238 0.179211 0.045589
-0.002366 0.29984 0.125759
0.010557 0.30046 0.123111
0.042316 0.302793 0.112813
0.111875 0.305045 0.096934
0.202723 0.304144 0.090478
0.287065 0.301977 0.086506
0.369041 0.300465 0.081376
0.449489 0.298226 0.075861
0.528604 0.295491 0.07024
0.605915 0.292124 0.064888
0.681429 0.288403 0.05992
0.754858 0.284444 0.055435
0.826056 0.280256 0.051458
0.89426 0.275698 0.048035
0.951199 0.270492 0.045189
0.985608 0.262939 0.043209
-0.002844 0.372808 0.127278
0.010675 0.373312 0.123973
0.037022 0.375502 0.109935
0.095873 0.37839 0.084346
0.189492 0.378511 0.07271
0.277735 0.377056 0.07024
0.36007 0.375071 0.067236
0.441255 0.374187 0.063613
0.520968 0.372696 0.059893
