site/assets/luts/freshluts--0001237-correction-cine.cube
# LUTr-Schema-Version: 2
# LUTr-ID: freshluts--0001237-correction-cine
# LUTr-Title: Correction-cine
# LUTr-Collection: Fresh LUTs
# LUTr-Collection-ID: freshluts-community
# LUTr-Source: https://freshluts.com
# LUTr-Retrieved: 2026-07-27
# LUTr-Source-File: submissions-raw/freshluts/cubes/1237__correction-cine.cube
# LUTr-Source-Format: CUBE
# LUTr-Source-SHA256: 8a1a4a8dbec764ccf534ec24322a3c06b6db963c38045a0120b875d9fcb64a3b
# LUTr-License: CC0-1.0
# LUTr-License-URL: https://freshluts.com/termsandconditions
# LUTr-License-Basis: site-terms
# LUTr-Transform-Class: creative-look
# LUTr-Tags: creative, freshluts, community, cube, green, low-key, sony-s-log3, cinematic, correction
# LUTr-Input-Color-Space: sony-slog3-sgamut3
# LUTr-Input-Gamut: sony-s-gamut3
# LUTr-Input-Transfer: sony-s-log3
# LUTr-Output-Color-Space: srgb
# LUTr-Output-Gamut: rec709
# LUTr-Output-Transfer: srgb
# LUTr-Color-Space-Confidence: inferred-from-source-label
# LUTr-Domain-Normalized: true
# LUTr-Shaper: none
# LUTr-Original-Grid: 16x16x16
# LUTr-Conversion-Grid: 16x16x16
# LUTr-Conversion-Interpolation: none
# LUTr-Conversion-Method: Metadata normalization; numeric LUT samples preserved
# LUTr-Conversion-Tool: LUTr scripts/convert-all-to-cube.mjs 2.0.0
# LUTr-Conversion-Date: 2026-07-28
# LUTr-Asset-URL: https://freshluts.com/luts/1237
# LUTr-Author: lvannoeun@gmail.com
# LUTr-Author-URL: https://freshluts.com/users/57563
# LUTr-Attribution: lvannoeun@gmail.com via Fresh LUTs
# LUTr-Source-Labels: gamma=Sony S-Log 3; color=Green; key=Low Key; style=Drama
# LUTr-Duplicate-Assets: 1837:https://freshluts.com/luts/1837
# LUTr-Note: Preserve this metadata and the upstream license notices when redistributing.
TITLE "Correction-cine"
LUT_3D_SIZE 6
DOMAIN_MIN 0 0 0
DOMAIN_MAX 1 1 1
0 0 0
0.213628 -0.000783 -0.000783
0.438221 -0.001606 -0.001606
0.646465 -0.002424 -0.002424
0.832501 -0.003184 -0.003184
0.965849 -0.003775 -0.003775
-0.001411 0.209088 -0.001411
0.213626 0.209088 -0.001545
0.43822 0.214803 -0.002042
0.646465 0.216153 -0.002699
0.832501 0.212729 -0.003372
0.965849 0.200931 -0.003907
-0.002894 0.436757 -0.002894
0.21941 0.436757 -0.002949
0.438218 0.436756 -0.003169
0.646464 0.439286 -0.003581
0.8325 0.432864 -0.004047
0.965848 0.410673 -0.004414
-0.004366 0.652679 -0.004366
0.220734 0.652679 -0.004398
0.440676 0.652679 -0.004529
0.646463 0.652679 -0.004781
0.832499 0.643352 -0.005073
0.965847 0.6112 -0.005248
-0.005735 0.847834 -0.005735
0.217314 0.847834 -0.005756
0.434412 0.847834 -0.005844
0.63757 0.847834 -0.006018
0.832496 0.847833 -0.006281
0.965846 0.805917 -0.006288
-0.0068 0.996118 -0.0068
0.205449 0.996118 -0.006814
0.412772 0.996118 -0.006875
0.606691 0.996118 -0.006998
0.792837 0.996117 -0.007187
0.965843 0.996117 -0.007446
-0.00059 -0.00059 0.185697
0.213628 -0.000929 0.185696
0.438221 -0.001669 0.19319
0.646465 -0.00246 0.194939
0.832501 -0.003208 0.190482
0.965849 -0.003792 0.175053
-0.001481 0.209088 0.185695
0.208125 0.209707 0.19286
0.468367 0.185633 0.16826
0.682106 0.152278 0.133094
0.863355 0.12944 0.109795
0.983741 0.11712 0.098229
-0.002922 0.436757 0.193184
0.137608 0.442961 0.134028
0.434897 0.439758 0.09913
0.662001 0.432672 0.084676
0.853188 0.418936 0.072359
0.980991 0.393379 0.06491
-0.004382 0.652679 0.194921
0.108622 0.656961 0.111502
0.41507 0.657307 0.063189
0.644767 0.65463 0.059462
0.839502 0.641759 0.055886
0.97414 0.607705 0.05396
-0.005746 0.847834 0.190449
0.098989 0.850816 0.10453
0.400037 0.851671 0.049114
0.626646 0.850669 0.048011
0.83132 0.849211 0.046554
0.968772 0.806189 0.046503
-0.006807 0.996118 0.175045
0.213617 0.996118 0.18568
0.415401 0.996118 0.185705
0.607829 0.996118 0.185721
0.793208 0.996117 0.185716
0.965843 0.996117 0.18571
-0.001209 -0.001209 0.468173
0.219418 -0.001381 0.468173
0.438221 -0.001905 0.468173
0.646465 -0.002607 0.471163
0.832501 -0.003308 0.463514
0.965849 -0.003862 0.437033
-0.001783 0.214804 0.468173
0.19289 0.197933 0.515652
0.462355 0.174859 0.505877
0.677863 0.147055 0.486586
0.861009 0.127031 0.463879
0.982914 0.115917 0.431458
-0.003037 0.436757 0.468172
0.133988 0.440764 0.477191
0.427867 0.437984 0.480691
0.677187 0.421713 0.465484
0.88634 0.396326 0.441859
0.990971 0.399417 0.439305
-0.00445 0.652679 0.47116
0.107874 0.65634 0.460643
0.354654 0.66453 0.423829
0.637443 0.658339 0.398138
0.859395 0.638016 0.380873
0.988926 0.606818 0.39279
-0.00579 0.847834 0.463507
0.098825 0.850625 0.446786
0.302409 0.859967 0.382072
0.585417 0.860007 0.334416
0.826033 0.853736 0.323389
0.978045 0.808809 0.32206
-0.006838 0.996118 0.437058
0.213616 0.996118 0.44027
0.438194 0.996118 0.468172
0.618017 0.996118 0.468172
0.796969 0.996117 0.468171
0.965843 0.996117 0.468169
-0.001825 -0.001825 0.717735
0.220736 -0.001928 0.717735
0.44066 -0.002302 0.717734
0.646465 -0.002875 0.717734
0.8325 -0.003499 0.707117
0.965849 -0.003999 0.670668
-0.002208 0.216156 0.717734
0.168129 0.17844 0.776899
0.452326 0.158313 0.770338
0.670865 0.138479 0.751847
0.856977 0.122802 0.726077
0.981539 0.113719 0.681551
-0.003274 0.439286 0.717733
0.127807 0.43801 0.741123
0.417717 0.429826 0.772572
0.672368 0.413167 0.765407
0.882883 0.388025 0.743362
0.990732 0.394382 0.694578
-0.004583 0.652679 0.717731
0.106512 0.65531 0.723059
0.34843 0.66063 0.737306
0.631676 0.654362 0.734954
0.858323 0.641529 0.723486
0.987834 0.635307 0.713084
-0.00588 0.847834 0.707112
0.098483 0.850185 0.704519
0.299692 0.858184 0.695579
0.566877 0.861946 0.68762
0.818816 0.85433 0.673306
0.9807 0.818037 0.671351
-0.006901 0.996118 0.670663
0.213614 0.996118 0.67203
0.438226 0.996118 0.684094
0.646459 0.996117 0.717724
0.808408 0.996117 0.717724
0.965843 0.996117 0.717723
-0.002397 -0.002397 0.934801
0.217325 -0.002466 0.934801
0.434387 -0.002736 0.9348
0.637573 -0.003194 0.9348
0.8325 -0.003776 0.934799
0.965848 -0.004206 0.88885
-0.002666 0.212734 0.9348
0.162607 0.172289 0.978696
0.434758 0.157003 0.978305
0.653773 0.129796 0.97328
0.852196 0.117425 0.960781
0.979536 0.110735 0.907191
-0.003533 0.432865 0.9348
0.121807 0.42796 0.963044
0.420008 0.426898 0.976906
0.648364 0.417907 0.976199
0.859892 0.40128 0.974723
0.990341 0.385596 0.927841
-0.004714 0.643352 0.934798
0.105321 0.644259 0.946503
0.362335 0.646679 0.973295
0.631888 0.649563 0.971723
0.847261 0.640351 0.969728
0.987322 0.630589 0.934923
-0.006019 0.847834 0.934796
0.098029 0.849628 0.938419
0.295605 0.855721 0.950985
0.564408 0.857272 0.959997
0.814461 0.849954 0.955082
0.976401 0.841149 0.948422
-0.006999 0.996118 0.888844
0.213612 0.996118 0.889311
0.438225 0.996117 0.893819
0.646459 0.996117 0.906996
0.832494 0.996117 0.934792
0.965843 0.996117 0.934792
-0.002841 -0.002841 1.096768
0.205498 -0.00289 1.096768
0.412805 -0.003086 1.096768
0.606701 -0.003438 1.096768
0.792849 -0.003915 1.096767
0.965848 -0.004477 1.096767
-0.003034 0.200938 1.096768
0.213618 0.209092 1.096768
0.415433 0.209091 1.096768
0.607884 0.209088 1.096767
0.793103 0.209083 1.096767
0.965848 0.209077 1.096767
-0.003713 0.410677 1.096767
0.213629 0.413363 1.096767
0.438214 0.436755 1.096767
0.618021 0.436755 1.096767
0.796979 0.436754 1.096767
0.965847 0.436752 1.096767
-0.004721 0.611201 1.096767
0.213616 0.612372 1.096767
0.438209 0.62287 1.096767
0.646462 0.652678 1.096767
0.808411 0.652677 1.096766
0.965846 0.652677 1.096766
-0.00589 0.805918 1.096766
0.213623 0.806392 1.096766
0.438202 0.810468 1.096766
0.646461 0.822468 1.096766
0.832495 0.847833 1.096766
0.965844 0.847832 1.096765
-0.007137 0.996118 1.096765
0.213623 0.996117 1.096765
0.438223 0.996117 1.096765
0.646473 0.996117 1.096765
0.832493 0.996117 1.096765
0.965842 0.996116 1.096765
