site/assets/luts/freshluts--0000419-lut003.cube
# LUTr-Schema-Version: 2
# LUTr-ID: freshluts--0000419-lut003
# LUTr-Title: LUT003
# LUTr-Collection: Fresh LUTs
# LUTr-Collection-ID: freshluts-community
# LUTr-Source: https://freshluts.com
# LUTr-Retrieved: 2026-07-27
# LUTr-Source-File: submissions-raw/freshluts/cubes/419__LUT003.cube
# LUTr-Source-Format: CUBE
# LUTr-Source-SHA256: 1bd5ffac5ea7dbb13af776137451f317e878e04aa2fff92066cfaa1fe56747ab
# LUTr-License: CC0-1.0
# LUTr-License-URL: https://freshluts.com/termsandconditions
# LUTr-License-Basis: site-terms
# LUTr-Transform-Class: creative-look
# LUTr-Tags: creative, freshluts, community, cube, bmd-film
# LUTr-Input-Color-Space:
# LUTr-Input-Gamut: bmd-film-gamut
# LUTr-Input-Transfer: bmd-film
# LUTr-Output-Color-Space: srgb
# LUTr-Output-Gamut: rec709
# LUTr-Output-Transfer: srgb
# LUTr-Color-Space-Confidence: camera-profile-input-required
# LUTr-Domain-Normalized: true
# LUTr-Shaper: none
# LUTr-Original-Grid: 33x33x33
# LUTr-Conversion-Grid: 33x33x33
# LUTr-Conversion-Interpolation: none
# LUTr-Conversion-Method: Metadata normalization; numeric LUT samples preserved
# LUTr-Conversion-Tool: LUTr scripts/convert-all-to-cube.mjs 2.0.0
# LUTr-Conversion-Date: 2026-07-28
# LUTr-Asset-URL: https://freshluts.com/luts/419
# LUTr-Author: Revirssab
# LUTr-Author-URL: https://freshluts.com/users/9194
# LUTr-Attribution: Revirssab via Fresh LUTs
# LUTr-Source-Labels: gamma=Blackmagic BMD Film; color=None; key=Neutral; style=Adventure
# LUTr-Note: Preserve this metadata and the upstream license notices when redistributing.
TITLE "LUT003"
LUT_3D_SIZE 9
DOMAIN_MIN 0 0 0
DOMAIN_MAX 1 1 1
0.000976577 0.000259403 0
0.24744 0 0
0.593668 0 0
0.872847 0 0
1 0 0
1 0 0
1 0 0
1 0 0
1 0 0
0 0.162005 0
0.10695 0.12752 0
0.467552 0.0859846 0
0.759686 0.0506905 0
0.999985 0.0199283 0
1 0.00247196 0
1 0.00175479 0
1 0.00105287 0
1 0.00030518 0
0 0.428351 0
0.00328069 0.388983 0
0.298741 0.342473 0
0.619944 0.298817 0
0.958831 0.251072 0
1 0.205997 0
1 0.193423 0
1 0.180453 0
1 0.167514 0
0 0.649104 0
0 0.613138 0
0.122103 0.570214 0
0.463752 0.526986 0
0.809674 0.482292 0
1 0.438773 0
1 0.429267 0
1 0.420752 0
1 0.412238 0
0 0.889464 0
0 0.855406 0
0 0.811933 0
0.291112 0.765087 0
0.636805 0.719478 0
0.961151 0.676097 0
1 0.66302 0
1 0.654856 0
1 0.646433 0
0 1 0
0 1 0
0 1 0
0.134463 0.978225 0
0.478004 0.941665 0
0.801221 0.89839 0
0.882994 0.882277 0
0.887724 0.874495 0
0.892454 0.866728 0
0 1 0
0 1 0
0 1 0
0.0768292 1 0
0.417273 0.994736 0
0.735134 0.958373 0
0.845914 0.946029 0
0.845914 0.946029 0
0.845914 0.946029 0
0 1 0
0 1 0
0 1 0
0.0407721 1 0
0.381338 0.99707 0
0.700938 0.962234 0
0.845914 0.946029 0
0.845914 0.946029 0
0.845914 0.946029 0
0 1 0
0 1 0
0 1 0
0.0241398 1 0
0.344991 0.998734 0
0.666316 0.96614 0
0.845914 0.946029 0
0.845914 0.946029 0
0.845914 0.946029 0
0 0 0.107118
0.249531 0 0.226322
0.598733 0 0.164019
0.87744 0 0.112108
1 0 0.0553292
1 0 0.0198978
1 0 0.0162051
1 0 0.0125124
1 0 0.00880446
0 0.145617 0.154528
0.109209 0.110292 0.109194
0.470008 0.0691691 0.049424
0.763561 0.0343023 0.0109865
1 0.00892653 0
1 0 0
1 0 0
1 0 0
1 0 0
0 0.409323 0.0290074
0.00456245 0.371603 0.00747692
0.302007 0.326726 0.000106813
0.622919 0.27808 0
0.959472 0.229603 0
1 0.185016 0
1 0.173129 0
1 0.161028 0
1 0.14905 0
0 0.631586 0
0 0.594965 0
0.119646 0.553338 0
0.463508 0.509224 0
0.80914 0.464866 0
1 0.422568 0
1 0.413535 0
1 0.40589 0
1 0.39823 0
0 0.872618 0
0 0.839323 0
0 0.795895 0
0.29044 0.750134 0
0.635706 0.705409 0
0.959579 0.662776 0
1 0.650263 0
1 0.642939 0
1 0.635431 0
0 1 0
0 1 0
0 0.997787 0
0.133745 0.970275 0
0.476982 0.930434 0
0.800122 0.888319 0
0.884916 0.87274 0
0.88957 0.86598 0
0.894224 0.859236 0
0 1 0
0 1 0
0 1 0
0.0750896 1 0
0.414878 0.989181 0
0.732662 0.954009 0
0.846326 0.942458 0
0.84622 0.943435 0
0.846098 0.944442 0
0 1 0
0 1 0
0 1 0
0.040177 1 0
0.378286 0.995392 0
0.698054 0.961242 0
0.845945 0.945739 0
0.845914 0.946029 0
0.845914 0.946029 0
0 1 0
0 1 0
0 1 0
0.0226749 1 0
0.341817 0.998886 0
0.663233 0.966491 0
0.845914 0.946029 0
0.845914 0.946029 0
0.845914 0.946029 0
0 0.0511635 0.313634
0.213275 0 0.622232
0.604532 0 0.55758
0.884047 0 0.511238
1 0 0.454963
1 0 0.403418
1 0 0.385382
1 0 0.367346
1 0 0.34931
0 0.149218 0.494331
0 0.179156 0.331319
0.473259 0.0472572 0.447807
0.770764 0.0195926 0.388739
1 0.00030518 0.321416
1 0 0.261906
1 0 0.246799
1 0 0.231876
1 0 0.216693
0 0.38938 0.407431
0.00332647 0.351171 0.359792
0.29601 0.311635 0.297948
0.631083 0.259449 0.235172
0.961196 0.204974 0.158618
1 0.159487 0.0916609
1 0.147295 0.0794232
1 0.135317 0.0706798
1 0.123705 0.066804
0 0.611536 0.257496
0 0.575372 0.202762
0.123125 0.538064 0.142321
0.471611 0.494865 0.0710307
0.810697 0.443732 0.00434882
1 0.400122 0
1 0.391073 0
1 0.383566 0
1 0.376043 0
0 0.85153 0.0797131
0 0.818479 0.0399176
0 0.774868 0.00210575
0.292088 0.728801 0
0.636164 0.683345 0
0.958465 0.641016 0
1 0.628565 0
1 0.621378 0
1 0.613931 0
0 1 0
0 1 0
0 0.988647 0
0.135973 0.953796 0
0.478157 0.909377 0
0.800122 0.867628 0
0.887907 0.851881 0
0.892348 0.844923 0
0.896956 0.83772 0
0 1 0
0 1 0
0 1 0
0.076463 1 0
0.416129 0.969467 0
0.732219 0.935073 0
0.848508 0.923186 0
0.848417 0.923796 0
0.848341 0.924407 0
0 1 0
0 1 0
0 1 0
0.0431678 1 0
0.379751 0.975891 0
0.697826 0.940856 0
0.848219 0.9252 0
0.848142 0.925811 0
0.848066 0.926406 0
0 1 0
0 1 0
0 1 0
0.0237125 1 0
0.343389 0.982269 0
0.662959 0.9467 0
0.84799 0.927169 0
0.847929 0.927749 0
0.847883 0.928313 0
0 0.110445 0.47538
0.0223239 0 0.869169
0.607752 0 0.865614
0.888258 0 0.822095
1 0 0.771542
1 0 0.728511
1 0 0.71574
1 0 0.702586
1 0 0.689799
0 0.2103 0.625925
0 0.23653 0.4934
0.443656 0.0396277 0.775662
0.77499 0.00790417 0.728176
1 0 0.672557
1 0 0.621637
1 0 0.612085
1 0 0.60267
1 0 0.593362
0 0.375998 0.735805
0 0.34699 0.663462
0.135363 0.343908 0.556023
0.634943 0.236652 0.611292
0.963531 0.182193 0.542229
1 0.134478 0.480156
1 0.122042 0.473869
1 0.110201 0.46685
1 0.0979934 0.460426
0 0.594141 0.621775
0 0.556558 0.576135
0.114794 0.518914 0.528572
0.471489 0.483421 0.473335
0.819516 0.428611 0.403586
1 0.376959 0.327932
1 0.366552 0.314397
1 0.358923 0.305684
1 0.350683 0.297383
0 0.831052 0.47013
0 0.797452 0.429267
0 0.75375 0.374517
0.302083 0.71516 0.321294
0.648142 0.670588 0.258442
0.959365 0.619181 0.186038
1 0.604227 0.166995
1 0.596231 0.157504
1 0.588479 0.148302
0 1 0.319966
0 0.99823 0.287449
0 0.973312 0.234989
0.139452 0.930068 0.17586
0.484001 0.887053 0.126131
0.802136 0.844266 0.0754864
0.892454 0.827131 0.0543526
0.896666 0.819944 0.0445258
0.900999 0.812543 0.0339055
0 1 0.263172
0 1 0.235904
0 1 0.182757
0.0796674 0.984619 0.121736
0.418891 0.947143 0.0720226
0.732876 0.913207 0.0245518
0.851957 0.901274 0.00758373
0.851865 0.901854 0.00662242
0.851774 0.902434 0.00561532
0 1 0.222492
0 1 0.204074
0 1 0.148013
0.0472572 0.990906 0.0865187
0.382589 0.952682 0.0456855
0.69865 0.918563 0.0160678
0.851667 0.903197 0.0043183
0.851575 0.903777 0.00334173
0.851484 0.904341 0.00236515
0 1 0.18233
0 1 0.173281
0 1 0.113771
0.0251774 0.996063 0.0518196
0.346212 0.958526 0.0227817
0.663905 0.924071 0.0069276
0.851377 0.905135 0.00103761
0.851286 0.905699 0.0000610361
0.851148 0.906569 0
0 0.17641 0.656336
0 0.0564431 0.989136
0.596857 0 1
0.89337 0 1
1 0 1
1 0 1
1 0 1
1 0 1
1 0 1
0 0.295583 0.737774
0 0.302052 0.681804
0.237049 0.0903182 0.988357
0.779614 0 0.999969
1 0 0.994095
1 0 0.978576
1 0 0.97171
1 0 0.965911
1 0 0.960784
0 0.383108 0.997848
0 0.401312 0.862867
0 0.420264 0.722881
0.581628 0.220951 0.96968
0.964858 0.155749 0.930663
1 0.108385 0.870985
1 0.0964981 0.864363
1 0.0847791 0.857633
1 0.0728923 0.850538
0 0.579156 0.972641
0 0.54255 0.944503
0.0463874 0.51284 0.860487
0.244099 0.533745 0.705592
0.821286 0.405768 0.796643
1 0.354696 0.722423
1 0.343542 0.708904
1 0.335454 0.700603
1 0.327428 0.691951
0 0.812314 0.849195
0 0.779095 0.809476
0 0.733684 0.754452
0.296559 0.694865 0.704601
0.655146 0.660014 0.655711
0.967025 0.608164 0.585061
1 0.590738 0.563333
1 0.582116 0.554314
1 0.5738 0.545586
0 1 0.699794
0 0.989502 0.667521
0 0.958053 0.614572
0.142 0.910491 0.556176
0.498299 0.877974 0.515969
0.818753 0.8392 0.464424
0.910369 0.819272 0.439521
0.914015 0.811566 0.430243
0.917815 0.803632 0.420569
0 1 0.6421
0 1 0.615381
0 1 0.560494
0.0805371 0.966552 0.497063
0.429877 0.938277 0.453605
0.745861 0.909041 0.405173
0.865904 0.894362 0.374914
0.865217 0.894301 0.36318
0.8645 0.89424 0.351064
0 1 0.602365
0 1 0.585
0 1 0.526772
0.0488746 0.972366 0.463203
0.391592 0.941985 0.417227
0.710307 0.912718 0.370108
0.863615 0.894163 0.335805
0.862928 0.894118 0.324071
0.862211 0.894057 0.311955
0 1 0.562478
0 1 0.553948
0 1 0.492531
0.0247044 0.978546 0.428
0.353536 0.945998 0.381155
0.674266 0.916274 0.334798
0.861341 0.894057 0.295933
0.860761 0.894118 0.284627
0.860136 0.894179 0.272526
0 0.218555 0.772168
0 0.122988 0.999863
0.490776 0 1
0.895506 0 1
1 0 1
1 0 1
1 0 1
1 0 1
1 0 1
0 0.35375 0.832654
0 0.351614 0.82562
0.0247959 0.181903 1
0.767254 0 1
1 0 1
1 0 1
1 0 1
1 0 1
1 0 1
0 0.422751 1
0 0.471 0.945327
0 0.482307 0.885023
0.305623 0.287358 1
0.967132 0.131594 1
1 0.083711 1
1 0.0733806 1
1 0.0640574 1
1 0.0545815 1
0 0.570413 1
0 0.548547 1
0 0.572 0.996292
0.0154269 0.597787 0.878141
0.79086 0.381552 1
1 0.330877 0.999878
1 0.319799 1
1 0.311849 1
1 0.303929 1
0 0.796292 1
0 0.764172 1
0 0.719738 1
0.235279 0.683803 0.994583
0.429084 0.708339 0.869032
0.968048 0.586389 0.948913
1 0.570718 0.93196
1 0.56257 0.925689
1 0.55407 0.917693
0 0.994369 1
0 0.978714 0.994141
0 0.943191 0.962936
0.134112 0.890227 0.909178
0.495384 0.860151 0.869261
0.83064 0.831617 0.830686
0.928756 0.813413 0.806378
0.932555 0.805356 0.797787
0.93637 0.797345 0.789181
0 1 0.999252
0 1 0.974472
0 0.998108 0.916457
0.0764019 0.950423 0.848219
0.430335 0.925048 0.804227
0.76022 0.907179 0.76701
0.887037 0.89575 0.738293
0.886549 0.895903 0.727016
0.886061 0.89604 0.715358
0 1 0.960937
0 1 0.944915
0 0.999481 0.884123
0.0467994 0.956222 0.815564
0.393423 0.928969 0.770703
0.725185 0.911055 0.733944
0.88539 0.896208 0.700298
0.884764 0.896208 0.688823
0.884123 0.896208 0.677348
0 1 0.922621
0 1 0.915175
0 1 0.851774
0.0225071 0.962173 0.782879
0.355947 0.932967 0.736477
0.688853 0.914427 0.699382
0.883268 0.896208 0.661662
0.882643 0.896208 0.650187
0.882002 0.896208 0.638712
0 0.218555 0.772168
0 0.125307 0.997909
0.481315 0 1
0.8907 0 1
1 0 1
1 0 1
1 0 1
1 0 1
1 0 1
0 0.352361 0.829267
0 0.349508 0.825101
0.0260471 0.182895 1
0.761822 0.00030518 1
1 0 1
1 0 1
1 0 1
1 0 1
1 0 1
0 0.4206 1
0 0.469215 0.941711
0 0.479789 0.883253
0.302602 0.282475 1
0.966217 0.126802 1
1 0.0786908 1
1 0.0688945 1
1 0.0590982 1
1 0.0493019 1
0 0.5673 1
0 0.546426 1
0 0.569924 1
0.0103609 0.597803 0.881743
0.783917 0.378058 1
1 0.325994 1
1 0.313909 1
1 0.305333 1
1 0.296742 1
0 0.792248 1
0 0.760723 1
0 0.716411 1
0.21149 0.684993 1
0.379232 0.716304 0.895415
0.966278 0.577844 1
1 0.561257 1
1 0.55227 1
1 0.542992 1
0 0.992416 1
0 0.975906 1
0 0.937881 1
0.128099 0.883894 0.992416
0.485786 0.851255 0.960204
0.781231 0.839536 0.902663
0.932143 0.804578 0.924559
0.936049 0.796033 0.927733
0.939956 0.787472 0.930892
0 1 1
0 1 1
0 0.994492 1
0.0703899 0.945815 0.967742
0.421576 0.917769 0.930144
0.755932 0.902022 0.905684
0.891814 0.891814 0.891814
0.891814 0.891814 0.891814
0.891814 0.891814 0.891814
0 1 1
0 1 1
0 0.997192 1
0.042771 0.950149 0.973068
0.384192 0.919707 0.933028
0.72076 0.904234 0.908766
0.891814 0.891814 0.891814
0.891814 0.891814 0.891814
0.891814 0.891814 0.891814
0 1 1
0 1 1
0 0.999924 1
0.0189364 0.954528 0.978408
0.346441 0.921645 0.935943
0.684764 0.906035 0.911513
0.891814 0.891814 0.891814
0.891814 0.891814 0.891814
0.891814 0.891814 0.891814
0 0.218555 0.772168
0 0.127474 0.996078
0.457252 0 1
0.885557 0 1
1 0 1
1 0 1
1 0 1
1 0 1
1 0 1
0 0.350881 0.82565
0 0.347433 0.82443
0.0266575 0.1841 1
0.755245 0.000793469 1
1 0 1
1 0 1
1 0 1
1 0 1
1 0 1
0 0.418585 1
0 0.467277 0.937804
0 0.477119 0.881117
0.296498 0.278767 1
0.965911 0.121614 1
1 0.0752117 1
1 0.0646067 1
1 0.0551156 1
1 0.0453193 1
0 0.563943 1
0 0.54406 1
0 0.568231 1
0.00828565 0.596277 0.880461
0.777584 0.375845 1
1 0.322942 1
1 0.310155 1
1 0.301839 1
1 0.293263 1
0 0.788617 1
0 0.758114 1
0 0.714076 1
0.205005 0.683207 1
0.373617 0.714031 0.89633
0.96556 0.574914 1
1 0.557198 1
1 0.548501 1
1 0.539223 1
0 0.991836 1
0 0.974838 1
0 0.935363 1
0.124086 0.8813 0.994614
0.482155 0.848325 0.962112
0.780331 0.835615 0.906249
0.933776 0.800992 0.925887
0.937682 0.792447 0.929061
0.941588 0.783902 0.932219
0 1 1
0 1 1
0 0.994842 1
0.0656596 0.946349 0.968414
0.41677 0.918029 0.93051
0.7514 0.902296 0.906081
0.891814 0.891814 0.891814
0.891814 0.891814 0.891814
0.891814 0.891814 0.891814
0 1 1
0 1 1
0 0.997543 1
0.0397345 0.950698 0.973739
0.379385 0.919951 0.93341
0.716243 0.904524 0.909163
0.891814 0.891814 0.891814
0.891814 0.891814 0.891814
0.891814 0.891814 0.891814
0 1 1
0 1 1
0 1 1
0.0158846 0.955077 0.979095
0.341634 0.921904 0.936339
0.68011 0.906249 0.911849
0.891814 0.891814 0.891814
0.891814 0.891814 0.891814
0.891814 0.891814 0.891814
0 0.218555 0.772168
0 0.129793 0.994125
0.434791 0 1
0.8804 0 1
1 0 1
1 0 1
1 0 1
1 0 1
1 0 1
0 0.349493 0.822278
0 0.345388 0.823682
0.0266575 0.185504 1
0.748592 0.00109865 1
1 0 1
1 0 1
1 0 1
1 0 1
1 0 1
0 0.416419 1
0 0.465354 0.934112
0 0.474769 0.878691
0.290288 0.274495 1
0.965728 0.116823 1
1 0.0713054 1
1 0.0606241 1
1 0.0508278 1
1 0.0413367 1
0 0.560601 1
0 0.541634 1
0 0.566247 1
0.00619516 0.594736 0.879179
0.76875 0.374411 1
1 0.319707 1
1 0.306661 1
1 0.298085 1
1 0.289784 1
0 0.785245 1
0 0.755306 1
0 0.711406 1
0.198734 0.681453 1
0.367559 0.711955 0.896559
0.964965 0.571694 1
1 0.553429 1
1 0.544442 1
1 0.535454 1
0 0.991211 1
0 0.97377 1
0 0.933074 1
0.120638 0.878386 0.995941
0.47863 0.845167 0.964126
0.77879 0.831937 0.909377
0.935424 0.797406 0.927214
0.939315 0.788861 0.930388
0.943221 0.780316 0.933547
0 1 1
0 1 1
0 0.995193 1
0.0605631 0.946929 0.969131
0.411948 0.918273 0.930877
0.746883 0.902586 0.906477
0.891814 0.891814 0.891814
0.891814 0.891814 0.891814
0.891814 0.891814 0.891814
0 1 1
0 1 1
0 0.997894 1
0.0366979 0.951263 0.974426
0.374563 0.920195 0.933776
0.711589 0.904738 0.909499
0.891814 0.891814 0.891814
0.891814 0.891814 0.891814
0.891814 0.891814 0.891814
0 1 1
0 1 1
0 1 1
0.0128481 0.955642 0.979782
0.336797 0.922225 0.936782
0.675456 0.906477 0.9122
0.891814 0.891814 0.891814
0.891814 0.891814 0.891814
0.891814 0.891814 0.891814
