site/assets/luts/freshluts--0000673-this-is-sample-cinestyle-look-correct-your-footages-first-th.cube
# LUTr-Schema-Version: 2
# LUTr-ID: freshluts--0000673-this-is-sample-cinestyle-look-correct-your-footages-first-th
# LUTr-Title: This is sample CINEstyle LOOK . correct your footages first then apply THIS LUT.
# LUTr-Collection: Fresh LUTs
# LUTr-Collection-ID: freshluts-community
# LUTr-Source: https://freshluts.com
# LUTr-Retrieved: 2026-07-27
# LUTr-Source-File: submissions-raw/freshluts/cubes/673__fit_for_hope_3.00002.cube
# LUTr-Source-Format: CUBE
# LUTr-Source-SHA256: 0a10b44504e6eb07ce5a96e8dc4138a47da0ad589580b255a101cb4a912b8b0f
# LUTr-License: CC0-1.0
# LUTr-License-URL: https://freshluts.com/termsandconditions
# LUTr-License-Basis: site-terms
# LUTr-Transform-Class: creative-look
# LUTr-Tags: creative, freshluts, community, cube, canon-cinestyle, correction
# LUTr-Input-Color-Space:
# LUTr-Input-Gamut: rec709
# LUTr-Input-Transfer: canon-cinestyle
# LUTr-Output-Color-Space: srgb
# LUTr-Output-Gamut: rec709
# LUTr-Output-Transfer: srgb
# LUTr-Color-Space-Confidence: camera-profile-input-required
# LUTr-Domain-Normalized: true
# LUTr-Shaper: none
# LUTr-Original-Grid: 33x33x33
# LUTr-Conversion-Grid: 33x33x33
# LUTr-Conversion-Interpolation: none
# LUTr-Conversion-Method: Metadata normalization; numeric LUT samples preserved
# LUTr-Conversion-Tool: LUTr scripts/convert-all-to-cube.mjs 2.0.0
# LUTr-Conversion-Date: 2026-07-28
# LUTr-Asset-URL: https://freshluts.com/luts/673
# LUTr-Author: lvannoeun@gmail.com
# LUTr-Author-URL: https://freshluts.com/users/57563
# LUTr-Attribution: lvannoeun@gmail.com via Fresh LUTs
# LUTr-Source-Labels: gamma=Canon Cinestyle; color=None; key=Neutral; style=Drama
# LUTr-Note: Preserve this metadata and the upstream license notices when redistributing.
TITLE "This is sample CINEstyle LOOK . correct your footages first then apply THIS LUT."
LUT_3D_SIZE 9
DOMAIN_MIN 0 0 0
DOMAIN_MAX 1 1 1
0 0 0.0339971
0 0 0.0268101
0.135378 0 0.0163729
0.281636 0 0.0126497
0.420722 0 0.0108034
0.555627 0 0.0102693
0.687739 0 0.0104982
0.817273 0 0.0113832
0.932219 0 0.0129549
0 0.120134 0.0482948
0.00210575 0.11249 0.0407263
0.156313 0.103059 0.031342
0.30193 0.0997177 0.0280919
0.440848 0.0981155 0.0265507
0.575525 0.0977646 0.0262913
0.707561 0.0983444 0.0269474
0.837263 0.0993515 0.0280308
0.949615 0.100847 0.0296178
0 0.246235 0.0567788
0.0090486 0.237797 0.0484321
0.170779 0.229587 0.0403143
0.315877 0.226642 0.0374762
0.454536 0.225315 0.0362249
0.589273 0.225208 0.0362249
0.721279 0.226017 0.0371099
0.85095 0.227146 0.038407
0.960739 0.228763 0.0400549
0 0.37409 0.0633097
0.0229496 0.364752 0.054078
0.183124 0.357855 0.0472572
0.327596 0.355077 0.0445869
0.466194 0.354116 0.0437171
0.600885 0.354284 0.0439765
0.732692 0.355138 0.0449531
0.86244 0.356603 0.0465248
0.969772 0.358236 0.0482643
0 0.503227 0.0686656
0.0363165 0.493385 0.0589456
0.194186 0.487343 0.0529946
0.33817 0.484825 0.0505837
0.476524 0.484062 0.0499275
0.611048 0.484413 0.05037
0.742733 0.485328 0.0513924
0.872419 0.487007 0.0531624
0.977325 0.48867 0.0549477
0 0.633295 0.0733654
0.0480201 0.623194 0.0633707
0.204028 0.617655 0.0579385
0.347601 0.615457 0.0558633
0.485786 0.614816 0.0553292
0.620035 0.615274 0.0558785
0.751736 0.616312 0.057023
0.881193 0.618051 0.0588693
0.983581 0.619715 0.0606088
0 0.764096 0.0770733
0.0585489 0.753811 0.0668956
0.213001 0.748623 0.0618143
0.356298 0.746654 0.0599527
0.494057 0.746151 0.059556
0.628138 0.746548 0.0600595
0.759655 0.747799 0.0614176
0.888823 0.749493 0.0632181
0.988724 0.751141 0.0649729
0 0.89543 0.0801251
0.0680247 0.884962 0.069749
0.22121 0.880156 0.0650492
0.364004 0.878325 0.0633097
0.501411 0.877852 0.0629435
0.635294 0.878279 0.0634775
0.766567 0.879545 0.0648356
0.89575 0.881163 0.0665599
0.992874 0.882795 0.0682994
0 1 0.082536
0.0763409 1 0.0720531
0.228412 1 0.0676738
0.370687 0.999573 0.065919
0.507759 0.999496 0.0656596
0.641382 0.999634 0.0661936
0.772488 1 0.0675212
0.901457 1 0.0691844
0.996139 1 0.0707866
0 0.000106813 0.140841
0 0 0.133852
0.137194 0 0.123186
0.283436 0 0.11931
0.422507 0 0.117327
0.557305 0 0.116609
0.689311 0 0.116777
0.81912 0 0.117601
0.933425 0 0.118807
0 0.121218 0.155032
0.00283818 0.113512 0.147173
0.158068 0.104311 0.137804
0.303593 0.100999 0.134386
0.442405 0.0994125 0.132815
0.577264 0.0990005 0.132342
0.709255 0.0995804 0.13286
0.838972 0.100725 0.133791
0.950729 0.102251 0.135241
0 0.247364 0.163119
0.0103914 0.238773 0.154406
0.172686 0.230823 0.146365
0.317662 0.227924 0.143328
0.456275 0.226673 0.142016
0.591089 0.226596 0.141863
0.722957 0.227268 0.142519
0.852735 0.228626 0.143801
0.961975 0.230213 0.145327
0 0.375387 0.169223
0.0252842 0.365881 0.159777
0.185107 0.359121 0.152941
0.329519 0.35642 0.150195
0.467933 0.355383 0.149157
0.602686 0.355673 0.149264
0.734417 0.356405 0.150057
0.86421 0.358068 0.151507
0.970962 0.359716 0.153079
0 0.504555 0.174319
0.0384833 0.494591 0.164355
0.196094 0.488624 0.158312
0.339971 0.486076 0.15584
0.478187 0.485359 0.155032
0.612772 0.485756 0.155291
0.744381 0.486702 0.156176
0.874113 0.488457 0.157778
0.978607 0.490105 0.15935
0 0.634577 0.178424
0.0501869 0.624445 0.168231
0.205982 0.618982 0.162646
0.349477 0.6168 0.160464
0.487526 0.616251 0.159808
0.62179 0.616693 0.160189
0.753399 0.6177 0.161242
0.882902 0.619532 0.162951
0.984848 0.621134 0.164508
0 0.765316 0.181689
0.0606546 0.755062 0.171298
0.214954 0.749874 0.16611
0.358068 0.748058 0.164172
0.495842 0.747509 0.163561
0.629816 0.747951 0.164019
0.761379 0.749157 0.165103
0.890532 0.750912 0.166735
0.98999 0.75256 0.168322
0 0.896635 0.184314
0.0700389 0.886183 0.173724
0.223056 0.881453 0.168902
0.365682 0.879652 0.167071
0.50312 0.879255 0.166522
0.636957 0.879545 0.166903
0.7682 0.880858 0.168078
0.897246 0.882582 0.16968
0.994095 0.884184 0.171206
0 1 0.186114
0.0784161 1 0.175418
0.230289 1 0.170932
0.372564 0.999924 0.1691
0.509483 0.999863 0.168597
0.643076 1 0.168963
0.77406 1 0.170169
0.903014 1 0.171664
0.997177 1 0.173144
0 0.000167849 0.249744
0 0.0000610361 0.242588
0.138979 0 0.232013
0.285039 0 0.228199
0.424033 0 0.226276
0.558831 0 0.225528
0.690883 0 0.225788
0.8206 0 0.22649
0.934691 0 0.227909
0 0.122301 0.264027
0.00357061 0.114397 0.256016
0.159899 0.105303 0.246799
0.305287 0.102007 0.243397
0.444083 0.100557 0.24184
0.578958 0.100282 0.241398
0.710948 0.100908 0.241947
0.84062 0.10193 0.242939
0.951888 0.10341 0.244327
0 0.248508 0.272175
0.0118715 0.239704 0.263279
0.174487 0.231952 0.255497
0.319265 0.228992 0.252399
0.458 0.227832 0.251209
0.592798 0.227832 0.251087
0.724758 0.228672 0.25185
0.854414 0.229908 0.25301
0.963211 0.231495 0.25452
0 0.376486 0.278416
0.0275883 0.366949 0.268772
0.186938 0.360296 0.262104
0.331212 0.357595 0.259327
0.469627 0.356695 0.258427
0.604364 0.357015 0.258564
0.736019 0.357778 0.259297
0.865843 0.359365 0.260838
0.972213 0.361028 0.26244
0 0.505684 0.28368
0.0406348 0.495674 0.273671
0.198016 0.489845 0.267735
0.341787 0.487449 0.265202
0.479973 0.486778 0.264469
0.614511 0.487114 0.264744
0.746075 0.488014 0.26569
0.875807 0.489784 0.267338
0.979675 0.491432 0.26891
0 0.635798 0.2878
0.0523079 0.62562 0.277562
0.207858 0.620264 0.272084
0.351308 0.618067 0.269886
0.489189 0.617441 0.269261
0.623499 0.617975 0.269627
0.755001 0.61912 0.27071
0.88455 0.62089 0.272358
0.986023 0.622461 0.27393
0 0.766629 0.291066
0.0628061 0.756252 0.280644
0.2168 0.751141 0.275517
0.359808 0.749264 0.273655
0.497398 0.748852 0.273121
0.631418 0.749279 0.273487
0.762875 0.750484 0.274647
0.892149 0.75227 0.276295
0.991196 0.753872 0.277852
0 0.897932 0.293843
0.0720836 0.887297 0.283207
0.224948 0.88278 0.278492
0.367422 0.880934 0.276631
0.50486 0.880461 0.276097
0.63856 0.880949 0.276493
0.769863 0.882231 0.277684
0.898772 0.883894 0.279286
0.995285 0.885466 0.280781
0 1 0.295628
0.080293 1 0.284855
0.232166 1 0.280476
0.374136 1 0.27863
0.511177 1 0.278126
0.644755 1 0.278538
0.775616 1 0.279576
0.904601 1 0.281163
0.998306 1 0.282628
0 0.000442512 0.359686
0 0.00015259 0.352392
0.140658 0 0.34197
0.28658 0 0.338186
0.425513 0 0.336294
0.560418 0 0.335485
0.69247 0 0.335775
0.822171 0 0.336599
0.935531 0 0.337972
0 0.123308 0.373968
0.00436408 0.11519 0.365835
0.161593 0.106294 0.356832
0.30692 0.103059 0.353491
0.445624 0.10164 0.351904
0.580575 0.101366 0.351537
0.712489 0.101961 0.352041
0.842145 0.103166 0.353079
0.953094 0.104616 0.354498
0 0.249531 0.382269
0.0143587 0.240543 0.37319
0.176272 0.233005 0.36556
0.320974 0.230091 0.362509
0.459571 0.228992 0.361379
0.594385 0.228992 0.361303
0.726192 0.229801 0.36199
0.855772 0.231067 0.363302
0.964385 0.2327 0.364797
0 0.377615 0.388678
0.029633 0.36791 0.378973
0.188708 0.361364 0.372366
0.332937 0.358785 0.369665
0.471321 0.357931 0.368734
0.606012 0.358144 0.368872
0.737682 0.359014 0.369741
0.867323 0.360678 0.371252
0.973388 0.362249 0.372824
0 0.506752 0.393835
0.0427253 0.496849 0.383886
0.199664 0.490913 0.377905
0.343481 0.488701 0.37554
0.481666 0.487984 0.374792
0.616175 0.488334 0.375067
0.747723 0.489265 0.375982
0.877333 0.49102 0.377584
0.980835 0.492714 0.379217
0 0.636927 0.398047
0.0544594 0.626703 0.387762
0.209583 0.621347 0.38233
0.353002 0.619333 0.380255
0.490837 0.618799 0.379675
0.625055 0.619165 0.37998
0.756573 0.620371 0.381109
0.886076 0.622049 0.382742
0.987045 0.623743 0.384375
0 0.767788 0.401434
0.0648966 0.757443 0.390967
0.218585 0.752407 0.385931
0.361547 0.750546 0.383993
0.499062 0.750072 0.38349
0.633051 0.7505 0.383841
0.764446 0.751904 0.385122
0.893706 0.753536 0.386694
0.992309 0.755123 0.388296
0 0.899031 0.404135
0.0740826 0.888518 0.393484
0.226642 0.883864 0.388815
0.369131 0.882185 0.386954
0.506371 0.881773 0.386481
0.640101 0.882261 0.386892
0.771435 0.883436 0.388022
0.900328 0.8851 0.389624
0.996399 0.886687 0.391135
0 1 0.405982
0.0822156 1 0.395163
0.233845 1 0.390845
0.375677 1 0.389059
0.512764 1 0.388586
0.646281 1 0.388983
0.777173 1 0.390097
0.906035 1 0.391577
0.99939 1 0.393057
0 0.00129702 0.470314
0 0.000198367 0.462898
0.142214 0 0.452689
0.288075 0 0.448905
0.426993 0 0.446983
0.561898 0 0.446265
0.693996 0 0.446586
0.823651 0 0.447333
0.936507 0 0.448569
0 0.124132 0.484672
0.00527962 0.115969 0.476326
0.163302 0.107301 0.467536
0.308522 0.104128 0.46421
0.447227 0.102678 0.46276
0.582071 0.102419 0.462409
0.713909 0.102968 0.462852
0.843488 0.104219 0.464012
0.954162 0.105684 0.465385
0 0.250446 0.49308
0.0165713 0.241337 0.483818
0.17792 0.234104 0.476493
0.322621 0.231128 0.473381
0.461158 0.23003 0.47219
0.595972 0.230091 0.47219
0.727642 0.230762 0.472755
0.857313 0.23238 0.474296
0.965484 0.233845 0.475776
0 0.378576 0.499413
0.0317235 0.368917 0.489693
0.190326 0.36257 0.483253
0.334554 0.359884 0.480507
0.472908 0.359121 0.479606
0.607538 0.359228 0.479774
0.739239 0.360143 0.480552
0.868818 0.361822 0.48217
0.974502 0.363424 0.483711
0 0.507912 0.504692
0.0448615 0.497871 0.49456
0.20119 0.492012 0.488655
0.34519 0.489784 0.486336
0.483253 0.489128 0.485649
0.617746 0.489525 0.485954
0.749279 0.490532 0.486885
0.878798 0.492363 0.488594
0.981949 0.493904 0.490135
0 0.638071 0.509041
0.0565499 0.627817 0.498711
0.2112 0.622507 0.493339
0.354711 0.620493 0.491264
0.49247 0.619898 0.490669
0.626688 0.620371 0.491005
0.758175 0.621622 0.492195
0.887587 0.623224 0.493782
0.988144 0.624949 0.49546
0 0.768963 0.512474
0.0668498 0.758526 0.501961
0.220188 0.753643 0.497032
0.363195 0.751766 0.495094
0.500633 0.751324 0.494591
0.634653 0.751751 0.494957
0.766003 0.753017 0.496178
0.895247 0.754665 0.497749
0.993255 0.756344 0.499382
0 0.900267 0.515038
0.0760357 0.889708 0.504341
0.228382 0.88513 0.499779
0.370764 0.88336 0.497993
0.507866 0.882933 0.497505
0.641611 0.883436 0.497948
0.772778 0.884611 0.499062
0.901778 0.88629 0.500664
0.997452 0.887846 0.502174
0 1 0.517021
0.0841688 1 0.506188
0.235508 1 0.501915
0.377325 1 0.500069
0.514229 1 0.499565
0.647669 1 0.500053
0.778592 1 0.50106
0.907317 1 0.502647
1 1 0.504097
0 0.00199893 0.581506
0 0.000350958 0.573999
0.143877 0 0.563897
0.289601 0 0.560128
0.428519 0 0.558343
0.563394 0 0.557626
0.695415 0 0.557961
0.824887 0 0.55877
0.93756 0 0.55996
0 0.125002 0.595972
0.0062562 0.11667 0.587457
0.164889 0.108217 0.578897
0.310048 0.104982 0.57554
0.448753 0.103639 0.57409
0.583551 0.103441 0.573816
0.71545 0.104036 0.574304
0.844984 0.105272 0.575494
0.955215 0.106737 0.576883
0 0.251499 0.60441
0.0186618 0.242222 0.595087
0.179538 0.23508 0.587854
0.324178 0.232212 0.584833
0.462684 0.231098 0.583703
0.597284 0.231266 0.583749
0.729107 0.231769 0.584268
0.858824 0.233463 0.585779
0.966567 0.234958 0.587259
0 0.37966 0.610834
0.0338445 0.369833 0.600992
0.191974 0.363607 0.594629
0.336156 0.360952 0.591974
0.474495 0.360204 0.59115
0.608881 0.360388 0.591333
0.740719 0.361273 0.592142
0.870253 0.362951 0.593744
0.975586 0.364553 0.5953
0 0.508995 0.616083
0.0469215 0.498833 0.60592
0.203037 0.493172 0.600198
0.346746 0.490959 0.597848
0.484871 0.490318 0.597147
0.619211 0.490623 0.597391
0.75082 0.491615 0.598489
0.880232 0.493416 0.600168
0.983032 0.495048 0.60174
0 0.639216 0.620432
0.0583658 0.62887 0.610147
0.212894 0.623667 0.604822
0.356252 0.621546 0.602762
0.494026 0.621042 0.602182
0.628183 0.6215 0.602518
0.759716 0.62266 0.603677
0.888975 0.624445 0.605341
0.989227 0.626123 0.606928
0 0.770108 0.624002
0.068574 0.759487 0.613382
0.221942 0.754803 0.608652
0.364782 0.752865 0.606699
0.502235 0.752392 0.606226
0.636149 0.75288 0.606607
0.767468 0.754162 0.607828
0.896681 0.755871 0.609415
0.994278 0.757488 0.611048
0 0.901335 0.626612
0.0778058 0.89073 0.615885
0.23003 0.886259 0.611414
0.372381 0.884443 0.609537
0.509438 0.883986 0.609094
0.643153 0.884565 0.609537
0.774136 0.885649 0.610681
0.903227 0.887388 0.612314
0.998383 0.888991 0.61384
0 1 0.628504
0.0858778 1 0.617685
0.237079 1 0.613443
0.378866 1 0.611597
0.515572 1 0.611109
0.649134 1 0.611582
0.780026 1 0.612497
0.908736 1 0.614145
1 1 0.615641
0 0.00280766 0.693111
0 0.000442512 0.685496
0.14551 0.000015259 0.675654
0.291188 0 0.671962
0.430014 0 0.670115
0.56492 0 0.66949
0.696818 0 0.66981
0.826337 0 0.67068
0.938582 0 0.671885
0 0.125902 0.70753
0.00717174 0.117418 0.69897
0.166461 0.109102 0.690593
0.311513 0.105867 0.687327
0.450187 0.104555 0.685954
0.584833 0.104463 0.685771
0.716793 0.104982 0.686183
0.846387 0.106294 0.687404
0.956252 0.107836 0.688807
0 0.252354 0.716182
0.0208438 0.243 0.706737
0.18114 0.235996 0.699657
0.325597 0.233173 0.696727
0.464225 0.232151 0.695659
0.598779 0.232258 0.695735
0.73051 0.232929 0.696315
0.860227 0.23447 0.697795
0.96762 0.236088 0.699306
0 0.380529 0.722713
0.0359197 0.370703 0.712825
0.193591 0.364477 0.706523
0.337636 0.36202 0.70399
0.47599 0.361212 0.70312
0.610422 0.361501 0.703349
0.742107 0.362325 0.704158
0.871733 0.364019 0.705791
0.976638 0.365728 0.707378
0 0.509896 0.727947
0.0487678 0.499809 0.717845
0.204578 0.494102 0.712077
0.348196 0.492042 0.709895
0.486366 0.491341 0.709178
0.620432 0.49163 0.709422
0.75227 0.49279 0.710521
0.881666 0.494545 0.712154
0.984085 0.496239 0.713787
0 0.640253 0.732311
0.0602731 0.629923 0.72192
0.214618 0.624659 0.716655
0.357794 0.622736 0.714672
0.495598 0.622202 0.714137
0.629572 0.62269 0.714488
0.761166 0.62385 0.715663
0.890333 0.625559 0.717311
0.990265 0.627314 0.718944
0 0.771069 0.735988
0.070573 0.760571 0.725399
0.223651 0.755749 0.720562
0.366293 0.753933 0.718593
0.503807 0.753567 0.718105
0.63769 0.754009 0.718456
0.768963 0.755291 0.719738
0.898009 0.75697 0.721325
0.995315 0.758694 0.722927
0 0.902296 0.738659
0.0795605 0.891691 0.727871
0.231647 0.887373 0.723491
0.373877 0.885496 0.721599
0.510903 0.885191 0.721172
0.644587 0.885649 0.72163
0.775616 0.886763 0.722759
0.904646 0.888472 0.72433
0.999252 0.89015 0.725902
0 1 0.740368
0.0877546 1 0.729534
0.238727 1 0.725368
0.380438 1 0.723568
0.517082 1 0.723095
0.650538 1 0.723568
0.781277 1 0.724514
0.910033 1 0.726085
1 1 0.727642
0 0.00352483 0.805127
0.000030518 0.000503548 0.797208
0.147082 0.000030518 0.787625
0.292607 0 0.783902
0.431495 0 0.782223
0.566293 0 0.781659
0.698131 0 0.781918
0.82771 0 0.78291
0.939574 0 0.784146
0 0.126726 0.819654
0.00822461 0.118013 0.810864
0.168063 0.109972 0.802655
0.312901 0.106828 0.79939
0.451637 0.105547 0.798016
0.586313 0.10544 0.797879
0.718029 0.106035 0.798367
0.847852 0.107378 0.799634
0.957259 0.108858 0.801038
0 0.253361 0.82826
0.0228885 0.243793 0.818662
0.182727 0.236957 0.811749
0.327123 0.234134 0.808865
0.465568 0.233082 0.807813
0.600275 0.233341 0.807874
0.731899 0.234119 0.80853
0.861708 0.235538 0.81004
0.96849 0.237186 0.811566
0 0.381476 0.834943
0.0377966 0.371511 0.825086
0.195132 0.365332 0.818753
0.339132 0.363088 0.816312
0.477348 0.362341 0.815503
0.611795 0.362432 0.815641
0.74345 0.363607 0.816556
0.873152 0.365255 0.818112
0.977646 0.366812 0.819669
0 0.510872 0.840314
0.0506752 0.500679 0.830121
0.206256 0.495094 0.824414
0.349798 0.493019 0.822278
0.487785 0.492485 0.821683
0.621973 0.492699 0.821927
0.753613 0.493904 0.823011
0.883055 0.495567 0.824598
0.985107 0.497337 0.82623
0 0.64126 0.844724
0.0620584 0.630762 0.834226
0.216312 0.625696 0.829099
0.359335 0.623728 0.827131
0.497047 0.623301 0.826581
0.630991 0.623652 0.826932
0.762585 0.624903 0.828122
0.891783 0.626719 0.829816
0.991272 0.628397 0.831434
0 0.77203 0.848157
0.0722667 0.761547 0.837537
0.225269 0.756909 0.832837
0.367788 0.755123 0.831006
0.505211 0.754559 0.830442
0.639033 0.755108 0.83093
0.770275 0.756344 0.832044
0.899306 0.758129 0.833768
0.996292 0.759762 0.83534
0 0.903426 0.850935
0.0814221 0.892653 0.840146
0.23331 0.88835 0.835767
0.37528 0.886519 0.833997
0.512398 0.886091 0.833524
0.646052 0.886717 0.834012
0.776959 0.887907 0.835081
0.905959 0.88957 0.836667
0.999954 0.891173 0.838209
0 1 0.852766
0.0895247 1 0.841947
0.240284 1 0.837751
0.381979 1 0.835966
0.518563 1 0.835508
0.651957 1 0.835996
0.782559 1 0.836988
0.911391 1 0.838544
1 1 0.839994
0 0.00428779 0.917647
0.0000610361 0.000656138 0.90959
0.148577 0.0000762951 0.900114
0.294041 0 0.896406
0.432898 0 0.894728
0.56759 0 0.89424
0.699626 0 0.894499
0.82916 0 0.895415
0.940581 0 0.896666
0 0.127474 0.932158
0.00929274 0.118715 0.923278
0.169482 0.11078 0.915221
0.314275 0.107637 0.912016
0.452949 0.106508 0.910689
0.587762 0.106432 0.910506
0.719417 0.106966 0.910918
0.849271 0.108415 0.912291
0.958053 0.109895 0.913741
0 0.254185 0.94078
0.0249638 0.244541 0.931167
0.184298 0.237858 0.924331
0.328588 0.235065 0.921508
0.466987 0.234241 0.920501
0.601617 0.234257 0.920485
0.733272 0.235065 0.921218
0.86305 0.236545 0.922698
0.969406 0.238239 0.924254
0 0.382391 0.947417
0.0396735 0.372396 0.937407
0.196826 0.36643 0.931243
0.340688 0.363989 0.928801
0.478859 0.363424 0.9281
0.613245 0.363531 0.928206
0.744915 0.364599 0.929213
0.874571 0.366232 0.930755
0.978469 0.367926 0.932403
0 0.511833 0.95285
0.0525673 0.50164 0.942596
0.207858 0.496086 0.93698
0.351385 0.49398 0.934844
0.48925 0.493614 0.934218
0.623438 0.493828 0.934447
0.755032 0.495048 0.935592
0.884504 0.496712 0.93724
0.986007 0.498436 0.938903
0 0.642237 0.957412
0.0638743 0.631571 0.946883
0.217868 0.626703 0.941878
0.36083 0.624796 0.939925
0.498405 0.624414 0.939406
0.632425 0.624842 0.939742
0.763836 0.626108 0.940902
0.893141 0.627771 0.942504
0.992248 0.629465 0.944091
0 0.773053 0.960906
0.074052 0.762295 0.950149
0.226871 0.757931 0.945602
0.369284 0.755993 0.943709
0.50663 0.755734 0.943328
0.640391 0.756252 0.943801
0.771634 0.757336 0.944808
0.900694 0.759106 0.946593
0.997238 0.7608 0.948165
0 0.90428 0.963531
0.0831311 0.893599 0.952743
0.234882 0.889357 0.948425
0.376791 0.887678 0.946624
0.513863 0.887236 0.94612
0.647471 0.887816 0.946654
0.778317 0.888899 0.947723
0.907301 0.890623 0.949386
1 0.892226 0.950927
0 1 0.965454
0.0911727 1 0.954635
0.241871 1 0.950484
0.383261 1 0.948684
0.519951 1 0.948196
0.6533 1 0.948653
0.783871 1 0.949645
0.912657 1 0.951186
1 1 0.95256
