site/assets/luts/freshluts--0001114-a-slight-touch-of-sepia.cube
# LUTr-Schema-Version: 2
# LUTr-ID: freshluts--0001114-a-slight-touch-of-sepia
# LUTr-Title: A slight touch of Sepia
# LUTr-Collection: Fresh LUTs
# LUTr-Collection-ID: freshluts-community
# LUTr-Source: https://freshluts.com
# LUTr-Retrieved: 2026-07-27
# LUTr-Source-File: submissions-raw/freshluts/cubes/1114__RR_ASlightTouchOfSepia.cube
# LUTr-Source-Format: CUBE
# LUTr-Source-SHA256: 1fff113de3fb8ed8e684610246a36f951a4a261513e2d625fafe87fdc2fca62f
# LUTr-License: CC0-1.0
# LUTr-License-URL: https://freshluts.com/termsandconditions
# LUTr-License-Basis: site-terms
# LUTr-Transform-Class: creative-look
# LUTr-Tags: creative, freshluts, community, cube, vintage, warm, dji-d-log
# LUTr-Input-Color-Space: dji-dlog-dgamut
# LUTr-Input-Gamut: dji-d-gamut
# LUTr-Input-Transfer: dji-d-log
# LUTr-Output-Color-Space: srgb
# LUTr-Output-Gamut: rec709
# LUTr-Output-Transfer: srgb
# LUTr-Color-Space-Confidence: inferred-from-source-label
# LUTr-Domain-Normalized: true
# LUTr-Shaper: none
# LUTr-Original-Grid: 33x33x33
# LUTr-Conversion-Grid: 33x33x33
# LUTr-Conversion-Interpolation: none
# LUTr-Conversion-Method: Metadata normalization; numeric LUT samples preserved
# LUTr-Conversion-Tool: LUTr scripts/convert-all-to-cube.mjs 2.0.0
# LUTr-Conversion-Date: 2026-07-28
# LUTr-Asset-URL: https://freshluts.com/luts/1114
# LUTr-Author: Tobias Reimer
# LUTr-Author-URL: https://freshluts.com/users/119677
# LUTr-Attribution: Tobias Reimer via Fresh LUTs
# LUTr-Source-Labels: gamma=DJI D-log; color=Warm; key=Neutral; style=Vintage
# LUTr-Note: Preserve this metadata and the upstream license notices when redistributing.
TITLE "A slight touch of Sepia"
LUT_3D_SIZE 5
DOMAIN_MIN 0 0 0
DOMAIN_MAX 1 1 1
0 0 0
0.279713 0 0
0.593668 0 0
0.910857 0 0
1 0 0
0 0.171923 0
0.238972 0.171664 0
0.555108 0.134569 0
0.890242 0 0
1 0 0
0 0.455085 0
0 0.453666 0
0.502876 0.451392 0
0.828107 0.429709 0
1 0.390738 0
0 0.737438 0
0 0.736171 0
0.413367 0.740658 0
0.775357 0.728756 0
1 0.708873 0
0 1 0
0 1 0
0 1 0
0.701854 1 0
1 1 0
0.0137331 0 0.116167
0.278325 0 0.11249
0.593591 0 0.0939498
0.912139 0 0.0480812
1 0 0
0 0.178729 0.0729076
0.242069 0.179294 0.0748455
0.558495 0.143954 0.0591135
0.891539 0 0.0179599
1 0 0
0 0.456779 0
0 0.455665 0
0.501671 0.453147 0
0.826474 0.43154 0
1 0.392615 0
0 0.737697 0
0 0.736355 0
0.412329 0.740841 0
0.77409 0.729198 0
1 0.709667 0
0 1 0
0 1 0
0 1 0
0.701228 1 0
1 1 0
0 0 0.400961
0.239017 0 0.401877
0.577005 0 0.387686
0.899062 0 0.365377
1 0 0.335454
0 0.0889143 0.365026
0.195972 0.0863355 0.36788
0.560632 0 0.368246
0.885725 0 0.35108
1 0 0.324071
0 0.45803 0.307317
0 0.456992 0.305882
0.502297 0.456962 0.305547
0.830167 0.436942 0.289128
1 0.399527 0.263188
0 0.746914 0.231083
0 0.745937 0.229633
0.41352 0.750881 0.233097
0.780285 0.739788 0.217227
1 0.720577 0.188571
0 1 0.0873732
0 1 0.0840162
0 1 0.0737011
0.705699 1 0.0494087
1 1 0
0 0 0.729595
0 0 0.727337
0.545144 0 0.721874
0.874311 0 0.702663
1 0 0.67657
0 0 0.713634
0 0 0.711666
0.535393 0 0.708446
0.865385 0 0.6907
1 0 0.667094
0 0.421912 0.64625
0 0.420615 0.644358
0.474861 0.422004 0.64564
0.813947 0.402365 0.630915
1 0.363867 0.61088
0 0.734066 0.585336
0 0.732952 0.58378
0.381933 0.738872 0.5888
0.767666 0.728954 0.577218
1 0.710719 0.559121
0 1 0.511818
0 1 0.510704
0 1 0.508217
0.697124 1 0.508202
1 1 0.491447
0 0 1
0 0 1
0.492241 0 1
0.840497 0 1
1 0 1
0 0 1
0 0 1
0.482506 0 1
0.83418 0 1
1 0 1
0 0.336477 1
0 0.334524 1
0.418509 0.335714 1
0.786679 0.31136 1
1 0.260227 0.981201
0 0.702541 0.956207
0 0.701488 0.954559
0.301671 0.707881 0.959091
0.741161 0.699092 0.948653
1 0.68191 0.93164
0 1 0.891859
0 1 0.890288
0 1 0.886809
0.671 1 0.889525
1 0.997406 0.874876
