site/assets/luts/freshluts--0000162-cinelike-d-to-normal-color.cube
# LUTr-Schema-Version: 2
# LUTr-ID: freshluts--0000162-cinelike-d-to-normal-color
# LUTr-Title: Cinelike-D to normal color
# LUTr-Collection: Fresh LUTs
# LUTr-Collection-ID: freshluts-community
# LUTr-Source: https://freshluts.com
# LUTr-Retrieved: 2026-07-27
# LUTr-Source-File: submissions-raw/freshluts/cubes/162__Lumix_CinD.cube
# LUTr-Source-Format: CUBE
# LUTr-Source-SHA256: cfaf26507ee98675194f5b5192e81688dce47620a22901ea7826a4a71a2ab26b
# LUTr-License: CC0-1.0
# LUTr-License-URL: https://freshluts.com/termsandconditions
# LUTr-License-Basis: site-terms
# LUTr-Transform-Class: creative-look
# LUTr-Tags: creative, freshluts, community, cube, panasonic-cinelike-d
# LUTr-Input-Color-Space: panasonic-cinelike-d
# LUTr-Input-Gamut: rec709
# LUTr-Input-Transfer: panasonic-cinelike-d
# LUTr-Output-Color-Space: srgb
# LUTr-Output-Gamut: rec709
# LUTr-Output-Transfer: srgb
# LUTr-Color-Space-Confidence: inferred-from-source-label
# LUTr-Domain-Normalized: true
# LUTr-Shaper: none
# LUTr-Original-Grid: 33x33x33
# LUTr-Conversion-Grid: 33x33x33
# LUTr-Conversion-Interpolation: none
# LUTr-Conversion-Method: Metadata normalization; numeric LUT samples preserved
# LUTr-Conversion-Tool: LUTr scripts/convert-all-to-cube.mjs 2.0.0
# LUTr-Conversion-Date: 2026-07-28
# LUTr-Asset-URL: https://freshluts.com/luts/162
# LUTr-Author: Sander
# LUTr-Author-URL: https://freshluts.com/users/1286
# LUTr-Attribution: Sander via Fresh LUTs
# LUTr-Source-Labels: gamma=Panasonic Cinelike-D; color=None; key=Neutral; style=Correction
# LUTr-Note: Preserve this metadata and the upstream license notices when redistributing.
TITLE "Cinelike-D to normal color"
LUT_3D_SIZE 9
DOMAIN_MIN 0 0 0
DOMAIN_MAX 1 1 1
0 0 0
0.115465 0 0
0.230686 0 0
0.345708 0 0
0.461021 0 0
0.577356 0 0
0.695476 0 0
0.817182 0 0
0.942199 0 0
0 0.0920424 0
0.0826581 0.0826581 0
0.199512 0.0743877 0
0.318868 0.0686198 0
0.441733 0.0663462 0
0.568017 0.0675059 0
0.696406 0.0707713 0
0.826307 0.0755322 0
0.957061 0.0816815 0
0 0.192554 0
0.0666667 0.191791 0
0.193652 0.193652 0
0.32256 0.197421 0
0.452964 0.202701 0
0.584298 0.208911 0
0.716854 0.216342 0
0.850004 0.224369 0
0.982956 0.232685 0
0 0.324285 0
0.0797131 0.329976 0
0.211505 0.336629 0
0.344366 0.344366 0
0.477684 0.35256 0
0.610758 0.36051 0
0.743923 0.368536 0
0.876448 0.375937 0.00106813
1 0.382147 0.00727855
0 0.472343 0
0.105028 0.480415 0
0.238407 0.488655 0
0.371328 0.496452 0
0.503334 0.503334 0.00334173
0.634318 0.509194 0.00920119
0.764202 0.513954 0.013962
0.89308 0.517693 0.0177005
1 0.520912 0.0209354
0 0.624155 0
0.130159 0.630671 0.00555428
0.260761 0.636149 0.0110323
0.390295 0.640543 0.0154269
0.518746 0.643885 0.0187533
0.64712 0.64712 0.0219883
0.775082 0.649958 0.0248417
0.90248 0.652216 0.0271
1 0.654337 0.0292058
0.0164797 0.766735 0.0164797
0.144594 0.77023 0.0199893
0.272831 0.773342 0.0230869
0.400671 0.776059 0.025803
0.527855 0.778119 0.027863
0.654932 0.780056 0.0298009
0.781598 0.781598 0.0313573
0.907637 0.782498 0.0322576
1 0.783398 0.0331426
0.0263218 0.901701 0.0263218
0.153246 0.904021 0.0286412
0.280186 0.905837 0.030457
0.40647 0.906981 0.0316014
0.532601 0.907988 0.0326085
0.658351 0.908598 0.0332189
0.783703 0.908843 0.033463
0.908431 0.908431 0.033051
1 0.90779 0.0324102
0.0322881 1 0.0322881
0.1579 1 0.0332799
0.283497 1 0.0337682
0.408453 1 0.0335851
0.533227 1 0.0332341
0.657145 1 0.0320287
0.779629 1 0.0293889
0.900664 1 0.0252842
1 1 0.0206149
0 0 0.121294
0.112306 0 0.112306
0.227298 0 0.102174
0.342306 0 0.0920577
0.457938 0 0.0825513
0.574762 0 0.0742504
0.693996 0 0.0683604
0.816785 0 0.0660105
0.942748 0 0.0673686
0 0.0887465 0.0887465
0.0795911 0.0795911 0.0795911
0.197192 0.0720684 0.0720684
0.317876 0.067628 0.067628
0.442023 0.0666361 0.0666361
0.568978 0.0684672 0.0684672
0.697841 0.0722057 0.0722057
0.828214 0.0774548 0.0774548
0.959121 0.0837415 0.0837415
0 0.191745 0.0666209
0.0670024 0.192126 0.0670024
0.194873 0.194873 0.069749
0.324285 0.199145 0.0740215
0.455055 0.204807 0.0796826
0.586725 0.211337 0.0862135
0.719554 0.219043 0.0939193
0.852872 0.227237 0.102113
0.985565 0.235294 0.11017
0 0.326146 0.0758984
0.0818189 0.332082 0.0818189
0.214084 0.339223 0.0889754
0.347127 0.347127 0.0968795
0.480217 0.355093 0.104845
0.613596 0.363348 0.113085
0.746532 0.37116 0.120897
0.878737 0.378225 0.127977
1 0.38407 0.133806
0 0.475181 0.0998093
0.107881 0.483268 0.107881
0.241169 0.491432 0.116045
0.373907 0.499031 0.123659
0.505409 0.505409 0.130022
0.636057 0.510918 0.135546
0.765606 0.515343 0.139971
0.89424 0.518853 0.143481
1 0.522042 0.146654
0.00137331 0.626505 0.125994
0.132265 0.632776 0.132265
0.26244 0.637827 0.137316
0.391577 0.641825 0.141314
0.519921 0.645045 0.144533
0.648157 0.648157 0.147646
0.776013 0.650889 0.150378
0.903212 0.652949 0.152438
1 0.655009 0.154498
0.0177005 0.767941 0.142306
0.145739 0.771374 0.145739
0.273823 0.774334 0.148699
0.401358 0.776745 0.15111
0.528603 0.778851 0.153216
0.655558 0.780682 0.155047
0.782025 0.782025 0.15639
0.907988 0.782849 0.157214
1 0.783597 0.157961
0.0271611 0.902541 0.151781
0.153933 0.904707 0.153933
0.280735 0.906371 0.155612
0.406897 0.907408 0.156634
0.532906 0.908293 0.157534
0.658534 0.908782 0.158022
0.783536 0.90866 0.1579
0.908278 0.908278 0.157519
1 0.907225 0.156451
0.0326543 1 0.157275
0.158129 1 0.158129
0.283619 1 0.158495
0.408438 1 0.15819
0.533043 1 0.157671
0.656413 1 0.155901
0.778225 1 0.15259
0.899153 1 0.148394
1 1 0.143557
0 0 0.243397
0.108934 0 0.234058
0.223865 0 0.223865
0.338964 0 0.21384
0.454887 0 0.204639
0.572366 0 0.196979
0.692958 0 0.192447
0.816999 0 0.191363
0.943587 0 0.193332
0 0.0855573 0.210681
0.0767987 0.0767987 0.201923
0.195148 0.0700236 0.195148
0.317006 0.0667582 0.191882
0.442481 0.0670939 0.192218
0.570153 0.0696422 0.194766
0.699504 0.0738689 0.198993
0.830274 0.0794995 0.204623
0.961501 0.0861219 0.211246
0 0.19144 0.19144
0.0676738 0.192798 0.192798
0.196139 0.196139 0.196139
0.326101 0.200977 0.200977
0.457038 0.206775 0.206775
0.589273 0.213886 0.213886
0.722286 0.221775 0.221775
0.855528 0.229892 0.229892
0.988357 0.238102 0.238102
0 0.327871 0.202731
0.0841535 0.334401 0.209277
0.216754 0.341878 0.216754
0.349935 0.349935 0.224811
0.48304 0.357916 0.232776
0.616342 0.366094 0.240955
0.749081 0.373709 0.248569
0.880613 0.380102 0.254963
1 0.385763 0.260624
0 0.477684 0.227436
0.110689 0.486061 0.235813
0.243809 0.494072 0.243809
0.376318 0.501442 0.251179
0.507485 0.507485 0.257237
0.63769 0.512566 0.262303
0.766873 0.516609 0.266361
0.895201 0.519814 0.269566
1 0.523049 0.272786
0.00344854 0.628565 0.253178
0.134112 0.634623 0.259236
0.263951 0.639338 0.263951
0.392554 0.642817 0.26743
0.521019 0.646159 0.270771
0.649119 0.649119 0.273732
0.776837 0.651713 0.276326
0.903914 0.653666 0.278279
1 0.655604 0.280217
0.0188754 0.769116 0.268605
0.146807 0.772442 0.271931
0.274769 0.77528 0.274769
0.40206 0.777447 0.276936
0.529244 0.779507 0.278996
0.656062 0.781201 0.28069
0.782361 0.782361 0.281849
0.908263 0.783139 0.282628
1 0.783734 0.283223
0.027924 0.903304 0.277668
0.154574 0.905333 0.279683
0.281163 0.906798 0.281163
0.407233 0.907744 0.282094
0.53312 0.908507 0.282856
0.65861 0.908873 0.283238
0.783444 0.908583 0.282933
0.90808 0.90808 0.282429
1 0.906462 0.280812
0.0329747 1 0.282704
0.158297 1 0.283421
0.283436 1 0.283436
0.408331 1 0.283192
0.532662 1 0.282414
0.655482 1 0.280095
0.776898 1 0.276387
0.897505 1 0.27187
1 1 0.266896
0 0 0.365484
0.105394 0 0.355657
0.220432 0 0.345556
0.335775 0 0.335775
0.45211 0 0.326986
0.570291 0 0.320027
0.692073 0 0.316686
0.817548 0 0.317037
0.944671 0 0.319539
0 0.0824292 0.332692
0.0742962 0.0742962 0.324544
0.193729 0.0686046 0.318853
0.316655 0.066392 0.316655
0.442969 0.0675975 0.317845
0.571405 0.0708934 0.321157
0.70132 0.0756847 0.325948
0.832441 0.0816815 0.33193
0.964034 0.0886549 0.338903
0 0.191684 0.316808
0.0686351 0.193759 0.318898
0.197574 0.197574 0.322698
0.327993 0.202869 0.327993
0.459342 0.209094 0.334218
0.591928 0.216541 0.341665
0.725093 0.224582 0.349706
0.858274 0.232624 0.357763
0.991104 0.240848 0.365972
0 0.329885 0.329885
0.0865644 0.336828 0.336828
0.21944 0.344564 0.344564
0.352605 0.352605 0.352605
0.485847 0.360723 0.360723
0.618982 0.368734 0.368734
0.751492 0.37612 0.37612
0.882704 0.382193 0.382193
1 0.387396 0.387396
0 0.480522 0.355398
0.113481 0.488869 0.363745
0.246403 0.496651 0.371527
0.378241 0.503365 0.378241
0.509346 0.509346 0.384222
0.639216 0.514076 0.388952
0.767926 0.517662 0.392538
0.896315 0.520928 0.395804
1 0.52401 0.398886
0.00561532 0.630747 0.380484
0.13579 0.636301 0.386038
0.265278 0.640665 0.390417
0.393744 0.643992 0.393744
0.522087 0.647227 0.396963
0.650065 0.650065 0.399802
0.777356 0.652232 0.401984
0.90457 0.654307 0.404059
1 0.656123 0.405859
0.0200046 0.770245 0.394873
0.147799 0.773434 0.398062
0.275639 0.77615 0.400778
0.402823 0.77821 0.402823
0.529885 0.780133 0.404761
0.65655 0.781674 0.406302
0.782574 0.782574 0.407187
0.908476 0.783352 0.407965
1 0.783825 0.408453
0.0286259 0.904005 0.403494
0.155138 0.905913 0.405402
0.281407 0.907042 0.406546
0.407538 0.908049 0.407538
0.533272 0.90866 0.408148
0.65861 0.908858 0.408362
0.783337 0.908461 0.40795
0.907713 0.907713 0.407202
1 0.905623 0.405112
0.0332341 1 0.408103
0.158434 1 0.408682
0.28336 1 0.408499
0.408148 1 0.408148
0.532021 1 0.406897
0.654383 1 0.40412
0.775494 1 0.400107
0.895842 1 0.395331
1 1 0.390173
0 0 0.487404
0.101991 0 0.477363
0.216999 0 0.467262
0.332647 0 0.457771
0.44947 0 0.44947
0.568826 0 0.443687
0.691661 0 0.441398
0.817945 0 0.442557
0.945922 0 0.445914
0 0.0792401 0.454612
0.0719463 0.0719463 0.447333
0.192706 0.0675822 0.442969
0.316945 0.0666819 0.442069
0.443915 0.0685435 0.443915
0.572808 0.0723125 0.447684
0.703212 0.0775769 0.452949
0.834531 0.083772 0.459159
0.96669 0.0912947 0.466682
0 0.19205 0.442313
0.0698405 0.194965 0.445212
0.199268 0.199268 0.449516
0.330022 0.204883 0.455146
0.461753 0.21149 0.461753
0.594614 0.219226 0.469474
0.727916 0.227405 0.477668
0.861006 0.23537 0.485618
0.993759 0.243503 0.493751
0 0.332113 0.457237
0.089128 0.339391 0.464515
0.222171 0.347311 0.472435
0.355261 0.355261 0.480385
0.48864 0.363516 0.48864
0.621576 0.371328 0.496452
0.753628 0.378256 0.50338
0.884581 0.38407 0.509194
1 0.388937 0.514061
0 0.48333 0.48333
0.116213 0.4916 0.4916
0.24892 0.499168 0.499168
0.380423 0.505547 0.505547
0.511025 0.511025 0.511025
0.640558 0.515435 0.515435
0.769039 0.518791 0.518791
0.897383 0.521996 0.521996
1 0.524956 0.524956
0.00767529 0.632807 0.507668
0.137407 0.637919 0.512795
0.266377 0.641764 0.51664
0.394873 0.645121 0.519997
0.523095 0.648219 0.523095
0.65095 0.65095 0.525826
0.778134 0.65301 0.527871
0.905211 0.654948 0.529824
1 0.656596 0.531472
0.0211032 0.771359 0.521096
0.14876 0.774395 0.524147
0.276188 0.776699 0.526452
0.403525 0.778912 0.528649
0.530465 0.780728 0.530465
0.656794 0.781918 0.53167
0.782879 0.782879 0.532631
0.908644 0.783505 0.533257
1 0.783856 0.533593
0.0292668 0.904646 0.529259
0.155657 0.906416 0.531029
0.281804 0.907439 0.532052
0.407813 0.908324 0.532937
0.533425 0.908812 0.533425
0.658381 0.908629 0.533242
0.783154 0.908293 0.532906
0.907088 0.907088 0.531701
1 0.904585 0.529198
0.0334325 1 0.533425
0.158495 1 0.533867
0.28333 1 0.533578
0.407935 1 0.533059
0.531258 1 0.531258
0.65304 1 0.527916
0.773938 1 0.52369
0.894133 1 0.518746
1 1 0.513344
0 0 0.609079
0.098558 0 0.599069
0.213672 0 0.589059
0.329549 0 0.579812
0.44712 0 0.572259
0.567788 0 0.567788
0.691905 0 0.566781
0.818845 0 0.568597
0.947311 0 0.572442
0 0.0765087 0.57702
0.0699474 0.0699474 0.570443
0.191852 0.0667277 0.567239
0.317266 0.0670024 0.567514
0.445106 0.0697185 0.57023
0.574487 0.0739757 0.574487
0.705272 0.0796368 0.580148
0.836927 0.0861677 0.586679
0.969375 0.0939803 0.594491
0 0.192752 0.568139
0.071107 0.196231 0.571618
0.201099 0.201099 0.576486
0.332036 0.206897 0.582284
0.464302 0.214054 0.589441
0.59733 0.221942 0.59733
0.730419 0.229908 0.605295
0.863813 0.238163 0.61355
0.996353 0.246082 0.621469
0 0.334447 0.58471
0.0917983 0.342046 0.592294
0.224979 0.350118 0.600366
0.358083 0.358083 0.608347
0.491386 0.366262 0.61651
0.624109 0.373861 0.624109
0.755611 0.38024 0.630488
0.886275 0.385763 0.636011
1 0.390295 0.640543
0 0.486137 0.611261
0.118853 0.494224 0.619364
0.251225 0.501488 0.626612
0.382483 0.507607 0.632746
0.512657 0.512657 0.637797
0.641825 0.516701 0.641825
0.770153 0.51989 0.645029
0.89839 0.523003 0.648142
1 0.525841 0.65098
0.00950637 0.634623 0.634623
0.138918 0.639429 0.639429
0.267506 0.642893 0.642893
0.395972 0.646235 0.646235
0.524056 0.64918 0.64918
0.651637 0.651637 0.651637
0.778836 0.653712 0.653712
0.905791 0.655543 0.655543
1 0.657023 0.657023
0.0221561 0.772412 0.647288
0.149645 0.77528 0.650156
0.276997 0.777508 0.652384
0.404181 0.779553 0.654429
0.530983 0.781231 0.656107
0.657145 0.782269 0.657145
0.783169 0.783169 0.65803
0.908782 0.783658 0.658534
1 0.783673 0.658549
0.0298924 0.905272 0.655024
0.155932 0.906706 0.656443
0.282124 0.907774 0.657511
0.408011 0.908522 0.658274
0.533501 0.908888 0.65864
0.658335 0.908583 0.658335
0.78294 0.90808 0.657816
0.906325 0.906325 0.656062
1 0.90312 0.652857
0.0336004 1 0.658717
0.158267 1 0.658778
0.283192 1 0.658579
0.407523 1 0.657771
0.530205 1 0.655329
0.651713 1 0.651713
0.772305 1 0.647181
0.892348 1 0.6421
1 1 0.636683
0 0 0.730755
0.0951247 0 0.72076
0.210468 0 0.710979
0.326757 0 0.702144
0.445075 0 0.695323
0.566918 0 0.692042
0.692409 0 0.692409
0.82002 0 0.694896
0.948974 0 0.699229
0 0.0740673 0.699702
0.0685435 0.0685435 0.694179
0.191531 0.0664073 0.692042
0.317906 0.0676585 0.693294
0.446372 0.070985 0.69662
0.576318 0.0758068 0.701442
0.707301 0.0816663 0.707301
0.839475 0.0887007 0.714336
0.972091 0.0967117 0.722347
0 0.193729 0.69424
0.0725414 0.197665 0.698177
0.202853 0.202853 0.703365
0.334371 0.209232 0.709743
0.466957 0.216709 0.71722
0.600137 0.22475 0.725261
0.733242 0.232731 0.733242
0.866545 0.240909 0.741421
0.998901 0.248646 0.749157
0 0.336873 0.712261
0.0944839 0.344732 0.720119
0.227481 0.352621 0.727993
0.360891 0.360891 0.736278
0.494026 0.368902 0.744274
0.62652 0.376257 0.751644
0.757702 0.38233 0.757702
0.887907 0.387396 0.762783
1 0.391577 0.766949
0 0.48893 0.739193
0.121431 0.496818 0.747066
0.253254 0.503502 0.753765
0.384329 0.509453 0.759716
0.514168 0.514168 0.764431
0.642786 0.517662 0.76791
0.771252 0.521004 0.771252
0.899351 0.523964 0.774227
1 0.526665 0.776928
0.0111696 0.636301 0.761425
0.140246 0.640757 0.765881
0.268696 0.644083 0.769207
0.39704 0.647288 0.772427
0.525002 0.650126 0.77525
0.652293 0.652293 0.777417
0.779492 0.654368 0.779492
0.90631 0.656062 0.781186
1 0.657359 0.782498
0.0231479 0.773404 0.773404
0.150469 0.776104 0.776104
0.27776 0.778271 0.778271
0.404807 0.780179 0.780179
0.531441 0.781704 0.781704
0.657481 0.782605 0.782605
0.783368 0.783368 0.783368
0.908873 0.783734 0.783734
1 0.783551 0.783551
0.0304723 0.905852 0.780713
0.156329 0.907088 0.781964
0.282445 0.90808 0.782956
0.408179 0.90869 0.783551
0.533364 0.908751 0.783627
0.658213 0.908476 0.783337
0.782559 0.907698 0.782559
0.905425 0.905425 0.780301
1 0.901793 0.776654
0.0336461 1 0.783902
0.158251 1 0.783886
0.283024 1 0.783536
0.406867 1 0.782254
0.529122 1 0.77937
0.650294 1 0.775418
0.770626 1 0.770626
0.890379 1 0.765255
1 1 0.760006
0 0 0.852461
0.0916915 0 0.842466
0.207355 0 0.83299
0.324224 0 0.824735
0.443641 0 0.819028
0.566552 0 0.8168
0.692866 0 0.81799
0.821271 0 0.821271
0.950805 0 0.826169
0 0.0717327 0.822492
0.0675364 0.0675364 0.818311
0.191806 0.0666819 0.817456
0.318868 0.0686198 0.819379
0.447791 0.0724193 0.823178
0.57821 0.0776989 0.828473
0.70956 0.0839246 0.834684
0.84213 0.0913558 0.84213
0.974899 0.0995041 0.850278
0 0.194934 0.820584
0.0742504 0.199374 0.825025
0.204868 0.204868 0.830503
0.336782 0.211643 0.837293
0.469642 0.219394 0.845029
0.602869 0.227481 0.853117
0.736049 0.235538 0.861173
0.8692 0.243549 0.8692
1 0.251057 0.876692
0 0.339437 0.839948
0.0972152 0.347478 0.84799
0.230304 0.355444 0.855955
0.363684 0.363684 0.864195
0.496605 0.371481 0.871992
0.628489 0.378225 0.878737
0.759564 0.384176 0.884688
0.889433 0.388922 0.889433
1 0.392676 0.893172
0 0.491661 0.867048
0.123781 0.499168 0.874556
0.255421 0.505684 0.881071
0.386007 0.511131 0.886519
0.515526 0.515526 0.890898
0.643977 0.518837 0.894224
0.772335 0.522072 0.897459
0.900298 0.52491 0.900298
1 0.527199 0.902586
0.0128023 0.637919 0.888182
0.141238 0.641733 0.891997
0.26981 0.645197 0.89546
0.398032 0.648295 0.898543
0.525887 0.651011 0.901274
0.653071 0.653071 0.903319
0.780118 0.654994 0.905257
0.906783 0.656535 0.906783
1 0.657542 0.90779
0.0241093 0.774365 0.899489
0.151125 0.776761 0.9019
0.278447 0.778958 0.904097
0.405386 0.780758 0.905898
0.531655 0.781918 0.907042
0.657786 0.78291 0.908049
0.783536 0.783536 0.90866
0.908888 0.783749 0.908888
1 0.783444 0.908568
0.0309758 0.906355 0.906355
0.15671 0.907469 0.907469
0.282719 0.908354 0.908354
0.408316 0.908827 0.908827
0.533257 0.908644 0.908644
0.65803 0.908293 0.908293
0.781933 0.907057 0.907057
0.904326 0.904326 0.904326
1 0.900389 0.900389
0.0336614 1 0.909041
0.158206 1 0.908965
0.282795 1 0.908431
0.406058 1 0.906569
0.527855 1 0.903227
0.648737 1 0.899001
0.768917 1 0.894041
0.888533 1 0.888533
1 1 0.883345
0 0 0.973693
0.0884108 0 0.96379
0.204211 0 0.954482
0.32192 0 0.947051
0.442649 0 0.942657
0.566857 0 0.941741
0.693828 0 0.943587
0.822721 0 0.947341
0.952712 0 0.952712
0 0.0697948 0.945174
0.066743 0.066743 0.942138
0.192187 0.0670634 0.942443
0.320104 0.0698405 0.945235
0.449516 0.0741283 0.949523
0.580316 0.0798047 0.955184
0.712001 0.0863661 0.961746
0.844846 0.0940719 0.969467
0.977768 0.102373 0.977768
0 0.196246 0.946517
0.0761273 0.201251 0.951507
0.20708 0.20708 0.957351
0.339376 0.214252 0.964508
0.472419 0.222156 0.972427
0.605509 0.230121 0.980392
0.738888 0.238376 0.988632
0.871824 0.246174 0.996445
1 0.253269 1
0 0.342138 0.967269
0.0999771 0.350225 0.975357
0.233158 0.358297 0.983429
0.366461 0.366461 0.991592
0.499184 0.37406 0.999191
0.630671 0.380407 1
0.761288 0.385901 1
0.890822 0.390311 1
1 0.39382 1
0 0.494331 0.994339
0.126131 0.501503 1
0.257527 0.507774 1
0.387686 0.51281 1
0.516701 0.516701 1
0.645136 0.520012 1
0.773373 0.52311 1
0.901228 0.525841 1
1 0.528008 1
0.0143282 0.639445 1
0.142504 0.643015 1
0.270954 0.646342 1
0.399039 0.649287 1
0.526467 0.651591 1
0.653803 0.653803 1
0.780743 0.655619 1
0.907118 0.656855 1
1 0.657893 1
0.0248875 0.775143 1
0.151965 0.7776 1
0.279133 0.779644 1
0.405936 0.781308 1
0.532082 0.782345 1
0.658106 0.78323 1
0.783703 0.783703 1
0.90866 0.783536 1
1 0.783307 1
0.03122 0.9066 1
0.157076 0.907835 1
0.282948 0.908583 1
0.408438 0.908934 1
0.533257 0.908644 1
0.657862 0.90811 1
0.781201 0.906325 1
0.902983 0.902983 1
1 0.898878 1
0.0336004 1 1
0.158114 1 1
0.282414 1 1
0.405051 1 1
0.526558 1 1
0.647135 1 1
0.767147 1 1
0.886778 1 1
1 1 1
