site/assets/luts/freshluts--0000689-correction-styleft-cn.cube
# LUTr-Schema-Version: 2
# LUTr-ID: freshluts--0000689-correction-styleft-cn
# LUTr-Title: Correction style(ft-cn)
# LUTr-Collection: Fresh LUTs
# LUTr-Collection-ID: freshluts-community
# LUTr-Source: https://freshluts.com
# LUTr-Retrieved: 2026-07-27
# LUTr-Source-File: submissions-raw/freshluts/cubes/689__1q_7.00033.cube
# LUTr-Source-Format: CUBE
# LUTr-Source-SHA256: db4cc90060a85077ef904422ceb873120da7868365e9327beee46c87e02738f0
# LUTr-License: CC0-1.0
# LUTr-License-URL: https://freshluts.com/termsandconditions
# LUTr-License-Basis: site-terms
# LUTr-Transform-Class: creative-look
# LUTr-Tags: creative, freshluts, community, cube, rec709, correction
# LUTr-Input-Color-Space: rec709
# LUTr-Input-Gamut: rec709
# LUTr-Input-Transfer: rec709
# LUTr-Output-Color-Space: srgb
# LUTr-Output-Gamut: rec709
# LUTr-Output-Transfer: srgb
# LUTr-Color-Space-Confidence: declared-by-source
# LUTr-Domain-Normalized: true
# LUTr-Shaper: none
# LUTr-Original-Grid: 33x33x33
# LUTr-Conversion-Grid: 33x33x33
# LUTr-Conversion-Interpolation: none
# LUTr-Conversion-Method: Metadata normalization; numeric LUT samples preserved
# LUTr-Conversion-Tool: LUTr scripts/convert-all-to-cube.mjs 2.0.0
# LUTr-Conversion-Date: 2026-07-28
# LUTr-Asset-URL: https://freshluts.com/luts/689
# LUTr-Author: lvannoeun@gmail.com
# LUTr-Author-URL: https://freshluts.com/users/57563
# LUTr-Attribution: lvannoeun@gmail.com via Fresh LUTs
# LUTr-Source-Labels: gamma=Rec 709; color=None; key=Neutral; style=Correction
# LUTr-Note: Preserve this metadata and the upstream license notices when redistributing.
TITLE "Correction style(ft-cn)"
LUT_3D_SIZE 33
DOMAIN_MIN 0 0 0
DOMAIN_MAX 1 1 1
0 0 0
0 0 0
0 0 0
0 0 0
0.0119478 0 0
0.0386206 0 0
0.0726177 0 0
0.118685 0 0
0.170855 0 0
0.220523 0 0
0.268956 0 0
0.316548 0 0
0.362554 0 0
0.406928 0 0
0.448722 0 0
0.48983 0 0
0.530236 0 0
0.570199 0 0
0.609064 0 0
0.646799 0 0
0.683314 0 0
0.718624 0 0
0.751949 0 0
0.78381 0 0
0.814252 0 0
0.843076 0 0
0.870604 0 0
0.897093 0 0
0.923033 0 0
0.948104 0 0
0.972717 0 0
0.995804 0 0
1 0 0
0 0 0
0 0 0
0 0 0
0.00450141 0 0
0.0367285 0 0
0.0746929 0 0
0.11667 0 0
0.157382 0 0
0.198901 0 0
0.241871 0 0
0.285557 0 0
0.329824 0 0
0.373648 0 0
0.415595 0 0
0.455726 0 0
0.495735 0 0
0.534981 0 0
0.573709 0 0
0.611887 0 0
0.649287 0 0
0.685252 0 0
0.719661 0 0
0.752895 0 0
0.784436 0 0
0.814282 0 0
0.843183 0 0
0.870527 0 0
0.896849 0 0
0.922438 0 0
0.947845 0 0
0.972457 0 0
0.995224 0 0
1 0 0
0 0 0
0 0 0
0 0 0
0.0100252 0 0
0.044892 0 0
0.0926375 0 0
0.142138 0 0
0.189212 0 0
0.234531 0 0
0.279133 0 0
0.322194 0 0
0.363653 0 0
0.403677 0 0
0.442405 0 0
0.479881 0 0
0.517174 0 0
0.554498 0 0
0.59147 0 0
0.628 0 0
0.663783 0 0
0.698955 0 0
0.732754 0 0
0.765011 0 0
0.796124 0 0
0.825528 0 0
0.853788 0 0
0.880781 0 0
0.907103 0 0
0.932387 0 0
0.957137 0 0
0.980789 0 0
1 0 0
1 0 0
0 0.0183261 0
0 0.0169528 0
0 0.0153964 0
0.00721752 0.0133059 0
0.0407721 0.0109255 0
0.08365 0.00802625 0
0.13695 0.00386053 0
0.192203 0 0
0.245182 0 0
0.296361 0 0
0.344671 0 0
0.391043 0 0
0.434409 0 0
0.47509 0 0
0.513466 0 0
0.55053 0 0
0.586709 0 0
0.622507 0 0
0.657786 0 0
0.692073 0 0
0.72546 0 0
0.757992 0 0
0.789029 0 0
0.81886 0 0
0.847288 0 0
0.874983 0 0
0.901259 0 0
0.926635 0 0
0.951339 0 0
0.975509 0 0
0.997421 0 0
1 0 0
1 0.00189212 0
0 0.0638437 0
0 0.0609598 0
0 0.0588388 0
0.00190738 0.0560769 0
0.0348211 0.0526284 0
0.0750591 0.0490578 0
0.126558 0.0451057 0
0.179416 0.0404059 0
0.237888 0.0336461 0
0.295583 0.0274662 0
0.350072 0.021973 0
0.402075 0.0173648 0
0.450217 0.014374 0
0.494667 0.0119631 0
0.53637 0.0101167 0
0.577005 0.00856031 0
0.616449 0.00706493 0
0.654185 0.00584421 0
0.690608 0.0049897 0
0.725795 0.00477607 0
0.759441 0.00474556 0
0.791455 0.005066 0
0.822156 0.00579843 0
0.851713 0.00727855 0
0.879499 0.00894179 0
0.906264 0.0109102 0
0.931884 0.0131991 0
0.956741 0.0158694 0
0.980117 0.0189212 0
1 0.0219272 0
1 0.0250553 0
1 0.0281224 0
1 0.0312352 0
0 0.105882 0
0 0.102174 0
0 0.0991073 0
0 0.0962234 0
0.0275883 0.0928969 0
0.0654765 0.0889143 0
0.11574 0.0845045 0
0.168948 0.0797131 0
0.223697 0.0741436 0
0.281178 0.0676127 0
0.342962 0.0596933 0
0.399908 0.0529488 0
0.452583 0.047425 0
0.502342 0.0432746 0
0.54873 0.0403601 0
0.592737 0.0381476 0
0.63473 0.0364691 0
0.675624 0.0353857 0
0.714946 0.0341802 0
0.75288 0.0332647 0
0.788891 0.0328222 0
0.822919 0.0330358 0
0.855085 0.033875 0
0.885359 0.0349279 0
0.913893 0.0364691 0
0.941085 0.0384527 0
0.967132 0.041062 0
0.989914 0.0438239 0
1 0.0467384 0
1 0.0498665 0
1 0.0531014 0
1 0.0563363 0
1 0.0599374 0
0 0.145937 0
0 0.142123 0
0 0.138964 0
0 0.135805 0
0.0188144 0.132387 0
0.0539864 0.128588 0
0.102678 0.124071 0
0.155871 0.118975 0
0.211246 0.113603 0
0.267979 0.107424 0
0.325093 0.100969 0
0.385977 0.0931868 0
0.444892 0.0855879 0
0.498466 0.0796674 0
0.548608 0.0749828 0
0.59704 0.0713664 0
0.643351 0.0683452 0
0.687816 0.0661021 0
0.730159 0.0645457 0
0.770413 0.0637369 0
0.808499 0.0633249 0
0.844587 0.0633097 0
0.878767 0.0637522 0
0.911177 0.0646372 0
0.94197 0.0661326 0
0.971008 0.0679484 0
0.995209 0.070161 0
1 0.0727855 0
1 0.075639 0
1 0.0786908 0
1 0.0818494 0
1 0.0852369 0
1 0.0884108 0
0 0.185962 0
0 0.18175 0
0 0.178424 0
0 0.175479 0
0.00903334 0.172213 0
0.0411383 0.168399 0
0.087602 0.164248 0
0.140948 0.159182 0
0.196368 0.153552 0
0.253712 0.147509 0
0.311604 0.14139 0
0.369253 0.134874 0
0.425711 0.128328 0
0.484443 0.120684 0
0.539513 0.114397 0
0.591043 0.109209 0
0.64065 0.104784 0
0.688441 0.101122 0
0.734707 0.0984665 0
0.778363 0.096437 0
0.819821 0.095201 0
0.858518 0.0947433 0
0.894652 0.0949569 0
0.928847 0.0959182 0
0.960815 0.0974594 0
0.988724 0.0992142 0
1 0.101305 0
1 0.103746 0
1 0.106462 0
1 0.109285 0
1 0.112428 0
1 0.115267 0
1 0.11809 0
0 0.226169 0
0 0.222034 0
0 0.21854 0
0 0.215457 0
0 0.212711 0
0.0301213 0.209171 0
0.070985 0.20499 0
0.124285 0.200397 0
0.179965 0.194934 0
0.237598 0.188861 0
0.29575 0.182528 0
0.353918 0.17612 0
0.410544 0.170245 0
0.464729 0.164477 0
0.518685 0.158541 0
0.575189 0.151568 0
0.629328 0.145541 0
0.6804 0.140963 0
0.729198 0.136904 0
0.775769 0.133639 0
0.819883 0.131258 0
0.861524 0.129717 0
0.900755 0.129335 0
0.937453 0.129351 0
0.971695 0.130068 0
0.999557 0.131411 0
1 0.133288 0
1 0.135546 0
1 0.138018 0
1 0.140871 0
1 0.143801 0
1 0.146502 0
1 0.149187 0
0 0.266911 0
0 0.262699 0
0 0.259678 0
0 0.256733 0
0 0.253819 0
0.0181888 0.25069 0
0.0545052 0.246906 0
0.105882 0.242313 0
0.161532 0.237018 0
0.219409 0.231067 0
0.278325 0.225116 0
0.336996 0.218723 0
0.393957 0.212619 0
0.448631 0.206943 0
0.501198 0.201755 0
0.55346 0.197055 0
0.606836 0.19147 0
0.662104 0.185046 0
0.715373 0.179309 0
0.764767 0.174929 0
0.811231 0.171511 0
0.855192 0.1691 0
0.896559 0.167559 0
0.935256 0.166629 0
0.97142 0.16643 0
1 0.166812 0
1 0.16791 0
1 0.169467 0
1 0.17145 0
1 0.173648 0
1 0.175921 0
1 0.178225 0
1 0.18056 0
0 0.308553 0
0 0.304417 0
0 0.301122 0
0 0.298299 0
0 0.295872 0
0.00607309 0.292927 0
0.0389563 0.289189 0
0.0870069 0.28481 0
0.142657 0.279881 0
0.200687 0.274281 0
0.259724 0.268162 0
0.318822 0.261845 0
0.376394 0.255756 0
0.43151 0.250111 0
0.484627 0.245289 0
0.536889 0.240391 0
0.588357 0.235645 0
0.639216 0.231022 0
0.691127 0.225925 0
0.743908 0.220279 0
0.794842 0.21532 0
0.841566 0.211612 0
0.884688 0.209003 0
0.92517 0.207218 0
0.962921 0.206195 0
0.994476 0.205753 0
1 0.205951 0
1 0.206683 0
1 0.207919 0
1 0.209369 0
1 0.210819 0
1 0.212314 0
1 0.213901 0
0 0.350393 0
0 0.346395 0
0 0.343511 0
0 0.34078 0
0 0.338125 0
0 0.335409 0
0.0264591 0.33193 0
0.0687724 0.328084 0
0.123583 0.323232 0
0.181353 0.317662 0
0.240513 0.311727 0
0.300008 0.30547 0
0.358114 0.299611 0
0.413962 0.294102 0
0.467063 0.288975 0
0.519432 0.284031 0
0.571084 0.27924 0
0.621973 0.274617 0
0.671901 0.270237 0
0.720516 0.266148 0
0.769146 0.262119 0
0.817487 0.257771 0
0.864149 0.253605 0
0.907713 0.25037 0
0.947524 0.248325 0
0.982803 0.24712 0
1 0.246586 0
1 0.246769 0
1 0.247181 0
1 0.247745 0
1 0.248539 0
1 0.249271 0
1 0.25005 0
0 0.392554 0
0 0.388647 0
0 0.385611 0
0 0.383017 0
0 0.380484 0
0 0.378027 0
0.0149081 0.374899 0
0.0516976 0.370947 0
0.105699 0.366323 0
0.163149 0.360952 0
0.22211 0.355123 0
0.281788 0.348974 0
0.34023 0.343175 0
0.39649 0.337575 0
0.449729 0.332387 0
0.502266 0.327291 0
0.554025 0.322408 0
0.604959 0.317678 0
0.654994 0.313161 0
0.7037 0.309194 0
0.750561 0.305562 0
0.795377 0.302342 0
0.839002 0.29929 0
0.88191 0.296162 0
0.923537 0.293233 0
0.963409 0.290669 0
0.995605 0.288975 0
1 0.288197 0
1 0.287724 0
1 0.287617 0
1 0.287724 0
1 0.287831 0
1 0.288197 0
0 0.434455 0
0 0.430625 0
0 0.427634 0
0 0.425132 0
0 0.422812 0
0 0.420508 0
0.00410468 0.417426 0
0.0381933 0.413504 0
0.089128 0.408972 0
0.146242 0.403738 0
0.204898 0.397971 0
0.264744 0.39205 0
0.323064 0.386114 0
0.379583 0.380362 0
0.433036 0.375082 0
0.485618 0.369909 0
0.537392 0.364828 0
0.588342 0.35996 0
0.638376 0.355306 0
0.687175 0.351263 0
0.733959 0.347341 0
0.778637 0.343954 0
0.821149 0.3411 0
0.861646 0.338766 0
0.900236 0.336782 0
0.938125 0.335088 0
0.974823 0.333333 0
1 0.33164 0
1 0.330175 0
1 0.328954 0
1 0.327993 0
1 0.327413 0
1 0.326833 0
0 0.475975 0
0 0.472267 0
0 0.469352 0
0 0.467033 0
0 0.464714 0
0 0.462211 0
0 0.459236 0
0.0283665 0.45536 0
0.0742657 0.450797 0
0.130968 0.445579 0
0.189273 0.439887 0
0.24892 0.434058 0
0.307164 0.42797 0
0.363729 0.422141 0
0.417334 0.416754 0
0.469932 0.411444 0
0.521721 0.406226 0
0.572656 0.401205 0
0.622858 0.396567 0
0.671321 0.392065 0
0.718105 0.38793 0
0.762692 0.384314 0
0.805112 0.381201 0
0.845487 0.378637 0
0.88365 0.376761 0
0.919982 0.37528 0
0.954345 0.37406 0
0.98497 0.372992 0
1 0.371984 0
1 0.370993 0
1 0.370047 0
1 0.368658 0
1 0.367224 0
0 0.51751 0
0 0.513802 0
0 0.510887 0
0 0.508614 0
0 0.506172 0
0 0.503609 0
0 0.500572 0
0.0186923 0.496757 0
0.059678 0.492164 0
0.116045 0.486931 0
0.174121 0.481453 0
0.233158 0.475319 0
0.291234 0.46923 0
0.347707 0.463264 0
0.40148 0.45771 0
0.454002 0.452232 0
0.50576 0.446845 0
0.556832 0.441855 0
0.606744 0.43679 0
0.655116 0.432029 0
0.701778 0.42768 0
0.746288 0.423835 0
0.788663 0.420615 0
0.829007 0.417899 0
0.866911 0.41561 0
0.902998 0.413809 0
0.937285 0.412497 0
0.970047 0.411566 0
0.99585 0.411154 0
1 0.410758 0
1 0.4103 0
1 0.409567 0
1 0.408591 0
0 0.558816 0
0 0.555047 0
0 0.5523 0
0 0.549691 0
0 0.547189 0
0 0.544533 0
0 0.541375 0
0.00914015 0.537545 0
0.0452735 0.532845 0
0.101549 0.527794 0
0.158968 0.521981 0
0.217517 0.515785 0
0.275364 0.50956 0
0.331685 0.503532 0
0.385534 0.497856 0
0.43798 0.492226 0
0.489754 0.486854 0
0.54052 0.481407 0
0.590295 0.476051 0
0.638544 0.471092 0
0.685023 0.466468 0
0.729595 0.462486 0
0.771893 0.459098 0
0.812131 0.456153 0
0.849989 0.453773 0
0.886137 0.451865 0
0.920455 0.450553 0
0.953445 0.449744 0
0.98291 0.448997 0
1 0.448524 0
1 0.448157 0
1 0.447715 0
1 0.447532 0
0 0.599634 0
0 0.596033 0
0 0.592905 0
0 0.590143 0
0 0.587549 0
0 0.584756 0
0 0.581476 0
0 0.5776 0
0.0354009 0.572869 0
0.0869459 0.567559 0
0.143923 0.561654 0
0.202045 0.555337 0
0.259525 0.54902 0
0.315541 0.542809 0
0.369467 0.536995 0
0.421988 0.531395 0
0.47335 0.525597 0
0.523919 0.519875 0
0.573556 0.514366 0
0.621759 0.509239 0
0.668513 0.504753 0
0.712917 0.500603 0
0.755169 0.496986 0
0.795422 0.49395 0
0.833341 0.491539 0
0.869703 0.489784 0
0.903944 0.488319 0
0.93669 0.487205 0
0.968368 0.486397 0
0.993423 0.485801 0
1 0.485557 0
1 0.485008 0
1 0.484474 0
0 0.639841 0
0 0.636027 0
0 0.632776 0
0 0.629908 0
0 0.62707 0
0 0.624125 0
0 0.620706 0
0 0.616922 0
0.0255589 0.611963 0
0.0724041 0.606302 0
0.129015 0.600275 0
0.186664 0.593805 0
0.243824 0.587366 0
0.299779 0.581262 0
0.353368 0.575235 0
0.405768 0.569268 0
0.457008 0.563348 0
0.507546 0.557595 0
0.557336 0.552209 0
0.605585 0.547066 0
0.65214 0.542306 0
0.696559 0.538064 0
0.738811 0.534417 0
0.779141 0.53135 0
0.817182 0.528984 0
0.853346 0.52694 0
0.887572 0.525353 0
0.920317 0.524147 0
0.952041 0.523354 0
0.981308 0.522759 0
1 0.522133 0
1 0.521492 0
1 0.520806 0
0 0.67924 0
0 0.675013 0
0 0.671611 0
0 0.668559 0
0 0.665553 0
0 0.662394 0
0 0.65893 0
0 0.654795 0
0.016144 0.649729 0
0.0584268 0.643854 0
0.114656 0.637568 0
0.171847 0.630976 0
0.228916 0.624689 0
0.284443 0.618311 0
0.337911 0.612299 0
0.390448 0.606302 0
0.441642 0.600397 0
0.492348 0.594873 0
0.541924 0.589258 0
0.590082 0.583947 0
0.636591 0.579126 0
0.681041 0.574792 0
0.723461 0.571267 0
0.763745 0.568093 0
0.801648 0.565454 0
0.83772 0.563287 0
0.871946 0.561578 0
0.904845 0.560525 0
0.936431 0.559533 0
0.967193 0.558648 0
0.991806 0.557885 0
1 0.557122 0
1 0.556573 0
0 0.717281 0
0 0.712871 0
0 0.709224 0
0 0.705959 0
0 0.70277 0
0 0.699641 0
0 0.69575 0
0 0.69131 0
0.00737011 0.686122 0
0.0453956 0.68011 0
0.101503 0.674037 0
0.158465 0.667445 0
0.215015 0.660899 0
0.27042 0.654536 0
0.323812 0.648524 0
0.376654 0.642771 0
0.427726 0.63682 0
0.47808 0.631006 0
0.527611 0.62536 0
0.575692 0.62002 0
0.62237 0.61529 0
0.666789 0.61091 0
0.708965 0.60705 0
0.749142 0.603738 0
0.787015 0.600992 0
0.823331 0.598962 0
0.85745 0.597162 0
0.890074 0.595728 0
0.921584 0.594568 0
0.952255 0.593622 0
0.98117 0.592966 0
1 0.591959 0
1 0.591058 0
0 0.753872 0
0 0.749294 0
0 0.745418 0
0 0.742 0
0 0.738705 0
0 0.735164 0
0 0.731167 0
0 0.72665 0
0 0.721538 0
0.0371405 0.715663 0
0.0896773 0.709316 0
0.146532 0.702708 0
0.202792 0.696162 0
0.25803 0.689784 0
0.311482 0.684001 0
0.364019 0.677989 0
0.415122 0.672023 0
0.46537 0.666133 0
0.514717 0.660395 0
0.562982 0.655238 0
0.609339 0.650233 0
0.653651 0.645731 0
0.695796 0.641749 0
0.735973 0.638376 0
0.773907 0.635706 0
0.809918 0.633295 0
0.843961 0.631373 0
0.876539 0.629801 0
0.908186 0.628748 0
0.938796 0.627649 0
0.968841 0.626612 0
0.992782 0.625467 0
1 0.624613 0
0 0.789014 0
0 0.784161 0
0 0.780301 0
0 0.776776 0
0 0.773251 0
0 0.769665 0
0 0.765637 0
0 0.761151 0
0 0.75613 0
0.0297246 0.750042 0
0.0795605 0.743648 0
0.136172 0.736965 0
0.192309 0.730434 0
0.247562 0.724208 0
0.300603 0.718166 0
0.352956 0.712108 0
0.404044 0.706065 0
0.454246 0.700252 0
0.503624 0.69456 0
0.551446 0.689067 0
0.597742 0.683955 0
0.641932 0.679332 0
0.68423 0.675532 0
0.724269 0.671931 0
0.761959 0.668986 0
0.797864 0.666407 0
0.832029 0.664591 0
0.86453 0.662913 0
0.895872 0.661479 0
0.92636 0.660212 0
0.956527 0.659281 0
0.984024 0.658 0
1 0.656672 0
0 0.823072 0
0 0.818296 0
0 0.814191 0
0 0.810529 0
0 0.806973 0
0 0.803403 0
0 0.799435 0
0 0.794797 0
0 0.789548 0
0.0231632 0.783475 0
0.0709392 0.777005 0
0.127596 0.770443 0
0.183444 0.763836 0
0.238285 0.757366 0
0.291127 0.751293 0
0.343481 0.745296 0
0.394644 0.739315 0
0.444511 0.733303 0
0.493614 0.727413 0
0.541314 0.721813 0
0.58764 0.716838 0
0.631708 0.712108 0
0.673686 0.707881 0
0.713619 0.704204 0
0.751308 0.701198 0
0.787259 0.698665 0
0.821057 0.696437 0
0.853437 0.694606 0
0.884901 0.693217 0
0.915282 0.691814 0
0.945159 0.690486 0
0.975021 0.689021 0
0.99675 0.687816 0
0 0.856168 0
0 0.851209 0
0 0.847044 0
0 0.84329 0
0 0.83978 0
0 0.836179 0
0 0.831952 0
0 0.827222 0
0 0.821866 0
0.0184176 0.81593 0
0.0641031 0.80943 0
0.120409 0.802594 0
0.176059 0.795865 0
0.230671 0.789319 0
0.283589 0.783398 0
0.335622 0.777234 0
0.386633 0.771054 0
0.43624 0.764996 0
0.485359 0.759182 0
0.532937 0.753521 0
0.578836 0.74818 0
0.622812 0.743328 0
0.664866 0.739269 0
0.704646 0.735409 0
0.742107 0.732158 0
0.777798 0.729305 0
0.811734 0.727138 0
0.844022 0.7252 0
0.875135 0.723445 0
0.905333 0.721843 0
0.935317 0.720562 0
0.964935 0.718959 0
0.989441 0.717311 0
0 0.888258 0
0 0.883238 0
0 0.878996 0
0 0.875425 0
0 0.871672 0
0 0.867857 0
0 0.863539 0
0 0.858732 0
0 0.853529 0
0.0145724 0.847349 0
0.0582895 0.840635 0
0.114427 0.833707 0
0.169955 0.827039 0
0.224506 0.820523 0
0.276982 0.814252 0
0.328786 0.80798 0
0.379812 0.801831 0
0.429328 0.795773 0
0.478004 0.789685 0
0.525383 0.783886 0
0.571298 0.778561 0
0.615152 0.773678 0
0.656809 0.769207 0
0.696483 0.765225 0
0.734035 0.762051 0
0.769604 0.75906 0
0.803174 0.756527 0
0.835294 0.754391 0
0.866484 0.752682 0
0.896559 0.750927 0
0.926162 0.749264 0
0.955917 0.747646 0
0.982879 0.745846 0
0 0.919509 0
0 0.91458 0
0 0.910277 0
0 0.90631 0
0 0.902495 0
0 0.898558 0
0 0.894362 0
0 0.889448 0
0 0.883879 0
0.0114748 0.877623 0
0.0539712 0.871015 0
0.109911 0.864027 0
0.165103 0.857069 0
0.219287 0.85037 0
0.27158 0.843992 0
0.323384 0.837858 0
0.374166 0.831495 0
0.423377 0.825223 0
0.471901 0.819104 0
0.519158 0.813291 0
0.564752 0.807706 0
0.608347 0.802579 0
0.650095 0.798215 0
0.68957 0.794064 0
0.726757 0.790478 0
0.762234 0.787411 0
0.795834 0.784894 0
0.827817 0.782528 0
0.858701 0.780529 0
0.888747 0.778714 0
0.918166 0.776822 0
0.947768 0.774853 0
0.976532 0.773037 0
0 0.950118 0
0 0.944884 0
0 0.940414 0
0 0.93637 0
0 0.932586 0
0 0.928588 0
0 0.924071 0
0 0.91902 0
0 0.91342 0
