site/assets/luts/freshluts--0000399-african-cinema-luts.cube
# LUTr-Schema-Version: 2
# LUTr-ID: freshluts--0000399-african-cinema-luts
# LUTr-Title: African Cinema Luts
# LUTr-Collection: Fresh LUTs
# LUTr-Collection-ID: freshluts-community
# LUTr-Source: https://freshluts.com
# LUTr-Retrieved: 2026-07-27
# LUTr-Source-File: submissions-raw/freshluts/cubes/399__African_Cinema_Luts.cube
# LUTr-Source-Format: CUBE
# LUTr-Source-SHA256: e1f1a3012d7464a1421e0c0101c4643b8dcdf18c001cba61cea1d51ce3e2b41e
# LUTr-License: CC0-1.0
# LUTr-License-URL: https://freshluts.com/termsandconditions
# LUTr-License-Basis: site-terms
# LUTr-Transform-Class: creative-look
# LUTr-Tags: creative, freshluts, community, cube, cinematic, blockbuster, warm, high-key, bmd-film-4k
# LUTr-Input-Color-Space: bmd-film-4k
# LUTr-Input-Gamut: bmd-film-gamut
# LUTr-Input-Transfer: bmd-film-4k
# LUTr-Output-Color-Space: srgb
# LUTr-Output-Gamut: rec709
# LUTr-Output-Transfer: srgb
# LUTr-Color-Space-Confidence: inferred-from-source-label
# LUTr-Domain-Normalized: true
# LUTr-Shaper: none
# LUTr-Original-Grid: 33x33x33
# LUTr-Conversion-Grid: 33x33x33
# LUTr-Conversion-Interpolation: none
# LUTr-Conversion-Method: Metadata normalization; numeric LUT samples preserved
# LUTr-Conversion-Tool: LUTr scripts/convert-all-to-cube.mjs 2.0.0
# LUTr-Conversion-Date: 2026-07-28
# LUTr-Asset-URL: https://freshluts.com/luts/399
# LUTr-Author: digdio
# LUTr-Author-URL: https://freshluts.com/users/20080
# LUTr-Attribution: digdio via Fresh LUTs
# LUTr-Source-Labels: gamma=Blackmagic BMD Film 4K; color=Warm; key=High Key; style=Blockbuster
# LUTr-Note: Preserve this metadata and the upstream license notices when redistributing.
# LUTr-Upstream-Comment: Created with CameraBag | Cinema, www.nevercenter.com
TITLE "African Cinema Luts"
LUT_3D_SIZE 33
DOMAIN_MIN 0 0 0
DOMAIN_MAX 1 1 1
0 0.000015 0.002693
0.057926 0.000022 0.003853
0.111396 0.000024 0.003863
0.171216 0.00003 0.003822
0.245821 0.000045 0.00368
0.335441 0.000133 0.003386
0.416298 0.00023 0.002888
0.477504 0.000274 0.002274
0.522914 0.000309 0.001679
0.557902 0.000346 0.001135
0.586068 0.000386 0.000638
0.609424 0.000426 0.000182
0.629208 0.000464 0.000023
0.646235 0.0005 0.00002
0.661179 0.000531 0.000014
0.675347 0.000566 0.000013
0.689028 0.000603 0.000013
0.702237 0.000641 0.000012
0.714981 0.00068 0.000012
0.727261 0.000719 0.000012
0.73907 0.000759 0.000012
0.750388 0.000799 0.000012
0.761184 0.000838 0.000012
0.771439 0.000877 0.000012
0.781275 0.000915 0.000011
0.790896 0.000953 0.000009
0.800563 0.000993 0.000007
0.810663 0.001034 0.000004
0.821837 0.001082 0
0.835316 0.001146 0
0.854044 0.001241 0
0.887939 0.001428 0
1 0.00284 0.000582
0.000014 0.052534 0.003883
0.040665 0.044587 0.003871
0.100076 0.029551 0.003837
0.162062 0.009319 0.003786
0.238704 0.000043 0.003679
0.330795 0.000077 0.003355
0.412654 0.000227 0.002918
0.474307 0.000276 0.002316
0.519979 0.00031 0.001725
0.55514 0.000347 0.001185
0.58343 0.000386 0.000691
0.60688 0.000425 0.000237
0.626737 0.000463 0.000027
0.643824 0.000499 0.000025
0.658818 0.000529 0.000018
0.673031 0.000564 0.000017
0.686753 0.000601 0.000017
0.7 0.000639 0.000017
0.71278 0.000677 0.000016
0.725093 0.000716 0.000016
0.736931 0.000756 0.000016
0.748278 0.000795 0.000016
0.7591 0.000834 0.000016
0.769378 0.000873 0.000016
0.779237 0.000911 0.000015
0.788879 0.000949 0.000013
0.798566 0.000988 0.000011
0.808687 0.001029 0.000008
0.819889 0.001074 0.000002
0.833398 0.001137 0
0.852161 0.001231 0
0.886096 0.001417 0
1 0.00285 0.000592
0.000086 0.097308 0.003797
0.014272 0.09245 0.003779
0.078873 0.082655 0.003737
0.146398 0.066899 0.003607
0.226687 0.043394 0.003442
0.319403 0.012358 0.003268
0.402893 0.000124 0.002882
0.466227 0.000182 0.002311
0.512819 0.000238 0.001757
0.548553 0.00032 0.001273
0.577135 0.000379 0.000808
0.600802 0.000418 0.000363
0.620829 0.000455 0.000032
0.638054 0.000491 0.000029
0.653163 0.00052 0.000023
0.667481 0.000555 0.000022
0.6813 0.000591 0.000021
0.694636 0.000628 0.000021
0.707498 0.000666 0.000021
0.719888 0.000704 0.000021
0.731798 0.000743 0.000021
0.74321 0.000782 0.000021
0.754093 0.000821 0.000021
0.764427 0.000858 0.00002
0.774337 0.000896 0.000019
0.784028 0.000933 0.000018
0.793765 0.000972 0.000016
0.803935 0.001013 0.000013
0.815189 0.001057 0.000006
0.828772 0.001114 0
0.847618 0.001208 0
0.881647 0.001393 0
1 0.002873 0.000615
0.000299 0.14728 0.003538
0.00028 0.143802 0.003552
0.050263 0.13693 0.00341
0.121662 0.125008 0.00315
0.206559 0.105758 0.00281
0.304439 0.078613 0.0024
0.389972 0.051762 0.002027
0.453318 0.030556 0.001742
0.499745 0.014518 0.001528
0.535065 0.002034 0.001361
0.564334 0.000318 0.000955
0.58856 0.00036 0.00053
0.609015 0.0004 0.000135
0.626598 0.000437 0
0.642008 0.000472 0
0.656613 0.000507 0
0.670706 0.000543 0
0.684302 0.000579 0
0.69741 0.000616 0
0.710032 0.000654 0
0.722162 0.000692 0
0.733782 0.00073 0
0.74486 0.000768 0
0.755375 0.000805 0
0.765455 0.000843 0
0.77531 0.000881 0
0.785199 0.000923 0.000003
0.795459 0.000987 0.000024
0.806804 0.001032 0.000019
0.820514 0.00108 0.000004
0.839512 0.001167 0
0.873697 0.001349 0
1 0.002915 0.000657
0.000888 0.209745 0.002822
0.000859 0.207461 0.002857
0.012183 0.201814 0.00284
0.086761 0.193295 0.002319
0.175985 0.178084 0.001589
0.278744 0.155414 0.000678
0.368395 0.131991 0.000012
0.434751 0.112957 0
0.483282 0.098311 0
0.520314 0.086783 0
0.549782 0.077358 0
0.574043 0.069468 0
0.594493 0.062742 0
0.612022 0.056926 0
0.627351 0.051802 0
0.641841 0.04693 0
0.655793 0.042214 0
0.669223 0.037651 0
0.682145 0.03324 0
0.694563 0.028983 0
0.706473 0.024884 0
0.717859 0.020952 0
0.728693 0.017197 0
0.738959 0.013628 0
0.748783 0.010203 0
0.75837 0.006851 0
0.767963 0.003483 0
0.778058 0.000898 0
0.78968 0.000946 0
0.803637 0.001006 0
0.823018 0.001095 0
0.857843 0.001271 0
1 0.002933 0.000675
0.002421 0.284993 0.001116
0.002382 0.283353 0.001174
0.002203 0.279183 0.001222
0.042404 0.272284 0.000774
0.135589 0.260582 0.000067
0.243409 0.242176 0.00017
0.337561 0.222433 0.000195
0.407175 0.205951 0.000175
0.458021 0.193048 0.000157
0.496769 0.182783 0.000148
0.527704 0.174341 0.000143
0.553191 0.167233 0.000141
0.574665 0.161144 0.00014
0.593063 0.155855 0.00014
0.609149 0.151179 0.000138
0.624346 0.14672 0.000138
0.638971 0.142393 0.000139
0.653046 0.138195 0.00014
0.666583 0.134126 0.000141
0.679588 0.130191 0.000141
0.692057 0.126394 0.000142
0.703975 0.122743 0.000143
0.715312 0.119252 0.000143
0.726051 0.115927 0.000144
0.736327 0.112731 0.000144
0.746353 0.109599 0.000144
0.756402 0.106445 0.000143
0.766874 0.103135 0.000131
0.778429 0.099439 0.00009
0.792357 0.094956 0.000034
0.811613 0.088715 0
0.846851 0.077279 0
0.999113 0.002257 0
0.004961 0.352843 0.000155
0.004904 0.351514 0.000162
0.004752 0.348303 0.000157
0.004334 0.341935 0
0.097721 0.332689 0.000082
0.209637 0.317235 0.000226
0.307698 0.300257 0.000267
0.380209 0.285818 0.00025
0.433123 0.274372 0.000233
0.473402 0.265186 0.000226
0.505528 0.257585 0.000223
0.531971 0.251154 0.000224
0.55423 0.245622 0.000225
0.573288 0.240803 0.000226
0.589939 0.23653 0.000225
0.605659 0.232447 0.000227
0.620779 0.228475 0.00023
0.635321 0.224613 0.000233
0.649299 0.220865 0.000235
0.662721 0.217232 0.000238
0.675581 0.21372 0.00024
0.687866 0.210339 0.000243
0.699546 0.207099 0.000245
0.710606 0.204011 0.000246
0.721182 0.201038 0.000248
0.731496 0.198121 0.000249
0.74183 0.195181 0.00025
0.752596 0.1921 0.00025
0.764475 0.188678 0.00025
0.778784 0.184525 0.000245
0.798652 0.178694 0.000225
0.834977 0.168372 0.000736
0.998617 0.044533 0
0.007945 0.404169 0.000134
0.007867 0.403003 0.00014
0.007677 0.400188 0.000146
0.007185 0.394868 0
0.068942 0.386197 0
0.183753 0.372684 0.000196
0.284461 0.357453 0.000239
0.35892 0.344346 0.000216
0.413208 0.333869 0.000194
0.454494 0.325413 0.000183
0.48739 0.318386 0.000178
0.514443 0.312419 0.000177
0.537197 0.307273 0.000177
0.556664 0.302779 0.000177
0.573661 0.298786 0.000175
0.589699 0.294964 0.000176
0.605115 0.291241 0.000179
0.619932 0.287615 0.000181
0.634167 0.28409 0.000183
0.647827 0.28067 0.000185
0.660908 0.277359 0.000187
0.673398 0.274167 0.000189
0.685267 0.271106 0.000191
0.696499 0.268184 0.000193
0.707235 0.265369 0.000194
0.717701 0.262604 0.000195
0.728183 0.259815 0.000195
0.739097 0.256889 0.000195
0.751133 0.253636 0.000194
0.765624 0.249683 0.000188
0.785727 0.244125 0.000164
0.822438 0.234218 0.000632
0.999834 0.115127 0
0.011007 0.44225 0.000096
0.010914 0.441181 0.000101
0.010687 0.438595 0.000107
0.010169 0.433796 0
0.047858 0.425456 0
0.16454 0.413253 0.000161
0.266962 0.399146 0.000203
0.342636 0.386907 0.000175
0.397749 0.377069 0.000148
0.439615 0.369095 0.000133
0.472941 0.362447 0.000125
0.500323 0.356789 0.000122
0.523336 0.351899 0.00012
0.543011 0.347622 0.000119
0.560179 0.343817 0.000116
0.576369 0.34017 0.000117
0.591923 0.336612 0.000119
0.606866 0.333145 0.000121
0.621214 0.32977 0.000123
0.634975 0.326492 0.000125
0.648148 0.323316 0.000127
0.66072 0.320251 0.000129
0.672662 0.31731 0.000131
0.683959 0.3145 0.000133
0.694754 0.311791 0.000134
0.705273 0.309129 0.000135
0.715805 0.306441 0.000136
0.726769 0.30362 0.000137
0.738857 0.300481 0.000136
0.753407 0.296664 0.00013
0.773587 0.291293 0.000105
0.810415 0.281634 0.00049
0.999876 0.166075 0.000014
0.013876 0.471588 0.000068
0.013774 0.470583 0.000073
0.013524 0.46815 0.000079
0.012994 0.463716 0
0.031785 0.455514 0
0.149755 0.44423 0.000138
0.253312 0.430897 0.000181
0.32974 0.419259 0.00015
0.385333 0.409862 0.000118
0.427518 0.402222 0.0001
0.461066 0.395838 0.000092
0.488609 0.390395 0.000088
0.511742 0.385683 0.000086
0.531508 0.381557 0.000086
0.548747 0.377882 0.000083
0.564997 0.374357 0.000084
0.580603 0.370916 0.000086
0.595591 0.367559 0.000089
0.60998 0.36429 0.000092
0.623778 0.361112 0.000095
0.636985 0.358032 0.000098
0.649588 0.355059 0.000101
0.66156 0.352204 0.000105
0.672886 0.349475 0.000108
0.683708 0.346843 0.00011
0.694255 0.344256 0.000113
0.704815 0.341643 0.000115
0.715807 0.3389 0.000117
0.727928 0.335847 0.000117
0.742516 0.332132 0.000113
0.76275 0.326901 0.00009
0.799667 0.317426 0.0004
0.999904 0.204521 0.000054
0.016483 0.495196 0.000052
0.016376 0.494237 0.000057
0.016113 0.491915 0.000062
0.015626 0.487719 0.000052
0.018956 0.479559 0
0.137856 0.469003 0.000123
0.242184 0.456238 0.000171
0.319082 0.445039 0.000136
0.374949 0.435965 0.000103
0.417299 0.42857 0.000085
0.450951 0.42238 0.000076
0.47856 0.417094 0.000073
0.501738 0.412514 0.000073
0.521538 0.4085 0.000073
0.538805 0.404922 0.000071
0.555082 0.401489 0.000074
0.570715 0.398137 0.000078
0.585729 0.394865 0.000082
0.600144 0.391677 0.000087
0.613969 0.388577 0.000092
0.627202 0.385572 0.000097
0.63983 0.38267 0.000102
0.651827 0.379882 0.000107
0.663176 0.377218 0.000112
0.674022 0.374647 0.000116
0.684591 0.372119 0.00012
0.695174 0.369565 0.000124
0.706191 0.366883 0.000128
0.718339 0.363897 0.00013
0.732961 0.360263 0.000129
0.753241 0.355143 0.000108
0.790235 0.345812 0.000353
0.999892 0.235006 0.000137
0.018816 0.514761 0.000042
0.018706 0.513837 0.000047
0.018437 0.511599 0.000052
0.01796 0.507564 0.000066
0.017009 0.49967 0
0.127939 0.48942 0.000072
0.232834 0.477109 0.000165
0.310021 0.466244 0.000129
0.366032 0.457417 0.000095
0.408455 0.450209 0.000078
0.442143 0.444167 0.000071
0.469778 0.439003 0.00007
0.49298 0.434526 0.000071
0.512802 0.430601 0.000073
0.530091 0.427101 0.000073
0.54639 0.423742 0.000078
0.562044 0.42046 0.000084
0.577081 0.417257 0.00009
0.591518 0.414135 0.000097
0.605365 0.411098 0.000104
0.61862 0.408153 0.000111
0.63127 0.405309 0.000118
0.643288 0.402576 0.000125
0.654658 0.399963 0.000132
0.665523 0.397441 0.000138
0.676113 0.394961 0.000144
0.686716 0.392455 0.00015
0.697755 0.389823 0.000156
0.709927 0.386892 0.000161
0.724578 0.383323 0.000162
0.744892 0.378296 0.000156
0.781962 0.369081 0.000331
0.999818 0.260003 0.000274
0.020887 0.531317 0.000035
0.020776 0.530421 0.00004
0.020505 0.52825 0.000045
0.020024 0.524335 0.00006
0.019066 0.516727 0
0.1195 0.50663 0.000009
0.224809 0.494687 0.000163
0.302163 0.484085 0.000126
0.358239 0.475451 0.000093
0.400683 0.46839 0.000077
0.434389 0.462467 0.000073
0.462044 0.457403 0.000073
0.485265 0.453011 0.000077
0.505106 0.449159 0.000081
0.522412 0.445723 0.000083
0.53873 0.442425 0.00009
0.554403 0.439201 0.000098
0.569459 0.436054 0.000107
0.583916 0.432986 0.000115
0.597782 0.430002 0.000124
0.611057 0.427107 0.000134
0.623726 0.42431 0.000143
0.635763 0.421622 0.000152
0.647151 0.419052 0.000161
0.658034 0.416571 0.000169
0.668641 0.414131 0.000177
0.679263 0.411665 0.000185
0.690321 0.409074 0.000193
0.702515 0.406189 0.0002
0.717193 0.402675 0.000204
0.737537 0.397725 0.000214
0.774674 0.388606 0.000325
0.999733 0.280974 0.000422
0.022716 0.545552 0.000029
0.022606 0.544678 0.000034
0.022337 0.542562 0.000039
0.021856 0.538743 0.000054
0.020902 0.531355 0
0.112242 0.521362 0
0.217812 0.509741 0.00016
0.295253 0.49935 0.000124
0.351345 0.490872 0.000093
0.393797 0.483933 0.000079
0.427517 0.478109 0.000078
0.455188 0.473128 0.000081
0.478426 0.468807 0.000087
0.498283 0.465016 0.000093
0.515606 0.461634 0.000097
0.531939 0.458387 0.000106
0.54763 0.455212 0.000116
0.562703 0.452113 0.000127
0.577177 0.44909 0.000138
0.591061 0.44615 0.000149
0.604353 0.443297 0.00016
0.617039 0.44054 0.000172
0.629093 0.43789 0.000183
0.640497 0.435356 0.000194
0.651397 0.43291 0.000204
0.66202 0.430504 0.000214
0.672657 0.428071 0.000224
0.683733 0.425516 0.000234
0.695946 0.422669 0.000244
0.710648 0.419202 0.000251
0.731022 0.414317 0.000273
0.768217 0.40528 0.000329
0.999639 0.298879 0.000575
0.024334 0.558027 0.000017
0.024226 0.557173 0.000021
0.02396 0.555103 0.000027
0.023485 0.551366 0.000041
0.022549 0.544162 0
0.105852 0.53424 0
0.211589 0.522897 0.000154
0.289064 0.512679 0.000119
0.345151 0.504331 0.000089
0.38761 0.497495 0.000078
0.421342 0.491756 0.000079
0.449028 0.486847 0.000085
0.472281 0.482586 0.000093
0.492154 0.478847 0.000102
0.50949 0.475512 0.000107
0.525839 0.472308 0.000118
0.541544 0.469176 0.000131
0.556633 0.466116 0.000143
0.571123 0.463133 0.000156
0.585023 0.46023 0.00017
0.598331 0.457414 0.000183
0.611033 0.454691 0.000197
0.623102 0.452075 0.00021
0.634521 0.449572 0.000223
0.645435 0.447156 0.000235
0.656073 0.444778 0.000247
0.666726 0.442375 0.000259
0.677817 0.43985 0.000271
0.690049 0.437037 0.000283
0.704767 0.433611 0.000303
0.725171 0.428781 0.000334
0.762384 0.419822 0.000393
0.99954 0.314482 0.000722
0.025878 0.569843 0.000015
0.025772 0.569006 0.000019
0.025512 0.566978 0.000024
0.025046 0.563316 0.000038
0.024127 0.556287 0
0.099772 0.546418 0
0.205621 0.535322 0.000155
0.283093 0.525259 0.000122
0.339173 0.517031 0.000095
0.381638 0.510292 0.000087
0.415383 0.504631 0.000091
0.443082 0.499788 0.0001
0.46635 0.495583 0.000111
0.486237 0.491893 0.000122
0.503588 0.4886 0.00013
0.519951 0.485437 0.000143
0.535671 0.482344 0.000157
0.550775 0.479323 0.000172
0.565281 0.476376 0.000188
0.579196 0.473508 0.000203
0.592519 0.470726 0.000219
0.605236 0.468036 0.000235
0.61732 0.46545 0.00025
0.628754 0.462976 0.000265
0.639683 0.460588 0.000279
0.650335 0.458238 0.000294
0.661002 0.455862 0.000308
0.672109 0.453365 0.000322
0.684357 0.450584 0.000339
0.699097 0.447195 0.000363
0.719531 0.442417 0.000398
0.756764 0.433531 0.000467
0.999429 0.329193 0.000894
0.027357 0.581236 0.000014
0.027255 0.580416 0.000018
0.027002 0.578427 0.000024
0.02655 0.574834 0.000038
0.025652 0.567973 0
0.093873 0.558144 0
0.199788 0.547275 0.000159
0.277234 0.537356 0.000128
0.333306 0.52924 0.000105
0.375777 0.52259 0.000101
0.409534 0.517004 0.000108
0.437247 0.512223 0.00012
0.46053 0.508071 0.000133
0.480431 0.504427 0.000147
0.497796 0.501175 0.000157
0.514173 0.49805 0.000173
0.529909 0.494994 0.00019
0.545028 0.492009 0.000207
0.559548 0.489097 0.000225
0.573479 0.486263 0.000243
0.586817 0.483512 0.000262
0.59955 0.480853 0.00028
0.611649 0.478297 0.000297
0.623098 0.475851 0.000315
0.63404 0.47349 0.000331
0.644707 0.471165 0.000347
0.655389 0.468816 0.000364
0.666511 0.466346 0.000381
0.678776 0.463594 0.000401
0.693538 0.460242 0.000428
0.714004 0.455513 0.000468
0.751258 0.446695 0.000547
0.999304 0.34332 0.001084
0.028759 0.592218 0.000014
0.028661 0.591412 0.000018
0.028418 0.58946 0.000023
0.027982 0.585933 0.000038
0.027112 0.579231 0
0.088147 0.569432 0
0.194084 0.558772 0.000163
0.271493 0.548986 0.000135
0.327558 0.540976 0.000117
0.370036 0.534411 0.000116
0.403804 0.528895 0.000127
0.431532 0.524172 0.000142
0.454829 0.520071 0.000158
0.474745 0.516471 0.000175
0.492124 0.513256 0.000188
0.508515 0.510168 0.000206
0.524265 0.507148 0.000226
0.5394 0.504197 0.000246
0.553936 0.501318 0.000266
0.567881 0.498516 0.000287
0.581235 0.495796 0.000308
0.593983 0.493166 0.000328
0.606097 0.490637 0.000349
0.61756 0.488218 0.000368
0.628517 0.485882 0.000387
0.639198 0.483582 0.000406
0.649894 0.481257 0.000424
0.661033 0.478813 0.000444
0.673315 0.47609 0.000467
0.688098 0.472772 0.000498
0.708595 0.468091 0.000544
0.745874 0.459337 0.000632
0.999167 0.356886 0.00129
0.030073 0.602794 0.000014
0.02998 0.602003 0.000018
0.029749 0.600085 0.000023
0.029333 0.596619 0.000038
0.028496 0.590068 0
0.08259 0.580292 0
0.18851 0.569825 0.000168
0.26588 0.560162 0.000144
0.321939 0.552253 0.00013
0.364424 0.545768 0.000133
0.398205 0.540317 0.000148
0.425947 0.53565 0.000166
0.449259 0.531597 0.000186
0.469189 0.528037 0.000206
0.486582 0.52486 0.000221
0.502987 0.521806 0.000242
0.518752 0.518819 0.000264
0.533902 0.515901 0.000287
0.548453 0.513053 0.00031
0.562414 0.510281 0.000334
0.575783 0.50759 0.000357
0.588546 0.504988 0.000381
0.600675 0.502486 0.000404
0.612152 0.500092 0.000426
0.623124 0.49778 0.000447
0.633818 0.495504 0.000468
0.64453 0.493203 0.000489
0.655683 0.490783 0.000511
0.667983 0.488088 0.000538
0.682788 0.484802 0.000573
0.703316 0.480166 0.000624
0.740622 0.471472 0.000723
0.999016 0.369906 0.001509
0.031292 0.612965 0.000015
0.031204 0.612187 0.000019
0.030986 0.610302 0.000024
0.030592 0.606894 0.000038
0.029795 0.600485 0
0.077202 0.590727 0.000001
0.183075 0.580437 0.000173
0.260408 0.570892 0.000154
0.316462 0.563076 0.000144
0.358954 0.556666 0.000152
0.392748 0.551278 0.000171
0.420504 0.546663 0.000193
0.44383 0.542655 0.000216
0.463775 0.539135 0.000239
0.481182 0.535991 0.000257
0.497602 0.532971 0.00028
0.513381 0.530016 0.000306
0.528546 0.527128 0.000332
0.543112 0.52431 0.000358
0.557088 0.521567 0.000384
0.570473 0.518903 0.00041
0.583251 0.516328 0.000436
0.595394 0.513851 0.000462
0.606886 0.511481 0.000486
0.617872 0.509192 0.00051
0.62858 0.506938 0.000534
0.639306 0.50466 0.000558
0.650475 0.502264 0.000582
0.662792 0.499594 0.000612
0.677619 0.49634 0.000651
0.698178 0.491747 0.000708
0.735512 0.48311 0.000818
0.998853 0.382388 0.001743
0.032408 0.622724 0.000016
0.032326 0.621959 0.00002
0.032122 0.620104 0.000025
0.031753 0.61675 0.000039
0.030999 0.610476 0
0.071987 0.600733 0.000001
0.177792 0.590608 0.000179
0.255091 0.581172 0.000165
0.311141 0.573444 0.000161
0.353641 0.567106 0.000173
0.387447 0.561776 0.000196
0.415218 0.557211 0.000222
0.438559 0.553245 0.000248
0.458518 0.549762 0.000274
0.475939 0.546651 0.000295
0.492373 0.543661 0.000322
0.508167 0.540736 0.00035
0.523346 0.537878 0.000379
0.537927 0.535088 0.000408
0.551919 0.532372 0.000437
0.565318 0.529734 0.000466
0.578111 0.527184 0.000495
0.590269 0.524732 0.000523
0.601776 0.522384 0.00055
0.612775 0.520117 0.000577
0.623498 0.517885 0.000603
0.634237 0.515627 0.00063
0.645422 0.513254 0.000657
0.657756 0.510609 0.000691
0.672604 0.507384 0.000734
0.693193 0.502832 0.000796
0.730557 0.494248 0.000917
0.998677 0.39433 0.001988
0.033416 0.632058 0.000018
0.033341 0.631305 0.000022
0.033152 0.629478 0.000027
0.032809 0.626175 0.00004
0.032102 0.620028 0.000001
0.066953 0.610297 0.000003
0.17268 0.600325 0.000186
0.249947 0.590992 0.000178
0.305994 0.583346 0.000178
0.348503 0.577074 0.000195
0.382322 0.5718 0.000222
0.410107 0.567282 0.000252
0.433463 0.563356 0.000283
0.453436 0.559907 0.000312
0.47087 0.556827 0.000336
0.487318 0.553867 0.000365
0.503127 0.55097 0.000396
0.518321 0.548139 0.000428
0.532917 0.545376 0.00046
0.546923 0.542686 0.000492
0.560337 0.540073 0.000524
0.573145 0.537547 0.000556
0.585317 0.535116 0.000587
0.596838 0.532791 0.000617
0.607851 0.530544 0.000646
0.618587 0.528332 0.000675
0.629341 0.526095 0.000705
0.64054 0.523743 0.000735
0.652892 0.521121 0.000772
0.66776 0.517925 0.000819
0.68838 0.513411 0.000887
0.725775 0.504878 0.00102
0.998491 0.405719 0.002246
0.034313 0.640941 0.000021
0.034245 0.640199 0.000025
0.034072 0.638399 0.000029
0.033756 0.635142 0.000042
0.033098 0.629115 0.000003
0.062119 0.619396 0.000004
0.167761 0.609565 0.000193
0.244999 0.600328 0.000191
0.301044 0.59276 0.000196
0.343562 0.586551 0.000218
0.377394 0.581328 0.00025
0.405193 0.576853 0.000284
0.428564 0.572965 0.000318
0.448551 0.569549 0.00035
0.465999 0.566498 0.000377
0.482461 0.563565 0.00041
0.498283 0.560695 0.000444
0.513492 0.55789 0.000479
0.528102 0.555152 0.000514
0.542123 0.552486 0.000549
0.555552 0.549897 0.000584
0.568374 0.547392 0.000619
0.58056 0.544984 0.000653
0.592094 0.542678 0.000686
0.603121 0.540451 0.000717
0.613871 0.538258 0.000749
0.624639 0.536041 0.000782
0.635852 0.533708 0.000815
0.64822 0.531108 0.000855
0.663109 0.527939 0.000906
0.683758 0.523462 0.000981
0.721186 0.514975 0.001126
0.998296 0.41653 0.002511
0.0351 0.649357 0.000024
0.035037 0.648625 0.000027
0.03488 0.64685 0.000031
0.034593 0.643638 0.000044
0.033986 0.637721 0.000005
0.057494 0.628014 0.000006
0.163051 0.618316 0.0002
0.240263 0.609167 0.000204
0.296309 0.601672 0.000215
0.338836 0.59552 0.000242
0.372681 0.590346 0.000277
0.400494 0.585912 0.000315
0.423879 0.582059 0.000353
0.443881 0.578673 0.000389
0.461341 0.575649 0.000419
0.477816 0.572742 0.000454
0.493653 0.569898 0.000492
0.508875 0.567117 0.000529
0.5235 0.564402 0.000568
0.537535 0.561759 0.000606
0.550978 0.559191 0.000644
0.563814 0.556708 0.000681
0.576014 0.55432 0.000719
0.587562 0.552033 0.000754
0.598601 0.549825 0.000789
0.609364 0.547649 0.000823
0.620146 0.54545 0.000858
0.631374 0.543136 0.000895
0.643757 0.540557 0.00094
0.658666 0.537412 0.000995
0.679344 0.53297 0.001076
0.7168 0.524527 0.001233
0.998093 0.42675 0.002781
0.035794 0.657411 0.000026
0.035737 0.656689 0.000029
0.035594 0.654937 0.000033
0.035333 0.651766 0.000045
0.034779 0.645953 0.000008
0.053028 0.636258 0.000008
0.158502 0.626686 0.000207
0.235691 0.617621 0.000216
0.291737 0.610193 0.000233
0.334274 0.604097 0.000265
0.368132 0.598968 0.000305
0.39596 0.594572 0.000347
0.419359 0.590753 0.000389
0.439374 0.587396 0.000428
0.456847 0.584398 0.000461
0.473336 0.581515 0.000499
0.489186 0.578694 0.00054
0.504422 0.575936 0.000581
0.519061 0.573244 0.000622
0.53311 0.570622 0.000663
0.546567 0.568075 0.000704
0.559416 0.565612 0.000745
0.57163 0.563243 0.000785
0.583191 0.560974 0.000824
0.594243 0.558783 0.000861
0.605019 0.556625 0.000898
0.615814 0.554442 0.000936
0.627055 0.552147 0.000978
0.639454 0.549587 0.001026
0.654383 0.546466 0.001086
0.675088 0.542057 0.001173
0.71257 0.533653 0.001342
0.997882 0.436507 0.003059
0.036418 0.665272 0.000029
0.036367 0.664558 0.000032
0.036237 0.662828 0.000036
0.036 0.659696 0.000047
0.035495 0.653983 0.000012
0.04863 0.644302 0.000011
0.154025 0.63485 0.000214
0.231192 0.625866 0.00023
0.287239 0.618503 0.000252
0.329787 0.612459 0.000289
0.363658 0.607374 0.000334
0.391501 0.603016 0.000381
0.414914 0.599228 0.000426
0.434943 0.5959 0.000468
0.452429 0.592926 0.000504
0.468931 0.590067 0.000546
0.484795 0.587269 0.00059
0.500045 0.584533 0.000634
0.514698 0.581862 0.000678
0.528761 0.579261 0.000723
0.542232 0.576735 0.000767
0.555095 0.574291 0.000811
0.567322 0.57194 0.000854
0.578896 0.569689 0.000895
0.589962 0.567515 0.000936
0.60075 0.565373 0.000976
0.611557 0.563207 0.001018
0.622813 0.560928 0.001064
