site/assets/luts/freshluts--0000544-moody-rain-black-vcs-log-slog-and-any-kind-of-footage-cyberp.cube
# LUTr-Schema-Version: 2
# LUTr-ID: freshluts--0000544-moody-rain-black-vcs-log-slog-and-any-kind-of-footage-cyberp
# LUTr-Title: Moody rain black vcs ( log , slog and any kind of footage ) cyberpunk
# LUTr-Collection: Fresh LUTs
# LUTr-Collection-ID: freshluts-community
# LUTr-Source: https://freshluts.com
# LUTr-Retrieved: 2026-07-27
# LUTr-Source-File: submissions-raw/freshluts/cubes/544__my_cyber_punk.cube
# LUTr-Source-Format: CUBE
# LUTr-Source-SHA256: f0ae4f6c83e8f10bf7af75327a217c0fb0b58dbf774fab4d5a6745f5f2b7df50
# LUTr-License: CC0-1.0
# LUTr-License-URL: https://freshluts.com/termsandconditions
# LUTr-License-Basis: site-terms
# LUTr-Transform-Class: creative-look
# LUTr-Tags: creative, freshluts, community, cube, cool, rec709, assumed-input
# LUTr-Input-Color-Space: rec709
# LUTr-Input-Gamut: rec709
# LUTr-Input-Transfer: rec709
# LUTr-Output-Color-Space: srgb
# LUTr-Output-Gamut: rec709
# LUTr-Output-Transfer: srgb
# LUTr-Color-Space-Confidence: assumed-display-referred
# LUTr-Domain-Normalized: true
# LUTr-Shaper: none
# LUTr-Original-Grid: 16x16x16
# LUTr-Conversion-Grid: 16x16x16
# LUTr-Conversion-Interpolation: none
# LUTr-Conversion-Method: Metadata normalization; numeric LUT samples preserved
# LUTr-Conversion-Tool: LUTr scripts/convert-all-to-cube.mjs 2.0.0
# LUTr-Conversion-Date: 2026-07-28
# LUTr-Asset-URL: https://freshluts.com/luts/544
# LUTr-Author: extreme papercraft
# LUTr-Author-URL: https://freshluts.com/users/40933
# LUTr-Attribution: extreme papercraft via Fresh LUTs
# LUTr-Source-Labels: gamma=Other; color=Cool; key=Neutral; style=cool rain; LUTr assumption=input Rec.709 per repository policy
# LUTr-Conversion-Warning: Input Rec.709 is a LUTr catalog assumption requested for this otherwise unspecified Fresh LUT; it is not verified by the upstream asset.
# LUTr-Note: Preserve this metadata and the upstream license notices when redistributing.
TITLE "Moody rain black vcs ( log , slog and any kind of footage ) cyberpunk"
LUT_3D_SIZE 6
DOMAIN_MIN 0 0 0
DOMAIN_MAX 1 1 1
0.050276 0.051183 0.054682
0.052435 0.051185 0.056534
0.068705 0.050936 0.064506
0.15402 0.050148 0.090381
0.557911 0.049597 0.198349
1.000023 0.049597 0.27095
0.05073 0.055148 0.054545
0.053067 0.052054 0.055207
0.069921 0.050976 0.05904
0.15712 0.050134 0.076213
0.559203 0.049597 0.147787
1.000023 0.049597 0.189975
0.054192 0.083267 0.052639
0.069308 0.069448 0.053685
0.072051 0.052586 0.057762
0.170193 0.050049 0.07879
0.59437 0.049597 0.152412
1.000023 0.049597 0.189959
0.087838 0.226534 0.049597
0.15988 0.167892 0.049597
0.161994 0.082856 0.052697
0.178369 0.054088 0.068283
0.627255 0.049597 0.156537
1.000023 0.049597 0.189948
0.249788 0.655954 0.049597
0.531815 0.551091 0.049597
0.57432 0.241476 0.049597
0.603624 0.13891 0.049685
0.632042 0.057692 0.100246
1.000023 0.049603 0.189955
0.481438 1.000023 0.049597
0.924808 0.921323 0.049597
0.990095 0.471816 0.049597
1.000023 0.224191 0.049597
1.000023 0.15498 0.049871
1.000023 0.063314 0.085947
0.050046 0.054715 0.069588
0.050044 0.053547 0.071281
0.056449 0.059867 0.164667
0.11842 0.051703 0.262998
0.538783 0.049597 0.584321
1.000023 0.049597 0.615896
0.050212 0.055828 0.060475
0.051225 0.056344 0.069161
0.065971 0.053904 0.087138
0.164101 0.051681 0.180693
0.576126 0.049606 0.356272
1.000023 0.049597 0.430929
0.052148 0.083824 0.052669
0.05725 0.083961 0.059778
0.070643 0.059814 0.068097
0.165962 0.053148 0.093753
0.582798 0.050181 0.179701
1.000023 0.049597 0.223914
0.071433 0.230412 0.049597
0.118645 0.226581 0.050152
0.160366 0.120009 0.052061
0.175481 0.06466 0.061683
0.616853 0.052196 0.156731
1.000023 0.049763 0.193756
0.157337 0.663693 0.049597
0.368211 0.652259 0.049597
0.576606 0.408828 0.049597
0.598623 0.179253 0.049602
0.623245 0.10488 0.053405
1.000023 0.053836 0.160182
0.250527 1.000023 0.049597
0.678519 1.000023 0.049597
0.952298 0.720024 0.049597
1.000023 0.328839 0.049597
1.000023 0.192703 0.049597
1.000023 0.124863 0.049632
0.049597 0.094223 0.163596
0.049599 0.080783 0.169047
0.049597 0.078729 0.179024
0.051768 0.182333 0.513681
0.096418 0.119241 0.850392
0.282737 0.055793 0.994681
0.049597 0.110779 0.155115
0.050152 0.103178 0.160613
0.050785 0.087985 0.17541
0.080448 0.075505 0.500388
0.22858 0.051314 0.709873
0.679101 0.049597 0.927765
0.049629 0.086225 0.077559
0.049628 0.091995 0.105316
0.062292 0.106714 0.15578
0.120934 0.073658 0.258154
0.560916 0.064731 0.617534
1.000023 0.058981 0.756891
0.063849 0.231193 0.051938
0.058468 0.232657 0.053586
0.105627 0.228559 0.099349
0.164696 0.102478 0.148218
0.600804 0.072704 0.300452
1.000023 0.059995 0.346359
0.157744 0.66556 0.049597
0.159587 0.665682 0.049597
0.457794 0.649131 0.061654
0.570649 0.300617 0.068346
0.61577 0.0989 0.117088
1.000023 0.069148 0.273701
0.250526 1.000023 0.049597
0.276668 1.000023 0.049597
0.875608 0.995888 0.053177
0.980579 0.538511 0.051762
1.000023 0.238734 0.055975
1.000023 0.146264 0.067937
0.049597 0.312326 0.486329
0.049597 0.231601 0.508869
0.049597 0.224855 0.510493
0.049597 0.206864 0.533571
0.050105 0.357738 0.870629
0.077454 0.245802 1.000023
0.049597 0.359491 0.451671
0.049597 0.332518 0.477547
0.050072 0.287277 0.495547
0.050585 0.234456 0.526203
0.062638 0.273113 0.866922
0.165589 0.133701 1.000023
0.049597 0.339287 0.37819
0.049597 0.355514 0.419452
0.056992 0.34834 0.46755
0.059481 0.298604 0.506327
0.116479 0.18636 0.846549
0.290529 0.064183 0.977613
0.049597 0.243913 0.121331
0.049597 0.245283 0.175595
0.056324 0.252625 0.247232
0.114581 0.333722 0.442951
0.394839 0.168531 0.678016
1.000023 0.12558 0.904519
0.05439 0.667845 0.08836
0.050592 0.668114 0.105389
0.053804 0.668148 0.10788
0.439679 0.646997 0.24253
0.58638 0.281605 0.397149
1.000023 0.169722 0.514853
0.250526 1.000023 0.049597
0.250503 1.000023 0.049597
0.296733 1.000023 0.055976
0.921725 0.9918 0.08767
1.000023 0.490927 0.137402
1.000023 0.23253 0.265816
0.049597 0.62965 0.833137
0.049597 0.471915 0.85679
0.049597 0.446042 0.859686
0.049597 0.430517 0.861589
0.049622 0.370556 0.877303
0.049794 0.467233 1.000023
0.049597 0.72131 0.77804
0.049597 0.663602 0.824571
0.04965 0.574935 0.844344
0.049723 0.551921 0.847129
0.050967 0.416826 0.871498
0.055225 0.444918 1.000023
0.049597 0.732049 0.689358
0.049597 0.729279 0.725762
0.054223 0.694852 0.814926
0.057075 0.62561 0.832203
0.058748 0.51459 0.857114
0.08902 0.316477 1.000023
0.049597 0.687014 0.549314
0.049597 0.727798 0.623361
0.052048 0.732873 0.671664
0.079945 0.706284 0.800856
0.088615 0.620655 0.830389
0.21716 0.362652 1.000023
0.049597 0.680824 0.181437
0.049597 0.680849 0.277081
0.051639 0.680402 0.389796
0.079362 0.674637 0.552659
0.4616 0.678226 0.76764
0.976691 0.546579 0.965719
0.049597 1.000023 0.1279
0.049597 1.000023 0.145452
0.049597 1.000023 0.152898
0.090288 1.000023 0.115396
0.954235 0.992049 0.562701
1.000023 0.665213 0.693916
0.049597 0.882406 1.000028
0.049597 0.742816 1.000023
0.049597 0.644785 1.000023
0.049597 0.622428 1.000023
0.049597 0.57019 1.000023
0.049597 0.477166 1.000023
0.049597 0.970274 0.941986
0.049597 0.917318 0.999599
0.049597 0.797649 1.000023
0.049597 0.778727 1.000023
0.04948 0.758486 1.000023
0.050383 0.539879 1.000023
0.049597 0.990551 0.798156
0.049597 0.985951 0.836509
0.05124 0.937472 1.000023
0.055296 0.850348 1.000057
0.05607 0.836449 1.000069
0.058265 0.66177 1.000023
0.049597 1.000027 0.729466
0.049597 0.9992 0.741842
0.049601 0.993544 0.777652
0.074493 0.957783 1.000023
0.08031 0.903887 1.00001
0.082721 0.789069 1.000083
0.049597 1.000023 0.607424
0.049597 1.000023 0.710957
0.049597 1.000007 0.72939
0.070959 1.000023 0.783167
0.280641 0.978998 1.000023
0.363153 0.898795 1.000023
0.049597 1.000023 0.198045
0.049597 1.000023 0.28538
0.049597 1.000023 0.424634
0.070355 1.000023 0.575909
0.268074 1.000023 0.776119
0.998237 0.999744 0.999821
