site/assets/luts/freshluts--0000878-picturefx-velvia.cube
# LUTr-Schema-Version: 2
# LUTr-ID: freshluts--0000878-picturefx-velvia
# LUTr-Title: PictureFX Velvia
# LUTr-Collection: Fresh LUTs
# LUTr-Collection-ID: freshluts-community
# LUTr-Source: https://freshluts.com
# LUTr-Retrieved: 2026-07-27
# LUTr-Source-File: submissions-raw/freshluts/cubes/878__PictureFX-Velvia.cube
# LUTr-Source-Format: CUBE
# LUTr-Source-SHA256: cef82367677e86b25732557c5ff4baf234c3a26620431032b0bfff8812740dda
# LUTr-License: CC0-1.0
# LUTr-License-URL: https://freshluts.com/termsandconditions
# LUTr-License-Basis: site-terms
# LUTr-Transform-Class: creative-look
# LUTr-Tags: creative, freshluts, community, cube, film-emulation
# LUTr-Input-Color-Space:
# LUTr-Input-Gamut: unspecified
# LUTr-Input-Transfer: unspecified
# LUTr-Output-Color-Space: srgb
# LUTr-Output-Gamut: rec709
# LUTr-Output-Transfer: srgb
# LUTr-Color-Space-Confidence: camera-profile-input-required
# LUTr-Domain-Normalized: true
# LUTr-Shaper: none
# LUTr-Original-Grid: 25x25x25
# LUTr-Conversion-Grid: 25x25x25
# LUTr-Conversion-Interpolation: none
# LUTr-Conversion-Method: Metadata normalization; numeric LUT samples preserved
# LUTr-Conversion-Tool: LUTr scripts/convert-all-to-cube.mjs 2.0.0
# LUTr-Conversion-Date: 2026-07-28
# LUTr-Asset-URL: https://freshluts.com/luts/878
# LUTr-Author: MarcR.
# LUTr-Author-URL: https://freshluts.com/users/86490
# LUTr-Attribution: MarcR. via Fresh LUTs
# LUTr-Source-Labels: gamma=Other; color=None; key=Neutral; style=Film emulation
# LUTr-Note: Preserve this metadata and the upstream license notices when redistributing.
# LUTr-Upstream-Comment: Generated with IWLTBAP LUT Generator
# LUTr-Upstream-Comment: Website: http://luts.iwltbap.com
# LUTr-Upstream-Comment: LUT size
# LUTr-Upstream-Comment: LUT data points
TITLE "PictureFX Velvia"
LUT_3D_SIZE 25
DOMAIN_MIN 0 0 0
DOMAIN_MAX 1 1 1
0 0 0
0 0 0
0 0 0
0.015686 0 0
0.054902 0 0
0.090196 0 0
0.14902 0 0
0.227451 0 0
0.32549 0 0
0.411765 0 0
0.490196 0 0
0.564706 0 0
0.631373 0 0
0.705882 0 0
0.772549 0 0
0.835294 0 0
0.890196 0 0
0.941176 0 0
0.996078 0 0
1 0 0
1 0 0
1 0 0
1 0 0
1 0 0
1 0 0
0 0 0
0 0 0
0.003922 0 0
0.027451 0.003922 0
0.058824 0.003922 0
0.098039 0.007843 0
0.156863 0.011765 0
0.239216 0.015686 0
0.329412 0.019608 0
0.415686 0.019608 0
0.494118 0.007843 0
0.564706 0 0
0.635294 0 0
0.705882 0 0
0.772549 0 0
0.835294 0 0
0.890196 0 0
0.945098 0 0
0.996078 0 0
1 0 0
1 0 0
1 0 0
1 0 0
1 0 0
1 0 0
0 0.011765 0
0.003922 0.011765 0
0.015686 0.015686 0
0.035294 0.015686 0
0.066667 0.019608 0
0.109804 0.027451 0
0.168627 0.039216 0
0.25098 0.054902 0
0.341176 0.066667 0
0.419608 0.07451 0
0.498039 0.07451 0
0.568627 0.066667 0
0.639216 0.039216 0
0.705882 0.007843 0
0.772549 0 0
0.835294 0 0
0.890196 0 0
0.952941 0 0
0.996078 0 0
1 0 0
1 0 0
1 0 0
1 0 0
1 0 0
1 0 0
0 0.039216 0
0.003922 0.039216 0
0.019608 0.043137 0
0.043137 0.043137 0
0.07451 0.047059 0
0.121569 0.058824 0
0.180392 0.078431 0
0.266667 0.101961 0
0.352941 0.113725 0
0.431373 0.12549 0
0.505882 0.129412 0
0.576471 0.12549 0
0.643137 0.117647 0
0.709804 0.105882 0
0.776471 0.090196 0
0.839216 0.062745 0
0.901961 0 0
0.952941 0 0
0.996078 0 0
1 0 0
1 0 0
1 0 0
1 0 0
1 0 0
1 0 0
0 0.082353 0
0 0.082353 0
0.023529 0.086275 0
0.054902 0.086275 0
0.090196 0.090196 0
0.137255 0.101961 0
0.203922 0.12549 0
0.286275 0.14902 0
0.364706 0.168627 0
0.443137 0.180392 0
0.513725 0.184314 0
0.580392 0.184314 0
0.647059 0.180392 0
0.713725 0.176471 0
0.784314 0.156863 0
0.847059 0.137255 0
0.901961 0.113725 0
0.952941 0.078431 0
0.996078 0.031373 0
1 0 0
1 0 0
1 0 0
1 0 0
1 0 0
1 0 0
0 0.14902 0
0 0.14902 0
0.031373 0.152941 0
0.07451 0.156863 0
0.121569 0.160784 0
0.168627 0.168627 0
0.227451 0.184314 0
0.301961 0.207843 0
0.376471 0.223529 0
0.45098 0.235294 0
0.521569 0.239216 0
0.588235 0.243137 0
0.654902 0.239216 0
0.721569 0.231373 0
0.788235 0.223529 0
0.847059 0.211765 0
0.901961 0.196078 0
0.952941 0.176471 0
1 0.133333 0
1 0.105882 0
1 0.070588 0
1 0 0
1 0 0
1 0 0
1 0 0
0 0.243137 0
0 0.247059 0
0.015686 0.247059 0
0.090196 0.25098 0
0.14902 0.25098 0
0.203922 0.254902 0
0.258824 0.258824 0
0.317647 0.266667 0
0.392157 0.282353 0
0.462745 0.294118 0
0.529412 0.298039 0
0.596078 0.301961 0
0.658824 0.298039 0
0.72549 0.294118 0
0.792157 0.290196 0
0.85098 0.278431 0
0.909804 0.258824 0
0.960784 0.243137 0
1 0.223529 0
1 0.203922 0
1 0.168627 0
1 0.141176 0
1 0.078431 0
1 0 0
1 0 0
0 0.329412 0
0 0.333333 0
0 0.333333 0
0.082353 0.333333 0
0.160784 0.337255 0
0.219608 0.337255 0
0.278431 0.341176 0
0.341176 0.345098 0
0.403922 0.34902 0
0.470588 0.352941 0
0.537255 0.360784 0
0.6 0.360784 0
0.662745 0.360784 0
0.733333 0.352941 0
0.796078 0.34902 0
0.854902 0.337255 0
0.909804 0.32549 0
0.960784 0.305882 0
1 0.286275 0
1 0.270588 0
1 0.243137 0
1 0.223529 0
1 0.184314 0
1 0.168627 0
1 0.152941 0
0 0.411765 0
0 0.411765 0
0 0.411765 0
0.043137 0.411765 0
0.145098 0.411765 0
0.223529 0.411765 0
0.286275 0.415686 0
0.34902 0.415686 0
0.411765 0.415686 0
0.47451 0.419608 0
0.541176 0.419608 0
0.603922 0.423529 0
0.670588 0.419608 0
0.737255 0.415686 0
0.796078 0.415686 0
0.85098 0.407843 0
0.913725 0.384314 0
0.964706 0.368627 0
1 0.34902 0
1 0.329412 0
1 0.309804 0
1 0.294118 0
1 0.282353 0
1 0.270588 0
1 0.258824 0
0 0.482353 0
0 0.482353 0
0 0.482353 0
0 0.482353 0
0.113725 0.482353 0
0.211765 0.482353 0
0.282353 0.482353 0
0.341176 0.486275 0
0.411765 0.486275 0
0.478431 0.486275 0
0.545098 0.486275 0
0.611765 0.486275 0
0.678431 0.482353 0
0.737255 0.482353 0
0.796078 0.47451 0
0.847059 0.466667 0
0.898039 0.458824 0
0.968627 0.427451 0
1 0.411765 0
1 0.4 0
1 0.384314 0
1 0.372549 0
1 0.360784 0
1 0.34902 0
1 0.345098 0
0 0.54902 0
0 0.54902 0
0 0.54902 0
0 0.54902 0
0.058824 0.54902 0
0.184314 0.54902 0
0.262745 0.54902 0
0.341176 0.54902 0
0.4 0.552941 0
0.470588 0.552941 0
0.541176 0.552941 0
0.607843 0.552941 0
0.678431 0.54902 0
0.741176 0.541176 0
0.796078 0.537255 0
0.847059 0.529412 0
0.898039 0.517647 0
0.94902 0.505882 0
0.992157 0.490196 0
1 0.466667 0
1 0.454902 0
1 0.443137 0
1 0.431373 0
1 0.423529 0
1 0.419608 0
0 0.615686 0
0 0.615686 0
0 0.615686 0
0 0.615686 0
0 0.615686 0
0.12549 0.615686 0
0.243137 0.615686 0
0.329412 0.615686 0
0.407843 0.615686 0
0.458824 0.619608 0
0.529412 0.619608 0
0.6 0.615686 0
0.670588 0.615686 0
0.737255 0.607843 0
0.796078 0.6 0
0.847059 0.592157 0
0.898039 0.576471 0
0.945098 0.564706 0
0.980392 0.556863 0
1 0.545098 0
1 0.533333 0
1 0.509804 0
1 0.501961 0
1 0.494118 0
1 0.486275 0
0 0.678431 0
0 0.678431 0
0 0.678431 0
0 0.678431 0
0 0.678431 0
0.003922 0.678431 0
0.192157 0.678431 0
0.301961 0.67451 0
0.384314 0.67451 0
0.462745 0.67451 0
0.509804 0.678431 0
0.584314 0.67451 0
0.654902 0.67451 0
0.72549 0.670588 0
0.788235 0.662745 0
0.843137 0.65098 0
0.886275 0.643137 0
0.937255 0.627451 0
0.976471 0.615686 0
1 0.607843 0
1 0.596078 0
1 0.580392 0
1 0.564706 0
1 0.556863 0
1 0.545098 0
0 0.741176 0
0 0.741176 0
0 0.737255 0
0 0.733333 0
0 0.733333 0
0 0.737255 0
0.035294 0.733333 0
0.227451 0.733333 0
0.345098 0.729412 0
0.431373 0.729412 0
0.505882 0.72549 0
0.560784 0.729412 0
0.635294 0.72549 0
0.705882 0.72549 0
0.772549 0.721569 0
0.835294 0.713725 0
0.886275 0.698039 0
0.929412 0.686275 0
0.968627 0.67451 0
1 0.662745 0
1 0.647059 0
1 0.635294 0
1 0.623529 0
1 0.611765 0
1 0.603922 0
0 0.788235 0
0 0.788235 0
0 0.788235 0
0 0.788235 0
0 0.784314 0
0 0.784314 0
0 0.784314 0
0.176471 0.780392 0
0.298039 0.780392 0
0.407843 0.776471 0
0.486275 0.776471 0
0.560784 0.772549 0
0.611765 0.772549 0
0.682353 0.772549 0
0.752941 0.768627 0
0.815686 0.764706 0
0.87451 0.756863 0
0.921569 0.741176 0
0.964706 0.729412 0
1 0.717647 0
1 0.705882 0
1 0.690196 0
1 0.678431 0
1 0.666667 0
1 0.658824 0
0 0.831373 0
0 0.831373 0
0 0.831373 0
0 0.827451 0
0 0.827451 0
0 0.827451 0
0 0.827451 0
0.129412 0.823529 0
0.27451 0.823529 0
0.376471 0.819608 0
0.470588 0.815686 0
0.545098 0.815686 0
0.596078 0.815686 0
0.662745 0.811765 0
0.729412 0.811765 0
0.792157 0.807843 0
0.854902 0.803922 0
0.909804 0.796078 0
0.952941 0.780392 0
0.996078 0.768627 0
1 0.756863 0
1 0.745098 0
1 0.733333 0
1 0.717647 0
1 0.709804 0
0 0.866667 0
0 0.866667 0
0 0.866667 0
0 0.866667 0
0 0.866667 0
0 0.866667 0
0 0.862745 0
0.101961 0.862745 0
0.258824 0.858824 0
0.356863 0.858824 0
0.454902 0.854902 0
0.533333 0.85098 0
0.6 0.847059 0
0.639216 0.85098 0
0.705882 0.847059 0
0.768627 0.847059 0
0.827451 0.843137 0
0.886275 0.839216 0
0.941176 0.831373 0
0.980392 0.815686 0
1 0.803922 0
1 0.788235 0
1 0.776471 0
1 0.764706 0
1 0.756863 0
0 0.901961 0
0 0.901961 0
0 0.901961 0
0 0.901961 0
0 0.901961 0
0 0.901961 0
0 0.898039 0
0.101961 0.894118 0
0.254902 0.894118 0
0.356863 0.890196 0
0.439216 0.890196 0
0.513725 0.886275 0
0.584314 0.882353 0
0.65098 0.878431 0
0.686275 0.882353 0
0.74902 0.878431 0
0.807843 0.87451 0
0.862745 0.870588 0
0.917647 0.866667 0
0.968627 0.862745 0
1 0.847059 0
1 0.835294 0
1 0.823529 0
1 0.807843 0
1 0.8 0
0 0.929412 0
0 0.929412 0
0 0.929412 0
0 0.929412 0
0 0.929412 0
0 0.929412 0
0 0.929412 0
0.164706 0.92549 0
0.278431 0.921569 0
0.364706 0.921569 0
0.439216 0.917647 0
0.509804 0.917647 0
0.576471 0.913725 0
0.635294 0.909804 0
0.670588 0.913725 0
0.729412 0.909804 0
0.788235 0.905882 0
0.839216 0.901961 0
0.894118 0.898039 0
0.945098 0.894118 0
0.992157 0.890196 0
1 0.878431 0
1 0.862745 0
1 0.85098 0
1 0.839216 0
0 0.956863 0
0 0.956863 0
0 0.956863 0
0 0.956863 0
0 0.956863 0
0 0.952941 0
0 0.952941 0
0.203922 0.94902 0
0.294118 0.94902 0
0.372549 0.94902 0
0.415686 0.94902 0
0.47451 0.94902 0
0.541176 0.945098 0
0.6 0.941176 0
0.658824 0.941176 0
0.713725 0.937255 0
0.768627 0.933333 0
0.823529 0.929412 0
0.870588 0.92549 0
0.921569 0.921569 0
0.968627 0.921569 0
1 0.917647 0
1 0.901961 0
1 0.890196 0
1 0.878431 0
0 0.980392 0
0 0.980392 0
0 0.980392 0
0 0.980392 0
0 0.980392 0
0 0.980392 0
0 0.976471 0
0.14902 0.976471 0
0.258824 0.976471 0
0.341176 0.972549 0
0.411765 0.972549 0
0.47451 0.972549 0
0.537255 0.968627 0
0.596078 0.964706 0
0.65098 0.964706 0
0.701961 0.960784 0
0.756863 0.956863 0
0.803922 0.952941 0
0.854902 0.952941 0
0.901961 0.94902 0
0.945098 0.945098 0
0.988235 0.941176 0
1 0.937255 0
1 0.92549 0
1 0.913725 0
0 1 0
0 1 0
0 1 0
0 1 0
0 1 0
0 1 0
0.086275 1 0
0.207843 0.996078 0
0.290196 0.996078 0
0.360784 0.996078 0
0.423529 0.992157 0
0.482353 0.992157 0
0.537255 0.988235 0
0.592157 0.988235 0
0.643137 0.984314 0
0.694118 0.980392 0
0.745098 0.980392 0
0.792157 0.976471 0
0.839216 0.972549 0
0.882353 0.968627 0
0.92549 0.968627 0
0.968627 0.964706 0
1 0.960784 0
1 0.956863 0
1 0.94902 0
0 1 0
0 1 0
0 1 0
0 1 0
0 1 0
0.082353 1 0
0.188235 1 0
0.258824 1 0
0.32549 1 0
0.384314 1 0
0.439216 1 0
0.494118 1 0
0.545098 1 0
0.596078 1 0
0.643137 1 0
0.690196 1 0
0.737255 1 0
0.784314 0.996078 0
0.827451 0.992157 0
0.870588 0.988235 0
0.909804 0.988235 0
0.952941 0.984314 0
0.992157 0.980392 0
1 0.976471 0
1 0.972549 0
0 1 0
0 1 0
0 1 0
0.054902 1 0
0.137255 1 0
0.2 1 0
0.254902 1 0
0.309804 1 0
0.360784 1 0
0.411765 1 0
0.458824 1 0
0.505882 1 0
0.552941 1 0
0.6 1 0
0.647059 1 0
0.690196 1 0
0.733333 1 0
0.776471 1 0
0.819608 1 0
0.858824 1 0
0.898039 1 0
0.937255 1 0
0.976471 1 0
1 0.996078 0
1 0.992157 0
0.141176 1 0
0.156863 1 0
0.180392 1 0
0.207843 1 0
0.243137 1 0
0.278431 1 0
0.317647 1 0
0.356863 1 0
0.4 1 0
0.443137 1 0
0.486275 1 0
0.52549 1 0
0.568627 1 0
0.611765 1 0.003922
0.654902 1 0.011765
0.694118 1 0
0.733333 1 0.003922
0.772549 1 0.015686
0.815686 1 0.027451
0.85098 1 0.043137
0.890196 1 0.054902
0.92549 1 0.066667
0.960784 1 0.078431
0.996078 1 0.090196
1 1 0.101961
0 0 0
0 0 0
0 0 0
0.023529 0 0
0.058824 0 0.003922
0.105882 0 0
0.160784 0 0
0.243137 0 0
0.333333 0 0
0.419608 0 0
0.498039 0 0
0.572549 0 0
0.639216 0 0
0.713725 0 0
0.780392 0 0
0.843137 0 0
0.901961 0 0
0.952941 0 0
1 0 0
1 0 0
1 0 0
1 0 0
1 0 0
1 0 0
1 0 0
0 0 0
0 0 0
0.007843 0 0
0.035294 0 0
0.066667 0 0
0.109804 0 0
0.168627 0 0
0.25098 0 0
0.341176 0 0
0.427451 0 0
0.505882 0 0
0.572549 0 0
0.643137 0 0
0.713725 0 0
0.780392 0 0
0.843137 0 0
0.901961 0 0
0.952941 0 0
1 0 0
1 0 0
1 0 0
1 0 0
1 0 0
1 0 0
1 0 0
0 0.011765 0
0 0.011765 0
0.015686 0.015686 0
0.039216 0.015686 0
0.070588 0.015686 0
0.117647 0.015686 0
0.176471 0.023529 0
0.262745 0.031373 0
0.34902 0.031373 0
0.431373 0.023529 0
0.505882 0.027451 0
0.576471 0.011765 0
0.643137 0 0
0.717647 0 0
0.784314 0 0
0.847059 0 0
0.901961 0 0
0.952941 0 0
1 0 0
1 0 0
1 0 0
1 0 0
1 0 0
1 0 0
1 0 0
0 0.039216 0
0 0.043137 0
0.015686 0.043137 0
0.043137 0.043137 0
0.078431 0.047059 0
0.129412 0.054902 0
0.192157 0.070588 0
0.278431 0.090196 0
0.360784 0.098039 0
0.439216 0.101961 0
0.513725 0.101961 0
0.584314 0.098039 0
0.65098 0.086275 0
0.717647 0.054902 0
0.784314 0.015686 0
0.847059 0 0
0.901961 0 0
0.960784 0 0
1 0 0
1 0 0
1 0 0
1 0 0
1 0 0
1 0 0
1 0 0
0 0.086275 0
0 0.086275 0
0.011765 0.086275 0
0.05098 0.090196 0
0.090196 0.090196 0
0.141176 0.101961 0
0.211765 0.121569 0
0.294118 0.145098 0
0.372549 0.160784 0
0.447059 0.168627 0
0.521569 0.172549 0
0.588235 0.168627 0
0.654902 0.164706 0
0.721569 0.14902 0
0.788235 0.137255 0
0.854902 0.098039 0
0.909804 0.05098 0
0.960784 0 0
1 0 0
1 0 0
1 0 0
1 0 0
1 0 0
1 0 0
1 0 0
0 0.152941 0
0 0.152941 0
0.007843 0.156863 0
0.062745 0.160784 0
0.117647 0.164706 0
0.168627 0.168627 0
0.231373 0.184314 0
0.309804 0.203922 0
0.384314 0.219608 0
0.458824 0.227451 0
0.52549 0.235294 0
0.592157 0.231373 0
0.658824 0.231373 0
0.729412 0.215686 0
0.796078 0.203922 0
0.854902 0.188235 0
0.909804 0.168627 0
0.960784 0.145098 0
1 0.086275 0
1 0.027451 0
1 0 0
1 0 0
1 0 0
1 0 0
1 0 0
0 0.247059 0
0 0.247059 0
0 0.25098 0
0.066667 0.25098 0
0.141176 0.254902 0
0.2 0.258824 0
0.258824 0.258824 0
0.321569 0.266667 0
0.396078 0.282353 0
0.466667 0.290196 0
0.533333 0.294118 0
0.6 0.294118 0
0.662745 0.294118 0
0.733333 0.282353 0
0.8 0.27451 0
0.854902 0.262745 0
0.917647 0.239216 0
0.968627 0.219608 0
1 0.2 0
1 0.156863 0
1 0.12549 0
1 0.035294 0
1 0 0
1 0 0
1 0 0
0 0.333333 0
0 0.333333 0
0 0.333333 0
0.043137 0.337255 0
0.145098 0.337255 0
0.207843 0.341176 0
0.27451 0.341176 0
0.341176 0.345098 0
0.403922 0.34902 0
0.47451 0.352941 0
0.537255 0.356863 0
0.603922 0.356863 0
0.666667 0.356863 0
0.741176 0.345098 0
0.803922 0.337255 0
0.862745 0.32549 0
0.917647 0.309804 0
0.972549 0.290196 0
1 0.270588 0
1 0.239216 0
1 0.219608 0
1 0.2 0
1 0.180392 0
1 0.164706 0
1 0.14902 0
0 0.411765 0
0 0.411765 0
0 0.411765 0
0 0.411765 0
0.12549 0.415686 0
0.211765 0.415686 0
0.278431 0.415686 0
0.345098 0.419608 0
0.411765 0.419608 0
0.478431 0.419608 0
0.545098 0.419608 0
0.607843 0.419608 0
0.67451 0.419608 0
0.745098 0.411765 0
0.8 0.407843 0
0.858824 0.396078 0
0.92549 0.372549 0
0.976471 0.356863 0
1 0.337255 0
1 0.321569 0
1 0.305882 0
1 0.290196 0
1 0.278431 0
1 0.266667 0
1 0.258824 0
0 0.482353 0
0 0.482353 0
0 0.486275 0
0 0.486275 0
0.078431 0.482353 0
0.188235 0.482353 0
0.270588 0.486275 0
0.337255 0.486275 0
0.407843 0.486275 0
0.478431 0.486275 0
0.545098 0.486275 0
0.611765 0.482353 0
0.678431 0.482353 0
0.741176 0.478431 0
0.8 0.47451 0
0.85098 0.462745 0
0.901961 0.454902 0
0.968627 0.423529 0
1 0.411765 0
1 0.396078 0
1 0.384314 0
1 0.372549 0
1 0.360784 0
1 0.352941 0
1 0.345098 0
0 0.54902 0
0 0.54902 0
0 0.54902 0
0 0.54902 0
0 0.54902 0
0.164706 0.54902 0
0.25098 0.552941 0
0.333333 0.552941 0
0.396078 0.552941 0
0.470588 0.552941 0
0.541176 0.552941 0
0.611765 0.552941 0
0.678431 0.54902 0
0.745098 0.541176 0
0.796078 0.537255 0
0.85098 0.52549 0
0.898039 0.517647 0
0.94902 0.501961 0
0.996078 0.490196 0
1 0.466667 0
1 0.454902 0
1 0.443137 0
1 0.435294 0
1 0.427451 0
1 0.419608 0
