site/assets/luts/freshluts--0001178-sony-s-log-3-to-rec709.cube
# LUTr-Schema-Version: 2
# LUTr-ID: freshluts--0001178-sony-s-log-3-to-rec709
# LUTr-Title: Sony S-Log 3 to Rec.709
# LUTr-Collection: Fresh LUTs
# LUTr-Collection-ID: freshluts-community
# LUTr-Source: https://freshluts.com
# LUTr-Retrieved: 2026-07-27
# LUTr-Source-File: submissions-raw/freshluts/cubes/1178__S-LOG_3_to_Rec709_v2.cube
# LUTr-Source-Format: CUBE
# LUTr-Source-SHA256: 17a8e89aea24766a2e5d4ede6da00779115185002510c9a01187e1bb5c221e20
# LUTr-License: CC0-1.0
# LUTr-License-URL: https://freshluts.com/termsandconditions
# LUTr-License-Basis: site-terms
# LUTr-Transform-Class: creative-look
# LUTr-Tags: creative, freshluts, community, cube, sony-s-log3
# LUTr-Input-Color-Space:
# LUTr-Input-Gamut: sony-s-gamut3
# LUTr-Input-Transfer: sony-s-log3
# LUTr-Output-Color-Space: srgb
# LUTr-Output-Gamut: rec709
# LUTr-Output-Transfer: srgb
# LUTr-Color-Space-Confidence: camera-profile-input-required
# LUTr-Domain-Normalized: true
# LUTr-Shaper: none
# LUTr-Original-Grid: 33x33x33
# LUTr-Conversion-Grid: 33x33x33
# LUTr-Conversion-Interpolation: none
# LUTr-Conversion-Method: Metadata normalization; numeric LUT samples preserved
# LUTr-Conversion-Tool: LUTr scripts/convert-all-to-cube.mjs 2.0.0
# LUTr-Conversion-Date: 2026-07-28
# LUTr-Asset-URL: https://freshluts.com/luts/1178
# LUTr-Author: Revirssab
# LUTr-Author-URL: https://freshluts.com/users/9194
# LUTr-Attribution: Revirssab via Fresh LUTs
# LUTr-Source-Labels: gamma=Sony S-Log 3; color=None; key=Neutral; style=NEUTRAL
# LUTr-Note: Preserve this metadata and the upstream license notices when redistributing.
TITLE "Sony S-Log 3 to Rec.709"
LUT_3D_SIZE 9
DOMAIN_MIN 0 0 0
DOMAIN_MAX 1 1 1
0 0 0
0.0633402 0 0
0.202914 0 0
0.405997 0 0
0.690135 0 0
0.947601 0 0
1 0 0
1 0 0
1 0 0
0 0 0
0 0 0
0.156207 0 0
0.382681 0 0
0.677714 0 0
0.942107 0 0
1 0 0
1 0 0
1 0 0
0 0.127932 0
0 0.116121 0
0.0831769 0.10602 0
0.350271 0.0972152 0
0.662776 0.0215915 0
0.931182 0 0
1 0 0
1 0 0
1 0.0220951 0
0 0.301076 0
0 0.296422 0
0 0.291814 0
0.262028 0.281193 0
0.61004 0.275135 0
0.896681 0.254337 0
1 0.252644 0
1 0.299626 0
1 0.378576 0
0 0.540124 0
0 0.537255 0
0 0.53434 0
0 0.525093 0
0.488655 0.507866 0
0.808957 0.517555 0
1 0.529442 0
1 0.563378 0
1 0.616678 0
0 0.810452 0
0 0.805951 0
0 0.800946 0
0 0.791669 0
0.166323 0.772793 0
0.65771 0.754742 0
0.924254 0.768612 0
1 0.788952 0
1 0.819837 0
0 1 0
0 1 0
0 0.996948 0
0 0.988998 0
0 0.9738 0
0.455299 0.952834 0
0.797818 0.937224 0
0.980026 0.94667 0
1 0.962234 0
0 1 0
0 1 0
0 1 0
0 1 0
0 1 0
0.247654 1 0
0.695232 1 0
0.910002 1 0
1 1 0
0 1 0
0 1 0
0 1 0
0 1 0
0 1 0
0.0601663 1 0
0.651286 1 0
0.875227 1 0
0.972488 1 0
0 0 0.0363622
0.067155 0 0.0220798
0.208789 0 0
0.434409 0 0
0.710124 0 0
0.958053 0 0
1 0 0
1 0 0
1 0 0
0 0 0
0 0 0
0.140581 0 0
0.365148 0 0
0.661677 0 0
0.931609 0 0
1 0 0
1 0 0
1 0 0
0 0.114717 0
0 0.102113 0
0.0645762 0.088365 0
0.341756 0.0771344 0
0.654871 0.00233463 0
0.925704 0 0
1 0 0
1 0 0
1 0 0
0 0.295094 0
0 0.290608 0
0 0.285863 0
0.258747 0.272938 0
0.61088 0.264469 0
0.89749 0.241932 0
1 0.239384 0
1 0.287236 0
1 0.367254 0
0 0.536522 0
0 0.533791 0
0 0.530755 0
0 0.521019 0
0.49099 0.501213 0
0.812146 0.509621 0
1 0.52076 0
1 0.554803 0
1 0.608484 0
0 0.807126 0
0 0.802502 0
0 0.79733 0
0 0.787884 0
0.171283 0.76875 0
0.660151 0.748699 0
0.926299 0.762631 0
1 0.782803 0
1 0.81413 0
0 1 0
0 0.998627 0
0 0.993988 0
0 0.985977 0
0 0.970748 0
0.45803 0.949676 0
0.798932 0.933349 0
0.981109 0.943114 0
1 0.958801 0
0 1 0
0 1 0
0 1 0
0 1 0
0 1 0
0.253925 1 0
0.696452 1 0
0.910628 1 0
1 1 0
0 1 0
0 1 0
0 1 0
0 1 0
0 1 0
0.0852522 1 0
0.653849 1 0
0.876158 1 0
0.972732 1 0
0 0 0.170352
0.0590372 0 0.149691
0.206714 0 0.133104
0.409552 0 0.0930495
0.714061 0 0.0158694
0.993667 0 0
1 0 0
1 0 0
1 0 0
0 0 0.122286
0 0 0.118456
0.149462 0 0.115145
0.376349 0 0.0746319
0.700175 0 0
0.95642 0 0
1 0 0
1 0 0
1 0 0
0 0.0990921 0.105898
0 0.0846571 0.104433
0.0555581 0.0665446 0.102098
0.331701 0.0467079 0.0733501
0.637705 0 0.0282597
0.911147 0 0
1 0 0
1 0 0
1 0 0
0 0.288212 0.0691691
0 0.28368 0.0666819
0 0.27837 0.0633249
0.245548 0.262303 0.0521248
0.60264 0.25069 0
0.88954 0.224598 0
1 0.21883 0
1 0.267491 0
1 0.350118 0
0 0.532403 0
0 0.529747 0
0 0.526482 0
0 0.516518 0
0.482734 0.492927 0
0.809506 0.498787 0
1 0.508125 0
1 0.542245 0
1 0.596399 0
0 0.80325 0
0 0.798505 0
0 0.79321 0
0 0.783688 0
0.155322 0.764309 0
0.657328 0.741878 0
0.925841 0.754452 0
1 0.774243 0
1 0.806195 0
0 0.999649 0
0 0.995071 0
0 0.990356 0
0 0.982406 0
0 0.967285 0
0.454292 0.945953 0
0.79765 0.92871 0
0.980941 0.938155 0
1 0.954025 0
0 1 0
0 1 0
0 1 0
0 1 0
0 1 0
0.252171 1 0
0.695476 1 0
0.910216 1 0
1 1 0
0 1 0
0 1 0
0 1 0
0 1 0
0 1 0
0.0996872 1 0
0.65507 1 0
0.876463 1 0
0.972503 1 0
0 0 0.350515
0.0348516 0 0.327764
0.194614 0 0.313527
0.413565 0 0.304402
0.693294 0 0.262852
0.963317 0 0.175235
1 0 0.0401465
1 0 0
1 0 0
0 0 0.305531
0 0 0.301808
0.136751 0 0.298039
0.377234 0 0.293141
0.668681 0 0.252522
0.952712 0 0.166415
1 0 0.0250706
1 0 0
1 0 0
0 0.0495766 0.291417
0 0.0331579 0.290562
0.0400702 0.0132753 0.289723
0.336904 0 0.287709
0.647959 0 0.244724
0.946456 0 0.15349
1 0 0.0416114
1 0 0
1 0 0
0 0.268513 0.27834
0 0.263325 0.278889
0 0.256901 0.279118
0.23357 0.236103 0.276005
0.593881 0.206683 0.238758
0.872572 0.187884 0.191608
1 0.190341 0.116548
1 0.240909 0
1 0.327398 0
0 0.521798 0.237415
0 0.519005 0.235828
0 0.515404 0.233249
0 0.505089 0.227314
0.461006 0.477195 0.212345
0.797436 0.482063 0.116655
1 0.491356 0
1 0.52578 0
1 0.580392 0
0 0.795514 0.113359
0 0.79086 0.105943
0 0.785626 0.0958572
0 0.776532 0.0755474
0.076936 0.75697 0.0376898
0.643183 0.731777 0
0.921263 0.743954 0
1 0.763088 0
1 0.794766 0
0 0.994018 0
0 0.989456 0
0 0.984802 0
0 0.977234 0
0 0.962524 0
0.437263 0.941283 0
0.79144 0.922408 0
0.979385 0.931731 0
1 0.946838 0
0 1 0
0 1 0
0 1 0
0 1 0
0 1 0
0.231907 1 0
0.689906 1 0
0.907835 1 0
1 1 0
0 1 0
0 1 0
0 1 0
0 1 0
0 1 0
0.0911269 1 0
0.652644 1 0
0.875074 1 0
0.971557 1 0
0 0 0.569665
0 0 0.544106
0.164736 0 0.536461
0.400092 0 0.530144
0.699443 0 0.520424
0.952956 0 0.484733
1 0 0.392767
1 0 0.283833
1 0 0.141741
0 0 0.530709
0 0 0.52752
0.0956588 0 0.524742
0.364004 0 0.520684
0.675685 0 0.513985
0.936889 0 0.478248
1 0 0.389624
1 0 0.281666
1 0 0.134051
0 0 0.519829
0 0 0.519173
0 0 0.518029
0.324254 0 0.515877
0.65127 0 0.510903
0.918761 0 0.472724
1 0 0.385122
1 0 0.273899
1 0 0.11426
0 0.216434 0.508263
0 0.209491 0.508598
0 0.200275 0.508232
0.219028 0.170871 0.506966
0.597131 0.0655528 0.502831
0.881285 0 0.457008
1 0 0.365408
1 0 0.25008
1 0 0.181399
0 0.496406 0.48748
0 0.493172 0.487221
0 0.488701 0.486366
0 0.476509 0.483513
0.445884 0.444816 0.476661
0.793271 0.421073 0.428992
1 0.440406 0.381201
1 0.487617 0.320577
1 0.553719 0.236789
0 0.778271 0.438865
0 0.773541 0.435264
0 0.768215 0.4309
0 0.759243 0.424536
0 0.739437 0.414008
0.615534 0.709392 0.399695
0.907179 0.721263 0.3149
1 0.742107 0.217121
1 0.777325 0.05449
0 0.980224 0.361975
0 0.97583 0.355108
0 0.971374 0.347341
0 0.964492 0.336339
0 0.950362 0.318654
0.386343 0.929549 0.292912
0.772183 0.908263 0.250584
0.972534 0.919051 0.0606699
1 0.935912 0
0 1 0.243503
0 1 0.231724
0 1 0.219318
0 1 0.201968
0 1 0.174685
0.155413 1 0.13373
0.671473 1 0.0772259
0.899321 1 0
0.996246 1 0
0 1 0.0762341
0 1 0.057496
0 1 0.0401923
0 1 0.0167086
0 1 0
0.00408942 1 0
0.639445 1 0
0.868376 1 0
0.967926 1 0
0 0 0.841337
0 0 0.820737
0.0862593 0 0.815717
0.371832 0 0.812177
0.684016 0 0.80795
0.951675 0 0.800565
1 0 0.782559
1 0 0.705394
1 0 0.610178
0 0 0.811261
0 0 0.809323
0 0 0.809033
0.330373 0 0.80824
0.660136 0 0.8047
0.936919 0 0.799542
1 0 0.780896
1 0 0.706218
1 0 0.612528
0 0 0.807889
0 0 0.807813
0 0 0.808026
0.284916 0 0.807218
0.635172 0 0.80415
0.919173 0 0.799313
1 0 0.777188
1 0 0.70309
1 0 0.607065
0 0.0324407 0.802182
0 0.0155337 0.802747
0 0 0.802289
0.165866 0 0.800824
0.581949 0 0.796765
0.881132 0 0.790661
1 0 0.761471
1 0 0.684413
1 0 0.583841
0 0.436545 0.785977
0 0.43238 0.785031
0 0.4262 0.782712
0 0.411887 0.779202
0.428977 0.371221 0.773602
0.788235 0.300603 0.766262
1 0.257877 0.727413
1 0.22237 0.646113
1 0.205097 0.53138
0 0.742031 0.753429
0 0.737072 0.750011
0 0.731395 0.74609
0 0.721447 0.740963
0 0.700755 0.734585
0.593423 0.667674 0.725567
0.905455 0.646479 0.679683
1 0.677516 0.639185
1 0.725322 0.591165
0 0.951843 0.711299
0 0.947662 0.705547
0 0.943358 0.699474
0 0.936828 0.692485
0 0.922896 0.683101
0.317021 0.901442 0.672343
0.740459 0.876631 0.660319
0.95462 0.886427 0.598199
1 0.905379 0.53315
0 1 0.664637
0 1 0.657755
0 1 0.650843
0 1 0.642954
0 1 0.63212
0 1 0.618936
0.626368 1 0.603128
0.876265 0.994492 0.580209
0.982925 1 0.488838
0 1 0.603342
0 1 0.595865
0 1 0.588968
0 1 0.580682
0 1 0.569665
0 1 0.555856
0.60061 1 0.54197
0.848005 1 0.529747
0.954055 1 0.525292
0 0 1
0 0 1
0 0 1
0.347082 0 1
0.673961 0 1
0.943053 0 1
1 0 1
1 0 0.997192
1 0 0.964065
0 0 1
0 0 1
0 0 1
0.30248 0 1
0.6486 0 1
0.927199 0 1
1 0 1
1 0 0.996918
1 0 0.964767
0 0 1
0 0 1
0 0 1
0.24593 0 1
0.619913 0 1
0.908782 0 1
1 0 0.999222
1 0 0.994079
1 0 0.960952
0 0 1
0 0 1
0 0 1
0.0910964 0 1
0.56347 0 1
0.870024 0 0.997223
1 0 0.992187
1 0 0.983322
1 0 0.947021
0 0.367285 0.99353
0 0.361349 0.992844
0 0.351736 0.991455
0 0.330694 0.989334
0.408774 0.276143 0.985489
0.778561 0.174258 0.980255
1 0 0.974502
1 0 0.96083
1 0 0.921233
0 0.703548 0.968826
0 0.697765 0.966857
0 0.690547 0.964279
0 0.679591 0.961212
0 0.656458 0.956832
0.583841 0.617487 0.951385
0.896696 0.570367 0.945693
1 0.554452 0.926497
1 0.549554 0.884565
0 0.921706 0.939803
0 0.917205 0.936904
0 0.91252 0.933883
0 0.905394 0.930266
0 0.890913 0.925978
0.253941 0.868009 0.920745
0.720073 0.840742 0.91487
0.952834 0.82208 0.889754
1 0.846479 0.869459
0 1 0.915999
0 1 0.912612
0 1 0.90927
0 1 0.90573
0 1 0.90103
0 0.999649 0.895796
0.583947 0.9794 0.89044
0.84976 0.961395 0.885725
0.961791 0.9664 0.859297
0 1 0.896071
0 1 0.893294
0 1 0.890959
0 1 0.88867
0 1 0.885237
0 1 0.881224
0.534874 1 0.877089
0.815213 1 0.875257
0.931289 1 0.882536
0 0 1
0 0 1
0 0 1
0.346303 0 1
0.677989 0 1
0.946151 0 1
1 0 1
1 0 1
1 0 1
0 0 1
0 0 1
0 0 1
0.301778 0 1
0.65304 0 1
0.930449 0 1
1 0 1
1 0 1
1 0 1
0 0 1
0 0 1
0 0 1
0.244877 0 1
0.62414 0 1
0.909438 0 1
1 0 1
1 0 1
1 0 1
0 0 1
0 0 1
0 0 1
0.0730907 0 1
0.561105 0 1
0.867643 0 1
1 0 1
1 0 1
1 0 1
0 0.330968 1
0 0.321416 1
0 0.309163 1
0 0.282856 1
0.40296 0.216342 1
0.774624 0.0700542 1
1 0 1
1 0 1
1 0 1
0 0.685435 1
0 0.678614 1
0 0.670146 1
0 0.657588 1
0 0.63032 1
0.584039 0.587442 1
0.895369 0.536873 1
1 0.491402 1
1 0.478645 1
0 0.906996 1
0 0.902007 1
0 0.896406 1
0 0.88893 1
0 0.873487 1
0.230518 0.849165 1
0.720226 0.819028 1
0.946166 0.791318 1
1 0.786725 1
0 1 1
0 1 1
0 1 1
0 1 1
0 1 1
0 0.984054 1
0.564034 0.963073 1
0.840452 0.943908 1
0.959747 0.934401 0.996719
0 1 1
0 1 1
0 1 1
0 1 1
0 1 1
0 1 1
0.500465 1 0.998367
0.800565 1 0.99733
0.921355 0.998749 0.999237
0 0 1
0 0 1
0.00218204 0 1
0.365133 0 1
0.693278 0 1
0.956649 0 1
1 0 1
1 0 1
1 0 1
0 0 1
0 0 1
0 0 1
0.324285 0 1
0.669352 0 1
0.941451 0 1
1 0 1
1 0 1
1 0 1
0 0 1
0 0 1
0 0 1
0.269657 0 1
0.639719 0 1
0.920317 0 1
1 0 1
1 0 1
1 0 1
0 0 1
0 0 1
0 0 1
0.121401 0 1
0.578103 0 1
0.877134 0 1
1 0 1
1 0 1
1 0 1
0 0.323445 1
0 0.312871 1
0 0.300359 1
0 0.272984 1
0.416114 0.203632 1
0.780255 0.0444648 1
1 0 1
1 0 1
1 0 1
0 0.684413 1
0 0.67602 1
0 0.666575 1
0 0.652323 1
0 0.623667 1
0.592386 0.579904 1
0.898192 0.528908 1
1 0.482612 1
1 0.448661 1
0 0.906584 1
0 0.90132 1
0 0.895262 1
0 0.887663 1
0 0.871839 1
0.243748 0.845304 1
0.727871 0.814023 1
0.950317 0.786419 1
1 0.769589 1
0 1 1
0 1 1
0 1 1
0 1 1
0 1 1
0 0.982757 1
0.56582 0.961303 1
0.846204 0.941192 1
0.959838 0.930114 1
0 1 1
0 1 1
0 1 1
0 1 1
0 1 1
0 1 1
0.494148 1 1
0.801068 1 1
0.92462 0.999466 1
