site/assets/luts/freshluts--0000613-sea.cube
# LUTr-Schema-Version: 2
# LUTr-ID: freshluts--0000613-sea
# LUTr-Title: Sea
# LUTr-Collection: Fresh LUTs
# LUTr-Collection-ID: freshluts-community
# LUTr-Source: https://freshluts.com
# LUTr-Retrieved: 2026-07-27
# LUTr-Source-File: submissions-raw/freshluts/cubes/613__lut_1.sea-5499649_1920.cube
# LUTr-Source-Format: CUBE
# LUTr-Source-SHA256: befc175cbafdb727f8c4e361fe20f1aef9d2c2b74de09bd323dbada57103b698
# LUTr-License: CC0-1.0
# LUTr-License-URL: https://freshluts.com/termsandconditions
# LUTr-License-Basis: site-terms
# LUTr-Transform-Class: creative-look
# LUTr-Tags: creative, freshluts, community, cube, blue
# LUTr-Input-Color-Space:
# LUTr-Input-Gamut: unspecified
# LUTr-Input-Transfer: unspecified
# LUTr-Output-Color-Space: srgb
# LUTr-Output-Gamut: rec709
# LUTr-Output-Transfer: srgb
# LUTr-Color-Space-Confidence: camera-profile-input-required
# LUTr-Domain-Normalized: true
# LUTr-Shaper: none
# LUTr-Original-Grid: 33x33x33
# LUTr-Conversion-Grid: 33x33x33
# LUTr-Conversion-Interpolation: none
# LUTr-Conversion-Method: Metadata normalization; numeric LUT samples preserved
# LUTr-Conversion-Tool: LUTr scripts/convert-all-to-cube.mjs 2.0.0
# LUTr-Conversion-Date: 2026-07-28
# LUTr-Asset-URL: https://freshluts.com/luts/613
# LUTr-Author: Youssef
# LUTr-Author-URL: https://freshluts.com/users/52679
# LUTr-Attribution: Youssef via Fresh LUTs
# LUTr-Source-Labels: gamma=Other; color=Blue; key=Neutral; style=Colorful
# LUTr-Note: Preserve this metadata and the upstream license notices when redistributing.
TITLE "Sea"
LUT_3D_SIZE 9
DOMAIN_MIN 0 0 0
DOMAIN_MAX 1 1 1
0 0 0.0371405
0.190799 0 0.0206607
0.390723 0 0.00433356
0.586465 0 0
0.773159 0 0
0.949325 0 0
1 0 0
1 0 0
1 0 0
0 0.156176 0
0.138827 0.140856 0
0.339101 0.124865 0
0.535241 0.109926 0
0.722087 0.0977188 0
0.898222 0.0882887 0
1 0.0802777 0
1 0.0731212 0
1 0.0656291 0
0 0.319158 0
0.0858015 0.303914 0
0.285847 0.287709 0
0.48191 0.272679 0
0.66833 0.260044 0
0.843748 0.249897 0
1 0.241321 0
1 0.23331 0
1 0.224826 0
0 0.480339 0
0.0353552 0.464637 0
0.23476 0.447776 0
0.430076 0.431998 0
0.615564 0.418448 0
0.789822 0.407126 0
0.957198 0.397513 0
1 0.388205 0
1 0.378119 0
0 0.635767 0
0 0.618875 0
0.189334 0.601129 0
0.383413 0.584115 0
0.56759 0.569238 0
0.740429 0.556512 0
0.906325 0.545403 0
1 0.534646 0
1 0.52314 0
0 0.783597 0
0 0.76527 0
0.14873 0.74612 0
0.341344 0.727657 0
0.524102 0.71136 0
0.695659 0.697337 0
0.860365 0.685069 0
1 0.673259 0
1 0.660868 0
0 0.924025 0
0 0.904356 0
0.109758 0.88397 0
0.301274 0.864393 0
0.482795 0.84686 0
0.653696 0.832197 0
0.817655 0.81915 0
0.978668 0.806668 0
1 0.793759 0
0 1 0
0 1 0
0.0697948 1 0
0.260563 0.997299 0
0.441474 0.979156 0
0.611856 0.963973 0
0.775402 0.950515 0
0.935958 0.937575 0
1 0.924559 0
0 1 0
0 1 0
0.0274052 1 0
0.2177 1 0
0.398413 1 0
0.568612 1 0
0.732036 1 0
0.892515 1 0
1 1 0
0 0 0.244877
0.183871 0 0.229023
0.383581 0 0.212467
0.579675 0 0.197482
0.766415 0 0.185153
0.942596 0 0.175769
1 0 0.167956
1 0 0.161151
1 0 0.154147
0 0.149386 0.192508
0.132082 0.134112 0.177218
0.332189 0.117968 0.161074
0.528527 0.103212 0.146319
0.715343 0.0909743 0.134081
0.891386 0.0814374 0.124559
1 0.0734569 0.116579
1 0.0662394 0.109346
1 0.0586557 0.101778
0 0.312428 0.139452
0.079057 0.297169 0.124193
0.279026 0.280873 0.107912
0.475059 0.265827 0.0928511
0.661418 0.253132 0.0801709
0.836637 0.242771 0.06981
1 0.234226 0.061265
1 0.226093 0.0531167
1 0.217365 0.0443885
0 0.473457 0.0893263
0.028275 0.457542 0.0734112
0.227726 0.440742 0.056611
0.422934 0.424872 0.0407416
0.608301 0.41117 0.027039
0.782437 0.399741 0.01561
0.94966 0.389975 0.00584421
1 0.380514 0
1 0.37023 0
0 0.628565 0.045655
0 0.611505 0.0286107
0.181918 0.593698 0.0107881
0.375845 0.576547 0
0.559686 0.561334 0
0.732525 0.548608 0
0.898283 0.537362 0
1 0.526482 0
1 0.5149 0
0 0.775952 0.00743114
0 0.757488 0
0.140795 0.738186 0
0.333257 0.71957 0
0.515663 0.702922 0
0.687343 0.689036 0
0.851987 0.676677 0
1 0.664591 0
1 0.652323 0
0 0.915694 0
0 0.896117 0
0.101427 0.875624 0
0.292836 0.855955 0
0.474281 0.838361 0
0.645136 0.823621 0
0.809033 0.810529 0
0.969802 0.797803 0
1 0.785046 0
0 1 0
0 1 0
0.0611887 1 0
0.251896 0.988632 0
0.432776 0.970474 0
0.603128 0.955245 0
0.766644 0.941772 0
0.927123 0.92874 0
1 0.915785 0
0 1 0
0 1 0
0.018677 1 0
0.208804 1 0
0.389654 1 0
0.559838 1 0
0.723201 1 0
0.883772 1 0
1 1 0
0 0 0.453513
0.176974 0 0.43772
0.376745 0 0.421241
0.572869 0 0.406287
0.75964 0 0.394003
0.935576 0 0.384375
1 0 0.376822
1 0 0.369985
1 0 0.362966
0 0.142611 0.401343
0.125322 0.127352 0.386084
0.325444 0.111208 0.36994
0.521767 0.0964523 0.355184
0.708568 0.0841993 0.342931
0.884352 0.074403 0.333135
1 0.0665904 0.325322
1 0.0592966 0.318029
1 0.0513771 0.310109
0 0.305669 0.348318
0.0719921 0.290105 0.332738
0.27219 0.274052 0.316701
0.468162 0.25893 0.301579
0.654444 0.246159 0.288808
0.829572 0.235721 0.27837
0.997925 0.22707 0.269718
1 0.218814 0.261463
1 0.209796 0.252445
0 0.46656 0.298039
0.0211337 0.450401 0.281895
0.220615 0.433631 0.26511
0.415717 0.417655 0.249134
0.6009 0.403784 0.235264
0.77499 0.392294 0.223789
0.942061 0.382376 0.21387
1 0.372747 0.204227
1 0.362295 0.193774
0 0.621302 0.254002
0 0.60412 0.236835
0.17438 0.586175 0.218891
0.368185 0.568902 0.201602
0.551797 0.553445 0.18616
0.724575 0.540642 0.173358
0.890181 0.529259 0.161975
1 0.518135 0.150851
1 0.506569 0.139284
0 0.768063 0.215167
0 0.749615 0.196719
0.132784 0.73019 0.177279
0.325078 0.711391 0.158495
0.507408 0.694667 0.141772
0.678981 0.680659 0.127764
0.843519 0.668223 0.115328
1 0.656031 0.103136
1 0.643732 0.090837
0 0.907485 0.177783
0 0.887846 0.158129
0.0930343 0.867247 0.13753
0.284169 0.847288 0.117586
0.465721 0.829786 0.100084
0.636515 0.815 0.0852979
0.800366 0.801862 0.0721599
0.961089 0.78909 0.0593881
1 0.776303 0.0465858
0 1 0.138933
0 1 0.118395
0.0525521 1 0.0970474
0.242985 0.979736 0.0764019
0.424048 0.961746 0.0584115
0.594369 0.946487 0.0431678
0.757641 0.932769 0.0294347
0.918334 0.919951 0.0166171
1 0.906996 0.00366217
0 1 0.0972152
0 1 0.076173
0.0099031 1 0.0543984
0.200015 1 0.0334325
0.38085 1 0.0152132
0.551034 1 0
0.71426 1 0
0.874998 1 0
1 1 0
0 0 0.656275
0.170489 0 0.640497
0.370413 0 0.62417
0.566583 0 0.609262
0.753384 0 0.596994
0.92932 0 0.587366
1 0 0.579828
1 0 0.572976
1 0 0.565667
0 0.136339 0.604318
0.118822 0.120851 0.58883
0.319188 0.104967 0.572946
0.515511 0.0901961 0.55819
0.702144 0.0777752 0.545754
0.878019 0.0680858 0.536065
1 0.0601816 0.528176
1 0.0528267 0.520806
1 0.0448157 0.51281
0 0.299397 0.551293
0.0656748 0.283803 0.535698
0.265843 0.267704 0.5196
0.461753 0.252522 0.504417
0.647669 0.239384 0.491279
0.822965 0.229114 0.48101
0.991211 0.220356 0.472267
1 0.211994 0.463905
1 0.202853 0.454765
0 0.460105 0.500847
0.0146181 0.443885 0.484627
0.213993 0.427008 0.46775
0.408972 0.410895 0.451637
0.593851 0.396719 0.437461
0.767971 0.385275 0.426017
0.93492 0.375235 0.415976
1 0.365194 0.405936
1 0.354833 0.395575
0 0.614267 0.45623
0 0.597208 0.43917
0.167315 0.579095 0.421057
0.360952 0.561669 0.403632
0.544427 0.546075 0.388037
0.717067 0.53315 0.375113
0.882551 0.52163 0.363607
1 0.510262 0.352239
1 0.498711 0.340673
0 0.760693 0.417044
0 0.742184 0.398535
0.125216 0.722606 0.378973
0.317342 0.703655 0.360006
0.499626 0.686885 0.343236
0.671092 0.672786 0.329137
0.835523 0.660212 0.316564
0.99678 0.647974 0.304326
1 0.635615 0.291981
0 0.899748 0.379294
0 0.880003 0.359548
0.0851148 0.859327 0.338872
0.276112 0.839246 0.318791
0.457649 0.821714 0.301274
0.628367 0.806867 0.286412
0.79202 0.793515 0.27306
0.95285 0.78085 0.26041
1 0.768032 0.247593
0 1 0.340154
0 1 0.319554
0.0443122 0.992142 0.29807
0.234775 0.971527 0.277455
0.415808 0.95349 0.259419
0.586099 0.938216 0.244144
0.74934 0.924468 0.230396
0.910033 0.91165 0.217578
1 0.898695 0.204623
0 1 0.298253
0 1 0.27718
0.00141909 1 0.255177
0.19173 1 0.234394
0.372549 1 0.216159
0.542733 1 0.200778
0.705974 1 0.187015
0.866728 1 0.174273
1 1 0.161486
0 0 0.846784
0.164965 0 0.830884
0.365148 0 0.814801
0.561364 0 0.799939
0.748119 0 0.78764
0.924117 0 0.778058
1 0 0.770504
1 0 0.763638
1 0 0.756237
0 0.131121 0.794995
0.113588 0.115618 0.779492
0.313985 0.0997635 0.763638
0.510292 0.0849775 0.748867
0.696818 0.0724498 0.736339
0.872724 0.0627909 0.726665
1 0.0548257 0.718715
1 0.0472725 0.711162
1 0.0392615 0.703151
0 0.294041 0.741848
0.0604105 0.278523 0.726314
0.260517 0.262379 0.71017
0.456352 0.247135 0.694926
0.642191 0.233906 0.681712
0.817395 0.223545 0.671336
0.985504 0.214649 0.662455
1 0.205921 0.653712
1 0.196887 0.644694
0 0.454398 0.691035
0.00909438 0.438361 0.674998
0.208377 0.421393 0.65803
0.403082 0.405005 0.641657
0.587976 0.39086 0.627497
0.761944 0.379263 0.6159
0.92874 0.369055 0.605692
1 0.358877 0.595529
1 0.348394 0.585031
0 0.608484 0.646342
0 0.591302 0.629175
0.161257 0.573053 0.61091
0.354482 0.555184 0.593057
0.538033 0.539681 0.577554
0.710552 0.526619 0.564492
0.875914 0.515007 0.55288
1 0.503532 0.541405
1 0.491875 0.529747
0 0.754437 0.606699
0 0.735759 0.588022
0.118654 0.716045 0.568307
0.310521 0.696834 0.549096
0.492836 0.680095 0.532357
0.664225 0.665919 0.518181
0.828367 0.653056 0.505318
0.989761 0.64094 0.493202
1 0.628519 0.480781
0 0.89305 0.56849
0 0.873182 0.548623
0.0781872 0.852399 0.52784
0.269139 0.832258 0.507698
0.450599 0.814679 0.49012
0.621256 0.799756 0.475212
0.784787 0.786282 0.461738
0.945663 0.773663 0.449104
1 0.760815 0.436271
0 1 0.52903
0 1 0.508385
0.0371252 0.984955 0.486778
0.227619 0.96437 0.466194
0.408591 0.946288 0.448112
0.57882 0.930938 0.432761
0.742107 0.917235 0.419059
0.902785 0.904402 0.406226
1 0.891447 0.393271
0 1 0.486961
0 1 0.465858
0 1 0.443809
0.184482 1 0.423041
0.365301 1 0.404807
0.535317 1 0.389258
0.698741 1 0.375692
0.859525 1 0.362966
1 1 0.350118
0 0 1
0.160647 0 1
0.360861 0 0.993988
0.557107 0 0.979156
0.743664 0 0.966659
0.91989 0 0.957305
1 0 0.949737
1 0 0.942809
1 0 0.935393
0 0.126833 0.974197
0.109346 0.111376 0.95874
0.309758 0.0955367 0.942901
0.506035 0.0807202 0.928084
0.692439 0.0680705 0.915434
0.868376 0.0584268 0.905791
1 0.0504005 0.89778
1 0.0426032 0.889967
1 0.0346685 0.882033
0 0.289631 0.920897
0.0560922 0.27422 0.905486
0.256138 0.258 0.889281
0.451804 0.242588 0.873854
0.637644 0.229374 0.860655
0.812757 0.218906 0.850187
0.980758 0.209903 0.841184
1 0.201007 0.832288
1 0.191852 0.823133
0 0.449928 0.870039
0.00450141 0.433783 0.853895
0.203677 0.416693 0.83682
0.398199 0.400137 0.820264
0.583047 0.385931 0.806058
0.756878 0.374197 0.794308
0.923354 0.363684 0.783795
1 0.353475 0.773587
1 0.342855 0.762966
0 0.603616 0.824948
0 0.586297 0.807645
0.15613 0.56791 0.789258
0.349203 0.54992 0.771252
0.532601 0.534249 0.755596
0.704967 0.521035 0.742382
0.869963 0.509056 0.730404
1 0.497734 0.719081
1 0.485985 0.707332
0 0.749081 0.784817
0 0.730282 0.766018
0.112856 0.710262 0.745998
0.304784 0.691096 0.726833
0.486992 0.67425 0.709987
0.658289 0.659983 0.69572
0.822354 0.647044 0.68278
0.983688 0.634882 0.670619
1 0.6224 0.658137
0 0.887282 0.746197
0 0.867323 0.726238
0.0720073 0.84622 0.705135
0.263096 0.826215 0.685145
0.444495 0.808576 0.667491
0.615106 0.793606 0.652537
0.778592 0.780087 0.639017
0.939437 0.767437 0.626352
1 0.754559 0.613489
0 1 0.706462
0 1 0.68574
0.030869 0.978698 0.663996
0.221408 0.95816 0.643458
0.402365 0.940047 0.625345
0.572381 0.924498 0.609812
0.735821 0.910948 0.596262
0.896498 0.898131 0.583429
1 0.885145 0.570459
0 1 0.66421
0 1 0.643046
0 1 0.621027
0.17821 1 0.600259
0.359014 1 0.58201
0.529 1 0.56643
0.6925 1 0.552926
0.853315 1 0.54023
1 1 0.527367
0 0 1
0.156939 0 1
0.357198 0 1
0.553475 0 1
0.740047 0 1
0.916259 0 1
1 0 1
1 0 1
1 0 1
0 0.122972 1
0.10573 0.107759 1
0.306127 0.0919051 1
0.502098 0.0767834 1
0.688746 0.0643778 1
0.864607 0.0546578 1
1 0.0465553 1
1 0.0386816 1
1 0.0306401 1
0 0.285954 1
0.0523842 0.270497 1
0.252354 0.254215 1
0.447745 0.238529 1
0.633677 0.225391 1
0.808667 0.214817 1
0.976501 0.205661 1
1 0.196704 1
1 0.187381 0.9944
0 0.446036 1
0.000503548 0.429786 1
0.199557 0.412573 1
0.393912 0.39585 0.991699
0.578668 0.381537 0.977386
0.752361 0.369665 0.965515
0.918563 0.358892 0.954742
1 0.348638 0.944503
1 0.337865 0.93373
0 0.599329 0.996414
0 0.581857 0.978927
0.1514 0.563195 0.960281
0.344457 0.545174 0.942245
0.527718 0.529381 0.926452
0.699947 0.51603 0.9131
0.864836 0.503929 0.901015
1 0.492485 0.88957
1 0.480644 0.877729
0 0.744274 0.955734
0 0.725338 0.936797
0.107744 0.70515 0.916609
0.299641 0.685954 0.897429
0.481727 0.668986 0.880461
0.652796 0.654475 0.86595
0.816922 0.641611 0.853086
0.978195 0.629389 0.840864
1 0.616861 0.828336
0 0.882078 0.916732
0 0.862028 0.896681
0.0666361 0.840848 0.875502
0.257649 0.820768 0.855436
0.438987 0.803052 0.83772
0.609323 0.787823 0.822477
0.772992 0.774487 0.809155
0.933806 0.761807 0.79646
1 0.74873 0.783383
0 1 0.876722
0 0.99472 0.855756
0.0252842 0.973129 0.834165
0.215793 0.952544 0.813581
0.396719 0.934401 0.795453
0.56672 0.918853 0.779889
0.730159 0.905287 0.766323
0.890837 0.892454 0.753491
1 0.879286 0.740337
0 1 0.834333
0 1 0.812955
0 1 0.791104
0.172534 1 0.770321
0.353338 1 0.752071
0.523339 1 0.736507
0.686854 1 0.723018
0.847715 1 0.710369
1 1 0.697475
0 0 1
0.153445 0 1
0.353735 0 1
0.549828 0 1
0.736599 0 1
0.91281 0 1
1 0 1
1 0 1
1 0 1
0 0.119524 1
0.102296 0.104326 1
0.302663 0.0884413 1
0.498604 0.0732891 1
0.685206 0.0608377 1
0.861006 0.0510719 1
1 0.0426184 1
1 0.0348821 1
1 0.0267338 1
0 0.282429 1
0.0488136 0.266926 1
0.248722 0.250584 1
0.444038 0.234821 1
0.629862 0.221576 1
0.80473 0.21088 1
0.972213 0.201373 1
1 0.192493 1
1 0.183047 1
0 0.442267 1
0 0.425925 1
0.195331 0.408347 1
0.389807 0.391745 1
0.574395 0.377279 1
0.747936 0.36524 1
0.914015 0.35433 1
1 0.343954 1
1 0.333059 1
0 0.595178 1
0 0.577569 1
0.146807 0.558602 1
0.339834 0.540536 1
0.522957 0.52462 1
0.695018 0.511101 1
0.859876 0.498955 1
1 0.487419 1
1 0.475486 1
0 0.73962 1
0 0.720531 1
0.102815 0.700221 1
0.294606 0.680919 1
0.476631 0.66389 1
0.647517 0.64921 1
0.811658 0.636362 1
0.972869 0.624048 1
1 0.611353 0.996277
0 0.877012 1
0 0.856733 1
0.0614176 0.835615 1
0.252354 0.815488 1
0.4336 0.797665 1
0.603922 0.782422 0.990524
0.767544 0.769055 0.977157
0.928344 0.756344 0.964446
1 0.743206 0.951308
0 1 1
0 0.989319 1
0.0198825 0.967712 1
0.210346 0.947097 0.981582
0.391073 0.928771 0.963256
0.561242 0.913359 0.947845
0.724666 0.899794 0.934279
0.885344 0.886976 0.921462
1 0.873808 0.908293
0 1 1
0 1 0.980911
0 1 0.95906
0.167041 1 0.938277
0.347646 1 0.919814
0.517876 1 0.904479
0.681407 1 0.89102
0.842084 1 0.878187
1 1 0.865553
0 0 1
0.149905 0 1
0.35024 0 1
0.546273 0 1
0.733135 0 1
0.909316 0 1
1 0 1
1 0 1
1 0 1
0 0.11606 1
0.0988174 0.100847 1
0.299092 0.0848554 1
0.495064 0.069749 1
0.681605 0.0572366 1
0.857328 0.0473945 1
1 0.0388647 1
1 0.0310369 1
1 0.0227665 1
0 0.278889 1
0.045182 0.26331 1
0.244785 0.246647 1
0.440253 0.231022 1
0.625986 0.2177 1
0.80061 0.20676 1
0.968078 0.197238 1
1 0.18819 1
1 0.178592 1
0 0.438437 1
0 0.421988 1
0.191272 0.404288 1
0.385626 0.387564 1
0.570077 0.372961 1
0.743191 0.360494 1
0.909346 0.34966 1
1 0.339162 1
1 0.328161 1
0 0.590921 1
0 0.573175 1
0.142275 0.55407 1
0.335149 0.535851 1
0.518135 0.519783 1
0.689891 0.505974 1
0.85481 0.493904 1
1 0.482277 1
1 0.470024 1
0 0.734874 1
0 0.715434 1
0.0978408 0.695232 1
0.289509 0.675822 1
0.471443 0.658701 1
0.642267 0.643961 1
0.806348 0.631037 1
0.967498 0.618677 1
1 0.605814 1
0 0.8719 1
0 0.851423 1
0.0561227 0.830335 1
0.247013 0.810132 1
0.428153 0.792218 1
0.598489 0.776989 1
0.762081 0.763577 1
0.92282 0.75082 1
1 0.737682 1
0 1 1
0 0.983902 1
0.0144198 0.962264 1
0.204852 0.941604 1
0.385519 0.923201 1
0.555718 0.907835 1
0.719142 0.89427 1
0.879683 0.881315 1
1 0.868315 1
0 1 1
0 1 1
0 1 1
0.16144 1 1
0.342138 1 1
0.512383 1 1
0.675959 1 1
0.836637 1 1
0.998154 0.999802 1
