site/assets/luts/freshluts--0000775-glut013.cube
# LUTr-Schema-Version: 2
# LUTr-ID: freshluts--0000775-glut013
# LUTr-Title: gLut013
# LUTr-Collection: Fresh LUTs
# LUTr-Collection-ID: freshluts-community
# LUTr-Source: https://freshluts.com
# LUTr-Retrieved: 2026-07-27
# LUTr-Source-File: submissions-raw/freshluts/cubes/775__Untitled_1.MVI_0401.cube
# LUTr-Source-Format: CUBE
# LUTr-Source-SHA256: 13a2b0c4e45c3f51cc944700b4110db9efce8207509b895f4e06a2296741f586
# LUTr-License: CC0-1.0
# LUTr-License-URL: https://freshluts.com/termsandconditions
# LUTr-License-Basis: site-terms
# LUTr-Transform-Class: creative-look
# LUTr-Tags: creative, freshluts, community, cube, warm, low-key, canon-cinestyle
# LUTr-Input-Color-Space:
# LUTr-Input-Gamut: rec709
# LUTr-Input-Transfer: canon-cinestyle
# LUTr-Output-Color-Space: srgb
# LUTr-Output-Gamut: rec709
# LUTr-Output-Transfer: srgb
# LUTr-Color-Space-Confidence: camera-profile-input-required
# LUTr-Domain-Normalized: true
# LUTr-Shaper: none
# LUTr-Original-Grid: 33x33x33
# LUTr-Conversion-Grid: 33x33x33
# LUTr-Conversion-Interpolation: none
# LUTr-Conversion-Method: Metadata normalization; numeric LUT samples preserved
# LUTr-Conversion-Tool: LUTr scripts/convert-all-to-cube.mjs 2.0.0
# LUTr-Conversion-Date: 2026-07-28
# LUTr-Asset-URL: https://freshluts.com/luts/775
# LUTr-Author: directorgodfrey_M
# LUTr-Author-URL: https://freshluts.com/users/1455
# LUTr-Attribution: directorgodfrey_M via Fresh LUTs
# LUTr-Source-Labels: gamma=Canon Cinestyle; color=Warm; key=Low Key; style=Cinematic light
# LUTr-Note: Preserve this metadata and the upstream license notices when redistributing.
TITLE "gLut013"
LUT_3D_SIZE 33
DOMAIN_MIN 0 0 0
DOMAIN_MAX 1 1 1
0 0.00270085 0.027039
0 0 0.0240177
0.0321355 0 0.0209506
0.0907301 0 0.0157168
0.155169 0 0.00895705
0.220188 0 0.00207523
0.282185 0 0
0.341985 0 0
0.39823 0 0
0.451484 0 0
0.509926 0 0
0.574182 0 0
0.6486 0 0
0.72401 0 0
0.797345 0 0
0.868696 0 0
0.937301 0 0
1 0 0
1 0 0
1 0 0
1 0 0
1 0 0
1 0 0
1 0 0
1 0 0
1 0 0
1 0 0
1 0 0
1 0 0
1 0 0
1 0 0
1 0 0
1 0 0.000610361
0 0.0345159 0.0193637
0 0.0318456 0.0168002
0.0213931 0.0289769 0.0140383
0.0754559 0.0244755 0.0112154
0.133562 0.0192721 0.00643931
0.194095 0.0136263 0.0010071
0.254322 0.00833143 0
0.314244 0.00375372 0
0.371801 0 0
0.426078 0 0
0.48481 0 0
0.549355 0 0
0.623941 0 0
0.700633 0 0
0.774746 0 0
0.846464 0 0
0.91545 0 0
0.981476 0 0
1 0 0
1 0 0
1 0 0
1 0 0
1 0 0
1 0 0
1 0 0
1 0 0
1 0 0
1 0 0
1 0.00453193 0
1 0.00943008 0
1 0.014786 0.0016022
1 0.0203403 0.00691234
1 0.0259709 0.0122988
0 0.068452 0.0110323
0 0.0659953 0.00866712
0.0090486 0.0631266 0.00590524
0.0683146 0.0582437 0.00123598
0.133577 0.0528115 0
0.192737 0.0495308 0
0.251865 0.0467231 0
0.310369 0.0433204 0
0.366842 0.0398718 0
0.419974 0.0365606 0
0.47715 0.0335393 0
0.540322 0.0307927 0
0.61384 0.0287175 0
0.688823 0.0265965 0
0.761837 0.0248264 0
0.832685 0.0234836 0
0.900908 0.0230869 0
0.966369 0.0227817 0
1 0.0233158 0
1 0.0241245 0
1 0.0254215 0
1 0.0272831 0
1 0.0295567 0
1 0.0324102 0
1 0.0357366 0
1 0.0394598 0
1 0.043534 0
1 0.0479438 0
1 0.0527199 0.00180056
1 0.0579385 0.00679026
1 0.0631571 0.0117647
1 0.068574 0.0169223
1 0.0742504 0.0223239
0 0.107164 0
0 0.106218 0
0 0.105165 0
0.052842 0.101686 0
0.119905 0.0969558 0
0.188983 0.0925002 0
0.254948 0.0883955 0
0.31313 0.0857099 0
0.367987 0.0834058 0
0.419501 0.0807965 0
0.474098 0.0785077 0
0.535134 0.0762036 0
0.605051 0.0741741 0
0.678859 0.0724804 0
0.750515 0.0711376 0
0.82005 0.0702068 0
0.887526 0.0701152 0
0.951736 0.0701762 0
1 0.0707561 0
1 0.0718547 0
1 0.0734569 0
1 0.0755779 0
1 0.078584 0
1 0.081651 0
1 0.0851453 0
1 0.0890211 0
1 0.0932479 0
1 0.0978408 0
1 0.102937 0.00437934
1 0.107988 0.00917067
1 0.113268 0.0141909
1 0.118746 0.0194095
1 0.124453 0.0248417
0 0.15288 0
0 0.152636 0
0 0.152148 0
0.0347601 0.149569 0
0.102739 0.145647 0
0.171847 0.141283 0
0.24097 0.136873 0
0.308019 0.132418 0
0.370672 0.12842 0
0.424949 0.125505 0
0.476341 0.123125 0
0.533623 0.121248 0
0.597955 0.119722 0
0.670054 0.118547 0
0.740307 0.117601 0
0.809247 0.117296 0
0.875517 0.117113 0
0.939101 0.117388 0
0.999939 0.118166 0
1 0.119463 0
1 0.121218 0
1 0.123873 0
1 0.126696 0
1 0.129931 0
1 0.133593 0
1 0.137606 0
1 0.142321 0
1 0.14696 0
1 0.151858 0.000106813
1 0.157 0.00503548
1 0.162371 0.0101778
1 0.167941 0.0155184
1 0.174029 0.0213321
0 0.201236 0
0 0.201572 0
0 0.201587 0
0.016968 0.19913 0
0.0848707 0.195117 0
0.154055 0.190845 0
0.223621 0.186496 0
0.29131 0.182086 0
0.357443 0.178012 0
0.418647 0.173617 0
0.475242 0.16965 0
0.536065 0.166506 0
0.598917 0.164431 0
0.668711 0.163714 0
0.736736 0.163378 0
0.803128 0.163226 0
0.867826 0.163378 0
0.930175 0.163943 0
0.990021 0.164965 0
1 0.166766 0
1 0.168795 0
1 0.171206 0
1 0.174121 0
1 0.177447 0
1 0.18117 0
1 0.185611 0
1 0.190005 0
1 0.194675 0
1 0.199573 0
1 0.2047 0
1 0.210071 0.00297551
1 0.215976 0.00865187
1 0.221714 0.0141604
0 0.250828 0
0 0.25153 0
0 0.251453 0
0 0.248875 0
0.0669718 0.244907 0
0.136233 0.240681 0
0.206104 0.23653 0
0.274769 0.23241 0
0.341115 0.228016 0
0.403845 0.223636 0
0.462455 0.219348 0
0.525948 0.215244 0
0.593454 0.211902 0
0.66717 0.209583 0
0.737377 0.208377 0
0.803479 0.208118 0
0.86659 0.208515 0
0.927199 0.2094 0
0.985794 0.211017 0
1 0.212894 0
1 0.21503 0
1 0.217624 0
1 0.220691 0
1 0.22414 0
1 0.228305 0
1 0.232425 0
1 0.236851 0
1 0.241566 0
1 0.246494 0
1 0.251942 0
1 0.257298 0
1 0.262776 0
1 0.268482 0.00514229
0 0.301106 0
0 0.301564 0
0 0.301549 0
0 0.299031 0
0.0489662 0.295125 0
0.118395 0.291035 0
0.188342 0.287037 0
0.257542 0.282734 0
0.324498 0.278386 0
0.38883 0.274037 0
0.447974 0.269764 0
0.509514 0.266011 0
0.577203 0.262074 0
0.652888 0.258549 0
0.729366 0.25594 0
0.800534 0.254398 0
0.866697 0.254108 0
0.928481 0.25481 0
0.986374 0.256062 0
1 0.257939 0
1 0.260273 0
1 0.263035 0
1 0.266484 0
1 0.270191 0
1 0.274128 0
1 0.27834 0
1 0.282795 0
1 0.28751 0
1 0.292744 0
1 0.297963 0
1 0.303288 0
1 0.308721 0
1 0.314336 0
0 0.3514 0
0 0.351919 0
0 0.351949 0
0 0.349462 0
0.031342 0.345953 0
0.100694 0.341802 0
0.170336 0.337591 0
0.240131 0.333303 0
0.307637 0.328969 0
0.373068 0.324697 0
0.433326 0.320745 0
0.492546 0.316625 0
0.558999 0.312703 0
0.63154 0.309087 0
0.71104 0.305913 0
0.78677 0.303548 0
0.85774 0.30222 0
0.923415 0.301656 0
0.984421 0.302022 0
1 0.303288 0
1 0.305272 0
1 0.308095 0
1 0.311391 0
1 0.314946 0
1 0.318868 0
1 0.323125 0
1 0.327657 0
1 0.332753 0
1 0.337667 0
1 0.342779 0
1 0.348074 0
1 0.353506 0
1 0.359304 0
0 0.401968 0
0 0.402548 0
0 0.402609 0
0 0.400504 0
0.0134432 0.396643 0
0.082826 0.392508 0
0.152499 0.388296 0
0.222644 0.384009 0
0.290776 0.379721 0
0.357 0.375692 0
0.418204 0.371435 0
0.476204 0.3673 0
0.541283 0.363348 0
0.611032 0.359701 0
0.689815 0.356863 0
0.766262 0.354147 0
0.839643 0.35198 0
0.908797 0.350607 0
0.973281 0.350118 0
1 0.350591 0
1 0.35198 0
1 0.353902 0
1 0.356512 0
1 0.359686 0
1 0.363302 0
1 0.367468 0
1 0.371984 0
1 0.376623 0
1 0.381445 0
1 0.386435 0
1 0.391577 0
1 0.397101 0
1 0.402716 0
0 0.45272 0
0 0.45362 0
0 0.453773 0
0 0.451316 0
0 0.447471 0
0.0652934 0.44332 0
0.134951 0.439109 0
0.205554 0.435157 0
0.274296 0.430808 0
0.340719 0.426444 0
0.403265 0.422141 0
0.461372 0.41796 0
0.524071 0.413931 0
0.592081 0.41059 0
0.668177 0.40734 0
0.744564 0.404547 0
0.817914 0.402289 0
0.888029 0.400595 0
0.954787 0.399634 0
1 0.399649 0
1 0.400107 0
1 0.401266 0
1 0.403143 0
1 0.405615 0
1 0.408774 0
1 0.412467 0
1 0.416312 0
1 0.420478 0
1 0.424964 0
1 0.429679 0
1 0.434897 0
1 0.439887 0
1 0.445075 0
0 0.503487 0
0 0.504158 0
0 0.50425 0
0 0.501839 0
0 0.498009 0
0.0482795 0.493889 0
0.118303 0.490028 0
0.188418 0.485725 0
0.257801 0.481346 0
0.324666 0.476936 0
0.388693 0.472587 0
0.447257 0.46836 0
0.507836 0.464622 0
0.573754 0.460822 0
0.646479 0.45745 0
0.723125 0.454566 0
0.796384 0.452232 0
0.866819 0.450797 0
0.93341 0.449592 0
0.996582 0.448997 0
1 0.448981 0
1 0.449638 0
1 0.45095 0
1 0.453101 0
1 0.455482 0
1 0.458366 0
1 0.461646 0
1 0.465232 0
1 0.469154 0
1 0.473548 0
1 0.477989 0
1 0.482567 0
1 0.487297 0
0 0.553216 0
0 0.55378 0
0 0.553872 0
0 0.551446 0
0 0.54786 0
0.0322118 0.543862 0
0.101808 0.539651 0
0.171771 0.535348 0
0.241642 0.530953 0
0.308949 0.526528 0
0.374121 0.522438 0
0.433356 0.518227 0
0.491646 0.514107 0
0.556359 0.510277 0
0.625666 0.506828 0
0.701976 0.503822 0
0.775494 0.501701 0
0.845319 0.499809 0
0.911727 0.498497 0
0.97467 0.497734 0
1 0.497505 0
1 0.497856 0
1 0.499107 0
1 0.500481 0
1 0.502312 0
1 0.504585 0
1 0.507271 0
1 0.510399 0
1 0.513939 0
1 0.517464 0
1 0.521218 0
1 0.525216 0
1 0.529427 0
0 0.601984 0
0 0.602518 0
0 0.602548 0
0 0.600305 0
0 0.596628 0
0.016846 0.592462 0
0.0863203 0.58819 0
0.156176 0.58381 0
0.226261 0.57937 0
0.294255 0.575158 0
0.359579 0.570794 0
0.41973 0.566415 0
0.476768 0.562173 0
0.540139 0.558251 0
0.607019 0.554726 0
0.682231 0.551949 0
0.755001 0.54931 0
0.824521 0.547219 0
0.8907 0.545754 0
0.953445 0.544854 0
1 0.544747 0
1 0.544854 0
1 0.545495 0
1 0.546624 0
1 0.54815 0
1 0.549996 0
1 0.552468 0
1 0.554986 0
1 0.557794 0
1 0.560861 0
1 0.56408 0
1 0.567483 0
1 0.571374 0
0 0.64921 0
0 0.649699 0
0 0.649989 0
0 0.647486 0
0 0.643595 0
0.00289921 0.639414 0
0.0723125 0.635126 0
0.142214 0.630869 0
0.212451 0.626535 0
0.280507 0.622003 0
0.346059 0.617533 0
0.407218 0.613138 0
0.464134 0.60882 0
0.525628 0.604959 0
0.590723 0.601389 0
0.663233 0.598138 0
0.735882 0.595376 0
0.805097 0.593088 0
0.870909 0.591348 0
0.933684 0.590494 0
0.993011 0.589944 0
1 0.589853 0
1 0.590219 0
1 0.591012 0
1 0.592264 0
1 0.594186 0
1 0.596078 0
1 0.598184 0
1 0.600488 0
1 0.603067 0
1 0.60589 0
1 0.609094 0
1 0.612161 0
0 0.695674 0
0 0.69633 0
0 0.696208 0
0 0.693614 0
0 0.689601 0
0 0.685267 0
0.0598306 0.68098 0
0.129656 0.676646 0
0.199527 0.672007 0
0.267903 0.667277 0
0.333608 0.662562 0
0.395697 0.657984 0
0.453101 0.653696 0
0.512383 0.649607 0
0.575799 0.645701 0
0.645289 0.642237 0
0.717968 0.639277 0
0.786938 0.636866 0
0.852888 0.635264 0
0.9149 0.633844 0
0.973709 0.632944 0
1 0.632609 0
1 0.632792 0
1 0.633539 0
1 0.634501 0
1 0.635752 0
1 0.637354 0
1 0.6392 0
1 0.641215 0
1 0.643641 0
1 0.646052 0
1 0.648646 0
1 0.651392 0
0 0.741299 0
0 0.741543 0
0 0.741268 0
0 0.738552 0
0 0.734432 0
0 0.730282 0
0.0490578 0.725658 0
0.11841 0.720928 0
0.188022 0.716121 0
0.256703 0.711254 0
0.322667 0.706447 0
0.38584 0.701839 0
0.443 0.697108 0
0.500343 0.692683 0
0.562646 0.688609 0
0.629389 0.684901 0
0.701823 0.681788 0
0.770611 0.67924 0
0.835813 0.677104 0
0.89752 0.675486 0
0.955947 0.674311 0
1 0.673609 0
1 0.67364 0
1 0.674052 0
1 0.674708 0
1 0.675639 0
1 0.67686 0
1 0.678401 0
1 0.6804 0
1 0.682368 0
1 0.684428 0
1 0.686625 0
1 0.689067 0
0 0.785382 0
0 0.785519 0
0 0.785092 0
0 0.782162 0
0 0.77818 0
0 0.773556 0
0.039765 0.76878 0
0.108873 0.763821 0
0.178119 0.758755 0
0.246952 0.753719 0
0.313191 0.748898 0
0.37641 0.743862 0
0.433814 0.738872 0
0.489662 0.734127 0
0.55108 0.729793 0
0.615991 0.726009 0
0.687434 0.722698 0
0.75555 0.719661 0
0.820249 0.717174 0
0.881559 0.715267 0
0.939666 0.713863 0
0.994797 0.713207 0
1 0.712703 0
1 0.712627 0
1 0.713008 0
1 0.713726 0
1 0.714824 0
1 0.716106 0
1 0.71751 0
1 0.719158 0
1 0.720989 0
1 0.722911 0
1 0.725139 0
0 0.828077 0
0 0.828046 0
0 0.827482 0
0 0.824704 0
0 0.820142 0
0 0.815259 0
0.0320287 0.810285 0
0.100954 0.805158 0
0.170291 0.800183 0
0.238911 0.794781 0
0.304784 0.789395 0
0.368017 0.784131 0
0.425849 0.778943 0
0.480751 0.773983 0
0.541451 0.769558 0
0.604547 0.765301 0
0.674342 0.761563 0
0.742153 0.758312 0
0.806455 0.755535 0
0.867338 0.753353 0
0.925231 0.751781 0
0.979614 0.750591 0
1 0.749874 0
1 0.749493 0
1 0.749477 0
1 0.749966 0
1 0.750805 0
1 0.751736 0
1 0.752819 0
1 0.754086 0
1 0.755596 0
1 0.757427 0
1 0.759335 0
0 0.869383 0
0 0.869368 0
0 0.868589 0
0 0.865293 0
0 0.860563 0
0 0.855436 0
0.0258793 0.850141 0
0.0948043 0.845029 0
0.163546 0.839536 0
0.232074 0.833936 0
0.297841 0.82826 0
0.360891 0.822629 0
0.418967 0.817136 0
0.473655 0.812192 0
0.532998 0.807279 0
0.594736 0.802701 0
0.66276 0.798581 0
0.730205 0.795026 0
0.794263 0.792065 0
0.854994 0.789761 0
0.912123 0.787671 0
0.965957 0.786084 0
1 0.785046 0
1 0.784451 0
1 0.784421 0
1 0.784436 0
1 0.784772 0
1 0.785412 0
1 0.786282 0
1 0.787366 0
1 0.788663 0
1 0.78999 0
1 0.791547 0
0 0.909407 0
0 0.90898 0
0 0.907881 0
0 0.904265 0
0 0.89929 0
0 0.893965 0
0.0214237 0.888731 0
0.0896315 0.882994 0
0.157946 0.877134 0
0.226261 0.87126 0
0.291966 0.86537 0
0.355215 0.859739 0
0.413397 0.853895 0
0.467475 0.848295 0
0.525612 0.843122 0
0.586313 0.838315 0
0.652598 0.833921 0
0.720073 0.830243 0
0.78352 0.826871 0
0.84358 0.824079 0
0.900389 0.821759 0
0.953826 0.819898 0
1 0.818509 0
1 0.817761 0
1 0.817243 0
1 0.817029 0
1 0.81706 0
1 0.817334 0
1 0.817945 0
1 0.818875 0
1 0.819806 0
1 0.820844 0
1 0.822049 0
0 0.94754 0
0 0.946822 0
0 0.945525 0
0 0.941665 0
0 0.936522 0
0 0.930938 0
0.017792 0.92517 0
0.0857252 0.919219 0
0.153704 0.913069 0
0.221653 0.906813 0
0.287388 0.900816 0
0.350271 0.894713 0
0.408606 0.888624 0
0.462516 0.882719 0
0.519402 0.87715 0
0.579141 0.872007 0
0.644144 0.867628 0
0.711086 0.863447 0
0.77406 0.859754 0
0.83357 0.856565 0
0.889937 0.853941 0
0.943053 0.85185 0
0.993149 0.850416 0
1 0.849134 0
1 0.848234 0
1 0.847745 0
1 0.847562 0
1 0.847807 0
1 0.84802 0
1 0.848447 0
1 0.849134 0
1 0.849973 0
1 0.85098 0
0 0.983551 0
0 0.98294 0
0 0.981338 0
0 0.977417 0
0 0.971954 0
0 0.965957 0
0.0152895 0.959808 0
0.0828717 0.953552 0
0.150591 0.947173 0
0.21857 0.940917 0
0.283757 0.93434 0
0.346303 0.927825 0
0.4047 0.921447 0
0.458518 0.915297 0
0.514626 0.909651 0
0.573602 0.904204 0
0.636744 0.899199 0
0.703334 0.894759 0
0.766018 0.890822 0
0.825147 0.887388 0
0.8813 0.884596 0
0.933928 0.882155 0
0.983352 0.880247 0
1 0.878752 0
1 0.877607 0
1 0.876753 0
1 0.876463 0
1 0.87628 0
1 0.876295 0
1 0.876463 0
1 0.876814 0
1 0.877394 0
1 0.878325 0
0 1 0
0 1 0
0 1 0
0 1 0
0 1 0
0 0.998795 0
0.0137789 0.99237 0
0.0810712 0.98587 0
0.148531 0.979736 0
0.2159 0.972961 0
0.280949 0.96614 0
0.343236 0.959335 0
0.401511 0.952575 0
0.455299 0.946242 0
0.510445 0.940246 0
0.56878 0.934524 0
0.630671 0.929198 0
0.696681 0.924376 0
0.758907 0.920134 0
0.81799 0.916655 0
0.873564 0.913466 0
0.92575 0.910719 0
0.974685 0.908461 0
1 0.906676 0
1 0.905318 0
1 0.904463 0
1 0.90367 0
1 0.903151 0
1 0.902922 0
1 0.902907 0
1 0.903243 0
1 0.903517 0
1 0.904005 0
0 1 0
0 1 0
0 1 0
0 1 0
0 1 0
0 1 0
0.0130007 1 0
0.0800336 1 0
0.146929 1 0
0.213886 1 0
0.27866 0.995712 0
0.34078 0.988678 0
0.399252 0.982376 0
0.452644 0.975555 0
0.506859 0.9691 0
0.564614 0.963104 0
0.625559 0.95758 0
0.691249 0.952636 0
0.75314 0.94815 0
0.81146 0.944137 0
0.866667 0.940688 0
0.918563 0.937728 0
0.967163 0.935241 0
1 0.933288 0
1 0.93167 0
1 0.930388 0
1 0.929412 0
1 0.928679 0
1 0.928145 0
1 0.928023 0
1 0.928008 0
1 0.928115 0
1 0.928374 0
0 1 0
0 1 0
0 1 0
0 1 0
0 1 0
0 1 0
0.0126955 1 0
0.0792401 1 0
0.145892 1 0
0.212528 1 0
0.277028 1 0
0.338979 1 0
0.397147 1 0
0.450431 1 0
0.50396 0.996078 0
0.56112 0.989731 0
0.621302 0.983993 0
0.686427 0.979278 0
0.747906 0.974517 0
0.805859 0.97023 0
0.860578 0.966445 0
0.912108 0.963226 0
0.960616 0.960662 0
1 0.958434 0
1 0.956512 0
1 0.954925 0
1 0.953719 0
1 0.952819 0
1 0.95227 0
1 0.951736 0
1 0.951431 0
1 0.951339 0
1 0.951446 0
0 1 0
0 1 0
0 1 0
0 1 0
0 1 0
0 1 0
0.012726 1 0
0.0788434 1 0
0.145144 1 0
0.211566 1 0
0.275959 1 0
0.337453 1 0
0.395407 1 0
0.448478 1 0
0.501472 1 0
0.558465 1 0
0.617777 1 0
0.682063 1 0
0.743206 0.998917 0
0.8009 0.994461 0
0.855436 0.990539 0
0.906706 0.987152 0
0.954635 0.984176 0
0.999771 0.982147 0
1 0.980056 0
1 0.978286 0
1 0.976913 0
1 0.975814 0
1 0.974914 0
1 0.974243 0
1 0.973739 0
1 0.973404 0
1 0.973419 0
0 1 0
0 1 0
0 1 0
0 1 0
0 1 0
0 1 0
0.0130159 1 0
0.0788434 1 0
0.144976 1 0
