site/assets/luts/freshluts--0000133-s-log-to-rec709-basic.cube
# LUTr-Schema-Version: 2
# LUTr-ID: freshluts--0000133-s-log-to-rec709-basic
# LUTr-Title: S-Log to Rec709 - Basic
# LUTr-Collection: Fresh LUTs
# LUTr-Collection-ID: freshluts-community
# LUTr-Source: https://freshluts.com
# LUTr-Retrieved: 2026-07-27
# LUTr-Source-File: submissions-raw/freshluts/cubes/133__S-Log_to_Rec_709_-_Basic.cube
# LUTr-Source-Format: CUBE
# LUTr-Source-SHA256: db08922c818b015f12cde33586ca2f49f5a39c1e2fb7c2198d0b85ff49d71834
# LUTr-License: CC0-1.0
# LUTr-License-URL: https://freshluts.com/termsandconditions
# LUTr-License-Basis: site-terms
# LUTr-Transform-Class: creative-look
# LUTr-Tags: creative, freshluts, community, cube, sony-s-log1
# LUTr-Input-Color-Space: sony-slog1-sgamut
# LUTr-Input-Gamut: sony-s-gamut
# LUTr-Input-Transfer: sony-s-log1
# LUTr-Output-Color-Space: srgb
# LUTr-Output-Gamut: rec709
# LUTr-Output-Transfer: srgb
# LUTr-Color-Space-Confidence: inferred-from-source-label
# LUTr-Domain-Normalized: true
# LUTr-Shaper: none
# LUTr-Original-Grid: 33x33x33
# LUTr-Conversion-Grid: 33x33x33
# LUTr-Conversion-Interpolation: none
# LUTr-Conversion-Method: Metadata normalization; numeric LUT samples preserved
# LUTr-Conversion-Tool: LUTr scripts/convert-all-to-cube.mjs 2.0.0
# LUTr-Conversion-Date: 2026-07-28
# LUTr-Asset-URL: https://freshluts.com/luts/133
# LUTr-Author: Alex Jordan
# LUTr-Author-URL: https://freshluts.com/users/1
# LUTr-Attribution: Alex Jordan via Fresh LUTs
# LUTr-Source-Labels: gamma=Sony S-Log; color=None; key=Neutral; style=Protect highlights
# LUTr-Note: Preserve this metadata and the upstream license notices when redistributing.
TITLE "S-Log to Rec709 - Basic"
LUT_3D_SIZE 9
DOMAIN_MIN 0 0 0
DOMAIN_MAX 1 1 1
0 0 0
0 0 0
0 0 0
0 0 0
0 0 0
0 0 0
0 0 0
0 0 0
0 0 0
0 0 0
0 0 0
0 0 0
0 0 0
0 0 0
0 0 0
0.0415198 0.00430304 0
0.195941 0.00865187 0
0.412757 0.00144961 0
0 0 0
0 0 0
0 0 0
0.037232 0.0232242 0
0.125933 0.0495766 0
0.264759 0.0666056 0
0.458289 0.0715038 0
0.711421 0.0623331 0
1 0.0364385 0
0 0.0572061 0
0.0171817 0.103731 0
0.0771344 0.145129 0
0.177966 0.177966 0
0.334691 0.197772 0
0.554177 0.202838 0
0.846159 0.19028 0
1 0.161563 0
1 0.121965 0
0 0.298497 0
0 0.342931 0
0.0394751 0.384375 0
0.192126 0.412894 0
0.420386 0.420386 0
0.706172 0.4112 0
1 0.387945 0
1 0.348424 0
1 0.292012 0
0 0.641749 0
0 0.67155 0
0 0.696635 0
0.059968 0.713573 0
0.341939 0.712261 0
0.692424 0.692409 0
1 0.654963 0
1 0.605264 0
1 0.549203 0
0 1 0
0 1 0
0 1 0
0 1 0
0.141573 1 0
0.540337 1 0
0.960708 0.960693 0
1 0.907897 0
1 0.854978 0
0 1 0
0 1 0
0 1 0
0 1 0
0 1 0
0.388952 1 0
0.800046 1 0
1 1 0
1 1 0
0 1 0
0 1 0
0 1 0
0 1 0
0 1 0
0.27248 1 0
0.659678 1 0
1 1 0
1 1 0
0 0 0
0 0 0
0 0 0
0 0 0
0 0 0
0 0 0
0 0 0
0 0 0
0 0 0
0 0 0
0 0 0
0 0 0
0 0 0
0 0 0
0 0 0
0.0692302 0.00605783 0.00605783
0.234073 0.00769055 0.00769055
0.459037 0 0
0 0 0
0 0 0
0.00132753 0.00132753 0.000869764
0.0491798 0.0300298 0.01178
0.143282 0.0543221 0.0149538
0.287739 0.0683299 0.00640879
0.487511 0.0696727 0
0.747539 0.0565042 0
1 0.0250858 0
0 0.0690166 0.015198
0.0153506 0.113664 0.0153506
0.078233 0.152667 0.00737011
0.18262 0.18262 0
0.344259 0.198932 0
0.571054 0.199603 0
0.868955 0.182452 0
1 0.150484 0
1 0.108614 0
0 0.309331 0
0 0.350988 0
0.0257267 0.389181 0
0.183307 0.41323 0
0.416403 0.416403 0
0.706462 0.403967 0
1 0.376974 0
1 0.333135 0
1 0.273091 0
0 0.648341 0
0 0.672602 0
0 0.695705 0
0.0388952 0.710063 0
0.325414 0.704906 0
0.68072 0.68072 0
1 0.639994 0
1 0.588693 0
1 0.532326 0
0 1 0
0 1 0
0 1 0
0 1 0
0.122713 1 0
0.523583 0.993698 0
0.944167 0.944167 0
1 0.891646 0
1 0.840269 0
0 1 0
0 1 0
0 1 0
0 1 0
0 1 0
0.379446 1 0
0.787762 1 0
1 1 0
1 1 0
0 1 0
0 1 0
0 1 0
0 1 0
0 1 0
0.259617 1 0
0.646891 1 0
1 1 0
1 1 0
0 0 0
0 0 0
0 0 0
0 0 0
0 0 0
0 0 0
0 0 0
0 0 0
0 0 0
0 0 0
0 0 0
0 0 0
0 0 0
0 0 0
0 0 0
0.101137 0.00761425 0.0235142
0.275212 0.00640879 0.0434577
0.508629 0 0.0518502
0 0 0
0 0 0
0.0077821 0.0077821 0.0077821
0.0621195 0.0372168 0.0372168
0.161837 0.0593118 0.0593118
0.312459 0.0703899 0.0703899
0.519112 0.0682994 0.0682994
0.786938 0.0512245 0.0512398
1 0.0140688 0.0140841
0 0.081651 0.0480812
0.0133669 0.124315 0.0674907
0.0797284 0.161028 0.0797284
0.188251 0.188251 0.0813001
0.355734 0.20119 0.0668956
0.590341 0.197574 0.0320897
0.893721 0.176455 0
1 0.142046 0
1 0.0975357 0
0 0.321645 0.0693065
0 0.360891 0.0465553
0.0130465 0.395773 0.0130312
0.176638 0.415595 0
0.415045 0.415045 0
0.710338 0.399649 0
1 0.368978 0
1 0.321157 0
1 0.258289 0
0 0.657008 0
0 0.67686 0
0 0.698314 0
0.0203708 0.710124 0
0.312444 0.701183 0
0.673075 0.673075 0
1 0.62974 0
1 0.577356 0
1 0.520989 0
0 1 0
0 1 0
0 1 0
0 1 0
0.109636 1 0
0.512474 0.982849 0
0.933104 0.933104 0
1 0.881071 0
1 0.831449 0
0 1 0
0 1 0
0 1 0
0 1 0
0 1 0
0.375708 1 0
0.780911 1 0
1 1 0
1 1 0
0 1 0
0 1 0
0 1 0
0 1 0
0 1 0
0.251774 1 0
0.639139 1 0
1 1 0
1 1 0
0 0 0
0 0 0
0 0 0
0 0 0
0 0 0
0 0 0
0 0 0
0 0 0
0 0 0
0 0 0
0 0 0
0 0 0
0 0 0
0 0 0
0.00944533 0.00161746 0.00514229
0.133639 0.00843824 0.0520943
0.315984 0.0041352 0.092256
0.557458 0 0.121492
0 0 0
0 0 0
0.0154421 0.0154421 0.0247349
0.0745556 0.0437324 0.0745556
0.179568 0.0633097 0.117372
0.336172 0.0712444 0.149783
0.549523 0.0655528 0.169726
0.826246 0.0440375 0.175372
1 0.00108339 0.163363
0 0.0935836 0.0935836
0.0103456 0.133959 0.133959
0.0799878 0.168185 0.168185
0.192493 0.192493 0.192493
0.36585 0.201755 0.201755
0.607645 0.193713 0.193713
0.915221 0.168917 0.168917
1 0.132372 0.132387
1 0.0843519 0.0843671
0 0.332631 0.189014
0 0.369238 0.190997
0 0.40032 0.185504
0.168551 0.41593 0.168551
0.411948 0.411948 0.138521
0.712551 0.393423 0.0930495
1 0.358831 0.0278325
1 0.307118 0
1 0.241978 0
0 0.663127 0.130297
0 0.679622 0.094789
0 0.699153 0.0557107
0 0.708003 0
0.297551 0.695064 0
0.663233 0.663233 0
1 0.617685 0
1 0.564553 0
1 0.508415 0
0 1 0
0 1 0
0 1 0
0 1 0
0.0956436 1 0
0.500145 0.970489 0
0.920684 0.920684 0
1 0.86949 0
1 0.82179 0
0 1 0
0 1 0
0 1 0
0 1 0
0 1 0
0.370748 1 0
0.773007 1 0
1 1 0
1 1 0
0 1 0
0 1 0
0 1 0
0 1 0
0 1 0
0.242695 1 0
0.630152 1 0
1 1 0
1 1 0
0 0 0
0 0 0
0 0 0
0 0 0
0 0 0
0 0 0
0 0 0
0 0 0
0 0 0
0 0 0
0 0 0
0 0 0
0 0 0
0 0 0
0.0319982 0.0039826 0.0240787
0.165026 0.00814832 0.0951095
0.35465 0.000411994 0.159503
0.603571 0 0.213687
0 0 0
0 0 0
0.0225834 0.0225834 0.0536507
0.0856184 0.0489509 0.12781
0.195377 0.0655985 0.195377
0.357427 0.0700694 0.253269
0.576944 0.060441 0.299565
0.863142 0.0337682 0.333227
1 0 0.352651
0 0.10396 0.156527
0.00546273 0.14168 0.221973
0.0780499 0.173037 0.282353
0.19408 0.19408 0.333715
0.372869 0.199176 0.372869
0.620676 0.186465 0.396994
0.931044 0.15816 0.402121
1 0.119509 0.390143
1 0.0669871 0.364157
0 0.340932 0.340932
0 0.374121 0.374121
0 0.400916 0.400916
0.157259 0.412284 0.412284
0.40502 0.40502 0.40502
0.710567 0.38291 0.38291
1 0.344076 0.344091
1 0.288518 0.288533
1 0.221485 0.221485
0 0.664668 0.382834
0 0.678462 0.369375
0 0.695567 0.355169
0 0.700923 0.326787
0.278218 0.683726 0.278218
0.648402 0.648402 0.219455
1 0.600992 0.157733
1 0.547356 0.0971084
1 0.491615 0.0396124
0 1 0.25922
0 1 0.205035
0 1 0.164019
0 1 0.123888
0.0777447 0.999039 0.0777447
0.483604 0.953643 0.0319371
0.90399 0.90399 0
1 0.854093 0
1 0.808423 0
0 1 0.0375067
0 1 0
0 1 0
0 1 0
0 1 0
0.361593 1 0
0.759808 1 0
1 1 0
1 1 0
0 1 0
0 1 0
0 1 0
0 1 0
0 1 0
0.229603 1 0
0.617136 1 0
1 1 0
1 1 0
0 0 0
0 0 0
0 0 0
0 0 0
0 0 0
0 0 0
0 0 0
0 0 0
0.0303349 0 0.0168307
0 0 0
0 0 0
0 0 0
0 0 0
0 0 0
0.0554513 0.00567636 0.0554513
0.195727 0.00679026 0.152789
0.392111 0 0.243763
0.648173 0 0.325261
0 0 0
0 0 0
0.0290379 0.0290379 0.0958114
0.0955978 0.0530251 0.196612
0.209812 0.0664988 0.291264
0.37705 0.0672618 0.37705
0.602502 0.0534981 0.45214
0.898741 0.0210117 0.51809
1 0 0.572015
0 0.11313 0.235904
0 0.147906 0.328771
0.0744182 0.176181 0.417716
0.193713 0.193713 0.499123
0.37763 0.194247 0.572473
0.630625 0.176944 0.630625
0.942931 0.145464 0.664607
1 0.104219 0.676219
1 0.0467536 0.675731
0 0.347341 0.518837
0 0.376577 0.586847
0 0.39881 0.646479
0.144091 0.406165 0.684596
0.395651 0.395651 0.701076
0.705989 0.36965 0.706004
1 0.326421 0.696544
1 0.267308 0.669474
1 0.198901 0.62562
0 0.663447 0.663447
0 0.674922 0.674922
0 0.689204 0.689189
0 0.690715 0.6907
0.256504 0.66923 0.66923
0.630823 0.630823 0.630823
1 0.581964 0.581964
1 0.528099 0.528099
1 0.472877 0.472892
0 1 0.633356
0 1 0.604212
0 1 0.581003
0 1 0.551354
0.0581979 0.980362 0.510079
0.465248 0.934691 0.465248
0.885451 0.885451 0.421973
1 0.837263 0.387472
1 0.79353 0.358602
0 1 0.467292
0 1 0.427283
0 1 0.405295
0 1 0.38761
0 1 0.369802
0.35053 1 0.350515
0.74461 1 0.319539
1 1 0.278752
1 1 0.236011
0 1 0.306142
0 1 0.294118
0 1 0.295903
0 1 0.278157
0 1 0.248783
0.214603 1 0.214603
0.602243 1 0.177172
1 1 0.137255
1 1 0.0953384
0 0 0
0 0 0
0 0 0
0 0 0
0 0 0
0 0 0
0 0 0
0 0 0
0.0723583 0 0.0501564
0 0 0
0 0 0
0 0 0
0 0 0
0 0 0
0.0790265 0.00654612 0.100359
0.225757 0.00427253 0.225757
0.428336 0 0.344976
0.691508 0 0.455863
0 0 0
0.00268559 0.00621042 0.0233921
0.0346685 0.0346685 0.152163
0.104494 0.0559548 0.281407
0.22295 0.066041 0.40499
0.395224 0.0628977 0.520577
0.626749 0.0446937 0.626749
0.932937 0.00601205 0.728954
1 0 0.81857
0 0.121111 0.33196
0 0.152728 0.454124
0.0691539 0.177737 0.573571
0.19147 0.19147 0.688365
0.380285 0.187182 0.798993
0.63772 0.165499 0.890898
0.951492 0.131212 0.951492
1 0.0867018 0.987274
1 0.0240024 1
0 0.351965 0.722042
0 0.376745 0.82678
0 0.394415 0.917906
0.129412 0.398016 0.980392
0.384161 0.384161 1
0.699168 0.353994 1
1 0.306371 1
1 0.24419 1
1 0.174914 1
0 0.660456 0.968338
0 0.669367 1
0 0.68043 1
0 0.677836 1
0.233021 0.652293 1
0.611246 0.611246 1
1 0.561318 1
1 0.507469 0.9776
1 0.452964 0.922713
0 1 1
0 1 1
0 1 1
0 0.998856 0.998856
0.0376593 0.960082 0.960082
0.445823 0.914321 0.914321
0.865827 0.865827 0.865827
1 0.819684 0.819684
1 0.777691 0.777691
0 1 0.916121
0 1 0.877317
0 1 0.853147
0 1 0.827771
0 1 0.796719
0.33817 1 0.765286
0.728099 1 0.728099
1 1 0.687419
1 1 0.644755
0 1 0.742077
0 1 0.716381
0 1 0.705653
0 1 0.686748
0 1 0.657481
0.198322 1 0.623392
0.586038 1 0.586023
0.984146 1 0.546197
1 1 0.504372
0 0 0
0 0 0
0 0 0
0 0 0
0 0 0
0 0 0
0 0 0
0 0 0
0.115572 0 0.0973831
0 0 0
0 0 0
0 0 0
0 0 0
0.002533 0.00077821 0.00466926
0.102373 0.00642405 0.159686
0.255039 0.000564584 0.314626
0.463981 0 0.463981
0.733684 0 0.6056
0 0 0
0.00483711 0.0130465 0.0644846
0.0393835 0.0393835 0.223484
0.112276 0.0577096 0.382696
0.234836 0.0641947 0.536812
0.412009 0.0569924 0.683894
0.650278 0.0337987 0.824231
0.965652 0 0.965652
1 0 1
0 0.127901 0.445075
0 0.156161 0.598184
0.0623026 0.177722 0.749844
0.18732 0.187335 0.90193
0.38085 0.178103 1
0.642161 0.152377 1
0.957092 0.115648 1
1 0.0670481 1
1 0 1
0 0.354772 0.950622
0 0.374762 1
0 0.387961 1
0.113039 0.388144 1
0.370672 0.370687 1
0.690227 0.33611 1
1 0.284215 1
1 0.219516 1
1 0.149889 1
0 0.655863 1
0 0.661906 1
0 0.669413 1
0 0.662608 1
0.208194 0.633295 1
0.590097 0.590097 1
1 0.539452 1
1 0.485863 1
1 0.432273 1
0 1 1
0 1 1
0 1 1
0 0.978012 1
0.016434 0.938598 1
0.425834 0.892958 1
0.845624 0.845624 1
1 0.801633 1
1 0.761196 1
0 1 1
0 1 1
0 1 1
0 1 1
0 1 1
0.32369 1 1
0.710597 1 1
1 1 1
1 1 1
0 1 1
0 1 1
0 1 1
0 1 1
0 1 1
0.181018 1 1
0.568826 1 1
0.96701 1 0.96701
1 1 0.925261
0 0 0
0 0 0
0 0 0
0 0 0
0 0 0
0 0 0
0 0 0
0 0 0
0.159335 0 0.159335
0 0 0
0 0 0
0 0 0
0 0 0
0.0196689 0.00280766 0.0476387
0.125261 0.00526436 0.234165
0.283497 0 0.419959
0.498436 0 0.600748
0.774762 0 0.774762
0 0 0
0.00611887 0.0192721 0.120134
0.043061 0.043061 0.310445
0.118898 0.0582437 0.500984
0.245457 0.0609598 0.687114
0.427405 0.0495308 0.867185
0.672999 0.0207523 1
0.996307 0 1
1 0 1
0 0.133471 0.575814
0 0.15819 0.761334
0.0537881 0.17615 0.946853
0.181262 0.181262 1
0.379324 0.167132 1
0.644053 0.137804 1
0.960403 0.0987564 1
1 0.0452735 1
1 0 1
0 0.355688 1
0 0.370672 1
0 0.379675 1
0.0947433 0.376593 1
0.35523 0.355245 1
0.67921 0.316121 1
1 0.260243 1
1 0.193652 1
1 0.124086 1
0 0.649729 1
0 0.652552 1
0 0.656214 1
0 0.645212 1
0.182361 0.612573 1
0.567681 0.567681 1
0.985519 0.51664 1
1 0.463508 1
1 0.411154 1
0 1 1
0 0.997055 1
0 0.981491 1
0 0.955962 1
0 0.916182 1
0.405646 0.870878 1
0.825147 0.825147 1
1 0.783276 1
1 0.744183 1
0 1 1
0 1 1
0 1 1
0 1 1
0 1 1
0.305272 1 1
0.692287 1 1
1 1 1
1 1 1
0 1 1
0 1 1
0 1 1
0 1 1
0 1 1
0.162905 1 1
0.55079 1 1
0.949065 1 1
1 1 1
