site/assets/luts/freshluts--0000115-frostedbeachpicnic.cube
# LUTr-Schema-Version: 2
# LUTr-ID: freshluts--0000115-frostedbeachpicnic
# LUTr-Title: FrostedBeachPicnic
# LUTr-Collection: Fresh LUTs
# LUTr-Collection-ID: freshluts-community
# LUTr-Source: https://freshluts.com
# LUTr-Retrieved: 2026-07-27
# LUTr-Source-File: submissions-raw/freshluts/cubes/115__FrostedBeachPicnic.cube
# LUTr-Source-Format: CUBE
# LUTr-Source-SHA256: c0012b7b140d969c8d3c812b81c1d73c6acdcf81960c3a7519e9082d61c6599d
# LUTr-License: CC0-1.0
# LUTr-License-URL: https://freshluts.com/termsandconditions
# LUTr-License-Basis: site-terms
# LUTr-Transform-Class: creative-look
# LUTr-Tags: creative, freshluts, community, cube, faded, vintage, cool, canon-cinestyle
# LUTr-Input-Color-Space: canon-cinestyle
# LUTr-Input-Gamut: rec709
# LUTr-Input-Transfer: canon-cinestyle
# LUTr-Output-Color-Space: srgb
# LUTr-Output-Gamut: rec709
# LUTr-Output-Transfer: srgb
# LUTr-Color-Space-Confidence: inferred-from-source-label
# LUTr-Domain-Normalized: true
# LUTr-Shaper: none
# LUTr-Original-Grid: 33x33x33
# LUTr-Conversion-Grid: 33x33x33
# LUTr-Conversion-Interpolation: none
# LUTr-Conversion-Method: Metadata normalization; numeric LUT samples preserved
# LUTr-Conversion-Tool: LUTr scripts/convert-all-to-cube.mjs 2.0.0
# LUTr-Conversion-Date: 2026-07-28
# LUTr-Asset-URL: https://freshluts.com/luts/115
# LUTr-Author: J. T. Semple
# LUTr-Author-URL: https://freshluts.com/users/120
# LUTr-Attribution: J. T. Semple via Fresh LUTs
# LUTr-Source-Labels: gamma=Canon Cinestyle; color=Cool; key=Neutral; style=Faded
# LUTr-Note: Preserve this metadata and the upstream license notices when redistributing.
TITLE "FrostedBeachPicnic"
LUT_3D_SIZE 33
DOMAIN_MIN 0 0 0
DOMAIN_MAX 1 1 1
0 0 0
0 0 0
0 0 0
0.0101625 0 0
0.0379339 0 0
0.0658122 0 0
0.0944076 0 0
0.123461 0 0
0.154086 0 0
0.186954 0 0
0.222202 0 0
0.26006 0 0
0.29955 0 0
0.339879 0 0
0.380926 0 0
0.421302 0 0
0.461173 0 0
0.501442 0 0
0.541131 0 0
0.580148 0 0
0.618112 0 0
0.654566 0 0
0.689403 0 0
0.72253 0 0
0.753689 0 0
0.783154 0 0
0.811231 0 0
0.838499 0 0
0.865095 0 0
0.891661 0 0
0.917998 0 0
0.944961 0 0
0.971664 0 0
0 0 0
0 0 0
0 0 0
0.0155184 0 0
0.0441444 0 0
0.0720836 0 0
0.100572 0 0
0.129931 0 0
0.161013 0 0
0.1944 0 0
0.23032 0 0
0.268437 0 0
0.308232 0 0
0.348837 0 0
0.389425 0 0
0.429313 0 0
0.469368 0 0
0.509148 0 0
0.548592 0 0
0.58732 0 0
0.624964 0 0
0.661295 0 0
0.695918 0 0
0.728603 0 0
0.759579 0 0
0.788952 0 0
0.817075 0 0
0.84477 0 0
0.871504 0 0
0.898253 0 0
0.925063 0 0
0.952255 0 0
0.979706 0 0
0 0 0
0 0 0
0 0 0
0.022034 0 0
0.0501564 0 0
0.0782788 0 0
0.106416 0 0
0.136263 0 0
0.16791 0 0
0.202106 0 0
0.238285 0 0
0.276509 0 0
0.316304 0 0
0.356817 0 0
0.397543 0 0
0.43714 0 0
0.476783 0 0
0.516518 0 0
0.555917 0 0
0.594568 0 0
0.63241 0 0
0.668467 0 0
0.702708 0 0
0.735332 0 0
0.766308 0 0
0.795789 0 0
0.824506 0 0
0.852338 0 0
0.879469 0 0
0.906767 0 0
0.934188 0 0
0.962051 0 0
0.990188 0 0
0 0 0
0 0 0
0.000747692 0 0
0.0283513 0 0
0.0564584 0.000274662 0
0.0846418 0.00144961 0
0.113207 0.00239567 0
0.143389 0.00300603 0
0.175372 0.00296025 0
0.209369 0.00224308 0
0.245945 0.00077821 0
0.284413 0 0
0.324224 0 0
0.36492 0 0
0.40502 0 0
0.444587 0 0
0.484382 0 0
0.524178 0 0
0.563622 0 0
0.60267 0 0
0.640192 0 0
0.676127 0 0
0.710506 0 0
0.743206 0 0
0.77435 0 0
0.804364 0 0
0.833036 0 0
0.861234 0 0
0.888914 0 0
0.91664 0 0
0.945647 0 0
0.973831 0.00296025 0
1 0.00691234 0
0 0.025803 0
0 0.027039 0
0.00621042 0.0281682 0
0.0338598 0.0292973 0
0.0616922 0.0303044 0
0.0897536 0.0311894 0
0.118746 0.0319982 0
0.149111 0.0323339 0
0.181338 0.0319829 0
0.215686 0.0310826 0
0.252567 0.0295262 0
0.291493 0.027451 0
0.332067 0.0252995 0
0.372747 0.0228733 0
0.412894 0.020676 0
0.452705 0.0186618 0
0.492836 0.0166781 0
0.53315 0.0150607 0
0.572885 0.0135805 0
0.61178 0.0123903 0
0.649485 0.0117189 0
0.685603 0.0117037 0
0.72018 0.0123293 0
0.753384 0.0139315 0
0.78468 0.0159457 0
0.814969 0.0184024 0
0.843992 0.0214847 0
0.872435 0.0250095 0
0.900954 0.0287633 0
0.929702 0.0331884 0
0.958694 0.0373541 0
0.987549 0.041886 0.00277714
1 0.0466621 0.00767529
0 0.0560769 0
0 0.0568399 0
0.0108339 0.0579232 0
0.0389105 0.0587778 0
0.0668193 0.0597238 0
0.0948959 0.0607156 0
0.123949 0.0612497 0
0.154452 0.0614481 0
0.187198 0.0610666 0
0.222339 0.06009 0
0.259892 0.0586862 0
0.299458 0.0568246 0
0.33991 0.0547036 0
0.380758 0.0525978 0
0.421241 0.0507057 0
0.461418 0.0490578 0
0.502144 0.0476997 0
0.542443 0.04654 0
0.582513 0.0455329 0
0.621744 0.0449989 0
0.659785 0.0450141 0
0.696223 0.0456703 0
0.731136 0.0473335 0
0.764416 0.049424 0
0.796231 0.0521401 0
0.826612 0.0555123 0
0.856291 0.0593118 0
0.885267 0.0635996 0
0.914839 0.0685283 0.00471504
0.943969 0.0734722 0.00947585
0.973831 0.0784772 0.0145266
1 0.0839094 0.0197299
1 0.0893111 0.0251469
0 0.0857557 0
0 0.0864271 0
0.0151522 0.0873732 0
0.0434272 0.0881971 0
0.0712902 0.0893721 0.000350958
0.0996109 0.0902113 0.00114443
0.128832 0.0908675 0.00175479
0.159823 0.0911116 0.00196841
0.193179 0.0908217 0.00166323
0.229099 0.0900893 0.000946059
0.267384 0.0889296 0
0.30724 0.0872816 0
0.34815 0.0855116 0
0.389425 0.0838331 0
0.430182 0.0824903 0
0.471138 0.0817273 0
0.512184 0.0807813 0
0.553033 0.0801251 0
0.593439 0.0798047 0
0.63299 0.0799573 0
0.671473 0.0809339 0
0.7084 0.0825513 0
0.743481 0.0847486 0
0.776761 0.0876936 0
0.808911 0.0912337 0.00151064
0.839734 0.0955062 0.00555428
0.870207 0.100557 0.0105287
0.899886 0.105837 0.0155337
0.929717 0.111147 0.020798
0.959533 0.116777 0.0261997
0.989273 0.122759 0.0319677
1 0.128801 0.0375067
1 0.135424 0.0435492
0 0.115587 0.0000915541
0 0.116335 0.000793469
0.0188907 0.117662 0.00198367
0.0468147 0.118685 0.00289921
0.0749218 0.119753 0.00393683
0.103502 0.12079 0.00503548
0.133211 0.12166 0.00579843
0.164935 0.122179 0.00621042
0.199283 0.122377 0.00630198
0.235874 0.121843 0.00570687
0.274739 0.120897 0.00471504
0.315267 0.119722 0.00335698
0.356802 0.118517 0.00199893
0.398596 0.117586 0.000991836
0.439918 0.117144 0.000442512
0.481239 0.11667 0
0.522835 0.116381 0
0.564233 0.116442 0
0.605066 0.116915 0
0.645197 0.118074 0.000732433
0.683894 0.11989 0.00231937
0.720821 0.122286 0.00457771
0.756313 0.125414 0.00753796
0.789944 0.129366 0.0111391
0.8224 0.133822 0.0154879
0.853758 0.139208 0.0204013
0.884474 0.1449 0.0258488
0.914763 0.150881 0.03122
0.944884 0.157153 0.0367437
0.975311 0.163455 0.0426337
1 0.170001 0.0488441
1 0.177142 0.0555734
1 0.184085 0.062089
0 0.146487 0.00207523
0 0.147723 0.00314336
0.0210117 0.14905 0.00430304
0.0493172 0.150362 0.00541695
0.0774853 0.151843 0.00669871
0.106798 0.153155 0.00805676
0.137163 0.154391 0.00909438
0.169924 0.15555 0.00999466
0.204822 0.155993 0.0102388
0.242267 0.155962 0.0100404
0.282032 0.15555 0.00944533
0.323415 0.15491 0.00863661
0.365667 0.154376 0.00791943
0.408042 0.154314 0.00759899
0.449714 0.154421 0.00746166
0.491722 0.154696 0.00750744
0.533715 0.155215 0.00776684
0.575692 0.156024 0.00828565
0.617502 0.157733 0.00958267
0.657649 0.159731 0.0112154
0.696468 0.162371 0.0134279
0.733852 0.165606 0.0164492
0.769207 0.169665 0.0199893
0.80354 0.174578 0.0242008
0.836088 0.180377 0.0293736
0.867674 0.186313 0.0345159
0.898497 0.192584 0.0402991
0.929015 0.199191 0.0463874
0.959457 0.206165 0.0525368
0.990417 0.213565 0.0594949
1 0.220966 0.0661936
1 0.228168 0.0727092
1 0.235569 0.0793622
0 0.179431 0.0027924
0 0.180758 0.00392157
0.0221103 0.182483 0.00538643
0.0505684 0.184298 0.0069276
0.0796063 0.18616 0.00874342
0.109438 0.188434 0.010605
0.140642 0.190219 0.0120546
0.174105 0.191608 0.0131075
0.210056 0.192523 0.0137179
0.248402 0.193057 0.0139467
0.289113 0.19324 0.0138094
0.331777 0.193622 0.0138247
0.374487 0.193805 0.0136873
0.417243 0.194217 0.0138094
0.459541 0.195071 0.0143282
0.502083 0.196246 0.0150454
0.545022 0.197665 0.0159762
0.587732 0.199786 0.0174716
0.62948 0.201984 0.0187533
0.670207 0.2047 0.0211643
0.709163 0.208255 0.0240787
0.746487 0.212512 0.0278019
0.782086 0.217624 0.031754
0.816419 0.223438 0.03682
0.848875 0.229664 0.0422827
0.88043 0.236439 0.0482948
0.911513 0.243565 0.0545663
0.942245 0.250828 0.0609598
0.973205 0.258442 0.0677195
1 0.266392 0.0746929
1 0.27422 0.0813764
1 0.282139 0.0880903
1 0.290135 0.0948348
0 0.214389 0.00218204
0 0.216281 0.0037995
0.0226139 0.218494 0.00590524
0.051545 0.220951 0.00796521
0.081239 0.223804 0.0102693
0.111696 0.226352 0.0124666
0.143893 0.228656 0.014435
0.178332 0.230655 0.0159609
0.215228 0.232258 0.0170596
0.254688 0.233417 0.017731
0.296895 0.234562 0.0184787
0.339834 0.235401 0.0187991
0.383383 0.236423 0.0192721
0.426688 0.237842 0.0196841
0.469398 0.239582 0.0208286
0.512749 0.241443 0.022034
0.556542 0.243992 0.0240024
0.599512 0.246586 0.0258335
0.641413 0.249729 0.0278477
0.682216 0.253269 0.0306859
0.721065 0.257588 0.0339208
0.758709 0.263111 0.0386358
0.794079 0.268986 0.0432593
0.828046 0.275364 0.0488441
0.860578 0.282185 0.054612
0.892164 0.289448 0.0607309
0.923323 0.297292 0.0672923
0.954513 0.30573 0.0743877
0.985168 0.313832 0.0811933
1 0.321981 0.0879072
1 0.330495 0.0948501
1 0.339529 0.102174
1 0.349248 0.109972
0 0.25214 0.00123598
0 0.254688 0.00341802
0.0225071 0.257588 0.00584421
0.05243 0.261036 0.00886549
0.0824598 0.264332 0.0115816
0.113878 0.267506 0.0143893
0.146975 0.270481 0.0167544
0.182574 0.273091 0.0187381
0.221103 0.275654 0.0203861
0.261906 0.277653 0.0216831
0.304646 0.279286 0.0226444
0.348302 0.280858 0.0235294
0.392569 0.282567 0.0246281
0.436179 0.284825 0.0257267
0.480293 0.287755 0.0276646
0.524086 0.29044 0.0294804
0.567941 0.293233 0.0314031
0.611048 0.296498 0.0337224
0.653254 0.300343 0.0365301
0.693935 0.30486 0.0399176
0.733227 0.310399 0.0444038
0.770153 0.316136 0.0486915
0.805371 0.32253 0.0540322
0.839124 0.329656 0.0597696
0.871397 0.337331 0.06598
0.902937 0.345296 0.0726635
0.934386 0.354101 0.0797284
0.965759 0.36289 0.0868238
0.997436 0.372213 0.0943008
1 0.381842 0.102007
1 0.391546 0.109758
1 0.401648 0.117784
1 0.412406 0.126497
0 0.292714 0.00062562
0 0.296193 0.00355535
0.0234531 0.300008 0.0068513
0.0537575 0.303883 0.00982681
0.0847944 0.307836 0.0133669
0.117037 0.311833 0.0166476
0.151537 0.315511 0.0198215
0.188418 0.319158 0.0225834
0.227802 0.322164 0.0246128
0.269871 0.32462 0.0262303
0.313527 0.326955 0.0277256
0.358129 0.329305 0.0290532
0.402731 0.331792 0.0306706
0.447227 0.334997 0.032929
0.491386 0.33817 0.0350652
0.535958 0.341482 0.0374304
0.580179 0.345113 0.039704
0.623438 0.349004 0.0425422
0.665614 0.353353 0.0457618
0.70663 0.358953 0.0497902
0.745144 0.364874 0.0542458
0.781857 0.371374 0.0592508
0.816693 0.378454 0.0647898
0.850233 0.386252 0.0712444
0.883299 0.395514 0.0785687
0.915496 0.404852 0.0860761
0.947341 0.414603 0.093904
0.979538 0.424384 0.101793
1 0.434485 0.110094
1 0.444984 0.118593
1 0.456535 0.127749
1 0.467506 0.136629
1 0.478477 0.145586
0 0.336278 0.00134279
0 0.340505 0.00518807
0.0256352 0.345083 0.00909438
0.0568246 0.349752 0.0132601
0.0885939 0.354498 0.0172427
0.122011 0.35903 0.0212253
0.157931 0.363836 0.024567
0.196048 0.367773 0.0278935
0.236637 0.371267 0.0302892
0.279805 0.374182 0.032578
0.324193 0.37702 0.0344854
0.369802 0.380209 0.0365148
0.415244 0.383627 0.0387884
0.459632 0.387213 0.0412299
0.504448 0.390707 0.0438087
0.54934 0.394446 0.0460517
0.593835 0.398566 0.049073
0.637568 0.403616 0.0525368
0.679881 0.408743 0.0561379
0.720043 0.414496 0.060502
0.758511 0.421195 0.0655528
0.795422 0.428931 0.0716106
0.830777 0.437522 0.078706
0.865049 0.447333 0.0865644
0.8981 0.456992 0.0944228
0.930938 0.467124 0.102892
0.963531 0.477913 0.111604
0.996414 0.488975 0.120455
1 0.499947 0.129473
1 0.511696 0.138582
1 0.523064 0.147463
1 0.534661 0.156786
1 0.546441 0.165957
0 0.382635 0.00531014
0 0.387411 0.00950637
0.0304112 0.392645 0.0142672
0.0623941 0.398016 0.0190738
0.0952621 0.403677 0.0236667
0.130068 0.409155 0.0280613
0.166979 0.41384 0.0320897
0.206165 0.418204 0.035523
0.248157 0.42211 0.0385901
0.292332 0.425681 0.0411536
0.338048 0.429221 0.0436103
0.38407 0.432761 0.0459144
0.429358 0.436484 0.0484474
0.474525 0.440513 0.0513619
0.519844 0.444694 0.0538949
0.565255 0.448844 0.0568551
0.610056 0.453941 0.0603037
0.653986 0.459602 0.064271
0.696513 0.466011 0.0691386
0.737118 0.473335 0.0746166
0.775647 0.481331 0.0807507
0.812284 0.49015 0.0876326
0.847745 0.500526 0.0959029
0.88191 0.51107 0.104204
0.915236 0.522057 0.112902
0.94818 0.533089 0.121874
0.981231 0.544289 0.13077
1 0.55642 0.140505
1 0.568231 0.149767
1 0.579889 0.159045
1 0.591379 0.168048
1 0.602808 0.176928
1 0.614221 0.185992
0 0.431022 0.0119936
0.00588998 0.436667 0.0170291
0.038117 0.442496 0.0221714
0.0707866 0.448569 0.0271916
0.104799 0.454887 0.0325475
0.140337 0.46067 0.037171
0.178332 0.465934 0.0416876
0.218891 0.470573 0.0452735
0.261906 0.474708 0.0482948
0.3075 0.479088 0.0512703
0.353567 0.482994 0.0537423
0.400015 0.486809 0.0563668
0.445319 0.491096 0.0591745
0.491142 0.495659 0.06215
0.537469 0.500954 0.0656443
0.584009 0.506889 0.0696117
0.629343 0.512978 0.0740215
0.673304 0.5196 0.0785382
0.715312 0.527138 0.0842451
0.755688 0.535683 0.0906386
0.794568 0.54548 0.0983139
0.831144 0.555886 0.106416
0.866011 0.566445 0.114748
0.899916 0.577539 0.123613
0.933227 0.58912 0.132998
0.966491 0.600916 0.142351
1 0.613031 0.152163
1 0.624659 0.161379
1 0.636027 0.170489
1 0.647395 0.179507
1 0.658671 0.188266
1 0.669505 0.197223
1 0.68072 0.206088
0 0.48188 0.0202945
0.014313 0.488151 0.0255283
0.0475776 0.495201 0.0315557
0.0809491 0.501747 0.037171
0.115358 0.50808 0.0425422
0.151873 0.514061 0.0474403
0.191135 0.519631 0.0517891
0.232929 0.524834 0.0556039
0.27776 0.529641 0.0590982
0.323812 0.533837 0.0618296
0.370626 0.538338 0.064744
0.417731 0.543374 0.0680858
0.46424 0.549035 0.0718547
0.511467 0.554879 0.0759594
0.558862 0.561151 0.0802472
0.605493 0.567636 0.0848249
0.65127 0.574914 0.0898756
0.695293 0.582971 0.0957046
0.737194 0.591577 0.102373
0.777096 0.601221 0.110002
0.815091 0.611704 0.118227
0.851072 0.622675 0.12694
0.885588 0.634058 0.136202
0.91928 0.645441 0.145418
0.952377 0.656855 0.15465
0.985718 0.66891 0.164721
1 0.680232 0.173999
1 0.691264 0.183124
1 0.701854 0.192187
1 0.712245 0.200977
1 0.722835 0.210086
1 0.732967 0.218997
1 0.742473 0.227832
0 0.534936 0.029984
0.0248264 0.542107 0.0361944
0.0579843 0.549126 0.0422217
0.0921187 0.556161 0.0481422
0.127565 0.562982 0.0537423
0.165515 0.569146 0.0588846
0.206149 0.574975 0.0633555
0.249989 0.58114 0.067689
0.296407 0.586526 0.0715953
0.344198 0.591897 0.0754101
0.392172 0.597375 0.0789654
0.439658 0.60325 0.0832837
0.487953 0.610239 0.0881819
0.536156 0.616983 0.09308
0.5841 0.623972 0.0981155
0.630838 0.631312 0.103243
0.676188 0.63917 0.1093
0.719921 0.64802 0.116075
0.7617 0.658045 0.124208
0.800687 0.668147 0.132372
0.837491 0.678569 0.140978
0.872389 0.689433 0.150118
0.906493 0.700465 0.159747
0.939757 0.711925 0.169619
0.973007 0.723156 0.179187
1 0.733608 0.188708
1 0.743755 0.197864
1 0.753704 0.20705
1 0.763378 0.216205
1 0.772946 0.22562
1 0.78201 0.234699
1 0.790448 0.243534
1 0.798627 0.252323
0.00265507 0.590082 0.0424506
0.0367285 0.597238 0.0485237
0.0705425 0.604623 0.0548409
0.105592 0.612085 0.0611582
0.14287 0.619562 0.0675517
0.183368 0.627405 0.0738231
0.226368 0.634119 0.079057
0.272221 0.640208 0.083711
0.319966 0.646204 0.0880598
0.369024 0.652415 0.092607
0.418204 0.658976 0.0975662
0.467308 0.666392 0.10309
0.516045 0.673152 0.1084
0.564843 0.680201 0.113725
0.613031 0.687755 0.119387
0.659922 0.695781 0.125917
0.704997 0.704219 0.13286
0.747768 0.713603 0.14078
0.787884 0.723003 0.14902
0.825574 0.733028 0.157885
0.861357 0.743328 0.167208
0.895338 0.753689 0.176776
0.928817 0.764004 0.186603
0.961883 0.774426 0.196551
0.994415 0.784237 0.206241
1 0.793667 0.215824
1 0.802625 0.225177
1 0.81117 0.234394
1 0.819913 0.24416
1 0.827848 0.253361
1 0.835492 0.262577
1 0.842863 0.271656
1 0.849973 0.280781
0.016907 0.646021 0.0571756
0.0521859 0.654231 0.0644541
0.0876631 0.662806 0.0721294
0.124605 0.671153 0.0793317
0.164248 0.679652 0.0865492
0.206638 0.687343 0.093019
0.252079 0.694652 0.0991836
0.30016 0.701579 0.104494
0.349813 0.708034 0.109606
0.399817 0.714488 0.114992
0.44979 0.722087 0.121172
0.499458 0.72929 0.127092
0.549264 0.736431 0.133272
0.598047 0.743648 0.139147
0.645823 0.750942 0.14548
0.692515 0.759319 0.152911
0.736248 0.767605 0.160678
0.777203 0.776303 0.168948
0.815595 0.785275 0.177569
0.851682 0.794507 0.186801
0.886046 0.803967 0.196628
0.919768 0.813947 0.207172
0.952392 0.823117 0.217121
0.984512 0.831891 0.226947
1 0.840192 0.236576
1 0.848173 0.245914
1 0.855985 0.255619
1 0.863783 0.26569
1 0.870924 0.275227
1 0.877882 0.284581
1 0.884535 0.294118
1 0.891035 0.303685
1 0.897627 0.313405
0.0371099 0.704906 0.0779431
0.073228 0.713832 0.0861219
0.110674 0.723415 0.0948043
0.149935 0.732799 0.103288
0.19173 0.74136 0.110979
0.236454 0.749126 0.117876
0.284153 0.756268 0.124392
0.334234 0.763149 0.130404
0.385748 0.770474 0.136843
0.43653 0.777417 0.143053
0.486259 0.784207 0.149493
0.535943 0.790967 0.155505
0.585763 0.797665 0.161822
0.634592 0.804471 0.168414
0.682124 0.811902 0.176089
0.72639 0.819089 0.183551
0.768109 0.826673 0.191638
0.807202 0.834699 0.200458
0.843671 0.843091 0.209827
0.878325 0.851499 0.219455
0.911818 0.860349 0.229999
0.944121 0.868452 0.239963
0.976135 0.87631 0.249775
1 0.883955 0.259709
1 0.891173 0.26952
1 0.898222 0.279149
1 0.905333 0.289479
1 0.911849 0.299214
1 0.918273 0.308888
1 0.924605 0.318685
1 0.930785 0.328542
1 0.937285 0.33875
1 0.943328 0.348272
0.0627146 0.765942 0.104921
0.100938 0.775799 0.114595
0.139818 0.785504 0.123903
0.180987 0.794507 0.132555
0.225238 0.803037 0.140749
0.272892 0.810742 0.14815
0.322576 0.817655 0.154833
0.374212 0.82443 0.161456
0.425605 0.8309 0.167834
0.475624 0.837446 0.174624
0.526009 0.843656 0.181186
0.57583 0.849561 0.187579
0.624643 0.85539 0.193851
0.672786 0.861814 0.201419
0.717861 0.868055 0.209018
0.76025 0.874662 0.217075
0.799573 0.88159 0.225513
0.836255 0.888731 0.234623
0.871244 0.896529 0.244572
0.90425 0.904051 0.254597
0.936355 0.911391 0.264683
0.968124 0.918532 0.274754
0.999481 0.92549 0.284825
1 0.932128 0.294514
1 0.93901 0.304829
1 0.945312 0.314717
1 0.951553 0.324681
1 0.957732 0.334371
1 0.963729 0.344076
1 0.969696 0.353613
1 0.97612 0.36405
1 0.981842 0.373281
1 0.987655 0.382834
0.0943923 0.828168 0.138079
0.133669 0.838041 0.148165
0.17464 0.84744 0.158022
0.217945 0.855955 0.166781
0.264469 0.863493 0.174685
0.313878 0.870573 0.182116
0.365454 0.877028 0.189197
0.416999 0.882734 0.195651
0.467216 0.88835 0.202182
0.516976 0.893767 0.208484
0.566979 0.898863 0.215122
0.616358 0.904265 0.221897
0.664332 0.909407 0.228855
0.709651 0.914488 0.235935
0.752056 0.919936 0.243351
0.791791 0.92575 0.251652
0.828779 0.931991 0.2607
0.863676 0.938964 0.270405
0.896559 0.9458 0.280415
0.928374 0.952499 0.29041
0.959701 0.959075 0.300404
0.99086 0.96553 0.310353
1 0.971939 0.320012
1 0.978546 0.330602
1 0.984619 0.340414
1 0.990585 0.350072
1 0.996612 0.359533
1 1 0.369024
1 1 0.378546
1 1 0.388861
1 1 0.398047
1 1 0.407126
1 1 0.41622
0.129778 0.889662 0.175555
0.170184 0.898787 0.185489
0.212833 0.907301 0.194903
0.258259 0.91487 0.203494
0.306889 0.921447 0.211215
0.357702 0.927214 0.218235
0.408713 0.932158 0.224567
0.459205 0.937011 0.231113
0.50869 0.941802 0.237476
0.558282 0.946044 0.243702
0.607233 0.950332 0.250004
0.655009 0.954452 0.256794
0.70042 0.958633 0.26331
0.743206 0.96318 0.270649
0.782986 0.968246 0.278447
0.820142 0.973709 0.287053
0.855329 0.979965 0.296864
0.887755 0.986191 0.306264
0.919356 0.992477 0.316106
0.950393 0.99884 0.326085
0.981704 1 0.335943
1 1 0.346151
1 1 0.356207
1 1 0.365805
1 1 0.375555
1 1 0.384421
1 1 0.393713
1 1 0.403449
1 1 0.412589
1 1 0.421653
1 1 0.430686
1 1 0.439689
1 1 0.448646
0.166903 0.949065 0.215152
0.208667 0.957031 0.22446
0.252598 0.964065 0.232868
0.300282 0.97052 0.241093
0.349767 0.975509 0.248005
0.400397 0.979797 0.254154
0.450431 0.983734 0.260075
0.49926 0.987533 0.266056
0.54815 0.991135 0.272084
0.597177 0.994659 0.278355
0.644724 0.997787 0.284504
0.690044 1 0.290944
0.732754 1 0.297704
0.772732 1 0.305104
0.810468 1 0.313756
0.845594 1 0.323003
0.878523 1 0.332403
0.910094 1 0.342016
0.940932 1 0.351507
0.971664 1 0.361151
1 1 0.371374
1 1 0.380926
1 1 0.390326
1 1 0.399512
1 1 0.408377
1 1 0.417411
1 1 0.426978
1 1 0.436118
1 1 0.44509
1 1 0.454047
1 1 0.462928
1 1 0.471763
1 1 0.480995
0.203403 1 0.254444
0.246647 1 0.262852
0.292775 1 0.27097
0.340795 1 0.277287
0.390311 1 0.282887
0.439902 1 0.288502
0.488334 1 0.294011
0.536843 1 0.299901
0.585214 1 0.306142
0.632136 1 0.311711
0.677684 1 0.317556
0.720729 1 0.324285
0.761227 1 0.331533
0.799191 1 0.339742
0.834653 1 0.34876
0.867796 1 0.357748
0.89955 1 0.366888
0.930571 1 0.376608
0.960876 1 0.385885
0.991791 1 0.395972
1 1 0.405142
1 1 0.414191
1 1 0.423194
1 1 0.431998
1 1 0.44126
1 1 0.450523
1 1 0.459403
1 1 0.468238
1 1 0.477028
1 1 0.485756
1 1 0.494881
1 1 0.503532
1 1 0.512215
0.237842 1 0.291356
0.282918 1 0.298985
0.329686 1 0.305409
0.378393 1 0.310903
0.427588 1 0.316121
0.475746 1 0.321691
0.523888 1 0.327718
0.571405 1 0.332982
0.618296 1 0.338628
0.663905 1 0.344411
0.707637 1 0.350652
0.748577 1 0.357595
0.787289 1 0.365728
0.823209 1 0.373922
0.856626 1 0.382483
0.888487 1 0.391638
0.919387 1 0.400839
0.949981 1 0.410117
0.98085 1 0.419669
1 1 0.428794
1 1 0.43772
1 1 0.446555
1 1 0.455406
1 1 0.464424
1 1 0.473579
1 1 0.482322
1 1 0.490974
1 1 0.499596
1 1 0.508263
1 1 0.517357
1 1 0.526223
1 1 0.534783
1 1 0.543511
0.270802 1 0.326986
0.316808 1 0.332967
0.36466 1 0.338445
0.413336 1 0.343587
0.461601 1 0.348623
0.509422 1 0.354849
0.556756 1 0.360113
0.603632 1 0.365377
0.649302 1 0.371054
