site/assets/luts/freshluts--0001054-mexican-food.cube
# LUTr-Schema-Version: 2
# LUTr-ID: freshluts--0001054-mexican-food
# LUTr-Title: Mexican Food
# LUTr-Collection: Fresh LUTs
# LUTr-Collection-ID: freshluts-community
# LUTr-Source: https://freshluts.com
# LUTr-Retrieved: 2026-07-27
# LUTr-Source-File: submissions-raw/freshluts/cubes/1054__Mexican.cube
# LUTr-Source-Format: CUBE
# LUTr-Source-SHA256: 08c6f88d796b1c1f3c2024804937c709344a03aceff8d99d8d2b85d585a0f74a
# LUTr-License: CC0-1.0
# LUTr-License-URL: https://freshluts.com/termsandconditions
# LUTr-License-Basis: site-terms
# LUTr-Transform-Class: creative-look
# LUTr-Tags: creative, freshluts, community, cube, warm, rec709, assumed-input
# LUTr-Input-Color-Space: rec709
# LUTr-Input-Gamut: rec709
# LUTr-Input-Transfer: rec709
# LUTr-Output-Color-Space: srgb
# LUTr-Output-Gamut: rec709
# LUTr-Output-Transfer: srgb
# LUTr-Color-Space-Confidence: assumed-display-referred
# LUTr-Domain-Normalized: true
# LUTr-Shaper: none
# LUTr-Original-Grid: 17x17x17
# LUTr-Conversion-Grid: 17x17x17
# LUTr-Conversion-Interpolation: none
# LUTr-Conversion-Method: Metadata normalization; numeric LUT samples preserved
# LUTr-Conversion-Tool: LUTr scripts/convert-all-to-cube.mjs 2.0.0
# LUTr-Conversion-Date: 2026-07-28
# LUTr-Asset-URL: https://freshluts.com/luts/1054
# LUTr-Author: Gina
# LUTr-Author-URL: https://freshluts.com/users/90727
# LUTr-Attribution: Gina via Fresh LUTs
# LUTr-Source-Labels: gamma=RED Color; color=Warm; key=Neutral; style=Cinematic/Dark; LUTr assumption=input Rec.709 per repository policy
# LUTr-Conversion-Warning: Input Rec.709 is a LUTr catalog assumption requested for this otherwise unspecified Fresh LUT; it is not verified by the upstream asset.
# LUTr-Note: Preserve this metadata and the upstream license notices when redistributing.
# LUTr-Upstream-Comment: Created by Saumyajit Maity on 2019-12-24 13:25:06 +0000
# LUTr-Upstream-Comment: Color Finale Plugin v.1.9.4 (263)
TITLE "Mexican Food"
LUT_3D_SIZE 5
DOMAIN_MIN 0 0 0
DOMAIN_MAX 1 1 1
0.0144 0.026 0.0432
0.1869 0.0158 0.0242
0.4286 0 0
0.7224 0 0
1 0 0
0 0.184 0.0269
0.1686 0.1725 0
0.4474 0.1584 0
0.7536 0.1163 0
1 0.1016 0
0 0.3744 0
0.0547 0.3857 0
0.4953 0.402 0
0.8526 0.4078 0
1 0.4083 0
0 0.555 0
0.0022 0.5931 0
0.466 0.6671 0
0.8701 0.7044 0
1 0.688 0
0 0.7112 0
0 0.778 0
0.4546 0.8815 0
0.8315 0.9376 0
1 0.9191 0
0.0006 0.0209 0.2201
0.1827 0.0097 0.2101
0.4302 0 0.1804
0.7272 0 0.1394
1 0 0.1224
0 0.1803 0.221
0.1519 0.1737 0.1948
0.4426 0.1538 0.1403
0.7632 0.0577 0.0867
1 0.0424 0.0664
0 0.3846 0.2027
0.037 0.3973 0.1771
0.4855 0.4063 0.0302
0.8482 0.4074 0
1 0.4098 0
0 0.5672 0.1673
0 0.6021 0.1221
0.4512 0.6733 0
0.8592 0.71 0
1 0.6918 0
0 0.7306 0.2214
0 0.7936 0.188
0.4174 0.8708 0.0301
0.8009 0.9161 0
1 0.894 0
0 0 0.4535
0.1665 0 0.4488
0.4356 0 0.4466
0.7347 0 0.4396
1 0 0.4367
0 0.1365 0.4603
0.0988 0.1644 0.4557
0.4363 0.1421 0.4457
0.7644 0.0365 0.4417
1 0.0275 0.4356
0 0.394 0.5076
0.0336 0.4063 0.5138
0.43 0.43 0.4528
0.7936 0.4159 0.4272
1 0.4141 0.418
0 0.5901 0.529
0 0.6257 0.5294
0.3749 0.7039 0.4441
0.782 0.7136 0.4059
1 0.7022 0.3938
0 0.7518 0.5587
0 0.8197 0.5616
0.3505 0.9207 0.4737
0.7371 0.9399 0.4343
1 0.9262 0.4192
0 0 0.7011
0.1194 0 0.7028
0.4397 0 0.7106
0.7438 0 0.7106
1 0 0.7072
0 0.115 0.7353
0.0892 0.1057 0.7407
0.4391 0.0868 0.7462
0.7717 0.0187 0.7468
1 0.0013 0.7395
0 0.3886 0.8308
0.027 0.4039 0.8562
0.4046 0.4331 0.784
0.7675 0.4197 0.7614
1 0.4177 0.7456
0 0.5931 0.9183
0 0.6271 0.9431
0.3248 0.7094 0.8621
0.7395 0.7266 0.7501
1 0.7169 0.7328
0 0.7542 0.9262
0 0.819 0.9518
0.3061 0.9222 0.8606
0.7017 0.9565 0.7456
0.9771 0.9439 0.7248
0 0 0.9937
0.1098 0 1
0.4462 0 1
0.7669 0 1
1 0 1
0 0.1084 1
0.0738 0.1301 1
0.4302 0.1632 1
0.7626 0.0854 1
1 0.0895 1
0 0.3926 1
0.0176 0.4098 1
0.3893 0.443 1
0.7554 0.4295 1
1 0.4272 1
0 0.5889 1
0 0.6261 1
0.3015 0.7055 1
0.7236 0.7236 1
1 0.713 1
0 0.749 1
0 0.8163 1
0.2835 0.9191 1
0.6891 0.9526 0.9992
0.9676 0.9431 0.9676
