site/assets/luts/freshluts--0001218-lut-1-ig-antonyeliezerfilms.cube
# LUTr-Schema-Version: 2
# LUTr-ID: freshluts--0001218-lut-1-ig-antonyeliezerfilms
# LUTr-Title: (Lut 1)  IG @AntonyEliezerFilms
# LUTr-Collection: Fresh LUTs
# LUTr-Collection-ID: freshluts-community
# LUTr-Source: https://freshluts.com
# LUTr-Retrieved: 2026-07-27
# LUTr-Source-File: submissions-raw/freshluts/cubes/1218___28Lut_1_29__IG__AntonyEliezerFilms.cube
# LUTr-Source-Format: CUBE
# LUTr-Source-SHA256: f850d511f1f228c0c497e62a2b62dfdae7c5a9f61a74e2613762775a1e771b9f
# LUTr-License: CC0-1.0
# LUTr-License-URL: https://freshluts.com/termsandconditions
# LUTr-License-Basis: site-terms
# LUTr-Transform-Class: creative-look
# LUTr-Tags: creative, freshluts, community, cube, blue, rec709
# LUTr-Input-Color-Space: rec709
# LUTr-Input-Gamut: rec709
# LUTr-Input-Transfer: rec709
# LUTr-Output-Color-Space: srgb
# LUTr-Output-Gamut: rec709
# LUTr-Output-Transfer: srgb
# LUTr-Color-Space-Confidence: inferred-from-source-label
# LUTr-Domain-Normalized: true
# LUTr-Shaper: none
# LUTr-Original-Grid: 33x33x33
# LUTr-Conversion-Grid: 33x33x33
# LUTr-Conversion-Interpolation: none
# LUTr-Conversion-Method: Metadata normalization; numeric LUT samples preserved
# LUTr-Conversion-Tool: LUTr scripts/convert-all-to-cube.mjs 2.0.0
# LUTr-Conversion-Date: 2026-07-28
# LUTr-Asset-URL: https://freshluts.com/luts/1218
# LUTr-Author: Antony Eliezer
# LUTr-Author-URL: https://freshluts.com/users/32961
# LUTr-Attribution: Antony Eliezer via Fresh LUTs
# LUTr-Source-Labels: gamma=Rec 709; color=Blue; key=Neutral; style=Colorful
# LUTr-Note: Preserve this metadata and the upstream license notices when redistributing.
# LUTr-Upstream-Comment: VEGAS Pro LUT
TITLE "(Lut 1)  IG @AntonyEliezerFilms"
LUT_3D_SIZE 33
DOMAIN_MIN 0 0 0
DOMAIN_MAX 1 1 1
0.11467963 0.09441194 0.0874785
0.11467963 0.09441194 0.0874785
0.11691146 0.09415936 0.08722592
0.12050507 0.09375267 0.08681923
0.12351736 0.09341177 0.08647833
0.12650271 0.09307392 0.08614048
0.13059992 0.09242643 0.08562321
0.13659792 0.09067231 0.084503
0.14125092 0.08931152 0.08363397
0.14916423 0.0880414 0.08252836
0.16377404 0.08885475 0.06752685
0.17634751 0.08418779 0.0562973
0.18989204 0.07343407 0.04836521
0.20454004 0.06030124 0.04452956
0.22007374 0.05016579 0.04417169
0.2294846 0.04640593 0.0480183
0.24165708 0.04120939 0.0532406
0.25428417 0.03581875 0.05865803
0.26903409 0.02893444 0.05471246
0.28063592 0.02372853 0.05123843
0.29712182 0.01525618 0.04781776
0.31165063 0.00408645 0.04784301
0.32624215 -0.00632884 0.0477016
0.34122694 -0.02018001 0.0440838
0.36087641 -0.03283267 0.02057823
0.37586975 -0.04027189 0.00644526
0.39285201 -0.04927161 -0.00108787
0.41331944 -0.06126437 -0.00909938
0.43423945 -0.07349221 -0.01821752
0.44721362 -0.08010843 -0.01852348
0.46469581 -0.08741512 -0.01765415
0.48263565 -0.09453228 -0.02210529
0.49715114 -0.09875613 -0.026765
0.11467963 0.09441194 0.0874785
0.11467963 0.09441194 0.0874785
0.11670856 0.09418233 0.08724888
0.12026507 0.09377984 0.08684639
0.12291825 0.09347957 0.08654613
0.12579796 0.09315368 0.08622023
0.12876949 0.09283282 0.08589938
0.13395412 0.09144549 0.08499676
0.14029552 0.08959093 0.08381241
0.14519742 0.08815739 0.08289692
0.15637095 0.08834925 0.07730078
0.17126265 0.08655988 0.06036755
0.18154523 0.08176304 0.05213671
0.19274621 0.07042734 0.04717967
0.20454004 0.06030124 0.04452956
0.22007374 0.05016579 0.04417169
0.23248523 0.04512493 0.04930566
0.24165708 0.04120939 0.0532406
0.25108463 0.03718468 0.05728532
0.265248 0.03067373 0.05588432
0.28063592 0.02372853 0.05123843
0.29268911 0.01807463 0.04824895
0.30199963 0.01130279 0.04786849
0.31647557 0.00064241 0.04779627
0.33118394 -0.00985625 0.04765372
0.35097009 -0.02726674 0.03304077
0.36087641 -0.03283267 0.02057823
0.37088189 -0.03784809 0.0096264
0.39285201 -0.04927161 -0.00108787
0.40642264 -0.05715525 -0.00501189
0.42723384 -0.06951682 -0.01606014
0.4412595 -0.07745737 -0.01869003
0.45300123 -0.08242881 -0.01827425
0.11467963 0.09441194 0.0874785
0.11467963 0.09441194 0.0874785
0.11670856 0.09418233 0.08724888
0.11980166 0.09383228 0.08689883
0.12262736 0.09351249 0.08657905
0.12511696 0.09323075 0.0862973
0.12798405 0.09290627 0.08597283
0.13225272 0.09194306 0.08531451
0.13659792 0.09067231 0.084503
0.14221875 0.08902848 0.08345322
0.14916423 0.0880414 0.08252836
0.16127758 0.08868427 0.0708228
0.17126265 0.08655988 0.06036755
0.18154523 0.08176304 0.05213671
0.19274621 0.07042734 0.04717967
0.20152511 0.06226844 0.04459902
0.21376823 0.05428001 0.04431699
0.2294846 0.04640593 0.0480183
0.23857147 0.04252668 0.05191681
0.2479136 0.03853843 0.05592487
0.25781345 0.03419486 0.05828538
0.26904282 0.02922958 0.05467728
0.28066206 0.02461396 0.0511329
0.29270297 0.0192983 0.04802936
0.30202392 0.01344425 0.0474842
0.31650332 0.0030898 0.04735708
0.33122209 -0.00649109 0.04704983
0.34610978 -0.02131657 0.03786617
0.35591394 -0.02810985 0.02641951
0.37088358 -0.036257 0.00948481
0.38089702 -0.04080454 0.00307036
0.39284965 -0.04733807 -0.00121021
0.40642002 -0.05501809 -0.00514711
0.1145721 0.09520783 0.08788806
0.1145721 0.09520783 0.08788806
0.11639813 0.09500117 0.08768141
0.11947068 0.09465345 0.08733369
0.12223467 0.09434064 0.08702088
0.12435203 0.09410103 0.08678126
0.12709695 0.09398631 0.08656996
0.1290139 0.09399542 0.08648249
0.13379282 0.09263932 0.0856111
0.13916437 0.09125952 0.08470526
0.14301096 0.09013457 0.08398685
0.15131825 0.08986771 0.08326491
0.16100875 0.09067398 0.07184671
0.1710652 0.08970354 0.06018038
0.18130827 0.08553547 0.05191211
0.1924895 0.07451408 0.04693635
0.2042636 0.06470235 0.04426753
0.21345229 0.05930989 0.04401752
0.2261391 0.05315471 0.04641995
0.23567112 0.04914422 0.04997201
0.24808793 0.04444108 0.05522135
0.2579878 0.04009751 0.05758186
0.26921716 0.03513251 0.05397372
0.280837 0.03053708 0.05042693
0.29720554 0.02264234 0.0464923
0.306952 0.01522578 0.04650349
0.32633761 0.00209295 0.0461903
0.34132141 -0.01172156 0.04247003
0.35594219 -0.0249655 0.02534616
0.3658978 -0.03176986 0.01369178
0.3808988 -0.03913716 0.00292198
0.399598 -0.04959939 -0.00269692
0.42026147 -0.06155989 -0.01345964
0.11411507 0.09859052 0.08962879
0.11411507 0.09859052 0.08962879
0.11614401 0.09836091 0.08939917
0.11920967 0.09821398 0.08915365
0.12203536 0.09789419 0.08883387
0.12452497 0.09761245 0.08855212
0.1270127 0.09733091 0.08827058
0.1308001 0.09677666 0.08783207
0.13597777 0.09526242 0.08686506
0.14156972 0.09383239 0.0859253
0.14848559 0.09306443 0.0851132
0.1581009 0.09376333 0.07678118
0.17072795 0.09462557 0.06011032
0.18370616 0.08837952 0.05016178
0.19506332 0.07641517 0.04544434
0.20699464 0.06772073 0.04389935
0.21629031 0.0620287 0.04366146
0.23242782 0.05549737 0.04822388
0.241951 0.05116102 0.05205449
0.2581189 0.04453643 0.05705279
0.2693513 0.03967419 0.05343242
0.28096512 0.03487474 0.04990994
0.29287782 0.02994965 0.04629705
0.31179142 0.01650875 0.0456138
0.32639319 0.0069968 0.04531029
0.34137291 -0.00717959 0.04165497
0.36092868 -0.02530248 0.01849898
0.37089342 -0.03255924 0.0089687
0.39284584 -0.04420288 -0.00140858
0.41331306 -0.0560293 -0.00943062
0.43426937 -0.06826994 -0.02024057
0.4530322 -0.07713898 -0.02034864
0.47063643 -0.08432692 -0.0195397
0.11373767 0.10138395 0.09106629
0.1137014 0.10165239 0.09120442
0.11593323 0.10139982 0.09095185
0.11905237 0.10104682 0.09059885
0.12219967 0.10096049 0.0903795
0.12513211 0.10062863 0.09004764
0.12815993 0.10031608 0.08973509
0.13290109 0.09923962 0.0890076
0.13920394 0.09767035 0.08797006
0.14406654 0.09652771 0.08720427
0.15763892 0.0971827 0.07854078
0.17022513 0.09834721 0.06202547
0.18338299 0.09352441 0.04985547
0.19470958 0.08204669 0.04510904
0.20663367 0.07346743 0.0435572
0.22226225 0.06465301 0.04458176
0.23543045 0.0602702 0.0488877
0.25153306 0.05236713 0.05547577
0.26197734 0.04811547 0.05522205
0.27721322 0.04165175 0.05047873
0.29302904 0.03506996 0.04568678
0.31185269 0.02191345 0.04464392
0.32645038 0.01204298 0.04440474
0.34623703 -0.00898787 0.03479106
0.36095899 -0.02192987 0.0173477
0.37589431 -0.03237452 0.005229
0.39959422 -0.04649215 -0.00289352
0.41331106 -0.05439794 -0.00953384
0.44130054 -0.07044066 -0.02144162
0.45341384 -0.07543845 -0.02153815
0.47699514 -0.08537233 -0.02132577
0.49053383 -0.0905164 -0.02741225
0.52266431 -0.09731662 -0.03211198
0.11325201 0.10497859 0.09291607
0.11320651 0.10531541 0.0930894
0.11564123 0.10503987 0.09281386
0.11923123 0.10497101 0.09257866
0.12230618 0.10462301 0.09223068
0.12566486 0.10458604 0.09202456
0.12985376 0.10378111 0.09143655
0.13588941 0.10235633 0.0904827
0.14158475 0.10069072 0.08941902
0.15229765 0.1004938 0.08681723
0.16458689 0.10170247 0.07071544
0.18028732 0.10178952 0.05094438
0.19728637 0.08434574 0.04357898
0.20936671 0.07692132 0.04316122
0.22191343 0.07020634 0.04425113
0.23847157 0.0646731 0.04959745
0.25486809 0.05697004 0.05615439
0.26962584 0.05095327 0.05142999
0.28516129 0.0439823 0.04677807
0.30288902 0.03525173 0.04190814
0.31770608 0.02610649 0.040462
0.33780718 0.01203855 0.03753426
0.35536602 -0.01228447 0.01706461
0.37010726 -0.02213764 0.00157797
0.39360559 -0.03844626 -0.00500495
0.41738418 -0.05034447 -0.01236284
0.44590959 -0.06630982 -0.02292781
0.46546841 -0.07686034 -0.028763
0.49062943 -0.08838228 -0.03543408
0.50323027 -0.09211475 -0.0375902
0.5314002 -0.09737217 -0.03796452
0.55677509 -0.10260841 -0.04208269
0.57929933 -0.10657351 -0.05260208
0.11248037 0.10930321 0.09510617
0.11248037 0.10930321 0.09510617
0.11483288 0.10994883 0.09521499
0.11831456 0.1095548 0.09482098
0.1217723 0.10916349 0.09442966
0.12480154 0.10974615 0.09446751
0.13416536 0.10893495 0.09358821
0.14050674 0.10708039 0.09240386
0.14711761 0.10654172 0.09174018
0.15992415 0.10957478 0.07773439
0.17247948 0.11165734 0.06121286
0.19322625 0.10566197 0.04370305
0.20502372 0.09909844 0.04203119
0.22050254 0.09234327 0.04195272
0.23714097 0.08628421 0.04251899
0.25423098 0.08210388 0.0472575
0.27155504 0.06837444 0.03657461
0.28301671 0.06110348 0.03195709
0.30771053 0.04748798 0.02754025
0.3315587 0.0338316 0.02639313
0.35088375 0.01162875 0.01277503
0.36610198 -0.0094801 -0.00669766
0.37840256 -0.01848818 -0.01477551
0.40862468 -0.04076374 -0.01534333
0.44286302 -0.05727539 -0.02388918
0.46404663 -0.06887093 -0.02840572
0.4899776 -0.08246531 -0.03960056
0.50904953 -0.08980198 -0.04588044
0.52846766 -0.09165237 -0.0467237
0.5483095 -0.09365268 -0.04820763
0.58037978 -0.1048827 -0.05655927
0.60344857 -0.10907171 -0.06452451
0.6380049 -0.11465384 -0.07430841
0.1127475 0.11756828 0.09810396
0.1127475 0.11756828 0.09810396
0.11467569 0.11865231 0.0984886
0.11653017 0.11891758 0.09860074
0.11857036 0.12002841 0.09899573
0.12043101 0.12112434 0.09938344
0.13720281 0.1183349 0.09729151
0.15078208 0.1171674 0.09109906
0.15918782 0.11952727 0.07993326
0.16857138 0.12375183 0.06696959
0.18000376 0.12427229 0.05368742
0.19945636 0.12146087 0.03935376
0.21576597 0.11759558 0.04019744
0.23545957 0.11339879 0.03919942
0.24933931 0.11127271 0.03687889
0.26693368 0.10096462 0.03135233
0.28507346 0.08358503 0.02045739
0.30470383 0.0721188 0.01228702
0.33484307 0.05574073 0.01122329
0.35947701 0.03124916 -0.00092831
0.3772763 0.00790346 -0.01066275
0.39460379 -0.0017419 -0.02125176
0.41025653 -0.00884427 -0.03357353
0.44407189 -0.03407307 -0.0372439
0.47351307 -0.04437003 -0.03537081
0.49426782 -0.05776111 -0.03974085
0.51910681 -0.069536 -0.05040406
0.53791082 -0.07634121 -0.0582348
0.56999153 -0.08940843 -0.06272803
0.5965544 -0.10270452 -0.06664071
0.62243354 -0.11031958 -0.07304062
0.65819955 -0.11584317 -0.08290344
0.68136746 -0.11851899 -0.08741392
0.1161973 0.12746023 0.10339661
0.1161973 0.12746023 0.10339661
0.11900873 0.12913571 0.10481945
0.12108237 0.12943234 0.10494484
0.12373442 0.13110036 0.10637312
0.12523033 0.13129213 0.10578803
0.12927201 0.13257743 0.1046183
0.1418051 0.13299741 0.10460442
0.16461462 0.13557361 0.08499804
0.17353901 0.13872944 0.07237644
0.18608969 0.13735873 0.05270272
0.20456451 0.13706167 0.03890047
0.22619298 0.13620245 0.02887532
0.24517381 0.13256496 0.02187982
0.26122075 0.12976968 0.02323296
0.2766186 0.12844837 0.01998852
0.29475492 0.11715657 0.00674075
0.32365128 0.10178683 -0.00806663
0.34822449 0.08823451 -0.01696552
0.38007689 0.05368313 -0.01633774
0.40457353 0.03021061 -0.01763774
0.41911793 0.02242734 -0.03260594
0.43871269 0.00489697 -0.04572774
0.47532293 -0.015172 -0.04771329
0.49854419 -0.02327582 -0.04874135
0.52920169 -0.03329597 -0.05853943
0.54933542 -0.04199408 -0.0679744
0.57237792 -0.05542111 -0.06994242
0.6162594 -0.07777487 -0.07427271
0.63561285 -0.08123705 -0.08121897
0.66023237 -0.08163396 -0.08872347
0.69595063 -0.0989076 -0.09361608
0.71908087 -0.10822555 -0.0960411
0.12429506 0.14063223 0.11570661
0.12429506 0.14063223 0.11570661
0.12751074 0.14250442 0.11729056
0.12957144 0.1427992 0.11741516
0.13238271 0.14462915 0.11898998
0.13423693 0.14627272 0.11847831
0.13350239 0.14603579 0.1144865
0.13747375 0.14842688 0.11299907
0.15306714 0.15381639 0.11570553
0.17847444 0.15300941 0.08715202
0.19437714 0.15104394 0.06606007
0.21207258 0.15082054 0.05142227
0.23498012 0.15118735 0.03085771
0.25436783 0.15063837 0.02162798
0.26889226 0.15854162 0.01182458
0.28579646 0.15917747 0.00419559
0.31308198 0.15507606 -0.01385285
0.33675414 0.1467945 -0.02682592
0.35879281 0.14078942 -0.03461468
0.39182079 0.11012343 -0.03666575
0.41697666 0.09291358 -0.040021
0.43470311 0.08574256 -0.04496893
0.46673149 0.06638937 -0.05600018
0.49567565 0.04161055 -0.06309018
0.52944124 0.03195873 -0.0718986
0.55439883 0.02251533 -0.07864939
0.58730465 -0.00202127 -0.08367266
0.61173868 -0.02073471 -0.08445808
0.64107311 -0.03210193 -0.09340192
0.66793072 -0.04047564 -0.10140053
0.69188261 -0.04749438 -0.10516949
0.71937573 -0.06006527 -0.10951611
0.74296415 -0.0737799 -0.11345199
0.1305937 0.15413126 0.12550499
0.13148251 0.15598516 0.12660497
0.13387203 0.15632696 0.12674947
0.13660103 0.15846185 0.1279715
0.13870795 0.15876324 0.12809891
0.14203744 0.16093898 0.12609705
0.14445682 0.16297673 0.12267412
0.14589939 0.16312584 0.11963047
0.15310447 0.16466004 0.11793779
0.1666068 0.1666825 0.11885064
0.20331801 0.16097867 0.07577717
0.22377129 0.16201876 0.05113875
0.2436033 0.16148467 0.03600245
0.26332596 0.17093791 0.02312562
0.27474555 0.18255779 0.00996158
0.29983196 0.18913089 -0.00092947
0.32038218 0.19052893 -0.00969359
0.34795457 0.1902025 -0.03336371
0.3707988 0.18324684 -0.04091063
0.39446336 0.18099989 -0.04754917
0.42125279 0.17560035 -0.05611388
0.45032907 0.15378749 -0.06269111
0.48640215 0.13274786 -0.07647502
0.50653237 0.1250014 -0.08134719
0.5350278 0.11164146 -0.08648865
0.57100004 0.09155767 -0.09526432
0.60858536 0.04563254 -0.10131473
0.6330983 0.04081723 -0.10793194
0.65793663 0.03887284 -0.11531067
0.69523871 0.01834223 -0.12130421
0.71738261 0.00326653 -0.12266539
0.73491687 -0.00041334 -0.12709893
0.76714426 -0.03169782 -0.13152756
0.13646398 0.16946191 0.13486929
0.13694844 0.16950589 0.13491037
0.14002042 0.1722534 0.13654774
0.14191529 0.17243131 0.1367057
0.14409459 0.17274304 0.13683748
0.14794976 0.17557417 0.13530381
0.15150739 0.17839511 0.13301679
0.15426844 0.17809595 0.13043956
0.15793675 0.18077219 0.12983686
0.16701372 0.18058853 0.12845106
0.19262345 0.1775631 0.11370037
0.21900205 0.17500901 0.08793568
0.24056312 0.17746174 0.06157126
0.26021361 0.18328774 0.03708839
0.27722493 0.19330062 0.02329813
0.29971367 0.20181736 0.01954354
0.3250691 0.20677021 0.00938664
0.34736413 0.21372023 -0.01538683
0.37608403 0.2199565 -0.03699234
0.40075365 0.22412461 -0.04497696
0.42716646 0.22272213 -0.05807749
0.45893049 0.20650341 -0.07541939
0.49146691 0.19852191 -0.08806892
0.52509969 0.19921866 -0.09547543
0.54750073 0.19878128 -0.0995403
0.58606988 0.16907085 -0.10648669
0.61445946 0.16031317 -0.11360143
0.64607912 0.13590634 -0.12152611
0.67073727 0.1322228 -0.12754099
0.69339097 0.11775115 -0.13194062
0.7260735 0.09310023 -0.13744572
0.75659204 0.07498734 -0.14457168
0.78237486 0.05234879 -0.15174264
0.14114243 0.18500352 0.14364675
0.14191574 0.18507209 0.14371532
0.14493775 0.18792515 0.14540148
0.14690173 0.18810238 0.14557001
0.14990042 0.19097783 0.14717698
0.15415159 0.19395018 0.14744784
0.15760997 0.19414869 0.14466101
0.16062024 0.19584811 0.14572574
0.16472967 0.19746035 0.14650136
0.17330849 0.19728021 0.14557262
0.18330531 0.20021364 0.14609589
0.19769295 0.20181735 0.14491625
0.23683666 0.19453734 0.09663418
0.25379527 0.19869669 0.06497347
0.27485824 0.20581868 0.04369919
0.30273458 0.20748556 0.03052848
0.32792592 0.21749802 0.02139685
0.34963411 0.22961076 0.00408022
0.37939793 0.24222484 -0.02464344
0.40460137 0.25835657 -0.03678412
0.43228492 0.26217318 -0.04837888
0.46803439 0.26099014 -0.0717778
0.49975628 0.25143173 -0.08995083
0.5240438 0.25710005 -0.09748477
0.54558992 0.26266614 -0.10436161
0.59286904 0.24923921 -0.11525001
0.61914164 0.23870341 -0.12174167
0.64868575 0.236149 -0.13347013
0.67524338 0.23067465 -0.14087009
0.69963598 0.21205741 -0.14453059
0.73315412 0.17270222 -0.14962012
0.75321752 0.16834724 -0.15553261
0.78954846 0.13341478 -0.16426031
0.14601572 0.20166586 0.1530454
0.14717567 0.20176871 0.15314825
0.15007283 0.20528765 0.15528689
0.15223551 0.2054794 0.15547864
0.15516309 0.20903723 0.15788159
0.15849584 0.20931712 0.15759069
0.16190597 0.20932515 0.15604424
0.16497095 0.21162257 0.15670931
0.16917194 0.21377255 0.15671945
0.17500584 0.21306735 0.15343049
0.18453415 0.216094 0.15424092
0.20404786 0.22102498 0.15325791
0.21919098 0.22305852 0.15194242
0.24885212 0.21711165 0.09637079
0.26829201 0.21866953 0.07757881
0.30436537 0.21576793 0.0442215
0.32747704 0.2202488 0.03008762
0.35306886 0.24288607 0.02055438
0.36925957 0.25481272 0.01647355
0.4074254 0.27957103 -0.00978481
0.42624605 0.29222044 -0.02702019
0.45884368 0.29213628 -0.05196815
0.49468869 0.28926528 -0.08143866
0.5189364 0.29884097 -0.09649605
0.53767294 0.30439016 -0.10321957
0.58619815 0.29041281 -0.11845063
0.61059302 0.29300967 -0.12770022
0.63161558 0.29869375 -0.13886052
0.65784597 0.28912306 -0.14656512
0.69106287 0.2726512 -0.15229414
0.72636533 0.26278684 -0.16044804
0.7516107 0.25812519 -0.16773437
0.77687532 0.24459347 -0.17464274
0.15090887 0.21887834 0.16323459
0.15232003 0.21896811 0.16332436
0.15433228 0.21909611 0.16345236
0.15639098 0.21922706 0.16358331
0.15924372 0.22292113 0.16623184
0.16220751 0.22668859 0.17007521
0.16509232 0.22658445 0.16927534
0.16887926 0.228826 0.16900477
0.17309716 0.23122916 0.16853856
0.178407 0.23046002 0.16405529
0.18918157 0.23000917 0.16022411
0.20106557 0.23399617 0.16163452
0.22045729 0.23877706 0.16202152
0.2347834 0.23623417 0.15782903
0.26181304 0.23122141 0.11329445
0.28781256 0.23330998 0.0889546
0.31400552 0.22900052 0.06194815
0.34588709 0.23634857 0.03050327
0.36624125 0.25402752 0.02875159
0.39569601 0.27263895 0.00635781
0.41567454 0.28466782 -0.01441187
0.44170144 0.30621442 -0.03315684
0.47442377 0.30869699 -0.05596022
0.50142413 0.32464868 -0.06746712
0.52310961 0.32947031 -0.08357736
0.55827701 0.32823676 -0.10681143
0.58734405 0.31930977 -0.11641116
0.6178112 0.32483745 -0.13520089
0.63226032 0.33139634 -0.14319889
0.67044157 0.32899609 -0.15404913
0.70491266 0.3151758 -0.16195649
0.72975838 0.31107903 -0.16571902
0.75543547 0.30144867 -0.17153226
0.15404862 0.22966705 0.16966256
0.15690309 0.23344053 0.17195791
0.15880083 0.23356125 0.17207862
0.16177666 0.23737778 0.17466824
0.16350716 0.23713166 0.17478076
0.16544928 0.23730344 0.17650335
0.16889493 0.24154902 0.18088759
0.17154379 0.2402969 0.17815873
0.17406191 0.23819411 0.17405848
0.17919303 0.24042173 0.17210901
0.18579246 0.24347211 0.17109098
0.19730277 0.24506132 0.17123604
0.21181953 0.24933395 0.17342103
0.23707783 0.24755391 0.16805309
0.24826851 0.2490443 0.16842896
0.27482426 0.24650292 0.13691533
0.29554769 0.24914806 0.11858916
0.32421243 0.24474181 0.07673976
0.35921916 0.24761429 0.03446703
0.38219309 0.26351836 0.02357145
0.40592113 0.27879044 -0.00152273
0.43085775 0.29828554 -0.02112277
0.45068717 0.3147476 -0.03250835
0.47939754 0.33042943 -0.04452234
0.50140804 0.34037429 -0.05475586
0.5351488 0.34960037 -0.08195139
0.56330454 0.35103327 -0.10623151
0.59016752 0.3514275 -0.11631982
0.61347759 0.34746492 -0.12966388
0.63618058 0.35406041 -0.14346445
0.66708452 0.34790662 -0.15303107
0.69981271 0.34507036 -0.16116725
0.72535837 0.3440266 -0.16659434
0.15703604 0.24072523 0.17716047
0.15910776 0.24085702 0.17729226
0.16178006 0.24471302 0.18028602
0.16360965 0.2448294 0.18040241
0.16502768 0.24291024 0.17812362
0.16735257 0.24571082 0.18085501
0.16957361 0.24668717 0.18317157
0.17331618 0.24863856 0.18531494
0.17683443 0.25163034 0.18624885
0.17879143 0.24743128 0.17866096
0.18342695 0.24998915 0.17746934
0.19354723 0.25529203 0.18028769
0.20598811 0.2567797 0.18062796
0.22623447 0.25514406 0.17831993
0.24716246 0.25735584 0.17676151
0.25880527 0.2602222 0.17695792
0.27953312 0.25857925 0.15426388
0.30780101 0.26026544 0.12439238
0.33818796 0.25529265 0.07993928
0.36039907 0.25532365 0.05193276
0.38701016 0.26615101 0.02151492
0.41083997 0.28189945 -0.00234298
0.43072972 0.29914626 -0.01457821
0.45708352 0.32165554 -0.02728015
0.47045794 0.33120465 -0.03184231
0.50750911 0.34664226 -0.05210965
0.52299476 0.35586569 -0.06171858
0.55021834 0.37001505 -0.08359252
0.58755273 0.36927962 -0.11335932
0.61064053 0.36332271 -0.1259753
0.63307464 0.36925989 -0.13604194
0.65380281 0.36611959 -0.14604928
0.68457407 0.36760497 -0.15584704
0.15907969 0.2482574 0.18296109
0.16023135 0.24461451 0.18018751
0.16298938 0.2485061 0.18320978
0.16565058 0.25242165 0.186249
0.16683789 0.25094283 0.18449204
0.16842276 0.25141329 0.18361655
0.17087162 0.25240988 0.18613517
0.17547253 0.25680402 0.19198886
0.177939 0.2557922 0.18969449
0.1803488 0.25611889 0.18658203
0.18275972 0.25365376 0.18158573
0.19013342 0.25798523 0.18359017
0.19960296 0.2635802 0.18749157
0.21180052 0.26038268 0.18406413
0.232372 0.26171535 0.18472846
0.25327528 0.26031086 0.17940247
0.26627713 0.26391456 0.17727803
0.2830072 0.26250792 0.15792562
0.30566898 0.2649461 0.13534239
0.33117181 0.26679802 0.11193715
0.36043367 0.25531685 0.05279415
0.38572469 0.265488 0.03015619
0.41019103 0.28159952 0.00232078
0.43070114 0.29961142 -0.01109602
0.45037609 0.316634 -0.02100983
0.47036383 0.33172646 -0.02921157
0.49119061 0.34309146 -0.03884659
0.51368213 0.35309184 -0.05080093
0.53997791 0.36942267 -0.0712385
0.56858826 0.37372816 -0.09234348
0.58756053 0.3692756 -0.11253966
0.61064738 0.36331734 -0.12513629
0.6249944 0.3696368 -0.13027191
0.15852445 0.24450594 0.18007894
0.16044113 0.24462785 0.18020086
0.16298938 0.2485061 0.18320978
0.16565058 0.25242165 0.186249
0.16683789 0.25094283 0.18449204
0.1675463 0.2485204 0.18192935
0.16918328 0.248666 0.18338138
0.17347063 0.25264171 0.18887042
0.17712551 0.25619146 0.19090521
0.17974329 0.25817195 0.19062386
0.18080512 0.25475675 0.18510203
0.18459056 0.25331089 0.18072358
0.19357741 0.25532222 0.18163925
0.20601627 0.25680786 0.18188941
0.22037283 0.25931233 0.18360072
0.23238367 0.26172704 0.18528359
0.25060073 0.26069522 0.18097192
0.26295754 0.25999635 0.17478094
0.28517517 0.2581276 0.14904392
0.30106515 0.26093382 0.1357493
0.32146063 0.25893161 0.11059204
0.35181987 0.25728789 0.06864753
0.3745214 0.25799182 0.03674921
0.39180195 0.26948255 0.02409744
0.41788647 0.28776386 -0.0064237
0.4307932 0.29912108 -0.01298066
0.45047721 0.31614828 -0.02283753
0.47716767 0.33532292 -0.03319249
0.4920449 0.34127235 -0.04133224
0.51454753 0.35127074 -0.05340183
0.53998429 0.36941937 -0.07056625
0.55855715 0.37598214 -0.07969108
0.57870007 0.37145939 -0.10347083
0.15890077 0.24452987 0.18010287
0.16066113 0.24464186 0.18021485
0.16220078 0.24473979 0.18031278
0.16471149 0.24861564 0.18331933
0.16583928 0.24758154 0.18208735
0.16668107 0.24565381 0.1803478
0.16830593 0.24580652 0.18205439
0.17151383 0.25077349 0.1868172
0.17483436 0.25261277 0.18924123
0.17713842 0.2511546 0.18652153
0.17927727 0.2519657 0.18438406
