site/assets/luts/freshluts--0001237-correction-cine.cube
# LUTr-Schema-Version: 2
# LUTr-ID: freshluts--0001237-correction-cine
# LUTr-Title: Correction-cine
# LUTr-Collection: Fresh LUTs
# LUTr-Collection-ID: freshluts-community
# LUTr-Source: https://freshluts.com
# LUTr-Retrieved: 2026-07-27
# LUTr-Source-File: submissions-raw/freshluts/cubes/1237__correction-cine.cube
# LUTr-Source-Format: CUBE
# LUTr-Source-SHA256: 8a1a4a8dbec764ccf534ec24322a3c06b6db963c38045a0120b875d9fcb64a3b
# LUTr-License: CC0-1.0
# LUTr-License-URL: https://freshluts.com/termsandconditions
# LUTr-License-Basis: site-terms
# LUTr-Transform-Class: creative-look
# LUTr-Tags: creative, freshluts, community, cube, green, low-key, sony-s-log3, cinematic, correction
# LUTr-Input-Color-Space: sony-slog3-sgamut3
# LUTr-Input-Gamut: sony-s-gamut3
# LUTr-Input-Transfer: sony-s-log3
# LUTr-Output-Color-Space: srgb
# LUTr-Output-Gamut: rec709
# LUTr-Output-Transfer: srgb
# LUTr-Color-Space-Confidence: inferred-from-source-label
# LUTr-Domain-Normalized: true
# LUTr-Shaper: none
# LUTr-Original-Grid: 16x16x16
# LUTr-Conversion-Grid: 16x16x16
# LUTr-Conversion-Interpolation: none
# LUTr-Conversion-Method: Metadata normalization; numeric LUT samples preserved
# LUTr-Conversion-Tool: LUTr scripts/convert-all-to-cube.mjs 2.0.0
# LUTr-Conversion-Date: 2026-07-28
# LUTr-Asset-URL: https://freshluts.com/luts/1237
# LUTr-Author: lvannoeun@gmail.com
# LUTr-Author-URL: https://freshluts.com/users/57563
# LUTr-Attribution: lvannoeun@gmail.com via Fresh LUTs
# LUTr-Source-Labels: gamma=Sony S-Log 3; color=Green; key=Low Key; style=Drama
# LUTr-Duplicate-Assets: 1837:https://freshluts.com/luts/1837
# LUTr-Note: Preserve this metadata and the upstream license notices when redistributing.
TITLE "Correction-cine"
LUT_3D_SIZE 16
DOMAIN_MIN 0 0 0
DOMAIN_MAX 1 1 1
0 0 0
0.057688 -0.00025 -0.00025
0.13397 -0.000514 -0.000514
0.213628 -0.000783 -0.000783
0.290447 -0.001056 -0.001056
0.365162 -0.001331 -0.001331
0.438221 -0.001606 -0.001606
0.509573 -0.001882 -0.001882
0.579229 -0.002156 -0.002156
0.646465 -0.002424 -0.002424
0.711231 -0.002686 -0.002686
0.773438 -0.002941 -0.002941
0.832501 -0.003184 -0.003184
0.887543 -0.003414 -0.003414
0.935729 -0.003621 -0.003621
0.965849 -0.003775 -0.003775
-0.000449 0.054832 -0.000449
0.057687 0.054832 -0.000492
0.13397 0.056758 -0.000653
0.213628 0.057901 -0.000872
0.290447 0.058679 -0.001118
0.365162 0.059248 -0.001378
0.438221 0.059678 -0.001643
0.509573 0.059968 -0.001912
0.579229 0.060125 -0.002181
0.646465 0.060091 -0.002445
0.711231 0.05989 -0.002704
0.773438 0.059541 -0.002956
0.832501 0.059017 -0.003198
0.887543 0.05827 -0.003427
0.935729 0.057227 -0.003632
0.965849 0.05536 -0.003785
-0.000925 0.130347 -0.000925
0.059659 0.130346 -0.000943
0.133968 0.130346 -0.001013
0.213627 0.132892 -0.001157
0.290446 0.134642 -0.001342
0.365162 0.135909 -0.001556
0.438221 0.136877 -0.001789
0.509573 0.137536 -0.002033
0.579229 0.137868 -0.002283
0.646465 0.137805 -0.002533
0.711231 0.137366 -0.00278
0.773438 0.136593 -0.003023
0.832501 0.135423 -0.003257
0.887543 0.13378 -0.003479
0.935729 0.131448 -0.003679
0.965849 0.127251 -0.003826
-0.001411 0.209088 -0.001411
0.060817 0.209088 -0.001421
0.136575 0.209088 -0.001464
0.213626 0.209088 -0.001545
0.290446 0.21159 -0.001683
0.365162 0.213426 -0.00185
0.43822 0.214803 -0.002042
0.509573 0.215762 -0.002252
0.579229 0.216239 -0.002473
0.646465 0.216153 -0.002699
0.711231 0.215523 -0.002926
0.773438 0.214395 -0.003152
0.832501 0.212729 -0.003372
0.887542 0.210375 -0.003581
0.935729 0.206998 -0.003771
0.965849 0.200931 -0.003907
-0.001902 0.286182 -0.001902
0.061616 0.286182 -0.001909
0.138378 0.286182 -0.001938
0.216196 0.286182 -0.001996
0.290445 0.286182 -0.002083
0.365161 0.288545 -0.002217
0.43822 0.290335 -0.002374
0.509573 0.291615 -0.00255
0.579229 0.29222 -0.00274
0.646465 0.29208 -0.002938
0.711231 0.29127 -0.003141
0.773438 0.28982 -0.003345
0.8325 0.287636 -0.003545
0.887542 0.284569 -0.003738
0.935729 0.280205 -0.003911
0.965849 0.27235 -0.004033
-0.002397 0.361965 -0.002397
0.062186 0.361965 -0.002402
0.139662 0.361965 -0.002424
0.218007 0.361965 -0.002467
0.292774 0.361965 -0.002534
0.365161 0.361964 -0.002625
0.438219 0.364221 -0.002756
0.509572 0.365708 -0.002904
0.579229 0.366492 -0.003066
0.646465 0.366353 -0.003237
0.711231 0.365324 -0.003414
0.773437 0.363544 -0.003594
0.8325 0.36089 -0.003773
0.887542 0.357167 -0.003945
0.935729 0.351732 -0.0041
0.965848 0.342133 -0.004203
-0.002894 0.436757 -0.002894
0.062621 0.436757 -0.002898
0.140629 0.436757 -0.002915
0.21941 0.436757 -0.002949
0.294566 0.436757 -0.003002
0.367252 0.436757 -0.003075
0.438218 0.436756 -0.003169
0.509571 0.438559 -0.003295
0.579228 0.439492 -0.003434
0.646464 0.439286 -0.003581
0.71123 0.438096 -0.003734
0.773436 0.435981 -0.003891
0.8325 0.432864 -0.004047
0.887542 0.428381 -0.004198
0.935728 0.42206 -0.004332
0.965848 0.410673 -0.004414
-0.00339 0.51036 -0.00339
0.06292 0.51036 -0.003393
0.141307 0.51036 -0.003407
0.220369 0.51036 -0.003435
0.295796 0.51036 -0.003478
0.368745 0.51036 -0.003539
0.439971 0.51036 -0.003617
0.509571 0.51036 -0.003712
0.579227 0.511459 -0.003833
0.646464 0.511158 -0.003959
0.71123 0.509857 -0.004091
0.773436 0.507412 -0.004226
0.832499 0.503801 -0.00436
0.887541 0.498702 -0.004489
0.935728 0.491356 -0.004603
0.965848 0.478267 -0.004662
-0.003883 0.582543 -0.003883
0.063063 0.582543 -0.003885
0.141643 0.582543 -0.003897
0.220839 0.582543 -0.00392
0.296407 0.582543 -0.003956
0.369528 0.582543 -0.004008
0.440807 0.582543 -0.004074
0.510593 0.582543 -0.004155
0.579227 0.582543 -0.004252
0.646464 0.5823 -0.004361
0.711229 0.580773 -0.004474
0.773435 0.578026 -0.00459
0.832499 0.573916 -0.004704
0.887541 0.568104 -0.004813
0.935728 0.559862 -0.004906
0.965848 0.545082 -0.004941
-0.004366 0.652679 -0.004366
0.06302 0.652679 -0.004369
0.141577 0.652679 -0.004378
0.220734 0.652679 -0.004398
0.296297 0.652679 -0.004429
0.369327 0.652679 -0.004473
0.440676 0.652679 -0.004529
0.510415 0.652679 -0.0046
0.578952 0.652679 -0.004684
0.646463 0.652679 -0.004781
0.711228 0.650996 -0.004879
0.773434 0.647888 -0.004977
0.832499 0.643352 -0.005073
0.88754 0.636869 -0.005163
0.935727 0.627686 -0.005235
0.965847 0.6112 -0.005248
-0.004838 0.720456 -0.004838
0.062809 0.720456 -0.00484
0.141118 0.720456 -0.004848
0.220109 0.720456 -0.004865
0.295494 0.720456 -0.004892
0.368435 0.720456 -0.00493
0.439508 0.720455 -0.004979
0.509094 0.720455 -0.005041
0.577482 0.720455 -0.005114
0.644818 0.720454 -0.0052
0.711227 0.720454 -0.005298
0.773432 0.717107 -0.005381
0.832498 0.711966 -0.005462
0.88754 0.704967 -0.005533
0.935727 0.694715 -0.005587
0.965847 0.676554 -0.005576
-0.005296 0.785737 -0.005296
0.062443 0.785737 -0.005298
0.140337 0.785737 -0.005305
0.218993 0.785737 -0.00532
0.294064 0.785737 -0.005344
0.366663 0.785737 -0.005376
0.437418 0.785737 -0.00542
0.50673 0.785737 -0.005474
0.574906 0.785737 -0.005539
0.641948 0.785737 -0.005615
0.708044 0.785737 -0.005703
0.773431 0.785736 -0.0058
0.832497 0.780216 -0.005865
0.887539 0.772439 -0.005922
0.935726 0.761426 -0.005957
0.965846 0.741615 -0.005925
-0.005735 0.847834 -0.005735
0.061895 0.847834 -0.005737
0.139144 0.847834 -0.005743
0.217314 0.847834 -0.005756
0.291882 0.847834 -0.005777
0.364076 0.847834 -0.005806
0.434412 0.847834 -0.005844
0.50324 0.847834 -0.005892
0.570886 0.847834 -0.00595
0.63757 0.847834 -0.006018
0.70328 0.847834 -0.006095
0.768261 0.847834 -0.006183
0.832496 0.847833 -0.006281
0.887538 0.839307 -0.006322
0.935725 0.8274 -0.00634
0.965846 0.805917 -0.006288
-0.006149 0.906031 -0.006149
0.061123 0.906031 -0.006151
0.137453 0.906031 -0.006156
0.214918 0.906031 -0.006168
0.288872 0.906031 -0.006186
0.360315 0.906031 -0.006212
0.430038 0.906031 -0.006246
0.498235 0.906031 -0.006288
0.565355 0.906031 -0.00634
0.631381 0.906031 -0.006401
0.696505 0.90603 -0.00647
0.760955 0.90603 -0.006549
0.824448 0.90603 -0.006637
0.887537 0.90603 -0.006734
0.935724 0.893092 -0.006737
0.965845 0.870036 -0.006664
-0.006523 0.958301 -0.006523
0.060039 0.958301 -0.006524
0.135055 0.958301 -0.006529
0.211551 0.958301 -0.006539
0.284512 0.958301 -0.006555
0.355062 0.958301 -0.006578
0.42388 0.958301 -0.006608
0.49118 0.958301 -0.006646
0.557387 0.958301 -0.006693
0.622544 0.958301 -0.006746
0.686806 0.9583 -0.006809
0.750383 0.9583 -0.00688
0.813157 0.9583 -0.006959
0.87537 0.9583 -0.007047
0.935723 0.9583 -0.007143
0.965844 0.933554 -0.007051
-0.0068 0.996118 -0.0068
0.058121 0.996118 -0.0068
0.130777 0.996118 -0.006805
0.205449 0.996118 -0.006814
0.276723 0.996118 -0.006828
0.345638 0.996118 -0.006848
0.412772 0.996118 -0.006875
0.478481 0.996118 -0.006909
0.543137 0.996118 -0.00695
0.606691 0.996118 -0.006998
0.669469 0.996118 -0.007054
0.731486 0.996118 -0.007117
0.792837 0.996117 -0.007187
0.85359 0.996117 -0.007266
0.913529 0.996117 -0.007352
0.965843 0.996117 -0.007446
-0.000188 -0.000188 0.007397
0.057688 -0.000296 0.007397
0.13397 -0.000534 0.008791
0.213628 -0.000795 0.009638
0.290447 -0.001064 0.01023
0.365162 -0.001337 0.010662
0.438221 -0.001611 0.010993
0.509573 -0.001886 0.011224
0.579229 -0.002159 0.011342
0.646465 -0.002427 0.011314
0.711231 -0.002688 0.011164
0.773438 -0.002942 0.010892
0.832501 -0.003186 0.010486
0.887543 -0.003416 0.009926
0.935729 -0.003623 0.009135
0.965849 -0.003776 0.007783
-0.000472 0.054832 0.007397
0.056043 0.055023 0.008555
0.145233 0.047993 0.004759
0.226764 0.038502 0.000688
0.301445 0.032006 0
0.373836 0.028088 0
0.445189 0.025784 0
0.515214 0.024473 0
0.583887 0.023785 0
0.650398 0.023514 0
0.714714 0.023512 0
0.776516 0.023697 0
0.835008 0.024013 0
0.889882 0.024412 0
0.937597 0.02484 0
0.967304 0.025203 0
-0.000934 0.130346 0.00879
0.036125 0.132534 0.000848
0.132792 0.131409 0
0.219306 0.130313 0
0.297781 0.128919 0
0.372342 0.127849 0
0.44462 0.127162 0
0.515226 0.126708 0
0.584165 0.126313 0
0.65082 0.12577 0
0.714924 0.125067 0
0.776717 0.124161 0
0.835494 0.122988 0
0.890283 0.121404 0
0.937895 0.119239 0
0.967548 0.115395 0
-0.001416 0.209088 0.009637
0.028407 0.21055 0
0.127018 0.210693 0
0.213058 0.209767 0
0.292949 0.210759 0
0.368849 0.211269 0
0.442233 0.211587 0
0.513614 0.211677 0
0.583019 0.211522 0
0.650016 0.210982 0
0.714456 0.210025 0
0.776516 0.208703 0
0.835042 0.206883 0
0.890058 0.204472 0
0.937804 0.201117 0
0.967385 0.19518 0
-0.001906 0.286182 0.010228
0.025834 0.287202 0
0.125334 0.287491 0
0.212053 0.2871 0
0.290054 0.286657 0
0.36637 0.288215 0
0.440293 0.289312 0
0.512087 0.289957 0
0.581814 0.290103 0
0.649092 0.289584 0
0.713762 0.288473 0
0.775924 0.286769 0
0.834674 0.284449 0
0.889757 0.281278 0
0.937539 0.276836 0
0.967293 0.269027 0
-0.0024 0.361965 0.010658
0.025296 0.362687 0
0.125084 0.362972 0
0.212166 0.362777 0
0.290542 0.362559 0
0.364878 0.362299 0
0.438903 0.364059 0
0.510879 0.365161 0
0.580834 0.365549 0
0.648248 0.365087 0
0.713142 0.363839 0
0.775406 0.361901 0
0.834369 0.359078 0
0.889424 0.355179 0
0.937231 0.349739 0
0.967036 0.3401 0
-0.002896 0.436757 0.010986
0.025785 0.43727 0
0.125396 0.437538 0
0.21269 0.43747 0
0.291321 0.437325 0
0.365916 0.437191 0
0.437985 0.437002 0
0.510006 0.438495 0
0.580026 0.439146 0
0.647573 0.438722 0
0.712541 0.437323 0
0.774965 0.435084 0
0.833821 0.431806 0
0.888983 0.427273 0
0.93699 0.420817 0
0.966908 0.409473 0
-0.003392 0.51036 0.011215
0.026855 0.510756 0
0.125822 0.510964 0
0.213188 0.510923 0
0.291969 0.510909 0
0.366723 0.510759 0
0.438967 0.510669 0
0.509434 0.510582 0
0.579493 0.511424 0
0.647066 0.51098 0
0.712094 0.509468 0
0.774361 0.506907 0
0.833503 0.503184 0
0.888701 0.498 0
0.936743 0.490608 0
0.966615 0.477482 0
-0.003884 0.582543 0.01133
0.028316 0.582877 0
0.126195 0.583044 0
0.21345 0.583021 0
0.29226 0.582966 0
0.367099 0.582918 0
0.439504 0.582863 0
0.509946 0.582785 0
0.579085 0.582685 0
0.646685 0.582304 0
0.711655 0.580646 0
0.774095 0.577775 0
0.833122 0.573604 0
0.888358 0.567759 0
0.936414 0.559398 0
0.966459 0.544632 0
-0.004367 0.652679 0.0113
0.030036 0.652933 0
0.126309 0.653042 0
0.213311 0.653048 0
0.29197 0.653053 0
0.366692 0.652977 0
0.438999 0.652966 0
0.509432 0.652905 0
0.578481 0.65284 0
0.646392 0.652794 0
0.711417 0.650982 0
0.773808 0.64784 0
0.832915 0.643139 0
0.888065 0.636684 0
0.936289 0.627417 0
0.966289 0.610908 0
-0.004839 0.720456 0.011142
0.031939 0.720601 0
0.126225 0.72069 0
0.212741 0.720759 0
0.291121 0.72068 0
0.36561 0.720701 0
0.437651 0.720642 0
0.507932 0.720586 0
0.576818 0.720608 0
0.644545 0.720525 0
0.711224 0.720396 0
0.773533 0.716975 0
0.832637 0.712107 0
0.888048 0.704784 0
0.936111 0.694637 0
0.966163 0.67646 0
-0.005297 0.785737 0.010864
0.033947 0.785811 0.000085
0.125895 0.785964 0
0.211797 0.785971 0
0.28973 0.785951 0
0.363827 0.785924 0
0.435462 0.785888 0
0.505456 0.785847 0
0.574027 0.785822 0
0.641407 0.785768 0
0.70776 0.78571 0
0.77337 0.785744 0
0.83247 0.780186 0
0.887785 0.772407 0
0.935933 0.761338 0
0.966027 0.741477 0
-0.005736 0.847834 0.01045
0.035998 0.847914 0.000277
0.125294 0.84801 0
0.21035 0.848049 0
0.287668 0.848032 0
0.361219 0.848009 0
0.432367 0.847979 0
0.501872 0.847942 0
0.569988 0.8479 0
0.636939 0.847918 0
0.702903 0.847882 0
0.768183 0.847892 0
0.83242 0.847892 0
0.887634 0.839369 0
0.935781 0.827398 0
0.966005 0.805889 0
-0.00615 0.906031 0.009882
0.038039 0.906246 0.000594
0.124281 0.906245 0
0.208257 0.906235 0
0.28478 0.906221 0
0.357611 0.906251 0
0.428083 0.906224 0
0.496908 0.90625 0
0.564343 0.906213 0
0.630718 0.906259 0
0.696078 0.906246 0
0.760605 0.906235 0
0.824429 0.906182 0
0.887512 0.906128 0
0.935713 0.893172 0
0.965865 0.870077 0
-0.006524 0.958301 0.009094
0.039945 0.958383 0.001014
0.122664 0.958441 0
0.205219 0.958433 0
0.280607 0.958413 0
0.352435 0.958395 0
0.421941 0.958559 0
0.489819 0.958531 0
0.556325 0.958498 0
0.621837 0.958457 0
0.686277 0.958408 0
0.750029 0.958381 0
0.812887 0.958355 0
0.875239 0.9584 0
0.935707 0.958349 0
0.965775 0.933662 0
-0.0068 0.996118 0.007736
0.057544 0.996118 0.007333
0.130545 0.996118 0.007334
0.205357 0.996118 0.007333
0.276642 0.996118 0.007333
0.345585 0.996118 0.007332
0.412736 0.996118 0.007331
0.47847 0.996118 0.00733
0.543156 0.996118 0.007329
0.606719 0.996118 0.007327
0.669454 0.996118 0.007326
0.731551 0.996118 0.007323
0.792813 0.996117 0.007325
0.853582 0.996117 0.007322
0.913525 0.996117 0.007319
0.965843 0.996117 0.007314
-0.000387 -0.000387 0.08315
0.05966 -0.000441 0.08315
0.13397 -0.000609 0.083149
0.213628 -0.000843 0.086213
0.290447 -0.001097 0.08832
0.365162 -0.001361 0.089868
0.438221 -0.001631 0.091037
0.509573 -0.001902 0.091844
0.579229 -0.002172 0.092258
0.646465 -0.002438 0.092173
0.711231 -0.002698 0.091654
0.773438 -0.002951 0.090682
0.832501 -0.003193 0.089268
0.887543 -0.003422 0.087284
0.935729 -0.003628 0.084464
0.965849 -0.003781 0.079483
-0.00057 0.056758 0.083149
0.051522 0.051549 0.100669
0.142978 0.044937 0.096932
0.225172 0.037093 0.091445
0.300592 0.031413 0.087253
0.373452 0.027829 0.084929
0.444903 0.025665 0.083789
0.515123 0.024418 0.083171
0.583767 0.023762 0.082722
0.650353 0.023509 0.082123
0.714641 0.023514 0.081336
0.776442 0.023707 0.080327
0.835043 0.024022 0.079003
0.889903 0.024427 0.077243
0.937658 0.024855 0.074826
0.967285 0.025213 0.070595
-0.000971 0.130346 0.083149
0.03517 0.131761 0.086363
0.130143 0.130771 0.087649
0.225314 0.124785 0.081968
0.311381 0.114251 0.072405
0.389745 0.102319 0.061556
0.46277 0.091798 0.052217
0.532504 0.083248 0.044964
0.60001 0.076537 0.039552
0.665193 0.071419 0.035582
0.72813 0.06751 0.032676
0.788755 0.064534 0.030523
0.84623 0.06229 0.028938
0.900233 0.060612 0.027779
0.945997 0.059381 0.026949
0.973736 0.058649 0.026434
-0.001438 0.209088 0.086212
0.028212 0.210361 0.082185
0.103119 0.213293 0.067324
0.210367 0.211109 0.05866
0.300595 0.207771 0.0516
0.381751 0.203488 0.044065
0.457497 0.199127 0.036944
0.529606 0.195023 0.030754
0.598661 0.191355 0.025674
0.664996 0.187968 0.021638
0.728729 0.184877 0.018507
0.789502 0.181876 0.016065
0.847375 0.17888 0.014207
0.901578 0.17567 0.012789
0.947234 0.171856 0.011762
0.974806 0.166202 0.011122
-0.001921 0.286182 0.088318
0.025796 0.287086 0.08147
0.083959 0.290401 0.053115
0.195156 0.290425 0.038155
0.288198 0.288215 0.03523
0.371301 0.287053 0.031483
0.448789 0.285496 0.0277
0.522483 0.283606 0.02414
0.593073 0.281538 0.021002
0.66055 0.279144 0.018367
0.725242 0.276464 0.016181
0.786939 0.273528 0.014426
0.845234 0.270242 0.013029
0.899913 0.266346 0.011935
0.946032 0.261449 0.01112
0.973971 0.253584 0.010631
-0.002411 0.361965 0.089864
0.025296 0.362665 0.081737
0.07268 0.365544 0.045541
0.185421 0.366269 0.025596
0.281012 0.365077 0.024297
0.363568 0.363677 0.022682
0.441912 0.363649 0.020693
0.516517 0.363077 0.01874
0.587994 0.361949 0.016921
0.656337 0.360185 0.015301
0.72165 0.357729 0.013911
0.784023 0.354739 0.012727
0.842907 0.351141 0.011767
0.89787 0.34661 0.010989
0.944586 0.340701 0.010402
0.973059 0.330943 0.010066
-0.002904 0.436757 0.091027
0.025795 0.437288 0.082292
0.066071 0.439643 0.041414
0.179666 0.440504 0.018151
0.276692 0.439897 0.01755
0.359881 0.439088 0.016762
0.436979 0.438109 0.015853
0.511975 0.438408 0.014774
0.58393 0.437994 0.013754
0.652747 0.436559 0.012799
0.718394 0.434291 0.011958
0.781179 0.43124 0.011224
0.840607 0.427268 0.0106
0.895873 0.422208 0.010094
0.943104 0.415342 0.009702
0.972008 0.403815 0.009495
-0.003399 0.51036 0.091839
0.026872 0.510775 0.082838
0.062222 0.51275 0.039121
0.176196 0.5136 0.013735
0.274023 0.513205 0.013427
0.357493 0.512774 0.013043
0.434879 0.512137 0.012572
0.508683 0.511462 0.012048
0.58082 0.511491 0.011473
0.649873 0.51034 0.010935
0.715866 0.508105 0.010442
0.778919 0.504949 0.010011
0.838441 0.50072 0.009637
0.893989 0.495057 0.009326
0.941672 0.487277 0.009093
0.97088 0.474036 0.008982
-0.00389 0.582543 0.092246
0.028337 0.582873 0.083214
0.060081 0.584517 0.037837
0.173933 0.585311 0.011086
0.272108 0.585089 0.010939
0.355659 0.584763 0.010743
0.433093 0.584387 0.010492
0.507019 0.583963 0.010224
0.57848 0.583457 0.009922
0.647582 0.582482 0.00963
0.713847 0.580271 0.009361
0.776863 0.576941 0.009119
0.836619 0.572325 0.008916
0.892272 0.566115 0.008745
0.940345 0.557452 0.008613
0.969909 0.54252 0.008567
-0.004372 0.652679 0.092164
0.030053 0.65293 0.083291
0.059048 0.654316 0.037161
0.172115 0.655082 0.009543
0.27032 0.654816 0.009467
0.353786 0.654651 0.009362
0.431034 0.654354 0.00923
0.504853 0.65408 0.009097
0.576275 0.653761 0.008948
0.645884 0.653416 0.008788
0.712108 0.651195 0.008648
0.775417 0.647625 0.008526
0.835104 0.64264 0.008434
0.890876 0.635834 0.008359
0.939137 0.626314 0.008305
0.969066 0.609711 0.008295
-0.004843 0.720456 0.091629
0.031954 0.720593 0.083086
0.058742 0.721735 0.036873
0.170465 0.722452 0.008667
0.268467 0.722323 0.00863
0.35161 0.722288 0.008584
0.428659 0.722103 0.008527
0.502125 0.721742 0.008465
0.573345 0.721497 0.008397
0.642748 0.72129 0.008332
0.710785 0.720986 0.008266
0.773992 0.717235 0.008219
0.833808 0.711896 0.008189
0.889727 0.70443 0.008166
0.938165 0.694183 0.008151
0.968197 0.675898 0.008154
-0.005301 0.785737 0.090675
0.033964 0.785809 0.082587
0.05894 0.786989 0.036848
0.168787 0.7876 0.008252
0.266348 0.787578 0.008243
0.349081 0.787432 0.008222
0.425673 0.787236 0.008203
0.498805 0.787039 0.008182
0.569617 0.78695 0.008163
0.638766 0.786766 0.00815
0.706421 0.786465 0.008139
0.773036 0.786389 0.008137
0.832908 0.78057 0.008145
0.888738 0.772486 0.008152
0.937245 0.761163 0.00816
0.967497 0.741247 0.008154
-0.005739 0.847834 0.089254
0.036011 0.847912 0.081741
0.059481 0.848877 0.03699
0.166902 0.849422 0.008136
0.263805 0.849373 0.008138
0.345955 0.84937 0.008137
0.421936 0.84923 0.008142
0.494574 0.849147 0.00815
0.564909 0.848983 0.008158
0.63355 0.848815 0.008178
0.700826 0.848651 0.008202
0.767019 0.848555 0.008243
0.831998 0.848308 0.008288
0.88803 0.839656 0.008312
0.936542 0.827468 0.008325
0.966854 0.805966 0.008295
-0.006153 0.906031 0.087256
0.038053 0.906245 0.080456
0.060243 0.907129 0.037253
0.164548 0.907548 0.008232
0.260567 0.907562 0.008244
0.341897 0.907429 0.008253
0.417194 0.907347 0.008272
0.489151 0.907299 0.008295
0.558772 0.907252 0.008325
0.626758 0.907137 0.008357
0.693266 0.906935 0.008403
0.758809 0.9069 0.00846
0.823335 0.906671 0.008525
0.887313 0.906498 0.008614
0.935914 0.893424 0.008617
0.966353 0.870297 0.008554
-0.006525 0.958301 0.084434
0.039957 0.958382 0.078486
0.061101 0.959144 0.037583
0.161402 0.959647 0.008452
0.256244 0.959554 0.008465
0.33646 0.959552 0.00848
0.41082 0.959485 0.008505
0.481665 0.959321 0.008535
0.550387 0.959361 0.008578
0.617461 0.95921 0.008624
0.683089 0.959144 0.008685
0.747783 0.959071 0.008762
0.811426 0.959014 0.008848
0.87443 0.958916 0.008946
0.93545 0.958733 0.009057
0.966037 0.933841 0.008949
-0.006802 0.996118 0.079451
0.057544 0.996118 0.07917
0.133921 0.996118 0.083092
0.207135 0.996118 0.083092
0.277791 0.996118 0.083092
0.346369 0.996118 0.083092
0.413312 0.996118 0.083091
0.478885 0.996118 0.08309
0.543445 0.996118 0.083095
0.606967 0.996118 0.083093
0.669597 0.996118 0.083092
0.731556 0.996118 0.083091
0.792895 0.996117 0.083089
0.853694 0.996117 0.083087
0.913587 0.996117 0.083091
0.965843 0.996117 0.083094
-0.00059 -0.00059 0.185697
0.060822 -0.000623 0.185697
0.136577 -0.000744 0.185696
0.213628 -0.000929 0.185696
0.290447 -0.00116 0.189003
0.365162 -0.00141 0.191388
0.438221 -0.001669 0.19319
0.509573 -0.001933 0.194448
0.579229 -0.002198 0.19506
0.646465 -0.00246 0.194939
0.711231 -0.002717 0.19412
0.773438 -0.002968 0.192656
0.832501 -0.003208 0.190482
0.887543 -0.003436 0.187416
0.935729 -0.00364 0.182994
0.965849 -0.003792 0.175053
-0.000714 0.057902 0.185696
0.044223 0.045797 0.209858
0.140675 0.040135 0.207028
0.222551 0.034836 0.199499
0.299161 0.030373 0.195977
0.372658 0.027344 0.193861
0.444479 0.025441 0.192816
0.514837 0.02432 0.192224
0.583652 0.023725 0.191695
0.650261 0.023497 0.190775
0.714504 0.023524 0.189484
0.776366 0.023725 0.187681
0.835045 0.024045 0.185348
0.889843 0.024452 0.182215
0.93761 0.024881 0.177859
0.967248 0.02524 0.170191
-0.001058 0.132892 0.185696
0.033356 0.132193 0.195174
0.126292 0.127791 0.208544
0.223518 0.121595 0.205572
0.309796 0.111252 0.201721
0.388233 0.100264 0.194822
0.46156 0.090457 0.187805
0.531621 0.082374 0.181889
0.599357 0.075973 0.177012
0.664694 0.071033 0.172831
0.727763 0.067252 0.169137
0.788333 0.064359 0.165704
0.845966 0.062165 0.162285
0.90005 0.060525 0.158618
0.945894 0.059332 0.15422
0.973659 0.058601 0.147564
-0.001481 0.209088 0.185695
0.02787 0.210013 0.18788
0.100943 0.211932 0.193709
0.208125 0.209707 0.19286
0.301385 0.204523 0.187502
0.386932 0.196628 0.179446
0.468367 0.185633 0.16826
0.544178 0.173759 0.155793
0.615253 0.162443 0.143829
0.682106 0.152278 0.133094
0.745707 0.143409 0.12384
0.80612 0.135818 0.116096
0.863355 0.12944 0.109795
0.916727 0.124146 0.104728
0.959183 0.119936 0.100814
0.983741 0.11712 0.098229
-0.00195 0.286182 0.189001
0.025725 0.286976 0.187521
0.083069 0.289812 0.181692
0.1811 0.291478 0.170916
0.285359 0.288651 0.163674
0.376024 0.284714 0.154499
0.459316 0.279413 0.143791
0.537038 0.27326 0.13232
0.610166 0.266761 0.120842
0.679077 0.260221 0.110263
0.744271 0.253857 0.100858
0.806095 0.24775 0.092674
0.8642 0.241843 0.085739
0.918277 0.235942 0.079928
0.960725 0.229788 0.07532
0.985056 0.22201 0.072305
-0.002433 0.361965 0.191403
0.025302 0.362603 0.188198
0.072301 0.365244 0.175032
0.156211 0.368444 0.149502
0.265098 0.368154 0.132421
0.3609 0.365144 0.126647
0.446346 0.362623 0.1194
0.525544 0.35941 0.111706
0.60001 0.355628 0.104068
0.670271 0.351283 0.096855
0.736648 0.346526 0.090235
0.79958 0.341472 0.084289
0.858782 0.336108 0.079088
0.913704 0.330203 0.074642
0.957725 0.323355 0.071046
0.983113 0.313454 0.068774
-0.002922 0.436757 0.193184
0.025826 0.43725 0.189164
0.065891 0.439511 0.171475
0.137608 0.442961 0.134028
0.24814 0.443871 0.106578
0.348666 0.441993 0.103193
0.434897 0.439758 0.09913
0.515275 0.438203 0.09433
