site/assets/luts/freshluts--0000504-dark-green.cube
# LUTr-Schema-Version: 2
# LUTr-ID: freshluts--0000504-dark-green
# LUTr-Title: dark green
# LUTr-Collection: Fresh LUTs
# LUTr-Collection-ID: freshluts-community
# LUTr-Source: https://freshluts.com
# LUTr-Retrieved: 2026-07-27
# LUTr-Source-File: submissions-raw/freshluts/cubes/504__dark_green_33pt_7.A008_04210712_C007.cube
# LUTr-Source-Format: CUBE
# LUTr-Source-SHA256: b9047ca899bae1d4efae35d65c9a4cb2995699a18d7f37aecd6d8566b141982a
# LUTr-License: CC0-1.0
# LUTr-License-URL: https://freshluts.com/termsandconditions
# LUTr-License-Basis: site-terms
# LUTr-Transform-Class: creative-look
# LUTr-Tags: creative, freshluts, community, cube, green, bmd-film-4k
# LUTr-Input-Color-Space: bmd-film-4k
# LUTr-Input-Gamut: bmd-film-gamut
# LUTr-Input-Transfer: bmd-film-4k
# LUTr-Output-Color-Space: srgb
# LUTr-Output-Gamut: rec709
# LUTr-Output-Transfer: srgb
# LUTr-Color-Space-Confidence: inferred-from-source-label
# LUTr-Domain-Normalized: true
# LUTr-Shaper: none
# LUTr-Original-Grid: 33x33x33
# LUTr-Conversion-Grid: 33x33x33
# LUTr-Conversion-Interpolation: none
# LUTr-Conversion-Method: Metadata normalization; numeric LUT samples preserved
# LUTr-Conversion-Tool: LUTr scripts/convert-all-to-cube.mjs 2.0.0
# LUTr-Conversion-Date: 2026-07-28
# LUTr-Asset-URL: https://freshluts.com/luts/504
# LUTr-Author: sswyft
# LUTr-Author-URL: https://freshluts.com/users/10877
# LUTr-Attribution: sswyft via Fresh LUTs
# LUTr-Source-Labels: gamma=Blackmagic BMD Film 4K; color=Green; key=Neutral; style=Cinematic/Dark
# LUTr-Note: Preserve this metadata and the upstream license notices when redistributing.
TITLE "dark green"
LUT_3D_SIZE 5
DOMAIN_MIN 0 0 0
DOMAIN_MAX 1 1 1
0 0 0
0.112718 0.00277714 0
0.248936 0.00231937 0
0.382528 0.00996414 0
0.492515 0.0389868 0.0226596
0.0164034 0.136248 0.0265812
0.13576 0.167437 0.0577707
0.353521 0.181628 0.0904097
0.519707 0.221439 0.130434
0.654688 0.274937 0.184176
0.100832 0.381643 0.111009
0.241428 0.434272 0.163516
0.438636 0.470298 0.199573
0.659632 0.49781 0.270191
0.795483 0.551629 0.324529
0.233768 0.66244 0.2439
0.373739 0.714046 0.29633
0.578515 0.737957 0.368277
0.740017 0.761364 0.477821
0.829816 0.796353 0.592569
0.434302 0.884108 0.442969
0.591623 0.897627 0.537423
0.760967 0.897734 0.643656
0.870909 0.909804 0.753811
0.930709 0.935851 0.851728
0 0.00926223 0.0758068
0.0409552 0.0409552 0.0409552
0.256123 0.00941482 0.0677806
0.393866 0.0209201 0.0791485
0.507332 0.0530709 0.111162
0.0276799 0.147539 0.126055
0.17731 0.17731 0.17731
0.37203 0.200061 0.183627
0.540383 0.241779 0.225376
0.67602 0.295644 0.279271
0.120302 0.401221 0.218585
0.260731 0.453666 0.270924
0.458488 0.490166 0.307408
0.680827 0.518791 0.365637
0.816098 0.571771 0.418845
0.253025 0.682246 0.350988
0.396933 0.730678 0.406867
0.603067 0.75169 0.479316
0.75671 0.775769 0.575753
0.838499 0.811734 0.6766
0.469261 0.890486 0.547662
0.625101 0.903304 0.63154
0.78616 0.905562 0.721477
0.889006 0.920821 0.814878
0.945678 0.949371 0.89926
0 0.0106661 0.238483
0.0566873 0.0550393 0.0616922
0.0877546 0.0877546 0.0877546
0.175448 0.113329 0.145769
0.454398 0.0883497 0.244877
0.0362249 0.156008 0.295735
0.161456 0.193133 0.332937
0.267018 0.267018 0.267018
0.497383 0.280797 0.368017
0.694163 0.313207 0.433371
0.136141 0.416968 0.395499
0.27599 0.468925 0.44744
0.501701 0.501701 0.501701
0.698894 0.53669 0.520256
0.833509 0.588724 0.57229
0.268345 0.69778 0.527092
0.423316 0.741466 0.582483
0.628046 0.761852 0.635569
0.77319 0.789364 0.701915
0.83798 0.828229 0.802838
0.510826 0.892195 0.698207
0.663661 0.906096 0.758083
0.815656 0.913237 0.819211
0.910491 0.933135 0.886
0.96347 0.964813 0.95349
0 0.0123903 0.388602
0.0757 0.0449531 0.250584
0.10634 0.10634 0.10634
0.152209 0.152209 0.152209
0.207645 0.207645 0.207645
0.0466468 0.166125 0.45481
0.174823 0.206455 0.495537
0.296117 0.296117 0.296117
0.366506 0.366506 0.366506
0.436896 0.436896 0.436896
0.152911 0.433188 0.56109
0.292332 0.485069 0.613199
0.491325 0.522835 0.650462
0.602457 0.602457 0.602457
0.715755 0.65391 0.681849
0.289448 0.712062 0.690974
0.455131 0.751888 0.733272
0.655756 0.773907 0.759915
0.802945 0.802945 0.802945
0.849271 0.849271 0.849271
0.555154 0.895247 0.818662
0.703227 0.91104 0.854871
0.845365 0.922896 0.88983
0.937209 0.94551 0.937865
0.982589 0.982696 0.982269
0 0.0169985 0.488304
0.0849317 0.0447242 0.382895
0.124331 0.124331 0.124331
0.173602 0.173602 0.173602
0.232136 0.232136 0.232136
0.0610666 0.180117 0.56463
0.191791 0.223331 0.608728
0.323507 0.323491 0.323522
0.394324 0.394324 0.394324
0.464622 0.464622 0.464622
0.172442 0.451942 0.676432
0.311864 0.504234 0.729335
0.512001 0.542672 0.761334
0.629618 0.629618 0.629618
0.695735 0.695735 0.695735
0.319539 0.727413 0.799374
0.490517 0.765042 0.825925
0.684184 0.78851 0.832212
0.81088 0.821424 0.846738
0.867536 0.867536 0.867536
0.597681 0.901778 0.889403
0.739437 0.918898 0.91014
0.872282 0.934264 0.929488
0.95729 0.960967 0.960357
0.999054 0.999054 0.999054
