site/assets/luts/freshluts--0001101-v-log-purple-flowers.cube
# LUTr-Schema-Version: 2
# LUTr-ID: freshluts--0001101-v-log-purple-flowers
# LUTr-Title: V-Log_Purple Flowers
# LUTr-Collection: Fresh LUTs
# LUTr-Collection-ID: freshluts-community
# LUTr-Source: https://freshluts.com
# LUTr-Retrieved: 2026-07-27
# LUTr-Source-File: submissions-raw/freshluts/cubes/1101__V-Log_DA_Purple_Flowers.cube
# LUTr-Source-Format: CUBE
# LUTr-Source-SHA256: 58a0ba6120d1c457718ed266a6094099cb569c7c8a66cf03d618912adbc83ec2
# LUTr-License: CC0-1.0
# LUTr-License-URL: https://freshluts.com/termsandconditions
# LUTr-License-Basis: site-terms
# LUTr-Transform-Class: creative-look
# LUTr-Tags: creative, freshluts, community, cube, panasonic-v-log
# LUTr-Input-Color-Space:
# LUTr-Input-Gamut: panasonic-v-gamut
# LUTr-Input-Transfer: panasonic-v-log
# LUTr-Output-Color-Space: srgb
# LUTr-Output-Gamut: rec709
# LUTr-Output-Transfer: srgb
# LUTr-Color-Space-Confidence: camera-profile-input-required
# LUTr-Domain-Normalized: true
# LUTr-Shaper: none
# LUTr-Original-Grid: 35x35x35
# LUTr-Conversion-Grid: 35x35x35
# LUTr-Conversion-Interpolation: none
# LUTr-Conversion-Method: Metadata normalization; numeric LUT samples preserved
# LUTr-Conversion-Tool: LUTr scripts/convert-all-to-cube.mjs 2.0.0
# LUTr-Conversion-Date: 2026-07-28
# LUTr-Asset-URL: https://freshluts.com/luts/1101
# LUTr-Author: Camera Head Studios LUTS
# LUTr-Author-URL: https://freshluts.com/users/107973
# LUTr-Attribution: Camera Head Studios LUTS via Fresh LUTs
# LUTr-Source-Labels: gamma=Panasonic V-log; color=None; key=Neutral; style=NEUTRAL
# LUTr-Note: Preserve this metadata and the upstream license notices when redistributing.
# LUTr-Upstream-Comment: Created by: Pixelmator Pro
# LUTr-Upstream-Comment: Color profile: "sRGB IEC61966-2.1"
# LUTr-Upstream-Comment: Data domain
# LUTr-Upstream-Comment: LUT size
TITLE "V-Log_Purple Flowers"
LUT_3D_SIZE 5
DOMAIN_MIN 0.000000 0.000000 0.000000
DOMAIN_MAX 0.823529 0.823529 0.823529
0 0 0
0.005 0 0
0.221 0 0
0.748 0 0
1 0.065 0.065
0 0 0
0 0 0
0.218 0 0
0.745 0 0
1 0.065 0.065
0 0.095 0.002
0.014 0.089 0.023
0.111 0.108 0.001
0.737 0 0
1 0.064 0.064
0.075 0.518 0.253
0.126 0.515 0.267
0.267 0.508 0.317
0.554 0.546 0.045
1 0.063 0.063
0.49 1 0.813
0.508 1 0.816
0.571 1 0.827
0.823 1 0.896
1 1 0.313
0 0 0
0.001 0 0
0.213 0 0
0.746 0 0
1 0.065 0.065
0 0 0
0 0 0
0.198 0 0
0.742 0 0
1 0.065 0.065
0 0.104 0.002
0 0.094 0.019
0.11 0.105 0.005
0.733 0 0
1 0.064 0.064
0.043 0.52 0.252
0.1 0.518 0.265
0.254 0.509 0.315
0.554 0.545 0.049
1 0.063 0.063
0.479 1 0.813
0.498 1 0.816
0.563 1 0.827
0.82 1 0.896
1 1 0.314
0 0 0.09
0 0 0.091
0.189 0 0.121
0.738 0 0.078
1 0.065 0.065
0 0 0.102
0 0 0.091
0.171 0 0.116
0.735 0 0.069
1 0.064 0.064
0 0.136 0.112
0 0.127 0.108
0.098 0.092 0.095
0.721 0 0.027
1 0.064 0.064
0 0.532 0.247
0 0.529 0.259
0.182 0.518 0.307
0.552 0.54 0.097
1 0.063 0.063
0.435 1 0.811
0.457 1 0.814
0.529 1 0.825
0.809 1 0.894
1 1 0.317
0 0 0.508
0 0 0.507
0.077 0 0.507
0.695 0 0.573
1 0.071 0.433
0 0 0.511
0 0 0.509
0.064 0 0.506
0.69 0 0.572
1 0.071 0.43
0 0.014 0.524
0 0.013 0.52
0.016 0.008 0.51
0.673 0 0.565
1 0.07 0.419
0 0.601 0.553
0 0.599 0.552
0 0.589 0.548
0.504 0.514 0.52
1 0.066 0.313
0.104 1 0.81
0.106 1 0.812
0.135 1 0.82
0.692 1 0.884
1 1 0.5
0.008 0.008 1
0.008 0.008 1
0.008 0.008 1
0.434 0.017 1
1 0.074 0.998
0.008 0.008 1
0.008 0.008 1
0.008 0.008 1
0.429 0.017 1
1 0.074 0.998
0.008 0.008 1
0.008 0.008 1
0.008 0.008 1
0.411 0.017 1
1 0.074 0.998
0.027 0.247 1
0.027 0.245 1
0.026 0.239 1
0.266 0.193 1
1 0.07 1
0.162 1 1
0.161 1 1
0.161 1 1
0.155 1 1
1 1 1
