site/assets/luts/freshluts--0000831-cold-lut-teal-orange.cube
# LUTr-Schema-Version: 2
# LUTr-ID: freshluts--0000831-cold-lut-teal-orange
# LUTr-Title: cold LUT (Teal - Orange)
# LUTr-Collection: Fresh LUTs
# LUTr-Collection-ID: freshluts-community
# LUTr-Source: https://freshluts.com
# LUTr-Retrieved: 2026-07-27
# LUTr-Source-File: submissions-raw/freshluts/cubes/831__richtige_6.pexels-andrea-piacquadio-839586.cube
# LUTr-Source-Format: CUBE
# LUTr-Source-SHA256: f87c6a48ba8d3829d66249fd1dd5a53fed843846dead8d82e5434311ed714417
# LUTr-License: CC0-1.0
# LUTr-License-URL: https://freshluts.com/termsandconditions
# LUTr-License-Basis: site-terms
# LUTr-Transform-Class: creative-look
# LUTr-Tags: creative, freshluts, community, cube, cool, low-key, panasonic-v-log-l, warm
# LUTr-Input-Color-Space: panasonic-vlogl-vgamut
# LUTr-Input-Gamut: panasonic-v-gamut
# LUTr-Input-Transfer: panasonic-v-log-l
# LUTr-Output-Color-Space: srgb
# LUTr-Output-Gamut: rec709
# LUTr-Output-Transfer: srgb
# LUTr-Color-Space-Confidence: inferred-from-source-label
# LUTr-Domain-Normalized: true
# LUTr-Shaper: none
# LUTr-Original-Grid: 17x17x17
# LUTr-Conversion-Grid: 17x17x17
# LUTr-Conversion-Interpolation: none
# LUTr-Conversion-Method: Metadata normalization; numeric LUT samples preserved
# LUTr-Conversion-Tool: LUTr scripts/convert-all-to-cube.mjs 2.0.0
# LUTr-Conversion-Date: 2026-07-28
# LUTr-Asset-URL: https://freshluts.com/luts/831
# LUTr-Author: LutMaster
# LUTr-Author-URL: https://freshluts.com/users/57203
# LUTr-Attribution: LutMaster via Fresh LUTs
# LUTr-Source-Labels: gamma=Panasonic V-log L; color=Cool; key=Low Key; style=Teal - Orange
# LUTr-Note: Preserve this metadata and the upstream license notices when redistributing.
TITLE "cold LUT (Teal - Orange)"
LUT_3D_SIZE 17
DOMAIN_MIN 0 0 0
DOMAIN_MAX 1 1 1
0.0345312 0.0722057 0.0807813
0.0348669 0.0729839 0.081651
0.036286 0.0737163 0.0823072
0.0568551 0.0760204 0.0832074
0.0845197 0.0802625 0.0840314
0.130404 0.0827497 0.0865949
0.181048 0.0839246 0.0842603
0.236667 0.0840009 0.0797894
0.292912 0.0857404 0.076112
0.351934 0.0868696 0.0698711
0.412253 0.0864881 0.0595712
0.476661 0.0842298 0.0482795
0.541634 0.0823682 0.045243
0.606271 0.0799573 0.0433204
0.669856 0.076997 0.0407263
0.73225 0.0757458 0.0381323
0.799985 0.0734417 0.033814
0.036408 0.0764324 0.0855421
0.0362707 0.0762493 0.0853437
0.0370794 0.0761425 0.0850538
0.0577096 0.0778058 0.0852674
0.0855726 0.0814832 0.0853895
0.132601 0.0832837 0.0873579
0.185031 0.0836957 0.0841077
0.241505 0.0833906 0.0790723
0.298802 0.0847944 0.0748913
0.358648 0.085771 0.0683299
0.419486 0.0853285 0.0577859
0.483742 0.0830854 0.0463874
0.548562 0.0812238 0.0433814
0.613123 0.0787823 0.0415198
0.676585 0.0757458 0.038941
0.735363 0.075288 0.0374609
0.796063 0.0746624 0.0352789
0.0352483 0.0770275 0.0858167
0.0358587 0.076463 0.0854353
0.0368811 0.0761578 0.0850996
0.0572976 0.0777905 0.0853132
0.0851453 0.0813916 0.0852827
0.132708 0.0829938 0.0872053
0.186389 0.0830701 0.0835431
0.243427 0.082536 0.0781872
0.301534 0.0836652 0.07364
0.361929 0.0845197 0.0668498
0.422873 0.0840162 0.0561837
0.486824 0.0818494 0.0447547
0.551324 0.0800488 0.0418097
0.615778 0.0776532 0.0400549
0.676844 0.0753185 0.038407
0.732555 0.0758068 0.0381476
0.787778 0.0768597 0.0380102
0.0101015 0.104936 0.0918593
0.010071 0.104463 0.0915541
0.0174411 0.102144 0.0906691
0.0376898 0.101015 0.0916915
0.0897231 0.0986343 0.0946365
0.125872 0.105547 0.0982528
0.180224 0.108415 0.0958114
0.249027 0.107622 0.0881514
0.310353 0.110018 0.0843824
0.376272 0.111971 0.0784009
0.441062 0.113695 0.0690166
0.50779 0.113497 0.0581979
0.574044 0.112779 0.0561074
0.639994 0.110887 0.0551308
0.703044 0.108995 0.0538949
0.758328 0.109438 0.0546273
0.806439 0.11133 0.0560922
0.0100252 0.130312 0.093431
0.0183871 0.127001 0.0938125
0.0333257 0.122164 0.0951247
0.0670176 0.118135 0.101183
0.0875563 0.118654 0.106905
0.112261 0.126543 0.114916
0.17525 0.139406 0.116854
0.24921 0.142931 0.105638
0.32343 0.146029 0.0985885
0.393317 0.150011 0.0936294
0.461814 0.153643 0.0853285
0.531868 0.155352 0.0749523
0.603006 0.155627 0.0719463
0.672587 0.154589 0.0712902
0.741436 0.153994 0.070573
0.784588 0.159289 0.0789349
0.807889 0.171069 0.0941176
0.0773175 0.145663 0.113939
0.0911879 0.140444 0.117632
0.0887617 0.140826 0.116762
0.0876631 0.149767 0.11928
0.0946517 0.156451 0.123262
0.1066 0.163363 0.126696
0.142412 0.173281 0.131075
0.258106 0.181567 0.117617
0.333654 0.185946 0.106737
0.407309 0.190433 0.0976883
0.474983 0.195285 0.0907149
0.544976 0.198413 0.0811475
0.61648 0.199832 0.0788891
0.687144 0.200778 0.0785992
0.756161 0.201633 0.0783703
0.811276 0.206058 0.08336
0.852338 0.213657 0.093492
0.0727092 0.188174 0.114565
0.0856641 0.182818 0.121157
0.0907149 0.180468 0.123751
0.0843671 0.192462 0.127932
0.0984207 0.19855 0.134493
0.111696 0.205264 0.136721
0.156832 0.213016 0.142596
0.267811 0.221897 0.125811
0.345861 0.226444 0.108324
0.417929 0.232303 0.0966506
0.486137 0.237827 0.0899214
0.55726 0.242298 0.0860761
0.628748 0.246464 0.0860456
0.699763 0.250309 0.0860609
0.767529 0.253605 0.0858778
0.821866 0.259724 0.0916304
0.863416 0.268406 0.103334
0.0788434 0.232685 0.123049
0.0929885 0.226612 0.131441
0.0996872 0.223468 0.135348
0.111711 0.229236 0.141588
0.126619 0.235401 0.147723
0.159823 0.240864 0.158572
0.217166 0.254597 0.169421
0.272007 0.266087 0.15787
0.34641 0.272786 0.129564
0.423301 0.276829 0.103059
0.499214 0.28069 0.0921645
0.571344 0.286061 0.0923323
0.643915 0.291783 0.0925917
0.714351 0.297337 0.0927901
0.780087 0.303578 0.0929427
0.833097 0.311482 0.0994125
0.874327 0.320409 0.112444
0.0825971 0.27892 0.130465
0.0975357 0.272496 0.140246
0.104967 0.269123 0.145068
0.117983 0.275227 0.151553
0.1346 0.280293 0.157992
0.162661 0.285527 0.166369
0.22475 0.297566 0.181094
0.287114 0.314748 0.171008
0.353109 0.323476 0.148119
0.42884 0.327291 0.116365
0.509987 0.329046 0.10277
0.589792 0.334157 0.098909
0.662898 0.340246 0.0990311
0.732876 0.347723 0.0993668
0.797833 0.355138 0.0995804
0.851118 0.363088 0.106935
0.891035 0.371618 0.121263
0.0861677 0.329305 0.138521
0.102098 0.322271 0.149538
0.110048 0.318257 0.15494
0.123903 0.324132 0.161456
0.142061 0.328618 0.168597
0.171221 0.331136 0.1785
0.238895 0.338872 0.204456
0.310475 0.3579 0.213275
0.36614 0.373632 0.19295
0.430182 0.380911 0.159258
0.513069 0.383963 0.127306
0.600916 0.386862 0.109453
0.678874 0.390814 0.105196
0.746624 0.398276 0.105409
0.809735 0.405692 0.105409
0.861921 0.41384 0.11342
0.902007 0.423438 0.129351
0.0895399 0.381506 0.147005
0.106462 0.374228 0.159197
0.120745 0.367864 0.169436
0.144549 0.369696 0.183246
0.175967 0.369192 0.200961
0.205875 0.370626 0.21297
0.261189 0.380133 0.232532
0.333074 0.404227 0.237446
0.39237 0.423911 0.223331
0.447303 0.437415 0.197665
0.521523 0.440497 0.155795
0.610788 0.442664 0.116732
0.696071 0.442786 0.0961471
0.767636 0.446357 0.0911727
0.831296 0.452247 0.0915999
0.881941 0.46006 0.100893
0.922835 0.470481 0.120272
0.0871748 0.433387 0.149645
0.104738 0.426368 0.162799
0.118364 0.420584 0.172946
0.140444 0.422965 0.184863
0.171191 0.423636 0.200855
0.204013 0.424491 0.211597
0.265019 0.431998 0.231159
0.347478 0.45127 0.246815
0.418494 0.473228 0.2542
0.473442 0.490547 0.241794
0.535454 0.502144 0.205341
0.616037 0.502083 0.147601
0.699275 0.501747 0.111208
0.718181 0.468544 0.0881056
0.779736 0.474006 0.0889754
0.832288 0.482506 0.0990921
0.87718 0.494484 0.122469
0.0801709 0.462989 0.144045
0.0993515 0.460807 0.159701
0.113558 0.459388 0.171328
0.13344 0.466514 0.182101
0.162432 0.472068 0.195422
0.193927 0.475624 0.202029
0.262882 0.485008 0.219699
0.353567 0.501518 0.239048
0.43505 0.524025 0.253956
0.499382 0.540749 0.263798
0.553811 0.55491 0.248249
0.613733 0.559609 0.208453
0.687541 0.555779 0.149905
0.757 0.554116 0.113268
0.820111 0.553536 0.095552
0.866896 0.555993 0.106218
0.90454 0.561746 0.132082
0.0856184 0.519982 0.153613
0.107225 0.515496 0.17116
0.123476 0.512489 0.184436
0.144396 0.519493 0.19585
0.175097 0.524437 0.208118
0.208637 0.528328 0.213397
0.281086 0.538994 0.230915
0.372641 0.555489 0.252552
0.457282 0.579004 0.271794
0.530358 0.600259 0.283665
0.585138 0.613931 0.283299
0.642512 0.630518 0.261097
0.698604 0.630259 0.21181
0.762661 0.623758 0.151553
0.826917 0.622019 0.11519
0.880278 0.622461 0.110903
0.917891 0.625528 0.139223
0.0892653 0.571328 0.160098
0.112779 0.566278 0.179446
0.130648 0.562692 0.194186
0.151949 0.569314 0.205173
0.183795 0.573724 0.217258
0.220798 0.578866 0.220188
0.295018 0.590082 0.239658
0.388464 0.607217 0.263218
0.47483 0.63093 0.284337
0.554009 0.656962 0.298405
0.614221 0.673304 0.301869
0.664225 0.687282 0.297017
0.720394 0.703655 0.271626
0.770199 0.699107 0.219425
0.830213 0.69276 0.157794
0.887419 0.691829 0.134829
0.934066 0.692607 0.145251
0.0984054 0.621668 0.17052
0.118959 0.618616 0.187839
0.136004 0.616266 0.202228
0.157351 0.623484 0.211551
0.189868 0.628565 0.221729
0.231357 0.635859 0.227222
0.307347 0.649317 0.248798
0.402823 0.66833 0.27068
0.490761 0.692332 0.288472
0.575219 0.72015 0.302251
0.642985 0.738979 0.308827
0.69395 0.750332 0.31043
0.742153 0.765164 0.308904
0.79057 0.774655 0.282307
0.836347 0.766949 0.22797
0.891783 0.762402 0.186801
0.939132 0.762402 0.186328
0.119066 0.670405 0.191638
0.134722 0.669184 0.205081
0.141833 0.670863 0.21149
0.162066 0.679271 0.21825
0.195193 0.684825 0.226337
0.241108 0.694499 0.235096
0.315724 0.710719 0.257206
0.416678 0.732479 0.279622
0.510063 0.758633 0.298238
0.598901 0.788022 0.312825
0.677226 0.815625 0.32285
0.737285 0.834073 0.322683
0.785458 0.847623 0.320058
0.839582 0.865858 0.315648
0.885298 0.872221 0.298192
0.92958 0.864286 0.26569
0.979629 0.85716 0.22179
0.0501106 0.0762493 0.0821851
0.0483711 0.0767987 0.0832532
0.0466773 0.0775006 0.0845502
0.0623178 0.0806287 0.08748
0.0890974 0.0845808 0.0886397
0.138399 0.0854658 0.0897688
0.192004 0.0851148 0.0854963
0.248188 0.0843366 0.0798199
0.304356 0.0853895 0.0752117
0.363378 0.0860456 0.0682689
0.423926 0.08542 0.0574655
0.482048 0.0849165 0.0485389
0.534066 0.0869764 0.0508278
0.579019 0.0908522 0.0568704
0.630655 0.0927291 0.0598154
0.69221 0.0936904 0.0594034
0.766659 0.0918898 0.0550851
0.0504005 0.0762493 0.0821241
0.0480659 0.0769818 0.0835431
0.0461738 0.0776837 0.0848554
0.0619211 0.0807813 0.0877546
0.0889143 0.0846876 0.0887922
0.139269 0.085359 0.0898451
0.194675 0.0846418 0.0850996
0.251881 0.0836805 0.0791028
0.309239 0.0844892 0.0740978
0.36907 0.0850233 0.0668803
0.43006 0.0843214 0.055848
0.488106 0.0838026 0.0467689
0.540017 0.0858167 0.0490272
0.584894 0.0896773 0.0551308
0.636164 0.0915236 0.0581521
0.694209 0.0932937 0.0588388
0.7626 0.0929274 0.0563668
0.0491035 0.0767834 0.0827192
0.0485237 0.0768749 0.0832837
0.0475013 0.0772717 0.0840314
0.0632334 0.080293 0.0865339
0.0881361 0.0846723 0.0883345
0.137713 0.0855268 0.0899519
0.195819 0.0840772 0.0846113
0.253513 0.0829175 0.0783246
0.311727 0.0834821 0.0729839
0.371954 0.0838788 0.0655375
0.433188 0.0831159 0.0543526
0.491066 0.0825971 0.0451972
0.54316 0.0845808 0.047364
0.588327 0.0883803 0.0534371
0.637385 0.0908827 0.0573587
0.692592 0.0935073 0.0591287
0.756344 0.0945602 0.0583963
0.0357977 0.101625 0.0925765
0.0335851 0.10222 0.0928664
0.0351873 0.101732 0.0927443
0.0470436 0.103075 0.0948653
0.0927443 0.102617 0.0982376
0.131823 0.108507 0.100191
0.190951 0.109667 0.0954452
0.258549 0.108568 0.0879683
0.320073 0.110231 0.0834516
0.386038 0.111635 0.0768597
0.451453 0.113085 0.0669718
0.512718 0.114504 0.0587167
0.567361 0.117601 0.0623941
0.614313 0.121889 0.0700389
0.665461 0.124956 0.0748302
0.720348 0.127703 0.0776684
0.778744 0.129442 0.0778668
0.0388952 0.126619 0.0997635
0.0415351 0.125521 0.0998856
0.0500649 0.122698 0.100603
0.0741131 0.121447 0.105776
0.0883192 0.123354 0.110155
0.111772 0.131411 0.115419
0.184375 0.141329 0.114305
0.259541 0.143755 0.103151
0.331579 0.146456 0.0970321
0.401251 0.149645 0.0914321
0.469459 0.152712 0.0825971
0.532952 0.155627 0.0751659
0.590326 0.159213 0.0785992
0.638407 0.16376 0.0874647
0.691234 0.167529 0.0932021
0.736095 0.172824 0.100496
0.775586 0.180972 0.109178
0.0886091 0.142794 0.117662
0.0956588 0.13991 0.119432
0.0925917 0.140475 0.118349
0.0948959 0.14815 0.122042
0.0997635 0.155489 0.125582
0.107958 0.1635 0.127687
0.14078 0.174609 0.128496
0.261234 0.18146 0.114824
0.336233 0.185733 0.105058
0.40766 0.19057 0.0978408
0.475425 0.195407 0.0908675
0.541115 0.199619 0.0841993
0.602609 0.203601 0.0878614
0.656107 0.208942 0.0967117
0.71165 0.213519 0.102861
0.762295 0.219486 0.109499
0.8103 0.225895 0.11603
0.0894331 0.183291 0.123568
0.097612 0.179644 0.127687
0.0995804 0.178225 0.128634
0.0930495 0.190066 0.132174
0.105623 0.196109 0.138262
0.11696 0.202869 0.139986
0.157931 0.210849 0.145373
0.264714 0.220203 0.127108
0.342138 0.223926 0.107073
0.390311 0.21799 0.0921187
0.457221 0.223911 0.0849775
0.524453 0.229984 0.0840314
0.589548 0.237095 0.0892653
0.649805 0.245686 0.098085
0.710277 0.253849 0.104997
0.764294 0.263111 0.113375
0.815152 0.272587 0.122179
0.0807813 0.229557 0.123552
0.0897841 0.226459 0.129122
0.0929885 0.225071 0.131044
0.104097 0.231052 0.1364
0.117281 0.237049 0.140551
0.149508 0.241627 0.14815
0.209873 0.252354 0.155886
0.266636 0.260426 0.146166
0.338064 0.264805 0.122408
0.409583 0.26746 0.0988479
0.481132 0.270665 0.089128
0.548241 0.276432 0.0918593
0.613397 0.284047 0.0978408
0.671931 0.293599 0.10811
0.729259 0.304295 0.116564
0.780529 0.315435 0.126436
0.829587 0.325673 0.136568
0.0844282 0.277058 0.131411
0.0937819 0.273945 0.137774
0.0974441 0.272312 0.140185
0.109438 0.278401 0.145525
0.123919 0.283253 0.149538
0.150118 0.28751 0.15436
0.214984 0.296117 0.166522
0.280156 0.308827 0.160159
0.342931 0.314336 0.145037
0.412909 0.316136 0.11516
0.489586 0.316777 0.10071
0.564401 0.32166 0.0982986
0.629465 0.329198 0.104784
0.686992 0.340078 0.116472
0.742611 0.351568 0.125948
0.792401 0.362539 0.137011
0.837903 0.372305 0.147997
0.0879072 0.323476 0.138659
0.0977798 0.320058 0.145693
0.101686 0.318212 0.148394
0.114183 0.324514 0.153643
0.129473 0.329229 0.157916
0.155627 0.33135 0.163684
0.222705 0.337087 0.18352
0.299046 0.351461 0.192004
0.355367 0.363134 0.178195
0.414862 0.367453 0.153857
0.492332 0.369375 0.12491
0.573251 0.372442 0.11223
0.643748 0.37789 0.114366
0.699672 0.388754 0.127504
0.755627 0.400061 0.135912
0.805631 0.411292 0.147051
0.85095 0.422538 0.159411
0.0915694 0.375036 0.147372
0.102007 0.37171 0.155138
0.111513 0.367864 0.162036
0.132952 0.370504 0.1738
0.160571 0.370504 0.187762
0.187716 0.371725 0.195697
0.243351 0.379065 0.210834
0.319615 0.398993 0.213245
0.381109 0.414435 0.20293
0.434302 0.42446 0.184527
0.503456 0.426032 0.153689
0.58555 0.428687 0.124636
0.661494 0.431327 0.116426
0.724468 0.438834 0.123201
0.781994 0.448386 0.131075
0.833448 0.458717 0.139849
0.879713 0.470741 0.154238
0.0895399 0.428763 0.150759
0.100175 0.426047 0.159014
0.108843 0.42327 0.165652
0.128649 0.427283 0.175647
0.155886 0.429801 0.188113
0.186374 0.431678 0.194888
0.248997 0.439033 0.210636
0.339559 0.455787 0.227176
0.41651 0.475486 0.239826
0.473579 0.490837 0.241001
0.533822 0.501915 0.217121
0.60914 0.50277 0.171832
0.690364 0.503883 0.135271
0.762493 0.506249 0.115938
0.825391 0.508492 0.109422
0.877729 0.513146 0.113619
0.92256 0.520668 0.130068
0.0802472 0.484276 0.147677
0.0957046 0.478828 0.159686
0.107744 0.474327 0.168978
0.126848 0.478767 0.178302
0.155444 0.481987 0.190265
0.187076 0.483925 0.195697
0.257435 0.492485 0.211963
0.352071 0.508232 0.231495
0.437781 0.530846 0.248676
0.506218 0.549004 0.263066
0.564523 0.565728 0.25034
0.628153 0.573022 0.214878
0.70489 0.571801 0.161959
0.776654 0.573236 0.131502
0.842313 0.574609 0.114855
0.893751 0.57731 0.119783
0.935668 0.58175 0.138338
0.0843824 0.537987 0.155413
0.101793 0.532219 0.169207
0.115526 0.527367 0.180056
0.135622 0.532311 0.190082
0.16585 0.535149 0.200824
0.199481 0.537316 0.204608
0.273365 0.546853 0.220447
0.369162 0.562432 0.242512
0.458656 0.586023 0.264759
0.536477 0.608713 0.282078
0.595468 0.624964 0.286412
0.656992 0.644785 0.268193
0.717159 0.647684 0.222751
0.784573 0.644388 0.167895
0.850843 0.644785 0.135454
0.906523 0.645945 0.129152
0.947143 0.64802 0.150652
0.0906386 0.590082 0.164034
0.107683 0.584298 0.177752
0.121065 0.579446 0.188479
0.141451 0.583856 0.19791
0.172747 0.585916 0.208286
0.209964 0.589105 0.2094
0.285725 0.5991 0.227192
0.383749 0.615228 0.251484
0.475532 0.638865 0.276356
0.560265 0.666285 0.29749
0.625299 0.685405 0.307668
0.679316 0.702586 0.309087
0.739879 0.722927 0.286503
0.794202 0.722026 0.235264
0.856962 0.717678 0.17586
0.916304 0.717403 0.151156
0.964523 0.717159 0.156664
0.0968948 0.643091 0.172168
0.111391 0.638804 0.184115
0.124636 0.634623 0.19498
0.145739 0.639063 0.203143
0.177783 0.641642 0.211566
0.219593 0.647013 0.215351
0.298054 0.659083 0.236362
0.399283 0.676875 0.26128
0.493812 0.700648 0.286534
0.583703 0.729809 0.308705
0.65536 0.75198 0.319249
0.710307 0.767376 0.321981
0.763165 0.786679 0.320485
0.816617 0.80029 0.29575
0.864927 0.794064 0.244099
0.92134 0.789242 0.201831
0.968734 0.787106 0.195331
0.117128 0.690578 0.192615
0.125597 0.688609 0.199725
0.129778 0.68806 0.203311
0.148653 0.694026 0.20795
0.181964 0.696803 0.214801
0.228122 0.703944 0.221942
0.303914 0.718135 0.242756
0.408667 0.737728 0.266117
0.506233 0.76199 0.288594
0.598764 0.790204 0.309483
0.678782 0.817609 0.323537
0.739818 0.836133 0.327291
0.788418 0.850202 0.325948
0.842878 0.869017 0.321187
0.888899 0.875807 0.301106
0.933577 0.867903 0.266407
0.98352 0.860456 0.222354
0.049424 0.0767987 0.0834058
0.0471351 0.0774243 0.0846418
0.0449683 0.078172 0.0860304
0.0618296 0.0809186 0.0882277
0.089189 0.0846723 0.088838
0.138415 0.0855726 0.0898756
0.19202 0.0852064 0.0856031
0.247471 0.0846571 0.0801709
0.302083 0.0861982 0.076173
0.358175 0.0877241 0.0704051
0.416403 0.0878462 0.0607156
0.473884 0.0876326 0.0522469
0.528176 0.0893263 0.0538338
0.577661 0.0922255 0.0584115
0.632715 0.0932326 0.0601968
0.695994 0.0936141 0.0590982
0.769757 0.0916457 0.0546426
0.0477607 0.076997 0.0838788
0.0455329 0.0774701 0.0849012
0.0441291 0.0777752 0.0855116
0.0609293 0.0802472 0.0873732
0.0877699 0.0837568 0.0877241
0.132799 0.0814832 0.0857557
0.18526 0.0812085 0.081651
0.240055 0.0807813 0.0764477
0.295048 0.0823377 0.0725109
0.352361 0.0839399 0.0668193
0.412375 0.0843214 0.0573129
0.471366 0.0844434 0.0489967
0.527123 0.0864424 0.0507362
0.578271 0.089601 0.0554971
0.634623 0.0908522 0.0575265
0.695613 0.0921798 0.0575723
0.764126 0.0916457 0.0549325
0.0462196 0.0770581 0.0838941
0.0456703 0.0768292 0.0839094
0.0449378 0.0767376 0.0839704
0.0613107 0.0790112 0.085481
0.0861372 0.0827497 0.0863813
0.133944 0.0832837 0.087602
0.189731 0.0818799 0.082414
0.245258 0.0809796 0.0765545
0.301411 0.0820172 0.0719463
0.360006 0.0831311 0.0655222
0.421088 0.0831464 0.0554055
0.480751 0.0830549 0.0466468
0.537041 0.0849775 0.0482795
0.588922 0.0880598 0.0530404
0.643473 0.0899214 0.0559548
0.701534 0.0920882 0.0571145
0.764797 0.0929274 0.0562142
0.0294804 0.103365 0.0932479
0.0284428 0.10309 0.0929427
0.0312657 0.101625 0.0921492
0.0441291 0.101961 0.0935225
0.0906996 0.100298 0.0960708
0.127764 0.105623 0.097734
0.183795 0.106706 0.0932479
0.249393 0.105486 0.0857557
0.308278 0.107485 0.0819257
0.371969 0.109483 0.0762646
0.436408 0.111635 0.0674296
0.498375 0.113436 0.059556
0.555779 0.116503 0.0626078
0.608316 0.120134 0.0687572
0.664256 0.122667 0.0725109
0.721691 0.125048 0.0747234
0.780056 0.126635 0.0747997
0.0320592 0.127504 0.0983291
0.0368353 0.125277 0.0983291
0.047303 0.121263 0.0988022
0.0733043 0.118669 0.103685
0.0877546 0.119753 0.107713
0.10985 0.127123 0.113039
0.177188 0.13727 0.112184
0.249409 0.139712 0.101305
0.319661 0.14255 0.0953231
0.387259 0.146349 0.0906996
0.454643 0.15024 0.0829175
0.518959 0.153689 0.0758373
0.57908 0.157382 0.0785992
0.6327 0.161501 0.0858473
0.690181 0.164904 0.090425
0.73608 0.170291 0.0977188
0.772992 0.178927 0.107286
0.0860761 0.142107 0.116136
0.0946517 0.138293 0.118105
0.0920119 0.13817 0.116854
0.0939956 0.145159 0.120104
0.0995193 0.151461 0.123613
0.107973 0.158465 0.125948
0.138491 0.16939 0.127428
0.252308 0.177218 0.114534
0.325826 0.181979 0.104952
0.39733 0.187488 0.0979629
0.464714 0.193179 0.0919203
0.531502 0.198062 0.0854353
0.595728 0.202289 0.0882582
0.654566 0.207401 0.0952316
0.714931 0.211719 0.100038
0.76733 0.217975 0.106798
0.814267 0.225116 0.114473
0.0870069 0.184283 0.122515
0.0970169 0.179965 0.127489
0.0994583 0.178317 0.128679
0.09308 0.190066 0.132235
0.105592 0.19617 0.138293
0.116533 0.203143 0.139803
0.156786 0.211368 0.144717
0.26569 0.220706 0.126558
0.342977 0.224857 0.108064
0.414435 0.230243 0.0958267
0.481636 0.235569 0.0891432
0.549493 0.240574 0.0875257
0.614054 0.246464 0.0923629
0.67248 0.253712 0.100862
0.729824 0.260304 0.107286
0.780667 0.268223 0.115236
0.828641 0.276509 0.123568
0.081117 0.232334 0.12462
0.090135 0.228595 0.129992
0.0932937 0.226856 0.131807
0.104479 0.232929 0.137194
0.117891 0.239322 0.141527
0.150698 0.244663 0.149432
0.212848 0.256397 0.157702
0.271809 0.265507 0.148379
0.34612 0.270939 0.124773
0.42092 0.274632 0.101137
0.495415 0.278492 0.0914015
0.564767 0.284474 0.0941939
0.631113 0.291875 0.100145
0.689509 0.300847 0.110384
0.745312 0.310506 0.118547
0.794598 0.320638 0.128145
0.841596 0.329824 0.137881
0.0847334 0.280034 0.132387
0.0940261 0.276066 0.138491
0.0976577 0.274098 0.140795
0.109682 0.280171 0.146136
0.124407 0.285542 0.150347
0.151125 0.290684 0.155505
0.215808 0.301396 0.164874
0.284474 0.315587 0.154894
0.352987 0.321813 0.137072
0.426917 0.324239 0.111131
0.505699 0.325551 0.100359
0.581231 0.330938 0.100755
0.647669 0.338338 0.107225
0.705119 0.348592 0.118868
0.75906 0.358892 0.128038
0.806958 0.368688 0.138827
0.850263 0.377249 0.149432
0.0882429 0.327016 0.139681
0.0980392 0.322652 0.146471
0.101884 0.320333 0.14902
0.114412 0.326665 0.154269
0.129946 0.331991 0.15874
0.153368 0.336446 0.161837
0.218387 0.345418 0.175113
0.30016 0.361501 0.175311
0.364294 0.37322 0.161837
0.428946 0.377569 0.145922
0.508263 0.379889 0.12462
0.590448 0.383276 0.114885
0.662318 0.388388 0.116945
0.717968 0.398428 0.130037
0.772122 0.408286 0.138109
0.820066 0.418173 0.148913
0.863157 0.42797 0.160815
0.0918593 0.378958 0.148409
0.102266 0.374685 0.155932
0.106355 0.372412 0.158801
0.118853 0.378668 0.163577
0.135393 0.383917 0.167636
0.162692 0.386709 0.172473
0.229435 0.392294 0.190661
0.321187 0.408988 0.203906
0.389273 0.42443 0.201785
0.445792 0.435645 0.187625
0.517845 0.437919 0.15671
0.602045 0.440467 0.127245
0.678569 0.44213 0.118715
0.740185 0.447974 0.125185
0.795895 0.45597 0.132799
0.845243 0.46482 0.141253
0.889296 0.47538 0.155215
0.0897078 0.431952 0.151476
0.100191 0.42797 0.159396
0.108751 0.424399 0.165789
0.128481 0.427848 0.175647
0.155734 0.430213 0.188083
0.186282 0.432258 0.194919
0.248966 0.439796 0.210651
0.339895 0.456657 0.227298
0.417334 0.4766 0.24007
0.474723 0.492088 0.241367
0.535195 0.503243 0.217472
0.610758 0.504143 0.172137
0.692088 0.505135 0.135485
0.764096 0.507301 0.116121
0.82681 0.509285 0.109606
0.878965 0.513741 0.11368
0.92372 0.521065 0.129931
0.0800336 0.484657 0.14757
0.0953841 0.479164 0.159487
0.107424 0.474693 0.16878
0.126574 0.479149 0.178164
0.155276 0.482475 0.190234
0.18703 0.484627 0.195758
0.257435 0.493309 0.212039
0.352468 0.509209 0.231724
0.438651 0.532113 0.249119
0.507408 0.550393 0.263584
0.565789 0.567056 0.250767
0.629191 0.573983 0.215152
0.705287 0.572091 0.162051
0.77583 0.572595 0.131426
0.839841 0.572869 0.114595
0.889204 0.574304 0.119203
0.928542 0.577295 0.137484
0.0723735 0.536934 0.145113
0.109163 0.511955 0.172274
0.111879 0.511894 0.174578
0.132189 0.517388 0.185107
0.162219 0.52166 0.196323
0.195682 0.525643 0.200793
0.26894 0.537346 0.217258
0.364569 0.554971 0.240085
0.45449 0.580362 0.263172
0.533257 0.604944 0.281239
0.59324 0.622614 0.285908
