site/assets/luts/freshluts--0000984-dust.cube
# LUTr-Schema-Version: 2
# LUTr-ID: freshluts--0000984-dust
# LUTr-Title: Dust
# LUTr-Collection: Fresh LUTs
# LUTr-Collection-ID: freshluts-community
# LUTr-Source: https://freshluts.com
# LUTr-Retrieved: 2026-07-27
# LUTr-Source-File: submissions-raw/freshluts/cubes/984__Dust.cube
# LUTr-Source-Format: CUBE
# LUTr-Source-SHA256: f21555d9c29922dbcdb002c3e4b537a619873f4057f3171c4da54c78446fb785
# LUTr-License: CC0-1.0
# LUTr-License-URL: https://freshluts.com/termsandconditions
# LUTr-License-Basis: site-terms
# LUTr-Transform-Class: creative-look
# LUTr-Tags: creative, freshluts, community, cube, noir, cinematic, cool, rec709, assumed-input
# LUTr-Input-Color-Space: rec709
# LUTr-Input-Gamut: rec709
# LUTr-Input-Transfer: rec709
# LUTr-Output-Color-Space: srgb
# LUTr-Output-Gamut: rec709
# LUTr-Output-Transfer: srgb
# LUTr-Color-Space-Confidence: assumed-display-referred
# LUTr-Domain-Normalized: true
# LUTr-Shaper: none
# LUTr-Original-Grid: 32x32x32
# LUTr-Conversion-Grid: 32x32x32
# LUTr-Conversion-Interpolation: none
# LUTr-Conversion-Method: Metadata normalization; numeric LUT samples preserved
# LUTr-Conversion-Tool: LUTr scripts/convert-all-to-cube.mjs 2.0.0
# LUTr-Conversion-Date: 2026-07-28
# LUTr-Asset-URL: https://freshluts.com/luts/984
# LUTr-Author: ButterflyBD
# LUTr-Author-URL: https://freshluts.com/users/53416
# LUTr-Attribution: ButterflyBD via Fresh LUTs
# LUTr-Source-Labels: gamma=Other; color=Cool; key=Neutral; style=Noir; LUTr assumption=input Rec.709 per repository policy
# LUTr-Conversion-Warning: Input Rec.709 is a LUTr catalog assumption requested for this otherwise unspecified Fresh LUT; it is not verified by the upstream asset.
# LUTr-Note: Preserve this metadata and the upstream license notices when redistributing.
# LUTr-Upstream-Comment: Created by: Adobe Photoshop Export Color Lookup Plugin
# LUTr-Upstream-Comment: LUT size
# LUTr-Upstream-Comment: data domain
# LUTr-Upstream-Comment: LUT data points
TITLE "Dust"
LUT_3D_SIZE 8
DOMAIN_MIN 0.000000 0.000000 0.000000
DOMAIN_MAX 0.903226 0.903226 0.903226
0.031372 0.031372 0.031372
0.128021 0.031372 0.031372
0.243805 0.036041 0.05014
0.357269 0.06073 0.070435
0.473236 0.084503 0.089233
0.580475 0.105865 0.106964
0.66983 0.123749 0.120911
0.737671 0.137451 0.131439
0.031372 0.138733 0.031372
0.131348 0.13031 0.031372
0.248627 0.130798 0.031372
0.365326 0.13324 0.040894
0.482819 0.13797 0.045776
0.58963 0.144104 0.045929
0.67746 0.150513 0.04538
0.743805 0.155914 0.043335
0.033203 0.266724 0.0466
0.16098 0.265411 0.043976
0.251862 0.246033 0.041992
0.371185 0.246307 0.052734
0.492157 0.247925 0.061493
0.602295 0.25058 0.0672
0.693542 0.253571 0.071106
0.762207 0.256439 0.073761
0.046387 0.397064 0.072998
0.17688 0.393158 0.066345
0.291321 0.393158 0.064362
0.373749 0.363617 0.062256
0.496735 0.363739 0.07193
0.608917 0.365112 0.079071
0.701874 0.366577 0.085266
0.771912 0.367798 0.089569
0.062439 0.529907 0.096893
0.18927 0.526093 0.090424
0.30954 0.523254 0.085846
0.423828 0.524597 0.084259
0.498993 0.48468 0.081024
0.612823 0.484772 0.089142
0.70697 0.485229 0.095917
0.777893 0.486145 0.101196
0.076752 0.652374 0.118317
0.196167 0.65033 0.114929
0.324646 0.644379 0.105682
0.441467 0.644287 0.10321
0.558014 0.646149 0.102661
0.614746 0.596222 0.098022
0.709808 0.596283 0.104736
0.781555 0.596405 0.110168
0.088623 0.7547 0.137146
0.195892 0.756287 0.138519
0.335449 0.746155 0.124084
0.455017 0.74469 0.120087
0.572815 0.745819 0.118347
0.680023 0.748047 0.117371
0.711365 0.689484 0.111908
0.783508 0.689514 0.117554
0.097351 0.832306 0.151337
0.191437 0.838013 0.158142
0.342529 0.823944 0.138733
0.46463 0.821259 0.133148
0.583923 0.821625 0.131073
0.691528 0.823486 0.129669
0.780853 0.825745 0.128296
0.784607 0.760345 0.12323
0.031372 0.031372 0.13208
0.116516 0.031372 0.13327
0.242889 0.038818 0.162354
0.356995 0.062103 0.179077
0.473022 0.085876 0.195618
0.580261 0.107208 0.211212
0.669678 0.124969 0.223846
0.73761 0.138275 0.233887
0.031372 0.138428 0.127441
0.138458 0.150421 0.148376
0.256195 0.162354 0.168488
0.374023 0.176544 0.189301
0.494019 0.19281 0.210419
0.603699 0.208862 0.22934
0.694977 0.222839 0.244751
0.764038 0.233856 0.256134
0.031372 0.262299 0.130402
0.157074 0.273468 0.163666
0.258667 0.263916 0.163208
0.377838 0.263947 0.171936
0.498657 0.265228 0.180756
0.609039 0.267334 0.187286
0.700195 0.269897 0.192108
0.768799 0.272339 0.195221
0.031372 0.388336 0.134003
0.172272 0.400909 0.182068
0.288269 0.400391 0.18045
0.380249 0.38031 0.179291
0.503021 0.380219 0.188721
0.615051 0.381165 0.196716
0.707855 0.382263 0.203156
0.778015 0.383514 0.207855
0.043549 0.517761 0.138184
0.18396 0.53363 0.20343
0.306335 0.530304 0.198669
0.421204 0.531189 0.19809
0.505219 0.500458 0.196228
0.618774 0.500336 0.204987
0.712799 0.50061 0.212067
0.783691 0.50116 0.217224
0.053925 0.637054 0.141907
0.189117 0.658264 0.225952
0.320709 0.651337 0.216766
0.438354 0.650757 0.214966
0.555206 0.652435 0.214905
0.620667 0.61142 0.212158
0.715576 0.611237 0.219543
0.787201 0.611359 0.224945
0.062195 0.736816 0.145355
0.187042 0.764679 0.247742
0.331421 0.753021 0.233124
0.452057 0.75119 0.229889
0.570129 0.752014 0.228973
0.677338 0.754059 0.229126
0.71701 0.704224 0.225647
0.789215 0.704102 0.23111
0.068329 0.812561 0.14798
0.179352 0.847046 0.266724
0.338287 0.830688 0.246094
0.461639 0.827759 0.241394
0.581085 0.827972 0.239899
0.688873 0.82962 0.239685
0.778168 0.831604 0.239777
0.790161 0.774658 0.235992
0.031372 0.060089 0.25351
0.108643 0.032593 0.252838
0.222473 0.039215 0.251892
0.355347 0.06488 0.286133
0.472168 0.087799 0.301575
0.579742 0.108765 0.316406
0.669281 0.126404 0.328796
0.736908 0.140045 0.33783
0.031372 0.172577 0.25882
0.144379 0.172577 0.267426
0.244751 0.163452 0.266632
0.373291 0.178223 0.296417
0.493622 0.194 0.316284
0.603394 0.210083 0.333832
0.694641 0.22403 0.34845
0.763672 0.234955 0.359314
0.031372 0.263336 0.242035
0.142334 0.275452 0.263336
0.265045 0.283813 0.280731
0.384827 0.295227 0.30069
0.506622 0.308746 0.32193
0.618103 0.322174 0.341492
0.710846 0.333893 0.357574
0.780914 0.343292 0.36972
0.031952 0.389038 0.245575
0.142365 0.403351 0.269836
0.283875 0.40863 0.295837
0.38681 0.398865 0.295258
0.509735 0.398621 0.303986
0.621704 0.399139 0.311981
0.714813 0.400238 0.318359
0.784882 0.401276 0.322784
0.044739 0.518463 0.248901
0.126709 0.540405 0.282379
0.301666 0.538269 0.312897
0.417603 0.538818 0.312164
0.51181 0.518158 0.311279
0.625275 0.517914 0.319489
0.71933 0.518127 0.326355
0.790405 0.518494 0.331451
0.054993 0.637878 0.25238
0.095886 0.6716 0.299957
0.316071 0.659119 0.330078
0.434723 0.658203 0.328033
0.552277 0.65976 0.32782
0.627075 0.628571 0.326324
0.722107 0.628235 0.333282
0.793579 0.628296 0.338531
0.063354 0.73764 0.255219
0.103271 0.770691 0.302826
0.326202 0.760925 0.34549
0.448181 0.758606 0.341827
0.566925 0.759216 0.341156
0.674591 0.761078 0.341492
0.72345 0.720947 0.339081
0.795502 0.720642 0.34433
0.06958 0.813324 0.257446
0.108795 0.845886 0.304962
0.332916 0.83847 0.357666
0.457794 0.835022 0.352753
0.57785 0.834991 0.351471
0.686035 0.836426 0.351318
0.775421 0.838287 0.351837
0.796539 0.791077 0.348785
0.031372 0.090393 0.375946
0.093231 0.054138 0.374664
0.213989 0.056152 0.371765
0.325073 0.064758 0.368011
0.470032 0.09137 0.411041
0.577972 0.111572 0.425354
0.667816 0.128906 0.437347
0.735962 0.142273 0.446289
0.031372 0.197937 0.381226
0.147186 0.198151 0.389618
0.23819 0.174927 0.386963
0.351746 0.178986 0.386597
0.492432 0.196136 0.425812
0.602386 0.211975 0.442841
0.694031 0.225769 0.456909
0.763031 0.236755 0.467499
0.031372 0.307159 0.385559
0.143738 0.310486 0.397034
0.270538 0.306061 0.401215
0.373138 0.296509 0.400726
0.50592 0.310303 0.431702
0.617554 0.323608 0.450378
0.710297 0.335388 0.465973
0.780334 0.344604 0.477722
0.032867 0.390106 0.358765
0.135925 0.406891 0.384308
0.270233 0.410309 0.396667
0.393311 0.419525 0.41507
0.516815 0.431122 0.435547
0.629517 0.442719 0.454865
0.723145 0.4534 0.4711
0.794098 0.461639 0.483643
0.045624 0.519226 0.362183
0.118317 0.544342 0.397034
0.274078 0.540131 0.401794
0.413055 0.547546 0.430389
0.518524 0.537689 0.429993
0.632263 0.53714 0.437897
0.72641 0.537201 0.444519
0.797211 0.537811 0.449585
0.055939 0.63858 0.365417
0.096863 0.672516 0.410614
0.273224 0.661774 0.408295
0.429993 0.666779 0.445709
0.54837 0.667816 0.445404
0.633911 0.6474 0.444336
0.728882 0.646942 0.451263
0.800598 0.646912 0.456329
0.064301 0.738373 0.368073
0.104065 0.771545 0.413208
0.26828 0.765076 0.415497
0.443359 0.766937 0.458893
0.562958 0.767212 0.458008
0.671051 0.768951 0.458221
0.730255 0.739441 0.456635
0.802399 0.739014 0.461884
0.070435 0.813995 0.369995
0.109894 0.846741 0.415253
0.260468 0.844971 0.422791
0.452606 0.843353 0.469543
0.573944 0.843018 0.467926
0.682526 0.844299 0.467926
0.772186 0.845947 0.468201
0.803375 0.809326 0.466125
0.031372 0.121399 0.500977
0.061523 0.080261 0.50238
0.200958 0.075226 0.494843
0.31662 0.080872 0.49118
0.429688 0.090271 0.486572
0.575409 0.115417 0.538208
0.665649 0.132355 0.549866
0.734039 0.145264 0.558777
0.031372 0.224487 0.506866
0.146271 0.226715 0.516357
0.227966 0.188538 0.511383
0.344879 0.19101 0.510406
0.460175 0.196411 0.508972
0.6008 0.214539 0.556
0.692535 0.22818 0.56958
0.761658 0.239014 0.579712
0.034149 0.331848 0.51123
0.141846 0.337555 0.524567
0.275116 0.330566 0.526154
0.366638 0.307556 0.524292
0.483093 0.311188 0.524323
0.616608 0.325439 0.563934
0.709503 0.33725 0.578735
0.779602 0.346405 0.590027
0.042084 0.444275 0.515533
0.125031 0.45755 0.536621
0.274078 0.445312 0.533203
0.399231 0.442078 0.53891
0.504395 0.432312 0.538483
0.628693 0.444458 0.568359
0.722565 0.454865 0.584076
0.793365 0.463043 0.5961
0.046478 0.520325 0.478607
0.099091 0.55191 0.518738
0.270508 0.542633 0.518341
0.399139 0.549103 0.534058
0.525055 0.55899 0.553162
0.639252 0.56958 0.572021
0.733917 0.578857 0.588013
0.805389 0.586395 0.600281
0.056732 0.639526 0.481842
0.097595 0.67334 0.525085
0.269501 0.664276 0.52478
0.404388 0.668121 0.538177
0.543335 0.677063 0.567413
0.640686 0.667969 0.566925
0.735992 0.667419 0.573486
0.807709 0.667297 0.578369
0.065155 0.739349 0.484344
0.105103 0.772339 0.527802
0.263947 0.767883 0.531952
0.406738 0.768646 0.542358
0.558136 0.776245 0.579651
0.666809 0.77774 0.579681
0.737091 0.759399 0.578735
0.809448 0.759064 0.583801
0.07132 0.814941 0.48642
0.110626 0.847046 0.529846
0.255493 0.847046 0.539032
0.407257 0.845398 0.546173
0.568756 0.847046 0.589233
0.678284 0.847046 0.58905
0.76828 0.847046 0.589264
0.810211 0.828949 0.58786
0.031372 0.149841 0.616547
0.031372 0.102966 0.619934
0.185791 0.093292 0.609894
0.307617 0.095795 0.605591
0.423492 0.103333 0.601471
0.526886 0.112793 0.596527
0.662842 0.135956 0.654083
0.731262 0.148682 0.662689
0.031372 0.249939 0.62262
0.140594 0.255432 0.634827
0.215363 0.202637 0.627075
0.336823 0.2034 0.624786
0.45401 0.207855 0.62323
0.559662 0.213776 0.621338
0.690491 0.230865 0.673981
0.759949 0.241577 0.684021
0.039825 0.355316 0.627289
0.133759 0.365326 0.644104
0.277771 0.35437 0.641998
0.359009 0.318695 0.638733
0.477295 0.321686 0.638367
0.584076 0.325592 0.638
0.707916 0.339417 0.683533
0.778259 0.34845 0.69455
0.047241 0.466766 0.631653
0.108185 0.486877 0.658966
0.276215 0.468231 0.649445
0.404175 0.463959 0.653839
0.498749 0.442139 0.652313
0.60614 0.445312 0.652466
0.721405 0.456665 0.689087
0.792511 0.464752 0.700745
0.054626 0.582886 0.636169
0.095001 0.608704 0.669342
0.26947 0.588959 0.658386
0.403381 0.582306 0.661072
0.530792 0.579681 0.66748
0.627655 0.570679 0.667145
0.73291 0.580444 0.693054
0.804474 0.587952 0.705231
0.057678 0.640472 0.589142
0.098175 0.674225 0.631317
0.263733 0.667633 0.63327
0.401642 0.670471 0.645172
0.530884 0.678558 0.662872
0.64679 0.687927 0.680817
0.74234 0.696411 0.696381
0.81427 0.7034 0.708344
0.065857 0.740082 0.591766
0.105713 0.773254 0.634003
0.257385 0.771393 0.640686
0.404175 0.770721 0.649506
0.536133 0.777527 0.665955
0.662201 0.786285 0.692474
0.743469 0.778656 0.69223
0.815735 0.778198 0.69696
0.072327 0.815704 0.59375
0.111328 0.847046 0.635956
0.248383 0.847046 0.647888
0.404602 0.847046 0.653137
0.539185 0.847046 0.668762
0.673553 0.847046 0.701599
0.76413 0.847046 0.701782
0.816681 0.847046 0.70108
0.031372 0.173431 0.712799
0.031372 0.113708 0.711517
0.167725 0.11087 0.707123
0.297607 0.109833 0.701233
0.416748 0.115417 0.696991
0.521759 0.123596 0.692474
0.607697 0.131653 0.688263
0.728729 0.15213 0.75
0.034943 0.27124 0.719299
0.129364 0.282043 0.735809
0.20047 0.216492 0.724762
0.327759 0.214966 0.720642
0.447723 0.218323 0.718719
0.554626 0.223358 0.716888
0.642212 0.22879 0.714844
0.757812 0.24411 0.771484
0.043976 0.375549 0.724243
0.117981 0.392151 0.746796
0.278748 0.375275 0.73938
0.351013 0.328949 0.734772
0.471527 0.330963 0.733887
0.579285 0.334686 0.733124
0.667908 0.33844 0.732544
0.776764 0.350403 0.782227
0.051758 0.486053 0.728729
0.092438 0.51236 0.7612
0.276733 0.488342 0.746948
0.407318 0.48291 0.750153
0.493195 0.450897 0.747803
0.601593 0.453735 0.747711
0.690918 0.456635 0.747711
0.79129 0.466461 0.788757
0.058746 0.601379 0.733093
0.098633 0.626923 0.765778
0.26947 0.608459 0.756287
0.406525 0.60083 0.757446
0.535065 0.597534 0.763245
0.623199 0.578674 0.762177
0.713104 0.581116 0.762451
0.803619 0.589447 0.793121
0.065002 0.709167 0.737152
0.104431 0.734009 0.769836
0.255341 0.722839 0.767151
0.403015 0.711487 0.764923
0.534851 0.707062 0.769867
0.651672 0.704926 0.776184
0.732544 0.697571 0.775909
0.813538 0.70462 0.796478
0.06665 0.740784 0.681458
0.106201 0.774017 0.7229
0.249878 0.775024 0.732452
0.401062 0.772827 0.739502
0.534363 0.779236 0.755249
0.651947 0.787445 0.772247
0.748322 0.79538 0.787323
0.821106 0.80191 0.799103
0.072906 0.816589 0.683533
0.111847 0.847046 0.724915
0.238892 0.847046 0.740082
0.401428 0.847046 0.743195
0.537323 0.847046 0.757843
0.656189 0.847046 0.774475
0.760315 0.847046 0.796265
0.821777 0.847046 0.796082
0.031372 0.191376 0.785767
0.031372 0.121796 0.781189
0.150024 0.125641 0.78183
0.288666 0.120819 0.773865
0.410797 0.125092 0.769531
0.517151 0.132233 0.765137
0.604034 0.139648 0.761108
0.669098 0.145996 0.757629
0.038147 0.287872 0.792664
0.113861 0.304932 0.814392
0.184998 0.228577 0.799713
0.320068 0.224213 0.793488
0.442139 0.22644 0.791138
0.550171 0.231079 0.789154
0.63855 0.236328 0.78717
0.704529 0.240753 0.785309
0.047089 0.39093 0.797791
0.09729 0.415344 0.827087
0.27832 0.391815 0.813477
0.344177 0.337189 0.807922
0.4664 0.338379 0.806274
0.575134 0.341644 0.805603
0.664276 0.345398 0.80481
0.731293 0.348572 0.804138
0.054962 0.500641 0.802338
0.095154 0.526886 0.83432
0.275879 0.504395 0.821228
0.409332 0.497833 0.823486
0.488647 0.457886 0.820465
0.597717 0.460327 0.820099
0.687439 0.463013 0.819885
0.755096 0.465698 0.819794
0.061951 0.615692 0.806702
0.101562 0.641052 0.838959
0.267822 0.624268 0.830811
0.408386 0.615204 0.830841
0.538177 0.611389 0.836182
0.619476 0.585022 0.834381
0.709686 0.587311 0.834503
0.777588 0.589355 0.834625
0.068207 0.722961 0.810913
0.107391 0.747742 0.843048
0.252472 0.738556 0.842316
0.404724 0.725586 0.838348
0.537872 0.720642 0.842743
0.655121 0.718292 0.847046
0.729187 0.703491 0.847046
0.797363 0.705231 0.847046
0.073395 0.813293 0.814209
0.111908 0.837646 0.846436
0.228546 0.838379 0.847046
0.399139 0.819305 0.845551
0.536224 0.812958 0.847046
0.655212 0.809814 0.847046
0.752106 0.808319 0.847046
0.813629 0.802643 0.847046
0.073303 0.817139 0.751587
0.112457 0.847046 0.79245
0.228668 0.847046 0.811279
0.39856 0.847046 0.811707
0.535797 0.847046 0.825928
0.655182 0.847046 0.84201
0.752533 0.847046 0.847046
0.82547 0.847046 0.847046
