site/assets/luts/freshluts--0001172-fantasma.cube
# LUTr-Schema-Version: 2
# LUTr-ID: freshluts--0001172-fantasma
# LUTr-Title: Fantasma
# LUTr-Collection: Fresh LUTs
# LUTr-Collection-ID: freshluts-community
# LUTr-Source: https://freshluts.com
# LUTr-Retrieved: 2026-07-27
# LUTr-Source-File: submissions-raw/freshluts/cubes/1172__LEONORA_total_cyan.cube
# LUTr-Source-Format: CUBE
# LUTr-Source-SHA256: 0b75d9e7bc155a62d14f2582201d686ba07a29251d6fdfd5dbbd18aefea6982a
# LUTr-License: CC0-1.0
# LUTr-License-URL: https://freshluts.com/termsandconditions
# LUTr-License-Basis: site-terms
# LUTr-Transform-Class: creative-look
# LUTr-Tags: creative, freshluts, community, cube, yellow, low-key, sony-s-log2
# LUTr-Input-Color-Space:
# LUTr-Input-Gamut: sony-s-gamut
# LUTr-Input-Transfer: sony-s-log2
# LUTr-Output-Color-Space: srgb
# LUTr-Output-Gamut: rec709
# LUTr-Output-Transfer: srgb
# LUTr-Color-Space-Confidence: camera-profile-input-required
# LUTr-Domain-Normalized: true
# LUTr-Shaper: none
# LUTr-Original-Grid: 25x25x25
# LUTr-Conversion-Grid: 25x25x25
# LUTr-Conversion-Interpolation: none
# LUTr-Conversion-Method: Metadata normalization; numeric LUT samples preserved
# LUTr-Conversion-Tool: LUTr scripts/convert-all-to-cube.mjs 2.0.0
# LUTr-Conversion-Date: 2026-07-28
# LUTr-Asset-URL: https://freshluts.com/luts/1172
# LUTr-Author: Jesús Herrera Jaimes
# LUTr-Author-URL: https://freshluts.com/users/15209
# LUTr-Attribution: Jesús Herrera Jaimes via Fresh LUTs
# LUTr-Source-Labels: gamma=Sony S-Log 2; color=Yellow; key=Low Key; style=Cinematic/Dark
# LUTr-Note: Preserve this metadata and the upstream license notices when redistributing.
# LUTr-Upstream-Comment: Generated with IWLTBAP LUT Generator
# LUTr-Upstream-Comment: Website: http://luts.iwltbap.com
# LUTr-Upstream-Comment: LUT size
# LUTr-Upstream-Comment: LUT data points
TITLE "Fantasma"
LUT_3D_SIZE 9
DOMAIN_MIN 0 0 0
DOMAIN_MAX 1 1 1
0.180392 0 0
0.196078 0 0.011765
0.176471 0.019608 0.05098
0.145098 0.090196 0.090196
0.066667 0.168627 0.164706
0.007843 0.262745 0.247059
0 0.352941 0.32549
0.003922 0.462745 0.427451
0 0.705882 0.639216
0.196078 0 0.043137
0.176471 0.015686 0.047059
0.168627 0.062745 0.082353
0.129412 0.113725 0.109804
0.039216 0.180392 0.172549
0 0.258824 0.243137
0.007843 0.34902 0.32549
0 0.454902 0.411765
0.007843 0.666667 0.607843
0.14902 0.101961 0.109804
0.137255 0.113725 0.113725
0.070588 0.168627 0.156863
0 0.219608 0.207843
0 0.27451 0.243137
0.007843 0.329412 0.305882
0.003922 0.423529 0.384314
0 0.533333 0.486275
0 0.760784 0.698039
0 0.188235 0.188235
0 0.215686 0.203922
0.003922 0.247059 0.227451
0 0.290196 0.270588
0.003922 0.368627 0.337255
0 0.411765 0.384314
0 0.470588 0.427451
0 0.568627 0.517647
0.003922 0.690196 0.631373
0 0.290196 0.27451
0 0.368627 0.337255
0 0.396078 0.372549
0.007843 0.427451 0.396078
0 0.486275 0.439216
0.003922 0.576471 0.52549
0 0.635294 0.576471
0 0.713725 0.654902
0.007843 0.862745 0.796078
0 0.619608 0.564706
0 0.627451 0.568627
0 0.635294 0.584314
0 0.647059 0.592157
0 0.686275 0.623529
0 0.717647 0.654902
0.003922 0.780392 0.713725
0 0.827451 0.760784
0.007843 0.960784 0.87451
0.003922 0.65098 0.596078
0 0.72549 0.670588
0 0.737255 0.678431
0.003922 0.752941 0.694118
0.003922 0.768627 0.705882
0 0.8 0.733333
0 0.827451 0.760784
0 0.886275 0.831373
0 0.996078 0.92549
0 0.937255 0.847059
0 0.960784 0.894118
0.003922 0.976471 0.905882
0.003922 0.988235 0.913725
0.003922 0.996078 0.913725
0 1 0.917647
0 1 0.945098
0 0.996078 0.964706
0 0.996078 1
0 0.996078 1
0 1 1
0.003922 1 1
0 1 1
0 1 1
0.003922 1 1
0 0.996078 0.996078
0.003922 1 1
0 1 1
0.188235 0 0.007843
0.196078 0 0.023529
0.180392 0.035294 0.062745
0.145098 0.109804 0.113725
0.047059 0.172549 0.160784
0.003922 0.223529 0.211765
0 0.286275 0.258824
0.003922 0.376471 0.345098
0 0.611765 0.568627
0.188235 0.003922 0.043137
0.180392 0.035294 0.062745
0.160784 0.07451 0.086275
0.12549 0.133333 0.129412
0.007843 0.184314 0.172549
0 0.231373 0.215686
0 0.282353 0.254902
0.003922 0.356863 0.321569
0 0.556863 0.509804
0.145098 0.109804 0.113725
0.137255 0.121569 0.12549
0.078431 0.156863 0.152941
0 0.196078 0.184314
0.011765 0.25098 0.231373
0 0.301961 0.278431
0 0.380392 0.352941
0 0.490196 0.447059
0.007843 0.701961 0.639216
0 0.188235 0.172549
0.003922 0.2 0.188235
0 0.227451 0.211765
0.003922 0.258824 0.243137
0 0.317647 0.290196
0 0.364706 0.333333
0 0.427451 0.392157
0 0.521569 0.478431
0 0.647059 0.580392
0 0.290196 0.27451
0.003922 0.341176 0.305882
0 0.364706 0.32549
0 0.403922 0.368627
0 0.454902 0.419608
0.007843 0.541176 0.501961
0 0.611765 0.560784
0 0.690196 0.639216
0.007843 0.843137 0.764706
0 0.568627 0.517647
0.003922 0.576471 0.52549
0 0.588235 0.545098
0 0.619608 0.560784
0 0.647059 0.592157
0 0.682353 0.631373
0.003922 0.756863 0.698039
0.003922 0.815686 0.745098
0 0.945098 0.858824
0 0.627451 0.564706
0.003922 0.690196 0.639216
0.003922 0.701961 0.647059
0 0.713725 0.654902
0 0.745098 0.682353
0 0.772549 0.713725
0 0.807843 0.745098
0 0.866667 0.796078
0 0.988235 0.894118
0.003922 0.917647 0.835294
0 0.94902 0.862745
0.003922 0.956863 0.886275
0 0.956863 0.886275
0 0.972549 0.886275
0 0.992157 0.913725
0 1 0.92549
0.007843 0.992157 0.956863
0 0.996078 1
0 1 0.984314
0 1 0.988235
0 1 0.992157
0.003922 1 1
0.003922 1 1
0.003922 1 1
0 0.996078 0.996078
0 0.996078 0.988235
0 1 1
0.184314 0 0.023529
0.188235 0.003922 0.035294
0.172549 0.05098 0.07451
0.129412 0.121569 0.12549
0.011765 0.188235 0.176471
0 0.243137 0.223529
0 0.301961 0.278431
0.003922 0.403922 0.360784
0 0.639216 0.576471
0.184314 0.047059 0.07451
0.176471 0.062745 0.082353
0.160784 0.098039 0.101961
0.105882 0.152941 0.152941
0 0.203922 0.188235
0 0.25098 0.227451
0 0.298039 0.27451
0.003922 0.384314 0.34902
0 0.588235 0.529412
0.145098 0.109804 0.113725
0.121569 0.129412 0.12549
0.027451 0.180392 0.168627
0 0.215686 0.203922
0 0.270588 0.25098
0.003922 0.32549 0.301961
0 0.403922 0.368627
0 0.517647 0.47451
0.007843 0.721569 0.662745
0 0.203922 0.180392
0 0.219608 0.207843
0.003922 0.247059 0.235294
0 0.286275 0.258824
0 0.329412 0.309804
0 0.380392 0.352941
0 0.45098 0.415686
0 0.545098 0.501961
0 0.658824 0.607843
0.003922 0.301961 0.286275
0.003922 0.360784 0.333333
0 0.388235 0.34902
0 0.419608 0.380392
0 0.470588 0.431373
0.003922 0.541176 0.501961
0.003922 0.615686 0.564706
0.003922 0.690196 0.631373
0 0.839216 0.776471
0.003922 0.572549 0.521569
0 0.576471 0.529412
0 0.584314 0.541176
0 0.611765 0.552941
0 0.643137 0.588235
0 0.682353 0.623529
0.003922 0.752941 0.690196
0 0.811765 0.741176
0 0.941176 0.866667
0.007843 0.623529 0.580392
0 0.686275 0.635294
0 0.705882 0.647059
0.007843 0.721569 0.662745
0 0.745098 0.686275
0 0.772549 0.705882
0 0.811765 0.741176
0 0.882353 0.803922
0.007843 0.980392 0.909804
0 0.917647 0.827451
0 0.929412 0.858824
0 0.945098 0.858824
0 0.952941 0.87451
0 0.964706 0.890196
0.007843 0.984314 0.898039
0 1 0.917647
0 0.996078 0.952941
0 0.996078 1
0 1 0.984314
0 1 0.992157
0.003922 1 0.992157
0.003922 1 0.992157
0 1 1
0 1 1
0 0.996078 1
0 1 1
0 1 1
0.188235 0.031373 0.066667
0.176471 0.054902 0.078431
0.14902 0.101961 0.109804
0.105882 0.145098 0.14902
0.003922 0.2 0.188235
0 0.254902 0.231373
0 0.317647 0.294118
0 0.435294 0.4
0 0.662745 0.611765
0.160784 0.086275 0.101961
0.14902 0.105882 0.121569
0.12549 0.129412 0.137255
0.062745 0.164706 0.160784
0 0.211765 0.2
0 0.266667 0.247059
0 0.317647 0.294118
0 0.419608 0.384314
0 0.631373 0.568627
0.105882 0.152941 0.145098
0.05098 0.168627 0.160784
0 0.211765 0.192157
0 0.239216 0.219608
0 0.290196 0.262745
0 0.356863 0.329412
0 0.439216 0.4
0.003922 0.541176 0.501961
0.003922 0.733333 0.678431
0.003922 0.211765 0.188235
0.007843 0.227451 0.215686
0.003922 0.262745 0.247059
0 0.317647 0.294118
0 0.364706 0.333333
0 0.411765 0.372549
0 0.47451 0.439216
0.003922 0.568627 0.529412
0 0.682353 0.631373
0 0.309804 0.27451
0.003922 0.360784 0.341176
0 0.419608 0.380392
0 0.458824 0.423529
0 0.505882 0.466667
0.003922 0.572549 0.521569
0.003922 0.635294 0.576471
0.007843 0.705882 0.658824
0.007843 0.85098 0.792157
0.003922 0.607843 0.560784
0 0.619608 0.564706
0 0.631373 0.572549
0 0.643137 0.588235
0.007843 0.67451 0.623529
0 0.709804 0.65098
0 0.772549 0.705882
0.007843 0.827451 0.752941
0 0.945098 0.882353
0 0.654902 0.588235
0.007843 0.717647 0.658824
0 0.729412 0.662745
0 0.745098 0.682353
0.007843 0.760784 0.701961
0 0.792157 0.729412
0.007843 0.823529 0.760784
0.003922 0.894118 0.819608
0.007843 1 0.917647
0 0.92549 0.831373
0 0.933333 0.870588
0 0.952941 0.87451
0 0.960784 0.878431
0 0.976471 0.898039
0 0.984314 0.909804
0 1 0.937255
0 0.996078 0.956863
0.007843 0.984314 1
0 1 0.988235
0 1 0.984314
0.003922 1 1
0 0.996078 0.996078
0.003922 1 1
0 1 1
0 1 1
0 1 1
0 1 0.992157
0.152941 0.094118 0.105882
0.152941 0.113725 0.117647
0.105882 0.141176 0.137255
0.047059 0.172549 0.168627
0 0.215686 0.196078
0.003922 0.258824 0.243137
0 0.333333 0.305882
0 0.458824 0.423529
0.011765 0.670588 0.603922
0.129412 0.137255 0.133333
0.113725 0.14902 0.145098
0.078431 0.164706 0.156863
0 0.192157 0.176471
0.003922 0.223529 0.219608
0.003922 0.262745 0.247059
0.003922 0.32549 0.309804
0 0.431373 0.396078
0 0.631373 0.580392
0.003922 0.196078 0.172549
0.003922 0.223529 0.211765
0 0.243137 0.223529
0 0.27451 0.258824
0.003922 0.305882 0.282353
0 0.356863 0.329412
0 0.454902 0.419608
0 0.564706 0.513725
0 0.74902 0.698039
0 0.235294 0.215686
0.007843 0.266667 0.25098
0.003922 0.305882 0.282353
0 0.34902 0.313725
0 0.380392 0.345098
0 0.435294 0.4
0 0.501961 0.462745
0.007843 0.588235 0.541176
0 0.686275 0.627451
0 0.305882 0.286275
0 0.364706 0.32549
0 0.396078 0.372549
0 0.458824 0.423529
0 0.537255 0.498039
0 0.588235 0.541176
0.003922 0.65098 0.596078
0.003922 0.713725 0.654902
0.007843 0.858824 0.784314
0 0.568627 0.52549
0.003922 0.584314 0.537255
0 0.611765 0.560784
0.007843 0.666667 0.615686
0 0.705882 0.647059
0.003922 0.729412 0.67451
0.003922 0.780392 0.721569
0 0.835294 0.764706
0 0.960784 0.878431
0 0.670588 0.607843
0.003922 0.729412 0.67451
0 0.752941 0.694118
0 0.764706 0.698039
0 0.784314 0.721569
0 0.811765 0.74902
0 0.839216 0.768627
0 0.905882 0.835294
0.003922 0.996078 0.913725
0 0.929412 0.839216
0 0.945098 0.858824
0 0.956863 0.886275
0 0.960784 0.890196
0 0.984314 0.901961
0.007843 1 0.921569
0 1 0.937255
0.003922 1 0.960784
0 0.996078 0.996078
0 1 0.976471
0 1 0.992157
0 1 1
0.003922 1 1
0 1 0.996078
0 1 0.996078
0 0.996078 0.996078
0 1 1
0.003922 1 1
0.113725 0.137255 0.129412
0.090196 0.145098 0.145098
0.039216 0.172549 0.168627
0.003922 0.2 0.188235
0 0.239216 0.219608
0 0.282353 0.266667
0.007843 0.32549 0.301961
0 0.458824 0.423529
0 0.686275 0.619608
0.07451 0.168627 0.184314
0.035294 0.180392 0.152941
0 0.188235 0.176471
0 0.215686 0.203922
0.003922 0.239216 0.231373
0 0.286275 0.258824
0 0.309804 0.290196
0.007843 0.419608 0.4
0 0.627451 0.568627
0 0.227451 0.219608
0 0.254902 0.239216
0.007843 0.266667 0.25098
0 0.294118 0.27451
0.003922 0.32549 0.301961
0.003922 0.384314 0.356863
0 0.435294 0.4
0 0.568627 0.517647
0 0.752941 0.686275
0.007843 0.262745 0.239216
0.003922 0.305882 0.27451
0 0.341176 0.309804
0 0.364706 0.333333
0 0.392157 0.360784
0 0.427451 0.392157
0 0.482353 0.443137
0 0.584314 0.537255
0.003922 0.678431 0.623529
0 0.337255 0.305882
0 0.407843 0.372549
0.003922 0.439216 0.403922
0 0.494118 0.45098
0 0.556863 0.509804
0 0.584314 0.537255
0 0.643137 0.588235
0.007843 0.705882 0.658824
0.003922 0.835294 0.776471
0 0.541176 0.490196
0.003922 0.552941 0.501961
0 0.572549 0.521569
0.007843 0.611765 0.564706
0 0.670588 0.615686
0 0.737255 0.678431
0 0.776471 0.709804
0 0.823529 0.74902
0 0.945098 0.858824
0 0.564706 0.513725
0 0.619608 0.572549
0 0.658824 0.6
0 0.698039 0.643137
0.007843 0.760784 0.701961
0 0.803922 0.737255
0.003922 0.835294 0.776471
0 0.890196 0.823529
0 0.992157 0.913725
0 0.890196 0.807843
0.007843 0.901961 0.835294
0.003922 0.913725 0.85098
0.003922 0.94902 0.87451
0 0.968627 0.894118
0 0.988235 0.905882
0 1 0.937255
0.003922 1 0.960784
0 0.996078 1
0 0.996078 0.964706
0 1 0.968627
0 1 0.976471
0.007843 1 0.988235
0.003922 1 1
0 1 1
0 1 1
0 1 1
0 1 1
0 0.203922 0.188235
0 0.215686 0.196078
0 0.231373 0.215686
0.003922 0.247059 0.227451
0.003922 0.290196 0.262745
0 0.329412 0.301961
0 0.4 0.364706
0 0.470588 0.435294
0.003922 0.670588 0.627451
0 0.215686 0.192157
0 0.223529 0.2
0 0.235294 0.227451
0 0.254902 0.239216
0 0.286275 0.258824
0.003922 0.321569 0.294118
0 0.380392 0.352941
0 0.447059 0.407843
0 0.623529 0.576471
0 0.27451 0.243137
0 0.313725 0.286275
0 0.321569 0.305882
0 0.34902 0.32549
0 0.392157 0.360784
0 0.435294 0.4
0.007843 0.501961 0.458824
0 0.568627 0.517647
0.003922 0.752941 0.690196
0.007843 0.32549 0.301961
0.003922 0.384314 0.34902
0 0.396078 0.364706
0 0.411765 0.384314
0 0.443137 0.411765
0 0.486275 0.447059
0 0.541176 0.490196
0 0.580392 0.533333
0 0.698039 0.635294
0 0.415686 0.376471
0 0.478431 0.435294
0 0.505882 0.466667
0 0.568627 0.517647
0 0.596078 0.54902
0.003922 0.619608 0.576471
0 0.654902 0.603922
0.003922 0.694118 0.643137
0 0.862745 0.780392
0.007843 0.588235 0.541176
0.003922 0.6 0.54902
0 0.623529 0.564706
0.007843 0.658824 0.611765
0.003922 0.701961 0.647059
0 0.760784 0.694118
0 0.776471 0.717647
0 0.827451 0.760784
0.007843 0.92549 0.87451
0 0.572549 0.521569
0 0.631373 0.572549
0 0.65098 0.603922
0 0.690196 0.627451
0 0.72549 0.670588
0 0.788235 0.72549
0.003922 0.854902 0.780392
0.003922 0.894118 0.819608
0 0.992157 0.909804
0 0.784314 0.721569
0.003922 0.815686 0.752941
0.003922 0.839216 0.768627
0 0.87451 0.8
0 0.92549 0.847059
0.007843 0.984314 0.905882
0 1 0.929412
0 0.996078 0.956863
0 1 1
0 1 0.913725
0.003922 0.996078 0.917647
0 1 0.937255
0.003922 1 0.960784
0 0.996078 0.988235
0 1 0.992157
0 1 1
0 1 1
0 1 1
0 0.298039 0.27451
0 0.305882 0.282353
0 0.317647 0.294118
0.003922 0.337255 0.309804
0 0.388235 0.34902
0.003922 0.439216 0.403922
0.003922 0.513725 0.47451
0 0.580392 0.533333
0 0.698039 0.635294
0 0.27451 0.258824
0.003922 0.298039 0.278431
0 0.309804 0.290196
0 0.337255 0.313725
0 0.376471 0.34902
0.003922 0.423529 0.392157
0 0.494118 0.447059
0 0.552941 0.517647
0.003922 0.65098 0.596078
0 0.341176 0.309804
0 0.407843 0.372549
0.003922 0.415686 0.388235
0 0.447059 0.415686
0 0.482353 0.443137
0 0.537255 0.498039
0 0.596078 0.545098
0.003922 0.65098 0.596078
0.015686 0.745098 0.690196
0 0.415686 0.376471
0 0.466667 0.427451
0 0.482353 0.443137
0 0.498039 0.462745
0 0.533333 0.494118
0 0.568627 0.517647
0 0.611765 0.560784
0.003922 0.662745 0.603922
0.003922 0.701961 0.647059
0 0.529412 0.482353
0 0.584314 0.541176
0 0.619608 0.560784
0.003922 0.639216 0.588235
0 0.65098 0.603922
0.003922 0.678431 0.623529
0 0.713725 0.643137
0 0.74902 0.690196
0.011765 0.819608 0.768627
0 0.647059 0.6
0 0.658824 0.6
0 0.67451 0.619608
0 0.709804 0.65098
0.007843 0.756863 0.694118
0 0.792157 0.729412
0 0.811765 0.741176
0.003922 0.839216 0.768627
0 0.917647 0.866667
0 0.65098 0.596078
0.007843 0.698039 0.647059
0 0.713725 0.654902
0 0.741176 0.678431
0.003922 0.780392 0.713725
0 0.831373 0.760784
0 0.882353 0.811765
0 0.901961 0.823529
0.003922 0.996078 0.917647
0 0.811765 0.741176
0.003922 0.839216 0.768627
0.003922 0.847059 0.776471
0 0.878431 0.8
0 0.905882 0.835294
0 0.941176 0.87451
0.003922 0.996078 0.913725
0 1 0.956863
0.003922 1 0.992157
0 0.901961 0.831373
0 0.92549 0.839216
0.003922 0.933333 0.862745
0 0.960784 0.878431
0.007843 1 0.921569
0 0.996078 0.964706
0 1 1
0 1 0.996078
0.007843 1 1
0 0.47451 0.439216
0 0.482353 0.443137
0.003922 0.501961 0.458824
0 0.52549 0.482353
0 0.568627 0.517647
0 0.603922 0.556863
0.003922 0.654902 0.607843
0 0.713725 0.654902
0 0.823529 0.74902
0 0.411765 0.372549
0 0.45098 0.423529
0 0.486275 0.447059
0 0.517647 0.47451
0.003922 0.552941 0.501961
0.003922 0.592157 0.545098
0 0.643137 0.588235
0 0.705882 0.639216
0 0.792157 0.717647
0 0.505882 0.466667
0 0.564706 0.513725
0.011765 0.584314 0.541176
0 0.603922 0.556863
0 0.635294 0.584314
0 0.67451 0.611765
0 0.721569 0.666667
0 0.772549 0.705882
0.003922 0.858824 0.792157
0 0.552941 0.498039
0.003922 0.6 0.552941
0.003922 0.615686 0.564706
0 0.635294 0.584314
0 0.666667 0.603922
0 0.694118 0.631373
0 0.737255 0.666667
0 0.776471 0.709804
0 0.819608 0.752941
0 0.647059 0.584314
0.003922 0.694118 0.643137
0 0.709804 0.65098
0 0.721569 0.666667
0 0.745098 0.686275
0 0.768627 0.713725
0 0.807843 0.737255
0 0.843137 0.780392
0.007843 0.917647 0.854902
0 0.745098 0.682353
0 0.74902 0.686275
0 0.764706 0.701961
0 0.792157 0.729412
0.003922 0.819608 0.756863
0 0.839216 0.776471
0 0.866667 0.796078
0.003922 0.898039 0.831373
0 0.980392 0.905882
0.003922 0.737255 0.670588
0 0.768627 0.713725
0 0.784314 0.721569
0 0.803922 0.737255
0.007843 0.835294 0.768627
0.003922 0.886275 0.815686
0 0.92549 0.847059
0.003922 0.94902 0.87451
0 0.996078 0.92549
0 0.843137 0.780392
0 0.886275 0.807843
0 0.890196 0.823529
0 0.905882 0.835294
0 0.929412 0.858824
0 0.964706 0.87451
0 0.992157 0.909804
0 1 0.968627
0.003922 1 0.992157
0 0.901961 0.823529
0.003922 0.941176 0.866667
0 0.945098 0.870588
0 0.964706 0.882353
0 0.984314 0.901961
0 1 0.929412
0 1 0.956863
0.003922 1 0.988235
1 1 1
