site/assets/luts/freshluts--0002722-aliyen.cube
# LUTr-Schema-Version: 2
# LUTr-ID: freshluts--0002722-aliyen
# LUTr-Title: Aliyen
# LUTr-Collection: Fresh LUTs
# LUTr-Collection-ID: freshluts-community
# LUTr-Source: https://freshluts.com
# LUTr-Retrieved: 2026-07-27
# LUTr-Source-File: submissions-raw/freshluts/cubes/2722__Alien_Covenant_-_S-Log2-vk.com-3dluts.cube
# LUTr-Source-Format: CUBE
# LUTr-Source-SHA256: 342566c0620174264a94e503634fece486fd29829b697515f439ae90f88b1fe7
# LUTr-License: CC0-1.0
# LUTr-License-URL: https://freshluts.com/termsandconditions
# LUTr-License-Basis: site-terms
# LUTr-Transform-Class: creative-look
# LUTr-Tags: creative, freshluts, community, cube, blue, sony-s-log2
# LUTr-Input-Color-Space: sony-slog2-sgamut
# LUTr-Input-Gamut: sony-s-gamut
# LUTr-Input-Transfer: sony-s-log2
# LUTr-Output-Color-Space: srgb
# LUTr-Output-Gamut: rec709
# LUTr-Output-Transfer: srgb
# LUTr-Color-Space-Confidence: inferred-from-source-label
# LUTr-Domain-Normalized: true
# LUTr-Shaper: none
# LUTr-Original-Grid: 16x16x16
# LUTr-Conversion-Grid: 16x16x16
# LUTr-Conversion-Interpolation: none
# LUTr-Conversion-Method: Metadata normalization; numeric LUT samples preserved
# LUTr-Conversion-Tool: LUTr scripts/convert-all-to-cube.mjs 2.0.0
# LUTr-Conversion-Date: 2026-07-28
# LUTr-Asset-URL: https://freshluts.com/luts/2722
# LUTr-Author: Foysal Fahid
# LUTr-Author-URL: https://freshluts.com/users/521596
# LUTr-Attribution: Foysal Fahid via Fresh LUTs
# LUTr-Source-Labels: gamma=Sony S-Log 2; color=Blue; key=Neutral; style=Colorful
# LUTr-Note: Preserve this metadata and the upstream license notices when redistributing.
TITLE "Aliyen"
LUT_3D_SIZE 16
DOMAIN_MIN 0 0 0
DOMAIN_MAX 1 1 1
0 0 0
0.005226 0.000277 0.002051
0.054978 0.006398 0.011852
0.169817 0.02486 0.0358
0.294326 0.041205 0.103264
0.435246 0.041758 0.153928
0.584762 0.033162 0.198828
0.735303 0.019064 0.240147
0.882605 0.005128 0.278046
0.945055 0 0.311795
0.945218 0.000326 0.339601
0.945299 0.001205 0.361286
0.945299 0.002637 0.377045
0.945299 0.003565 0.387562
0.945299 0.004119 0.394009
0.945299 0.004393 0.397285
0.00013 0.005763 0.000456
0.004666 0.006675 0.001048
0.053784 0.008867 0.011064
0.16956 0.026549 0.035774
0.294165 0.041193 0.103095
0.435138 0.041758 0.153841
0.584671 0.033162 0.198763
0.735229 0.019064 0.240089
0.882575 0.005128 0.277998
0.945055 0 0.311756
0.945218 0.000326 0.339569
0.945299 0.001205 0.361254
0.945299 0.002624 0.377013
0.945299 0.003563 0.38753
0.945299 0.004119 0.393976
0.945299 0.004393 0.397268
0.003744 0.046593 0.000879
0.005026 0.046984 0.000877
0.03845 0.0538 0.003404
0.1628 0.060874 0.033175
0.292415 0.054679 0.099498
0.434183 0.052753 0.151865
0.582808 0.038157 0.197044
0.7331 0.019112 0.238513
0.881678 0.005159 0.276682
0.945055 0 0.310662
0.945218 0.000304 0.338635
0.945299 0.001172 0.360366
0.945299 0.002409 0.37616
0.945299 0.0035 0.386683
0.945299 0.004086 0.39316
0.945299 0.004361 0.39668
0.013236 0.138657 0.021099
0.013226 0.138628 0.021083
0.021144 0.138803 0.020588
0.107175 0.146452 0.029753
0.281696 0.161091 0.087293
0.436565 0.14906 0.141343
0.580669 0.104127 0.188777
0.727183 0.059048 0.230799
0.878392 0.04071 0.270001
0.945094 0.01893 0.304977
0.945381 0.003419 0.333708
0.945299 0.000912 0.355907
0.945299 0.002071 0.372005
0.945299 0.003142 0.382665
0.945299 0.003728 0.389353
0.945299 0.004002 0.392886
0.003403 0.23269 0.095727
0.003414 0.232678 0.095715
0.003605 0.232333 0.095402
0.027793 0.23353 0.091787
0.183977 0.250653 0.086864
0.407109 0.272853 0.113884
0.579927 0.270274 0.158444
0.729384 0.253722 0.210616
0.876842 0.224236 0.252145
0.950447 0.154992 0.29026
0.95478 0.09183 0.321595
0.953404 0.074701 0.345401
0.952554 0.070512 0.362419
0.951946 0.067559 0.373731
0.951512 0.065549 0.380618
0.951292 0.064317 0.384289
0 0.323158 0.161661
0 0.323153 0.161661
0 0.322958 0.161574
0 0.321791 0.1607
0.046626 0.326675 0.154796
0.265554 0.356858 0.128232
0.522768 0.386781 0.108685
0.707768 0.391567 0.151285
0.866879 0.381886 0.211499
0.96381 0.365747 0.258608
0.981902 0.346873 0.296649
0.979607 0.328726 0.324835
0.977306 0.313293 0.344567
0.975683 0.301652 0.357357
0.974511 0.293979 0.365117
0.973876 0.28958 0.369355
0 0.408889 0.224274
0 0.408879 0.224274
0 0.408658 0.224221
0 0.407814 0.223658
0 0.405874 0.222199
0.084379 0.414522 0.207928
0.363868 0.455854 0.149158
0.629131 0.49669 0.09671
0.830196 0.50823 0.127421
0.957421 0.501607 0.195604
0.990704 0.490322 0.249752
0.990167 0.479167 0.285946
0.989724 0.470115 0.310183
0.989519 0.463613 0.32575
0.989272 0.459438 0.335134
0.98911 0.457212 0.340078
0 0.490289 0.281433
0 0.490281 0.281433
0 0.490125 0.2814
0 0.48953 0.281016
0 0.487859 0.279865
0.019579 0.485568 0.271871
0.166714 0.49977 0.245695
0.459139 0.550952 0.17687
0.735448 0.602075 0.086432
0.932344 0.619168 0.080567
0.994329 0.613974 0.157623
0.996602 0.605795 0.220689
0.996337 0.59917 0.254304
0.996288 0.594388 0.274551
0.996167 0.591414 0.286428
0.996158 0.589775 0.292514
0 0.570517 0.334701
0 0.570509 0.334701
0 0.570353 0.334668
0 0.56981 0.334336
0 0.568452 0.333498
0 0.566143 0.331955
0.04098 0.56562 0.322797
0.238199 0.586811 0.292671
0.549031 0.645714 0.205636
0.834924 0.705075 0.066917
0.977919 0.725286 0.047614
0.999623 0.722073 0.092445
0.999567 0.716907 0.156623
0.999544 0.713176 0.194427
0.999544 0.710931 0.212382
0.999544 0.709593 0.221247
0 0.651038 0.383346
0 0.651028 0.383346
0 0.650846 0.383313
0 0.650384 0.383004
0 0.649263 0.382366
0 0.647212 0.381245
0 0.644405 0.379644
0.058621 0.645666 0.364679
0.30402 0.67398 0.332926
0.63873 0.739077 0.24043
0.884624 0.79803 0.097355
0.982919 0.820813 0.023756
0.995839 0.821216 0.043487
0.996151 0.818579 0.062883
0.99619 0.816944 0.071414
0.996336 0.815931 0.075664
0 0.722019 0.421408
0 0.722013 0.421397
0 0.721883 0.421235
0 0.721384 0.421066
0 0.720385 0.42048
0 0.718573 0.41959
0 0.716109 0.418331
0.001443 0.713043 0.413588
0.126604 0.717167 0.392272
0.432235 0.756809 0.37011
0.718871 0.819509 0.285986
0.906054 0.871491 0.142233
0.972519 0.889182 0.077395
0.980149 0.88941 0.068468
0.980909 0.888379 0.066537
0.981355 0.887755 0.065617
0 0.772992 0.446431
0 0.772992 0.446426
0 0.772974 0.446366
0 0.772822 0.446339
0 0.772562 0.446183
0 0.772102 0.445953
0 0.771396 0.445578
0 0.769491 0.444675
0.023096 0.766687 0.437763
0.26415 0.78456 0.419256
0.574267 0.831095 0.405568
0.776434 0.881554 0.329248
0.906123 0.920322 0.215766
0.938618 0.929169 0.181211
0.941229 0.928991 0.176948
0.941955 0.928471 0.175576
0 0.784127 0.45177
0 0.784127 0.45177
0 0.784127 0.45177
0 0.784127 0.45177
0 0.784127 0.45177
0 0.784127 0.45177
0 0.784108 0.451751
0 0.783805 0.451608
0 0.783154 0.451295
0.168293 0.791971 0.432879
0.468555 0.829337 0.425755
0.679922 0.874387 0.421115
0.81812 0.916298 0.338647
0.903167 0.944251 0.255105
0.912759 0.947259 0.244868
0.912917 0.947156 0.244593
0 0.784127 0.45177
0 0.784127 0.45177
0 0.784127 0.45177
0 0.784127 0.45177
0 0.784127 0.45177
0 0.784127 0.45177
0 0.784127 0.45177
0 0.784127 0.45177
0 0.784127 0.45177
0.108044 0.789099 0.434042
0.386016 0.817843 0.421712
0.623273 0.862207 0.435425
0.760459 0.900519 0.393579
0.857186 0.932476 0.307788
0.906003 0.948806 0.25748
0.908669 0.949695 0.254701
0 0.784127 0.45177
0 0.784127 0.45177
0 0.784127 0.45177
0 0.784127 0.45177
0 0.784127 0.45177
0 0.784127 0.45177
0 0.784127 0.45177
0 0.784127 0.45177
0 0.784127 0.45177
0.052542 0.789079 0.435956
0.320842 0.811342 0.421235
0.586495 0.85388 0.434546
0.726929 0.889892 0.415961
0.822423 0.920891 0.342571
0.88432 0.941649 0.279864
0.908462 0.949626 0.254915
0 0.784127 0.45177
0 0.784127 0.45177
0 0.784127 0.45177
0 0.784127 0.45177
0 0.784127 0.45177
0 0.784127 0.45177
0 0.784127 0.45177
0 0.784127 0.45177
0 0.784127 0.45177
0.016737 0.789834 0.438124
0.280869 0.808652 0.422535
0.565046 0.849466 0.433095
0.708736 0.884251 0.426088
0.802928 0.914265 0.361861
0.865829 0.935329 0.299339
0.899661 0.946691 0.263965
0 0 0.003126
0.005714 0.000279 0.004869
0.054986 0.006444 0.013601
0.169693 0.025022 0.037633
0.294303 0.041428 0.10389
0.435246 0.041791 0.154394
0.584762 0.033195 0.199264
0.735303 0.019096 0.240392
0.882605 0.005143 0.278257
0.945055 0 0.311971
0.945218 0.000336 0.339764
0.945299 0.001221 0.361437
0.945299 0.002641 0.377179
0.945299 0.003579 0.387692
0.945299 0.004135 0.394139
0.945299 0.004409 0.397657
0.000142 0.005981 0.004132
0.004846 0.006807 0.005048
0.053005 0.008845 0.012667
0.167678 0.026343 0.036105
0.290773 0.041096 0.101453
0.430121 0.04187 0.151698
0.577815 0.033557 0.196135
0.727219 0.019782 0.237061
0.877653 0.005563 0.274894
0.944314 0.000018 0.308611
0.945218 0.000153 0.336401
0.945299 0.001102 0.35807
0.945299 0.002203 0.373801
0.945299 0.003231 0.384298
0.945299 0.003829 0.39048
0.945299 0.004104 0.393718
0.003897 0.046851 0.002834
0.005182 0.046988 0.00284
0.038538 0.053981 0.005451
0.162048 0.062592 0.034612
0.291031 0.054605 0.09902
0.432766 0.054125 0.150321
0.581782 0.043514 0.194836
0.731427 0.023079 0.235592
0.880287 0.005179 0.273085
0.944762 0.000001 0.306557
0.945218 0.000151 0.334294
0.945299 0.000942 0.355956
0.945299 0.002007 0.371524
0.945299 0.003016 0.381997
0.945299 0.003622 0.387559
0.945299 0.003898 0.390334
0.013226 0.138585 0.021053
0.013259 0.138313 0.020979
0.021245 0.138475 0.02055
0.108034 0.144547 0.031407
0.28258 0.155123 0.089394
0.436878 0.15493 0.142402
0.581198 0.133941 0.188243
0.724362 0.083856 0.228535
0.873478 0.047514 0.266355
0.944692 0.038617 0.300716
0.94745 0.030931 0.329079
0.946221 0.016236 0.350841
0.945412 0.003861 0.366423
0.945299 0.002502 0.376995
0.945299 0.003218 0.383201
0.945299 0.003504 0.386481
0.003414 0.232662 0.095698
0.003582 0.232402 0.095458
0.003605 0.231972 0.09514
0.028185 0.232932 0.091361
0.186277 0.248027 0.087249
0.409555 0.262049 0.119757
0.580271 0.253929 0.165477
0.728838 0.248086 0.213154
0.876072 0.2402 0.251789
0.955165 0.221926 0.287992
0.962496 0.194142 0.318296
0.957764 0.138205 0.341251
0.95469 0.088926 0.357521
0.954187 0.080453 0.36864
0.954112 0.079998 0.375294
0.954043 0.079687 0.378885
0 0.323142 0.16165
0 0.322801 0.161415
0 0.322458 0.161303
0 0.321244 0.160333
0.047448 0.325893 0.153828
0.269186 0.354354 0.130837
0.527174 0.37683 0.118651
0.710993 0.370549 0.160001
0.868606 0.353143 0.222062
0.963248 0.340551 0.266243
0.981416 0.334849 0.30046
0.9812 0.330531 0.32596
0.980875 0.32642 0.344101
0.98059 0.323333 0.355995
0.980394 0.321211 0.363131
0.980297 0.320027 0.366928
0 0.408879 0.224274
0 0.408381 0.224016
0 0.408151 0.223851
0 0.407197 0.223163
0 0.40513 0.221704
0.087907 0.413923 0.206346
0.372635 0.453564 0.145232
0.635053 0.487526 0.097836
0.835304 0.488585 0.141446
0.958003 0.470333 0.213686
0.988474 0.450324 0.265753
0.987682 0.435221 0.300284
0.987345 0.426673 0.322691
0.987113 0.422486 0.336749
0.986992 0.420609 0.345066
0.987115 0.419717 0.349408
0 0.490281 0.281433
0 0.489686 0.281157
0 0.489589 0.280911
0 0.48879 0.280519
0 0.487086 0.279371
0.022598 0.484968 0.271258
0.176866 0.49984 0.243501
0.469705 0.549117 0.170696
0.743543 0.593468 0.088266
0.935151 0.600403 0.106315
0.993287 0.585122 0.184587
0.994915 0.568755 0.242343
0.994392 0.556194 0.275245
0.994083 0.547641 0.295133
0.993822 0.542489 0.306696
0.993797 0.539693 0.312624
0 0.570509 0.334701
0 0.569784 0.334312
0 0.569712 0.33418
0 0.569044 0.333822
0 0.567551 0.332914
0 0.565118 0.331385
0.043882 0.564966 0.322286
0.248025 0.5872 0.290277
0.56128 0.644197 0.196965
0.844347 0.69692 0.07311
0.980391 0.708526 0.061463
0.999233 0.698399 0.129004
0.99902 0.687772 0.18747
0.998876 0.680038 0.219807
0.998754 0.675172 0.236982
0.998746 0.672493 0.245544
0 0.651028 0.383346
0 0.650159 0.382857
0 0.650094 0.382825
0 0.649456 0.382496
0 0.64814 0.381766
0 0.646007 0.380578
0 0.643097 0.378908
0.061956 0.644624 0.362015
0.315187 0.674235 0.327727
0.653163 0.738184 0.228473
0.895682 0.79173 0.083551
0.986193 0.808176 0.037414
0.997091 0.804342 0.056772
0.997469 0.799213 0.072428
0.997646 0.795924 0.080394
0.99781 0.794429 0.109445
0 0.722003 0.421397
0 0.721042 0.42092
0 0.720977 0.420887
0 0.720358 0.420578
0 0.719164 0.41997
0 0.71727 0.419021
0 0.714676 0.417762
0.001785 0.711431 0.411694
0.138361 0.716676 0.390633
0.450183 0.758213 0.366758
0.734035 0.81937 0.270509
0.918195 0.867435 0.123439
0.979486 0.881191 0.063021
0.98623 0.87951 0.053708
0.986786 0.877526 0.05081
0.98706 0.876531 0.063245
0 0.772987 0.446426
0 0.772731 0.4463
0 0.772714 0.446292
0 0.772549 0.446209
0 0.772236 0.446053
0 0.771754 0.445823
0 0.770576 0.445232
0 0.768026 0.443977
0.029599 0.768579 0.433507
0.28123 0.787457 0.415654
0.590652 0.832578 0.401248
0.791096 0.881065 0.310247
0.920164 0.917728 0.191377
0.947595 0.923937 0.160735
0.949668 0.922875 0.155791
0.950522 0.922022 0.153585
0 0.784127 0.45177
0 0.784127 0.45177
0 0.784127 0.45177
0 0.784127 0.45177
0 0.784127 0.45177
0 0.784127 0.45177
0 0.78399 0.451692
0 0.783512 0.451461
0.00083 0.78372 0.450188
0.182632 0.793934 0.432218
0.488594 0.832859 0.427146
0.694989 0.877652 0.41523
0.830291 0.918952 0.325647
0.906172 0.94375 0.249891
0.914507 0.946192 0.240742
0.91472 0.946037 0.2403
0 0.784127 0.45177
0 0.784127 0.45177
0 0.784127 0.45177
0 0.784127 0.45177
0 0.784127 0.45177
0 0.784127 0.45177
0 0.784127 0.45177
0 0.784127 0.45177
0 0.784127 0.45177
0.124953 0.789695 0.433846
0.410094 0.821256 0.422829
0.63944 0.865983 0.435262
0.775537 0.905474 0.38194
0.86636 0.935558 0.298394
0.906551 0.948988 0.256905
0.908669 0.949695 0.254701
0 0.784127 0.45177
0 0.784127 0.45177
0 0.784127 0.45177
0 0.784127 0.45177
0 0.784127 0.45177
0 0.784127 0.45177
0 0.784127 0.45177
0 0.784127 0.45177
0 0.784127 0.45177
0.079456 0.788698 0.434715
0.35178 0.813909 0.420773
0.604577 0.857821 0.435795
0.742788 0.894778 0.407122
0.836501 0.925499 0.32867
0.895834 0.94534 0.268092
0.908575 0.949663 0.254799
0 0.784127 0.45177
0 0.784127 0.45177
0 0.784127 0.45177
0 0.784127 0.45177
0 0.784127 0.45177
0 0.784127 0.45177
0 0.784127 0.45177
0 0.784127 0.45177
0 0.784127 0.45177
0.043877 0.789114 0.436234
0.312816 0.810848 0.421326
0.583932 0.853369 0.43445
0.725479 0.889315 0.416948
0.819914 0.920033 0.345116
0.879457 0.940027 0.285015
0.908412 0.94961 0.254968
0.000391 0.000847 0.029662
0.00601 0.001228 0.031729
0.053858 0.009111 0.045163
0.165714 0.029027 0.069574
0.293311 0.043019 0.119352
0.435073 0.042811 0.16451
0.58471 0.034159 0.207157
0.735286 0.019995 0.247127
0.882605 0.005538 0.284142
0.945075 0.00002 0.317018
0.945229 0.000564 0.344333
0.945299 0.001618 0.365644
0.945299 0.002882 0.381021
0.945299 0.003944 0.391441
0.94533 0.004495 0.397823
0.945332 0.004768 0.401304
0.000659 0.003144 0.030482
0.005017 0.003497 0.032034
0.051567 0.011025 0.044573
0.15982 0.029805 0.065183
0.283369 0.043152 0.110551
0.419481 0.043045 0.155427
0.561566 0.035313 0.196464
0.705904 0.02233 0.234655
0.852943 0.007231 0.271145
0.934026 0.000265 0.304348
0.945218 0.000041 0.331773
0.945299 0.000777 0.353082
0.945299 0.001817 0.368516
0.945299 0.002673 0.378746
0.945299 0.003415 0.384994
0.945299 0.003703 0.388411
0.005747 0.046805 0.03998
0.007045 0.046873 0.040196
0.039628 0.053109 0.045325
0.158245 0.068515 0.068069
0.292313 0.067876 0.115458
0.432937 0.05617 0.159327
0.582432 0.045988 0.200965
0.732777 0.02618 0.240719
0.87916 0.006122 0.277752
0.94341 0.000056 0.310935
0.945219 0.000275 0.338413
0.945299 0.001132 0.359867
0.945299 0.002472 0.375502
0.945299 0.003405 0.385968
0.945299 0.003932 0.39081
0.945299 0.004204 0.393362
0.012412 0.139341 0.039964
0.012414 0.139081 0.039968
0.020234 0.139747 0.043187
0.10494 0.147742 0.071223
0.281342 0.159538 0.108298
0.437433 0.163635 0.154758
0.58243 0.147809 0.196695
0.725506 0.103559 0.23456
0.873028 0.054224 0.270817
0.944549 0.039747 0.304058
0.947737 0.032971 0.331736
0.946883 0.024262 0.35335
0.945995 0.010597 0.368944
0.945833 0.008523 0.379555
0.945839 0.008988 0.384782
0.945846 0.009274 0.387618
0.0032 0.233192 0.104459
0.003201 0.232933 0.104499
0.003254 0.232546 0.104335
0.027631 0.233543 0.101416
0.185097 0.247947 0.099903
0.409323 0.263396 0.136378
0.580201 0.263865 0.177285
0.728863 0.26183 0.2198
0.875892 0.250834 0.257201
0.95585 0.232173 0.29244
0.964099 0.207256 0.322154
0.960656 0.171528 0.344957
0.957257 0.116344 0.360918
0.956465 0.104033 0.371811
0.95634 0.103519 0.378446
0.956292 0.103161 0.381981
0 0.322643 0.161292
0 0.322306 0.161195
0 0.322038 0.160893
0 0.320855 0.160031
0.047014 0.325586 0.155255
0.268239 0.354069 0.141039
0.5275 0.376433 0.135304
0.710935 0.372098 0.171591
0.868103 0.362183 0.228998
0.964028 0.357122 0.269782
0.983069 0.352461 0.30308
0.982729 0.347244 0.328322
0.982408 0.342797 0.346243
0.98199 0.339395 0.358063
0.981631 0.336927 0.365254
0.981448 0.335517 0.369045
0 0.408527 0.224124
0 0.408046 0.223786
0 0.40787 0.223603
0 0.406972 0.222951
0 0.404786 0.221465
0.087559 0.41356 0.206168
0.372004 0.453404 0.149319
0.635265 0.487182 0.109758
0.835706 0.488047 0.154736
0.95827 0.471156 0.22348
0.988828 0.455242 0.271627
0.988416 0.446127 0.303747
0.988296 0.442449 0.32482
0.988322 0.440964 0.338259
0.988248 0.440373 0.346159
0.988159 0.44001 0.350367
0 0.49001 0.281318
0 0.489509 0.280861
0 0.48923 0.280797
0 0.488539 0.2803
0 0.486815 0.279179
0.022257 0.484632 0.271153
0.175885 0.499575 0.243474
0.469102 0.549036 0.173979
0.743605 0.593311 0.096746
0.935292 0.5997 0.121895
0.993304 0.58439 0.197778
0.99501 0.568496 0.250746
0.994542 0.556785 0.282141
0.994254 0.549157 0.301141
0.994012 0.544958 0.311995
0.993885 0.54281 0.317662
0 0.570273 0.334621
0 0.569632 0.334146
0 0.569475 0.3341
0 0.568814 0.333742
0 0.567342 0.332834
0 0.564933 0.33131
0.043627 0.564797 0.322123
0.247189 0.586947 0.29023
0.560489 0.644027 0.197326
0.844072 0.69686 0.081577
0.980361 0.708136 0.073821
0.999222 0.697547 0.143516
0.999017 0.686751 0.199447
0.998876 0.679101 0.229474
0.998754 0.674261 0.245823
0.998746 0.671674 0.254091
0 0.650781 0.383281
0 0.650048 0.382792
0 0.649983 0.382762
0 0.649347 0.38245
0 0.648039 0.381721
0 0.645908 0.380526
0 0.643005 0.378815
0.061698 0.644474 0.362069
0.314341 0.674009 0.328028
0.652301 0.738032 0.228982
0.895265 0.791663 0.08684
0.986134 0.808074 0.044581
0.997001 0.80412 0.062641
0.99747 0.798954 0.084616
0.997684 0.795566 0.095603
0.997966 0.794071 0.135586
0 0.721677 0.421202
0 0.720944 0.420855
0 0.720882 0.420827
0 0.720282 0.420545
0 0.719088 0.419938
0 0.717198 0.418984
0 0.714607 0.417714
0.00178 0.71135 0.411736
0.13754 0.716456 0.3906
0.448906 0.757915 0.366765
0.733102 0.819243 0.271127
0.917739 0.867484 0.124106
0.979267 0.881173 0.06321
0.986214 0.879636 0.058027
0.986807 0.877557 0.057007
0.987147 0.876606 0.075461
0 0.7729 0.446357
0 0.772705 0.446283
0 0.772689 0.446276
0 0.772531 0.446201
0 0.772219 0.446044
0 0.771737 0.445814
0 0.770539 0.445211
0 0.767957 0.44394
0.029149 0.768448 0.433684
0.28008 0.787269 0.415742
0.589474 0.832328 0.401374
0.790272 0.880987 0.311153
0.919538 0.917701 0.192227
0.94737 0.924094 0.161137
0.949523 0.92288 0.156114
0.950402 0.922155 0.153681
0 0.784127 0.45177
0 0.784127 0.45177
0 0.784127 0.45177
0 0.784127 0.45177
0 0.784127 0.45177
0 0.784127 0.45177
0 0.783985 0.45169
0 0.783499 0.451455
0.000775 0.7837 0.450248
0.181606 0.793893 0.432245
0.487153 0.832637 0.426992
0.693997 0.877408 0.41566
0.829477 0.918715 0.326463
0.906026 0.943752 0.250078
0.914468 0.946194 0.240821
0.914687 0.946075 0.240333
0 0.784127 0.45177
0 0.784127 0.45177
0 0.784127 0.45177
0 0.784127 0.45177
0 0.784127 0.45177
0 0.784127 0.45177
0 0.784127 0.45177
0 0.784127 0.45177
0 0.784127 0.45177
0.123903 0.789675 0.433844
0.40854 0.821031 0.422785
0.638282 0.865706 0.435296
0.774473 0.905029 0.38265
0.865778 0.935297 0.299121
0.906517 0.948973 0.256952
0.908669 0.949695 0.254701
0 0.784127 0.45177
0 0.784127 0.45177
0 0.784127 0.45177
0 0.784127 0.45177
0 0.784127 0.45177
0 0.784127 0.45177
0 0.784127 0.45177
0 0.784127 0.45177
0 0.784127 0.45177
0.077817 0.788697 0.434842
0.349893 0.813711 0.420822
0.603532 0.857552 0.435764
0.741894 0.89448 0.407624
0.835663 0.925233 0.329671
0.89507 0.945096 0.268701
0.908568 0.94966 0.254805
0 0.784127 0.45177
0 0.784127 0.45177
0 0.784127 0.45177
0 0.784127 0.45177
0 0.784127 0.45177
0 0.784127 0.45177
0 0.784127 0.45177
0 0.784127 0.45177
0 0.784127 0.45177
0.041849 0.789249 0.436391
0.310691 0.810728 0.421412
0.582864 0.853242 0.434284
0.724568 0.889068 0.417552
0.819003 0.919712 0.346184
0.878787 0.939732 0.285877
0.908405 0.949607 0.254977
0.002344 0.009719 0.11326
0.00433 0.010533 0.114152
0.044132 0.025244 0.130654
0.147106 0.048537 0.159844
0.283546 0.054619 0.179002
0.431583 0.049426 0.208238
0.583795 0.039072 0.243214
0.735046 0.024101 0.278698
0.882608 0.007404 0.312638
0.945221 0.000645 0.342398
0.945299 0.001726 0.367
0.945335 0.003331 0.386543
0.945309 0.004698 0.400791
0.945257 0.005568 0.410631
0.945433 0.005939 0.416511
0.945397 0.0062 0.419703
0.002344 0.009703 0.113175
0.004299 0.010517 0.114062
0.043303 0.025138 0.130448
0.142473 0.048131 0.158827
0.271411 0.054422 0.175189
0.412842 0.049971 0.202004
0.558782 0.040247 0.230898
0.704777 0.025738 0.259669
0.852699 0.008981 0.290057
0.934118 0.000822 0.318543
0.945234 0.000587 0.341833
0.945299 0.001435 0.360226
0.945299 0.002295 0.373844
0.945299 0.003156 0.383053
0.945299 0.003679 0.388648
0.945344 0.00395 0.391686
0.003321 0.025735 0.120788
0.004394 0.026185 0.121275
0.031635 0.035927 0.132059
0.135753 0.058951 0.15931
0.272517 0.066597 0.175379
0.417107 0.061734 0.197803
0.564545 0.051061 0.224916
0.71049 0.035658 0.257722
0.856154 0.01311 0.290079
0.934988 0.000652 0.318457
0.945243 0.000424 0.341807
0.945299 0.001343 0.360612
0.945299 0.002432 0.374787
0.945299 0.003249 0.384396
0.945299 0.003775 0.390284
0.945306 0.004042 0.393379
0.008928 0.149197 0.180571
0.00889 0.148771 0.180594
0.016736 0.14863 0.180136
0.098364 0.151643 0.175092
0.267439 0.162932 0.182909
0.431349 0.163582 0.204047
0.580302 0.153139 0.232518
0.727264 0.132902 0.262797
0.875133 0.079993 0.294545
0.945733 0.045888 0.324671
0.94946 0.045223 0.349965
0.949345 0.04539 0.369954
0.94922 0.045562 0.38469
0.949154 0.045621 0.394486
0.949212 0.04631 0.399917
0.949303 0.046765 0.4027
0.005555 0.240521 0.184752
0.005532 0.240251 0.185066
0.00578 0.240138 0.186227
0.028433 0.240761 0.188947
0.177979 0.250077 0.186334
0.403916 0.268382 0.201364
0.578455 0.274783 0.225693
0.727576 0.270067 0.256848
0.875349 0.265343 0.287644
0.958629 0.259552 0.318188
0.970364 0.253385 0.344621
0.969813 0.247736 0.365395
0.969202 0.242407 0.380613
0.968805 0.238211 0.390826
0.968899 0.238705 0.396965
0.969034 0.239259 0.400118
0.002963 0.323451 0.184371
0.002965 0.323166 0.184397
0.003013 0.322955 0.18433
0.003223 0.321983 0.184475
0.047002 0.326459 0.190167
0.261468 0.353309 0.201368
0.527147 0.376173 0.201257
0.709864 0.379283 0.2305
0.865988 0.37792 0.265144
0.963692 0.374466 0.298644
0.983986 0.369231 0.327961
0.983775 0.363996 0.350782
0.983411 0.359095 0.36731
0.983005 0.355244 0.378423
0.982697 0.352663 0.385291
0.982549 0.351206 0.388913
0 0.407971 0.233035
0 0.407604 0.232883
0 0.407462 0.232949
0.000023 0.406726 0.233047
0.000399 0.404968 0.233743
0.085477 0.413962 0.224088
0.36682 0.453204 0.197421
0.635933 0.485939 0.191473
0.836269 0.487101 0.217469
0.95859 0.47698 0.264567
0.989877 0.471241 0.300838
0.989891 0.469193 0.327327
0.989839 0.467972 0.345725
0.989813 0.467116 0.357799
0.989803 0.466617 0.365069
0.989802 0.466269 0.369029
0 0.4883 0.280127
0 0.487843 0.279877
0 0.487681 0.279745
0 0.487006 0.279271
0 0.485501 0.279002
0.019857 0.483971 0.275423
0.170319 0.49912 0.2531
0.467343 0.548665 0.210166
0.744149 0.59216 0.156238
0.935845 0.597208 0.182896
0.993454 0.582772 0.247943
0.99516 0.569718 0.287598
0.994897 0.561951 0.312879
0.994783 0.557935 0.328476
0.99471 0.556281 0.337485
0.994706 0.555323 0.342228
0 0.568892 0.33376
0 0.568182 0.333379
0 0.568121 0.333262
0 0.56752 0.332909
