site/assets/luts/freshluts--0000152-rest-sony-a7s2.cube
# LUTr-Schema-Version: 2
# LUTr-ID: freshluts--0000152-rest-sony-a7s2
# LUTr-Title: REST SONY A7S2
# LUTr-Collection: Fresh LUTs
# LUTr-Collection-ID: freshluts-community
# LUTr-Source: https://freshluts.com
# LUTr-Retrieved: 2026-07-27
# LUTr-Source-File: submissions-raw/freshluts/cubes/152__REST_33.C0075.cube
# LUTr-Source-Format: CUBE
# LUTr-Source-SHA256: ab15ee9aa3d5513d11baa779b7062abd556507ad08e4318f004cfaba641abd43
# LUTr-License: CC0-1.0
# LUTr-License-URL: https://freshluts.com/termsandconditions
# LUTr-License-Basis: site-terms
# LUTr-Transform-Class: creative-look
# LUTr-Tags: creative, freshluts, community, cube, film-emulation, blue, low-key, rec709
# LUTr-Input-Color-Space: rec709
# LUTr-Input-Gamut: rec709
# LUTr-Input-Transfer: rec709
# LUTr-Output-Color-Space: srgb
# LUTr-Output-Gamut: rec709
# LUTr-Output-Transfer: srgb
# LUTr-Color-Space-Confidence: inferred-from-source-label
# LUTr-Domain-Normalized: true
# LUTr-Shaper: none
# LUTr-Original-Grid: 33x33x33
# LUTr-Conversion-Grid: 33x33x33
# LUTr-Conversion-Interpolation: none
# LUTr-Conversion-Method: Metadata normalization; numeric LUT samples preserved
# LUTr-Conversion-Tool: LUTr scripts/convert-all-to-cube.mjs 2.0.0
# LUTr-Conversion-Date: 2026-07-28
# LUTr-Asset-URL: https://freshluts.com/luts/152
# LUTr-Author: Shamoon Abbasi
# LUTr-Author-URL: https://freshluts.com/users/1258
# LUTr-Attribution: Shamoon Abbasi via Fresh LUTs
# LUTr-Source-Labels: gamma=Rec 709; color=Blue; key=Low Key; style=Film emulation
# LUTr-Note: Preserve this metadata and the upstream license notices when redistributing.
TITLE "REST SONY A7S2"
LUT_3D_SIZE 33
DOMAIN_MIN 0 0 0
DOMAIN_MAX 1 1 1
0.0434424 0.0638743 0.0654154
0.0457313 0.0668803 0.0677348
0.0490272 0.0697948 0.0704356
0.0515145 0.0730449 0.0730144
0.0550851 0.076173 0.0757916
0.0578775 0.0796063 0.078645
0.0615244 0.0831159 0.08159
0.07364 0.0844892 0.0826429
0.0896315 0.0839246 0.0833448
0.107179 0.0826123 0.0840467
0.126604 0.080705 0.0847944
0.145586 0.0807202 0.0850843
0.166369 0.0809491 0.0852522
0.188678 0.0813001 0.08542
0.213489 0.0812848 0.085481
0.24007 0.080766 0.0855573
0.268467 0.0797436 0.0856184
0.298833 0.0779278 0.08542
0.330434 0.0755627 0.0852216
0.363607 0.0724498 0.0848554
0.397726 0.0685893 0.0844434
0.432822 0.0639048 0.0838331
0.468544 0.0586862 0.0830243
0.505928 0.0523995 0.082002
0.544533 0.0454719 0.0807355
0.584344 0.038056 0.0790112
0.624826 0.0308385 0.0769055
0.665324 0.0261997 0.0742809
0.704982 0.0234226 0.0711833
0.74316 0.0233158 0.0676738
0.77966 0.0257572 0.0636454
0.814542 0.0314641 0.0590982
0.847166 0.0437171 0.0537575
0.0527657 0.0742351 0.0739757
0.056199 0.077348 0.0768292
0.0590677 0.0809339 0.0796826
0.0627298 0.0843519 0.0826581
0.0657511 0.0880446 0.0857557
0.0697948 0.0917525 0.0889906
0.0730755 0.0955978 0.0923018
0.0813764 0.0990921 0.0943923
0.0978408 0.0997787 0.0943465
0.11664 0.0990463 0.0944228
0.137484 0.0975662 0.0946212
0.160952 0.0950027 0.0950179
0.185855 0.0928359 0.0952773
0.211063 0.0920577 0.0953689
0.23801 0.0911421 0.0953231
0.266316 0.0903639 0.0949874
0.296132 0.089128 0.094667
0.327001 0.0874495 0.094255
0.359533 0.084947 0.0937819
0.393103 0.0822003 0.0932479
0.427741 0.0786908 0.0925002
0.462928 0.0747082 0.0915999
0.499214 0.0702678 0.0905165
0.537087 0.0652934 0.0890822
0.575647 0.060441 0.08748
0.615045 0.0556039 0.0853285
0.654749 0.052079 0.0830091
0.694102 0.0497444 0.0799878
0.731624 0.0500649 0.0766766
0.767941 0.0530709 0.0728923
0.802319 0.059266 0.0686351
0.83505 0.0685283 0.0637675
0.865751 0.0808728 0.0583658
0.0638437 0.0856489 0.0838331
0.067216 0.0894636 0.0869001
0.0710765 0.0931106 0.0901808
0.0745098 0.0971389 0.0935531
0.0787671 0.101198 0.0971847
0.0821851 0.105486 0.100771
0.0869917 0.109987 0.104799
0.0915847 0.114488 0.108385
0.108782 0.117174 0.107317
0.128313 0.117601 0.106493
0.150576 0.117067 0.106035
0.17554 0.115389 0.105882
0.203098 0.112795 0.105959
0.233539 0.108492 0.106279
0.264057 0.10544 0.106157
0.295125 0.103044 0.105852
0.326711 0.100908 0.105394
0.358724 0.0991379 0.104601
0.391684 0.0971695 0.103853
0.42565 0.0945449 0.102861
0.460334 0.0917678 0.101717
0.495735 0.0888685 0.100633
0.532479 0.0856031 0.0990768
0.570138 0.0824445 0.0973068
0.608743 0.07953 0.09514
0.647471 0.077348 0.0927291
0.685832 0.076463 0.0898604
0.722942 0.0775616 0.0866712
0.758618 0.0805219 0.0831006
0.792645 0.0861067 0.0791333
0.825132 0.0936294 0.0745708
0.855497 0.104021 0.0695964
0.884108 0.116304 0.0638743
0.0761578 0.0986496 0.0948959
0.0800336 0.102739 0.0985122
0.0837873 0.10721 0.102251
0.0885634 0.111604 0.106218
0.0926375 0.116304 0.110109
0.0978561 0.121233 0.114382
0.102419 0.126375 0.118502
0.10808 0.131731 0.122988
0.123339 0.135805 0.121736
0.143328 0.138399 0.120256
0.166552 0.139132 0.11899
0.192752 0.138781 0.118044
0.221454 0.13727 0.117479
0.252766 0.134463 0.117144
0.286397 0.13019 0.116976
0.321828 0.124361 0.117098
0.357092 0.11957 0.116777
0.391959 0.115572 0.116121
0.426474 0.112612 0.11516
0.460487 0.110674 0.113787
0.495247 0.108675 0.112306
0.531044 0.106783 0.110628
0.567849 0.105058 0.108782
0.605356 0.103502 0.106554
0.643229 0.102678 0.104051
0.680766 0.102892 0.101091
0.716976 0.104524 0.0980087
0.751934 0.10753 0.0944991
0.785351 0.112734 0.0907301
0.817212 0.119417 0.0864118
0.847227 0.128298 0.0817578
0.875517 0.138918 0.0767071
0.902007 0.151293 0.071046
0.0899825 0.113313 0.107652
0.0945449 0.118105 0.111666
0.0995346 0.123079 0.115908
0.104341 0.128374 0.120073
0.110048 0.1337 0.124651
0.115068 0.139391 0.129213
0.121294 0.145235 0.133989
0.126909 0.151385 0.138781
0.142092 0.157443 0.137194
0.161227 0.161059 0.134676
0.185702 0.164538 0.132677
0.212451 0.165408 0.131106
0.241718 0.16553 0.129732
0.273503 0.164324 0.12874
0.307622 0.1617 0.128008
0.343725 0.157626 0.127474
0.381399 0.151904 0.127245
0.420478 0.144503 0.127092
0.458396 0.138369 0.126497
0.495857 0.132967 0.125597
0.532525 0.129488 0.124132
0.568475 0.128664 0.121965
0.60502 0.128099 0.119585
0.642069 0.128176 0.116945
0.678325 0.129381 0.114076
0.71371 0.131487 0.110918
0.747707 0.134768 0.107378
0.780453 0.13962 0.103639
0.811536 0.1458 0.0995651
0.84094 0.153674 0.0951858
0.868727 0.163119 0.0903944
0.894728 0.173892 0.0851759
0.919554 0.185748 0.0794232
0.106554 0.130282 0.121721
0.111849 0.13576 0.126314
0.117281 0.141512 0.130953
0.123491 0.147417 0.135744
0.129168 0.15375 0.140581
0.13611 0.16022 0.145708
0.142535 0.167086 0.150744
0.15024 0.174136 0.15555
0.165103 0.180774 0.15256
0.183383 0.186694 0.149706
0.20705 0.191501 0.147112
0.234394 0.195758 0.144717
0.263844 0.197421 0.142702
0.295567 0.197833 0.140887
0.329961 0.196918 0.139467
0.365972 0.19469 0.138293
0.403525 0.191104 0.137453
0.442512 0.185962 0.136736
0.482719 0.179263 0.136248
0.524086 0.171084 0.135912
0.565682 0.162768 0.13547
0.605295 0.157671 0.134066
0.643534 0.154986 0.131838
0.678691 0.156634 0.128817
0.712978 0.159121 0.125551
0.745907 0.162661 0.122118
0.777768 0.167239 0.118364
0.807874 0.17319 0.114458
0.836545 0.180209 0.110185
0.863539 0.188434 0.105577
0.889067 0.198154 0.100664
0.913283 0.208652 0.0954604
0.936324 0.220218 0.0895247
0.12549 0.149722 0.137469
0.13167 0.156085 0.142458
0.138491 0.162646 0.147509
0.144915 0.16965 0.152651
0.152483 0.176761 0.157977
0.159457 0.184268 0.163195
0.167407 0.191791 0.168978
0.177188 0.199863 0.169741
0.190829 0.20734 0.16733
0.208789 0.214054 0.164477
0.231189 0.221439 0.161501
0.258152 0.22742 0.158633
0.287694 0.231495 0.15584
0.319493 0.233677 0.153597
0.353384 0.23447 0.151308
0.389105 0.233982 0.149508
0.426368 0.232227 0.148028
0.464988 0.229053 0.146746
0.505257 0.22504 0.145602
0.54667 0.219806 0.144808
0.588952 0.213535 0.143908
0.631708 0.205798 0.143236
0.67277 0.198688 0.142428
0.711131 0.193637 0.14107
0.745861 0.19205 0.138827
0.776745 0.195941 0.135332
0.806058 0.201312 0.131182
0.833921 0.207767 0.127062
0.860044 0.215351 0.122683
0.88484 0.22388 0.117952
0.90837 0.233265 0.112856
0.930861 0.243534 0.107408
0.952514 0.254459 0.101457
0.135683 0.173419 0.148013
0.14995 0.18024 0.156374
0.161517 0.187182 0.164706
0.170352 0.194659 0.171008
0.178073 0.20267 0.17641
0.186358 0.210819 0.181811
0.194659 0.21976 0.183047
0.205356 0.227726 0.182727
0.219654 0.236439 0.180865
0.234592 0.243015 0.178592
0.257237 0.251713 0.175647
0.283375 0.260136 0.172519
0.313146 0.266682 0.169451
0.344808 0.271031 0.1664
0.378286 0.273213 0.163806
0.413367 0.274174 0.161334
0.450217 0.273991 0.159503
0.488502 0.273106 0.157443
0.528572 0.271336 0.155642
0.569619 0.268635 0.154086
0.611276 0.265034 0.152514
0.652537 0.26067 0.151354
0.692683 0.255482 0.150271
0.731395 0.248981 0.14966
0.76817 0.242817 0.148943
0.801999 0.238666 0.147799
0.832883 0.236561 0.146044
0.85803 0.243427 0.141772
0.882002 0.251179 0.137255
0.904753 0.259617 0.132342
0.926574 0.268803 0.12723
0.947585 0.278447 0.12166
0.968078 0.288685 0.115785
0.143343 0.197955 0.157565
0.159731 0.20647 0.165072
0.174899 0.214939 0.172702
0.188403 0.223346 0.17995
0.199893 0.231525 0.186252
0.210956 0.240726 0.19057
0.221653 0.248951 0.193423
0.234928 0.258656 0.193896
0.248295 0.266499 0.193454
0.266087 0.275563 0.191669
0.282872 0.281834 0.189242
0.31014 0.292241 0.186435
0.337789 0.299886 0.183368
0.371862 0.308949 0.179675
0.404227 0.312108 0.176837
0.438972 0.314672 0.174029
0.475349 0.316426 0.171298
0.513588 0.317342 0.16878
0.55288 0.317357 0.1664
0.593027 0.316869 0.164096
0.633143 0.315602 0.162112
0.672236 0.313573 0.160296
0.710445 0.310903 0.158618
0.746944 0.307256 0.157519
0.782162 0.303044 0.156497
0.815457 0.298161 0.156115
0.846769 0.293248 0.155673
0.875181 0.290608 0.154788
0.901488 0.289158 0.153384
0.923186 0.295781 0.148989
0.943633 0.304128 0.143725
0.963592 0.313176 0.138064
0.983169 0.322438 0.13193
0.151629 0.223743 0.167468
0.169818 0.233127 0.17435
0.187732 0.242634 0.181384
0.204242 0.251957 0.18819
0.219394 0.261341 0.1944
0.233722 0.270558 0.199283
0.248142 0.280171 0.202731
0.262608 0.289555 0.204654
0.279026 0.299046 0.204837
0.29601 0.307515 0.204059
0.316381 0.316426 0.202182
0.337118 0.323705 0.199863
0.364599 0.332616 0.196994
0.395178 0.34107 0.193759
0.431388 0.350774 0.190219
0.465873 0.355245 0.186831
0.50222 0.358816 0.183581
0.539467 0.361364 0.180606
0.577935 0.363287 0.177646
0.616159 0.364721 0.174777
0.654002 0.364981 0.172168
0.691081 0.364675 0.170062
0.72665 0.363745 0.168093
0.761364 0.362112 0.166522
0.794095 0.360143 0.165103
0.825116 0.357763 0.163943
0.854566 0.354757 0.163241
0.882506 0.351598 0.162661
0.909163 0.348028 0.162356
0.93434 0.345174 0.161547
0.958511 0.342519 0.160861
0.978653 0.348089 0.156176
0.99649 0.355856 0.150286
0.161929 0.250919 0.177432
0.181201 0.260929 0.183902
0.200519 0.270863 0.190478
0.219318 0.280858 0.197177
0.236927 0.290715 0.203265
0.25452 0.300511 0.208377
0.271702 0.310369 0.212345
0.288869 0.320287 0.214908
0.307637 0.330373 0.21593
0.326833 0.339956 0.215839
0.347616 0.349157 0.214664
0.370001 0.357855 0.21265
0.393851 0.365805 0.210086
0.421118 0.373678 0.207141
0.454704 0.383597 0.2038
0.492134 0.393637 0.200046
0.529641 0.401343 0.196201
0.565866 0.405509 0.192782
0.602289 0.408911 0.189395
0.638331 0.411246 0.186221
0.673899 0.413077 0.183307
0.708446 0.41416 0.180804
0.741863 0.414557 0.178378
0.774029 0.414359 0.176257
0.804669 0.414023 0.17464
0.83357 0.413199 0.17293
0.861295 0.411917 0.171923
0.887709 0.410117 0.170871
0.913237 0.407752 0.170077
0.938003 0.405005 0.16936
0.962249 0.401617 0.168978
0.986007 0.398245 0.168399
0.999985 0.394354 0.167742
0.173297 0.279271 0.187793
0.19353 0.289509 0.193713
0.214343 0.299809 0.200153
0.234974 0.310002 0.206409
0.255192 0.320226 0.212253
0.274907 0.330327 0.217395
0.294469 0.340398 0.221775
0.313985 0.350607 0.224964
0.334249 0.360967 0.226642
0.356069 0.371649 0.227146
0.37879 0.381964 0.226444
0.403189 0.392248 0.224842
0.427497 0.40116 0.222553
0.452979 0.409293 0.219989
0.47921 0.41619 0.216999
0.516274 0.428428 0.213336
0.553872 0.439643 0.209232
0.591501 0.448966 0.205066
0.625559 0.453376 0.201617
0.659419 0.456901 0.198138
0.692439 0.45948 0.195071
0.724529 0.461723 0.192157
0.755688 0.463386 0.189349
0.785397 0.464286 0.186984
0.813764 0.464881 0.184833
0.840909 0.465156 0.183047
0.866987 0.464805 0.181308
0.892195 0.464179 0.17969
0.916701 0.462882 0.178622
0.940658 0.460975 0.177508
0.964401 0.458549 0.176547
0.987671 0.455665 0.175616
1 0.452201 0.174731
0.186267 0.308186 0.198352
0.207813 0.318608 0.204089
0.229801 0.329 0.209979
0.252018 0.339452 0.215869
0.274174 0.34995 0.221607
0.295872 0.360464 0.226795
0.317586 0.371008 0.231189
0.33933 0.38172 0.234577
0.361746 0.392523 0.236789
0.384924 0.403494 0.237888
0.40943 0.41474 0.237812
0.434852 0.425849 0.236667
0.461875 0.437156 0.234485
0.487556 0.446326 0.23212
0.513954 0.454932 0.22916
0.540032 0.461967 0.226139
0.575677 0.474357 0.222477
0.611231 0.485527 0.218372
0.646464 0.495201 0.214221
0.678996 0.500832 0.210513
0.709636 0.504234 0.207446
0.739345 0.507042 0.204318
0.768032 0.509377 0.201328
0.79556 0.511299 0.198749
0.821927 0.512734 0.196277
0.847456 0.513451 0.194003
0.87219 0.513848 0.192065
0.896269 0.513664 0.190234
0.919982 0.513054 0.188449
0.943404 0.512016 0.186908
0.966476 0.510216 0.185351
0.98883 0.50782 0.183749
1 0.505165 0.182162
0.201694 0.338003 0.209216
0.224277 0.348592 0.214679
0.247257 0.359274 0.220401
0.270909 0.369955 0.225864
0.294911 0.380804 0.231373
0.318639 0.391775 0.236286
0.342138 0.402686 0.240574
0.365972 0.413687 0.244114
0.389944 0.424918 0.246738
0.414374 0.43624 0.248249
0.439551 0.447776 0.2486
0.465888 0.459586 0.248096
0.493126 0.471473 0.246479
0.521675 0.483665 0.243854
0.547875 0.493278 0.241138
0.57322 0.501396 0.238224
0.598184 0.508324 0.235264
0.628977 0.518532 0.231876
0.662669 0.530037 0.227832
0.695598 0.54049 0.223667
0.725582 0.546746 0.220172
0.752895 0.550088 0.217136
0.779217 0.552728 0.214374
0.804776 0.554925 0.21149
0.829725 0.556741 0.208637
0.853834 0.558053 0.206149
0.877394 0.558694 0.203967
0.900755 0.55874 0.201678
0.92372 0.558465 0.199649
0.946548 0.557671 0.197589
0.968963 0.556329 0.195392
0.990662 0.554726 0.193317
1 0.55259 0.191012
0.219669 0.369039 0.220432
0.243473 0.379828 0.225574
0.267994 0.390738 0.230777
0.292683 0.401709 0.236088
0.317693 0.412863 0.241215
0.342962 0.424063 0.246021
0.368078 0.435355 0.250263
0.393088 0.446693 0.253803
0.418326 0.458183 0.256535
0.443992 0.469886 0.258381
0.469795 0.481682 0.25919
0.496025 0.493538 0.259052
0.522972 0.505501 0.258015
0.550225 0.517449 0.256138
0.578042 0.529229 0.253315
0.604074 0.5393 0.250416
0.627573 0.546609 0.247562
0.650507 0.552789 0.244968
0.67602 0.560342 0.241749
0.708049 0.572641 0.237903
0.737819 0.582605 0.234028
0.765103 0.58941 0.230533
0.789944 0.592844 0.227604
0.81384 0.595087 0.224735
0.837339 0.596826 0.222004
0.860441 0.598138 0.219455
0.883116 0.598962 0.216968
0.905715 0.59939 0.214466
0.928267 0.599176 0.211978
0.950317 0.598444 0.209552
0.971893 0.597406 0.20679
0.991928 0.595956 0.204135
1 0.594339 0.201282
0.240711 0.40148 0.231815
0.265263 0.412329 0.236744
0.290455 0.423438 0.241642
0.316487 0.434638 0.246494
0.34258 0.446006 0.251255
0.36878 0.457374 0.255695
0.395132 0.46894 0.259861
0.421286 0.480598 0.263432
0.447257 0.49218 0.266148
0.473121 0.503746 0.268299
0.498939 0.515373 0.269581
0.52462 0.526955 0.270054
0.550515 0.538476 0.269566
0.576699 0.549981 0.26836
0.603082 0.561334 0.266148
0.629328 0.572488 0.26334
0.654765 0.582696 0.260166
0.676448 0.589303 0.257618
0.696681 0.594232 0.255222
0.718502 0.600168 0.252369
0.747295 0.611475 0.248875
0.77438 0.620935 0.245243
0.799969 0.628016 0.241749
0.823148 0.631296 0.238605
0.845365 0.633143 0.235859
0.867597 0.634409 0.233234
0.889769 0.635142 0.230594
0.911711 0.635523 0.227741
0.933394 0.635538 0.224979
0.954696 0.635126 0.222187
0.975158 0.634348 0.218891
0.994766 0.633204 0.215549
1 0.63183 0.211963
0.264363 0.435508 0.243503
0.289631 0.446128 0.248249
0.31603 0.457389 0.252674
0.342702 0.468696 0.257282
0.369497 0.480095 0.261616
0.396475 0.49163 0.265843
0.423255 0.503212 0.269764
0.449607 0.514595 0.273335
0.475761 0.525948 0.276112
0.501274 0.537194 0.278416
0.526619 0.548379 0.28011
0.551736 0.559426 0.281056
0.576791 0.570428 0.281117
0.601526 0.581277 0.280491
0.626581 0.59205 0.27921
0.651499 0.602579 0.277043
0.67599 0.612818 0.274403
0.700038 0.622629 0.271183
0.719585 0.628473 0.268788
0.73753 0.632517 0.266407
0.757412 0.637675 0.263615
0.78175 0.646464 0.260487
0.807507 0.65597 0.256916
0.831556 0.662638 0.25333
0.853956 0.666224 0.250248
0.875471 0.667552 0.247288
0.896895 0.668437 0.24448
0.918105 0.668849 0.241474
0.938872 0.668986 0.238254
0.959014 0.668772 0.234806
0.978515 0.668299 0.23122
0.995407 0.667506 0.227192
1 0.666484 0.222873
0.291371 0.47042 0.25565
0.317342 0.481178 0.259876
0.343832 0.492348 0.264027
0.370718 0.503609 0.268147
0.397757 0.514748 0.27248
0.42472 0.525902 0.276402
0.451316 0.537011 0.280125
0.477378 0.547921 0.283604
0.50309 0.55877 0.28661
0.528298 0.569543 0.289006
0.552972 0.580194 0.290959
0.577218 0.590646 0.292302
0.601373 0.600946 0.292943
0.625223 0.611078 0.292866
0.648722 0.621012 0.292241
0.672084 0.630747 0.290822
0.695018 0.640299 0.28893
0.71754 0.649622 0.286336
0.739727 0.658778 0.283085
0.7579 0.664317 0.28072
0.774212 0.66772 0.27834
0.791974 0.672023 0.275639
0.813138 0.678462 0.272496
0.837751 0.687602 0.268757
0.861295 0.69427 0.264836
0.883497 0.698375 0.261158
0.904173 0.699672 0.257893
0.924315 0.700359 0.25449
0.944045 0.70071 0.250935
0.963119 0.700771 0.247105
0.981369 0.700557 0.242817
0.997574 0.700099 0.238148
1 0.699443 0.233234
0.320287 0.508553 0.265736
0.347051 0.517021 0.271916
0.373465 0.52755 0.275853
0.40029 0.538277 0.279896
0.426886 0.548867 0.283772
0.453361 0.559503 0.287587
0.479316 0.569924 0.291234
0.504768 0.580301 0.294743
0.529763 0.5906 0.297749
0.55436 0.600641 0.300435
0.578347 0.610574 0.302647
0.601862 0.620295 0.30428
0.624887 0.629831 0.305287
0.647608 0.639094 0.305898
0.669734 0.648219 0.305806
0.691386 0.657221 0.305043
0.712642 0.666102 0.3037
0.73373 0.674922 0.301747
0.754467 0.683574 0.299214
0.774639 0.691783 0.296117
0.792355 0.697612 0.293233
0.807614 0.700694 0.290791
0.823911 0.703975 0.2878
0.842756 0.708782 0.284291
0.866468 0.717418 0.2804
0.889448 0.724865 0.275624
0.910597 0.729335 0.271061
0.929992 0.730877 0.267155
0.948425 0.731548 0.263111
0.966262 0.731929 0.25864
0.983337 0.731884 0.253849
0.996933 0.731762 0.248295
1 0.73138 0.242405
0.351507 0.545937 0.27686
0.378576 0.55227 0.284749
0.404547 0.562173 0.288563
0.430503 0.572183 0.292287
0.456291 0.582147 0.296086
0.482048 0.592035 0.299641
0.50721 0.601816 0.303212
0.531945 0.611414 0.306584
0.556161 0.620844 0.309743
0.579858 0.630167 0.312505
0.602991 0.639246 0.315038
0.625437 0.648112 0.317006
0.647425 0.656886 0.318547
0.668711 0.665568 0.319524
0.689281 0.674067 0.319966
0.709545 0.682536 0.319982
0.729213 0.690852 0.319036
0.748837 0.699214 0.317617
0.768215 0.707469 0.315557
0.787579 0.715679 0.312856
0.806622 0.723476 0.309483
0.824277 0.729732 0.305943
0.838941 0.732479 0.303075
0.853788 0.734752 0.299931
0.871427 0.738888 0.296025
0.893095 0.746624 0.291234
0.91458 0.754376 0.285542
0.934188 0.759091 0.279683
0.952163 0.761303 0.274464
0.968719 0.761761 0.269459
0.984619 0.762112 0.263874
0.999054 0.762188 0.257618
1 0.762585 0.251698
0.383764 0.583612 0.287251
0.410895 0.587823 0.296925
0.4365 0.595865 0.302022
0.461418 0.605051 0.305699
0.48629 0.614237 0.309255
0.510887 0.623316 0.31284
0.535134 0.632212 0.316396
0.558923 0.640894 0.319905
0.582254 0.649531 0.32314
0.604913 0.658 0.32607
0.626841 0.666331 0.328725
0.648066 0.674571 0.330983
0.668528 0.682765 0.332891
0.688243 0.690867 0.334279
0.7075 0.69897 0.335042
0.726345 0.707027 0.335271
0.744915 0.715068 0.334951
0.763195 0.723095 0.333852
0.781445 0.731106 0.332174
0.799802 0.739116 0.329747
0.818326 0.747143 0.326818
0.836896 0.754742 0.323003
0.854154 0.7608 0.31902
0.868452 0.763745 0.31545
0.882155 0.765347 0.31162
0.898314 0.768826 0.306889
0.917113 0.774807 0.301228
0.936538 0.781842 0.29453
0.954467 0.78732 0.286793
0.970703 0.789654 0.27985
0.985885 0.790143 0.273426
0.997436 0.790295 0.266209
1 0.792203 0.262058
0.417594 0.619501 0.298741
0.444434 0.621485 0.310796
0.469047 0.628077 0.316808
0.49305 0.636393 0.320439
0.516686 0.644617 0.323995
0.540307 0.652766 0.32752
0.563302 0.660838 0.331151
0.58587 0.668803 0.334615
0.607874 0.676692 0.337942
0.629129 0.68452 0.34107
0.64947 0.692332 0.343923
0.669139 0.700099 0.346502
0.68809 0.707866 0.34847
0.706538 0.715648 0.350103
0.724514 0.723491 0.351186
0.742061 0.731304 0.351705
0.759457 0.739147 0.351522
0.776806 0.747021 0.350851
0.794186 0.754849 0.349523
0.811749 0.76257 0.347387
0.829557 0.770184 0.344503
0.847654 0.777676 0.340948
0.865629 0.784909 0.336812
0.882017 0.790433 0.332128
0.895766 0.793362 0.327642
0.907927 0.794217 0.323201
0.922148 0.796674 0.317433
0.938323 0.801144 0.310628
0.955688 0.807263 0.30251
0.972244 0.812818 0.292027
0.987503 0.815137 0.282856
0.999939 0.815641 0.274495
0.999924 0.818357 0.272587
0.45272 0.653239 0.311742
0.478447 0.655055 0.323781
0.502449 0.659113 0.332525
0.525307 0.665995 0.337072
0.547601 0.673411 0.340551
0.569696 0.680812 0.344213
0.591165 0.688212 0.347829
0.612207 0.695613 0.351217
0.632471 0.702953 0.354498
0.651896 0.710399 0.357794
0.670726 0.717861 0.360723
0.688777 0.725322 0.363378
0.706355 0.732891 0.365576
0.723507 0.740505 0.367361
0.740322 0.748135 0.368643
0.756924 0.75584 0.369299
0.773388 0.763439 0.369528
0.789975 0.771023 0.368841
0.806882 0.778424 0.367819
0.823865 0.785657 0.366094
0.841047 0.792721 0.363516
0.858167 0.799573 0.360098
0.875196 0.806149 0.3561
0.892164 0.812482 0.351171
0.907546 0.817441 0.345754
0.920317 0.820035 0.340291
0.93109 0.820615 0.33463
0.943053 0.821683 0.327718
0.957366 0.824979 0.31928
0.973297 0.829862 0.3093
0.98912 0.834104 0.296513
0.997009 0.837201 0.28867
0.99646 0.838727 0.288655
0.488685 0.684886 0.326619
0.513191 0.68629 0.339086
0.536355 0.688396 0.35079
0.557656 0.694377 0.355734
0.578241 0.701183 0.359426
0.598459 0.708064 0.362951
0.618036 0.715023 0.366629
0.637064 0.721996 0.370138
0.655482 0.729107 0.373419
0.673182 0.736233 0.376516
0.690425 0.743511 0.379583
0.707088 0.750912 0.382239
0.723415 0.758297 0.384665
0.739467 0.765698 0.386557
0.755383 0.773083 0.387854
0.771298 0.780346 0.38883
0.78732 0.787533 0.389242
0.803555 0.794553 0.388922
0.819837 0.801358 0.387961
0.836255 0.807904 0.386374
0.852628 0.814191 0.384207
0.868971 0.820233 0.381064
0.885039 0.826032 0.377188
0.900847 0.831495 0.372244
0.916289 0.836683 0.36669
0.930251 0.840833 0.360388
0.94229 0.843214 0.353506
0.952117 0.843412 0.346181
0.962432 0.843519 0.337224
0.975677 0.845823 0.326757
0.990906 0.849515 0.313832
0.991348 0.851133 0.313237
0.990829 0.852628 0.31339
0.524636 0.71516 0.343694
0.547463 0.716411 0.356451
0.569146 0.718059 0.369009
0.588968 0.722286 0.377035
0.607477 0.728542 0.380865
0.625498 0.735088 0.38439
0.643061 0.741802 0.388006
0.660105 0.748669 0.391592
0.676738 0.755657 0.394995
0.692927 0.762661 0.398108
0.708705 0.769741 0.401175
0.724224 0.776776 0.403769
0.739666 0.783871 0.406302
0.755032 0.790799 0.408301
0.770489 0.797635 0.409796
0.786007 0.804303 0.410849
0.80177 0.810788 0.411582
0.817548 0.816983 0.411612
0.83331 0.82295 0.410925
0.849012 0.828687 0.409522
0.864607 0.834119 0.407279
0.880095 0.839246 0.404471
0.895201 0.84416 0.400778
0.90985 0.84889 0.395865
0.924025 0.853468 0.390158
0.937942 0.857832 0.383169
0.951141 0.861524 0.375311
0.962524 0.863478 0.366583
0.972122 0.863706 0.357092
0.981933 0.863462 0.345663
0.988342 0.864179 0.338308
0.989151 0.86656 0.338949
0.989929 0.868864 0.339513
0.55906 0.745052 0.363317
0.57998 0.746258 0.376593
0.599756 0.747677 0.390265
0.618082 0.750484 0.401495
0.63447 0.756451 0.405859
0.650462 0.762844 0.409323
0.666102 0.769375 0.412909
