site/assets/luts/freshluts--0000505-purple-sunset.cube
# LUTr-Schema-Version: 2
# LUTr-ID: freshluts--0000505-purple-sunset
# LUTr-Title: purple sunset
# LUTr-Collection: Fresh LUTs
# LUTr-Collection-ID: freshluts-community
# LUTr-Source: https://freshluts.com
# LUTr-Retrieved: 2026-07-27
# LUTr-Source-File: submissions-raw/freshluts/cubes/505__purple_sunset_33pt.cube_1.A003_07200606_C003_S000.cube
# LUTr-Source-Format: CUBE
# LUTr-Source-SHA256: 3edb662ded85a664ec87c5d451f09f59379f6d4d2ff62a33290ce18b182a7376
# LUTr-License: CC0-1.0
# LUTr-License-URL: https://freshluts.com/termsandconditions
# LUTr-License-Basis: site-terms
# LUTr-Transform-Class: creative-look
# LUTr-Tags: creative, freshluts, community, cube, warm, bmd-film-4k
# LUTr-Input-Color-Space: bmd-film-4k
# LUTr-Input-Gamut: bmd-film-gamut
# LUTr-Input-Transfer: bmd-film-4k
# LUTr-Output-Color-Space: srgb
# LUTr-Output-Gamut: rec709
# LUTr-Output-Transfer: srgb
# LUTr-Color-Space-Confidence: inferred-from-source-label
# LUTr-Domain-Normalized: true
# LUTr-Shaper: none
# LUTr-Original-Grid: 33x33x33
# LUTr-Conversion-Grid: 33x33x33
# LUTr-Conversion-Interpolation: none
# LUTr-Conversion-Method: Metadata normalization; numeric LUT samples preserved
# LUTr-Conversion-Tool: LUTr scripts/convert-all-to-cube.mjs 2.0.0
# LUTr-Conversion-Date: 2026-07-28
# LUTr-Asset-URL: https://freshluts.com/luts/505
# LUTr-Author: sswyft
# LUTr-Author-URL: https://freshluts.com/users/10877
# LUTr-Attribution: sswyft via Fresh LUTs
# LUTr-Source-Labels: gamma=Blackmagic BMD Film 4K; color=Warm; key=Neutral; style=Colorful
# LUTr-Note: Preserve this metadata and the upstream license notices when redistributing.
TITLE "purple sunset"
LUT_3D_SIZE 9
DOMAIN_MIN 0 0 0
DOMAIN_MAX 1 1 1
0.0241855 0 0
0.0818647 0 0
0.154513 0 0
0.278019 0 0
0.436896 0 0
0.596948 0 0
0.727245 0 0
0.814267 0 0
0.879683 0 0
0.024033 0.0508888 0
0.0814069 0.0509041 0
0.154849 0.0474708 0
0.280491 0.0313726 0
0.442863 0.00727855 0
0.607828 0 0
0.744747 0 0
0.84007 0 0
0.91545 0 0
0.0136721 0.117403 0
0.0750439 0.121401 0
0.154009 0.123491 0
0.28687 0.114626 0
0.458152 0.0994583 0
0.633631 0.0876631 0
0.782315 0.0881208 0
0.890059 0.104341 0
0.977142 0.12958 0
0 0.222187 0
0.0476081 0.235706 0
0.13756 0.248783 0
0.282567 0.252064 0
0.466194 0.24921 0
0.65272 0.248493 0
0.80972 0.257267 0
0.922148 0.278157 0
1 0.304341 0.00686656
0 0.376898 0
0.0278935 0.402457 0
0.128084 0.425772 0
0.28011 0.436072 0
0.467063 0.436545 0
0.653407 0.43566 0
0.809689 0.443687 0
0.922072 0.464561 0
1 0.491859 0.00791943
0 0.562783 0
0.0284886 0.590295 0
0.127886 0.612833 0
0.279408 0.622614 0
0.466682 0.623423 0
0.654444 0.623926 0
0.810712 0.631968 0
0.920897 0.650629 0
1 0.673518 0.00231937
0 0.738201 0
0.0564279 0.766476 0
0.157076 0.790265 0
0.307774 0.799237 0
0.492042 0.797024 0
0.674586 0.792325 0
0.823468 0.792966 0
0.92462 0.802594 0
0.999557 0.815686 0
0.0388952 0.897826 0
0.120714 0.922286 0.0113375
0.215335 0.940047 0.0290837
0.357961 0.940932 0.029984
0.532815 0.929305 0.0183566
0.705501 0.914748 0.0037995
0.844907 0.905928 0
0.937316 0.906813 0
1 0.911879 0.0009308
0.106966 1 0.054963
0.179126 1 0.069749
0.263935 1 0.0776837
0.397345 1 0.0693675
0.563714 1 0.0492714
0.728679 0.999786 0.026978
0.861357 0.984222 0.0114137
0.948089 0.979431 0.00663767
1 0.979934 0.00712596
0.0242008 0 0.0295567
0.0818952 0 0.0298772
0.154421 0 0.0255436
0.277928 0 0.00730907
0.436942 0 0
0.597284 0 0
0.728008 0 0
0.815579 0 0
0.881743 0 0
0.0239719 0.0508431 0.0293278
0.0815595 0.0510414 0.0295415
0.155337 0.0479591 0.0264591
0.281437 0.0323186 0.0108186
0.444404 0.00881972 0
0.610224 0 0
0.748135 0 0
0.844587 0 0
0.921218 0 0
0.0148165 0.118563 0.0201877
0.0768597 0.123217 0.0248417
0.156741 0.126238 0.027863
0.290654 0.118425 0.0200504
0.463127 0.104417 0.00604257
0.639887 0.0939193 0
0.789914 0.0957198 0
0.898711 0.112993 0.0146181
0.986465 0.138888 0.0405127
0 0.226383 0
0.0530251 0.241123 0.0010071
0.144305 0.255543 0.0154269
0.290593 0.26009 0.0199741
0.47512 0.258152 0.0180362
0.662181 0.257954 0.0178531
0.819333 0.266865 0.0267491
0.931533 0.287541 0.0474403
1 0.313329 0.073228
0 0.385306 0
0.0370642 0.411627 0
0.137636 0.435325 0.00874342
0.289677 0.44564 0.0190738
0.476265 0.445762 0.0191806
0.662577 0.444816 0.0182345
0.819196 0.453193 0.0266117
0.931685 0.474174 0.0475929
1 0.501366 0.0747845
0 0.572259 0
0.0374762 0.599298 0
0.137209 0.622156 0.00831617
0.28896 0.632181 0.0183566
0.476265 0.633021 0.0191806
0.663844 0.633341 0.0195163
0.819715 0.64097 0.0271305
0.929259 0.658991 0.0451667
1 0.68101 0.0671855
0 0.747814 0
0.06598 0.776043 0.0139773
0.166354 0.799542 0.0374762
0.316579 0.808026 0.0459602
0.500114 0.805097 0.0430304
0.681727 0.799451 0.0373846
0.829541 0.799039 0.0369726
0.929702 0.807675 0.0456092
1 0.819837 0.0577707
0.0474403 0.906386 0.0527962
0.128466 0.930053 0.076463
0.22208 0.946792 0.0932021
0.363668 0.946639 0.0930495
0.537545 0.934051 0.0804608
0.709331 0.918578 0.0650034
0.847929 0.908934 0.0553445
0.93959 0.909087 0.0554971
1 0.913497 0.0599069
0.112306 1 0.117662
0.18352 1 0.131502
0.267475 1 0.138582
0.400092 1 0.129473
0.565744 1 0.108659
0.730114 1 0.0857862
0.862333 0.985183 0.069749
0.948684 0.980026 0.0645914
1 0.980224 0.0647898
0 0 0.119036
0.0804456 0 0.105318
0.152911 0 0.100893
0.276463 0 0.0827192
0.435676 0 0.0554665
0.596353 0 0.0288853
0.727535 0 0.011841
0.815702 0 0.00848402
0.882719 0 0.0136416
0.00265507 0.0241093 0.125658
0.0803845 0.0498817 0.105241
0.154543 0.0471656 0.102541
0.281163 0.0320439 0.0874189
0.4448 0.00921645 0.0645914
0.611536 0 0.0440681
0.7505 0 0.0347906
0.848096 0 0.0408789
0.926024 0.00158694 0.0569619
0.0147707 0.118502 0.0970016
0.0775769 0.123934 0.102434
0.158419 0.127916 0.106416
0.293431 0.121187 0.0996719
0.467094 0.108385 0.0868849
0.645197 0.0992294 0.0777295
0.796506 0.102312 0.0808118
0.906218 0.1205 0.0990005
0.994507 0.146929 0.125429
0 0.229572 0.0663462
0.0574655 0.245563 0.0823377
0.150134 0.261357 0.0981155
0.297566 0.267063 0.103822
0.482872 0.265888 0.102647
0.670329 0.266102 0.102861
0.827497 0.275029 0.111803
0.939345 0.295369 0.132128
1 0.32108 0.157839
0 0.392599 0.0428931
0.0449989 0.419562 0.0698558
0.14583 0.443519 0.0938125
0.297765 0.453727 0.104021
0.483864 0.453361 0.103655
0.670466 0.45272 0.103014
0.827344 0.461341 0.111635
0.939879 0.482368 0.132662
1 0.509377 0.159655
0 0.580209 0.0432593
0.0450904 0.606912 0.0699474
0.14522 0.630167 0.0932021
0.297154 0.640375 0.10341
0.484428 0.641169 0.104204
0.671733 0.64123 0.104265
0.8271 0.648356 0.111406
0.935943 0.665675 0.12871
1 0.686763 0.149798
0 0.756024 0.0708171
0.0740673 0.784115 0.0989242
0.17409 0.807279 0.122087
0.323735 0.815183 0.129992
0.506477 0.81146 0.126268
0.687083 0.804822 0.119615
0.83386 0.803357 0.118151
0.933043 0.811017 0.125826
1 0.822278 0.137087
0.0543374 0.913283 0.136568
0.134508 0.93608 0.159365
0.227054 0.951766 0.175051
0.36762 0.950591 0.173877
0.540551 0.937057 0.160342
0.711482 0.920729 0.144015
0.849271 0.910292 0.133577
0.940215 0.909712 0.132998
1 0.913527 0.136812
0.115908 1 0.198138
0.186206 1 0.211063
0.269322 1 0.217304
0.401175 1 0.207416
0.566125 1 0.185916
0.729976 1 0.162509
0.861753 0.984619 0.146059
0.947768 0.97911 0.140551
1 0.979034 0.140475
0 0 0.229938
0.0703593 0 0.240299
0.146715 0 0.236439
0.270375 0 0.218357
0.429831 0 0.191348
0.590875 0 0.165133
0.722576 0 0.148592
0.811399 0 0.145907
0.879316 0 0.15198
0 0.00518807 0.240253
0.0331579 0.00915541 0.244221
0.149233 0.0418555 0.238956
0.276417 0.0272984 0.224399
0.440818 0.00523384 0.202335
0.608499 0 0.182773
0.748547 0 0.174578
0.847364 0 0.181872
0.926619 0.00218204 0.199283
0 0.0695964 0.248402
0.0468452 0.079118 0.257908
0.123613 0.0979324 0.261616
0.291905 0.119661 0.239887
0.466819 0.10811 0.228351
0.646296 0.100343 0.220569
0.798779 0.104585 0.224811
0.90927 0.123552 0.243778
0.997955 0.150393 0.270619
0 0.228504 0.206989
0.0576944 0.245792 0.224292
0.151705 0.262928 0.241428
0.30016 0.269657 0.248142
0.486107 0.269123 0.247623
0.673838 0.269612 0.248112
0.830915 0.278447 0.256947
0.942275 0.298299 0.276783
1 0.324285 0.30277
0 0.395468 0.187503
0.0483711 0.42295 0.214969
0.14934 0.447044 0.239063
0.301045 0.457008 0.249042
0.487739 0.457221 0.25243
0.673793 0.456031 0.248066
0.830854 0.464851 0.256886
0.943358 0.485847 0.277867
1 0.512581 0.304616
0 0.583307 0.188083
0.0481727 0.609995 0.214771
0.148638 0.633585 0.238361
0.300679 0.6439 0.248676
0.487831 0.644572 0.249348
0.6748 0.644297 0.249073
0.829602 0.650858 0.255634
0.937652 0.667384 0.27216
1 0.687465 0.292241
0 0.759518 0.216052
0.0773785 0.787427 0.243961
0.176974 0.810162 0.266697
0.325978 0.817426 0.27396
0.507851 0.812833 0.269383
0.687404 0.805127 0.261662
0.833158 0.80264 0.259174
0.931395 0.809369 0.265904
1 0.81976 0.27631
0.0562905 0.915236 0.280247
0.1355 0.937072 0.302098
0.226993 0.95169 0.316716
0.366552 0.949523 0.314549
0.538582 0.935088 0.300099
0.708659 0.917906 0.282933
0.845685 0.906706 0.271717
0.935927 0.905425 0.270451
1 0.908721 0.273747
0.114504 1 0.338476
0.183917 1 0.350515
0.266209 1 0.355932
0.397314 1 0.345312
0.561624 1 0.323156
0.725002 0.996094 0.29926
0.856367 0.979232 0.282399
0.942061 0.973404 0.27657
1 0.973083 0.276249
0 0 0.361639
0.0171206 0 0.364675
0.137301 0 0.413489
0.261112 0 0.395575
0.420859 0 0.368841
0.582315 0 0.343053
0.71458 0 0.327077
0.80415 0 0.325139
0.87303 0 0.332158
0 0.000518807 0.372076
0.0288243 0.00482185 0.376379
0.110216 0.0184329 0.395102
0.26865 0.0195468 0.403113
0.433906 0 0.381888
0.602594 0 0.363333
0.74377 0 0.356268
0.843839 0 0.364813
0.924468 0.000030518 0.383597
0 0.0666209 0.381903
0.0447852 0.0770581 0.392355
0.111406 0.0874037 0.402701
0.287556 0.115328 0.422019
0.463783 0.105074 0.41178
0.644617 0.0986496 0.405356
0.798123 0.103914 0.41062
0.909255 0.123537 0.430243
0.99823 0.150668 0.457359
0 0.173327 0.384863
0.0591745 0.195178 0.406729
0.13817 0.217914 0.429465
0.257511 0.233509 0.445045
0.486244 0.269276 0.434241
0.674128 0.269902 0.434867
0.830961 0.278508 0.443473
0.941939 0.297963 0.462928
1 0.324361 0.489326
0 0.395331 0.373831
0.0486152 0.423194 0.401679
0.149599 0.447288 0.425788
0.300923 0.456886 0.435386
0.489158 0.458656 0.437156
0.673976 0.456214 0.434714
0.831144 0.465141 0.443641
0.943542 0.486015 0.464515
1 0.512413 0.490913
0 0.582971 0.374212
0.0481727 0.609995 0.401236
0.148882 0.633829 0.425071
0.300969 0.644175 0.435416
0.496986 0.621485 0.444984
0.651591 0.621088 0.444587
0.828626 0.649882 0.441123
0.935821 0.665553 0.456794
1 0.684581 0.475822
0 0.759747 0.402762
0.0773175 0.787381 0.430381
0.176425 0.809613 0.452628
0.324712 0.816159 0.459174
0.505653 0.810636 0.453635
0.684123 0.801862 0.444862
0.828885 0.798383 0.441382
0.926207 0.804181 0.447196
0.99762 0.813733 0.456748
0.0547036 0.913649 0.465141
0.132906 0.934478 0.485954
0.223346 0.948058 0.499535
0.361959 0.94493 0.496406
0.533089 0.92958 0.481071
0.702342 0.911604 0.463081
0.838621 0.899641 0.451133
0.928222 0.897719 0.449195
0.992874 0.900526 0.452003
0.109575 1 0.519997
0.178119 1 0.531182
0.259617 1 0.535805
0.390005 1 0.524468
0.553735 1 0.501717
0.71664 0.987732 0.477378
0.847639 0.970504 0.460136
0.933028 0.96437 0.454017
0.994354 0.963836 0.453483
0 0 0.493812
0.0121462 0 0.496773
0.084947 0 0.523095
0.251881 0 0.573587
0.411948 0 0.547189
0.573892 0 0.521874
0.706752 0 0.506493
0.797162 0 0.505394
0.867048 0 0.51342
0 0 0.50454
0.0245975 0.000595102 0.509224
0.0838941 0.00361639 0.512245
0.261097 0.0119936 0.582803
0.427268 0 0.562509
0.596994 0 0.544991
0.739345 0 0.539086
0.840696 0 0.548928
0.922698 0 0.56907
0 0.0638895 0.516258
0.0430304 0.0753033 0.527657
0.11075 0.0867475 0.539101
0.279774 0.11017 0.601663
0.461158 0.102449 0.596399
0.643259 0.0972915 0.591241
0.797665 0.103471 0.597421
0.909346 0.123629 0.617578
0.998474 0.150896 0.644846
0 0.174334 0.522957
0.0615702 0.197574 0.546197
0.141711 0.221454 0.570062
0.261814 0.237812 0.586419
0.486427 0.269459 0.621668
0.674327 0.2701 0.622309
0.830793 0.27834 0.630549
0.941726 0.297749 0.649958
1 0.324483 0.676707
0.00143435 0.353048 0.550515
0.08748 0.37145 0.578363
0.176944 0.393179 0.605295
0.298848 0.41059 0.621942
0.448539 0.424536 0.625483
0.674159 0.456413 0.622156
0.831373 0.46537 0.631113
0.943557 0.486046 0.651789
1 0.512047 0.677791
0 0.58262 0.56112
0.0482338 0.61004 0.58854
0.149111 0.634058 0.612558
0.301137 0.644358 0.622843
0.496757 0.621241 0.599741
0.651148 0.62063 0.59913
0.827329 0.648585 0.627085
0.933577 0.66331 0.64181
1 0.68127 0.65977
0 0.759854 0.590112
0.0770733 0.787137 0.617395
0.175616 0.808804 0.639063
0.323095 0.814542 0.6448
0.503014 0.807996 0.638254
0.654124 0.761746 0.602121
0.790188 0.759686 0.600046
0.920684 0.798657 0.628916
0.991257 0.807385 0.637644
0.0527504 0.911696 0.650431
0.129885 0.931456 0.670192
0.219318 0.944015 0.682765
0.356985 0.939956 0.678691
0.527245 0.923751 0.662486
0.695705 0.904967 0.643702
0.831281 0.892287 0.631022
0.920272 0.889769 0.628504
0.984482 0.892119 0.630854
0.104265 1 0.701946
0.171969 1 0.712291
0.252705 1 0.716152
0.382406 1 0.704112
0.545617 1 0.680858
0.708095 0.979187 0.656077
0.838743 0.961608 0.638498
0.923858 0.9552 0.63209
0.985 0.954482 0.631373
0 0 0.599268
0.0090486 0 0.602197
0.0660563 0 0.60383
0.245563 0 0.715511
0.406012 0 0.689494
0.56846 0 0.664683
0.701991 0 0.649973
0.793317 0 0.64979
0.86424 0 0.658869
0 0 0.610422
0.0224002 0 0.615534
0.0822614 0.00198367 0.619135
0.251408 0.00683604 0.718791
0.423789 0 0.707256
0.594614 0 0.690837
0.738155 0 0.686137
0.840864 0 0.697322
0.924132 0 0.718746
0 0.0633555 0.624231
0.0435035 0.0757763 0.636652
0.112352 0.0883497 0.649226
0.241947 0.0996719 0.687083
0.461814 0.103105 0.745296
0.64506 0.0991073 0.741299
0.800259 0.106065 0.748241
0.912337 0.126619 0.768795
1 0.153918 0.796109
0 0.177691 0.634821
0.0662547 0.202274 0.659403
0.147417 0.227161 0.684291
0.268177 0.24416 0.701289
0.489479 0.272496 0.772946
0.677256 0.27303 0.77348
0.833249 0.280781 0.781231
0.944472 0.300496 0.800946
1 0.327489 0.827939
0.0255131 0.340017 0.660655
0.0989853 0.371496 0.692119
0.183322 0.399558 0.72018
0.303807 0.416297 0.736919
0.450752 0.426749 0.747372
0.677211 0.459449 0.773434
0.834363 0.46836 0.782345
0.946303 0.488777 0.802762
1 0.51429 0.828275
0 0.584756 0.711879
0.054551 0.610132 0.739193
0.161975 0.627329 0.762524
0.326452 0.611322 0.773449
0.486915 0.596811 0.77937
0.622934 0.59678 0.753338
0.82855 0.649821 0.776547
0.933791 0.663523 0.790265
1 0.680446 0.807172
0 0.762692 0.741176
0.0794842 0.789532 0.768032
0.177371 0.810559 0.789044
0.32398 0.815427 0.793927
0.502846 0.807828 0.786328
0.653422 0.761044 0.739528
0.789273 0.75877 0.737255
0.917678 0.795651 0.774151
0.987457 0.803586 0.782086
0.053254 0.9122 0.799176
0.129335 0.930907 0.817884
0.217777 0.942473 0.82945
0.354513 0.937484 0.82446
0.523934 0.920439 0.807416
0.691646 0.900893 0.787869
0.791623 0.872175 0.73962
0.901045 0.870542 0.737987
0.978759 0.886397 0.773373
0.101488 1 0.84741
0.168383 1 0.856931
0.248371 1 0.860059
0.377432 1 0.847379
0.540154 0.998505 0.823636
0.702235 0.973327 0.798459
0.832563 0.955413 0.780545
0.917449 0.948791 0.773907
0.978408 0.947906 0.773037
0 0 0.665904
0.0087129 0 0.668849
0.0651865 0 0.669047
0.240024 0 0.798962
0.404318 0 0.779324
0.56733 0 0.755077
0.70161 0 0.741131
0.793912 0 0.741894
0.865919 0 0.752056
0 0 0.677653
0.0231174 0 0.683238
0.0835737 0.00331121 0.687434
0.23183 0.00483711 0.772457
0.42475 0 0.799756
0.596704 0 0.784451
0.741512 0 0.781018
0.845579 0 0.793561
0.930007 0.00556954 0.816144
0 0.0658885 0.693751
0.0470893 0.0793469 0.70721
0.117098 0.0930953 0.720958
0.233783 0.101762 0.739788
0.467002 0.108293 0.841993
0.651286 0.105318 0.839033
0.807126 0.112917 0.846632
0.919463 0.133761 0.86746
1 0.160952 0.894652
0.00624094 0.184253 0.708354
0.0740673 0.210086 0.734203
0.156115 0.235874 0.759976
0.277394 0.253376 0.777493
0.496239 0.279561 0.871183
0.684153 0.279927 0.8719
0.839796 0.287327 0.879301
0.951415 0.307439 0.899413
1 0.33463 0.926589
0.0348211 0.349325 0.73695
0.108293 0.380804 0.768414
0.192248 0.408484 0.796109
0.312734 0.425223 0.812833
0.459998 0.435996 0.823621
0.684352 0.46659 0.872099
0.841398 0.475395 0.880903
0.952987 0.495476 0.900984
1 0.520424 0.925917
0.0259098 0.553124 0.789105
0.117662 0.572412 0.813367
0.221118 0.586633 0.83418
0.349142 0.598703 0.849256
0.495583 0.608713 0.85922
0.664973 0.637125 0.86862
0.833555 0.65481 0.87306
0.937743 0.667475 0.885725
1 0.683375 0.901625
0.00207523 0.769497 0.839506
0.0857862 0.79585 0.865858
0.18294 0.816129 0.886137
0.328603 0.82005 0.890074
0.506416 0.811383 0.881407
0.678203 0.794568 0.867216
0.790158 0.759655 0.84921
0.918486 0.79646 0.866468
0.987503 0.803632 0.87364
0.057496 0.916442 0.894926
0.132525 0.934096 0.912596
0.220005 0.944701 0.923201
0.355856 0.938827 0.917327
0.524468 0.920958 0.899458
0.691417 0.900679 0.879164
0.791165 0.871717 0.850217
0.900328 0.869825 0.84831
0.976989 0.884642 0.863142
0.102525 1 0.939971
0.168627 1 0.948699
0.247913 1 0.95111
0.376379 1 0.93785
0.538643 0.996994 0.913649
0.700343 0.97145 0.88809
0.830381 0.953246 0.869886
0.900725 0.967544 0.848722
0.997711 0.967208 0.848386
0 0 0.712245
0.00984207 0 0.715236
0.0664988 0 0.715633
0.229755 0 0.839948
0.404959 0 0.841794
0.568566 0 0.818158
0.7037 0 0.805051
0.796994 0 0.806836
0.870115 0 0.818112
0 0 0.724727
0.0254368 0.00143435 0.730831
0.0865797 0.00630198 0.735714
0.221378 0.00657664 0.803616
0.428229 0 0.86508
0.601358 0 0.85095
0.747448 0 0.848814
0.852872 0 0.862715
0.938338 0.0139162 0.886336
0 0.0701762 0.743313
0.0524758 0.0847334 0.75787
0.123705 0.0996872 0.772839
0.237385 0.108629 0.784512
0.474723 0.116014 0.911574
0.659907 0.113939 0.909499
0.816266 0.122057 0.917617
0.928756 0.143038 0.938582
1 0.170016 0.96556
0.0146792 0.192691 0.762081
0.0836652 0.219669 0.789059
0.166461 0.246204 0.815595
0.288106 0.264103 0.833494
0.495125 0.286809 0.927672
0.693034 0.288808 0.942626
0.84863 0.296178 0.949996
0.960601 0.316625 0.970443
1 0.343908 0.997726
0.0456092 0.360113 0.792996
0.118944 0.391455 0.824338
0.202411 0.418647 0.851545
0.323217 0.435706 0.868605
0.470726 0.446723 0.879622
0.693629 0.475868 0.943221
0.850477 0.484474 0.951827
0.961654 0.504143 0.971496
1 0.52845 0.995804
0.0715648 0.537728 0.832181
0.152605 0.563745 0.859403
0.238163 0.59147 0.887297
0.359594 0.609155 0.904982
0.505516 0.622293 0.916793
0.681376 0.652201 0.935546
0.84036 0.661616 0.941711
0.943465 0.673213 0.953307
1 0.688121 0.968215
0.0108644 0.778286 0.910155
0.0940108 0.804059 0.935927
0.191424 0.822751 0.955215
0.346822 0.814908 0.956497
0.511772 0.816754 0.948623
0.686229 0.803967 0.935821
0.827268 0.796765 0.928634
0.921172 0.799146 0.931014
0.989441 0.80557 0.937438
0.063508 0.922454 0.962798
0.13753 0.939101 0.979446
0.224063 0.948775 0.98912
0.35906 0.942031 0.982376
0.526864 0.923369 0.963714
0.693111 0.902358 0.942702
0.822019 0.885664 0.93077
0.900572 0.870069 0.945876
0.977264 0.884901 0.925246
0.105425 1 1
0.170764 1 1
0.249348 1 1
0.37731 1 1
0.539147 0.997497 0.975982
0.700496 0.971603 0.950088
0.830259 0.953124 0.931624
0.900603 0.967422 0.945907
0.99765 0.967132 0.945632
