site/assets/luts/freshluts--0001239-rubio-neon.cube
# LUTr-Schema-Version: 2
# LUTr-ID: freshluts--0001239-rubio-neon
# LUTr-Title: RUBIO NEON
# LUTr-Collection: Fresh LUTs
# LUTr-Collection-ID: freshluts-community
# LUTr-Source: https://freshluts.com
# LUTr-Retrieved: 2026-07-27
# LUTr-Source-File: submissions-raw/freshluts/cubes/1239__RUBIO_NEON.cube
# LUTr-Source-Format: CUBE
# LUTr-Source-SHA256: 7627e3f7552963f6996f5868b4c4a436279f75695547aecaf25768264f00aad1
# LUTr-License: CC0-1.0
# LUTr-License-URL: https://freshluts.com/termsandconditions
# LUTr-License-Basis: site-terms
# LUTr-Transform-Class: creative-look
# LUTr-Tags: creative, freshluts, community, cube, blue, rec709
# LUTr-Input-Color-Space: rec709
# LUTr-Input-Gamut: rec709
# LUTr-Input-Transfer: rec709
# LUTr-Output-Color-Space: srgb
# LUTr-Output-Gamut: rec709
# LUTr-Output-Transfer: srgb
# LUTr-Color-Space-Confidence: declared-by-source
# LUTr-Domain-Normalized: true
# LUTr-Shaper: none
# LUTr-Original-Grid: 33x33x33
# LUTr-Conversion-Grid: 33x33x33
# LUTr-Conversion-Interpolation: none
# LUTr-Conversion-Method: Metadata normalization; numeric LUT samples preserved
# LUTr-Conversion-Tool: LUTr scripts/convert-all-to-cube.mjs 2.0.0
# LUTr-Conversion-Date: 2026-07-28
# LUTr-Asset-URL: https://freshluts.com/luts/1239
# LUTr-Author: Antony Eliezer
# LUTr-Author-URL: https://freshluts.com/users/32961
# LUTr-Attribution: Antony Eliezer via Fresh LUTs
# LUTr-Source-Labels: gamma=Rec 709; color=Blue; key=Neutral; style=Colorful
# LUTr-Note: Preserve this metadata and the upstream license notices when redistributing.
# LUTr-Upstream-Comment: VEGAS Pro LUT
TITLE "RUBIO NEON"
LUT_3D_SIZE 5
DOMAIN_MIN 0 0 0
DOMAIN_MAX 1 1 1
0.052228 0.06159313 0.09581274
0.13824813 0.0540239 0.08696138
0.41488755 0.05616341 0.07184324
0.70357579 0.09996463 0.08763561
0.8247239 0.14851584 0.10936452
0.03247514 0.11699927 0.1032216
0.15680622 0.1236079 0.10157105
0.45582092 0.15492281 0.08410356
0.7338537 0.18378402 0.09897875
0.85792589 0.22585736 0.13319594
0.02747476 0.31742609 0.15251316
0.21339001 0.29801953 0.15263666
0.43605605 0.35612652 0.17321636
0.79538262 0.38944459 0.15729794
0.92128986 0.40318459 0.19222358
0.19436076 0.60686213 0.26126277
0.31175375 0.59462434 0.26741719
0.52174646 0.58228546 0.30775106
0.75682986 0.65297771 0.3609288
0.93407333 0.67826319 0.38792926
0.53992701 0.81098956 0.51168692
0.5929938 0.81248778 0.52918649
0.68466276 0.80601722 0.57960278
0.799317 0.82526511 0.62785482
0.90369982 0.85258192 0.64098674
0.04471796 0.06445615 0.12761834
0.13957818 0.05000183 0.12756048
0.418798 0.01836644 0.10904969
0.70480216 0.07881291 0.12839213
0.83721393 0.15487787 0.16059607
0.01719061 0.13210177 0.15112145
0.16289906 0.13660042 0.14438358
0.44409046 0.14417554 0.13796939
0.72592658 0.183103 0.15204692
0.86114895 0.23681974 0.18377326
0.00318779 0.35301545 0.21237056
0.19817084 0.33562893 0.19633448
0.43823266 0.37120119 0.22459802
0.7768473 0.39152318 0.20587902
0.92034489 0.41532627 0.25014463
0.22525984 0.61418289 0.33045495
0.31228194 0.6041522 0.32353646
0.51891786 0.5893662 0.35750777
0.74102128 0.65791887 0.42279497
0.92900544 0.68295085 0.42905259
0.54628605 0.81705213 0.55857033
0.58210433 0.81658757 0.56035632
0.67323661 0.80981201 0.61921388
0.77620178 0.8260411 0.68936622
0.88114691 0.85243088 0.71438235
0.01509771 0.06993373 0.24963574
0.13183074 0.05337395 0.2498515
0.42464232 0.022496 0.26325557
0.75623387 0.06252207 0.25242367
0.89671099 0.20437121 0.29402131
0.01659225 0.16535489 0.27522895
0.11732699 0.1472646 0.28514552
0.44838995 0.13819914 0.29573002
0.75017607 0.18986692 0.28073061
0.90276027 0.29900816 0.32867184
0.0129629 0.34508261 0.34173569
0.17732604 0.35425699 0.34155974
0.45665327 0.3871631 0.34383774
0.73993641 0.41532961 0.36383811
0.92028558 0.4571023 0.38848448
0.08246139 0.66492248 0.48577726
0.25100154 0.64882755 0.47162145
0.50920022 0.62827241 0.45746401
0.72079664 0.66595465 0.54117364
0.92676675 0.68888038 0.51474839
0.44002631 0.83593619 0.61055732
0.53294837 0.83128929 0.6140573
0.65503204 0.82652462 0.65046579
0.7646203 0.82828945 0.74722791
0.864627 0.85868579 0.79049295
0.01431946 0.08384123 0.52259719
0.04052119 0.07609195 0.52649087
0.37351072 0.04713954 0.53716129
0.77262819 0.06150418 0.55094999
0.95206881 0.20038269 0.50187802
0.01633452 0.1930514 0.54550409
0.04705969 0.17106692 0.54558134
0.37830481 0.1608555 0.55467039
0.77341825 0.17922741 0.5637517
0.94875574 0.30151045 0.52085155
0.01659385 0.38075325 0.56630027
0.12928024 0.38377234 0.56872451
0.40440676 0.38735673 0.57639778
0.74915433 0.41207209 0.59307027
0.92021555 0.49832654 0.58609682
0.14110415 0.59967697 0.6321612
0.26457718 0.60364681 0.62554139
0.4826268 0.63342381 0.62902802
0.69547868 0.67729473 0.70267195
0.89084679 0.69672662 0.68117785
0.25383779 0.85352069 0.77866524
0.34091944 0.86029691 0.76779419
0.54352474 0.85588855 0.74080795
0.75170934 0.84219688 0.79770923
0.85941738 0.86411965 0.85691166
0.01407683 0.14145978 0.81728834
0.04179827 0.14319108 0.8088932
0.33596092 0.13833959 0.80576152
0.68971717 0.15681496 0.80957901
0.96718782 0.25236538 0.81658351
0.01540257 0.24227463 0.81491369
0.04493469 0.23239285 0.81115329
0.35008949 0.22925714 0.80689859
0.69382596 0.25177938 0.8197006
0.96349788 0.33830026 0.82377613
0.01582885 0.40188044 0.81317216
0.08124261 0.40108898 0.81408936
0.40069726 0.42393544 0.81359512
0.69666475 0.44830689 0.81537265
0.94188803 0.50677663 0.81622672
0.11121131 0.60575968 0.82469618
0.23263901 0.61384237 0.82614136
0.44015607 0.63989961 0.81411946
0.70347178 0.67864054 0.8196345
0.91087753 0.70382023 0.83422834
0.30443174 0.78634036 0.85380799
0.38301545 0.79377693 0.8517822
0.53939646 0.81128013 0.84561718
0.7363202 0.83815742 0.84916478
0.8658402 0.86395633 0.92142665
