site/assets/luts/freshluts--0000766-correctionwarmsony-footage.cube
# LUTr-Schema-Version: 2
# LUTr-ID: freshluts--0000766-correctionwarmsony-footage
# LUTr-Title: correction.warm(sony footage)
# LUTr-Collection: Fresh LUTs
# LUTr-Collection-ID: freshluts-community
# LUTr-Source: https://freshluts.com
# LUTr-Retrieved: 2026-07-27
# LUTr-Source-File: submissions-raw/freshluts/cubes/766__warm-correction_4.D6_C03_S001_S001_T023.cube
# LUTr-Source-Format: CUBE
# LUTr-Source-SHA256: 463928d51629147411e0b0a7867b8ae8481289ab01c410e71e38ba4a7beb2bf7
# LUTr-License: CC0-1.0
# LUTr-License-URL: https://freshluts.com/termsandconditions
# LUTr-License-Basis: site-terms
# LUTr-Transform-Class: creative-look
# LUTr-Tags: creative, freshluts, community, cube, warm, sony-s-log1, correction
# LUTr-Input-Color-Space: sony-slog1-sgamut
# LUTr-Input-Gamut: sony-s-gamut
# LUTr-Input-Transfer: sony-s-log1
# LUTr-Output-Color-Space: srgb
# LUTr-Output-Gamut: rec709
# LUTr-Output-Transfer: srgb
# LUTr-Color-Space-Confidence: inferred-from-source-label
# LUTr-Domain-Normalized: true
# LUTr-Shaper: none
# LUTr-Original-Grid: 33x33x33
# LUTr-Conversion-Grid: 33x33x33
# LUTr-Conversion-Interpolation: none
# LUTr-Conversion-Method: Metadata normalization; numeric LUT samples preserved
# LUTr-Conversion-Tool: LUTr scripts/convert-all-to-cube.mjs 2.0.0
# LUTr-Conversion-Date: 2026-07-28
# LUTr-Asset-URL: https://freshluts.com/luts/766
# LUTr-Author: lvannoeun@gmail.com
# LUTr-Author-URL: https://freshluts.com/users/57563
# LUTr-Attribution: lvannoeun@gmail.com via Fresh LUTs
# LUTr-Source-Labels: gamma=Sony S-Log; color=Warm; key=Neutral; style=Correction
# LUTr-Note: Preserve this metadata and the upstream license notices when redistributing.
TITLE "correction.warm(sony footage)"
LUT_3D_SIZE 9
DOMAIN_MIN 0 0 0
DOMAIN_MAX 1 1 1
0 0 0
0 0 0
0.205814 0 0
0.578454 0 0
0.947295 0 0
1 0 0
1 0 0
1 0 0
1 0 0
0 0.000320439 0
0.00357061 0.00543221 0
0.274479 0 0
0.596262 0 0
0.950668 0 0
1 0 0
1 0 0
1 0 0
1 0 0
0 0.232425 0
0 0.233661 0
0.227085 0.225574 0
0.612924 0.178302 0
0.959579 0.148058 0
1 0.126085 0
1 0.112657 0
1 0.110674 0
1 0.11075 0
0 0.499092 0
0 0.50309 0
0.130205 0.495613 0
0.468421 0.463386 0
0.874418 0.403342 0
1 0.349554 0
1 0.324987 0
1 0.317479 0
1 0.31368 0
0 0.768856 0
0 0.765332 0
0 0.748699 0
0.323613 0.706676 0
0.667262 0.658183 0
1 0.594903 0
1 0.542184 0
1 0.51632 0
1 0.498421 0
0 1 0
0 0.992981 0
0 0.970275 0
0.165576 0.922927 0
0.5028 0.868345 0
0.82945 0.814557 0
1 0.767697 0
1 0.72903 0
1 0.695903 0
0 1 0
0 1 0
0 1 0
0.0446174 1 0
0.376074 1 0
0.696941 0.975753 0
0.955779 0.930938 0
1 0.898039 0
1 0.865324 0
0 1 0
0 1 0
0 1 0
0 1 0
0.286198 1 0
0.602823 1 0
0.857984 1 0
1 1 0
1 0.986603 0
0 1 0
0 1 0
0 1 0
0 1 0
0.200015 1 0
0.514199 1 0
0.767224 1 0
0.955688 1 0
1 1 0
0 0 0
0 0 0
0.208438 0 0
0.580667 0 0
0.944442 0 0
1 0 0
1 0 0
1 0 0
1 0 0
0 0.00180056 0.00613413
0.00166323 0.00445563 0.00810254
0.253925 0 0.000198367
0.592752 0 0
0.948577 0 0
1 0 0
1 0 0
1 0 0
1 0 0
0 0.230915 0
0 0.23238 0
0.225772 0.224796 0
0.587976 0.187045 0
0.926955 0.160952 0
1 0.129503 0
1 0.111772 0
1 0.108202 0
1 0.107103 0
0 0.498817 0
0 0.502678 0
0.128939 0.49453 0
0.465583 0.461204 0
0.867826 0.400381 0
1 0.354665 0
1 0.332967 0
1 0.326711 0
1 0.323354 0
0 0.766171 0
0 0.761822 0
0 0.743923 0
0.317845 0.701671 0
0.660563 0.652354 0
1 0.586679 0
1 0.536858 0
1 0.51281 0
1 0.496666 0
0 0.998779 0
0 0.987045 0
0 0.963561 0
0.157412 0.915663 0
0.494209 0.860655 0
0.820172 0.806271 0
1 0.757656 0
1 0.717494 0
1 0.685313 0
0 1 0
0 1 0
0 1 0
0.0344701 1 0
0.365301 1 0
0.685557 0.965377 0
0.94403 0.920211 0
1 0.886564 0
1 0.852415 0
0 1 0
0 1 0
0 1 0
0 1 0
0.273762 1 0
0.590021 1 0
0.844938 1 0
1 1 0
1 0.974075 0
0 1 0
0 1 0
0 1 0
0 1 0
0.186481 1 0
0.500557 1 0
0.753582 1 0
0.942031 1 0
1 1 0
0 0 0.128603
0 0 0.210346
0.215961 0 0.224659
0.576684 0 0.212375
0.937087 0 0.180774
1 0 0.149203
1 0 0.132403
1 0 0.131914
1 0 0.138048
0 0 0.200855
0 0.00180056 0.212619
0.24622 0 0.247272
0.585321 0 0.216922
0.941527 0 0.183688
1 0 0.154116
1 0 0.141054
1 0 0.144015
1 0 0.151171
0 0.224964 0.222065
0 0.226947 0.224369
0.220127 0.219867 0.218326
0.561822 0.190585 0.191882
0.919829 0.156847 0.161395
1 0.123949 0.131624
1 0.105211 0.11487
1 0.100694 0.111101
1 0.098146 0.109133
0 0.494133 0.125048
0 0.497185 0.129152
0.122118 0.488289 0.122072
0.457496 0.454063 0.0914778
0.842649 0.397665 0.0891432
1 0.363546 0.0299992
1 0.339849 0
1 0.327367 0
1 0.318303 0
0 0.758862 0.00825513
0 0.753017 0.00381476
0 0.7346 0
0.306661 0.691569 0
0.648966 0.641917 0
1 0.573739 0
1 0.529702 0
1 0.511284 0
1 0.500938 0
0 0.988586 0
0 0.976165 0
0 0.952316 0
0.144305 0.903807 0
0.480491 0.848173 0
0.805783 0.793179 0
1 0.742153 0
1 0.701244 0
1 0.671672 0
0 1 0
0 1 0
0 1 0
0.0191348 1 0
0.349401 1 0
0.669093 0.950256 0
0.927153 0.904723 0
1 0.870069 0
1 0.833921 0
0 1 0
0 1 0
0 1 0
0 1 0
0.256229 1 0
0.572381 1 0
0.826856 1 0
1 0.987243 0
1 0.956619 0
0 1 0
0 1 0
0 1 0
0 1 0
0.167926 1 0
0.481865 1 0
0.734951 1 0
0.923461 1 0
1 1 0
0 0 0.412207
0 0 0.519554
0.210544 0 0.577188
0.561379 0 0.557687
0.919875 0 0.524987
1 0 0.493248
1 0 0.476402
1 0 0.476661
1 0 0.482948
0 0 0.462348
0 0 0.496895
0.228428 0 0.586755
0.568231 0 0.560204
0.924758 0 0.527687
1 0 0.49868
1 0 0.485725
1 0 0.487617
1 0 0.4934
0 0.200275 0.510094
0 0.206775 0.491798
0.209735 0.210575 0.50277
0.546365 0.177523 0.535241
0.903761 0.142962 0.504204
1 0.109255 0.473564
1 0.0897993 0.455802
1 0.0839399 0.450401
1 0.080293 0.447059
0 0.480095 0.469734
0 0.482689 0.472633
0.105776 0.473228 0.464393
0.440131 0.438132 0.432609
0.788266 0.394583 0.393042
1 0.350851 0.353246
1 0.321691 0.326879
1 0.308186 0.314794
1 0.298619 0.306371
0 0.742031 0.349554
0 0.735271 0.343771
0 0.716136 0.326589
0.286275 0.672847 0.287236
0.627756 0.62237 0.241428
0.994217 0.558373 0.231876
1 0.529427 0.18941
1 0.51548 0.155444
1 0.502174 0.135241
0 0.969406 0.211154
0 0.956481 0.199649
0 0.931838 0.177386
0.121431 0.882734 0.132692
0.456992 0.826474 0.0814984
0.781781 0.770977 0.0310826
1 0.71603 0.0178378
1 0.679484 0.0241855
1 0.654322 0.0218814
0 1 0.10837
0 1 0.0914168
0 1 0.0640269
0 1 0.0141299
0.323796 0.98732 0
0.64329 0.926329 0
0.900755 0.880262 0
1 0.84387 0
1 0.805173 0
0 1 0.0389563
0 1 0.016907
0 1 0
0 1 0
0.229206 1 0
0.545037 1 0
0.799451 0.994614 0
0.988769 0.96144 0
1 0.929885 0
0 1 0
0 1 0
0 1 0
0 1 0
0.140154 1 0
0.453559 1 0
0.706996 1 0
0.895399 1 0
1 1 0
0 0 0.709957
0 0 0.82179
0.195575 0 0.92932
0.543343 0 0.91368
0.901076 0 0.881025
1 0 0.849241
1 0 0.832563
1 0 0.832502
1 0 0.838712
0 0 0.745327
0 0 0.790707
0.205432 0 0.905211
0.550134 0 0.913909
0.907118 0 0.882826
1 0 0.85417
1 0 0.841337
1 0 0.842908
1 0 0.848173
0 0.184115 0.761303
0 0.196506 0.762402
0.198627 0.200565 0.797086
0.528908 0.162905 0.88838
0.885847 0.127718 0.858717
1 0.0934462 0.828138
1 0.0725872 0.809339
1 0.0654459 0.802884
1 0.0611582 0.799008
0 0.456245 0.797711
0 0.45716 0.785977
0.141436 0.447608 0.749157
0.425223 0.424857 0.725612
0.767086 0.375921 0.745052
1 0.331304 0.704952
1 0.301808 0.67834
1 0.287449 0.665568
1 0.277302 0.656565
0 0.723613 0.703288
0 0.715862 0.696559
0 0.696437 0.679103
0.264012 0.652338 0.638941
0.605158 0.60145 0.592584
0.934676 0.551308 0.546868
1 0.515633 0.514427
1 0.495308 0.496056
1 0.479515 0.481849
0 0.948699 0.562707
0 0.935119 0.550576
0 0.910109 0.527962
0.0972152 0.86041 0.482658
0.432135 0.803555 0.430793
0.756268 0.747295 0.379629
1 0.693156 0.370809
1 0.669169 0.347143
1 0.652583 0.31606
0 1 0.457938
0 1 0.440589
0 1 0.412634
0 1 0.362051
0.296788 0.962402 0.305028
0.615915 0.900938 0.249027
0.873014 0.854475 0.206836
1 0.814771 0.19379
1 0.778378 0.198154
0 1 0.386801
0 1 0.364294
0 1 0.331914
0 1 0.27744
0.200748 1 0.216587
0.51632 1 0.157122
0.770687 0.967834 0.111742
0.959838 0.934539 0.0816052
1 0.901457 0.0644846
0 1 0.316365
0 1 0.290074
0 1 0.254658
0 1 0.197436
0.110826 1 0.134401
0.424186 1 0.0726024
0.677638 1 0.0256809
0.866072 1 0
1 1 0
0 0 0.990814
0 0 1
0.177935 0 1
0.527169 0 1
0.884062 0 1
1 0 1
1 0 1
1 0 1
1 0 1
0 0 1
0 0 1
0.187366 0 1
0.533593 0 1
0.891035 0 1
1 0 1
1 0 1
1 0 1
1 0 1
0 0.175158 1
0 0.188678 1
0.188785 0.191745 1
0.510933 0.152361 1
0.869856 0.114366 1
1 0.0786908 1
1 0.056611 1
1 0.0484627 1
1 0.0433356 1
0 0.432029 1
0 0.437003 1
0.145556 0.434974 0.99469
0.412177 0.413016 1
0.747219 0.358709 1
1 0.313664 1
1 0.283253 1
1 0.268452 0.997742
1 0.257649 0.988251
0 0.70106 1
0 0.691463 1
0 0.669841 0.985214
0.294347 0.624552 0.911681
0.587991 0.586297 0.868772
0.912337 0.531411 0.878065
1 0.495171 0.845472
1 0.474189 0.826581
1 0.457572 0.811597
0 0.92958 0.895994
0 0.91545 0.88336
0 0.889815 0.860105
0.0745098 0.839475 0.814176
0.408896 0.782086 0.761761
0.732464 0.725216 0.709789
0.993027 0.683116 0.671397
1 0.656367 0.647059
1 0.634714 0.627405
0 1 0.789227
0 1 0.771115
0 1 0.742748
0 1 0.691585
0.271489 0.939055 0.634043
0.590188 0.87715 0.577478
0.847028 0.830228 0.534813
1 0.789975 0.527596
1 0.766094 0.504463
0 1 0.716136
0 1 0.693172
0 1 0.660319
0 1 0.605493
0.174105 1 0.54432
0.489311 0.992752 0.484367
0.743603 0.942596 0.438666
0.932586 0.909102 0.408286
1 0.872969 0.397787
0 1 0.644221
0 1 0.617777
0 1 0.581964
0 1 0.524498
0.083299 1 0.461204
0.396582 1 0.399222
0.650141 1 0.352163
0.838849 1 0.321019
1 0.979599 0.295598
0 0 1
0 0 1
0.1682 0 1
0.51812 0 1
0.874571 0 1
1 0 1
1 0 1
1 0 1
1 0 1
0 0 1
0 0 1
0.179324 0 1
0.523659 0 1
0.883131 0 1
1 0 1
1 0 1
1 0 1
1 0 1
0 0.172595 1
0 0.18645 1
0.185748 0.189334 1
0.499702 0.150011 1
0.860822 0.107378 1
1 0.0706645 1
1 0.0476692 1
1 0.0381628 1
1 0.0327459 1
0 0.423636 1
0 0.431235 1
0.142412 0.430533 1
0.40473 0.406439 1
0.734112 0.349264 1
1 0.302602 1
1 0.271778 1
1 0.256138 1
1 0.244724 1
0 0.680751 1
0 0.670497 1
0 0.649897 1
0.303853 0.613169 1
0.577981 0.577264 1
0.897536 0.518608 1
1 0.481651 1
1 0.460014 1
1 0.442771 1
0 0.914977 1
0 0.899809 1
0 0.872999 1
0.0789807 0.820691 1
0.428 0.760342 0.980713
0.718288 0.713344 0.923201
0.975631 0.667536 0.923476
1 0.640177 0.898772
1 0.618112 0.878737
0 1 1
0 1 1
0 1 0.99588
0 0.986023 0.944183
0.25362 0.922652 0.886198
0.571923 0.860349 0.829175
0.828428 0.812985 0.785885
1 0.781842 0.757488
1 0.755779 0.73373
0 1 0.968536
0 1 0.945083
0 1 0.912016
0 1 0.85658
0.154925 1 0.795132
0.46978 0.974792 0.734737
0.72398 0.924422 0.688716
0.912886 0.89073 0.658076
1 0.855924 0.650172
0 1 0.895125
0 1 0.868391
0 1 0.832471
0 1 0.774807
0.0630961 1 0.710903
0.376745 1 0.649165
0.63032 1 0.601862
0.818952 0.989136 0.570489
0.983536 0.961089 0.545022
0 0 1
0 0 1
0.165225 0 1
0.514534 0 1
0.871412 0 1
1 0 1
1 0 1
1 0 1
1 0 1
0 0 1
0 0 1
0.178378 0 1
0.519738 0 1
0.881559 0 1
1 0 1
1 0 1
1 0 1
1 0 1
0 0.175387 1
0 0.18941 1
0.187533 0.191485 1
0.496071 0.152682 1
0.858061 0.106218 1
1 0.0685588 1
1 0.0439918 1
1 0.0338598 1
1 0.0276188 1
0 0.423774 1
0 0.431861 1
0.142046 0.43035 1
0.402396 0.4047 1
0.725734 0.34667 1
1 0.297597 1
1 0.265904 1
1 0.249821 1
1 0.237766 1
0 0.669215 1
0 0.659861 1
0.0179751 0.64239 1
0.303777 0.609689 1
0.572869 0.572824 1
0.888655 0.511315 1
1 0.47361 1
1 0.451453 1
1 0.433707 1
0 0.903395 1
0 0.887098 1
0 0.858885 1
0.108415 0.805051 1
0.445243 0.749401 1
0.710582 0.706447 1
0.964157 0.657557 1
1 0.629892 1
1 0.607294 1
0 1 1
0 1 1
0 1 1
0 0.974334 1
0.252049 0.909545 1
0.582116 0.844785 0.996826
0.816114 0.803693 0.950866
1 0.770138 0.943877
1 0.743847 0.920027
0 1 1
0 1 1
0 1 1
0 1 1
0.141848 1 0.981949
0.456703 0.96286 0.921492
0.710781 0.912291 0.875196
0.899626 0.878447 0.844312
1 0.85069 0.818982
0 1 1
0 1 1
0 1 1
0 1 0.96112
0.0493782 1 0.897063
0.362966 1 0.835187
0.616587 1 0.787808
0.80531 0.976501 0.756329
0.970214 0.94873 0.73109
0 0 1
0 0 1
0.164096 0 1
0.511574 0 1
0.869917 0 1
1 0 1
1 0 1
1 0 1
1 0 1
0 0 1
0 0 1
0.179477 0 1
0.517433 0 1
0.881895 0 1
1 0 1
1 0 1
1 0 1
1 0 1
0 0.179385 1
0 0.193301 1
0.190646 0.194888 1
0.494896 0.156619 1
0.856214 0.106416 1
1 0.0670024 1
1 0.0414282 1
1 0.0304723 1
1 0.0239109 1
0 0.425589 1
0 0.433326 1
0.142199 0.43093 1
0.401053 0.403861 1
0.719036 0.345892 1
1 0.293446 1
1 0.26128 1
1 0.244419 1
1 0.231662 1
0 0.661128 1
0 0.653529 1
0.0282902 0.638254 1
0.301976 0.607279 1
0.568978 0.569543 1
0.880171 0.506325 1
1 0.467018 1
1 0.444068 1
1 0.425757 1
0 0.891859 1
0 0.874372 1
0 0.845304 1
0.135103 0.793072 1
0.447044 0.74342 1
0.703792 0.700389 1
0.954238 0.649058 1
1 0.620798 1
1 0.597787 1
0 1 1
0 1 1
0 1 1
0 0.960403 1
0.27361 0.893645 1
0.597589 0.832593 1
0.807324 0.795956 1
0.994415 0.759838 1
1 0.733318 1
0 1 1
0 1 1
0 1 1
0 1 1
0.135439 1 1
0.454887 0.94966 1
0.720012 0.897139 1
0.886946 0.868955 1
1 0.839506 0.990188
0 1 1
0 1 1
0 1 1
0 1 1
0.0371252 1 1
0.350607 1 1
0.604532 0.999893 0.959655
0.793286 0.965408 0.928115
0.958099 0.93753 0.902708
