site/assets/luts/freshluts--0000264-soft-teal-and-orange-look.cube
# LUTr-Schema-Version: 2
# LUTr-ID: freshluts--0000264-soft-teal-and-orange-look
# LUTr-Title: soft Teal and Orange look
# LUTr-Collection: Fresh LUTs
# LUTr-Collection-ID: freshluts-community
# LUTr-Source: https://freshluts.com
# LUTr-Retrieved: 2026-07-27
# LUTr-Source-File: submissions-raw/freshluts/cubes/264__Teal_and_Orange_look.cube
# LUTr-Source-Format: CUBE
# LUTr-Source-SHA256: 7d91486dae661420544891c533390b76060af0b89e6ad29b4bdce48f34aaa4d9
# LUTr-License: CC0-1.0
# LUTr-License-URL: https://freshluts.com/termsandconditions
# LUTr-License-Basis: site-terms
# LUTr-Transform-Class: creative-look
# LUTr-Tags: creative, freshluts, community, cube, orange, low-key, rec709, warm
# LUTr-Input-Color-Space: rec709
# LUTr-Input-Gamut: rec709
# LUTr-Input-Transfer: rec709
# LUTr-Output-Color-Space: srgb
# LUTr-Output-Gamut: rec709
# LUTr-Output-Transfer: srgb
# LUTr-Color-Space-Confidence: inferred-from-source-label
# LUTr-Domain-Normalized: true
# LUTr-Shaper: none
# LUTr-Original-Grid: 16x16x16
# LUTr-Conversion-Grid: 16x16x16
# LUTr-Conversion-Interpolation: none
# LUTr-Conversion-Method: Metadata normalization; numeric LUT samples preserved
# LUTr-Conversion-Tool: LUTr scripts/convert-all-to-cube.mjs 2.0.0
# LUTr-Conversion-Date: 2026-07-28
# LUTr-Asset-URL: https://freshluts.com/luts/264
# LUTr-Author: FinnYoutube
# LUTr-Author-URL: https://freshluts.com/users/5419
# LUTr-Attribution: FinnYoutube via Fresh LUTs
# LUTr-Source-Labels: gamma=Rec 709; color=Orange; key=Low Key; style=Teal - Orange
# LUTr-Note: Preserve this metadata and the upstream license notices when redistributing.
TITLE "soft Teal and Orange look"
LUT_3D_SIZE 16
DOMAIN_MIN 0 0 0
DOMAIN_MAX 1 1 1
0 0 0
0.003721 -0.015744 -0.015744
0.024675 -0.030905 -0.030905
0.073189 -0.045539 -0.045539
0.156459 -0.059698 -0.059698
0.25497 -0.073471 -0.073471
0.343863 -0.086931 -0.086931
0.426775 -0.100188 -0.100188
0.506197 -0.113428 -0.113428
0.584257 -0.126878 -0.126878
0.663247 -0.140887 -0.140887
0.746728 -0.156075 -0.156075
0.838567 -0.173217 -0.173217
0.941931 -0.193398 -0.193398
0.999142 -0.217032 -0.217032
1.091387 -0.240577 -0.240577
0 0.03502 0.000066
0.003297 0.03502 0.00007
0.032878 0.01972 -0.069744
0.083045 0.003698 -0.069722
0.166657 -0.043576 -0.075998
0.261575 -0.062764 -0.085324
0.348567 -0.079002 -0.096041
0.430325 -0.093989 -0.107468
0.509029 -0.108371 -0.119406
0.586569 -0.122643 -0.131931
0.665222 -0.137261 -0.145263
0.748324 -0.152893 -0.159933
0.840025 -0.170366 -0.176712
0.943014 -0.190785 -0.196623
0.999271 -0.214564 -0.220049
1.092538 -0.238544 -0.243689
0 0.088161 0.000088
0.003129 0.088161 0.000089
0.021865 0.088161 0.000092
0.094082 0.073514 -0.121034
0.203701 0.048559 -0.134732
0.289674 0.032484 -0.132019
0.36933 0.00895 -0.1331
0.446113 -0.058528 -0.137539
0.521466 -0.082805 -0.144397
0.59661 -0.102352 -0.153128
0.67364 -0.120354 -0.163611
0.755544 -0.138338 -0.176166
0.846322 -0.157419 -0.191357
0.94761 -0.179026 -0.210171
0.999669 -0.203598 -0.232795
1.097455 -0.229593 -0.256768
0 0.145925 0.000103
0.002978 0.145925 0.000104
0.020801 0.145925 0.000105
0.064862 0.145925 0.000109
0.161396 0.138508 -0.119488
0.31498 0.105356 -0.194878
0.402834 0.08123 -0.196199
0.47605 0.063091 -0.192748
0.546521 0.04443 -0.191904
0.617486 0.014964 -0.194238
0.691201 -0.07007 -0.19966
0.770537 -0.100814 -0.208262
0.859497 -0.126447 -0.220528
0.956553 -0.151943 -0.237161
1.000038 -0.179036 -0.258274
1.107573 -0.210486 -0.282943
0 0.202833 0.000116
0.002839 0.202833 0.000116
0.019835 0.202833 0.000117
0.061852 0.202833 0.000119
0.138639 0.202833 0.000122
0.238621 0.198362 -0.078547
0.395127 0.170446 -0.231073
0.500821 0.138618 -0.256736
0.577237 0.115939 -0.255985
0.647058 0.097427 -0.253319
0.717871 0.07921 -0.253184
0.794348 0.057839 -0.256886
0.880564 0.022994 -0.265213
0.969291 -0.084465 -0.278921
1.015813 -0.126783 -0.297945
1.124267 -0.175147 -0.323562
0 0.258856 0.000126
0.002718 0.258856 0.000126
0.018988 0.258856 0.000127
0.059201 0.258856 0.000128
0.132704 0.258856 0.00013
0.233608 0.258856 0.000133
0.320215 0.254668 0.000135
0.456724 0.235439 -0.239623
0.583369 0.200582 -0.306184
0.670916 0.173105 -0.317377
0.746577 0.152468 -0.317953
0.823344 0.135696 -0.318916
0.90836 0.120401 -0.32398
0.983182 0.103676 -0.334886
1.038015 0.080447 -0.35172
1.147981 -0.092144 -0.378725
0 0.31412 0.000135
0.002613 0.31412 0.000135
0.018256 0.31412 0.000136
0.056934 0.31412 0.000137
0.127591 0.31412 0.000138
0.226759 0.31412 0.00014
0.320215 0.31412 0.000142
0.400737 0.309791 0.000144
0.513631 0.297865 -0.227037
0.651374 0.266678 -0.337251
0.757967 0.235257 -0.373729
0.846587 0.212457 -0.38396
0.935045 0.195974 -0.390924
0.993876 0.183823 -0.401541
1.064723 0.173545 -0.417551
1.177101 0.129254 -0.446405
0 0.368996 0.000143
0.002525 0.368996 0.000143
0.017641 0.368996 0.000144
0.055021 0.368996 0.000144
0.123307 0.368996 0.000146
0.220835 0.368996 0.000147
0.313638 0.368997 0.000149
0.400737 0.368997 0.000151
0.477834 0.365082 0.000153
0.572717 0.358645 -0.196997
0.713005 0.33455 -0.352126
0.840754 0.30375 -0.422013
0.946934 0.28023 -0.450964
0.998699 0.265043 -0.470015
1.090631 0.255612 -0.489802
1.206931 0.224063 -0.521459
0 0.424148 0.000151
0.002458 0.424148 0.000151
0.01718 0.424148 0.000151
0.053561 0.424148 0.000152
0.120067 0.424148 0.000153
0.216297 0.424148 0.000154
0.308517 0.424148 0.000155
0.395142 0.424148 0.000157
0.477834 0.424148 0.000159
0.55346 0.421402 0.000161
0.637798 0.419658 -0.15061
0.776647 0.404698 -0.354514
0.923306 0.380459 -0.460413
0.998904 0.358732 -0.51966
1.105685 0.346059 -0.556153
1.228106 0.321737 -0.592886
0 0.48045 0.000158
0.002419 0.48045 0.000158
0.016903 0.48045 0.000158
0.052703 0.48045 0.000159
0.118135 0.48045 0.00016
0.213519 0.48045 0.00016
0.305456 0.48045 0.000162
0.391659 0.48045 0.000163
0.474088 0.48045 0.000165
0.55346 0.48045 0.000166
0.630015 0.480177 0.000168
0.712369 0.483609 -0.087091
0.848659 0.479927 -0.346523
0.986215 0.466646 -0.492648
1.092076 0.451137 -0.586298
1.223917 0.434206 -0.636237
0 0.539478 0.000165
0.002415 0.539478 0.000165
0.016875 0.539478 0.000165
0.052603 0.539478 0.000166
0.117941 0.539478 0.000166
0.213255 0.539478 0.000167
0.305108 0.539478 0.000168
0.391333 0.539478 0.000169
0.473712 0.539478 0.000171
0.553051 0.539478 0.000172
0.630015 0.539478 0.000181
0.710789 0.54362 0.000197
0.799711 0.554123 0.000217
0.934859 0.564171 -0.330134
1.033101 0.564174 -0.519076
1.170147 0.561635 -0.591711
0 0.603721 0.000172
0.002463 0.603721 0.000173
0.017206 0.603721 0.000173
0.053669 0.603721 0.000174
0.120267 0.603721 0.000177
0.216574 0.603721 0.000182
0.308902 0.603721 0.000187
0.395448 0.603721 0.000194
0.478233 0.603721 0.000201
0.557943 0.603721 0.000209
0.635298 0.603721 0.000218
0.710789 0.603721 0.000227
0.799711 0.615323 0.000244
0.901801 0.635945 0.000265
0.994632 0.66022 -0.302159
1.088054 0.675779 -0.409907
0 0.676614 0.00022
0.002586 0.676614 0.00022
0.018067 0.676614 0.000221
0.056337 0.676614 0.000222
0.126277 0.676614 0.000225
0.225006 0.676614 0.000227
0.318196 0.676614 0.000231
0.405795 0.676614 0.000235
0.489551 0.676614 0.000241
0.570298 0.676614 0.000247
0.648651 0.676614 0.000253
0.725093 0.676614 0.00026
0.799711 0.676614 0.000268
0.901801 0.699337 0.000286
0.987547 0.731364 0.000308
1.045353 0.758912 0.000327
0 0.762963 0.000264
0.002813 0.762963 0.000264
0.019656 0.762963 0.000264
0.061296 0.762963 0.000265
0.137384 0.762963 0.000267
0.239672 0.762963 0.000269
0.334545 0.762963 0.000271
0.423947 0.762963 0.000275
0.509533 0.762963 0.000279
0.592056 0.762963 0.000283
0.672199 0.762963 0.000288
0.750251 0.762963 0.000294
0.826663 0.762963 0.0003
0.901801 0.762963 0.000306
0.987547 0.797935 0.000326
1.045353 0.827885 0.000344
0 0.864558 0.000304
0.003158 0.864558 0.000304
0.022069 0.864558 0.000305
0.068818 0.864558 0.000305
0.154232 0.864558 0.000306
0.260269 0.864558 0.000308
0.357625 0.864558 0.00031
0.449549 0.864558 0.000313
0.537573 0.864558 0.000316
0.62271 0.864558 0.000319
0.705373 0.864558 0.000323
0.785959 0.864558 0.000328
0.864736 0.864558 0.000333
0.940338 0.864558 0.000338
0.987547 0.864558 0.000344
1.045353 0.896799 0.000361
0 0.966189 0.000338
0.003474 0.966189 0.000338
0.024273 0.966189 0.000338
0.075696 0.966189 0.000339
0.169498 0.966189 0.00034
0.277557 0.966189 0.000341
0.377051 0.966189 0.000343
0.471154 0.966189 0.000345
0.561442 0.966189 0.000348
0.64862 0.966189 0.000351
0.733344 0.966189 0.000354
0.816216 0.966189 0.000358
0.897008 0.966189 0.000362
0.965956 0.966189 0.000366
0.99773 0.966189 0.000371
1.045353 0.966189 0.000376
0 0.000027 0.035406
0.003297 0.000033 0.035406
0.021865 0.000037 0.034566
0.067035 -0.026385 0.031814
0.149547 -0.048957 0.021028
0.25069 -0.066953 -0.036342
0.34137 -0.083044 -0.064783
0.425468 -0.098147 -0.084905
0.505782 -0.112782 -0.102397
0.584218 -0.126891 -0.118355
0.663244 -0.140889 -0.133602
0.746605 -0.156061 -0.149692
0.838543 -0.173201 -0.167483
0.941857 -0.193375 -0.188125
0.999149 -0.216976 -0.212069
1.091333 -0.240513 -0.235932
0 0.03502 0.035406
0.003375 0.03494 0.034815
0.025285 0.030784 0.030202
0.073872 0.024647 0.023271
0.157202 0.011836 0.003692
0.25551 -0.043322 -0.049226
0.344211 -0.066214 -0.069659
0.427051 -0.084204 -0.086694
0.506456 -0.100434 -0.102388
0.584471 -0.115991 -0.117597
0.663486 -0.131615 -0.132973
0.746905 -0.148127 -0.149278
0.838685 -0.166424 -0.167392
0.941943 -0.187615 -0.188438
0.999162 -0.212124 -0.212826
1.091472 -0.236381 -0.236977
0 0.088161 0.034566
0.003297 0.088161 0.035406
0.021865 0.088161 0.035406
0.096964 0.072261 -0.109202
0.197404 0.054095 -0.11432
0.283944 0.042299 -0.112612
0.364923 0.027458 -0.115637
0.442674 -0.033293 -0.12206
0.518711 -0.070207 -0.130715
0.594451 -0.093404 -0.141016
0.671829 -0.113391 -0.152861
0.753997 -0.132728 -0.166568
0.844999 -0.152962 -0.182816
0.946488 -0.175512 -0.202539
0.999553 -0.200931 -0.22597
1.096384 -0.227241 -0.250388
0 0.145925 0.033785
0.003297 0.145925 0.035406
0.021084 0.145925 0.035406
0.064862 0.145925 0.035406
0.165918 0.137866 -0.116548
0.314029 0.106437 -0.185459
0.399899 0.085261 -0.185332
0.473116 0.069361 -0.182057
0.543956 0.053143 -0.181752
0.61531 0.031014 -0.184774
0.689363 -0.052854 -0.190887
0.769052 -0.091671 -0.200185
0.858086 -0.12014 -0.21308
0.955663 -0.147391 -0.230383
1.000033 -0.175779 -0.25209
1.106479 -0.207765 -0.277105
0 0.202833 0.03306
0.003297 0.202833 0.035406
0.020344 0.202833 0.035406
0.062228 0.202833 0.035406
0.138639 0.202833 0.035406
0.24017 0.198366 -0.068671
0.396634 0.170211 -0.227119
0.499725 0.140086 -0.25006
0.575501 0.118989 -0.248825
0.645291 0.101827 -0.246208
0.716066 0.084951 -0.246307
0.79274 0.065208 -0.250327
0.879228 0.035809 -0.259031
0.968551 -0.073383 -0.273125
1.014758 -0.121293 -0.292515
1.123154 -0.171579 -0.318423
0 0.258856 0.032403
0.003297 0.258856 0.035406
0.019679 0.258856 0.035406
0.059862 0.258856 0.035406
0.133133 0.258856 0.035406
0.233608 0.258856 0.035406
0.320195 0.254854 0.035188
0.458336 0.235238 -0.23762
0.583455 0.200971 -0.302171
0.67004 0.17455 -0.312378
0.745472 0.154766 -0.312744
0.822027 0.138727 -0.31375
0.907109 0.124009 -0.31893
0.982677 0.107871 -0.330033
1.036984 0.085459 -0.347105
1.146903 -0.083066 -0.374276
0 0.31412 0.031824
0.003297 0.31412 0.035406
0.019096 0.31412 0.035406
0.057792 0.31412 0.035406
0.128334 0.31412 0.035406
0.227125 0.31412 0.035406
0.320215 0.31412 0.035406
0.400737 0.309941 0.035406
0.514831 0.29782 -0.225462
0.652091 0.266696 -0.334938
0.757597 0.235868 -0.370222
0.845895 0.213635 -0.380043
0.934377 0.197603 -0.386956
0.993613 0.185727 -0.39758
1.063843 0.175542 -0.413671
1.176138 0.132252 -0.442604
0 0.368996 0.031333
0.003297 0.368996 0.035406
0.018608 0.368996 0.035406
0.056043 0.368996 0.035406
0.124305 0.368996 0.035406
0.221474 0.368996 0.035406
0.313877 0.368997 0.035406
0.400737 0.368997 0.035406
0.477834 0.365231 0.035406
0.573494 0.358604 -0.194834
0.713823 0.334462 -0.350669
0.840924 0.303855 -0.419675
0.946598 0.280762 -0.448066
0.998601 0.265836 -0.466921
1.090016 0.256499 -0.486655
1.206192 0.225215 -0.518326
0 0.424148 0.030957
0.003297 0.424148 0.035406
0.018236 0.424148 0.035406
0.054742 0.424148 0.035406
0.121243 0.424148 0.035406
0.217114 0.424148 0.035406
0.308936 0.424148 0.035406
0.395262 0.424148 0.035406
0.477834 0.424148 0.035406
0.55346 0.421498 0.035406
0.638183 0.419682 -0.146474
0.777387 0.404594 -0.353518
0.923774 0.380375 -0.458959
0.998915 0.358821 -0.517536
1.105381 0.346244 -0.553724
1.22767 0.322018 -0.590492
0 0.48045 0.030724
0.003297 0.48045 0.035406
0.018019 0.48045 0.035406
0.053956 0.48045 0.035406
0.11943 0.48045 0.035406
0.21451 0.48045 0.035406
0.305969 0.48045 0.035406
0.392007 0.48045 0.035407
0.474224 0.48045 0.035407
0.55346 0.48045 0.035407
0.630015 0.480241 0.035407
0.712596 0.483695 -0.073713
0.849341 0.479858 -0.34572
0.986425 0.466485 -0.491781
1.092344 0.450909 -0.584965
1.224154 0.433893 -0.634809
0 0.539478 0.030703
0.003297 0.539478 0.035407
0.018005 0.539478 0.035407
0.053899 0.539478 0.035407
0.119292 0.539478 0.035407
0.214315 0.539478 0.035407
0.305768 0.539478 0.035407
0.391741 0.539478 0.035407
0.473921 0.539478 0.035407
0.553128 0.539478 0.035407
0.630015 0.539478 0.035407
0.710789 0.543696 0.035407
0.799715 0.554183 0.035302
0.935336 0.564101 -0.329401
1.033631 0.563881 -0.518584
1.170799 0.561211 -0.591303
0 0.603721 0.030981
0.003297 0.603721 0.035407
0.018278 0.603721 0.035407
0.054892 0.603721 0.035407
0.121583 0.603721 0.035407
0.217601 0.603721 0.035407
0.309477 0.603721 0.035407
0.395904 0.603721 0.035407
0.478487 0.603721 0.035407
0.558156 0.603721 0.035407
0.635317 0.603721 0.035407
0.710789 0.603721 0.035407
0.799711 0.615366 0.035407
0.901801 0.636028 0.035408
0.994675 0.660116 -0.301286
1.088489 0.675517 -0.409771
0 0.676614 0.031676
0.003297 0.676614 0.035407
0.018986 0.676614 0.035407
0.057396 0.676614 0.035407
0.127419 0.676614 0.035407
0.225858 0.676614 0.035407
0.318767 0.676614 0.035407
0.406164 0.676614 0.035407
0.489794 0.676614 0.035407
0.570507 0.676614 0.035407
0.648769 0.676614 0.035407
0.72519 0.676614 0.035408
0.799711 0.676614 0.035408
0.901801 0.699228 0.035408
0.987547 0.731384 0.035408
1.045353 0.758914 0.035409
0 0.762963 0.032926
0.003297 0.762963 0.035408
0.02029 0.762963 0.035408
0.062023 0.762963 0.035408
0.138182 0.762963 0.035408
0.24023 0.762963 0.035408
0.334933 0.762963 0.035408
0.424264 0.762963 0.035408
0.509744 0.762963 0.035408
0.592208 0.762963 0.035408
0.672253 0.762963 0.035408
0.750357 0.762963 0.035408
0.826662 0.762963 0.035408
0.901801 0.762963 0.035408
0.987547 0.797942 0.035409
1.045353 0.827869 0.035409
0 0.864558 0.034716
0.003297 0.864558 0.035408
0.022254 0.864558 0.035408
0.069029 0.864558 0.035408
0.154485 0.864558 0.035408
0.260394 0.864558 0.035408
0.357754 0.864558 0.035408
0.449624 0.864558 0.035408
0.537671 0.864558 0.035408
0.622751 0.864558 0.035409
0.705336 0.864558 0.035409
0.785909 0.864558 0.035409
0.864755 0.864558 0.035409
0.940346 0.864558 0.035409
0.987547 0.864558 0.035409
1.045353 0.89679 0.035408
0 0.966189 0.036263
0.003297 0.966189 0.035409
0.02404 0.966189 0.035409
0.075423 0.966189 0.035409
0.16923 0.966189 0.035409
0.277389 0.966189 0.035409
0.376925 0.966189 0.035409
0.471031 0.966189 0.035409
0.561288 0.966189 0.035407
0.648599 0.966189 0.035407
0.733352 0.966189 0.035408
0.816176 0.966189 0.035408
0.896977 0.966189 0.035408
0.965941 0.966189 0.035408
0.997729 0.966189 0.035408
1.045353 0.966189 0.035408
0 0.000036 0.084198
0.003129 0.000039 0.084198
0.021865 0.000044 0.084198
0.064862 0.000044 0.082301
0.138639 0.000049 0.08053
0.234474 -0.019294 0.078578
0.326609 -0.050376 0.073009
0.413146 -0.073413 0.063141
0.495526 -0.093019 0.047953
0.575838 -0.11102 0.019776
0.656675 -0.128402 -0.069697
0.741506 -0.146245 -0.102257
0.834565 -0.165476 -0.129091
0.93924 -0.187448 -0.155717
0.998873 -0.212633 -0.183926
1.08947 -0.236407 -0.209997
0 0.034134 0.084198
0.003297 0.03502 0.084198
0.021865 0.035021 0.084198
0.064862 0.03502 0.082804
0.138639 0.035021 0.08146
0.236772 0.03087 0.078789
0.329626 0.013832 0.072014
0.415929 -0.054308 0.061253
0.497937 -0.081014 0.045011
0.577944 -0.102134 0.011282
0.658427 -0.121445 -0.074787
0.742989 -0.140567 -0.105709
0.835942 -0.160946 -0.132272
0.940351 -0.183835 -0.158908
0.998955 -0.209829 -0.187272
1.090558 -0.23444 -0.213707
0 0.088161 0.084198
0.003297 0.088161 0.084198
0.022375 0.087955 0.082791
0.077019 0.081993 0.075868
0.160489 0.077838 0.07217
0.257657 0.071931 0.066091
0.345853 0.063821 0.057318
0.428286 0.052699 0.044579
0.507406 0.036284 0.022411
0.585261 -0.026283 -0.059191
0.66414 -0.077751 -0.090634
0.747532 -0.107164 -0.115848
0.839278 -0.133714 -0.14022
0.942325 -0.161096 -0.166155
0.999163 -0.190422 -0.194472
1.091779 -0.218216 -0.221556
0 0.145925 0.082301
0.003297 0.145925 0.082804
0.021865 0.145925 0.084198
0.064862 0.145925 0.084198
0.185658 0.133672 -0.094903
0.304995 0.112643 -0.130196
0.385638 0.101213 -0.125988
0.459839 0.091528 -0.125007
0.532655 0.080648 -0.128888
0.605855 0.066923 -0.136636
0.681367 0.047517 -0.147443
0.762217 0.000088 -0.161186
0.852191 -0.089583 -0.178193
0.951554 -0.127671 -0.199208
0.999896 -0.162423 -0.2242
1.101799 -0.196932 -0.251133
0 0.202833 0.08053
0.003297 0.202833 0.08146
0.021865 0.202833 0.084198
0.063319 0.202833 0.084198
0.138639 0.202833 0.084198
0.249006 0.19761 0.012171
0.40115 0.16913 -0.206468
0.494085 0.146124 -0.218396
0.567505 0.130589 -0.21544
0.63723 0.117825 -0.213326
0.708842 0.104991 -0.214753
0.786099 0.089682 -0.220529
0.873235 0.068509 -0.231139
0.965076 0.029898 -0.247256
1.010221 -0.095989 -0.268601
1.118415 -0.156561 -0.295764
0 0.258856 0.07893
0.003297 0.258856 0.080232
0.021865 0.258856 0.084198
0.061877 0.258856 0.084198
0.134465 0.258856 0.084198
0.233608 0.258856 0.084199
0.321311 0.255384 0.078873
0.465219 0.233858 -0.228734
0.583048 0.20251 -0.28355
0.665958 0.180086 -0.290132
0.740129 0.163539 -0.289692
0.816544 0.150031 -0.290893
0.90177 0.137266 -0.29679
0.980207 0.122852 -0.308837
1.032606 0.102808 -0.326959
1.142233 0.013333 -0.354937
0 0.31412 0.077523
0.003297 0.31412 0.079147
0.021865 0.31412 0.084199
0.060605 0.31412 0.084199
0.130756 0.31412 0.084199
0.228186 0.31412 0.084199
0.320215 0.31412 0.084199
0.400737 0.310493 0.084199
0.520243 0.297166 -0.219475
0.654841 0.266314 -0.324816
0.756263 0.238138 -0.354938
0.842758 0.218162 -0.363194
0.930714 0.203747 -0.3697
0.992382 0.19286 -0.380478
1.059992 0.183087 -0.396948
1.171976 0.143173 -0.426362
0 0.368996 0.076323
0.003297 0.368996 0.078205
0.021865 0.368997 0.084199
0.059523 0.368997 0.084199
0.127591 0.368997 0.084199
0.223497 0.368997 0.084199
0.314636 0.368997 0.084199
0.400737 0.368997 0.084199
0.477834 0.36562 0.084199
0.577038 0.358593 -0.187
0.717352 0.333826 -0.344724
0.841734 0.304145 -0.409872
0.94547 0.282646 -0.435671
0.998227 0.268649 -0.453696
1.087202 0.259817 -0.473182
1.203149 0.229461 -0.505079
0 0.424148 0.075398
0.003297 0.424148 0.077486
0.021865 0.424148 0.084199
0.058692 0.424148 0.084199
0.125205 0.424148 0.084199
0.219817 0.424148 0.084199
0.310401 0.424148 0.084199
0.395904 0.424148 0.084199
0.477834 0.424148 0.084199
0.55346 0.421817 0.084199
0.640243 0.419877 -0.129139
0.78068 0.404017 -0.349693
0.925703 0.37964 -0.452926
0.998877 0.358903 -0.508676
1.104159 0.346899 -0.543644
1.225992 0.322756 -0.580412
0 0.48045 0.074832
0.003297 0.48045 0.077062
0.021865 0.48045 0.084199
0.058221 0.48045 0.084199
0.123826 0.48045 0.084199
0.217732 0.48045 0.084199
0.30794 0.48045 0.084199
0.393102 0.48045 0.084199
0.474656 0.48045 0.084199
0.55346 0.48045 0.084199
0.630015 0.480496 0.084199
0.713355 0.483952 0.043076
0.852178 0.479364 -0.342959
0.987529 0.465395 -0.488259
1.093375 0.449715 -0.579429
1.224723 0.432396 -0.62879
0 0.539478 0.074782
0.003297 0.539478 0.077031
0.021865 0.539478 0.084199
0.058228 0.539478 0.084199
0.123843 0.539478 0.084199
0.217768 0.539478 0.084199
0.307974 0.539478 0.084199
0.393104 0.539478 0.084199
0.474701 0.539478 0.084199
0.553497 0.539478 0.084199
0.630015 0.539478 0.084199
0.710789 0.543885 0.084199
0.799759 0.554434 0.083671
0.93727 0.563607 -0.327001
1.035953 0.562645 -0.516963
1.173257 0.55929 -0.589782
0 0.603721 0.075457
0.003297 0.603721 0.077573
0.021865 0.603721 0.084199
0.058926 0.603721 0.084199
0.125907 0.603721 0.084199
0.220928 0.603721 0.084199
0.311649 0.603721 0.084199
0.397341 0.603721 0.084199
0.479399 0.603721 0.084199
0.558686 0.603721 0.084199
0.635643 0.603721 0.084199
0.710789 0.603721 0.084199
0.799711 0.615481 0.084199
0.901801 0.636118 0.084199
0.995062 0.659701 -0.298433
1.090625 0.674516 -0.409761
0 0.676614 0.077158
0.003297 0.676614 0.078928
0.021865 0.676614 0.084199
0.060682 0.676614 0.084199
0.130947 0.676614 0.084199
0.228502 0.676614 0.084199
0.320541 0.676614 0.084199
0.40746 0.676614 0.084199
0.490666 0.676614 0.084199
0.571065 0.676614 0.084199
0.649054 0.676614 0.084199
0.725303 0.676614 0.084199
0.799711 0.676614 0.084199
0.901801 0.699331 0.0842
0.987547 0.731342 0.0842
1.045353 0.758704 0.0842
0 0.762963 0.080199
0.003297 0.762963 0.081364
0.021866 0.762963 0.084199
0.063849 0.762963 0.084199
0.140152 0.762963 0.084199
0.241648 0.762963 0.084199
0.335909 0.762963 0.084199
0.424923 0.762963 0.084199
0.510204 0.762963 0.084199
0.592524 0.762963 0.0842
0.672516 0.762963 0.0842
0.750515 0.762963 0.0842
0.826754 0.762963 0.0842
0.901801 0.762963 0.0842
0.987547 0.797927 0.0842
1.045353 0.82779 0.0842
0 0.864558 0.084555
0.003297 0.864558 0.084872
0.021866 0.864558 0.0842
0.068588 0.864558 0.0842
0.153974 0.864558 0.0842
0.260091 0.864558 0.0842
0.357471 0.864558 0.0842
0.449494 0.864558 0.0842
0.537588 0.864558 0.0842
0.622689 0.864558 0.0842
0.705331 0.864558 0.0842
0.785937 0.864558 0.0842
0.864753 0.864558 0.0842
0.940327 0.864558 0.0842
0.987547 0.864558 0.0842
1.045353 0.896803 0.0842
0 0.966189 0.088285
0.003297 0.966189 0.087904
0.021866 0.966189 0.0842
0.072887 0.966189 0.0842
0.166514 0.966189 0.0842
0.27566 0.966189 0.0842
0.37573 0.966189 0.0842
0.470178 0.966189 0.0842
0.56066 0.966189 0.0842
0.64811 0.966189 0.0842
0.732918 0.966189 0.0842
0.815847 0.966189 0.0842
0.896827 0.966189 0.0842
0.965868 0.966189 0.0842
0.997724 0.966189 0.084201
1.045353 0.966189 0.084201
0 0.000042 0.13598
0.002978 0.000044 0.13598
0.020801 0.000049 0.13598
0.064862 0.000051 0.13598
0.138639 0.00005 0.133245
0.233608 0.000054 0.130753
0.320215 0.000058 0.128564
0.400768 -0.00741 0.126661
0.480963 -0.045375 0.123361
0.561776 -0.073532 0.117472
0.643754 -0.097459 0.109135
0.729808 -0.119701 0.098011
0.823887 -0.142054 0.082613
0.930593 -0.166211 0.057973
0.997582 -0.192914 -0.051371
1.080842 -0.215853 -0.111389
0 0.033312 0.13598
0.003297 0.035021 0.13598
0.021084 0.035021 0.13598
0.064862 0.035021 0.13598
0.138639 0.035021 0.13359
0.233608 0.035021 0.131354
0.320215 0.035021 0.129399
0.401104 0.034213 0.127564
0.482228 0.021152 0.123738
0.563189 -0.051677 0.117403
0.645203 -0.085227 0.10861
0.731117 -0.111366 0.096864
0.825182 -0.135939 0.080417
0.931651 -0.161594 0.053462
0.997757 -0.189482 -0.065544
1.081882 -0.213361 -0.118894
0 0.086037 0.13598
0.003297 0.086611 0.13598
0.021865 0.088161 0.13598
0.064862 0.088161 0.13598
0.138639 0.088161 0.134578
0.233608 0.088161 0.133261
0.320946 0.087549 0.131848
0.406449 0.081795 0.128183
0.48936 0.071561 0.122135
0.570432 0.056372 0.113908
0.651936 0.03149 0.103142
0.737276 -0.065002 0.088528
0.830703 -0.107505 0.066597
0.936182 -0.142007 0.017737
0.998462 -0.175537 -0.106528
1.086292 -0.203925 -0.14844
0 0.145925 0.13598
0.003297 0.145925 0.13598
0.021865 0.145925 0.13598
0.066378 0.145621 0.133856
0.167267 0.138295 0.124104
0.262191 0.134877 0.122004
0.349036 0.130551 0.117967
0.43074 0.125039 0.112357
0.50939 0.118 0.104972
0.586899 0.108931 0.095193
0.665437 0.096771 0.081617
0.748516 0.079042 0.060743
0.840086 0.049432 0.010094
0.942987 -0.073911 -0.104106
0.999261 -0.134482 -0.150148
1.092409 -0.175728 -0.1869
0 0.202833 0.133245
0.003297 0.202833 0.13359
