site/assets/luts/freshluts--0001969-yellow-sahil.cube
# LUTr-Schema-Version: 2
# LUTr-ID: freshluts--0001969-yellow-sahil
# LUTr-Title: Yellow Sahil
# LUTr-Collection: Fresh LUTs
# LUTr-Collection-ID: freshluts-community
# LUTr-Source: https://freshluts.com
# LUTr-Retrieved: 2026-07-27
# LUTr-Source-File: submissions-raw/freshluts/cubes/1969__yellow_sahil.cube
# LUTr-Source-Format: CUBE
# LUTr-Source-SHA256: bedc8e5c063ce0d8ca0a00abec05ec062361c1d8046b366b2cb28392ca854ae7
# LUTr-License: CC0-1.0
# LUTr-License-URL: https://freshluts.com/termsandconditions
# LUTr-License-Basis: site-terms
# LUTr-Transform-Class: creative-look
# LUTr-Tags: creative, freshluts, community, cube, yellow, sony-s-log2
# LUTr-Input-Color-Space:
# LUTr-Input-Gamut: sony-s-gamut
# LUTr-Input-Transfer: sony-s-log2
# LUTr-Output-Color-Space: srgb
# LUTr-Output-Gamut: rec709
# LUTr-Output-Transfer: srgb
# LUTr-Color-Space-Confidence: camera-profile-input-required
# LUTr-Domain-Normalized: true
# LUTr-Shaper: none
# LUTr-Original-Grid: 16x16x16
# LUTr-Conversion-Grid: 16x16x16
# LUTr-Conversion-Interpolation: none
# LUTr-Conversion-Method: Metadata normalization; numeric LUT samples preserved
# LUTr-Conversion-Tool: LUTr scripts/convert-all-to-cube.mjs 2.0.0
# LUTr-Conversion-Date: 2026-07-28
# LUTr-Asset-URL: https://freshluts.com/luts/1969
# LUTr-Author: sahil raza
# LUTr-Author-URL: https://freshluts.com/users/275762
# LUTr-Attribution: sahil raza via Fresh LUTs
# LUTr-Source-Labels: gamma=Sony S-Log 2; color=Yellow; key=Neutral; style=Cinematic/Dark
# LUTr-Note: Preserve this metadata and the upstream license notices when redistributing.
TITLE "Yellow Sahil"
LUT_3D_SIZE 6
DOMAIN_MIN 0 0 0
DOMAIN_MAX 1 1 1
0.002505 0.00008 0
0.124084 0.011694 0.001469
0.361514 0.036991 0.009805
0.624892 0.064041 0.017674
0.816079 0.083737 0.024644
0.964763 0.097306 0.027937
0.02415 0.082492 0.021534
0.095333 0.085408 0.02245
0.241427 0.104543 0.018884
0.576015 0.153444 0.021803
0.803583 0.173684 0.027129
0.954903 0.177676 0.029359
0.053417 0.21489 0.05356
0.111193 0.206135 0.05249
0.240212 0.203623 0.050279
0.563198 0.311996 0.069302
0.794502 0.354728 0.065844
0.952207 0.353076 0.059362
0.094514 0.451762 0.113582
0.105355 0.438072 0.109376
0.321522 0.440824 0.103155
0.544327 0.467352 0.107634
0.788607 0.543421 0.127084
0.941345 0.542832 0.131016
0.137389 0.658244 0.163673
0.153895 0.65731 0.162379
0.346682 0.669178 0.156954
0.594227 0.6914 0.160165
0.779266 0.710999 0.164332
0.934375 0.711429 0.165456
0.183199 0.884156 0.219
0.191831 0.886859 0.219251
0.311874 0.902485 0.217224
0.573584 0.927591 0.216881
0.767437 0.941267 0.220272
0.930771 0.945557 0.220883
0.002505 0.00008 0
0.111986 0.00008 0.01573
0.3562 0.00008 0.047563
0.638451 0.00008 0.107537
0.836487 0.00008 0.136902
0.980242 0.00008 0.138221
0.026629 0.083506 0.068876
0.10541 0.083132 0.068775
0.265994 0.075934 0.042884
0.586381 0.087281 0.030667
0.814094 0.092457 0.03179
0.963341 0.102527 0.033956
0.055477 0.209505 0.092882
0.085945 0.207079 0.077227
0.245944 0.204765 0.077798
0.560653 0.295284 0.076729
0.795109 0.331097 0.069647
0.9532 0.327982 0.063443
0.094283 0.445865 0.151452
0.090854 0.440238 0.128967
0.304585 0.43932 0.11703
0.541684 0.465525 0.117664
0.789361 0.536864 0.13372
0.942014 0.533586 0.135856
0.136105 0.659151 0.199384
0.137574 0.656147 0.171991
0.317733 0.669034 0.168279
0.585212 0.692366 0.168936
0.778583 0.711704 0.172105
0.934618 0.709587 0.172304
0.180464 0.887657 0.250203
0.17822 0.886255 0.227385
0.266892 0.903418 0.22496
0.558246 0.928257 0.21775
0.7596 0.942821 0.219249
0.928164 0.947702 0.220582
0.011307 0.00008 0.208233
0.143847 0.00008 0.219391
0.366816 0.00008 0.233358
0.659021 0.00008 0.329109
0.858756 0.00008 0.365823
0.99507 0.00008 0.358635
0.032764 0.095395 0.164783
0.097698 0.064519 0.18351
0.268489 0.076721 0.177896
0.595171 0.086032 0.257493
0.830824 0.095265 0.293742
0.982542 0.105172 0.284855
0.059729 0.204736 0.176847
0.101058 0.20728 0.1857
0.268988 0.215838 0.194101
0.574031 0.195858 0.14301
0.813594 0.182951 0.128297
0.97091 0.182211 0.121208
0.098728 0.443931 0.255727
0.104736 0.438352 0.25508
0.203574 0.44163 0.182807
0.544097 0.464301 0.183857
0.794498 0.502002 0.185706
0.949818 0.487787 0.17504
0.142416 0.665257 0.311806
0.14679 0.664702 0.308539
0.147033 0.667333 0.250407
0.548428 0.694691 0.220219
0.779779 0.713818 0.221122
0.937779 0.697163 0.218006
0.186302 0.895386 0.340441
0.18175 0.895087 0.337159
0.152174 0.902007 0.298693
0.497449 0.931356 0.242224
0.741788 0.947874 0.241507
0.928161 0.95315 0.243862
0.021473 0.00008 0.450023
0.237847 0.00008 0.453828
0.482589 0.00008 0.461562
0.667439 0.00008 0.484188
0.869012 0.00008 0.539622
1.001377 0.00008 0.530678
0.051762 0.122779 0.378889
0.104646 0.044272 0.397392
0.37874 0.075388 0.406006
0.598579 0.081098 0.42682
0.839107 0.089433 0.483199
0.990924 0.099497 0.473206
0.062347 0.275493 0.376183
0.093109 0.26326 0.383228
0.249843 0.166757 0.395184
0.584678 0.183056 0.408932
0.829559 0.176667 0.436711
0.983623 0.177865 0.417678
0.102978 0.43934 0.388484
0.110149 0.435994 0.395546
0.201838 0.444431 0.405421
0.578446 0.479363 0.42595
0.814903 0.442565 0.375905
0.971237 0.438121 0.364952
0.150037 0.671248 0.463093
0.1547 0.670934 0.466108
0.158254 0.674066 0.462035
0.508587 0.701242 0.390692
0.784961 0.709072 0.395428
0.944488 0.686082 0.397312
0.19335 0.901833 0.468207
0.183254 0.902999 0.470598
0.151703 0.911348 0.465572
0.447253 0.939224 0.383017
0.731643 0.951894 0.384956
0.932331 0.955066 0.385978
0.030208 0.00008 0.654395
0.308115 0.00008 0.650269
0.555699 0.00008 0.65484
0.726373 0.00008 0.658097
0.868429 0.00008 0.667027
1.006952 0.00008 0.660588
0.075638 0.137957 0.595335
0.148365 0.037364 0.608791
0.453111 0.072494 0.61476
0.656172 0.079433 0.617986
0.844927 0.085978 0.637639
0.995964 0.095567 0.629528
0.082613 0.319389 0.59782
0.113906 0.298673 0.601632
0.282637 0.154582 0.607834
0.62051 0.17254 0.61446
0.838212 0.168866 0.628165
0.990414 0.170263 0.606967
0.118702 0.497608 0.600583
0.124446 0.492583 0.60667
0.210941 0.468 0.619101
0.564752 0.422678 0.625003
0.827177 0.42001 0.614699
0.981731 0.41582 0.578662
0.155436 0.671534 0.617575
0.160214 0.671507 0.622849
0.164063 0.677016 0.637874
0.506665 0.70319 0.624064
0.825417 0.739827 0.659393
0.949058 0.705537 0.613726
0.200233 0.906589 0.619912
0.186667 0.908195 0.623685
0.152881 0.916444 0.632904
0.426495 0.940726 0.583193
0.763506 0.949368 0.604763
0.938639 0.950956 0.600632
0.036093 0.00008 0.790989
0.343764 0.00008 0.779264
0.574075 0.00008 0.778669
0.737828 0.00008 0.776657
0.859726 0.00008 0.77348
1.013907 0.00008 0.777796
0.09577 0.135331 0.749116
0.192281 0.044056 0.753172
0.479338 0.07153 0.757501
0.676791 0.078808 0.760322
0.841124 0.085443 0.762969
1.001639 0.09449 0.767635
0.105154 0.319109 0.755271
0.138206 0.292616 0.757059
0.322141 0.15119 0.756098
0.62776 0.164582 0.757384
0.825251 0.165289 0.759227
0.997935 0.165329 0.760385
0.125067 0.504938 0.760537
0.129482 0.498542 0.766169
0.233878 0.452872 0.772695
0.5718 0.408484 0.775036
0.812916 0.404589 0.771587
0.991251 0.400394 0.757538
0.157278 0.669093 0.759733
0.161845 0.66813 0.765296
0.177267 0.664236 0.779903
0.516494 0.666308 0.780224
0.858008 0.750458 0.824358
0.96455 0.692475 0.758507
0.191975 0.835195 0.77293
0.196031 0.837205 0.778053
0.206494 0.845988 0.791071
0.476367 0.868291 0.778681
0.819722 0.918275 0.817663
0.975117 0.907907 0.799955
