site/assets/luts/freshluts--0002336-retro-nigt.cube
# LUTr-Schema-Version: 2
# LUTr-ID: freshluts--0002336-retro-nigt
# LUTr-Title: retro nigt
# LUTr-Collection: Fresh LUTs
# LUTr-Collection-ID: freshluts-community
# LUTr-Source: https://freshluts.com
# LUTr-Retrieved: 2026-07-27
# LUTr-Source-File: submissions-raw/freshluts/cubes/2336__nigt_luminance_14.C0114.cube
# LUTr-Source-Format: CUBE
# LUTr-Source-SHA256: b6105f4eea875b7caed4156bfe8b74759ff268e35cfce06cd8074673ce82b75b
# LUTr-License: CC0-1.0
# LUTr-License-URL: https://freshluts.com/termsandconditions
# LUTr-License-Basis: site-terms
# LUTr-Transform-Class: creative-look
# LUTr-Tags: creative, freshluts, community, cube, high-contrast, cool, high-key, sony-s-log1, vintage
# LUTr-Input-Color-Space: sony-slog1-sgamut
# LUTr-Input-Gamut: sony-s-gamut
# LUTr-Input-Transfer: sony-s-log1
# LUTr-Output-Color-Space: srgb
# LUTr-Output-Gamut: rec709
# LUTr-Output-Transfer: srgb
# LUTr-Color-Space-Confidence: inferred-from-source-label
# LUTr-Domain-Normalized: true
# LUTr-Shaper: none
# LUTr-Original-Grid: 17x17x17
# LUTr-Conversion-Grid: 17x17x17
# LUTr-Conversion-Interpolation: none
# LUTr-Conversion-Method: Metadata normalization; numeric LUT samples preserved
# LUTr-Conversion-Tool: LUTr scripts/convert-all-to-cube.mjs 2.0.0
# LUTr-Conversion-Date: 2026-07-28
# LUTr-Asset-URL: https://freshluts.com/luts/2336
# LUTr-Author: abhijith t s
# LUTr-Author-URL: https://freshluts.com/users/267812
# LUTr-Attribution: abhijith t s via Fresh LUTs
# LUTr-Source-Labels: gamma=Sony S-Log; color=Cool; key=High Key; style=High contrast
# LUTr-Note: Preserve this metadata and the upstream license notices when redistributing.
TITLE "retro nigt"
LUT_3D_SIZE 5
DOMAIN_MIN 0 0 0
DOMAIN_MAX 1 1 1
0 0 0
0.163241 0 0
0.522271 0 0
0.912566 0 0.0558785
1 0 0.105257
0 0.0564889 0
0.106889 0.0800336 0
0.560174 0.095613 0
1 0.121309 0
1 0.190036 0
0 0.281071 0
0 0.312047 0
0.497612 0.338598 0
1 0.348699 0
1 0.431662 0
0 0.564874 0
0 0.591562 0
0.392416 0.628931 0
0.961547 0.641215 0
1 0.66157 0
0 0.775967 0
0 0.793683 0
0.288457 0.802945 0
0.905287 0.806546 0
1 0.8103 0
0 0 0.247562
0.126162 0 0.312673
0.570397 0 0.285252
0.89781 0 0.242023
1 0 0.261723
0 0.132433 0.213397
0 0.120653 0.206378
0.524392 0.117296 0.167819
0.999557 0.158892 0.187686
1 0.256611 0.263478
0 0.37293 0.16083
0 0.371771 0.128389
0.371481 0.370199 0.137209
1 0.40325 0.0836194
1 0.478828 0.142367
0 0.62977 0.0971542
0 0.64387 0.0442512
0.16701 0.660609 0.0475929
0.890013 0.672312 0.0782483
1 0.6972 0.0919814
0 0.805982 0.0137789
0 0.818662 0
0.184115 0.824826 0
0.868681 0.824308 0.0367895
1 0.832822 0.06392
0 0 0.502556
0 0 0.613291
0.434623 0 0.668299
0.937133 0 0.6766
1 0 0.593881
0 0.163302 0.552254
0 0.164019 0.561471
0.330846 0.111864 0.601633
0.937285 0.102647 0.55816
1 0.174594 0.483497
0 0.43653 0.49044
0 0.466545 0.489708
0.0403906 0.432349 0.494606
0.888914 0.426841 0.451896
1 0.534051 0.499443
0 0.70837 0.416098
0 0.737377 0.393927
0 0.736721 0.372564
0.745846 0.710704 0.418692
1 0.744915 0.454856
0 0.86714 0.321645
0 0.868605 0.288106
0 0.863722 0.248142
0.774395 0.845838 0.313558
1 0.863539 0.396551
0 0 0.76762
0 0 0.907439
0.235874 0 0.929778
0.776242 0 0.962661
1 0 0.967834
0 0.155428 0.851789
0 0.157259 0.856779
0.044007 0.114275 0.881865
0.752804 0.0769665 0.903593
1 0.119524 0.883436
0 0.442466 0.766827
0 0.467903 0.768246
0 0.448096 0.794369
0.69015 0.402716 0.817868
1 0.441642 0.784314
0 0.734783 0.686213
0 0.775265 0.683391
0 0.788769 0.689632
0.549584 0.754025 0.706676
1 0.764385 0.710552
0 0.925277 0.634089
0 0.932998 0.629725
0 0.944656 0.62475
0.667811 0.888136 0.650263
1 0.904372 0.698131
0 0 0.992905
0 0 1
0.134661 0 1
0.673961 0 1
1 0 1
0 0.159472 1
0 0.147982 1
0 0.112139 1
0.643214 0.0582895 1
1 0.087129 1
0 0.438697 0.922469
0 0.442725 0.929259
0 0.415152 0.954253
0.566201 0.351553 0.984283
1 0.388907 0.965026
0 0.705516 0.84036
0 0.735668 0.838727
0 0.754025 0.851453
0.464958 0.724392 0.880598
1 0.71931 0.880659
0 0.91429 0.788205
0 0.924575 0.792142
0 0.94461 0.79884
0.217807 0.931609 0.817365
1 0.927703 0.892683
