site/assets/luts/freshluts--0000154-morning-contrast.cube
# LUTr-Schema-Version: 2
# LUTr-ID: freshluts--0000154-morning-contrast
# LUTr-Title: MORNING CONTRAST
# LUTr-Collection: Fresh LUTs
# LUTr-Collection-ID: freshluts-community
# LUTr-Source: https://freshluts.com
# LUTr-Retrieved: 2026-07-27
# LUTr-Source-File: submissions-raw/freshluts/cubes/154__MORNING__6.C0007.cube
# LUTr-Source-Format: CUBE
# LUTr-Source-SHA256: 50943c238d73786f92fe9cb613e8a7ce516bca892870baada81845d700bd3ad6
# LUTr-License: CC0-1.0
# LUTr-License-URL: https://freshluts.com/termsandconditions
# LUTr-License-Basis: site-terms
# LUTr-Transform-Class: creative-look
# LUTr-Tags: creative, freshluts, community, cube, film-emulation, low-key, rec709
# LUTr-Input-Color-Space: rec709
# LUTr-Input-Gamut: rec709
# LUTr-Input-Transfer: rec709
# LUTr-Output-Color-Space: srgb
# LUTr-Output-Gamut: rec709
# LUTr-Output-Transfer: srgb
# LUTr-Color-Space-Confidence: declared-by-source
# LUTr-Domain-Normalized: true
# LUTr-Shaper: none
# LUTr-Original-Grid: 33x33x33
# LUTr-Conversion-Grid: 33x33x33
# LUTr-Conversion-Interpolation: none
# LUTr-Conversion-Method: Metadata normalization; numeric LUT samples preserved
# LUTr-Conversion-Tool: LUTr scripts/convert-all-to-cube.mjs 2.0.0
# LUTr-Conversion-Date: 2026-07-28
# LUTr-Asset-URL: https://freshluts.com/luts/154
# LUTr-Author: Shamoon Abbasi
# LUTr-Author-URL: https://freshluts.com/users/1258
# LUTr-Attribution: Shamoon Abbasi via Fresh LUTs
# LUTr-Source-Labels: gamma=Rec 709; color=None; key=Low Key; style=Film emulation
# LUTr-Note: Preserve this metadata and the upstream license notices when redistributing.
TITLE "MORNING CONTRAST"
LUT_3D_SIZE 9
DOMAIN_MIN 0 0 0
DOMAIN_MAX 1 1 1
0 0 0
0.0517281 0 0
0.164385 0 0
0.351598 0 0
0.539498 0 0
0.700206 0 0
0.8056 0 0
0.880629 0 0
0.951415 0 0
0 0.0576028 0
0.0550393 0.0550393 0
0.16405 0.0497139 0
0.344427 0.0267948 0
0.535164 0.0041352 0
0.703441 0 0
0.820005 0 0
0.909148 0.0214084 0
0.996109 0.0501411 0
0 0.156588 0
0.0443885 0.15874 0
0.162402 0.162402 0
0.355077 0.151797 0
0.560861 0.144183 0
0.745541 0.148699 0
0.877363 0.171679 0
0.978134 0.20473 0
1 0.239368 0.0226749
0 0.312108 0
0.0124056 0.330053 0
0.146715 0.349996 0
0.353597 0.353597 0
0.569116 0.355734 0
0.757397 0.363851 0
0.887755 0.385367 0
0.986404 0.416312 0
1 0.449378 0.0294041
0 0.520974 0
0.0154879 0.546502 0
0.151156 0.567819 0
0.355993 0.569375 0
0.569497 0.569497 0
0.756634 0.576471 0
0.886519 0.597513 0
0.982086 0.625376 0
1 0.652537 0.0191653
0 0.726513 0
0.0390631 0.750256 0
0.174075 0.770916 0
0.377722 0.771282 0
0.587106 0.767269 0
0.76733 0.76733 0
0.887709 0.778866 0
0.971923 0.795377 0
1 0.810498 0
0 0.90692 0
0.105486 0.925521 0.00314336
0.232609 0.938293 0.0159152
0.42594 0.928344 0.00596628
0.62359 0.912596 0
0.791806 0.900649 0
0.900877 0.900877 0
0.974914 0.90721 0
1 0.913222 0
0.0580148 1 0.0580148
0.166995 1 0.0646525
0.282261 1 0.065568
0.464698 1 0.0447242
0.652552 1 0.0191958
0.8121 0.988647 0
0.913863 0.981567 0
0.981903 0.981903 0
1 0.983215 0
0.0998703 1 0.0998703
0.199435 1 0.0970932
0.306508 1 0.0898299
0.482124 1 0.0621347
0.664454 1 0.0310979
0.819699 1 0.0061799
0.91812 1 0
0.983734 1 0
1 1 0
0 0 0.0530556
0.0514534 0 0.0514534
0.168032 0 0.0536812
0.351263 0 0.0336309
0.538506 0 0.00749218
0.699351 0 0
0.80531 0 0
0.881254 0 0
0.953429 0 0.0074464
0 0.0568856 0.0568856
0.0540169 0.0540169 0.0540169
0.163348 0.049012 0.049012
0.344427 0.0267948 0.0267948
0.536278 0.0052491 0.0052491
0.706004 0 0
0.824201 0.00416571 0.00416571
0.915145 0.0273899 0.0273899
1 0.0577249 0.0577249
0 0.156924 0.0425727
0.0460059 0.160357 0.0460059
0.165545 0.165545 0.051194
0.359915 0.156619 0.0422827
0.567514 0.150835 0.0364843
0.753536 0.156695 0.0423438
0.88603 0.180331 0.0659953
0.986831 0.213443 0.0990921
1 0.247532 0.133181
0 0.317586 0
0.0196384 0.33727 0.0196384
0.155032 0.358312 0.0406806
0.362356 0.362356 0.0447089
0.577691 0.364309 0.0466621
0.76524 0.371679 0.0540475
0.895689 0.393301 0.0756542
0.994476 0.424384 0.106737
1 0.457282 0.139651
0 0.529732 0
0.0238499 0.554879 0.0238499
0.158831 0.575494 0.04448
0.364019 0.577401 0.0463874
0.577554 0.577554 0.0465248
0.764416 0.584237 0.0532235
0.893736 0.60473 0.0737011
0.988479 0.631754 0.100725
1 0.657816 0.126787
0 0.734585 0.0233921
0.0470588 0.758251 0.0470588
0.181689 0.778531 0.0673381
0.384665 0.778225 0.0670329
0.593118 0.773281 0.062089
0.772152 0.772152 0.0609598
0.891218 0.782376 0.0711833
0.974243 0.797696 0.0865034
1 0.811734 0.100542
0 0.913558 0.0935225
0.111101 0.931136 0.111101
0.236942 0.942626 0.122591
0.429007 0.931395 0.11136
0.625498 0.914504 0.0944839
0.79266 0.901503 0.0814679
0.900816 0.900816 0.0807813
0.974014 0.90631 0.0862745
1 0.91165 0.0916152
0.0606546 1 0.162997
0.168505 1 0.168505
0.282765 1 0.168429
0.464317 1 0.146685
0.651377 1 0.120363
0.81033 0.986877 0.0991379
0.911604 0.979309 0.0915694
0.979263 0.979263 0.0915236
1 0.980285 0.092546
0.0991836 1 0.201526
0.198016 1 0.198016
0.304555 1 0.190204
0.479713 1 0.162081
0.661707 1 0.130678
0.816693 1 0.105501
0.914946 1 0.0949111
0.980484 1 0.0927443
1 1 0.0925307
0 0 0.165743
0.0507668 0 0.165118
0.168658 0 0.168658
0.349706 0 0.14641
0.536629 0 0.119951
0.697765 0 0.100923
0.804425 0 0.0987411
0.881483 0 0.10808
0.955093 0 0.123461
0 0.0551156 0.169451
0.0522011 0.0522011 0.166537
0.16199 0.0476387 0.16199
0.343877 0.0262455 0.140597
0.536995 0.00596628 0.120317
0.708247 0 0.111406
0.828122 0.00808728 0.122438
0.920882 0.0331426 0.147494
1 0.0648356 0.179187
0 0.156771 0.156771
0.0472572 0.161608 0.161608
0.168368 0.168368 0.168368
0.364492 0.161196 0.161196
0.573831 0.157168 0.157168
0.760983 0.164141 0.164141
0.893904 0.18822 0.18822
0.994568 0.221164 0.221164
1 0.254536 0.254536
0 0.322835 0.119554
0.0264439 0.344091 0.140795
0.162707 0.365988 0.162707
0.370245 0.370245 0.166949
0.585214 0.371832 0.168536
0.772045 0.3785 0.175204
0.902846 0.400458 0.197162
1 0.431571 0.228275
1 0.46421 0.260929
0 0.53756 0.120882
0.0311131 0.562127 0.145464
0.165789 0.582467 0.165789
0.371221 0.584604 0.167926
0.58468 0.58468 0.168002
0.77116 0.590997 0.174319
0.899825 0.610819 0.194141
0.993652 0.636927 0.220249
1 0.661814 0.245136
0 0.741787 0.144945
0.054078 0.76527 0.168429
0.188235 0.785077 0.188235
0.390463 0.784009 0.187167
0.597879 0.778058 0.181216
0.775662 0.775662 0.178805
0.893431 0.784588 0.187747
0.975311 0.798764 0.201923
1 0.811749 0.214908
0 0.919005 0.213321
0.115434 0.93547 0.22977
0.239963 0.945647 0.239963
0.430793 0.933196 0.227497
0.626169 0.91519 0.209506
0.79234 0.901183 0.195499
0.89958 0.89958 0.193896
0.971984 0.90428 0.198596
1 0.909026 0.203342
0.0620279 1 0.278706
0.168811 1 0.283162
0.282109 1 0.282109
0.462791 1 0.259495
0.649119 1 0.232441
0.807523 0.98407 0.210666
0.908339 0.976043 0.202655
0.975647 0.975647 0.202258
1 0.97641 0.203021
0.0973526 1 0.314046
0.195544 1 0.30988
0.301564 1 0.301564
0.47631 1 0.27303
0.657984 1 0.241306
0.812757 1 0.2159
0.910857 1 0.205173
0.976349 1 0.20296
1 1 0.202777
0 0 0.361181
0.0445258 0 0.362173
0.161608 0 0.364889
0.341512 0 0.341512
0.528374 0 0.314992
0.689967 0 0.296407
0.797421 0 0.295033
0.875746 0 0.305638
0.950866 0 0.32253
0 0.0468147 0.364462
0.0440528 0.0440528 0.3617
0.154437 0.0400854 0.357733
0.337285 0.0196384 0.337285
0.531792 0.000762951 0.318395
0.704616 0 0.311055
0.82623 0.00619516 0.323842
0.920745 0.0330053 0.350652
1 0.0658427 0.383474
0 0.150652 0.353948
0.0426032 0.156954 0.360235
0.165347 0.165347 0.368643
0.363272 0.159991 0.363272
0.574197 0.157519 0.360815
0.762219 0.165377 0.368658
0.895384 0.1897 0.392981
0.995682 0.222293 0.425574
1 0.254917 0.458198
0 0.322286 0.322286
0.0272068 0.344839 0.344839
0.164096 0.367391 0.367391
0.371664 0.371664 0.371664
0.586069 0.372686 0.372686
0.77258 0.379034 0.379034
0.903624 0.401236 0.401236
1 0.432288 0.432288
1 0.464561 0.464561
0 0.538827 0.325444
0.0316167 0.562646 0.349264
0.166445 0.583124 0.369741
0.372015 0.585397 0.372015
0.58529 0.58529 0.371908
0.771298 0.591134 0.377752
0.899229 0.610208 0.396826
0.99202 0.635309 0.421912
1 0.658915 0.445533
0 0.74255 0.349004
0.054551 0.765743 0.372183
0.188128 0.78497 0.391424
0.389517 0.783062 0.389517
0.595834 0.775998 0.382437
0.77229 0.77229 0.378744
0.888838 0.779995 0.386435
0.969589 0.793042 0.399481
1 0.80502 0.411475
0 0.917693 0.41529
0.112917 0.932952 0.430549
0.236133 0.941817 0.439429
0.425772 0.928176 0.425772
0.620081 0.909087 0.406699
0.78526 0.894102 0.391714
0.891646 0.891646 0.389258
0.963317 0.895613 0.39321
1 0.899809 0.397406
0.0565957 1 0.47657
0.162341 1 0.479973
0.274708 1 0.477989
0.454566 1 0.454566
0.640223 0.996948 0.426841
0.798123 0.97467 0.404562
0.898528 0.966232 0.396139
0.965515 0.965515 0.395407
1 0.966049 0.395941
0.0888685 1 0.508843
0.18645 1 0.504097
0.292012 1 0.495293
0.466377 1 0.466377
0.647761 1 0.434379
0.802335 1 0.408774
0.900328 1 0.39794
0.965805 1 0.395697
1 1 0.395575
0 0 0.566308
0.0402075 0 0.571237
0.153231 0 0.569909
0.332509 0 0.545892
0.519509 0 0.519509
0.681666 0 0.501503
0.790066 0 0.50106
0.869764 0 0.513054
0.946471 0 0.531518
0 0.0377966 0.568826
0.0353552 0.0353552 0.566369
0.146441 0.0320897 0.563119
0.330404 0.0127718 0.543786
0.526375 0 0.526375
0.700816 0 0.520653
0.824247 0.00421149 0.535241
0.920348 0.0326085 0.563638
1 0.066331 0.59736
0 0.144289 0.560967
0.0377661 0.152102 0.56878
0.162203 0.162203 0.578866
0.361944 0.158648 0.575326
0.574197 0.157519 0.574197
0.762875 0.166033 0.582712
0.896071 0.190387 0.607065
0.995819 0.222431 0.639109
1 0.254704 0.671382
0 0.321523 0.534905
0.0275273 0.345159 0.558541
0.164828 0.368124 0.581506
0.372213 0.372213 0.585595
0.58587 0.372488 0.58587
0.772503 0.378958 0.59234
0.9037 0.401297 0.614679
1 0.432181 0.645563
1 0.463981 0.677363
0 0.539162 0.539162
0.031281 0.56231 0.56231
0.166461 0.583139 0.583139
0.372045 0.585428 0.585428
0.585046 0.585046 0.585046
0.770489 0.590326 0.590326
0.897566 0.60856 0.60856
0.989258 0.632547 0.632547
1 0.654856 0.654856
0 0.742519 0.562341
0.0541238 0.765316 0.585153
0.187045 0.783886 0.603723
0.387488 0.781033 0.60087
0.592615 0.772778 0.592615
0.767758 0.767758 0.587594
0.883116 0.774273 0.59411
0.962783 0.786236 0.606073
1 0.797253 0.617075
0 0.915251 0.626245
0.109209 0.929244 0.640223
0.231159 0.936843 0.647837
0.419638 0.922042 0.633036
0.612909 0.901915 0.612909
0.777173 0.886015 0.596994
0.882719 0.882719 0.593698
0.953719 0.886015 0.596994
1 0.889693 0.600671
0.0500801 1 0.683436
0.154818 1 0.685847
0.266285 1 0.682963
0.44535 1 0.658747
0.630426 0.987152 0.630426
0.787839 0.964385 0.607675
0.887877 0.955581 0.598856
0.954559 0.954559 0.597848
1 0.954894 0.598184
0.0794232 1 0.712779
0.176471 1 0.7075
0.281575 1 0.698253
0.455604 1 0.668986
0.636728 1 0.636728
0.791135 1 0.610956
0.889067 1 0.600046
0.954528 1 0.597818
1 1 0.597787
0 0 0.74107
0.0359655 0 0.747158
0.146899 0 0.743755
0.325872 0 0.719432
0.513176 0 0.693355
0.676051 0 0.676051
0.78555 0 0.676707
0.866712 0 0.690166
0.945037 0 0.710246
0 0.03122 0.742412
0.0292515 0.0292515 0.740444
0.141146 0.0268101 0.738003
0.32639 0.00875868 0.719951
0.523888 0 0.704051
0.700023 0 0.700023
0.825269 0.00523384 0.716426
0.922728 0.0349889 0.746181
1 0.0693828 0.780575
0 0.140826 0.737667
0.035874 0.150225 0.747066
0.162051 0.162051 0.758892
0.363546 0.16025 0.757092
0.576898 0.16022 0.757061
0.766018 0.169177 0.766018
0.899046 0.193362 0.790204
0.998047 0.224659 0.8215
1 0.257023 0.853864
0 0.323598 0.717159
0.030457 0.348104 0.74165
0.167971 0.371267 0.764813
0.374975 0.374975 0.768521
0.58793 0.374548 0.768093
0.774914 0.381353 0.774914
0.906126 0.403723 0.797284
1 0.434333 0.827893
1 0.465583 0.859144
0 0.54165 0.721813
0.0335088 0.564538 0.744701
0.168917 0.585595 0.765759
0.374411 0.587793 0.767971
0.587045 0.587045 0.767208
0.771817 0.591653 0.771817
0.897963 0.608957 0.78912
0.988479 0.631769 0.811933
1 0.652766 0.832929
0 0.744778 0.744778
0.0559091 0.767102 0.767102
0.188067 0.784909 0.784909
0.387488 0.781033 0.781033
0.591333 0.771511 0.771511
0.765209 0.765209 0.765209
0.879408 0.770565 0.770565
0.958038 0.781491 0.781491
1 0.791562 0.791562
0 0.914824 0.805982
0.107454 0.927489 0.818647
0.228183 0.933867 0.825025
0.415549 0.917952 0.80911
0.607813 0.896819 0.787976
0.77116 0.880003 0.77116
0.875914 0.875914 0.767071
0.946334 0.878614 0.769772
1 0.881819 0.772976
0.0456092 1 0.859129
0.149386 1 0.860578
0.259998 1 0.85684
0.438331 1 0.831876
0.622858 0.979568 0.803021
0.779812 0.956374 0.779812
0.879499 0.947204 0.770657
0.945937 0.945937 0.76939
1 0.946105 0.769558
0.0721752 1 0.88571
0.168719 1 0.879911
0.273411 1 0.870268
0.44712 1 0.840681
0.628031 1 0.808194
0.7823 1 0.7823
0.880171 1 0.771328
0.945693 1 0.769146
1 1 0.769223
0 0 0.850568
0.0357061 0 0.855741
0.145525 0 0.851209
0.324453 0 0.826841
0.512215 0 0.801221
0.675883 0 0.784726
0.786664 0 0.786664
0.869337 0 0.801633
0.94934 0 0.823407
0 0.0299077 0.849943
0.0285344 0.0285344 0.848569
0.141405 0.0270542 0.847089
0.328038 0.0103914 0.830427
0.527108 0 0.816114
0.704997 0 0.81384
0.831983 0.0119478 0.831983
0.930556 0.0428168 0.862852
1 0.0776684 0.897704
0 0.143008 0.848707
0.039704 0.154055 0.859739
0.167697 0.167697 0.873381
0.370748 0.167452 0.873137
0.58497 0.168292 0.873976
0.774304 0.177462 0.883146
0.906966 0.201282 0.906966
1 0.231861 0.937545
1 0.264576 0.97026
0 0.331197 0.8336
0.0386816 0.356313 0.858717
0.176196 0.379492 0.881895
0.38262 0.38262 0.885023
0.595285 0.381903 0.884306
0.782513 0.388952 0.891356
0.913649 0.411261 0.913649
1 0.441489 0.943893
1 0.472084 0.974487
0 0.548959 0.83798
0.041001 0.572015 0.861036
0.176516 0.593194 0.8822
0.381842 0.595224 0.88423
0.593988 0.593988 0.882994
0.778027 0.597848 0.88687
0.903151 0.614145 0.903151
0.992386 0.635676 0.924681
1 0.65539 0.944396
0 0.752071 0.860914
0.062623 0.773816 0.882658
0.193912 0.790753 0.899596
0.392233 0.785779 0.894621
0.594766 0.774929 0.883772
0.767407 0.767407 0.876249
0.880491 0.771649 0.880491
0.958114 0.781567 0.89041
1 0.790738 0.89958
0 0.919097 0.919097
0.110414 0.930449 0.930449
0.229953 0.935637 0.935637
0.416251 0.918639 0.918639
0.607538 0.896544 0.896544
0.770031 0.878874 0.878874
0.874052 0.874052 0.874052
0.943908 0.876204 0.876204
1 0.87895 0.87895
0.0459297 1 0.968307
0.148791 1 0.968826
0.258579 1 0.964263
0.436255 1 0.938643
0.620264 0.976989 0.909285
0.776822 0.953368 0.885664
0.876173 0.943877 0.876173
0.942397 0.942397 0.874693
1 0.942428 0.874723
0.0699016 1 0.992279
0.165972 1 0.986007
0.270283 1 0.975982
0.443717 1 0.946105
0.62443 1 0.913436
0.778592 1 0.887434
0.876448 1 0.876448
0.942016 1 0.874311
1 1 0.87454
0 0 0.924498
0.0378119 0 0.925551
0.147036 0 0.920424
0.326101 0 0.896193
0.514443 0 0.871168
0.679072 0 0.855619
0.791241 0 0.858946
0.875486 0 0.875486
0.957229 0 0.899001
0 0.0317388 0.919478
0.0310674 0.0310674 0.918807
0.145068 0.0307164 0.918456
0.333165 0.0155184 0.903258
0.533867 0.00283818 0.890578
0.713542 0.00236515 0.890105
0.84213 0.0220951 0.909834
0.941588 0.0538491 0.941588
1 0.0889296 0.976669
0 0.148714 0.922103
0.0471046 0.161456 0.934844
0.176913 0.176913 0.950301
0.381277 0.177996 0.951385
0.596155 0.179477 0.952865
0.785504 0.188663 0.962051
0.917617 0.211917 0.985321
1 0.242176 1
1 0.275151 1
0 0.342046 0.912154
0.0499428 0.367575 0.937682
0.187274 0.390555 0.960662
0.392935 0.392935 0.963043
0.605737 0.392355 0.962448
0.793088 0.399542 0.969635
0.924056 0.421653 0.99176
1 0.451423 1
1 0.48127 1
0 0.559152 0.915877
0.0515297 0.582544 0.939269
0.187076 0.603754 0.960464
0.392096 0.605493 0.962203
0.603677 0.603677 0.960403
0.786862 0.606699 0.963409
0.910887 0.621881 0.978592
0.99881 0.6421 0.99881
1 0.660578 1
0 0.762158 0.938704
0.0720378 0.78323 0.959777
0.202396 0.799237 0.975784
0.399496 0.793057 0.969604
0.600732 0.780896 0.957443
0.772183 0.772183 0.94873
0.884184 0.775341 0.951888
0.960845 0.784283 0.960845
1 0.792599 0.969146
0.00350958 0.925872 0.993576
0.115938 0.935973 1
0.234318 0.940002 1
0.419577 0.921981 0.989685
0.609934 0.898955 0.966659
0.771603 0.880446 0.94815
0.874968 0.874968 0.942672
0.944305 0.8766 0.944305
1 0.878935 0.946639
0.0489204 1 1
0.150881 1 1
0.259861 1 1
0.436957 1 1
0.620493 0.977218 0.977218
0.776669 0.953216 0.953216
0.875746 0.94345 0.94345
0.941756 0.941756 0.941756
0.999924 0.94168 0.94168
0.0704356 1 1
0.166049 1 1
0.270024 1 1
0.443198 1 1
0.623743 1 0.980468
0.777829 1 0.954376
0.8757 1 0.943404
0.94136 0.999603 0.94136
1 1 0.941756
0 0 0.987198
0.0402838 0 0.986252
0.149203 0 0.980835
0.328588 0 0.956924
0.517647 0 0.932601
0.683391 0 0.918166
0.797009 0 0.922957
0.882887 0 0.941131
0.96643 0 0.96643
0 0.0344396 0.980423
0.0346075 0.0346075 0.980575
0.149889 0.0355383 0.981521
0.339513 0.0218662 0.967849
0.541909 0.0108797 0.956863
0.723415 0.0122225 0.958206
0.85333 0.0332952 0.979278
0.953445 0.0657054 1
1 0.100816 1
0 0.155657 0.987289
0.0558022 0.170153 1
0.18735 0.18735 1
0.392813 0.189517 1
0.608087 0.191409 1
0.797269 0.200412 1
0.928618 0.222934 1
1 0.2533 1
1 0.286397 1
0 0.353796 0.982132
0.0618753 0.379522 1
0.19881 0.402106 1
0.4038 0.4038 1
0.616953 0.403555 1
0.804334 0.410773 1
0.935012 0.432624 1
1 0.461814 1
1 0.490822 1
0 0.570184 0.985153
0.0627756 0.593805 1
0.198245 0.614908 1
0.402899 0.616281 1
0.613794 0.613794 1
0.796048 0.615885 1
0.918883 0.629862 1
1 0.648783 1
1 0.666072 1
0 0.772732 1
0.0818494 0.793042 1
0.21117 0.808026 1
0.407004 0.800549 1
0.606973 0.787137 1
0.777264 0.777264 1
0.888228 0.779385 1
0.963943 0.787396 1
1 0.794873 1
0.0105287 0.932906 1
0.121736 0.941772 1
0.239002 0.944701 1
0.42327 0.925658 1
0.612726 0.901747 1
0.773602 0.882445 1
0.876371 0.876371 1
0.945235 0.877531 1
1 0.879484 1
0.0522621 1 1
0.153368 1 1
0.261631 1 1
0.438178 1 1
0.621271 0.977996 1
0.777096 0.953643 1
0.875914 0.943618 1
0.941772 0.941772 1
0.999847 0.941619 0.999847
0.0714733 1 1
0.16669 1 1
0.270344 1 1
0.44329 1 1
0.623713 1 1
0.777752 1 1
0.875654 1 1
0.941436 0.99968 0.99968
1 1 1
