site/assets/luts/freshluts--0000775-glut013.cube
# LUTr-Schema-Version: 2
# LUTr-ID: freshluts--0000775-glut013
# LUTr-Title: gLut013
# LUTr-Collection: Fresh LUTs
# LUTr-Collection-ID: freshluts-community
# LUTr-Source: https://freshluts.com
# LUTr-Retrieved: 2026-07-27
# LUTr-Source-File: submissions-raw/freshluts/cubes/775__Untitled_1.MVI_0401.cube
# LUTr-Source-Format: CUBE
# LUTr-Source-SHA256: 13a2b0c4e45c3f51cc944700b4110db9efce8207509b895f4e06a2296741f586
# LUTr-License: CC0-1.0
# LUTr-License-URL: https://freshluts.com/termsandconditions
# LUTr-License-Basis: site-terms
# LUTr-Transform-Class: creative-look
# LUTr-Tags: creative, freshluts, community, cube, warm, low-key, canon-cinestyle
# LUTr-Input-Color-Space:
# LUTr-Input-Gamut: rec709
# LUTr-Input-Transfer: canon-cinestyle
# LUTr-Output-Color-Space: srgb
# LUTr-Output-Gamut: rec709
# LUTr-Output-Transfer: srgb
# LUTr-Color-Space-Confidence: camera-profile-input-required
# LUTr-Domain-Normalized: true
# LUTr-Shaper: none
# LUTr-Original-Grid: 33x33x33
# LUTr-Conversion-Grid: 33x33x33
# LUTr-Conversion-Interpolation: none
# LUTr-Conversion-Method: Metadata normalization; numeric LUT samples preserved
# LUTr-Conversion-Tool: LUTr scripts/convert-all-to-cube.mjs 2.0.0
# LUTr-Conversion-Date: 2026-07-28
# LUTr-Asset-URL: https://freshluts.com/luts/775
# LUTr-Author: directorgodfrey_M
# LUTr-Author-URL: https://freshluts.com/users/1455
# LUTr-Attribution: directorgodfrey_M via Fresh LUTs
# LUTr-Source-Labels: gamma=Canon Cinestyle; color=Warm; key=Low Key; style=Cinematic light
# LUTr-Note: Preserve this metadata and the upstream license notices when redistributing.
TITLE "gLut013"
LUT_3D_SIZE 9
DOMAIN_MIN 0 0 0
DOMAIN_MAX 1 1 1
0 0.00270085 0.027039
0.155169 0 0.00895705
0.39823 0 0
0.6486 0 0
0.937301 0 0
1 0 0
1 0 0
1 0 0
1 0 0.000610361
0 0.15288 0
0.102739 0.145647 0
0.370672 0.12842 0
0.597955 0.119722 0
0.875517 0.117113 0
1 0.121218 0
1 0.133593 0
1 0.151858 0.000106813
1 0.174029 0.0213321
0 0.3514 0
0.031342 0.345953 0
0.307637 0.328969 0
0.558999 0.312703 0
0.85774 0.30222 0
1 0.305272 0
1 0.318868 0
1 0.337667 0
1 0.359304 0
0 0.553216 0
0 0.54786 0
0.241642 0.530953 0
0.491646 0.514107 0
0.775494 0.501701 0
1 0.497505 0
1 0.502312 0
1 0.513939 0
1 0.529427 0
0 0.741299 0
0 0.734432 0
0.188022 0.716121 0
0.443 0.697108 0
0.701823 0.681788 0
0.955947 0.674311 0
1 0.674708 0
1 0.6804 0
1 0.689067 0
0 0.909407 0
0 0.89929 0
0.157946 0.877134 0
0.413397 0.853895 0
0.652598 0.833921 0
0.900389 0.821759 0
1 0.817243 0
1 0.817945 0
1 0.822049 0
0 1 0
0 1 0
0.146929 1 0
0.399252 0.982376 0
0.625559 0.95758 0
0.866667 0.940688 0
1 0.93167 0
1 0.928145 0
1 0.928374 0
0 1 0
0 1 0
0.144762 1 0
0.392844 1 0
0.611734 1 0
0.846433 1 0
1 1 0
1 1 0
1 1 0
0 1 0
0 1 0
0.14519 1 0
0.389776 1 0
0.603616 1 0
0.833402 1 0
1 1 0
1 1 0
1 1 0
0 0 0.207691
0.146777 0 0.190127
0.400504 0 0.162493
0.666377 0 0.141543
0.974685 0 0.128786
1 0 0.125811
1 0 0.132296
1 0 0.145892
1 0 0.164187
0 0.149477 0.166598
0.0987564 0.142794 0.160098
0.366842 0.126207 0.143908
0.613275 0.113405 0.131243
0.906264 0.106981 0.124987
1 0.108705 0.126604
1 0.119524 0.136904
1 0.13669 0.153277
1 0.157671 0.173281
0 0.348959 0.118837
0.0274815 0.343221 0.113252
0.304417 0.326619 0.0973373
0.555428 0.310369 0.0819257
0.826978 0.305913 0.0929122
1 0.311589 0.104952
1 0.32401 0.118578
1 0.341436 0.135897
1 0.361715 0.155566
0 0.550896 0.0742351
0 0.545235 0.0686503
0.238071 0.528435 0.052369
0.488029 0.511437 0.035935
0.770123 0.498451 0.0238651
1 0.494423 0.0206455
1 0.500725 0.0343175
1 0.514488 0.0562142
1 0.53164 0.0800946
0 0.738567 0.0435035
0 0.731487 0.036408
0.183474 0.712902 0.0184787
0.438849 0.693553 0
0.695018 0.677638 0
0.948592 0.669764 0
1 0.669688 0
1 0.674891 0
1 0.683299 0
0 0.905577 0.0336767
0 0.895155 0.0237888
0.151812 0.872526 0.00146487
0.407614 0.848722 0
0.643442 0.828229 0
0.89073 0.815595 0
1 0.810636 0
1 0.810849 0
1 0.814542 0
0 1 0.0393072
0 1 0.0248722
0.138766 1 0
0.391684 0.975387 0
0.615015 0.950301 0
0.854917 0.933028 0
1 0.923568 0
1 0.919692 0
1 0.919524 0
0 1 0.0506142
0 1 0.0311131
0.134813 1 0.0000762951
0.384146 1 0
0.599908 1 0
0.832929 1 0
1 1 0
1 1 0
1 1 0
0 1 0.061738
0 1 0.038407
0.133883 1 0.00376898
0.379751 1 0
0.590692 1 0
0.818479 1 0
0.998734 1 0
1 1 0
1 1 0
0 0 0.443549
0.13373 0 0.424567
0.391104 0 0.396292
0.654795 0 0.375235
0.964355 0 0.362524
1 0 0.359457
1 0 0.366445
1 0 0.380819
1 0 0.400381
0 0.142535 0.402838
0.0901961 0.136095 0.396017
0.362219 0.118837 0.378058
0.62089 0.102251 0.361196
0.93167 0.0908064 0.349645
1 0.0887312 0.347448
1 0.0963149 0.354833
1 0.110842 0.369253
1 0.129549 0.388174
0 0.342535 0.352361
0.0193332 0.336843 0.346593
0.296712 0.320287 0.330144
0.540322 0.305959 0.315679
0.822293 0.299062 0.308751
1 0.300832 0.310399
1 0.310735 0.319982
1 0.326207 0.334997
1 0.34522 0.353536
0 0.544396 0.306203
0 0.538857 0.300633
0.229847 0.521889 0.283879
0.480095 0.504662 0.266941
0.758938 0.491493 0.254383
0.99321 0.492424 0.268437
1 0.502907 0.28574
1 0.516899 0.301717
1 0.533501 0.318898
0 0.731594 0.274266
0 0.724529 0.267063
0.173983 0.705623 0.248005
0.430503 0.685924 0.228489
0.682536 0.669642 0.212467
0.935439 0.661295 0.204166
1 0.660685 0.203616
1 0.666148 0.213169
1 0.676173 0.229313
0 0.897581 0.263249
0 0.8869 0.25243
0.140734 0.863859 0.229541
0.397543 0.839368 0.205493
0.628687 0.81857 0.18497
0.87512 0.805371 0.171908
1 0.799924 0.166461
1 0.799725 0.166186
1 0.803037 0.16936
0 1 0.267597
0 1 0.251987
0.125811 0.993347 0.224308
0.379965 0.964492 0.195483
0.599374 0.938979 0.170352
0.83714 0.921294 0.152895
1 0.911437 0.14313
1 0.907271 0.138979
1 0.906752 0.138399
0 1 0.277546
0 1 0.257237
0.119982 1 0.225025
0.37026 1 0.192187
0.583169 1 0.16321
0.813519 1 0.142138
0.997009 1 0.128954
1 0.993469 0.121782
1 0.990082 0.11841
0 1 0.28748
0 1 0.263325
0.11754 1 0.227436
0.364645 1 0.191516
0.573098 1 0.159548
0.797711 1 0.135668
0.977691 1 0.120043
1 1 0.110597
1 1 0.10515
0 0 0.661158
0.120699 0 0.646036
0.382773 0 0.625772
0.644007 0 0.609812
0.954208 0 0.599847
1 0 0.597391
1 0 0.60322
1 0 0.614755
1 0 0.630304
0 0.135943 0.632059
0.0818036 0.129534 0.626627
0.354665 0.112459 0.612451
0.611765 0.0959335 0.598947
0.921614 0.0843366 0.5888
1 0.0825055 0.587015
1 0.090074 0.593622
1 0.104448 0.605417
1 0.123125 0.620493
0 0.336126 0.591318
0.0113069 0.330587 0.586221
0.289082 0.314031 0.571099
0.539574 0.297734 0.556023
0.837064 0.285985 0.544991
1 0.283589 0.542611
1 0.29012 0.548577
1 0.302754 0.560128
1 0.319509 0.575311
0 0.538079 0.548409
0 0.532555 0.543069
0.221653 0.515435 0.526635
0.47245 0.497749 0.509407
0.741207 0.486366 0.497688
0.984314 0.485649 0.496666
1 0.492317 0.503136
1 0.503807 0.514366
1 0.518456 0.528603
0 0.725002 0.516838
0 0.717647 0.509346
0.164523 0.698329 0.489525
0.421744 0.677913 0.467811
0.669856 0.661509 0.449973
0.920974 0.652979 0.441794
1 0.656214 0.455573
1 0.665492 0.470878
1 0.676692 0.484764
0 0.889784 0.504585
0 0.878584 0.493019
0.129488 0.855039 0.468101
0.38764 0.830091 0.441123
0.614603 0.808865 0.418311
0.859556 0.795193 0.403586
1 0.788983 0.396857
1 0.78854 0.396551
1 0.792264 0.403998
0 1 0.507271
0 1 0.490867
0.112718 0.983185 0.460639
0.367544 0.953658 0.428565
0.584298 0.927703 0.400732
0.819348 0.909529 0.381247
1 0.899168 0.370367
1 0.894759 0.365728
1 0.893965 0.364828
0 1 0.515663
0 1 0.494743
0.105058 1 0.459724
0.356252 1 0.423468
0.566949 1 0.391516
0.794003 1 0.368566
0.977142 0.987488 0.354467
1 0.980484 0.346746
1 0.976852 0.342992
0 1 0.524254
0 1 0.499718
0.101366 1 0.461234
0.349401 1 0.421546
0.556039 1 0.386481
0.776974 1 0.360861
0.95671 1 0.344381
1 1 0.334386
1 1 0.328511
0 0 0.839673
0.110567 0 0.825086
0.375952 0 0.806745
0.636301 0 0.791485
0.946273 0 0.78114
1 0 0.779034
1 0 0.784955
1 0 0.796551
1 0 0.812451
0 0.130816 0.813626
0.0756695 0.12488 0.808591
0.349111 0.107912 0.794415
0.605173 0.0914626 0.780667
0.914458 0.0798962 0.770962
1 0.0780804 0.769345
1 0.0856336 0.775479
1 0.0996567 0.786984
1 0.118456 0.802441
0 0.331395 0.773083
0.00543221 0.326146 0.768627
0.283452 0.30959 0.754833
0.5337 0.293172 0.741146
0.82974 0.281407 0.731304
1 0.278874 0.729091
1 0.285161 0.734173
1 0.297429 0.744198
1 0.313909 0.757702
0 0.533547 0.734325
0 0.527962 0.729534
0.215396 0.510658 0.715023
0.466804 0.492576 0.699916
0.740124 0.479042 0.688624
0.997726 0.473823 0.68423
1 0.476844 0.68661
1 0.485557 0.69369
1 0.49778 0.7037
0 0.719997 0.706279
0 0.712383 0.699657
0.157092 0.692714 0.682765
0.41503 0.671855 0.664866
0.659358 0.654932 0.650309
0.894347 0.650187 0.647105
1 0.651469 0.648524
1 0.65771 0.654169
1 0.666712 0.662165
0 0.883604 0.69485
0 0.871931 0.684794
0.120043 0.847684 0.663996
0.378973 0.822354 0.642283
0.603021 0.800641 0.623682
0.846265 0.786542 0.611658
1 0.780545 0.609277
1 0.78381 0.621195
1 0.790234 0.631128
0 1 0.695735
0 1 0.681514
0.101213 0.974304 0.65658
0.356741 0.94435 0.63093
0.571649 0.917998 0.608576
0.803845 0.899306 0.592569
0.991196 0.888685 0.582666
1 0.883879 0.578119
1 0.883009 0.578607
0 1 0.701457
0 1 0.683421
0.0922103 1 0.654887
0.344015 1 0.625757
0.553231 1 0.600351
0.776791 0.989654 0.580179
0.959686 0.976349 0.567178
1 0.968627 0.559808
1 0.964782 0.5561
0 1 0.707729
0 1 0.68658
0.0872511 1 0.655146
0.335973 1 0.623346
0.54139 1 0.595453
0.758633 1 0.572442
0.938155 1 0.557107
1 1 0.547539
1 1 0.541726
0 0 0.985229
0.105669 0 0.972244
0.372976 0 0.955123
0.633249 0 0.940398
0.943542 0 0.930266
1 0 0.928252
1 0 0.934203
1 0 0.945815
1 0 0.96173
0 0.129381 0.962661
0.0734417 0.123537 0.957717
0.347127 0.106661 0.943633
0.602548 0.0899672 0.929686
0.912032 0.0787518 0.920287
1 0.076936 0.918654
1 0.0844434 0.924758
1 0.0983902 0.936172
1 0.117037 0.951492
0 0.33022 0.922377
0.00343328 0.325002 0.917952
0.281514 0.308431 0.90454
0.531334 0.291646 0.890547
0.827039 0.280064 0.880858
1 0.277363 0.878508
1 0.283116 0.883146
1 0.295415 0.893202
1 0.311498 0.906371
0 0.532311 0.88397
0 0.526574 0.879042
0.212879 0.509041 0.864347
0.464469 0.49073 0.849058
0.736355 0.476905 0.837537
0.993454 0.471321 0.832837
1 0.473686 0.834684
1 0.482063 0.841474
1 0.493812 0.851072
0 0.718074 0.855299
0 0.710124 0.848402
0.153277 0.690044 0.831159
0.411475 0.668879 0.813001
0.653513 0.651484 0.798047
0.904616 0.641688 0.789578
1 0.639353 0.787503
1 0.642664 0.790249
1 0.649149 0.795697
0 0.880369 0.842756
0 0.868284 0.832349
0.114443 0.843488 0.811078
0.373404 0.817731 0.789014
0.595682 0.795453 0.769924
0.834211 0.781415 0.759472
1 0.7794 0.759274
1 0.781033 0.760876
1 0.785214 0.76463
0 1 0.842298
0 0.997635 0.827665
0.0937667 0.968521 0.802319
0.34931 0.938048 0.776242
0.562936 0.911284 0.753323
0.792935 0.892195 0.736965
0.979873 0.881285 0.727596
1 0.877104 0.727611
1 0.879149 0.736584
0 1 0.846708
0 1 0.828168
0.0830549 1 0.799374
0.335103 1 0.769955
0.543435 1 0.743923
0.764401 0.981979 0.724666
0.946883 0.96791 0.712612
1 0.959884 0.705715
1 0.955673 0.702098
0 1 0.851835
0 1 0.830274
0.0768597 1 0.798733
0.326009 1 0.766735
0.530587 1 0.738201
0.745007 1 0.716884
0.924208 1 0.702846
1 1 0.694148
1 1 0.688869
0 0 1
0.105745 0 1
0.374105 0 1
0.63505 0 1
0.945586 0 1
1 0 1
1 0 1
1 0 1
1 0 1
0 0.131319 1
0.0751965 0.125566 1
0.348821 0.108766 1
0.604562 0.0920729 1
0.914366 0.0809339 1
1 0.0791028 1
1 0.0862593 1
1 0.100359 1
1 0.118868 1
0 0.332403 1
0.00534066 0.327184 1
0.283146 0.31043 1
0.533089 0.293736 1
0.829007 0.281987 0.997147
1 0.279088 0.994629
1 0.284611 0.999069
1 0.29662 1
1 0.312352 1
0 0.53434 1
0 0.52845 0.995315
0.213809 0.510353 0.980148
0.465278 0.492073 0.964889
0.737072 0.477913 0.953109
0.993698 0.471992 0.948135
1 0.47396 0.949645
1 0.481834 0.956039
1 0.493004 0.965148
0 0.719341 0.971099
0 0.710994 0.963882
0.152987 0.690257 0.94609
0.411017 0.668894 0.927764
0.652232 0.651072 0.912474
0.902358 0.640558 0.903807
1 0.637949 0.901488
1 0.640696 0.903761
1 0.646693 0.908782
0 0.880201 0.957351
0 0.867597 0.946517
0.112596 0.842359 0.924895
0.371237 0.816159 0.902861
0.592554 0.793423 0.883375
0.832761 0.778058 0.870192
1 0.770748 0.863859
1 0.768994 0.862303
1 0.770596 0.863615
0 1 0.955474
0 0.995315 0.940444
0.0901045 0.965835 0.914824
0.345418 0.93492 0.888747
0.558129 0.907668 0.865431
0.786572 0.888167 0.848722
0.967529 0.878172 0.842969
1 0.87686 0.843702
1 0.877729 0.844785
0 1 0.958618
0 1 0.939742
0.0777447 1 0.910674
0.329732 1 0.881331
0.537285 0.999069 0.854917
0.756558 0.976883 0.835523
0.938704 0.962585 0.82327
1 0.954284 0.816144
1 0.951293 0.81828
0 1 0.962661
0 1 0.940871
0.0702525 1 0.909255
0.319524 1 0.877272
0.523674 1 0.848554
0.736065 1 0.82707
0.914977 1 0.812863
1 1 0.803922
1 1 0.79855
0 0 1
0.108995 0 1
0.378134 0 1
0.640391 0 1
0.951247 0 1
1 0 1
1 0 1
1 0 1
1 0 1
0 0.13576 1
0.0798962 0.130114 1
0.353185 0.113313 1
0.609888 0.0967117 1
0.920226 0.0855879 1
1 0.0837262 1
1 0.0907301 1
1 0.104768 1
1 0.123064 1
0 0.337072 1
0.0101778 0.331853 1
0.287617 0.314946 1
0.537652 0.298268 1
0.834501 0.286381 1
1 0.283116 1
1 0.288441 1
1 0.30013 1
1 0.315511 1
0 0.53875 1
0 0.532708 1
0.217975 0.514427 1
0.468482 0.495857 1
0.741192 0.481315 1
0.996826 0.474662 1
1 0.476463 1
1 0.483925 1
1 0.494469 1
0 0.722881 1
0 0.714015 1
0.155779 0.693019 1
0.412879 0.671122 1
0.654231 0.652811 1
0.903685 0.641855 0.993149
1 0.638804 0.990463
1 0.641077 0.992309
1 0.646311 0.996704
0 0.882368 1
0 0.868955 1
0.113405 0.843427 1
0.371466 0.816754 0.991592
0.592294 0.793576 0.971756
0.831876 0.777798 0.958236
1 0.770016 0.951522
1 0.767788 0.949554
1 0.768872 0.950423
0 1 1
0 0.995102 1
0.0890822 0.965316 1
0.34406 0.93402 0.976242
0.556023 0.906218 0.952468
0.783703 0.886488 0.935592
0.969604 0.874846 0.925597
1 0.869078 0.920623
1 0.866896 0.918715
0 1 1
0 1 1
0.0752422 1 0.997772
0.327016 1 0.967788
0.534005 0.996536 0.941054
0.752102 0.974105 0.921462
0.933883 0.959533 0.909255
1 0.952697 0.907271
1 0.951537 0.908263
0 1 1
0 1 1
0.0665446 1 0.995315
0.315679 1 0.96286
0.519493 1 0.933974
0.73051 1 0.912352
0.909178 1 0.89839
1 1 0.889296
1 1 0.88426
0 0 1
0.114626 0 1
0.383658 0 1
0.648463 0 1
0.95935 0 1
1 0 1
1 0 1
1 0 1
1 0 1
0 0.141894 1
0.0865949 0.136339 1
0.359136 0.11931 1
0.617533 0.103059 1
0.928496 0.0919203 1
1 0.0899977 1
1 0.0969406 1
1 0.110826 1
1 0.128893 1
0 0.343435 1
0.0169833 0.338201 1
0.293919 0.321111 1
0.544121 0.304402 1
0.842283 0.292363 1
1 0.28867 1
1 0.293919 1
1 0.305211 1
1 0.320073 1
0 0.544762 1
0 0.53843 1
0.223941 0.520012 1
0.473304 0.501213 1
0.747631 0.48632 1
1 0.479194 1
1 0.480491 1
1 0.487419 1
1 0.497444 1
0 0.727871 1
0 0.718593 1
0.160418 0.697292 1
0.416342 0.674937 1
0.65832 0.65594 1
0.907103 0.644556 1
1 0.641032 1
1 0.642878 1
1 0.6477 1
0 0.885954 1
0 0.872099 1
0.116136 0.846052 1
0.373358 0.818814 1
0.593591 0.794903 1
0.833066 0.778943 1
1 0.770764 1
1 0.768032 1
1 0.768841 1
0 1 1
0 0.996567 1
0.0898451 0.966278 1
0.34432 0.934539 1
0.555886 0.906386 1
0.783078 0.886336 1
0.968505 0.874357 0.995865
1 0.86807 0.990448
1 0.865736 0.988403
0 1 1
0 1 1
0.0744945 1 1
0.326009 1 1
0.532662 0.995636 1
0.750011 0.9729 0.991119
0.93138 0.958053 0.978408
1 0.949203 0.97081
1 0.944945 0.967025
0 1 1
0 1 1
0.064683 1 1
0.313558 1 1
0.517189 1 1
0.72726 1 0.981323
0.905638 1 0.966812
1 1 0.957595
1 1 0.95816
