site/assets/luts/freshluts--0001253-sandy-4k-lut.cube
# LUTr-Schema-Version: 2
# LUTr-ID: freshluts--0001253-sandy-4k-lut
# LUTr-Title: SANDY 4K LUT
# LUTr-Collection: Fresh LUTs
# LUTr-Collection-ID: freshluts-community
# LUTr-Source: https://freshluts.com
# LUTr-Retrieved: 2026-07-27
# LUTr-Source-File: submissions-raw/freshluts/cubes/1253__san_4k_lut.cube
# LUTr-Source-Format: CUBE
# LUTr-Source-SHA256: 704904a67fe8692d089d205ab133173093972110b4fabd2351cc964b730edc76
# LUTr-License: CC0-1.0
# LUTr-License-URL: https://freshluts.com/termsandconditions
# LUTr-License-Basis: site-terms
# LUTr-Transform-Class: creative-look
# LUTr-Tags: creative, freshluts, community, cube, sony-s-log3
# LUTr-Input-Color-Space: sony-slog3-sgamut3
# LUTr-Input-Gamut: sony-s-gamut3
# LUTr-Input-Transfer: sony-s-log3
# LUTr-Output-Color-Space: srgb
# LUTr-Output-Gamut: rec709
# LUTr-Output-Transfer: srgb
# LUTr-Color-Space-Confidence: inferred-from-source-label
# LUTr-Domain-Normalized: true
# LUTr-Shaper: none
# LUTr-Original-Grid: 33x33x33
# LUTr-Conversion-Grid: 33x33x33
# LUTr-Conversion-Interpolation: none
# LUTr-Conversion-Method: Metadata normalization; numeric LUT samples preserved
# LUTr-Conversion-Tool: LUTr scripts/convert-all-to-cube.mjs 2.0.0
# LUTr-Conversion-Date: 2026-07-28
# LUTr-Asset-URL: https://freshluts.com/luts/1253
# LUTr-Author: Antony Eliezer
# LUTr-Author-URL: https://freshluts.com/users/32961
# LUTr-Attribution: Antony Eliezer via Fresh LUTs
# LUTr-Source-Labels: gamma=Sony S-Log 3; color=None; key=Neutral; style=Teal - Orange
# LUTr-Note: Preserve this metadata and the upstream license notices when redistributing.
# LUTr-Upstream-Comment: VEGAS Pro LUT
TITLE "SANDY 4K LUT"
LUT_3D_SIZE 9
DOMAIN_MIN 0 0 0
DOMAIN_MAX 1 1 1
-0.06030042 0.00817912 -0.02540345
0.00053273 -0.00361455 -0.03844621
0.16146803 -0.02488093 -0.05939073
0.38267446 -0.0524708 -0.08667963
0.61667359 -0.0812635 -0.11476338
0.80922306 -0.10669923 -0.13963114
0.96438175 -0.12804535 -0.16184929
1.0306208 -0.13689841 -0.17179759
1.0900825 -0.14436343 -0.1809814
-0.08191767 0.07052307 -0.0174357
-0.02330084 0.05307464 -0.04548436
0.10358097 0.02689242 -0.07199828
0.3157379 0.00008997 -0.09821838
0.56093371 -0.02839503 -0.12654871
0.76827818 -0.0540565 -0.15215796
0.93554294 -0.07595207 -0.17577022
1.0211287 -0.08660645 -0.18915623
1.0821587 -0.09350832 -0.19948916
-0.10885633 0.16869549 0.04951658
-0.04874955 0.15015344 0.02470537
0.05972747 0.13712244 -0.02441413
0.2825672 0.10151564 -0.07174874
0.53405041 0.06355757 -0.1213333
0.74595821 0.02978075 -0.16054684
0.91831505 0.00074374 -0.19229196
1.0177959 -0.01843773 -0.20991951
1.0794623 -0.03229945 -0.22040696
-0.13842161 0.29315627 0.1486868
-0.07731371 0.27281207 0.12184663
0.01076847 0.25763151 0.08009147
0.23382448 0.24195628 0.00771219
0.50288832 0.2080214 -0.06917521
0.7218259 0.17023949 -0.13791277
0.90096051 0.14201324 -0.18909955
1.0119013 0.12237521 -0.21628894
1.0740231 0.10694946 -0.22770254
-0.15662585 0.44511491 0.2637468
-0.0966405 0.42389941 0.23813319
-0.02099223 0.40713322 0.20824854
0.18373425 0.39203119 0.12815076
0.46931183 0.37534973 0.0323003
0.69862646 0.34457332 -0.05873638
0.8774637 0.31536621 -0.12849459
1.0013366 0.29846832 -0.16499344
1.0611786 0.28280252 -0.17600803
-0.15346527 0.60064918 0.35181671
-0.09388207 0.58305919 0.33098719
-0.03057628 0.57359827 0.31673345
0.15803243 0.56306344 0.25690436
0.4204399 0.55011696 0.18008019
0.67351794 0.53875941 0.10605705
0.86429381 0.51457125 0.03610583
0.986817 0.50743777 0.00833463
1.043776 0.49455515 -0.00353787
-0.14709017 0.73830587 0.40507048
-0.08524938 0.72444272 0.38903186
-0.02359094 0.71673405 0.37904266
0.12746206 0.71481287 0.34684548
0.38568693 0.70975018 0.29479086
0.61736465 0.70342833 0.25033802
0.80076939 0.69420457 0.21548177
0.96476465 0.68168318 0.18184546
1.0288733 0.67234504 0.17551273
-0.15123342 0.85312927 0.43233144
-0.09068877 0.84406883 0.42311829
-0.03074496 0.83907109 0.41964331
0.07543133 0.8454982 0.41989088
0.32721487 0.84462279 0.3846226
0.56800103 0.84652424 0.35603249
0.75315034 0.83551133 0.32902366
0.90213025 0.82686192 0.30952561
0.98270416 0.81906307 0.30187199
-0.15908602 0.90773529 0.42365342
-0.10009966 0.90299869 0.42259458
-0.04176324 0.89953929 0.42451006
0.02638018 0.91394025 0.44193628
0.26583123 0.91773224 0.41509455
0.51485282 0.92575121 0.39291397
0.71767479 0.92199159 0.37000033
0.87398142 0.91355067 0.34958509
0.96738517 0.90959948 0.34267512
-0.06367214 0.01893746 0.05676576
-0.00305337 -0.00185195 0.02658925
0.15110572 -0.02801656 0.0006744
0.37109554 -0.05589434 -0.02673962
0.6076805 -0.0845607 -0.05475788
0.80287945 -0.10994672 -0.07961438
0.96040219 -0.13135296 -0.10198782
1.0305334 -0.14054926 -0.11254261
1.0902609 -0.14787602 -0.12189901
-0.0821799 0.06226517 0.03551449
-0.0235808 0.04489738 0.00945478
0.09516694 0.02254795 -0.01300122
0.30666521 -0.00314371 -0.03817486
0.55297101 -0.03146223 -0.06652269
0.76324034 -0.05714147 -0.09235728
0.93276864 -0.07909703 -0.11628591
1.0216261 -0.09002756 -0.13031529
1.0828948 -0.09681073 -0.14083503
-0.10824225 0.16003324 0.10176952
-0.04819321 0.14182247 0.07756983
0.05409163 0.12941639 0.03080923
0.27451417 0.09476779 -0.01442113
0.52724838 0.05712181 -0.0632861
0.74250239 0.02333682 -0.10205995
0.91671157 -0.0054545 -0.1334185
1.0186169 -0.02469203 -0.15129673
1.0802118 -0.03796959 -0.16144097
-0.13757229 0.28435245 0.20090495
-0.07617377 0.26466614 0.17455949
0.00905908 0.24944717 0.13411266
0.22991198 0.23432295 0.06280928
0.49926075 0.2005121 -0.01318239
0.72026205 0.16315833 -0.08092088
0.90023512 0.13522868 -0.13121438
1.0128585 0.11567475 -0.15813096
1.0746525 0.10085497 -0.16833669
-0.15642007 0.43609098 0.3166444
-0.09590617 0.41520599 0.2907024
-0.02105253 0.39882481 0.26145315
0.18128735 0.38418871 0.18189618
0.46745923 0.36731872 0.08614407
0.69635099 0.33718437 -0.0026401
0.87529057 0.30806741 -0.07131797
1.0013258 0.29171929 -0.10676146
1.0607605 0.27654478 -0.11645374
-0.15354678 0.59311289 0.4065907
-0.09363192 0.57565433 0.38560185
-0.03031458 0.56639594 0.37163627
0.15471061 0.5558452 0.31277487
0.41526008 0.54327476 0.23677121
0.66896677 0.53250128 0.16361038
0.85999966 0.50841349 0.09391481
0.98518366 0.50203425 0.06684463
1.0425519 0.48917645 0.05484372
-0.14635533 0.73225999 0.46159336
-0.08460686 0.71869671 0.44615957
-0.02328968 0.71110731 0.43685046
0.12127124 0.7093423 0.40714824
0.37739956 0.70446068 0.35565948
0.60972685 0.69888991 0.31246889
0.79414946 0.69010311 0.27816823
0.96102834 0.67758894 0.24343584
1.0280688 0.66848105 0.23649316
-0.1509973 0.84897494 0.49133474
-0.0908301 0.8401742 0.48323596
-0.03134369 0.83486688 0.48048967
0.06666059 0.84161574 0.48319316
0.31670579 0.84034759 0.44836855
0.55899513 0.84295654 0.41973642
0.74722773 0.83245826 0.39220977
0.89835012 0.82391697 0.37187925
0.98210639 0.81616408 0.36328644
-0.15946382 0.9052791 0.48580617
-0.10084548 0.90068644 0.48568451
-0.04276276 0.89702851 0.48793304
0.02266826 0.91127187 0.50588012
0.25619867 0.91523242 0.48004207
0.50701892 0.9237358 0.45732182
0.71318722 0.92056692 0.43383253
0.87126184 0.9121272 0.4127031
0.96687818 0.90818381 0.40516877
-0.07603203 0.07062381 0.20715244
-0.01080424 0.04948748 0.16809469
0.13627344 0.0351063 0.1279545
0.36337525 0.00208346 0.0782748
0.60189402 -0.03475916 0.02890902
0.79783887 -0.0695494 -0.01102578
0.95720673 -0.10064565 -0.04176262
1.0309973 -0.12114894 -0.05413038
1.0907816 -0.13959314 -0.06351265
-0.09055 0.0977098 0.16018547
-0.02987345 0.07839435 0.13136069
0.08335078 0.06172815 0.09073753
0.29789704 0.03258061 0.05223571
0.54685366 -0.00300475 0.00828299
0.75900024 -0.03825352 -0.0281322
0.93038172 -0.07039483 -0.05690648
1.0222291 -0.09147629 -0.07164435
1.0836649 -0.10004914 -0.08220153
-0.10775033 0.15229879 0.15541635
-0.04755346 0.1345014 0.13162455
0.04892576 0.12248544 0.08674173
0.26705542 0.08844136 0.04300596
0.52112591 0.05090138 -0.00528375
0.7394231 0.01697869 -0.04367391
0.91529274 -0.01155627 -0.07459492
1.0193657 -0.03063726 -0.09252651
1.0809004 -0.04351673 -0.10230055
-0.13672411 0.27600601 0.25367966
-0.07501271 0.25686362 0.22764175
0.00760523 0.24164857 0.18828031
0.22692391 0.2268171 0.11754714
0.49587238 0.19320795 0.04291335
0.71880084 0.15620129 -0.02386398
0.89941835 0.12859307 -0.07311874
1.013687 0.1091407 -0.09964284
1.0751003 0.09493262 -0.10854627
-0.15612456 0.42737424 0.36975443
-0.095093 0.40669009 0.34334317
-0.02093381 0.39071524 0.31465104
0.17899463 0.37648624 0.23574905
0.46544537 0.35972655 0.1408383
0.6938085 0.32999781 0.05393188
0.87276721 0.30116588 -0.01321658
1.001122 0.28517839 -0.04799778
1.060166 0.27048308 -0.05642017
-0.15356031 0.58570367 0.46139291
-0.0933497 0.56837112 0.440312
-0.03009495 0.55934244 0.42678449
0.15102059 0.54878569 0.36912048
0.40944082 0.53658915 0.29407993
0.66364688 0.52646047 0.22198275
0.85541624 0.50236881 0.15224053
0.98362064 0.49668592 0.12543815
1.0412782 0.48393434 0.1134785
-0.14567035 0.72634214 0.51832235
-0.08420484 0.71299589 0.50344747
-0.02315744 0.70561576 0.49509659
0.11463761 0.70388287 0.46813869
0.36847869 0.69929236 0.41709012
0.60167676 0.69447416 0.37502447
0.7874828 0.6860007 0.34089252
0.95735461 0.67358577 0.3050504
1.0273154 0.66468966 0.29738981
-0.15093246 0.84493732 0.55076164
-0.0911693 0.8363989 0.54382455
-0.03210728 0.83068663 0.54172528
0.05773664 0.83785188 0.54685271
0.30610105 0.83616233 0.51227134
0.54993194 0.83938837 0.48341846
0.74157321 0.82945943 0.45525274
0.89466023 0.82102901 0.43411443
0.98164821 0.81326348 0.42446285
-0.16003588 0.9028998 0.54836595
-0.10173619 0.89844549 0.54907143
-0.04382006 0.89471751 0.55161095
0.019018 0.90866852 0.56981242
0.24703911 0.9128468 0.54493022
0.49967608 0.92177707 0.52151161
0.70901293 0.91917241 0.49746728
0.86870813 0.91074508 0.47570157
0.96638018 0.90681595 0.46762046
-0.0947007 0.15073161 0.39297
-0.02915746 0.12469248 0.35412124
0.11287135 0.11469998 0.3004351
0.34707439 0.09939342 0.23739511
0.59605139 0.06443214 0.15934938
0.7896046 0.02594588 0.09216856
0.95033419 -0.00472685 0.04344131
1.0287851 -0.02931239 0.02258983
1.0896958 -0.0527778 0.00752005
-0.10872954 0.1727431 0.34103835
-0.04723973 0.14769609 0.30701956
0.06563748 0.13348368 0.25441247
0.28647777 0.12017914 0.201315
0.54639214 0.0872084 0.13102448
0.75532192 0.04869024 0.06708896
0.92690414 0.01542667 0.01853731
1.0223614 -0.01079961 -0.00567555
1.0844923 -0.03354641 -0.01976394
-0.12108906 0.20716676 0.30527917
-0.060227 0.18673243 0.27813315
0.03404387 0.17249855 0.23148328
0.25638762 0.15148681 0.1682778
0.51981413 0.11230022 0.09729904
0.73695576 0.07193916 0.03724515
0.91393238 0.03683698 -0.0077639
1.0200961 0.01046027 -0.03177109
1.0818223 -0.00878535 -0.0427619
-0.13584548 0.26820558 0.30705476
-0.07386428 0.24955381 0.28131023
0.00670844 0.23471417 0.24333327
0.22071734 0.22115345 0.17484203
0.49200192 0.18690176 0.09989404
0.71785599 0.14984722 0.03347606
0.89926159 0.12225448 -0.01487318
1.0149684 0.10296409 -0.04079472
1.0758579 0.08926417 -0.04841719
-0.15560827 0.41934466 0.42330515
-0.09422705 0.3989841 0.39682883
-0.02063353 0.38346496 0.36865664
0.17885783 0.36905062 0.2892195
0.46281645 0.35282031 0.19661413
0.68976241 0.3242155 0.11254324
0.87028515 0.29474053 0.04565708
1.0011494 0.27899709 0.01126161
1.0598804 0.26482168 0.00418258
-0.15338323 0.57907093 0.51681668
-0.0929874 0.56180054 0.49572337
-0.02993865 0.55290735 0.48266798
0.14731073 0.54222268 0.42623708
0.40335229 0.53032172 0.35225099
0.65911514 0.52046394 0.28039449
0.84813452 0.49844939 0.21482496
0.98156959 0.49234739 0.18572071
1.0394293 0.47981608 0.17412823
-0.14504594 0.72101146 0.57566506
-0.08391976 0.70779711 0.56141263
-0.02322455 0.70034438 0.55388361
0.10732293 0.69876808 0.52994013
0.35919541 0.69447625 0.47924075
0.59321702 0.69038349 0.43825418
0.7814008 0.68223315 0.40385947
0.95330954 0.67005187 0.36730763
1.0264622 0.66165173 0.35914555
-0.1510534 0.84101826 0.61063957
-0.09170637 0.83274198 0.60488027
-0.03299981 0.82682317 0.603544
0.04836707 0.83443969 0.61105436
0.29516894 0.83238816 0.57666481
0.54099536 0.83623135 0.54740661
0.73623973 0.82685852 0.51852584
0.89144093 0.81848228 0.49649775
0.98148203 0.81067604 0.48581165
-0.16078714 0.90059572 0.61129898
-0.10274617 0.8962729 0.61269963
-0.0449223 0.89246702 0.61537176
0.01614877 0.90571851 0.6331225
0.23784858 0.91049409 0.60968459
0.4924382 0.91989499 0.5855754
0.7050823 0.91787732 0.56100923
0.86633444 0.90962946 0.53888762
0.96594632 0.90565652 0.53024459
-0.10144385 0.25819099 0.59075385
-0.04623971 0.23313405 0.5635848
0.09502935 0.21737278 0.5084334
0.32311013 0.20853671 0.44092059
0.58121449 0.19746831 0.35937232
0.7805025 0.15906832 0.26630518
0.94454455 0.12524934 0.19298626
1.0263825 0.097216 0.15781246
1.0857774 0.0683046 0.13103932
-0.11987636 0.27585357 0.54121321
-0.06256868 0.24472998 0.50567949
0.04637479 0.22589585 0.45650503
0.26337075 0.22257191 0.39585641
0.53201044 0.21039371 0.31358764
0.74567431 0.17055595 0.21971309
0.91827536 0.1338219 0.14579971
1.0179864 0.1045988 0.10667192
1.0800731 0.07607216 0.08212272
-0.13438278 0.31140572 0.51062369
-0.0754335 0.28615862 0.48087591
0.01741876 0.26722205 0.43853718
0.23139018 0.25109535 0.35787293
0.50714928 0.22940095 0.26618955
0.72775769 0.1823612 0.16977048
0.90572798 0.14413579 0.09930293
1.0156714 0.11571575 0.06208496
1.0779507 0.09238711 0.04463201
-0.14478344 0.32984579 0.4563916
-0.08340462 0.306162 0.42573833
-0.00290944 0.28836089 0.38901415
0.20637232 0.27007154 0.30111724
0.48286831 0.24196695 0.2123141
0.71329373 0.19535722 0.12361295
0.89552766 0.16155426 0.06315178
1.014094 0.14010444 0.0328635
1.0745779 0.12748896 0.025295
-0.15494031 0.41130599 0.47659796
-0.09330937 0.39130613 0.45025361
-0.0203633 0.37629384 0.42275146
0.17918414 0.36202767 0.34307641
0.44676349 0.3491455 0.26033655
0.68662679 0.31825477 0.17085275
0.86759251 0.28897589 0.10541391
1.0017133 0.27329558 0.07098168
1.060265 0.25968862 0.06532437
-0.15312442 0.57228625 0.57200378
-0.09265268 0.555381 0.55136043
-0.02990796 0.54681671 0.53908074
0.14369804 0.53609174 0.48405358
0.39805353 0.52415055 0.41067383
0.65517437 0.51472586 0.33939692
0.83445609 0.49917284 0.2861414
0.97861898 0.48778132 0.24612656
1.0388077 0.47559088 0.23403184
-0.14454901 0.71596408 0.63340425
-0.08375858 0.70306939 0.62008095
-0.02346052 0.69554138 0.61342931
0.09958487 0.69416791 0.59260219
0.35001656 0.6901899 0.5421446
0.58513206 0.68664432 0.50186062
0.77653062 0.67847842 0.46648288
0.94764143 0.6679492 0.43167493
1.0249573 0.66082257 0.42382255
-0.1513696 0.83721894 0.67098492
-0.09238438 0.82912201 0.66637796
-0.03404619 0.8230257 0.66567886
0.03872447 0.83151305 0.67581213
0.2840293 0.82894057 0.64138991
0.53250444 0.83339542 0.61149955
0.7311154 0.82451165 0.58188319
0.88858128 0.81618834 0.55894029
0.98193663 0.80820179 0.54705215
-0.1616981 0.89836437 0.67456108
-0.10384774 0.89416552 0.67650902
-0.04604249 0.89027619 0.67916042
0.01467377 0.90211266 0.695333
0.22855644 0.90816724 0.67431134
0.48522159 0.91799021 0.64943242
0.70106065 0.91653717 0.62436855
0.86416692 0.90838718 0.60177803
0.96560931 0.90450209 0.5927946
-0.08908717 0.36161429 0.75485212
-0.03602747 0.33838719 0.73279786
0.08665955 0.331348 0.70145065
0.32211208 0.32759082 0.64176339
0.5659802 0.31819373 0.58526474
0.7706598 0.30042946 0.51871437
0.9362601 0.27552444 0.45589602
1.0203927 0.24934877 0.41045591
1.0798012 0.22064075 0.36706007
-0.11032952 0.38340729 0.71488535
-0.05667898 0.35403869 0.68653345
0.03740143 0.3428942 0.65934551
0.26026088 0.34338179 0.60484111
0.51707685 0.33502799 0.54058367
0.74281299 0.31621152 0.46030712
0.91308516 0.2847926 0.38253263
1.0130522 0.25530648 0.31968963
1.0787568 0.22260723 0.26742354
-0.12567398 0.4248676 0.69257098
-0.06965831 0.40133312 0.66895986
0.00881789 0.38688722 0.64436138
0.2262702 0.37285227 0.57248241
0.48939741 0.35532051 0.49068913
0.7273581 0.32777581 0.38713509
0.9055773 0.28646612 0.28638297
1.0185057 0.25645569 0.22987482
1.0787832 0.2295914 0.20129614
-0.14110109 0.44627884 0.64932895
-0.08297346 0.42256308 0.62335098
-0.01252416 0.40698335 0.59927934
0.1967549 0.38423699 0.51477849
0.46284345 0.36464646 0.42352146
0.70692348 0.33512303 0.31556112
0.88937366 0.29628497 0.22768712
1.0141008 0.27748024 0.18486013
1.0729924 0.26564103 0.1756198
-0.15287088 0.46128187 0.59492457
-0.09249461 0.43515468 0.56337696
-0.02413458 0.4169257 0.53587234
0.17454435 0.39540952 0.45099825
0.43444803 0.3797392 0.36516124
0.68064827 0.35673982 0.27413839
0.86294448 0.32956007 0.2055929
1.0035889 0.32440042 0.1746331
1.0620491 0.32542539 0.18041819
-0.1528803 0.56547529 0.62717742
-0.09239411 0.54892951 0.60709172
-0.03004739 0.5407452 0.59576172
0.13939622 0.53006041 0.54248059
0.39380923 0.51796418 0.46919829
0.63876414 0.51256692 0.40828747
0.82794029 0.49495333 0.34809545
0.97446698 0.48284996 0.3064889
1.0379858 0.47128919 0.29381001
-0.14425835 0.71079642 0.69123
-0.08378059 0.69826549 0.67902929
-0.0240576 0.6905489 0.6731115
0.09139225 0.68959749 0.65569377
0.34068674 0.68598723 0.60530686
0.57796347 0.68257922 0.56494093
0.77220738 0.67432129 0.52848774
0.93475914 0.66798353 0.50019318
1.0160005 0.66126478 0.4916397
-0.15188511 0.83353919 0.73180157
-0.09323776 0.82560748 0.72829551
-0.03522764 0.81933665 0.72810215
0.03441373 0.82826692 0.73947674
0.27406579 0.82541358 0.70572937
0.52470809 0.8303265 0.67514032
0.72658551 0.82197392 0.64471984
0.88590783 0.81370836 0.62094438
0.9833079 0.80532908 0.60750991
-0.16274489 0.89620364 0.73809981
-0.10501276 0.89212012 0.74043852
-0.04714559 0.88824886 0.74301541
0.01331762 0.89871782 0.75756377
0.22012895 0.90593398 0.73866791
0.47897497 0.91612709 0.71302265
0.69770777 0.91521293 0.68751138
0.86211306 0.90713686 0.66455054
0.96526361 0.90328127 0.65520817
-0.0841724 0.44322166 0.88295567
-0.02813657 0.42239529 0.86515355
0.07475197 0.42128333 0.84799725
0.31982988 0.41945833 0.80293763
0.5642271 0.41615433 0.75441533
0.75512761 0.39768448 0.70665574
0.91570371 0.37858441 0.66013157
1.0056289 0.35922891 0.62790072
1.0698986 0.33799207 0.59733582
-0.10018151 0.46933228 0.85069644
-0.0431845 0.44662985 0.83105409
0.03313825 0.4406774 0.81756538
0.26284227 0.44258252 0.76984906
0.51733541 0.43953776 0.71817774
0.72593337 0.42243832 0.66364676
0.90131068 0.40205061 0.6070013
1.0066483 0.38022313 0.5659194
1.0712779 0.35697091 0.53161627
-0.11369146 0.51459634 0.83239901
-0.05555142 0.49485153 0.81424659
0.0099952 0.48665732 0.80255806
0.2284041 0.4771432 0.7423808
0.48900047 0.46461916 0.67711627
0.7090795 0.44570059 0.61349922
0.8933838 0.42256138 0.54670376
1.007697 0.40058392 0.5020566
1.0693545 0.38077089 0.47442627
-0.12554221 0.54297107 0.79895496
-0.06683534 0.52297908 0.77844453
-0.00481369 0.51285154 0.76497418
0.19850163 0.49932635 0.70110834
0.46319363 0.48204276 0.62530732
0.6936301 0.46599984 0.55782628
0.88208866 0.44734102 0.49512953
1.0052789 0.43368828 0.46006924
1.0640428 0.4254511 0.45280522
-0.13709606 0.56564873 0.75629574
-0.07853154 0.54318601 0.73144406
-0.01765107 0.53077835 0.71543169
0.17114145 0.51748794 0.65478712
0.42998832 0.50079215 0.57743543
0.66714138 0.4958089 0.52118456
0.85503739 0.48808658 0.47538167
0.9943831 0.48669961 0.4554632
1.0517485 0.48857838 0.46580297
-0.14875139 0.5836454 0.70584744
-0.08948115 0.5620442 0.68158108
-0.02834955 0.55238199 0.66992569
0.13436928 0.54717594 0.62685674
0.38871282 0.54254556 0.56391782
0.62292486 0.54910749 0.52901918
0.81342804 0.54979545 0.49406022
0.96876311 0.55334324 0.47895625
1.0352694 0.5566144 0.48818788
-0.1441061 0.70581675 0.7494967
-0.08398813 0.69356233 0.73842633
-0.02488255 0.68550664 0.73310316
0.08373576 0.68510723 0.71900928
0.33139646 0.68181401 0.6686148
0.57183433 0.67834163 0.62759888
0.76918167 0.67008907 0.58987319
0.92745191 0.66593975 0.56460667
1.0145169 0.65853804 0.55332893
-0.15258271 0.82995415 0.7930783
-0.09425625 0.82220531 0.79059345
-0.03650421 0.81577444 0.7907843
0.03037785 0.82493716 0.80304378
0.26458704 0.82190984 0.76987779
0.51758659 0.82721877 0.73847389
0.72391379 0.81905502 0.70662063
0.88549191 0.81075835 0.68183362
0.98533177 0.80221581 0.66744727
-0.16390111 0.8941102 0.80185765
-0.10621332 0.89013356 0.80442894
-0.04821492 0.88634819 0.80686349
0.0120841 0.89559817 0.81985843
0.21309176 0.90384787 0.8027032
0.47431082 0.91437823 0.77628809
0.69485146 0.91391569 0.75049311
0.86058569 0.90591228 0.72720259
0.96497989 0.9021104 0.71763605
-0.08619225 0.44774711 0.94822055
-0.03018989 0.439659 0.93961304
0.06212283 0.44922569 0.93701255
0.30887982 0.45819843 0.90431339
0.55537385 0.46611741 0.87286252
0.74705023 0.45749518 0.84029144
0.89704657 0.44772395 0.81304145
0.98381847 0.43258977 0.78911561
1.0469475 0.4152205 0.76449233
-0.10198513 0.49544698 0.93168861
-0.04467964 0.48652783 0.92251807
0.02228382 0.49398497 0.9240576
0.2544598 0.5033707 0.89316899
0.51184458 0.51470649 0.86057514
0.72048986 0.50151896 0.8172729
0.88208747 0.48161486 0.77355957
0.98318386 0.46210209 0.74017197
1.0475363 0.44486189 0.71498811
-0.11487227 0.5600729 0.92701983
-0.05623947 0.55194235 0.91768599
0.00465739 0.55690902 0.91855723
0.22145593 0.55376071 0.88011014
0.48637897 0.5498721 0.82836068
0.70415455 0.53136414 0.77431411
0.87250543 0.51125318 0.7270512
0.98422843 0.49427453 0.69459653
1.0463666 0.48104259 0.67726368
-0.12526688 0.61013997 0.91011524
-0.06521045 0.5983848 0.89667749
-0.00409409 0.59092468 0.88638037
0.19532163 0.58396459 0.84479457
0.46401143 0.57744271 0.78741747
0.68795466 0.56175053 0.73324877
0.86064845 0.54772353 0.69260037
0.98237604 0.53865898 0.6709621
1.0406891 0.5334276 0.66876936
-0.1328949 0.64558893 0.87983012
-0.07118568 0.62750322 0.86088723
-0.00926507 0.61588126 0.84702647
0.16819981 0.61270535 0.80856264
0.43221092 0.60727012 0.75528401
0.65968984 0.60102028 0.71090657
0.83340216 0.59658569 0.68452138
0.97033948 0.59573054 0.67343938
1.0262297 0.59607083 0.68157852
-0.13766944 0.67217368 0.84193635
-0.07602737 0.65496337 0.82435477
-0.01518883 0.64697212 0.81548154
0.1285706 0.65071422 0.79197979
0.38558233 0.65146989 0.74874914
0.61495018 0.65467769 0.71600139
0.79368734 0.65710247 0.69992125
0.94075608 0.65919429 0.69096327
1.0090702 0.6598165 0.6966536
-0.14385968 0.70578825 0.81202924
-0.08405988 0.6947512 0.80291545
-0.02511945 0.69083267 0.80182761
0.07438372 0.70295525 0.80177689
0.32134098 0.71034801 0.76763761
0.56605685 0.72132826 0.74008405
0.75497192 0.72081143 0.71896368
0.90852916 0.72062826 0.70409602
0.99531198 0.71845311 0.70039243
-0.15342674 0.82641864 0.85478902
-0.09541872 0.81891024 0.85322154
-0.03782969 0.8124668 0.85377157
0.02661702 0.82157236 0.86649334
0.25588456 0.81858909 0.83391052
0.51075768 0.82416707 0.80160224
0.7212435 0.81615847 0.76838058
0.88399249 0.80784744 0.74279648
0.98275006 0.80053234 0.72977388
-0.16513853 0.89208078 0.8657738
-0.10742365 0.88820285 0.86842442
-0.04924116 0.88449687 0.87060463
0.0109535 0.89277303 0.88223052
0.20704691 0.90188873 0.86650002
0.46929911 0.91264951 0.83949715
0.69263756 0.9126423 0.81330669
0.85983706 0.90470505 0.78970498
0.96497488 0.90098852 0.78005791
-0.08799652 0.44358477 1.0074395
-0.03176266 0.43550375 0.99887639
0.05193191 0.44472489 0.99785262
0.29851466 0.45387432 0.96517318
0.54716831 0.46268868 0.93370521
0.74213439 0.45474219 0.90085822
0.89371002 0.44497871 0.87304062
0.98139542 0.43760377 0.85823047
1.0419769 0.4315674 0.84801447
-0.10328916 0.49083352 0.99066263
-0.04576574 0.48294625 0.9821623
0.01880996 0.48984924 0.98379648
0.24663232 0.49952635 0.95363748
0.50555992 0.51144314 0.920766
0.71659827 0.5066061 0.8860454
0.87669486 0.49677077 0.85544258
0.97534925 0.48984462 0.83861482
1.0362806 0.48436514 0.82929361
-0.11571604 0.5563826 0.98642385
-0.05682547 0.54841232 0.97696286
0.00366376 0.55209881 0.97653157
0.21535358 0.55707407 0.94610953
0.48064739 0.56550032 0.90749317
0.69991821 0.56066984 0.87020397
0.8635515 0.55035365 0.83888954
0.96972889 0.54362053 0.82271725
1.0290873 0.53856802 0.81716317
-0.12552312 0.60704911 0.96941078
-0.06504316 0.60055244 0.95946342
-0.00322848 0.60441875 0.95720065
0.18950692 0.61114705 0.93232489
0.45863169 0.618855 0.89245343
0.68346685 0.61596709 0.8575806
0.84810913 0.60645968 0.83029586
0.96327597 0.60034978 0.81759357
1.0207992 0.59615213 0.81756186
-0.13242482 0.65715021 0.94904959
-0.0708632 0.65119249 0.93866831
-0.00889109 0.65329987 0.93505377
0.16036513 0.66322994 0.91933811
0.42493263 0.67053014 0.88272381
0.65359068 0.67085469 0.85355151
0.81994891 0.66228187 0.83135635
0.9512279 0.65675479 0.8203451
1.0081112 0.6532166 0.82333368
-0.13776918 0.70806795 0.92874569
-0.07652654 0.70265388 0.92057216
-0.01588564 0.702914 0.91876769
0.11660214 0.71598154 0.91679305
0.37283486 0.72180682 0.88464665
0.60704112 0.725128 0.85953659
0.78264779 0.71779674 0.839158
0.92259383 0.71350104 0.82788122
0.99385983 0.70964342 0.8276844
-0.14448351 0.76019412 0.91437024
-0.08497649 0.75539678 0.91115874
-0.02639005 0.7533471 0.91243374
0.05798577 0.76938528 0.92559505
0.30797371 0.77301794 0.89549202
0.55467302 0.78026628 0.87086201
0.74721903 0.77307481 0.84580559
0.89498204 0.76886404 0.83089763
0.98176509 0.76522774 0.82613683
-0.15444782 0.82299876 0.91690719
-0.09669982 0.81571674 0.91612256
-0.03919967 0.80924368 0.91686749
0.0229995 0.82247913 0.93319732
0.24689026 0.82490635 0.90644664
0.50287366 0.83488756 0.87911004
0.71656996 0.8324064 0.85197163
0.87774575 0.82737786 0.83192134
0.97441661 0.82352853 0.82362193
-0.16642898 0.89011246 0.92978752
-0.10862042 0.88632512 0.93237591
-0.05021196 0.88269269 0.93421221
0.01014051 0.89033884 0.94473273
0.20172596 0.90000755 0.93005013
0.46414128 0.91095132 0.90264374
0.69025725 0.91142613 0.87612754
0.85877866 0.90328526 0.85195172
0.96490777 0.89969546 0.84224778
