site/assets/luts/freshluts--0001299-picturefx-js-style-ethereal-pink-adjust-strenght-to-taste-ex.cube
# LUTr-Schema-Version: 2
# LUTr-ID: freshluts--0001299-picturefx-js-style-ethereal-pink-adjust-strenght-to-taste-ex
# LUTr-Title: PictureFX J.S. Style Ethereal Pink - adjust strenght to taste, exposure, bloom, etc - more at my website, PictureFX home.
# LUTr-Collection: Fresh LUTs
# LUTr-Collection-ID: freshluts-community
# LUTr-Source: https://freshluts.com
# LUTr-Retrieved: 2026-07-27
# LUTr-Source-File: submissions-raw/freshluts/cubes/1299__PictureFX_J.S._Style_Ethereal_Pink.cube
# LUTr-Source-Format: CUBE
# LUTr-Source-SHA256: 97dd552039e8fe490984f276ec6a4d7935a300e8562451534fcd7164b904681e
# LUTr-License: CC0-1.0
# LUTr-License-URL: https://freshluts.com/termsandconditions
# LUTr-License-Basis: site-terms
# LUTr-Transform-Class: creative-look
# LUTr-Tags: creative, freshluts, community, cube, film-emulation, rec709, assumed-input
# LUTr-Input-Color-Space: rec709
# LUTr-Input-Gamut: rec709
# LUTr-Input-Transfer: rec709
# LUTr-Output-Color-Space: srgb
# LUTr-Output-Gamut: rec709
# LUTr-Output-Transfer: srgb
# LUTr-Color-Space-Confidence: assumed-display-referred
# LUTr-Domain-Normalized: true
# LUTr-Shaper: none
# LUTr-Original-Grid: 25x25x25
# LUTr-Conversion-Grid: 25x25x25
# LUTr-Conversion-Interpolation: none
# LUTr-Conversion-Method: Metadata normalization; numeric LUT samples preserved
# LUTr-Conversion-Tool: LUTr scripts/convert-all-to-cube.mjs 2.0.0
# LUTr-Conversion-Date: 2026-07-28
# LUTr-Asset-URL: https://freshluts.com/luts/1299
# LUTr-Author: MarcR.
# LUTr-Author-URL: https://freshluts.com/users/86490
# LUTr-Attribution: MarcR. via Fresh LUTs
# LUTr-Source-Labels: gamma=Other; color=None; key=Neutral; style=Film emulation; LUTr assumption=input Rec.709 per repository policy
# LUTr-Conversion-Warning: Input Rec.709 is a LUTr catalog assumption requested for this otherwise unspecified Fresh LUT; it is not verified by the upstream asset.
# LUTr-Note: Preserve this metadata and the upstream license notices when redistributing.
# LUTr-Upstream-Comment: Generated by lutCreator.js
# LUTr-Upstream-Comment: Coded by SirSerch
# LUTr-Upstream-Comment: https://github.com/SirSerch/LutCreatorJs
TITLE "PictureFX J.S. Style Ethereal Pink - adjust strenght to taste, exposure, bloom, etc - more at my website, PictureFX home."
LUT_3D_SIZE 9
DOMAIN_MIN 0 0 0
DOMAIN_MAX 1 1 1
0.058824 0.003922 0.098039
0.117647 0 0.121569
0.411765 0.192157 0.305882
0.545098 0.254902 0.352941
0.658824 0.298039 0.376471
0.752941 0.329412 0.396078
0.847059 0.356863 0.419608
0.937255 0.384314 0.443137
1 0.411765 0.466667
0.215686 0.25098 0.27451
0.290196 0.262745 0.309804
0.411765 0.282353 0.352941
0.537255 0.305882 0.364706
0.643137 0.329412 0.380392
0.745098 0.352941 0.403922
0.839216 0.376471 0.423529
0.929412 0.4 0.447059
1 0.423529 0.466667
0.313725 0.403922 0.360784
0.360784 0.4 0.368627
0.439216 0.4 0.388235
0.541176 0.403922 0.407843
0.643137 0.407843 0.419608
0.745098 0.419608 0.431373
0.839216 0.435294 0.45098
0.929412 0.45098 0.466667
1 0.470588 0.486275
0.372549 0.505882 0.411765
0.403922 0.505882 0.415686
0.466667 0.505882 0.427451
0.54902 0.501961 0.447059
0.643137 0.501961 0.462745
0.741176 0.505882 0.470588
0.831373 0.509804 0.478431
0.921569 0.517647 0.490196
1 0.521569 0.501961
0.419608 0.6 0.458824
0.443137 0.6 0.462745
0.494118 0.6 0.466667
0.564706 0.596078 0.478431
0.647059 0.596078 0.494118
0.737255 0.596078 0.505882
0.831373 0.6 0.517647
0.921569 0.6 0.52549
1 0.603922 0.537255
0.466667 0.698039 0.505882
0.486275 0.698039 0.509804
0.52549 0.694118 0.513725
0.588235 0.694118 0.517647
0.662745 0.690196 0.529412
0.745098 0.690196 0.541176
0.831373 0.686275 0.54902
0.917647 0.686275 0.556863
1 0.686275 0.564706
0.501961 0.780392 0.545098
0.517647 0.780392 0.545098
0.552941 0.780392 0.545098
0.603922 0.776471 0.54902
0.670588 0.772549 0.556863
0.745098 0.768627 0.564706
0.827451 0.768627 0.572549
0.909804 0.764706 0.580392
0.992157 0.760784 0.588235
0.537255 0.866667 0.580392
0.552941 0.866667 0.584314
0.580392 0.866667 0.584314
0.627451 0.862745 0.588235
0.690196 0.862745 0.592157
0.760784 0.858824 0.6
0.835294 0.858824 0.607843
0.917647 0.854902 0.615686
1 0.854902 0.627451
0.564706 0.941176 0.607843
0.572549 0.941176 0.607843
0.596078 0.937255 0.607843
0.639216 0.933333 0.607843
0.690196 0.929412 0.611765
0.756863 0.929412 0.615686
0.827451 0.92549 0.619608
0.901961 0.921569 0.627451
0.984314 0.921569 0.639216
0.105882 0 0.117647
0.133333 0.007843 0.152941
0.403922 0.192157 0.352941
0.533333 0.25098 0.4
0.643137 0.290196 0.427451
0.741176 0.32549 0.447059
0.835294 0.352941 0.466667
0.929412 0.384314 0.486275
1 0.411765 0.505882
0.227451 0.243137 0.309804
0.290196 0.254902 0.329412
0.403922 0.270588 0.384314
0.521569 0.294118 0.407843
0.627451 0.321569 0.427451
0.729412 0.345098 0.447059
0.827451 0.372549 0.462745
0.921569 0.396078 0.482353
1 0.423529 0.501961
0.305882 0.392157 0.403922
0.34902 0.388235 0.407843
0.423529 0.392157 0.435294
0.517647 0.396078 0.462745
0.631373 0.403922 0.462745
0.733333 0.415686 0.470588
0.831373 0.431373 0.486275
0.92549 0.45098 0.501961
1 0.470588 0.521569
0.360784 0.498039 0.447059
0.392157 0.498039 0.45098
0.454902 0.498039 0.462745
0.537255 0.498039 0.482353
0.631373 0.498039 0.501961
0.729412 0.501961 0.505882
0.827451 0.509804 0.513725
0.917647 0.513725 0.521569
1 0.521569 0.529412
0.411765 0.596078 0.486275
0.435294 0.596078 0.490196
0.486275 0.596078 0.494118
0.556863 0.592157 0.505882
0.639216 0.592157 0.521569
0.733333 0.596078 0.537255
0.827451 0.6 0.545098
0.921569 0.603922 0.556863
1 0.607843 0.564706
0.466667 0.698039 0.533333
0.482353 0.698039 0.533333
0.52549 0.698039 0.537255
0.588235 0.694118 0.545098
0.662745 0.694118 0.556863
0.745098 0.694118 0.568627
0.831373 0.690196 0.576471
0.921569 0.690196 0.584314
1 0.694118 0.596078
0.505882 0.784314 0.568627
0.517647 0.784314 0.568627
0.552941 0.780392 0.568627
0.603922 0.780392 0.572549
0.670588 0.776471 0.580392
0.74902 0.776471 0.588235
0.827451 0.772549 0.6
0.913725 0.772549 0.607843
1 0.768627 0.615686
0.545098 0.87451 0.603922
0.556863 0.87451 0.607843
0.588235 0.87451 0.607843
0.635294 0.87451 0.611765
0.694118 0.870588 0.619608
0.768627 0.870588 0.623529
0.847059 0.870588 0.635294
0.929412 0.866667 0.643137
1 0.870588 0.654902
0.572549 0.94902 0.631373
0.580392 0.94902 0.631373
0.603922 0.945098 0.631373
0.643137 0.941176 0.631373
0.698039 0.941176 0.635294
0.760784 0.937255 0.639216
0.831373 0.933333 0.643137
0.909804 0.929412 0.65098
0.992157 0.929412 0.658824
0.098039 0.007843 0.215686
0.290196 0.141176 0.368627
0.407843 0.2 0.423529
0.52549 0.25098 0.462745
0.627451 0.290196 0.490196
0.729412 0.321569 0.513725
0.823529 0.352941 0.529412
0.921569 0.384314 0.54902
1 0.415686 0.568627
0.282353 0.227451 0.34902
0.329412 0.235294 0.372549
0.403922 0.262745 0.423529
0.505882 0.290196 0.458824
0.611765 0.313725 0.486275
0.713725 0.341176 0.505882
0.811765 0.368627 0.52549
0.909804 0.396078 0.545098
1 0.423529 0.560784
0.321569 0.380392 0.45098
0.360784 0.376471 0.454902
0.423529 0.384314 0.466667
0.513725 0.388235 0.505882
0.619608 0.396078 0.517647
0.721569 0.411765 0.529412
0.819608 0.431373 0.545098
0.917647 0.45098 0.560784
1 0.47451 0.580392
0.360784 0.486275 0.498039
0.392157 0.486275 0.501961
0.45098 0.490196 0.513725
0.52549 0.494118 0.541176
0.611765 0.498039 0.572549
0.721569 0.501961 0.564706
0.815686 0.505882 0.568627
0.909804 0.513725 0.576471
1 0.52549 0.584314
0.407843 0.592157 0.537255
0.431373 0.592157 0.541176
0.478431 0.588235 0.545098
0.54902 0.592157 0.556863
0.627451 0.592157 0.580392
0.721569 0.596078 0.596078
0.823529 0.6 0.603922
0.917647 0.607843 0.607843
1 0.611765 0.615686
0.462745 0.698039 0.584314
0.482353 0.698039 0.584314
0.521569 0.698039 0.588235
0.584314 0.698039 0.596078
0.658824 0.698039 0.607843
0.741176 0.694118 0.619608
0.827451 0.694118 0.631373
0.921569 0.698039 0.639216
1 0.698039 0.643137
0.505882 0.788235 0.611765
0.517647 0.788235 0.611765
0.552941 0.784314 0.615686
0.603922 0.784314 0.619608
0.670588 0.780392 0.623529
0.74902 0.780392 0.635294
0.827451 0.780392 0.643137
0.913725 0.776471 0.654902
1 0.776471 0.662745
0.54902 0.878431 0.647059
0.560784 0.882353 0.65098
0.592157 0.882353 0.65098
0.639216 0.882353 0.654902
0.701961 0.878431 0.662745
0.772549 0.878431 0.670588
0.85098 0.878431 0.678431
0.933333 0.878431 0.690196
1 0.882353 0.701961
0.576471 0.960784 0.670588
0.588235 0.956863 0.670588
0.607843 0.952941 0.670588
0.647059 0.94902 0.670588
0.701961 0.945098 0.670588
0.764706 0.945098 0.67451
0.835294 0.941176 0.682353
0.913725 0.937255 0.686275
0.996078 0.937255 0.698039
0.282353 0.141176 0.45098
0.337255 0.164706 0.470588
0.427451 0.211765 0.505882
0.529412 0.254902 0.537255
0.623529 0.290196 0.560784
0.721569 0.321569 0.580392
0.819608 0.352941 0.6
0.913725 0.384314 0.619608
1 0.415686 0.635294
0.298039 0.235294 0.458824
0.341176 0.243137 0.470588
0.415686 0.262745 0.494118
0.509804 0.286275 0.52549
0.607843 0.313725 0.54902
0.705882 0.341176 0.572549
0.803922 0.368627 0.592157
0.901961 0.396078 0.611765
0.996078 0.423529 0.627451
0.372549 0.368627 0.490196
0.415686 0.364706 0.482353
0.466667 0.368627 0.501961
0.52549 0.380392 0.545098
0.615686 0.396078 0.572549
0.713725 0.411765 0.592157
0.811765 0.431373 0.611765
0.909804 0.45098 0.627451
1 0.47451 0.647059
0.380392 0.478431 0.552941
0.411765 0.482353 0.556863
0.466667 0.482353 0.560784
0.533333 0.490196 0.576471
0.619608 0.494118 0.615686
0.717647 0.498039 0.623529
0.811765 0.505882 0.631373
0.901961 0.513725 0.639216
0.992157 0.52549 0.647059
0.415686 0.588235 0.6
0.439216 0.588235 0.6
0.486275 0.584314 0.603922
0.54902 0.588235 0.615686
0.623529 0.592157 0.643137
0.705882 0.596078 0.678431
0.815686 0.6 0.670588
0.913725 0.607843 0.67451
1 0.615686 0.678431
0.466667 0.698039 0.643137
0.482353 0.698039 0.643137
0.52549 0.694118 0.647059
0.584314 0.694118 0.654902
0.654902 0.698039 0.666667
0.733333 0.698039 0.686275
0.819608 0.698039 0.701961
0.913725 0.698039 0.705882
1 0.701961 0.705882
0.501961 0.788235 0.670588
0.517647 0.784314 0.670588
0.54902 0.784314 0.670588
0.603922 0.784314 0.67451
0.666667 0.780392 0.682353
0.741176 0.780392 0.694118
0.823529 0.780392 0.705882
0.909804 0.780392 0.717647
1 0.780392 0.721569
0.54902 0.882353 0.701961
0.560784 0.882353 0.705882
0.592157 0.882353 0.705882
0.639216 0.882353 0.709804
0.698039 0.882353 0.717647
0.772549 0.882353 0.72549
0.847059 0.882353 0.733333
0.933333 0.882353 0.74902
1 0.886275 0.760784
0.580392 0.960784 0.721569
0.588235 0.960784 0.721569
0.607843 0.956863 0.721569
0.647059 0.952941 0.721569
0.701961 0.94902 0.721569
0.764706 0.945098 0.72549
0.835294 0.945098 0.729412
0.913725 0.941176 0.737255
0.996078 0.941176 0.74902
0.34902 0.180392 0.556863
0.384314 0.196078 0.568627
0.45098 0.227451 0.588235
0.537255 0.262745 0.611765
0.627451 0.294118 0.631373
0.721569 0.32549 0.65098
0.815686 0.356863 0.670588
0.909804 0.388235 0.686275
1 0.419608 0.705882
0.333333 0.239216 0.54902
0.368627 0.247059 0.556863
0.435294 0.266667 0.572549
0.517647 0.286275 0.596078
0.607843 0.313725 0.615686
0.705882 0.341176 0.639216
0.8 0.368627 0.658824
0.898039 0.396078 0.678431
0.992157 0.423529 0.698039
0.384314 0.368627 0.584314
0.411765 0.368627 0.588235
0.462745 0.368627 0.596078
0.537255 0.380392 0.615686
0.619608 0.392157 0.635294
0.713725 0.411765 0.658824
0.807843 0.431373 0.678431
0.905882 0.454902 0.698039
1 0.478431 0.713725
0.419608 0.47451 0.6
0.45098 0.47451 0.596078
0.517647 0.470588 0.584314
0.580392 0.47451 0.607843
0.635294 0.490196 0.654902
0.717647 0.498039 0.678431
0.807843 0.505882 0.690196
0.898039 0.513725 0.701961
0.988235 0.52549 0.713725
0.439216 0.584314 0.658824
0.458824 0.580392 0.658824
0.505882 0.580392 0.658824
0.568627 0.580392 0.662745
0.631373 0.588235 0.678431
0.717647 0.592157 0.717647
0.815686 0.6 0.729412
0.909804 0.607843 0.737255
1 0.615686 0.745098
0.478431 0.694118 0.709804
0.494118 0.694118 0.709804
0.533333 0.694118 0.709804
0.592157 0.694118 0.717647
0.658824 0.694118 0.729412
0.729412 0.698039 0.752941
0.807843 0.701961 0.784314
0.913725 0.701961 0.776471
1 0.705882 0.776471
0.509804 0.784314 0.733333
0.521569 0.784314 0.733333
0.556863 0.784314 0.733333
0.603922 0.780392 0.737255
0.670588 0.780392 0.745098
0.741176 0.780392 0.756863
0.815686 0.784314 0.776471
0.901961 0.784314 0.792157
0.996078 0.784314 0.792157
0.54902 0.882353 0.764706
0.564706 0.882353 0.764706
0.596078 0.886275 0.768627
0.639216 0.886275 0.772549
0.701961 0.886275 0.780392
0.772549 0.886275 0.788235
0.847059 0.886275 0.8
0.929412 0.886275 0.815686
1 0.890196 0.827451
0.580392 0.964706 0.784314
0.588235 0.960784 0.780392
0.611765 0.956863 0.780392
0.65098 0.956863 0.780392
0.701961 0.952941 0.780392
0.764706 0.94902 0.784314
0.835294 0.945098 0.792157
0.909804 0.945098 0.796078
0.996078 0.94902 0.815686
0.407843 0.215686 0.658824
0.431373 0.227451 0.666667
0.486275 0.247059 0.678431
0.556863 0.27451 0.694118
0.639216 0.301961 0.709804
0.729412 0.333333 0.72549
0.819608 0.360784 0.741176
0.909804 0.392157 0.760784
1 0.423529 0.776471
0.384314 0.254902 0.643137
0.407843 0.262745 0.647059
0.462745 0.278431 0.658824
0.537255 0.298039 0.67451
0.623529 0.321569 0.694118
0.709804 0.345098 0.713725
0.803922 0.372549 0.729412
0.898039 0.4 0.74902
0.988235 0.427451 0.764706
0.415686 0.372549 0.678431
0.435294 0.372549 0.678431
0.482353 0.376471 0.682353
0.552941 0.384314 0.694118
0.635294 0.396078 0.709804
0.721569 0.415686 0.729412
0.811765 0.435294 0.74902
0.905882 0.454902 0.764706
1 0.478431 0.784314
0.443137 0.47451 0.686275
0.466667 0.47451 0.690196
0.513725 0.478431 0.694118
0.576471 0.482353 0.705882
0.647059 0.486275 0.721569
0.72549 0.498039 0.741176
0.811765 0.505882 0.756863
0.898039 0.517647 0.768627
0.984314 0.52549 0.780392
0.470588 0.580392 0.713725
0.490196 0.580392 0.713725
0.541176 0.576471 0.705882
0.619608 0.572549 0.686275
0.686275 0.576471 0.705882
0.737255 0.588235 0.756863
0.819608 0.6 0.780392
0.909804 0.603922 0.796078
1 0.615686 0.807843
0.498039 0.690196 0.768627
0.513725 0.690196 0.768627
0.552941 0.690196 0.768627
0.611765 0.690196 0.768627
0.678431 0.690196 0.772549
0.737255 0.694118 0.788235
0.819608 0.694118 0.823529
0.909804 0.698039 0.827451
1 0.701961 0.835294
0.521569 0.780392 0.796078
0.533333 0.780392 0.796078
0.564706 0.780392 0.796078
0.615686 0.776471 0.8
0.67451 0.776471 0.803922
0.745098 0.776471 0.815686
0.811765 0.780392 0.839216
0.886275 0.780392 0.870588
0.988235 0.780392 0.858824
0.552941 0.878431 0.823529
0.568627 0.878431 0.827451
0.596078 0.878431 0.831373
0.643137 0.878431 0.831373
0.701961 0.878431 0.839216
0.768627 0.878431 0.847059
0.839216 0.882353 0.858824
0.917647 0.882353 0.878431
1 0.886275 0.898039
0.580392 0.960784 0.843137
0.588235 0.956863 0.839216
0.611765 0.952941 0.839216
0.647059 0.94902 0.839216
0.698039 0.94902 0.839216
0.760784 0.945098 0.843137
0.827451 0.941176 0.85098
0.901961 0.941176 0.858824
1 0.956863 0.886275
0.462745 0.247059 0.756863
0.482353 0.254902 0.756863
0.521569 0.270588 0.764706
0.584314 0.290196 0.772549
0.654902 0.313725 0.788235
0.737255 0.341176 0.8
0.823529 0.368627 0.815686
0.913725 0.396078 0.831373
1 0.427451 0.847059
0.435294 0.27451 0.733333
0.454902 0.278431 0.737255
0.498039 0.290196 0.745098
0.560784 0.309804 0.756863
0.639216 0.329412 0.772549
0.721569 0.352941 0.788235
0.811765 0.380392 0.803922
0.898039 0.403922 0.819608
0.988235 0.431373 0.835294
0.454902 0.380392 0.764706
0.47451 0.380392 0.764706
0.513725 0.384314 0.768627
0.572549 0.392157 0.776471
0.647059 0.403922 0.788235
0.733333 0.419608 0.803922
0.819608 0.439216 0.819608
0.909804 0.458824 0.835294
1 0.478431 0.85098
0.466667 0.47451 0.772549
0.486275 0.478431 0.776471
0.52549 0.482353 0.780392
0.584314 0.486275 0.788235
0.658824 0.490196 0.8
0.733333 0.498039 0.811765
0.815686 0.505882 0.823529
0.898039 0.517647 0.835294
0.984314 0.52549 0.847059
0.498039 0.580392 0.788235
0.513725 0.580392 0.788235
0.552941 0.576471 0.788235
0.611765 0.576471 0.792157
0.678431 0.580392 0.803922
0.74902 0.588235 0.823529
0.823529 0.596078 0.843137
0.909804 0.603922 0.858824
0.996078 0.611765 0.870588
0.52549 0.686275 0.827451
0.541176 0.686275 0.827451
0.580392 0.686275 0.823529
0.639216 0.682353 0.811765
0.729412 0.678431 0.788235
0.792157 0.678431 0.807843
0.835294 0.690196 0.858824
0.913725 0.694118 0.878431
1 0.698039 0.890196
0.537255 0.776471 0.854902
0.54902 0.776471 0.854902
0.580392 0.772549 0.854902
0.631373 0.772549 0.854902
0.694118 0.768627 0.854902
0.760784 0.772549 0.858824
0.823529 0.776471 0.870588
0.898039 0.776471 0.905882
0.988235 0.776471 0.909804
0.564706 0.870588 0.886275
0.576471 0.870588 0.886275
0.603922 0.87451 0.890196
0.65098 0.870588 0.890196
0.705882 0.870588 0.894118
0.772549 0.870588 0.901961
0.843137 0.87451 0.913725
0.909804 0.878431 0.941176
0.988235 0.882353 0.972549
0.584314 0.952941 0.901961
0.592157 0.952941 0.901961
0.615686 0.94902 0.898039
0.65098 0.945098 0.898039
0.701961 0.941176 0.898039
0.760784 0.941176 0.901961
0.827451 0.937255 0.909804
0.898039 0.937255 0.917647
0.996078 0.964706 0.964706
0.517647 0.27451 0.847059
0.529412 0.278431 0.847059
0.560784 0.290196 0.85098
0.611765 0.309804 0.858824
0.678431 0.329412 0.866667
0.752941 0.352941 0.878431
0.835294 0.376471 0.890196
0.917647 0.403922 0.901961
1 0.427451 0.917647
0.486275 0.298039 0.823529
0.501961 0.301961 0.827451
0.541176 0.309804 0.835294
0.596078 0.32549 0.843137
0.662745 0.345098 0.854902
0.741176 0.364706 0.866667
0.823529 0.388235 0.882353
0.905882 0.411765 0.894118
0.992157 0.435294 0.905882
0.501961 0.392157 0.85098
0.517647 0.392157 0.85098
0.54902 0.396078 0.854902
0.603922 0.403922 0.858824
0.670588 0.411765 0.870588
0.74902 0.427451 0.882353
0.827451 0.443137 0.894118
0.913725 0.462745 0.905882
1 0.482353 0.921569
0.505882 0.482353 0.858824
0.521569 0.482353 0.862745
0.552941 0.486275 0.866667
0.607843 0.490196 0.870588
0.67451 0.494118 0.878431
0.745098 0.501961 0.886275
0.823529 0.509804 0.898039
0.905882 0.517647 0.905882
0.984314 0.529412 0.913725
0.52549 0.580392 0.87451
0.537255 0.580392 0.87451
0.568627 0.580392 0.87451
0.619608 0.580392 0.878431
0.682353 0.584314 0.886275
0.752941 0.588235 0.898039
0.831373 0.596078 0.909804
0.913725 0.6 0.921569
0.996078 0.611765 0.933333
0.54902 0.682353 0.894118
0.564706 0.682353 0.894118
0.596078 0.682353 0.890196
0.647059 0.678431 0.890196
0.709804 0.678431 0.890196
0.776471 0.678431 0.898039
0.843137 0.682353 0.917647
0.917647 0.686275 0.933333
0.996078 0.690196 0.945098
0.560784 0.768627 0.913725
0.572549 0.768627 0.909804
0.6 0.768627 0.909804
0.65098 0.764706 0.901961
0.717647 0.760784 0.894118
0.807843 0.756863 0.866667
0.870588 0.756863 0.886275
0.909804 0.764706 0.933333
0.984314 0.768627 0.952941
0.576471 0.858824 0.941176
0.588235 0.862745 0.941176
0.615686 0.862745 0.941176
0.658824 0.858824 0.945098
0.713725 0.858824 0.945098
0.780392 0.858824 0.945098
0.85098 0.858824 0.94902
0.913725 0.866667 0.960784
0.992157 0.866667 1
0.588235 0.941176 0.956863
0.596078 0.941176 0.956863
0.619608 0.937255 0.952941
0.654902 0.933333 0.952941
0.705882 0.933333 0.952941
0.764706 0.929412 0.956863
0.831373 0.92549 0.960784
0.898039 0.929412 0.972549
0.992157 0.960784 1
0.564706 0.301961 0.933333
0.572549 0.301961 0.933333
0.6 0.309804 0.937255
0.647059 0.32549 0.941176
0.705882 0.345098 0.94902
0.772549 0.364706 0.956863
0.847059 0.388235 0.964706
0.92549 0.407843 0.976471
1 0.431373 0.984314
0.541176 0.321569 0.917647
0.552941 0.321569 0.917647
0.584314 0.333333 0.921569
0.631373 0.345098 0.929412
0.690196 0.360784 0.937255
0.760784 0.380392 0.94902
0.835294 0.4 0.956863
0.913725 0.419608 0.968627
0.996078 0.439216 0.976471
0.54902 0.403922 0.937255
0.560784 0.403922 0.937255
0.588235 0.407843 0.937255
0.635294 0.411765 0.941176
0.694118 0.423529 0.94902
0.764706 0.435294 0.956863
0.839216 0.45098 0.968627
0.921569 0.466667 0.976471
1 0.482353 0.988235
0.545098 0.486275 0.941176
0.556863 0.490196 0.945098
0.588235 0.490196 0.94902
0.635294 0.494118 0.952941
0.694118 0.498039 0.956863
0.760784 0.505882 0.960784
0.835294 0.513725 0.968627
0.909804 0.517647 0.976471
0.988235 0.529412 0.980392
0.552941 0.584314 0.952941
0.564706 0.580392 0.952941
0.592157 0.584314 0.956863
0.635294 0.584314 0.960784
0.694118 0.584314 0.964706
0.764706 0.588235 0.972549
0.835294 0.592157 0.980392
0.913725 0.6 0.988235
0.996078 0.603922 0.996078
0.568627 0.678431 0.968627
0.580392 0.678431 0.968627
0.607843 0.678431 0.968627
0.65098 0.67451 0.968627
0.709804 0.67451 0.972549
0.772549 0.67451 0.976471
0.843137 0.678431 0.984314
0.917647 0.678431 0.992157
0.992157 0.682353 1
0.580392 0.760784 0.972549
0.592157 0.760784 0.972549
0.615686 0.760784 0.972549
0.658824 0.756863 0.968627
0.717647 0.756863 0.964706
0.784314 0.752941 0.964706
0.85098 0.752941 0.972549
0.917647 0.756863 0.988235
0.988235 0.756863 1
0.592157 0.847059 0.992157
0.6 0.85098 0.992157
0.627451 0.85098 0.992157
0.670588 0.847059 0.992157
0.72549 0.847059 0.988235
0.8 0.843137 0.976471
0.894118 0.839216 0.94902
0.956863 0.839216 0.968627
0.996078 0.85098 1
0.6 0.929412 1
0.603922 0.929412 1
0.627451 0.92549 1
0.662745 0.921569 1
0.713725 0.921569 1
0.772549 0.917647 1
0.839216 0.917647 1
0.913725 0.917647 1
1 0.968627 1
