site/assets/luts/freshluts--0000134-s-log-to-rec709-contrasty.cube
# LUTr-Schema-Version: 2
# LUTr-ID: freshluts--0000134-s-log-to-rec709-contrasty
# LUTr-Title: S-Log to Rec709 - Contrasty
# LUTr-Collection: Fresh LUTs
# LUTr-Collection-ID: freshluts-community
# LUTr-Source: https://freshluts.com
# LUTr-Retrieved: 2026-07-27
# LUTr-Source-File: submissions-raw/freshluts/cubes/134__S-Log_to_Rec_709_-_Contrasty.cube
# LUTr-Source-Format: CUBE
# LUTr-Source-SHA256: 53fb78d952a8813a25c9410a78caf0a9c50cf24892e661686f68e84679722326
# LUTr-License: CC0-1.0
# LUTr-License-URL: https://freshluts.com/termsandconditions
# LUTr-License-Basis: site-terms
# LUTr-Transform-Class: creative-look
# LUTr-Tags: creative, freshluts, community, cube, high-contrast, sony-s-log1
# LUTr-Input-Color-Space:
# LUTr-Input-Gamut: sony-s-gamut
# LUTr-Input-Transfer: sony-s-log1
# LUTr-Output-Color-Space: srgb
# LUTr-Output-Gamut: rec709
# LUTr-Output-Transfer: srgb
# LUTr-Color-Space-Confidence: camera-profile-input-required
# LUTr-Domain-Normalized: true
# LUTr-Shaper: none
# LUTr-Original-Grid: 33x33x33
# LUTr-Conversion-Grid: 33x33x33
# LUTr-Conversion-Interpolation: none
# LUTr-Conversion-Method: Metadata normalization; numeric LUT samples preserved
# LUTr-Conversion-Tool: LUTr scripts/convert-all-to-cube.mjs 2.0.0
# LUTr-Conversion-Date: 2026-07-28
# LUTr-Asset-URL: https://freshluts.com/luts/134
# LUTr-Author: Alex Jordan
# LUTr-Author-URL: https://freshluts.com/users/1
# LUTr-Attribution: Alex Jordan via Fresh LUTs
# LUTr-Source-Labels: gamma=Sony S-Log; color=None; key=Neutral; style=High contrast
# LUTr-Note: Preserve this metadata and the upstream license notices when redistributing.
TITLE "S-Log to Rec709 - Contrasty"
LUT_3D_SIZE 33
DOMAIN_MIN 0 0 0
DOMAIN_MAX 1 1 1
0 0 0
0 0 0
0 0 0
0 0 0
0 0 0
0 0 0
0 0 0
0 0 0
0 0 0
0 0 0
0 0 0
0 0 0
0 0 0
0 0 0
0 0 0
0 0 0
0 0 0
0 0 0
0 0 0
0 0 0
0 0 0
0 0 0
0 0 0
0 0 0
0 0 0
0 0 0
0 0 0
0 0 0
0 0 0
0 0 0
0 0 0
0 0 0
0 0 0
0 0 0
0 0 0
0 0 0
0 0 0
0 0 0
0 0 0
0 0 0
0 0 0
0 0 0
0 0 0
0 0 0
0 0 0
0 0 0
0 0 0
0 0 0
0 0 0
0 0 0
0 0 0
0 0 0
0 0 0
0 0 0
0 0 0
0 0 0
0 0 0
0 0 0
0 0 0
0 0 0
0 0 0
0 0 0
0 0 0
0 0 0
0 0 0
0 0 0
0 0 0
0 0 0
0 0 0
0 0 0
0 0 0
0 0 0
0 0 0
0 0 0
0 0 0
0 0 0
0 0 0
0 0 0
0 0 0
0 0 0
0 0 0
0 0 0
0 0 0
0 0 0
0 0 0
0 0 0
0 0 0
0 0 0
0 0 0
0 0 0
0 0 0
0 0 0
0 0 0
0 0 0
0 0 0
0 0 0
0.0118715 0.000946059 0.000350958
0.0283513 0.00207523 0.000259403
0.0481422 0.00296025 0
0 0 0
0 0 0
0 0 0
0 0 0
0 0 0
0 0 0
0 0 0
0 0 0
0 0 0
0 0 0
0 0 0
0 0 0
0 0 0
0 0 0
0 0 0
0 0 0
0 0 0
0 0 0
0 0 0
0 0 0
0 0 0
0 0 0
0 0 0
0 0 0
0 0 0
0 0 0
0.00357061 0.000549325 0.000335698
0.0157931 0.00207523 0.000518807
0.0315862 0.00373846 0.000564584
0.0499275 0.00520333 0.000289921
0.0705272 0.00640879 0
0.0934005 0.00726329 0
0.118578 0.00770581 0
0 0 0
0 0 0
0 0 0
0 0 0
0 0 0
0 0 0
0 0 0
0 0 0
0 0 0
0 0 0
0 0 0
0 0 0
0 0 0
0 0 0
0 0 0
0 0 0
0 0 0
0 0 0
0 0 0
0 0 0
0 0 0
0 0 0
0 0 0
0.00709544 0.00149538 0.000457771
0.0187381 0.00364691 0.000717174
0.0334936 0.00584421 0.000793469
0.0501869 0.00787366 0.000457771
0.0689555 0.00970474 0
0.0897993 0.0111391 0
0.112947 0.0122377 0
0.138674 0.0128023 0
0.167819 0.0126345 0
0.202365 0.0110628 0
0 0 0
0 0 0
0 0 0
0 0 0
0 0 0
0 0 0
0 0 0
0 0 0
0 0 0
0 0 0
0 0 0
0 0 0
0 0 0
0 0 0
0 0 0
0 0 0
0 0 0
0 0 0
0 0 0
0.000534066 0.000167849 0.0000762951
0.00929274 0.00271611 0.000564584
0.0205386 0.00546273 0.000854505
0.033814 0.00828565 0.000839246
0.0490578 0.0109407 0.00062562
0.06598 0.0134279 0.0000610361
0.0848402 0.0156252 0
0.105745 0.0174563 0
0.128939 0.0188296 0
0.154818 0.0194553 0
0.184665 0.0193179 0
0.22118 0.0175021 0
0.272282 0.0118715 0
0.342428 0.000946059 0
0 0 0
0 0 0
0 0 0
0 0 0
0 0 0
0 0 0
0 0 0
0 0 0
0 0 0
0 0 0
0 0 0
0 0 0
0 0 0
0 0 0
0 0 0
0 0 0
0.00347906 0.00157168 0.000488289
0.0110933 0.00448615 0.000885023
0.0211795 0.00787366 0.00108339
0.033051 0.0112612 0.00115969
0.0466468 0.0145266 0.000946059
0.0617533 0.0176394 0.000411994
0.0783856 0.0203708 0
0.0971847 0.022858 0
0.117815 0.0250553 0
0.140902 0.0267338 0
0.166781 0.0277562 0
0.196887 0.0276036 0
0.234546 0.0257115 0
0.288777 0.0194095 0
0.357931 0.00917067 0
0.420447 0.000717174 0
0.477501 0 0
0 0 0
0 0 0
0 0 0
0 0 0
0 0 0
0 0 0
0 0 0
0 0 0
0 0 0
0 0 0
0 0 0
0 0 0
0 0 0
0.00485237 0.0028687 0.00062562
0.0117952 0.00657664 0.00105287
0.0206302 0.0104829 0.00131228
0.0309758 0.0144503 0.00140383
0.0428473 0.0183261 0.00123598
0.0561532 0.0220645 0.000717174
0.0710307 0.0255589 0
0.08748 0.028809 0
0.105837 0.0317082 0
0.125978 0.0340887 0
0.148562 0.0361181 0
0.174136 0.0374762 0
0.204135 0.0377508 0
0.241733 0.035874 0
0.296269 0.0297246 0
0.363668 0.0202029 0
0.424247 0.0124514 0
0.48014 0.00631724 0
0.533928 0.000885023 0
0.587274 0 0
0 0 0
0 0 0
0 0 0
0 0 0
0 0 0
0 0 0
0 0 0
0 0 0
0 0 0
0.00102235 0.000946059 0.000274662
0.0055848 0.00466926 0.0009308
0.0116732 0.00898756 0.00146487
0.0192264 0.0135042 0.00183108
0.0280613 0.0180362 0.00199893
0.0382849 0.0224918 0.00189212
0.0497749 0.0268254 0.00151064
0.0626078 0.0308995 0.000839246
0.0770428 0.0346685 0
0.09308 0.0383154 0
0.110872 0.0415961 0
0.130587 0.0444953 0
0.152544 0.0467231 0
0.177493 0.0484321 0
0.206699 0.0491188 0
0.243229 0.0479591 0
0.29543 0.0424659 0
0.361303 0.0335546 0
0.421775 0.026276 0
0.477104 0.0202792 0
0.530373 0.0151675 0
0.583169 0.0103456 0
0.636927 0.00520333 0
0.69276 0 0
0 0 0
0 0 0
0 0 0
0 0 0
0 0 0
0 0 0
0.0021973 0.00277714 0.000671397
0.00590524 0.00694286 0.00120546
0.0109102 0.0118257 0.00177005
0.0169375 0.0169375 0.00218204
0.0242313 0.022034 0.00236515
0.0325322 0.0269627 0.00222782
0.0421759 0.0318608 0.00192264
0.0531777 0.0366217 0.00137331
0.0654459 0.0412146 0.00047303
0.0793164 0.0455329 0
0.0945296 0.0494087 0
0.111604 0.0531167 0
0.130526 0.0564431 0
0.151644 0.0592966 0
0.175341 0.0613718 0
0.202914 0.0627451 0
0.236728 0.0625315 0
0.283574 0.058732 0
0.347143 0.0506447 0
0.408988 0.0431678 0
0.464576 0.0373388 0
0.518257 0.0323796 0
0.57174 0.0275883 0
0.625895 0.0225986 0
0.681437 0.0176089 0
0.741238 0.0114137 0
0.804273 0.00466926 0
0 0 0
0 0 0
0 0 0
0.00198367 0.00460822 0.000808728
0.00486763 0.00956741 0.00132753
0.00889601 0.0149996 0.00173953
0.0139467 0.0205386 0.00205997
0.0198825 0.026154 0.00215152
0.0263828 0.0318456 0.00215152
0.0339666 0.0374456 0.00192264
0.0428626 0.0428626 0.00140383
0.052903 0.0480049 0.000488289
0.0644083 0.0530251 0
0.0773785 0.0578012 0
0.0918441 0.0623178 0
0.10779 0.0663462 0
0.125628 0.0701762 0
0.145571 0.0735943 0
0.167895 0.0764477 0
0.193286 0.0784466 0
0.223484 0.0794385 0
0.262577 0.0781415 0
0.318791 0.0720989 0
0.383597 0.0640726 0
0.442237 0.0577554 0
0.497475 0.0525063 0
0.551843 0.0478065 0
0.606439 0.0429541 0
0.662104 0.0381781 0
0.720027 0.0330053 0
0.781353 0.0268254 0
0.84538 0.0202945 0
0.91162 0.0131838 0
0.00111391 0.00708019 0.00111391
0.0027924 0.0127871 0.0016022
0.00531014 0.0188449 0.00196841
0.00900282 0.0249332 0.00216678
0.0136263 0.0310674 0.00210575
0.0191958 0.0370947 0.00177005
0.0256809 0.0429694 0.00125124
0.0329442 0.0489662 0.000610361
0.0405127 0.055024 0
0.0494545 0.060853 0
0.0598611 0.066392 0
0.0715953 0.0715953 0
0.0848554 0.0766308 0
0.099794 0.0813611 0
0.116243 0.0856336 0
0.134813 0.0896315 0
0.155413 0.0932021 0
0.178561 0.096025 0
0.205295 0.0981918 0
0.237598 0.0989548 0
0.28072 0.0967422 0
0.343114 0.0896162 0
0.407874 0.082002 0
0.466545 0.0760357 0
0.522377 0.0711833 0
0.577707 0.0665446 0
0.633005 0.0621042 0
0.688899 0.0577249 0
0.748043 0.0524605 0
0.809613 0.046952 0
0.872892 0.0408789 0
0.938018 0.0348363 0
1 0.0285496 0
0.00210575 0.0297551 0.00210575
0.00523384 0.0364385 0.0019379
0.00935378 0.0430304 0.0015259
0.0142824 0.0496071 0.000915541
0.0204166 0.0560464 0.0000457771
0.0272526 0.0622721 0
0.035172 0.068452 0
0.0437171 0.0746471 0
0.0523537 0.0809186 0
0.0623331 0.0867475 0
0.0741894 0.0924239 0
0.0877089 0.0977951 0
0.102754 0.102754 0
0.119631 0.107347 0
0.13846 0.111666 0
0.159426 0.115373 0
0.183139 0.118517 0
0.210559 0.120882 0
0.243946 0.121553 0
0.289937 0.119188 0
0.355383 0.111727 0
0.421134 0.104067 0
0.480644 0.098558 0
0.537316 0.0938888 0
0.592981 0.0895705 0
0.648615 0.0856336 0
0.704234 0.0816358 0
0.763012 0.0771649 0
0.823484 0.0723125 0
0.885649 0.0673686 0
0.949264 0.0623484 0
1 0.0571908 0
1 0.052079 0
0.000488289 0.0568551 0.000488289
0.0049897 0.0637675 0
0.0104829 0.0706493 0
0.0170291 0.0773632 0
0.0242618 0.0839399 0
0.0325322 0.0903182 0
0.0416419 0.0967117 0
0.0514534 0.103075 0
0.0608682 0.109438 0
0.0722057 0.115602 0
0.0855726 0.12137 0
0.100481 0.126635 0
0.117388 0.131685 0
0.136339 0.136339 0
0.157443 0.140337 0
0.181323 0.143954 0
0.209079 0.1467 0
0.242267 0.147906 0
0.287068 0.146319 0
0.352743 0.139071 0
0.421347 0.13135 0
0.482322 0.125887 0
0.539773 0.121386 0
0.595728 0.117617 0
0.651087 0.114015 0
0.70631 0.110948 0
0.763973 0.107118 0
0.82356 0.10341 0
0.884627 0.0995499 0
0.947112 0.0954604 0
1 0.0914778 0
1 0.0869459 0
1 0.0824292 0
0 0.087068 0
0.0012665 0.0942397 0
0.00816358 0.101228 0
0.0158694 0.108003 0
0.0245975 0.114717 0
0.0341497 0.12137 0
0.04448 0.127932 0
0.0553445 0.134325 0
0.0657359 0.141131 0
0.0781872 0.147463 0
0.0927138 0.153292 0
0.1093 0.158846 0
0.127916 0.163851 0
0.148943 0.168566 0
0.172686 0.172686 0
0.199695 0.175906 0
0.231785 0.178149 0
0.272099 0.178027 0
0.331518 0.173159 0
0.404364 0.164828 0
0.468788 0.158648 0
0.528115 0.154406 0
0.584802 0.15079 0
0.640589 0.147906 0
0.696056 0.145296 0
0.752712 0.142763 0
0.812116 0.140002 0
0.874205 0.136919 0
0.939254 0.133669 0
1 0.130312 0
1 0.127153 0
1 0.123552 0
1 0.121004 0
0 0.120546 0
0 0.127855 0
0.00128176 0.134874 0
0.0104982 0.141894 0
0.0205539 0.148821 0
0.0313115 0.155459 0
0.0428016 0.162264 0
0.0547646 0.169085 0
0.0655528 0.176165 0
0.0787518 0.183017 0
0.094377 0.189212 0
0.112428 0.194995 0
0.132998 0.200366 0
0.155962 0.205005 0
0.182254 0.209094 0
0.212299 0.212299 0
0.248035 0.214054 0
0.295674 0.212863 0
0.365515 0.205676 0
0.437995 0.198123 0
0.501198 0.193179 0
0.560601 0.189883 0
0.617823 0.187106 0
0.675135 0.185245 0
0.732998 0.183612 0
0.794644 0.181491 0
0.859815 0.179721 0
0.92781 0.177493 0
0.999802 0.175753 0
1 0.174472 0
1 0.173419 0
1 0.173266 0
1 0.174563 0
0 0.157366 0
0 0.164843 0
0 0.172198 0
0 0.179339 0
0.0104982 0.186572 0
0.0222019 0.193805 0
0.034226 0.200961 0
0.0464637 0.208423 0
0.0577707 0.216297 0
0.0715496 0.223529 0
0.0884108 0.230228 0
0.107912 0.236179 0
0.130236 0.241794 0
0.155459 0.246494 0
0.183993 0.25069 0
0.21677 0.253971 0
0.255528 0.255512 0
0.308049 0.253971 0
0.383383 0.246174 0
0.456977 0.23946 0
0.522347 0.235431 0
0.584543 0.232929 0
0.646082 0.231342 0
0.708034 0.230564 0
0.771893 0.229877 0
0.840528 0.229725 0
0.913008 0.230045 0
0.988968 0.23035 0
1 0.232578 0
1 0.234821 0
1 0.237903 0
1 0.241459 0
1 0.245045 0
0 0.19852 0
0 0.206409 0
0 0.21445 0
0 0.222461 0
0 0.230259 0
0.00149538 0.2383 0
0.0140993 0.246296 0
0.0269627 0.254124 0
0.0379034 0.263005 0
0.0519112 0.270954 0
0.0699626 0.278111 0
0.0910964 0.284657 0
0.115068 0.290364 0
0.142306 0.295598 0
0.173022 0.299992 0
0.208118 0.303563 0
0.249531 0.305684 0
0.304891 0.304875 0
0.385367 0.297322 0
0.464591 0.291508 0
0.535454 0.288396 0
0.603601 0.287266 0
0.671901 0.287816 0
0.741024 0.289113 0
0.814176 0.291508 0
0.89192 0.295003 0
0.973129 0.298451 0
1 0.302968 0
1 0.307881 0
1 0.31223 0
1 0.315419 0
1 0.318059 0
1 0.319463 0
0 0.247196 0
0 0.256626 0
0 0.265766 0
0 0.275105 0
0 0.284413 0
0 0.293339 0
0 0.302281 0
0 0.311192 0
0 0.32108 0
0.00994888 0.329656 0
0.0294194 0.337392 0
0.0529946 0.344259 0
0.0794232 0.350271 0
0.1093 0.356283 0
0.142214 0.361578 0
0.179706 0.366537 0
0.223636 0.370535 0
0.280873 0.371756 0
0.366384 0.366369 0
0.454902 0.362173 0
0.533715 0.361089 0
0.611627 0.363333 0
0.689403 0.366995 0
0.768612 0.371756 0
0.851942 0.376837 0
0.938735 0.382254 0
1 0.386038 0
1 0.389334 0
1 0.391669 0
1 0.39295 0
1 0.393057 0
1 0.392844 0
1 0.391302 0
0 0.311284 0
0 0.321736 0
0 0.331563 0
0 0.340688 0
0 0.349523 0
0 0.357748 0
0 0.365988 0
0 0.374441 0
0 0.383597 0
0 0.39205 0
0 0.399863 0
0.0183261 0.407645 0
0.0474098 0.415229 0
0.0800031 0.423087 0
0.115801 0.430381 0
0.156756 0.438514 0
0.203632 0.445792 0
0.262669 0.451667 0
0.351278 0.451881 0
0.450767 0.450752 0
0.538705 0.453742 0
0.623423 0.4598 0
0.706035 0.465858 0
0.787823 0.471885 0
0.872435 0.476005 0
0.959503 0.479026 0
1 0.479728 0
1 0.479667 0
1 0.477882 0
1 0.475288 0
1 0.472007 0
1 0.468421 0
1 0.464424 0
0 0.37879 0
0 0.387488 0
0 0.395819 0
0 0.403662 0
0 0.411643 0
0 0.41915 0
0 0.427375 0
0 0.436362 0
0 0.446464 0
0 0.456764 0
0 0.466346 0
0 0.476509 0
0.0277409 0.487205 0
0.0643931 0.498146 0
0.105272 0.50988 0
0.151858 0.522881 0
0.203387 0.534905 0
0.265187 0.546563 0
0.349813 0.552514 0
0.459434 0.551827 0
0.553887 0.553872 0
0.640604 0.558114 0
0.72282 0.561639 0
0.803067 0.564874 0
0.88426 0.566751 0
0.967117 0.567269 0
1 0.56643 0
1 0.564981 0
1 0.562097 0
1 0.558587 0
1 0.554467 0
1 0.549325 0
1 0.544091 0
0 0.441733 0
0 0.4495 0
0 0.457328 0
0 0.465553 0
0 0.474083 0
0 0.483375 0
0 0.49337 0
0 0.504311 0
0 0.517357 0
0 0.530816 0
0 0.543816 0
0 0.558724 0
0.0222477 0.573739 0
0.0648661 0.589517 0
0.111528 0.605554 0
0.162127 0.621469 0
0.216114 0.635157 0
0.276249 0.647089 0
0.350545 0.653941 0
0.458747 0.650462 0
0.559777 0.647562 0
0.647776 0.647761 0
0.729442 0.64799 0
0.808316 0.648493 0
0.887251 0.648493 0
0.967132 0.647166 0
1 0.645457 0
1 0.642649 0
1 0.639704 0
1 0.635798 0
1 0.631739 0
1 0.627039 0
1 0.622065 0
0 0.504906 0
0 0.513695 0
0 0.523461 0
0 0.533608 0
0 0.544549 0
0 0.557092 0
0 0.570184 0
0 0.585321 0
0 0.60322 0
0 0.621012 0
0 0.638819 0
0 0.657298 0
0.0291447 0.674418 0
0.0750591 0.690669 0
0.122805 0.705409 0
0.173175 0.718822 0
0.225696 0.72961 0
0.282597 0.738613 0
0.34847 0.744427 0
0.442512 0.741192 0
0.55314 0.733349 0
0.644327 0.729397 0
0.727581 0.727565 0
0.806302 0.725978 0
0.883284 0.724651 0
0.96173 0.722255 0
1 0.719585 0
1 0.716213 0
1 0.712596 0
1 0.708507 0
1 0.704112 0
1 0.699611 0
1 0.694652 0
0 0.575769 0
0 0.587411 0
0 0.600473 0
0 0.613886 0
0 0.629602 0
0 0.646479 0
0 0.664363 0
0 0.683848 0
0 0.70486 0
0 0.724254 0
0 0.741634 0
0 0.75758 0
0.03505 0.771969 0
0.0809491 0.78439 0
0.128908 0.796017 0
0.177813 0.805585 0
0.229679 0.814221 0
0.284398 0.820844 0
0.345159 0.825422 0
0.42266 0.824674 0
0.536446 0.813733 0
0.634363 0.806332 0
0.71986 0.802304 0
0.799084 0.799084 0
0.875044 0.796536 0
0.952239 0.793637 0
1 0.790051 0
1 0.78648 0
1 0.7823 0
1 0.77818 0
1 0.773602 0
1 0.768917 0
1 0.764477 0
0 0.660471 0
0 0.677012 0
0 0.694621 0
0 0.712749 0
0 0.732433 0
0 0.751522 0
0 0.770336 0
0 0.788342 0
0 0.807065 0
0 0.822721 0
0 0.836896 0
0 0.848936 0
0.0343633 0.859693 0
0.0811475 0.869108 0
0.129503 0.877531 0
0.178607 0.884779 0
0.23006 0.89131 0
0.28365 0.896162 0
0.341543 0.899611 0
0.409445 0.90013 0
0.510643 0.890883 0
0.619165 0.879774 0
0.707927 0.873259 0
0.788998 0.869001 0
0.865385 0.86537 0
0.940795 0.862028 0
1 0.858122 0
1 0.85388 0
1 0.849744 0
1 0.845258 0
1 0.84097 0
1 0.836469 0
1 0.832197 0
0 0.764935 0
0 0.784512 0
0 0.803861 0
0 0.821714 0
0 0.839292 0
0 0.8551 0
0 0.8701 0
0 0.884337 0
0 0.898985 0
0 0.91133 0
0 0.92221 0
0 0.931182 0
0.0304723 0.93933 0
0.0780957 0.946487 0
0.126787 0.95259 0
0.176928 0.958358 0
0.227558 0.963058 0
0.28069 0.967208 0
0.336751 0.969833 0
0.399207 0.970703 0
0.482307 0.965454 0
0.597604 0.95137 0
0.692744 0.942397 0
0.775906 0.936385 0
0.853605 0.931899 0
0.927871 0.927855 0
1 0.923629 0
1 0.919158 0
1 0.914778 0
1 0.910414 0
1 0.90602 0
1 0.901991 0
1 0.89781 0
0 0.876417 0
0 0.893187 0
0 0.908629 0
0 0.92253 0
0 0.93579 0
0 0.947478 0
0 0.958831 0
0 0.969818 0
0 0.981277 0
0 0.991424 0
0 0.999466 0
0 1 0
0.0261234 1 0
0.0744945 1 0
0.123781 1 0
0.174166 1 0
0.224826 1 0
0.277287 1 0
0.331975 1 0
0.391058 1 0
0.462379 1 0
0.571069 1 0
0.675105 1 0
0.761227 1 0
0.839887 0.996033 0
0.914137 0.99147 0
0.986831 0.986831 0
1 0.982361 0
1 0.977722 0
1 0.973251 0
1 0.969146 0
1 0.964904 0
1 0.961013 0
0 0.977798 0
0 0.990234 0
0 1 0
0 1 0
0 1 0
0 1 0
0 1 0
0 1 0
0 1 0
