site/assets/luts/freshluts--0000541-yelloworange.cube
# LUTr-Schema-Version: 2
# LUTr-ID: freshluts--0000541-yelloworange
# LUTr-Title: yellow+orange
# LUTr-Collection: Fresh LUTs
# LUTr-Collection-ID: freshluts-community
# LUTr-Source: https://freshluts.com
# LUTr-Retrieved: 2026-07-27
# LUTr-Source-File: submissions-raw/freshluts/cubes/541__yellow_orange_33pt.cube_4.A008_04270543_C022.cube
# LUTr-Source-Format: CUBE
# LUTr-Source-SHA256: 9d7bcad84c4569be1faac1fa27a8557c026d197c5c6a9e0177abd885e4b57b86
# LUTr-License: CC0-1.0
# LUTr-License-URL: https://freshluts.com/termsandconditions
# LUTr-License-Basis: site-terms
# LUTr-Transform-Class: creative-look
# LUTr-Tags: creative, freshluts, community, cube, warm, bmd-film-4k
# LUTr-Input-Color-Space:
# LUTr-Input-Gamut: bmd-film-gamut
# LUTr-Input-Transfer: bmd-film-4k
# LUTr-Output-Color-Space: srgb
# LUTr-Output-Gamut: rec709
# LUTr-Output-Transfer: srgb
# LUTr-Color-Space-Confidence: camera-profile-input-required
# LUTr-Domain-Normalized: true
# LUTr-Shaper: none
# LUTr-Original-Grid: 33x33x33
# LUTr-Conversion-Grid: 33x33x33
# LUTr-Conversion-Interpolation: none
# LUTr-Conversion-Method: Metadata normalization; numeric LUT samples preserved
# LUTr-Conversion-Tool: LUTr scripts/convert-all-to-cube.mjs 2.0.0
# LUTr-Conversion-Date: 2026-07-28
# LUTr-Asset-URL: https://freshluts.com/luts/541
# LUTr-Author: sswyft
# LUTr-Author-URL: https://freshluts.com/users/10877
# LUTr-Attribution: sswyft via Fresh LUTs
# LUTr-Source-Labels: gamma=Blackmagic BMD Film 4K; color=Warm; key=Neutral; style=Colorful
# LUTr-Note: Preserve this metadata and the upstream license notices when redistributing.
TITLE "yellow+orange"
LUT_3D_SIZE 9
DOMAIN_MIN 0 0 0
DOMAIN_MAX 1 1 1
0 0 0
0.0551308 0 0
0.102602 0 0
0.210742 0 0
0.351293 0 0
0.49749 0 0
0.634104 0 0
0.768109 0 0
0.914565 0 0
0 0.0306554 0
0.0557107 0.0312657 0
0.11284 0.0284276 0
0.262959 0.00669871 0
0.445945 0 0
0.641657 0 0
0.805997 0 0
0.929808 0 0
1 0.00259403 0
0 0.103944 0
0.0187991 0.118196 0
0.161715 0.126268 0
0.320302 0.123949 0
0.523171 0.120134 0
0.714122 0.121996 0
0.869017 0.134646 0
0.995956 0.154757 0
1 0.176745 0.0158236
0 0.270024 0
0 0.29955 0
0.123018 0.319341 0
0.325216 0.322911 0
0.532113 0.32221 0
0.717708 0.322194 0
0.87335 0.335805 0
1 0.357366 0.000564584
1 0.381369 0.0247349
0 0.471 0
0 0.501991 0
0.119966 0.522622 0
0.318486 0.524895 0
0.527352 0.526436 0
0.718242 0.529534 0
0.873594 0.543008 0
0.999802 0.562737 0.000579843
1 0.583261 0.0214237
0 0.670893 0
0.00605783 0.703532 0
0.134112 0.724819 0
0.331731 0.726375 0
0.536141 0.724605 0
0.724697 0.724697 0
0.874495 0.732815 0
0.993988 0.745892 0
1 0.758877 0.0100557
0 0.857832 0
0.0496529 0.887678 0
0.17319 0.90454 0.0128481
0.364584 0.900114 0.00898756
0.561822 0.891493 0.000869764
0.742519 0.884016 0
0.884565 0.884565 0
0.996719 0.890455 0.00125124
1 0.896452 0.00770581
0.0216678 1 0.0216678
0.0986496 1 0.0446021
0.214542 1 0.0545205
0.398276 1 0.0433509
0.587808 1 0.027863
0.761501 1 0.0141909
0.897231 1 0.00910964
1 1 0.0101167
1 0.997787 0.152087
0.0604715 1 0.0604868
0.130343 1 0.0763867
0.239445 1 0.0796979
0.4168 1 0.0624399
0.60972 1 0.0648203
0.818998 1 0.262226
0.953216 1 0.624079
1 1 0.986206
1 1 1
0 0 0.0172427
0.022034 0 0.022034
0.103761 0 0
0.215183 0 0.00143435
0.358572 0 0
0.508415 0 0
0.6495 0 0
0.789776 0 0
0.938262 0 0
0 0.0318303 0.0318303
0.0350652 0.0350652 0.0350652
0.142229 0.00534066 0
0.270253 0.00791943 0.00791943
0.45893 0 0
0.657755 0 0
0.815488 0 0
0.939879 0 0
1 0.0130007 0.0130007
0 0.108293 0.0133974
0.0229343 0.124544 0.0229496
0.170413 0.1346 0
0.329809 0.13344 0.0267643
0.533318 0.130282 0.0236057
0.724636 0.13254 0.0258793
0.879789 0.145495 0.0388495
1 0.165057 0.0584421
1 0.187747 0.0811627
0 0.279896 0
0.00683604 0.309834 0.00683604
0.133867 0.330175 0.0272221
0.335637 0.333333 0
0.541894 0.332494 0
0.728466 0.332998 0.0302739
0.884276 0.346807 0.0442206
1 0.368719 0.0662547
1 0.392309 0.0899977
0 0.481468 0
0.00326543 0.512581 0.00328069
0.130892 0.533471 0.0243229
0.329824 0.536202 0.0272679
0.540993 0.538705 0
0.729351 0.540658 0.0322271
0.884108 0.553597 0.0454261
1 0.573068 0.0651865
1 0.592966 0.085359
0 0.68191 0
0.0171664 0.714504 0.0171664
0.145113 0.735714 0.0387274
0.342184 0.736767 0.0401465
0.545953 0.734401 0.0381476
0.733944 0.733944 0.0381323
0.882765 0.741115 0.0456855
1 0.753689 0.0586709
1 0.765835 0.0711986
0 0.868269 0.0299229
0.0596475 0.897505 0.0596628
0.182437 0.913619 0.0762341
0.372976 0.9084 0.071519
0.56907 0.898695 0.0622568
0.749294 0.890761 0.0548257
0.890578 0.890578 0.0551003
1 0.895766 0.0607156
1 0.901137 0.0665141
0.0298161 1 0.0838636
0.10602 1 0.106035
0.221134 1 0.11516
0.40412 1 0.103227
0.592935 1 0.0870375
0.766323 1 0.0730602
0.901274 1 0.067155
1 1 0.0871901
1 0.997101 0.288716
0.0661326 1 0.120104
0.135332 1 0.135332
0.243915 1 0.138094
0.420768 1 0.120363
0.632593 1 0.168566
0.846708 1 0.412146
0.971084 1 0.783734
1 1 0.993973
1 1 1
0 0 0.0861219
0.0210117 0 0.0905928
0.0905776 0 0.0905776
0.216968 0 0.0759747
0.36318 0 0.0571603
0.517205 0 0.0389258
0.662623 0 0.0278172
0.807385 0 0.0257725
0.955139 0 0.0325475
0 0.0301518 0.108278
0.0331884 0.0331884 0.115953
0.116045 0.0277714 0.116045
0.271199 0.0043183 0.0791638
0.469184 0 0.0859236
0.667872 0 0.079118
0.821195 0 0.0866255
0.946181 0 0.10457
1 0.0200046 0.12668
0 0.109773 0.109773
0.0246738 0.128237 0.128237
0.141741 0.141741 0.141741
0.337896 0.137407 0.107485
0.539849 0.136843 0.136843
0.73167 0.13962 0.13962
0.886397 0.152163 0.152163
1 0.172045 0.172045
1 0.194781 0.194781
0 0.285985 0.0896315
0.0137789 0.316747 0.120439
0.140688 0.33698 0.140688
0.371588 0.335607 0.0625467
0.543404 0.336767 0.139086
0.735592 0.340185 0.144076
0.891768 0.35436 0.158312
1 0.375982 0.180026
1 0.39971 0.203845
0 0.48809 0.0852979
0.0102388 0.519478 0.116808
0.138399 0.540917 0.138399
0.337118 0.543465 0.1411
0.548501 0.546197 0.106081
0.742702 0.550729 0.0938125
0.890959 0.56051 0.15877
1 0.579156 0.177615
1 0.598367 0.197086
0 0.689204 0.098085
0.0246281 0.721874 0.131044
0.152041 0.742535 0.152041
0.348913 0.743404 0.153246
0.552117 0.74052 0.150683
0.73933 0.739315 0.149844
0.887297 0.745678 0.156527
1 0.757244 0.168429
1 0.768872 0.180392
0 0.87451 0.142626
0.0653239 0.903044 0.171572
0.18732 0.918349 0.18732
0.37731 0.912657 0.18201
0.57261 0.902174 0.171939
0.752056 0.893507 0.163684
0.892592 0.892592 0.163195
1 0.897093 0.168063
1 0.90219 0.17351
0.0336614 1 0.193805
0.109392 1 0.215396
0.223743 1 0.223758
0.405982 1 0.211048
0.594079 1 0.194125
0.766918 1 0.179568
0.901411 1 0.17319
1 1 0.232502
1 0.994141 0.463325
0.0677806 1 0.227634
0.136355 1 0.242206
0.24445 1 0.24445
0.420844 1 0.226215
0.660639 1 0.325307
0.874784 1 0.581064
0.991272 1 0.943648
1 1 1
1 1 1
0 0 0.208972
0.0159609 0 0.216632
0.0858778 0 0.222126
0.213962 0 0.213962
0.362921 0 0.202808
0.521248 0 0.194186
0.671992 0 0.195026
0.819196 0 0.206577
0.962203 0 0.224735
0 0.0234836 0.249592
0.0261997 0.0261997 0.26627
0.11078 0.0204471 0.277043
0.275242 0 0.275242
0.47332 0 0.272908
0.668849 0 0.273259
0.820493 0 0.282277
0.94641 0 0.301213
1 0.0203708 0.323323
0 0.10544 0.288609
0.0211185 0.126253 0.319753
0.140642 0.140642 0.336996
0.33521 0.138872 0.33521
0.540246 0.13724 0.333562
0.731975 0.139956 0.336248
0.886732 0.152529 0.348775
1 0.172396 0.368582
1 0.195727 0.391852
0 0.286122 0.286122
0.0140688 0.317037 0.317037
0.141283 0.337545 0.337545
0.338079 0.338079 0.338079
0.543755 0.337255 0.337255
0.736461 0.341131 0.341131
0.892485 0.355184 0.355184
1 0.37705 0.37705
1 0.400275 0.400275
0 0.488411 0.281865
0.0111238 0.520333 0.313848
0.139208 0.54168 0.335271
0.338231 0.544549 0.338247
0.578271 0.542351 0.259449
0.738201 0.548806 0.329946
0.890883 0.560494 0.354498
1 0.578866 0.372992
1 0.59733 0.391577
0 0.690166 0.295125
0.02533 0.722423 0.327581
0.152697 0.743099 0.34844
0.349065 0.743481 0.349065
0.551278 0.739651 0.345449
0.742245 0.739956 0.308141
0.891524 0.746609 0.298039
1 0.755261 0.343938
1 0.765225 0.371908
0 0.874281 0.338109
0.064622 0.902174 0.366323
0.185794 0.916686 0.381155
0.374853 0.910079 0.374853
0.569467 0.898955 0.364034
0.74815 0.88957 0.35494
0.892348 0.890059 0.318044
0.998001 0.891783 0.357717
1 0.896345 0.362524
0.0310826 1 0.386419
0.106035 1 0.407156
0.219654 1 0.414664
0.401175 1 0.401175
0.588632 1 0.383566
0.760937 1 0.368399
0.895171 1 0.361654
0.993606 0.993591 0.452522
1 0.989059 0.662669
0.0627909 1 0.417472
0.130892 1 0.431479
0.238392 1 0.433066
0.429313 1 0.429313
0.692454 1 0.540917
0.904707 1 0.762432
1 1 0.992844
1 1 1
1 1 1
0 0 0.338048
0.00987259 0 0.35256
0.0804456 0 0.365072
0.210285 0 0.364324
0.362325 0 0.362325
0.524727 0 0.364828
0.681178 0 0.37995
0.829816 0 0.405081
0.964462 0 0.429435
0 0.0160525 0.404044
0.0184024 0.0184024 0.431266
0.104967 0.0124819 0.454398
0.274022 0 0.466545
0.475944 0 0.475944
0.667338 0 0.478187
0.819577 0 0.488075
0.9458 0 0.507286
1 0.0199435 0.529534
0 0.100999 0.485237
0.0175021 0.123659 0.524742
0.138964 0.138964 0.542016
0.334569 0.138231 0.541268
0.539757 0.136782 0.539742
0.731792 0.139788 0.542702
0.885969 0.151858 0.55465
1 0.172396 0.575097
1 0.195712 0.598245
0 0.28542 0.492103
0.0139315 0.316899 0.523552
0.140719 0.336965 0.543572
0.337835 0.337835 0.544381
0.54374 0.337255 0.54374
0.736446 0.341146 0.547555
0.89279 0.35555 0.561883
1 0.37702 0.58323
1 0.400275 0.606378
0 0.488197 0.488197
0.0110933 0.520226 0.520226
0.13959 0.542 0.542
0.338277 0.544564 0.544564
0.544793 0.544793 0.544793
0.736019 0.549874 0.523033
0.890196 0.559884 0.559884
1 0.577523 0.577523
1 0.595285 0.595285
0 0.690135 0.501396
0.0254826 0.722469 0.533822
0.152178 0.742443 0.553918
0.347951 0.742306 0.553857
0.549767 0.738094 0.549767
0.739712 0.737423 0.511376
0.886198 0.742412 0.518013
0.998245 0.750362 0.562371
1 0.760571 0.572671
0 0.873152 0.542947
0.0629129 0.900298 0.570291
0.18323 0.914 0.584192
0.371313 0.906432 0.576822
0.565332 0.894759 0.565332
0.743252 0.884642 0.555398
0.886748 0.884459 0.517632
0.998108 0.888609 0.505028
1 0.892607 0.510536
0.027512 1 0.588235
0.101701 1 0.608133
0.214618 1 0.614832
0.395392 1 0.600534
0.582528 1 0.582544
0.754086 1 0.566537
0.889342 0.992813 0.568856
0.988556 0.986847 0.632792
1 0.988113 0.803571
0.0568093 1 0.616571
0.124605 1 0.630137
0.231434 1 0.631006
0.453544 1 0.640894
0.734295 1 0.734295
0.940352 1 0.899855
1 1 1
1 1 1
1 1 1
0 0 0.457069
0.00428779 0 0.481575
0.0755169 0 0.501198
0.207568 0 0.508476
0.363058 0 0.516014
0.529793 0 0.529778
0.690623 0 0.558251
0.839277 0 0.593912
0.964355 0 0.618006
0 0.00920119 0.552026
0.0113832 0.0113832 0.590509
0.100679 0.00582895 0.627207
0.274556 0 0.651423
0.478157 0 0.6663
0.667109 0 0.667109
0.819944 0 0.677592
0.946639 0 0.697261
1 0.0210727 0.719722
0 0.0985885 0.674128
0.0157626 0.122393 0.714382
0.13904 0.13904 0.731228
0.335119 0.138796 0.730938
0.540856 0.137911 0.729976
0.732433 0.140505 0.732433
0.886931 0.15288 0.744671
1 0.17351 0.765103
1 0.197086 0.788449
0 0.286397 0.6822
0.0148165 0.317739 0.713466
0.141543 0.337789 0.73344
0.33872 0.33872 0.734249
0.5449 0.33843 0.733837
0.738003 0.342763 0.737987
0.894011 0.356878 0.751934
1 0.37847 0.773342
1 0.401114 0.795789
0 0.489174 0.678157
0.012665 0.521721 0.710643
0.140963 0.543313 0.732143
0.339681 0.545922 0.734676
0.545953 0.545968 0.7346
0.73724 0.548699 0.73724
0.890288 0.560021 0.748455
1 0.577066 0.765377
1 0.593927 0.782147
0 0.6916 0.6916
0.0265049 0.723354 0.723354
0.153048 0.743206 0.743206
0.348211 0.742473 0.742473
0.549233 0.737514 0.737514
0.733944 0.733944 0.733944
0.879484 0.737942 0.737942
0.9953 0.747463 0.747463
1 0.756954 0.756954
0 0.872724 0.730968
0.0618906 0.899092 0.757412
0.181674 0.912306 0.770718
0.368963 0.903975 0.762463
0.562203 0.891569 0.750118
0.739376 0.880735 0.739376
0.882155 0.879866 0.700847
0.991104 0.882719 0.70518
1 0.884001 0.74284
0.024979 1 0.773587
0.0984207 1 0.792615
0.210575 1 0.798505
0.390661 1 0.783459
0.577264 1 0.764874
0.748348 0.99559 0.748348
0.887221 0.984787 0.757458
0.98323 0.981796 0.801846
1 0.989929 0.920302
0.0519722 1 0.799268
0.119219 1 0.812238
0.22591 1 0.81268
0.492897 1 0.820249
0.783154 1 0.875517
0.98381 1 0.98381
1 1 1
1 1 1
1 1 1
0 0 0.555688
0.000793469 0 0.584894
0.0727703 0 0.610529
0.207187 0 0.624582
0.366781 0 0.641032
0.5393 0 0.665629
0.703578 0 0.703563
0.848768 0 0.742351
0.967483 0 0.763485
0 0.00477607 0.672114
0.00698863 0.00698863 0.720287
0.0996262 0.00239567 0.769146
0.27866 0 0.801038
0.481956 0 0.813291
0.670329 0 0.81268
0.823941 0 0.823926
0.951019 0.00296025 0.844007
1 0.0251926 0.866056
0 0.100023 0.824445
0.0185092 0.125216 0.8598
0.142535 0.14255 0.877089
0.339467 0.143145 0.877638
0.545083 0.142138 0.876509
0.73666 0.144747 0.87895
0.891112 0.157153 0.891112
1 0.178195 0.911925
1 0.202014 0.935454
0 0.290578 0.828717
0.0191501 0.322072 0.86009
0.145571 0.341787 0.879667
0.343069 0.343069 0.880781
0.549767 0.343343 0.880858
0.742657 0.347463 0.884779
0.898878 0.361837 0.898878
1 0.38291 0.919676
1 0.405493 0.941985
0 0.493919 0.825101
0.0173648 0.526375 0.857435
0.14583 0.548119 0.879026
0.344472 0.550683 0.881422
0.550256 0.550256 0.880812
0.741253 0.552743 0.883131
0.893797 0.563607 0.893797
1 0.579904 0.909911
1 0.595972 0.92578
0 0.696056 0.838056
0.0310674 0.727794 0.869718
0.156909 0.746975 0.888823
0.351293 0.745464 0.887236
0.551492 0.739727 0.881407
0.735653 0.735653 0.877256
0.880415 0.738888 0.880415
0.995468 0.747677 0.889113
1 0.756436 0.89781
0 0.875731 0.875731
0.0642557 0.901274 0.901274
0.182971 0.913436 0.913436
0.369711 0.904616 0.904616
0.562173 0.891478 0.891478
0.738628 0.879957 0.879957
0.87631 0.87631 0.87631
0.984878 0.878721 0.878721
1 0.881605 0.881605
0.0255131 1 0.91545
0.0981918 1 0.933684
0.209674 1 0.938796
0.38909 1 0.923064
0.575174 1 0.903929
0.745876 0.993103 0.886992
0.891142 0.980362 0.891142
0.982345 0.981186 0.908568
1 0.996307 0.988006
0.0502632 1 0.938643
0.117021 1 0.95111
0.245197 1 0.951064
0.548623 1 0.939849
0.840955 1 0.957397
1 1 1
1 1 1
1 1 1
1 1 1
0 0 0.634668
0 0 0.669261
0.0717021 0 0.699489
0.208988 0 0.720043
0.372793 0 0.744045
0.551629 0 0.778561
0.718593 0 0.822339
0.857191 0 0.857191
0.97322 0 0.87628
0 0.00233463 0.771466
0.00497444 0.00497444 0.828229
0.101045 0.00157168 0.885924
0.285313 0 0.921096
0.487495 0 0.92607
0.676417 0 0.925826
0.830701 0 0.937728
0.957748 0.00975052 0.957732
1 0.0319982 0.979812
0 0.104356 0.942199
0.0240024 0.130678 0.97229
0.149126 0.149126 0.990677
0.346197 0.149889 0.991348
0.552087 0.149172 0.990509
0.74313 0.151278 0.992386
0.898131 0.164233 1
1 0.185519 1
1 0.209293 1
0 0.297536 0.942626
0.0259098 0.328817 0.9738
0.152407 0.348623 0.993423
0.350378 0.350378 0.994965
0.556954 0.350545 0.994888
0.750149 0.355032 0.999084
0.905943 0.368978 1
1 0.389883 1
1 0.411948 1
0 0.500999 0.939055
0.0248417 0.533791 0.971664
0.153246 0.555474 0.993149
0.351522 0.557717 0.995178
0.557275 0.557275 0.994492
0.747753 0.559289 0.996262
0.899351 0.569223 1
1 0.584924 1
1 0.600275 1
0 0.703258 0.951995
0.0377203 0.73431 0.982895
0.16318 0.753124 1
0.356954 0.751064 0.999374
0.556298 0.744518 0.992691
0.73959 0.73959 0.98761
0.883619 0.742123 0.990005
0.997909 0.750164 0.997909
1 0.758236 1
0 0.880995 0.987549
0.0688487 0.905745 1
0.18677 0.917098 1
0.372732 0.907561 1
0.564446 0.89369 1
0.740154 0.881468 0.987716
0.877195 0.877195 0.983398
0.98526 0.879118 0.98526
1 0.881804 0.987915
0.0283513 1 1
0.100328 1 1
0.211063 1 1
0.390051 1 1
0.575479 1 1
0.751278 0.99176 0.99176
0.900252 0.978912 0.978912
0.983352 0.983352 0.983352
1 1 1
0.0512093 1 1
0.11725 1 1
0.288121 1 1
0.619181 1 1
0.905653 1 0.995773
1 1 1
1 1 1
1 1 1
1 1 1
0 0 0.709789
0 0 0.749508
0.0713054 0 0.785565
0.211719 0 0.812696
0.380072 0 0.844144
0.564233 0 0.886702
0.732876 0 0.933684
0.863737 0 0.960678
0.980209 0 0.980194
0 0.00047303 0.867735
0.00407416 0.00408942 0.934737
0.104097 0.00241093 0.998657
0.292165 0 1
0.493782 0 1
0.683635 0 1
0.838132 0 1
0.965454 0.0175174 1
1 0.0392615 1
0 0.109682 1
0.0308232 0.137499 1
0.156344 0.156359 1
0.353979 0.157671 1
0.559396 0.156527 1
0.750774 0.158968 1
0.905913 0.172107 1
1 0.193484 1
1 0.217609 1
0 0.305135 1
0.0332036 0.33608 1
0.160082 0.356268 1
0.35819 0.358206 1
0.565194 0.358801 1
0.758038 0.362982 1
0.913878 0.377005 1
1 0.397559 1
1 0.419242 1
0 0.509178 1
0.0330053 0.541848 1
0.161196 0.563378 1
0.359533 0.565698 1
0.564553 0.564569 1
0.754482 0.566049 1
0.905638 0.57557 1
1 0.590249 1
1 0.605051 1
0 0.710781 1
0.0452277 0.741695 1
0.170092 0.759915 1
0.363073 0.757107 1
0.561578 0.749752 1
0.743816 0.743816 1
0.887297 0.74583 1
1 0.75314 1
1 0.76051 1
0 0.886427 1
0.0739452 0.910674 1
0.191043 0.921233 1
0.376242 0.910964 1
0.567193 0.896391 1
0.742184 0.883482 1
0.878935 0.878935 1
0.986236 0.880095 1
1 0.883879 1
0.031632 1 1
0.102907 1 1
0.21294 1 1
0.391501 1 1
0.576333 1 1
0.76347 0.989822 1
0.913329 0.97937 1
0.988815 0.988815 1
1 1 1
0.0524453 1 1
0.118883 1 1
0.34902 1 1
0.6963 1 1
0.978088 1 1
1 1 1
1 1 1
1 1 1
1 1 1
