site/assets/luts/freshluts--0000395-crizo-mzeyah-model-lut.cube
# LUTr-Schema-Version: 2
# LUTr-ID: freshluts--0000395-crizo-mzeyah-model-lut
# LUTr-Title: Crizo Mzeyah Model Lut
# LUTr-Collection: Fresh LUTs
# LUTr-Collection-ID: freshluts-community
# LUTr-Source: https://freshluts.com
# LUTr-Retrieved: 2026-07-27
# LUTr-Source-File: submissions-raw/freshluts/cubes/395__Model_Lut_1.cube
# LUTr-Source-Format: CUBE
# LUTr-Source-SHA256: a05b64db0e9ee63205c6737e071ad962ee9a83c4878d26c0c3fa8510b78e4a92
# LUTr-License: CC0-1.0
# LUTr-License-URL: https://freshluts.com/termsandconditions
# LUTr-License-Basis: site-terms
# LUTr-Transform-Class: creative-look
# LUTr-Tags: creative, freshluts, community, cube, orange, low-key, bmd-film-4k
# LUTr-Input-Color-Space:
# LUTr-Input-Gamut: bmd-film-gamut
# LUTr-Input-Transfer: bmd-film-4k
# LUTr-Output-Color-Space: srgb
# LUTr-Output-Gamut: rec709
# LUTr-Output-Transfer: srgb
# LUTr-Color-Space-Confidence: camera-profile-input-required
# LUTr-Domain-Normalized: true
# LUTr-Shaper: none
# LUTr-Original-Grid: 33x33x33
# LUTr-Conversion-Grid: 33x33x33
# LUTr-Conversion-Interpolation: none
# LUTr-Conversion-Method: Metadata normalization; numeric LUT samples preserved
# LUTr-Conversion-Tool: LUTr scripts/convert-all-to-cube.mjs 2.0.0
# LUTr-Conversion-Date: 2026-07-28
# LUTr-Asset-URL: https://freshluts.com/luts/395
# LUTr-Author: Crizo
# LUTr-Author-URL: https://freshluts.com/users/10814
# LUTr-Attribution: Crizo via Fresh LUTs
# LUTr-Source-Labels: gamma=Blackmagic BMD Film 4K; color=Orange; key=Low Key; style=Teal - Orange
# LUTr-Note: Preserve this metadata and the upstream license notices when redistributing.
TITLE "Crizo Mzeyah Model Lut"
LUT_3D_SIZE 33
DOMAIN_MIN 0 0 0
DOMAIN_MAX 1 1 1
0 0 0
0 0 0
0.0260471 0 0
0.0721447 0 0
0.114778 0 0
0.153704 0 0
0.18967 0 0
0.229786 0 0
0.270176 0 0
0.310658 0 0
0.34995 0 0
0.387732 0 0
0.422415 0 0
0.456809 0 0
0.490745 0 0
0.524407 0 0
0.557366 0 0
0.589807 0 0
0.621607 0 0
0.652766 0 0
0.683711 0 0
0.713878 0 0
0.743542 0 0
0.772869 0 0
0.801907 0 0
0.830854 0 0
0.859709 0 0
0.888289 0 0
0.91693 0 0
0.945586 0 0
0.974227 0 0
1 0 0
1 0 0
0 0 0
0 0 0
0.0167544 0 0
0.0640879 0 0
0.111482 0 0
0.154269 0 0
0.192401 0 0
0.231128 0 0
0.271397 0 0
0.311498 0 0
0.35082 0 0
0.38851 0 0
0.423255 0 0
0.457969 0 0
0.491875 0 0
0.525338 0 0
0.558328 0 0
0.590768 0 0
0.62266 0 0
0.654063 0 0
0.684749 0 0
0.714916 0 0
0.744595 0 0
0.773907 0 0
0.803067 0 0
0.832074 0 0
0.860761 0 0
0.889342 0 0
0.917967 0 0
0.946609 0.000015259 0
0.975402 0.00244144 0
1 0.00479133 0
1 0.00703441 0
0 0.014847 0
0 0.0151064 0
0.0150759 0.0150759 0
0.0578317 0.0149538 0
0.101213 0.0147707 0
0.146838 0.0144808 0
0.191135 0.0146792 0
0.230594 0.0147097 0
0.27158 0.0146334 0
0.311788 0.0146181 0
0.35111 0.0146792 0
0.3888 0.0148165 0
0.42385 0.0153811 0
0.458305 0.0157321 0
0.492241 0.0162509 0
0.525719 0.0169375 0
0.558724 0.0177768 0
0.591211 0.0188144 0
0.623316 0.0203555 0
0.65449 0.0218051 0
0.685161 0.0234073 0
0.715358 0.0251774 0
0.745022 0.0271 0
0.774624 0.0294804 0
0.803662 0.0316167 0
0.832486 0.0337987 0
0.861158 0.0360418 0
0.889738 0.0383154 0
0.91841 0.0406348 0
0.94725 0.043122 0
0.97586 0.0453346 0
1 0.0475013 0
1 0.0497292 0
0 0.0573739 0
0 0.0576028 0
0.0149691 0.0576333 0
0.0575875 0.0575875 0
0.100557 0.0574655 0
0.144015 0.0576791 0
0.187121 0.0575723 0
0.229953 0.057496 0
0.271443 0.057435 0
0.31191 0.057435 0
0.351537 0.0578012 0
0.389242 0.0580301 0
0.424048 0.0582742 0
0.458503 0.0586404 0
0.492439 0.0591745 0
0.525933 0.0598611 0
0.559228 0.0610666 0
0.591699 0.062089 0
0.623545 0.0633097 0
0.654719 0.0647593 0
0.685389 0.0663462 0
0.715572 0.068101 0
0.74551 0.0703746 0
0.774823 0.0724041 0
0.803861 0.0745098 0
0.832654 0.0766766 0
0.861311 0.0788891 0
0.889906 0.0811933 0
0.91873 0.0836957 0
0.947341 0.085893 0
0.975921 0.0880751 0
1 0.0901961 0
1 0.0923629 0
0 0.10013 0
0 0.100389 0
0.0146944 0.10045 0
0.0575418 0.100649 0
0.10071 0.10071 0
0.143847 0.100603 0
0.186969 0.100526 0
0.229831 0.100465 0
0.271351 0.100435 0
0.312078 0.100725 0
0.351537 0.100908 0
0.389212 0.101076 0
0.424002 0.101335 0
0.458473 0.101717 0
0.492424 0.102251 0
0.526177 0.103258 0
0.559213 0.104128 0
0.591669 0.105135 0
0.623499 0.106355 0
0.654673 0.10779 0
0.685344 0.109377 0
0.715785 0.111467 0
0.745418 0.113359 0
0.774716 0.115358 0
0.803723 0.117449 0
0.832502 0.119585 0
0.861418 0.122118 0
0.889921 0.124315 0
0.918471 0.126482 0
0.947051 0.128634 0
0.975601 0.130785 0
1 0.132891 0
1 0.135317 0
0 0.143053 0
0 0.143343 0
0.0146029 0.143603 0
0.0574655 0.143801 0
0.100511 0.14374 0
0.143664 0.143664 0
0.186816 0.143587 0
0.229679 0.143542 0
0.27155 0.143877 0
0.312032 0.143908 0
0.351415 0.144015 0
0.389105 0.144198 0
0.423911 0.144442 0
0.458549 0.145037 0
0.492592 0.145693 0
0.526085 0.146365 0
0.559075 0.147204 0
0.591531 0.148211 0
0.623346 0.149401 0
0.654719 0.151095 0
0.68542 0.152712 0
0.715557 0.154421 0
0.745174 0.156298 0
0.774441 0.158251 0
0.803403 0.160296 0
0.832441 0.162753 0
0.861036 0.164904 0
0.889509 0.167056 0
0.918029 0.169177 0
0.946548 0.171267 0
0.975052 0.173373 0
1 0.175753 0
1 0.177829 0
0 0.186175 0
0 0.186786 0
0.0165255 0.187243 0
0.0603037 0.187518 0
0.104891 0.187869 0
0.150088 0.188357 0
0.193179 0.188495 0
0.233631 0.188144 0
0.273243 0.187655 0
0.312535 0.187304 0
0.351461 0.187213 0
0.389044 0.18735 0
0.424002 0.187778 0
0.458595 0.188296 0
0.492515 0.188815 0
0.525979 0.189471 0
0.558953 0.190295 0
0.591379 0.191272 0
0.623392 0.192706 0
0.654582 0.194186 0
0.685191 0.195712 0
0.715297 0.197391 0
0.744884 0.199237 0
0.774121 0.20116 0
0.803342 0.20351 0
0.832029 0.205554 0
0.860563 0.207645 0
0.889021 0.209751 0
0.917494 0.211826 0
0.946212 0.21416 0
0.974685 0.21619 0
1 0.218112 0
1 0.220096 0
0 0.229343 0
0 0.229664 0
0.0146487 0.229786 0
0.0575875 0.229892 0
0.101366 0.230076 0
0.145861 0.230518 0
0.190829 0.231281 0
0.233234 0.23122 0
0.273182 0.230701 0
0.312581 0.230289 0
0.351446 0.230106 0
0.389273 0.230503 0
0.424048 0.230716 0
0.458473 0.231037 0
0.492378 0.231525 0
0.525826 0.232136 0
0.558907 0.233051 0
0.59144 0.234134 0
0.623209 0.235233 0
0.654292 0.236545 0
0.684886 0.237995 0
0.714946 0.239567 0
0.744656 0.241505 0
0.773938 0.243427 0
0.802838 0.245335 0
0.831495 0.247272 0
0.859983 0.249226 0
0.888365 0.251194 0
0.917006 0.253391 0
0.94548 0.25536 0
0.973877 0.257252 0
1 0.259052 0
1 0.260884 0
0 0.27097 0
0 0.27129 0
0.014725 0.271397 0
0.057435 0.271443 0
0.100816 0.271717 0
0.144076 0.271672 0
0.187457 0.271687 0
0.230518 0.271733 0
0.271992 0.271717 0
0.312276 0.271687 0
0.35169 0.271916 0
0.389212 0.271977 0
0.423957 0.27216 0
0.458366 0.272435 0
0.492226 0.272862 0
0.52575 0.273548 0
0.558846 0.274464 0
0.591196 0.275319 0
0.622919 0.276341 0
0.653956 0.277562 0
0.684489 0.27892 0
0.714672 0.280598 0
0.744289 0.282383 0
0.773419 0.284092 0
0.802243 0.285863 0
0.830854 0.287709 0
0.859297 0.28957 0
0.887892 0.291752 0
0.916228 0.293553 0
0.944579 0.295338 0
0.972915 0.297124 0
1 0.298833 0
1 0.300771 0
0 0.31165 0
0 0.311955 0
0.0149386 0.312062 0
0.057969 0.312398 0
0.100999 0.312337 0
0.144121 0.312245 0
0.187243 0.312139 0
0.230076 0.312062 0
0.27158 0.312032 0
0.312291 0.312291 0
0.351583 0.312306 0
0.389181 0.312383 0
0.423896 0.31252 0
0.458274 0.312764 0
0.492393 0.313466 0
0.52575 0.31397 0
0.558618 0.314595 0
0.590936 0.315389 0
0.622614 0.31635 0
0.653681 0.317571 0
0.684352 0.319051 0
0.714321 0.320455 0
0.743755 0.322011 0
0.772839 0.323629 0
0.801602 0.325307 0
0.830259 0.327153 0
0.858778 0.329061 0
0.887037 0.330816 0
0.915328 0.332525 0
0.943587 0.334203 0
0.971832 0.335836 0
1 0.337606 0
1 0.33933 0
0 0.351324 0
0 0.351888 0
0.0156558 0.35201 0
0.05832 0.35201 0
0.10132 0.351919 0
0.144427 0.351797 0
0.187518 0.351675 0
0.230625 0.351873 0
0.272038 0.351766 0
0.312413 0.351705 0
0.35169 0.35169 0
0.389227 0.35172 0
0.423896 0.351797 0
0.458503 0.3523 0
0.492287 0.352621 0
0.525612 0.353063 0
0.558419 0.353628 0
0.590677 0.354314 0
0.622339 0.355261 0
0.653513 0.356573 0
0.68394 0.357748 0
0.713832 0.359045 0
0.743191 0.360464 0
0.772198 0.361975 0
0.801022 0.363668 0
0.829664 0.365469 0
0.857954 0.367071 0
0.886122 0.368688 0
0.914336 0.370291 0
0.94255 0.371847 0
0.970993 0.373678 0
0.999252 0.375113 0
1 0.376577 0
0 0.389593 0
0 0.389899 0
0.0162203 0.389944 0
0.058854 0.389914 0
0.101808 0.389792 0
0.144869 0.389654 0
0.188251 0.389776 0
0.230991 0.389654 0
0.272343 0.389532 0
0.312657 0.38941 0
0.351858 0.389349 0
0.389349 0.389349 0
0.424262 0.389654 0
0.458518 0.389746 0
0.492241 0.389975 0
0.525521 0.390326 0
0.558282 0.390784 0
0.590753 0.391638 0
0.622293 0.392355 0
0.653162 0.39324 0
0.683528 0.394247 0
0.713359 0.395377 0
0.742687 0.396628 0
0.771847 0.398169 0
0.800488 0.399527 0
0.828885 0.400931 0
0.857114 0.402335 0
0.885206 0.403738 0
0.91339 0.405173 0
0.941695 0.406699 0
0.969802 0.408026 0
0.998001 0.409293 0
1 0.410544 0
0 0.424887 0
0 0.425086 0
0.0168765 0.425101 0
0.0594644 0.42504 0
0.103243 0.425223 0
0.146807 0.425238 0
0.190433 0.425238 0
0.233326 0.425223 0
0.274296 0.425055 0
0.313939 0.424735 0
0.352804 0.424628 0
0.389899 0.424445 0
0.424353 0.424338 0
0.458549 0.424384 0
0.49221 0.424552 0
0.525399 0.424826 0
0.558358 0.425483 0
0.590509 0.426017 0
0.621988 0.426673 0
0.652781 0.427482 0
0.683055 0.428412 0
0.71281 0.42945 0
0.742321 0.4309 0
0.771176 0.43212 0
0.79971 0.433387 0
0.828016 0.434684 0
0.856153 0.436011 0
0.88423 0.4374 0
0.912474 0.438895 0
0.94049 0.440131 0
0.968475 0.441352 0
0.996597 0.442512 0
1 0.443702 0
0 0.459876 0
0 0.460044 0
0.0177768 0.459998 0
0.060502 0.46006 0
0.103517 0.459983 0
0.146563 0.459785 0
0.189761 0.459632 0
0.232685 0.459556 0
0.274083 0.45948 0
0.314366 0.459495 0
0.353201 0.459236 0
0.390188 0.458915 0
0.424567 0.458701 0
0.458671 0.458671 0
0.492287 0.458778 0
0.525689 0.459266 0
0.558297 0.459571 0
0.590341 0.459998 0
0.621759 0.460594 0
0.652491 0.461341 0
0.682933 0.46244 0
0.712612 0.463416 0
0.741741 0.464469 0
0.770535 0.465629 0
0.799008 0.466819 0
0.827222 0.46804 0
0.855512 0.46952 0
0.883421 0.470756 0
0.911376 0.471946 0
0.93933 0.473121 0
0.967224 0.474235 0
0.995224 0.475303 0
1 0.476616 0
0 0.49453 0
0 0.494652 0
0.0194095 0.49485 0
0.0618753 0.494682 0
0.104662 0.494423 0
0.147555 0.494133 0
0.190448 0.493858 0
0.233066 0.49369 0
0.274403 0.493568 0
0.314519 0.493339 0
0.353506 0.493111 0
0.3906 0.492882 0
0.42501 0.492653 0
0.45922 0.492714 0
0.492836 0.492836 0
0.525887 0.492973 0
0.55845 0.493217 0
0.590402 0.493568 0
0.621714 0.494057 0
0.652583 0.494942 0
0.68275 0.49575 0
0.712352 0.496635 0
0.74139 0.497612 0
0.770047 0.49865 0
0.798428 0.499748 0
0.826841 0.501152 0
0.85478 0.502297 0
0.882597 0.50341 0
0.910414 0.504494 0
0.938262 0.505562 0
0.966079 0.5066 0
0.994232 0.507805 0
1 0.508766 0
0 0.528908 0
0 0.529198 0
0.0209506 0.529061 0
0.0633707 0.528847 0
0.106081 0.528527 0
0.148867 0.528161 0
0.191821 0.527901 0
0.234363 0.527718 0
0.275395 0.527352 0
0.315343 0.526986 0
0.354208 0.52665 0
0.39118 0.526375 0
0.425727 0.526299 0
0.459846 0.526253 0
0.493278 0.526192 0
0.526238 0.526238 0
0.558694 0.52639 0
0.5906 0.52668 0
0.622095 0.527367 0
0.652628 0.527916 0
0.682658 0.528572 0
0.712154 0.529366 0
0.741131 0.530266 0
0.769894 0.531411 0
0.798215 0.532464 0
0.826246 0.533486 0
0.854109 0.534539 0
0.881834 0.535592 0
0.909575 0.536568 0
0.937514 0.537728 0
0.965209 0.538659 0
0.993027 0.539513 0
1 0.540383 0
0 0.563104 0
0 0.563088 0
0.0227817 0.562875 0
0.0651102 0.5626 0
0.107759 0.562219 0
0.150805 0.562066 0
0.19353 0.561624 0
0.235706 0.561166 0
0.276631 0.560723 0
0.316503 0.560311 0
0.355337 0.559976 0
0.392309 0.559808 0
0.426596 0.559472 0
0.460517 0.559243 0
0.493889 0.559106 0
0.526757 0.55906 0
0.559228 0.559228 0
0.591165 0.559548 0
0.622324 0.559884 0
0.652781 0.560372 0
0.682704 0.560937 0
0.712093 0.561608 0
0.741115 0.56257 0
0.769696 0.563516 0
0.797879 0.564416 0
0.825788 0.565332 0
0.853513 0.566247 0
0.881132 0.567178 0
0.90898 0.568261 0
0.936629 0.569131 0
0.964157 0.569909 0
0.991791 0.570581 0
1 0.571313 0
0 0.596643 0
0 0.596567 0
0.0249332 0.596292 0
0.0671702 0.595926 0
0.110033 0.595728 0
0.152682 0.595239 0
0.195331 0.594736 0
0.237354 0.594186 0
0.278126 0.593652 0
0.317922 0.593194 0
0.356802 0.592935 0
0.393378 0.592493 0
0.427573 0.592065 0
0.461372 0.591714 0
0.494636 0.591485 0
0.52755 0.59147 0
0.559976 0.591608 0
0.591669 0.591669 0
0.622705 0.591882 0
0.653071 0.592264 0
0.682902 0.592752 0
0.712459 0.593591 0
0.741192 0.594247 0
0.769543 0.59498 0
0.79762 0.595789 0
0.825437 0.596597 0
0.853178 0.597528 0
0.880735 0.598413 0
0.908217 0.59913 0
0.935699 0.599832 0
0.963149 0.600504 0
0.990677 0.601083 0
1 0.601831 0
0 0.629694 0
0 0.629557 0
0.0274662 0.629206 0
0.0699321 0.629038 0
0.112367 0.628489 0
0.154879 0.627894 0
0.197528 0.627405 0
0.23949 0.626947 0
0.280522 0.62681 0
0.320104 0.626337 0
0.358557 0.625727 0
0.394842 0.625025 0
0.428901 0.624308 0
0.462577 0.623758 0
0.495933 0.62359 0
0.528618 0.623362 0
0.5608 0.62324 0
0.592416 0.62324 0
0.623346 0.623346 0
0.653635 0.623667 0
0.683528 0.624201 0
0.712734 0.624689 0
0.74136 0.625254 0
0.769589 0.625849 0
0.797498 0.626474 0
0.825284 0.627268 0
0.852903 0.628077 0
0.880262 0.628748 0
0.907622 0.629343 0
0.934951 0.629908 0
0.962264 0.630442 0
0.989853 0.631083 0
1 0.631662 0
0 0.662272 0
0 0.662257 0
0.0306859 0.66186 0
0.0727398 0.661341 0
0.115084 0.660731 0
0.157504 0.660044 0
0.199954 0.659342 0
0.241947 0.658915 0
0.282475 0.658274 0
0.32195 0.65771 0
0.360311 0.657115 0
0.396368 0.656458 0
0.430365 0.655756 0
0.46421 0.655375 0
0.497246 0.654887 0
0.529809 0.654521 0
0.561852 0.654261 0
0.593347 0.654139 0
0.624247 0.654215 0
0.654551 0.654551 0
0.684123 0.654765 0
0.713146 0.655085 0
0.74165 0.655512 0
0.769772 0.656016 0
0.797818 0.656779 0
0.825345 0.657313 0
0.852689 0.657847 0
0.879942 0.658412 0
0.90721 0.65893 0
0.934539 0.65948 0
0.961883 0.660044 0
0.989181 0.660395 0
1 0.660807 0
0 0.694591 0
0 0.694331 0
0.0337987 0.693797 0
0.0757 0.693172 0
0.117952 0.692454 0
0.160266 0.691707 0
0.202945 0.691188 0
0.244404 0.690364 0
0.284703 0.68954 0
0.323995 0.688746 0
0.362188 0.687999 0
0.398215 0.687495 0
0.43212 0.686778 0
0.465614 0.686107 0
0.498589 0.685588 0
0.53106 0.685145 0
0.562997 0.684764 0
0.594568 0.684718 0
0.625254 0.684581 0
0.655253 0.684611 0
0.684718 0.684718 0
0.713634 0.684916 0
0.742016 0.685237 0
0.770214 0.685802 0
0.797909 0.686229 0
0.82536 0.686687 0
0.852598 0.687114 0
0.879728 0.687541 0
0.90695 0.688014 0
0.934264 0.688563 0
0.961395 0.688914 0
0.988617 0.689174 0
1 0.689464 0
0 0.726253 0
0 0.725856 0
0.0370794 0.725246 0
0.0788891 0.724529 0
0.121202 0.723873 0
0.163485 0.723079 0
0.205737 0.72221 0
0.247013 0.721309 0
0.287144 0.720394 0
0.326223 0.719463 0
0.364477 0.718791 0
0.4 0.717998 0
0.433799 0.717159 0
0.467155 0.716365 0
0.499962 0.715663 0
0.532296 0.715084 0
0.564355 0.714839 0
0.59559 0.714458 0
0.626139 0.714183 0
0.655985 0.714046 0
0.685328 0.714046 0
0.714153 0.714153 0
0.742657 0.714595 0
0.770535 0.714839 0
0.798108 0.715145 0
0.825452 0.71548 0
0.852628 0.715846 0
0.879896 0.716426 0
0.90695 0.716731 0
0.934005 0.717006 0
0.961044 0.717281 0
0.98822 0.71751 0
1 0.717815 0
0 0.757443 0
0 0.756909 0
0.0405127 0.756176 0
0.0823987 0.755505 0
0.124514 0.754681 0
0.166552 0.753689 0
0.208637 0.752682 0
0.249683 0.751675 0
0.289662 0.750668 0
0.328847 0.749874 0
0.366644 0.748837 0
0.40177 0.747829 0
0.435447 0.746868 0
0.468711 0.745983 0
0.501579 0.745357 0
0.533822 0.744671 0
0.565499 0.744045 0
0.596628 0.743557 0
0.6271 0.743206 0
0.656855 0.742992 0
0.68629 0.743069 0
0.715007 0.743069 0
0.743191 0.743191 0
0.770993 0.743358 0
0.798474 0.743572 0
0.825727 0.743816 0
0.853025 0.744305 0
0.879988 0.744595 0
0.906996 0.744839 0
0.933974 0.745037 0
0.960922 0.74522 0
0.988022 0.745373 0
1 0.745754 0
0 0.788052 0
0.00267033 0.787503 0
0.0441901 0.786831 0
0.0857404 0.785901 0
0.127611 0.784878 0
0.169543 0.78381 0
0.211475 0.782666 0
0.252384 0.781613 0
0.292271 0.780575 0
0.330999 0.779416 0
0.368627 0.778286 0
0.403479 0.777157 0
0.437003 0.776043 0
0.470283 0.775189 0
0.502953 0.774365 0
0.535073 0.773541 0
0.566629 0.772808 0
0.59762 0.772183 0
0.627985 0.771725 0
0.657862 0.771618 0
0.687053 0.77145 0
0.715648 0.771344 0
0.743725 0.771359 0
0.771435 0.771435 0
0.798871 0.771588 0
0.826276 0.772 0
0.853269 0.772183 0
0.880156 0.772381 0
0.907088 0.772549 0
0.93402 0.772702 0
0.961135 0.773053 0
0.988159 0.773129 0
1 0.77322 0
0 0.818265 0
0.00624094 0.817746 0
0.047425 0.8168 0
0.0888075 0.815732 0
0.13048 0.814542 0
0.172244 0.813321 0
0.21416 0.812192 0
0.254902 0.811048 0
0.294438 0.80975 0
0.332952 0.808438 0
0.370413 0.807187 0
0.40502 0.805982 0
0.438682 0.80502 0
0.471702 0.803876 0
0.504173 0.802853 0
0.536171 0.801938 0
0.567681 0.801129 0
0.598718 0.800565 0
0.629084 0.800092 0
0.658656 0.799695 0
0.687724 0.799405 0
0.716274 0.799237 0
0.744274 0.799176 0
0.772076 0.799359 0
0.799481 0.799481 0
0.826596 0.799603 0
0.853544 0.799741 0
0.880369 0.799878 0
0.907225 0.799969 0
0.934295 0.800275 0
0.961181 0.800366 0
0.988159 0.800397 0
1 0.800458 0
0 0.848142 0
0.00927749 0.847272 0
0.050309 0.846204 0
0.0915847 0.845029 0
0.13315 0.843763 0
0.175006 0.842603 0
0.216602 0.84123 0
0.256977 0.839841 0
0.296376 0.838468 0
0.334752 0.837064 0
0.372122 0.835752 0
0.406622 0.834592 0
0.439963 0.83331 0
0.472908 0.83209 0
0.505302 0.830976 0
0.537194 0.829953 0
0.568704 0.82916 0
0.59968 0.828504 0
0.629877 0.827893 0
0.659373 0.827405 0
0.68835 0.827039 0
0.716823 0.826795 0
0.74493 0.826841 0
0.77258 0.826856 0
0.799863 0.826871 0
0.826917 0.826917 0
0.853803 0.826993 0
0.880583 0.827085 0
0.907622 0.827375 0
0.934447 0.827405 0
0.961242 0.827436 0
0.98819 0.827436 0
1 0.827451 0
0 0.877363 0
0.0120089 0.876356 0
0.0528725 0.875135 0
0.0939956 0.873854 0
0.135683 0.872679 0
0.177203 0.871229 0
0.218631 0.869749 0
0.258808 0.868238 0
0.298054 0.866743 0
0.336355 0.865324 0
0.373724 0.864042 0
0.407843 0.862623 0
0.441093 0.861219 0
0.473945 0.859922 0
0.506264 0.858763 0
0.538338 0.857893 0
0.56965 0.856916 0
0.600412 0.856062 0
0.630533 0.85536 0
0.659998 0.854841 0
0.689006 0.854505 0
0.717556 0.854322 0
0.745434 0.854154 0
0.772961 0.854047 0
0.800214 0.854017 0
0.827207 0.854017 0
0.85417 0.85417 0
0.880995 0.854307 0
0.907774 0.854337 0
0.934569 0.854353 0
0.961334 0.854353 0
0.988235 0.854292 0
1 0.854444 0
0 0.906081 0
0.014374 0.905013 0
0.0553902 0.903914 0
0.0963607 0.90251 0
0.137636 0.900984 0
0.179049 0.899443 0
0.220356 0.897887 0
0.26041 0.8963 0
0.299763 0.894926 0
