site/assets/luts/freshluts--0001796-correction-cannon.cube
# LUTr-Schema-Version: 2
# LUTr-ID: freshluts--0001796-correction-cannon
# LUTr-Title: correction cannon
# LUTr-Collection: Fresh LUTs
# LUTr-Collection-ID: freshluts-community
# LUTr-Source: https://freshluts.com
# LUTr-Retrieved: 2026-07-27
# LUTr-Source-File: submissions-raw/freshluts/cubes/1796__cannon_wide_shot_1.2H0A9763.cube
# LUTr-Source-Format: CUBE
# LUTr-Source-SHA256: d3542a463e953035dd57b3cd9f75caf2450e9963285ca4eb3c74161b35a3a332
# LUTr-License: CC0-1.0
# LUTr-License-URL: https://freshluts.com/termsandconditions
# LUTr-License-Basis: site-terms
# LUTr-Transform-Class: creative-look
# LUTr-Tags: creative, freshluts, community, cube, yellow, rec709, correction
# LUTr-Input-Color-Space: rec709
# LUTr-Input-Gamut: rec709
# LUTr-Input-Transfer: rec709
# LUTr-Output-Color-Space: srgb
# LUTr-Output-Gamut: rec709
# LUTr-Output-Transfer: srgb
# LUTr-Color-Space-Confidence: inferred-from-source-label
# LUTr-Domain-Normalized: true
# LUTr-Shaper: none
# LUTr-Original-Grid: 33x33x33
# LUTr-Conversion-Grid: 33x33x33
# LUTr-Conversion-Interpolation: none
# LUTr-Conversion-Method: Metadata normalization; numeric LUT samples preserved
# LUTr-Conversion-Tool: LUTr scripts/convert-all-to-cube.mjs 2.0.0
# LUTr-Conversion-Date: 2026-07-28
# LUTr-Asset-URL: https://freshluts.com/luts/1796
# LUTr-Author: lvannoeun@gmail.com
# LUTr-Author-URL: https://freshluts.com/users/57563
# LUTr-Attribution: lvannoeun@gmail.com via Fresh LUTs
# LUTr-Source-Labels: gamma=Rec 709; color=Yellow; key=Neutral; style=Drama
# LUTr-Note: Preserve this metadata and the upstream license notices when redistributing.
TITLE "correction cannon"
LUT_3D_SIZE 33
DOMAIN_MIN 0 0 0
DOMAIN_MAX 1 1 1
0 0 0
0 0 0
0 0 0
0.0191043 0 0
0.0700542 0 0
0.119066 0 0
0.167422 0 0
0.213321 0 0
0.256168 0 0
0.295583 0 0
0.330938 0 0
0.360586 0 0
0.385321 0 0
0.407019 0 0
0.426139 0 0
0.443275 0 0
0.458946 0 0
0.473625 0 0
0.487663 0 0
0.501259 0 0
0.514519 0 0
0.527535 0 0
0.540307 0 0
0.554528 0.00125124 0
0.579019 0.00427253 0
0.60325 0.00738537 0
0.627314 0.0105592 0
0.651225 0.0137789 0.0010071
0.675029 0.0170596 0.00248722
0.698756 0.0203555 0.00399786
0.722469 0.0236667 0.00552377
0.746822 0.0269169 0.00691234
0.770535 0.0302281 0.0084535
0 0 0
0 0 0.00708019
0 0 0
0 0 0
0.0509651 0 0
0.101213 0 0
0.150439 0 0
0.197559 0 0
0.241932 0 0
0.283299 0 0
0.321065 0 0
0.353674 0 0
0.381125 0 0
0.405509 0 0
0.427176 0 0
0.446433 0 0
0.46392 0.00315862 0
0.480095 0.0080415 0
0.495293 0.0131838 0
0.50988 0.0185397 0
0.523995 0.0240482 0
0.537758 0.0296788 0
0.551263 0.0354162 0
0.564508 0.0412451 0.000732433
0.581353 0.0462196 0.00523384
0.605661 0.0493019 0.00654612
0.62977 0.0524758 0.00794995
0.653758 0.0556954 0.00944533
0.677638 0.0589609 0.0109712
0.701427 0.0622568 0.0125429
0.7252 0.065568 0.0141299
0.749645 0.0688182 0.01561
0.773419 0.0721294 0.0172122
0 0.0325475 0
0 0.0250248 0.0144045
0 0.0279698 0.0231327
0 0.0320439 0.0164492
0.0319524 0.0340124 0
0.0809949 0.034165 0
0.13106 0.0335851 0
0.179553 0.0328069 0
0.225483 0.0321355 0
0.26865 0.0317693 0
0.308522 0.0318456 0
0.343572 0.032517 0
0.373419 0.0337987 0
0.400381 0.0357824 0
0.424598 0.0384527 0
0.446235 0.0417639 0
0.46569 0.0456397 0
0.483635 0.049958 0
0.500328 0.0545968 0
0.516152 0.0595254 0
0.531334 0.0646525 0
0.546029 0.0699474 0
0.560357 0.0753948 0.000640879
0.574365 0.0809644 0.00724804
0.588113 0.086656 0.0138552
0.60856 0.0907301 0.0170748
0.632776 0.093904 0.0184482
0.656825 0.0971389 0.0198825
0.680766 0.10042 0.0213779
0.704631 0.103716 0.0229343
0.728466 0.107027 0.0244907
0.752956 0.110292 0.0259098
0.776776 0.113603 0.0274968
0 0.079942 0
0 0.0688182 0.0116121
0 0.0675975 0.0307164
0.000381476 0.0707561 0.0368811
0.0320897 0.0745861 0.0337224
0.0695964 0.0775311 0.021912
0.113771 0.0789502 0.00573739
0.160662 0.0791943 0
0.206989 0.0788586 0
0.251377 0.0784619 0
0.292973 0.078294 0
0.330098 0.0785534 0
0.362112 0.0793317 0
0.391501 0.080705 0
0.418219 0.0827192 0
0.442329 0.085359 0
0.464088 0.0886091 0
0.484016 0.0923171 0
0.502434 0.0964523 0
0.519753 0.100908 0
0.536248 0.105638 0
0.552102 0.110582 0.00210575
0.567437 0.115709 0.00907912
0.582345 0.121004 0.0160372
0.596887 0.126452 0.0230716
0.611429 0.131945 0.0298772
0.635737 0.135119 0.0311131
0.659892 0.138354 0.0324559
0.683909 0.141634 0.0338445
0.707851 0.14493 0.0352789
0.731746 0.148241 0.0367437
0.756298 0.151476 0.0380713
0.780163 0.154757 0.0395514
0 0.125368 0
0 0.1131 0.00758373
0 0.108522 0.0322271
0.0139162 0.109438 0.0460059
0.0444953 0.112566 0.0518807
0.0753338 0.116258 0.0511025
0.11014 0.119615 0.0425422
0.149371 0.121889 0.0290227
0.191501 0.123049 0.0139773
0.234455 0.123522 0.000411994
0.276265 0.123735 0
0.314565 0.124025 0
0.348226 0.124605 0
0.379492 0.125673 0
0.408453 0.12723 0
0.434928 0.129335 0
0.459037 0.132006 0
0.481071 0.13518 0
0.501427 0.138811 0
0.52047 0.142824 0
0.538476 0.147127 0.00628672
0.555642 0.151705 0.0132296
0.572183 0.156497 0.0202792
0.588174 0.161501 0.0273899
0.603693 0.166644 0.0345006
0.61883 0.171939 0.0416266
0.638178 0.176287 0.0458991
0.662425 0.179522 0.047013
0.686549 0.182773 0.0482032
0.710567 0.186038 0.0494545
0.734539 0.189319 0.050721
0.759167 0.192508 0.0518807
0.783093 0.195773 0.0531777
0 0.16939 0
0 0.156756 0.00546273
0 0.150179 0.0320897
0.0251011 0.148867 0.0512856
0.0579385 0.150713 0.0624857
0.0881514 0.153918 0.068101
0.118746 0.15761 0.0683146
0.151247 0.16112 0.0622721
0.18645 0.163882 0.0517586
0.224079 0.165835 0.0390936
0.262852 0.167147 0.0264134
0.299977 0.168109 0.0158999
0.333669 0.169009 0.00831617
0.366003 0.170108 0.00311284
0.396536 0.171527 0.000427253
0.424964 0.173312 0.0000915541
0.451026 0.175631 0.00196841
0.47509 0.178393 0.00544747
0.497459 0.181582 0.0100862
0.518334 0.185168 0.0156252
0.537942 0.189075 0.0217136
0.556603 0.193271 0.0281987
0.574426 0.197726 0.0348974
0.591608 0.20238 0.0417639
0.608194 0.207233 0.0487221
0.624247 0.212238 0.055787
0.640009 0.217365 0.0627909
0.664149 0.2206 0.0636912
0.688396 0.22385 0.0645762
0.712505 0.227085 0.065507
0.736568 0.230335 0.0665141
0.761242 0.233494 0.0673686
0.785245 0.236713 0.0684215
0 0.213153 0
0 0.200397 0.00390631
0 0.192554 0.0312657
0.0336614 0.18938 0.0538338
0.0700847 0.1897 0.0695659
0.101717 0.192065 0.0792706
0.131884 0.195346 0.0847334
0.161593 0.198978 0.0858778
0.192004 0.202487 0.0820172
0.224125 0.205585 0.0744488
0.257801 0.208133 0.0647135
0.291218 0.210147 0.0548409
0.32282 0.211826 0.0461738
0.354192 0.213443 0.0389563
0.384741 0.215106 0.0337224
0.413947 0.216983 0.0307164
0.441459 0.219165 0.0298924
0.46717 0.221698 0.0310369
0.491249 0.224582 0.0336919
0.513832 0.227817 0.0375982
0.53492 0.231418 0.0425422
0.555047 0.235279 0.0479744
0.574258 0.239384 0.0538491
0.592645 0.243732 0.060029
0.610391 0.248264 0.066453
0.627527 0.252964 0.0730449
0.64416 0.257816 0.0797436
0.664942 0.261784 0.0829328
0.68925 0.264958 0.083299
0.713466 0.268147 0.083772
0.737606 0.271321 0.0843366
0.762371 0.274403 0.0847791
0.786435 0.277546 0.0854505
0 0.255451 0
0 0.242908 0.00308232
0 0.234409 0.030396
0.0399634 0.229877 0.0548867
0.0801709 0.228748 0.0740215
0.114229 0.229999 0.0874952
0.145357 0.232685 0.0963302
0.174762 0.235981 0.101732
0.203326 0.23949 0.103716
0.23212 0.24303 0.101793
0.261677 0.246326 0.0968948
0.291112 0.249226 0.0904097
0.319371 0.251713 0.0836957
0.348119 0.254047 0.0771954
0.377035 0.256275 0.0713512
0.405478 0.258518 0.0668803
0.43299 0.260868 0.0641184
0.459281 0.263416 0.0631266
0.484306 0.266224 0.0636912
0.508003 0.269276 0.0656291
0.530495 0.272587 0.0686503
0.551888 0.276158 0.0725109
0.572351 0.279957 0.0770733
0.591928 0.28397 0.0821241
0.610605 0.288212 0.0877241
0.628733 0.292592 0.093492
0.646296 0.297124 0.0995041
0.664897 0.301442 0.104341
0.689265 0.30454 0.104036
0.713542 0.307652 0.103883
0.737758 0.310735 0.103853
0.76257 0.313726 0.103731
0.786679 0.316762 0.103868
0 0.295949 0
0 0.283818 0.0033875
0 0.275059 0.0301366
0.0447852 0.269581 0.0555276
0.0883345 0.267247 0.0769818
0.125185 0.267399 0.0935683
0.158007 0.269291 0.105592
0.188037 0.272145 0.113725
0.216388 0.275395 0.119219
0.2439 0.278843 0.122072
0.271153 0.282399 0.121889
0.297688 0.28574 0.119509
0.323033 0.288762 0.11603
0.348974 0.291676 0.111849
0.375402 0.294484 0.107546
0.401877 0.297215 0.103746
0.428183 0.299947 0.100557
0.453895 0.302739 0.0985275
0.478859 0.305653 0.0976425
0.502876 0.308721 0.0979477
0.525963 0.311971 0.099321
0.548104 0.315404 0.101595
0.56936 0.319036 0.104631
0.589822 0.32285 0.108309
0.609522 0.326818 0.112505
0.628534 0.330938 0.117128
0.646983 0.335195 0.122179
0.664912 0.339559 0.127413
0.688594 0.342763 0.12697
0.712871 0.345815 0.126055
0.737072 0.348821 0.125292
0.761944 0.351751 0.124483
0.786068 0.354711 0.123995
0 0.334676 0
0 0.323186 0.0053254
0 0.314412 0.0312505
0.0491188 0.308446 0.0567178
0.0953536 0.305196 0.0795911
0.134829 0.304356 0.0985122
0.16965 0.305394 0.113283
0.200839 0.307652 0.124086
0.229587 0.310567 0.131838
0.256916 0.313771 0.137621
0.283238 0.317189 0.141405
0.308186 0.320607 0.14284
0.331548 0.323857 0.142687
0.355276 0.327123 0.141497
0.379416 0.330327 0.139651
0.403815 0.333455 0.137545
0.42829 0.336583 0.1355
0.452537 0.339696 0.134005
0.47657 0.34284 0.132799
0.500114 0.346075 0.132326
0.523018 0.349386 0.132616
0.545312 0.352819 0.133669
0.566857 0.356405 0.135378
0.587747 0.360113 0.137743
0.607996 0.363943 0.140688
0.627604 0.367895 0.144121
0.646647 0.371954 0.147982
0.665171 0.37612 0.152193
0.687724 0.379492 0.151995
0.71194 0.382544 0.15021
0.736171 0.385534 0.148653
0.761059 0.388479 0.147082
0.785031 0.39147 0.146075
0 0.37142 0
0 0.3608 0.00943008
0 0.352346 0.0340887
0.053727 0.346151 0.0591745
0.1019 0.34226 0.0827344
0.143618 0.340597 0.103258
0.180438 0.34081 0.120211
0.213016 0.342412 0.133364
0.242512 0.344869 0.143297
0.270085 0.347814 0.151003
0.296239 0.351003 0.157229
0.320516 0.354253 0.161883
0.342824 0.357488 0.16466
0.365103 0.360845 0.166354
0.387564 0.364233 0.167132
0.410193 0.36762 0.167269
0.432898 0.370993 0.167025
0.455634 0.374365 0.166644
0.478309 0.377768 0.166247
0.500694 0.381201 0.166201
0.522881 0.38468 0.166247
0.544656 0.38822 0.166705
0.565988 0.391836 0.167636
0.586862 0.395529 0.169055
0.607172 0.399298 0.170947
0.627024 0.403174 0.173327
0.646403 0.407141 0.17615
0.665324 0.411185 0.17937
0.687129 0.41474 0.179187
0.711131 0.417853 0.176593
0.735195 0.420935 0.174243
0.759976 0.423911 0.171878
0.784085 0.426902 0.169924
0 0.404852 0
0 0.395346 0.0158541
0.00340276 0.387457 0.0390021
0.0591135 0.381277 0.0633097
0.108431 0.37705 0.0869306
0.151797 0.374777 0.10837
0.190326 0.374319 0.126909
0.224262 0.375296 0.141909
0.254658 0.377249 0.153765
0.282689 0.379858 0.16321
0.308949 0.382803 0.170993
0.333089 0.385855 0.177508
0.35494 0.388922 0.182788
0.376455 0.392187 0.186877
0.397864 0.39556 0.18996
0.419242 0.399008 0.192233
0.440635 0.402502 0.193881
0.462013 0.406012 0.19501
0.483391 0.409552 0.195804
0.504662 0.413092 0.196399
0.525795 0.416678 0.196948
0.546654 0.420294 0.197696
0.567376 0.423941 0.198398
0.587808 0.427665 0.199359
0.607919 0.431434 0.200641
0.62768 0.435264 0.202289
0.647105 0.439155 0.204303
0.666148 0.443107 0.206668
0.687465 0.446662 0.206104
0.711131 0.449805 0.202808
0.73489 0.452873 0.199725
0.759411 0.455848 0.196582
0.783337 0.458808 0.193896
0 0.434928 0.00657664
0 0.426444 0.0243839
0.0102388 0.419181 0.0459144
0.0655222 0.413214 0.0691844
0.115297 0.408835 0.0924239
0.159731 0.40618 0.114229
0.199557 0.405203 0.133761
0.234653 0.405631 0.150149
0.265934 0.407141 0.163531
0.294484 0.409354 0.174487
0.320989 0.412055 0.183612
0.345113 0.414923 0.191318
0.366857 0.417807 0.197986
0.388052 0.420905 0.204013
0.408896 0.42417 0.209018
0.429496 0.427588 0.213123
0.449973 0.431098 0.216449
0.470344 0.434669 0.219074
0.490654 0.438285 0.221164
0.510933 0.441978 0.222858
0.531106 0.445716 0.224231
0.551202 0.449485 0.225437
0.571206 0.453285 0.226566
0.590921 0.457145 0.227848
0.610544 0.461036 0.229053
0.629969 0.464973 0.230442
0.649165 0.46894 0.232044
0.668101 0.472938 0.233936
0.689097 0.476616 0.232944
0.71223 0.479896 0.229236
0.735531 0.483116 0.225666
0.75967 0.486213 0.221988
0.783276 0.489265 0.218738
0 0.463935 0.0193027
0 0.456458 0.0353857
0.0192264 0.449912 0.0552682
0.0735485 0.444343 0.0772106
0.123278 0.440024 0.0997635
0.168307 0.437156 0.121523
0.209064 0.435767 0.141619
0.245151 0.435752 0.15903
0.277241 0.436805 0.173663
0.306401 0.438651 0.185962
0.333227 0.441047 0.196384
0.357443 0.443687 0.205142
0.379141 0.446418 0.21268
0.400198 0.449332 0.219867
0.420768 0.452445 0.22652
0.440925 0.455726 0.232227
0.460792 0.45919 0.237125
0.480476 0.462806 0.241215
0.500023 0.466499 0.244648
0.519463 0.470283 0.247517
0.538811 0.474128 0.249897
0.558083 0.478035 0.251926
0.577295 0.481971 0.253697
0.596384 0.485954 0.255299
0.615396 0.489967 0.25684
0.634195 0.494011 0.258503
0.652964 0.49807 0.260044
0.67158 0.502144 0.261692
0.692241 0.505913 0.260197
0.714717 0.509377 0.256291
0.737423 0.512734 0.25243
0.761059 0.515969 0.248386
0.784176 0.519158 0.244694
0 0.492012 0.0339666
0 0.485527 0.0485389
0.0302434 0.479713 0.0668345
0.0833448 0.474571 0.0875563
0.132464 0.470481 0.109026
0.177646 0.467536 0.130419
0.218997 0.465873 0.150713
0.255818 0.465492 0.168765
0.288624 0.466163 0.18436
0.318318 0.467643 0.197742
0.34551 0.469718 0.209262
0.369879 0.472129 0.219028
0.391623 0.474678 0.227375
0.41265 0.477485 0.235279
0.433143 0.480476 0.242908
0.453132 0.48365 0.25008
0.472679 0.487053 0.256306
0.491905 0.490623 0.261753
0.510872 0.494331 0.266453
0.529671 0.498161 0.270481
0.548348 0.502068 0.27393
0.566888 0.50605 0.27689
0.585351 0.510094 0.279438
0.603754 0.514183 0.281697
0.62208 0.518288 0.283711
0.64033 0.522423 0.285603
0.658488 0.526574 0.287495
0.67657 0.530739 0.289311
0.696941 0.534585 0.287251
0.718624 0.538216 0.283391
0.740612 0.541726 0.279454
0.763531 0.545129 0.275227
0.786068 0.54844 0.27129
0 0.519341 0.0499886
0 0.513649 0.0634623
0.0430915 0.508553 0.0803388
0.0946822 0.503929 0.0997024
0.142977 0.500114 0.120134
0.18793 0.497215 0.140932
0.229526 0.495399 0.16112
0.266804 0.494743 0.179507
0.30016 0.495079 0.195758
0.330358 0.496254 0.210025
0.357931 0.49807 0.222477
0.382528 0.500298 0.233127
0.404395 0.502693 0.242252
0.425483 0.505394 0.250843
0.445945 0.508309 0.259052
0.465873 0.511406 0.266941
0.485283 0.514687 0.274388
0.50425 0.518181 0.28101
0.52285 0.521859 0.286839
0.541176 0.525673 0.291951
0.559289 0.529595 0.296407
0.577234 0.533623 0.300298
0.595087 0.537713 0.3037
0.612833 0.541863 0.306691
0.630518 0.546044 0.309346
0.648127 0.550256 0.311742
0.665721 0.554482 0.31397
0.683284 0.558709 0.315984
0.703319 0.562631 0.313497
0.724071 0.56643 0.310002
0.745251 0.570123 0.306233
0.767376 0.573663 0.302037
0.789227 0.577111 0.298054
0 0.546075 0.0669718
0.00509651 0.541054 0.0795453
0.0574502 0.536568 0.0953231
0.107515 0.532418 0.113542
0.154772 0.528893 0.132952
0.199237 0.526131 0.153017
0.240818 0.5243 0.172915
0.27837 0.523507 0.191424
0.312139 0.523644 0.208118
0.342763 0.524605 0.223026
0.370687 0.526207 0.23624
0.395514 0.528237 0.247608
0.417548 0.53051 0.257404
0.438682 0.533104 0.266545
0.459174 0.535927 0.275242
0.479072 0.538949 0.283589
0.498421 0.542153 0.291661
0.51725 0.545525 0.29926
0.535622 0.549111 0.306065
0.553628 0.552865 0.312139
0.571344 0.556771 0.317525
0.58883 0.560784 0.322301
0.606149 0.564889 0.326513
0.623346 0.56907 0.330282
0.640452 0.573297 0.333623
0.657481 0.577554 0.336614
0.674479 0.581827 0.33933
0.691768 0.586084 0.341207
0.711315 0.590112 0.33846
0.731212 0.594034 0.335393
0.751431 0.597848 0.332219
0.772671 0.601556 0.328328
0.793729 0.605142 0.324468
0 0.572274 0.0844739
0.0223239 0.567819 0.0964523
0.0729229 0.563851 0.11136
0.121508 0.560189 0.128573
0.167773 0.557031 0.147127
0.211704 0.554467 0.166598
0.253056 0.552712 0.186099
0.290684 0.551858 0.204547
0.324697 0.551873 0.221469
0.355642 0.552651 0.236805
0.383841 0.554086 0.250584
0.40885 0.555962 0.262455
0.431022 0.558099 0.272755
0.452232 0.560555 0.282414
0.47274 0.563287 0.291539
0.492622 0.566217 0.300252
0.51194 0.569345 0.308614
0.530694 0.572641 0.316701
0.548974 0.57612 0.324346
0.566796 0.579797 0.331258
0.584237 0.583627 0.337484
0.601358 0.587594 0.343053
0.61828 0.591684 0.348058
0.635004 0.595834 0.352529
0.651621 0.600061 0.356573
0.668132 0.604334 0.360189
0.684596 0.608637 0.36347
0.701946 0.612894 0.364324
0.720653 0.617029 0.362219
0.739712 0.621057 0.359716
0.759152 0.624979 0.356863
0.779553 0.628794 0.353399
0.799664 0.632517 0.350149
0 0.598123 0.102327
0.040238 0.594171 0.113924
0.0893416 0.590692 0.128206
0.136614 0.587472 0.144656
0.181888 0.584649 0.162463
0.225101 0.58233 0.181231
0.266133 0.580682 0.20032
0.303685 0.579828 0.218585
0.337804 0.579767 0.235584
0.368933 0.580407 0.251179
0.397345 0.581689 0.265309
0.422477 0.583383 0.277623
0.444785 0.585397 0.288334
0.466087 0.587747 0.29839
0.486641 0.590356 0.307881
0.506523 0.59321 0.316915
0.525811 0.596262 0.325567
0.544518 0.599481 0.333852
0.562722 0.602884 0.341894
0.580438 0.606439 0.349508
0.597696 0.610178 0.356451
0.614588 0.614069 0.362737
0.631189 0.618097 0.368444
0.647562 0.622217 0.373602
0.663767 0.626413 0.378271
0.679835 0.630671 0.382544
0.695827 0.634974 0.386358
0.713252 0.639231 0.386007
0.731212 0.643427 0.384558
0.749493 0.647532 0.382696
0.768139 0.651545 0.380392
0.787686 0.655451 0.377462
0.807095 0.659236 0.374411
0.00784314 0.623774 0.12047
0.0587015 0.620249 0.131792
0.106447 0.617197 0.145586
0.152514 0.614343 0.161395
0.196963 0.61178 0.178744
0.239353 0.609751 0.19675
0.280003 0.608225 0.215412
0.317327 0.607385 0.233417
0.351446 0.607263 0.25037
0.38265 0.607813 0.266087
0.4112 0.608957 0.280461
0.436423 0.610544 0.29305
0.458839 0.612421 0.304082
0.480217 0.614649 0.314458
0.500816 0.617151 0.324254
0.520699 0.619898 0.333547
0.539956 0.622873 0.342412
0.558633 0.626017 0.350927
0.576761 0.629328 0.359121
0.594415 0.632807 0.367056
0.611566 0.636439 0.374594
0.628305 0.640238 0.381521
0.644678 0.64416 0.387823
0.660777 0.648219 0.393606
0.676646 0.652369 0.398901
0.692363 0.65658 0.403708
0.708415 0.660853 0.406592
0.725444 0.66511 0.406287
0.742733 0.669337 0.405509
0.760311 0.673472 0.404257
0.778225 0.677531 0.402564
0.796994 0.681514 0.400214
0.815625 0.685374 0.397665
0.027985 0.649256 0.138811
0.0775464 0.646097 0.149935
0.124071 0.643397 0.163317
0.16907 0.640879 0.178622
0.212604 0.638605 0.195392
0.254292 0.636759 0.212894
0.294484 0.635355 0.231113
0.331533 0.634577 0.248829
0.365545 0.634424 0.26566
0.396765 0.634882 0.281392
0.425391 0.63592 0.295918
0.450629 0.637369 0.308659
0.473121 0.639139 0.319936
0.494591 0.64126 0.330571
0.515221 0.643641 0.340612
0.535119 0.646296 0.350149
0.55436 0.649165 0.359228
0.572992 0.652216 0.367895
0.591073 0.655451 0.376242
0.608637 0.658839 0.384268
0.625727 0.662379 0.392081
0.642359 0.666056 0.399512
0.658579 0.669886 0.406378
0.674479 0.673854 0.41268
0.690089 0.677913 0.418494
0.705501 0.682048 0.423819
0.721798 0.686336 0.424918
0.738308 0.690593 0.425254
0.755032 0.694804 0.425116
0.771984 0.698955 0.424506
0.789258 0.703029 0.423392
0.807324 0.707042 0.421653
0.825254 0.710948 0.419654
0.048249 0.674556 0.157275
0.0966354 0.671702 0.168215
0.142077 0.669322 0.181277
0.186053 0.667094 0.196109
0.228733 0.665049 0.212375
0.269764 0.663401 0.229419
0.309453 0.66212 0.247242
0.346166 0.661372 0.264637
0.380026 0.661204 0.2813
0.411215 0.661616 0.296986
0.439857 0.662562 0.311559
0.465064 0.66389 0.324407
0.487617 0.665537 0.335851
0.509133 0.667521 0.346654
0.529793 0.66981 0.356909
0.549722 0.672343 0.366644
0.568948 0.675105 0.375891
0.587533 0.678065 0.384726
0.60557 0.681208 0.393194
0.623072 0.68452 0.401343
0.640085 0.687968 0.409216
0.656626 0.691554 0.416861
0.67274 0.695262 0.42417
0.688472 0.699107 0.430976
0.703914 0.703075 0.437217
0.719585 0.707225 0.440558
0.735561 0.711452 0.442054
0.751644 0.715663 0.44303
0.76788 0.719844 0.443503
0.784329 0.723995 0.443488
0.801038 0.728069 0.443
0.818494 0.732097 0.441855
0.835798 0.736034 0.440406
0.0686198 0.699687 0.17583
0.115923 0.697124 0.186603
0.160372 0.695003 0.199374
0.203403 0.693019 0.213794
0.245243 0.691203 0.229618
0.285664 0.689708 0.246235
0.324849 0.688548 0.263661
0.361181 0.687846 0.28072
0.394842 0.687663 0.297185
0.425925 0.688014 0.312779
0.454536 0.688869 0.327352
0.479652 0.690074 0.340215
0.502281 0.691615 0.351781
0.523827 0.693492 0.362737
0.544533 0.695659 0.373144
0.564462 0.698085 0.383047
0.583673 0.700725 0.392447
0.602243 0.703593 0.401419
0.620218 0.70663 0.409995
0.637644 0.709834 0.418235
0.654582 0.713191 0.426184
0.671031 0.716686 0.433875
0.687068 0.720302 0.441398
0.702708 0.724025 0.448539
0.718227 0.727977 0.453529
0.733898 0.732113 0.456092
0.749569 0.736248 0.458167
0.765301 0.740414 0.459724
0.781155 0.744549 0.460792
0.797162 0.748653 0.461357
0.813397 0.752712 0.461433
0.830335 0.756741 0.460883
0.847089 0.760678 0.459983
0.0852522 0.726101 0.190997
0.135332 0.722301 0.205035
0.17882 0.720409 0.217517
0.220996 0.718654 0.231586
0.262074 0.717021 0.246998
0.301854 0.715679 0.263203
0.340536 0.714611 0.280247
0.376471 0.713954 0.296986
0.409888 0.713771 0.313207
0.440833 0.714061 0.328679
0.469368 0.714839 0.343206
0.494392 0.715953 0.356054
0.517037 0.717357 0.367681
0.538613 0.719127 0.378744
0.559335 0.721172 0.389273
0.579263 0.723476 0.399298
0.598459 0.726009 0.40882
0.616999 0.728756 0.417914
0.634943 0.731685 0.426596
0.652323 0.734783 0.434943
0.669169 0.738048 0.442954
0.685542 0.741451 0.450736
0.701503 0.744976 0.458244
0.717174 0.74873 0.464012
0.732769 0.752697 0.467658
0.748272 0.75671 0.470787
0.763714 0.760769 0.473365
0.779171 0.764858 0.475471
0.79472 0.768917 0.477089
0.810361 0.772976 0.478187
0.8262 0.776989 0.478813
0.842664 0.780987 0.478828
0.858946 0.784924 0.478477
0.0951705 0.754894 0.200046
0.149584 0.74931 0.218326
0.197375 0.745556 0.235676
0.238788 0.743984 0.249454
0.279103 0.742535 0.264439
0.318379 0.741268 0.280415
0.356435 0.740337 0.296941
0.391943 0.739727 0.313344
0.425116 0.739528 0.329335
0.455879 0.739773 0.34464
0.484337 0.740459 0.359075
0.509209 0.741451 0.371847
0.531853 0.742763 0.38352
0.553445 0.744411 0.394644
0.574182 0.746334 0.40528
0.594095 0.748516 0.415396
0.613291 0.750927 0.42504
0.631815 0.753567 0.434226
0.649714 0.756374 0.443015
0.667048 0.75938 0.451469
0.683848 0.762554 0.459556
0.700145 0.765866 0.467353
0.716045 0.769497 0.472938
0.731716 0.773312 0.477134
0.747219 0.777157 0.481071
0.7626 0.781064 0.484657
0.77789 0.785016 0.48777
0.793149 0.788998 0.490349
0.808438 0.792996 0.49247
0.823804 0.796994 0.494102
0.839292 0.800961 0.495247
0.85539 0.804913 0.495781
0.87126 0.808804 0.495949
0.105089 0.783444 0.209125
0.159472 0.777783 0.227314
0.20856 0.773434 0.245884
0.254643 0.769833 0.264988
0.296254 0.767712 0.28188
0.335012 0.766537 0.297566
0.372488 0.765698 0.313649
0.407568 0.765118 0.329732
0.440421 0.764904 0.345464
0.471 0.765103 0.360586
0.499336 0.765713 0.374914
0.524041 0.766598 0.387564
0.54667 0.767803 0.399252
0.568261 0.769345 0.410422
0.588998 0.771145 0.421118
0.608927 0.773205 0.431327
0.628107 0.775509 0.441047
0.646632 0.778027 0.450385
0.6645 0.780743 0.459251
0.681773 0.783642 0.467735
0.698497 0.78677 0.475593
0.714641 0.790295 0.48072
0.730495 0.793927 0.485466
0.74612 0.79762 0.489876
0.761563 0.801373 0.49398
0.776837 0.805188 0.497856
0.792004 0.809018 0.501396
0.807126 0.812894 0.504479
0.822217 0.8168 0.507057
0.837354 0.820722 0.509148
0.852583 0.824613 0.510781
0.868376 0.828534 0.511849
0.883894 0.83238 0.51252
0.114992 0.811704 0.218158
0.169299 0.805982 0.23624
0.218357 0.801556 0.254673
0.2645 0.797848 0.273625
0.308324 0.794705 0.292988
0.350118 0.792126 0.312596
0.388571 0.790707 0.330327
0.423239 0.790158 0.34609
0.455787 0.789914 0.361563
0.486168 0.790066 0.376501
0.514351 0.7906 0.390707
0.538872 0.791394 0.403235
