site/assets/luts/freshluts--0001221-color-domi.cube
# LUTr-Schema-Version: 2
# LUTr-ID: freshluts--0001221-color-domi
# LUTr-Title: COLOR DOMI
# LUTr-Collection: Fresh LUTs
# LUTr-Collection-ID: freshluts-community
# LUTr-Source: https://freshluts.com
# LUTr-Retrieved: 2026-07-27
# LUTr-Source-File: submissions-raw/freshluts/cubes/1221__Color_Domi.cube
# LUTr-Source-Format: CUBE
# LUTr-Source-SHA256: fb4de7f19d3c286cf62aac4314bd22041ef176ef178d8bd63502220e51f10a90
# LUTr-License: CC0-1.0
# LUTr-License-URL: https://freshluts.com/termsandconditions
# LUTr-License-Basis: site-terms
# LUTr-Transform-Class: creative-look
# LUTr-Tags: creative, freshluts, community, cube, orange, sony-s-log3
# LUTr-Input-Color-Space: sony-slog3-sgamut3
# LUTr-Input-Gamut: sony-s-gamut3
# LUTr-Input-Transfer: sony-s-log3
# LUTr-Output-Color-Space: srgb
# LUTr-Output-Gamut: rec709
# LUTr-Output-Transfer: srgb
# LUTr-Color-Space-Confidence: inferred-from-source-label
# LUTr-Domain-Normalized: true
# LUTr-Shaper: none
# LUTr-Original-Grid: 33x33x33
# LUTr-Conversion-Grid: 33x33x33
# LUTr-Conversion-Interpolation: none
# LUTr-Conversion-Method: Metadata normalization; numeric LUT samples preserved
# LUTr-Conversion-Tool: LUTr scripts/convert-all-to-cube.mjs 2.0.0
# LUTr-Conversion-Date: 2026-07-28
# LUTr-Asset-URL: https://freshluts.com/luts/1221
# LUTr-Author: Antony Eliezer
# LUTr-Author-URL: https://freshluts.com/users/32961
# LUTr-Attribution: Antony Eliezer via Fresh LUTs
# LUTr-Source-Labels: gamma=Sony S-Log 3; color=Orange; key=Neutral; style=Correction
# LUTr-Note: Preserve this metadata and the upstream license notices when redistributing.
# LUTr-Upstream-Comment: VEGAS Pro LUT
TITLE "COLOR DOMI"
LUT_3D_SIZE 9
DOMAIN_MIN 0 0 0
DOMAIN_MAX 1 1 1
-0.05703908 -0.05127686 -0.05127686
0.04350427 -0.05210632 -0.04961771
0.16219103 -0.05025929 -0.05229425
0.31361124 -0.04453462 -0.05585337
0.48641992 -0.03077054 -0.07336569
0.63051713 -0.01806134 -0.07302606
0.7615993 -0.00755429 -0.07255691
0.87441164 0.0025771 -0.06709653
0.97565514 0.01322907 -0.0334456
-0.05703908 0.04926646 -0.05127686
0.04433373 0.048437 -0.05127686
0.16605347 0.05194321 -0.05152184
0.31551543 0.05991167 -0.05775756
0.48851201 0.07395709 -0.07296896
0.63279718 0.08476189 -0.07323492
0.76162016 0.09462732 -0.07336569
0.87516892 0.10398614 -0.06633925
0.97527373 0.11565572 -0.03284001
-0.06794608 0.1589672 -0.05116266
0.03105232 0.16045505 -0.05233479
0.16591829 0.16292286 -0.05715328
0.33400771 0.18478939 -0.06967455
0.49800593 0.19873846 -0.07278103
0.63447291 0.20376569 -0.07336569
0.76514435 0.20683485 -0.07080746
0.87529969 0.21449262 -0.07194424
0.97491878 0.22353274 -0.03463686
-0.07336569 0.2905032 -0.04044795
0.02859184 0.29123816 -0.04527509
0.14408433 0.29419604 -0.06152546
0.32948709 0.31144553 -0.07191521
0.5031597 0.33198768 -0.07259309
0.64243728 0.33332506 -0.07274485
0.77184486 0.3311581 -0.07321399
0.87526351 0.33277676 -0.07336569
0.97512203 0.3377457 -0.03293586
-0.07336569 0.44022685 -0.02030087
0.02717766 0.44015443 -0.02560264
0.12847263 0.44384426 -0.06177467
0.30932716 0.45431525 -0.07312065
0.49578008 0.45745921 -0.07336569
0.64000559 0.46096244 -0.07138783
0.77322525 0.46111414 -0.07298988
0.87454253 0.45851415 -0.07314843
0.9751429 0.45979333 -0.0255717
-0.07336569 0.57933551 0.0064522
0.02779853 0.58099484 0.00334272
0.12806064 0.58379787 -0.02141613
0.22826439 0.58633947 -0.0618965
0.4637157 0.59138763 -0.07293272
0.6317004 0.5841375 -0.07116365
0.77261853 0.58652741 -0.07302606
0.87475127 0.58547372 -0.04916626
0.97491878 0.58645499 0.00060675
-0.07240522 0.70635206 0.04278964
0.02813816 0.70796943 0.04359841
0.12789235 0.70842451 0.03310224
0.22928321 0.71036494 0.00662479
0.40571457 0.71490103 -0.01363361
0.60858423 0.72057003 -0.04734004
0.76397514 0.71292311 -0.07174832
0.87526351 0.71004182 -0.0324499
0.97587925 0.71145743 0.02534834
-0.07303977 0.83539808 0.07951635
0.0279381 0.83705723 0.07717258
0.16672558 0.83545518 0.0775218
0.23061967 0.83773637 0.06181735
0.36291072 0.84248126 0.04221606
0.57413888 0.84743494 0.03108811
0.75080967 0.8497315 0.0041973
0.87533593 0.83525324 -0.00043154
0.97587925 0.8319962 0.0397763
-0.01990396 0.96755612 0.10699463
0.08350953 0.96755612 0.10609823
0.20130667 0.96902865 0.1046828
0.31468114 0.96855825 0.10166225
0.40151644 0.97093415 0.08349299
0.54423082 0.97214639 0.07089677
0.72741401 0.97255838 0.05849236
0.87533593 0.97105652 0.03909308
0.97587925 0.95327818 0.06889957
-0.05620962 -0.05127686 0.05175531
0.04184511 -0.05044723 0.04926646
0.16373599 -0.04860014 0.04824913
0.31585503 -0.03980201 0.04220116
0.48973823 -0.02496344 0.02757439
0.63030833 -0.01370472 0.02730846
0.76002371 -0.00585335 0.02879503
0.87441164 0.00344276 0.03016472
0.97543108 0.01526955 0.06786048
-0.05703908 0.04926646 0.04594818
0.04184511 0.05009615 0.04926646
0.16628191 0.0528869 0.04753366
0.320003 0.06230584 0.0413717
0.49100074 0.07925886 0.02757439
0.63135231 0.08911866 0.02751729
0.76244986 0.09796673 0.02879503
0.87361836 0.10564548 0.030922
0.97587925 0.1158129 0.0668737
-0.07180834 0.16062635 0.04955199
0.03027993 0.16134182 0.048437
0.16786295 0.16458222 0.04499209
0.33525369 0.18831235 0.02813375
0.49981806 0.20192724 0.02821603
0.63598043 0.20521608 0.02738649
0.76589584 0.20982581 0.02749637
0.87529969 0.21462768 0.02852115
0.97425628 0.22398096 0.06689328
-0.07287568 0.28991869 0.06092486
0.02717766 0.29265234 0.05809656
0.14163178 0.29646078 0.04363629
0.32992131 0.31120053 0.02989182
0.50340474 0.33245802 0.02779847
0.64348119 0.33360633 0.0275535
0.77103609 0.33200845 0.02779847
0.87475127 0.3319833 0.02738649
0.97505522 0.33882019 0.0667361
-0.07249993 0.44019064 0.08118069
0.02836776 0.44019064 0.07952154
0.12809688 0.4451277 0.04408574
0.30844042 0.45444605 0.02821606
0.49368787 0.45662963 0.02757439
0.64231193 0.46179202 0.02743924
0.77401316 0.46231943 0.02717766
0.87490296 0.45927131 0.02761218
0.97552431 0.45918781 0.07392359
-0.07129443 0.57933003 0.10989642
0.02717766 0.58161557 0.10720435
0.12918803 0.58246177 0.08181247
0.22943357 0.5864175 0.04430655
0.46284992 0.59189302 0.02717766
0.63190919 0.5841375 0.0291709
0.77176815 0.58532763 0.0291709
0.87416679 0.58630323 0.04979038
0.97535175 0.58647031 0.10160393
-0.07323492 0.70637298 0.14499214
0.02811724 0.70794857 0.14412087
0.12772101 0.70768833 0.13465196
0.22978416 0.71119446 0.10988089
0.4048585 0.71492189 0.09069717
0.60870951 0.72119075 0.05940726
0.76721007 0.71045512 0.02717766
0.87456334 0.7107991 0.06801546
0.97543108 0.71226621 0.12651798
-0.07202905 0.83619153 0.17933884
0.02808294 0.83705723 0.17775214
0.1730516 0.83540362 0.17651045
0.2295399 0.83897793 0.16160911
0.36572376 0.84212083 0.14239901
0.57579803 0.84698117 0.13370267
0.75075257 0.85121936 0.10745788
0.87533593 0.83518082 0.09856132
0.97577065 0.83218414 0.1419844
-0.02073359 0.96755612 0.20520651
0.08494455 0.96778029 0.20686564
0.20384827 0.96770352 0.20671397
0.31710318 0.9682923 0.2027415
0.4024671 0.97133088 0.18429106
0.54518151 0.97280341 0.17189395
0.72620308 0.97257924 0.16127938
0.87473035 0.97268498 0.14205831
0.97587925 0.95267278 0.16832238
-0.06314415 -0.05014509 0.15698937
0.04071772 -0.05180424 0.15864849
0.16388336 -0.05387259 0.15489733
0.32965529 -0.02888721 0.13813907
0.496593 -0.0094136 0.12877598
0.63390929 0.00047272 0.12777811
0.76640129 0.00446466 0.12852982
0.87352937 0.01139185 0.12811935
0.97418261 0.02074507 0.16752452
-0.06248575 0.05145615 0.16019344
0.03851438 0.05205742 0.16090894
0.16388336 0.05224949 0.154726
0.3306728 0.0737482 0.13717878
0.49784991 0.09573147 0.12798262
0.63616401 0.10267523 0.12772101
0.76424533 0.10740352 0.12772101
0.87507433 0.1120494 0.12815556
0.97516948 0.12244657 0.16834432
-0.0648936 0.16551858 0.16388336
0.03902519 0.16474622 0.16211
0.16687879 0.16766775 0.15975636
0.33652848 0.19205186 0.14328492
0.5059309 0.21282545 0.12772101
0.63899231 0.21540454 0.12777811
0.77039444 0.21749359 0.12922418
0.87529969 0.22137129 0.12795919
0.97497588 0.22771269 0.16888285
-0.07330859 0.29406229 0.17491674
0.02834681 0.29347762 0.17659247
0.13078088 0.29717192 0.16209027
0.33074653 0.30941054 0.14934814
0.50498718 0.33707201 0.12843651
0.64544916 0.33946747 0.12809688
0.773579 0.33769289 0.12787274
0.87533593 0.3372238 0.12783521
0.97587925 0.34144109 0.16930878
-0.07287568 0.44324014 0.19715595
0.02768859 0.44367298 0.19617596
0.12900013 0.4453893 0.17468268
0.30298024 0.45472848 0.15110052
0.49210975 0.45670754 0.1293335
0.64132643 0.46397433 0.12777811
0.7739616 0.46476644 0.12809688
0.87527877 0.46190622 0.12957823
0.97559804 0.46133819 0.17552626
-0.07330859 0.58159608 0.22336322
0.02836213 0.58153331 0.22117227
0.12777811 0.58097392 0.20849821
0.22850943 0.58660114 0.17746797
0.46204129 0.59091729 0.161053
0.63006335 0.5843088 0.12977672
0.77165693 0.58688909 0.12809682
0.87443256 0.58845502 0.15310377
0.97548252 0.58859986 0.2038967
-0.07336569 0.70725542 0.25269786
0.02802822 0.70653999 0.25267136
0.1291486 0.70665544 0.24960804
0.22875571 0.71190566 0.22796604
0.4081977 0.71570957 0.21036348
0.60820293 0.72126311 0.19753894
0.76562995 0.71201986 0.14708734
0.875148 0.71040231 0.17291254
0.97587925 0.712699 0.22781295
-0.06565279 0.83723104 0.28286108
0.04535344 0.83487195 0.28273156
0.17774934 0.83726174 0.28176552
0.27557296 0.83916712 0.27008924
0.38472655 0.84196359 0.25221768
0.57730365 0.84676135 0.24677962
0.74888897 0.84971619 0.22783244
0.87533593 0.83433473 0.20266366
0.97587925 0.83244574 0.24268079
-0.02227288 0.96840227 0.30949676
0.08015373 0.96791106 0.30840003
0.20033759 0.96913856 0.30955386
0.32648584 0.96996808 0.30630547
0.41163242 0.96976483 0.29022098
0.54390061 0.97321665 0.2766811
0.72537231 0.97218251 0.26746407
0.87533593 0.97107738 0.24165234
0.97587925 0.95333529 0.26880863
-0.07336569 -0.03828228 0.28233021
0.02717766 -0.03828228 0.28282022
0.16119444 -0.04459172 0.28483543
0.30973053 -0.04477966 0.278469
0.49690744 -0.00928718 0.25510964
0.64136261 0.01095894 0.22884905
0.77032083 0.01581794 0.22882816
0.87366015 0.02110562 0.22866273
0.97493964 0.02767655 0.26744568
-0.07278103 0.0659191 0.28340471
0.02717766 0.06250614 0.28481889
0.16113734 0.05909875 0.28315547
0.3099755 0.05825251 0.27944899
0.495702 0.09276372 0.25684124
0.64059997 0.11323953 0.22881278
0.76985168 0.11912706 0.22828531
0.87441725 0.12351692 0.23007691
0.97471559 0.12923187 0.27014449
-0.07293278 0.1767804 0.28478149
0.02989176 0.17629039 0.28357178
0.16113421 0.17303342 0.2859838
0.30800372 0.18022949 0.28003663
0.4979414 0.20890597 0.26627254
0.64471418 0.22457111 0.22860402
0.7722066 0.23055756 0.22826439
0.87526351 0.23050046 0.2291609
0.97563422 0.23375744 0.26923266
-0.07263064 0.29820588 0.29845086
0.02717766 0.29903549 0.29820588
0.15633535 0.29820588 0.29327309
0.32202944 0.31238621 0.29195362
0.49999732 0.3373729 0.28679851
0.64507025 0.34614715 0.24388808
0.77363735 0.34675384 0.22841612
0.87462044 0.34522545 0.22826439
0.97422439 0.34777674 0.27431026
-0.07312065 0.44113147 0.32070678
0.0274227 0.44284773 0.32191208
0.12881228 0.44521797 0.31808588
0.28069806 0.45344943 0.29287526
0.48649615 0.45866463 0.29873344
0.63710475 0.46779805 0.28032941
0.77356493 0.47015297 0.23048598
0.87462044 0.4667457 0.23324391
0.97565514 0.46408859 0.28046498
-0.07302606 0.58020145 0.34467456
0.0275535 0.58133441 0.3440538
0.13302809 0.58072889 0.34254628
0.24040025 0.58317715 0.31966841
0.45846003 0.59042734 0.3136794
0.62383074 0.58908981 0.31313539
0.77029562 0.59212267 0.26921576
0.8744117 0.59208769 0.26159728
0.97491878 0.59185678 0.30905977
-0.06123716 0.70747948 0.36943278
0.04648679 0.70524561 0.36769983
0.1752013 0.70781904 0.36715022
0.28739583 0.70906621 0.35923746
0.41429108 0.71394056 0.33969885
0.60486674 0.72060621 0.33826935
0.7608059 0.71563715 0.32691601
0.87470955 0.71417159 0.2781007
0.97587925 0.71288699 0.33069599
-0.02943003 0.83581561 0.38962033
0.07226041 0.83611912 0.39116541
0.18694788 0.83765841 0.38969415
0.31570718 0.83820689 0.3856954
0.40768498 0.84188145 0.36944246
0.57460076 0.84667766 0.36193073
0.74637932 0.85144335 0.35444796
0.87529969 0.83666748 0.3291274
0.97569132 0.8325808 0.34555689
-0.02124727 0.96753526 0.41510242
0.07964557 0.96769243 0.41381362
0.19840288 0.96831322 0.4142994
0.32895213 0.96904957 0.41252887
0.43349853 0.96998894 0.40385908
0.54733562 0.97221875 0.38668764
0.72332066 0.97261679 0.38056362
0.87533593 0.97160476 0.35977057
0.97585839 0.9516651 0.36916295
-0.07249993 -0.0179472 0.41876015
0.02840397 -0.02000296 0.42038307
0.1290344 -0.03135508 0.41955346
0.30666015 -0.03662747 0.41902292
0.47018802 -0.03384072 0.40910164
0.62471312 0.01554954 0.40334108
0.77122533 0.02626118 0.35627988
0.87424475 0.02974784 0.32974768
0.97587925 0.03426301 0.37349647
-0.07253599 0.08425534 0.41991392
0.02844018 0.08180282 0.42034689
0.1290915 0.07116616 0.42074355
0.3068327 0.06655642 0.41905913
0.46939456 0.07002094 0.41000372
0.62277836 0.11756417 0.40703523
0.77063078 0.12739894 0.3576203
0.8746776 0.13187784 0.3292785
0.97543108 0.13501513 0.3741076
-0.07330859 0.19585299 0.41912052
0.02763149 0.19508052 0.42026892
0.13289374 0.18801823 0.42330047
0.30733937 0.18148768 0.42408946
0.46901873 0.19278684 0.41245493
0.62512636 0.23106587 0.41403919
0.77090234 0.23763955 0.3692286
0.87452722 0.23871112 0.3291699
0.97461551 0.24225044 0.37388784
-0.07336569 0.31494439 0.42915732
0.02766764 0.31558615 0.42753562
0.12886307 0.31432363 0.42749944
0.30382085 0.31125462 0.42966524
0.4706234 0.33402136 0.43138024
0.62482977 0.35439268 0.43580636
0.77037489 0.35868919 0.40480444
0.8749392 0.35368106 0.32924232
0.97585833 0.35207897 0.38053373
-0.07283813 0.4471387 0.44723332
0.02810183 0.44753546 0.44676417
0.13003832 0.44612113 0.44448164
0.30616888 0.4487212 0.44231725
0.47301462 0.46269402 0.4470441
0.62126952 0.48125997 0.45535049
0.76698154 0.48713651 0.44067088
0.8743754 0.47354627 0.3596749
0.97587925 0.46894884 0.38693517
-0.04369813 0.57899594 0.46404555
0.0625174 0.57790047 0.46425989
0.19356656 0.57843232 0.46319935
0.31542757 0.580598 0.46091944
0.45021331 0.58711207 0.45086604
0.61549062 0.59426761 0.46154574
0.76030058 0.60464388 0.45691514
0.87507558 0.59834558 0.40800563
0.97531551 0.59265012 0.41586509
-0.00111789 0.7035656 0.48509479
0.09806967 0.70482248 0.48338401
0.20523012 0.70514554 0.48208413
0.32395938 0.70727628 0.4793196
0.42988932 0.71090776 0.46653125
0.59807289 0.71970296 0.46689045
0.75370747 0.72179067 0.46710053
0.87458432 0.72136337 0.44770792
0.97505522 0.71513194 0.43482056
-0.00959343 0.8345685 0.50392795
0.09149149 0.83453238 0.50093377
0.20324075 0.83581012 0.5026083
0.3209973 0.83762228 0.50140291
0.436701 0.83960009 0.49134412
0.56503987 0.84455371 0.47845256
0.74030387 0.85118312 0.47836477
0.87414581 0.8428055 0.46868172
0.9751277 0.83372921 0.44924721
-0.03272784 0.96635634 0.52237409
0.07099199 0.96661103 0.52467495
0.19048867 0.9665429 0.5222795
0.32047403 0.96887702 0.52258289
0.45913789 0.97114289 0.52226424
0.55758673 0.97163415 0.50402659
0.71539944 0.97350347 0.49390775
0.8748821 0.97269475 0.48246789
0.97587925 0.95252669 0.47208205
-0.07336569 0.00300878 0.56097162
0.02738649 0.00259122 0.55993879
0.12806064 -0.00835317 0.56080449
0.28928992 -0.01719558 0.56153649
0.45949414 -0.02081311 0.55784661
0.60464513 0.00351268 0.54408258
0.74292046 0.05358344 0.55389524
0.87533593 0.05579108 0.53365529
0.97509146 0.04526007 0.48016828
-0.07336569 0.10645288 0.55745
0.02738649 0.1037609 0.55869704
0.12918803 0.09349447 0.55980915
0.28934821 0.08551347 0.56281996
0.45953035 0.08304873 0.55912995
0.60423321 0.10592398 0.54491228
0.74105799 0.15473232 0.5571509
0.87505466 0.15765411 0.53364974
0.97535175 0.14513108 0.48049822
-0.07206565 0.21556592 0.55848962
0.02743924 0.2149452 0.55875552
0.12834191 0.21042573 0.56086159
0.28729102 0.19879124 0.56306612
0.45934248 0.1992228 0.55948496
0.60142571 0.223362 0.54662848
0.74248195 0.26139849 0.56001246
0.87533593 0.26489919 0.54214829
0.97468919 0.25109711 0.48191088
-0.07234693 0.33262381 0.55888367
0.02757007 0.33279637 0.55954075
0.12917274 0.33128756 0.55993992
0.28969628 0.32494062 0.56310099
0.45640549 0.32605147 0.56151992
0.59641373 0.35136107 0.56094092
0.74403113 0.37587294 0.56879103
0.87512708 0.3801167 0.55314666
0.97520012 0.36158952 0.48819962
-0.07187778 0.45504838 0.56994051
0.02764806 0.45546049 0.5695383
0.13852194 0.45516258 0.56617141
0.30276155 0.45532966 0.56511766
0.45103997 0.45557463 0.56560898
0.59869498 0.47769976 0.57583237
0.75028354 0.49334836 0.58090013
0.87533593 0.49531218 0.56580675
0.97553962 0.47349048 0.50030321
-0.04124862 0.57961679 0.58057725
0.06614581 0.57920474 0.58161002
0.19414687 0.57849061 0.57871485
0.3247737 0.58001471 0.5764907
0.45272973 0.58116174 0.57571685
0.60334522 0.59498292 0.58509791
0.75544029 0.61221278 0.5932501
0.87416679 0.61466658 0.5800761
0.97531551 0.59504694 0.52475262
0.01495937 0.70313126 0.5955258
0.11236259 0.7022655 0.59424227
0.22437888 0.70337623 0.59592378
0.34264088 0.70505214 0.59626204
0.45508462 0.70774537 0.59223258
0.58504522 0.7145043 0.58509791
0.74679691 0.72602886 0.5937193
0.87511176 0.72936511 0.5906778
0.97565514 0.71780986 0.55148619
0.01682141 0.83344114 0.61565757
0.11750111 0.83372235 0.61493665
0.22410202 0.83389497 0.61457491
0.33319435 0.8364948 0.61448836
0.44926518 0.83920336 0.61288512
0.56381637 0.84208453 0.59785861
0.73171198 0.85112476 0.59901363
0.87533593 0.84702289 0.59816754
0.97587925 0.83772802 0.57383078
-0.04476029 0.96512449 0.63249075
0.05762598 0.9668991 0.63209403
0.17321271 0.96591789 0.63260496
0.31090906 0.96814072 0.63120615
0.44932923 0.96904397 0.63256317
0.58541274 0.97072536 0.62982261
0.70257485 0.97293425 0.6121918
0.87194264 0.9724651 0.60541767
0.97587925 0.95492333 0.58714527
-0.07321399 0.02514905 0.68876183
0.02730846 0.02274376 0.68552709
0.12777811 0.01936719 0.68756205
0.24893343 0.00795543 0.6887269
0.4450509 0.01087281 0.69009805
0.59537971 0.01555926 0.68315244
0.72924966 0.03970659 0.67582184
0.8635748 0.07651988 0.68367881
0.97469467 0.08439627 0.67669445
-0.07242608 0.12820211 0.6862939
0.02732936 0.12654296 0.68714446
0.12772101 0.12079713 0.68671703
0.25207055 0.11130625 0.68850279
0.44443443 0.11305445 0.69011897
0.5949676 0.11717719 0.68499392
0.72761142 0.14435613 0.67428786
0.86272424 0.17864436 0.68447202
0.97489786 0.18574843 0.67876691
-0.07336569 0.23541099 0.68838173
0.02721944 0.23533297 0.68692034
0.12792984 0.23243538 0.68531835
0.26694527 0.22175556 0.68921256
0.44403344 0.22546631 0.68938822
0.59377766 0.22977817 0.68420625
0.72379059 0.25269786 0.67756015
0.86451989 0.28265914 0.68838596
0.97567046 0.28817517 0.68014491
-0.0730623 0.3490977 0.68263054
0.02743924 0.34819445 0.68452489
0.13097781 0.34847561 0.68674773
0.29499805 0.34704486 0.68746305
0.44302154 0.34456041 0.69017738
0.58820319 0.34849647 0.68565649
0.72301698 0.36823162 0.68307751
0.86711848 0.39266983 0.69308496
0.97475189 0.39625674 0.68318325
-0.07336569 0.46568516 0.68816197
0.02830508 0.46570605 0.68765104
0.15522283 0.46472469 0.68744099
0.30355069 0.46489292 0.68488413
0.44215018 0.46429178 0.68940347
0.58534282 0.46779376 0.68946195
0.72318387 0.48547742 0.69315046
0.87032527 0.50517076 0.70051062
0.97469473 0.50508308 0.68742144
-0.02313983 0.58481663 0.69780201
0.0779047 0.58500451 0.69601762
0.19411755 0.58487248 0.69559878
0.32093218 0.5855099 0.69497913
0.4447293 0.58454943 0.68978059
0.57895976 0.58470118 0.69175851
0.73237574 0.6064142 0.70603347
0.875148 0.62115961 0.71232188
0.97587925 0.61489755 0.6931476
0.00366697 0.70716089 0.7095868
0.10665736 0.70633119 0.70801121
0.21419483 0.70620036 0.70812112
0.3328338 0.70635206 0.70635206
0.45587924 0.70576757 0.70539182
0.58166844 0.70889366 0.70378834
0.73855019 0.72702557 0.71550095
0.87533593 0.73976374 0.72322696
0.97543108 0.7315796 0.70107567
0.01006505 0.83140486 0.72257841
0.11299837 0.83061701 0.72337186
0.22264326 0.83162898 0.72369057
0.34049308 0.83219826 0.72548056
0.46367103 0.8359465 0.72534412
0.58469433 0.84023625 0.72598714
0.71498579 0.84901613 0.7173062
0.87533593 0.85374546 0.72732896
0.97553968 0.84801102 0.715455
-0.01721728 0.9643144 0.74434996
0.08795404 0.96409029 0.74570143
0.19983876 0.96563542 0.74511683
0.32591188 0.96563542 0.7455706
0.45360926 0.96778029 0.74741334
0.57986182 0.96959233 0.74402565
0.71028978 0.97263086 0.73807544
0.86268562 0.97421885 0.7318427
0.9751429 0.96057695 0.7181325
-0.07198966 0.05394816 0.81238496
0.02945575 0.0531185 0.81231254
0.14593896 0.05280107 0.81417638
0.28542048 0.04685232 0.8120873
0.43836448 0.0455566 0.81749719
0.58914018 0.04828599 0.81515759
0.72625297 0.04988942 0.80992281
0.85944384 0.06802815 0.80359674
0.97565514 0.09693411 0.80858654
-0.0717724 0.1568355 0.81321466
0.02880713 0.15611446 0.81317842
0.15384057 0.15341681 0.81349719
0.28624997 0.14754602 0.81332892
0.43800405 0.14689332 0.81562239
0.58897305 0.15066111 0.81526619
0.72547501 0.1528281 0.80850738
0.8602373 0.16705698 0.80283964
0.97569132 0.19773781 0.81036115
-0.06223953 0.26175341 0.81144559
0.04872072 0.26174784 0.81302679
0.17513135 0.26074556 0.8115083
0.29904518 0.25573504 0.81515759
0.43790504 0.2534495 0.81635737
0.58889508 0.25561535 0.81660801
0.72344422 0.25772402 0.80990064
0.858634 0.27494949 0.80295259
0.97587925 0.3013128 0.81073695
-0.04958373 0.37071061 0.81165004
0.05602881 0.37057427 0.81190068
0.18486309 0.37144125 0.81161815
0.31319064 0.36975017 0.81338167
0.43939987 0.36374292 0.81379926
0.58707452 0.36738119 0.81811118
0.72235304 0.36719325 0.81039745
0.85914612 0.38191769 0.8074857
0.97512758 0.40995124 0.81606513
-0.05025595 0.48383227 0.81206512
0.05533567 0.4826422 0.81040597
0.17993838 0.48256978 0.81206632
0.31083828 0.48293027 0.81185758
0.44318426 0.47961614 0.81423354
0.57995635 0.47929749 0.81820446
0.72135651 0.47974703 0.81464553
0.85835266 0.4959065 0.81306982
0.97527933 0.51897097 0.82085311
-0.0213545 0.59879678 0.8188628
0.08039421 0.59859347 0.82115936
0.19060278 0.59881884 0.81833398
0.3108021 0.59764975 0.81654406
0.43532014 0.59333909 0.81294876
0.56946468 0.5917204 0.81814742
0.71536446 0.59526551 0.81811118
0.86010092 0.61243695 0.82391524
0.97584307 0.63075781 0.82951051
-0.0108043 0.71654904 0.83076191
0.09374201 0.71580291 0.83080369
0.20123231 0.71820945 0.82818967
0.31794485 0.71558857 0.82799619
0.44221538 0.71495247 0.8263427
0.5682869 0.71222311 0.82191652
0.70917481 0.7131834 0.82349759
0.86449772 0.73823267 0.83807594
0.97569132 0.74603128 0.84156263
-0.00247836 0.84023625 0.8412329
0.10051763 0.83864951 0.84126914
0.20930767 0.83837259 0.84204835
0.32512134 0.83927578 0.83959317
0.45028955 0.83887911 0.84079999
0.57968086 0.83869123 0.84016383
0.71635252 0.84236586 0.83905166
0.86879426 0.85837495 0.8526125
0.97587925 0.86058366 0.85336965
-0.03293085 0.96778029 0.86000198
0.07042408 0.96834946 0.86152059
0.18600672 0.96851647 0.8576833
0.31290779 0.9683494 0.8607229
0.44715932 0.96761322 0.85889554
0.58342761 0.96925282 0.85569
0.72359586 0.97115827 0.86031097
0.84979707 0.97440672 0.85407263
0.97421885 0.96984982 0.85683554
0.00631455 0.09422159 0.95206219
0.10723916 0.094603 0.95244348
0.21389982 0.09145045 0.95347762
0.32370198 0.08602771 0.95234895
0.4479363 0.07840726 0.95351934
0.59174848 0.0793677 0.953426
0.73850137 0.07825559 0.95346224
0.86940938 0.07803142 0.9445737
0.9751429 0.09428561 0.93637568
0.00669581 0.19619995 0.95145661
0.10867438 0.19476497 0.95266759
0.21307445 0.19337174 0.95259517
0.32588309 0.18704015 0.95289165
0.44753954 0.17934734 0.95351934
0.59174848 0.17989576 0.9526633
0.73848051 0.17944628 0.95231396
0.86986321 0.17993742 0.94419795
0.97552431 0.19565848 0.93577015
0.00592339 0.2997191 0.95421803
0.10795462 0.29767853 0.95377535
0.21904683 0.29706201 0.95336771
0.32739177 0.29256353 0.95353472
0.44819784 0.28237948 0.95336765
0.59181684 0.28299591 0.95444351
0.73754114 0.28315315 0.95286232
0.87159741 0.28320464 0.9455815
0.97587925 0.29825783 0.93568522
0.0001052 0.40404567 0.95751673
0.10329884 0.404672 0.95509058
0.21505934 0.40393147 0.95471907
0.33308175 0.40188 0.9530642
0.44893411 0.39203668 0.95444351
0.5862534 0.38971913 0.95585209
0.73603797 0.38898844 0.95485556
0.87089741 0.39023131 0.94741309
0.97587925 0.40433365 0.9372499
-0.01735175 0.51541352 0.95470375
0.08467826 0.5155862 0.95639914
0.19929215 0.51427096 0.95468169
0.32221541 0.51183927 0.95441574
0.45250985 0.50737685 0.95523131
0.5785563 0.49833673 0.95728153
0.73080301 0.49915105 0.9567762
0.86936766 0.4992094 0.95050305
0.97543108 0.51429302 0.94250685
-0.02745217 0.62823325 0.96229917
0.07260665 0.62901133 0.96136385
0.18381059 0.62688172 0.95889896
0.30218926 0.62552464 0.95902419
0.4334968 0.62277424 0.95780343
0.57435429 0.61563957 0.95855945
0.71830279 0.61002904 0.95842981
0.86743033 0.61082244 0.95375878
0.97525841 0.62756652 0.94772637
-0.02656257 0.74294984 0.96665287
0.07525843 0.74398255 0.96647459
0.18653458 0.74279815 0.96691877
0.30488539 0.74157184 0.96289909
0.42929351 0.74053216 0.96415591
0.5557673 0.73539072 0.96119684
0.70245516 0.72715914 0.96201956
0.86207998 0.72769231 0.96123862
0.97587925 0.74492759 0.95433491
-0.01766741 0.85896629 0.97237051
0.08408689 0.85953557 0.97165632
0.19366926 0.85915416 0.9713794
0.31244457 0.85764539 0.97101349
0.43605247 0.85817295 0.96890461
0.56510407 0.85618818 0.96938902
0.69659817 0.85337955 0.96652329
0.84348637 0.84805852 0.96409887
0.97587925 0.86610097 0.96756852
-0.01276577 0.97034115 0.97152549
0.08966082 0.97072244 0.97047192
0.20062947 0.96943778 0.97062236
0.32018024 0.97060704 0.97301894
0.44578975 0.97299802 0.97419792
0.57961679 0.97158962 0.9731136
0.71564573 0.97380686 0.97416717
0.85507774 0.97421885 0.97274631
0.9751429 0.9751429 0.97469473
