site/assets/luts/freshluts--0001536-fresh-look.cube
# LUTr-Schema-Version: 2
# LUTr-ID: freshluts--0001536-fresh-look
# LUTr-Title: Fresh Look
# LUTr-Collection: Fresh LUTs
# LUTr-Collection-ID: freshluts-community
# LUTr-Source: https://freshluts.com
# LUTr-Retrieved: 2026-07-27
# LUTr-Source-File: submissions-raw/freshluts/cubes/1536__film_roll.cube
# LUTr-Source-Format: CUBE
# LUTr-Source-SHA256: 839f5c031b8ae287a5d3065b7a6afc24b3d94b833d168ce6f8a4f730a631ef18
# LUTr-License: CC0-1.0
# LUTr-License-URL: https://freshluts.com/termsandconditions
# LUTr-License-Basis: site-terms
# LUTr-Transform-Class: creative-look
# LUTr-Tags: creative, freshluts, community, cube, green, panasonic-cinelike-d
# LUTr-Input-Color-Space:
# LUTr-Input-Gamut: rec709
# LUTr-Input-Transfer: panasonic-cinelike-d
# LUTr-Output-Color-Space: srgb
# LUTr-Output-Gamut: rec709
# LUTr-Output-Transfer: srgb
# LUTr-Color-Space-Confidence: camera-profile-input-required
# LUTr-Domain-Normalized: true
# LUTr-Shaper: none
# LUTr-Original-Grid: 16x16x16
# LUTr-Conversion-Grid: 16x16x16
# LUTr-Conversion-Interpolation: none
# LUTr-Conversion-Method: Metadata normalization; numeric LUT samples preserved
# LUTr-Conversion-Tool: LUTr scripts/convert-all-to-cube.mjs 2.0.0
# LUTr-Conversion-Date: 2026-07-28
# LUTr-Asset-URL: https://freshluts.com/luts/1536
# LUTr-Author: Gina
# LUTr-Author-URL: https://freshluts.com/users/90727
# LUTr-Attribution: Gina via Fresh LUTs
# LUTr-Source-Labels: gamma=Panasonic Cinelike-D; color=Green; key=Neutral; style=Fresh look
# LUTr-Note: Preserve this metadata and the upstream license notices when redistributing.
TITLE "Fresh Look"
LUT_3D_SIZE 16
DOMAIN_MIN 0 0 0
DOMAIN_MAX 1 1 1
0.009827 0.006714 0.008881
0.064071 0.010795 0.009363
0.130159 0.015118 0.008451
0.220959 0.018402 0.004914
0.323154 0.01613 0
0.406342 0.00944 0
0.48844 0.001117 0
0.549296 0 0
0.594092 0 0
0.63819 0 0
0.680664 0 0
0.713837 0 0
0.73938 0 0
0.764923 0 0
0.790409 0 0
0.815582 0.006216 0
0.011745 0.059638 0.015281
0.043437 0.055993 0.013773
0.083733 0.06195 0.012965
0.1387 0.070441 0.011163
0.217507 0.080404 0.006745
0.321808 0.088176 0.000852
0.414308 0.089416 0
0.500843 0.085713 0
0.578056 0.07994 0
0.62524 0.077137 0
0.670404 0.074856 0
0.714724 0.07361 0
0.751826 0.076223 0
0.7785 0.083413 0
0.804256 0.092224 0
0.829524 0.101804 0
0.007043 0.102409 0.020581
0.041726 0.097806 0.015859
0.079757 0.102759 0.01463
0.130333 0.111186 0.012483
0.19781 0.121863 0.008139
0.291631 0.134041 0.001775
0.393323 0.142863 0
0.478021 0.146522 0
0.563629 0.147672 0
0.627743 0.147959 0
0.673204 0.148717 0
0.717716 0.149938 0
0.761248 0.15205 0
0.794256 0.156491 0
0.819962 0.162824 0
0.845255 0.1702 0
0.000537 0.151684 0.030383
0.033302 0.148435 0.021722
0.074556 0.152124 0.017992
0.126895 0.160196 0.013673
0.190939 0.170832 0.007509
0.276835 0.184351 0.001217
0.382034 0.197987 0
0.469474 0.20588 0
0.553182 0.211437 0
0.633284 0.215482 0
0.683166 0.218097 0
0.727674 0.221054 0
0.771624 0.224599 0
0.812482 0.229119 0
0.841649 0.234953 0
0.867215 0.241763 0
0 0.205548 0.04178
0.015446 0.203754 0.031417
0.059859 0.207702 0.026006
0.119134 0.216487 0.020001
0.185395 0.22797 0.011832
0.268125 0.242656 0.002366
0.371082 0.259061 0
0.468512 0.27152 0
0.550808 0.2797 0
0.634836 0.286813 0
0.698303 0.2914 0
0.742908 0.29471 0
0.786577 0.298385 0
0.829687 0.302505 0
0.865485 0.306936 0
0.890276 0.311699 0
0 0.263438 0.053386
0.006691 0.263961 0.041594
0.032931 0.268456 0.034349
0.102277 0.277917 0.026341
0.176195 0.290272 0.015748
0.26001 0.305837 0.003337
0.362718 0.323736 0
0.468701 0.339628 0
0.551072 0.349082 0
0.634912 0.357831 0
0.711111 0.364702 0
0.758589 0.36831 0
0.801926 0.371875 0
0.844735 0.375828 0
0.886081 0.380147 0
0.914025 0.384156 0
0 0.318921 0.064557
0.006529 0.319974 0.052648
0.014733 0.324923 0.043873
0.073147 0.334939 0.033835
0.160915 0.347743 0.020978
0.248804 0.363802 0.004728
0.351482 0.383174 0
0.462343 0.402143 0
0.549964 0.414074 0
0.633049 0.42409 0
0.715521 0.433006 0
0.771713 0.437799 0
0.814834 0.441041 0
0.857329 0.444493 0
0.899226 0.44818 0
0.934478 0.451668 0
0 0.372317 0.076144
0.006529 0.373815 0.063806
0.013338 0.379375 0.053989
0.037863 0.389674 0.042103
0.138115 0.402498 0.027
0.234414 0.418513 0.007614
0.339175 0.438113 0.00011
0.452359 0.45853 0
0.546716 0.472618 0
0.629402 0.483131 0
0.713822 0.493052 0
0.780525 0.499448 0
0.823946 0.502382 0
0.86619 0.505428 0
0.907839 0.508626 0
0.948709 0.511999 0
0 0.419096 0.091752
0.006529 0.421505 0.078783
0.013084 0.42803 0.067746
0.024113 0.438939 0.054048
0.104645 0.452526 0.035613
0.217008 0.469382 0.013068
0.325798 0.490052 0.000856
0.442367 0.512449 0
0.54291 0.529351 0
0.625853 0.540945 0
0.70972 0.55142 0
0.784702 0.559482 0
0.832125 0.56278 0
0.874298 0.565522 0
0.915865 0.568453 0
0.95661 0.571536 0
0 0.463959 0.111749
0.006529 0.466425 0.099237
0.013084 0.473356 0.088216
0.019611 0.483977 0.074636
0.063609 0.497612 0.055637
0.195522 0.514439 0.029197
0.310947 0.535194 0.003637
0.430501 0.55845 0
0.536502 0.577307 0
0.620137 0.589721 0
0.70351 0.601286 0
0.785819 0.611689 0
0.83746 0.616247 0
0.879772 0.619337 0
0.921431 0.622499 0
0.962284 0.625729 0
0 0.509389 0.135295
0.006529 0.51203 0.123448
0.013084 0.519754 0.112762
0.019611 0.530152 0.099933
0.041604 0.543523 0.082767
0.164235 0.560025 0.05821
0.293451 0.580483 0.022117
0.41643 0.603558 0.000499
0.527674 0.623394 0
0.613762 0.636235 0
0.696889 0.647875 0
0.782 0.659204 0
0.840572 0.665059 0
0.883184 0.668061 0
0.924853 0.671086 0
0.965663 0.674199 0
0 0.548926 0.161788
0.006529 0.55409 0.150825
0.013084 0.563254 0.140752
0.019611 0.574767 0.128671
0.02707 0.589406 0.113
0.122432 0.606584 0.092022
0.272041 0.62691 0.059843
0.401406 0.649839 0.015095
0.518156 0.670568 0
0.607066 0.683909 0
0.690484 0.6956 0
0.775117 0.706946 0
0.842452 0.714342 0
0.88627 0.717267 0
0.927981 0.72001 0
0.968795 0.722856 0
0 0.580683 0.190631
0.006529 0.588258 0.180537
0.013084 0.5975 0.171283
0.019611 0.60934 0.160245
0.026145 0.624276 0.146453
0.094131 0.642566 0.128839
0.248214 0.66483 0.103815
0.385546 0.689902 0.064416
0.50774 0.713791 0.014866
0.599517 0.729772 0.000195
0.683669 0.742666 0
0.768193 0.754244 0
0.843678 0.763462 0
0.888616 0.766508 0
0.930488 0.769175 0
0.971493 0.771899 0
0 0.612968 0.221871
0.006529 0.621526 0.212691
0.013084 0.63043 0.204029
0.019611 0.641874 0.193818
0.026145 0.65628 0.181387
0.054853 0.674068 0.166206
0.22341 0.696003 0.146206
0.369806 0.720821 0.118247
0.496432 0.745182 0.077372
0.589898 0.761518 0.028914
0.67432 0.775391 0.003764
0.758728 0.788713 0
0.840683 0.800796 0
0.887758 0.805646 0
0.930098 0.809592 0
0.97152 0.813458 0
0 0.646401 0.252926
0.006529 0.654895 0.246343
0.013084 0.663718 0.238726
0.019611 0.674772 0.229191
0.026145 0.688672 0.217761
0.038005 0.706043 0.20417
0.192273 0.727443 0.187201
0.353651 0.751644 0.165346
0.484787 0.77597 0.13657
0.580101 0.792255 0.104649
0.664756 0.805919 0.063467
0.748834 0.819111 0.017946
0.832144 0.831521 0.000763
0.884629 0.837333 0
0.92709 0.841181 0
0.968557 0.844982 0
0 0.67795 0.27878
0.006529 0.686405 0.273489
0.013084 0.695557 0.268335
0.019611 0.706998 0.262303
0.026145 0.721135 0.254573
0.036865 0.738327 0.243016
0.168834 0.759262 0.227988
0.336436 0.782861 0.209584
0.47297 0.806972 0.186919
0.570197 0.823128 0.163172
0.655299 0.836541 0.13675
0.739287 0.849532 0.104332
0.822704 0.861882 0.059135
0.881052 0.868728 0.014165
0.923828 0.872472 0
0.965329 0.876113 0
0.018136 0.009196 0.056545
0.124055 0.012668 0.045722
0.194316 0.012478 0.038351
0.288073 0.008616 0.031576
0.371141 0.003977 0.02371
0.453331 0.000364 0.014707
0.525539 0 0.009703
0.573635 0 0.007485
0.616717 0 0.006529
0.659139 0 0.006529
0.697753 0 0.006529
0.725858 0 0.006529
0.750688 0 0.006529
0.775577 0 0.006529
0.800589 0 0.006529
0.825452 0 0.006529
0.007659 0.05981 0.071377
0.045405 0.059508 0.058127
0.093075 0.065328 0.054131
0.15539 0.073038 0.05013
0.245734 0.081443 0.0435
0.352901 0.085589 0.032733
0.441584 0.083398 0.021091
0.528306 0.075869 0.012935
0.595294 0.067897 0.008063
0.641378 0.063443 0.00654
0.686242 0.05962 0.006529
0.729732 0.057318 0.006529
0.762235 0.060802 0.006529
0.788096 0.068572 0.006529
0.813749 0.078529 0.006529
0.839057 0.089488 0.006529
0.001809 0.103758 0.081357
0.039312 0.102336 0.068294
0.083581 0.106848 0.063326
0.139639 0.114357 0.058783
0.215235 0.124145 0.052604
0.317368 0.134492 0.042135
0.415165 0.1402 0.028741
0.500415 0.141776 0.015958
0.585974 0.140808 0.008817
0.641783 0.140169 0.006569
0.687176 0.140288 0.006529
0.731771 0.140894 0.006529
0.773841 0.142656 0.006529
0.803628 0.147383 0.006529
0.829225 0.153914 0.006529
0.854531 0.16156 0.006529
0 0.154369 0.091705
0.027021 0.152691 0.079099
0.073784 0.156503 0.073437
0.131564 0.163982 0.067979
0.201918 0.174058 0.060976
0.295533 0.186618 0.050244
0.40142 0.197806 0.034487
0.487577 0.203726 0.01961
0.573293 0.207751 0.009872
0.647241 0.210298 0.006603
0.695535 0.21226 0.006529
0.74025 0.214756 0.006529
0.784392 0.217899 0.006529
0.823222 0.222245 0.006529
0.850151 0.228082 0.006529
0.875484 0.23497 0.006529
0 0.208864 0.10273
0.009144 0.208258 0.089961
0.054706 0.212499 0.083694
0.120332 0.220864 0.077436
0.192179 0.231911 0.069186
0.281769 0.246217 0.057
0.389128 0.261454 0.038826
0.482947 0.271816 0.020432
0.566928 0.279074 0.009699
0.651195 0.285113 0.006605
0.70902 0.288701 0.006529
0.753675 0.291642 0.006529
0.797509 0.295037 0.006529
0.840041 0.298886 0.006529
0.873054 0.303169 0.006529
0.89758 0.30794 0.006529
0 0.269545 0.114258
0.006537 0.269679 0.101036
0.024182 0.274373 0.093588
0.099348 0.283279 0.08621
0.179905 0.294718 0.076671
0.269684 0.309363 0.062734
0.376516 0.326327 0.041684
0.480224 0.340316 0.018944
0.563359 0.349 0.008372
0.648632 0.357069 0.006589
0.721166 0.36293 0.006529
0.7668 0.366078 0.006529
0.810426 0.369465 0.006529
0.853443 0.373264 0.006529
0.89332 0.377375 0.006529
0.919806 0.381295 0.006529
0 0.326632 0.126457
0.006529 0.32718 0.113242
0.014044 0.332175 0.104576
0.065105 0.341633 0.095502
0.161597 0.353907 0.08435
0.255796 0.369582 0.068794
0.363465 0.388435 0.045238
0.474845 0.406091 0.019417
0.560346 0.41662 0.008118
0.644762 0.426097 0.006552
0.725942 0.434199 0.006529
0.778896 0.438247 0.006529
0.822316 0.441328 0.006529
0.865041 0.444641 0.006529
0.907137 0.4482 0.006529
0.939893 0.451422 0.006529
0 0.382012 0.14057
0.006529 0.382967 0.127489
0.013084 0.388355 0.118097
0.030309 0.397692 0.107925
0.133788 0.409856 0.095269
0.238501 0.425409 0.077785
0.348433 0.444503 0.051858
0.463027 0.463827 0.023097
0.555243 0.47642 0.010409
0.639036 0.486405 0.006589
0.723527 0.495712 0.006529
0.786815 0.501207 0.006529
0.830241 0.503909 0.006529
0.872761 0.506783 0.006529
0.914654 0.509876 0.006529
0.954389 0.513051 0.006529
0 0.430736 0.157278
0.006529 0.433001 0.144712
0.013084 0.439658 0.135048
0.021183 0.449726 0.124364
0.088848 0.462705 0.111174
0.216183 0.479077 0.093491
0.331758 0.499155 0.066318
0.450501 0.520346 0.03241
0.549711 0.535324 0.015358
0.633575 0.545695 0.006702
0.718649 0.555546 0.006529
0.791039 0.562645 0.006529
0.837388 0.565498 0.006529
0.879858 0.568059 0.006529
0.921672 0.570849 0.006529
0.96266 0.573858 0.006529
0 0.475882 0.176876
0.006529 0.478382 0.164888
0.013084 0.485696 0.155249
0.019611 0.495951 0.144458
0.051994 0.509123 0.131373
0.188843 0.525678 0.114547
0.313235 0.546125 0.089643
0.436925 0.568652 0.052297
0.541959 0.585835 0.026592
0.626353 0.597363 0.011467
0.711003 0.6083 0.006828
0.791729 0.617744 0.006529
0.842224 0.621673 0.006529
0.884878 0.624485 0.006529
0.926814 0.627411 0.006529
0.967895 0.63045 0.006529
0 0.521229 0.198587
0.006529 0.524316 0.18738
0.013084 0.532279 0.178021
0.019611 0.542405 0.167438
0.032821 0.555386 0.154728
0.150338 0.571718 0.138924
0.292631 0.591921 0.117084
0.421102 0.614586 0.083206
0.531998 0.633036 0.044673
0.618344 0.645087 0.021268
0.702739 0.656311 0.009408
0.788717 0.667121 0.006529
0.844743 0.672026 0.006529
0.887513 0.67468 0.006529
0.929525 0.677469 0.006529
0.970622 0.680348 0.006529
0 0.561744 0.222976
0.006529 0.567924 0.212378
0.013084 0.576792 0.203165
0.019611 0.588104 0.192688
0.026145 0.601971 0.180183
0.108206 0.618385 0.165144
0.26814 0.63842 0.14544
0.403905 0.660997 0.117407
0.520794 0.680469 0.079234
0.610116 0.693078 0.041633
0.694779 0.704381 0.021953
0.780722 0.715381 0.007483
0.845623 0.721874 0.006529
0.88958 0.724509 0.006529
0.931682 0.727077 0.006529
0.972846 0.72973 0.006529
0 0.593452 0.247783
0.006529 0.602072 0.239576
0.013084 0.611198 0.231217
0.019611 0.622897 0.221396
0.026145 0.637565 0.209693
0.07444 0.655606 0.195475
0.240065 0.677695 0.177346
0.385915 0.702484 0.153091
0.508899 0.725178 0.121635
0.601307 0.740064 0.084801
0.686603 0.751802 0.045975
0.772428 0.763062 0.026904
0.845843 0.771406 0.01079
0.89098 0.774143 0.006944
0.933242 0.776618 0.006529
0.974578 0.779171 0.006529
0 0.625325 0.273336
0.006529 0.634001 0.266223
0.013084 0.643069 0.259067
0.019611 0.654596 0.250505
0.026145 0.669026 0.240449
0.043649 0.686949 0.228385
0.210098 0.708859 0.212776
0.368161 0.733399 0.192222
0.496157 0.756646 0.167016
0.590494 0.772333 0.139887
0.676213 0.785814 0.105433
0.761935 0.79885 0.064673
0.843032 0.810284 0.039711
0.889525 0.814668 0.027373
0.932247 0.818438 0.018769
0.974025 0.822112 0.010778
0 0.656533 0.296033
0.006529 0.665092 0.290485
0.013084 0.674355 0.285211
0.019611 0.685942 0.278862
0.026145 0.700252 0.270593
0.037043 0.718079 0.260698
0.181268 0.739644 0.2476
0.350462 0.763829 0.230938
0.483252 0.787302 0.210639
0.579631 0.802959 0.18883
0.665609 0.816311 0.164515
0.750975 0.829204 0.1349
0.834987 0.841278 0.095861
0.885744 0.846411 0.067914
0.928512 0.850049 0.042532
0.970336 0.853683 0.034497
0 0.687497 0.320095
0.006529 0.695923 0.314811
0.013084 0.705006 0.309718
0.019611 0.716281 0.303827
0.026145 0.730388 0.296892
0.036234 0.748185 0.288773
0.158098 0.769817 0.278975
0.33279 0.793996 0.266776
0.470706 0.8176 0.250639
0.568878 0.833458 0.233151
0.655192 0.846755 0.214256
0.740437 0.85953 0.192668
0.824611 0.871548 0.167856
0.881446 0.877768 0.144722
0.924536 0.881336 0.121337
0.966395 0.88478 0.094336
0.036353 0.009896 0.115289
0.193295 0.009321 0.101625
0.263746 0.00506 0.085343
0.329887 0.00236 0.074649
0.404412 0 0.064841
0.484389 0 0.053635
0.54458 0 0.043186
0.590459 0 0.034561
0.633205 0 0.027318
0.674495 0 0.021415
0.710818 0 0.016707
0.736704 0 0.014533
0.761208 0 0.014097
0.785651 0 0.013896
0.810167 0 0.013754
0.834592 0 0.013613
0.00874 0.062093 0.122662
0.049552 0.063219 0.106974
0.102739 0.068949 0.10072
0.17047 0.0761 0.095346
0.267107 0.083124 0.088
0.373107 0.084767 0.077224
0.460582 0.080363 0.064822
0.546962 0.0703 0.050342
0.607906 0.061735 0.038082
0.653882 0.056062 0.029141
0.698751 0.050957 0.022184
0.740596 0.048378 0.016204
0.771052 0.052042 0.014448
0.796656 0.059457 0.014175
0.822071 0.069374 0.01398
0.847136 0.08117 0.013792
0.001508 0.107183 0.134089
0.03773 0.106531 0.118391
0.088524 0.11127 0.111623
0.148168 0.118223 0.105981
0.229402 0.127435 0.099384
0.336089 0.136377 0.089521
0.429984 0.140098 0.077098
0.51632 0.140271 0.06279
0.599395 0.138011 0.046154
0.652044 0.136756 0.034036
0.697531 0.136226 0.02558
0.742248 0.136298 0.018466
0.783324 0.137814 0.014687
0.810957 0.142607 0.014281
0.836367 0.149033 0.014054
0.861488 0.156663 0.01384
0 0.158734 0.146564
0.022026 0.157221 0.131175
0.075066 0.161334 0.123739
0.136889 0.16826 0.117318
0.21189 0.177852 0.110263
0.310606 0.189552 0.100722
0.414596 0.19888 0.087451
0.500653 0.203612 0.07239
0.587506 0.206568 0.054231
0.656777 0.208091 0.037018
0.70411 0.209515 0.026654
0.74898 0.211584 0.018527
0.793017 0.214331 0.014834
0.830214 0.218486 0.014335
0.856101 0.224226 0.014072
0.881323 0.23105 0.013824
0 0.214876 0.159676
0.008376 0.214144 0.144836
0.050787 0.218666 0.136922
0.122119 0.226411 0.12982
0.198626 0.23691 0.121814
0.293616 0.250639 0.111553
0.403693 0.264722 0.097103
0.494134 0.27343 0.080144
0.579135 0.279899 0.060671
0.663066 0.28506 0.039317
0.716847 0.287899 0.026437
0.761509 0.290537 0.017022
0.805507 0.293642 0.014884
0.847681 0.297261 0.014333
0.878762 0.301403 0.014009
0.903199 0.306152 0.013717
0 0.277272 0.173734
0.006529 0.277216 0.159309
0.019144 0.281886 0.15083
0.09522 0.289827 0.142932
0.182585 0.300464 0.133958
0.278153 0.314644 0.1227
0.388484 0.330655 0.107031
0.48936 0.34285 0.087191
0.573426 0.350863 0.065989
0.659349 0.358183 0.042604
0.728318 0.363119 0.02553
0.773507 0.36592 0.016847
0.817345 0.369079 0.014983
0.860555 0.372689 0.01434
0.898997 0.376568 0.013881
0.924796 0.380446 0.01354
0 0.33582 0.187986
0.006529 0.336232 0.173977
0.013568 0.341721 0.165106
0.053593 0.350604 0.156482
0.159312 0.362237 0.146678
0.260934 0.37745 0.134579
0.373208 0.395538 0.117842
0.48439 0.411685 0.094769
0.569039 0.421177 0.070979
0.654681 0.430039 0.0468
0.73463 0.437344 0.025668
0.785203 0.440732 0.016617
0.828905 0.443603 0.015121
0.871876 0.446711 0.014422
0.914209 0.450128 0.013858
0.944994 0.453105 0.013436
0 0.392453 0.203355
0.006529 0.393109 0.189903
0.013084 0.398896 0.180657
0.02521 0.40782 0.171345
0.123479 0.419569 0.160793
0.23975 0.434852 0.148119
0.355566 0.453392 0.131057
0.472038 0.471572 0.107329
0.562357 0.48274 0.0808
0.647324 0.492107 0.055331
0.73171 0.500701 0.03095
0.792561 0.505365 0.017498
0.836102 0.507768 0.015397
0.878929 0.510435 0.014698
0.921081 0.513319 0.014094
0.959808 0.516237 0.013544
0 0.442448 0.220085
0.006529 0.44459 0.207425
0.013084 0.451637 0.19824
0.020163 0.461295 0.18854
0.074841 0.473874 0.177415
0.213123 0.490006 0.164228
0.336073 0.509709 0.146938
0.457238 0.529682 0.123306
0.555153 0.542919 0.095069
0.640188 0.552603 0.066879
0.72652 0.561951 0.03987
0.796903 0.568166 0.019727
0.842349 0.57053 0.015861
0.88517 0.572811 0.015173
0.927281 0.575368 0.014556
0.968513 0.578164 0.013914
0 0.487511 0.238669
0.006529 0.49051 0.227015
0.013084 0.498174 0.217882
0.019611 0.50817 0.208117
0.042199 0.521049 0.196942
0.179937 0.537416 0.183789
0.314705 0.557533 0.166983
0.441546 0.57917 0.144326
0.545901 0.595022 0.116714
0.631575 0.605988 0.087392
0.717614 0.616503 0.058429
0.796766 0.625133 0.034563
0.846474 0.628563 0.018535
0.889534 0.631135 0.015997
0.931856 0.63385 0.015462
0.973223 0.636684 0.01487
0 0.532257 0.257368
0.006529 0.53709 0.248245
0.013084 0.544887 0.240019
0.019611 0.554759 0.230141
0.027794 0.567441 0.218914
0.134191 0.583579 0.205926
0.291149 0.603533 0.189785
0.424843 0.625657 0.168688
0.535584 0.642949 0.14334
0.622072 0.654244 0.115988
0.707827 0.665051 0.082339
0.793703 0.675284 0.058522
0.848038 0.679501 0.037842
0.891182 0.681926 0.019669
0.933556 0.684517 0.016212
0.97501 0.687182 0.015713
0 0.572901 0.277059
0.006529 0.58091 0.269288
0.013084 0.590007 0.262448
0.019611 0.601314 0.254008
0.026145 0.614505 0.243577
0.095723 0.630469 0.230743
0.263145 0.650258 0.215225
0.405933 0.672447 0.195679
0.523103 0.690743 0.172571
0.612507 0.70253 0.148555
0.698473 0.713436 0.119252
0.785694 0.724125 0.083202
0.84822 0.729721 0.063184
0.892295 0.732085 0.041807
0.934806 0.734413 0.02327
0.976303 0.736897 0.016738
0 0.604927 0.296916
0.006529 0.614019 0.290506
0.013084 0.623584 0.284613
0.019611 0.6355 0.276974
0.026145 0.650344 0.268111
0.052103 0.668754 0.258028
0.229738 0.690827 0.243693
0.385731 0.715336 0.225517
0.509622 0.736866 0.203967
0.602328 0.75008 0.182138
0.688965 0.761299 0.157574
0.77608 0.772247 0.12548
0.847496 0.77974 0.092875
0.892806 0.782212 0.073768
0.935471 0.784477 0.056103
0.97718 0.78686 0.03922
0 0.635757 0.31729
0.006529 0.644503 0.311494
0.013084 0.65392 0.306063
0.019611 0.66576 0.29984
0.026145 0.680515 0.29243
0.038093 0.698709 0.282864
0.199248 0.720933 0.271338
0.366826 0.745645 0.256636
0.495715 0.768228 0.238784
0.59048 0.783398 0.220246
0.677594 0.796531 0.198922
0.764638 0.809293 0.173414
0.844204 0.819969 0.143873
0.890755 0.824059 0.118732
0.933918 0.827624 0.094955
0.97606 0.831128 0.083065
0 0.666541 0.33903
0.006529 0.675088 0.333553
0.013084 0.684255 0.328416
0.019611 0.695799 0.322528
0.026145 0.710197 0.315665
0.0368 0.728345 0.307773
0.173825 0.750301 0.2982
0.349091 0.774659 0.285709
0.482568 0.797548 0.270613
0.579074 0.813084 0.255274
0.66617 0.826481 0.23863
0.75269 0.839433 0.219664
0.837187 0.851357 0.197911
0.886271 0.855858 0.178735
0.929452 0.859307 0.158691
0.971613 0.862757 0.133337
0 0.697194 0.36199
0.006529 0.705612 0.356864
0.013084 0.714634 0.352015
0.019611 0.725828 0.346397
0.026145 0.739858 0.339824
0.035927 0.757684 0.332306
0.150176 0.77924 0.323417
0.332283 0.803275 0.312769
0.470421 0.826361 0.300216
0.56845 0.842067 0.287283
0.655595 0.855587 0.273817
0.741672 0.868617 0.258849
0.826499 0.880738 0.241741
0.881431 0.886604 0.227165
0.924867 0.890297 0.213247
0.967048 0.893782 0.19855
0.074799 0.007709 0.186078
0.260604 0.004327 0.17634
0.368938 0.000165 0.159581
0.385985 0.000098 0.138231
0.446096 0 0.126539
0.514042 0 0.116205
0.564735 0 0.106697
0.607867 0 0.09755
0.64986 0 0.088425
0.689975 0 0.079192
0.722355 0 0.070805
0.747556 0 0.063708
0.771823 0 0.05776
0.795881 0 0.052014
0.82001 0 0.046598
0.844109 0 0.041808
0.010679 0.063947 0.184987
0.05796 0.066875 0.169667
0.115101 0.072434 0.162167
0.189289 0.078972 0.155294
0.29102 0.084321 0.147605
0.392391 0.083677 0.137802
0.480529 0.07708 0.127
0.566396 0.064497 0.114981
0.620927 0.056292 0.104394
0.66668 0.049648 0.094365
0.711481 0.043532 0.084095
0.751831 0.040781 0.073867
0.780302 0.044876 0.065852
0.805753 0.052107 0.058761
0.830983 0.061841 0.052119
0.855853 0.073978 0.046246
0.001365 0.111239 0.19745
0.039006 0.111948 0.181539
0.095135 0.116713 0.173833
0.159325 0.123145 0.16679
0.246718 0.131627 0.15959
0.355141 0.138907 0.150667
0.446097 0.140921 0.140129
0.53342 0.139683 0.128519
0.613052 0.136328 0.115948
0.663093 0.134611 0.105138
0.708674 0.133438 0.094429
0.753478 0.132872 0.083149
0.792991 0.134427 0.072338
0.819252 0.139338 0.063907
0.844528 0.145659 0.056068
0.869511 0.153313 0.049159
0 0.163908 0.211578
0.017878 0.163391 0.195598
0.075733 0.167992 0.187585
0.143019 0.174441 0.180204
0.22374 0.183627 0.172758
0.327493 0.194336 0.163943
0.428692 0.201772 0.153213
0.514672 0.205322 0.141429
0.60265 0.207206 0.128015
0.667132 0.207951 0.115222
0.713691 0.208882 0.103646
0.758735 0.210494 0.091597
0.802719 0.21287 0.079178
0.837639 0.216868 0.067719
0.863304 0.22248 0.05828
0.888441 0.229181 0.049901
0 0.222035 0.226595
0.007398 0.221826 0.211082
0.045006 0.227039 0.202794
0.123565 0.234349 0.195118
0.20618 0.244493 0.187119
0.306769 0.257552 0.177986
0.41722 0.269876 0.166698
0.505967 0.276941 0.154074
0.592067 0.28247 0.140118
0.673589 0.286712 0.124611
0.72536 0.289095 0.111083
0.770371 0.291693 0.097584
0.814668 0.294649 0.08399
0.856474 0.298024 0.069731
0.885799 0.301975 0.057912
0.910171 0.306618 0.048313
0 0.286129 0.242544
0.006529 0.285947 0.227463
0.017691 0.291203 0.218741
0.089563 0.298613 0.210537
0.185204 0.308862 0.201964
0.287492 0.322614 0.192124
0.401708 0.337639 0.180152
0.499183 0.347996 0.166372
0.584359 0.355265 0.151582
0.670982 0.361879 0.134643
0.735819 0.365847 0.118171
0.781162 0.368332 0.10321
0.825293 0.371238 0.088599
0.868783 0.374604 0.072247
0.905939 0.378262 0.056557
0.931007 0.382012 0.045319
0 0.34607 0.257438
0.006529 0.346989 0.24385
0.013219 0.353207 0.23491
0.039662 0.36157 0.226231
0.155667 0.372796 0.217137
0.266349 0.387753 0.206798
0.383668 0.405061 0.194057
0.492768 0.419378 0.178987
0.57823 0.428129 0.163145
0.665262 0.436431 0.145163
0.743911 0.44288 0.125532
0.792083 0.445584 0.108527
0.836117 0.44819 0.092968
0.87945 0.451077 0.074981
0.922034 0.454258 0.055368
0.950916 0.45697 0.041532
0 0.40318 0.271141
0.006529 0.405028 0.260531
0.013084 0.411448 0.251696
0.023259 0.419997 0.242533
0.109947 0.431398 0.232879
0.240753 0.446461 0.222185
0.36331 0.464463 0.20911
0.481985 0.481519 0.193194
0.569736 0.491155 0.176598
0.656039 0.499994 0.158328
0.740232 0.507849 0.137495
0.798406 0.511692 0.117862
0.842351 0.51385 0.101755
0.885572 0.516282 0.083547
