site/assets/luts/freshluts--0002162-picturefx-vintage-kodachrome-1936-fg.cube
# LUTr-Schema-Version: 2
# LUTr-ID: freshluts--0002162-picturefx-vintage-kodachrome-1936-fg
# LUTr-Title: PictureFX Vintage Kodachrome 1936 FG
# LUTr-Collection: Fresh LUTs
# LUTr-Collection-ID: freshluts-community
# LUTr-Source: https://freshluts.com
# LUTr-Retrieved: 2026-07-27
# LUTr-Source-File: submissions-raw/freshluts/cubes/2162__PictureFX_Vintage_Kodachrome_1936_FG_125.cube
# LUTr-Source-Format: CUBE
# LUTr-Source-SHA256: f0a3073420b29566682744c6083b493112a20ca202ff01702b3ec93313bab49b
# LUTr-License: CC0-1.0
# LUTr-License-URL: https://freshluts.com/termsandconditions
# LUTr-License-Basis: site-terms
# LUTr-Transform-Class: creative-look
# LUTr-Tags: creative, freshluts, community, cube, film-emulation, warm, vintage, rec709, assumed-input
# LUTr-Input-Color-Space: rec709
# LUTr-Input-Gamut: rec709
# LUTr-Input-Transfer: rec709
# LUTr-Output-Color-Space: srgb
# LUTr-Output-Gamut: rec709
# LUTr-Output-Transfer: srgb
# LUTr-Color-Space-Confidence: assumed-display-referred
# LUTr-Domain-Normalized: true
# LUTr-Shaper: none
# LUTr-Original-Grid: 25x25x25
# LUTr-Conversion-Grid: 25x25x25
# LUTr-Conversion-Interpolation: none
# LUTr-Conversion-Method: Metadata normalization; numeric LUT samples preserved
# LUTr-Conversion-Tool: LUTr scripts/convert-all-to-cube.mjs 2.0.0
# LUTr-Conversion-Date: 2026-07-28
# LUTr-Asset-URL: https://freshluts.com/luts/2162
# LUTr-Author: MarcR.
# LUTr-Author-URL: https://freshluts.com/users/86490
# LUTr-Attribution: MarcR. via Fresh LUTs
# LUTr-Source-Labels: gamma=Other; color=Warm; key=Neutral; style=Film emulation; LUTr assumption=input Rec.709 per repository policy
# LUTr-Conversion-Warning: Input Rec.709 is a LUTr catalog assumption requested for this otherwise unspecified Fresh LUT; it is not verified by the upstream asset.
# LUTr-Note: Preserve this metadata and the upstream license notices when redistributing.
# LUTr-Upstream-Comment: Generated with IWLTBAP LUT Generator
# LUTr-Upstream-Comment: Website: http://luts.iwltbap.com
# LUTr-Upstream-Comment: LUT size
# LUTr-Upstream-Comment: LUT data points
TITLE "PictureFX Vintage Kodachrome 1936 FG"
LUT_3D_SIZE 25
DOMAIN_MIN 0 0 0
DOMAIN_MAX 1 1 1
0 0 0
0 0 0
0 0 0
0 0 0
0 0 0
0 0 0
0 0 0
0.011765 0 0
0.035294 0 0
0.066667 0 0
0.113725 0 0
0.180392 0 0
0.266667 0 0
0.368627 0 0
0.478431 0 0
0.584314 0 0
0.682353 0 0
0.768627 0 0
0.847059 0 0
0.921569 0 0
0.992157 0 0
1 0 0
1 0 0
1 0 0
1 0 0
0 0 0
0 0 0
0 0 0
0 0 0
0 0 0
0 0 0
0 0 0
0.015686 0 0
0.035294 0 0
0.070588 0 0
0.117647 0 0
0.184314 0 0
0.270588 0 0
0.372549 0 0
0.482353 0 0
0.588235 0 0
0.686275 0 0
0.768627 0 0
0.85098 0 0
0.92549 0 0
0.992157 0 0
1 0 0
1 0 0
1 0 0
1 0 0
0 0 0
0 0 0
0 0 0
0 0 0
0 0 0
0 0 0
0.003922 0 0
0.015686 0 0
0.039216 0 0
0.07451 0 0
0.121569 0 0
0.188235 0 0
0.278431 0 0
0.380392 0 0
0.486275 0 0
0.592157 0 0
0.686275 0 0
0.772549 0 0
0.85098 0 0
0.92549 0 0
0.996078 0 0
1 0 0
1 0 0
1 0 0
1 0 0
0 0 0
0 0 0
0 0 0
0 0 0
0 0 0
0 0 0
0.003922 0 0
0.019608 0 0
0.043137 0 0
0.078431 0 0
0.12549 0 0
0.196078 0 0
0.286275 0 0
0.388235 0 0
0.494118 0 0
0.6 0 0
0.690196 0 0
0.776471 0 0
0.854902 0 0
0.929412 0 0
0.996078 0 0
1 0 0
1 0 0
1 0 0
1 0 0
0 0 0
0 0 0
0 0 0
0 0 0
0 0 0
0 0 0
0.007843 0 0
0.023529 0.003922 0
0.047059 0.003922 0
0.082353 0.007843 0
0.137255 0.007843 0
0.207843 0.007843 0
0.294118 0 0
0.396078 0 0
0.501961 0 0
0.603922 0 0
0.698039 0 0
0.780392 0 0
0.858824 0 0
0.929412 0 0
0.996078 0 0
1 0 0
1 0 0
1 0 0
1 0 0
0 0.003922 0
0 0.003922 0
0 0.003922 0
0 0.003922 0
0 0.003922 0
0.003922 0.003922 0
0.011765 0.003922 0
0.023529 0.007843 0
0.05098 0.011765 0
0.090196 0.019608 0
0.145098 0.027451 0
0.219608 0.039216 0
0.309804 0.047059 0
0.411765 0.039216 0
0.513725 0.007843 0
0.615686 0 0
0.701961 0 0
0.784314 0 0
0.862745 0 0
0.933333 0 0
1 0 0
1 0 0
1 0 0
1 0 0
1 0 0
0 0.015686 0
0 0.015686 0
0 0.015686 0
0 0.015686 0
0 0.015686 0
0.007843 0.015686 0
0.015686 0.019608 0
0.031373 0.019608 0
0.058824 0.027451 0
0.101961 0.039216 0
0.160784 0.058824 0
0.235294 0.078431 0
0.32549 0.094118 0
0.423529 0.101961 0
0.52549 0.098039 0
0.623529 0.07451 0
0.709804 0.011765 0
0.792157 0 0
0.866667 0 0
0.937255 0 0
1 0 0
1 0 0
1 0 0
1 0 0
1 0 0
0 0.039216 0
0 0.039216 0
0 0.043137 0
0 0.043137 0
0 0.043137 0
0.007843 0.043137 0
0.023529 0.047059 0
0.043137 0.047059 0
0.066667 0.05098 0
0.113725 0.070588 0
0.176471 0.094118 0
0.25098 0.117647 0
0.345098 0.141176 0
0.443137 0.156863 0
0.541176 0.164706 0
0.635294 0.156863 0
0.717647 0.137255 0
0.796078 0.098039 0
0.870588 0.031373 0
0.941176 0 0
1 0 0
1 0 0
1 0 0
1 0 0
1 0 0
0 0.086275 0
0 0.086275 0
0 0.086275 0
0 0.090196 0
0 0.090196 0
0.003922 0.094118 0
0.031373 0.094118 0
0.062745 0.098039 0
0.094118 0.101961 0
0.12549 0.109804 0
0.192157 0.137255 0
0.270588 0.164706 0
0.360784 0.192157 0
0.458824 0.211765 0
0.556863 0.223529 0
0.643137 0.223529 0
0.72549 0.215686 0
0.803922 0.196078 0
0.87451 0.176471 0
0.945098 0.145098 0
1 0.109804 0
1 0.054902 0
1 0 0
1 0 0
1 0 0
0 0.156863 0
0 0.156863 0
0 0.160784 0
0 0.160784 0
0 0.164706 0
0 0.164706 0
0.031373 0.168627 0
0.082353 0.172549 0
0.12549 0.176471 0
0.168627 0.180392 0
0.211765 0.188235 0
0.290196 0.219608 0
0.380392 0.247059 0
0.47451 0.270588 0
0.568627 0.286275 0
0.654902 0.290196 0
0.733333 0.286275 0
0.807843 0.27451 0
0.878431 0.262745 0
0.945098 0.25098 0
1 0.235294 0
1 0.215686 0
1 0.2 0
1 0.184314 0
1 0.172549 0
0 0.25098 0
0 0.25098 0
0 0.25098 0
0 0.254902 0
0 0.254902 0
0 0.258824 0
0 0.262745 0
0.082353 0.266667 0
0.14902 0.270588 0
0.203922 0.27451 0
0.258824 0.278431 0
0.313725 0.286275 0
0.4 0.313725 0
0.490196 0.337255 0
0.580392 0.34902 0
0.662745 0.352941 0
0.737255 0.352941 0
0.811765 0.34902 0
0.882353 0.341176 0
0.94902 0.333333 0
1 0.32549 0
1 0.317647 0
1 0.309804 0
1 0.301961 0
1 0.298039 0
0 0.356863 0
0 0.356863 0
0 0.356863 0
0 0.356863 0
0 0.360784 0
0 0.360784 0
0 0.364706 0
0.027451 0.368627 0
0.14902 0.372549 0
0.223529 0.376471 0
0.290196 0.380392 0
0.352941 0.384314 0
0.419608 0.388235 0
0.501961 0.403922 0
0.588235 0.415686 0
0.666667 0.419608 0
0.745098 0.419608 0
0.815686 0.419608 0
0.882353 0.415686 0
0.94902 0.411765 0
1 0.407843 0
1 0.403922 0
1 0.4 0
1 0.396078 0
1 0.392157 0
0 0.458824 0
0 0.458824 0
0 0.462745 0
0 0.462745 0
0 0.462745 0
0 0.466667 0
0 0.466667 0
0 0.470588 0
0.094118 0.470588 0
0.211765 0.47451 0
0.298039 0.47451 0
0.372549 0.478431 0
0.443137 0.478431 0
0.513725 0.478431 0
0.592157 0.486275 0
0.670588 0.490196 0
0.745098 0.490196 0
0.815686 0.490196 0
0.882353 0.490196 0
0.945098 0.490196 0
1 0.486275 0
1 0.482353 0
1 0.482353 0
1 0.478431 0
1 0.47451 0
0 0.552941 0
0 0.552941 0
0 0.552941 0
0 0.552941 0
0 0.552941 0
0 0.552941 0
0 0.556863 0
0 0.556863 0
0 0.556863 0
0.156863 0.556863 0
0.270588 0.560784 0
0.360784 0.560784 0
0.439216 0.560784 0
0.517647 0.560784 0
0.592157 0.560784 0
0.666667 0.560784 0
0.741176 0.564706 0
0.811765 0.564706 0
0.878431 0.564706 0
0.941176 0.560784 0
1 0.560784 0
1 0.556863 0
1 0.552941 0
1 0.552941 0
1 0.54902 0
0 0.631373 0
0 0.631373 0
0 0.631373 0
0 0.631373 0
0 0.635294 0
0 0.635294 0
0 0.635294 0
0 0.635294 0
0 0.635294 0
0.007843 0.635294 0
0.223529 0.635294 0
0.337255 0.635294 0
0.427451 0.635294 0
0.513725 0.635294 0
0.592157 0.635294 0
0.666667 0.631373 0
0.737255 0.631373 0
0.807843 0.631373 0
0.87451 0.631373 0
0.937255 0.631373 0
0.996078 0.627451 0
1 0.627451 0
1 0.623529 0
1 0.619608 0
1 0.615686 0
0 0.705882 0
0 0.705882 0
0 0.705882 0
0 0.705882 0
0 0.705882 0
0 0.705882 0
0 0.705882 0
0 0.709804 0
0 0.709804 0
0 0.709804 0
0.14902 0.709804 0
0.305882 0.705882 0
0.411765 0.705882 0
0.505882 0.705882 0
0.588235 0.701961 0
0.662745 0.701961 0
0.737255 0.701961 0
0.803922 0.698039 0
0.870588 0.698039 0
0.929412 0.694118 0
0.988235 0.694118 0
1 0.690196 0
1 0.686275 0
1 0.682353 0
1 0.678431 0
0 0.776471 0
0 0.776471 0
0 0.776471 0
0 0.776471 0
0 0.776471 0
0 0.776471 0
0 0.776471 0
0 0.776471 0
0 0.776471 0
0 0.772549 0
0.027451 0.772549 0
0.270588 0.772549 0
0.396078 0.772549 0
0.494118 0.768627 0
0.580392 0.768627 0
0.658824 0.764706 0
0.729412 0.764706 0
0.8 0.760784 0
0.862745 0.760784 0
0.92549 0.756863 0
0.980392 0.752941 0
1 0.74902 0
1 0.745098 0
1 0.741176 0
1 0.737255 0
0 0.835294 0
0 0.835294 0
0 0.835294 0
0 0.835294 0
0 0.835294 0
0 0.835294 0
0 0.835294 0
0 0.835294 0
0 0.835294 0
0 0.835294 0
0 0.835294 0
0.239216 0.831373 0
0.380392 0.831373 0
0.482353 0.827451 0
0.572549 0.827451 0
0.65098 0.823529 0
0.721569 0.823529 0
0.792157 0.819608 0
0.854902 0.819608 0
0.917647 0.815686 0
0.972549 0.811765 0
1 0.807843 0
1 0.803922 0
1 0.796078 0
1 0.792157 0
0 0.894118 0
0 0.894118 0
0 0.894118 0
0 0.894118 0
0 0.894118 0
0 0.894118 0
0 0.894118 0
0 0.890196 0
0 0.890196 0
0 0.890196 0
0 0.890196 0
0.207843 0.886275 0
0.360784 0.886275 0
0.470588 0.882353 0
0.560784 0.882353 0
0.639216 0.878431 0
0.713725 0.87451 0
0.784314 0.87451 0
0.847059 0.870588 0
0.909804 0.870588 0
0.964706 0.866667 0
1 0.862745 0
1 0.854902 0
1 0.85098 0
1 0.843137 0
0 0.945098 0
0 0.945098 0
0 0.945098 0
0 0.945098 0
0 0.945098 0
0 0.945098 0
0 0.941176 0
0 0.941176 0
0 0.941176 0
0 0.941176 0
0 0.937255 0
0.184314 0.937255 0
0.34902 0.933333 0
0.458824 0.933333 0
0.552941 0.929412 0
0.631373 0.92549 0
0.705882 0.92549 0
0.772549 0.921569 0
0.839216 0.917647 0
0.898039 0.917647 0
0.952941 0.913725 0
1 0.909804 0
1 0.905882 0
1 0.898039 0
1 0.886275 0
0 0.988235 0
0 0.988235 0
0 0.988235 0
0 0.988235 0
0 0.988235 0
0 0.988235 0
0 0.988235 0
0 0.984314 0
0 0.984314 0
0 0.984314 0
0 0.980392 0
0.172549 0.980392 0
0.341176 0.976471 0
0.454902 0.976471 0
0.545098 0.972549 0
0.623529 0.968627 0
0.698039 0.968627 0
0.764706 0.964706 0
0.827451 0.960784 0
0.886275 0.956863 0
0.941176 0.956863 0
0.996078 0.952941 0
1 0.94902 0
1 0.941176 0
1 0.929412 0
0 1 0
0 1 0
0 1 0
0 1 0
0 1 0
0 1 0
0 1 0
0 1 0
0 1 0
0 1 0
0 1 0
0.184314 1 0
0.345098 1 0
0.454902 1 0
0.541176 1 0
0.619608 1 0
0.690196 1 0
0.756863 1 0
0.819608 0.996078 0
0.87451 0.992157 0
0.929412 0.988235 0
0.980392 0.984314 0
1 0.980392 0
1 0.976471 0
1 0.964706 0
0 1 0
0 1 0
0 1 0
0 1 0
0 1 0
0 1 0
0 1 0
0 1 0
0 1 0
0 1 0
0 1 0
0.215686 1 0
0.356863 1 0
0.458824 1 0
0.541176 1 0
0.615686 1 0
0.686275 1 0
0.74902 1 0
0.807843 1 0
0.862745 1 0
0.913725 1 0
0.960784 1 0
1 1 0
1 1 0
1 0.992157 0
0 1 0
0 1 0
0 1 0
0 1 0
0 1 0
0 1 0
0 1 0
0 1 0
0 1 0
0 1 0
0.027451 1 0
0.262745 1 0
0.380392 1 0
0.470588 1 0
0.54902 1 0
0.615686 1 0
0.682353 1 0
0.741176 1 0
0.796078 1 0
0.847059 1 0
0.898039 1 0
0.941176 1 0
0.984314 1 0
1 1 0
1 1 0
0 1 0
0 1 0
0 1 0
0 1 0
0 1 0
0 1 0
0 1 0
0 1 0
0 1 0
0 1 0
0.188235 1 0
0.317647 1 0
0.411765 1 0
0.490196 1 0
0.560784 1 0
0.623529 1 0
0.682353 1 0
0.737255 1 0
0.788235 1 0
0.839216 1 0
0.882353 1 0
0.92549 1 0
0.968627 1 0
1 1 0
1 1 0
0 0 0
0 0 0
0 0 0
0 0 0
0 0 0
0 0 0
0 0 0
0.015686 0 0
0.035294 0 0
0.070588 0 0
0.117647 0 0
0.184314 0 0
0.270588 0 0
0.372549 0 0
0.482353 0 0
0.588235 0 0
0.686275 0 0
0.768627 0 0
0.85098 0 0
0.92549 0 0
0.992157 0 0
1 0 0
1 0 0
1 0 0
1 0 0
0 0 0
0 0 0
0 0 0
0 0 0
0 0 0
0 0 0
0.003922 0 0
0.015686 0 0
0.039216 0 0
0.070588 0 0
0.121569 0 0
0.188235 0 0
0.27451 0 0
0.376471 0 0
0.486275 0 0
0.592157 0 0
0.686275 0 0
0.772549 0 0
0.85098 0 0
0.92549 0 0
0.996078 0 0
1 0 0
1 0 0
1 0 0
1 0 0
0 0 0
0 0 0
0 0 0
0 0 0
0 0 0
0 0 0
0.003922 0 0
0.015686 0 0
0.039216 0 0
0.07451 0 0
0.12549 0 0
0.192157 0 0
0.278431 0 0
0.380392 0 0
0.490196 0 0
0.596078 0 0
0.690196 0 0
0.772549 0 0
0.854902 0 0
0.92549 0 0
0.996078 0 0
1 0 0
1 0 0
1 0 0
1 0 0
0 0 0
0 0 0
0 0 0
0 0 0
0 0 0
0 0 0
0.003922 0 0
0.019608 0 0
0.043137 0 0
0.078431 0 0
0.129412 0 0
0.2 0 0
0.286275 0 0
0.388235 0 0
0.498039 0 0
0.6 0 0
0.694118 0 0
0.776471 0 0
0.854902 0 0
0.929412 0 0
0.996078 0 0
1 0 0
1 0 0
1 0 0
1 0 0
0 0 0
0 0 0
0 0 0
0 0 0
0 0 0
0 0 0
0.007843 0 0
0.023529 0.003922 0
0.047059 0.003922 0
0.086275 0.003922 0
0.137255 0.007843 0
0.207843 0.003922 0
0.298039 0 0
0.4 0 0
0.505882 0 0
0.607843 0 0
0.698039 0 0
0.780392 0 0
0.858824 0 0
0.933333 0 0
1 0 0
1 0 0
1 0 0
1 0 0
1 0 0
0 0.003922 0
0 0.003922 0
0 0.003922 0
0 0.003922 0
0 0.003922 0
0.003922 0.003922 0
0.011765 0.003922 0
0.027451 0.007843 0
0.054902 0.011765 0
0.094118 0.019608 0
0.14902 0.027451 0
0.223529 0.035294 0
0.313725 0.039216 0
0.411765 0.027451 0
0.517647 0 0
0.615686 0 0
0.705882 0 0
0.788235 0 0
0.862745 0 0
0.933333 0 0
1 0 0
1 0 0
1 0 0
1 0 0
1 0 0
0 0.015686 0
0 0.015686 0
0 0.015686 0
0 0.015686 0
0 0.015686 0
0.007843 0.015686 0
0.015686 0.019608 0
0.031373 0.019608 0
0.062745 0.027451 0
0.101961 0.039216 0
0.160784 0.054902 0
0.239216 0.07451 0
0.329412 0.090196 0
0.427451 0.094118 0
0.529412 0.090196 0
0.627451 0.058824 0
0.713725 0 0
0.792157 0 0
0.866667 0 0
0.937255 0 0
1 0 0
1 0 0
1 0 0
1 0 0
1 0 0
0 0.039216 0
0 0.043137 0
0 0.043137 0
0 0.043137 0
0 0.043137 0
0.007843 0.043137 0
0.023529 0.047059 0
0.043137 0.047059 0
0.066667 0.05098 0
0.113725 0.070588 0
0.176471 0.094118 0
0.254902 0.117647 0
0.345098 0.137255 0
0.443137 0.152941 0
0.545098 0.156863 0
0.635294 0.152941 0
0.721569 0.129412 0
0.8 0.086275 0
0.870588 0.011765 0
0.941176 0 0
1 0 0
1 0 0
1 0 0
1 0 0
1 0 0
0 0.086275 0
0 0.086275 0
0 0.090196 0
0 0.090196 0
0 0.090196 0
0.003922 0.094118 0
0.031373 0.094118 0
0.062745 0.098039 0
0.094118 0.101961 0
0.129412 0.109804 0
0.196078 0.137255 0
0.27451 0.164706 0
0.364706 0.192157 0
0.462745 0.211765 0
0.556863 0.223529 0
0.647059 0.219608 0
0.729412 0.211765 0
0.803922 0.192157 0
0.878431 0.168627 0
0.945098 0.137255 0
1 0.098039 0
1 0.035294 0
1 0 0
1 0 0
1 0 0
0 0.156863 0
0 0.156863 0
0 0.160784 0
0 0.160784 0
0 0.164706 0
0 0.164706 0
0.027451 0.168627 0
0.078431 0.172549 0
0.12549 0.176471 0
0.168627 0.180392 0
0.211765 0.188235 0
0.294118 0.219608 0
0.384314 0.247059 0
0.478431 0.270588 0
0.572549 0.286275 0
0.654902 0.286275 0
0.733333 0.282353 0
0.811765 0.270588 0
0.882353 0.258824 0
0.94902 0.247059 0
1 0.227451 0
1 0.211765 0
1 0.196078 0
1 0.176471 0
1 0.164706 0
0 0.25098 0
0 0.25098 0
0 0.25098 0
0 0.254902 0
0 0.254902 0
0 0.258824 0
0 0.262745 0
0.078431 0.266667 0
0.145098 0.270588 0
0.203922 0.27451 0
0.258824 0.278431 0
0.313725 0.286275 0
0.4 0.313725 0
0.494118 0.337255 0
0.580392 0.34902 0
0.662745 0.352941 0
0.741176 0.34902 0
0.815686 0.345098 0
0.882353 0.337255 0
0.94902 0.329412 0
1 0.321569 0
1 0.313725 0
1 0.305882 0
1 0.298039 0
1 0.294118 0
