site/assets/luts/freshluts--0000340-tealing-blue.cube
# LUTr-Schema-Version: 2
# LUTr-ID: freshluts--0000340-tealing-blue
# LUTr-Title: Tealing Blue
# LUTr-Collection: Fresh LUTs
# LUTr-Collection-ID: freshluts-community
# LUTr-Source: https://freshluts.com
# LUTr-Retrieved: 2026-07-27
# LUTr-Source-File: submissions-raw/freshluts/cubes/340__TEAL.cube
# LUTr-Source-Format: CUBE
# LUTr-Source-SHA256: c3a14dad459e41cc5d5a8d8447420209723fbf77376ad295988d3cb5e55ed2ca
# LUTr-License: CC0-1.0
# LUTr-License-URL: https://freshluts.com/termsandconditions
# LUTr-License-Basis: site-terms
# LUTr-Transform-Class: creative-look
# LUTr-Tags: creative, freshluts, community, cube, cinematic, blockbuster, warm, cool, rec709, assumed-input
# LUTr-Input-Color-Space: rec709
# LUTr-Input-Gamut: rec709
# LUTr-Input-Transfer: rec709
# LUTr-Output-Color-Space: srgb
# LUTr-Output-Gamut: rec709
# LUTr-Output-Transfer: srgb
# LUTr-Color-Space-Confidence: assumed-display-referred
# LUTr-Domain-Normalized: true
# LUTr-Shaper: none
# LUTr-Original-Grid: 32x32x32
# LUTr-Conversion-Grid: 32x32x32
# LUTr-Conversion-Interpolation: none
# LUTr-Conversion-Method: Metadata normalization; numeric LUT samples preserved
# LUTr-Conversion-Tool: LUTr scripts/convert-all-to-cube.mjs 2.0.0
# LUTr-Conversion-Date: 2026-07-28
# LUTr-Asset-URL: https://freshluts.com/luts/340
# LUTr-Author: I WANT TO MAKE A FILM PODCAST
# LUTr-Author-URL: https://freshluts.com/users/15633
# LUTr-Attribution: I WANT TO MAKE A FILM PODCAST via Fresh LUTs
# LUTr-Source-Labels: gamma=Other; color=Warm; key=Neutral; style=Blockbuster; LUTr assumption=input Rec.709 per repository policy
# LUTr-Conversion-Warning: Input Rec.709 is a LUTr catalog assumption requested for this otherwise unspecified Fresh LUT; it is not verified by the upstream asset.
# LUTr-Note: Preserve this metadata and the upstream license notices when redistributing.
# LUTr-Upstream-Comment: Created by: Adobe Photoshop Export Color Lookup Plugin
# LUTr-Upstream-Comment: LUT size
# LUTr-Upstream-Comment: data domain
# LUTr-Upstream-Comment: LUT data points
TITLE "Tealing Blue"
LUT_3D_SIZE 32
DOMAIN_MIN 0 0 0
DOMAIN_MAX 1 1 1
0.037384 0.049469 0.059326
0.037292 0.046112 0.060242
0.041077 0.038269 0.065887
0.068573 0.041687 0.071991
0.099854 0.048798 0.07486
0.141449 0.059143 0.079071
0.184845 0.068115 0.082458
0.229767 0.079712 0.087341
0.27594 0.091278 0.092499
0.340912 0.100586 0.096527
0.412415 0.115112 0.105804
0.486176 0.132172 0.118683
0.565643 0.158661 0.143127
0.641144 0.18515 0.167908
0.72171 0.220428 0.196075
0.789825 0.252991 0.221466
0.847137 0.283112 0.244141
0.893829 0.310272 0.263763
0.930695 0.33432 0.280396
0.959503 0.35498 0.294159
0.97937 0.371918 0.304626
0.979828 0.381622 0.30777
0.980194 0.390594 0.310791
0.98053 0.398102 0.313354
0.980804 0.404633 0.315582
0.981049 0.410126 0.317505
0.981293 0.414703 0.319153
0.981415 0.418518 0.320557
0.981598 0.421783 0.321686
0.98172 0.424316 0.322632
0.981842 0.426514 0.323395
0.981934 0.428101 0.324036
0.037964 0.053558 0.06134
0.042725 0.05368 0.062256
0.04538 0.047821 0.064514
0.069122 0.048706 0.07077
0.101044 0.055939 0.073883
0.141113 0.06427 0.076752
0.184113 0.073578 0.080292
0.228851 0.083466 0.084137
0.276581 0.092316 0.087128
0.343475 0.105286 0.094788
0.414764 0.119415 0.104279
0.488708 0.135986 0.117645
0.567902 0.163666 0.142395
0.643524 0.193298 0.167633
0.723724 0.228394 0.195801
0.791718 0.260773 0.22113
0.848755 0.290924 0.243744
0.895264 0.317963 0.263397
0.931946 0.341858 0.279968
0.960663 0.362488 0.293732
0.980133 0.379303 0.303894
0.98056 0.389069 0.30719
0.980957 0.39801 0.31012
0.981293 0.405487 0.312622
0.981628 0.412048 0.314911
0.981873 0.417542 0.316833
0.982117 0.422058 0.318481
0.982269 0.425873 0.319855
0.982452 0.429108 0.320984
0.982574 0.43161 0.321869
0.982666 0.433868 0.322693
0.982758 0.435638 0.323303
0.041046 0.05777 0.062653
0.0466 0.059509 0.06311
0.053558 0.058868 0.064606
0.070068 0.056793 0.069672
0.10199 0.064056 0.072693
0.140656 0.07077 0.07428
0.18396 0.077271 0.075287
0.230652 0.087219 0.079102
0.279694 0.098724 0.084961
0.346405 0.110962 0.092896
0.417664 0.125092 0.102661
0.491791 0.144501 0.116974
0.570648 0.173401 0.142029
0.646179 0.202911 0.167419
0.726196 0.237793 0.195526
0.793854 0.270264 0.220886
0.850616 0.300018 0.243439
0.896942 0.326874 0.26297
0.933441 0.350708 0.279572
0.962006 0.371307 0.293213
0.981018 0.387909 0.303314
0.981476 0.397766 0.306488
0.981903 0.406677 0.309448
0.982239 0.414307 0.311951
0.982605 0.420837 0.314209
0.98288 0.426178 0.316101
0.983063 0.430847 0.317719
0.983276 0.434631 0.319061
0.983429 0.437866 0.32019
0.983582 0.44043 0.321167
0.983704 0.442444 0.321899
0.983734 0.444183 0.32251
0.044708 0.059723 0.065613
0.051056 0.061951 0.066071
0.059021 0.064606 0.066589
0.072144 0.067322 0.068054
0.103027 0.071899 0.068939
0.143158 0.078583 0.06958
0.187653 0.0867 0.071869
0.234283 0.09613 0.076263
0.28363 0.108582 0.082764
0.35025 0.122314 0.091248
0.421356 0.137787 0.101501
0.495605 0.157593 0.116608
0.574127 0.186279 0.141785
0.649719 0.215729 0.167328
0.729279 0.250275 0.195465
0.7966 0.282501 0.220703
0.853058 0.312073 0.243195
0.899109 0.338928 0.262695
0.935364 0.362549 0.279175
0.963684 0.382782 0.292725
0.982147 0.399292 0.302612
0.982635 0.409088 0.305786
0.983093 0.418182 0.308655
0.983521 0.425659 0.311249
0.983856 0.432098 0.313385
0.984161 0.437592 0.315308
0.984344 0.442108 0.316925
0.984558 0.446014 0.318268
0.984711 0.449249 0.319366
0.984863 0.451813 0.320343
0.984955 0.453796 0.321045
0.985107 0.455566 0.321686
0.047333 0.071655 0.065643
0.053223 0.074188 0.065826
0.060242 0.076935 0.065613
0.077118 0.079651 0.065826
0.105133 0.081085 0.065338
0.146057 0.089935 0.066528
0.191254 0.100464 0.068878
0.238556 0.112671 0.074097
0.288605 0.125702 0.080994
0.355072 0.139252 0.089874
0.426056 0.154572 0.100494
0.500488 0.174805 0.116547
0.578491 0.202972 0.141815
0.654053 0.232391 0.167603
0.733154 0.266663 0.195679
0.799988 0.298431 0.220795
0.85614 0.327759 0.243134
0.901764 0.354126 0.262451
0.937714 0.377655 0.278931
0.965851 0.397736 0.292358
0.983643 0.413879 0.302002
0.984161 0.423828 0.305145
0.98465 0.4328 0.307922
0.985077 0.440277 0.310516
0.985443 0.446899 0.312683
0.985748 0.452301 0.314514
0.986023 0.456818 0.316132
0.986206 0.460541 0.317474
0.98642 0.463806 0.318634
0.986511 0.466187 0.319611
0.986603 0.46814 0.320496
0.986694 0.469727 0.321167
0.048737 0.091309 0.063843
0.053467 0.094208 0.063263
0.059753 0.096039 0.062347
0.080688 0.099304 0.063141
0.10614 0.094116 0.065308
0.145477 0.100616 0.065186
0.191101 0.111908 0.067291
0.238312 0.124573 0.073059
0.289764 0.138702 0.080048
0.358368 0.155457 0.08902
0.431122 0.174438 0.100037
0.506165 0.19574 0.117249
0.583618 0.223602 0.142548
0.659271 0.252747 0.168457
0.737732 0.286377 0.19632
0.804108 0.31781 0.221313
0.85968 0.346863 0.24353
0.904877 0.372803 0.262726
0.940552 0.396057 0.278992
0.968384 0.415863 0.292358
0.985413 0.43161 0.301605
0.986053 0.441742 0.304688
0.986542 0.450531 0.307495
0.987 0.45813 0.309998
0.987366 0.464569 0.312195
0.98764 0.469574 0.31427
0.987152 0.472961 0.31601
0.987427 0.475067 0.316833
0.986847 0.477203 0.318268
0.986176 0.479218 0.319672
0.986328 0.480225 0.320068
0.985626 0.481689 0.321259
0.056091 0.114319 0.061157
0.056763 0.11618 0.060516
0.059998 0.118439 0.059784
0.083832 0.12265 0.061188
0.122192 0.124603 0.06604
0.145111 0.114716 0.066589
0.190063 0.124664 0.067871
0.237854 0.138184 0.073669
0.290131 0.152985 0.081299
0.358429 0.170349 0.091339
0.431488 0.189362 0.102783
0.508698 0.21402 0.120605
0.588501 0.245239 0.146271
0.664581 0.275909 0.172852
0.742279 0.30896 0.201111
0.808014 0.33963 0.226227
0.863098 0.368073 0.248291
0.907776 0.393768 0.267181
0.943146 0.416443 0.282928
0.970795 0.436035 0.295746
0.987122 0.45166 0.304199
0.987854 0.461853 0.306824
0.987793 0.468323 0.308472
0.986053 0.473602 0.311157
0.986725 0.476929 0.311432
0.985443 0.480774 0.314026
0.984955 0.483673 0.315735
0.985291 0.485779 0.316376
0.98468 0.488007 0.317932
0.984894 0.489441 0.318359
0.985077 0.490509 0.318848
0.984344 0.491974 0.320068
0.066498 0.139587 0.060608
0.067505 0.142151 0.060211
0.068695 0.145325 0.059692
0.086395 0.149719 0.060059
0.129486 0.152466 0.065582
0.153809 0.144196 0.072571
0.188232 0.141693 0.078613
0.236969 0.155273 0.083374
0.290192 0.170685 0.090393
0.3591 0.188141 0.099213
0.431885 0.207397 0.110321
0.508514 0.232117 0.128235
0.588531 0.262909 0.152985
0.666016 0.295776 0.179993
0.745209 0.331299 0.207947
0.811493 0.363586 0.232971
0.86673 0.392273 0.254883
0.910828 0.417389 0.273499
0.945831 0.439392 0.288971
0.972382 0.457794 0.301727
0.987274 0.470306 0.309387
0.986664 0.476471 0.311249
0.985016 0.48233 0.313965
0.984955 0.486481 0.315002
0.983948 0.490723 0.316895
0.983643 0.493652 0.317902
0.983307 0.496368 0.318939
0.982849 0.498932 0.320007
0.9823 0.500793 0.320953
0.982605 0.501923 0.320923
0.981964 0.503479 0.321899
0.982178 0.504425 0.321899
0.076752 0.169403 0.060516
0.077698 0.172516 0.060333
0.078827 0.176056 0.060455
0.087769 0.180664 0.06192
0.130066 0.183533 0.069641
0.175964 0.187256 0.081726
0.192627 0.172394 0.089325
0.234161 0.173859 0.095917
0.29007 0.190063 0.101349
0.358673 0.208374 0.109802
0.431915 0.227692 0.11972
0.509003 0.252136 0.136749
0.587677 0.28302 0.161682
0.666748 0.315216 0.187408
0.745605 0.350067 0.214905
0.811737 0.381744 0.239319
0.866028 0.410217 0.261353
0.909424 0.435425 0.280151
0.94339 0.45639 0.295227
0.969574 0.473236 0.306915
0.984863 0.485931 0.314972
0.983337 0.492218 0.317871
0.983398 0.496979 0.31897
0.982483 0.501617 0.321014
0.981476 0.505676 0.322815
0.982117 0.508362 0.323059
0.980835 0.511627 0.325043
0.980377 0.513794 0.32608
0.980713 0.51535 0.326233
0.980133 0.517059 0.32724
0.980377 0.518036 0.327332
0.979675 0.519318 0.328278
0.088287 0.203156 0.066223
0.08963 0.20636 0.067139
0.091003 0.209778 0.068146
0.092743 0.214172 0.069427
0.129425 0.218262 0.076721
0.177002 0.222046 0.088074
0.220703 0.224731 0.09967
0.23764 0.208099 0.107635
0.288574 0.210693 0.114716
0.358215 0.22998 0.121918
0.431305 0.249908 0.131195
0.508667 0.274414 0.147034
0.587341 0.30481 0.171112
0.666656 0.337036 0.196777
0.744904 0.371582 0.223846
0.809906 0.40274 0.248505
0.864746 0.430145 0.268951
0.907043 0.453583 0.286652
0.940063 0.47406 0.301697
0.966003 0.49057 0.313477
0.981842 0.503113 0.321899
0.982117 0.508514 0.323029
0.980469 0.514282 0.32605
0.980438 0.518341 0.327301
0.979401 0.522217 0.329407
0.979126 0.525238 0.330566
0.97876 0.527802 0.331512
0.977417 0.530426 0.333527
0.977783 0.531891 0.333832
0.978058 0.533295 0.333801
0.978271 0.534302 0.333954
0.9776 0.535217 0.3349
0.103546 0.240906 0.077423
0.104767 0.243896 0.078339
0.106262 0.247437 0.079315
0.108063 0.251892 0.080688
0.127594 0.257416 0.084473
0.175903 0.26123 0.095245
0.227295 0.265961 0.10788
0.265045 0.264557 0.119232
0.290985 0.247467 0.128387
0.357422 0.253052 0.136047
0.430237 0.273926 0.144806
0.506989 0.29892 0.160004
0.586151 0.329041 0.18277
0.66629 0.361298 0.207825
0.743927 0.394867 0.234314
0.808105 0.424316 0.257019
0.860809 0.450775 0.277069
0.902679 0.47406 0.294952
0.936188 0.49353 0.309357
0.962677 0.509216 0.320282
0.97934 0.521881 0.329468
0.978699 0.527679 0.331573
0.977936 0.532776 0.333771
0.97702 0.53714 0.336029
0.976898 0.540497 0.337189
0.975739 0.543884 0.339386
0.976227 0.545959 0.3396
0.975769 0.548096 0.34079
0.97522 0.550018 0.341797
0.975494 0.551025 0.341888
0.975769 0.552155 0.34201
0.975037 0.553192 0.343048
0.120392 0.282013 0.089691
0.121552 0.284973 0.090546
0.123016 0.288483 0.091583
0.124878 0.29303 0.092926
0.129761 0.298798 0.094849
0.173035 0.303955 0.10321
0.22525 0.308655 0.115356
0.278076 0.314026 0.129181
0.313995 0.30304 0.141541
0.35675 0.289124 0.151825
0.428558 0.299072 0.160645
0.505737 0.324463 0.174225
0.584625 0.354584 0.195953
0.664246 0.386688 0.220703
0.739807 0.418701 0.245026
0.803253 0.447418 0.26712
0.856262 0.473053 0.286591
0.899445 0.494995 0.302979
0.93161 0.514435 0.318237
0.957733 0.529907 0.329407
0.976349 0.542419 0.338348
0.975739 0.548065 0.34079
0.974976 0.552826 0.342957
0.974945 0.556824 0.344391
0.973877 0.560303 0.346619
0.973602 0.563263 0.34787
0.974121 0.565216 0.348175
0.972778 0.567657 0.35025
0.972198 0.569336 0.351379
0.972534 0.570587 0.351471
0.972748 0.571564 0.351624
0.972046 0.572479 0.352692
0.138794 0.32666 0.103088
0.139984 0.32959 0.103973
0.141479 0.33313 0.105011
0.143372 0.337708 0.106445
0.145752 0.343445 0.108185
0.169128 0.350372 0.112427
0.221008 0.35498 0.12384
0.27475 0.360657 0.136505
0.343719 0.365692 0.154694
0.367615 0.338104 0.166992
0.426666 0.334747 0.177551
0.502991 0.351227 0.191162
0.579132 0.380676 0.211151
0.658447 0.412231 0.233856
0.734497 0.443756 0.257172
0.798004 0.471924 0.278717
0.851074 0.496643 0.297638
0.893768 0.518311 0.314209
0.927216 0.536499 0.32785
0.952911 0.551727 0.33902
0.973145 0.563995 0.347626
0.972321 0.569733 0.351501
0.972473 0.574219 0.352997
0.971527 0.578278 0.355225
0.971405 0.581482 0.356659
0.9711 0.584167 0.35791
0.969788 0.586426 0.360168
0.970245 0.588379 0.360474
0.969727 0.589966 0.361633
0.970001 0.591064 0.361755
0.96933 0.592041 0.362793
0.969482 0.592865 0.362946
0.158295 0.373322 0.117218
0.159637 0.376282 0.118195
0.161102 0.379852 0.119263
0.163025 0.384369 0.120636
0.165497 0.390137 0.122467
0.171112 0.396881 0.124695
0.21521 0.403259 0.133209
0.268372 0.408569 0.145416
0.343018 0.413452 0.163208
0.410431 0.412994 0.181274
0.430359 0.380463 0.19342
0.495453 0.384888 0.207367
0.571075 0.405548 0.226898
0.652191 0.438019 0.248596
0.728607 0.46933 0.270813
0.791962 0.496826 0.29184
0.845184 0.520996 0.310242
0.888184 0.541931 0.326019
0.922119 0.559631 0.338989
0.947388 0.57431 0.350342
0.967285 0.586243 0.358917
0.96933 0.592133 0.362854
0.969452 0.596375 0.364471
0.968567 0.600159 0.366821
0.968414 0.603241 0.368256
0.967163 0.605865 0.370636
0.967712 0.608002 0.37085
0.967224 0.60965 0.372192
0.96759 0.610962 0.372437
0.967834 0.612061 0.37262
0.967163 0.61322 0.373749
0.966461 0.614014 0.374786
0.178406 0.42038 0.131805
0.179749 0.42334 0.132751
0.181244 0.426849 0.13385
0.183228 0.431396 0.135284
0.185669 0.437164 0.136993
0.188568 0.443787 0.13916
0.209137 0.451935 0.142914
0.260559 0.457642 0.154053
0.338593 0.461853 0.1716
0.420959 0.466339 0.191956
0.465271 0.452332 0.207367
0.498474 0.430481 0.22345
0.568665 0.43985 0.244446
0.644348 0.462769 0.26535
0.721893 0.494141 0.28595
0.78595 0.521149 0.305634
0.839264 0.54483 0.323303
0.882538 0.565186 0.33844
0.917023 0.582336 0.350616
0.941864 0.596497 0.362091
0.962341 0.60788 0.36972
0.966583 0.614532 0.374878
0.966675 0.618378 0.376587
0.965729 0.621887 0.378967
0.965546 0.624817 0.380554
0.965302 0.627228 0.381866
0.964905 0.629272 0.38324
0.965302 0.63089 0.383484
0.964722 0.63205 0.384674
0.964111 0.63327 0.385834
0.963409 0.634338 0.386932
0.963593 0.634949 0.387146
0.199005 0.467468 0.146667
0.200348 0.470428 0.147614
0.201996 0.473999 0.148804
0.204041 0.478668 0.150238
0.20697 0.484558 0.152344
0.211304 0.491943 0.155731
0.219879 0.500183 0.159729
0.264465 0.507599 0.169525
0.347778 0.512512 0.187317
0.435883 0.516754 0.209167
0.514648 0.523773 0.230499
0.529053 0.488281 0.245148
0.583893 0.486053 0.264038
0.646454 0.494904 0.283569
0.714355 0.5177 0.302307
0.779114 0.544739 0.320831
0.832489 0.568207 0.337799
0.876953 0.587921 0.35144
0.910095 0.604614 0.364563
0.936371 0.618317 0.374268
0.955566 0.629547 0.382904
0.96405 0.636505 0.387482
0.963226 0.64035 0.390106
0.963165 0.643463 0.391724
0.962982 0.646179 0.393158
0.962677 0.648376 0.394592
0.961334 0.65033 0.396973
0.961731 0.651794 0.397278
0.962097 0.652985 0.397552
0.962402 0.654022 0.397766
0.96167 0.654846 0.398865
0.961853 0.655487 0.399017
0.227081 0.518707 0.167877
0.228943 0.52182 0.169281
0.23114 0.525574 0.17099
0.234161 0.530365 0.173218
0.237488 0.536133 0.175873
0.241547 0.542816 0.178955
0.246185 0.550415 0.182465
0.281067 0.559052 0.189606
0.36673 0.563019 0.207764
0.455109 0.566742 0.229095
0.537537 0.571564 0.252136
0.575836 0.556519 0.267883
0.598663 0.530151 0.283417
0.659729 0.538116 0.302094
0.713806 0.546356 0.319672
0.772217 0.567047 0.336487
0.826599 0.59021 0.35202
0.870392 0.609863 0.365662
0.904114 0.626282 0.37796
0.929932 0.639557 0.387726
0.949768 0.650391 0.395477
0.96167 0.65799 0.400513
0.960815 0.66156 0.40332
0.960754 0.664429 0.404877
0.959625 0.667053 0.407288
0.960205 0.668976 0.407745
0.959778 0.670593 0.40921
0.959259 0.672211 0.410461
0.959625 0.673218 0.410736
0.958923 0.674164 0.411957
0.959167 0.674774 0.41214
0.959259 0.67514 0.412201
0.256317 0.567413 0.190308
0.258087 0.570282 0.19162
0.260132 0.5737 0.193268
0.262817 0.578094 0.195312
0.266205 0.583618 0.197876
0.27005 0.590027 0.200897
0.274445 0.59726 0.204285
0.299042 0.605835 0.209717
0.384308 0.60968 0.227356
0.472565 0.613068 0.24823
0.555359 0.617462 0.270569
0.619446 0.619812 0.28949
0.632874 0.587189 0.30365
0.672302 0.578796 0.319885
0.725067 0.586365 0.336731
0.771088 0.593719 0.352173
0.820557 0.610809 0.366516
0.863831 0.630432 0.380188
0.89801 0.646362 0.391754
0.924347 0.659302 0.400543
0.943787 0.669952 0.408417
0.957916 0.678131 0.414642
0.958405 0.68158 0.416718
0.957367 0.684326 0.419312
0.958099 0.686523 0.419769
0.957733 0.688416 0.421234
0.957245 0.689911 0.422638
0.956726 0.691254 0.424011
0.957123 0.692322 0.424286
0.95639 0.693207 0.425446
0.956604 0.693726 0.425598
0.956696 0.69397 0.42569
0.28302 0.611053 0.210785
0.284637 0.6138 0.212067
0.286652 0.617065 0.213593
0.289276 0.621277 0.215607
0.292419 0.626587 0.218109
0.296234 0.632721 0.221039
0.300568 0.639587 0.224274
0.317932 0.647522 0.229004
0.40033 0.6521 0.245087
0.48822 0.655334 0.26532
0.571442 0.659576 0.287079
0.646149 0.664337 0.309418
0.6716 0.644684 0.323059
0.684265 0.616028 0.336487
0.735535 0.62265 0.352722
0.780426 0.629578 0.367615
0.819153 0.636414 0.381042
0.857819 0.648712 0.393982
0.891602 0.664703 0.405548
0.917633 0.677521 0.414398
0.937653 0.687744 0.421326
0.951538 0.695709 0.427643
0.95578 0.699982 0.430267
0.955658 0.702454 0.431854
0.955383 0.70459 0.43338
0.955078 0.706268 0.434814
0.95459 0.707764 0.436249
0.954956 0.708923 0.436584
0.954346 0.7099 0.437805
0.95462 0.710663 0.43808
0.954773 0.71109 0.438232
0.954865 0.711273 0.438263
0.306763 0.649445 0.229065
0.308441 0.652161 0.230316
0.310333 0.655273 0.231842
0.312714 0.659271 0.233734
0.315918 0.664368 0.236176
0.31958 0.670227 0.238983
0.3237 0.676788 0.242188
0.335876 0.684174 0.246338
0.414642 0.689056 0.261414
0.50174 0.692291 0.281006
0.584595 0.69574 0.302582
0.660522 0.701141 0.323547
0.705688 0.695129 0.340485
0.717773 0.66687 0.353424
0.744873 0.654999 0.367157
0.788788 0.661407 0.381531
0.82663 0.667786 0.394501
0.858887 0.674286 0.406158
0.887634 0.682312 0.417572
0.913422 0.69339 0.425354
0.933167 0.7034 0.432251
0.946869 0.711182 0.438599
0.953735 0.716309 0.442657
0.953552 0.718628 0.444397
0.954224 0.72052 0.444946
0.953857 0.722168 0.44635
0.9534 0.723511 0.447693
0.95282 0.724487 0.449036
0.953156 0.725433 0.44931
0.9534 0.726135 0.449554
0.953491 0.726532 0.449646
0.953583 0.726746 0.449738
0.327698 0.683105 0.24527
0.329346 0.685608 0.24649
0.331207 0.688629 0.247894
0.333618 0.692505 0.249878
0.336639 0.697388 0.252197
0.340271 0.703003 0.254974
0.344299 0.709412 0.258087
0.351807 0.716248 0.261688
0.427063 0.721436 0.275726
0.513336 0.724091 0.295319
0.596436 0.728424 0.315399
0.671692 0.732452 0.337036
0.735443 0.739044 0.355988
0.74704 0.711212 0.36853
0.758087 0.687164 0.380463
0.796265 0.689362 0.393982
0.833344 0.695343 0.406586
0.86438 0.701172 0.417603
0.89093 0.707275 0.427612
0.912659 0.714081 0.436646
0.929413 0.71994 0.443909
0.941864 0.724945 0.449554
0.952209 0.730743 0.453979
0.951996 0.73288 0.455597
0.952698 0.735718 0.456787
0.953247 0.738129 0.457855
0.953705 0.740143 0.45874
0.954071 0.741699 0.459412
0.954407 0.743134 0.460052
0.95459 0.744019 0.460449
0.954712 0.744537 0.460693
0.954803 0.745026 0.460907
0.345673 0.711487 0.259125
0.347229 0.71402 0.260345
0.349091 0.716919 0.26178
0.35144 0.720642 0.263641
0.354492 0.725372 0.265991
0.357971 0.730804 0.268677
0.361908 0.736877 0.271637
0.366028 0.743408 0.274933
0.437836 0.749023 0.287842
0.523376 0.752014 0.306641
0.605896 0.754974 0.327454
0.681213 0.759247 0.348145
0.748383 0.764069 0.369263
0.771881 0.748657 0.3815
0.782471 0.724884 0.393036
0.802734 0.713165 0.404755
0.839081 0.718842 0.416962
0.869537 0.724304 0.427734
0.894409 0.729431 0.436859
0.915344 0.735168 0.445251
0.931915 0.740753 0.452332
0.944305 0.745422 0.457825
0.953674 0.749542 0.462219
0.956665 0.75293 0.464355
0.957306 0.755646 0.465546
0.957825 0.757935 0.466583
0.958282 0.759857 0.467407
0.958679 0.761444 0.468109
0.958984 0.762665 0.468689
0.959167 0.76355 0.469025
0.959259 0.764038 0.469269
0.959381 0.764404 0.469452
0.36084 0.735382 0.270905
0.362488 0.737762 0.272095
0.364227 0.740631 0.273499
0.366577 0.744202 0.27533
0.369476 0.748779 0.277588
0.373016 0.754059 0.280212
0.376709 0.76001 0.283234
0.380859 0.766357 0.286407
0.446594 0.772369 0.297943
0.531891 0.774902 0.316681
0.613678 0.777435 0.337463
0.689301 0.782043 0.357361
0.756439 0.785583 0.379181
0.792664 0.779907 0.392487
0.802979 0.7565 0.403748
0.812744 0.736786 0.414307
0.843964 0.738617 0.425842
0.873962 0.743866 0.43634
0.898346 0.748718 0.445221
0.917633 0.753296 0.452698
0.934082 0.758514 0.459625
0.946411 0.763031 0.464935
0.955688 0.766876 0.469238
0.960724 0.770081 0.471954
0.961334 0.772675 0.473114
0.961884 0.774841 0.474121
0.962311 0.776642 0.474945
0.962646 0.778198 0.475555
0.962982 0.779388 0.476135
0.963135 0.779968 0.47644
0.963257 0.780609 0.476715
0.963379 0.780945 0.476898
0.373871 0.755371 0.280853
0.375244 0.757751 0.282043
0.376984 0.760468 0.283447
0.379425 0.764038 0.285187
0.382202 0.768433 0.287415
0.385498 0.773621 0.290039
0.389313 0.779419 0.292969
0.393433 0.785583 0.296051
0.454071 0.792023 0.306305
0.538849 0.79425 0.325043
0.620728 0.797241 0.345001
0.695618 0.80069 0.36557
0.764008 0.80545 0.385773
0.81012 0.806152 0.401794
0.820129 0.782837 0.412842
0.82962 0.763397 0.423157
0.848145 0.755188 0.433411
0.877655 0.760193 0.443665
0.901642 0.765015 0.452423
0.92041 0.769287 0.459595
0.936035 0.773743 0.465912
0.948242 0.777954 0.471161
0.957397 0.781555 0.475311
0.964111 0.784576 0.478485
0.964874 0.78714 0.479645
0.965363 0.789185 0.48056
0.96582 0.790894 0.481384
0.966156 0.792389 0.481995
0.966461 0.793427 0.482483
0.966614 0.79425 0.482788
0.966736 0.794647 0.483032
0.966858 0.795135 0.483215
0.384399 0.77179 0.289124
0.385864 0.774078 0.290283
0.387634 0.776794 0.291656
0.389832 0.780304 0.293365
0.392639 0.784576 0.295563
0.396118 0.789642 0.298126
0.39975 0.795227 0.300934
0.403595 0.80127 0.304047
0.460449 0.807465 0.313843
0.544556 0.809479 0.332581
0.626129 0.812988 0.351685
0.700867 0.816132 0.372223
0.769012 0.820587 0.392303
0.823456 0.826569 0.409454
0.834229 0.804504 0.420319
0.843445 0.785126 0.43042
0.852112 0.769287 0.439728
0.880707 0.773804 0.449738
0.904358 0.778351 0.458313
0.922882 0.782562 0.465393
0.937622 0.786285 0.471161
0.949768 0.790405 0.476349
0.958893 0.793823 0.480408
0.965576 0.796661 0.483459
0.967865 0.799225 0.485107
0.968384 0.801117 0.486023
0.968781 0.802856 0.486847
0.969116 0.804169 0.487457
0.969452 0.805359 0.488007
0.969604 0.806061 0.488342
0.969757 0.80658 0.488556
0.969849 0.807037 0.48877
0.393036 0.785156 0.295837
0.394501 0.787384 0.296997
0.39624 0.79007 0.29834
0.39856 0.793457 0.300049
0.401245 0.797729 0.302216
0.40451 0.802704 0.304779
0.408112 0.808197 0.307556
0.41214 0.814148 0.310577
0.465332 0.820953 0.319244
0.549316 0.822662 0.337952
0.630463 0.825165 0.357849
0.704681 0.828094 0.378296
0.772552 0.832275 0.398285
0.828979 0.838013 0.415741
0.845703 0.822113 0.426514
0.854706 0.802795 0.436432
0.86319 0.78717 0.445587
0.883331 0.784851 0.454773
0.906616 0.789276 0.463196
0.924896 0.793304 0.470123
0.939423 0.797058 0.47583
