site/assets/luts/freshluts--0000680-gdlut.cube
# LUTr-Schema-Version: 2
# LUTr-ID: freshluts--0000680-gdlut
# LUTr-Title: GD.lut
# LUTr-Collection: Fresh LUTs
# LUTr-Collection-ID: freshluts-community
# LUTr-Source: https://freshluts.com
# LUTr-Retrieved: 2026-07-27
# LUTr-Source-File: submissions-raw/freshluts/cubes/680__15.12.20_1.A011_10160117_C115.cube
# LUTr-Source-Format: CUBE
# LUTr-Source-SHA256: ff7c0e2de3a834f9486794bb49d8fc8ff2d441e970da0eebca932747f24d6b5a
# LUTr-License: CC0-1.0
# LUTr-License-URL: https://freshluts.com/termsandconditions
# LUTr-License-Basis: site-terms
# LUTr-Transform-Class: creative-look
# LUTr-Tags: creative, freshluts, community, cube, yellow, high-key, rec709
# LUTr-Input-Color-Space: rec709
# LUTr-Input-Gamut: rec709
# LUTr-Input-Transfer: rec709
# LUTr-Output-Color-Space: srgb
# LUTr-Output-Gamut: rec709
# LUTr-Output-Transfer: srgb
# LUTr-Color-Space-Confidence: declared-by-source
# LUTr-Domain-Normalized: true
# LUTr-Shaper: none
# LUTr-Original-Grid: 33x33x33
# LUTr-Conversion-Grid: 33x33x33
# LUTr-Conversion-Interpolation: none
# LUTr-Conversion-Method: Metadata normalization; numeric LUT samples preserved
# LUTr-Conversion-Tool: LUTr scripts/convert-all-to-cube.mjs 2.0.0
# LUTr-Conversion-Date: 2026-07-28
# LUTr-Asset-URL: https://freshluts.com/luts/680
# LUTr-Author: lvannoeun@gmail.com
# LUTr-Author-URL: https://freshluts.com/users/57563
# LUTr-Attribution: lvannoeun@gmail.com via Fresh LUTs
# LUTr-Source-Labels: gamma=Rec 709; color=Yellow; key=High Key; style=Colorful
# LUTr-Note: Preserve this metadata and the upstream license notices when redistributing.
TITLE "GD.lut"
LUT_3D_SIZE 9
DOMAIN_MIN 0 0 0
DOMAIN_MAX 1 1 1
0 0.00807202 0
0.147051 0 0
0.281178 0 0
0.397742 0 0
0.505592 0.00424201 0
0.59292 0.0143282 0
0.664775 0.0283665 0
0.732067 0.0436408 0
0.813672 0.0551919 0.00189212
0 0.130739 0
0.137774 0.127459 0
0.297963 0.114809 0
0.439307 0.106889 0
0.561929 0.105089 0.0147097
0.659602 0.111162 0.0350195
0.731167 0.125917 0.0462806
0.793042 0.143938 0.0535439
0.85716 0.161273 0.0611429
0 0.257115 0
0.138537 0.252598 0
0.27097 0.250523 0
0.416312 0.242985 0
0.572076 0.228733 0
0.687343 0.227604 0.0381781
0.777859 0.233845 0.0778363
0.856748 0.243595 0.117037
0.928695 0.256123 0.149157
0 0.381659 0
0.138369 0.377615 0
0.270466 0.375586 0
0.398093 0.374517 0
0.523384 0.373266 0
0.675547 0.359457 0.00495918
0.795605 0.354391 0.0697337
0.88629 0.359533 0.119921
0.965454 0.369024 0.160784
0.00787366 0.502617 0
0.141833 0.500862 0
0.271565 0.499596 0
0.398184 0.49868 0
0.519844 0.498466 0
0.633356 0.49958 0
0.762387 0.493156 0.0311437
0.884688 0.487175 0.098436
0.988602 0.487083 0.161486
0.0366827 0.615808 0
0.157931 0.618479 0
0.280735 0.619593 0
0.403601 0.619791 0
0.523415 0.619959 0
0.636988 0.621012 0.00408942
0.742031 0.623911 0.0341497
0.848341 0.625498 0.0735027
0.973449 0.619043 0.137118
0.0816968 0.722515 0.031693
0.191669 0.728664 0.0149691
0.304463 0.733043 0.00756847
0.419715 0.735729 0.00958267
0.534691 0.73756 0.0209659
0.646097 0.739605 0.0408331
0.751766 0.742718 0.066865
0.850889 0.747417 0.0965286
0.945449 0.753216 0.12874
0.130892 0.827588 0.0842908
0.234241 0.835447 0.0701457
0.338949 0.842191 0.0630961
0.446464 0.847379 0.0631876
0.55491 0.851499 0.0710765
0.662409 0.855161 0.086305
0.766445 0.859251 0.107591
0.865843 0.864286 0.132998
0.962371 0.871214 0.148241
0.161822 0.940185 0.116091
0.275319 0.943221 0.119707
0.378805 0.949584 0.120165
0.480034 0.95668 0.119768
0.582712 0.962768 0.125261
0.685359 0.968246 0.136843
0.786175 0.973907 0.151919
0.884565 0.981048 0.159533
0.981857 0.98851 0.167224
0 0.00903334 0.0547951
0.126192 0.00677501 0.0542916
0.265171 0.00262455 0.0542153
0.393378 0.00172427 0.0537881
0.511345 0.00366217 0.0551919
0.609918 0.0109865 0.0604868
0.685969 0.024506 0.0708324
0.752407 0.0405737 0.0840009
0.816831 0.0571603 0.0982071
0.00328069 0.129961 0.0659953
0.136629 0.127504 0.0658579
0.283894 0.118715 0.0873121
0.41001 0.119265 0.078584
0.525795 0.123095 0.0677043
0.632731 0.128328 0.0690318
0.719295 0.138567 0.0808881
0.790677 0.152712 0.0986801
0.857435 0.168124 0.117525
0 0.256886 0.0641489
0.141115 0.251209 0.0654612
0.270146 0.250462 0.0610056
0.427802 0.238239 0.0858473
0.56527 0.231586 0.115099
0.686168 0.230289 0.140017
0.78323 0.23653 0.160479
0.854673 0.251286 0.171969
0.916213 0.269398 0.179522
0 0.382437 0.0625772
0.137346 0.378058 0.0582589
0.26981 0.375982 0.0567788
0.398383 0.37496 0.0564736
0.54081 0.368261 0.0714427
0.694545 0.354681 0.121431
0.809522 0.353582 0.161807
0.899794 0.35993 0.201205
0.978485 0.369711 0.240558
0.00117494 0.505592 0.0660563
0.137316 0.503044 0.0584878
0.268574 0.501427 0.0560922
0.396841 0.50042 0.0563516
0.521859 0.500069 0.0599069
0.644739 0.49955 0.0712749
0.795087 0.486442 0.126452
0.915282 0.481392 0.190677
1 0.486076 0.242283
0.0220035 0.622644 0.0834669
0.145632 0.624537 0.0687266
0.27155 0.624842 0.0630198
0.397559 0.624567 0.0627451
0.521553 0.624369 0.0677653
0.641398 0.624643 0.0801251
0.753536 0.626215 0.102464
0.879179 0.621103 0.151202
1 0.614786 0.218647
0.0646525 0.731167 0.121157
0.172778 0.738293 0.100175
0.287312 0.74258 0.0885481
0.406485 0.744625 0.0854658
0.526757 0.745525 0.090486
0.644678 0.746227 0.104341
0.757076 0.747646 0.127367
0.86154 0.750759 0.157031
0.964462 0.753567 0.194263
0.116045 0.836149 0.168048
0.216251 0.845441 0.149065
0.320287 0.852964 0.136263
0.429953 0.858122 0.130373
0.542809 0.861463 0.132982
0.656046 0.863798 0.144518
0.766171 0.866224 0.164233
0.870939 0.869642 0.190036
0.969268 0.874617 0.219303
0.16376 0.942473 0.21268
0.264607 0.950713 0.20206
0.362417 0.959854 0.191592
0.464347 0.967269 0.186007
0.56965 0.973053 0.186847
0.676402 0.977661 0.194919
0.78233 0.981811 0.209903
0.885588 0.98616 0.23093
0.984344 0.991424 0.256107
0 0.00959792 0.177569
0.129091 0.00663767 0.172107
0.264637 0.00309758 0.176242
0.393759 0.0018616 0.176226
0.514672 0.0031281 0.175738
0.620172 0.00891127 0.17583
0.702342 0.0214542 0.177844
0.769711 0.037995 0.183566
0.833402 0.0553597 0.192203
0.0000457771 0.131716 0.183215
0.137301 0.128695 0.17702
0.262898 0.128283 0.179278
0.398367 0.125093 0.180041
0.523751 0.124971 0.18027
0.63949 0.127535 0.182132
0.736416 0.135317 0.187671
0.811673 0.14905 0.198169
0.877501 0.165316 0.21117
0 0.257191 0.186236
0.144854 0.250614 0.185306
0.268742 0.250813 0.186664
0.413764 0.242527 0.209705
0.537301 0.243641 0.20296
0.650858 0.248157 0.191943
0.756344 0.253834 0.19324
0.842405 0.26424 0.204776
0.913298 0.278538 0.222446
0 0.382849 0.184833
0.138643 0.377813 0.181811
0.272236 0.374929 0.185061
0.397864 0.375143 0.181109
0.552529 0.363775 0.206409
0.688853 0.357336 0.236851
0.808392 0.35642 0.261936
0.906035 0.362295 0.284321
0.978225 0.376623 0.297902
0 0.506966 0.185107
0.135775 0.503975 0.17882
0.267796 0.502083 0.176898
0.396414 0.50106 0.176333
0.522377 0.500725 0.176761
0.660624 0.495399 0.190524
0.81387 0.481987 0.240208
0.930251 0.480262 0.282689
1 0.486702 0.321798
0.0138705 0.626581 0.193408
0.139406 0.627634 0.181415
0.267292 0.627222 0.176944
0.394766 0.626627 0.17557
0.520424 0.626352 0.17641
0.643503 0.626505 0.18056
0.763561 0.626856 0.191577
0.911955 0.614557 0.244511
1 0.609583 0.30782
0.0518807 0.737728 0.218799
0.15848 0.745266 0.198291
0.275349 0.748806 0.187076
0.397482 0.750103 0.182666
0.520821 0.750561 0.183169
0.642847 0.750881 0.188663
0.761257 0.751568 0.201266
0.872572 0.753368 0.223789
0.992309 0.750454 0.268116
0.103563 0.843442 0.257679
0.199313 0.854337 0.235782
0.30193 0.862684 0.218967
0.413275 0.867765 0.208927
0.529824 0.870512 0.206638
0.648219 0.871916 0.212146
0.76463 0.873045 0.226246
0.875883 0.874846 0.248951
0.979431 0.878248 0.278447
0.157626 0.947967 0.301228
0.249866 0.959518 0.283345
0.345006 0.969894 0.268406
0.446464 0.978027 0.257252
0.553765 0.98378 0.252399
0.664652 0.987655 0.255497
0.776028 0.990539 0.267033
0.885145 0.993301 0.286503
0.98909 0.996994 0.311818
0 0.00972 0.303624
0.13312 0.00520333 0.299489
0.26566 0.00309758 0.298207
0.39353 0.00231937 0.297353
0.515236 0.0034638 0.295766
0.624155 0.00857557 0.292531
0.71194 0.0200351 0.288548
0.782177 0.0364843 0.286885
0.84651 0.0542916 0.289174
0 0.133028 0.3075
0.13785 0.128969 0.297642
0.265782 0.128237 0.2963
0.397986 0.125612 0.301045
0.524285 0.1252 0.301411
0.642985 0.127077 0.301366
0.746715 0.133349 0.301793
0.827863 0.146136 0.304204
0.894667 0.16286 0.310063
0 0.257893 0.307362
0.143008 0.252247 0.299611
0.269184 0.25214 0.297108
0.391897 0.252506 0.300267
0.524666 0.25008 0.301411
0.648249 0.250416 0.30222
0.762753 0.25333 0.304356
0.859174 0.261234 0.310231
0.934157 0.275013 0.320912
0 0.383154 0.305928
0.139254 0.378088 0.302342
0.276112 0.374334 0.304509
0.396445 0.375525 0.306508
0.53994 0.367636 0.330282
0.663371 0.368261 0.328618
0.774487 0.373632 0.316304
0.87837 0.379919 0.316197
0.96405 0.390494 0.327291
0 0.507485 0.305028
0.135424 0.504479 0.299901
0.269215 0.5019 0.299489
0.398596 0.500221 0.303197
0.522042 0.501015 0.299947
0.673579 0.490684 0.324147
0.810346 0.483909 0.356619
0.928985 0.483284 0.381582
1 0.488563 0.406882
0.0113832 0.628336 0.308385
0.136889 0.629099 0.299321
0.265812 0.628275 0.295949
0.394018 0.627405 0.295018
0.520027 0.6271 0.295125
0.644083 0.627283 0.296101
0.776547 0.623987 0.306859
0.930739 0.61033 0.356115
1 0.607599 0.401663
0.0450141 0.741756 0.32401
0.150332 0.74934 0.30692
0.269078 0.752056 0.298375
0.393149 0.752682 0.294835
0.517998 0.752819 0.294011
0.641672 0.753063 0.295552
0.763241 0.753613 0.30016
0.881346 0.754589 0.310887
1 0.743969 0.359808
0.095201 0.84889 0.353338
0.186007 0.861204 0.332006
0.287556 0.869871 0.31519
0.401083 0.874281 0.305318
0.520546 0.876295 0.301564
0.6421 0.877226 0.302602
0.762585 0.877974 0.308507
0.879683 0.878996 0.321553
0.989914 0.881117 0.344106
0.149554 0.954009 0.390249
0.236896 0.967102 0.371359
0.328161 0.978943 0.353445
0.42826 0.987869 0.338354
0.537133 0.993576 0.329259
0.651621 0.996887 0.327428
0.767987 0.998871 0.333227
0.883268 1 0.347326
0.993545 1 0.369955
0 0.0103761 0.420951
0.133074 0.00575265 0.41915
0.265263 0.00376898 0.417746
0.392432 0.00326543 0.41622
0.513558 0.00471504 0.413367
0.62324 0.00984207 0.407767
0.714397 0.0207675 0.399145
0.788434 0.0366979 0.391318
0.854963 0.0544594 0.387625
0 0.133455 0.426734
0.137667 0.128878 0.424109
0.270008 0.126879 0.422248
0.398749 0.125795 0.421988
0.524117 0.125719 0.421683
0.643641 0.127474 0.420523
0.75079 0.133059 0.417609
0.837415 0.144823 0.414145
0.907042 0.161425 0.412726
0 0.258183 0.427176
0.138231 0.253773 0.42356
0.270359 0.25243 0.415763
0.394522 0.252628 0.416266
0.524254 0.25069 0.421607
0.64892 0.25069 0.422522
0.766308 0.252934 0.422812
0.869413 0.259358 0.423667
0.950378 0.272145 0.426596
0 0.38323 0.425605
0.13727 0.379141 0.42266
0.274983 0.375906 0.417258
0.396643 0.376989 0.416403
0.517067 0.377981 0.420066
0.648035 0.376089 0.421271
0.770016 0.376898 0.422202
0.883741 0.379965 0.424979
0.980117 0.387839 0.431235
0.00102235 0.507378 0.423835
0.135592 0.504875 0.420417
0.27039 0.502083 0.419257
0.402686 0.49955 0.422797
0.520562 0.501442 0.425116
0.663447 0.49369 0.449195
0.788296 0.493187 0.454597
0.89749 0.499184 0.44181
0.999359 0.50631 0.439338
0.0138399 0.628504 0.424521
0.136645 0.629755 0.418585
0.265507 0.62884 0.416175
0.395331 0.627359 0.416709
0.521996 0.626474 0.420539
0.6439 0.627649 0.418082
0.791699 0.618677 0.439811
0.930449 0.611063 0.474769
1 0.610727 0.499992
0.0450294 0.743328 0.433387
0.147402 0.751278 0.421256
0.266529 0.753658 0.415076
0.391623 0.753857 0.412787
0.517189 0.753719 0.412497
0.641276 0.753933 0.413108
0.763821 0.754513 0.414527
0.891051 0.753048 0.422492
1 0.739651 0.4701
0.0924544 0.852155 0.453971
0.178424 0.865538 0.436316
0.279149 0.874144 0.422644
0.394522 0.87776 0.415106
0.515999 0.879118 0.412055
0.639139 0.879698 0.411856
0.761273 0.880339 0.413855
0.881559 0.881239 0.418891
0.997742 0.88278 0.429648
0.145586 0.958404 0.48336
0.22768 0.9729 0.466117
0.314565 0.986023 0.448203
0.413642 0.995285 0.432837
0.52459 1 0.423621
0.641978 1 0.420188
0.761486 1 0.421378
0.880858 1 0.427848
0.996918 1 0.441184
0 0.011902 0.525917
0.132158 0.00735485 0.531075
0.263279 0.00544747 0.531929
0.389227 0.00531014 0.530388
0.508782 0.00737011 0.526116
0.617395 0.0130617 0.517922
0.710063 0.0239109 0.505791
0.788083 0.0390784 0.493767
0.858076 0.05626 0.485527
0 0.133989 0.53843
0.137896 0.12958 0.541466
0.269978 0.127459 0.541573
0.398337 0.126513 0.54107
0.522988 0.126726 0.540108
0.641993 0.128771 0.537499
0.74995 0.134371 0.532143
0.839918 0.145602 0.524102
0.913252 0.161715 0.516655
0.000579843 0.258198 0.542016
0.138369 0.254276 0.54316
0.270542 0.252216 0.542336
0.398962 0.251301 0.54136
0.525017 0.25095 0.541833
0.648875 0.251255 0.542062
0.767071 0.253361 0.54139
0.873549 0.259083 0.539223
0.959976 0.270848 0.536233
0.00215152 0.382773 0.541512
0.137636 0.379583 0.54226
0.27013 0.377554 0.540322
0.398077 0.377371 0.533379
0.519326 0.378332 0.534951
0.647623 0.376776 0.540612
0.770672 0.377234 0.541909
0.887312 0.379614 0.542916
0.990173 0.386069 0.544289
0.00749218 0.506386 0.539559
0.136706 0.505104 0.539864
0.268101 0.503319 0.538689
0.40206 0.501076 0.5346
0.520912 0.502861 0.53492
0.639689 0.504326 0.538766
0.768963 0.502937 0.539956
0.889845 0.504021 0.541375
1 0.507317 0.544366
0.0219577 0.627207 0.538445
0.138491 0.629831 0.537377
0.26569 0.629297 0.53608
0.396887 0.627466 0.53608
0.526345 0.625681 0.540627
0.642695 0.627985 0.543313
0.784726 0.620569 0.566598
0.911528 0.618769 0.579095
1 0.624628 0.568994
0.0521553 0.742763 0.543038
0.148974 0.75172 0.537316
0.266148 0.754406 0.53373
0.391333 0.754498 0.532341
0.518273 0.753811 0.533349
0.643 0.753506 0.537148
0.763775 0.75494 0.535515
0.907515 0.747524 0.55378
1 0.738888 0.59202
0.0961471 0.8533 0.556771
0.177462 0.86743 0.545403
0.275914 0.876249 0.536202
0.39173 0.879499 0.53109
0.514336 0.880415 0.529152
0.638209 0.88072 0.529442
0.760845 0.881315 0.530404
0.882139 0.882246 0.532219
1 0.882521 0.537942
0.146487 0.961074 0.579278
0.223926 0.976516 0.566293
0.306447 0.990631 0.551507
0.404837 0.999817 0.538933
0.517678 1 0.531899
0.637079 1 0.529274
0.758206 1 0.529183
0.879316 1 0.531624
0.99855 1 0.536995
0 0.0151217 0.607507
0.130282 0.0110475 0.62501
0.258518 0.00933852 0.632334
0.382177 0.00967422 0.633051
0.499214 0.0125124 0.628397
0.605966 0.0189212 0.61857
0.699702 0.0295872 0.604944
0.781735 0.0437476 0.591257
0.855909 0.0599222 0.580682
0.00587472 0.135103 0.632456
0.138888 0.131182 0.6477
0.268971 0.129091 0.653422
0.396307 0.128252 0.654826
0.519753 0.128832 0.653727
0.637217 0.131487 0.649699
0.744183 0.137636 0.641779
0.835691 0.14876 0.630228
0.912917 0.164126 0.618708
0.00917067 0.257939 0.644205
0.140383 0.254902 0.656046
0.270741 0.252934 0.659678
0.398993 0.251881 0.660487
0.524666 0.251682 0.660563
0.647852 0.252262 0.660105
0.765576 0.254627 0.658198
0.872877 0.260349 0.653559
0.962585 0.271595 0.646097
0.0126345 0.381537 0.647944
0.140215 0.379767 0.657877
0.270008 0.378119 0.66006
0.398398 0.377127 0.659937
0.52401 0.376989 0.659449
0.648585 0.37702 0.660456
0.770672 0.377813 0.661143
0.888136 0.380056 0.661128
0.994308 0.385809 0.659602
0.0204776 0.504234 0.64773
0.140307 0.504891 0.656382
0.268193 0.503868 0.658015
0.397208 0.502815 0.656596
0.522438 0.50338 0.650416
0.641672 0.50486 0.652644
0.768399 0.503716 0.658885
0.890532 0.504402 0.660624
1 0.507027 0.661891
0.0370336 0.624414 0.646662
0.143664 0.629175 0.653651
0.266621 0.629618 0.655177
0.394629 0.628763 0.65481
0.526116 0.627131 0.651865
0.643061 0.629419 0.653025
0.759976 0.631434 0.65684
0.888151 0.630365 0.658
1 0.631754 0.659739
0.0660258 0.740551 0.649195
0.155612 0.75079 0.651972
0.267674 0.75462 0.652171
0.391516 0.755001 0.651759
0.519997 0.753887 0.652537
0.647684 0.75256 0.657862
0.762966 0.755138 0.660899
0.904631 0.747906 0.683436
1 0.74548 0.700694
0.106065 0.852689 0.658671
0.183368 0.86717 0.655558
0.277073 0.87686 0.651835
0.391196 0.880369 0.649149
0.514015 0.881117 0.648127
0.638926 0.88101 0.6495
0.76231 0.881117 0.653086
0.882216 0.882719 0.652308
1 0.877836 0.665751
0.15259 0.962112 0.675975
0.226596 0.977951 0.669245
0.304829 0.992767 0.660105
0.401251 1 0.651591
0.514687 1 0.646967
0.635218 1 0.645579
0.757229 1 0.645838
0.878752 1 0.647242
0.999084 1 0.649348
0.00314336 0.019852 0.669047
0.128161 0.017319 0.694102
0.250782 0.0164645 0.709621
0.370398 0.0174258 0.715862
0.484352 0.0208896 0.714107
0.589731 0.0275273 0.706127
0.684962 0.0375677 0.694347
0.770901 0.0504463 0.681834
0.849302 0.0653849 0.671122
0.0166323 0.137346 0.703578
0.141482 0.134554 0.731609
0.266758 0.132815 0.748043
0.391394 0.132204 0.755215
0.512551 0.133257 0.75613
0.627619 0.13666 0.751705
0.73283 0.143511 0.742092
0.825483 0.154437 0.72903
0.90663 0.168811 0.715908
0.024033 0.257908 0.725765
0.14583 0.256107 0.753048
0.271504 0.254505 0.766873
0.397955 0.253498 0.77261
0.522835 0.253346 0.774472
0.644739 0.254337 0.773709
0.761059 0.257267 0.770382
0.867414 0.263523 0.763241
0.958587 0.274678 0.752346
0.0306249 0.379736 0.737774
0.147204 0.379736 0.76257
0.271748 0.378775 0.77351
0.398535 0.377859 0.77731
0.524254 0.377508 0.778576
0.648325 0.377752 0.778912
0.769833 0.37879 0.778958
0.886839 0.381292 0.777768
0.993835 0.38703 0.773907
0.0409552 0.501152 0.743008
0.148989 0.503975 0.764889
0.27039 0.504128 0.773922
0.396841 0.503456 0.77641
0.52282 0.503105 0.776883
0.646647 0.503487 0.776669
0.769589 0.503929 0.778363
0.890593 0.504997 0.779507
1 0.507454 0.779919
0.0584421 0.620706 0.745373
0.154589 0.627451 0.763516
0.269718 0.629557 0.771771
0.394537 0.629404 0.773846
0.521233 0.629007 0.772732
0.644404 0.630121 0.76701
0.761685 0.632136 0.769772
0.887282 0.631296 0.776379
1 0.632181 0.778622
0.0852827 0.737377 0.748867
0.168872 0.748409 0.761547
0.27219 0.754147 0.768521
0.39237 0.755383 0.77052
0.517998 0.755169 0.770748
0.647791 0.753933 0.768856
0.763531 0.756497 0.770779
0.878874 0.758984 0.774533
1 0.75848 0.77557
0.121096 0.850919 0.757
0.196231 0.865141 0.762936
0.282979 0.876143 0.766491
0.392615 0.880644 0.767224
0.51426 0.881636 0.767285
0.640589 0.881102 0.768566
0.7673 0.880003 0.774487
0.881895 0.88275 0.77789
1 0.875944 0.799527
0.163378 0.961898 0.771313
0.235691 0.977508 0.771832
0.309957 0.992767 0.770108
0.402045 1 0.76669
0.514076 1 0.764446
0.634821 1 0.764019
0.757763 1 0.765225
0.87985 1 0.768627
0.999222 1 0.768765
0.0091249 0.0251316 0.724254
0.127199 0.024567 0.750179
0.243153 0.0252995 0.769451
0.357336 0.0273594 0.780911
0.467781 0.0313268 0.784482
0.571969 0.0378271 0.781491
0.668605 0.047013 0.773907
0.757641 0.0586557 0.764553
0.839582 0.0723583 0.755627
0.0279393 0.140597 0.763058
0.145708 0.139635 0.793835
0.264027 0.139208 0.817761
0.383444 0.139361 0.8327
0.500679 0.141054 0.838743
0.612863 0.145037 0.837049
0.716808 0.152087 0.829343
0.811017 0.162387 0.817945
0.895949 0.175509 0.805936
0.0406806 0.258885 0.792142
0.15523 0.258534 0.826322
0.27361 0.257862 0.852506
0.395758 0.25713 0.868101
0.518273 0.257145 0.875212
0.637903 0.258625 0.876341
0.751965 0.262287 0.872435
0.856535 0.269245 0.863554
0.948669 0.280293 0.851011
0.0516518 0.378592 0.812207
0.160296 0.37995 0.846922
0.276509 0.380026 0.871962
0.399176 0.379416 0.884916
0.523461 0.379065 0.890532
0.646601 0.379416 0.892546
0.767117 0.380774 0.892332
0.88275 0.38381 0.889754
0.988846 0.390066 0.883452
0.064622 0.498451 0.824994
0.165011 0.502495 0.857389
0.276616 0.504219 0.879667
0.398489 0.504128 0.889891
0.523033 0.503853 0.893858
0.64712 0.503975 0.895354
0.769574 0.504646 0.8963
0.889952 0.505974 0.896757
1 0.508644 0.896117
0.082536 0.617288 0.833265
0.173175 0.624704 0.861051
0.277409 0.62884 0.881239
0.396506 0.629709 0.889876
0.520684 0.629725 0.89218
0.644709 0.629969 0.892622
0.766918 0.630793 0.892699
0.888731 0.631495 0.895186
1 0.632822 0.896788
0.107271 0.734218 0.840375
0.189014 0.7449 0.861936
0.282017 0.752667 0.879194
0.395209 0.755383 0.887083
0.517815 0.755856 0.889494
0.642847 0.755932 0.888624
0.764645 0.757458 0.882933
0.880232 0.75996 0.885832
1 0.759579 0.892958
0.139513 0.848661 0.850065
0.214817 0.862028 0.864027
0.295247 0.873991 0.876646
0.396887 0.880247 0.883482
0.51516 0.882017 0.88574
0.638972 0.882307 0.886442
0.767742 0.881285 0.885512
0.882841 0.883986 0.8878
0.996033 0.887129 0.891493
0.177859 0.960906 0.863493
0.250217 0.975784 0.871153
0.321965 0.990951 0.877714
0.407477 1 0.881178
0.515389 1 0.882124
0.635019 1 0.882628
0.759411 1 0.884153
0.885039 1 0.890593
0.999466 1 0.894362
