site/assets/luts/freshluts--0000869-at-market-asian-look-lut.cube
# LUTr-Schema-Version: 2
# LUTr-ID: freshluts--0000869-at-market-asian-look-lut
# LUTr-Title: at market Asian look-LUT
# LUTr-Collection: Fresh LUTs
# LUTr-Collection-ID: freshluts-community
# LUTr-Source: https://freshluts.com
# LUTr-Retrieved: 2026-07-27
# LUTr-Source-File: submissions-raw/freshluts/cubes/869__at_market_look-lut_7.A016C046_210805GJ.cube
# LUTr-Source-Format: CUBE
# LUTr-Source-SHA256: d9b111e2c91e0d1c57290488e9321ae646900c5dd8404150e8b12ed94d48fc1f
# LUTr-License: CC0-1.0
# LUTr-License-URL: https://freshluts.com/termsandconditions
# LUTr-License-Basis: site-terms
# LUTr-Transform-Class: creative-look
# LUTr-Tags: creative, freshluts, community, cube, high-contrast, warm, low-key, sony-s-log3
# LUTr-Input-Color-Space:
# LUTr-Input-Gamut: sony-s-gamut3
# LUTr-Input-Transfer: sony-s-log3
# LUTr-Output-Color-Space: srgb
# LUTr-Output-Gamut: rec709
# LUTr-Output-Transfer: srgb
# LUTr-Color-Space-Confidence: camera-profile-input-required
# LUTr-Domain-Normalized: true
# LUTr-Shaper: none
# LUTr-Original-Grid: 33x33x33
# LUTr-Conversion-Grid: 33x33x33
# LUTr-Conversion-Interpolation: none
# LUTr-Conversion-Method: Metadata normalization; numeric LUT samples preserved
# LUTr-Conversion-Tool: LUTr scripts/convert-all-to-cube.mjs 2.0.0
# LUTr-Conversion-Date: 2026-07-28
# LUTr-Asset-URL: https://freshluts.com/luts/869
# LUTr-Author: lvannoeun@gmail.com
# LUTr-Author-URL: https://freshluts.com/users/57563
# LUTr-Attribution: lvannoeun@gmail.com via Fresh LUTs
# LUTr-Source-Labels: gamma=Sony S-Log 3; color=Warm; key=Low Key; style=High contrast
# LUTr-Note: Preserve this metadata and the upstream license notices when redistributing.
TITLE "at market Asian look-LUT"
LUT_3D_SIZE 9
DOMAIN_MIN 0 0 0
DOMAIN_MAX 1 1 1
0 0.0129397 0
0.109056 0.014435 0
0.223651 0.0182956 0
0.332738 0.0236515 0
0.438453 0.0299229 0
0.541924 0.0367895 0
0.643641 0.0441291 0
0.743908 0.0518654 0
0.84268 0.0600137 0
0.0361334 0.114366 0
0.132509 0.127474 0
0.245853 0.132967 0
0.354314 0.138491 0
0.459556 0.1449 0
0.562692 0.151858 0
0.664118 0.159289 0
0.764141 0.167102 0
0.862699 0.175296 0
0.0915999 0.216098 0.00906386
0.166583 0.23563 0
0.266255 0.24683 0
0.374548 0.253773 0
0.479652 0.260288 0
0.582483 0.267338 0
0.68368 0.27483 0
0.783505 0.282689 0
0.881895 0.290944 0
0.143771 0.319051 0.0533303
0.211536 0.339773 0.0281224
0.294286 0.357076 0
0.393805 0.367849 0
0.498817 0.375769 0
0.601907 0.382956 0
0.702892 0.390494 0
0.802533 0.398413 0
0.900755 0.406699 0
0.193851 0.422705 0.0965744
0.259998 0.443015 0.0803693
0.330556 0.464134 0.0429541
0.418799 0.479042 0.0151064
0.517174 0.490013 0
0.619959 0.498619 0
0.721553 0.506371 0
0.821057 0.514321 0.0018616
0.919142 0.522652 0.0109712
0.242618 0.526802 0.139437
0.308415 0.546624 0.129229
0.373159 0.568887 0.0975662
0.450019 0.588022 0.0611887
0.540429 0.601694 0.0393988
0.637827 0.612909 0.0213626
0.738811 0.62208 0.0133516
0.839094 0.630335 0.0165866
0.937255 0.638697 0.0250248
0.290471 0.631174 0.182162
0.356283 0.650584 0.17615
0.418769 0.672831 0.151446
0.487282 0.69456 0.114
0.56875 0.711803 0.0827649
0.659953 0.724926 0.06421
0.75642 0.736355 0.0467689
0.855894 0.745983 0.0386053
0.954742 0.754757 0.0409094
0.337545 0.735805 0.224781
0.403372 0.75491 0.221729
0.465126 0.776791 0.202945
0.528771 0.799603 0.16907
0.601968 0.819821 0.132692
0.68632 0.835721 0.106508
0.7776 0.848661 0.0895705
0.873182 0.860288 0.0728313
0.971084 0.870359 0.0648814
0.384146 0.840558 0.267521
0.449973 0.859434 0.266682
0.511604 0.880888 0.252613
0.572763 0.903944 0.22385
0.63975 0.926055 0.186938
0.716884 0.944762 0.154086
0.802808 0.959762 0.132342
0.893874 0.972702 0.115984
0.988403 0.984573 0.0998856
0 0.0144045 0.00256352
0.108248 0.0171359 0.00730907
0.225864 0.0200656 0.0123598
0.33489 0.0254063 0.0187076
0.440543 0.0316777 0.0259251
0.543984 0.0385443 0.0337224
0.64567 0.0458991 0.0419623
0.745907 0.0536355 0.0505684
0.844663 0.0617685 0.0595712
0.0526741 0.114 0.0486305
0.13547 0.128985 0.0363012
0.24802 0.134707 0.0282444
0.356405 0.140246 0.0346227
0.461616 0.146654 0.0418555
0.564706 0.153628 0.0496376
0.666117 0.161059 0.057847
0.766125 0.168856 0.0664378
0.864668 0.177066 0.0753948
0.105608 0.216968 0.0904097
0.178866 0.234195 0.0839094
0.268727 0.248844 0.0538338
0.376837 0.255528 0.049485
0.481682 0.262043 0.0567483
0.584497 0.269093 0.0645457
0.685664 0.276585 0.0727855
0.785473 0.284459 0.0813611
0.883848 0.292714 0.0903334
0.156527 0.320485 0.132601
0.22887 0.337316 0.132982
0.29987 0.3579 0.0994736
0.396155 0.369894 0.0769818
0.501198 0.377569 0.0717784
0.603906 0.38471 0.0790875
0.704875 0.392264 0.0873426
0.804486 0.400198 0.0959335
0.902708 0.408484 0.104906
0.205798 0.424506 0.174731
0.277623 0.441169 0.178302
0.342123 0.462821 0.153628
0.422477 0.480674 0.119753
0.519478 0.492073 0.101015
0.622354 0.500481 0.0949111
0.723568 0.508141 0.101366
0.823026 0.516121 0.109987
0.921096 0.524453 0.118959
0.253971 0.528847 0.216861
0.325292 0.54548 0.222217
0.388708 0.566567 0.20647
0.457282 0.58819 0.16994
0.543496 0.603555 0.143435
0.640101 0.615 0.125566
0.741207 0.624002 0.118776
0.841276 0.632151 0.123827
0.939239 0.640528 0.132738
0.301396 0.633402 0.259068
0.372198 0.65008 0.265568
0.435721 0.670542 0.255802
0.498665 0.693294 0.224704
0.573877 0.712825 0.189258
0.662745 0.726879 0.16817
0.758694 0.738491 0.150607
0.858289 0.747997 0.143282
0.957046 0.756649 0.147021
0.348135 0.73817 0.301244
0.418433 0.75491 0.308568
0.482277 0.774868 0.302937
0.54316 0.797559 0.278691
0.610224 0.819638 0.241886
0.690394 0.837232 0.2112
0.780255 0.850706 0.193072
0.875486 0.86247 0.175952
0.973526 0.872465 0.168292
0.394476 0.84303 0.343587
0.464302 0.859861 0.351522
0.52842 0.879454 0.348791
0.588693 0.901747 0.330358
0.651041 0.924895 0.296941
0.723156 0.945403 0.260945
0.806348 0.961608 0.235142
0.896498 0.974868 0.218357
0.990768 0.986847 0.201892
0 0.018967 0.114305
0.113725 0.0180362 0.113985
0.228183 0.021912 0.118822
0.337163 0.0272984 0.124971
0.442786 0.0336004 0.132006
0.546212 0.0404822 0.139635
0.647883 0.0478523 0.147723
0.748104 0.0556039 0.156191
0.84686 0.0637522 0.165057
0.0107118 0.131685 0.128054
0.141726 0.131487 0.124392
0.248508 0.137148 0.134356
0.358679 0.142184 0.140536
0.463859 0.148592 0.147616
0.566934 0.155596 0.155245
0.66833 0.163043 0.163333
0.768307 0.170871 0.171786
0.86685 0.17908 0.180636
0.0749828 0.233295 0.149508
0.194263 0.233997 0.171893
0.27126 0.250813 0.158587
0.37911 0.257481 0.155093
0.483925 0.264012 0.162234
0.586709 0.271077 0.169909
0.687877 0.278599 0.178027
0.787671 0.286488 0.186496
0.886046 0.294743 0.195361
0.146532 0.330556 0.193042
0.242313 0.338384 0.213993
0.310735 0.357153 0.206638
0.398718 0.372168 0.178561
0.503609 0.379583 0.176501
0.606134 0.386725 0.184222
0.707088 0.394293 0.19237
0.806699 0.402228 0.20087
0.904906 0.410544 0.209735
0.203754 0.431937 0.237919
0.289982 0.442847 0.256397
0.35845 0.460868 0.256489
0.427741 0.481941 0.223239
0.522011 0.494392 0.202243
0.624933 0.502556 0.198428
0.725795 0.510185 0.206195
0.825238 0.518181 0.214725
0.923308 0.526528 0.223621
0.255528 0.535027 0.281895
0.336904 0.547539 0.298711
0.4056 0.565148 0.30222
0.468208 0.587396 0.27718
0.547219 0.605524 0.244602
0.642618 0.61735 0.226535
0.743816 0.626154 0.221424
0.843519 0.634226 0.228321
0.941436 0.642618 0.237232
0.304891 0.638895 0.325292
0.383291 0.652399 0.341054
0.451987 0.669825 0.346426
0.513527 0.691508 0.330327
0.580926 0.71342 0.294286
0.665965 0.729061 0.268727
0.761196 0.740856 0.251331
0.860899 0.75021 0.245274
0.959426 0.758755 0.250782
0.352789 0.743221 0.368307
0.429145 0.757412 0.383352
0.497704 0.774762 0.389899
0.559457 0.795773 0.379934
0.62121 0.818875 0.348898
0.695521 0.838605 0.314076
0.78323 0.852949 0.293645
0.877989 0.864866 0.276463
0.97612 0.874739 0.269764
0.399863 0.847822 0.411215
0.474708 0.862501 0.425772
0.543053 0.879835 0.433143
0.605264 0.900298 0.42739
0.664942 0.923354 0.403067
0.731212 0.945647 0.366537
0.810498 0.963424 0.336522
0.899321 0.977157 0.318822
0.993255 0.989273 0.302205
0 0.0208591 0.218326
0.116442 0.0199893 0.218173
0.230686 0.0239567 0.222843
0.339605 0.0293736 0.228931
0.445197 0.0356756 0.23592
0.548577 0.0425879 0.243488
0.650233 0.049958 0.251514
0.750439 0.0577249 0.259937
0.84918 0.0658885 0.268742
0.0139315 0.133547 0.231846
0.139666 0.134401 0.23331
0.252674 0.138735 0.238025
0.361089 0.144274 0.244358
0.466239 0.150698 0.251377
0.569284 0.157702 0.258961
0.670665 0.165164 0.267002
0.770626 0.173007 0.27541
0.869154 0.181231 0.284199
0.039704 0.24741 0.244953
0.161715 0.249287 0.247349
0.275486 0.253727 0.248554
0.380713 0.259831 0.258869
0.486305 0.266133 0.265888
0.589075 0.273213 0.273518
0.690211 0.280735 0.281575
0.78999 0.288624 0.290013
0.888334 0.29691 0.298817
0.0855268 0.355169 0.259693
0.217243 0.353231 0.271397
0.326146 0.356847 0.295689
0.401205 0.374472 0.280034
0.505989 0.381704 0.280034
0.608484 0.388861 0.287709
0.709407 0.396445 0.295811
0.809018 0.404395 0.30428
0.90721 0.412711 0.3131
0.160006 0.452689 0.291814
0.282597 0.452201 0.316182
0.371939 0.461936 0.337469
0.437537 0.481712 0.328344
0.524651 0.496818 0.301961
0.627405 0.504707 0.301411
0.72813 0.512352 0.30956
0.827558 0.520348 0.318044
0.925612 0.52871 0.326894
0.23006 0.550362 0.335561
0.336202 0.554635 0.361334
0.41799 0.566857 0.379934
0.483803 0.585763 0.379126
0.552224 0.60708 0.346059
0.645228 0.619791 0.326116
0.746456 0.628367 0.323369
0.845838 0.636408 0.331533
0.94374 0.6448 0.340414
0.290074 0.650843 0.381094
0.385626 0.658412 0.405493
0.46363 0.671931 0.422415
0.529976 0.690288 0.425437
0.591302 0.712978 0.399802
0.669627 0.731197 0.368246
0.76379 0.743328 0.35079
0.863584 0.752468 0.346471
0.961761 0.760952 0.353811
0.344198 0.753124 0.4262
0.433127 0.762814 0.448966
0.508797 0.777127 0.464805
0.575418 0.795209 0.469902
0.635538 0.817365 0.453239
0.702312 0.839445 0.417426
0.786465 0.855238 0.392859
0.880552 0.867353 0.375814
0.978805 0.877058 0.370413
0.395193 0.856397 0.470832
0.479698 0.867536 0.49221
0.553765 0.882399 0.507332
0.620447 0.900328 0.51371
0.680812 0.921798 0.503319
0.741833 0.945129 0.472053
0.815534 0.964981 0.437888
0.902327 0.979522 0.418097
0.995819 0.99176 0.401434
0 0.0228428 0.321172
0.119158 0.0220798 0.32108
0.23328 0.0260929 0.325734
0.342123 0.0315251 0.331792
0.447669 0.0378424 0.33875
0.551034 0.04477 0.346288
0.652659 0.0521553 0.354284
0.75285 0.0599222 0.362676
0.85156 0.068101 0.37145
0.0172274 0.135485 0.334524
0.142321 0.136522 0.33611
0.25536 0.140826 0.340978
0.363592 0.146441 0.347127
0.468696 0.15288 0.354131
0.57171 0.159899 0.361685
0.67306 0.167376 0.36968
0.773022 0.175219 0.378058
0.871534 0.183444 0.386831
0.0426642 0.249454 0.347646
0.164157 0.251469 0.350179
0.276295 0.256031 0.355138
0.383902 0.261814 0.361364
0.488746 0.268315 0.368551
0.591485 0.27541 0.37615
0.692607 0.282948 0.384192
0.79237 0.290852 0.392599
0.8907 0.299138 0.401373
0.0662852 0.363958 0.360754
0.185443 0.366613 0.363897
0.297612 0.37116 0.368811
0.403342 0.377676 0.373449
0.508232 0.383963 0.382666
0.61091 0.391073 0.390295
0.711803 0.398672 0.398367
0.811383 0.406622 0.40679
0.909575 0.414954 0.415595
0.103807 0.474372 0.373541
0.227146 0.475471 0.37969
0.351354 0.475486 0.394491
0.45301 0.481193 0.419425
0.52723 0.499275 0.40145
0.629816 0.506935 0.403922
0.730526 0.51458 0.412039
0.829923 0.522576 0.420493
0.927962 0.530953 0.429313
0.167849 0.575891 0.396582
0.297292 0.57406 0.413977
0.412909 0.575509 0.439994
0.49752 0.586679 0.460975
0.561151 0.607233 0.449912
0.647898 0.622309 0.424872
0.748959 0.630594 0.425437
0.848203 0.638651 0.433921
0.946105 0.647044 0.442771
0.2421 0.672984 0.433707
0.363287 0.672847 0.458762
0.464164 0.678645 0.485191
0.54255 0.691905 0.503548
0.606287 0.711528 0.501549
0.674388 0.732937 0.468482
0.766445 0.745846 0.44947
0.866255 0.754757 0.447547
0.964111 0.763195 0.456107
0.31078 0.771054 0.477684
0.42034 0.774197 0.504601
0.51191 0.78291 0.529274
0.587182 0.797269 0.546029
0.651667 0.816236 0.548363
0.712215 0.839246 0.52192
0.790082 0.857511 0.491356
0.883192 0.869886 0.474403
0.981521 0.879408 0.470771
0.371954 0.871183 0.5234
0.47248 0.877043 0.549981
0.558267 0.887663 0.572869
0.631662 0.902663 0.588617
0.696574 0.921279 0.593286
0.755703 0.943832 0.575769
0.822095 0.965988 0.5402
0.905562 0.981903 0.516503
0.998428 0.994324 0.499962
0 0.0248569 0.423209
0.121935 0.0242313 0.423209
0.23592 0.028275 0.427863
0.344717 0.0337224 0.433921
0.450202 0.0400702 0.440848
0.553536 0.0469978 0.448371
0.655131 0.0543984 0.456352
0.755306 0.0621805 0.464714
0.853986 0.0703593 0.473457
0.0205234 0.137499 0.436454
0.145052 0.138689 0.438178
0.257969 0.143038 0.44303
0.36614 0.148653 0.44918
0.471214 0.155123 0.456153
0.574197 0.162158 0.463691
0.675517 0.169635 0.471672
0.775464 0.177478 0.480034
0.873945 0.185718 0.488777
0.0456855 0.251545 0.449592
0.166842 0.253651 0.452171
0.278889 0.258228 0.457237
0.386557 0.263996 0.463493
0.491249 0.270573 0.470527
0.593957 0.277668 0.478111
0.695048 0.285222 0.486122
0.794797 0.293126 0.494514
0.893111 0.301411 0.503258
0.0691844 0.366094 0.462669
0.188098 0.368811 0.465843
0.299367 0.373602 0.471092
0.406561 0.379553 0.47689
0.510842 0.386191 0.484474
0.613367 0.393332 0.492195
0.71426 0.400946 0.500237
0.813809 0.408911 0.508644
0.911986 0.417243 0.517433
0.0915084 0.481025 0.475425
0.208698 0.484199 0.479042
0.319295 0.489189 0.484459
0.427832 0.494728 0.490272
0.528008 0.50251 0.498665
0.632273 0.509194 0.505776
0.732952 0.516854 0.513863
0.832349 0.524865 0.522301
0.930373 0.533242 0.531106
0.124895 0.592737 0.487511
0.243839 0.595254 0.492515
0.36083 0.598032 0.500954
0.481132 0.598962 0.518181
0.576501 0.606531 0.543038
0.650599 0.624872 0.52311
0.751385 0.632883 0.527214
0.850629 0.64094 0.535683
0.948501 0.649348 0.544518
0.179965 0.697383 0.505837
0.305272 0.697368 0.517433
0.429282 0.696941 0.537118
0.539544 0.699886 0.564157
0.620264 0.712261 0.584527
0.682582 0.73341 0.571313
0.769131 0.748425 0.547555
0.868772 0.757061 0.548959
0.966522 0.765499 0.557809
0.250004 0.796429 0.53576
0.376272 0.79527 0.556115
0.492348 0.796536 0.582513
0.588891 0.803586 0.609186
0.664454 0.817731 0.627085
0.72665 0.837964 0.623667
0.794644 0.859403 0.590692
0.885863 0.87248 0.572442
0.984222 0.881743 0.571191
0.322576 0.893782 0.575418
0.441917 0.894148 0.600977
0.547326 0.898466 0.628626
0.635493 0.908202 0.6533
0.708522 0.923247 0.669764
0.771557 0.942748 0.671183
0.83154 0.966003 0.6439
0.909117 0.984253 0.614298
1 0.996918 0.597925
0 0.0269169 0.524514
0.124758 0.0264286 0.524636
0.238621 0.030518 0.529305
0.347341 0.035996 0.535348
0.452796 0.0423438 0.542275
0.556085 0.0492866 0.549783
0.657649 0.0566873 0.557748
0.757794 0.0644846 0.566094
0.856474 0.0726787 0.574823
0.0238346 0.139574 0.537713
0.147829 0.140917 0.539544
0.260639 0.145281 0.544411
0.36875 0.150927 0.550546
0.473777 0.157412 0.557519
0.57673 0.164446 0.565042
0.678019 0.171939 0.573007
0.777935 0.179797 0.581353
0.876417 0.188052 0.590082
0.0487678 0.253681 0.550851
0.169604 0.255879 0.553506
0.281544 0.260502 0.558572
0.389151 0.266285 0.564813
0.493812 0.272862 0.571847
0.596475 0.279973 0.579416
0.697551 0.287526 0.587411
0.797269 0.295445 0.595789
0.895567 0.303746 0.604517
0.0721599 0.368277 0.563912
0.190829 0.371054 0.567132
0.302007 0.375875 0.572381
0.40914 0.381796 0.578729
0.513466 0.388464 0.58584
0.615885 0.395651 0.593454
0.716747 0.403265 0.601495
0.816281 0.411231 0.609888
0.914427 0.419577 0.618647
0.0943618 0.483238 0.576638
0.211368 0.486473 0.580301
0.321874 0.491478 0.585718
0.428595 0.497505 0.592157
0.532509 0.504417 0.598032
0.634745 0.511528 0.606958
0.735439 0.519188 0.615076
0.834821 0.527199 0.623499
0.932815 0.535576 0.632273
0.115953 0.598398 0.589197
0.231601 0.602014 0.593194
0.341497 0.607172 0.598764
0.447837 0.613306 0.605295
0.554528 0.619348 0.611704
0.650141 0.628153 0.62356
0.753872 0.635218 0.628382
0.853086 0.643275 0.636835
0.950942 0.651698 0.645655
0.147036 0.710826 0.601007
0.263462 0.714107 0.605844
0.376638 0.718181 0.612711
0.490364 0.721767 0.622766
0.607935 0.723278 0.642252
0.697643 0.732616 0.666346
0.771862 0.751049 0.64506
0.871229 0.759396 0.65008
0.968963 0.767849 0.658915
0.195727 0.817624 0.616739
0.31667 0.819181 0.625483
0.437552 0.820294 0.639139
0.557748 0.820829 0.66067
0.663386 0.825071 0.68838
0.740871 0.838483 0.707881
0.802197 0.860151 0.692515
0.888563 0.875105 0.669886
0.986755 0.884108 0.671946
0.259632 0.91902 0.641535
0.384634 0.918685 0.657237
0.506661 0.918608 0.679332
0.618479 0.921065 0.706676
0.711284 0.929213 0.733349
0.784588 0.944091 0.750637
0.845441 0.964889 0.745602
0.913497 0.986282 0.712764
1 0.999557 0.695338
0 0.0289616 0.625513
0.127611 0.0286564 0.625772
0.241352 0.0327764 0.630457
0.349996 0.0382696 0.6365
0.455406 0.0446479 0.643427
0.558648 0.0515908 0.650919
0.660197 0.0590066 0.658869
0.760311 0.0668193 0.667201
0.858976 0.0750134 0.675914
0.0271305 0.14168 0.638682
0.150622 0.14316 0.640635
0.263325 0.14757 0.645518
0.371374 0.153231 0.651652
0.476356 0.159716 0.65861
0.579278 0.166766 0.666133
0.680552 0.174273 0.674083
0.780438 0.182132 0.682414
0.878889 0.190387 0.691127
0.0518502 0.255863 0.651835
0.172366 0.258137 0.654551
0.284215 0.262776 0.659632
0.39176 0.268589 0.665873
0.496376 0.275181 0.672892
0.599023 0.282307 0.680461
0.700069 0.289876 0.688457
0.799756 0.297795 0.696803
0.898054 0.306096 0.705531
0.0751507 0.370474 0.664881
0.193576 0.373327 0.668147
0.304662 0.378164 0.673411
0.411749 0.3841 0.679759
0.51603 0.390784 0.686854
0.618418 0.397986 0.694453
0.719249 0.4056 0.70248
0.818769 0.413581 0.710872
0.916899 0.421927 0.719615
0.0972915 0.485451 0.677592
0.214099 0.488746 0.681285
0.324514 0.493782 0.686702
0.431174 0.499825 0.693141
0.535164 0.506584 0.700313
0.637308 0.513863 0.707973
0.737942 0.521538 0.71603
0.837293 0.529549 0.724453
0.935286 0.537942 0.733211
0.118746 0.600656 0.690135
0.234226 0.604318 0.694163
0.344045 0.609506 0.699748
0.450309 0.615656 0.706279
0.553994 0.622507 0.713512
0.655589 0.630152 0.719051
0.756374 0.637568 0.72932
0.855558 0.645624 0.737758
0.953414 0.654063 0.746563
0.13994 0.715953 0.702602
0.254276 0.719921 0.70692
0.363546 0.725261 0.712642
0.469474 0.731517 0.719249
0.572961 0.738415 0.726543
0.678935 0.74461 0.733486
0.769985 0.754665 0.74638
0.873701 0.761761 0.750957
0.97142 0.77023 0.759777
0.169375 0.828901 0.714153
0.284062 0.8327 0.719051
0.395239 0.8374 0.725475
0.50518 0.842313 0.733562
0.617014 0.846311 0.745068
0.732326 0.84828 0.76669
0.816815 0.859312 0.78938
0.89131 0.877745 0.767163
0.989212 0.886473 0.772793
0.213779 0.937102 0.728603
0.331533 0.939742 0.735988
0.448203 0.942428 0.746395
0.566323 0.944183 0.761715
0.683497 0.945464 0.784817
0.785229 0.95082 0.812909
0.859892 0.965179 0.831388
0.920516 0.987274 0.813977
1 1 0.792554
0.00122072 0.0310369 0.725734
0.13051 0.0309453 0.726192
0.244129 0.0350958 0.730892
0.352697 0.0406043 0.73695
0.458061 0.0469978 0.743862
0.561273 0.0539559 0.751339
0.662791 0.061387 0.759289
0.76289 0.0691997 0.767605
0.861524 0.0773938 0.776318
0.030457 0.143847 0.738949
0.153475 0.145449 0.741009
0.266072 0.149889 0.745907
0.374044 0.155581 0.752041
0.478981 0.162081 0.758999
0.581872 0.169146 0.766506
0.683116 0.176654 0.774456
0.782986 0.184527 0.782788
0.881422 0.192782 0.791485
0.0549935 0.258076 0.752102
0.175189 0.260456 0.754894
0.286931 0.265126 0.759991
0.394415 0.270939 0.766232
0.499001 0.277546 0.773251
0.601602 0.284688 0.780804
0.702632 0.292256 0.788785
0.802304 0.300191 0.797131
0.900572 0.308492 0.805844
0.0781872 0.372732 0.765148
0.196368 0.375647 0.76846
0.307378 0.380514 0.773739
0.414389 0.386465 0.780072
0.518639 0.393164 0.787167
0.620996 0.400366 0.794766
0.721798 0.407996 0.802792
0.821302 0.415976 0.81117
0.919417 0.424338 0.819898
0.100267 0.487724 0.777844
0.216876 0.491081 0.781567
0.327214 0.496132 0.786999
0.433829 0.50219 0.793439
0.537774 0.508965 0.800595
0.639887 0.516243 0.808255
0.74049 0.523934 0.816312
0.839826 0.53196 0.82472
0.937789 0.540352 0.833478
0.121691 0.602945 0.790372
0.236988 0.606653 0.79443
0.346731 0.611872 0.800015
0.452949 0.618036 0.806546
0.556603 0.624903 0.813764
0.658488 0.632227 0.821469
0.758907 0.639963 0.829572
0.858091 0.648035 0.837995
0.955917 0.656474 0.846784
0.142687 0.718303 0.802838
0.256886 0.722301 0.807187
0.366064 0.727672 0.812909
0.471916 0.733944 0.819532
0.575296 0.740871 0.826825
0.676966 0.748272 0.834577
0.776471 0.756573 0.839673
0.876234 0.764172 0.851164
0.973922 0.772641 0.859983
0.163455 0.833738 0.815091
0.276677 0.83801 0.819699
0.385367 0.843503 0.825544
0.490913 0.849867 0.832242
0.594095 0.85684 0.839582
0.695735 0.864256 0.847364
0.801434 0.870436 0.855207
0.889418 0.881453 0.86772
0.991714 0.888899 0.872953
0.192065 0.946929 0.826719
0.305425 0.951095 0.831754
0.415335 0.956191 0.838071
0.523323 0.961746 0.845563
0.631174 0.967163 0.854688
0.742168 0.971283 0.867643
0.854963 0.9738 0.891264
0.934524 0.986496 0.911925
1 1 0.889158
