site/assets/luts/freshluts--0000608-adventure.cube
# LUTr-Schema-Version: 2
# LUTr-ID: freshluts--0000608-adventure
# LUTr-Title: ADVENTURE
# LUTr-Collection: Fresh LUTs
# LUTr-Collection-ID: freshluts-community
# LUTr-Source: https://freshluts.com
# LUTr-Retrieved: 2026-07-27
# LUTr-Source-File: submissions-raw/freshluts/cubes/608__ADVENTURE__93.DJI_0926.cube
# LUTr-Source-Format: CUBE
# LUTr-Source-SHA256: 3a9de865813c6b80ee130f522596fe4287a63329e2add9856b8dc6b10c62f818
# LUTr-License: CC0-1.0
# LUTr-License-URL: https://freshluts.com/termsandconditions
# LUTr-License-Basis: site-terms
# LUTr-Transform-Class: creative-look
# LUTr-Tags: creative, freshluts, community, cube, warm, high-key, dji-d-log
# LUTr-Input-Color-Space: dji-dlog-dgamut
# LUTr-Input-Gamut: dji-d-gamut
# LUTr-Input-Transfer: dji-d-log
# LUTr-Output-Color-Space: srgb
# LUTr-Output-Gamut: rec709
# LUTr-Output-Transfer: srgb
# LUTr-Color-Space-Confidence: inferred-from-source-label
# LUTr-Domain-Normalized: true
# LUTr-Shaper: none
# LUTr-Original-Grid: 33x33x33
# LUTr-Conversion-Grid: 33x33x33
# LUTr-Conversion-Interpolation: none
# LUTr-Conversion-Method: Metadata normalization; numeric LUT samples preserved
# LUTr-Conversion-Tool: LUTr scripts/convert-all-to-cube.mjs 2.0.0
# LUTr-Conversion-Date: 2026-07-28
# LUTr-Asset-URL: https://freshluts.com/luts/608
# LUTr-Author: Shamoon Abbasi
# LUTr-Author-URL: https://freshluts.com/users/1258
# LUTr-Attribution: Shamoon Abbasi via Fresh LUTs
# LUTr-Source-Labels: gamma=DJI D-log; color=Warm; key=High Key; style=Drama
# LUTr-Note: Preserve this metadata and the upstream license notices when redistributing.
TITLE "ADVENTURE"
LUT_3D_SIZE 5
DOMAIN_MIN 0 0 0
DOMAIN_MAX 1 1 1
0.0264897 0.0398718 0.052842
0.21207 0.0533761 0.0360723
0.640345 0.0174868 0.0199283
0.719646 0.0204776 0.0237278
0.728344 0.0217136 0.0237736
0.0074464 0.164782 0.0662699
0.242191 0.212802 0.0224308
0.758175 0.24361 0.012726
0.830289 0.234668 0.0129397
0.835935 0.229297 0.0132296
0.00331121 0.435416 0.016083
0.0486 0.540246 0.016556
0.898558 0.754345 0.0199741
0.994232 0.745907 0.0218814
0.999786 0.747982 0.0218967
0.0150149 0.52781 0.0258335
0.0485237 0.603784 0.0257267
0.825818 0.865705 0.0281987
0.997726 0.897398 0.030045
1 0.898116 0.0303655
0.017792 0.536248 0.0280766
0.0523842 0.614038 0.0271916
0.854612 0.879042 0.02916
0.998917 0.903624 0.0332036
1 0.903471 0.0332189
0.00839246 0.0274968 0.203235
0.221576 0.0318456 0.225864
0.673457 0.0179141 0.249546
0.757 0.0189364 0.244633
0.766888 0.0197452 0.241718
0.00485237 0.190311 0.25713
0.208423 0.240574 0.272877
0.745602 0.235615 0.246815
0.830777 0.210071 0.216022
0.834043 0.199374 0.2056
0.00404364 0.489555 0.255207
0.0324865 0.576883 0.252995
0.870558 0.757733 0.12343
0.995254 0.76025 0.0702983
1 0.763195 0.0632639
0.0150759 0.571694 0.265293
0.043183 0.630014 0.249958
0.798459 0.866239 0.0997635
0.997787 0.907485 0.0835431
1 0.907012 0.0795148
0.0169528 0.580255 0.276234
0.0459449 0.643503 0.269581
0.823636 0.879316 0.130251
0.999207 0.912718 0.100969
1 0.912657 0.101183
0.00544747 0.0503243 0.487861
0.22742 0.0417639 0.54023
0.713115 0.0245975 0.593057
0.749447 0.0262913 0.56463
0.764553 0.0285801 0.573861
0.00415045 0.154482 0.583993
0.124453 0.232502 0.634119
0.753857 0.212024 0.684489
0.821012 0.187518 0.656001
0.82707 0.170977 0.65803
0.00389105 0.550072 0.709667
0.0256809 0.637766 0.741115
0.810605 0.810117 0.796323
0.986862 0.813886 0.789517
0.994476 0.812772 0.787198
0.0128328 0.647776 0.730037
0.0350958 0.710811 0.747097
0.741405 0.939254 0.80885
0.996948 0.972549 0.79881
0.999817 0.971115 0.779568
0.0146334 0.657771 0.744808
0.0361791 0.726299 0.768673
0.758053 0.950607 0.825666
0.999344 0.980911 0.822965
0.999725 0.981369 0.827466
0.00581369 0.0614176 0.590753
0.222324 0.066392 0.661173
0.686503 0.0308995 0.664836
0.77789 0.0296025 0.681041
0.792508 0.0303655 0.683589
0.00262455 0.199222 0.69958
0.0694743 0.272114 0.764935
0.727977 0.279118 0.79736
0.84741 0.280705 0.810071
0.855619 0.274891 0.809232
0.00428778 0.552941 0.813352
0.0269474 0.626841 0.859098
0.768338 0.809445 0.955261
0.975982 0.816922 0.96286
0.985885 0.817807 0.966781
0.0133211 0.662821 0.852567
0.0345006 0.716945 0.880217
0.68954 0.948333 0.971374
0.989288 0.98996 0.989532
0.994842 0.992355 0.990799
0.0151217 0.673396 0.858671
0.0362707 0.735164 0.889693
0.727367 0.960586 0.980331
0.994278 0.99559 0.993606
0.994247 0.99559 0.993851
0.00622568 0.0633707 0.602777
0.224445 0.0637827 0.672129
0.691798 0.0328069 0.679561
0.778759 0.0312963 0.695491
0.792279 0.0311589 0.696422
0.00297551 0.198276 0.709911
0.0659037 0.268986 0.773236
0.732525 0.27245 0.807233
0.846052 0.276051 0.818051
0.854475 0.273945 0.816556
0.0039826 0.556558 0.824765
0.0269017 0.622522 0.867277
0.761013 0.808103 0.967391
0.977142 0.810956 0.974411
0.985855 0.818326 0.975494
0.0132143 0.664668 0.861814
0.0339666 0.714702 0.887602
0.642267 0.942138 0.977234
0.989853 0.990753 0.994446
0.994568 0.993042 0.993973
0.0150301 0.673228 0.863966
0.035935 0.733166 0.893278
0.720455 0.959213 0.982361
0.994247 0.99559 0.993851
0.994247 0.99559 0.993851
