site/assets/luts/freshluts--0001236-correction-clean.cube
# LUTr-Schema-Version: 2
# LUTr-ID: freshluts--0001236-correction-clean
# LUTr-Title: Correction-clean
# LUTr-Collection: Fresh LUTs
# LUTr-Collection-ID: freshluts-community
# LUTr-Source: https://freshluts.com
# LUTr-Retrieved: 2026-07-27
# LUTr-Source-File: submissions-raw/freshluts/cubes/1236__correction-clean.cube
# LUTr-Source-Format: CUBE
# LUTr-Source-SHA256: 41c191b82fb135c34e29ef7e9d69e6c42810c5873baff14434b4ad3eeeaf37fd
# LUTr-License: CC0-1.0
# LUTr-License-URL: https://freshluts.com/termsandconditions
# LUTr-License-Basis: site-terms
# LUTr-Transform-Class: creative-look
# LUTr-Tags: creative, freshluts, community, cube, cool, high-key, sony-s-log3, correction
# LUTr-Input-Color-Space:
# LUTr-Input-Gamut: sony-s-gamut3
# LUTr-Input-Transfer: sony-s-log3
# LUTr-Output-Color-Space: srgb
# LUTr-Output-Gamut: rec709
# LUTr-Output-Transfer: srgb
# LUTr-Color-Space-Confidence: camera-profile-input-required
# LUTr-Domain-Normalized: true
# LUTr-Shaper: none
# LUTr-Original-Grid: 16x16x16
# LUTr-Conversion-Grid: 16x16x16
# LUTr-Conversion-Interpolation: none
# LUTr-Conversion-Method: Metadata normalization; numeric LUT samples preserved
# LUTr-Conversion-Tool: LUTr scripts/convert-all-to-cube.mjs 2.0.0
# LUTr-Conversion-Date: 2026-07-28
# LUTr-Asset-URL: https://freshluts.com/luts/1236
# LUTr-Author: lvannoeun@gmail.com
# LUTr-Author-URL: https://freshluts.com/users/57563
# LUTr-Attribution: lvannoeun@gmail.com via Fresh LUTs
# LUTr-Source-Labels: gamma=Sony S-Log 3; color=Cool; key=High Key; style=fresh
# LUTr-Note: Preserve this metadata and the upstream license notices when redistributing.
TITLE "Correction-clean"
LUT_3D_SIZE 16
DOMAIN_MIN 0 0 0
DOMAIN_MAX 1 1 1
0 0 0
0 0 0
0 0 0
0 0 0
0.077976 0 0
0.337432 0 0.008885
0.549774 0 0.032831
0.700611 0.000641 0.058844
0.815478 0.048742 0.099577
0.904751 0.106864 0.150212
0.921296 0.138523 0.182404
0.921296 0.139401 0.188419
0.921296 0.139401 0.191765
0.921296 0.139361 0.19349
0.921296 0.139361 0.194293
0.921296 0.139361 0.194584
0 0 0
0 0 0
0 0 0
0 0 0
0.053705 0.000061 0
0.30421 0 0.006319
0.520166 0 0.028638
0.67507 0 0.053824
0.791622 0.035654 0.088315
0.881948 0.091269 0.136509
0.921296 0.133555 0.17622
0.921296 0.139416 0.186762
0.921296 0.139402 0.190697
0.921296 0.139361 0.1929
0.921296 0.139361 0.193981
0.921296 0.139361 0.194443
0 0 0
0 0 0
0 0 0
0 0 0
0.033723 0.003651 0
0.28321 0.011564 0
0.502872 0 0.025388
0.658527 0 0.050642
0.77651 0.027937 0.081772
0.867715 0.081646 0.128076
0.921296 0.129571 0.171573
0.921296 0.13927 0.185495
0.921296 0.139398 0.189809
0.921296 0.13938 0.192365
0.921296 0.139361 0.193718
0.921296 0.139361 0.194276
0 0 0
0 0 0
0 0 0
0 0 0
0.025508 0.021638 0
0.266402 0.068183 0
0.487984 0.045123 0
0.648949 0 0.044063
0.767624 0.023586 0.07785
0.859374 0.076024 0.123248
0.921296 0.125137 0.167122
0.921296 0.139079 0.184562
0.921296 0.139398 0.18924
0.921296 0.139389 0.192055
0.921296 0.139361 0.193499
0.921296 0.139361 0.19417
0 0.146887 0.000341
0 0.126853 0
0 0.110147 0
0.002792 0.094978 0
0.038955 0.079382 0
0.244208 0.164662 0
0.468166 0.181488 0
0.633712 0.129553 0
0.76048 0.0323 0.057971
0.854478 0.072682 0.119915
0.921296 0.122116 0.164179
0.921296 0.138973 0.184031
0.921296 0.139398 0.188952
0.921296 0.139399 0.191777
0.921296 0.139361 0.193316
0.921296 0.139361 0.194073
0 0.386353 0.036607
0 0.36349 0.031718
0 0.347832 0.028571
0 0.336191 0.025007
0.056267 0.322294 0
0.228651 0.304989 0
0.440548 0.33089 0
0.610468 0.314593 0.010531
0.739299 0.256952 0.044576
0.844166 0.148838 0.096046
0.920787 0.123996 0.160846
0.921296 0.138945 0.183814
0.921296 0.139363 0.188721
0.921296 0.139399 0.191654
0.921296 0.139361 0.193259
0.921296 0.139361 0.194011
0.018596 0.565257 0.093301
0.01072 0.547213 0.084614
0.006019 0.534437 0.078877
0.003225 0.525583 0.075134
0.002933 0.517911 0.068191
0.166835 0.506151 0.030307
0.399294 0.491575 0.036406
0.579965 0.487959 0.062794
0.713023 0.458495 0.094624
0.816341 0.403278 0.124291
0.902725 0.298419 0.154415
0.921296 0.170841 0.179721
0.921296 0.139644 0.188585
0.921296 0.139399 0.19155
0.921296 0.139361 0.193242
0.921296 0.139361 0.193999
0.102039 0.693247 0.169282
0.090807 0.678536 0.159754
0.08274 0.668176 0.152908
0.077445 0.661147 0.148289
0.073614 0.655945 0.145001
0.099486 0.650131 0.133455
0.333295 0.638998 0.126076
0.532469 0.628522 0.135634
0.68602 0.617023 0.160174
0.79118 0.582021 0.182459
0.875987 0.529571 0.199123
0.921296 0.428552 0.196373
0.921296 0.250924 0.185117
0.921296 0.14852 0.190729
0.921296 0.139361 0.193206
0.921296 0.139361 0.193978
0.179713 0.788676 0.237352
0.169897 0.776746 0.228527
0.163097 0.768402 0.222479
0.158552 0.76285 0.218414
0.155208 0.758778 0.215447
0.153743 0.755441 0.213063
0.263703 0.749007 0.211747
0.476351 0.740222 0.213343
0.637847 0.732629 0.223228
0.766828 0.721559 0.241414
0.852474 0.686003 0.255841
0.909465 0.642005 0.259046
0.921296 0.560041 0.233411
0.921296 0.352387 0.195309
0.921296 0.150198 0.192993
0.921296 0.139361 0.193963
0.239655 0.861819 0.29213
0.23114 0.851448 0.284272
0.225573 0.844552 0.279111
0.221612 0.839632 0.275448
0.218577 0.836119 0.272666
0.216522 0.833395 0.270733
0.247058 0.830142 0.27294
0.423141 0.822578 0.277082
0.592592 0.816453 0.282568
0.723133 0.81071 0.292172
0.831471 0.801293 0.305425
0.893442 0.771548 0.312687
0.915869 0.738215 0.304923
0.918941 0.6682 0.275351
0.921296 0.473573 0.222156
0.921296 0.184578 0.197251
0.280013 0.909634 0.330088
0.275549 0.904813 0.325724
0.271439 0.90066 0.321876
0.268422 0.897559 0.319048
0.266409 0.895179 0.316987
0.264887 0.89328 0.31557
0.266001 0.891788 0.314956
0.386486 0.886328 0.328537
0.555617 0.880456 0.330214
0.685398 0.876243 0.337598
0.793299 0.872228 0.346994
0.875082 0.86678 0.354943
0.910215 0.845338 0.355506
0.915114 0.818046 0.343399
0.916357 0.760527 0.316464
0.920758 0.59076 0.257176
0.28826 0.909634 0.35344
0.288365 0.909634 0.347279
0.288361 0.909634 0.343861
0.288318 0.909634 0.341454
0.288235 0.909634 0.339936
0.288202 0.909634 0.33886
0.288357 0.909634 0.338153
0.372356 0.909634 0.355582
0.533523 0.909634 0.355632
0.661821 0.909634 0.362031
0.768289 0.909338 0.371206
0.846927 0.908183 0.379923
0.896998 0.905461 0.38525
0.91446 0.898438 0.383851
0.915292 0.881355 0.375333
0.915343 0.831704 0.350593
0.286357 0.909634 0.469505
0.286771 0.909634 0.444532
0.286923 0.909634 0.427008
0.28715 0.909634 0.414292
0.287199 0.909634 0.406074
0.287385 0.909634 0.400264
0.287733 0.909634 0.395117
0.379606 0.909634 0.40671
0.53782 0.909634 0.411449
0.654476 0.909634 0.404677
0.754904 0.909634 0.396655
0.830993 0.909634 0.385704
0.882434 0.909634 0.388655
0.906735 0.909634 0.392199
0.910423 0.909592 0.392528
0.914157 0.907856 0.389408
0.285744 0.909634 0.589952
0.285646 0.909634 0.567432
0.285666 0.909634 0.551532
0.285699 0.909634 0.540132
0.285838 0.909634 0.532348
0.286652 0.909634 0.526713
0.306849 0.909634 0.523513
0.427184 0.909634 0.533471
0.579004 0.909634 0.557582
0.672952 0.909634 0.548744
0.758088 0.909634 0.534242
0.824988 0.909634 0.504664
0.872628 0.909634 0.45392
0.902617 0.909634 0.407454
0.910629 0.909634 0.392912
0.910564 0.909634 0.392936
0.302228 0.909634 0.690858
0.298276 0.909634 0.670257
0.296447 0.909634 0.655127
0.296198 0.909634 0.645182
0.300802 0.909634 0.638345
0.317262 0.909634 0.633942
0.379884 0.909634 0.633581
0.498545 0.909634 0.641524
0.607184 0.909634 0.65277
0.696772 0.909634 0.660246
0.767094 0.909634 0.653628
0.825112 0.909634 0.641339
0.868251 0.909634 0.616496
0.895977 0.909634 0.559058
0.909419 0.909634 0.450838
0.910554 0.909634 0.393413
0.438916 0.909634 0.760019
0.397297 0.909634 0.739925
0.367629 0.909634 0.726095
0.352674 0.909634 0.71649
0.366043 0.909634 0.710268
0.408638 0.909634 0.70714
0.48113 0.909634 0.707965
0.55207 0.909634 0.710698
0.629093 0.909634 0.716019
0.703093 0.909634 0.721394
0.7686 0.909468 0.722381
0.819677 0.909341 0.7157
0.860322 0.909433 0.704094
0.889 0.909634 0.679638
0.905988 0.909634 0.625462
0.909808 0.909634 0.501715
0 0 0
0 0 0
0 0 0
0 0 0
0.075303 0 0.000285
0.334268 0 0.016715
0.547389 0 0.040003
0.69879 0.000417 0.061778
0.813261 0.047411 0.098607
0.902748 0.105455 0.148982
0.921296 0.138398 0.182136
0.921296 0.139401 0.188282
0.921296 0.139401 0.191653
0.921296 0.139361 0.193421
0.921296 0.139361 0.194262
0.921296 0.139361 0.194561
0 0 0
0 0 0
0 0 0
0 0 0
0.085181 0 0
0.336658 0 0.009915
0.544443 0 0.032712
0.693517 0.000068 0.057506
0.807731 0.044414 0.095725
0.895863 0.101004 0.145035
0.921296 0.13656 0.179886
0.921296 0.139398 0.187736
0.921296 0.139398 0.191257
0.921296 0.139361 0.193229
0.921296 0.139361 0.194186
0.921296 0.139361 0.194501
0 0 0
0 0 0
0 0 0
0 0 0
0.046017 0.003284 0
0.297609 0.004102 0
0.510951 0 0.027019
0.664302 0 0.051811
0.780564 0.029903 0.083419
0.870656 0.083511 0.129757
0.921296 0.130344 0.172459
0.921296 0.139315 0.185704
0.921296 0.139398 0.189898
0.921296 0.139362 0.192427
0.921296 0.139361 0.193757
0.921296 0.139361 0.1943
0 0 0
0 0 0
0 0 0
0 0 0
0.02795 0.021615 0
0.271001 0.063261 0
0.492262 0.035181 0
0.651354 0 0.045935
0.769196 0.024444 0.078662
0.860283 0.076631 0.123757
0.921296 0.125129 0.16713
0.921296 0.139098 0.184611
0.921296 0.139398 0.189264
0.921296 0.139376 0.19202
0.921296 0.139361 0.193493
0.921296 0.139361 0.194188
0 0.138164 0.000046
0 0.136591 0
0 0.111738 0
0.001797 0.094361 0
0.036867 0.076962 0
0.243678 0.16165 0
0.468454 0.175703 0
0.634733 0.120728 0
0.761027 0.030093 0.061274
0.854392 0.072694 0.119967
0.921296 0.121736 0.164049
0.921296 0.13896 0.184026
0.921296 0.139394 0.188918
0.921296 0.1394 0.191738
0.921296 0.139361 0.193301
0.921296 0.139361 0.194065
0 0.377674 0.034695
0 0.373677 0.03386
0 0.348067 0.028618
0 0.334606 0.024866
0.05259 0.319699 0
0.224319 0.301138 0
0.438168 0.326538 0
0.609656 0.308721 0.009273
0.739017 0.249103 0.043253
0.844169 0.139209 0.095674
0.919623 0.121747 0.160738
0.921296 0.138913 0.183703
0.921296 0.139395 0.188659
0.921296 0.1394 0.191585
0.921296 0.139361 0.193234
0.921296 0.139361 0.194019
0.01545 0.558433 0.08986
0.013546 0.554103 0.087801
0.005901 0.534024 0.078691
0.002768 0.52383 0.074494
0.001559 0.515688 0.06926
0.159383 0.50335 0.028728
0.395473 0.48838 0.034558
0.577701 0.483606 0.060138
0.712085 0.453515 0.0919
0.815372 0.396014 0.121402
0.902397 0.289344 0.152912
0.921296 0.165328 0.17959
0.921296 0.139794 0.188419
0.921296 0.139395 0.191467
0.921296 0.139361 0.193181
0.921296 0.139361 0.193964
0.097803 0.687381 0.165643
0.094774 0.683756 0.163081
0.082246 0.667765 0.152468
0.076039 0.659435 0.14709
0.072068 0.6539 0.143666
0.093379 0.647893 0.132853
0.326206 0.636595 0.123908
0.529086 0.625648 0.133178
0.683707 0.613712 0.157808
0.789811 0.577737 0.179888
0.87493 0.523819 0.196388
0.921296 0.42102 0.194533
0.921296 0.243833 0.185421
0.921296 0.147186 0.190747
0.921296 0.139361 0.193152
0.921296 0.139361 0.193934
0.175701 0.783758 0.233698
0.172815 0.780262 0.2311
0.162595 0.767847 0.222011
0.157295 0.761371 0.217291
0.153756 0.756823 0.214159
0.151931 0.753426 0.211583
0.25568 0.74722 0.210095
0.471184 0.737884 0.211171
0.634926 0.730321 0.221031
0.764937 0.718373 0.239104
0.851359 0.682579 0.253831
0.909535 0.637765 0.25714
0.921296 0.55317 0.230985
0.921296 0.344021 0.193795
0.921296 0.140837 0.193099
0.921296 0.139361 0.193923
0.23599 0.857395 0.288711
0.233456 0.854239 0.286393
0.224905 0.843729 0.278446
0.220333 0.838182 0.274243
0.217282 0.834394 0.27142
0.215006 0.831552 0.269377
0.242861 0.828253 0.271122
0.415941 0.820904 0.275255
0.588259 0.814208 0.28041
0.720593 0.808429 0.290235
0.829527 0.798688 0.303606
0.893018 0.768397 0.310999
0.915818 0.733673 0.302845
0.91905 0.661462 0.272714
0.921296 0.466626 0.220672
0.921296 0.185073 0.197232
0.278206 0.907797 0.328405
0.276717 0.905882 0.326858
0.270664 0.899954 0.321137
0.267478 0.896378 0.318018
0.265257 0.893647 0.315985
0.263788 0.891755 0.314646
0.264542 0.890097 0.313731
0.378449 0.885217 0.327293
0.549888 0.878982 0.328582
0.681525 0.874649 0.335806
0.79058 0.870269 0.345256
0.874348 0.864775 0.353404
0.909837 0.842538 0.353914
0.91529 0.814795 0.341762
0.916471 0.757096 0.314659
0.920956 0.582202 0.255015
0.288006 0.909634 0.361189
0.288226 0.909634 0.352134
0.288311 0.909634 0.344204
0.288271 0.909634 0.340934
0.288263 0.909634 0.33918
0.288084 0.909634 0.338414
0.288273 0.909634 0.338111
0.365745 0.909634 0.355796
0.526871 0.909634 0.355357
0.657095 0.909634 0.361447
0.764745 0.909176 0.370471
0.845111 0.907427 0.37928
0.896015 0.904522 0.384492
0.91436 0.897069 0.383173
0.915258 0.879508 0.374445
0.915321 0.828573 0.348978
0.286315 0.909634 0.47443
0.28658 0.909634 0.455632
0.286863 0.909634 0.428197
0.287166 0.909634 0.413582
0.287212 0.909634 0.404997
0.287408 0.909634 0.398793
0.287664 0.909634 0.39321
0.367447 0.909634 0.402441
0.530247 0.909634 0.409175
0.648975 0.909634 0.402251
0.750706 0.909634 0.395848
0.828745 0.909634 0.385833
0.880735 0.909634 0.388434
0.906093 0.909634 0.39203
0.910576 0.909634 0.392269
0.914454 0.906553 0.388675
0.285744 0.909634 0.588834
0.285661 0.909634 0.573651
0.28567 0.909634 0.550713
0.285769 0.909634 0.538073
0.285881 0.909634 0.529512
0.286429 0.909634 0.523614
0.301808 0.909634 0.519725
0.41423 0.909634 0.528514
0.570843 0.909634 0.553662
0.66694 0.909634 0.545037
0.75334 0.909634 0.530659
0.822104 0.909634 0.501432
0.870481 0.909653 0.45135
0.90174 0.909634 0.404204
0.910658 0.909634 0.392912
0.910564 0.909634 0.392933
0.29882 0.909634 0.687362
0.296963 0.909634 0.67366
0.294506 0.909634 0.653928
0.293168 0.909634 0.642306
0.295673 0.909634 0.634804
0.310238 0.909634 0.630191
0.368391 0.909634 0.62925
0.485811 0.909634 0.636595
0.598773 0.909634 0.648278
0.691027 0.909634 0.656803
0.762636 0.909634 0.649868
0.822128 0.909634 0.637746
0.865919 0.909634 0.612828
0.8948 0.909634 0.555841
0.909366 0.909634 0.449924
0.910552 0.909634 0.393066
0.419244 0.909634 0.754904
0.387824 0.909634 0.739792
0.350295 0.909634 0.722564
0.337178 0.909634 0.712125
0.355701 0.909634 0.70554
0.39476 0.909634 0.702322
0.464315 0.909634 0.702462
0.540376 0.909634 0.705761
0.620094 0.909634 0.711022
0.69618 0.909634 0.717064
0.763457 0.909493 0.718277
0.816194 0.909333 0.711716
0.857949 0.909413 0.700231
0.887477 0.909634 0.675416
0.90538 0.909634 0.622341
0.909771 0.909634 0.500882
0 0 0
0 0 0
0 0 0
0 0 0
0.075672 0 0.012047
0.334754 0 0.051733
0.547538 0 0.077568
0.698425 0.000342 0.090732
0.812927 0.047232 0.108954
0.902529 0.105339 0.148925
0.921296 0.138336 0.182024
0.921296 0.139401 0.188237
0.921296 0.139401 0.191615
0.921296 0.139361 0.193396
0.921296 0.139361 0.194249
0.921296 0.139361 0.194553
0 0 0
0 0 0
0 0 0
0 0 0
0.081262 0 0.010424
0.333463 0 0.044355
0.542035 0 0.06813
0.691657 0 0.081559
0.805812 0.043268 0.101267
0.894323 0.099897 0.144207
0.921296 0.136131 0.179384
0.921296 0.139398 0.187565
0.921296 0.139398 0.191166
0.921296 0.139361 0.19318
0.921296 0.139361 0.194151
0.921296 0.139361 0.19449
0 0 0
0 0 0
0 0 0
0 0 0
0.092838 0 0.004896
0.355776 0 0.027746
0.556737 0 0.046313
0.69974 0.000551 0.063181
0.809101 0.045157 0.096643
0.89527 0.10029 0.144457
0.921296 0.135789 0.179032
0.921296 0.139377 0.18751
0.921296 0.139401 0.191092
0.921296 0.139361 0.193094
0.921296 0.139361 0.19408
0.921296 0.139361 0.194513
0 0 0
0 0 0
0 0 0
0 0 0
0.039645 0.020554 0
0.305418 0.042106 0
0.522244 0 0.026838
0.673416 0 0.055875
0.785687 0.032628 0.085585
0.873422 0.085355 0.131358
0.921296 0.129735 0.172018
0.921296 0.139288 0.185644
0.921296 0.139398 0.189843
0.921296 0.139369 0.192361
0.921296 0.139361 0.193675
0.921296 0.139361 0.194245
0 0.128547 0.013341
0 0.123803 0.009386
0 0.122127 0.001455
0 0.097806 0
0.032105 0.07208 0
0.253767 0.15517 0
0.483764 0.156133 0
0.649522 0.08092 0
0.772308 0.027982 0.075174
0.86246 0.077946 0.124824
0.921296 0.125109 0.16748
0.921296 0.139108 0.184718
0.921296 0.139376 0.189277
0.921296 0.13938 0.191994
0.921296 0.139361 0.193438
0.921296 0.139361 0.194189
0 0.371391 0.036443
0 0.364035 0.033547
0 0.361131 0.031264
0 0.339896 0.026775
0.037331 0.321152 0
0.218034 0.297822 0
0.442458 0.318618 0
0.616681 0.29309 0.008048
0.74742 0.223406 0.043643
0.850935 0.119785 0.101949
0.91997 0.122392 0.164015
0.921296 0.13904 0.184235
0.921296 0.139398 0.188931
0.921296 0.139389 0.191747
0.921296 0.139361 0.19332
0.921296 0.139361 0.194085
0.013224 0.553282 0.087527
0.010526 0.54667 0.084345
0.009766 0.544708 0.083385
0.003976 0.528025 0.076206
0.001429 0.51701 0.070923
0.134947 0.503538 0.028214
0.390271 0.486054 0.033035
0.579253 0.477195 0.057599
0.715596 0.442951 0.088732
0.82027 0.377223 0.118484
0.906443 0.261115 0.152997
0.921296 0.149439 0.18088
0.921296 0.139525 0.188679
0.921296 0.139393 0.191645
0.921296 0.139361 0.193262
0.921296 0.139361 0.194013
0.094466 0.683263 0.162826
0.089544 0.677248 0.158722
0.088991 0.676158 0.158176
0.078283 0.662256 0.149066
0.072464 0.65438 0.144001
0.076154 0.648531 0.137957
0.308754 0.635827 0.12235
0.525607 0.623923 0.131598
0.684065 0.608922 0.155226
0.791765 0.570293 0.17733
0.877705 0.512036 0.193372
0.921296 0.397226 0.190734
0.921296 0.223072 0.187034
0.921296 0.143451 0.191194
0.921296 0.139361 0.19323
0.921296 0.139361 0.193988
0.172863 0.780265 0.231193
0.168527 0.775017 0.227287
0.168415 0.774819 0.227138
0.159017 0.763436 0.218813
0.154095 0.757358 0.214455
0.150965 0.753448 0.211429
0.234923 0.747006 0.209658
0.460903 0.73711 0.20983
0.632232 0.728583 0.219575
0.764768 0.714994 0.237411
0.851907 0.676848 0.251508
0.910716 0.629571 0.254221
0.921296 0.534636 0.225403
0.921296 0.317785 0.193116
0.921296 0.139411 0.193153
0.921296 0.139361 0.193938
0.233749 0.854686 0.286622
0.229558 0.849477 0.28279
0.22986 0.849583 0.283011
0.221851 0.83996 0.275648
0.217617 0.834697 0.27171
0.214833 0.831461 0.269256
0.232271 0.828078 0.269282
0.400715 0.820628 0.274818
0.581707 0.813308 0.279023
0.718333 0.80748 0.289164
0.829071 0.79648 0.302143
0.893696 0.764873 0.309678
0.915958 0.727802 0.300361
0.91967 0.649851 0.268548
0.921296 0.44031 0.2167
0.921296 0.170721 0.195503
0.276588 0.905898 0.327647
0.274064 0.903345 0.324732
0.27403 0.903397 0.324369
0.268353 0.897606 0.318869
0.265422 0.89369 0.316134
0.263637 0.891614 0.314501
0.263448 0.889703 0.313306
0.363837 0.885063 0.327052
0.540275 0.878526 0.327657
0.677052 0.87399 0.33482
0.788753 0.869488 0.344393
0.874069 0.863625 0.352659
0.909737 0.840072 0.352659
0.915266 0.810989 0.340049
0.916651 0.749915 0.311418
0.921078 0.56255 0.249791
0.287754 0.909634 0.373236
0.28776 0.909634 0.363602
0.288012 0.909634 0.354397
0.288296 0.909634 0.343068
0.288179 0.909634 0.339335
0.288018 0.909634 0.338595
0.287932 0.909634 0.338295
0.349612 0.909634 0.35196
0.515309 0.909634 0.355228
0.651101 0.909634 0.360909
0.761644 0.909041 0.369976
0.84416 0.907401 0.379043
0.895828 0.904118 0.384172
0.914352 0.896088 0.3826
0.915194 0.877761 0.373528
0.915422 0.824632 0.347007
0.286049 0.909634 0.483936
0.286409 0.909634 0.468836
0.286551 0.909634 0.455957
0.286934 0.909634 0.425386
0.28714 0.909634 0.413263
0.28717 0.909634 0.405878
0.287413 0.909634 0.399257
0.349545 0.909634 0.403422
0.519458 0.909634 0.414103
0.642172 0.909634 0.405275
0.746714 0.909634 0.398426
0.82683 0.909634 0.38714
0.879984 0.909634 0.388331
0.906247 0.909634 0.391976
0.91077 0.909634 0.39219
0.914718 0.905758 0.388176
0.285697 0.909634 0.591852
0.285677 0.909634 0.576959
0.285648 0.909634 0.570329
0.28569 0.909634 0.545517
0.28583 0.909634 0.534174
0.286016 0.909634 0.527145
0.295662 0.909634 0.522401
0.395085 0.909634 0.528408
0.557632 0.909634 0.552939
0.660638 0.909634 0.547795
0.749482 0.909634 0.534209
0.82022 0.909634 0.505314
0.869503 0.909608 0.455445
0.901639 0.909634 0.403554
0.910674 0.909634 0.392914
0.910563 0.909634 0.392931
0.297116 0.909634 0.687066
0.294601 0.909634 0.672894
0.295607 0.909634 0.669153
0.292629 0.909634 0.647922
0.293108 0.909634 0.637756
0.304054 0.909634 0.631739
0.352925 0.909634 0.629574
0.469565 0.909634 0.635959
0.588673 0.909634 0.647859
0.685246 0.909634 0.657878
0.758557 0.909634 0.650913
0.81959 0.909634 0.638995
0.864695 0.909634 0.614476
0.894431 0.909634 0.558589
0.909279 0.909634 0.451839
0.910545 0.909634 0.39293
0.406842 0.909634 0.753318
0.369416 0.909634 0.737119
0.339723 0.909634 0.723092
0.330201 0.909634 0.711004
0.346352 0.909634 0.704329
0.3809 0.909634 0.700391
0.448135 0.909634 0.700444
0.527758 0.909634 0.703477
0.611017 0.909634 0.709161
0.689092 0.909634 0.715041
0.7587 0.909409 0.717157
0.812838 0.90948 0.710743
0.855528 0.909393 0.699502
0.8859 0.909634 0.67558
0.904999 0.909634 0.625074
0.909522 0.909634 0.506115
0 0 0
0 0 0
0 0 0
0 0 0
0.07756 0 0.047461
0.337033 0 0.13367
0.548349 0 0.170235
0.698686 0.000467 0.177689
0.813262 0.047568 0.173457
0.90273 0.10539 0.172156
0.921296 0.138409 0.183498
0.921296 0.139396 0.188275
0.921296 0.139401 0.191588
0.921296 0.139361 0.193396
0.921296 0.139361 0.194238
0.921296 0.139361 0.194548
0 0 0
0 0 0
0 0 0
0 0 0
0.08066 0 0.047612
0.333365 0 0.125404
0.54165 0 0.157811
0.691531 0 0.164506
0.805677 0.043315 0.160772
0.89405 0.09969 0.162945
0.921296 0.136216 0.180172
0.921296 0.139398 0.187549
0.921296 0.139398 0.191133
0.921296 0.139361 0.193168
0.921296 0.139361 0.194124
0.921296 0.139361 0.194493
0 0 0
0 0 0
0 0 0
0 0 0
0.088214 0 0.047164
0.350463 0 0.114751
0.553118 0 0.135225
0.697118 0.00025 0.133801
0.807283 0.044141 0.133564
0.893794 0.09917 0.151145
0.921296 0.1356 0.178906
0.921296 0.139377 0.187387
0.921296 0.139397 0.191039
0.921296 0.139361 0.193043
0.921296 0.139361 0.194052
0.921296 0.139361 0.194498
0 0 0
0 0 0
0 0 0
0 0 0
0.039143 0 0.017525
0.329116 0 0.072914
0.553407 0 0.094819
0.702102 0.000929 0.094688
0.812732 0.047241 0.10573
0.898436 0.102458 0.146319
0.921296 0.13703 0.180266
0.921296 0.139405 0.187542
0.921296 0.139389 0.191056
0.921296 0.139361 0.193066
0.921296 0.139361 0.194082
0.921296 0.139361 0.194489
0 0.113526 0.050606
0 0.107771 0.045708
0 0.101674 0.036398
0 0.089802 0.023534
0.018781 0.058114 0
0.255737 0.134146 0
0.49605 0.114618 0
0.668313 0.002229 0.045045
0.792419 0.036043 0.094067
0.88081 0.090381 0.135792
0.921296 0.132748 0.175141
0.921296 0.13941 0.186278
0.921296 0.139397 0.190153
0.921296 0.139361 0.192538
0.921296 0.139361 0.193767
0.921296 0.139361 0.194299
0 0.36306 0.101724
0 0.355328 0.093113
0 0.350125 0.068125
0 0.344999 0.040275
0.003061 0.324405 0
0.206551 0.293619 0
0.443314 0.307808 0
0.627523 0.268822 0.007318
0.764434 0.171279 0.048773
0.865798 0.098564 0.119615
0.921296 0.12841 0.170618
0.921296 0.139416 0.185505
0.921296 0.139398 0.189608
0.921296 0.139361 0.192211
0.921296 0.139361 0.193555
0.921296 0.139361 0.194183
0.011104 0.548322 0.103176
0.008406 0.541352 0.095343
0.007032 0.537338 0.083957
0.00614 0.534769 0.078998
0.002279 0.521863 0.073712
0.094556 0.505453 0.028766
0.381783 0.483216 0.030805
0.583444 0.46722 0.054059
0.724498 0.42344 0.084795
0.83165 0.340955 0.115717
0.915346 0.212203 0.157766
0.921296 0.139443 0.184123
0.921296 0.139364 0.189255
0.921296 0.139376 0.191977
0.921296 0.139361 0.193465
0.921296 0.139361 0.194151
0.091479 0.679645 0.162404
0.086801 0.673513 0.157359
0.084307 0.670461 0.154337
0.083029 0.668747 0.153176
0.075305 0.658225 0.146442
0.072158 0.649861 0.140247
0.275872 0.636438 0.121367
0.519518 0.621671 0.129235
0.686207 0.6022 0.152384
0.796812 0.557133 0.173714
0.884475 0.489816 0.188767
0.921296 0.346781 0.183778
0.921296 0.182463 0.186735
0.921296 0.13967 0.19174
0.921296 0.139361 0.193342
0.921296 0.139361 0.19408
0.170202 0.777167 0.229213
0.166018 0.771902 0.225224
0.164264 0.769782 0.223456
0.163619 0.769108 0.222923
