site/assets/luts/freshluts--0000606-let-it-green.cube
# LUTr-Schema-Version: 2
# LUTr-ID: freshluts--0000606-let-it-green
# LUTr-Title: LET IT GREEN
# LUTr-Collection: Fresh LUTs
# LUTr-Collection-ID: freshluts-community
# LUTr-Source: https://freshluts.com
# LUTr-Retrieved: 2026-07-27
# LUTr-Source-File: submissions-raw/freshluts/cubes/606__LET_IT_GREEN__88.DJI_0911.cube
# LUTr-Source-Format: CUBE
# LUTr-Source-SHA256: 5e47a7c5af62b8c16bbb095f940fe869414fe88796b302851a6df33745d49a7a
# LUTr-License: CC0-1.0
# LUTr-License-URL: https://freshluts.com/termsandconditions
# LUTr-License-Basis: site-terms
# LUTr-Transform-Class: creative-look
# LUTr-Tags: creative, freshluts, community, cube, green, dji-d-log
# LUTr-Input-Color-Space: dji-dlog-dgamut
# LUTr-Input-Gamut: dji-d-gamut
# LUTr-Input-Transfer: dji-d-log
# LUTr-Output-Color-Space: srgb
# LUTr-Output-Gamut: rec709
# LUTr-Output-Transfer: srgb
# LUTr-Color-Space-Confidence: inferred-from-source-label
# LUTr-Domain-Normalized: true
# LUTr-Shaper: none
# LUTr-Original-Grid: 33x33x33
# LUTr-Conversion-Grid: 33x33x33
# LUTr-Conversion-Interpolation: none
# LUTr-Conversion-Method: Metadata normalization; numeric LUT samples preserved
# LUTr-Conversion-Tool: LUTr scripts/convert-all-to-cube.mjs 2.0.0
# LUTr-Conversion-Date: 2026-07-28
# LUTr-Asset-URL: https://freshluts.com/luts/606
# LUTr-Author: Shamoon Abbasi
# LUTr-Author-URL: https://freshluts.com/users/1258
# LUTr-Attribution: Shamoon Abbasi via Fresh LUTs
# LUTr-Source-Labels: gamma=DJI D-log; color=Green; key=Neutral; style=Adventure
# LUTr-Note: Preserve this metadata and the upstream license notices when redistributing.
TITLE "LET IT GREEN"
LUT_3D_SIZE 5
DOMAIN_MIN 0 0 0
DOMAIN_MAX 1 1 1
0 0 0
0.0414893 0.0125734 0.0115053
0.210681 0.0404212 0.0339818
0.43125 0.0615091 0.0344549
0.543008 0.0820935 0.0354009
0.00399786 0.222675 0.00505074
0.200885 0.258747 0
0.535744 0.262074 0
0.778134 0.292729 0
0.846815 0.336858 0
0 0.592706 0
0.248356 0.595117 0
0.648997 0.596902 0
0.906416 0.663325 0
0.997436 0.727703 0.0227054
0.0453803 0.96231 0.0880751
0.47451 0.975464 0.101686
0.8607 0.971618 0.0970474
1 0.988617 0.114229
1 0.995697 0.129381
0.102831 1 0.15288
0.535195 1 0.15967
0.88603 1 0.122026
1 1 0.0985885
1 1 0.0961776
0.00357061 0.00399786 0.0239261
0.0641337 0.0225681 0.0654002
0.26128 0.0441291 0.145129
0.487282 0.0568246 0.207797
0.594965 0.075761 0.25098
0.0000610361 0.237385 0.197635
0.201602 0.264759 0.21149
0.547982 0.261158 0.199069
0.787549 0.290364 0.226902
0.853849 0.3346 0.274205
0 0.594873 0.260746
0.246937 0.59646 0.256199
0.655116 0.605722 0.264225
0.918257 0.673961 0.333989
1 0.738262 0.399985
0.0595102 0.96791 0.466682
0.473716 0.974426 0.474205
0.85243 0.967193 0.460517
1 0.975906 0.469047
1 0.985763 0.479332
0.119173 1 0.533333
0.526558 1 0.524681
0.859312 1 0.467155
1 1 0.4365
1 1 0.431662
0.00627146 0.00755322 0.0513161
0.0944381 0.0347906 0.150713
0.309621 0.045304 0.280034
0.538872 0.0516213 0.396262
0.64004 0.0701457 0.4748
0 0.25182 0.404578
0.204562 0.271168 0.465782
0.561593 0.262898 0.487999
0.797147 0.292607 0.537026
0.859312 0.336858 0.588678
0 0.599664 0.574258
0.252888 0.603403 0.575631
0.668147 0.620462 0.591104
0.933486 0.688365 0.659968
1 0.749355 0.722148
0.075288 0.977295 0.790845
0.476127 0.984421 0.79118
0.846906 0.964385 0.768688
1 0.965393 0.769314
1 0.970245 0.774227
0.130632 1 0.851362
0.515221 1 0.828122
0.835599 1 0.757061
0.996902 1 0.722789
1 1 0.71635
0.010956 0.0144808 0.0855116
0.124468 0.0464179 0.244266
0.357275 0.0479286 0.403906
0.588403 0.0517128 0.553094
0.67689 0.070634 0.648753
0 0.269612 0.572305
0.21561 0.281926 0.653986
0.582071 0.271305 0.688685
0.809873 0.303731 0.744366
0.865492 0.348608 0.795026
0 0.613169 0.782391
0.272892 0.620966 0.787488
0.692027 0.64332 0.807858
0.954665 0.709728 0.87483
1 0.763958 0.929931
0.093019 0.99176 0.994003
0.48632 0.99469 0.994522
0.849912 0.96791 0.964965
1 0.961135 0.957656
1 0.960021 1
0.139742 1 1
0.511315 1 1
0.82414 1 0.938827
0.985382 1 0.903685
1 1 0.990021
0.0179599 0.0258793 0.129915
0.147295 0.0561074 0.316304
0.391943 0.0518044 0.480735
0.619577 0.0564126 0.617548
0.692882 0.0768902 0.677821
0 0.28687 0.683833
0.230045 0.29369 0.770459
0.602472 0.281987 0.79968
0.821591 0.317174 0.828504
0.869642 0.359045 0.84976
0 0.627573 0.880842
0.294087 0.638972 0.910613
0.714992 0.664668 0.950134
0.969909 0.725902 1
1 0.774594 1
0.101274 0.995895 1
0.493141 0.999817 1
0.852216 0.969909 1
1 0.957443 1
1 0.956207 1
0.142275 1 1
0.509514 1 1
0.818067 1 1
0.978653 1 1
1 1 1
