site/assets/luts/freshluts--0000821-blue-colour-toner-with-saturator-dark-nature-lut-nahin.cube
# LUTr-Schema-Version: 2
# LUTr-ID: freshluts--0000821-blue-colour-toner-with-saturator-dark-nature-lut-nahin
# LUTr-Title: Blue Colour Toner With Saturator _Dark Nature_Lut- Nahin
# LUTr-Collection: Fresh LUTs
# LUTr-Collection-ID: freshluts-community
# LUTr-Source: https://freshluts.com
# LUTr-Retrieved: 2026-07-27
# LUTr-Source-File: submissions-raw/freshluts/cubes/821__Blue_Colour_Toner_With_Saturator_Dark_Nature_Lut-Nahin.cube
# LUTr-Source-Format: CUBE
# LUTr-Source-SHA256: 39932f8d9ae732dacc515d77e0378c4c6c2f3a3bc9b452ab8d251b7a89d203d4
# LUTr-License: CC0-1.0
# LUTr-License-URL: https://freshluts.com/termsandconditions
# LUTr-License-Basis: site-terms
# LUTr-Transform-Class: creative-look
# LUTr-Tags: creative, freshluts, community, cube, high-contrast, cool, high-key, panasonic-v-log
# LUTr-Input-Color-Space:
# LUTr-Input-Gamut: panasonic-v-gamut
# LUTr-Input-Transfer: panasonic-v-log
# LUTr-Output-Color-Space: srgb
# LUTr-Output-Gamut: rec709
# LUTr-Output-Transfer: srgb
# LUTr-Color-Space-Confidence: camera-profile-input-required
# LUTr-Domain-Normalized: true
# LUTr-Shaper: none
# LUTr-Original-Grid: 16x16x16
# LUTr-Conversion-Grid: 16x16x16
# LUTr-Conversion-Interpolation: none
# LUTr-Conversion-Method: Metadata normalization; numeric LUT samples preserved
# LUTr-Conversion-Tool: LUTr scripts/convert-all-to-cube.mjs 2.0.0
# LUTr-Conversion-Date: 2026-07-28
# LUTr-Asset-URL: https://freshluts.com/luts/821
# LUTr-Author: Nahin
# LUTr-Author-URL: https://freshluts.com/users/72197
# LUTr-Attribution: Nahin via Fresh LUTs
# LUTr-Source-Labels: gamma=Panasonic V-log; color=Cool; key=High Key; style=High contrast
# LUTr-Note: Preserve this metadata and the upstream license notices when redistributing.
TITLE "Blue Colour Toner With Saturator _Dark Nature_Lut- Nahin"
LUT_3D_SIZE 16
DOMAIN_MIN 0 0 0
DOMAIN_MAX 1 1 1
-0.025755 -0.026381 -0.002579
0.012267 -0.026469 0.000042
0.064256 -0.026535 0.0003
0.145904 -0.026444 0.000704
0.229368 -0.026167 0.001212
0.309794 -0.025719 0.001781
0.387994 -0.02515 0.002367
0.464155 -0.024484 0.002952
0.53874 -0.023733 0.003522
0.611863 -0.022908 0.004065
0.684093 -0.02201 0.00459
0.755524 -0.021028 0.005089
0.826088 -0.019949 0.005571
0.896571 -0.018731 0.006033
0.970702 -0.017295 0.006503
1.000529 -0.01656 0.006835
-0.026033 0.010913 0.000296
0.013301 0.011092 -0.002124
0.065428 0.011375 0.000099
0.146545 0.011491 0.000158
0.229583 0.011426 0.000244
0.309945 0.011242 0.000347
0.388042 0.010999 0.000462
0.464179 0.010733 0.000598
0.538805 0.010466 0.000757
0.612037 0.010214 0.000931
0.68433 0.009997 0.00113
0.755698 0.009805 0.001346
0.826367 0.009648 0.001588
0.896856 0.009521 0.001851
0.970897 0.009426 0.002154
1.001064 0.009314 0.002275
-0.025877 0.059605 0.001477
0.013513 0.05976 0.000063
0.065992 0.059802 0.000304
0.146215 0.059548 0.000383
0.228302 0.059089 0.000491
0.307979 0.058432 0.000627
0.385826 0.057631 0.00078
0.461946 0.056729 0.000949
0.536577 0.055823 0.001141
0.609943 0.054967 0.001345
0.682286 0.054135 0.001571
0.754017 0.053407 0.001814
0.824883 0.052737 0.002069
0.895477 0.05215 0.002349
0.969828 0.051643 0.002658
1.000621 0.051243 0.002803
-0.025054 0.135842 0.003042
0.01293 0.136012 0.000174
0.064784 0.135708 0.00056
0.144288 0.135242 0.000629
0.225616 0.134132 0.000716
0.304726 0.132856 0.000829
0.382221 0.131475 0.000969
0.458315 0.129975 0.00113
0.533026 0.128465 0.00131
0.606523 0.126962 0.001506
0.679126 0.125517 0.001722
0.751195 0.124191 0.001958
0.822436 0.122984 0.002211
0.893288 0.121852 0.002484
0.967593 0.12084 0.002794
1.000155 0.120145 0.002937
-0.023752 0.213302 0.004665
0.012116 0.213492 0.000337
0.062903 0.21312 0.000873
0.140999 0.212496 0.000926
0.222044 0.211596 0.001007
0.300631 0.210078 0.001109
0.377782 0.208517 0.001233
0.453752 0.206874 0.001378
0.528469 0.205176 0.001546
0.60227 0.203524 0.001735
0.675221 0.201904 0.001945
0.747562 0.200357 0.002174
0.81905 0.198908 0.002419
0.890369 0.197629 0.002685
0.964978 0.196425 0.002989
1.000022 0.195585 0.00314
-0.022109 0.288449 0.006181
0.011322 0.288653 0.00057
0.060942 0.288349 0.001233
0.137642 0.287739 0.001283
0.217867 0.286826 0.00135
0.296327 0.285688 0.001448
0.373094 0.284078 0.001559
0.44878 0.282519 0.001696
0.523606 0.280787 0.001856
0.597497 0.279083 0.002035
0.670647 0.277519 0.002234
0.743342 0.27586 0.002452
0.815306 0.274404 0.002693
0.886983 0.27303 0.002955
0.961794 0.271735 0.00325
0.999234 0.270786 0.003407
-0.020162 0.362348 0.007533
0.010649 0.362599 0.000886
0.059198 0.362268 0.001646
0.134518 0.361709 0.001687
0.214064 0.360936 0.001752
0.291894 0.359915 0.001841
0.368608 0.358744 0.001948
0.444138 0.357213 0.002075
0.518809 0.355679 0.002226
0.592875 0.354118 0.002397
0.66615 0.352532 0.002591
0.739185 0.350972 0.002804
0.811301 0.349583 0.003036
0.883397 0.348205 0.00329
0.958313 0.346981 0.003573
0.998349 0.346022 0.003738
-0.017835 0.435658 0.00873
0.010121 0.43594 0.001277
0.057739 0.435573 0.002107
0.131877 0.435124 0.002149
0.210749 0.434499 0.002207
0.288143 0.433613 0.00229
0.364368 0.432676 0.002392
0.439821 0.431562 0.002517
0.514536 0.430116 0.002656
0.588534 0.428688 0.002824
0.661963 0.427253 0.003009
0.735114 0.425908 0.003213
0.807484 0.424631 0.00344
0.879952 0.423309 0.003688
0.955106 0.422161 0.003967
0.997441 0.421295 0.004131
-0.014898 0.508875 0.009813
0.00974 0.509021 0.001743
0.05658 0.508805 0.002624
0.129696 0.508472 0.002659
0.208062 0.507908 0.002718
0.284876 0.507223 0.002797
0.360812 0.50644 0.002891
0.436048 0.50547 0.003012
0.510685 0.504497 0.00315
0.584695 0.503292 0.003307
0.658206 0.502048 0.003486
0.731435 0.500862 0.003687
0.804122 0.499707 0.003907
0.876692 0.49862 0.004145
0.952 0.497551 0.004417
0.996398 0.49679 0.004588
-0.01069 0.582209 0.010834
0.009482 0.582407 0.002274
0.055707 0.582217 0.003193
0.127983 0.581932 0.003229
0.205901 0.58153 0.003284
0.282319 0.580983 0.003357
0.35791 0.580368 0.003453
0.432885 0.579613 0.003563
0.507371 0.578808 0.003701
0.581443 0.577938 0.003849
0.655079 0.576945 0.004025
0.728342 0.575878 0.004219
0.801209 0.575004 0.004431
0.873938 0.574031 0.004666
0.949416 0.573199 0.004933
0.995718 0.5725 0.005105
0.000091 0.655988 0.011846
0.009321 0.656147 0.002864
0.055041 0.656108 0.003813
0.126663 0.655805 0.00385
0.204166 0.655506 0.003905
0.280308 0.654996 0.003977
0.355606 0.654479 0.004063
0.43036 0.654075 0.004174
0.504734 0.653411 0.004304
0.578688 0.652725 0.004454
0.652407 0.652015 0.004623
0.725795 0.651263 0.004811
0.798697 0.650419 0.00502
0.871769 0.649674 0.00525
0.947103 0.649102 0.005509
0.994731 0.648544 0.005686
0.000614 0.730325 0.012928
0.009215 0.730554 0.003514
0.054573 0.730426 0.004497
0.125678 0.730314 0.004529
0.202889 0.730182 0.004579
0.278749 0.729813 0.004649
0.353813 0.729531 0.004735
0.428422 0.728925 0.004842
0.502676 0.728673 0.004969
0.576657 0.728126 0.005111
0.650288 0.727552 0.005281
0.723893 0.727114 0.005462
0.796817 0.726529 0.005669
0.870116 0.726079 0.005895
0.945644 0.725494 0.006149
0.993951 0.72531 0.006325
0.001119 0.805258 0.014123
0.009123 0.805504 0.004203
0.054221 0.805491 0.005227
0.124947 0.805297 0.005261
0.201952 0.805135 0.005311
0.277619 0.805095 0.005378
0.352555 0.804779 0.005459
0.427057 0.804358 0.005567
0.501277 0.804169 0.005689
0.575193 0.803772 0.005832
0.648876 0.803495 0.005994
0.722426 0.803197 0.006176
0.7956 0.802788 0.006377
0.868843 0.802625 0.006597
0.944845 0.802131 0.00685
0.993156 0.802076 0.007019
0.001644 0.881174 0.015533
0.009004 0.881417 0.004932
0.053968 0.881377 0.00602
0.124433 0.881348 0.006052
0.201259 0.881299 0.006102
0.276884 0.881137 0.006167
0.351753 0.880932 0.006252
0.426141 0.880785 0.006351
0.500303 0.880553 0.006473
0.574184 0.880463 0.006611
0.647942 0.880359 0.006771
0.721671 0.880058 0.006947
0.79489 0.880025 0.00715
0.868476 0.880033 0.007363
0.944544 0.880016 0.007616
0.992394 0.8803 0.007785
-0.034963 0.96094 0.007828
0.003144 0.961168 -0.040018
0.049497 0.961093 -0.03741
0.120632 0.961113 -0.037486
0.198608 0.961006 -0.037595
0.27478 0.96114 -0.037741
0.35002 0.960988 -0.037904
0.424681 0.960996 -0.038037
0.49911 0.960874 -0.038051
0.573233 0.960873 -0.037836
0.647217 0.960849 -0.037266
0.721238 0.960925 -0.036138
0.794889 0.961019 -0.034115
0.868603 0.96068 -0.030608
0.944044 0.959969 -0.024034
0.991734 0.958116 -0.01483
0.052319 1.054192 0.09431
0.059831 1.054187 0.091958
0.09743 1.054186 0.092339
0.156395 1.054189 0.09265
0.222053 1.054191 0.093226
0.290597 1.054192 0.094016
0.360807 1.054196 0.09504
0.431845 1.054202 0.096112
0.503469 1.054207 0.097081
0.575308 1.054211 0.097694
0.647048 1.054212 0.097725
0.718706 1.054209 0.096783
0.789834 1.054209 0.094397
0.860344 1.05423 0.089808
0.932052 1.054293 0.082003
0.989083 1.054395 0.068389
-0.047879 -0.365166 0.024881
0.00667 -0.365079 0.027426
0.058819 -0.364896 0.030414
0.14191 -0.364663 0.032127
0.227694 -0.364639 0.032687
0.30981 -0.364598 0.032688
0.389004 -0.364605 0.032471
0.465861 -0.364575 0.032167
0.540902 -0.364544 0.031858
0.614349 -0.36451 0.031593
0.686645 -0.36453 0.031435
0.758253 -0.364489 0.031413
0.82895 -0.364445 0.031601
0.899423 -0.364395 0.032095
0.973008 -0.364406 0.032868
1.001927 -0.364402 0.033552
-0.022806 0.010818 0.034805
0.011168 0.011377 0.039027
0.103422 -0.022518 0.016414
0.183069 -0.046339 0.004164
0.256618 -0.048239 0.000893
0.330573 -0.047961 -0.005339
0.404386 -0.04731 -0.004233
0.477492 -0.04658 0.00047
0.549826 -0.045846 0.001057
0.621434 -0.04512 0.001645
0.692128 -0.044407 0.002214
0.762623 -0.043706 0.002763
0.832471 -0.043006 0.003292
0.902292 -0.042309 0.003801
0.975898 -0.042335 0.003808
1.003227 -0.027582 0.010947
-0.014147 0.059227 0.037501
-0.053027 0.065744 0.003932
0.064873 0.062102 0.001129
0.157097 0.056926 0.001673
0.241728 0.05292 0.001301
0.321187 0.050053 0.001018
0.39784 0.047913 0.000856
0.472616 0.046234 0.000808
0.546023 0.044864 0.00085
0.618263 0.04372 0.000948
0.689877 0.042749 0.001102
0.760529 0.041933 0.001294
0.830816 0.04124 0.001515
0.901071 0.040648 0.001768
0.974823 0.040003 0.001432
1.003001 0.041997 0.009544
0.000127 0.135404 0.038649
-0.048643 0.140442 0.003714
0.055553 0.139229 0.000556
0.144796 0.137007 0.001375
0.23065 0.133328 0.001328
0.311712 0.13003 0.001302
0.389824 0.127084 0.001317
0.465783 0.124395 0.001379
0.540184 0.121986 0.001489
0.613225 0.11983 0.001636
0.685551 0.117915 0.001815
0.756884 0.116215 0.002023
0.827662 0.114704 0.002255
0.898198 0.113364 0.002517
0.972186 0.112175 0.0026
1.003241 0.111299 0.002902
0.00034 0.212975 0.038841
-0.046357 0.216479 0.004685
0.051187 0.215936 0.000228
0.136441 0.214528 0.001289
0.222629 0.212794 0.001324
0.303564 0.20987 0.001376
0.382022 0.20719 0.001452
0.458573 0.204625 0.001544
0.533542 0.202197 0.001675
0.607286 0.199873 0.001832
0.680083 0.197785 0.002015
0.752211 0.195795 0.002223
0.823514 0.194044 0.002454
0.894647 0.192462 0.002711
0.969011 0.191101 0.002996
1.003039 0.190108 0.003124
0.000526 0.288297 0.038903
-0.044652 0.290771 0.005944
0.048344 0.290537 0.000291
0.13068 0.289542 0.001478
0.21552 0.288158 0.001526
0.296722 0.286593 0.001605
0.375026 0.284077 0.00169
0.451578 0.28173 0.001807
0.526915 0.279478 0.00194
0.601093 0.277243 0.002101
0.674448 0.275215 0.002285
0.747127 0.273211 0.002492
0.818966 0.271446 0.002723
0.890464 0.269779 0.002975
0.965126 0.268306 0.003264
1.00168 0.267214 0.00342
0.000731 0.362205 0.038979
-0.043155 0.36418 0.007175
0.04626 0.36404 0.000552
0.126333 0.363263 0.001797
0.210146 0.362247 0.001853
0.290563 0.360923 0.00193
0.368954 0.359438 0.00203
0.445498 0.357336 0.002145
0.520856 0.355263 0.002282
0.59535 0.353269 0.002441
0.668869 0.351351 0.002626
0.74182 0.349478 0.002831
0.814191 0.347791 0.003056
0.886298 0.346169 0.003304
0.96117 0.344582 0.003584
1.00029 0.34359 0.003748
0.000964 0.435523 0.039106
-0.041736 0.437099 0.008309
0.044701 0.437063 0.000935
0.122991 0.436477 0.002209
0.205976 0.435646 0.002265
0.285634 0.434603 0.002345
0.363466 0.433373 0.002439
0.440112 0.432018 0.002562
0.515525 0.43016 0.002694
0.590022 0.428496 0.002854
0.663886 0.426746 0.003034
0.737194 0.42512 0.003232
0.809661 0.423535 0.003454
0.88211 0.42203 0.003699
0.957292 0.420683 0.003975
0.999768 0.419642 0.004137
0.001223 0.508722 0.039303
-0.040338 0.510077 0.00936
0.04355 0.510058 0.001413
0.120378 0.509572 0.002697
0.202622 0.508976 0.002755
0.281695 0.508175 0.00283
0.35916 0.507158 0.002922
0.435389 0.506037 0.00304
0.510939 0.50487 0.003176
0.585454 0.503363 0.003328
0.659345 0.50188 0.003501
0.732855 0.500445 0.003702
0.805663 0.499116 0.003918
0.878483 0.497828 0.004155
0.953901 0.49658 0.004425
0.998361 0.495657 0.004595
0.001512 0.582029 0.039593
-0.038919 0.583227 0.010357
0.042689 0.583267 0.00196
0.118394 0.582893 0.003251
0.200039 0.582507 0.003306
0.278683 0.581763 0.003379
0.355608 0.581117 0.003471
0.431669 0.580198 0.003581
0.50695 0.579204 0.003715
0.581639 0.578314 0.003868
0.655511 0.577034 0.004037
0.729142 0.575791 0.004232
0.802198 0.574684 0.00444
0.875213 0.573612 0.004677
0.950755 0.57251 0.004939
0.997125 0.571832 0.00511
0.001829 0.655933 0.039976
-0.037425 0.656866 0.011361
0.042068 0.65699 0.002568
0.116929 0.656656 0.003864
0.198106 0.656373 0.003919
0.276328 0.655787 0.003989
0.352974 0.655199 0.004075
0.428704 0.654686 0.004187
0.503843 0.654002 0.004315
0.578378 0.653171 0.004465
0.652563 0.652351 0.004632
0.726404 0.651318 0.004821
0.799461 0.650343 0.005027
0.872678 0.649562 0.005257
0.948197 0.648775 0.005515
0.996022 0.648076 0.005691
0.00218 0.730322 0.040515
-0.0358 0.73108 0.012439
0.041608 0.731267 0.003228
0.1158 0.73106 0.004538
0.196582 0.731007 0.004589
0.274502 0.730423 0.004657
0.350942 0.730124 0.004745
0.426482 0.729614 0.00485
0.501445 0.728873 0.004978
0.575942 0.728439 0.00512
0.650046 0.727921 0.005289
0.723857 0.727473 0.005469
0.797324 0.72664 0.005676
0.870698 0.725989 0.0059
0.946438 0.725414 0.006152
0.994861 0.724903 0.006329
0.002562 0.80517 0.04122
-0.033989 0.805941 0.013639
0.041273 0.806126 0.003925
0.114958 0.805947 0.005268
0.195547 0.805875 0.005319
0.273212 0.805635 0.005384
0.349409 0.805355 0.005465
0.424848 0.805109 0.005572
0.499699 0.804605 0.005694
0.574128 0.80424 0.005837
0.648248 0.803792 0.005999
0.722221 0.803477 0.006181
0.795776 0.803082 0.006382
0.869317 0.802727 0.006602
0.945344 0.802171 0.006854
0.993852 0.80203 0.007024
0.002981 0.881225 0.042156
-0.031907 0.881866 0.015055
0.040989 0.882082 0.004665
0.114354 0.88192 0.006055
0.194755 0.881848 0.006104
0.272287 0.881758 0.006171
0.348426 0.881428 0.006256
0.423674 0.881287 0.006355
0.498535 0.881075 0.006476
0.572996 0.88093 0.006615
0.647048 0.880571 0.006776
0.72119 0.880395 0.00695
0.794756 0.880273 0.007152
0.868501 0.880084 0.007368
0.944891 0.880072 0.007617
0.992932 0.880325 0.007787
-0.030715 0.961014 0.035825
-0.0518 0.961686 0.00557
0.03542 0.961858 -0.0467
0.10948 0.961866 -0.044048
0.191396 0.961677 -0.04414
0.269661 0.961761 -0.044262
0.346262 0.961648 -0.0444
0.421875 0.961523 -0.044508
0.497002 0.961568 -0.044508
0.571711 0.961317 -0.044326
0.646159 0.961319 -0.043845
0.720646 0.961237 -0.042912
0.794596 0.961267 -0.041262
0.868452 0.960933 -0.03851
0.943969 0.959961 -0.033774
0.991949 0.958119 -0.028481
0.052634 1.054183 0.106531
0.058014 1.054158 0.101057
0.094358 1.054168 0.099102
0.154285 1.054141 0.099636
0.220499 1.054145 0.100188
0.289445 1.054149 0.101038
0.359899 1.054155 0.102135
0.431166 1.054163 0.103335
0.502936 1.054168 0.104406
0.574846 1.054174 0.10515
0.646713 1.054181 0.105273
0.718468 1.054184 0.104419
0.789587 1.054191 0.102125
0.860111 1.054219 0.097653
0.931983 1.054289 0.090048
0.989008 1.054395 0.076573
-0.047223 -0.365097 0.113879
0.008024 -0.36496 0.113707
0.060243 -0.364774 0.118159
0.142768 -0.364667 0.122653
0.227965 -0.364633 0.124434
0.309812 -0.364596 0.124397
0.388943 -0.364604 0.123515
0.465715 -0.364575 0.122199
0.540704 -0.364544 0.12076
0.61429 -0.36451 0.11933
0.686445 -0.36453 0.117994
0.758013 -0.364489 0.116875
0.828741 -0.364444 0.11602
0.899352 -0.364394 0.115478
0.972898 -0.364404 0.115291
1.001866 -0.364396 0.115291
-0.020314 0.011266 0.114921
0.003961 0.005344 0.194167
0.093598 -0.032807 0.164188
0.174541 -0.038475 0.135523
0.248699 -0.030631 0.122879
0.323479 -0.02136 0.116532
0.398341 -0.013935 0.112409
0.472348 -0.006977 0.109305
0.545516 0.000141 0.106812
0.617694 0.000305 0.10478
0.689001 0.00043 0.1031
0.759879 0.000542 0.101676
0.830123 0.000651 0.100493
0.900196 0.000762 0.099489
0.974559 -0.013746 0.097152
1.002838 0.000573 0.097379
-0.011617 0.05944 0.119698
-0.046904 0.06381 0.127445
0.059415 0.060406 0.131091
0.20068 0.037284 0.097067
0.305542 0.01171 0.053101
0.382272 -0.025839 0.02779
0.450919 -0.050285 0.014782
0.517988 -0.056827 0.007776
0.584808 -0.059068 0.003851
0.651719 -0.059672 0.00159
0.718758 -0.059568 0.000234
0.786302 -0.059149 -0.0092
0.853669 -0.058576 -0.009868
0.921299 -0.057952 -0.007627
0.994225 -0.064986 -0.041761
1.001797 0.031599 0.076075
0.00014 0.135369 0.121676
-0.030698 0.138894 0.114813
-0.046376 0.153228 0.036626
0.144793 0.14301 0.021223
0.252679 0.127315 0.019777
0.34124 0.114917 0.013635
0.421111 0.105066 0.009368
0.496139 0.097379 0.006415
0.568584 0.091493 0.004443
0.639437 0.087006 0.003164
0.709309 0.083509 0.002381
0.778682 0.080766 0.001939
0.847455 0.078572 0.001748
0.916397 0.076791 0.001731
0.990403 0.072557 -0.044294
1.001649 0.103321 0.074407
0.000346 0.212874 0.120477
-0.012341 0.215123 0.110472
-0.061045 0.226971 0.018218
0.111598 0.222997 0.007926
0.224466 0.217495 0.00842
0.315283 0.20841 0.007832
0.398755 0.20112 0.006443
0.477515 0.194749 0.005192
0.553191 0.189257 0.004289
0.626644 0.184573 0.003682
0.698742 0.180598 0.003307
0.769912 0.177153 0.003117
0.840149 0.174205 0.003072
0.910198 0.171737 0.003132
0.98473 0.168059 -0.039121
1.002087 0.183043 0.068785
0.00053 0.288096 0.118658
0.000308 0.289806 0.106909
-0.060296 0.29883 0.013344
0.096631 0.296827 0.003393
0.205266 0.293554 0.00518
0.298492 0.289829 0.004699
0.382418 0.283855 0.004305
0.462436 0.278759 0.003952
0.539687 0.27408 0.003558
0.614829 0.269823 0.003302
0.688501 0.266049 0.003163
0.760993 0.262645 0.003126
0.83251 0.259667 0.003175
0.903514 0.257001 0.003295
0.978716 0.253912 -0.034177
1.002621 0.260621 0.059942
0.000736 0.362076 0.116858
0.000666 0.363406 0.104262
-0.058848 0.370535 0.011845
0.088487 0.369405 0.00133
0.193757 0.367229 0.003719
0.285047 0.364632 0.003582
0.37034 0.361791 0.003456
0.450549 0.3575 0.003322
0.528383 0.35354 0.003264
0.604328 0.349927 0.003204
0.678904 0.346594 0.003204
0.752424 0.343481 0.003265
0.82489 0.340653 0.003377
0.896855 0.3381 0.003538
0.972287 0.335451 -0.025205
1.003172 0.337519 0.046989
0.000968 0.435366 0.115405
0.00094 0.436491 0.10235
-0.057322 0.442259 0.011636
0.083371 0.441651 0.000549
0.18604 0.440115 0.003245
0.275875 0.438245 0.003232
0.360088 0.436154 0.003234
0.441212 0.43386 0.003255
0.519191 0.430534 0.003268
0.595532 0.427507 0.003327
0.670501 0.424566 0.003413
0.744727 0.421845 0.003525
0.817747 0.419299 0.00368
0.890529 0.41702 0.003867
0.966304 0.414728 0.000835
1.003715 0.41414 0.026831
0.001227 0.508633 0.11421
0.001218 0.509543 0.100957
-0.055868 0.514362 0.01194
0.079944 0.51397 0.00052
0.180631 0.512803 0.003282
0.269296 0.511511 0.003318
0.352669 0.50996 0.00337
0.433127 0.508236 0.003441
0.511762 0.506347 0.003532
0.588297 0.503744 0.003627
0.663634 0.501293 0.00375
0.738063 0.498937 0.003901
0.8117 0.496787 0.00407
0.884895 0.494694 0.004277
0.960666 0.492762 0.003804
1.004189 0.491383 0.002501
0.001516 0.581988 0.113368
0.001512 0.582846 0.10002
-0.054495 0.586858 0.012494
0.077572 0.586676 0.000912
0.176722 0.585844 0.003602
0.2645 0.584816 0.003659
0.347146 0.583696 0.003731
0.427088 0.582386 0.003818
0.505356 0.58091 0.003931
0.582314 0.579427 0.004061
0.657812 0.577414 0.004205
0.732422 0.575442 0.004365
0.806303 0.573591 0.004553
0.880105 0.571839 0.004762
0.955909 0.570152 0.005009
1.001664 0.569084 0.005169
0.001833 0.655932 0.112858
0.001833 0.656493 0.099443
-0.053158 0.6601 0.013212
0.075876 0.659887 0.001492
0.173816 0.659379 0.004089
0.260868 0.658628 0.004154
0.342955 0.657798 0.004235
0.422531 0.656793 0.004332
0.50043 0.655625 0.00445
0.577237 0.654447 0.004589
0.653108 0.653265 0.004746
0.728011 0.65169 0.004917
0.802073 0.65017 0.005107
0.875923 0.648759 0.005324
0.952194 0.647334 0.005568
1.000022 0.646416 0.005734
0.002183 0.730264 0.112619
0.002185 0.730912 0.099207
-0.051831 0.733978 0.01409
0.074639 0.733926 0.002164
0.171677 0.733587 0.004696
0.258181 0.732983 0.00476
0.33985 0.732369 0.004842
0.419008 0.73166 0.004944
0.496714 0.730961 0.005063
0.573315 0.729871 0.005204
0.649193 0.728908 0.005365
0.724419 0.728229 0.005544
0.79869 0.726897 0.005734
0.87277 0.72571 0.005951
0.949138 0.724669 0.006194
0.99793 0.723915 0.006365
0.002566 0.805241 0.112745
0.002567 0.805717 0.0993
-0.05047 0.8085 0.015155
0.07375 0.808584 0.002892
0.170127 0.808138 0.005383
0.256191 0.807894 0.005446
0.337537 0.807478 0.005533
0.41648 0.806831 0.005637
0.494001 0.80629 0.005752
0.570475 0.805734 0.005894
0.646199 0.805035 0.00605
0.721424 0.804295 0.006232
0.796174 0.803657 0.00643
0.870365 0.802785 0.006645
0.947123 0.802027 0.006886
0.996 0.801587 0.007056
0.002985 0.881188 0.113174
0.002986 0.881673 0.099754
-0.049037 0.884064 0.01647
0.073067 0.884166 0.003665
0.168986 0.883924 0.00615
0.254777 0.883626 0.006217
0.33584 0.883462 0.006298
0.414646 0.883066 0.006397
0.492032 0.882634 0.006518
0.568314 0.882341 0.006654
0.644109 0.881832 0.006814
0.719389 0.88151 0.006987
0.794157 0.881051 0.007189
0.868801 0.880714 0.007404
0.94591 0.880289 0.007649
0.994079 0.880315 0.00782
-0.030726 0.960999 0.108117
-0.03787 0.961632 0.09262
-0.069931 0.963955 -0.01293
0.064531 0.963941 -0.064416
0.162753 0.963885 -0.061357
0.250208 0.963609 -0.061437
0.33217 0.96349 -0.061532
0.411426 0.963386 -0.061599
0.489211 0.963056 -0.061597
0.56596 0.962884 -0.061454
0.642021 0.962643 -0.061111
0.717741 0.962356 -0.060457
0.792934 0.962314 -0.059338
0.867845 0.961794 -0.057544
0.944276 0.960641 -0.054663
0.992436 0.958617 -0.051807
0.052667 1.054184 0.156528
0.059579 1.054147 0.15415
0.085143 1.054054 0.138866
0.146427 1.054007 0.137785
0.215014 1.054009 0.138746
0.285374 1.054022 0.139594
0.356634 1.054037 0.140715
0.4286 1.054052 0.141901
0.500912 1.054069 0.142973
0.573278 1.054089 0.143768
0.645574 1.054111 0.143986
0.717425 1.054129 0.14332
0.788862 1.054149 0.141399
0.859643 1.054164 0.137516
0.931647 1.05425 0.130678
0.989041 1.054367 0.118181
-0.046744 -0.365053 0.222477
0.009489 -0.364891 0.220711
0.06247 -0.364685 0.224032
0.144477 -0.364633 0.228509
0.228753 -0.364627 0.230104
0.310047 -0.364595 0.229772
0.388924 -0.364605 0.22842
0.465571 -0.364576 0.226572
0.540544 -0.364545 0.224507
0.614036 -0.364511 0.222415
0.686221 -0.364531 0.22045
0.757728 -0.364491 0.218619
0.828449 -0.364446 0.217117
0.899168 -0.364396 0.215824
0.972729 -0.364402 0.214875
1.001912 -0.364388 0.214345
-0.017057 0.011829 0.216758
-0.036137 -0.025305 0.311623
0.081476 -0.036877 0.277468
0.168364 -0.033923 0.250208
0.245843 -0.026935 0.235119
0.322009 -0.019538 0.226889
0.397345 -0.01289 0.221337
0.471562 -0.005943 0.217083
0.544874 0.000159 0.213512
0.617201 0.000315 0.2105
0.688399 0.000438 0.20787
0.759459 0.000549 0.205597
0.829673 0.000657 0.203623
0.899915 0.000767 0.201907
0.974227 -0.013362 0.19967
1.002864 0.000242 0.1988
-0.007545 0.059638 0.220522
-0.042683 0.06118 0.241504
0.042876 0.045446 0.307565
0.197098 0.023866 0.290566
0.295345 0.009756 0.254762
0.371353 0.002692 0.227005
0.440579 0.000616 0.208025
0.508583 0.000253 0.195094
0.576658 0.000303 0.185777
0.644715 0.000409 0.17888
0.712764 0.000514 0.173499
0.780978 0.000613 0.169258
0.848978 0.000713 0.16589
0.917529 -0.008206 0.162325
0.99213 -0.045535 0.154461
1.001423 0.034343 0.188894
0.000172 0.135293 0.222021
-0.027464 0.13837 0.224339
-0.03838 0.148746 0.2394
0.131914 0.135556 0.233632
0.279704 0.108648 0.203379
0.398985 0.067636 0.155191
0.490731 0.034653 0.104022
