site/assets/luts/freshluts--0002277-picturefx-lac-du-connemara.cube
# LUTr-Schema-Version: 2
# LUTr-ID: freshluts--0002277-picturefx-lac-du-connemara
# LUTr-Title: PictureFX Lac du Connemara
# LUTr-Collection: Fresh LUTs
# LUTr-Collection-ID: freshluts-community
# LUTr-Source: https://freshluts.com
# LUTr-Retrieved: 2026-07-27
# LUTr-Source-File: submissions-raw/freshluts/cubes/2277__PictureFX-Lac-du-Connemara.cube
# LUTr-Source-Format: CUBE
# LUTr-Source-SHA256: e402155d753ef647fefee141136a681e18b38a3101062120c11208d7e8cc8bb3
# LUTr-License: CC0-1.0
# LUTr-License-URL: https://freshluts.com/termsandconditions
# LUTr-License-Basis: site-terms
# LUTr-Transform-Class: creative-look
# LUTr-Tags: creative, freshluts, community, cube, warm
# LUTr-Input-Color-Space:
# LUTr-Input-Gamut: unspecified
# LUTr-Input-Transfer: unspecified
# LUTr-Output-Color-Space: srgb
# LUTr-Output-Gamut: rec709
# LUTr-Output-Transfer: srgb
# LUTr-Color-Space-Confidence: camera-profile-input-required
# LUTr-Domain-Normalized: true
# LUTr-Shaper: none
# LUTr-Original-Grid: 25x25x25
# LUTr-Conversion-Grid: 25x25x25
# LUTr-Conversion-Interpolation: none
# LUTr-Conversion-Method: Metadata normalization; numeric LUT samples preserved
# LUTr-Conversion-Tool: LUTr scripts/convert-all-to-cube.mjs 2.0.0
# LUTr-Conversion-Date: 2026-07-28
# LUTr-Asset-URL: https://freshluts.com/luts/2277
# LUTr-Author: MarcR.
# LUTr-Author-URL: https://freshluts.com/users/86490
# LUTr-Attribution: MarcR. via Fresh LUTs
# LUTr-Source-Labels: gamma=Other; color=Warm; key=Neutral; style=NEUTRAL
# LUTr-Note: Preserve this metadata and the upstream license notices when redistributing.
# LUTr-Upstream-Comment: Generated with IWLTBAP LUT Generator
# LUTr-Upstream-Comment: Website: http://luts.iwltbap.com
# LUTr-Upstream-Comment: LUT size
# LUTr-Upstream-Comment: LUT data points
TITLE "PictureFX Lac du Connemara"
LUT_3D_SIZE 9
DOMAIN_MIN 0 0 0
DOMAIN_MAX 1 1 1
0.011765 0.011765 0.011765
0.090196 0.015686 0.019608
0.196078 0.019608 0.027451
0.341176 0.011765 0.023529
0.482353 0 0.031373
0.584314 0 0.043137
0.658824 0 0.054902
0.694118 0 0.066667
0.698039 0 0.082353
0.031373 0.086275 0.015686
0.094118 0.090196 0.019608
0.203922 0.090196 0.015686
0.352941 0.078431 0.015686
0.494118 0.035294 0.023529
0.588235 0.015686 0.035294
0.658824 0 0.047059
0.686275 0 0.058824
0.686275 0 0.07451
0.047059 0.180392 0.023529
0.109804 0.184314 0.019608
0.231373 0.192157 0.015686
0.388235 0.188235 0
0.533333 0.164706 0.007843
0.635294 0.117647 0.019608
0.705882 0.090196 0.035294
0.741176 0.047059 0.05098
0.733333 0.031373 0.07451
0.066667 0.286275 0.011765
0.101961 0.298039 0.007843
0.258824 0.313725 0
0.419608 0.321569 0
0.564706 0.309804 0
0.666667 0.290196 0
0.752941 0.278431 0
0.784314 0.266667 0.011765
0.788235 0.258824 0.031373
0.078431 0.415686 0
0.113725 0.431373 0
0.290196 0.454902 0
0.462745 0.470588 0
0.615686 0.47451 0
0.729412 0.458824 0
0.823529 0.447059 0
0.858824 0.447059 0
0.862745 0.443137 0
0.082353 0.537255 0
0.196078 0.54902 0
0.333333 0.576471 0
0.501961 0.607843 0
0.658824 0.619608 0
0.780392 0.615686 0
0.87451 0.619608 0
0.894118 0.615686 0
0.894118 0.6 0
0.176471 0.647059 0
0.239216 0.658824 0
0.368627 0.686275 0
0.52549 0.717647 0
0.678431 0.737255 0
0.788235 0.752941 0
0.894118 0.760784 0
0.898039 0.756863 0
0.898039 0.694118 0
0.286275 0.756863 0
0.341176 0.764706 0
0.435294 0.788235 0
0.568627 0.811765 0
0.701961 0.827451 0
0.792157 0.847059 0
0.890196 0.858824 0
0.898039 0.862745 0
0.901961 0.788235 0
0.301961 0.756863 0
0.337255 0.764706 0
0.411765 0.784314 0
0.517647 0.8 0
0.635294 0.815686 0
0.733333 0.827451 0
0.811765 0.847059 0
0.894118 0.858824 0
0.894118 0.858824 0
0.011765 0.011765 0.094118
0.082353 0.015686 0.098039
0.192157 0.019608 0.098039
0.341176 0.011765 0.094118
0.486275 0 0.078431
0.584314 0 0.078431
0.662745 0 0.082353
0.698039 0 0.109804
0.698039 0 0.14902
0.007843 0.086275 0.090196
0.090196 0.086275 0.090196
0.2 0.090196 0.094118
0.352941 0.078431 0.086275
0.498039 0.035294 0.070588
0.588235 0.011765 0.07451
0.654902 0 0.082353
0.686275 0 0.101961
0.690196 0 0.141176
0.039216 0.180392 0.082353
0.098039 0.184314 0.086275
0.227451 0.192157 0.082353
0.388235 0.196078 0.058824
0.537255 0.168627 0.054902
0.639216 0.121569 0.062745
0.709804 0.098039 0.078431
0.745098 0.066667 0.105882
0.737255 0.031373 0.141176
0.062745 0.290196 0.043137
0.094118 0.301961 0.035294
0.254902 0.317647 0.019608
0.419608 0.32549 0.019608
0.568627 0.317647 0.023529
0.67451 0.298039 0.027451
0.760784 0.282353 0.031373
0.788235 0.270588 0.043137
0.792157 0.262745 0.078431
0.078431 0.411765 0
0.101961 0.431373 0
0.286275 0.454902 0
0.462745 0.470588 0
0.615686 0.47451 0
0.737255 0.466667 0
0.835294 0.462745 0
0.870588 0.458824 0
0.870588 0.454902 0
0.054902 0.537255 0
0.184314 0.54902 0
0.329412 0.572549 0
0.498039 0.607843 0
0.654902 0.619608 0
0.780392 0.615686 0
0.87451 0.619608 0
0.898039 0.631373 0
0.898039 0.619608 0
0.168627 0.647059 0
0.231373 0.662745 0
0.364706 0.686275 0
0.521569 0.717647 0
0.678431 0.737255 0
0.788235 0.752941 0
0.894118 0.760784 0
0.898039 0.756863 0
0.898039 0.717647 0
0.286275 0.752941 0
0.337255 0.760784 0
0.435294 0.788235 0
0.568627 0.811765 0
0.701961 0.827451 0
0.792157 0.847059 0
0.890196 0.858824 0
0.898039 0.862745 0
0.901961 0.807843 0
0.313725 0.756863 0
0.341176 0.768627 0
0.415686 0.784314 0
0.52549 0.803922 0
0.639216 0.815686 0
0.737255 0.827451 0
0.811765 0.85098 0
0.898039 0.858824 0
0.894118 0.882353 0
0 0.011765 0.203922
0.054902 0.011765 0.203922
0.176471 0.015686 0.207843
0.333333 0.011765 0.207843
0.482353 0 0.203922
0.588235 0 0.203922
0.662745 0 0.215686
0.701961 0 0.231373
0.701961 0 0.25098
0 0.078431 0.196078
0.058824 0.078431 0.2
0.184314 0.082353 0.203922
0.345098 0.070588 0.203922
0.490196 0.027451 0.2
0.588235 0.003922 0.196078
0.654902 0 0.207843
0.694118 0 0.223529
0.694118 0 0.243137
0.011765 0.176471 0.2
0.066667 0.180392 0.203922
0.207843 0.192157 0.207843
0.380392 0.196078 0.203922
0.537255 0.172549 0.2
0.639216 0.12549 0.203922
0.713725 0.090196 0.215686
0.74902 0.054902 0.235294
0.745098 0.003922 0.254902
0.05098 0.294118 0.184314
0.082353 0.301961 0.184314
0.227451 0.32549 0.184314
0.411765 0.333333 0.176471
0.568627 0.32549 0.164706
0.678431 0.305882 0.168627
0.760784 0.286275 0.184314
0.8 0.278431 0.207843
0.8 0.262745 0.235294
0.066667 0.423529 0.141176
0.082353 0.435294 0.137255
0.254902 0.466667 0.105882
0.45098 0.490196 0.05098
0.619608 0.498039 0.011765
0.741176 0.490196 0
0.843137 0.482353 0.031373
0.878431 0.478431 0.098039
0.882353 0.470588 0.156863
0 0.541176 0.007843
0.109804 0.560784 0
0.301961 0.588235 0
0.490196 0.623529 0
0.658824 0.643137 0
0.780392 0.65098 0
0.878431 0.662745 0
0.901961 0.670588 0
0.901961 0.65098 0
0.117647 0.65098 0
0.2 0.666667 0
0.341176 0.694118 0
0.513725 0.729412 0
0.67451 0.756863 0
0.784314 0.780392 0
0.894118 0.796078 0
0.901961 0.803922 0
0.905882 0.756863 0
0.27451 0.74902 0
0.321569 0.760784 0
0.423529 0.788235 0
0.564706 0.807843 0
0.698039 0.827451 0
0.792157 0.847059 0
0.886275 0.886275 0
0.898039 0.905882 0
0.909804 0.854902 0
0.329412 0.760784 0
0.356863 0.772549 0
0.427451 0.784314 0
0.529412 0.811765 0
0.643137 0.839216 0
0.733333 0.866667 0
0.807843 0.898039 0
0.901961 0.921569 0
0.905882 0.933333 0
0 0 0.337255
0 0 0.337255
0.145098 0 0.34902
0.313725 0 0.352941
0.47451 0 0.34902
0.584314 0 0.345098
0.666667 0 0.34902
0.705882 0 0.356863
0.705882 0 0.372549
0 0.043137 0.333333
0.003922 0.039216 0.333333
0.156863 0.035294 0.345098
0.321569 0.023529 0.34902
0.478431 0.011765 0.341176
0.576471 0 0.337255
0.654902 0 0.341176
0.698039 0 0.34902
0.698039 0 0.360784
0 0.164706 0.345098
0.039216 0.168627 0.34902
0.164706 0.184314 0.360784
0.360784 0.188235 0.364706
0.52549 0.160784 0.360784
0.635294 0.105882 0.360784
0.717647 0.058824 0.364706
0.74902 0.003922 0.372549
0.741176 0 0.384314
0.019608 0.290196 0.341176
0.062745 0.298039 0.345098
0.141176 0.321569 0.352941
0.384314 0.341176 0.356863
0.560784 0.329412 0.34902
0.67451 0.305882 0.34902
0.764706 0.286275 0.352941
0.811765 0.27451 0.368627
0.803922 0.258824 0.384314
0.043137 0.423529 0.333333
0.062745 0.435294 0.333333
0.141176 0.478431 0.333333
0.419608 0.509804 0.321569
0.607843 0.517647 0.313725
0.741176 0.505882 0.309804
0.85098 0.494118 0.317647
0.894118 0.490196 0.337255
0.894118 0.482353 0.356863
0 0.545098 0.301961
0 0.568627 0.298039
0.196078 0.611765 0.282353
0.447059 0.654902 0.258824
0.643137 0.682353 0.231373
0.788235 0.686275 0.223529
0.894118 0.694118 0.231373
0.929412 0.694118 0.254902
0.929412 0.67451 0.298039
0 0.67451 0.223529
0 0.694118 0.211765
0.243137 0.733333 0.180392
0.466667 0.784314 0.117647
0.658824 0.811765 0.035294
0.796078 0.827451 0
0.909804 0.839216 0
0.929412 0.843137 0.086275
0.933333 0.788235 0.227451
0.023529 0.807843 0.098039
0.180392 0.819608 0.07451
0.345098 0.847059 0
0.521569 0.882353 0
0.682353 0.905882 0
0.8 0.929412 0
0.905882 0.945098 0
0.929412 0.952941 0
0.937255 0.886275 0.196078
0.266667 0.847059 0.090196
0.313725 0.847059 0.086275
0.396078 0.866667 0.043137
0.517647 0.886275 0
0.639216 0.909804 0
0.74902 0.92549 0
0.835294 0.941176 0
0.929412 0.956863 0.062745
0.937255 0.964706 0.160784
0 0 0.462745
0 0 0.462745
0.086275 0 0.470588
0.278431 0 0.482353
0.454902 0 0.482353
0.576471 0 0.478431
0.662745 0 0.478431
0.709804 0 0.482353
0.709804 0 0.490196
0 0.011765 0.454902
0 0.007843 0.454902
0.090196 0 0.462745
0.278431 0 0.47451
0.45098 0 0.47451
0.568627 0 0.466667
0.654902 0 0.466667
0.701961 0 0.47451
0.701961 0 0.482353
0 0.133333 0.482353
0 0.129412 0.482353
0.098039 0.14902 0.498039
0.32549 0.160784 0.509804
0.509804 0.12549 0.513725
0.623529 0.066667 0.505882
0.709804 0.007843 0.501961
0.74902 0 0.505882
0.741176 0 0.509804
0 0.278431 0.486275
0.007843 0.282353 0.490196
0.086275 0.305882 0.505882
0.337255 0.333333 0.517647
0.537255 0.32549 0.517647
0.670588 0.298039 0.517647
0.768627 0.27451 0.521569
0.815686 0.258824 0.529412
0.811765 0.243137 0.537255
0 0.411765 0.494118
0 0.427451 0.501961
0.015686 0.466667 0.513725
0.356863 0.509804 0.517647
0.584314 0.52549 0.517647
0.737255 0.513725 0.517647
0.854902 0.498039 0.52549
0.909804 0.490196 0.537255
0.905882 0.478431 0.54902
0 0.533333 0.490196
0 0.556863 0.494118
0 0.615686 0.498039
0.380392 0.670588 0.494118
0.623529 0.705882 0.490196
0.792157 0.709804 0.490196
0.917647 0.709804 0.494118
0.956863 0.709804 0.509804
0.956863 0.690196 0.533333
0 0.666667 0.462745
0 0.694118 0.462745
0 0.756863 0.454902
0.403922 0.811765 0.447059
0.639216 0.843137 0.435294
0.811765 0.858824 0.431373
0.937255 0.866667 0.435294
0.964706 0.866667 0.454902
0.964706 0.815686 0.501961
0 0.827451 0.427451
0 0.847059 0.427451
0.227451 0.882353 0.419608
0.478431 0.921569 0.407843
0.670588 0.94902 0.403922
0.819608 0.968627 0.403922
0.937255 0.976471 0.415686
0.964706 0.972549 0.439216
0.968627 0.909804 0.494118
0.298039 0.901961 0.427451
0.341176 0.901961 0.427451
0.427451 0.917647 0.423529
0.541176 0.937255 0.419608
0.662745 0.952941 0.423529
0.772549 0.964706 0.431373
0.870588 0.972549 0.439216
0.960784 0.980392 0.458824
0.968627 0.984314 0.490196
0.003922 0 0.560784
0.003922 0 0.560784
0.007843 0 0.560784
0.211765 0 0.584314
0.423529 0 0.592157
0.564706 0 0.592157
0.654902 0 0.592157
0.713725 0 0.592157
0.713725 0 0.6
0 0 0.552941
0 0 0.552941
0.031373 0 0.552941
0.211765 0 0.576471
0.419608 0 0.584314
0.556863 0 0.580392
0.647059 0 0.580392
0.705882 0 0.584314
0.705882 0 0.588235
0 0.094118 0.588235
0 0.094118 0.588235
0.047059 0.098039 0.596078
0.262745 0.113725 0.619608
0.47451 0.078431 0.631373
0.603922 0.039216 0.623529
0.698039 0 0.623529
0.745098 0 0.619608
0.737255 0 0.619608
0 0.262745 0.603922
0 0.262745 0.603922
0 0.278431 0.623529
0.25098 0.317647 0.65098
0.501961 0.305882 0.666667
0.65098 0.278431 0.662745
0.752941 0.247059 0.658824
0.815686 0.227451 0.670588
0.811765 0.207843 0.67451
0 0.396078 0.623529
0 0.4 0.627451
0 0.435294 0.654902
0.215686 0.498039 0.682353
0.541176 0.513725 0.701961
0.721569 0.501961 0.705882
0.847059 0.482353 0.709804
0.909804 0.47451 0.713725
0.905882 0.462745 0.717647
0 0.513725 0.639216
0 0.533333 0.65098
0 0.580392 0.670588
0.227451 0.666667 0.694118
0.572549 0.705882 0.705882
0.776471 0.713725 0.709804
0.917647 0.709804 0.713725
0.972549 0.705882 0.721569
0.976471 0.709804 0.733333
0 0.643137 0.643137
0 0.670588 0.647059
0 0.737255 0.662745
0.27451 0.807843 0.67451
0.596078 0.854902 0.682353
0.8 0.870588 0.686275
0.94902 0.87451 0.690196
0.988235 0.87451 0.698039
0.988235 0.835294 0.721569
0 0.819608 0.647059
0 0.847059 0.65098
0 0.890196 0.654902
0.4 0.937255 0.658824
0.647059 0.972549 0.662745
0.819608 0.988235 0.670588
0.952941 0.992157 0.67451
0.988235 0.984314 0.690196
0.992157 0.92549 0.721569
0.431373 0.945098 0.662745
0.458824 0.94902 0.662745
0.521569 0.956863 0.666667
0.611765 0.968627 0.670588
0.709804 0.980392 0.67451
0.803922 0.988235 0.682353
0.898039 0.992157 0.690196
0.980392 0.996078 0.701961
0.992157 0.992157 0.717647
0 0 0.65098
0 0 0.65098
0 0 0.65098
0.101961 0 0.67451
0.392157 0 0.694118
0.552941 0 0.698039
0.654902 0 0.698039
0.72549 0 0.705882
0.72549 0 0.709804
0 0 0.639216
0 0 0.639216
0 0 0.643137
0.098039 0 0.666667
0.380392 0 0.686275
0.545098 0 0.690196
0.647059 0 0.690196
0.717647 0 0.698039
0.717647 0 0.701961
0 0.070588 0.67451
0 0.070588 0.67451
0 0.070588 0.67451
0.152941 0.086275 0.705882
0.423529 0.062745 0.72549
0.584314 0.003922 0.72549
0.682353 0 0.721569
0.737255 0 0.713725
0.721569 0 0.705882
0 0.247059 0.694118
0 0.247059 0.694118
0 0.247059 0.698039
0.019608 0.290196 0.741176
0.435294 0.290196 0.772549
0.623529 0.258824 0.784314
0.737255 0.223529 0.780392
0.811765 0.2 0.784314
0.811765 0.176471 0.792157
0 0.384314 0.729412
0 0.384314 0.729412
0 0.4 0.74902
0 0.466667 0.796078
0.462745 0.494118 0.831373
0.682353 0.482353 0.843137
0.823529 0.462745 0.847059
0.905882 0.45098 0.854902
0.905882 0.443137 0.854902
0 0.482353 0.737255
0 0.494118 0.74902
0 0.541176 0.784314
0 0.635294 0.831373
0.490196 0.694118 0.862745
0.737255 0.701961 0.878431
0.898039 0.698039 0.882353
0.976471 0.694118 0.890196
0.976471 0.705882 0.87451
0 0.6 0.760784
0 0.623529 0.772549
0 0.690196 0.803922
0 0.788235 0.839216
0.517647 0.843137 0.862745
0.768627 0.866667 0.870588
0.937255 0.870588 0.878431
0.996078 0.866667 0.882353
0.996078 0.882353 0.894118
0 0.764706 0.792157
0 0.792157 0.8
0 0.866667 0.819608
0.2 0.929412 0.839216
0.6 0.972549 0.85098
0.811765 0.992157 0.862745
0.952941 1 0.866667
1 0.980392 0.878431
1 0.952941 0.894118
0.576471 0.972549 0.827451
0.607843 0.972549 0.831373
0.67451 0.984314 0.843137
0.760784 0.988235 0.858824
0.815686 0.992157 0.862745
0.87451 0.996078 0.870588
0.933333 1 0.878431
0.988235 1 0.886275
1 0.996078 0.898039
0 0 0.709804
0 0 0.709804
0 0 0.709804
0 0 0.713725
0.329412 0 0.752941
0.541176 0 0.764706
0.654902 0 0.764706
0.74902 0 0.768627
0.752941 0 0.768627
0 0 0.701961
0 0 0.701961
0 0 0.701961
0 0 0.713725
0.329412 0 0.74902
0.529412 0 0.756863
0.647059 0 0.756863
0.741176 0 0.760784
0.741176 0 0.760784
0 0.035294 0.721569
0 0.031373 0.721569
0 0.027451 0.721569
0 0.023529 0.737255
0.356863 0.015686 0.768627
0.545098 0 0.760784
0.658824 0 0.760784
0.74902 0 0.764706
0.74902 0 0.764706
0 0.239216 0.74902
0 0.239216 0.74902
0 0.235294 0.74902
0 0.258824 0.780392
0.34902 0.286275 0.827451
0.584314 0.258824 0.843137
0.713725 0.223529 0.847059
0.815686 0.196078 0.85098
0.815686 0.192157 0.847059
0 0.376471 0.788235
0 0.376471 0.788235
0 0.376471 0.788235
0 0.423529 0.843137
0.352941 0.482353 0.901961
0.635294 0.47451 0.921569
0.792157 0.45098 0.92549
0.901961 0.439216 0.929412
0.901961 0.439216 0.929412
0 0.478431 0.811765
0 0.478431 0.811765
0 0.501961 0.839216
0 0.592157 0.901961
0.384314 0.67451 0.956863
0.686275 0.690196 0.972549
0.858824 0.686275 0.980392
0.972549 0.682353 0.980392
0.972549 0.694118 0.980392
0 0.556863 0.823529
0 0.580392 0.847059
0 0.635294 0.882353
0 0.760784 0.941176
0.435294 0.827451 0.980392
0.733333 0.854902 0.992157
0.901961 0.862745 0.996078
0.996078 0.862745 0.996078
0.996078 0.882353 0.972549
0 0.745098 0.901961
0 0.784314 0.917647
0 0.854902 0.941176
0 0.929412 0.976471
0.552941 0.976471 0.992157
0.8 0.996078 1
0.976471 1 1
1 1 1
1 1 1
0.545098 0.972549 0.917647
0.580392 0.972549 0.921569
0.658824 0.980392 0.92549
0.764706 0.992157 0.937255
0.882353 1 0.960784
1 1 1
1 1 1
1 1 1
1 1 1
0 0 0.709804
0 0 0.709804
0 0 0.709804
0 0 0.709804
0.145098 0 0.741176
0.423529 0 0.760784
0.572549 0 0.764706
0.670588 0 0.764706
0.74902 0 0.768627
0 0 0.701961
0 0 0.701961
0 0 0.701961
0 0 0.701961
0.176471 0 0.737255
0.415686 0 0.756863
0.564706 0 0.756863
0.658824 0 0.756863
0.741176 0 0.760784
0 0 0.705882
0 0 0.705882
0 0 0.705882
0 0 0.705882
0.215686 0 0.745098
0.443137 0 0.760784
0.588235 0 0.768627
0.686275 0 0.780392
0.780392 0 0.8
0 0.215686 0.745098
0 0.215686 0.745098
0 0.215686 0.745098
0 0.227451 0.764706
0.211765 0.27451 0.807843
0.478431 0.270588 0.839216
0.631373 0.25098 0.847059
0.733333 0.239216 0.847059
0.831373 0.239216 0.866667
0 0.356863 0.784314
0 0.356863 0.784314
0 0.376471 0.803922
0 0.423529 0.847059
0.282353 0.466667 0.890196
0.541176 0.470588 0.913725
0.701961 0.462745 0.92549
0.815686 0.462745 0.929412
0.913725 0.47451 0.937255
0 0.47451 0.831373
0 0.490196 0.847059
0 0.541176 0.882353
0 0.623529 0.92549
0.447059 0.666667 0.960784
0.643137 0.682353 0.972549
0.784314 0.686275 0.976471
0.890196 0.694118 0.980392
0.976471 0.705882 0.984314
0 0.631373 0.901961
0 0.658824 0.913725
0 0.709804 0.937255
0.298039 0.760784 0.964706
0.588235 0.803922 0.984314
0.776471 0.847059 0.992157
0.866667 0.854902 0.996078
0.945098 0.866667 0.996078
0.996078 0.878431 0.996078
0 0.839216 0.964706
0.12549 0.85098 0.968627
0.368627 0.870588 0.980392
0.564706 0.898039 0.988235
0.733333 0.921569 0.996078
0.87451 0.94902 1
0.996078 1 1
1 1 1
1 1 1
0.564706 0.972549 0.992157
0.6 0.980392 0.996078
0.67451 0.984314 0.996078
0.780392 0.992157 1
0.898039 1 1
1 1 1
1 1 1
1 1 1
1 1 1
