site/assets/luts/freshluts--0001161-clearn-cool-look.cube
# LUTr-Schema-Version: 2
# LUTr-ID: freshluts--0001161-clearn-cool-look
# LUTr-Title: clearn cool look
# LUTr-Collection: Fresh LUTs
# LUTr-Collection-ID: freshluts-community
# LUTr-Source: https://freshluts.com
# LUTr-Retrieved: 2026-07-27
# LUTr-Source-File: submissions-raw/freshluts/cubes/1161__mak_phearith.cube
# LUTr-Source-Format: CUBE
# LUTr-Source-SHA256: 9f699d1c5cfb71f6b3b9d8b377e4ad9aeaae8d2a3392db965f77853fb48256a0
# LUTr-License: CC0-1.0
# LUTr-License-URL: https://freshluts.com/termsandconditions
# LUTr-License-Basis: site-terms
# LUTr-Transform-Class: creative-look
# LUTr-Tags: creative, freshluts, community, cube, cool, high-key, sony-s-log3
# LUTr-Input-Color-Space:
# LUTr-Input-Gamut: sony-s-gamut3
# LUTr-Input-Transfer: sony-s-log3
# LUTr-Output-Color-Space: srgb
# LUTr-Output-Gamut: rec709
# LUTr-Output-Transfer: srgb
# LUTr-Color-Space-Confidence: camera-profile-input-required
# LUTr-Domain-Normalized: true
# LUTr-Shaper: none
# LUTr-Original-Grid: 16x16x16
# LUTr-Conversion-Grid: 16x16x16
# LUTr-Conversion-Interpolation: none
# LUTr-Conversion-Method: Metadata normalization; numeric LUT samples preserved
# LUTr-Conversion-Tool: LUTr scripts/convert-all-to-cube.mjs 2.0.0
# LUTr-Conversion-Date: 2026-07-28
# LUTr-Asset-URL: https://freshluts.com/luts/1161
# LUTr-Author: lvannoeun@gmail.com
# LUTr-Author-URL: https://freshluts.com/users/57563
# LUTr-Attribution: lvannoeun@gmail.com via Fresh LUTs
# LUTr-Source-Labels: gamma=Sony S-Log 3; color=Cool; key=High Key; style=Drama
# LUTr-Note: Preserve this metadata and the upstream license notices when redistributing.
TITLE "clearn cool look"
LUT_3D_SIZE 6
DOMAIN_MIN 0 0 0
DOMAIN_MAX 1 1 1
0 0 0
0 0 0
0.376733 0 0.065691
0.674696 0.115544 0.167271
0.848951 0.193119 0.244763
0.848951 0.197093 0.25769
0 0.033075 0.001251
0.023914 0.024456 0
0.359988 0.077223 0.017497
0.667869 0.113068 0.167022
0.848951 0.192485 0.244379
0.848951 0.197091 0.257655
0.085068 0.399914 0.11827
0.087431 0.3965 0.116248
0.362169 0.38554 0.123084
0.639229 0.374548 0.178886
0.847894 0.236927 0.237474
0.848951 0.197082 0.257732
0.214844 0.672084 0.274428
0.214559 0.671469 0.274169
0.330883 0.665191 0.27679
0.622327 0.657643 0.29258
0.811505 0.644357 0.304092
0.848951 0.463825 0.264201
0.29118 0.839409 0.477887
0.291104 0.839319 0.478491
0.361177 0.835904 0.479726
0.615161 0.827851 0.483572
0.789387 0.82574 0.467944
0.840231 0.82317 0.382963
0.372142 0.848951 0.68229
0.404417 0.848951 0.681845
0.52283 0.848951 0.682565
0.674109 0.847001 0.687168
0.789464 0.847112 0.684405
0.836361 0.847819 0.630604
0 0 0
0.003511 0 0.00269
0.376647 0 0.138285
0.675031 0.11573 0.207972
0.848951 0.193008 0.251377
0.848951 0.197093 0.257682
0 0.016529 0.017289
0.014635 0.005894 0.018899
0.367291 0.03231 0.124914
0.669644 0.113728 0.211615
0.848951 0.192294 0.251912
0.848951 0.197091 0.257652
0.082905 0.395775 0.170558
0.084759 0.392866 0.170058
0.359515 0.381606 0.167829
0.640522 0.367857 0.213934
0.848103 0.237391 0.255025
0.848951 0.197082 0.257708
0.213387 0.669544 0.314915
0.213127 0.668812 0.315966
0.32732 0.66267 0.317089
0.620631 0.654595 0.331492
0.811052 0.641908 0.323174
0.848951 0.477022 0.267267
0.290383 0.837832 0.505565
0.290329 0.837529 0.506325
0.359045 0.834072 0.507336
0.61427 0.82616 0.511362
0.788068 0.823702 0.50064
0.839988 0.822955 0.392095
0.370843 0.848951 0.694762
0.403428 0.848951 0.694602
0.522218 0.848951 0.695092
0.673762 0.847111 0.699497
0.788899 0.846886 0.6983
0.835742 0.847423 0.651749
0 0 0.331904
0.062375 0 0.339881
0.375288 0.004854 0.389169
0.672538 0.118888 0.437743
0.848951 0.193131 0.434328
0.848951 0.197059 0.284807
0 0.004833 0.338634
0.050168 0 0.341441
0.3709 0.004153 0.388207
0.668536 0.117432 0.439056
0.848951 0.192841 0.439804
0.848951 0.197041 0.290151
0.074525 0.37232 0.412989
0.07393 0.369774 0.412392
0.348362 0.352979 0.414792
0.644287 0.325037 0.440258
0.848467 0.219468 0.460254
0.848951 0.197041 0.300833
0.207916 0.657049 0.496624
0.207809 0.65647 0.497149
0.312827 0.650414 0.496243
0.614557 0.641724 0.505096
0.808568 0.626821 0.493564
0.848951 0.473617 0.34232
0.287331 0.830313 0.608156
0.287233 0.830063 0.608856
0.349342 0.826863 0.609815
0.610707 0.818328 0.613811
0.784175 0.814972 0.614201
0.837588 0.813833 0.533394
0.364056 0.848951 0.747409
0.398399 0.848951 0.746826
0.519513 0.848951 0.74709
0.671801 0.846597 0.751454
0.786505 0.846433 0.753892
0.83429 0.847096 0.728975
0.039496 0 0.668062
0.04054 0 0.668458
0.372083 0.040766 0.686614
0.666848 0.132702 0.709847
0.848951 0.200622 0.722273
0.848951 0.203937 0.689352
0.039451 0 0.666549
0.039877 0 0.665233
0.366682 0.038674 0.681662
0.663296 0.131254 0.706981
0.848951 0.200341 0.721537
0.848951 0.204115 0.692522
0.059764 0.297249 0.681653
0.057967 0.291547 0.680462
0.321128 0.250902 0.680348
0.64575 0.227494 0.703453
0.848451 0.206645 0.732815
0.848951 0.205085 0.710066
0.201145 0.631695 0.710615
0.200864 0.63106 0.710672
0.287195 0.625359 0.709684
0.606032 0.614703 0.712187
0.807279 0.592418 0.721181
0.848624 0.395091 0.71437
0.282168 0.814476 0.763281
0.282113 0.814228 0.763718
0.331413 0.811277 0.764078
0.601844 0.80214 0.764124
0.777605 0.797796 0.770934
0.834899 0.791739 0.748527
0.348241 0.848951 0.8424
0.386766 0.848951 0.841431
0.513852 0.848954 0.840605
0.667562 0.846224 0.842652
0.782282 0.845825 0.847036
0.830723 0.846224 0.84345
0.070951 0.05881 0.875864
0.070939 0.0588 0.87591
0.326423 0.077779 0.876104
0.655933 0.151237 0.876092
0.848951 0.212792 0.876092
0.848951 0.218192 0.876092
0.070591 0.058384 0.876092
0.070451 0.058154 0.876092
0.318309 0.075826 0.876092
0.651815 0.149712 0.876092
0.848951 0.212562 0.876092
0.848951 0.218248 0.876092
0.06942 0.14082 0.876092
0.069195 0.138497 0.876092
0.278115 0.121639 0.876092
0.64106 0.156531 0.876092
0.845105 0.212703 0.876092
0.848951 0.218569 0.876092
0.194663 0.593804 0.875797
0.194491 0.593382 0.876065
0.250529 0.587521 0.876092
0.593899 0.577961 0.876092
0.800866 0.551959 0.876092
0.848625 0.335741 0.876092
0.277012 0.792509 0.876092
0.277 0.792353 0.876092
0.317556 0.790085 0.876092
0.593001 0.781198 0.876092
0.771001 0.776944 0.876092
0.833096 0.765418 0.876092
0.348609 0.849031 0.876092
0.383931 0.849001 0.876092
0.511325 0.846076 0.876092
0.665183 0.842286 0.876092
0.778645 0.8408 0.876092
0.826217 0.840114 0.876092
0.092748 0.084642 0.876092
0.092746 0.08464 0.876092
0.272512 0.092434 0.876092
0.643756 0.158653 0.876092
0.84783 0.218299 0.876092
0.848951 0.224184 0.876092
0.09265 0.084529 0.876092
0.092629 0.084489 0.876092
0.260378 0.09165 0.876092
0.638802 0.157323 0.876092
0.845688 0.218026 0.876092
0.848951 0.224184 0.876092
0.096211 0.194881 0.876092
0.095506 0.188616 0.876092
0.225966 0.159706 0.876092
0.625332 0.188359 0.876092
0.84407 0.216724 0.876092
0.848951 0.224184 0.876092
0.200366 0.593876 0.876092
0.200113 0.593247 0.876092
0.246658 0.589043 0.876092
0.588382 0.580548 0.876092
0.793935 0.561109 0.876092
0.848243 0.374371 0.876092
0.276009 0.784509 0.876092
0.27592 0.784471 0.876092
0.322758 0.781821 0.876092
0.594726 0.773584 0.876092
0.768371 0.770826 0.876092
0.832024 0.759793 0.876092
0.369825 0.846452 0.876092
0.403225 0.844976 0.876092
0.520217 0.840477 0.876092
0.668306 0.836489 0.876092
0.778031 0.834815 0.876092
0.824065 0.834144 0.876092
