site/assets/luts/freshluts--0000773-glut011.cube
# LUTr-Schema-Version: 2
# LUTr-ID: freshluts--0000773-glut011
# LUTr-Title: gLut011
# LUTr-Collection: Fresh LUTs
# LUTr-Collection-ID: freshluts-community
# LUTr-Source: https://freshluts.com
# LUTr-Retrieved: 2026-07-27
# LUTr-Source-File: submissions-raw/freshluts/cubes/773__GMVISUALZ_WED_01_11.E74A9625.cube
# LUTr-Source-Format: CUBE
# LUTr-Source-SHA256: 55f5434782cc32212416ac85dff83068847d5a3092b7d355f50947bb6c17d951
# LUTr-License: CC0-1.0
# LUTr-License-URL: https://freshluts.com/termsandconditions
# LUTr-License-Basis: site-terms
# LUTr-Transform-Class: creative-look
# LUTr-Tags: creative, freshluts, community, cube, warm, canon-cinestyle
# LUTr-Input-Color-Space: canon-cinestyle
# LUTr-Input-Gamut: rec709
# LUTr-Input-Transfer: canon-cinestyle
# LUTr-Output-Color-Space: srgb
# LUTr-Output-Gamut: rec709
# LUTr-Output-Transfer: srgb
# LUTr-Color-Space-Confidence: inferred-from-source-label
# LUTr-Domain-Normalized: true
# LUTr-Shaper: none
# LUTr-Original-Grid: 33x33x33
# LUTr-Conversion-Grid: 33x33x33
# LUTr-Conversion-Interpolation: none
# LUTr-Conversion-Method: Metadata normalization; numeric LUT samples preserved
# LUTr-Conversion-Tool: LUTr scripts/convert-all-to-cube.mjs 2.0.0
# LUTr-Conversion-Date: 2026-07-28
# LUTr-Asset-URL: https://freshluts.com/luts/773
# LUTr-Author: directorgodfrey_M
# LUTr-Author-URL: https://freshluts.com/users/1455
# LUTr-Attribution: directorgodfrey_M via Fresh LUTs
# LUTr-Source-Labels: gamma=Canon Cinestyle; color=Warm; key=Neutral; style=Wedding
# LUTr-Note: Preserve this metadata and the upstream license notices when redistributing.
TITLE "gLut011"
LUT_3D_SIZE 5
DOMAIN_MIN 0 0 0
DOMAIN_MAX 1 1 1
0 0 0.0136416
0.48397 0 0
0.849638 0 0
1 0 0
1 0.0215 0.0357366
0 0.41767 0
0.377432 0.383658 0
0.753658 0.378164 0
1 0.372671 0
1 0.37705 0
0 0.769955 0
0.284321 0.706828 0
0.657923 0.66479 0
0.97116 0.641459 0
1 0.650584 0
0 1 0
0.16321 0.983383 0
0.583719 0.941421 0
0.917174 0.924483 0
1 0.931441 0
0 1 0
0.147707 1 0
0.583993 1 0
0.886885 1 0
1 1 0
0 0 0.497719
0.472892 0 0.469535
0.838468 0 0.474922
1 0 0.49984
1 0.00553903 0.535363
0 0.403738 0.388708
0.363424 0.369009 0.351827
0.7402 0.358648 0.341207
1 0.348608 0.33135
1 0.351232 0.333974
0 0.748577 0.323934
0.256901 0.684779 0.245518
0.635508 0.64181 0.188037
0.951873 0.61886 0.149844
1 0.62916 0.145068
0 1 0.202655
0.136782 0.96466 0.127123
0.563394 0.922011 0.0652018
0.896635 0.903899 0.0303197
1 0.907485 0.0197299
0 1 0.1935
0.116625 1 0.107713
0.553872 1 0.0137179
0.855375 1 0
1 1 0
0 0 0.834241
0.473701 0 0.806271
0.839628 0 0.815534
1 0 0.847501
1 0 0.893782
0 0.401297 0.741543
0.359197 0.364004 0.716472
0.73518 0.347463 0.714809
1 0.331609 0.714565
1 0.331731 0.731106
0 0.734173 0.709621
0.235477 0.668711 0.645411
0.618189 0.623987 0.601785
0.936324 0.600076 0.578775
1 0.610086 0.589136
0 1 0.636728
0.112932 0.948241 0.576974
0.544198 0.903609 0.527672
0.875959 0.882948 0.502708
1 0.882002 0.497353
0 1 0.666087
0.0846571 1 0.585809
0.522408 1 0.493477
0.822492 1 0.428779
1 1 0.378042
0 0 1
0.480293 0 1
0.846189 0 1
1 0 1
1 0 1
0 0.403296 1
0.358679 0.362768 1
0.733761 0.340124 1
1 0.319539 1
1 0.318044 1
0 0.72488 1
0.220203 0.659052 0.965454
0.60795 0.613321 0.925795
0.929015 0.589609 0.90544
1 0.600443 0.916823
0 0.994934 0.964141
0.0987716 0.941405 0.905547
0.535531 0.895552 0.854368
0.866194 0.872541 0.82652
1 0.868101 0.818372
0 1 0.987259
0.0639658 1 0.905196
0.502068 1 0.815244
0.801266 1 0.757748
1 1 0.717006
0 0 1
0.491676 0 1
0.858885 0 1
1 0 1
1 0.0040589 1
0 0.412299 1
0.365637 0.368841 1
0.740841 0.340719 1
1 0.316762 1
1 0.314885 1
0 0.725658 1
0.215793 0.659754 1
0.608469 0.613367 1
0.931853 0.589868 1
1 0.600626 1
0 0.997452 1
0.0948806 0.943786 1
0.535042 0.895338 1
0.862547 0.868727 1
1 0.859419 1
0 1 1
0.0487678 1 1
0.48603 1 1
0.784421 1 1
1 1 0.995514
