site/assets/luts/freshluts--0001974-atikan.cube
# LUTr-Schema-Version: 2
# LUTr-ID: freshluts--0001974-atikan
# LUTr-Title: Atikan
# LUTr-Collection: Fresh LUTs
# LUTr-Collection-ID: freshluts-community
# LUTr-Source: https://freshluts.com
# LUTr-Retrieved: 2026-07-27
# LUTr-Source-File: submissions-raw/freshluts/cubes/1974__Atikan.cube
# LUTr-Source-Format: CUBE
# LUTr-Source-SHA256: 85cecc9df92923efd541b9c305dde3b8092a46bd4bc1d5d903cc7a6d50215a76
# LUTr-License: CC0-1.0
# LUTr-License-URL: https://freshluts.com/termsandconditions
# LUTr-License-Basis: site-terms
# LUTr-Transform-Class: creative-look
# LUTr-Tags: creative, freshluts, community, cube, warm, low-key, rec709
# LUTr-Input-Color-Space: rec709
# LUTr-Input-Gamut: rec709
# LUTr-Input-Transfer: rec709
# LUTr-Output-Color-Space: srgb
# LUTr-Output-Gamut: rec709
# LUTr-Output-Transfer: srgb
# LUTr-Color-Space-Confidence: declared-by-source
# LUTr-Domain-Normalized: true
# LUTr-Shaper: none
# LUTr-Original-Grid: 16x16x16
# LUTr-Conversion-Grid: 16x16x16
# LUTr-Conversion-Interpolation: none
# LUTr-Conversion-Method: Metadata normalization; numeric LUT samples preserved
# LUTr-Conversion-Tool: LUTr scripts/convert-all-to-cube.mjs 2.0.0
# LUTr-Conversion-Date: 2026-07-28
# LUTr-Asset-URL: https://freshluts.com/luts/1974
# LUTr-Author: InAvision
# LUTr-Author-URL: https://freshluts.com/users/64078
# LUTr-Attribution: InAvision via Fresh LUTs
# LUTr-Source-Labels: gamma=Rec 709; color=Warm; key=Low Key; style=Cinematic/Dark
# LUTr-Note: Preserve this metadata and the upstream license notices when redistributing.
TITLE "Atikan"
LUT_3D_SIZE 6
DOMAIN_MIN 0 0 0
DOMAIN_MAX 1 1 1
0 0 0
0.205919 0 0
0.399278 0 0
0.581337 0 0
0.756506 0 0
0.926213 0 0
0 0.199261 0
0.205919 0.199261 0
0.399278 0.199261 0
0.581337 0.199261 0
0.756506 0.199261 0
0.926213 0.199261 0
0 0.392017 0
0.205919 0.392017 0
0.399278 0.392017 0
0.581337 0.392017 0
0.756506 0.392017 0
0.926213 0.392017 0
0 0.575177 0
0.205919 0.575177 0
0.399278 0.575177 0
0.581337 0.575177 0
0.756506 0.575177 0
0.926213 0.575177 0
0 0.752434 0
0.205919 0.752434 0
0.399278 0.752434 0
0.581337 0.752434 0
0.756506 0.752434 0
0.926213 0.752434 0
0 0.924889 0
0.205919 0.924889 0
0.399278 0.924889 0
0.581337 0.924889 0
0.756506 0.924889 0
0.926213 0.924889 0
0 0 0.162378
0.205919 0 0.162378
0.399278 0 0.162378
0.581337 0 0.162378
0.756506 0 0.162378
0.926213 0 0.162378
0 0.199261 0.162378
0.205919 0.199261 0.162378
0.399278 0.199261 0.162378
0.581337 0.199261 0.162378
0.756506 0.199261 0.162378
0.926213 0.199261 0.162378
0 0.392017 0.162378
0.205919 0.392017 0.162378
0.399278 0.392017 0.162378
0.581337 0.392017 0.162378
0.756506 0.392017 0.162378
0.926213 0.392017 0.162378
0 0.575177 0.162378
0.205919 0.575177 0.162378
0.399278 0.575177 0.162378
0.581337 0.575177 0.162378
0.756506 0.575177 0.162378
0.926213 0.575177 0.162378
0 0.752434 0.162378
0.205919 0.752434 0.162378
0.399278 0.752434 0.162378
0.581337 0.752434 0.162378
0.756506 0.752434 0.162378
0.926213 0.752434 0.162378
0 0.924889 0.162378
0.205919 0.924889 0.162378
0.399278 0.924889 0.162378
0.581337 0.924889 0.162378
0.756506 0.924889 0.162378
0.926213 0.924889 0.162378
0 0 0.343939
0.205919 0 0.343939
0.399278 0 0.343939
0.581337 0 0.343939
0.756506 0 0.343939
0.926213 0 0.343939
0 0.199261 0.343939
0.205919 0.199261 0.343939
0.399278 0.199261 0.343939
0.581337 0.199261 0.343939
0.756506 0.199261 0.343939
0.926213 0.199261 0.343939
0 0.392017 0.343939
0.205919 0.392017 0.343939
0.399278 0.392017 0.343939
0.581337 0.392017 0.343939
0.756506 0.392017 0.343939
0.926213 0.392017 0.343939
0 0.575177 0.343939
0.205919 0.575177 0.343939
0.399278 0.575177 0.343939
0.581337 0.575177 0.343939
0.756506 0.575177 0.343939
0.926213 0.575177 0.343939
0 0.752434 0.343939
0.205919 0.752434 0.343939
0.399278 0.752434 0.343939
0.581337 0.752434 0.343939
0.756506 0.752434 0.343939
0.926213 0.752434 0.343939
0 0.924889 0.343939
0.205919 0.924889 0.343939
0.399278 0.924889 0.343939
0.581337 0.924889 0.343939
0.756506 0.924889 0.343939
0.926213 0.924889 0.343939
0 0 0.524556
0.205919 0 0.524556
0.399278 0 0.524556
0.581337 0 0.524556
0.756506 0 0.524556
0.926213 0 0.524556
0 0.199261 0.524556
0.205919 0.199261 0.524556
0.399278 0.199261 0.524556
0.581337 0.199261 0.524556
0.756506 0.199261 0.524556
0.926213 0.199261 0.524556
0 0.392017 0.524556
0.205919 0.392017 0.524556
0.399278 0.392017 0.524556
0.581337 0.392017 0.524556
0.756506 0.392017 0.524556
0.926213 0.392017 0.524556
0 0.575177 0.524556
0.205919 0.575177 0.524556
0.399278 0.575177 0.524556
0.581337 0.575177 0.524556
0.756506 0.575177 0.524556
0.926213 0.575177 0.524556
0 0.752434 0.524556
0.205919 0.752434 0.524556
0.399278 0.752434 0.524556
0.581337 0.752434 0.524556
0.756506 0.752434 0.524556
0.926213 0.752434 0.524556
0 0.924889 0.524556
0.205919 0.924889 0.524556
0.399278 0.924889 0.524556
0.581337 0.924889 0.524556
0.756506 0.924889 0.524556
0.926213 0.924889 0.524556
0 0 0.704589
0.205919 0 0.704589
0.399278 0 0.704589
0.581337 0 0.704589
0.756506 0 0.704589
0.926213 0 0.704589
0 0.199261 0.704589
0.205919 0.199261 0.704589
0.399278 0.199261 0.704589
0.581337 0.199261 0.704589
0.756506 0.199261 0.704589
0.926213 0.199261 0.704589
0 0.392017 0.704589
0.205919 0.392017 0.704589
0.399278 0.392017 0.704589
0.581337 0.392017 0.704589
0.756506 0.392017 0.704589
0.926213 0.392017 0.704589
0 0.575177 0.704589
0.205919 0.575177 0.704589
0.399278 0.575177 0.704589
0.581337 0.575177 0.704589
0.756506 0.575177 0.704589
0.926213 0.575177 0.704589
0 0.752434 0.704589
0.205919 0.752434 0.704589
0.399278 0.752434 0.704589
0.581337 0.752434 0.704589
0.756506 0.752434 0.704589
0.926213 0.752434 0.704589
0 0.924889 0.704589
0.205919 0.924889 0.704589
0.399278 0.924889 0.704589
0.581337 0.924889 0.704589
0.756506 0.924889 0.704589
0.926213 0.924889 0.704589
0 0 0.88355
0.205919 0 0.88355
0.399278 0 0.88355
0.581337 0 0.88355
0.756506 0 0.88355
0.926213 0 0.88355
0 0.199261 0.88355
0.205919 0.199261 0.88355
0.399278 0.199261 0.88355
0.581337 0.199261 0.88355
0.756506 0.199261 0.88355
0.926213 0.199261 0.88355
0 0.392017 0.88355
0.205919 0.392017 0.88355
0.399278 0.392017 0.88355
0.581337 0.392017 0.88355
0.756506 0.392017 0.88355
0.926213 0.392017 0.88355
0 0.575177 0.88355
0.205919 0.575177 0.88355
0.399278 0.575177 0.88355
0.581337 0.575177 0.88355
0.756506 0.575177 0.88355
0.926213 0.575177 0.88355
0 0.752434 0.88355
0.205919 0.752434 0.88355
0.399278 0.752434 0.88355
0.581337 0.752434 0.88355
0.756506 0.752434 0.88355
0.926213 0.752434 0.88355
0 0.924889 0.88355
0.205919 0.924889 0.88355
0.399278 0.924889 0.88355
0.581337 0.924889 0.88355
0.756506 0.924889 0.88355
0.926213 0.924889 0.88355
