site/assets/luts/freshluts--0001215-orangetil-lut.cube
# LUTr-Schema-Version: 2
# LUTr-ID: freshluts--0001215-orangetil-lut
# LUTr-Title: OrangeTil_LUT
# LUTr-Collection: Fresh LUTs
# LUTr-Collection-ID: freshluts-community
# LUTr-Source: https://freshluts.com
# LUTr-Retrieved: 2026-07-27
# LUTr-Source-File: submissions-raw/freshluts/cubes/1215__Orangetil_sister_2.SISTER.00_00_13_00.Still002.cube
# LUTr-Source-Format: CUBE
# LUTr-Source-SHA256: b48be046eda3268d7f007aefc764fac53ac2e4a94d4f766aea779b6a5befdc66
# LUTr-License: CC0-1.0
# LUTr-License-URL: https://freshluts.com/termsandconditions
# LUTr-License-Basis: site-terms
# LUTr-Transform-Class: creative-look
# LUTr-Tags: creative, freshluts, community, cube, teal, sony-s-log3
# LUTr-Input-Color-Space:
# LUTr-Input-Gamut: sony-s-gamut3
# LUTr-Input-Transfer: sony-s-log3
# LUTr-Output-Color-Space: srgb
# LUTr-Output-Gamut: rec709
# LUTr-Output-Transfer: srgb
# LUTr-Color-Space-Confidence: camera-profile-input-required
# LUTr-Domain-Normalized: true
# LUTr-Shaper: none
# LUTr-Original-Grid: 33x33x33
# LUTr-Conversion-Grid: 33x33x33
# LUTr-Conversion-Interpolation: none
# LUTr-Conversion-Method: Metadata normalization; numeric LUT samples preserved
# LUTr-Conversion-Tool: LUTr scripts/convert-all-to-cube.mjs 2.0.0
# LUTr-Conversion-Date: 2026-07-28
# LUTr-Asset-URL: https://freshluts.com/luts/1215
# LUTr-Author: lvannoeun@gmail.com
# LUTr-Author-URL: https://freshluts.com/users/57563
# LUTr-Attribution: lvannoeun@gmail.com via Fresh LUTs
# LUTr-Source-Labels: gamma=Sony S-Log 3; color=Teal; key=Neutral; style=cine drama
# LUTr-Note: Preserve this metadata and the upstream license notices when redistributing.
TITLE "OrangeTil_LUT"
LUT_3D_SIZE 9
DOMAIN_MIN 0 0 0
DOMAIN_MAX 1 1 1
0.0445106 0.0445106 0.0445106
0.139956 0.0404974 0.0393378
0.242451 0.0356146 0.0332036
0.350744 0.0301976 0.0264591
0.463264 0.0245212 0.0194095
0.579004 0.0188602 0.0123293
0.696056 0.0134585 0.00550851
0.813809 0.00900282 0
0.930648 0.00560006 0
0.0306249 0.134615 0.03122
0.128771 0.13312 0.0290837
0.233616 0.130419 0.0255589
0.34432 0.12723 0.0214542
0.459251 0.123751 0.0170291
0.577173 0.120058 0.0123445
0.696727 0.116945 0.00823987
0.816724 0.114504 0.00482185
0.935729 0.113054 0.00239567
0.0135805 0.237171 0.014847
0.11397 0.237888 0.0149996
0.220981 0.237354 0.0137331
0.333822 0.236316 0.011841
0.450843 0.234958 0.00953689
0.570748 0.233265 0.00686656
0.692256 0.23212 0.0047303
0.814099 0.231525 0.00317388
0.93489 0.231861 0.002533
0 0.350835 0
0.096788 0.353597 0
0.205829 0.355047 0
0.320623 0.355962 0
0.43946 0.356451 0
0.561074 0.356466 0
0.684199 0.356954 0
0.807568 0.357916 0
0.929549 0.359442 0
0 0.473533 0
0.0798199 0.477882 0
0.190799 0.481285 0
0.307225 0.483787 0
0.427543 0.48574 0
0.55053 0.487144 0
0.674907 0.488914 0
0.79942 0.49102 0
0.922362 0.493538 0
0 0.60267 0
0.0665599 0.608484 0
0.178897 0.613214 0
0.296513 0.616922 0
0.417792 0.619806 0
0.541863 0.622278 0
0.667048 0.624857 0
0.792172 0.627588 0
0.915618 0.63061 0
0 0.73492 0
0.0604562 0.741787 0
0.173693 0.747402 0
0.292073 0.751858 0
0.41384 0.75523 0
0.538476 0.758267 0
0.663966 0.76112 0
0.789075 0.763867 0
0.912627 0.766979 0
0 0.86743 0
0.0631723 0.874968 0
0.176806 0.88098 0
0.295369 0.885603 0
0.417273 0.889097 0
0.541817 0.892042 0
0.667079 0.894636 0
0.791684 0.896864 0
0.914778 0.899565 0
0 0.998276 0
0.0739147 1 0
0.187411 1 0
0.305547 1 0
0.427115 1 0
0.551064 1 0
0.675547 1 0
0.799268 1 0
0.921309 1 0
0 0.0573281 0.143328
0.136965 0.0369421 0.166751
0.240131 0.0320287 0.161593
0.349065 0.0266728 0.156115
0.462257 0.0210574 0.150362
0.578531 0.015259 0.144457
0.69633 0.0099794 0.139055
0.814694 0.00546273 0.134432
0.932128 0.00199893 0.130846
0.00943008 0.142672 0.104753
0.116686 0.133989 0.149111
0.232105 0.127779 0.153765
0.343343 0.124697 0.150576
0.458762 0.121279 0.147051
0.577142 0.117601 0.143252
0.697185 0.114534 0.140063
0.81767 0.112139 0.13756
0.937026 0.110597 0.135912
0.0120851 0.235508 0.137362
0.112627 0.235721 0.142977
0.220081 0.235569 0.142199
0.333135 0.234745 0.14049
0.45034 0.233555 0.138338
0.570443 0.232029 0.135836
0.692149 0.231067 0.133883
0.814191 0.230671 0.132509
0.934905 0.23093 0.131792
0 0.349371 0.124956
0.0961166 0.352087 0.127199
0.205585 0.353933 0.128466
0.320531 0.354986 0.128771
0.439338 0.355428 0.128313
0.561334 0.355825 0.127764
0.684627 0.356481 0.127443
0.808148 0.35758 0.12755
0.930236 0.359197 0.128206
0 0.472694 0.10782
0.0799268 0.47718 0.111803
0.191089 0.480705 0.114763
0.307652 0.483345 0.116732
0.427878 0.485191 0.117769
0.551232 0.486961 0.118639
0.675715 0.488823 0.119554
0.800305 0.49102 0.120775
0.923323 0.493584 0.122393
0 0.602319 0.0944076
0.0671092 0.608225 0.0998245
0.179599 0.613062 0.104097
0.297353 0.616876 0.107256
0.418601 0.61973 0.109361
0.542855 0.622385 0.111177
0.668086 0.624994 0.112902
0.793011 0.627527 0.114488
0.916732 0.630823 0.116854
0 0.734707 0.0881819
0.0613413 0.741863 0.0948501
0.17467 0.747555 0.0999466
0.293111 0.752041 0.103807
0.414923 0.755428 0.106477
0.539574 0.75848 0.108736
0.665064 0.761334 0.11075
0.790051 0.763928 0.112459
0.913664 0.767132 0.114748
0 0.867552 0.0913252
0.06421 0.875196 0.0984512
0.177874 0.881209 0.103899
0.296376 0.885756 0.107805
0.418341 0.889296 0.110658
0.54287 0.892195 0.112795
0.66804 0.894728 0.114519
0.792584 0.89688 0.115816
0.915618 0.899474 0.11754
0 0.998505 0.102754
0.0749218 1 0.10985
0.188388 1 0.115099
0.306401 1 0.118517
0.428 1 0.121004
0.551858 1 0.122484
0.676097 1 0.123293
0.799832 1 0.123796
0.921767 1 0.124437
0 0.071107 0.250431
0.0871901 0.0467079 0.301411
0.236194 0.0282292 0.298955
0.345663 0.0230106 0.293339
0.459037 0.0176242 0.2878
0.575463 0.0120394 0.282078
0.693584 0.00708019 0.276982
0.812146 0.0027924 0.272572
0.929702 0 0.269139
0 0.158938 0.208423
0.062623 0.148745 0.25716
0.223621 0.12607 0.294057
0.340658 0.121813 0.288548
0.456245 0.118624 0.285222
0.574884 0.115206 0.281697
0.695109 0.112352 0.278706
0.815763 0.11014 0.276371
0.93521 0.10869 0.274815
0 0.254444 0.16878
0.0814221 0.248524 0.213031
0.19881 0.240635 0.26331
0.331823 0.232349 0.279957
0.449363 0.231067 0.278569
0.570047 0.229694 0.277073
0.692195 0.228748 0.276005
0.814649 0.228321 0.275456
0.935851 0.228641 0.275654
0 0.356191 0.192065
0.0935988 0.352682 0.244053
0.204593 0.352087 0.267842
0.319799 0.353277 0.268437
0.438712 0.353826 0.268086
0.560906 0.354406 0.267674
0.684352 0.3552 0.267475
0.807874 0.356283 0.267567
0.930251 0.35819 0.268513
0 0.471366 0.242222
0.0792859 0.475746 0.251545
0.190646 0.479393 0.254688
0.307393 0.482139 0.256825
0.427741 0.484092 0.258045
0.551217 0.485985 0.259037
0.675822 0.487953 0.260044
0.800244 0.489967 0.261082
0.923598 0.492866 0.263005
0 0.600961 0.234226
0.0669413 0.607233 0.240009
0.179553 0.612146 0.244404
0.297215 0.615824 0.247471
0.418799 0.618952 0.249928
0.54313 0.621683 0.25185
0.668406 0.624353 0.25362
0.793347 0.626902 0.255222
0.917098 0.630213 0.257603
0 0.733944 0.228595
0.0614786 0.741161 0.235325
0.174884 0.746899 0.240528
0.293141 0.751141 0.244175
0.415259 0.754818 0.247196
0.53994 0.75787 0.249485
0.665415 0.760723 0.251499
0.790387 0.763287 0.253193
0.91397 0.766476 0.255451
0 0.866972 0.231891
0.0644846 0.874632 0.239078
0.178164 0.880644 0.244556
0.296544 0.885008 0.248325
0.418631 0.888655 0.251316
0.543145 0.891508 0.253452
0.667994 0.893736 0.254871
0.792721 0.896056 0.256367
0.915648 0.898558 0.257984
0 0.997925 0.243336
0.0751507 1 0.250416
0.188571 1 0.255634
0.306554 1 0.259022
0.428092 1 0.261448
0.551873 1 0.262867
0.675883 1 0.263447
0.799603 1 0.263966
0.921386 1 0.264485
0 0.0854047 0.364034
0.0221408 0.0623941 0.421225
0.192248 0.0349279 0.451392
0.341176 0.0189364 0.439597
0.45536 0.0136263 0.433722
0.571954 0.00825513 0.428183
0.690272 0.00352483 0.423301
0.809064 0 0.419135
0.926726 0 0.415793
0 0.174655 0.322408
0.00477607 0.164065 0.37174
0.162997 0.140383 0.430716
0.333883 0.119188 0.437186
0.453101 0.115175 0.431693
0.572091 0.112184 0.428534
0.692531 0.109575 0.425772
0.813352 0.107561 0.423636
0.932952 0.106294 0.422248
0 0.272541 0.277012
0.0200504 0.2663 0.324758
0.141772 0.256977 0.379004
0.311238 0.234577 0.430655
0.446967 0.228428 0.425803
0.56791 0.227375 0.424598
0.690196 0.226596 0.423697
0.812726 0.226276 0.423239
0.934112 0.22678 0.423636
0 0.37818 0.236484
0.0460365 0.374716 0.281712
0.164797 0.369436 0.331655
0.290105 0.362448 0.385916
0.437537 0.351659 0.416648
0.560143 0.352224 0.41709
0.684001 0.352987 0.417746
0.807813 0.353933 0.41857
0.930678 0.355901 0.420417
0 0.48925 0.244114
0.0671702 0.487373 0.296071
0.18555 0.483635 0.353979
0.306386 0.480491 0.402289
0.427054 0.482383 0.406699
0.550637 0.484367 0.407813
0.675319 0.486397 0.40885
0.799878 0.488518 0.409995
0.923308 0.491493 0.411994
0 0.604929 0.333654
0.0659648 0.607309 0.372457
0.178912 0.610681 0.392737
0.29662 0.614328 0.396216
0.418372 0.617563 0.398856
0.542794 0.620325 0.400885
0.667964 0.622873 0.402548
0.793103 0.62562 0.404334
0.916869 0.628946 0.406699
0 0.733166 0.370718
0.0609751 0.739849 0.384146
0.174456 0.745602 0.389425
0.292775 0.749889 0.393149
0.414969 0.753567 0.396231
0.539696 0.756603 0.398581
0.664881 0.759152 0.400336
0.790097 0.76199 0.402289
0.913664 0.765118 0.404501
0 0.865751 0.380835
0.0641031 0.873411 0.388022
0.1776 0.87921 0.393317
0.296208 0.883757 0.397314
0.418296 0.887358 0.40029
0.542763 0.89015 0.402411
0.667582 0.892287 0.403815
0.792248 0.894545 0.405249
0.915084 0.896956 0.40679
0 0.996689 0.392264
0.0747234 1 0.399313
0.187839 1 0.404227
0.306035 1 0.407813
0.427512 1 0.410193
0.551232 1 0.411551
0.675151 1 0.41207
0.798749 1 0.412467
0.920378 1 0.412833
0 0.0999771 0.479789
0 0.0775311 0.539605
0.127672 0.0495308 0.58674
0.301335 0.024155 0.598856
0.450675 0.00947585 0.582879
0.568429 0.00434882 0.577096
0.6869 0 0.572396
0.805722 0 0.568261
0.92372 0 0.565301
0 0.18999 0.438987
0 0.179644 0.488518
0.0993515 0.157229 0.552483
0.283101 0.12929 0.590829
0.447166 0.112459 0.583078
0.569238 0.10898 0.578134
0.68983 0.106569 0.57554
0.81062 0.10457 0.573373
0.930632 0.103746 0.572427
0 0.290043 0.39089
0 0.283299 0.441733
0.0837415 0.273548 0.496742
0.247333 0.251759 0.562264
0.432502 0.228733 0.581216
0.565698 0.224826 0.574853
0.688136 0.224262 0.574105
0.810651 0.223972 0.573663
0.932311 0.224781 0.574334
0 0.397559 0.344167
0 0.393866 0.393652
0.102907 0.388327 0.446174
0.231998 0.379736 0.504326
0.402441 0.359396 0.567315
0.558465 0.350256 0.567895
0.682383 0.351171 0.568643
0.806287 0.352239 0.569574
0.929229 0.354314 0.571527
0 0.511543 0.307393
0.0134432 0.510063 0.354101
0.133852 0.506767 0.403632
0.260044 0.501564 0.457099
0.391104 0.495384 0.514214
0.549783 0.482612 0.559518
0.674723 0.484504 0.561273
0.799695 0.48661 0.563256
0.923461 0.489494 0.566018
0 0.629358 0.310918
0.0411536 0.629068 0.360708
0.162371 0.626795 0.413672
0.28838 0.622614 0.471763
0.416785 0.617975 0.533654
0.542275 0.618784 0.55256
0.667399 0.621256 0.554208
0.792691 0.624125 0.5561
0.916472 0.627451 0.55845
0 0.747433 0.397559
0.0547189 0.748196 0.454459
0.172198 0.747982 0.505745
0.292302 0.748928 0.539605
0.41442 0.752132 0.547875
0.539178 0.755123 0.550271
0.664424 0.757656 0.552117
0.789609 0.760449 0.554025
0.913115 0.763531 0.556161
0 0.869825 0.483284
0.0634012 0.874098 0.519158
0.177096 0.877989 0.541787
0.295613 0.882307 0.548913
0.4177 0.885847 0.551888
0.542016 0.888411 0.553841
0.666941 0.890608 0.555367
0.791531 0.892775 0.556756
0.914275 0.895109 0.558221
0 0.996582 0.529702
0.0741741 1 0.548486
0.187106 1 0.555703
0.305257 1 0.559228
0.426673 1 0.561517
0.550042 1 0.562554
0.674144 1 0.563256
0.79765 1 0.563577
0.919005 1 0.563699
0 0.114305 0.59263
0 0.0926375 0.65359
0.0624094 0.0658885 0.707866
0.248112 0.0351263 0.740322
0.419257 0.0128939 0.739132
0.564691 0.000961318 0.72285
0.68397 0 0.717845
0.802899 0 0.713832
0.921126 0 0.711086
0 0.205249 0.552865
0 0.195056 0.602426
0.0408484 0.173129 0.668742
0.21883 0.145602 0.721569
0.403128 0.120714 0.739132
0.564782 0.10663 0.725567
0.687587 0.103944 0.72166
0.808499 0.102129 0.719646
0.928679 0.101503 0.718853
0 0.306844 0.504219
0 0.299657 0.556588
0.0275425 0.289967 0.611597
0.187701 0.268833 0.680354
0.380575 0.241276 0.727108
0.557122 0.224231 0.725277
0.68629 0.222065 0.720638
0.80911 0.222126 0.7205
0.930892 0.223102 0.721325
0 0.415976 0.455222
0 0.412314 0.505577
0.0450141 0.406165 0.560708
0.176516 0.396933 0.620066
0.340536 0.378012 0.689738
0.534707 0.354513 0.722133
0.680964 0.349386 0.715587
0.805188 0.350851 0.716869
0.928191 0.353048 0.718898
0 0.531884 0.408652
0 0.530053 0.459846
0.0738842 0.526375 0.513527
0.20061 0.520928 0.569268
0.334798 0.513603 0.630106
0.499489 0.496834 0.698863
0.673701 0.483162 0.708644
0.798825 0.485527 0.710811
0.922606 0.488472 0.713619
0 0.651453 0.380758
0 0.651377 0.428717
0.109026 0.649134 0.478462
0.236469 0.645579 0.530709
0.368093 0.640696 0.586496
0.502998 0.634745 0.64535
0.662074 0.621408 0.703883
0.792584 0.622858 0.70486
0.916625 0.626032 0.707912
0 0.772808 0.386877
0.0216373 0.773449 0.436301
0.143832 0.771725 0.487694
0.271717 0.768551 0.54168
0.403082 0.76408 0.598657
0.535851 0.75848 0.661707
0.664195 0.756481 0.699992
0.78938 0.759197 0.701961
0.912856 0.762219 0.704021
0 0.892164 0.458625
0.0475013 0.892805 0.516411
0.167269 0.89102 0.577111
0.291539 0.888243 0.637247
0.41706 0.886305 0.68397
0.541482 0.887022 0.701427
0.666514 0.88925 0.703059
0.791043 0.891279 0.704417
0.913588 0.8934 0.705699
0 1 0.562905
0.0687572 1 0.615869
0.185229 1 0.661799
0.304814 1 0.694942
0.426017 1 0.708934
0.549325 1 0.709957
0.673335 1 0.710567
0.79675 1 0.710796
0.917922 1 0.710765
0 0.128206 0.698589
0 0.107698 0.759274
0.00466926 0.0812848 0.818235
0.187442 0.05037 0.862913
0.370001 0.0233158 0.879255
0.543938 0.00270085 0.868238
0.681544 0 0.854597
0.800946 0 0.850553
0.919356 0 0.84799
0 0.220066 0.659815
0 0.210056 0.709484
0 0.188769 0.776608
0.159533 0.162249 0.83592
0.355001 0.13257 0.872023
0.533486 0.112245 0.873869
0.684977 0.10222 0.859586
0.807202 0.100465 0.857023
0.927504 0.100008 0.856367
0 0.322728 0.611719
0 0.315435 0.66453
0 0.305821 0.719448
0.134752 0.28513 0.790051
0.32018 0.258885 0.848646
0.513268 0.234684 0.871519
0.682017 0.2215 0.860609
0.808331 0.220996 0.858412
0.930251 0.222141 0.859358
0 0.43357 0.560433
0 0.429633 0.612436
0 0.422797 0.669245
0.125338 0.413657 0.728817
0.287892 0.395148 0.800732
0.48539 0.368597 0.855268
0.669505 0.351278 0.859449
0.804852 0.350164 0.855207
0.927947 0.352483 0.857328
0 0.550332 0.513344
0 0.548638 0.564889
0.0187228 0.544732 0.618875
0.147127 0.539071 0.67686
0.283955 0.530907 0.739559
0.445869 0.514565 0.811048
0.643229 0.49102 0.85417
0.798779 0.48513 0.849439
0.92256 0.488136 0.852247
0 0.672114 0.471153
0 0.671763 0.522927
0.0535286 0.669078 0.577264
0.181399 0.665034 0.633951
0.313466 0.659876 0.692134
0.450156 0.652811 0.753552
0.607843 0.639155 0.823545
0.792279 0.622629 0.843839
0.916579 0.625742 0.846571
0 0.794186 0.456733
0 0.794934 0.505516
0.0939651 0.793347 0.555764
0.222049 0.790341 0.607752
0.353933 0.786084 0.661234
0.48838 0.780407 0.717311
0.624262 0.774289 0.776394
0.77583 0.76286 0.84036
0.912963 0.761288 0.843259
0 0.916121 0.468681
0.0112917 0.916777 0.517632
0.13402 0.915465 0.568582
0.262135 0.912261 0.621057
0.393912 0.907652 0.674922
0.527764 0.90164 0.730419
0.661662 0.895262 0.790204
0.791165 0.890547 0.842588
0.913466 0.892317 0.844038
0 1 0.528771
0.0459144 1 0.582834
0.166583 1 0.640635
0.29189 1 0.701946
0.41976 1 0.764797
0.548028 1 0.819883
0.673152 1 0.847898
0.796399 1 0.84889
0.917418 1 0.848722
0 0.141649 0.797314
0 0.122271 0.85713
0 0.0957351 0.919875
0.130175 0.0661631 0.970687
0.325246 0.0344396 1
0.501595 0.0118715 1
0.669505 0 0.987579
0.799741 0 0.977874
0.918395 0 0.975494
0 0.234348 0.759411
0 0.224552 0.809247
0 0.204257 0.876097
0.107469 0.178042 0.939818
0.300633 0.148135 0.987549
0.489219 0.123461 1
0.666743 0.105348 0.995926
0.806409 0.0996719 0.985245
0.927169 0.0993362 0.984497
0 0.337957 0.712154
0 0.330694 0.765164
0 0.321172 0.82005
0.0855726 0.301259 0.891005
0.267323 0.275746 0.955718
0.470085 0.247242 0.995468
0.652262 0.228733 0.999817
0.807111 0.220966 0.9879
0.930404 0.221958 0.987976
0 0.450233 0.659693
0 0.44596 0.713176
0 0.438804 0.770611
0.0786297 0.429816 0.830243
0.23978 0.411887 0.902861
0.430091 0.386542 0.967041
0.628092 0.363027 0.994751
0.801022 0.351247 0.986893
0.92845 0.352667 0.986328
0 0.568063 0.611337
0 0.566369 0.66334
0 0.562325 0.718608
0.0996414 0.556069 0.778637
0.237736 0.547646 0.841627
0.398322 0.531655 0.913832
0.595773 0.506416 0.975052
0.784909 0.489128 0.985367
0.923171 0.488411 0.981338
0 0.690501 0.5682
0 0.689982 0.620783
0.00349432 0.68748 0.675685
0.131548 0.683452 0.732692
0.264439 0.677958 0.792187
0.403769 0.669932 0.855985
0.56054 0.656489 0.926848
0.758373 0.632822 0.978485
0.917082 0.625925 0.975555
0 0.814633 0.537545
0 0.815015 0.588205
0.0432136 0.813397 0.64213
0.171435 0.809918 0.69868
0.303532 0.804913 0.756741
0.438499 0.798993 0.815763
0.575586 0.792264 0.876829
0.726909 0.780346 0.945449
0.91223 0.761868 0.973175
0 0.936629 0.536141
0 0.937316 0.584848
0.0881514 0.936019 0.635386
0.216205 0.93286 0.687129
0.347662 0.928054 0.739437
0.48188 0.922408 0.792966
0.61677 0.91603 0.848524
0.751507 0.909072 0.906508
0.894789 0.898299 0.968933
0 1 0.553414
0.00941482 1 0.601892
0.131655 1 0.651972
0.259159 1 0.703182
0.390005 1 0.754955
0.523507 1 0.807706
0.657359 1 0.861173
0.789761 1 0.916548
0.91751 1 0.973709
0 0.155032 0.893751
0 0.136584 0.952728
0 0.109636 1
0.0778363 0.0811933 1
0.272923 0.0487984 1
0.458595 0.0225986 1
0.636942 0.00135805 1
0.792966 0 1
0.917723 0 1
0 0.248493 0.856641
0 0.238911 0.906645
0 0.219471 0.972519
0.0584115 0.193408 1
0.245686 0.164889 1
0.447456 0.135195 1
0.627283 0.115175 1
0.796445 0.101396 1
0.927108 0.0989548 1
0 0.352941 0.8103
0 0.34583 0.863401
0 0.336339 0.918257
0.0374456 0.317525 0.988785
0.217807 0.29221 1
0.417853 0.263264 1
0.610162 0.240742 1
0.790036 0.225254 1
0.930495 0.222156 1
0 0.466453 0.757504
0 0.461982 0.812039
0 0.454749 0.869718
0.0334173 0.445838 0.92929
0.19237 0.428809 1
0.380026 0.403662 1
0.586252 0.376455 1
0.77084 0.359747 1
0.92755 0.353445 1
0 0.585534 0.707515
0 0.583688 0.760342
0 0.579355 0.817136
0.0541848 0.572717 0.878294
0.193057 0.564202 0.941299
0.35137 0.549035 1
0.543542 0.524636 1
0.744396 0.50161 1
0.918349 0.490242 1
0 0.708522 0.664149
0 0.707958 0.716793
0 0.705592 0.772122
0.0837415 0.701427 0.829969
0.218128 0.695232 0.89131
0.359152 0.686793 0.955993
0.513695 0.674128 1
0.709026 0.649622 1
0.899168 0.631388 1
0 0.833524 0.629206
0 0.833661 0.682216
0 0.831861 0.737728
0.12311 0.828275 0.794903
0.255207 0.823163 0.853086
0.390723 0.817044 0.913039
0.530282 0.809262 0.976715
0.680034 0.797696 1
0.87509 0.773312 1
0 0.956786 0.613153
0 0.957595 0.663081
0.0391089 0.956161 0.715572
0.166964 0.952682 0.770489
0.298451 0.947326 0.827283
0.432944 0.941009 0.885664
0.568109 0.934096 0.944228
0.703487 0.926345 1
0.847852 0.915114 1
0 1 0.620859
0 1 0.669429
0.0866712 1 0.719356
0.213855 1 0.770169
0.344594 1 0.821637
0.477821 1 0.873655
0.611429 1 0.926177
0.744244 1 0.980331
0.875975 1 1
