site/assets/luts/freshluts--0000683-canon-footage-correction.cube
# LUTr-Schema-Version: 2
# LUTr-ID: freshluts--0000683-canon-footage-correction
# LUTr-Title: Canon footage( Correction)
# LUTr-Collection: Fresh LUTs
# LUTr-Collection-ID: freshluts-community
# LUTr-Source: https://freshluts.com
# LUTr-Retrieved: 2026-07-27
# LUTr-Source-File: submissions-raw/freshluts/cubes/683__corr-canon_9.C2AIAEP200081.cube
# LUTr-Source-Format: CUBE
# LUTr-Source-SHA256: d596fc445eac3b657829fdf08ea3be3c36ac3d6af12bbe72fe7a64659ef2f648
# LUTr-License: CC0-1.0
# LUTr-License-URL: https://freshluts.com/termsandconditions
# LUTr-License-Basis: site-terms
# LUTr-Transform-Class: creative-look
# LUTr-Tags: creative, freshluts, community, cube, high-key, rec709, correction
# LUTr-Input-Color-Space: rec709
# LUTr-Input-Gamut: rec709
# LUTr-Input-Transfer: rec709
# LUTr-Output-Color-Space: srgb
# LUTr-Output-Gamut: rec709
# LUTr-Output-Transfer: srgb
# LUTr-Color-Space-Confidence: declared-by-source
# LUTr-Domain-Normalized: true
# LUTr-Shaper: none
# LUTr-Original-Grid: 33x33x33
# LUTr-Conversion-Grid: 33x33x33
# LUTr-Conversion-Interpolation: none
# LUTr-Conversion-Method: Metadata normalization; numeric LUT samples preserved
# LUTr-Conversion-Tool: LUTr scripts/convert-all-to-cube.mjs 2.0.0
# LUTr-Conversion-Date: 2026-07-28
# LUTr-Asset-URL: https://freshluts.com/luts/683
# LUTr-Author: lvannoeun@gmail.com
# LUTr-Author-URL: https://freshluts.com/users/57563
# LUTr-Attribution: lvannoeun@gmail.com via Fresh LUTs
# LUTr-Source-Labels: gamma=Rec 709; color=None; key=High Key; style=Colorful
# LUTr-Note: Preserve this metadata and the upstream license notices when redistributing.
TITLE "Canon footage( Correction)"
LUT_3D_SIZE 5
DOMAIN_MIN 0 0 0
DOMAIN_MAX 1 1 1
0 0 0
0.0998856 0 0
0.527764 0 0
0.847974 0 0
1 0 0
0 0.176684 0
0.232837 0.204837 0
0.636774 0.211032 0
0.966842 0.247242 0.0182803
1 0.308949 0.0731975
0.0164187 0.57644 0.0256657
0.285359 0.621637 0.0460212
0.661326 0.636942 0.00239567
0.9729 0.656672 0.0200351
1 0.695964 0.0541238
0.0988327 0.945418 0.0970932
0.350072 0.965042 0.104814
0.662211 0.962463 0.000976577
0.941741 0.947662 0
1 0.953201 0
0.184466 1 0.162615
0.399176 1 0.143023
0.679805 1 0.0389715
0.928954 1 0
1 1 0
0 0 0.0721294
0.112291 0 0.0860609
0.540368 0 0.112078
0.855329 0 0.116838
1 0 0.159564
0 0.188876 0.181003
0.246189 0.217105 0.207568
0.65333 0.227588 0.217792
0.981292 0.263645 0.253651
1 0.322316 0.311864
0.038819 0.591806 0.233433
0.307713 0.633417 0.266819
0.673045 0.648936 0.231952
0.980499 0.665904 0.248264
1 0.70106 0.283024
0.115892 0.952117 0.30547
0.361501 0.967987 0.314641
0.669581 0.958968 0.238804
0.939986 0.945541 0.197223
1 0.94902 0.200885
0.189288 1 0.37084
0.40087 1 0.349981
0.689754 1 0.277821
0.922927 1 0.174823
1 1 0.168826
0 0 0.452903
0.129381 0 0.494835
0.535225 0 0.500359
0.850584 0 0.504967
1 0 0.557015
0 0.189227 0.580972
0.246952 0.217319 0.611017
0.656886 0.230396 0.624628
0.982345 0.26479 0.660075
1 0.321599 0.717754
0.0165103 0.603296 0.591867
0.300801 0.638788 0.627817
0.670695 0.645991 0.633463
0.975311 0.659525 0.647105
1 0.690776 0.67892
0.111482 0.948959 0.65275
0.361257 0.957992 0.664851
0.675242 0.938003 0.636576
0.924773 0.928817 0.580301
1 0.930419 0.582162
0.177493 1 0.708721
0.393545 1 0.692973
0.684688 1 0.642451
0.905592 1 0.557778
1 1 0.544808
0 0 0.803738
0.143389 0 0.85861
0.532555 0 0.848554
0.850172 0 0.855238
1 0 0.907591
0 0.190448 0.926284
0.253941 0.223575 0.958038
0.66453 0.237995 0.971633
0.98735 0.270054 1
1 0.326329 1
0 0.61738 0.94345
0.279774 0.649088 0.97586
0.672053 0.646891 0.973999
0.97351 0.656977 0.982864
1 0.684535 1
0.0717021 0.959014 0.957229
0.324697 0.962798 0.961166
0.658015 0.933257 0.930648
0.913176 0.915312 0.912337
1 0.915602 0.911711
0.145739 1 0.987945
0.370275 1 0.970642
0.677546 1 0.928283
0.905638 1 0.900236
1 1 0.8766
0 0 1
0.157794 0 1
0.542306 0 1
0.862333 0 1
1 0 1
0 0.204715 1
0.273274 0.241886 1
0.682506 0.256138 1
1 0.286061 1
1 0.341512 1
0 0.6336 1
0.293492 0.663081 1
0.68275 0.657984 1
0.979751 0.664607 1
1 0.688334 1
0.0507668 0.972869 1
0.299687 0.97322 1
0.639536 0.938155 1
0.910872 0.913161 1
1 0.911955 1
0.113741 1 1
0.336248 1 1
0.650828 1 1
0.89575 1 1
1 1 1
