site/assets/luts/freshluts--0001299-picturefx-js-style-ethereal-pink-adjust-strenght-to-taste-ex.cube
# LUTr-Schema-Version: 2
# LUTr-ID: freshluts--0001299-picturefx-js-style-ethereal-pink-adjust-strenght-to-taste-ex
# LUTr-Title: PictureFX J.S. Style Ethereal Pink - adjust strenght to taste, exposure, bloom, etc - more at my website, PictureFX home.
# LUTr-Collection: Fresh LUTs
# LUTr-Collection-ID: freshluts-community
# LUTr-Source: https://freshluts.com
# LUTr-Retrieved: 2026-07-27
# LUTr-Source-File: submissions-raw/freshluts/cubes/1299__PictureFX_J.S._Style_Ethereal_Pink.cube
# LUTr-Source-Format: CUBE
# LUTr-Source-SHA256: 97dd552039e8fe490984f276ec6a4d7935a300e8562451534fcd7164b904681e
# LUTr-License: CC0-1.0
# LUTr-License-URL: https://freshluts.com/termsandconditions
# LUTr-License-Basis: site-terms
# LUTr-Transform-Class: creative-look
# LUTr-Tags: creative, freshluts, community, cube, film-emulation, rec709, assumed-input
# LUTr-Input-Color-Space: rec709
# LUTr-Input-Gamut: rec709
# LUTr-Input-Transfer: rec709
# LUTr-Output-Color-Space: srgb
# LUTr-Output-Gamut: rec709
# LUTr-Output-Transfer: srgb
# LUTr-Color-Space-Confidence: assumed-display-referred
# LUTr-Domain-Normalized: true
# LUTr-Shaper: none
# LUTr-Original-Grid: 25x25x25
# LUTr-Conversion-Grid: 25x25x25
# LUTr-Conversion-Interpolation: none
# LUTr-Conversion-Method: Metadata normalization; numeric LUT samples preserved
# LUTr-Conversion-Tool: LUTr scripts/convert-all-to-cube.mjs 2.0.0
# LUTr-Conversion-Date: 2026-07-28
# LUTr-Asset-URL: https://freshluts.com/luts/1299
# LUTr-Author: MarcR.
# LUTr-Author-URL: https://freshluts.com/users/86490
# LUTr-Attribution: MarcR. via Fresh LUTs
# LUTr-Source-Labels: gamma=Other; color=None; key=Neutral; style=Film emulation; LUTr assumption=input Rec.709 per repository policy
# LUTr-Conversion-Warning: Input Rec.709 is a LUTr catalog assumption requested for this otherwise unspecified Fresh LUT; it is not verified by the upstream asset.
# LUTr-Note: Preserve this metadata and the upstream license notices when redistributing.
# LUTr-Upstream-Comment: Generated by lutCreator.js
# LUTr-Upstream-Comment: Coded by SirSerch
# LUTr-Upstream-Comment: https://github.com/SirSerch/LutCreatorJs
TITLE "PictureFX J.S. Style Ethereal Pink - adjust strenght to taste, exposure, bloom, etc - more at my website, PictureFX home."
LUT_3D_SIZE 5
DOMAIN_MIN 0 0 0
DOMAIN_MAX 1 1 1
0.058824 0.003922 0.098039
0.411765 0.192157 0.305882
0.658824 0.298039 0.376471
0.847059 0.356863 0.419608
1 0.411765 0.466667
0.313725 0.403922 0.360784
0.439216 0.4 0.388235
0.643137 0.407843 0.419608
0.839216 0.435294 0.45098
1 0.470588 0.486275
0.419608 0.6 0.458824
0.494118 0.6 0.466667
0.647059 0.596078 0.494118
0.831373 0.6 0.517647
1 0.603922 0.537255
0.501961 0.780392 0.545098
0.552941 0.780392 0.545098
0.670588 0.772549 0.556863
0.827451 0.768627 0.572549
0.992157 0.760784 0.588235
0.564706 0.941176 0.607843
0.596078 0.937255 0.607843
0.690196 0.929412 0.611765
0.827451 0.92549 0.619608
0.984314 0.921569 0.639216
0.098039 0.007843 0.215686
0.407843 0.2 0.423529
0.627451 0.290196 0.490196
0.823529 0.352941 0.529412
1 0.415686 0.568627
0.321569 0.380392 0.45098
0.423529 0.384314 0.466667
0.619608 0.396078 0.517647
0.819608 0.431373 0.545098
1 0.47451 0.580392
0.407843 0.592157 0.537255
0.478431 0.588235 0.545098
0.627451 0.592157 0.580392
0.823529 0.6 0.603922
1 0.611765 0.615686
0.505882 0.788235 0.611765
0.552941 0.784314 0.615686
0.670588 0.780392 0.623529
0.827451 0.780392 0.643137
1 0.776471 0.662745
0.576471 0.960784 0.670588
0.607843 0.952941 0.670588
0.701961 0.945098 0.670588
0.835294 0.941176 0.682353
0.996078 0.937255 0.698039
0.34902 0.180392 0.556863
0.45098 0.227451 0.588235
0.627451 0.294118 0.631373
0.815686 0.356863 0.670588
1 0.419608 0.705882
0.384314 0.368627 0.584314
0.462745 0.368627 0.596078
0.619608 0.392157 0.635294
0.807843 0.431373 0.678431
1 0.478431 0.713725
0.439216 0.584314 0.658824
0.505882 0.580392 0.658824
0.631373 0.588235 0.678431
0.815686 0.6 0.729412
1 0.615686 0.745098
0.509804 0.784314 0.733333
0.556863 0.784314 0.733333
0.670588 0.780392 0.745098
0.815686 0.784314 0.776471
0.996078 0.784314 0.792157
0.580392 0.964706 0.784314
0.611765 0.956863 0.780392
0.701961 0.952941 0.780392
0.835294 0.945098 0.792157
0.996078 0.94902 0.815686
0.462745 0.247059 0.756863
0.521569 0.270588 0.764706
0.654902 0.313725 0.788235
0.823529 0.368627 0.815686
1 0.427451 0.847059
0.454902 0.380392 0.764706
0.513725 0.384314 0.768627
0.647059 0.403922 0.788235
0.819608 0.439216 0.819608
1 0.478431 0.85098
0.498039 0.580392 0.788235
0.552941 0.576471 0.788235
0.678431 0.580392 0.803922
0.823529 0.596078 0.843137
0.996078 0.611765 0.870588
0.537255 0.776471 0.854902
0.580392 0.772549 0.854902
0.694118 0.768627 0.854902
0.823529 0.776471 0.870588
0.988235 0.776471 0.909804
0.584314 0.952941 0.901961
0.615686 0.94902 0.898039
0.701961 0.941176 0.898039
0.827451 0.937255 0.909804
0.996078 0.964706 0.964706
0.564706 0.301961 0.933333
0.6 0.309804 0.937255
0.705882 0.345098 0.94902
0.847059 0.388235 0.964706
1 0.431373 0.984314
0.54902 0.403922 0.937255
0.588235 0.407843 0.937255
0.694118 0.423529 0.94902
0.839216 0.45098 0.968627
1 0.482353 0.988235
0.552941 0.584314 0.952941
0.592157 0.584314 0.956863
0.694118 0.584314 0.964706
0.835294 0.592157 0.980392
0.996078 0.603922 0.996078
0.580392 0.760784 0.972549
0.615686 0.760784 0.972549
0.717647 0.756863 0.964706
0.85098 0.752941 0.972549
0.988235 0.756863 1
0.6 0.929412 1
0.627451 0.92549 1
0.713725 0.921569 1
0.839216 0.917647 1
1 0.968627 1
