site/assets/luts/freshluts--0000112-brightgreen.cube
# LUTr-Schema-Version: 2
# LUTr-ID: freshluts--0000112-brightgreen
# LUTr-Title: BrightGreen
# LUTr-Collection: Fresh LUTs
# LUTr-Collection-ID: freshluts-community
# LUTr-Source: https://freshluts.com
# LUTr-Retrieved: 2026-07-27
# LUTr-Source-File: submissions-raw/freshluts/cubes/112__BrightGreen.cube
# LUTr-Source-Format: CUBE
# LUTr-Source-SHA256: 62040af96d990a52c8061b4c71203e96e4de0ae83ee2b8f4e3b62affc2af9ee4
# LUTr-License: CC0-1.0
# LUTr-License-URL: https://freshluts.com/termsandconditions
# LUTr-License-Basis: site-terms
# LUTr-Transform-Class: creative-look
# LUTr-Tags: creative, freshluts, community, cube, green, canon-cinestyle
# LUTr-Input-Color-Space:
# LUTr-Input-Gamut: rec709
# LUTr-Input-Transfer: canon-cinestyle
# LUTr-Output-Color-Space: srgb
# LUTr-Output-Gamut: rec709
# LUTr-Output-Transfer: srgb
# LUTr-Color-Space-Confidence: camera-profile-input-required
# LUTr-Domain-Normalized: true
# LUTr-Shaper: none
# LUTr-Original-Grid: 33x33x33
# LUTr-Conversion-Grid: 33x33x33
# LUTr-Conversion-Interpolation: none
# LUTr-Conversion-Method: Metadata normalization; numeric LUT samples preserved
# LUTr-Conversion-Tool: LUTr scripts/convert-all-to-cube.mjs 2.0.0
# LUTr-Conversion-Date: 2026-07-28
# LUTr-Asset-URL: https://freshluts.com/luts/112
# LUTr-Author: J. T. Semple
# LUTr-Author-URL: https://freshluts.com/users/120
# LUTr-Attribution: J. T. Semple via Fresh LUTs
# LUTr-Source-Labels: gamma=Canon Cinestyle; color=Green; key=Neutral; style=Colorful
# LUTr-Note: Preserve this metadata and the upstream license notices when redistributing.
TITLE "BrightGreen"
LUT_3D_SIZE 5
DOMAIN_MIN 0 0 0
DOMAIN_MAX 1 1 1
0 0 0
0 0 0
0.233936 0 0
0.517113 0 0
0.805524 0 0
0 0.0426947 0
0.0271763 0.0584573 0
0.283864 0.0716259 0
0.571221 0.0774243 0
0.861967 0.0856489 0
0 0.330877 0
0.0754406 0.352148 0
0.342519 0.371145 0
0.638453 0.383825 0
0.929686 0.397238 0
0 0.640406 0
0.144213 0.66453 0
0.418433 0.682536 0
0.716106 0.693614 0
1 0.705501 0
0 0.94316 0
0.234165 0.963424 0
0.509499 0.97435 0
0.800732 0.978546 0
1 0.984573 0
0 0 0
0 0 0
0.236484 0 0
0.519783 0 0
0.808377 0 0
0 0.04477 0
0.0297093 0.0607309 0.0143893
0.28661 0.0737011 0.0267033
0.574945 0.0804456 0.0332799
0.866621 0.0892805 0.0416571
0 0.334066 0.0391089
0.0800793 0.356481 0.0594644
0.347814 0.375799 0.0766613
0.644327 0.388525 0.0875257
0.935119 0.402014 0.0996109
0 0.645075 0.0991684
0.149401 0.669337 0.122774
0.42385 0.686992 0.140093
0.720867 0.697398 0.150072
1 0.708736 0.161288
0 0.946838 0.185107
0.237751 0.966049 0.205219
0.512474 0.976364 0.216434
0.802594 0.97966 0.220371
1 0.985275 0.227253
0 0 0.220401
0 0 0.237476
0.23888 0 0.251255
0.522606 0 0.257343
0.811032 0 0.261891
0 0.0460365 0.264897
0.032166 0.0627146 0.282811
0.289525 0.0757763 0.297139
0.579019 0.0832074 0.305638
0.871092 0.0929274 0.316426
0 0.337346 0.312459
0.0843061 0.36051 0.334813
0.352621 0.37998 0.35404
0.648569 0.392187 0.365621
0.93991 0.405936 0.379034
0 0.648997 0.379141
0.15349 0.672831 0.403632
0.428183 0.690394 0.42179
0.724453 0.700023 0.431891
1 0.710842 0.44329
0 0.949432 0.467475
0.240116 0.967727 0.487541
0.514305 0.977264 0.498375
0.803616 0.97998 0.502495
1 0.984771 0.508598
0 0 0.477882
0 0 0.495232
0.242435 0 0.508797
0.525765 0 0.514565
0.814542 0 0.519539
0 0.0489052 0.522667
0.0354314 0.0654917 0.540002
0.293935 0.0791638 0.554147
0.5841 0.0872053 0.562783
0.877455 0.0981765 0.573892
0 0.342351 0.569848
0.0897231 0.365911 0.591791
0.359075 0.38587 0.610346
0.655238 0.397925 0.620966
0.946227 0.411963 0.633509
0 0.654963 0.634577
0.159869 0.678813 0.657511
0.434791 0.695888 0.674174
0.730587 0.704997 0.682872
1 0.7149 0.692256
0 0.954253 0.717067
0.245182 0.971908 0.735073
0.51873 0.980453 0.743923
0.807813 0.983108 0.746532
1 0.98587 0.750271
0 0 0.716503
0 0 0.732219
0.247623 0 0.744488
0.531533 0 0.748867
0.820401 0 0.753017
0 0.0535897 0.75758
0.0407111 0.0702678 0.77322
0.300679 0.0847791 0.786862
0.592218 0.0937819 0.794858
0.88603 0.105592 0.805478
0 0.349691 0.80148
0.0976883 0.373922 0.822278
0.367514 0.393744 0.839048
0.664286 0.405921 0.848844
0.954574 0.419745 0.859998
0 0.662959 0.861708
0.168521 0.68687 0.883497
0.443244 0.703151 0.898116
0.738888 0.71191 0.90576
1 0.721233 0.913878
0.00204471 0.960861 0.939315
0.252125 0.977966 0.955901
0.525444 0.985855 0.963104
0.814008 0.988037 0.964858
1 0.987533 0.965042
