site/assets/luts/freshluts--0001103-avengers-going-camping-2.cube
# LUTr-Schema-Version: 2
# LUTr-ID: freshluts--0001103-avengers-going-camping-2
# LUTr-Title: Avengers Going Camping_2
# LUTr-Collection: Fresh LUTs
# LUTr-Collection-ID: freshluts-community
# LUTr-Source: https://freshluts.com
# LUTr-Retrieved: 2026-07-27
# LUTr-Source-File: submissions-raw/freshluts/cubes/1103__Avengers_going_Camping_2.cube
# LUTr-Source-Format: CUBE
# LUTr-Source-SHA256: 7fbce304e752279a7090944723ceceeb1b879cba72225b146d810d1f48a83fdf
# LUTr-License: CC0-1.0
# LUTr-License-URL: https://freshluts.com/termsandconditions
# LUTr-License-Basis: site-terms
# LUTr-Transform-Class: creative-look
# LUTr-Tags: creative, freshluts, community, cube, panasonic-v-log
# LUTr-Input-Color-Space: panasonic-vlog-vgamut
# LUTr-Input-Gamut: panasonic-v-gamut
# LUTr-Input-Transfer: panasonic-v-log
# LUTr-Output-Color-Space: srgb
# LUTr-Output-Gamut: rec709
# LUTr-Output-Transfer: srgb
# LUTr-Color-Space-Confidence: inferred-from-source-label
# LUTr-Domain-Normalized: true
# LUTr-Shaper: none
# LUTr-Original-Grid: 35x35x35
# LUTr-Conversion-Grid: 35x35x35
# LUTr-Conversion-Interpolation: none
# LUTr-Conversion-Method: Metadata normalization; numeric LUT samples preserved
# LUTr-Conversion-Tool: LUTr scripts/convert-all-to-cube.mjs 2.0.0
# LUTr-Conversion-Date: 2026-07-28
# LUTr-Asset-URL: https://freshluts.com/luts/1103
# LUTr-Author: Camera Head Studios LUTS
# LUTr-Author-URL: https://freshluts.com/users/107973
# LUTr-Attribution: Camera Head Studios LUTS via Fresh LUTs
# LUTr-Source-Labels: gamma=Panasonic V-log; color=None; key=Neutral; style=Adventure
# LUTr-Note: Preserve this metadata and the upstream license notices when redistributing.
# LUTr-Upstream-Comment: Created by: Pixelmator Pro
# LUTr-Upstream-Comment: Color profile: "sRGB IEC61966-2.1"
# LUTr-Upstream-Comment: Data domain
# LUTr-Upstream-Comment: LUT size
TITLE "Avengers Going Camping_2"
LUT_3D_SIZE 35
DOMAIN_MIN 0 0 0
DOMAIN_MAX 1 1 1
0 0 0
0 0 0
0 0 0
0 0 0
0 0 0
0 0 0
0 0 0
0 0 0
0 0 0
0 0 0
0 0 0
0 0 0
0 0 0
0 0 0
0 0 0
0.031 0 0
0.062 0 0
0.092 0 0
0.122 0 0
0.15 0 0
0.179 0 0
0.209 0 0
0.244 0 0
0.283 0 0
0.328 0 0
0.376 0.001 0.001
0.424 0.004 0.004
0.471 0.008 0.008
0.521 0.013 0.013
0.579 0.019 0.019
0.645 0.025 0.025
0.702 0.031 0.031
0.744 0.038 0.038
0.835 0.054 0.054
0.958 0.091 0.091
0 0 0
0 0 0
0 0 0
0 0 0
0 0 0
0 0 0
0 0 0
0 0 0
0 0 0
0 0 0
0 0 0
0 0 0
0 0 0
0 0 0
0.025 0.001 0
0.053 0.002 0
0.081 0.003 0
0.109 0.003 0
0.136 0.004 0
0.163 0.005 0
0.191 0.006 0
0.221 0.006 0
0.255 0.007 0
0.295 0.007 0
0.339 0.008 0
0.385 0.01 0.002
0.431 0.014 0.005
0.477 0.018 0.009
0.526 0.023 0.013
0.584 0.029 0.019
0.648 0.036 0.026
0.703 0.041 0.032
0.745 0.048 0.039
0.838 0.065 0.054
0.959 0.103 0.092
0 0 0
0 0 0
0 0 0
0 0 0
0 0 0
0 0 0
0 0 0
0 0 0
0 0 0
0 0 0
0 0 0
0 0 0
0 0 0
0.023 0.002 0
0.048 0.004 0
0.074 0.005 0
0.1 0.007 0
0.125 0.008 0
0.15 0.01 0
0.176 0.011 0
0.203 0.012 0
0.233 0.014 0
0.268 0.015 0
0.307 0.016 0
0.351 0.017 0
0.395 0.02 0.002
0.439 0.024 0.006
0.484 0.029 0.009
0.532 0.034 0.014
0.589 0.04 0.02
0.652 0.046 0.026
0.705 0.052 0.032
0.747 0.059 0.039
0.842 0.076 0.055
0.96 0.116 0.092
0 0 0
0 0 0
0 0 0
0 0 0
0 0 0
0 0 0
0 0 0
0 0 0
0 0 0
0 0 0
0 0 0
0.005 0.001 0
0.025 0.004 0
0.047 0.006 0
0.07 0.009 0
0.094 0.011 0
0.117 0.013 0
0.141 0.015 0
0.164 0.017 0
0.189 0.019 0
0.216 0.021 0
0.246 0.022 0
0.281 0.024 0
0.32 0.026 0
0.362 0.028 0
0.405 0.032 0.003
0.447 0.036 0.006
0.491 0.041 0.01
0.538 0.046 0.015
0.594 0.052 0.021
0.655 0.058 0.026
0.706 0.063 0.032
0.749 0.07 0.039
0.846 0.088 0.056
0.962 0.128 0.093
0 0 0
0 0 0
0 0 0
0 0 0
0 0 0
0 0 0
0 0 0
0 0 0
0 0 0
0 0 0
0.014 0.004 0
0.031 0.008 0
0.05 0.011 0
0.07 0.014 0
0.092 0.017 0
0.113 0.02 0
0.135 0.022 0
0.157 0.024 0
0.18 0.027 0
0.204 0.029 0
0.231 0.031 0
0.261 0.033 0
0.296 0.036 0
0.334 0.038 0
0.375 0.04 0.001
0.415 0.045 0.004
0.456 0.049 0.007
0.498 0.054 0.011
0.544 0.059 0.016
0.599 0.065 0.022
0.659 0.07 0.027
0.707 0.075 0.032
0.751 0.082 0.04
0.85 0.101 0.057
0.963 0.142 0.094
0 0 0
0 0 0
0 0 0
0 0 0
0 0 0
0 0 0
0 0 0
0 0 0
0.009 0.005 0
0.022 0.01 0
0.037 0.014 0
0.054 0.018 0
0.074 0.022 0
0.094 0.025 0
0.113 0.028 0
0.133 0.031 0
0.153 0.034 0
0.174 0.037 0
0.196 0.039 0
0.22 0.042 0
0.247 0.044 0
0.278 0.047 0
0.312 0.049 0
0.35 0.052 0
0.388 0.055 0.002
0.427 0.059 0.005
0.466 0.064 0.008
0.506 0.068 0.012
0.552 0.074 0.017
0.605 0.079 0.022
0.663 0.083 0.027
0.708 0.087 0.032
0.754 0.095 0.04
0.855 0.114 0.057
0.965 0.157 0.095
0 0 0
0 0 0
0 0 0
0 0 0
0 0 0
0.004 0.005 0
0.011 0.011 0
0.02 0.016 0
0.031 0.02 0
0.043 0.025 0
0.059 0.029 0
0.076 0.033 0
0.094 0.037 0
0.113 0.04 0
0.133 0.044 0
0.152 0.047 0
0.172 0.05 0
0.192 0.053 0
0.214 0.055 0
0.238 0.058 0
0.265 0.06 0
0.296 0.063 0
0.329 0.065 0
0.366 0.068 0
0.402 0.072 0.003
0.439 0.076 0.005
0.476 0.08 0.009
0.515 0.084 0.013
0.559 0.089 0.018
0.612 0.094 0.023
0.666 0.097 0.027
0.71 0.101 0.032
0.757 0.109 0.041
0.861 0.129 0.058
0.966 0.174 0.096
0 0 0
0 0.001 0
0.002 0.007 0
0.004 0.012 0
0.009 0.018 0
0.015 0.024 0
0.025 0.03 0
0.037 0.037 0
0.05 0.042 0
0.064 0.045 0
0.079 0.049 0
0.096 0.052 0
0.113 0.056 0
0.132 0.059 0
0.15 0.063 0
0.17 0.066 0
0.19 0.069 0
0.212 0.072 0
0.233 0.075 0
0.258 0.077 0
0.285 0.079 0
0.315 0.082 0
0.348 0.084 0
0.383 0.087 0.001
0.417 0.09 0.003
0.451 0.094 0.006
0.486 0.098 0.01
0.524 0.102 0.014
0.568 0.106 0.018
0.619 0.109 0.023
0.67 0.112 0.027
0.712 0.115 0.032
0.762 0.124 0.041
0.867 0.146 0.059
0.968 0.192 0.097
0 0.022 0
0.002 0.027 0
0.006 0.032 0
0.011 0.038 0
0.017 0.043 0
0.026 0.048 0
0.037 0.054 0
0.05 0.06 0
0.066 0.066 0
0.082 0.07 0
0.098 0.073 0
0.115 0.076 0
0.132 0.079 0
0.149 0.082 0
0.167 0.085 0
0.186 0.088 0
0.207 0.091 0
0.229 0.094 0
0.253 0.096 0
0.28 0.099 0
0.307 0.101 0
0.337 0.103 0
0.368 0.105 0
0.4 0.107 0.001
0.432 0.11 0.004
0.464 0.113 0.007
0.497 0.117 0.01
0.534 0.12 0.015
0.576 0.123 0.019
0.626 0.126 0.023
0.674 0.128 0.027
0.715 0.131 0.033
0.767 0.141 0.042
0.874 0.163 0.061
0.97 0.213 0.098
0 0.053 0
0.004 0.057 0
0.01 0.062 0
0.017 0.066 0
0.025 0.071 0
0.035 0.076 0
0.047 0.081 0
0.062 0.086 0
0.078 0.091 0
0.097 0.097 0
0.116 0.101 0
0.132 0.103 0
0.149 0.106 0
0.166 0.108 0
0.184 0.11 0
0.203 0.112 0
0.224 0.115 0
0.246 0.117 0
0.271 0.119 0
0.298 0.122 0
0.327 0.124 0
0.358 0.126 0
0.388 0.128 0
0.418 0.129 0.001
0.447 0.132 0.004
0.477 0.134 0.007
0.508 0.136 0.011
0.544 0.139 0.015
0.585 0.141 0.019
0.632 0.143 0.023
0.677 0.144 0.027
0.719 0.147 0.033
0.773 0.158 0.043
0.881 0.183 0.062
0.973 0.236 0.1
0 0.085 0
0.006 0.089 0
0.013 0.092 0
0.022 0.096 0
0.032 0.1 0
0.043 0.105 0
0.057 0.109 0
0.072 0.114 0
0.09 0.119 0
0.109 0.123 0
0.128 0.128 0
0.148 0.132 0
0.165 0.134 0
0.182 0.135 0
0.201 0.137 0
0.22 0.138 0
0.241 0.14 0
0.264 0.142 0
0.289 0.143 0
0.316 0.145 0
0.344 0.147 0
0.375 0.149 0
0.405 0.151 0
0.435 0.152 0.001
0.462 0.154 0.004
0.49 0.155 0.008
0.52 0.157 0.012
0.554 0.158 0.016
0.594 0.159 0.019
0.638 0.16 0.023
0.681 0.161 0.027
0.725 0.165 0.033
0.781 0.178 0.044
0.889 0.204 0.063
0.975 0.262 0.101
0 0.117 0
0.008 0.12 0
0.016 0.123 0
0.026 0.127 0
0.037 0.13 0
0.05 0.134 0
0.065 0.137 0
0.082 0.142 0
0.1 0.146 0
0.119 0.15 0
0.139 0.155 0
0.159 0.159 0
0.179 0.163 0
0.197 0.163 0
0.216 0.164 0
0.236 0.165 0
0.258 0.166 0
0.281 0.167 0
0.306 0.169 0
0.333 0.17 0
0.361 0.171 0
0.389 0.172 0
0.418 0.174 0.001
0.446 0.175 0.003
0.474 0.176 0.005
0.502 0.177 0.008
0.531 0.178 0.012
0.564 0.178 0.015
0.602 0.178 0.019
0.643 0.178 0.022
0.687 0.178 0.027
0.731 0.184 0.033
0.79 0.198 0.045
0.896 0.228 0.064
0.977 0.292 0.102
0 0.148 0
0.009 0.151 0
0.019 0.154 0
0.03 0.156 0
0.043 0.159 0
0.057 0.163 0
0.072 0.166 0
0.09 0.17 0
0.108 0.173 0
0.127 0.177 0
0.147 0.181 0
0.168 0.185 0
0.189 0.189 0
0.211 0.193 0
0.231 0.193 0
0.252 0.193 0
0.274 0.194 0
0.298 0.194 0
0.322 0.195 0
0.348 0.195 0
0.375 0.196 0.001
0.402 0.197 0.002
0.428 0.197 0.004
0.455 0.198 0.005
0.482 0.199 0.007
0.511 0.199 0.009
0.541 0.199 0.011
0.573 0.198 0.014
0.609 0.197 0.018
0.649 0.196 0.022
0.694 0.198 0.027
0.737 0.205 0.034
0.801 0.222 0.045
0.904 0.254 0.066
0.98 0.324 0.104
0 0.179 0
0.01 0.181 0
0.022 0.184 0
0.034 0.186 0
0.047 0.189 0
0.062 0.192 0
0.079 0.195 0
0.097 0.198 0
0.116 0.202 0
0.135 0.205 0
0.155 0.209 0
0.176 0.213 0
0.197 0.216 0
0.22 0.22 0
0.244 0.223 0
0.265 0.223 0
0.288 0.223 0
0.312 0.222 0
0.336 0.222 0.001
0.361 0.222 0.002
0.387 0.222 0.003
0.412 0.222 0.005
0.438 0.222 0.006
0.463 0.222 0.007
0.489 0.222 0.009
0.516 0.221 0.011
0.546 0.22 0.012
0.581 0.219 0.013
0.616 0.217 0.016
0.658 0.217 0.021
0.703 0.22 0.026
0.745 0.229 0.034
0.813 0.247 0.046
0.912 0.284 0.067
0.982 0.358 0.105
0 0.21 0
0.011 0.213 0
0.024 0.215 0
0.037 0.217 0
0.051 0.219 0
0.067 0.222 0
0.084 0.225 0
0.103 0.228 0
0.122 0.231 0
0.142 0.235 0
0.162 0.238 0
0.183 0.242 0
0.204 0.245 0
0.227 0.248 0
0.251 0.251 0
0.277 0.254 0.001
0.3 0.253 0.002
0.324 0.252 0.003
0.348 0.251 0.004
0.372 0.25 0.005
0.397 0.25 0.006
0.421 0.249 0.007
0.445 0.248 0.008
0.469 0.247 0.01
0.494 0.246 0.011
0.52 0.244 0.012
0.55 0.242 0.013
0.584 0.24 0.014
0.626 0.24 0.015
0.67 0.241 0.02
0.713 0.246 0.026
0.754 0.256 0.034
0.825 0.277 0.047
0.919 0.317 0.068
0.984 0.393 0.106
0 0.244 0
0.012 0.246 0
0.026 0.248 0
0.04 0.25 0
0.055 0.252 0
0.071 0.254 0
0.089 0.257 0
0.108 0.26 0
0.127 0.263 0
0.147 0.266 0
0.167 0.269 0
0.188 0.272 0
0.21 0.275 0
0.233 0.278 0.001
0.257 0.28 0.002
0.283 0.283 0.003
0.31 0.285 0.004
0.333 0.283 0.005
0.357 0.282 0.006
0.381 0.28 0.007
0.405 0.278 0.008
0.428 0.276 0.009
0.451 0.275 0.011
0.474 0.273 0.012
0.498 0.27 0.013
0.523 0.268 0.013
0.552 0.265 0.014
0.589 0.264 0.015
0.635 0.265 0.016
0.683 0.269 0.019
0.723 0.275 0.025
0.765 0.287 0.034
0.839 0.31 0.048
0.926 0.352 0.069
0.987 0.427 0.106
0 0.279 0
0.013 0.281 0
0.027 0.283 0
0.042 0.285 0
0.058 0.287 0
0.075 0.289 0
0.093 0.291 0
0.112 0.294 0
0.132 0.296 0
0.151 0.299 0
0.172 0.301 0.001
0.193 0.304 0.002
0.215 0.306 0.003
0.237 0.308 0.004
0.262 0.31 0.005
0.287 0.312 0.006
0.313 0.313 0.007
0.34 0.315 0.008
0.364 0.312 0.009
0.387 0.31 0.01
0.41 0.307 0.011
0.433 0.305 0.012
0.455 0.302 0.013
0.477 0.299 0.013
0.5 0.295 0.014
0.527 0.293 0.014
0.559 0.292 0.015
0.598 0.292 0.016
0.646 0.295 0.018
0.694 0.3 0.02
0.733 0.309 0.024
0.778 0.323 0.034
0.853 0.347 0.048
0.933 0.389 0.07
0.989 0.461 0.107
0 0.316 0
0.014 0.318 0
0.029 0.319 0
0.044 0.321 0
0.06 0.322 0
0.078 0.324 0
0.097 0.326 0.001
0.116 0.328 0.001
0.136 0.33 0.002
0.156 0.332 0.003
0.176 0.333 0.004
0.197 0.335 0.004
0.218 0.337 0.005
0.241 0.338 0.006
0.265 0.34 0.007
0.29 0.341 0.008
0.316 0.341 0.009
0.342 0.342 0.01
0.368 0.342 0.012
0.391 0.339 0.013
0.414 0.336 0.014
0.435 0.332 0.014
0.457 0.329 0.014
0.48 0.326 0.015
0.505 0.324 0.015
0.534 0.323 0.016
0.568 0.323 0.017
0.611 0.324 0.018
0.659 0.328 0.02
0.705 0.335 0.022
0.743 0.346 0.025
0.792 0.362 0.033
0.868 0.386 0.048
0.939 0.427 0.07
0.991 0.495 0.108
0.001 0.353 0.001
0.016 0.354 0.001
0.031 0.355 0.002
0.047 0.356 0.002
0.064 0.357 0.002
0.082 0.358 0.003
0.1 0.359 0.003
0.12 0.361 0.004
0.139 0.362 0.005
0.159 0.363 0.005
0.179 0.365 0.006
0.2 0.366 0.007
0.221 0.367 0.008
0.243 0.367 0.009
0.267 0.368 0.01
0.291 0.368 0.011
0.316 0.368 0.012
0.342 0.368 0.013
0.367 0.367 0.014
0.393 0.367 0.015
0.417 0.365 0.015
0.439 0.362 0.015
0.463 0.36 0.016
0.487 0.358 0.016
0.514 0.357 0.017
0.545 0.357 0.018
0.582 0.358 0.019
0.627 0.36 0.02
0.674 0.365 0.022
0.715 0.373 0.024
0.753 0.385 0.027
0.81 0.403 0.032
0.882 0.426 0.047
0.946 0.464 0.07
0.994 0.531 0.108
0.004 0.387 0.004
0.019 0.388 0.004
0.034 0.388 0.005
0.051 0.389 0.005
0.068 0.39 0.005
0.085 0.39 0.006
0.104 0.391 0.006
0.123 0.392 0.007
0.142 0.393 0.008
0.161 0.393 0.008
0.181 0.394 0.009
0.202 0.394 0.01
0.223 0.394 0.011
0.245 0.394 0.012
0.267 0.394 0.013
0.291 0.394 0.014
0.316 0.393 0.014
0.341 0.393 0.015
0.368 0.394 0.015
0.395 0.395 0.016
0.423 0.397 0.017
0.448 0.396 0.017
0.472 0.395 0.018
0.498 0.394 0.019
0.527 0.394 0.019
0.56 0.395 0.02
0.6 0.397 0.021
0.645 0.4 0.023
0.689 0.405 0.024
0.726 0.414 0.027
0.764 0.426 0.03
0.825 0.444 0.034
0.896 0.467 0.046
0.952 0.503 0.07
0.996 0.571 0.107
0.007 0.418 0.007
0.022 0.419 0.007
0.038 0.419 0.008
0.054 0.419 0.008
0.071 0.42 0.009
0.088 0.42 0.009
0.106 0.42 0.01
0.125 0.42 0.01
0.144 0.421 0.011
0.163 0.421 0.011
0.183 0.42 0.012
0.203 0.42 0.013
0.223 0.42 0.014
0.244 0.419 0.014
0.267 0.419 0.015
0.291 0.419 0.015
0.317 0.42 0.016
0.344 0.422 0.016
0.372 0.424 0.017
0.4 0.426 0.018
0.429 0.429 0.019
0.458 0.433 0.02
0.485 0.434 0.021
0.512 0.434 0.021
0.543 0.434 0.022
0.579 0.436 0.023
0.621 0.438 0.024
0.665 0.441 0.025
0.704 0.447 0.027
0.737 0.455 0.03
0.778 0.467 0.033
0.84 0.484 0.037
0.909 0.51 0.044
0.958 0.546 0.069
0.998 0.618 0.112
0.01 0.446 0.01
0.026 0.446 0.011
0.041 0.446 0.011
0.057 0.446 0.011
0.073 0.446 0.012
0.091 0.446 0.012
0.108 0.446 0.013
0.126 0.446 0.013
0.145 0.445 0.014
0.164 0.445 0.014
0.183 0.445 0.015
0.203 0.445 0.015
0.224 0.445 0.016
0.246 0.446 0.016
0.269 0.447 0.017
0.295 0.449 0.017
0.322 0.451 0.018
0.35 0.453 0.018
0.379 0.456 0.019
0.409 0.46 0.02
0.438 0.464 0.021
0.468 0.468 0.022
0.5 0.474 0.023
0.53 0.476 0.024
0.563 0.477 0.025
0.602 0.478 0.026
0.644 0.481 0.027
0.685 0.485 0.029
0.719 0.49 0.031
0.75 0.498 0.033
0.793 0.51 0.036
0.856 0.528 0.04
0.919 0.556 0.046
0.964 0.596 0.066
0.999 0.674 0.168
0.014 0.471 0.014
0.029 0.471 0.014
0.044 0.471 0.014
0.059 0.47 0.015
0.075 0.47 0.015
0.092 0.47 0.015
0.109 0.471 0.015
0.127 0.471 0.015
0.146 0.471 0.016
0.165 0.472 0.016
0.185 0.473 0.017
0.205 0.475 0.017
0.227 0.476 0.018
0.25 0.478 0.018
0.275 0.48 0.019
0.302 0.483 0.019
0.33 0.486 0.02
0.359 0.489 0.021
0.39 0.493 0.022
0.42 0.497 0.023
0.45 0.502 0.024
0.481 0.508 0.025
0.514 0.514 0.026
0.551 0.521 0.028
0.588 0.524 0.029
0.628 0.526 0.03
0.668 0.529 0.031
0.704 0.533 0.033
0.733 0.539 0.035
0.765 0.548 0.037
0.812 0.561 0.04
0.873 0.58 0.044
0.928 0.609 0.049
0.97 0.651 0.063
1 0.712 0.209
0.016 0.499 0.016
0.031 0.499 0.016
0.046 0.499 0.016
0.061 0.5 0.017
0.077 0.501 0.017
0.094 0.501 0.017
0.112 0.502 0.017
0.13 0.504 0.018
0.149 0.505 0.018
0.169 0.507 0.019
0.189 0.509 0.019
0.211 0.511 0.02
0.234 0.514 0.02
0.258 0.516 0.021
0.285 0.52 0.022
0.313 0.523 0.022
0.342 0.527 0.023
0.373 0.531 0.024
0.403 0.536 0.025
0.434 0.541 0.026
0.464 0.547 0.027
0.496 0.554 0.028
0.53 0.561 0.03
0.57 0.57 0.032
0.616 0.58 0.033
0.657 0.584 0.035
0.692 0.588 0.036
0.721 0.593 0.037
0.748 0.599 0.039
0.783 0.608 0.041
0.832 0.621 0.044
0.888 0.639 0.048
0.937 0.665 0.053
0.976 0.697 0.06
1 0.738 0.224
0.019 0.537 0.019
0.034 0.537 0.019
0.049 0.538 0.019
0.065 0.54 0.019
0.081 0.541 0.02
0.099 0.542 0.02
0.117 0.544 0.02
0.135 0.546 0.021
0.155 0.548 0.021
0.175 0.551 0.022
0.196 0.554 0.022
0.219 0.557 0.023
0.243 0.561 0.024
0.269 0.565 0.024
0.297 0.569 0.025
0.327 0.573 0.026
0.358 0.579 0.027
0.389 0.584 0.028
0.42 0.59 0.029
0.451 0.596 0.03
0.482 0.603 0.031
0.514 0.611 0.032
0.551 0.62 0.034
0.593 0.629 0.036
0.639 0.639 0.037
0.683 0.65 0.04
0.713 0.655 0.041
0.738 0.659 0.042
0.766 0.664 0.044
0.804 0.672 0.046
0.854 0.681 0.049
0.904 0.693 0.052
0.945 0.709 0.057
0.98 0.73 0.063
1 0.765 0.245
0.022 0.589 0.022
0.038 0.59 0.023
0.054 0.592 0.023
0.07 0.594 0.023
0.087 0.595 0.023
0.105 0.597 0.024
0.123 0.6 0.024
0.143 0.603 0.025
0.163 0.606 0.025
0.184 0.609 0.026
0.206 0.613 0.026
0.23 0.617 0.027
0.256 0.621 0.028
0.284 0.626 0.029
0.314 0.631 0.029
0.345 0.636 0.03
0.377 0.641 0.031
0.409 0.647 0.032
0.44 0.653 0.033
0.47 0.659 0.035
0.502 0.665 0.036
0.536 0.672 0.037
0.575 0.679 0.039
0.619 0.686 0.04
0.663 0.694 0.042
