site/assets/luts/freshluts--0000881-picturefx-cross-process-methode-1-color-toning-adjustments.cube
# LUTr-Schema-Version: 2
# LUTr-ID: freshluts--0000881-picturefx-cross-process-methode-1-color-toning-adjustments
# LUTr-Title: PictureFX Cross Process Methode 1 – Color Toning adjustments
# LUTr-Collection: Fresh LUTs
# LUTr-Collection-ID: freshluts-community
# LUTr-Source: https://freshluts.com
# LUTr-Retrieved: 2026-07-27
# LUTr-Source-File: submissions-raw/freshluts/cubes/881__PictureFX-Cross-Process-Methode-1.cube
# LUTr-Source-Format: CUBE
# LUTr-Source-SHA256: 790886c6afd574acc3945fd230651ba3689a907dd6e4fe11e9a4553039955d11
# LUTr-License: CC0-1.0
# LUTr-License-URL: https://freshluts.com/termsandconditions
# LUTr-License-Basis: site-terms
# LUTr-Transform-Class: creative-look
# LUTr-Tags: creative, freshluts, community, cube, cross-process
# LUTr-Input-Color-Space:
# LUTr-Input-Gamut: unspecified
# LUTr-Input-Transfer: unspecified
# LUTr-Output-Color-Space: srgb
# LUTr-Output-Gamut: rec709
# LUTr-Output-Transfer: srgb
# LUTr-Color-Space-Confidence: camera-profile-input-required
# LUTr-Domain-Normalized: true
# LUTr-Shaper: none
# LUTr-Original-Grid: 25x25x25
# LUTr-Conversion-Grid: 25x25x25
# LUTr-Conversion-Interpolation: none
# LUTr-Conversion-Method: Metadata normalization; numeric LUT samples preserved
# LUTr-Conversion-Tool: LUTr scripts/convert-all-to-cube.mjs 2.0.0
# LUTr-Conversion-Date: 2026-07-28
# LUTr-Asset-URL: https://freshluts.com/luts/881
# LUTr-Author: MarcR.
# LUTr-Author-URL: https://freshluts.com/users/86490
# LUTr-Attribution: MarcR. via Fresh LUTs
# LUTr-Source-Labels: gamma=Other; color=None; key=Neutral; style=Cross Process
# LUTr-Note: Preserve this metadata and the upstream license notices when redistributing.
# LUTr-Upstream-Comment: Generated with IWLTBAP LUT Generator
# LUTr-Upstream-Comment: Website: http://luts.iwltbap.com
# LUTr-Upstream-Comment: LUT size
# LUTr-Upstream-Comment: LUT data points
TITLE "PictureFX Cross Process Methode 1 – Color Toning adjustments"
LUT_3D_SIZE 25
DOMAIN_MIN 0 0 0
DOMAIN_MAX 1 1 1
0 0 0
0 0 0
0 0 0
0 0 0
0 0 0
0 0 0
0 0 0
0.003922 0 0
0.043137 0 0.011765
0.086275 0 0.031373
0.152941 0 0.07451
0.247059 0 0.133333
0.341176 0 0.196078
0.431373 0 0.254902
0.509804 0 0.305882
0.580392 0 0.34902
0.643137 0.180392 0.396078
0.701961 0.32549 0.435294
0.74902 0.45098 0.462745
0.831373 0.466667 0.337255
0.917647 0.443137 0.160784
0.996078 0.427451 0.196078
1 0.423529 0.223529
1 0.423529 0.247059
1 0.427451 0.25098
0 0 0
0 0 0
0 0 0
0 0 0
0 0 0
0 0 0
0 0 0
0.011765 0 0.003922
0.05098 0 0.011765
0.094118 0 0.039216
0.160784 0 0.082353
0.254902 0 0.141176
0.34902 0 0.2
0.439216 0 0.254902
0.513725 0 0.305882
0.584314 0.023529 0.352941
0.647059 0.2 0.396078
0.701961 0.337255 0.439216
0.74902 0.458824 0.462745
0.831373 0.466667 0.329412
0.921569 0.447059 0.160784
0.996078 0.431373 0.196078
1 0.427451 0.223529
1 0.427451 0.247059
1 0.431373 0.254902
0 0 0
0 0 0
0 0 0
0 0 0
0 0 0
0 0 0
0 0 0
0.023529 0 0.003922
0.058824 0 0.019608
0.105882 0.003922 0.043137
0.172549 0 0.086275
0.270588 0 0.14902
0.360784 0 0.203922
0.447059 0 0.258824
0.521569 0 0.309804
0.588235 0.078431 0.356863
0.647059 0.219608 0.4
0.701961 0.352941 0.439216
0.74902 0.470588 0.462745
0.835294 0.470588 0.313725
0.92549 0.45098 0.164706
0.996078 0.435294 0.2
1 0.431373 0.227451
1 0.435294 0.25098
1 0.439216 0.254902
0 0 0
0 0 0
0 0 0
0 0 0
0 0 0
0 0 0
0.011765 0 0
0.039216 0.003922 0.007843
0.070588 0.007843 0.023529
0.121569 0.011765 0.054902
0.192157 0.007843 0.098039
0.290196 0 0.156863
0.376471 0 0.211765
0.454902 0 0.262745
0.529412 0.003922 0.313725
0.592157 0.129412 0.360784
0.65098 0.25098 0.403922
0.705882 0.372549 0.443137
0.752941 0.482353 0.462745
0.839216 0.47451 0.290196
0.929412 0.458824 0.168627
1 0.443137 0.2
1 0.439216 0.231373
1 0.443137 0.254902
1 0.447059 0.258824
0 0 0
0 0 0
0 0 0
0 0 0
0 0.003922 0
0.007843 0.003922 0
0.027451 0.011765 0.003922
0.054902 0.015686 0.015686
0.090196 0.023529 0.035294
0.145098 0.027451 0.066667
0.223529 0.023529 0.109804
0.313725 0.015686 0.164706
0.392157 0.015686 0.215686
0.470588 0.023529 0.270588
0.537255 0.090196 0.317647
0.596078 0.184314 0.364706
0.654902 0.286275 0.407843
0.705882 0.4 0.447059
0.756863 0.498039 0.458824
0.847059 0.482353 0.254902
0.933333 0.466667 0.172549
1 0.454902 0.207843
1 0.45098 0.235294
1 0.454902 0.258824
1 0.458824 0.262745
0 0.015686 0.003922
0 0.015686 0.003922
0 0.019608 0.003922
0 0.019608 0.003922
0.003922 0.023529 0.007843
0.019608 0.027451 0.007843
0.039216 0.035294 0.015686
0.066667 0.043137 0.027451
0.113725 0.054902 0.047059
0.176471 0.058824 0.07451
0.258824 0.062745 0.117647
0.337255 0.070588 0.172549
0.415686 0.082353 0.223529
0.482353 0.109804 0.278431
0.545098 0.164706 0.329412
0.6 0.239216 0.372549
0.658824 0.329412 0.415686
0.709804 0.431373 0.45098
0.760784 0.509804 0.443137
0.854902 0.494118 0.203922
0.941176 0.478431 0.180392
1 0.470588 0.215686
1 0.466667 0.243137
1 0.470588 0.266667
1 0.47451 0.266667
0 0.058824 0.023529
0 0.058824 0.023529
0 0.058824 0.023529
0 0.058824 0.023529
0.003922 0.062745 0.027451
0.023529 0.070588 0.027451
0.054902 0.07451 0.031373
0.090196 0.086275 0.039216
0.137255 0.098039 0.058824
0.207843 0.117647 0.090196
0.290196 0.12549 0.129412
0.360784 0.137255 0.180392
0.431373 0.160784 0.239216
0.494118 0.188235 0.290196
0.552941 0.231373 0.341176
0.607843 0.294118 0.384314
0.662745 0.376471 0.423529
0.713725 0.466667 0.454902
0.772549 0.52549 0.423529
0.862745 0.509804 0.14902
0.945098 0.498039 0.188235
1 0.486275 0.223529
1 0.486275 0.25098
1 0.490196 0.270588
1 0.494118 0.27451
0 0.121569 0.058824
0 0.12549 0.058824
0 0.12549 0.058824
0 0.12549 0.058824
0 0.129412 0.058824
0 0.137255 0.054902
0.054902 0.145098 0.058824
0.113725 0.152941 0.066667
0.172549 0.164706 0.07451
0.243137 0.188235 0.105882
0.313725 0.2 0.152941
0.380392 0.219608 0.207843
0.443137 0.235294 0.258824
0.501961 0.258824 0.305882
0.556863 0.298039 0.352941
0.611765 0.352941 0.396078
0.666667 0.423529 0.431373
0.717647 0.509804 0.458824
0.784314 0.545098 0.396078
0.870588 0.529412 0.160784
0.952941 0.517647 0.203922
1 0.509804 0.235294
1 0.509804 0.258824
1 0.509804 0.282353
1 0.517647 0.282353
0 0.223529 0.109804
0 0.223529 0.109804
0 0.227451 0.109804
0 0.227451 0.113725
0 0.227451 0.113725
0 0.235294 0.109804
0 0.243137 0.105882
0.113725 0.247059 0.109804
0.196078 0.254902 0.117647
0.266667 0.262745 0.133333
0.329412 0.278431 0.180392
0.396078 0.290196 0.231373
0.454902 0.305882 0.278431
0.509804 0.329412 0.32549
0.564706 0.364706 0.368627
0.619608 0.411765 0.407843
0.67451 0.478431 0.439216
0.717647 0.552941 0.458824
0.796078 0.564706 0.345098
0.882353 0.552941 0.180392
0.960784 0.541176 0.219608
1 0.533333 0.247059
1 0.533333 0.270588
1 0.537255 0.290196
1 0.545098 0.294118
0 0.317647 0.168627
0 0.317647 0.168627
0 0.321569 0.168627
0 0.321569 0.172549
0 0.321569 0.172549
0 0.32549 0.176471
0 0.329412 0.176471
0.094118 0.333333 0.184314
0.2 0.337255 0.192157
0.278431 0.345098 0.203922
0.345098 0.34902 0.215686
0.407843 0.360784 0.254902
0.466667 0.372549 0.301961
0.517647 0.392157 0.345098
0.572549 0.423529 0.384314
0.627451 0.470588 0.419608
0.678431 0.533333 0.447059
0.72549 0.592157 0.45098
0.811765 0.588235 0.258824
0.894118 0.580392 0.2
0.964706 0.568627 0.235294
1 0.564706 0.262745
1 0.564706 0.286275
1 0.568627 0.301961
1 0.572549 0.305882
0 0.403922 0.239216
0 0.403922 0.239216
0 0.403922 0.243137
0 0.403922 0.243137
0 0.403922 0.243137
0 0.403922 0.247059
0 0.407843 0.25098
0.082353 0.411765 0.254902
0.2 0.415686 0.262745
0.282353 0.419608 0.270588
0.352941 0.423529 0.278431
0.415686 0.427451 0.290196
0.47451 0.439216 0.32549
0.52549 0.458824 0.364706
0.580392 0.490196 0.4
0.631373 0.533333 0.427451
0.678431 0.592157 0.45098
0.741176 0.623529 0.411765
0.827451 0.619608 0.184314
0.909804 0.607843 0.223529
0.968627 0.6 0.254902
1 0.596078 0.278431
1 0.596078 0.301961
1 0.6 0.317647
1 0.607843 0.321569
0 0.478431 0.305882
0 0.478431 0.305882
0 0.478431 0.309804
0 0.478431 0.309804
0 0.478431 0.309804
0 0.482353 0.313725
0 0.482353 0.313725
0.07451 0.486275 0.317647
0.203922 0.490196 0.32549
0.286275 0.490196 0.333333
0.352941 0.498039 0.341176
0.419608 0.501961 0.34902
0.478431 0.505882 0.356863
0.533333 0.52549 0.380392
0.588235 0.552941 0.411765
0.635294 0.6 0.439216
0.678431 0.65098 0.454902
0.756863 0.658824 0.345098
0.839216 0.654902 0.211765
0.917647 0.643137 0.247059
0.972549 0.635294 0.27451
1 0.631373 0.298039
1 0.631373 0.321569
1 0.635294 0.337255
1 0.643137 0.337255
0.12549 0.556863 0.368627
0.12549 0.556863 0.368627
0.12549 0.560784 0.368627
0.129412 0.560784 0.372549
0.129412 0.560784 0.372549
0.133333 0.564706 0.372549
0.137255 0.564706 0.376471
0.137255 0.568627 0.376471
0.196078 0.572549 0.380392
0.278431 0.576471 0.388235
0.34902 0.580392 0.392157
0.415686 0.588235 0.396078
0.478431 0.592157 0.403922
0.537255 0.6 0.407843
0.592157 0.623529 0.427451
0.635294 0.662745 0.447059
0.690196 0.694118 0.427451
0.776471 0.698039 0.219608
0.854902 0.686275 0.243137
0.92549 0.678431 0.27451
0.976471 0.67451 0.298039
1 0.670588 0.321569
1 0.670588 0.341176
1 0.67451 0.352941
1 0.678431 0.356863
0.235294 0.65098 0.419608
0.235294 0.65098 0.419608
0.235294 0.65098 0.423529
0.235294 0.654902 0.423529
0.239216 0.654902 0.423529
0.243137 0.658824 0.423529
0.243137 0.658824 0.423529
0.247059 0.662745 0.427451
0.25098 0.666667 0.427451
0.262745 0.670588 0.431373
0.337255 0.67451 0.435294
0.403922 0.678431 0.439216
0.466667 0.686275 0.443137
0.52549 0.690196 0.447059
0.584314 0.698039 0.45098
0.631373 0.717647 0.458824
0.701961 0.729412 0.356863
0.784314 0.733333 0.247059
0.870588 0.72549 0.27451
0.929412 0.717647 0.301961
0.976471 0.713725 0.321569
1 0.709804 0.341176
1 0.709804 0.356863
1 0.709804 0.372549
1 0.713725 0.372549
0.333333 0.741176 0.458824
0.333333 0.741176 0.458824
0.337255 0.741176 0.458824
0.337255 0.745098 0.458824
0.337255 0.745098 0.458824
0.341176 0.745098 0.458824
0.341176 0.74902 0.458824
0.345098 0.752941 0.458824
0.345098 0.752941 0.454902
0.345098 0.756863 0.45098
0.345098 0.756863 0.443137
0.4 0.760784 0.431373
0.466667 0.760784 0.419608
0.529412 0.760784 0.403922
0.592157 0.760784 0.380392
0.65098 0.764706 0.352941
0.717647 0.764706 0.270588
0.803922 0.768627 0.286275
0.882353 0.760784 0.305882
0.933333 0.752941 0.32549
0.976471 0.74902 0.345098
1 0.745098 0.360784
1 0.745098 0.376471
1 0.745098 0.388235
1 0.74902 0.388235
0.345098 0.796078 0.305882
0.345098 0.796078 0.301961
0.345098 0.796078 0.301961
0.345098 0.8 0.298039
0.345098 0.8 0.290196
0.341176 0.8 0.282353
0.341176 0.8 0.278431
0.341176 0.8 0.278431
0.341176 0.8 0.278431
0.345098 0.8 0.278431
0.388235 0.803922 0.282353
0.454902 0.803922 0.286275
0.517647 0.803922 0.290196
0.580392 0.803922 0.294118
0.643137 0.8 0.301961
0.701961 0.8 0.305882
0.756863 0.8 0.309804
0.819608 0.8 0.317647
0.890196 0.8 0.329412
0.937255 0.792157 0.34902
0.976471 0.788235 0.364706
1 0.784314 0.380392
1 0.780392 0.392157
1 0.780392 0.403922
1 0.784314 0.407843
0.368627 0.835294 0.317647
0.368627 0.835294 0.317647
0.368627 0.835294 0.317647
0.368627 0.835294 0.317647
0.368627 0.835294 0.317647
0.372549 0.835294 0.317647
0.372549 0.835294 0.317647
0.384314 0.835294 0.317647
0.427451 0.835294 0.321569
0.47451 0.835294 0.321569
0.521569 0.835294 0.32549
0.568627 0.835294 0.329412
0.615686 0.835294 0.329412
0.662745 0.835294 0.333333
0.709804 0.831373 0.337255
0.756863 0.831373 0.341176
0.8 0.831373 0.34902
0.847059 0.831373 0.352941
0.890196 0.831373 0.356863
0.937255 0.827451 0.372549
0.972549 0.823529 0.384314
1 0.819608 0.4
1 0.815686 0.411765
1 0.811765 0.419608
1 0.819608 0.419608
0.392157 0.866667 0.34902
0.392157 0.866667 0.34902
0.396078 0.866667 0.34902
0.396078 0.866667 0.34902
0.415686 0.866667 0.34902
0.435294 0.866667 0.352941
0.458824 0.866667 0.352941
0.486275 0.866667 0.352941
0.517647 0.866667 0.356863
0.54902 0.866667 0.356863
0.584314 0.866667 0.360784
0.623529 0.866667 0.360784
0.662745 0.866667 0.364706
0.701961 0.862745 0.368627
0.741176 0.862745 0.372549
0.784314 0.862745 0.376471
0.823529 0.862745 0.376471
0.862745 0.862745 0.380392
0.901961 0.862745 0.384314
0.937255 0.858824 0.392157
0.972549 0.854902 0.403922
1 0.85098 0.415686
1 0.847059 0.427451
1 0.847059 0.435294
1 0.85098 0.435294
0.447059 0.898039 0.380392
0.45098 0.898039 0.380392
0.458824 0.898039 0.380392
0.466667 0.898039 0.384314
0.482353 0.898039 0.384314
0.498039 0.898039 0.384314
0.517647 0.898039 0.384314
0.537255 0.898039 0.384314
0.564706 0.898039 0.388235
0.592157 0.894118 0.388235
0.623529 0.894118 0.392157
0.658824 0.894118 0.392157
0.690196 0.894118 0.396078
0.72549 0.894118 0.396078
0.760784 0.894118 0.4
0.8 0.894118 0.403922
0.835294 0.890196 0.407843
0.870588 0.890196 0.407843
0.905882 0.890196 0.411765
0.937255 0.890196 0.415686
0.972549 0.886275 0.419608
1 0.882353 0.431373
1 0.878431 0.443137
1 0.87451 0.447059
1 0.878431 0.45098
0.498039 0.92549 0.411765
0.501961 0.92549 0.411765
0.505882 0.92549 0.411765
0.513725 0.92549 0.411765
0.52549 0.92549 0.411765
0.541176 0.92549 0.411765
0.556863 0.92549 0.411765
0.576471 0.921569 0.415686
0.6 0.921569 0.415686
0.627451 0.921569 0.415686
0.65098 0.921569 0.419608
0.682353 0.921569 0.419608
0.713725 0.921569 0.423529
0.741176 0.921569 0.423529
0.776471 0.917647 0.427451
0.807843 0.917647 0.427451
0.839216 0.917647 0.431373
0.870588 0.917647 0.435294
0.905882 0.913725 0.435294
0.937255 0.913725 0.439216
0.968627 0.913725 0.443137
0.996078 0.909804 0.447059
1 0.905882 0.454902
1 0.905882 0.462745
1 0.905882 0.462745
0.533333 0.94902 0.435294
0.537255 0.94902 0.435294
0.541176 0.94902 0.435294
0.54902 0.94902 0.435294
0.560784 0.94902 0.435294
0.572549 0.94902 0.439216
0.588235 0.945098 0.439216
0.603922 0.945098 0.439216
0.627451 0.945098 0.439216
0.647059 0.945098 0.443137
0.670588 0.945098 0.443137
0.698039 0.945098 0.443137
0.72549 0.945098 0.447059
0.752941 0.941176 0.447059
0.784314 0.941176 0.45098
0.811765 0.941176 0.45098
0.843137 0.941176 0.454902
0.870588 0.937255 0.454902
0.901961 0.937255 0.458824
0.933333 0.937255 0.462745
0.960784 0.937255 0.462745
0.992157 0.937255 0.466667
1 0.933333 0.470588
1 0.933333 0.47451
1 0.933333 0.478431
0.568627 0.968627 0.458824
0.568627 0.968627 0.458824
0.576471 0.968627 0.458824
0.580392 0.968627 0.458824
0.588235 0.968627 0.458824
0.6 0.968627 0.462745
0.615686 0.968627 0.462745
0.631373 0.968627 0.462745
0.647059 0.968627 0.462745
0.666667 0.964706 0.462745
0.690196 0.964706 0.466667
0.713725 0.964706 0.466667
0.737255 0.964706 0.466667
0.764706 0.964706 0.470588
0.792157 0.964706 0.470588
0.819608 0.960784 0.47451
0.847059 0.960784 0.47451
0.87451 0.960784 0.478431
0.901961 0.960784 0.478431
0.929412 0.956863 0.482353
0.956863 0.956863 0.482353
0.984314 0.956863 0.486275
1 0.956863 0.490196
1 0.956863 0.490196
1 0.956863 0.490196
0.6 0.988235 0.482353
0.6 0.988235 0.482353
0.603922 0.988235 0.482353
0.611765 0.988235 0.482353
0.619608 0.988235 0.482353
0.627451 0.988235 0.482353
0.639216 0.988235 0.482353
0.654902 0.988235 0.482353
0.670588 0.984314 0.482353
0.690196 0.984314 0.486275
0.709804 0.984314 0.486275
0.729412 0.984314 0.486275
0.752941 0.984314 0.486275
0.776471 0.984314 0.490196
0.8 0.980392 0.490196
0.823529 0.980392 0.494118
0.85098 0.980392 0.494118
0.878431 0.980392 0.494118
0.901961 0.976471 0.498039
0.929412 0.976471 0.498039
0.952941 0.976471 0.501961
0.980392 0.976471 0.505882
1 0.972549 0.505882
1 0.972549 0.505882
1 0.972549 0.505882
0.627451 1 0.501961
0.631373 1 0.501961
0.635294 1 0.501961
0.639216 1 0.501961
0.647059 1 0.501961
0.654902 1 0.501961
0.666667 1 0.501961
0.678431 1 0.501961
0.694118 1 0.501961
0.709804 1 0.501961
0.72549 1 0.505882
0.745098 1 0.505882
0.764706 1 0.505882
0.788235 1 0.505882
0.811765 1 0.509804
0.831373 1 0.509804
0.858824 0.996078 0.509804
0.882353 0.996078 0.513725
0.905882 0.996078 0.513725
0.929412 0.996078 0.517647
0.952941 0.992157 0.517647
0.976471 0.992157 0.521569
1 0.992157 0.521569
1 0.992157 0.521569
1 0.992157 0.521569
0.654902 1 0.509804
0.658824 1 0.509804
0.662745 1 0.509804
0.666667 1 0.509804
0.670588 1 0.509804
0.678431 1 0.509804
0.690196 1 0.509804
0.701961 1 0.509804
0.713725 1 0.513725
0.729412 1 0.513725
0.745098 1 0.513725
0.764706 1 0.513725
0.780392 1 0.517647
0.803922 1 0.517647
0.823529 1 0.517647
0.843137 1 0.521569
0.866667 1 0.521569
0.890196 1 0.52549
0.909804 1 0.52549
0.933333 1 0.529412
0.956863 1 0.529412
0.980392 1 0.529412
0.992157 1 0.533333
0.992157 1 0.533333
0.992157 1 0.533333
0 0 0
0 0 0
0 0 0
0 0 0
0 0 0
0 0 0
0 0 0
0.007843 0 0.003922
0.047059 0 0.015686
0.094118 0 0.039216
0.160784 0 0.082353
0.254902 0 0.145098
0.34902 0 0.203922
0.435294 0 0.258824
0.513725 0 0.309804
0.584314 0.007843 0.352941
0.647059 0.192157 0.396078
0.701961 0.333333 0.439216
0.74902 0.458824 0.462745
0.835294 0.462745 0.329412
0.921569 0.443137 0.160784
0.996078 0.427451 0.196078
1 0.423529 0.223529
1 0.423529 0.247059
1 0.427451 0.25098
0 0 0
0 0 0
0 0 0
0 0 0
0 0 0
0 0 0
0 0 0
0.015686 0 0.003922
0.054902 0 0.019608
0.101961 0 0.043137
0.168627 0 0.090196
0.266667 0 0.14902
0.356863 0 0.207843
0.443137 0 0.262745
0.517647 0 0.309804
0.588235 0.039216 0.356863
0.647059 0.207843 0.4
0.701961 0.345098 0.439216
0.74902 0.462745 0.462745
0.835294 0.466667 0.317647
0.92549 0.447059 0.164706
0.996078 0.431373 0.196078
1 0.427451 0.223529
1 0.427451 0.25098
1 0.431373 0.254902
0 0 0
0 0 0
0 0 0
0 0 0
0 0 0
0 0 0
0.003922 0 0
0.031373 0 0.007843
0.066667 0 0.023529
0.109804 0.003922 0.05098
0.180392 0 0.094118
0.278431 0 0.152941
0.368627 0 0.211765
0.45098 0 0.266667
0.52549 0 0.313725
0.588235 0.090196 0.360784
0.65098 0.227451 0.403922
0.705882 0.356863 0.443137
0.752941 0.47451 0.462745
0.839216 0.470588 0.305882
0.92549 0.45098 0.164706
1 0.435294 0.2
1 0.431373 0.227451
1 0.435294 0.25098
1 0.439216 0.254902
0 0 0
0 0 0
0 0 0
0 0 0
0 0 0
0.003922 0 0
0.015686 0 0.003922
0.043137 0.003922 0.011765
0.078431 0.011765 0.031373
0.129412 0.011765 0.062745
0.203922 0.007843 0.105882
0.298039 0 0.160784
0.380392 0 0.215686
0.458824 0 0.270588
0.529412 0.007843 0.317647
0.592157 0.141176 0.364706
0.65098 0.258824 0.407843
0.705882 0.376471 0.447059
0.752941 0.486275 0.462745
0.843137 0.47451 0.282353
0.929412 0.454902 0.168627
1 0.443137 0.203922
1 0.439216 0.231373
1 0.443137 0.254902
1 0.447059 0.258824
0 0 0
0 0 0
0 0 0
0 0.003922 0
0 0.003922 0
0.011765 0.007843 0.003922
0.031373 0.011765 0.007843
0.058824 0.019608 0.023529
0.094118 0.027451 0.039216
0.152941 0.027451 0.070588
0.231373 0.023529 0.117647
0.317647 0.019608 0.168627
0.4 0.019608 0.223529
0.47451 0.031373 0.27451
0.537255 0.098039 0.321569
0.6 0.188235 0.368627
0.654902 0.294118 0.411765
0.709804 0.403922 0.447059
0.756863 0.498039 0.454902
0.85098 0.482353 0.243137
0.937255 0.466667 0.172549
1 0.454902 0.207843
1 0.45098 0.235294
1 0.454902 0.258824
1 0.458824 0.262745
0 0.019608 0.003922
0 0.019608 0.007843
0 0.023529 0.007843
0 0.023529 0.007843
0.003922 0.027451 0.007843
0.019608 0.031373 0.011765
0.043137 0.039216 0.019608
0.07451 0.047059 0.031373
0.121569 0.054902 0.05098
0.184314 0.058824 0.078431
0.266667 0.062745 0.12549
0.345098 0.070588 0.176471
0.419608 0.086275 0.231373
0.486275 0.117647 0.282353
0.545098 0.172549 0.333333
0.603922 0.243137 0.376471
0.658824 0.337255 0.419608
0.713725 0.435294 0.45098
0.764706 0.509804 0.443137
0.858824 0.494118 0.196078
0.941176 0.478431 0.180392
1 0.470588 0.215686
1 0.466667 0.243137
1 0.470588 0.266667
1 0.47451 0.266667
0 0.058824 0.027451
0 0.062745 0.027451
0 0.062745 0.027451
0 0.062745 0.027451
0.003922 0.066667 0.031373
0.027451 0.07451 0.031373
0.058824 0.078431 0.035294
0.094118 0.090196 0.043137
0.145098 0.101961 0.066667
0.215686 0.121569 0.098039
0.294118 0.12549 0.137255
0.368627 0.141176 0.192157
0.435294 0.164706 0.247059
0.494118 0.192157 0.298039
0.552941 0.235294 0.345098
0.607843 0.301961 0.388235
0.662745 0.380392 0.427451
0.713725 0.470588 0.454902
0.776471 0.52549 0.419608
0.866667 0.509804 0.145098
0.94902 0.494118 0.192157
1 0.486275 0.223529
1 0.486275 0.25098
1 0.490196 0.270588
1 0.494118 0.27451
0 0.12549 0.062745
0 0.129412 0.062745
0 0.129412 0.062745
0 0.129412 0.066667
0 0.133333 0.062745
0 0.141176 0.062745
0.058824 0.14902 0.066667
0.117647 0.160784 0.070588
0.176471 0.172549 0.082353
0.247059 0.192157 0.113725
0.317647 0.203922 0.160784
0.384314 0.223529 0.215686
0.447059 0.239216 0.262745
0.505882 0.262745 0.313725
0.560784 0.301961 0.356863
0.615686 0.360784 0.4
0.670588 0.431373 0.435294
0.717647 0.513725 0.458824
0.784314 0.545098 0.388235
0.87451 0.529412 0.160784
0.952941 0.517647 0.203922
1 0.509804 0.235294
1 0.509804 0.258824
1 0.509804 0.282353
1 0.517647 0.282353
0 0.227451 0.117647
0 0.227451 0.117647
0 0.231373 0.117647
0 0.231373 0.117647
0 0.231373 0.121569
0 0.239216 0.117647
0 0.247059 0.113725
0.117647 0.25098 0.117647
0.2 0.258824 0.12549
0.270588 0.266667 0.141176
0.333333 0.278431 0.188235
0.4 0.294118 0.239216
0.458824 0.305882 0.286275
0.513725 0.329412 0.329412
0.568627 0.364706 0.372549
0.619608 0.415686 0.411765
0.67451 0.482353 0.443137
0.721569 0.556863 0.462745
0.8 0.564706 0.337255
0.886275 0.552941 0.180392
0.960784 0.541176 0.219608
1 0.533333 0.247059
1 0.533333 0.270588
1 0.537255 0.290196
1 0.545098 0.294118
0 0.321569 0.176471
0 0.321569 0.176471
0 0.321569 0.176471
0 0.32549 0.176471
0 0.32549 0.180392
0 0.329412 0.180392
0 0.333333 0.184314
0.105882 0.337255 0.192157
0.203922 0.341176 0.2
0.282353 0.34902 0.207843
0.34902 0.352941 0.219608
0.411765 0.360784 0.262745
0.466667 0.376471 0.305882
0.521569 0.396078 0.34902
0.576471 0.427451 0.388235
0.627451 0.47451 0.423529
0.678431 0.537255 0.447059
0.729412 0.596078 0.447059
0.815686 0.588235 0.247059
0.898039 0.576471 0.203922
0.968627 0.568627 0.235294
1 0.564706 0.262745
1 0.564706 0.286275
1 0.568627 0.301961
1 0.576471 0.305882
0 0.403922 0.247059
0 0.403922 0.247059
0 0.403922 0.247059
0 0.407843 0.247059
0 0.407843 0.25098
0 0.407843 0.25098
0 0.411765 0.254902
0.094118 0.411765 0.258824
0.203922 0.415686 0.266667
0.286275 0.419608 0.27451
0.356863 0.423529 0.282353
0.419608 0.427451 0.294118
0.47451 0.439216 0.329412
0.529412 0.458824 0.368627
0.580392 0.490196 0.4
0.635294 0.537255 0.431373
0.682353 0.592157 0.454902
0.741176 0.623529 0.407843
0.827451 0.619608 0.184314
0.909804 0.607843 0.223529
0.972549 0.6 0.254902
1 0.596078 0.278431
1 0.596078 0.301961
1 0.6 0.317647
1 0.607843 0.321569
