site/assets/luts/freshluts--0000999-generous-oranges.cube
# LUTr-Schema-Version: 2
# LUTr-ID: freshluts--0000999-generous-oranges
# LUTr-Title: Generous Oranges
# LUTr-Collection: Fresh LUTs
# LUTr-Collection-ID: freshluts-community
# LUTr-Source: https://freshluts.com
# LUTr-Retrieved: 2026-07-27
# LUTr-Source-File: submissions-raw/freshluts/cubes/999__generous_23.A030_03150138_C003.cube
# LUTr-Source-Format: CUBE
# LUTr-Source-SHA256: 463c885ba986efa01e873398ef1d4b6105f20a891e06b4cdb2209ebf3d93c2ce
# LUTr-License: CC0-1.0
# LUTr-License-URL: https://freshluts.com/termsandconditions
# LUTr-License-Basis: site-terms
# LUTr-Transform-Class: creative-look
# LUTr-Tags: creative, freshluts, community, cube, bmd-film-4k
# LUTr-Input-Color-Space:
# LUTr-Input-Gamut: bmd-film-gamut
# LUTr-Input-Transfer: bmd-film-4k
# LUTr-Output-Color-Space: srgb
# LUTr-Output-Gamut: rec709
# LUTr-Output-Transfer: srgb
# LUTr-Color-Space-Confidence: camera-profile-input-required
# LUTr-Domain-Normalized: true
# LUTr-Shaper: none
# LUTr-Original-Grid: 33x33x33
# LUTr-Conversion-Grid: 33x33x33
# LUTr-Conversion-Interpolation: none
# LUTr-Conversion-Method: Metadata normalization; numeric LUT samples preserved
# LUTr-Conversion-Tool: LUTr scripts/convert-all-to-cube.mjs 2.0.0
# LUTr-Conversion-Date: 2026-07-28
# LUTr-Asset-URL: https://freshluts.com/luts/999
# LUTr-Author: Le Salon des Inconnus
# LUTr-Author-URL: https://freshluts.com/users/102026
# LUTr-Attribution: Le Salon des Inconnus via Fresh LUTs
# LUTr-Source-Labels: gamma=Blackmagic BMD Film 4K; color=None; key=Neutral; style=Colorful
# LUTr-Note: Preserve this metadata and the upstream license notices when redistributing.
TITLE "Generous Oranges"
LUT_3D_SIZE 33
DOMAIN_MIN 0 0 0
DOMAIN_MAX 1 1 1
0 0 0
0 0 0
0 0 0.0126192
0.0333867 0 0.0078584
0.105882 0 0.00291447
0.175326 0 0
0.243854 0 0
0.312062 0 0
0.380072 0 0
0.448127 0 0
0.515038 0 0
0.581521 0 0
0.647684 0 0
0.713832 0 0
0.779522 0 0
0.844984 0 0
0.910445 0 0
0.975799 0 0
1 0 0
1 0 0
1 0 0
1 0 0
1 0 0
1 0 0
1 0 0
1 0 0
1 0 0
1 0 0
1 0 0
1 0 0
1 0 0
1 0 0
1 0 0
0 0 0
0 0 0
0 0 0
0.00965896 0 0
0.082475 0 0
0.152682 0 0
0.221759 0 0
0.289845 0 0
0.357305 0 0
0.424628 0 0
0.491188 0 0
0.557427 0 0
0.623682 0 0
0.689418 0 0
0.754971 0 0
0.82031 0 0
0.885679 0 0
0.951171 0 0
1 0 0
1 0 0
1 0 0
1 0 0
1 0 0
1 0 0
1 0 0
1 0 0
1 0 0
1 0 0
1 0 0
1 0 0
1 0 0
1 0 0
1 0 0
0 0.0521706 0
0 0.045304 0
0 0.0387274 0
0 0.0305791 0
0.0576944 0.0214084 0
0.118944 0.0156405 0
0.154604 0.0153811 0
0.20885 0.0113985 0
0.275563 0.00424201 0
0.350896 0 0
0.426963 0 0
0.500877 0 0
0.572412 0 0
0.642176 0 0
0.710582 0 0
0.778073 0 0
0.845228 0 0
0.911772 0 0
0.977539 0 0
1 0 0
1 0 0
1 0 0
1 0 0
1 0 0
1 0 0
1 0 0
1 0 0
1 0 0
1 0 0
1 0 0
1 0 0
1 0 0
1 0 0
0 0.104799 0
0 0.0976577 0
0 0.0902876 0
0 0.0820783 0
0 0.0822309 0
0.00724804 0.0943618 0
0.162905 0.0591135 0
0.232349 0.0500649 0
0.267842 0.0488899 0
0.302358 0.049012 0
0.349493 0.0466163 0
0.402731 0.0426337 0
0.462119 0.0371099 0
0.527565 0.0300145 0
0.598077 0.021561 0
0.671855 0.0125887 0
0.746609 0.00288396 0
0.82118 0 0
0.894438 0 0
0.966583 0 0
1 0 0
1 0 0
1 0 0
1 0 0
1 0 0
1 0 0
1 0 0
1 0 0
1 0 0
1 0 0
1 0 0
1 0 0
1 0 0
0 0.155352 0
0 0.147967 0
0 0.140734 0
0 0.13228 0
0.0193484 0.119585 0
0 0.141466 0
0.00354009 0.149966 0
0.202426 0.102129 0
0.275135 0.0925612 0
0.342092 0.0843977 0
0.386954 0.0809186 0
0.413703 0.0818799 0
0.448051 0.0817884 0
0.491966 0.0799725 0
0.5411 0.0770428 0
0.593835 0.0730449 0
0.650721 0.0680247 0
0.711818 0.0619211 0
0.776715 0.0548409 0
0.845258 0.0470283 0
0.91632 0.038407 0
0.988922 0.0292058 0
1 0.0197147 0
1 0.0101472 0
1 0.00062562 0
1 0 0
1 0 0
1 0 0
1 0 0
1 0 0
1 0 0
1 0 0
1 0 0
0 0.205005 0
0 0.197818 0
0 0.190158 0
0 0.181628 0
0 0.17232 0
0.0988327 0.149783 0
0 0.195956 0
0.0028687 0.20444 0
0.205051 0.157641 0
0.290166 0.143908 0
0.383459 0.126131 0
0.449485 0.118166 0
0.500496 0.113436 0
0.531823 0.113222 0
0.558099 0.114443 0
0.592477 0.11429 0
0.634455 0.112627 0
0.681132 0.109941 0
0.730999 0.106935 0
0.783352 0.102953 0
0.838727 0.0982071 0
0.897078 0.0927291 0
0.958572 0.0864424 0
1 0.0795758 0
1 0.0719615 0
1 0.0634928 0
1 0.0546426 0
1 0.0455024 0
1 0.0361334 0
1 0.0269169 0
1 0.0174868 0
1 0.00805676 0
1 0 0
0 0.254429 0
0 0.24686 0
0 0.239139 0
0 0.230533 0
0 0.221653 0
0.0535592 0.205997 0
0.0483101 0.218738 0
0 0.249943 0
0.00274662 0.257893 0
0.130617 0.236255 0
0.307729 0.193378 0
0.413062 0.17203 0
0.490501 0.159899 0
0.556176 0.15198 0
0.610437 0.14638 0
0.647684 0.144472 0
0.673869 0.145403 0
0.701656 0.146593 0
0.73608 0.146395 0
0.776593 0.144991 0
0.821378 0.142672 0
0.868971 0.139757 0
0.918959 0.136477 0
0.97113 0.132631 0
1 0.128084 0
1 0.122835 0
1 0.117021 0
1 0.110597 0
1 0.103792 0
1 0.0962539 0
1 0.0881819 0
1 0.0796674 0
1 0.0708324 0
0 0.303166 0
0 0.295537 0
0 0.287755 0
0 0.279103 0
0 0.270466 0
0.0113222 0.259739 0
0.146334 0.231342 0
0 0.28542 0
0 0.303166 0
0.00320439 0.310857 0
0.0880293 0.302693 0
0.41352 0.21117 0
0.407431 0.229801 0
0.525612 0.202899 0
0.596445 0.193133 0
0.661952 0.185336 0
0.718563 0.179461 0
0.760952 0.176333 0
0.790417 0.176211 0
0.815412 0.177447 0
0.84387 0.178271 0
0.878538 0.178347 0
0.918105 0.177081 0
0.961456 0.175036 0
1 0.172396 0
1 0.169238 0
1 0.165835 0
1 0.16202 0
1 0.157565 0
1 0.152636 0
1 0.147158 0
1 0.141176 0
1 0.13492 0
0 0.351598 0
0 0.343923 0
0 0.336095 0
0 0.327688 0
0 0.318715 0
0 0.30988 0
0.0870069 0.290852 0
0.16286 0.279423 0
0 0.341619 0
0 0.356298 0
0.00389105 0.363806 0
0.0707713 0.360449 0
0.350301 0.288441 0
0.420462 0.280018 0
0.538506 0.254261 0
0.634089 0.235264 0
0.702251 0.226444 0
0.767666 0.218524 0
0.825132 0.212207 0
0.871183 0.208331 0
0.905196 0.20737 0
0.931807 0.207996 0
0.956466 0.209384 0
0.985672 0.210056 0
1 0.209812 0
1 0.208743 0
1 0.20705 0
1 0.204623 0
1 0.20177 0
1 0.198566 0
1 0.194995 0
1 0.191211 0
1 0.186954 0
0 0.399771 0
0 0.392248 0
0 0.384482 0
0 0.375738 0
0 0.366735 0
0 0.358495 0
0.0417945 0.345098 0
0.18024 0.315953 0
0.0970169 0.351873 0
0 0.394858 0
0 0.408804 0
0.00440986 0.416175 0
0.0640116 0.414862 0
0.269566 0.368978 0
0.599603 0.270405 0
0.52137 0.315404 0
0.65742 0.28217 0
0.74049 0.267689 0
0.80737 0.259327 0
0.872526 0.251759 0
0.930907 0.245228 0
0.979644 0.240696 0
1 0.238529 0
1 0.238514 0
1 0.239948 0
1 0.241077 0
1 0.241611 0
1 0.241352 0
1 0.240284 0
1 0.238697 0
1 0.236683 0
1 0.234028 0
1 0.231052 0
0 0.447913 0
0 0.440284 0
0 0.43238 0
0 0.423606 0
0 0.414572 0
0 0.406363 0
0.00712596 0.396307 0
0.120287 0.375204 0
0.238575 0.350622 0
0.0315251 0.421836 0
0 0.447715 0
0 0.461295 0
0.0053254 0.46862 0
0.0611429 0.468315 0
0.208667 0.440635 0
0.561959 0.339422 0
0.533379 0.365423 0
0.658869 0.337148 0
0.770428 0.312291 0
0.845731 0.300618 0
0.911986 0.292363 0
0.976684 0.284566 0
1 0.277913 0
1 0.273182 0
1 0.270268 0
1 0.269383 0
1 0.269902 0
1 0.271275 0
1 0.27245 0
1 0.273106 0
1 0.272831 0
1 0.271855 0
1 0.270283 0
0 0.495979 0
0 0.488197 0
0 0.480262 0
0 0.471473 0
0 0.462577 0
0 0.454459 0
0 0.445594 0
0.0727855 0.429908 0
0.211521 0.400259 0
0.216129 0.410101 0
0 0.482399 0
0 0.500679 0
0 0.513481 0
0.00549325 0.520714 0
0.0580606 0.521279 0
0.166567 0.505486 0
0.489311 0.419135 0
0.757687 0.33904 0
0.633127 0.400763 0
0.781384 0.363317 0
0.878645 0.343481 0
0.949752 0.333349 0
1 0.32549 0
1 0.317708 0
1 0.310903 0
1 0.305455 0
1 0.301885 0
1 0.300542 0
1 0.300572 0
1 0.301472 0
1 0.302846 0
1 0.303822 0
1 0.304295 0
0 0.543587 0
0 0.535775 0
0 0.527825 0
0 0.519142 0
0 0.510201 0
0 0.501945 0
0 0.493736 0
0.0350042 0.481376 0
0.15259 0.458824 0
0.291691 0.428229 0
0.1449 0.483421 0
0 0.537575 0
0 0.553017 0
0 0.565316 0
0.00645457 0.572671 0
0.0567025 0.573953 0
0.144472 0.564279 0
0.409628 0.498543 0
0.757382 0.394293 0
0.648875 0.449042 0
0.773205 0.42121 0
0.898436 0.391485 0
0.985504 0.375326 0
1 0.366125 0
1 0.358038 0
1 0.350195 0
1 0.343572 0
1 0.337972 0
1 0.333928 0
1 0.331624 0
1 0.330983 0
1 0.331609 0
1 0.333059 0
0 0.591043 0
0 0.583276 0
0 0.575525 0
0 0.566674 0
0 0.557565 0
0 0.549279 0
0 0.541253 0
0.00318914 0.531136 0
0.104829 0.513741 0
0.244526 0.483726 0
0.306661 0.475837 0
0.0757763 0.554131 0
0 0.590021 0
0 0.60531 0
0 0.617258 0
0.00729381 0.624338 0
0.0556191 0.626017 0
0.13167 0.61976 0
0.342153 0.572305 0
0.704753 0.467857 0
0.889433 0.416678 0
0.74435 0.48542 0
0.901366 0.444999 0
1 0.420829 0
1 0.407218 0
1 0.398733 0
1 0.390661 0
1 0.382925 0
1 0.375982 0
1 0.370169 0
1 0.366033 0
1 0.363195 0
1 0.361898 0
0 0.638407 0
0 0.630808 0
0 0.622797 0
0 0.613931 0
0 0.604807 0
0 0.596506 0
0 0.588571 0
0 0.579797 0
0.0648203 0.565652 0
0.186221 0.541817 0
0.333593 0.508339 0
0.267048 0.53991 0
0.0295415 0.618021 0
0 0.642573 0
0 0.657298 0
0 0.668742 0
0.00817884 0.675776 0
0.0551766 0.678019 0
0.123934 0.673961 0
0.286412 0.641688 0
0.631128 0.5467 0
0.944106 0.451118 0
0.762417 0.532555 0
0.886915 0.504677 0
1 0.471519 0
1 0.451179 0
1 0.43946 0
1 0.431006 0
1 0.423041 0
1 0.41561 0
1 0.408621 0
1 0.402625 0
1 0.397879 0
0 0.685863 0
0 0.677989 0
0 0.669963 0
0 0.661082 0
0 0.651972 0
0 0.6439 0
0 0.635843 0
0 0.627588 0
0.0305638 0.615732 0
0.137316 0.596521 0
0.27631 0.566766 0
0.375677 0.547585 0
0.193286 0.613458 0
0.00259403 0.676143 0
0 0.694667 0
0 0.708995 0
0 0.720241 0
0.00943008 0.727367 0
0.0546731 0.729793 0
0.119631 0.726665 0
0.248478 0.704646 0
0.550378 0.626154 0
0.905272 0.520104 0
1 0.500145 0
0.854765 0.569696 0
1 0.526864 0
1 0.499077 0
1 0.481956 0
1 0.47187 0
1 0.463554 0
1 0.455619 0
1 0.447913 0
1 0.440879 0
0 0.732952 0
0 0.725063 0
0 0.717021 0
0 0.708141 0
0 0.699245 0
0 0.690898 0
0 0.682826 0
0 0.674861 0
0.00015259 0.664622 0
0.095613 0.64889 0
0.218799 0.624659 0
0.369726 0.590173 0
0.364782 0.602823 0
0.121645 0.684672 0
0 0.730724 0
0 0.746868 0
0 0.760845 0
0 0.771603 0
0.0102388 0.778546 0
0.0543069 0.781277 0
0.116625 0.779065 0
0.222461 0.764096 0
0.477699 0.701946 0
0.845258 0.595148 0
1 0.51104 0
0.875349 0.615702 0
1 0.587686 0
1 0.551827 0
1 0.528359 0
1 0.513466 0
1 0.503944 0
1 0.49575 0
1 0.488106 0
0 0.779934 0
0 0.77203 0
0 0.764248 0
0 0.755337 0
0 0.746166 0
0 0.737804 0
0 0.729717 0
0 0.721798 0
0 0.712978 0
0.059556 0.699596 0
0.169375 0.679362 0
0.308095 0.649516 0
0.430518 0.622965 0
0.315831 0.669306 0
0.0672313 0.750591 0
0 0.7832 0
0 0.798657 0
0 0.812268 0
0 0.822721 0
0.0112001 0.829755 0
0.0543984 0.832883 0
0.114199 0.831205 0
0.203937 0.820737 0
0.416541 0.772702 0
0.770474 0.673777 0
1 0.573922 0
1 0.587701 0
0.965972 0.653162 0
1 0.609049 0
1 0.578454 0
1 0.558053 0
1 0.545251 0
1 0.536263 0
0 0.826871 0
0 0.819211 0
0 0.81117 0
0 0.802228 0
0 0.793042 0
0 0.784665 0
0 0.776562 0
0 0.768917 0
0 0.76054 0
0.0271305 0.748913 0
0.126177 0.731945 0
0.250751 0.70692 0
0.40148 0.672602 0
0.444999 0.670527 0
0.241794 0.742473 0
0.0300145 0.811139 0
0 0.835142 0
0 0.850309 0
0 0.863828 0
0 0.874067 0
0.0120699 0.880949 0
0.054139 0.884138 0
0.111788 0.88304 0
0.191897 0.875517 0
0.36437 0.840345 0
0.691096 0.752956 0
1 0.645258 0
1 0.577081 0
0.988724 0.698161 0
1 0.671122 0
1 0.633051 0
1 0.606546 0
1 0.588708 0
0 0.874083 0
0 0.866148 0
0 0.858061 0
0 0.849119 0
0 0.839902 0
0 0.831754 0
0 0.823682 0
0 0.815732 0
0 0.807736 0
0 0.797421 0
0.0879683 0.78291 0
0.200824 0.762051 0
0.33933 0.732235 0
0.476051 0.701335 0
0.419272 0.730007 0
0.169711 0.813687 0
0.00614939 0.868116 0
0 0.887221 0
0 0.902113 0
0 0.915038 0
0 0.925078 0
0.0125277 0.931945 0
0.0537728 0.935454 0
0.109743 0.935073 0
0.182834 0.929412 0
0.327306 0.902663 0
0.611658 0.830518 0
0.98349 0.722072 0
1 0.630594 0
1 0.672465 0
1 0.737285 0
1 0.691997 0
1 0.658778 0
0 0.92079 0
0 0.91284 0
0 0.904738 0
0 0.895796 0
0 0.886778 0
0 0.878447 0
0 0.870314 0
0 0.862348 0
0 0.854475 0
0 0.845167 0
0.0543221 0.832792 0
0.156817 0.81474 0
0.282567 0.789273 0
0.432059 0.755352 0
0.511284 0.741817 0
0.36524 0.797528 0
0.108858 0.88127 0
0 0.922652 0
0 0.938796 0
0 0.953429 0
0 0.966064 0
0 0.976165 0
0.0137484 0.983001 0
0.054139 0.986587 0
0.108232 0.98645 0
0.177829 0.981842 0
0.299489 0.962005 0
0.550225 0.901762 0
0.908705 0.800626 0
1 0.698741 0
1 0.648692 0
1 0.779873 0
1 0.754604 0
0 0.967422 0
0 0.959457 0
0 0.951354 0
0 0.942657 0
0 0.933425 0
0 0.925017 0
0 0.916869 0
0 0.908888 0
0 0.901228 0
0 0.892714 0
0.023331 0.881453 0
0.117662 0.865827 0
0.232593 0.8439 0
0.37084 0.814099 0
0.51667 0.78085 0
0.507958 0.794629 0
0.289601 0.870909 0
0.063035 0.943923 0
0 0.974838 0
0 0.99025 0
0 1 0
0 1 0
0 1 0
0.0146029 1 0
0.0543069 1 0
0.107347 1 0
0.174533 1 0
0.278706 1 0
0.491814 0.971023 0
0.827741 0.879683 0
1 0.771588 0
1 0.687556 0
1 0.759319 0
0 1 0
0 1 0
0 0.998169 0
0 0.989181 0
0 0.979934 0
0 0.971511 0
0 0.963348 0
0 0.95555 0
0 0.947768 0
0 0.939605 0
0 0.929442 0
0.0822919 0.915709 0
0.187747 0.896727 0
0.314656 0.871153 0
0.463188 0.837598 0
0.566827 0.816495 0
0.470878 0.857191 0
0.214725 0.942702 0
0.0310674 1 0
0 1 0
0 1 0
0 1 0
0 1 0
0 1 0
0.0158236 1 0
0.0551308 1 0
0.106661 1 0
0.17142 1 0
0.263249 1 0
0.443275 1 0
0.750454 0.956832 0
1 0.848295 0
1 0.752865 0
0 1 0
0 1 0
0 1 0
0 1 0
0 1 0
0 1 0
0 1 0
0 1 0
0 0.994156 0
0 0.986206 0
0 0.976898 0
0.0501106 0.964828 0
0.147692 0.948348 0
0.264347 0.925811 0
0.402548 0.895994 0
0.553246 0.860975 0
0.58088 0.863371 0
0.411017 0.926406 0
0.151476 1 0
0.00968948 1 0
0 1 0
0 1 0
0 1 0
0 1 0
0 1 0
0.0167849 1 0
0.0555276 1 0
0.105806 1 0
0.168688 1 0
0.251972 1 0
0.407263 1 0
0.683558 1 0
1 0.926268 0
0 1 0
0 1 0
0 1 0
0 1 0
0 1 0
0 1 0
0 1 0
0 1 0
0 1 0
0 1 0
0 1 0
0.0201267 1 0
0.111101 0.998489 0
0.219028 0.978698 0
0.346456 0.95256 0
0.49398 0.919295 0
0.615045 0.893126 0
0.563333 0.920317 0
0.335897 0.999054 0
0.100755 1 0
0 1 0
0 1 0
0 1 0
0 1 0
0 1 0
0 1 0
0.0177157 1 0
0.0561532 1 0
0.105394 1 0
0.166659 1 0
0.243153 1 0
0.37792 1 0
0.621805 1 0
0 1 0
0 1 0
0 1 0
0 1 0
0 1 0
0 1 0
0 1 0
0 1 0
0 1 0
0 1 0
0 1 0
0 1 0
0.0774701 1 0
0.177707 1 0
0.295766 1 0
0.434226 0.97763 0
0.586694 0.942153 0
0.645411 0.934844 0
0.522942 0.983581 0
0.262211 1 0
0.0624094 1 0
0 1 0
0 1 0
0 1 0
0 1 0
0 1 0
0 1 0
0.0188754 1 0
0.0566415 1 0
0.104829 1 0
0.164462 1 0
0.236713 1 0
0.354986 1 0
0 1 0
0 1 0
0 1 0
0 1 0
0 1 0
0 1 0
0 1 0
0 1 0
0 1 0
0 1 0
0 1 0
0 1 0
0.0459449 1 0
0.13994 1 0
0.249989 1 0
0.378042 1 0
0.52517 1 0
0.658366 0.970871 0
0.645212 0.985962 0
0.459052 1 0
0.196841 1 0
0.034165 1 0
0 1 0
0 1 0
0 1 0
0 1 0
0 1 0
0 1 0
0.0194858 1 0
0.0567636 1 0
0.104356 1 0
0.16257 1 0
0.231968 1 0
0 1 0
0 1 0
0 1 0
0 1 0
0 1 0
0 1 0
0 1 0
0 1 0
0 1 0
