site/assets/luts/freshluts--0001160-red-teal-correctlut.cube
# LUTr-Schema-Version: 2
# LUTr-ID: freshluts--0001160-red-teal-correctlut
# LUTr-Title: Red teal correct+lut
# LUTr-Collection: Fresh LUTs
# LUTr-Collection-ID: freshluts-community
# LUTr-Source: https://freshluts.com
# LUTr-Retrieved: 2026-07-27
# LUTr-Source-File: submissions-raw/freshluts/cubes/1160__RED_TEAL_2.C0023.cube
# LUTr-Source-Format: CUBE
# LUTr-Source-SHA256: 024c191ace1fdf047bb1070ab9693e62afc65cc53ef60e27bfc62f3ef9f47830
# LUTr-License: CC0-1.0
# LUTr-License-URL: https://freshluts.com/termsandconditions
# LUTr-License-Basis: site-terms
# LUTr-Transform-Class: creative-look
# LUTr-Tags: creative, freshluts, community, cube, red, low-key, sony-s-log3, correction
# LUTr-Input-Color-Space: sony-slog3-sgamut3
# LUTr-Input-Gamut: sony-s-gamut3
# LUTr-Input-Transfer: sony-s-log3
# LUTr-Output-Color-Space: srgb
# LUTr-Output-Gamut: rec709
# LUTr-Output-Transfer: srgb
# LUTr-Color-Space-Confidence: inferred-from-source-label
# LUTr-Domain-Normalized: true
# LUTr-Shaper: none
# LUTr-Original-Grid: 33x33x33
# LUTr-Conversion-Grid: 33x33x33
# LUTr-Conversion-Interpolation: none
# LUTr-Conversion-Method: Metadata normalization; numeric LUT samples preserved
# LUTr-Conversion-Tool: LUTr scripts/convert-all-to-cube.mjs 2.0.0
# LUTr-Conversion-Date: 2026-07-28
# LUTr-Asset-URL: https://freshluts.com/luts/1160
# LUTr-Author: lvannoeun@gmail.com
# LUTr-Author-URL: https://freshluts.com/users/57563
# LUTr-Attribution: lvannoeun@gmail.com via Fresh LUTs
# LUTr-Source-Labels: gamma=Sony S-Log 3; color=Red; key=Low Key; style=cine drama
# LUTr-Note: Preserve this metadata and the upstream license notices when redistributing.
TITLE "Red teal correct+lut"
LUT_3D_SIZE 5
DOMAIN_MIN 0 0 0
DOMAIN_MAX 1 1 1
0 0 0
0 0 0
0.263478 0 0
0.599115 0 0
0.688121 0 0
0 0 0
0 0 0
0.247227 0 0
0.614984 0 0
0.732052 0 0
0 0.153429 0
0 0.194217 0
0 0.274342 0
0.744305 0.251743 0
1 0.353231 0.0290532
0 0.65507 0
0 0.795102 0
0.056733 0.929458 0.0609598
0.333165 0.991623 0.155108
0.962402 0.920378 0.123125
0.00621042 1 0.232013
0.14612 1 0.308339
0.286275 1 0.358099
0.451987 1 0.354055
0.606973 1 0.344823
0 0 0
0 0 0
0.267689 0 0
0.618418 0 0
0.692958 0 0
0 0 0
0 0 0
0.254871 0 0
0.630915 0 0
0.786114 0 0
0 0.151522 0
0 0.185809 0
0.0667582 0.290318 0.0314641
0.820844 0.281849 0.0425116
1 0.369924 0.178637
0 0.694942 0
0 0.821714 0.124041
0.178866 0.929091 0.240497
0.45774 0.978729 0.306371
1 0.868269 0.298863
0.0569314 1 0.357183
0.208423 1 0.412573
0.307393 1 0.418555
0.441016 1 0.395346
0.716045 1 0.376471
0 0 0.404059
0 0 0.384207
0.254002 0 0.300069
0.61857 0 0.1785
0.727642 0 0.0344854
0 0 0.403525
0 0 0.380529
0.241871 0 0.294774
0.628656 0 0.173327
0.883238 0 0.101717
0 0.142779 0.224643
0 0.191348 0.260029
0.266346 0.271305 0.311757
0.863066 0.302373 0.330861
1 0.375616 0.387915
0 0.726818 0.234089
0.00630198 0.844221 0.338537
0.315618 0.915969 0.438697
0.693401 0.926467 0.477409
1 0.864897 0.34255
0.0824903 1 0.504326
0.198154 1 0.506737
0.331228 1 0.480003
0.494759 1 0.512871
0.94815 1 0.523171
0 0 0.692485
0 0 0.708614
0.24065 0 0.661936
0.586206 0 0.570092
0.713924 0 0.387854
0 0 0.722301
0 0 0.725475
0.225605 0 0.672038
0.622019 0 0.606012
0.917479 0 0.537896
0 0.131914 0.650919
0 0.195682 0.720226
0.287678 0.284031 0.823926
0.886824 0.308339 0.861051
1 0.370993 0.914397
0 0.718013 0.740307
0.0217899 0.8477 0.863523
0.33901 0.907073 0.913954
0.890043 0.86392 0.864897
1 0.849592 0.829618
0.0848402 1 0.879393
0.196857 1 0.905425
0.352071 1 0.891768
0.788571 1 0.908583
1 1 0.9402
0 0 0.754772
0 0 0.756512
0.166857 0 0.795743
0.45977 0 0.723629
0.690562 0 0.63241
0 0 0.781628
0 0 0.82771
0.194308 0 0.916655
0.578714 0 0.883085
0.853483 0 0.787366
0 0.122499 0.80798
0 0.211368 0.995773
0.32047 0.301762 1
0.920027 0.326238 1
1 0.396307 1
0 0.71014 0.986343
0.13138 0.840558 1
0.352102 0.909102 1
0.902831 0.859968 1
1 0.846006 1
0.0929122 1 1
0.289036 1 1
0.375967 1 1
0.865614 1 1
1 1 1
