site/assets/luts/freshluts--0001166-teal-and-orange.cube
# LUTr-Schema-Version: 2
# LUTr-ID: freshluts--0001166-teal-and-orange
# LUTr-Title: teal and orange
# LUTr-Collection: Fresh LUTs
# LUTr-Collection-ID: freshluts-community
# LUTr-Source: https://freshluts.com
# LUTr-Retrieved: 2026-07-27
# LUTr-Source-File: submissions-raw/freshluts/cubes/1166__teal___orange_2.Sony_F3_-_Short_film_Insect_selects.cube
# LUTr-Source-Format: CUBE
# LUTr-Source-SHA256: 0274e91d42841f5d36cffa60d9d849b75f0bbf4eff9d4607ae2188bf6ad8a7a8
# LUTr-License: CC0-1.0
# LUTr-License-URL: https://freshluts.com/termsandconditions
# LUTr-License-Basis: site-terms
# LUTr-Transform-Class: creative-look
# LUTr-Tags: creative, freshluts, community, cube, green, high-key, sony-s-log1, warm
# LUTr-Input-Color-Space: sony-slog1-sgamut
# LUTr-Input-Gamut: sony-s-gamut
# LUTr-Input-Transfer: sony-s-log1
# LUTr-Output-Color-Space: srgb
# LUTr-Output-Gamut: rec709
# LUTr-Output-Transfer: srgb
# LUTr-Color-Space-Confidence: inferred-from-source-label
# LUTr-Domain-Normalized: true
# LUTr-Shaper: none
# LUTr-Original-Grid: 33x33x33
# LUTr-Conversion-Grid: 33x33x33
# LUTr-Conversion-Interpolation: none
# LUTr-Conversion-Method: Metadata normalization; numeric LUT samples preserved
# LUTr-Conversion-Tool: LUTr scripts/convert-all-to-cube.mjs 2.0.0
# LUTr-Conversion-Date: 2026-07-28
# LUTr-Asset-URL: https://freshluts.com/luts/1166
# LUTr-Author: henryimmanuel
# LUTr-Author-URL: https://freshluts.com/users/120774
# LUTr-Attribution: henryimmanuel via Fresh LUTs
# LUTr-Source-Labels: gamma=Sony S-Log; color=Green; key=High Key; style=Teal - Orange
# LUTr-Note: Preserve this metadata and the upstream license notices when redistributing.
TITLE "teal and orange"
LUT_3D_SIZE 5
DOMAIN_MIN 0 0 0
DOMAIN_MAX 1 1 1
0 0.00866712 0.00517281
0.208164 0 0
0.593454 0 0
0.9505 0 0
1 0 0
0 0.234409 0
0.119539 0.252293 0
0.554162 0.222797 0
0.953109 0.203433 0
1 0.238407 0
0 0.580926 0
0.0878004 0.603922 0
0.376379 0.634867 0
0.752377 0.639506 0
0.997696 0.668223 0
0 0.946349 0
0.0905318 0.963073 0
0.366598 0.978195 0
0.640421 0.992004 0
0.822889 1 0
0 1 0
0.172534 1 0
0.439948 1 0
0.65568 1 0
0.797238 1 0
0 0.000106813 0.273808
0.19855 0 0.254276
0.586679 0 0.211032
0.94641 0 0.183017
1 0 0.204089
0 0.233692 0.225483
0.176562 0.236606 0.230076
0.590051 0.212222 0.209857
0.972717 0.201236 0.202518
1 0.237934 0.240375
0 0.586358 0.145006
0.114214 0.605158 0.166171
0.445655 0.620432 0.143038
0.841215 0.616602 0.0807813
1 0.64126 0.122835
0 0.951446 0.138354
0.103792 0.964233 0.153536
0.449027 0.955566 0.153445
0.702281 0.970611 0.0722362
0.884062 0.990539 0.0412451
0 1 0.230716
0.175006 1 0.221622
0.511467 1 0.19408
0.709773 1 0.11809
0.84651 1 0.0602884
0 0 0.676326
0.17789 0 0.659617
0.568383 0 0.619471
0.930449 0 0.594629
1 0 0.617517
0 0.222583 0.637186
0.164233 0.228077 0.64416
0.579263 0.205646 0.62562
0.963256 0.196414 0.62002
1 0.233783 0.657618
0 0.581338 0.564187
0.106508 0.600778 0.585595
0.532311 0.586542 0.574334
0.91722 0.57879 0.567971
1 0.610407 0.599695
0 0.94522 0.556603
0.0924239 0.955962 0.569451
0.504677 0.927413 0.543801
0.784726 0.926131 0.504219
0.973678 0.940169 0.476143
0 1 0.639094
0.154726 1 0.627497
0.539712 1 0.575006
0.792279 1 0.53637
0.916945 1 0.4813
0 0 1
0.162066 0 1
0.555352 0 0.979782
0.919951 0 0.957321
1 0 0.982238
0 0.216327 1
0.156741 0.22388 1
0.573617 0.203464 0.993027
0.958434 0.19501 0.987915
1 0.233341 1
0 0.580423 0.933272
0.10248 0.599771 0.95433
0.528298 0.585412 0.943343
0.912291 0.57586 0.937163
1 0.6056 0.968811
0 0.942275 0.923476
0.0844434 0.950896 0.934295
0.494545 0.91986 0.90634
0.856428 0.889555 0.878584
1 0.895354 0.884642
0 1 0.99852
0.137469 1 0.983474
0.520409 1 0.928557
0.854154 1 0.874281
0.977707 1 0.847028
0 0 1
0.163912 0 1
0.55993 0 1
0.926772 0 1
1 0 1
0 0.225467 1
0.166308 0.234882 1
0.585168 0.216007 1
0.971099 0.208591 1
1 0.247211 1
0 0.594247 1
0.115526 0.613611 1
0.540505 0.598291 1
0.923171 0.587335 1
1 0.614923 1
0 0.953094 1
0.0923934 0.959533 1
0.499748 0.925917 1
0.858961 0.89308 1
1 0.89575 1
0 1 1
0.136172 1 1
0.51603 1 1
0.847364 1 1
1 1 1
