site/assets/luts/freshluts--0000173-victory.cube
# LUTr-Schema-Version: 2
# LUTr-ID: freshluts--0000173-victory
# LUTr-Title: Victory
# LUTr-Collection: Fresh LUTs
# LUTr-Collection-ID: freshluts-community
# LUTr-Source: https://freshluts.com
# LUTr-Retrieved: 2026-07-27
# LUTr-Source-File: submissions-raw/freshluts/cubes/173__Victory.cube
# LUTr-Source-Format: CUBE
# LUTr-Source-SHA256: 5cbac9ba055f6285d3546aaeb3e3533dc99324757ba064ca878f4b0497c711cb
# LUTr-License: CC0-1.0
# LUTr-License-URL: https://freshluts.com/termsandconditions
# LUTr-License-Basis: site-terms
# LUTr-Transform-Class: creative-look
# LUTr-Tags: creative, freshluts, community, cube, vintage
# LUTr-Input-Color-Space:
# LUTr-Input-Gamut: unspecified
# LUTr-Input-Transfer: unspecified
# LUTr-Output-Color-Space: srgb
# LUTr-Output-Gamut: rec709
# LUTr-Output-Transfer: srgb
# LUTr-Color-Space-Confidence: camera-profile-input-required
# LUTr-Domain-Normalized: true
# LUTr-Shaper: none
# LUTr-Original-Grid: 33x33x33
# LUTr-Conversion-Grid: 33x33x33
# LUTr-Conversion-Interpolation: none
# LUTr-Conversion-Method: Metadata normalization; numeric LUT samples preserved
# LUTr-Conversion-Tool: LUTr scripts/convert-all-to-cube.mjs 2.0.0
# LUTr-Conversion-Date: 2026-07-28
# LUTr-Asset-URL: https://freshluts.com/luts/173
# LUTr-Author: Cube Frames
# LUTr-Author-URL: https://freshluts.com/users/1308
# LUTr-Attribution: Cube Frames via Fresh LUTs
# LUTr-Source-Labels: gamma=Other; color=None; key=Neutral; style=Vintage
# LUTr-Note: Preserve this metadata and the upstream license notices when redistributing.
TITLE "Victory"
LUT_3D_SIZE 33
DOMAIN_MIN 0 0 0
DOMAIN_MAX 1 1 1
0.0654765 0.0899977 0.0981003
0.0650339 0.0884108 0.0961166
0.0645762 0.0868849 0.0942092
0.0696422 0.0848402 0.0915389
0.0818341 0.0862287 0.0932631
0.104295 0.0905013 0.0967422
0.130144 0.0945602 0.0948501
0.17882 0.1122 0.0939956
0.247181 0.125704 0.0857557
0.324666 0.138888 0.0827344
0.416297 0.149615 0.0965591
0.511254 0.161532 0.115694
0.592248 0.173342 0.134371
0.6589 0.185031 0.147768
0.717113 0.197498 0.155688
0.771298 0.209689 0.161959
0.832654 0.224994 0.166354
0.843595 0.227848 0.166918
0.843595 0.227848 0.166918
0.843595 0.227848 0.166918
0.843595 0.227848 0.166918
0.843595 0.227848 0.166918
0.843595 0.227848 0.166918
0.843595 0.227848 0.166918
0.843595 0.227848 0.166918
0.843595 0.227848 0.166918
0.843595 0.227848 0.166918
0.843595 0.227848 0.166918
0.843595 0.227848 0.166918
0.843595 0.227848 0.166918
0.843595 0.227848 0.166918
0.843595 0.227848 0.166918
0.843595 0.227848 0.166918
0.0639811 0.084947 0.0917983
0.0634775 0.0834211 0.0899062
0.0629587 0.0818799 0.0879988
0.0648966 0.080293 0.0859541
0.0750286 0.0818189 0.0874342
0.0930953 0.0855421 0.0909285
0.118212 0.0948653 0.0931868
0.163134 0.111162 0.0941939
0.226123 0.121614 0.0872206
0.302693 0.133074 0.0825971
0.392523 0.146227 0.0932174
0.490623 0.158694 0.11104
0.575235 0.170596 0.130632
0.643641 0.182055 0.14519
0.703044 0.194369 0.153948
0.757595 0.206546 0.160494
0.819806 0.221653 0.165667
0.843595 0.227848 0.166918
0.843595 0.227848 0.166918
0.843595 0.227848 0.166918
0.843595 0.227848 0.166918
0.843595 0.227848 0.166918
0.843595 0.227848 0.166918
0.843595 0.227848 0.166918
0.843595 0.227848 0.166918
0.843595 0.227848 0.166918
0.843595 0.227848 0.166918
0.843595 0.227848 0.166918
0.843595 0.227848 0.166918
0.843595 0.227848 0.166918
0.843595 0.227848 0.166918
0.843595 0.227848 0.166918
0.843595 0.227848 0.166918
0.0623331 0.0801404 0.0858473
0.0618601 0.0788891 0.0843061
0.0613565 0.0776074 0.0827344
0.0608682 0.0763714 0.0812085
0.0692302 0.0778058 0.082414
0.083238 0.0815747 0.0856794
0.106966 0.0917067 0.0895399
0.147463 0.106081 0.0925765
0.20647 0.117449 0.0879225
0.283589 0.129 0.0829328
0.371054 0.143481 0.090135
0.470527 0.156008 0.106798
0.558114 0.167956 0.126802
0.629374 0.179461 0.142473
0.689555 0.191485 0.152117
0.74461 0.203601 0.15903
0.808438 0.218753 0.16492
0.843595 0.227848 0.166918
0.843595 0.227848 0.166918
0.843595 0.227848 0.166918
0.843595 0.227848 0.166918
0.843595 0.227848 0.166918
0.843595 0.227848 0.166918
0.843595 0.227848 0.166918
0.843595 0.227848 0.166918
0.843595 0.227848 0.166918
0.843595 0.227848 0.166918
0.843595 0.227848 0.166918
0.843595 0.227848 0.166918
0.843595 0.227848 0.166918
0.843595 0.227848 0.166918
0.843595 0.227848 0.166918
0.843595 0.227848 0.166918
0.0609293 0.0776226 0.0819104
0.0604257 0.0759594 0.0801709
0.0599222 0.0743267 0.0784466
0.0595102 0.0731212 0.0771191
0.0638285 0.0742199 0.0777752
0.0765087 0.0800031 0.0820172
0.0979477 0.0898299 0.0870527
0.134218 0.102358 0.0915694
0.190311 0.114839 0.0894636
0.266361 0.125719 0.0833753
0.350881 0.140841 0.0874342
0.450538 0.153445 0.102937
0.541955 0.165484 0.123186
0.615549 0.177142 0.139498
0.676692 0.188754 0.150347
0.73228 0.200855 0.157549
0.799161 0.216388 0.164294
0.843595 0.227848 0.166918
0.843595 0.227848 0.166918
0.843595 0.227848 0.166918
0.843595 0.227848 0.166918
0.843595 0.227848 0.166918
0.843595 0.227848 0.166918
0.843595 0.227848 0.166918
0.843595 0.227848 0.166918
0.843595 0.227848 0.166918
0.843595 0.227848 0.166918
0.843595 0.227848 0.166918
0.843595 0.227848 0.166918
0.843595 0.227848 0.166918
0.843595 0.227848 0.166918
0.843595 0.227848 0.166918
0.843595 0.227848 0.166918
0.0626535 0.0843519 0.0842451
0.0617685 0.0826276 0.0823529
0.0609751 0.0807202 0.0804913
0.0603189 0.0787671 0.0787213
0.0615702 0.0775464 0.0790112
0.0704814 0.0807355 0.0820325
0.0901656 0.0885328 0.086183
0.122972 0.0991684 0.0908522
0.174792 0.112016 0.0906691
0.248081 0.123278 0.0845045
0.330907 0.138186 0.0848859
0.430091 0.150912 0.0992752
0.524498 0.163241 0.118944
0.601556 0.174838 0.136416
0.664073 0.186114 0.148516
0.719997 0.198138 0.156054
0.790249 0.214206 0.163592
0.843595 0.227848 0.166918
0.843595 0.227848 0.166918
0.843595 0.227848 0.166918
0.843595 0.227848 0.166918
0.843595 0.227848 0.166918
0.843595 0.227848 0.166918
0.843595 0.227848 0.166918
0.843595 0.227848 0.166918
0.843595 0.227848 0.166918
0.843595 0.227848 0.166918
0.843595 0.227848 0.166918
0.843595 0.227848 0.166918
0.843595 0.227848 0.166918
0.843595 0.227848 0.166918
0.843595 0.227848 0.166918
0.843595 0.227848 0.166918
0.057847 0.101915 0.0857099
0.0586709 0.0992294 0.0853742
0.0594339 0.0965133 0.084947
0.06009 0.0938888 0.0844129
0.0606699 0.0912032 0.0837568
0.0703136 0.0892805 0.0894179
0.0813458 0.0927443 0.0909438
0.1122 0.101289 0.0925154
0.159594 0.109819 0.0923323
0.229587 0.120775 0.0862135
0.311986 0.134371 0.0836957
0.407416 0.148104 0.095491
0.504463 0.160616 0.114122
0.584848 0.172137 0.132738
0.649882 0.183185 0.146365
0.706966 0.195239 0.154437
0.78024 0.21181 0.162737
0.843595 0.227848 0.166918
0.843595 0.227848 0.166918
0.843595 0.227848 0.166918
0.843595 0.227848 0.166918
0.843595 0.227848 0.166918
0.843595 0.227848 0.166918
0.843595 0.227848 0.166918
0.843595 0.227848 0.166918
0.843595 0.227848 0.166918
0.843595 0.227848 0.166918
0.843595 0.227848 0.166918
0.843595 0.227848 0.166918
0.843595 0.227848 0.166918
0.843595 0.227848 0.166918
0.843595 0.227848 0.166918
0.843595 0.227848 0.166918
0.0479591 0.125917 0.0832074
0.0495766 0.122484 0.0839857
0.0508431 0.119631 0.0845197
0.0521248 0.116625 0.0849775
0.0534371 0.113497 0.0853742
0.0603494 0.11043 0.0890211
0.0815595 0.104952 0.103166
0.0954757 0.11017 0.0973373
0.145556 0.117342 0.0965591
0.213413 0.123598 0.0886091
0.297169 0.131975 0.0830243
0.387793 0.145617 0.092546
0.484596 0.158068 0.109545
0.568215 0.170047 0.128466
0.634897 0.181003 0.142809
0.692042 0.19202 0.152453
0.768383 0.209018 0.161639
0.843595 0.227848 0.166918
0.843595 0.227848 0.166918
0.843595 0.227848 0.166918
0.843595 0.227848 0.166918
0.843595 0.227848 0.166918
0.843595 0.227848 0.166918
0.843595 0.227848 0.166918
0.843595 0.227848 0.166918
0.843595 0.227848 0.166918
0.843595 0.227848 0.166918
0.843595 0.227848 0.166918
0.843595 0.227848 0.166918
0.843595 0.227848 0.166918
0.843595 0.227848 0.166918
0.843595 0.227848 0.166918
0.843595 0.227848 0.166918
0.0320287 0.156756 0.0723735
0.0339666 0.153246 0.0739147
0.0356909 0.150103 0.0752422
0.0373693 0.14696 0.0765087
0.0391699 0.143587 0.0778363
0.0411994 0.139681 0.0792096
0.0601358 0.136309 0.0925917
0.0966964 0.127535 0.120089
0.129244 0.128389 0.111025
0.194888 0.135943 0.0939803
0.283665 0.143297 0.0774701
0.374304 0.152209 0.0829938
0.471656 0.162448 0.101427
0.557031 0.172839 0.121324
0.627024 0.184894 0.13463
0.687572 0.196582 0.144717
0.764782 0.212528 0.155612
0.849317 0.232837 0.163119
0.846998 0.230243 0.165347
0.843595 0.227848 0.166918
0.843595 0.227848 0.166918
0.843595 0.227848 0.166918
0.843595 0.227848 0.166918
0.843595 0.227848 0.166918
0.843595 0.227848 0.166918
0.843595 0.227848 0.166918
0.843595 0.227848 0.166918
0.843595 0.227848 0.166918
0.843595 0.227848 0.166918
0.843595 0.227848 0.166918
0.843595 0.227848 0.166918
0.843595 0.227848 0.166918
0.843595 0.227848 0.166918
0.0132753 0.190829 0.0545663
0.0148775 0.187976 0.0562295
0.0164492 0.185138 0.057847
0.0179599 0.182406 0.0593729
0.0195468 0.179507 0.0609751
0.0213626 0.176196 0.0627756
0.0228275 0.177905 0.0637522
0.0635996 0.169879 0.0901656
0.114031 0.161212 0.133318
0.173754 0.153689 0.122148
0.261494 0.157229 0.0798352
0.363149 0.171176 0.0640116
0.459236 0.181918 0.082414
0.551278 0.189456 0.105241
0.626993 0.200275 0.120287
0.691844 0.211826 0.130968
0.772595 0.228214 0.14197
0.859525 0.249577 0.149477
0.869902 0.248096 0.154177
0.861799 0.241276 0.158389
0.854948 0.235966 0.161654
0.850065 0.232364 0.163943
0.846204 0.229664 0.165728
0.843595 0.227848 0.166918
0.843595 0.227848 0.166918
0.843595 0.227848 0.166918
0.843595 0.227848 0.166918
0.843595 0.227848 0.166918
0.843595 0.227848 0.166918
0.843595 0.227848 0.166918
0.843595 0.227848 0.166918
0.843595 0.227848 0.166918
0.843595 0.227848 0.166918
0 0.228687 0.0310063
0 0.226032 0.0327306
0 0.223545 0.0343481
0 0.221164 0.035874
0 0.218769 0.0374151
0 0.215488 0.0394751
0.00161746 0.211429 0.0420386
0.00527962 0.22266 0.0339971
0.0840009 0.210529 0.0795758
0.15993 0.201282 0.135653
0.236118 0.184802 0.129671
0.338872 0.184436 0.0688792
0.444083 0.199527 0.0632334
0.540429 0.213519 0.0830243
0.624079 0.229648 0.0956436
0.697398 0.244327 0.105531
0.785199 0.263127 0.115663
0.872541 0.284733 0.122728
0.902007 0.285176 0.130739
0.892744 0.272541 0.138888
0.884306 0.262089 0.145495
0.876905 0.254612 0.150134
0.870344 0.248508 0.153918
0.864851 0.243656 0.156924
0.860624 0.24036 0.158938
0.856855 0.237446 0.160739
0.853468 0.234806 0.162356
0.851194 0.233173 0.163409
0.849256 0.2318 0.164309
0.847364 0.230457 0.165194
0.845426 0.229129 0.166079
0.843595 0.227848 0.166918
0.843595 0.227848 0.166918
0 0.270329 0.00370794
0 0.26804 0.00520333
0 0.265919 0.00660716
0 0.264073 0.00781262
0 0.261784 0.00933852
0 0.258824 0.0112764
0 0.254963 0.0138247
0 0.260609 0.0053254
0.0136416 0.272206 0
0.157443 0.248661 0.0903182
0.242557 0.239963 0.169207
0.312871 0.226001 0.147143
0.419684 0.218982 0.071931
0.528649 0.231296 0.064332
0.621912 0.250217 0.0781109
0.696818 0.269856 0.0842603
0.787289 0.299077 0.0861067
0.878172 0.333654 0.0824903
0.932647 0.350393 0.0837568
0.925139 0.331334 0.0980697
0.917922 0.313069 0.11165
0.91043 0.299184 0.121294
0.903456 0.287602 0.129107
0.897307 0.278294 0.135271
0.891966 0.271565 0.139513
0.887144 0.265599 0.143282
0.882856 0.260288 0.146624
0.879088 0.256687 0.148867
0.875486 0.25333 0.150942
0.872099 0.250156 0.152911
0.868589 0.24686 0.15494
0.865232 0.243946 0.156741
0.862318 0.241688 0.158129
0 0.315251 0
0 0.313329 0
0 0.311604 0
0 0.309957 0
0 0.308034 0
0 0.305333 0
0 0.301686 0
0 0.297139 0
0 0.325109 0
0.0948043 0.315297 0
0.262928 0.291783 0.140063
0.326314 0.296803 0.190784
0.39617 0.282887 0.181552
0.503807 0.268254 0.0955215
0.600992 0.27602 0.0465705
0.685481 0.291981 0.0607004
0.779706 0.319448 0.0653697
0.873014 0.358816 0.0576638
0.95201 0.401724 0.0418097
0.947494 0.389258 0.0526131
0.943557 0.377386 0.0627756
0.938491 0.364385 0.0729992
0.933455 0.3523 0.0823072
0.928664 0.340414 0.09131
0.923964 0.328359 0.100298
0.919783 0.317739 0.108186
0.915877 0.30837 0.115068
0.911742 0.301396 0.119799
0.907897 0.295003 0.124132
0.904219 0.288808 0.128283
0.900542 0.28275 0.132357
0.896788 0.277638 0.135683
0.893202 0.273121 0.138537
0 0.365103 0
0 0.36318 0
0 0.361501 0
0 0.359808 0
0 0.357885 0
0 0.354879 0
0 0.35082 0
0 0.346151 0
0 0.359319 0
0.0317998 0.379843 0
0.239185 0.342199 0.065095
0.365408 0.359548 0.174319
0.418677 0.363119 0.223484
0.487205 0.350576 0.218677
0.579705 0.332952 0.14464
0.666514 0.332006 0.0581064
0.759564 0.348394 0.0301061
0.854276 0.380224 0.0287938
0.959442 0.437995 0.00810254
0.961715 0.430106 0.0151827
0.959472 0.419867 0.0255589
0.955718 0.410269 0.0342718
0.951949 0.401572 0.0419623
0.948791 0.393194 0.0492256
0.946166 0.385245 0.0560311
0.943801 0.378119 0.06215
0.941238 0.371191 0.0677958
0.938354 0.36405 0.0732586
0.935576 0.357382 0.0783856
0.932937 0.351064 0.0832532
0.930129 0.344259 0.0884565
0.927108 0.336446 0.0942855
0.92401 0.328496 0.100191
0 0.429725 0
0 0.428244 0
0 0.426764 0
0 0.425391 0
0 0.423545 0
0 0.420569 0
0 0.4159 0
0 0.409079 0
0 0.402335 0
0.0021973 0.423575 0
0.194751 0.402487 0
0.370916 0.399344 0.132784
0.466163 0.428 0.204028
0.513466 0.429877 0.253651
0.573785 0.41828 0.249393
0.645655 0.406058 0.200748
0.745998 0.397131 0.0984207
0.831754 0.415885 0.0134737
0.933791 0.457404 0.00460822
0.962417 0.464637 0.00323491
0.963821 0.454597 0.00415045
0.963638 0.446128 0.00576791
0.963394 0.43856 0.00724804
0.961913 0.431022 0.0142672
0.960433 0.424262 0.0211185
0.959152 0.418326 0.0271153
0.956832 0.412879 0.0319677
0.954681 0.407889 0.0363775
0.952697 0.403311 0.0404212
0.950729 0.39881 0.044419
0.948974 0.393744 0.0487678
0.947188 0.388342 0.0533913
0.945464 0.383047 0.057908
0 0.482979 0
0 0.481895 0
0 0.480812 0
0 0.47982 0
0 0.478447 0
0 0.47599 0
0 0.472374 0
0 0.467308 0
0 0.46067 0
0 0.464469 0
0.157198 0.449393 0
0.344671 0.431373 0.087129
0.49456 0.474418 0.16083
0.552331 0.49659 0.239094
0.594415 0.495872 0.281147
0.644846 0.485863 0.286122
0.72314 0.473136 0.234028
0.813443 0.466377 0.139742
0.905882 0.488014 0.0192874
0.953445 0.499794 0.000457771
0.956893 0.488792 0.00129702
0.959518 0.479362 0.00202945
0.961486 0.470802 0.00270085
0.962615 0.46331 0.00332647
0.963653 0.456474 0.00392157
0.963729 0.450843 0.00485237
0.963592 0.445853 0.00584421
0.96347 0.441428 0.00669871
0.963272 0.437339 0.0078584
0.962356 0.433112 0.0121614
0.961486 0.429023 0.0162661
0.960662 0.42533 0.0200351
0.959945 0.422019 0.0233768
0 0.520211 0
0 0.519326 0
0 0.518639 0
0 0.517922 0
0 0.517128 0
0 0.515877 0
0 0.513954 0
0 0.510903 0
0 0.506859 0
0 0.505135 0
0.117311 0.493736 0
0.306523 0.473152 0.0273136
0.47187 0.502419 0.132692
0.58294 0.545098 0.204105
0.622705 0.56437 0.27541
0.661967 0.559197 0.310231
0.719402 0.548028 0.320653
0.791745 0.536797 0.268025
0.880827 0.535409 0.17351
0.944717 0.542763 0.0732586
0.946593 0.529717 0.0375219
0.947875 0.518196 0.00700389
0.950317 0.509026 0
0.952895 0.501411 0.000335698
0.955154 0.494804 0.000808728
0.956634 0.489693 0.00122072
0.95787 0.485313 0.00154116
0.958923 0.481621 0.00183108
0.959854 0.478157 0.002121
0.960723 0.475059 0.00236515
0.961318 0.471839 0.00260929
0.961776 0.468803 0.00288396
0.962234 0.465827 0.0031281
0 0.555001 0
0 0.55523 0
0 0.555444 0
0 0.555611 0
0 0.55555 0
0 0.554726 0
0 0.553124 0
0 0.550332 0
0 0.546517 0
0 0.541619 0
0.0823529 0.541863 0
0.255222 0.523781 0
0.421332 0.52694 0.0892042
0.569177 0.582818 0.157687
0.653513 0.620325 0.241123
0.688991 0.64033 0.321645
0.738628 0.636118 0.353338
0.790112 0.62652 0.374182
0.859464 0.615183 0.329763
0.932982 0.611017 0.244495
0.933547 0.596429 0.216251
0.935988 0.582788 0.184665
0.938079 0.571084 0.157595
0.940169 0.561532 0.130907
0.942077 0.553689 0.106859
0.943694 0.547051 0.0864271
0.945006 0.541573 0.0696422
0.945693 0.53727 0.0575723
0.94612 0.533593 0.0478065
0.946517 0.530297 0.0390631
0.946914 0.526802 0.0298314
0.947265 0.523613 0.0213626
0.947631 0.520333 0.0126345
0 0.698375 0
0 0.70193 0
0 0.705165 0
0 0.707744 0
0 0.7084 0
0 0.704845 0
0 0.696117 0
0 0.677104 0
0 0.650629 0
0 0.617548 0
0.0522316 0.604334 0
0.205371 0.594095 0
0.378882 0.573434 0.0338903
0.520577 0.6094 0.110338
0.636881 0.656962 0.193622
0.714153 0.692485 0.289204
0.759426 0.718975 0.390372
0.81181 0.711635 0.394308
0.861921 0.699611 0.419471
0.928786 0.685008 0.373556
0.937209 0.671489 0.347143
0.935073 0.659541 0.331212
0.933684 0.649378 0.315969
0.933242 0.640269 0.299321
0.932891 0.633082 0.286213
0.932601 0.627298 0.275654
0.932601 0.62269 0.266987
0.932723 0.618921 0.259709
0.932815 0.615915 0.25391
0.932906 0.613474 0.249195
0.932982 0.611124 0.244709
0.933059 0.609125 0.240848
0.93312 0.607233 0.237217
0 0.870054 0
0 0.876188 0
0 0.882902 0
0 0.889021 0
0 0.89192 0
0 0.89163 0
0 0.886397 0
0 0.873854 0
0 0.855039 0
0 0.832074 0
0 0.804273 0
0.0670024 0.785412 0
0.236667 0.770748 0
0.426352 0.759426 0
0.568261 0.751827 0.0365606
0.67718 0.759609 0.201068
0.776822 0.778012 0.376715
0.826169 0.795361 0.457832
0.883864 0.780743 0.436484
0.930053 0.767605 0.459998
0.953399 0.758022 0.447196
0.951217 0.7476 0.437003
0.94934 0.738994 0.428779
0.947829 0.731991 0.421805
0.946777 0.726162 0.414923
0.945983 0.721798 0.409812
0.945342 0.718471 0.405936
0.944839 0.715877 0.40293
0.944411 0.713695 0.400412
0.94403 0.711727 0.398123
0.943557 0.709331 0.395392
0.943099 0.707057 0.392782
0.942718 0.70457 0.389624
0 0.955993 0
0 0.955978 0
0 0.955978 0
0 0.955978 0
0 0.955978 0
0 0.955978 0
0 0.955978 0
0 0.955978 0
0 0.956008 0
0 0.956039 0
0 0.956039 0
0 0.953964 0
0.0743725 0.936873 0
0.262333 0.916564 0
0.444343 0.899016 0
0.59704 0.898466 0
0.734737 0.858839 0.252461
0.84004 0.851484 0.45951
0.89041 0.862181 0.526848
0.943847 0.84625 0.48896
0.951629 0.834119 0.538872
0.952392 0.825772 0.522255
0.953124 0.818204 0.509041
0.95375 0.811704 0.499214
0.954253 0.806516 0.491432
0.954635 0.802396 0.485328
0.954925 0.799222 0.481743
0.955139 0.796719 0.479576
0.955306 0.794537 0.477699
0.955459 0.792508 0.47599
0.955657 0.790158 0.473991
0.95584 0.787808 0.472023
0.956024 0.785382 0.470008
0 0.955978 0
0 0.955978 0
0 0.955978 0
0 0.955978 0
0 0.955978 0
0 0.955978 0
0 0.955978 0
0 0.955978 0
0 0.955978 0
0 0.955978 0
0 0.955978 0
0 0.955978 0
0 0.948104 0
0.15555 0.930602 0
0.333516 0.914321 0
0.512367 0.9066 0
0.677638 0.91577 0.0867323
0.81387 0.913588 0.380484
0.901411 0.909224 0.570336
0.940047 0.916594 0.605554
0.947158 0.900481 0.621393
0.947433 0.894759 0.615549
0.948119 0.884398 0.603418
0.948745 0.876341 0.594644
0.94905 0.871427 0.590417
0.949325 0.867384 0.587015
0.949569 0.864118 0.584298
0.949767 0.861357 0.58204
0.949935 0.858961 0.579782
0.950057 0.856672 0.576288
0.950195 0.854078 0.572351
0.950347 0.851423 0.568307
0.95053 0.848768 0.564294
0 0.955978 0
0 0.955978 0
0 0.955978 0
0 0.955978 0
0 0.955978 0
0 0.955978 0
0 0.955978 0
0 0.955978 0
0 0.955978 0
0 0.955978 0
0 0.955978 0
0 0.955978 0
0 0.955978 0
0.0436103 0.942092 0
0.209873 0.925078 0
0.407568 0.911025 0
0.61236 0.918791 0
0.765103 0.91368 0.279133
0.890761 0.91751 0.538857
0.940566 0.935271 0.636484
0.94699 0.925551 0.661067
0.947051 0.926497 0.673671
0.947051 0.926497 0.673671
0.947051 0.926497 0.673671
0.947036 0.92636 0.671717
0.947021 0.926085 0.668193
0.947005 0.925872 0.665278
0.94699 0.925673 0.66276
0.946975 0.925505 0.660502
0.946929 0.923858 0.656931
0.946868 0.920317 0.651499
0.946838 0.916762 0.646052
0.946853 0.91313 0.640467
0 0.955978 0
0 0.955978 0
0 0.955978 0
0 0.955978 0
0 0.955978 0
0 0.955978 0
0 0.955978 0
0 0.955978 0
0 0.955978 0
0 0.955978 0
0 0.955978 0
0 0.955978 0
0 0.955978 0
0 0.951293 0
0.101686 0.93608 0
0.304433 0.916182 0
0.537881 0.9066 0
0.717083 0.913512 0.173785
0.868193 0.916411 0.490364
0.928862 0.929732 0.623484
0.94696 0.925689 0.653391
0.947051 0.926497 0.673671
0.947051 0.926497 0.673671
0.947051 0.926497 0.673671
0.947051 0.926497 0.673671
0.947051 0.926497 0.673671
0.947051 0.926497 0.673671
0.947051 0.926497 0.673671
0.947051 0.926497 0.673671
0.947051 0.926497 0.673671
0.947051 0.926497 0.673671
0.947051 0.926497 0.673671
0.947051 0.926497 0.673671
0 0.955978 0
0 0.955978 0
0 0.955978 0
0 0.955978 0
0 0.955978 0
0 0.955978 0
0 0.955978 0
0 0.955978 0
0 0.955978 0
0 0.955978 0
0 0.955978 0
0 0.955978 0
0 0.955978 0
0 0.955978 0
0.00563058 0.945754 0
0.209033 0.92517 0
0.459541 0.909499 0
0.671855 0.916182 0.0741436
0.84303 0.916899 0.438437
0.918517 0.924468 0.606577
0.947066 0.929671 0.648829
0.947036 0.926314 0.671351
0.947051 0.926497 0.673671
0.947051 0.926497 0.673671
0.947051 0.926497 0.673671
0.947051 0.926497 0.673671
0.947051 0.926497 0.673671
0.947051 0.926497 0.673671
0.947051 0.926497 0.673671
0.947051 0.926497 0.673671
0.947051 0.926497 0.673671
0.947051 0.926497 0.673671
0.947051 0.926497 0.673671
0 0.955978 0
0 0.955978 0
0 0.955978 0
0 0.955978 0
0 0.955978 0
0 0.955978 0
0 0.955978 0
0 0.955978 0
0 0.955978 0
0 0.955978 0
0 0.955978 0
0 0.955978 0
0 0.955978 0
0 0.955978 0
0 0.953414 0
0.126848 0.933577 0
0.383749 0.911528 0
0.629267 0.919493 0
0.816144 0.916381 0.383398
0.909575 0.920851 0.585687
0.946151 0.934188 0.645014
0.947005 0.925933 0.6663
0.947051 0.926497 0.673671
0.947051 0.926497 0.673671
0.947051 0.926497 0.673671
0.947051 0.926497 0.673671
0.947051 0.926497 0.673671
0.947051 0.926497 0.673671
0.947051 0.926497 0.673671
0.947051 0.926497 0.673671
0.947051 0.926497 0.673671
0.947051 0.926497 0.673671
0.947051 0.926497 0.673671
0 0.955978 0
0 0.955978 0
0 0.955978 0
0 0.955978 0
0 0.955978 0
0 0.955978 0
0 0.955978 0
0 0.955978 0
0 0.955978 0
0 0.955978 0
0 0.955978 0
0 0.955978 0
0 0.955978 0
0 0.955978 0
0 0.955978 0
0.0538796 0.941039 0
0.309926 0.915831 0
0.584405 0.911467 0
0.788342 0.914885 0.326986
0.900542 0.918761 0.562234
0.943465 0.936324 0.63917
0.94699 0.925551 0.661021
0.947051 0.926497 0.673671
0.947051 0.926497 0.673671
0.947051 0.926497 0.673671
0.947051 0.926497 0.673671
0.947051 0.926497 0.673671
0.947051 0.926497 0.673671
0.947051 0.926497 0.673671
0.947051 0.926497 0.673671
0.947051 0.926497 0.673671
0.947051 0.926497 0.673671
0.947051 0.926497 0.673671
0 0.955978 0
0 0.955978 0
0 0.955978 0
0 0.955978 0
0 0.955978 0
0 0.955978 0
0 0.955978 0
0 0.955978 0
0 0.955978 0
0 0.955978 0
0 0.955978 0
0 0.955978 0
0 0.955978 0
0 0.955978 0
0 0.955978 0
0 0.94728 0
0.24152 0.921996 0
0.540795 0.906615 0
0.760845 0.913527 0.269886
0.88954 0.917403 0.536126
0.936095 0.933394 0.632654
0.946975 0.925505 0.656001
0.947051 0.926497 0.673671
0.947051 0.926497 0.673671
0.947051 0.926497 0.673671
0.947051 0.926497 0.673671
0.947051 0.926497 0.673671
0.947051 0.926497 0.673671
0.947051 0.926497 0.673671
0.947051 0.926497 0.673671
0.947051 0.926497 0.673671
0.947051 0.926497 0.673671
0.947051 0.926497 0.673671
0 0.955978 0
0 0.955978 0
0 0.955978 0
0 0.955978 0
0 0.955978 0
0 0.955978 0
0 0.955978 0
0 0.955978 0
0 0.955978 0
