site/assets/luts/freshluts--0001109-rainoir.cube
# LUTr-Schema-Version: 2
# LUTr-ID: freshluts--0001109-rainoir
# LUTr-Title: RaiNoir
# LUTr-Collection: Fresh LUTs
# LUTr-Collection-ID: freshluts-community
# LUTr-Source: https://freshluts.com
# LUTr-Retrieved: 2026-07-27
# LUTr-Source-File: submissions-raw/freshluts/cubes/1109__RaiNoir.cube
# LUTr-Source-Format: CUBE
# LUTr-Source-SHA256: a4a68b284b635c08ed4990e5495d36794a1ba41cc31a61f88f76aa68ebce3586
# LUTr-License: CC0-1.0
# LUTr-License-URL: https://freshluts.com/termsandconditions
# LUTr-License-Basis: site-terms
# LUTr-Transform-Class: creative-look
# LUTr-Tags: creative, freshluts, community, cube, cool, low-key, dji-d-log
# LUTr-Input-Color-Space:
# LUTr-Input-Gamut: dji-d-gamut
# LUTr-Input-Transfer: dji-d-log
# LUTr-Output-Color-Space: srgb
# LUTr-Output-Gamut: rec709
# LUTr-Output-Transfer: srgb
# LUTr-Color-Space-Confidence: camera-profile-input-required
# LUTr-Domain-Normalized: true
# LUTr-Shaper: none
# LUTr-Original-Grid: 16x16x16
# LUTr-Conversion-Grid: 16x16x16
# LUTr-Conversion-Interpolation: none
# LUTr-Conversion-Method: Metadata normalization; numeric LUT samples preserved
# LUTr-Conversion-Tool: LUTr scripts/convert-all-to-cube.mjs 2.0.0
# LUTr-Conversion-Date: 2026-07-28
# LUTr-Asset-URL: https://freshluts.com/luts/1109
# LUTr-Author: InAvision
# LUTr-Author-URL: https://freshluts.com/users/64078
# LUTr-Attribution: InAvision via Fresh LUTs
# LUTr-Source-Labels: gamma=DJI D-log; color=Cool; key=Low Key; style=Overcast Day
# LUTr-Note: Preserve this metadata and the upstream license notices when redistributing.
TITLE "RaiNoir"
LUT_3D_SIZE 16
DOMAIN_MIN 0 0 0
DOMAIN_MAX 1 1 1
0.002775 0.058597 0.071453
0.006217 0.058597 0.071453
0.01866 0.058597 0.071453
0.041129 0.058597 0.071453
0.075039 0.058597 0.071453
0.121252 0.058597 0.071453
0.174494 0.058597 0.071453
0.23543 0.058597 0.071453
0.305546 0.058597 0.071453
0.385072 0.058597 0.071453
0.47503 0.058597 0.071453
0.576552 0.058597 0.071453
0.685833 0.058597 0.071453
0.799208 0.058597 0.071453
0.909946 0.058597 0.071453
1.000019 0.058597 0.071453
0.002775 0.079524 0.071453
0.006217 0.079524 0.071453
0.01866 0.081451 0.071453
0.041129 0.083382 0.071453
0.075039 0.085165 0.071453
0.121252 0.086823 0.071453
0.174494 0.088336 0.071453
0.23543 0.089776 0.071453
0.305546 0.091065 0.071453
0.385072 0.092105 0.071453
0.47503 0.092881 0.071453
0.576552 0.093473 0.071453
0.685833 0.093843 0.071453
0.799208 0.093989 0.071453
0.909946 0.093887 0.071453
1.000019 0.093084 0.071453
0.002775 0.127679 0.071453
0.006595 0.127679 0.071453
0.01866 0.127679 0.071453
0.041129 0.132256 0.071453
0.075039 0.136417 0.071453
0.121252 0.14023 0.071453
0.174494 0.143691 0.071453
0.23543 0.146948 0.071453
0.305546 0.149872 0.071453
0.385072 0.152174 0.071453
0.47503 0.153939 0.071453
0.576552 0.155267 0.071453
0.685833 0.156086 0.071453
0.799208 0.156421 0.071453
0.909946 0.156172 0.071453
1.000019 0.154404 0.071453
0.002775 0.184645 0.071453
0.006987 0.184645 0.071453
0.020158 0.184645 0.071453
0.041129 0.184645 0.071453
0.075039 0.191034 0.071453
0.121252 0.196916 0.071453
0.174494 0.202206 0.071453
0.23543 0.207209 0.071453
0.305546 0.211678 0.071453
0.385072 0.215186 0.071453
0.47503 0.217888 0.071453
0.576552 0.219916 0.071453
0.685833 0.221162 0.071453
0.799208 0.221682 0.071453
0.909946 0.221263 0.071453
1.000019 0.218586 0.071453
0.002775 0.246451 0.071453
0.007357 0.246451 0.071453
0.021567 0.246451 0.071453
0.044166 0.246451 0.071453
0.075039 0.246451 0.071453
0.121252 0.254326 0.071453
0.174494 0.261482 0.071453
0.23543 0.26818 0.071453
0.305546 0.274164 0.071453
0.385072 0.278881 0.071453
0.47503 0.282473 0.071453
0.576552 0.285217 0.071453
0.685833 0.286876 0.071453
0.799208 0.287561 0.071453
0.909946 0.287034 0.071453
1.000019 0.283427 0.071453
0.002775 0.312019 0.071453
0.007707 0.312019 0.071453
0.022897 0.312019 0.071453
0.047049 0.312019 0.071453
0.080103 0.312019 0.071453
0.121252 0.312019 0.071453
0.174494 0.32099 0.071453
0.23543 0.329378 0.071453
0.305546 0.336885 0.071453
0.385072 0.342796 0.071453
0.47503 0.34734 0.071453
0.576552 0.35069 0.071453
0.685833 0.352856 0.071453
0.799208 0.353698 0.071453
0.909946 0.353042 0.071453
1.000019 0.34846 0.071453
0.002775 0.380598 0.071453
0.008035 0.380598 0.071453
0.024137 0.380598 0.071453
0.049744 0.380598 0.071453
0.084862 0.380598 0.071453
0.127978 0.380598 0.071453
0.174494 0.380598 0.071453
0.23543 0.390727 0.071453
0.305546 0.399702 0.071453
0.385072 0.406815 0.071453
0.47503 0.412284 0.071453
0.576552 0.416339 0.071453
0.685833 0.418838 0.071453
0.799208 0.419921 0.071453
0.909946 0.419139 0.071453
1.000019 0.413659 0.071453
0.002775 0.452075 0.071453
0.00835 0.452075 0.071453
0.025331 0.452075 0.071453
0.052343 0.452075 0.071453
0.089436 0.452075 0.071453
0.134304 0.452075 0.071453
0.18273 0.452075 0.071453
0.23543 0.452075 0.071453
0.305546 0.4626 0.071453
0.385072 0.470894 0.071453
0.47503 0.477247 0.071453
0.576552 0.482022 0.071453
0.685833 0.484955 0.071453
0.799208 0.486188 0.071453
0.909946 0.485249 0.071453
1.000019 0.478877 0.071453
0.002775 0.525596 0.071453
0.008638 0.525596 0.071453
0.026426 0.525596 0.071453
0.05472 0.525596 0.071453
0.093646 0.525596 0.071453
0.140042 0.525596 0.071453
0.190148 0.525596 0.071453
0.244976 0.525596 0.071453
0.305546 0.525596 0.071453
0.385072 0.535066 0.071453
0.47503 0.542248 0.071453
0.576552 0.547787 0.071453
0.685833 0.551084 0.071453
0.799208 0.55254 0.071453
0.909946 0.551423 0.071453
1.000019 0.544204 0.071453
0.002775 0.599224 0.071453
0.00887 0.599224 0.071453
0.027304 0.599224 0.071453
0.056619 0.599224 0.071453
0.097033 0.599224 0.071453
0.144578 0.599224 0.071453
0.196097 0.599224 0.071453
0.252624 0.599224 0.071453
0.315247 0.599224 0.071453
0.385072 0.599224 0.071453
0.47503 0.607373 0.071453
0.576552 0.61351 0.071453
0.685833 0.617342 0.071453
0.799208 0.618918 0.071453
0.909946 0.617682 0.071453
1.000019 0.609506 0.071453
0.002775 0.672416 0.071453
0.009054 0.672416 0.071453
0.027989 0.672416 0.071453
0.058104 0.672416 0.071453
0.099637 0.672416 0.071453
0.148092 0.672416 0.071453
0.200702 0.672416 0.071453
0.258524 0.672416 0.071453
0.322761 0.672416 0.071453
0.394516 0.672416 0.071453
0.47503 0.672416 0.071453
0.576552 0.679275 0.071453
0.685833 0.683427 0.071453
0.799208 0.685241 0.071453
0.909946 0.683817 0.071453
1.000019 0.674774 0.071453
0.002775 0.745208 0.071453
0.009188 0.745208 0.071453
0.0285 0.745208 0.071453
0.059232 0.745208 0.071453
0.101601 0.745208 0.071453
0.15072 0.745208 0.071453
0.204167 0.745208 0.071453
0.262976 0.745208 0.071453
0.328437 0.745208 0.071453
0.401661 0.745208 0.071453
0.483944 0.745208 0.071453
0.576552 0.745208 0.071453
0.685833 0.74969 0.071453
0.799208 0.751718 0.071453
0.909946 0.750072 0.071453
1.000019 0.740056 0.071453
0.002775 0.815834 0.071453
0.009274 0.815834 0.071453
0.028824 0.815834 0.071453
0.05994 0.815834 0.071453
0.102798 0.815834 0.071453
0.152382 0.815834 0.071453
0.206288 0.815834 0.071453
0.265753 0.815834 0.071453
0.33198 0.815834 0.071453
0.406213 0.815834 0.071453
0.489629 0.815834 0.071453
0.583348 0.815834 0.071453
0.685833 0.815834 0.071453
0.799208 0.818021 0.071453
0.909946 0.816268 0.071453
1.000019 0.805502 0.071453
0.002775 0.884403 0.071453
0.009309 0.884403 0.071453
0.028962 0.884403 0.071453
0.060231 0.884403 0.071453
0.103305 0.884403 0.071453
0.153064 0.884403 0.071453
0.207196 0.884403 0.071453
0.26693 0.884403 0.071453
0.333536 0.884403 0.071453
0.40811 0.884403 0.071453
0.491964 0.884403 0.071453
0.586247 0.884403 0.071453
0.689365 0.884403 0.071453
0.799208 0.884403 0.071453
0.909946 0.882654 0.071453
1.000019 0.870785 0.071453
0.002775 0.94878 0.071453
0.009282 0.94878 0.071453
0.028857 0.94878 0.071453
0.060004 0.94878 0.071453
0.102919 0.94878 0.071453
0.152517 0.94878 0.071453
0.206538 0.94878 0.071453
0.266034 0.94878 0.071453
0.332345 0.94878 0.071453
0.40662 0.94878 0.071453
0.490181 0.94878 0.071453
0.583911 0.94878 0.071453
0.686554 0.94878 0.071453
0.796174 0.94878 0.071453
0.909946 0.94878 0.071453
1.000019 0.935954 0.071453
0.002775 1.000021 0.071453
0.009099 1.000021 0.071453
0.02816 1.000021 0.071453
0.058488 1.000021 0.071453
0.100312 1.000021 0.071453
0.148984 1.000021 0.071453
0.201862 1.000021 0.071453
0.260056 1.000021 0.071453
0.324694 1.000021 0.071453
0.397 1.000021 0.071453
0.478058 1.000021 0.071453
0.56919 1.000021 0.071453
0.669157 1.000021 0.071453
0.776242 1.000021 0.071453
0.88778 1.000021 0.071453
1.000019 1.000021 0.071453
0.002775 0.058597 0.094925
0.006217 0.058597 0.094925
0.01866 0.058597 0.097059
0.041129 0.058597 0.099199
0.075039 0.058597 0.101177
0.121252 0.058597 0.102996
0.174494 0.058597 0.104673
0.23543 0.058597 0.106254
0.305546 0.058597 0.107675
0.385072 0.058597 0.10881
0.47503 0.058597 0.109679
0.576552 0.058597 0.110325
0.685833 0.058597 0.110739
0.799208 0.058597 0.1109
0.909946 0.058597 0.110772
1.000019 0.058597 0.1099
0.002775 0.079524 0.094925
0.006217 0.079524 0.094925
0.01866 0.079524 0.094925
0.041129 0.079524 0.094925
0.075039 0.079524 0.094925
0.121252 0.079524 0.094925
0.174494 0.079524 0.094925
0.23543 0.079524 0.094925
0.305546 0.079524 0.094925
0.385072 0.079524 0.094925
0.47503 0.079524 0.094925
0.576552 0.079524 0.094925
0.685833 0.079524 0.094925
0.799208 0.079524 0.094925
0.909946 0.079524 0.094925
1.000019 0.079524 0.094925
0.002775 0.127679 0.097059
0.006217 0.127679 0.094925
0.01866 0.127679 0.094925
0.041129 0.131141 0.094925
0.075039 0.13444 0.094925
0.121252 0.137517 0.094925
0.174494 0.140383 0.094925
0.23543 0.1431 0.094925
0.305546 0.145546 0.094925
0.385072 0.147487 0.094925
0.47503 0.148967 0.094925
0.576552 0.150083 0.094925
0.685833 0.150776 0.094925
0.799208 0.151051 0.094925
0.909946 0.15082 0.094925
1.000019 0.149292 0.094925
0.002775 0.184645 0.099199
0.006217 0.184645 0.094925
0.01979 0.184645 0.094925
0.041129 0.184645 0.094925
0.075039 0.190324 0.094925
0.121252 0.195666 0.094925
0.174494 0.200566 0.094925
0.23543 0.205164 0.094925
0.305546 0.209373 0.094925
0.385072 0.212652 0.094925
0.47503 0.215172 0.094925
0.576552 0.217058 0.094925
0.685833 0.218243 0.094925
0.799208 0.218693 0.094925
0.909946 0.218278 0.094925
1.000019 0.215713 0.094925
0.002775 0.246451 0.101177
0.006217 0.246451 0.094925
0.02089 0.246451 0.094925
0.043832 0.246451 0.094925
0.075039 0.246451 0.094925
0.121252 0.253833 0.094925
0.174494 0.26063 0.094925
0.23543 0.267025 0.094925
0.305546 0.272773 0.094925
0.385072 0.277323 0.094925
0.47503 0.280787 0.094925
0.576552 0.283393 0.094925
0.685833 0.284995 0.094925
0.799208 0.285658 0.094925
0.909946 0.285092 0.094925
1.000019 0.281545 0.094925
0.002775 0.312019 0.102996
0.006217 0.312019 0.094925
0.021948 0.312019 0.094925
0.04644 0.312019 0.094925
0.079789 0.312019 0.094925
0.121252 0.312019 0.094925
0.174494 0.320628 0.094925
0.23543 0.328748 0.094925
0.305546 0.33602 0.094925
0.385072 0.341802 0.094925
0.47503 0.346171 0.094925
0.576552 0.34949 0.094925
0.685833 0.351524 0.094925
0.799208 0.352337 0.094925
0.909946 0.351657 0.094925
1.000019 0.347169 0.094925
0.002775 0.380598 0.104673
0.006217 0.380599 0.094925
0.022948 0.380599 0.094925
0.048903 0.380599 0.094925
0.084268 0.380599 0.094925
0.127698 0.380599 0.094925
0.174494 0.380599 0.094925
0.23543 0.390487 0.094925
0.305546 0.399263 0.094925
0.385072 0.406164 0.094925
0.47503 0.411529 0.094925
0.576552 0.415543 0.094925
0.685833 0.417895 0.094925
0.799208 0.418928 0.094925
0.909946 0.418118 0.094925
1.000019 0.412677 0.094925
0.002775 0.452075 0.106254
0.006217 0.452075 0.094925
0.02392 0.452075 0.094925
0.051279 0.452075 0.094925
0.088641 0.452075 0.094925
0.133834 0.452075 0.094925
0.182495 0.452075 0.094925
0.23543 0.452075 0.094925
0.305546 0.462411 0.094925
0.385072 0.470521 0.094925
0.47503 0.476745 0.094925
0.576552 0.481385 0.094925
0.685833 0.484312 0.094925
0.799208 0.48548 0.094925
0.909946 0.484498 0.094925
1.000019 0.478131 0.094925
0.002775 0.525596 0.107675
0.006217 0.525596 0.094925
0.024813 0.525596 0.094925
0.053479 0.525596 0.094925
0.092673 0.525596 0.094925
0.139369 0.525596 0.094925
0.189774 0.525596 0.094925
0.244802 0.525596 0.094925
0.305546 0.525596 0.094925
0.385072 0.534868 0.094925
0.47503 0.542031 0.094925
0.576552 0.547315 0.094925
0.685833 0.550674 0.094925
0.799208 0.551953 0.094925
0.909946 0.550874 0.094925
1.000019 0.543627 0.094925
0.002775 0.599224 0.10881
0.006217 0.599224 0.094925
0.025526 0.599224 0.094925
0.055231 0.599224 0.094925
0.095912 0.599224 0.094925
0.143812 0.599224 0.094925
0.195548 0.599224 0.094925
0.252283 0.599224 0.094925
0.315023 0.599224 0.094925
0.385072 0.599224 0.094925
0.47503 0.607226 0.094925
0.576552 0.613285 0.094925
0.685833 0.616922 0.094925
0.799208 0.618539 0.094925
0.909946 0.617236 0.094925
1.000019 0.609047 0.094925
0.002775 0.672416 0.109679
0.006217 0.672416 0.094925
0.026082 0.672416 0.094925
0.056613 0.672416 0.094925
0.098388 0.672416 0.094925
0.147186 0.672416 0.094925
0.200047 0.672416 0.094925
0.258033 0.672416 0.094925
0.322476 0.672416 0.094925
0.394377 0.672416 0.094925
0.47503 0.672416 0.094925
0.576552 0.679176 0.094925
0.685833 0.683282 0.094925
0.799208 0.684978 0.094925
0.909946 0.683545 0.094925
1.000019 0.674427 0.094925
0.002775 0.745208 0.110325
0.006217 0.745208 0.094925
0.0265 0.745208 0.094925
0.057645 0.745208 0.094925
0.100265 0.745208 0.094925
0.149769 0.745208 0.094925
0.20343 0.745208 0.094925
0.262413 0.745208 0.094925
0.328029 0.745208 0.094925
0.401405 0.745208 0.094925
0.483858 0.745208 0.094925
0.576552 0.745208 0.094925
0.685833 0.749567 0.094925
0.799208 0.751492 0.094925
0.909946 0.749908 0.094925
1.000019 0.739891 0.094925
0.002775 0.815834 0.110739
0.006217 0.815835 0.094925
0.026768 0.815835 0.094925
0.058293 0.815835 0.094925
0.101442 0.815835 0.094925
0.151353 0.815835 0.094925
0.205505 0.815835 0.094925
0.265136 0.815835 0.094925
0.331557 0.815835 0.094925
0.405789 0.815835 0.094925
0.489354 0.815835 0.094925
0.583196 0.815835 0.094925
0.685833 0.815835 0.094925
0.799208 0.817875 0.094925
0.909946 0.816135 0.094925
1.000019 0.80525 0.094925
0.002775 0.884403 0.1109
0.006217 0.884403 0.094925
0.026875 0.884403 0.094925
0.058557 0.884403 0.094925
0.101906 0.884403 0.094925
0.152007 0.884403 0.094925
0.206324 0.884403 0.094925
0.266261 0.884403 0.094925
0.332949 0.884403 0.094925
0.407639 0.884403 0.094925
0.491618 0.884403 0.094925
0.585954 0.884403 0.094925
0.689122 0.884403 0.094925
0.799208 0.884403 0.094925
0.909946 0.882626 0.094925
1.000019 0.870699 0.094925
0.002775 0.94878 0.110772
0.006217 0.94878 0.094925
0.026784 0.94878 0.094925
0.058333 0.94878 0.094925
0.101519 0.94878 0.094925
0.15145 0.94878 0.094925
0.205658 0.94878 0.094925
0.265347 0.94878 0.094925
0.331784 0.94878 0.094925
0.406131 0.94878 0.094925
0.48976 0.94878 0.094925
0.58363 0.94878 0.094925
0.686315 0.94878 0.094925
0.796193 0.94878 0.094925
0.909946 0.94878 0.094925
1.000019 0.935916 0.094925
0.002775 1.000021 0.1099
0.006217 1.000021 0.094925
0.026207 1.000021 0.094925
0.056909 1.000021 0.094925
0.098937 1.000021 0.094925
0.147942 1.000021 0.094925
0.201046 1.000021 0.094925
0.259341 1.000021 0.094925
0.324142 1.000021 0.094925
0.396479 1.000021 0.094925
0.47763 1.000021 0.094925
0.568834 1.000021 0.094925
0.66883 1.000021 0.094925
0.776055 1.000021 0.094925
0.887559 1.000021 0.094925
1.000019 1.000021 0.094925
0.002775 0.058597 0.147448
0.006595 0.058597 0.147448
0.01866 0.058597 0.147448
0.041129 0.058597 0.152356
0.075039 0.058597 0.156814
0.121252 0.058597 0.160876
0.174494 0.058597 0.164577
0.23543 0.058597 0.168041
0.305546 0.058597 0.171154
0.385072 0.058597 0.173586
0.47503 0.058597 0.175452
0.576552 0.058597 0.176873
0.685833 0.058597 0.177739
0.799208 0.058597 0.178096
0.909946 0.058597 0.177815
1.000019 0.058597 0.175951
0.002775 0.081451 0.147448
0.006217 0.079524 0.147448
0.01866 0.079524 0.147448
0.041129 0.079524 0.151158
0.075039 0.079524 0.154691
0.121252 0.079524 0.157986
0.174494 0.079524 0.161039
0.23543 0.079524 0.163944
0.305546 0.079524 0.166553
0.385072 0.079524 0.168598
0.47503 0.079524 0.170186
0.576552 0.079524 0.171364
0.685833 0.079524 0.172102
0.799208 0.079524 0.172395
0.909946 0.079524 0.17215
1.000019 0.079524 0.17053
0.002775 0.127679 0.147448
0.006217 0.127679 0.147448
0.01866 0.127679 0.147448
0.041129 0.127679 0.147448
0.075039 0.127679 0.147448
0.121252 0.127679 0.147448
0.174494 0.127679 0.147448
0.23543 0.127679 0.147448
0.305546 0.127679 0.147448
0.385072 0.127679 0.147448
0.47503 0.127679 0.147448
0.576552 0.127679 0.147448
0.685834 0.127679 0.147448
0.799208 0.127679 0.147448
0.909946 0.127679 0.147448
1.000019 0.127679 0.147448
0.002775 0.184645 0.152356
0.006217 0.184645 0.151158
0.01866 0.184645 0.147448
0.041129 0.184645 0.147448
0.075039 0.188032 0.147448
0.121252 0.1914 0.147448
0.174494 0.194624 0.147448
0.23543 0.197763 0.147448
0.305546 0.200596 0.147448
0.385072 0.202882 0.147448
0.47503 0.204603 0.147448
0.576552 0.205909 0.147448
0.685834 0.206723 0.147448
0.799208 0.207014 0.147448
0.909946 0.206672 0.147448
1.000019 0.204758 0.147448
0.002775 0.246451 0.156814
0.006217 0.246451 0.154691
0.01866 0.246451 0.147448
0.042728 0.246451 0.147448
0.075039 0.246451 0.147448
0.121252 0.252203 0.147448
0.174494 0.257625 0.147448
0.23543 0.262884 0.147448
0.305546 0.267648 0.147448
0.385072 0.271437 0.147448
0.47503 0.274308 0.147448
0.576552 0.276475 0.147448
0.685834 0.277799 0.147448
0.799208 0.278303 0.147448
0.909946 0.277742 0.147448
1.000019 0.274569 0.147448
0.002775 0.312019 0.160876
0.006217 0.312019 0.157986
0.01866 0.312019 0.147448
0.04435 0.312019 0.147448
0.078716 0.312019 0.147448
0.121252 0.312019 0.147448
0.174494 0.319372 0.147448
0.23543 0.326475 0.147448
0.305546 0.332957 0.147448
0.385072 0.338027 0.147448
0.47503 0.341897 0.147448
0.576552 0.344808 0.147448
0.685834 0.346586 0.147448
0.799208 0.347277 0.147448
0.909946 0.34653 0.147448
1.000019 0.342263 0.147448
0.002775 0.380598 0.164577
0.006217 0.380599 0.161039
0.01866 0.380599 0.147448
0.045922 0.380599 0.147448
0.082277 0.380599 0.147448
0.126772 0.380599 0.147448
0.174494 0.380599 0.147448
0.23543 0.38942 0.147448
0.305546 0.397434 0.147448
0.385072 0.403768 0.147448
0.47503 0.408581 0.147448
0.576552 0.41228 0.147448
0.685834 0.414391 0.147448
0.799208 0.415253 0.147448
0.909946 0.414317 0.147448
1.000019 0.40906 0.147448
0.002775 0.452075 0.168041
0.006217 0.452075 0.163944
0.01866 0.452075 0.147448
0.047486 0.452075 0.147448
0.085804 0.452075 0.147448
0.132113 0.452075 0.147448
0.181693 0.452075 0.147448
0.23543 0.452075 0.147448
0.305546 0.461627 0.147448
0.385072 0.469145 0.147448
0.47503 0.474864 0.147448
0.576552 0.479174 0.147448
0.685834 0.481761 0.147448
0.799208 0.482763 0.147448
0.909946 0.481654 0.147448
1.000019 0.475377 0.147448
0.002775 0.525596 0.171154
0.006217 0.525596 0.166553
0.01866 0.525596 0.147448
0.048917 0.525596 0.147448
0.08907 0.525596 0.147448
0.137027 0.525596 0.147448
0.188277 0.525596 0.147448
0.244066 0.525596 0.147448
0.305546 0.525596 0.147448
0.385072 0.534225 0.147448
0.47503 0.540876 0.147448
0.576552 0.545845 0.147448
0.685834 0.548816 0.147448
0.799208 0.550003 0.147448
0.909946 0.548801 0.147448
1.000019 0.541474 0.147448
0.002775 0.599224 0.173586
0.006217 0.599224 0.168598
0.01866 0.599224 0.147448
0.050081 0.599224 0.147448
0.091703 0.599224 0.147448
0.140903 0.599224 0.147448
0.193556 0.599224 0.147448
0.250954 0.599224 0.147448
0.314362 0.599224 0.147448
0.385072 0.599224 0.147448
0.47503 0.606749 0.147448
0.576552 0.61234 0.147448
0.685834 0.615755 0.147448
0.799208 0.617087 0.147448
0.909946 0.615677 0.147448
1.000019 0.607393 0.147448
0.002775 0.672416 0.175452
0.006217 0.672416 0.170186
0.01866 0.672416 0.147448
0.050979 0.672416 0.147448
0.093749 0.672416 0.147448
0.143887 0.672416 0.147448
0.197599 0.672416 0.147448
0.256281 0.672416 0.147448
0.321278 0.672416 0.147448
0.393791 0.672416 0.147448
0.47503 0.672416 0.147448
0.576552 0.678703 0.147448
0.685834 0.682569 0.147448
0.799208 0.683977 0.147448
0.909946 0.682349 0.147448
1.000019 0.673269 0.147448
0.002775 0.745208 0.176873
0.006217 0.745208 0.171364
0.01866 0.745208 0.147448
0.051665 0.745208 0.147448
0.095287 0.745208 0.147448
0.146148 0.745208 0.147448
0.200682 0.745208 0.147448
0.2603 0.745208 0.147448
0.32649 0.745208 0.147448
0.400357 0.745208 0.147448
0.483249 0.745208 0.147448
0.576552 0.745208 0.147448
0.685834 0.749426 0.147448
0.799208 0.750884 0.147448
0.909946 0.74922 0.147448
1.000019 0.738791 0.147448
0.002775 0.815834 0.177739
0.006217 0.815835 0.172102
0.01866 0.815835 0.147448
0.052087 0.815835 0.147448
0.096238 0.815835 0.147448
0.14753 0.815835 0.147448
0.202521 0.815835 0.147448
0.262756 0.815835 0.147448
0.329577 0.815835 0.147448
0.404376 0.815835 0.147448
0.4883 0.815835 0.147448
0.582769 0.815835 0.147448
0.685834 0.815835 0.147448
0.799208 0.817559 0.147448
0.909946 0.81565 0.147448
1.000019 0.80461 0.147448
0.002775 0.884403 0.178096
0.006217 0.884403 0.172395
0.01866 0.884404 0.147448
0.052242 0.884404 0.147448
0.096602 0.884404 0.147448
0.148047 0.884404 0.147448
0.203227 0.884404 0.147448
0.263697 0.884404 0.147448
0.330826 0.884404 0.147448
0.405869 0.884404 0.147448
0.490225 0.884404 0.147448
0.585047 0.884404 0.147448
0.688666 0.884404 0.147448
0.799208 0.884404 0.147448
0.909946 0.882364 0.147448
1.000019 0.87034 0.147448
0.002775 0.94878 0.177815
0.006217 0.94878 0.17215
0.01866 0.94878 0.147448
0.052061 0.94878 0.147448
0.096222 0.94878 0.147448
0.147462 0.94878 0.147448
0.202453 0.94878 0.147448
0.26267 0.94878 0.147448
0.329517 0.94878 0.147448
0.404281 0.94878 0.147448
0.488177 0.94878 0.147448
0.582526 0.94878 0.147448
0.685496 0.94878 0.147448
0.795721 0.94878 0.147448
0.909946 0.94878 0.147448
1.000019 0.935695 0.147448
0.002775 1.000021 0.175951
0.006217 1.000021 0.17053
0.01866 1.000021 0.147448
0.051061 1.000021 0.147448
0.093926 1.000021 0.147448
0.144178 1.000021 0.147448
0.19798 1.000021 0.147448
0.256788 1.000021 0.147448
0.321892 1.000021 0.147448
0.394521 1.000021 0.147448
0.476047 1.000021 0.147448
0.567435 1.000021 0.147448
0.667909 1.000021 0.147448
0.77547 1.000021 0.147448
0.887292 1.000021 0.147448
1.000019 1.000021 0.147448
0.002775 0.058597 0.207781
0.006987 0.058597 0.207781
0.020158 0.058597 0.207781
0.041129 0.058597 0.207781
0.075039 0.058597 0.214492
0.121252 0.058597 0.220589
0.174494 0.058597 0.226138
0.23543 0.058597 0.231341
0.305546 0.058597 0.235966
0.385072 0.058597 0.239589
0.47503 0.058597 0.242395
0.576552 0.058597 0.244483
0.685833 0.058597 0.245766
0.799208 0.058597 0.246318
0.909946 0.058597 0.245882
1.000019 0.058597 0.243109
0.002775 0.083382 0.207781
0.006217 0.079524 0.207781
0.01979 0.079524 0.207781
0.041129 0.079524 0.207781
0.075039 0.079524 0.213739
0.121252 0.079524 0.219302
0.174494 0.079524 0.224424
0.23543 0.079524 0.229206
0.305546 0.079524 0.23357
0.385072 0.079524 0.236961
0.47503 0.079524 0.239583
0.576552 0.079524 0.241522
0.685833 0.079524 0.242741
0.799208 0.079524 0.243225
0.909946 0.079524 0.242794
1.000019 0.079524 0.240143
0.002775 0.132256 0.207781
0.006217 0.131141 0.207781
0.01866 0.127679 0.207781
0.041129 0.127679 0.207781
0.075039 0.127679 0.211333
0.121252 0.127679 0.214862
0.174494 0.127679 0.218226
0.23543 0.127679 0.221494
0.305546 0.127679 0.224428
0.385072 0.127679 0.226819
0.47503 0.127679 0.228614
0.576552 0.127679 0.229957
0.685834 0.127679 0.230809
0.799208 0.127679 0.231117
0.909946 0.127679 0.230773
1.000019 0.127679 0.228785
0.002775 0.184645 0.207781
0.006217 0.184645 0.207781
0.01866 0.184645 0.207781
0.041129 0.184645 0.207781
0.075039 0.184645 0.207781
0.121252 0.184645 0.207781
0.174494 0.184645 0.207781
0.23543 0.184645 0.207781
0.305546 0.184645 0.207781
0.385072 0.184645 0.207781
0.47503 0.184645 0.207781
0.576552 0.184645 0.207781
0.685833 0.184645 0.207781
0.799208 0.184645 0.207781
0.909946 0.184645 0.207781
1.000019 0.184645 0.207781
0.002775 0.246451 0.214492
0.006217 0.246451 0.213739
0.01866 0.246451 0.211333
0.041129 0.246451 0.207781
