site/assets/luts/freshluts--0000756-correction-style-black-magic-footage.cube
# LUTr-Schema-Version: 2
# LUTr-ID: freshluts--0000756-correction-style-black-magic-footage
# LUTr-Title: Correction Style( black magic footage)
# LUTr-Collection: Fresh LUTs
# LUTr-Collection-ID: freshluts-community
# LUTr-Source: https://freshluts.com
# LUTr-Retrieved: 2026-07-27
# LUTr-Source-File: submissions-raw/freshluts/cubes/756__natural_1.A003_02171201_C024.cube
# LUTr-Source-Format: CUBE
# LUTr-Source-SHA256: 443a27a07d41ddc4f1d7d63c4e92ed9fbd7d4cf0c192e868964a1ab193c5a6be
# LUTr-License: CC0-1.0
# LUTr-License-URL: https://freshluts.com/termsandconditions
# LUTr-License-Basis: site-terms
# LUTr-Transform-Class: creative-look
# LUTr-Tags: creative, freshluts, community, cube, bmd-film, correction
# LUTr-Input-Color-Space:
# LUTr-Input-Gamut: bmd-film-gamut
# LUTr-Input-Transfer: bmd-film
# LUTr-Output-Color-Space: srgb
# LUTr-Output-Gamut: rec709
# LUTr-Output-Transfer: srgb
# LUTr-Color-Space-Confidence: camera-profile-input-required
# LUTr-Domain-Normalized: true
# LUTr-Shaper: none
# LUTr-Original-Grid: 33x33x33
# LUTr-Conversion-Grid: 33x33x33
# LUTr-Conversion-Interpolation: none
# LUTr-Conversion-Method: Metadata normalization; numeric LUT samples preserved
# LUTr-Conversion-Tool: LUTr scripts/convert-all-to-cube.mjs 2.0.0
# LUTr-Conversion-Date: 2026-07-28
# LUTr-Asset-URL: https://freshluts.com/luts/756
# LUTr-Author: lvannoeun@gmail.com
# LUTr-Author-URL: https://freshluts.com/users/57563
# LUTr-Attribution: lvannoeun@gmail.com via Fresh LUTs
# LUTr-Source-Labels: gamma=Blackmagic BMD Film; color=None; key=Neutral; style=Correction
# LUTr-Note: Preserve this metadata and the upstream license notices when redistributing.
TITLE "Correction Style( black magic footage)"
LUT_3D_SIZE 33
DOMAIN_MIN 0 0 0
DOMAIN_MAX 1 1 1
0 0 0
0 0 0
0 0 0
0 0 0
0 0 0
0 0 0
0 0 0
0 0 0
0 0 0
0.0345617 0 0
0.0830701 0 0
0.136706 0 0
0.192462 0 0
0.251209 0 0
0.311513 0 0
0.372457 0 0
0.432959 0 0
0.49305 0 0
0.553582 0 0
0.61413 0 0
0.674296 0 0
0.733501 0 0
0.791089 0 0
0.847044 0 0
0.901091 0 0
0.953399 0 0
0.989868 0 0
1 0 0
1 0 0
1 0 0
1 0 0
1 0 0
1 0 0
0 0 0
0 0 0
0 0 0
0 0 0
0 0 0
0 0 0
0 0 0
0 0 0
0.0158999 0 0
0.0564584 0 0
0.10486 0 0
0.155245 0 0
0.209537 0 0
0.266697 0 0
0.325841 0 0
0.385931 0 0
0.445945 0 0
0.505776 0 0
0.566278 0 0
0.62707 0 0
0.687739 0 0
0.747616 0 0
0.806699 0 0
0.865217 0 0
0.926497 0 0
0.97586 0 0
1 0 0
1 0 0
1 0 0
1 0 0
1 0 0
1 0 0
1 0 0
0 0 0
0 0 0
0 0 0
0 0 0
0 0 0
0 0 0
0 0 0
0 0 0
0.0178988 0 0
0.0685283 0 0
0.126055 0 0
0.182986 0 0
0.240864 0 0
0.299031 0 0
0.357122 0 0
0.415625 0 0
0.474266 0 0
0.533135 0 0
0.593194 0 0
0.654459 0 0
0.71725 0 0
0.784176 0 0
0.844877 0 0
0.901839 0 0
0.955169 0 0
0.990784 0 0
1 0 0
1 0 0
1 0 0
1 0 0
1 0 0
1 0 0
1 0 0
0 0 0
0 0 0
0 0 0
0 0 0
0 0 0
0 0 0
0 0 0
0 0 0
0.00834669 0 0
0.060853 0 0
0.124453 0 0
0.187961 0 0
0.253834 0 0
0.321324 0 0
0.387976 0 0
0.452995 0 0
0.516426 0 0
0.580591 0 0
0.646754 0 0
0.70753 0 0
0.765743 0 0
0.822675 0 0
0.877913 0 0
0.93106 0 0
0.974701 0 0
1 0 0
1 0 0
1 0 0
1 0 0
1 0 0
1 0 0
1 0 0
1 0 0
0 0 0
0 0 0
0 0 0
0 0 0
0 0 0
0 0 0
0 0 0
0 0 0
0 0 0
0.0452125 0 0
0.112032 0 0
0.183307 0 0
0.256504 0 0
0.331441 0 0
0.411627 0 0
0.487327 0 0
0.557382 0 0
0.62298 0 0
0.685664 0 0
0.74638 0 0
0.804715 0 0
0.860868 0 0
0.91458 0 0
0.963317 0 0
0.997055 0 0
1 0 0
1 0 0
1 0 0
1 0 0
1 0 0
1 0 0
1 0 0
1 0 0
0 0 0
0 0 0
0 0 0
0 0 0
0 0 0
0 0 0
0 0 0
0 0 0
0 0 0
0.0342412 0 0
0.106981 0 0
0.188876 0 0
0.267628 0 0
0.34609 0 0
0.422324 0 0
0.496101 0 0
0.566567 0 0
0.634562 0 0
0.701534 0 0
0.766781 0 0
0.829297 0 0
0.889067 0 0
0.946487 0 0
0.987106 0 0
1 0 0
1 0 0
1 0 0
1 0 0
1 0 0
1 0 0
1 0 0
1 0 0
1 0 0
0 0 0
0 0 0
0 0 0
0 0 0
0 0 0
0 0 0
0 0 0
0 0 0
0 0 0
0.0360113 0 0
0.105989 0 0
0.182452 0 0
0.258549 0 0
0.336095 0 0
0.414481 0 0
0.491386 0 0
0.564996 0 0
0.635569 0 0
0.704952 0 0
0.772488 0 0
0.838819 0 0
0.903349 0 0
0.962585 0 0
1 0 0
1 0 0
1 0 0
1 0 0
1 0 0
1 0 0
1 0 0
1 0 0
1 0 0
1 0 0
0 0 0
0 0 0
0 0 0
0 0 0
0 0 0
0 0 0
0 0.0030518 0
0 0.00595102 0
0 0 0
0.0297704 0 0
0.0898146 0 0
0.161303 0 0
0.24036 0 0
0.320012 0 0
0.398596 0 0
0.477317 0 0
0.554238 0 0
0.62858 0 0
0.701442 0 0
0.772335 0 0
0.841489 0 0
0.90837 0 0
0.968231 0 0
1 0 0
1 0 0
1 0 0
1 0 0
1 0 0
1 0 0
1 0 0
1 0 0
1 0 0
1 0 0
0 0 0
0 0.0145113 0
0 0.0240177 0
0 0.0318608 0
0 0.0381628 0
0 0.0447852 0
0 0.0509346 0
0 0.0563821 0
0 0.0547799 0
0.00970474 0.0383764 0
0.076997 0.0290379 0
0.145022 0.0244602 0
0.21915 0.0199893 0
0.300237 0.012665 0
0.381353 0.00447089 0
0.459876 0 0
0.537957 0 0
0.614786 0 0
0.691051 0 0
0.765652 0 0
0.838346 0 0
0.908293 0 0
0.970123 0 0
1 0 0
1 0 0
1 0 0
1 0 0
1 0 0
1 0 0
1 0 0
1 0 0
1 0 0
1 0 0
0 0.0622873 0
0 0.0682994 0
0 0.0739757 0
0 0.0797131 0
0 0.0851911 0
0 0.0907759 0
0 0.0963455 0
0 0.10161 0
0 0.106355 0
0 0.103166 0
0.0394141 0.0857557 0
0.120836 0.0760204 0
0.197162 0.0690623 0
0.275532 0.0638437 0
0.361959 0.0554208 0
0.446616 0.0456397 0
0.526162 0.0360876 0
0.602701 0.0274052 0
0.67892 0.0194858 0
0.754955 0.0138399 0
0.829801 0.00883497 0
0.901991 0.00425727 0
0.967285 0.000534066 0
1 0 0
1 0 0
1 0 0
1 0 0
1 0 0
1 0 0
1 0 0
1 0 0
1 0 0
1 0 0
0 0.111498 0
0 0.116274 0
0 0.121141 0
0 0.126223 0
0 0.131472 0
0 0.136873 0
0 0.142473 0
0 0.147982 0
0 0.153094 0
0 0.158114 0
0 0.154498 0
0.0710918 0.13817 0
0.168688 0.125414 0
0.249012 0.117662 0
0.326909 0.113359 0
0.413947 0.106233 0
0.501503 0.0970016 0
0.585367 0.0879377 0
0.666117 0.0792401 0
0.744518 0.0708019 0
0.821927 0.0627451 0
0.897612 0.0554208 0
0.959808 0.0488594 0
1 0.0437171 0
1 0.0408484 0
1 0.0389258 0
1 0.0377508 0
1 0.0373693 0
1 0.0377966 0
1 0.0387579 0
1 0.039826 0
1 0.0413977 0
1 0.0430304 0
0 0.159426 0
0 0.163989 0
0 0.168917 0
0 0.174121 0
0 0.179507 0
0 0.185031 0
0 0.190951 0
0 0.196963 0
0 0.202747 0
0 0.208347 0
0 0.213718 0
0.00735485 0.209689 0
0.103487 0.195148 0
0.207935 0.181689 0
0.301472 0.17055 0
0.377401 0.166781 0
0.460136 0.162203 0
0.547478 0.155093 0
0.635111 0.146166 0
0.71957 0.137453 0
0.800656 0.129381 0
0.879194 0.121828 0
0.945281 0.11458 0
0.991958 0.108492 0
1 0.104433 0
1 0.101289 0
1 0.0994278 0
1 0.0984665 0
1 0.098146 0
1 0.0984665 0
1 0.099321 0
1 0.100465 0
1 0.101671 0
0 0.208576 0
0 0.213367 0
0 0.218601 0
0 0.224216 0
0 0.230076 0
0 0.236103 0
0 0.242451 0
0 0.248905 0
0 0.255329 0
0 0.261479 0
0 0.267384 0
0 0.273075 0
0.0306706 0.2701 0
0.135042 0.256718 0
0.24387 0.242939 0
0.351049 0.228 0
0.427314 0.224338 0
0.503975 0.22153 0
0.588159 0.21648 0
0.676295 0.209018 0
0.763928 0.200458 0
0.846937 0.192233 0
0.923323 0.185077 0
0.974121 0.178805 0
1 0.173693 0
1 0.170459 0
1 0.168002 0
1 0.166339 0
1 0.165164 0
1 0.164691 0
1 0.164721 0
1 0.165042 0
1 0.165331 0
0 0.259983 0
0 0.265217 0
0 0.270893 0
0 0.276951 0
0 0.28333 0
0 0.289799 0
0 0.296696 0
0 0.3037 0
0 0.310689 0
0 0.317098 0
0 0.323781 0
0 0.330297 0
0 0.335912 0
0.0546578 0.334127 0
0.164324 0.321645 0
0.274052 0.308614 0
0.39408 0.289799 0
0.473869 0.28423 0
0.549065 0.28191 0
0.629145 0.27837 0
0.713298 0.272633 0
0.798596 0.265476 0
0.882292 0.257755 0
0.95227 0.250492 0
0.998001 0.244541 0
1 0.241047 0
1 0.238285 0
1 0.235889 0
1 0.234516 0
1 0.233707 0
1 0.233326 0
1 0.233204 0
1 0.232959 0
0 0.313695 0
0 0.319387 0
0 0.325551 0
0 0.332052 0
0 0.338781 0
0 0.345907 0
0 0.353323 0
0 0.360754 0
0 0.367819 0
0 0.374777 0
0 0.381826 0
0 0.388357 0
0 0.394766 0
0.0220798 0.401312 0
0.0804913 0.400153 0
0.190982 0.388205 0
0.297429 0.376226 0
0.42501 0.356085 0
0.518318 0.344961 0
0.593256 0.341711 0
0.669627 0.33904 0
0.74905 0.335012 0
0.829282 0.329274 0
0.908141 0.322911 0
0.972274 0.316609 0
1 0.311757 0
1 0.308782 0
1 0.306447 0
1 0.305104 0
1 0.304311 0
1 0.303731 0
1 0.303212 0
1 0.302846 0
0 0.369207 0.000839246
0 0.375479 0.00244144
0 0.382132 0.00274662
0 0.389044 0.0016022
0 0.396078 0
0 0.403693 0
0 0.411399 0
0 0.418875 0
0 0.426322 0
0 0.433402 0
0 0.440208 0
0 0.447059 0
0 0.453559 0
0.012192 0.460304 0
0.0450752 0.46685 0
0.106371 0.465827 0
0.213977 0.455146 0
0.319142 0.442847 0
0.447669 0.422873 0
0.558236 0.405859 0
0.635767 0.400275 0
0.708186 0.397436 0
0.782345 0.39443 0
0.857649 0.390707 0
0.93135 0.386435 0
0.987442 0.38204 0
1 0.378576 0
1 0.376165 0
1 0.374563 0
1 0.373465 0
1 0.372793 0
1 0.372107 0
1 0.371618 0
0 0.426322 0.0240787
0 0.43299 0.0261845
0 0.439719 0.0267948
0 0.446921 0.0263066
0 0.454383 0.0244755
0 0.461921 0.0220035
0 0.469688 0.0184634
0 0.477424 0.0136263
0 0.484871 0.00688182
0 0.491524 0
0 0.498344 0
0 0.505089 0
0 0.511406 0
0.00407416 0.517281 0
0.0343175 0.524651 0
0.0681621 0.530892 0
0.131441 0.529793 0
0.23566 0.519295 0
0.343648 0.506264 0
0.46717 0.48806 0
0.590616 0.466957 0
0.675868 0.457603 0
0.746471 0.454597 0
0.815579 0.452766 0
0.884871 0.450782 0
0.953353 0.448295 0
1 0.44538 0
1 0.44358 0
1 0.442084 0
1 0.440787 0
1 0.439719 0
1 0.438834 0
1 0.437949 0
0 0.484291 0.0484169
0 0.490837 0.0505837
0 0.497887 0.0517739
0 0.50515 0.0516518
0 0.512276 0.0499428
0 0.519936 0.0480049
0 0.527703 0.0449073
0 0.535348 0.0404212
0 0.542397 0.0337377
0 0.549172 0.0245518
0 0.555611 0.013611
0 0.561822 0.00161746
0 0.567742 0
0 0.573373 0
0.025742 0.580118 0
0.0556191 0.587274 0
0.0896468 0.592889 0
0.155032 0.591989 0
0.258869 0.581979 0
0.368673 0.568536 0
0.484016 0.552834 0
0.615076 0.529412 0
0.710567 0.516335 0
0.782727 0.511528 0
0.847242 0.510033 0
0.910445 0.509133 0
0.969497 0.507942 0
1 0.506706 0
1 0.506142 0
1 0.505455 0
1 0.504601 0
1 0.503517 0
1 0.502373 0
0 0.542504 0.0727703
0 0.54934 0.0753033
0 0.55639 0.0766766
0 0.563287 0.0764935
0 0.570535 0.0752422
0 0.577981 0.0734722
0 0.585489 0.0705425
0 0.592569 0.0659342
0 0.599603 0.0597086
0 0.606134 0.0508278
0 0.612039 0.0392309
0 0.61767 0.0268864
0 0.623499 0.0133822
0 0.629099 0
0.0163729 0.63534 0
0.0462043 0.642313 0
0.075349 0.649195 0
0.110307 0.654871 0
0.177935 0.654002 0
0.280034 0.644297 0
0.39028 0.630564 0
0.497307 0.61648 0
0.628489 0.593866 0
0.73431 0.576883 0
0.811612 0.569055 0
0.87451 0.566506 0
0.932769 0.565805 0
0.98349 0.565408 0
1 0.565591 0
1 0.565972 0
1 0.565927 0
1 0.565545 0
1 0.564706 0
0 0.601038 0.097261
0 0.607736 0.0997635
0 0.614343 0.100862
0 0.62121 0.100923
0 0.628122 0.0998093
0 0.635264 0.0979324
0 0.642069 0.0947127
0 0.649027 0.0903792
0 0.655802 0.0843366
0 0.662211 0.0758679
0 0.667933 0.06421
0 0.673411 0.0517586
0 0.679072 0.038407
0 0.68455 0.0236362
0.00666819 0.690181 0.00698863
0.036286 0.69691 0
0.0653391 0.703517 0
0.0941787 0.710613 0
0.130282 0.71577 0
0.199496 0.714656 0
0.298741 0.705333 0
0.407645 0.691295 0
0.507668 0.678843 0
0.630961 0.658747 0
0.743694 0.639323 0
0.828885 0.627756 0
0.895262 0.622415 0
0.951095 0.620752 0
0.994034 0.620554 0
1 0.621408 0
1 0.622156 0
1 0.622538 0
1 0.6224 0
0 0.658854 0.121233
0 0.665003 0.123278
0 0.671473 0.124437
0 0.677989 0.124346
0 0.684474 0.12314
0 0.691341 0.121309
0 0.697978 0.118273
0 0.704875 0.11426
0 0.711559 0.108522
0 0.717845 0.100465
0 0.723323 0.0888685
0 0.728679 0.0762646
0 0.73402 0.0627756
0 0.739223 0.0481422
0 0.74432 0.0323644
0.0260777 0.750591 0.0132143
0.0549172 0.756817 0
0.0836042 0.763439 0
0.112291 0.770138 0
0.150469 0.774609 0
0.219471 0.773159 0
0.31487 0.764279 0
0.420676 0.750851 0
0.516106 0.738582 0
0.623758 0.722774 0
0.737911 0.703014 0
0.832044 0.687648 0
0.904677 0.678782 0
0.963394 0.674586 0
1 0.673014 0
1 0.673533 0
1 0.674327 0
1 0.674739 0
0 0.715145 0.144274
0 0.721035 0.146166
0 0.727321 0.147265
0 0.733669 0.147219
0 0.740093 0.146181
0 0.746761 0.144442
0 0.753338 0.141649
0 0.760037 0.137819
0 0.766552 0.132296
0 0.772641 0.124453
0 0.777874 0.1131
0 0.782879 0.100206
0 0.787839 0.0864118
0 0.792676 0.0716564
0 0.797406 0.0560006
0.0157626 0.802792 0.0379492
0.0444495 0.80882 0.0178225
0.072694 0.814755 0
0.101198 0.82092 0
0.129564 0.82707 0
0.170306 0.830732 0
0.237629 0.829007 0
0.328267 0.820508 0
0.429191 0.807721 0
0.521263 0.795895 0
0.612787 0.783932 0
0.720073 0.766201 0
0.81915 0.748943 0
0.899565 0.736461 0
0.964965 0.728573 0
1 0.724956 0
1 0.724453 0
1 0.724239 0
0 0.770214 0.166964
0 0.776211 0.169024
0 0.782376 0.170123
0 0.788571 0.17023
0 0.794858 0.169131
0 0.80119 0.167346
0 0.807614 0.164706
0 0.814054 0.160906
0 0.820264 0.155444
0 0.826017 0.147723
0 0.831128 0.136828
0 0.835599 0.123491
0 0.840101 0.109255
0 0.84445 0.0941787
0 0.848707 0.0784161
0.0056611 0.853178 0.0614023
0.0338598 0.858778 0.0413519
0.0619211 0.864439 0.0209812
0.090013 0.869871 0
0.118074 0.875486 0
0.145922 0.880766 0
0.188586 0.883589 0
0.253895 0.881483 0
0.33904 0.873487 0
0.4336 0.861631 0
0.522881 0.849821 0
0.603601 0.839643 0
0.696376 0.825757 0
0.793408 0.809079 0
0.881605 0.793591 0
0.9552 0.782086 0
1 0.776822 0
1 0.774823 0
0 0.82443 0.189975
0 0.830289 0.191943
0 0.836225 0.19295
0 0.842161 0.19295
0 0.848142 0.191775
0 0.854215 0.189975
0 0.860258 0.187213
0 0.866346 0.183383
0 0.872175 0.17789
0 0.877562 0.170153
0 0.882399 0.15964
0 0.886519 0.146014
0 0.89044 0.131304
0 0.894148 0.115679
0 0.897856 0.0996109
0 0.901564 0.0830701
0.0236057 0.906432 0.0635233
0.0511635 0.911498 0.0428321
0.0789807 0.916518 0.0215152
0.106676 0.921447 0
0.133989 0.92639 0
0.161761 0.931105 0
0.205951 0.932998 0
0.268467 0.930571 0
0.347463 0.923125 0
0.43537 0.912154 0
0.520897 0.900587 0
0.596231 0.890929 0
0.674113 0.8804 0
0.763439 0.865858 0
0.853208 0.849958 0
0.932784 0.835996 0
0.981994 0.828321 0
0 0.876921 0.214343
0 0.882475 0.216312
0 0.888106 0.217029
0 0.893767 0.21648
0 0.899535 0.214481
0 0.905379 0.212146
0 0.910918 0.20914
0 0.916548 0.205127
0 0.921935 0.199481
0 0.926894 0.191669
0 0.931273 0.18117
0 0.934997 0.167407
0 0.938476 0.152422
0 0.941711 0.13637
0 0.944839 0.119905
0 0.947921 0.103029
0.0140688 0.951766 0.0843366
0.041062 0.956298 0.0636149
0.0684062 0.960586 0.0418097
0.0956741 0.964828 0.0197147
0.122698 0.969192 0
0.14905 0.973373 0
0.177569 0.976883 0
0.221973 0.977844 0
0.281163 0.974792 0
0.35436 0.965774 0
0.435767 0.955795 0
0.516564 0.944244 0
0.58999 0.933379 0
0.658961 0.924743 0
0.736477 0.916335 0
0.821393 0.902922 0
0.907485 0.886732 0
0 0.927184 0.240543
0 0.932403 0.242161
0 0.937652 0.242664
0 0.942901 0.241672
0 0.948211 0.239353
0 0.953735 0.236393
0 0.959243 0.232227
0 0.964553 0.226444
0 0.969329 0.220127
0 0.9738 0.212146
0 0.977691 0.201556
0 0.98085 0.187564
0 0.983795 0.172259
0 0.986435 0.155673
0 0.988907 0.138659
0 0.991409 0.121386
0.00476081 0.993362 0.102922
0.0312352 0.996475 0.0816358
0.0580453 0.999542 0.059205
0.084947 1 0.0363622
0.111574 1 0.0134585
0.137819 1 0
0.163012 1 0
0.192203 1 0
0.237003 1 0
0.292576 1 0
0.360174 0.995651 0
0.435325 0.985428 0
0.511376 0.974472 0
0.583474 0.963897 0
0.648493 0.95462 0
0.716899 0.946899 0
0.794903 0.940658 0
0 0.975677 0.266178
0 0.98024 0.267094
0 0.985031 0.267185
0 0.989837 0.265873
0 0.993194 0.262379
0 0.996612 0.258152
0 1 0.252705
0 1 0.245716
0 1 0.236774
0 1 0.226368
0 1 0.214466
0 1 0.199756
0 1 0.183566
0 1 0.16611
0 1 0.148196
0 1 0.130037
0 1 0.111864
0.0217746 1 0.0910658
0.0482795 1 0.0690471
0.0747387 1 0.0459449
0.100999 1 0.0227817
0.126848 1 0
0.151904 1 0
0.176516 1 0
0.208179 1 0
0.251728 1 0
0.304265 1 0
0.366827 1 0
0.435599 1 0
0.506645 1 0
0.576547 0.991348 0
0.641932 0.981659 0
0.704219 0.97319 0
0 1 0.284199
0 1 0.284169
0 1 0.282872
0 1 0.280262
0 1 0.27628
0 1 0.27158
0 1 0.266072
0 1 0.258274
0 1 0.248981
