site/assets/luts/freshluts--0001350-cool-fix-over-exsposure.cube
# LUTr-Schema-Version: 2
# LUTr-ID: freshluts--0001350-cool-fix-over-exsposure
# LUTr-Title: cool fix over exsposure
# LUTr-Collection: Fresh LUTs
# LUTr-Collection-ID: freshluts-community
# LUTr-Source: https://freshluts.com
# LUTr-Retrieved: 2026-07-27
# LUTr-Source-File: submissions-raw/freshluts/cubes/1350__cool_fix_over_exsposure.cube
# LUTr-Source-Format: CUBE
# LUTr-Source-SHA256: 40d0248eb1dbeaf8c65430c88e3c727cc196cb9a24a0d708b8ae9711f9fe1e37
# LUTr-License: CC0-1.0
# LUTr-License-URL: https://freshluts.com/termsandconditions
# LUTr-License-Basis: site-terms
# LUTr-Transform-Class: creative-look
# LUTr-Tags: creative, freshluts, community, cube, magenta, low-key, rec709, cool
# LUTr-Input-Color-Space: rec709
# LUTr-Input-Gamut: rec709
# LUTr-Input-Transfer: rec709
# LUTr-Output-Color-Space: srgb
# LUTr-Output-Gamut: rec709
# LUTr-Output-Transfer: srgb
# LUTr-Color-Space-Confidence: declared-by-source
# LUTr-Domain-Normalized: true
# LUTr-Shaper: none
# LUTr-Original-Grid: 16x16x16
# LUTr-Conversion-Grid: 16x16x16
# LUTr-Conversion-Interpolation: none
# LUTr-Conversion-Method: Metadata normalization; numeric LUT samples preserved
# LUTr-Conversion-Tool: LUTr scripts/convert-all-to-cube.mjs 2.0.0
# LUTr-Conversion-Date: 2026-07-28
# LUTr-Asset-URL: https://freshluts.com/luts/1350
# LUTr-Author: lvannoeun@gmail.com
# LUTr-Author-URL: https://freshluts.com/users/57563
# LUTr-Attribution: lvannoeun@gmail.com via Fresh LUTs
# LUTr-Source-Labels: gamma=Rec 709; color=Magenta; key=Low Key; style=NEUTRAL
# LUTr-Note: Preserve this metadata and the upstream license notices when redistributing.
TITLE "cool fix over exsposure"
LUT_3D_SIZE 16
DOMAIN_MIN 0 0 0
DOMAIN_MAX 1 1 1
0.033237 0 0.00809
0.033237 -0.000222 0.00809
0.075731 -0.000444 0.008087
0.157596 -0.000666 0.008082
0.235989 -0.000888 0.008074
0.309191 -0.001111 0.008061
0.376846 -0.001333 0.008046
0.43945 -0.001555 0.008026
0.497415 -0.001777 0.008002
0.551316 -0.001999 0.007972
0.601097 -0.002221 0.007937
0.647645 -0.002443 0.007897
0.691195 -0.002665 0.00785
0.732149 -0.002888 0.007797
0.770814 -0.00311 0.007736
0.807432 -0.003329 0.007672
0.033237 0 0.008087
0.033237 0 0.008087
0.075731 0.021241 0.008085
0.157596 0.041432 0.008079
0.235989 0.050655 0.008071
0.309191 0.055141 0.008059
0.376846 0.057233 0.008044
0.43945 0.057991 0.008024
0.497415 0.057973 0.007999
0.551316 0.057504 0.00797
0.601097 0.05674 0.007935
0.647645 0.0558 0.007894
0.691195 0.054772 0.007848
0.732149 0.053694 0.007794
0.770814 0.052624 0.007733
0.807432 0.051551 0.00767
0.033236 0.049335 0.008078
0.05792 0.049335 0.008077
0.082599 0.049335 0.008074
0.157596 0.082848 0.008069
0.235988 0.101298 0.008061
0.309191 0.110282 0.008049
0.376846 0.114458 0.008034
0.439449 0.115988 0.008014
0.497415 0.115948 0.007989
0.551315 0.115013 0.00796
0.601097 0.113478 0.007925
0.647645 0.111608 0.007884
0.691195 0.109563 0.007837
0.732149 0.107419 0.007783
0.770814 0.105281 0.007722
0.807432 0.103134 0.00766
0.033234 0.130753 0.008058
0.076861 0.130753 0.008057
0.120482 0.130753 0.008055
0.16409 0.130753 0.00805
0.235987 0.151953 0.008041
0.309191 0.165441 0.008029
0.376846 0.171676 0.008013
0.439449 0.173961 0.007993
0.497415 0.173919 0.007969
0.551315 0.172521 0.007939
0.601097 0.170219 0.007903
0.647645 0.167429 0.007862
0.691195 0.164343 0.007815
0.732149 0.161122 0.007761
0.770814 0.157916 0.0077
0.807432 0.154689 0.007641
0.033229 0.208115 0.008026
0.085312 0.208115 0.008025
0.137373 0.208115 0.008022
0.189457 0.208115 0.008017
0.241516 0.208114 0.008009
0.30919 0.220577 0.007997
0.376846 0.228911 0.007981
0.439449 0.231953 0.00796
0.497415 0.231883 0.007935
0.551315 0.230015 0.007905
0.601097 0.22697 0.00787
0.647645 0.223225 0.007828
0.691194 0.219137 0.00778
0.732149 0.214833 0.007725
0.770813 0.210567 0.007668
0.807432 0.206286 0.00761
0.033221 0.279731 0.007979
0.08923 0.279731 0.007979
0.145219 0.279731 0.007976
0.201199 0.279731 0.00797
0.257191 0.279731 0.007962
0.313221 0.279731 0.00795
0.376845 0.286123 0.007934
0.439448 0.289957 0.007913
0.497414 0.289858 0.007887
0.551315 0.287498 0.007856
0.601097 0.283696 0.00782
0.647645 0.27901 0.007778
0.691194 0.273913 0.007729
0.732148 0.268564 0.007677
0.770813 0.263226 0.007624
0.807432 0.257851 0.007565
0.033212 0.345697 0.007916
0.090876 0.345697 0.007916
0.148551 0.345697 0.007913
0.206223 0.345697 0.007908
0.26389 0.345697 0.007899
0.321543 0.345697 0.007886
0.379205 0.345696 0.00787
0.439447 0.347923 0.007849
0.497414 0.347843 0.007822
0.551314 0.345039 0.007791
0.601097 0.340449 0.007754
0.647645 0.334793 0.007711
0.691194 0.328705 0.007666
0.732147 0.322288 0.007618
0.770813 0.315848 0.007564
0.807432 0.309425 0.007504
0.033202 0.406421 0.007835
0.091321 0.406421 0.007834
0.14943 0.40642 0.007832
0.207531 0.40642 0.007826
0.265639 0.40642 0.007817
0.323726 0.40642 0.007804
0.38181 0.40642 0.007787
0.439928 0.40642 0.007765
0.497413 0.405761 0.007739
0.551313 0.40252 0.007706
0.601097 0.397168 0.007672
0.647645 0.390636 0.007635
0.691194 0.383484 0.007592
0.732146 0.375977 0.007542
0.770813 0.36848 0.007487
0.807432 0.360916 0.007424
0.033189 0.462387 0.007733
0.091062 0.462387 0.007732
0.148919 0.462387 0.007729
0.206763 0.462387 0.007723
0.264607 0.462387 0.007714
0.322454 0.462387 0.007701
0.380305 0.462387 0.007685
0.438091 0.462387 0.007666
0.495977 0.462387 0.007643
0.551313 0.460053 0.007614
0.601096 0.453944 0.007581
0.647644 0.446467 0.007542
0.691194 0.438252 0.007498
0.732145 0.429714 0.007447
0.770813 0.421163 0.007389
0.807431 0.412575 0.007325
0.033173 0.514159 0.00762
0.090365 0.514159 0.007619
0.147569 0.514159 0.007617
0.204765 0.514159 0.007612
0.261918 0.514158 0.007603
0.31908 0.514158 0.007592
0.376273 0.514158 0.007576
0.433408 0.514158 0.007557
0.49061 0.514158 0.007532
0.547845 0.514158 0.007503
0.601096 0.510694 0.007468
0.647644 0.502235 0.007428
0.691193 0.493048 0.007381
0.732144 0.483464 0.007327
0.770813 0.473795 0.007267
0.807431 0.46414 0.0072
0.033154 0.56205 0.00749
0.089436 0.56205 0.007489
0.145719 0.56205 0.007487
0.20199 0.56205 0.007481
0.258253 0.56205 0.007473
0.314495 0.562049 0.00746
0.370788 0.562049 0.007444
0.426996 0.562049 0.007423
0.483253 0.562049 0.007398
0.539505 0.562049 0.007366
0.595756 0.562049 0.00733
0.647644 0.558023 0.007288
0.691193 0.547805 0.007238
0.732194 0.537144 0.007181
0.770812 0.526452 0.007117
0.807431 0.515711 0.007046
0.033132 0.606624 0.007331
0.088381 0.606624 0.00733
0.14359 0.606624 0.007328
0.198778 0.606624 0.007322
0.253991 0.606624 0.007313
0.30919 0.606624 0.0073
0.364362 0.606624 0.007283
0.419563 0.606624 0.007261
0.474736 0.606624 0.007233
0.529933 0.606624 0.0072
0.585107 0.606624 0.007161
0.640292 0.606624 0.007116
0.691193 0.602661 0.007063
0.732192 0.590898 0.007002
0.770812 0.579113 0.006933
0.807431 0.567268 0.006857
0.033108 0.648318 0.007139
0.087248 0.648318 0.007138
0.141359 0.648318 0.007136
0.195426 0.648318 0.007129
0.249525 0.648318 0.007119
0.303616 0.648318 0.007105
0.35767 0.648318 0.007086
0.411763 0.648318 0.007062
0.465826 0.648318 0.007033
0.519907 0.648318 0.006998
0.573975 0.648318 0.006955
0.628085 0.648318 0.006906
0.682078 0.648317 0.006849
0.73219 0.644576 0.006782
0.770812 0.631681 0.006712
0.80743 0.61877 0.006644
0.03308 0.687611 0.006903
0.086093 0.687611 0.006903
0.139077 0.687611 0.0069
0.192026 0.687611 0.006893
0.244962 0.687611 0.006882
0.297885 0.687611 0.006867
0.350797 0.687611 0.006846
0.403743 0.687611 0.00682
0.456717 0.687611 0.006787
0.509668 0.687611 0.006748
0.562544 0.68761 0.006707
0.615514 0.68761 0.006662
0.668429 0.68761 0.00661
0.721353 0.68761 0.00655
0.770811 0.68442 0.006482
0.80743 0.670496 0.006408
0.033049 0.724815 0.006636
0.084963 0.724815 0.006635
0.136833 0.724815 0.006632
0.188672 0.724815 0.006626
0.240485 0.724815 0.006616
0.29229 0.724815 0.006602
0.344147 0.724815 0.006583
0.395902 0.724815 0.006559
0.447754 0.724815 0.006529
0.49958 0.724815 0.006493
0.551386 0.724815 0.006451
0.603276 0.724814 0.0064
0.655094 0.724814 0.006341
0.706991 0.724814 0.006274
0.75862 0.724814 0.006197
0.807469 0.721873 0.006113
0.033016 0.76024 0.006343
0.083859 0.76024 0.006342
0.134644 0.76024 0.006339
0.185397 0.76024 0.006332
0.236125 0.76024 0.006321
0.286835 0.76024 0.006304
0.337554 0.76024 0.006283
0.388283 0.76024 0.006256
0.439023 0.76024 0.006222
0.489771 0.760239 0.00618
0.540486 0.760239 0.006132
0.59124 0.760239 0.006073
0.641933 0.760239 0.006006
0.692731 0.760239 0.005927
0.743408 0.760239 0.005837
0.794078 0.760239 0.00574
0.033237 -0.000159 0.00809
0.033237 -0.000259 0.00809
0.075731 -0.00046 0.031816
0.157596 -0.000675 0.054402
0.235989 -0.000894 0.064724
0.309191 -0.001115 0.069746
0.376846 -0.001336 0.072071
0.43945 -0.001558 0.072919
0.497415 -0.001779 0.072897
0.551316 -0.002001 0.072386
0.601097 -0.002223 0.071524
0.647645 -0.002445 0.070479
0.691195 -0.002667 0.069327
0.732149 -0.002889 0.068132
0.770814 -0.00311 0.06693
0.807432 -0.00333 0.065728
0.033237 0 0.00809
0.033237 0 0.00809
0.08512 0 0.021756
0.170364 0 0.030615
0.247301 0 0.033992
0.318059 0 0.03546
0.38383 0 0.036061
0.444855 0 0.036185
0.501656 0 0.036029
0.554608 0 0.035701
0.60386 0 0.035279
0.649881 0 0.034786
0.693007 0 0.034269
0.73356 0 0.03373
0.772081 0 0.033214
0.808569 0 0.032701
0.033236 0.049335 0.035657
0.033237 0.051685 0.025298
0.082641 0.050243 0.00809
0.163536 0.081683 0.00809
0.243568 0.096816 0.00809
0.316307 0.10335 0.00809
0.383053 0.105988 0.00809
0.444612 0.106607 0.00809
0.501666 0.10605 0.00809
0.554709 0.104845 0.00809
0.603965 0.10321 0.00809
0.650046 0.101343 0.00809
0.693223 0.099366 0.00809
0.733846 0.097342 0.00809
0.772261 0.095346 0.00809
0.808696 0.093341 0.00809
0.033234 0.130753 0.056816
0.033237 0.13253 0.036129
0.114484 0.13244 0.00809
0.164032 0.131433 0.00809
0.238851 0.151706 0.00809
0.31306 0.163786 0.00809
0.380927 0.168875 0.00809
0.443213 0.170283 0.00809
0.500777 0.169662 0.00809
0.55411 0.16787 0.00809
0.603563 0.165306 0.00809
0.649729 0.162364 0.00809
0.692869 0.159253 0.00809
0.733602 0.156002 0.00809
0.772088 0.152805 0.00809
0.808612 0.149628 0.00809
0.033229 0.208115 0.066254
0.033237 0.209329 0.040868
0.12788 0.209476 0.00809
0.18649 0.209129 0.00809
0.241423 0.208584 0.00809
0.310632 0.220465 0.00809
0.379028 0.228075 0.00809
0.441829 0.230452 0.00809
0.499781 0.229893 0.00809
0.553418 0.22762 0.00809
0.6031 0.224288 0.00809
0.649421 0.220362 0.00809
0.692748 0.216143 0.00809
0.733345 0.211768 0.00809
0.772045 0.207451 0.00809
0.808574 0.20316 0.00809
0.033221 0.279731 0.070644
0.033237 0.280567 0.043039
0.133955 0.280731 0.00809
0.196563 0.280575 0.00809
0.255432 0.280319 0.00809
0.313084 0.28002 0.00809
0.377731 0.28605 0.00809
0.440727 0.289403 0.00809
0.498911 0.288958 0.00809
0.552684 0.28625 0.00809
0.60258 0.282203 0.00809
0.648991 0.277277 0.00809
0.692369 0.272074 0.00809
0.733338 0.266566 0.00809
0.771825 0.261164 0.00809
0.808335 0.255766 0.00809
0.033212 0.345697 0.072498
0.033237 0.346261 0.043928
0.136439 0.346399 0.00809
0.200613 0.346364 0.00809
0.26112 0.346246 0.00809
0.320379 0.346054 0.00809
0.379051 0.345905 0.00809
0.439948 0.347852 0.00809
0.498231 0.347501 0.00809
0.552253 0.344378 0.00809
0.602141 0.339577 0.00809
0.648654 0.333771 0.00809
0.692159 0.3275 0.00809
0.733024 0.320973 0.00809
0.77166 0.314409 0.00809
0.80821 0.30795 0.00809
0.033202 0.406421 0.072979
0.033237 0.40683 0.044132
0.136943 0.406915 0.00809
0.201439 0.406896 0.00809
0.262293 0.406847 0.00809
0.32194 0.406791 0.00809
0.381017 0.406664 0.00809
0.439804 0.406498 0.00809
0.497711 0.405754 0.00809
0.551765 0.402281 0.00809
0.601753 0.39674 0.00809
0.648375 0.389997 0.00809
0.691874 0.382719 0.00809
0.732787 0.37508 0.00809
0.771457 0.367544 0.00809
0.808081 0.359935 0.00809
0.033189 0.462387 0.072695
0.033237 0.462699 0.043926
0.136303 0.462798 0.00809
0.200413 0.462782 0.00809
0.260901 0.462761 0.00809
0.320215 0.462685 0.00809
0.378983 0.462618 0.00809
0.437523 0.46255 0.00809
0.495877 0.462517 0.00809
0.551448 0.460013 0.00809
0.601477 0.453766 0.00809
0.648083 0.446078 0.00809
0.691658 0.437784 0.00809
0.732656 0.429136 0.00809
0.77129 0.42047 0.00809
0.807923 0.411872 0.00809
0.033173 0.514159 0.071931
0.033237 0.51444 0.043475
0.135003 0.514452 0.00809
0.198303 0.514454 0.00809
0.258041 0.514423 0.00809
0.316618 0.514421 0.00809
0.374713 0.514386 0.00809
0.432515 0.514316 0.00809
0.490181 0.514334 0.00809
0.547743 0.514218 0.00809
0.601249 0.510689 0.00809
0.647844 0.502108 0.00809
0.691447 0.492791 0.00809
0.732316 0.483078 0.00809
0.771173 0.473371 0.00809
0.807824 0.463655 0.00809
0.033154 0.56205 0.070903
0.033237 0.562256 0.042889
0.133281 0.56231 0.00809
0.195543 0.562302 0.00809
0.254268 0.562291 0.00809
0.31187 0.562275 0.00809
0.368981 0.562261 0.00809
0.425802 0.562203 0.00809
0.482511 0.562176 0.00809
0.539154 0.562166 0.00809
0.595676 0.562135 0.00809
0.647718 0.558028 0.00809
0.691296 0.547706 0.00809
0.732215 0.536863 0.00809
0.771054 0.52612 0.00809
0.807686 0.51533 0.00809
0.033132 0.606624 0.069707
0.033237 0.606788 0.042217
0.131355 0.606797 0.00809
0.192381 0.606791 0.00809
0.249967 0.606781 0.00809
0.306434 0.606785 0.00809
0.362461 0.606789 0.00809
0.418239 0.606786 0.00809
0.473872 0.606762 0.00809
0.529349 0.606721 0.00809
0.584797 0.606692 0.00809
0.640254 0.606688 0.00809
0.691193 0.602668 0.00809
0.732188 0.590858 0.00809
0.770902 0.578918 0.00809
0.807626 0.567066 0.00809
0.033108 0.648318 0.068446
0.033237 0.648398 0.041511
0.129318 0.648406 0.00809
0.189114 0.648401 0.00809
0.245508 0.648432 0.00809
0.300828 0.64842 0.00809
0.355692 0.648405 0.00809
0.410274 0.648387 0.00809
0.4648 0.64839 0.00809
0.519189 0.648407 0.00809
0.573512 0.648381 0.00809
0.6278 0.648354 0.00809
0.681903 0.648325 0.00809
0.732161 0.644621 0.00809
0.77091 0.631563 0.00809
0.807599 0.618708 0.00809
0.03308 0.687611 0.067165
0.033237 0.687697 0.040808
0.127273 0.687764 0.00809
0.185802 0.687758 0.00809
0.240989 0.687748 0.00809
0.295141 0.687734 0.00809
0.348842 0.687757 0.00809
0.402287 0.687732 0.00809
0.455637 0.687707 0.00809
0.508853 0.687678 0.00809
0.561966 0.687647 0.00809
0.615182 0.687726 0.00809
0.668198 0.687691 0.00809
0.721278 0.687655 0.00809
0.770872 0.684437 0.00809
0.807506 0.670386 0.00809
0.033049 0.724815 0.065907
0.033237 0.724839 0.04011
0.125274 0.724849 0.00809
0.182549 0.724842 0.00809
0.236578 0.724831 0.00809
0.289564 0.724815 0.00809
0.342152 0.724795 0.00809
0.394446 0.724811 0.00809
0.446652 0.724881 0.00809
0.498737 0.724845 0.00809
0.550803 0.724809 0.00809
0.602818 0.72481 0.00809
0.654711 0.724769 0.00809
0.706671 0.724726 0.00809
0.758548 0.724683 0.00809
0.807488 0.721849 0.00809
0.033016 0.76024 0.06467
0.033237 0.760309 0.039449
0.123313 0.760372 0.00809
0.179356 0.760369 0.00809
0.232223 0.760365 0.00809
0.28411 0.760359 0.00809
0.335576 0.760351 0.00809
0.386773 0.760348 0.00809
0.437822 0.760337 0.00809
0.488846 0.760324 0.00809
0.539713 0.760309 0.00809
0.590691 0.760294 0.00809
0.641479 0.760277 0.00809
0.692345 0.76026 0.00809
0.743166 0.760307 0.00809
0.794014 0.760289 0.00809
0.033237 -0.000318 0.070467
0.061154 -0.000368 0.070467
0.089079 -0.000518 0.070467
0.157596 -0.000711 0.100729
0.235989 -0.000919 0.12137
0.309191 -0.001133 0.131405
0.376846 -0.00135 0.136074
0.43945 -0.001569 0.137778
0.497415 -0.001789 0.137744
0.551316 -0.002009 0.136692
0.601097 -0.00223 0.134989
0.647645 -0.002451 0.132884
0.691195 -0.002672 0.130605
0.732149 -0.002894 0.128218
0.770814 -0.003115 0.125823
0.807432 -0.003334 0.123413
0.033236 0.027907 0.070467
0.033237 0.015343 0.083582
0.096905 0 0.081175
0.16914 0 0.10542
0.246619 0 0.120631
0.31772 0 0.127227
0.383588 0 0.129927
0.444724 0 0.130499
0.501598 0 0.129844
0.554568 0 0.128448
0.603801 0 0.126584
0.649803 0 0.124449
0.692898 0 0.122191
0.733492 0 0.119855
0.77207 0 0.117585
0.808559 0 0.115298
0.033236 0.055799 0.070466
0.033237 0.057767 0.073356
0.073677 0.050898 0.072974
0.167531 0.044661 0.074424
0.253119 0.036309 0.073846
0.329576 0.025259 0.071147
0.397323 0.014225 0.068794
0.458194 0.004536 0.067321
0.513874 0 0.066256
0.56539 0 0.065081
0.613335 0 0.063832
0.658059 0 0.062556
0.700092 0 0.061302
0.739782 0 0.06007
0.777516 0 0.058897
0.813495 0 0.057794
0.033234 0.130753 0.105557
0.033237 0.1323 0.103044
0.051433 0.134615 0.074636
0.159948 0.132267 0.048945
0.245334 0.142286 0.041961
0.323528 0.147283 0.033703
0.392999 0.148038 0.025157
0.455478 0.146782 0.017123
0.512365 0.144531 0.010042
0.564682 0.141779 0.00809
0.613097 0.138755 0.00809
0.65817 0.135597 0.00809
0.700412 0.132483 0.00809
0.740226 0.129412 0.00809
0.77798 0.126474 0.00809
0.813779 0.123621 0.00809
0.033229 0.208115 0.124451
0.033237 0.209235 0.119211
0.033237 0.212378 0.078848
0.165734 0.211809 0.026965
0.239569 0.209751 0.023043
0.315307 0.217445 0.01828
0.386467 0.221385 0.013154
0.450322 0.22117 0.00857
0.508417 0.218716 0.00809
0.56174 0.215127 0.00809
0.610891 0.210907 0.00809
0.65646 0.206352 0.00809
0.699154 0.201754 0.00809
0.73925 0.197199 0.00809
0.777369 0.192792 0.00809
0.813246 0.188471 0.00809
0.033222 0.279731 0.133207
0.033237 0.28049 0.126612
0.033237 0.283262 0.081157
0.168414 0.283421 0.010439
0.245538 0.282364 0.008812
0.31198 0.281051 0.00809
0.380735 0.284913 0.00809
0.445669 0.286067 0.00809
0.504688 0.283842 0.00809
0.558833 0.279818 0.00809
0.608594 0.27478 0.00809
0.654718 0.269165 0.00809
0.697847 0.263389 0.00809
0.738084 0.257547 0.00809
0.776498 0.251892 0.00809
0.812661 0.246339 0.00809
0.033212 0.345697 0.136945
0.033237 0.346242 0.129672
0.033237 0.348521 0.081832
0.169025 0.348919 0.00809
0.246949 0.348361 0.00809
0.314522 0.347622 0.00809
0.378323 0.346758 0.00809
0.441921 0.347356 0.00809
0.501589 0.345527 0.00809
0.556239 0.341273 0.00809
0.606451 0.335486 0.00809
0.653017 0.328912 0.00809
0.696387 0.322082 0.00809
0.737101 0.315145 0.00809
0.775532 0.308327 0.00809
0.811804 0.301573 0.00809
0.033202 0.406421 0.137918
0.033237 0.406792 0.130332
0.033237 0.408544 0.081577
0.16814 0.409024 0.00809
0.245712 0.408653 0.00809
0.313263 0.408252 0.00809
0.377141 0.407784 0.00809
0.439227 0.407217 0.00809
0.499076 0.405538 0.00809
0.554093 0.401028 0.00809
0.604579 0.394563 0.00809
0.65145 0.387136 0.00809
0.695047 0.379327 0.00809
0.73603 0.371243 0.00809
0.774621 0.363346 0.00809
0.811114 0.355537 0.00809
0.033189 0.462387 0.137341
0.033237 0.46269 0.129638
0.033237 0.464131 0.080761
0.166359 0.464522 0.00809
0.243033 0.464323 0.00809
0.309823 0.464087 0.00809
0.373183 0.463758 0.00809
0.434767 0.463425 0.00809
0.495404 0.46302 0.00809
0.552364 0.459931 0.00809
0.60311 0.452899 0.00809
0.650119 0.444605 0.00809
0.693963 0.435765 0.00809
0.735108 0.426658 0.00809
0.773871 0.417675 0.00809
0.810447 0.408736 0.00809
0.033173 0.514159 0.135843
0.033237 0.514433 0.128122
0.033237 0.515539 0.079598
0.164093 0.515967 0.00809
0.239465 0.515792 0.00809
0.305196 0.515612 0.00809
0.367551 0.515443 0.00809
0.428329 0.51519 0.00809
0.488096 0.514992 0.00809
0.54731 0.514675 0.00809
0.60194 0.510687 0.00809
0.64907 0.501477 0.00809
0.693025 0.491667 0.00809
0.734146 0.481516 0.00809
0.773035 0.471482 0.00809
0.809761 0.461517 0.00809
0.033153 0.56205 0.133778
0.033237 0.562255 0.126128
0.033237 0.56316 0.078246
0.161499 0.563498 0.00809
0.235379 0.563408 0.00809
0.299863 0.563301 0.00809
0.361081 0.563168 0.00809
0.42068 0.563024 0.00809
0.479404 0.562853 0.00809
0.537569 0.562674 0.00809
0.595346 0.562454 0.00809
0.648222 0.558104 0.00809
0.692169 0.547273 0.00809
0.733386 0.535987 0.00809
0.77246 0.52498 0.00809
0.809136 0.513901 0.00809
0.033132 0.606624 0.131408
0.033237 0.606787 0.123852
0.033237 0.607517 0.076778
0.158723 0.607821 0.00809
0.231044 0.607733 0.00809
0.294152 0.607675 0.00809
0.354095 0.607609 0.00809
0.412408 0.607502 0.00809
0.469984 0.607391 0.00809
0.52701 0.607269 0.00809
0.583611 0.607123 0.00809
0.639943 0.60698 0.00809
0.691529 0.602713 0.00809
0.732911 0.590466 0.00809
0.771887 0.578297 0.00809
0.808715 0.566121 0.00809
0.033108 0.648318 0.128895
0.033237 0.648397 0.121463
0.033237 0.649091 0.075283
0.155933 0.649241 0.00809
0.226677 0.649252 0.00809
0.28839 0.649233 0.00809
0.347003 0.649115 0.00809
0.404152 0.649074 0.00809
0.460372 0.648958 0.00809
0.516175 0.648967 0.00809
0.571582 0.648783 0.00809
0.626793 0.648703 0.00809
0.681736 0.648616 0.00809
0.732419 0.644615 0.00809
0.771367 0.631314 0.00809
0.808325 0.618186 0.00809
0.03308 0.687611 0.126355
0.033237 0.687696 0.119061
0.033237 0.688258 0.073791
0.153187 0.688443 0.00809
0.222341 0.688431 0.00809
0.282655 0.688384 0.00809
0.33997 0.688393 0.00809
0.395773 0.688333 0.00809
0.450869 0.688239 0.00809
0.50541 0.688065 0.00809
0.559592 0.68811 0.00809
0.613642 0.688085 0.00809
0.667379 0.687974 0.00809
0.721188 0.687794 0.00809
0.771009 0.684506 0.00809
0.807921 0.670263 0.00809
0.033049 0.724815 0.123854
0.033237 0.724837 0.116703
0.033237 0.725353 0.072368
0.150532 0.725513 0.00809
0.218132 0.725444 0.00809
0.277104 0.725429 0.00809
0.333156 0.725302 0.00809
0.387773 0.725462 0.00809
0.441666 0.725454 0.00809
0.495003 0.725284 0.00809
0.547988 0.725328 0.00809
0.600866 0.725214 0.00809
0.653391 0.725162 0.00809
0.706066 0.725069 0.00809
0.758338 0.724982 0.00809
0.807607 0.721944 0.00809
0.033016 0.76024 0.121394
0.033237 0.760308 0.114409
0.033237 0.760664 0.071009
0.147936 0.760942 0.00809
0.214084 0.760921 0.00809
0.271795 0.760881 0.00809
0.326609 0.760831 0.00809
0.380043 0.760769 0.00809
0.432684 0.760695 0.00809
0.484906 0.760676 0.00809
0.536771 0.760589 0.00809
0.588488 0.76055 0.00809
0.639935 0.760585 0.00809
0.691363 0.760514 0.00809
0.742581 0.760471 0.00809
0.793868 0.760405 0.00809
0.033236 -0.000477 0.161012
0.078862 -0.000507 0.161012
0.124483 -0.000615 0.161012
0.170097 -0.000777 0.161012
0.235989 -0.000967 0.178001
0.309191 -0.001169 0.193066
0.376846 -0.001379 0.200045
0.43945 -0.001592 0.202634
0.497415 -0.001808 0.20258
0.551316 -0.002026 0.200981
0.601097 -0.002244 0.198443
0.647645 -0.002463 0.195297
0.691195 -0.002683 0.191856
0.732149 -0.002904 0.188259
0.770814 -0.003124 0.184667
0.807432 -0.003342 0.181102
0.033237 0.045597 0.161012
0.033237 0.022435 0.180792
0.12747 0 0.178364
0.179293 0 0.17273
0.245342 0 0.184208
0.317008 0 0.195184
0.383243 0 0.199689
0.444512 0 0.200694
0.501459 0 0.199703
0.554464 0 0.19751
0.603758 0 0.194623
0.649763 0 0.191254
0.692862 0 0.187693
0.733502 0 0.18405
0.772047 0 0.180444
0.808539 0 0.176881
0.033235 0.091167 0.161012
0.033237 0.091666 0.17002
0.071097 0.057199 0.176383
0.173021 0.042377 0.174048
0.252218 0.033956 0.180877
0.328706 0.02336 0.186042
0.396557 0.012862 0.186316
0.457618 0.003602 0.184406
0.513471 0 0.181478
0.565199 0 0.178045
0.613091 0 0.174362
0.657889 0 0.170547
0.699934 0 0.166831
0.739811 0 0.163171
0.777407 0 0.159664
0.813398 0 0.156262
0.033233 0.136758 0.161011
0.033237 0.13805 0.163017
0.049269 0.138169 0.166529
0.154578 0.131734 0.164643
0.245354 0.126835 0.162092
0.325989 0.120539 0.157695
0.398749 0.111771 0.150592
0.464058 0.101141 0.141628
0.522605 0.090012 0.132186
0.575448 0.079261 0.123184
0.62366 0.069363 0.115101
0.668196 0.060458 0.108061
0.709802 0.052595 0.102038
0.748801 0.045721 0.096937
0.786035 0.039776 0.092682
0.821199 0.034648 0.089087
0.033228 0.208115 0.182617
0.033237 0.209126 0.181694
0.033237 0.211814 0.174428
0.13418 0.212362 0.153943
0.234813 0.209796 0.143925
0.318337 0.209057 0.137487
0.392936 0.205928 0.129338
0.459338 0.200515 0.120156
0.518971 0.193974 0.110457
0.57296 0.187075 0.100843
0.622089 0.180188 0.091659
0.667375 0.173683 0.083114
0.709363 0.167624 0.075311
0.748858 0.162001 0.068274
0.786293 0.15694 0.062034
0.821722 0.152289 0.056553
0.033222 0.279731 0.19578
0.033237 0.28046 0.193362
0.033237 0.282988 0.180151
0.11022 0.28527 0.141833
0.223462 0.284291 0.120833
0.308689 0.281892 0.115833
0.384309 0.280764 0.10983
0.452055 0.277219 0.103124
0.51276 0.271655 0.095994
0.567707 0.265083 0.088786
0.617811 0.258002 0.081748
0.663887 0.25087 0.075037
0.706593 0.243933 0.068775
