site/assets/luts/freshluts--0000999-generous-oranges.cube
# LUTr-Schema-Version: 2
# LUTr-ID: freshluts--0000999-generous-oranges
# LUTr-Title: Generous Oranges
# LUTr-Collection: Fresh LUTs
# LUTr-Collection-ID: freshluts-community
# LUTr-Source: https://freshluts.com
# LUTr-Retrieved: 2026-07-27
# LUTr-Source-File: submissions-raw/freshluts/cubes/999__generous_23.A030_03150138_C003.cube
# LUTr-Source-Format: CUBE
# LUTr-Source-SHA256: 463c885ba986efa01e873398ef1d4b6105f20a891e06b4cdb2209ebf3d93c2ce
# LUTr-License: CC0-1.0
# LUTr-License-URL: https://freshluts.com/termsandconditions
# LUTr-License-Basis: site-terms
# LUTr-Transform-Class: creative-look
# LUTr-Tags: creative, freshluts, community, cube, bmd-film-4k
# LUTr-Input-Color-Space:
# LUTr-Input-Gamut: bmd-film-gamut
# LUTr-Input-Transfer: bmd-film-4k
# LUTr-Output-Color-Space: srgb
# LUTr-Output-Gamut: rec709
# LUTr-Output-Transfer: srgb
# LUTr-Color-Space-Confidence: camera-profile-input-required
# LUTr-Domain-Normalized: true
# LUTr-Shaper: none
# LUTr-Original-Grid: 33x33x33
# LUTr-Conversion-Grid: 33x33x33
# LUTr-Conversion-Interpolation: none
# LUTr-Conversion-Method: Metadata normalization; numeric LUT samples preserved
# LUTr-Conversion-Tool: LUTr scripts/convert-all-to-cube.mjs 2.0.0
# LUTr-Conversion-Date: 2026-07-28
# LUTr-Asset-URL: https://freshluts.com/luts/999
# LUTr-Author: Le Salon des Inconnus
# LUTr-Author-URL: https://freshluts.com/users/102026
# LUTr-Attribution: Le Salon des Inconnus via Fresh LUTs
# LUTr-Source-Labels: gamma=Blackmagic BMD Film 4K; color=None; key=Neutral; style=Colorful
# LUTr-Note: Preserve this metadata and the upstream license notices when redistributing.
TITLE "Generous Oranges"
LUT_3D_SIZE 5
DOMAIN_MIN 0 0 0
DOMAIN_MAX 1 1 1
0 0 0
0.380072 0 0
0.910445 0 0
1 0 0
1 0 0
0 0.351598 0
0 0.341619 0
0.702251 0.226444 0
1 0.209812 0
1 0.186954 0
0 0.732952 0
0.00015259 0.664622 0
0 0.760845 0
1 0.51104 0
1 0.488106 0
0 1 0
0 1 0
0.615045 0.893126 0
0 1 0
0.621805 1 0
0 1 0
0 1 0
0.227848 1 0
0.291585 1 0
0 1 0
0 0 0.555047
0.331594 0 0.553307
0.861341 0 0.524193
1 0 0.495399
1 0 0.466987
0 0.327642 0.390341
0.121553 0.273411 0.298451
0.666865 0.201999 0.297551
1 0.141604 0.26627
1 0.0824445 0.235828
0 0.708278 0.197574
0 0.642237 0.139803
0.294163 0.632761 0.120989
0.989166 0.522438 0.0437934
1 0.50721 0.161593
0 1 0.00791943
0 1 0
0.298253 0.952911 0
0.282155 1 0
1 0.801511 0
0 1 0
0 1 0
0.108675 1 0
0.899168 1 0
0.281941 1 0
0 0 1
0.281392 0 1
0.814481 0 1
1 0 1
1 0 1
0 0.415305 0.575219
0.0454871 0.2654 0.836759
0.618982 0.185153 0.834058
1 0.124636 0.803098
1 0.0651408 0.772824
0 0.685832 0.738735
0 0.619776 0.681254
0.421942 0.569894 0.594125
0.955703 0.499825 0.59324
1 0.439612 0.561807
0 1 0.549004
0 0.992493 0.490806
0.260792 0.931731 0.437919
0.590402 0.922942 0.420081
1 0.814145 0.343862
0 1 0.360479
0 1 0.301396
0.0783246 1 0.248142
0.591058 1 0.193713
0.577661 1 0.205539
0 0 1
0.229755 0 1
0.766232 0 1
1 0 1
1 0 1
0 0.461341 0.988296
0.00518807 0.247105 1
0.568368 0.17052 1
1 0.108598 1
1 0.0488136 1
0 0.724285 1
0 0.705867 0.864439
0.347799 0.561532 1
0.908522 0.483162 1
1 0.422904 1
0 1 1
0 0.97026 1
0.230838 0.909667 0.970413
0.715236 0.861326 0.885298
1 0.79202 0.884245
0 1 0.892851
0 1 0.833799
0.0485084 1 0.780819
0.554772 1 0.729671
0.881559 1 0.712184
0 0 1
0.17731 0 1
0.716808 0 1
1 0 1
1 0 1
0 0.458289 1
0 0.233127 1
0.515892 0.15697 1
1 0.0931411 1
1 0.0329442 1
0 0.845365 1
0 0.747982 1
0.307103 0.543206 1
0.85803 0.468391 1
1 0.406775 1
0 1 1
0 1 1
0 0.994934 1
0.641688 0.852872 1
1 0.775448 1
0 1 1
0 1 1
0.0183413 1 1
0.525017 1 1
1 1 1
