site/assets/luts/freshluts--0000175-night-blade.cube
# LUTr-Schema-Version: 2
# LUTr-ID: freshluts--0000175-night-blade
# LUTr-Title: Night Blade
# LUTr-Collection: Fresh LUTs
# LUTr-Collection-ID: freshluts-community
# LUTr-Source: https://freshluts.com
# LUTr-Retrieved: 2026-07-27
# LUTr-Source-File: submissions-raw/freshluts/cubes/175__Night_Blade_4.1.cube
# LUTr-Source-Format: CUBE
# LUTr-Source-SHA256: bea075d05cc014bbbc0d58331c9cad49c92c4148518dd3e34d263ef9abd59b0c
# LUTr-License: CC0-1.0
# LUTr-License-URL: https://freshluts.com/termsandconditions
# LUTr-License-Basis: site-terms
# LUTr-Transform-Class: creative-look
# LUTr-Tags: creative, freshluts, community, cube, cinematic, blockbuster, warm, low-key
# LUTr-Input-Color-Space:
# LUTr-Input-Gamut: unspecified
# LUTr-Input-Transfer: unspecified
# LUTr-Output-Color-Space: srgb
# LUTr-Output-Gamut: rec709
# LUTr-Output-Transfer: srgb
# LUTr-Color-Space-Confidence: camera-profile-input-required
# LUTr-Domain-Normalized: true
# LUTr-Shaper: none
# LUTr-Original-Grid: 33x33x33
# LUTr-Conversion-Grid: 33x33x33
# LUTr-Conversion-Interpolation: none
# LUTr-Conversion-Method: Metadata normalization; numeric LUT samples preserved
# LUTr-Conversion-Tool: LUTr scripts/convert-all-to-cube.mjs 2.0.0
# LUTr-Conversion-Date: 2026-07-28
# LUTr-Asset-URL: https://freshluts.com/luts/175
# LUTr-Author: Cube Frames
# LUTr-Author-URL: https://freshluts.com/users/1308
# LUTr-Attribution: Cube Frames via Fresh LUTs
# LUTr-Source-Labels: gamma=Other; color=Warm; key=Low Key; style=Blockbuster
# LUTr-Duplicate-Assets: 176:https://freshluts.com/luts/176
# LUTr-Note: Preserve this metadata and the upstream license notices when redistributing.
TITLE "Night Blade"
LUT_3D_SIZE 33
DOMAIN_MIN 0 0 0
DOMAIN_MAX 1 1 1
0.0477607 0.0569162 0.06392
0.0477607 0.0569162 0.06392
0.0477607 0.0569162 0.06392
0.0477607 0.0569162 0.06392
0.0527504 0.0577096 0.0636606
0.0663615 0.060441 0.0641489
0.08542 0.063508 0.0650645
0.111849 0.0653697 0.0634928
0.143984 0.0675364 0.0608072
0.180438 0.0697185 0.0576791
0.220523 0.0707866 0.0536049
0.261112 0.0714427 0.0494545
0.300679 0.0725261 0.0482185
0.344305 0.0737469 0.0501717
0.392966 0.0758984 0.0525216
0.445838 0.0796521 0.0550698
0.499733 0.0838026 0.057847
0.552987 0.0881666 0.060853
0.604562 0.0928664 0.0643015
0.653376 0.0977951 0.0681315
0.696956 0.102358 0.0716716
0.735668 0.106615 0.0749523
0.770092 0.110826 0.0780346
0.801007 0.115007 0.0809491
0.828885 0.119265 0.0836957
0.854322 0.124041 0.0862593
0.874418 0.128298 0.0881208
0.885008 0.129595 0.0884413
0.891203 0.129183 0.088014
0.897398 0.128801 0.087602
0.903593 0.128405 0.0871901
0.909789 0.128008 0.0867628
0.916014 0.127596 0.0863355
0.0477607 0.0569162 0.06392
0.0477607 0.0569162 0.06392
0.0477607 0.0569162 0.06392
0.0477607 0.0569162 0.06392
0.0527504 0.0577096 0.0636606
0.0663615 0.060441 0.0641489
0.08542 0.063508 0.0650645
0.111849 0.0653697 0.0634928
0.143984 0.0675364 0.0608072
0.180438 0.0697185 0.0576791
0.220523 0.0707866 0.0536049
0.261112 0.0714427 0.0494545
0.300679 0.0725261 0.0482185
0.344305 0.0737469 0.0501717
0.392966 0.0758984 0.0525216
0.445838 0.0796521 0.0550698
0.499733 0.0838026 0.057847
0.552987 0.0881666 0.060853
0.604562 0.0928664 0.0643015
0.653376 0.0977951 0.0681315
0.696956 0.102358 0.0716716
0.735668 0.106615 0.0749523
0.770092 0.110826 0.0780346
0.801007 0.115007 0.0809491
0.828885 0.119265 0.0836957
0.854322 0.124041 0.0862593
0.874418 0.128298 0.0881208
0.885008 0.129595 0.0884413
0.891203 0.129183 0.088014
0.897398 0.128801 0.087602
0.903593 0.128405 0.0871901
0.909789 0.128008 0.0867628
0.916014 0.127596 0.0863355
0.0477607 0.0569162 0.06392
0.0477607 0.0569162 0.06392
0.0477607 0.0569162 0.06392
0.0477607 0.0569162 0.06392
0.0527504 0.0577096 0.0636606
0.0663615 0.060441 0.0641489
0.08542 0.063508 0.0650645
0.111849 0.0653697 0.0634928
0.143984 0.0675364 0.0608072
0.180438 0.0697185 0.0576791
0.220523 0.0707866 0.0536049
0.261112 0.0714427 0.0494545
0.300679 0.0725261 0.0482185
0.344305 0.0737469 0.0501717
0.392966 0.0758984 0.0525216
0.445838 0.0796521 0.0550698
0.499733 0.0838026 0.057847
0.552987 0.0881666 0.060853
0.604562 0.0928664 0.0643015
0.653376 0.0977951 0.0681315
0.696956 0.102358 0.0716716
0.735668 0.106615 0.0749523
0.770092 0.110826 0.0780346
0.801007 0.115007 0.0809491
0.828885 0.119265 0.0836957
0.854322 0.124041 0.0862593
0.874418 0.128298 0.0881208
0.885008 0.129595 0.0884413
0.891203 0.129183 0.088014
0.897398 0.128801 0.087602
0.903593 0.128405 0.0871901
0.909789 0.128008 0.0867628
0.916014 0.127596 0.0863355
0.0477607 0.0569162 0.06392
0.0477607 0.0569162 0.06392
0.0477607 0.0569162 0.06392
0.0477607 0.0569162 0.06392
0.0527504 0.0577096 0.0636606
0.0663615 0.060441 0.0641489
0.08542 0.063508 0.0650645
0.111849 0.0653697 0.0634928
0.143984 0.0675364 0.0608072
0.180438 0.0697185 0.0576791
0.220523 0.0707866 0.0536049
0.261112 0.0714427 0.0494545
0.300679 0.0725261 0.0482185
0.344305 0.0737469 0.0501717
0.392966 0.0758984 0.0525216
0.445838 0.0796521 0.0550698
0.499733 0.0838026 0.057847
0.552987 0.0881666 0.060853
0.604562 0.0928664 0.0643015
0.653376 0.0977951 0.0681315
0.696956 0.102358 0.0716716
0.735668 0.106615 0.0749523
0.770092 0.110826 0.0780346
0.801007 0.115007 0.0809491
0.828885 0.119265 0.0836957
0.854322 0.124041 0.0862593
0.874418 0.128298 0.0881208
0.885008 0.129595 0.0884413
0.891203 0.129183 0.088014
0.897398 0.128801 0.087602
0.903593 0.128405 0.0871901
0.909789 0.128008 0.0867628
0.916014 0.127596 0.0863355
0.0471351 0.0625315 0.0639963
0.0471351 0.0625315 0.0639963
0.0471351 0.0625315 0.0639963
0.0471351 0.0625315 0.0639963
0.0521248 0.0631113 0.0636149
0.0657359 0.0652934 0.0635233
0.0844129 0.0681621 0.0638895
0.110292 0.0700999 0.062501
0.142229 0.0720226 0.0598459
0.178683 0.0740978 0.0565652
0.219028 0.0751965 0.052491
0.259831 0.0759136 0.0485389
0.299809 0.0771801 0.047303
0.343526 0.078584 0.0492866
0.392065 0.0804913 0.0518044
0.444724 0.0839704 0.0543984
0.499046 0.0881971 0.0573587
0.552773 0.0926528 0.0606088
0.604135 0.0972152 0.0641031
0.652262 0.101869 0.0678111
0.695415 0.106203 0.0712749
0.734035 0.110277 0.0745403
0.768612 0.11429 0.0776226
0.799451 0.118227 0.0804913
0.827222 0.122179 0.0831617
0.852705 0.12665 0.0856947
0.87335 0.1308 0.0876173
0.884657 0.132158 0.0880446
0.890776 0.131502 0.0875715
0.896925 0.130953 0.087129
0.90312 0.130556 0.086717
0.909316 0.130144 0.086305
0.915541 0.129747 0.0858778
0.0456703 0.0770581 0.0635538
0.0456703 0.0770581 0.0635538
0.0456703 0.0770581 0.0635538
0.0456703 0.0770581 0.0635538
0.0506142 0.0772259 0.0631113
0.0639506 0.0782483 0.062089
0.0819867 0.0802014 0.0611124
0.10724 0.0817121 0.0598001
0.138796 0.0831159 0.0573434
0.175326 0.0849928 0.053727
0.21622 0.0860609 0.0496223
0.257511 0.0869001 0.0460822
0.298344 0.0886397 0.0450904
0.34258 0.0906233 0.0472419
0.390951 0.0922408 0.0502937
0.443229 0.0949264 0.0532235
0.498421 0.0991684 0.0565499
0.553033 0.103777 0.0601816
0.603998 0.108263 0.0637675
0.651026 0.112642 0.0673381
0.693278 0.116747 0.0706798
0.731579 0.120699 0.0739147
0.766339 0.124575 0.076997
0.796902 0.128237 0.0797742
0.824353 0.131868 0.0823529
0.849943 0.135973 0.0848707
0.871839 0.140108 0.0869764
0.884993 0.141726 0.0876936
0.890974 0.140642 0.0871595
0.897002 0.139696 0.0866407
0.903105 0.138979 0.0861677
0.909224 0.138323 0.0857099
0.915358 0.137682 0.0852522
0.0442512 0.0928359 0.0616007
0.0442512 0.0928359 0.0616007
0.0442512 0.0928359 0.0616007
0.0442512 0.0928359 0.0616007
0.0490578 0.0928511 0.061387
0.0616312 0.0933394 0.0605936
0.0785229 0.0944381 0.0589914
0.103929 0.0947738 0.0567483
0.136889 0.0949416 0.0542
0.174395 0.0963455 0.0507668
0.215656 0.0974136 0.0467842
0.256809 0.0985428 0.0438392
0.298161 0.100923 0.0435645
0.343343 0.103807 0.0458839
0.391821 0.105913 0.0493782
0.443503 0.107973 0.0528572
0.498695 0.111589 0.0563973
0.553613 0.116213 0.0600748
0.604578 0.120836 0.0637217
0.652003 0.12549 0.0673838
0.694179 0.129885 0.0708019
0.731731 0.134081 0.073991
0.765866 0.138216 0.0770123
0.796124 0.142153 0.0797742
0.823316 0.146044 0.0823377
0.849042 0.150423 0.084947
0.872145 0.15491 0.0872969
0.887007 0.156924 0.0883192
0.892958 0.155703 0.0877546
0.898909 0.154498 0.0872053
0.90486 0.153307 0.0866407
0.910842 0.152224 0.0861219
0.916869 0.151156 0.0855879
0.0425269 0.108934 0.0582132
0.0425269 0.108934 0.0582132
0.0425269 0.108934 0.0582132
0.0425269 0.108934 0.0582132
0.0472572 0.109026 0.0582437
0.0591897 0.109636 0.0582284
0.0737621 0.111192 0.0573281
0.0977035 0.11136 0.0543374
0.133425 0.109224 0.050782
0.174075 0.108659 0.0479744
0.215869 0.109514 0.0448768
0.256535 0.111086 0.043122
0.298894 0.114199 0.0433967
0.344915 0.117983 0.0454871
0.393637 0.121263 0.0489662
0.44477 0.123674 0.0527657
0.498405 0.126574 0.0563973
0.552819 0.131029 0.0600748
0.604212 0.135851 0.0637827
0.652308 0.140795 0.0675975
0.695048 0.14548 0.0711376
0.732174 0.149783 0.0742657
0.765423 0.154009 0.0772106
0.795422 0.158114 0.079942
0.822507 0.162203 0.0825055
0.848188 0.16672 0.0851606
0.871962 0.171435 0.0876326
0.888411 0.173968 0.0888685
0.895247 0.172976 0.0884718
0.901167 0.171633 0.0879377
0.907088 0.170321 0.0873884
0.913008 0.168994 0.0868544
0.918975 0.167666 0.0863203
0.0406653 0.125078 0.0539712
0.0406653 0.125078 0.0539712
0.0406653 0.125078 0.0539712
0.0406653 0.125078 0.0539712
0.0452735 0.125582 0.0543526
0.0568856 0.12697 0.0550698
0.0699626 0.129046 0.0551461
0.0900587 0.130404 0.0531777
0.124544 0.128054 0.0492561
0.169238 0.1243 0.046128
0.214115 0.123018 0.0440223
0.256443 0.124331 0.0433967
0.300298 0.127855 0.0439002
0.347066 0.132113 0.045594
0.396338 0.136339 0.0487984
0.447684 0.139788 0.0527352
0.500053 0.142901 0.0565652
0.55317 0.147356 0.0602884
0.604486 0.152743 0.0640421
0.651759 0.158053 0.0677958
0.694179 0.163043 0.0713359
0.731502 0.167559 0.0745098
0.764675 0.171893 0.0774701
0.794675 0.176165 0.0802319
0.821851 0.180423 0.0827649
0.847456 0.185183 0.0850843
0.871962 0.190967 0.0869001
0.890944 0.195392 0.0877089
0.900236 0.195422 0.0876631
0.905821 0.193591 0.0873579
0.911391 0.191714 0.087068
0.916915 0.189761 0.0867628
0.922469 0.187793 0.0864576
0.0394751 0.140978 0.0511635
0.0394751 0.140978 0.0511635
0.0394751 0.140978 0.0511635
0.0394751 0.140978 0.0511635
0.0436561 0.141863 0.0517128
0.0545663 0.144244 0.052781
0.0669718 0.147066 0.0531319
0.083238 0.149828 0.0523537
0.112642 0.150149 0.0496376
0.158221 0.145602 0.0459754
0.208515 0.13994 0.0437629
0.25597 0.138979 0.0433967
0.301472 0.142184 0.044358
0.34902 0.146593 0.0459754
0.399344 0.151171 0.0487984
0.451575 0.155306 0.0527352
0.504433 0.159075 0.0569314
0.556817 0.163806 0.0608072
0.607141 0.169757 0.0645762
0.653254 0.175692 0.0682383
0.694789 0.181292 0.0717327
0.731868 0.186709 0.074815
0.765316 0.192264 0.0775311
0.796277 0.198322 0.0796826
0.824857 0.204654 0.0810712
0.851453 0.210941 0.0819867
0.877211 0.218097 0.0820478
0.898955 0.224598 0.0814221
0.911055 0.2262 0.0812695
0.916197 0.22385 0.0814832
0.921263 0.221393 0.0816968
0.926329 0.218906 0.0819104
0.931426 0.216464 0.0821241
0.0389258 0.157992 0.050309
0.0389258 0.157992 0.050309
0.0389258 0.157992 0.050309
0.0389258 0.157992 0.050309
0.0424353 0.158556 0.0506142
0.0522927 0.16083 0.051545
0.0643015 0.164721 0.0520333
0.0780804 0.168933 0.0511025
0.101625 0.172152 0.0489357
0.143755 0.170886 0.0459144
0.198032 0.163302 0.0436255
0.252033 0.156893 0.0431678
0.301778 0.157427 0.044358
0.350866 0.16173 0.0464179
0.402441 0.166659 0.0491035
0.456031 0.171267 0.0529335
0.50988 0.175463 0.0573892
0.562402 0.180407 0.0614786
0.612329 0.186709 0.0653544
0.658289 0.193469 0.0691081
0.699428 0.200031 0.0724804
0.736828 0.207492 0.0751049
0.771405 0.216144 0.0767681
0.803418 0.225193 0.0771344
0.833539 0.234211 0.0764172
0.861067 0.242039 0.0753643
0.88661 0.24921 0.0737469
0.909804 0.256275 0.0717784
0.924453 0.259358 0.0707408
0.929717 0.25716 0.0710002
0.93489 0.254932 0.0712749
0.940078 0.252705 0.0715648
0.945327 0.250523 0.0718395
0.0383459 0.177493 0.0492714
0.0383459 0.177493 0.0492714
0.0383459 0.177493 0.0492714
0.0383459 0.177493 0.0492714
0.0411688 0.177447 0.0493629
0.0499886 0.178515 0.0501717
0.0618143 0.181842 0.0511482
0.0744335 0.186862 0.0500191
0.0922255 0.19205 0.0476692
0.127428 0.19472 0.0452888
0.182727 0.19205 0.0433356
0.243107 0.182437 0.0431373
0.299718 0.175937 0.0438697
0.352987 0.178027 0.0466468
0.406302 0.183139 0.0496681
0.460441 0.188022 0.0532235
0.515312 0.192508 0.0577401
0.56849 0.19765 0.0621805
0.618402 0.204181 0.0661936
0.664836 0.211826 0.0700694
0.706477 0.219883 0.0730907
0.744533 0.229343 0.0747997
0.780148 0.240131 0.0751507
0.812314 0.25034 0.0740673
0.841794 0.259464 0.072282
0.868971 0.267765 0.0703746
0.893904 0.275746 0.0679789
0.917281 0.283909 0.0654002
0.933654 0.288487 0.0636606
0.940383 0.287251 0.0633707
0.9458 0.285237 0.0632334
0.951247 0.283238 0.0631113
0.95668 0.281209 0.062974
0.0376898 0.199023 0.0484016
0.0376898 0.199023 0.0484016
0.0376898 0.199023 0.0484016
0.0376898 0.199023 0.0484016
0.0400854 0.19855 0.0482795
0.0479133 0.19855 0.0484932
0.0591745 0.200763 0.0494545
0.071519 0.205035 0.0490272
0.0858625 0.210193 0.0469215
0.112459 0.215091 0.04477
0.162982 0.219623 0.0431373
0.228428 0.215717 0.0432746
0.293233 0.20351 0.0437018
0.353689 0.197528 0.0458076
0.410483 0.200824 0.0497139
0.465507 0.205768 0.0534981
0.52105 0.210636 0.0581216
0.574701 0.215976 0.0628214
0.624887 0.222873 0.0669413
0.671901 0.231479 0.0706645
0.714229 0.240925 0.0730297
0.752316 0.251209 0.0737469
0.787335 0.261875 0.0732738
0.819059 0.271885 0.0717174
0.847669 0.281224 0.0695354
0.874281 0.290257 0.0673075
0.898772 0.29929 0.0647746
0.921172 0.308461 0.0623941
0.938811 0.314916 0.0606699
0.94815 0.315679 0.060029
0.953735 0.31371 0.0596933
0.959304 0.311742 0.0593576
0.964843 0.309651 0.0590066
0.0367285 0.221439 0.0473945
0.0367285 0.221439 0.0473945
0.0367285 0.221439 0.0473945
0.0367285 0.221439 0.0473945
0.0391089 0.220951 0.0472419
0.0462196 0.220645 0.0470741
0.0563973 0.222568 0.0475013
0.0685435 0.226093 0.0476844
0.0818799 0.230198 0.0465705
0.102083 0.235828 0.0447547
0.143618 0.243595 0.0429694
0.209247 0.248829 0.0432898
0.28159 0.241764 0.0445106
0.350454 0.226673 0.0449683
0.413321 0.2215 0.0483711
0.471107 0.224994 0.0534829
0.527413 0.230015 0.0585794
0.581506 0.235691 0.0633402
0.632044 0.243015 0.0673381
0.678981 0.252308 0.0704662
0.721141 0.262303 0.071931
0.759152 0.272831 0.0720073
0.7935 0.283238 0.0710307
0.824369 0.293034 0.0693065
0.852155 0.302464 0.0670939
0.877928 0.312016 0.0648356
0.901793 0.321798 0.0625467
0.923873 0.331838 0.0603494
0.943145 0.340581 0.0585794
0.954849 0.343771 0.0576181
0.960464 0.341741 0.0572366
0.966033 0.339651 0.0568551
0.971603 0.33753 0.0564584
0.035935 0.244572 0.0474098
0.035935 0.244572 0.0474098
0.035935 0.244572 0.0474098
0.035935 0.244572 0.0474098
0.0383307 0.244099 0.0472419
0.044831 0.24361 0.0469062
0.0539406 0.245594 0.0467994
0.0657969 0.249531 0.0467994
0.0788434 0.253452 0.0462654
0.0954604 0.259022 0.0451514
0.128573 0.267201 0.043595
0.189456 0.276951 0.0429847
0.26508 0.280964 0.0451514
0.341497 0.269001 0.0461738
0.413123 0.251652 0.0465858
0.476158 0.247074 0.0519112
0.533959 0.250813 0.0584268
0.588388 0.256672 0.0636454
0.639216 0.264515 0.0673228
0.685954 0.274022 0.069688
0.727581 0.284291 0.0703899
0.765179 0.294759 0.0700389
0.798779 0.304891 0.0688487
0.828641 0.314672 0.0670024
0.855573 0.324315 0.0647135
0.880568 0.334249 0.062501
0.903822 0.344533 0.0602579
0.925612 0.355154 0.0582437
0.94612 0.365713 0.0564431
0.96022 0.371221 0.0550698
0.966491 0.369665 0.0545663
0.972076 0.367498 0.0541543
0.977661 0.365332 0.0537728
0.0356603 0.268635 0.0482185
0.0356603 0.268635 0.0482185
0.0356603 0.268635 0.0482185
0.0356603 0.268635 0.0482185
0.0380407 0.268086 0.0480354
0.0440375 0.267033 0.0476081
0.0522469 0.268635 0.047303
0.063798 0.273701 0.0471046
0.0766766 0.278538 0.0466773
0.0915389 0.283925 0.0459144
0.118196 0.291966 0.0446937
0.171771 0.302541 0.0431983
0.247044 0.314122 0.0444953
0.327581 0.315572 0.0480201
0.407767 0.297734 0.0477913
0.480385 0.278721 0.0489967
0.540475 0.274983 0.0561074
0.595453 0.279377 0.0628061
0.646296 0.287007 0.0667887
0.692683 0.296544 0.0686351
0.733944 0.306828 0.0688487
0.770535 0.316899 0.0679637
0.803052 0.326741 0.0664836
0.832151 0.336614 0.0644846
0.858427 0.346609 0.06215
0.882628 0.356893 0.0599222
0.905318 0.367727 0.0576944
0.926543 0.378973 0.0558633
0.947356 0.390249 0.0544289
0.963439 0.397604 0.0535134
0.971588 0.397742 0.0529641
0.977218 0.395514 0.0524453
0.982849 0.39324 0.0519417
0.035996 0.294209 0.0493477
0.035996 0.294209 0.0493477
0.035996 0.294209 0.0493477
0.035996 0.294209 0.0493477
0.0383612 0.293629 0.0491493
0.0441291 0.292195 0.0486763
0.0516213 0.293034 0.0483101
0.062562 0.29836 0.0480659
0.0753338 0.304631 0.0476692
0.0894789 0.31017 0.0469978
0.111101 0.317815 0.0459754
0.157488 0.328817 0.0443275
0.2309 0.34287 0.0433967
0.312352 0.355276 0.0478065
0.396582 0.351843 0.0519265
0.477928 0.328695 0.0493629
0.546456 0.308568 0.0514076
0.603113 0.305501 0.058854
0.6542 0.31107 0.0644999
0.699245 0.319387 0.066743
0.739605 0.329046 0.0666972
0.77525 0.338918 0.0654612
0.806683 0.348821 0.0636606
0.834943 0.358862 0.0615396
0.860578 0.369146 0.0594339
0.884138 0.379934 0.0573129
0.906249 0.391302 0.0551614
0.927138 0.40293 0.0535286
0.948028 0.414649 0.0526589
0.965896 0.423865 0.0525673
0.976333 0.426368 0.0523842
0.98204 0.424018 0.0518044
0.987747 0.421607 0.0512245
0.0368505 0.32108 0.0507362
0.0368505 0.32108 0.0507362
0.0368505 0.32108 0.0507362
0.0368505 0.32108 0.0507362
0.0392157 0.32047 0.0505379
0.0449989 0.318975 0.0500649
0.0519417 0.319112 0.0496529
0.0619669 0.323674 0.0493172
0.0745098 0.330785 0.0488899
0.0882887 0.336904 0.0482185
0.106294 0.344305 0.0473182
0.147173 0.355749 0.0457008
0.218082 0.370443 0.043534
0.299229 0.386892 0.0457313
0.38378 0.398505 0.0532998
0.466026 0.390372 0.0552682
0.545724 0.363165 0.05066
0.610529 0.341588 0.0522164
0.662043 0.338964 0.0587015
0.706661 0.34435 0.0626993
0.74548 0.352255 0.063447
0.779721 0.361486 0.0624704
0.810254 0.371374 0.0606699
0.837491 0.381582 0.0586252
0.862242 0.392081 0.0565957
0.8851 0.403296 0.0545357
0.906538 0.415137 0.052842
0.927138 0.426871 0.0519417
0.947921 0.438697 0.0516976
0.966949 0.449638 0.0522621
0.979034 0.454627 0.0524147
0.985077 0.452461 0.0517891
0.990967 0.450004 0.0511177
0.0379797 0.348852 0.0522621
0.0379797 0.348852 0.0522621
0.0379797 0.348852 0.0522621
0.0379797 0.348852 0.0522621
0.0403601 0.348241 0.0520638
0.0461585 0.346716 0.051606
0.0525521 0.34609 0.0511482
0.061738 0.349615 0.0507057
0.0740826 0.357061 0.0502174
0.0875868 0.363668 0.0495308
0.104585 0.371298 0.0485695
0.142031 0.383154 0.0469368
0.208682 0.398032 0.0447852
0.287144 0.415778 0.0444343
0.3729 0.43386 0.05066
0.455451 0.443259 0.0594186
0.53402 0.431632 0.0573434
0.609369 0.400153 0.0506142
0.667048 0.377813 0.0509804
0.712535 0.374044 0.0554665
0.750744 0.378454 0.0580453
0.783551 0.385626 0.0583963
0.812879 0.394522 0.0573434
0.839277 0.404578 0.0555581
0.863188 0.415396 0.0538186
0.88513 0.426917 0.0521859
0.906126 0.439033 0.0510719
0.926833 0.451057 0.0507515
0.947585 0.46276 0.0511788
0.966384 0.474281 0.0523384
0.97879 0.481132 0.0528878
0.98555 0.480171 0.0524147
0.991608 0.477699 0.0517128
0.039353 0.376608 0.0538796
0.039353 0.376608 0.0538796
0.039353 0.376608 0.0538796
0.039353 0.376608 0.0538796
0.0417182 0.375982 0.0536965
0.0474861 0.37438 0.053193
0.0534371 0.373007 0.0526894
0.0618448 0.375601 0.0521859
0.0739605 0.383505 0.051606
0.0872969 0.390814 0.0508888
0.10367 0.398505 0.0498207
0.138277 0.410361 0.0480964
0.201617 0.425574 0.0460059
0.278096 0.443702 0.0446174
0.362646 0.464607 0.0480659
0.448463 0.482139 0.0577859
0.523293 0.488624 0.0633249
0.594873 0.473671 0.0585794
0.662211 0.439734 0.0505226
0.713726 0.416403 0.0487373
0.753155 0.411414 0.0509041
0.786038 0.414649 0.0526589
0.814557 0.421134 0.0530556
0.839902 0.429526 0.0522011
0.863096 0.439887 0.0512398
0.884474 0.451362 0.0503395
0.905425 0.463371 0.0497444
0.926375 0.47538 0.049897
0.947173 0.486992 0.0509499
0.96492 0.498543 0.0526131
0.976745 0.506752 0.0535439
0.984253 0.50779 0.0533303
0.990448 0.505318 0.0526589
0.0408484 0.404013 0.0555276
0.0408484 0.404013 0.0555276
0.0408484 0.404013 0.0555276
0.0408484 0.404013 0.0555276
0.0431983 0.403326 0.055314
0.0489509 0.401602 0.0547951
0.0546883 0.399832 0.0542611
0.0624704 0.401648 0.0537118
0.0740368 0.40972 0.0530556
0.0872511 0.418235 0.0522469
0.102495 0.425727 0.0512551
0.13434 0.437095 0.0495155
0.196277 0.4533 0.0472114
0.272084 0.471931 0.0454871
0.352895 0.493492 0.0461891
0.439277 0.514336 0.0535897
0.516915 0.529274 0.063386
0.581613 0.533806 0.0660563
0.645899 0.515251 0.0601358
0.70547 0.480476 0.0510109
0.750179 0.457938 0.0472572
0.785046 0.452079 0.0474708
0.814008 0.454246 0.0483864
0.839109 0.459464 0.0486915
0.862287 0.46746 0.0486152
0.883619 0.477729 0.0484932
0.904631 0.48896 0.0486915
0.925902 0.500313 0.0496986
0.946303 0.51162 0.0514229
0.962676 0.523079 0.0535592
0.973877 0.532143 0.0548562
0.981872 0.534798 0.0547341
0.988113 0.532433 0.0539406
0.0424506 0.431647 0.0571298
0.0424506 0.431647 0.0571298
0.0424506 0.431647 0.0571298
0.0424506 0.431647 0.0571298
0.0448005 0.43093 0.0569009
0.0505226 0.429145 0.0563668
0.0562753 0.427344 0.0558175
0.0634928 0.428305 0.0552377
0.0741894 0.435569 0.0545205
0.0872511 0.445197 0.0535897
0.101778 0.453086 0.0525521
0.131594 0.463935 0.050721
0.192035 0.480385 0.0483406
0.267124 0.49926 0.0466316
0.344656 0.520699 0.045594
0.428199 0.542763 0.0495766
0.5093 0.56141 0.0595712
0.575753 0.574441 0.067216
0.631388 0.576104 0.0679179
0.687785 0.555291 0.0618753
0.738933 0.522652 0.0530404
0.778531 0.501717 0.0483558
0.809445 0.495872 0.047303
0.835874 0.496864 0.0473335
0.859556 0.501198 0.047715
0.88127 0.508217 0.0482185
0.902693 0.517281 0.0491188
0.924697 0.527077 0.0505837
0.944518 0.537408 0.0527047
0.95935 0.54818 0.0553902
0.970504 0.557382 0.0569467
0.97908 0.561074 0.0570382
0.985458 0.558877 0.0562142
0.0441138 0.458991 0.0586404
0.0441138 0.458991 0.0586404
0.0441138 0.458991 0.0586404
0.0441138 0.458991 0.0586404
0.0464637 0.458244 0.0584115
0.0521706 0.456413 0.057847
0.0579232 0.454566 0.0572976
0.0646067 0.454536 0.0566873
0.0744488 0.460883 0.0558938
0.0872969 0.471794 0.054902
0.101762 0.480537 0.0537118
0.130327 0.490944 0.0518044
0.188693 0.506798 0.0495766
0.263005 0.525567 0.0479286
0.338491 0.546792 0.0462196
0.418723 0.569268 0.0470283
0.499763 0.590082 0.054612
0.570764 0.605936 0.0647898
0.62504 0.616938 0.0695964
0.672297 0.615915 0.0695811
0.721233 0.594064 0.0641031
0.765682 0.564004 0.056672
0.800793 0.546273 0.0525216
0.82948 0.540673 0.0509041
0.854078 0.541009 0.0506447
0.876661 0.544488 0.0509499
0.899351 0.550149 0.0516213
0.922332 0.55729 0.0528267
0.941878 0.565805 0.0552071
0.955673 0.575036 0.057969
0.966842 0.583474 0.0593729
0.975998 0.58793 0.059678
0.982849 0.586664 0.0590372
0.0458686 0.486778 0.0601358
0.0458686 0.486778 0.0601358
0.0458686 0.486778 0.0601358
0.0458686 0.486778 0.0601358
0.0482185 0.485985 0.0599069
0.0539254 0.484016 0.0593423
0.0596323 0.481926 0.0587472
0.0657511 0.480598 0.0581064
0.0747387 0.485344 0.0572824
0.0874342 0.496849 0.0562142
0.10161 0.50663 0.054963
0.128756 0.516915 0.0531624
0.185565 0.532235 0.0509804
0.259648 0.550881 0.0490883
0.333776 0.571847 0.047303
0.41117 0.594308 0.0462043
0.490501 0.616098 0.0504158
0.563699 0.633616 0.0607156
0.621164 0.646815 0.0681315
0.665278 0.655909 0.0710918
0.706432 0.652262 0.0707256
0.748913 0.630411 0.0664378
0.787839 0.604349 0.0610971
0.819974 0.589334 0.0578164
0.846891 0.58407 0.0564736
0.871443 0.58381 0.0560159
0.895338 0.586145 0.0560006
0.918349 0.590509 0.0567178
0.937911 0.596796 0.0587015
0.951812 0.604089 0.0609598
0.962905 0.610925 0.062211
0.97261 0.615686 0.0626688
0.980117 0.615763 0.0623331
0.0476539 0.51458 0.0615702
