site/assets/luts/freshluts--0000170-industrial.cube
# LUTr-Schema-Version: 2
# LUTr-ID: freshluts--0000170-industrial
# LUTr-Title: INDUSTRIAL
# LUTr-Collection: Fresh LUTs
# LUTr-Collection-ID: freshluts-community
# LUTr-Source: https://freshluts.com
# LUTr-Retrieved: 2026-07-27
# LUTr-Source-File: submissions-raw/freshluts/cubes/170__INDUSTRIAL_33.DJI_0018.cube
# LUTr-Source-Format: CUBE
# LUTr-Source-SHA256: cd777ea7a1e479b0400b4dab8ad0de9db8a9671d2bbde95e61dcb5c998e85a12
# LUTr-License: CC0-1.0
# LUTr-License-URL: https://freshluts.com/termsandconditions
# LUTr-License-Basis: site-terms
# LUTr-Transform-Class: creative-look
# LUTr-Tags: creative, freshluts, community, cube, film-emulation, orange, low-key, dji-d-log
# LUTr-Input-Color-Space: dji-dlog-dgamut
# LUTr-Input-Gamut: dji-d-gamut
# LUTr-Input-Transfer: dji-d-log
# LUTr-Output-Color-Space: srgb
# LUTr-Output-Gamut: rec709
# LUTr-Output-Transfer: srgb
# LUTr-Color-Space-Confidence: inferred-from-source-label
# LUTr-Domain-Normalized: true
# LUTr-Shaper: none
# LUTr-Original-Grid: 33x33x33
# LUTr-Conversion-Grid: 33x33x33
# LUTr-Conversion-Interpolation: none
# LUTr-Conversion-Method: Metadata normalization; numeric LUT samples preserved
# LUTr-Conversion-Tool: LUTr scripts/convert-all-to-cube.mjs 2.0.0
# LUTr-Conversion-Date: 2026-07-28
# LUTr-Asset-URL: https://freshluts.com/luts/170
# LUTr-Author: Shamoon Abbasi
# LUTr-Author-URL: https://freshluts.com/users/1258
# LUTr-Attribution: Shamoon Abbasi via Fresh LUTs
# LUTr-Source-Labels: gamma=DJI D-log; color=Orange; key=Low Key; style=Film emulation
# LUTr-Note: Preserve this metadata and the upstream license notices when redistributing.
TITLE "INDUSTRIAL"
LUT_3D_SIZE 9
DOMAIN_MIN 0 0 0
DOMAIN_MAX 1 1 1
0.00830091 0.0140383 0.0139467
0.0268864 0.0139773 0.0121157
0.114046 0.0257267 0.00906386
0.299519 0.0821393 0.0075227
0.453513 0.133852 0.00747692
0.544823 0.163394 0.00794995
0.601114 0.18172 0.00846876
0.644373 0.195636 0.00868238
0.659419 0.20029 0.00891127
0.0124971 0.0369421 0.0327001
0.0259098 0.0324712 0.0251469
0.0893416 0.0353246 0.0137331
0.251606 0.0731975 0.00892653
0.414298 0.12488 0.00831617
0.525246 0.160586 0.00860609
0.588098 0.180621 0.0087892
0.636027 0.195575 0.00880446
0.657237 0.202579 0.00888075
0.0172274 0.094789 0.0774395
0.0218814 0.0876631 0.0694591
0.0798505 0.0795911 0.0436103
0.220493 0.0988327 0.0139162
0.379858 0.133547 0.00936904
0.504585 0.164721 0.00856031
0.578653 0.186572 0.00825513
0.634485 0.203204 0.00817884
0.662913 0.211719 0.00833143
0.0253605 0.205798 0.166186
0.0275578 0.194339 0.155688
0.0609293 0.17911 0.136034
0.210773 0.18706 0.0866865
0.407263 0.218723 0.0091249
0.524132 0.227939 0.00750744
0.594217 0.222431 0.00741588
0.64622 0.224033 0.00735485
0.680827 0.232578 0.00720226
0.0630503 0.341924 0.275807
0.0618906 0.332235 0.267475
0.080415 0.319265 0.25536
0.148699 0.312367 0.224903
0.416373 0.342107 0.12314
0.585 0.369635 0.000961318
0.657252 0.358557 0.00190738
0.701183 0.333059 0.0034638
0.724895 0.307317 0.0043946
0.0997024 0.465095 0.377432
0.103502 0.45687 0.369589
0.10779 0.449531 0.3626
0.154391 0.45037 0.354162
0.306752 0.447944 0.301366
0.584085 0.474617 0.159014
0.705928 0.493431 0.00205997
0.763561 0.480476 0
0.801221 0.464881 0
0.0958877 0.566506 0.46569
0.115816 0.557733 0.455497
0.136965 0.549874 0.445411
0.166567 0.552148 0.444007
0.283742 0.561807 0.407675
0.468284 0.549661 0.370047
0.692943 0.567376 0.196704
0.803952 0.588083 0.0227512
0.848203 0.571969 0
0.0847181 0.656001 0.544549
0.103777 0.649592 0.537011
0.148409 0.642023 0.524681
0.180407 0.636896 0.515709
0.258412 0.647486 0.503059
0.419608 0.651057 0.44329
0.595987 0.636042 0.427253
0.808316 0.661936 0.237369
0.889677 0.661357 0.0372778
0.0655222 0.712428 0.594965
0.0863661 0.712077 0.59263
0.14229 0.71136 0.586374
0.189014 0.708843 0.577813
0.233707 0.713237 0.571603
0.388098 0.731899 0.528511
0.53106 0.740597 0.502998
0.696544 0.728008 0.488426
0.91014 0.762249 0.32195
0.012726 0.0262608 0.0274662
0.0257877 0.0230564 0.0258335
0.112306 0.0265354 0.0241855
0.298161 0.0731518 0.0142214
0.451759 0.130846 0.0169375
0.546899 0.162295 0.0156558
0.603708 0.181003 0.0146334
0.646021 0.194766 0.0138857
0.660151 0.199298 0.0140536
0.0153811 0.0396124 0.0398413
0.0257115 0.0355993 0.0353246
0.0907301 0.0344854 0.0251926
0.254032 0.0704356 0.0167086
0.416999 0.123217 0.0128481
0.52697 0.159136 0.0119173
0.58967 0.179477 0.0115969
0.637324 0.194537 0.0114443
0.658534 0.201617 0.0116732
0.0203403 0.100008 0.088426
0.0265354 0.0936599 0.0796979
0.0801709 0.0814984 0.0507515
0.222354 0.0954299 0.0195926
0.381628 0.130053 0.0125124
0.505714 0.162127 0.0108797
0.579812 0.18439 0.0102846
0.634989 0.201251 0.0100252
0.662806 0.209766 0.0102693
0.0216831 0.216724 0.179065
0.0289769 0.20354 0.165927
0.0594034 0.185092 0.144579
0.214862 0.188449 0.0883803
0.407324 0.214572 0.0121309
0.523415 0.223713 0.00924697
0.59382 0.218936 0.00891127
0.644877 0.221103 0.00894179
0.678386 0.229435 0.00891127
0.0486152 0.354543 0.289845
0.0571298 0.342138 0.277745
0.0746166 0.326192 0.261875
0.147463 0.315816 0.229496
0.418296 0.342153 0.121294
0.584649 0.366537 0.00128176
0.655833 0.355245 0.00244144
0.699596 0.328588 0.00424201
0.722179 0.30164 0.00556954
0.0628824 0.480018 0.395499
0.0822461 0.468177 0.382742
0.103075 0.455894 0.369177
0.151507 0.451087 0.35642
0.305211 0.448829 0.302464
0.586328 0.475273 0.155474
0.70428 0.491157 0.00201419
0.761501 0.477028 0
0.798413 0.459281 0
0.0356451 0.579324 0.485161
0.0708782 0.570932 0.47274
0.122011 0.557397 0.454475
0.16437 0.552544 0.44538
0.279225 0.56199 0.410849
0.468864 0.551537 0.371572
0.693446 0.56759 0.195987
0.801999 0.585657 0.0212558
0.847639 0.569223 0
0.00860609 0.659373 0.561456
0.0345464 0.661646 0.555962
0.118685 0.651225 0.536767
0.172686 0.640345 0.520012
0.25214 0.647395 0.505745
0.41619 0.65153 0.444068
0.594293 0.63653 0.427649
0.807095 0.66128 0.238209
0.889097 0.658976 0.0313268
0.00433356 0.711238 0.610117
0.0229648 0.718563 0.609537
0.09897 0.723873 0.602716
0.178393 0.715312 0.58587
0.230793 0.715526 0.575662
0.382269 0.733227 0.533349
0.528176 0.741253 0.503807
0.696559 0.728389 0.488655
0.908827 0.761715 0.322683
0.0184482 0.057557 0.0763561
0.0322728 0.0480201 0.0625467
0.0896162 0.0529183 0.0774701
0.308827 0.0431067 0.052018
0.461326 0.101335 0.0237278
0.553887 0.149737 0.020676
0.60734 0.174472 0.0210422
0.646677 0.190646 0.0230259
0.659754 0.195315 0.0236362
0.0198978 0.069749 0.088838
0.028275 0.0636606 0.0808118
0.0773785 0.0581826 0.0757916
0.269566 0.0494087 0.0487526
0.427329 0.10367 0.0263371
0.533242 0.150652 0.0247807
0.592111 0.175906 0.026978
0.637568 0.192432 0.0260929
0.657633 0.199359 0.0256199
0.0232395 0.115084 0.11783
0.0289006 0.109758 0.112428
0.0856794 0.101244 0.101503
0.2336 0.0967117 0.0655528
0.393637 0.124987 0.04654
0.513207 0.157473 0.035111
0.584848 0.180957 0.0247196
0.639521 0.198993 0.0200351
0.666239 0.207858 0.0197299
0.0093843 0.233356 0.209308
0.0117037 0.227634 0.203906
0.0479286 0.226734 0.195941
0.233768 0.20528 0.116747
0.423453 0.209445 0.0374914
0.533562 0.213779 0.0273594
0.598154 0.212146 0.0216831
0.647761 0.216587 0.0187839
0.678981 0.225269 0.0183261
0 0.376806 0.334356
0 0.36994 0.32607
0.019028 0.37496 0.319295
0.150607 0.343328 0.266056
0.445579 0.358816 0.129488
0.601358 0.364874 0.00430304
0.665614 0.350652 0.00798047
0.706294 0.325917 0.00836194
0.724819 0.296971 0.0100404
0 0.494133 0.439445
0 0.488457 0.430671
0.00117494 0.494224 0.426108
0.151247 0.471336 0.382712
0.317082 0.467872 0.319326
0.612787 0.490547 0.155734
0.714977 0.491798 0.000213626
0.762539 0.473793 0
0.797116 0.451835 0.000747692
0 0.583185 0.521752
0 0.57847 0.51342
0 0.581415 0.505943
0.136736 0.578027 0.475807
0.26949 0.571603 0.432013
0.487297 0.565835 0.383917
0.718547 0.58349 0.193652
0.807507 0.585992 0.0173648
0.849195 0.565637 0
0 0.662593 0.595102
0 0.659464 0.588693
0 0.662638 0.581857
0.0688182 0.68307 0.575631
0.243931 0.657176 0.52488
0.417014 0.663294 0.457069
0.606073 0.651255 0.439948
0.815503 0.670695 0.251621
0.895125 0.659525 0.0224155
0 0.716136 0.644404
0 0.718441 0.64332
0 0.729564 0.645304
0.0242618 0.761486 0.653742
0.240757 0.742321 0.610666
0.362051 0.748394 0.56405
0.528145 0.756252 0.516838
0.71075 0.744106 0.501839
0.920607 0.777798 0.346685
0.0495918 0.115694 0.159548
0.0525978 0.107881 0.14931
0.0862135 0.113893 0.162524
0.223758 0.138598 0.195621
0.449744 0.10959 0.17615
0.590845 0.092256 0.118853
0.643671 0.118273 0.068986
0.671336 0.160006 0.041413
0.67657 0.175738 0.0353399
0.0507973 0.126802 0.171969
0.0526284 0.119066 0.162356
0.0778515 0.114092 0.157443
0.200641 0.130831 0.182681
0.437583 0.0976272 0.155978
0.573556 0.0961013 0.0934768
0.628794 0.13228 0.0550393
0.658915 0.172778 0.0413825
0.670222 0.187518 0.0372015
0.0459602 0.180621 0.226673
0.0517281 0.172427 0.218875
0.0880293 0.163607 0.207935
0.206149 0.159838 0.202365
0.42594 0.11606 0.148058
0.555901 0.116701 0.0894179
0.61796 0.150866 0.0609903
0.6551 0.186511 0.0531167
0.671855 0.201755 0.051194
0.01944 0.26775 0.282643
0.0255741 0.26183 0.274998
0.0662547 0.265446 0.27483
0.236469 0.252171 0.251148
0.422415 0.230152 0.184283
0.535317 0.226246 0.147875
0.60209 0.216327 0.116274
0.654551 0.21677 0.0821393
0.685527 0.22443 0.0623331
0.00062562 0.391516 0.365087
0.000366217 0.387381 0.359457
0.00300603 0.402823 0.372198
0.149874 0.413611 0.371267
0.454612 0.388357 0.233234
0.611688 0.373724 0.131853
0.679759 0.352651 0.106783
0.725155 0.322606 0.0744182
0.741741 0.293034 0.0513924
0 0.506386 0.46952
0 0.505074 0.46714
0 0.513939 0.47303
0.0620279 0.547768 0.484901
0.324407 0.508858 0.380911
0.625895 0.51487 0.234318
0.747173 0.506554 0.0674144
0.796597 0.481575 0.031693
0.830945 0.459098 0.0131533
0 0.593088 0.549538
0 0.592599 0.547707
0 0.602106 0.553536
0.0108186 0.625238 0.556832
0.274907 0.601328 0.492531
0.495308 0.597711 0.420844
0.734264 0.605692 0.255314
0.842374 0.603418 0.0463264
0.870451 0.576577 0.00415045
0 0.675349 0.626657
0 0.674311 0.624018
0 0.683558 0.628412
0.000137331 0.692149 0.622843
0.244862 0.696864 0.586816
0.420279 0.690242 0.497963
0.618021 0.678431 0.471946
0.832609 0.692805 0.294148
0.934417 0.68365 0.0394141
0 0.731304 0.679194
0 0.734646 0.680735
0 0.747814 0.688029
0 0.7617 0.689326
0.207462 0.795239 0.687831
0.370031 0.774487 0.615839
0.528359 0.783185 0.551705
0.721233 0.770306 0.534768
0.92932 0.79942 0.404807
0.0903944 0.178576 0.240635
0.0914321 0.173404 0.234089
0.111818 0.175692 0.239963
0.198352 0.203586 0.286946
0.332143 0.223575 0.307591
0.481712 0.219944 0.308919
0.597848 0.188907 0.286549
0.690883 0.141344 0.239765
0.716808 0.124376 0.211017
0.0951247 0.197681 0.263447
0.0944686 0.188067 0.251591
0.111162 0.180545 0.242069
0.182422 0.198108 0.278386
0.31899 0.217166 0.298009
0.483391 0.205997 0.292134
0.607736 0.167422 0.260395
0.694316 0.130037 0.207507
0.721386 0.120851 0.170001
0.099794 0.253666 0.32871
0.102327 0.245975 0.319661
0.123964 0.237476 0.307439
0.200397 0.236881 0.310445
0.331563 0.24181 0.318257
0.488457 0.212879 0.294697
0.617075 0.166262 0.253422
0.704936 0.134661 0.196063
0.730343 0.134722 0.155169
0.074815 0.346395 0.411841
0.0798199 0.34049 0.405875
0.108797 0.339132 0.405493
0.234958 0.336507 0.396826
0.382086 0.320821 0.376593
0.543648 0.27187 0.324834
0.646677 0.21561 0.266773
0.71426 0.179232 0.205264
0.740963 0.181842 0.16788
0.0175174 0.440848 0.469993
0.0166629 0.436057 0.463584
0.0377356 0.445579 0.468315
0.209476 0.453376 0.467063
0.434577 0.445243 0.444648
0.579416 0.422248 0.393652
0.655482 0.401358 0.354559
0.709499 0.36907 0.304982
0.741131 0.320577 0.249302
0 0.523262 0.510567
0 0.521385 0.506249
0.000122072 0.532326 0.51104
0.14316 0.575387 0.54667
0.374197 0.577874 0.541268
0.604883 0.553841 0.434943
0.715694 0.534463 0.357595
0.781323 0.51223 0.312612
0.824903 0.489662 0.264179
0 0.600244 0.571176
0 0.599542 0.569451
0 0.611017 0.579049
0.0454108 0.666224 0.626215
0.328786 0.671016 0.616953
0.492668 0.642695 0.522927
0.716686 0.637797 0.435325
0.825925 0.623957 0.315984
0.889769 0.604776 0.248493
0 0.682536 0.647608
0 0.681636 0.645624
0 0.693263 0.654734
0.00175479 0.72285 0.678691
0.302113 0.757977 0.691539
0.451408 0.726284 0.619547
0.609033 0.71902 0.550439
0.826032 0.720607 0.44062
0.930968 0.703166 0.283238
0 0.740414 0.701976
0 0.74406 0.704341
0 0.759777 0.717235
0.0000457771 0.780026 0.732601
0.283482 0.829847 0.758831
0.455375 0.821805 0.724926
0.540932 0.818128 0.65243
0.708263 0.810513 0.619837
0.919768 0.823575 0.553796
0.121782 0.231769 0.308415
0.123964 0.226505 0.301625
0.146715 0.231006 0.308492
0.211978 0.250767 0.348104
0.30399 0.272969 0.371649
0.407797 0.285695 0.390005
0.482918 0.290028 0.395407
0.560983 0.279469 0.386358
0.590677 0.269947 0.378622
0.129061 0.255772 0.337591
0.130297 0.249439 0.329519
0.153918 0.247288 0.324331
0.214633 0.261128 0.35523
0.294362 0.272725 0.371847
0.400763 0.281865 0.384497
0.482551 0.283803 0.386435
0.573556 0.267659 0.373556
0.617197 0.253269 0.361654
0.138552 0.319142 0.412589
0.141146 0.312245 0.404181
0.161639 0.304845 0.393378
0.235599 0.308324 0.395285
0.316243 0.311376 0.413062
0.414664 0.306493 0.406622
0.491661 0.29456 0.395697
0.594644 0.270237 0.374212
0.646876 0.250919 0.35668
0.124865 0.410712 0.503105
0.128908 0.405234 0.498085
0.153979 0.405341 0.499748
0.267292 0.409796 0.496696
0.373465 0.402533 0.490105
0.469078 0.383642 0.469505
0.541985 0.347601 0.43743
0.631098 0.29575 0.391455
0.687633 0.268605 0.36524
0.0722362 0.506004 0.578012
0.0764477 0.501015 0.573327
0.104433 0.505638 0.577539
0.246571 0.513069 0.580713
0.425101 0.515221 0.57084
0.540719 0.500633 0.550774
0.636332 0.468849 0.514275
0.726619 0.420218 0.462913
0.767636 0.361944 0.41059
0.0110018 0.5729 0.614221
0.0113069 0.571679 0.612772
0.0254673 0.585565 0.62266
0.215869 0.600809 0.626123
0.415549 0.606363 0.618784
0.577752 0.592401 0.593637
0.674891 0.578882 0.563439
0.747707 0.567102 0.532952
0.794095 0.552666 0.498665
0.0000915541 0.621378 0.627268
0 0.618799 0.622553
0 0.629114 0.627344
0.177859 0.679469 0.664851
0.386069 0.692149 0.672648
0.542596 0.688136 0.663355
0.687495 0.668956 0.594293
0.788296 0.657023 0.5411
0.852293 0.647272 0.504814
0 0.690806 0.672343
0 0.689769 0.670115
0 0.702113 0.679667
0.0681468 0.761257 0.731838
0.350118 0.781765 0.747143
0.523095 0.778592 0.734142
0.613306 0.753399 0.662364
0.79823 0.748653 0.604562
0.896315 0.735958 0.524453
0 0.747478 0.723735
0 0.751003 0.725704
0 0.767971 0.740032
0.0198367 0.82005 0.785595
0.337133 0.848875 0.808133
0.520409 0.865187 0.810788
0.5906 0.860441 0.787045
0.714427 0.845441 0.732174
0.90399 0.852415 0.718425
0.146563 0.275288 0.363394
0.154055 0.275105 0.36231
0.19913 0.293721 0.386084
0.254475 0.30309 0.412879
0.309285 0.306874 0.423865
0.384146 0.322789 0.433188
0.449592 0.329641 0.446189
0.496406 0.334997 0.455741
0.510491 0.336217 0.456947
0.15555 0.303792 0.397848
0.159579 0.298634 0.391012
0.203876 0.311437 0.402304
0.269047 0.326055 0.434394
0.307637 0.318013 0.437064
0.379889 0.323735 0.433173
0.44683 0.328573 0.443503
0.497734 0.333989 0.453239
0.520729 0.33402 0.452842
0.166186 0.373053 0.480293
0.169024 0.367025 0.472923
0.195789 0.364477 0.46685
0.287968 0.378668 0.477531
0.337926 0.369451 0.487678
0.399634 0.361913 0.47454
0.46038 0.348302 0.461753
0.513451 0.346883 0.465141
0.547143 0.343374 0.460151
0.157565 0.460731 0.570565
0.160571 0.455604 0.565774
0.190753 0.457374 0.568872
0.30251 0.467491 0.569635
0.397559 0.466758 0.562097
0.457206 0.452903 0.560235
0.514031 0.425361 0.52961
0.55285 0.387945 0.501183
0.587793 0.368734 0.480568
0.117159 0.552285 0.646159
0.121431 0.546517 0.641306
0.159319 0.550378 0.64593
0.289296 0.558755 0.651911
0.437263 0.566033 0.647822
0.528222 0.560174 0.638117
0.58999 0.543053 0.619913
0.656123 0.514641 0.592111
0.696483 0.470512 0.551415
0.0639963 0.618662 0.695384
0.068452 0.616602 0.694118
0.114 0.624002 0.700557
0.266575 0.634592 0.705257
0.431708 0.643366 0.704555
0.564797 0.64155 0.69015
0.641733 0.630854 0.673396
0.731258 0.616678 0.650095
0.796002 0.598154 0.621836
0.0114137 0.663722 0.713924
0.0130465 0.661509 0.711757
0.0350042 0.685023 0.736263
0.240009 0.700343 0.740673
0.427283 0.710491 0.73698
0.571176 0.709102 0.725765
0.670253 0.695476 0.701534
0.761669 0.687526 0.677974
0.828214 0.685328 0.655131
0 0.714397 0.73106
0 0.713924 0.729397
0 0.727504 0.738369
0.204898 0.772213 0.770764
0.425269 0.789319 0.779751
0.560296 0.79733 0.785946
0.648692 0.790845 0.773083
0.776913 0.772671 0.716518
0.872633 0.765545 0.670512
0 0.756237 0.751553
0 0.759319 0.751705
0 0.785092 0.773709
0.139483 0.833021 0.816556
0.418051 0.857786 0.837827
0.55671 0.880812 0.857954
0.637751 0.896819 0.86215
0.714427 0.893004 0.833417
0.911437 0.885618 0.80209
0.169741 0.318303 0.417075
0.181689 0.321859 0.420157
0.265568 0.365515 0.472099
0.313741 0.367987 0.491005
0.333013 0.349172 0.482124
0.372839 0.348394 0.473518
0.422278 0.359091 0.480323
0.472984 0.364431 0.487251
0.49015 0.364843 0.491264
0.179248 0.354498 0.460792
0.185031 0.347753 0.45185
0.253407 0.372885 0.474571
0.322072 0.389639 0.50837
0.340261 0.368429 0.501183
0.375967 0.358022 0.484215
0.422095 0.360311 0.480583
0.476417 0.365179 0.487755
0.500038 0.365423 0.492943
0.187137 0.426123 0.545434
0.19115 0.420981 0.539254
0.23151 0.42417 0.538384
0.339956 0.445411 0.551934
0.380133 0.433387 0.556954
0.407309 0.411521 0.542779
0.445914 0.394766 0.517143
0.492988 0.38436 0.506493
0.520592 0.382727 0.510781
0.180346 0.503182 0.624811
0.183093 0.498924 0.620935
0.226368 0.505608 0.627573
0.335027 0.518639 0.631662
0.426246 0.521004 0.62327
0.474678 0.511635 0.630121
0.507744 0.490089 0.610376
0.54255 0.448875 0.566323
0.557107 0.418723 0.545083
0.150317 0.585855 0.695933
0.154696 0.581399 0.692363
0.207355 0.588113 0.700145
0.327306 0.597772 0.708507
0.455055 0.610056 0.710079
0.538201 0.610071 0.702174
0.580896 0.598169 0.700175
0.632181 0.579416 0.674571
0.661112 0.548272 0.649302
0.111284 0.648829 0.745876
0.115434 0.646418 0.744183
0.174563 0.654261 0.75259
0.311727 0.66537 0.7608
0.454063 0.67744 0.766491
0.558755 0.684153 0.767834
0.626398 0.679347 0.757946
0.693141 0.669444 0.741955
0.748409 0.659297 0.725155
0.0688792 0.700175 0.783291
0.0706493 0.69894 0.782284
0.129595 0.710262 0.793896
0.297108 0.72604 0.804501
0.455619 0.740154 0.80943
0.562066 0.747616 0.814893
0.646815 0.744656 0.806439
0.732769 0.733272 0.781155
0.809583 0.727611 0.762844
0.0168612 0.748943 0.805585
0.0170748 0.747295 0.803265
0.0479591 0.768414 0.825025
0.284627 0.791592 0.840314
0.470375 0.809247 0.847715
0.581643 0.818357 0.850767
0.667338 0.817136 0.843229
0.767376 0.80502 0.817502
0.859815 0.798199 0.793317
0.00173953 0.786847 0.823255
0.000686656 0.789288 0.822019
0.0369726 0.816861 0.844709
0.25034 0.841932 0.86125
0.501457 0.869276 0.877638
0.621973 0.889708 0.892393
0.695552 0.911589 0.910536
0.763424 0.938079 0.927932
0.927291 0.923812 0.877272
0.181003 0.340215 0.444434
0.196536 0.347036 0.451011
0.307988 0.410727 0.523293
0.351156 0.409232 0.537926
0.355428 0.379736 0.519295
0.37258 0.362295 0.495094
0.416251 0.370855 0.497627
0.46247 0.377935 0.503182
0.480323 0.379797 0.505364
0.192355 0.388006 0.502022
0.199725 0.381704 0.493538
0.285389 0.415274 0.522942
0.354009 0.432639 0.554803
0.373693 0.411948 0.549798
0.38381 0.385992 0.523018
0.414969 0.377691 0.506661
0.461311 0.384161 0.51014
0.485313 0.386282 0.512352
0.199435 0.46331 0.590524
0.205234 0.461418 0.58819
0.254032 0.467063 0.58909
0.363546 0.483055 0.592889
0.402792 0.474174 0.600046
0.424308 0.453544 0.594476
0.449866 0.431586 0.566323
0.478187 0.41033 0.538293
0.50399 0.408499 0.536004
0.192889 0.532769 0.661372
0.197665 0.531365 0.660899
0.254276 0.541588 0.671305
0.355978 0.555856 0.676066
0.442191 0.558007 0.669993
0.487892 0.552438 0.678035
0.517968 0.537514 0.669886
0.540566 0.505699 0.634089
0.545892 0.461769 0.588952
0.170245 0.607385 0.727428
0.176852 0.606088 0.727565
0.245136 0.616602 0.73991
0.355978 0.629084 0.751644
0.454627 0.646159 0.766445
0.528389 0.650874 0.771542
0.581582 0.642588 0.770733
0.627985 0.629847 0.752895
0.652995 0.609552 0.722988
0.142046 0.666529 0.776806
0.148699 0.666621 0.778531
0.222049 0.678492 0.791974
0.348486 0.693309 0.806546
0.446006 0.71252 0.832013
0.530266 0.725643 0.84918
0.609796 0.723018 0.841566
0.680583 0.713512 0.828977
0.72668 0.706691 0.814847
0.109148 0.714916 0.813794
0.115663 0.716213 0.816739
0.190997 0.732433 0.834501
0.343542 0.754849 0.855528
0.436927 0.782605 0.89044
0.520775 0.795026 0.910399
0.618967 0.793118 0.903166
0.713771 0.781506 0.878752
0.771969 0.775372 0.867796
0.0703441 0.769985 0.85417
0.0746014 0.770794 0.855955
0.141558 0.786694 0.872129
0.351095 0.8168 0.899397
0.458824 0.858091 0.943145
0.558434 0.872068 0.955474
0.640116 0.874311 0.958999
0.73608 0.86247 0.94667
0.825467 0.84538 0.917922
0.0535897 0.806485 0.874296
0.0569619 0.811063 0.878737
0.127565 0.827756 0.893462
0.342748 0.859403 0.919631
0.518563 0.90724 0.962478
0.642756 0.928664 0.973373
0.714656 0.950072 0.997482
0.810788 0.969924 0.999985
0.930129 0.978988 0.993851
