site/assets/luts/freshluts--0001006-picturefx-superia-sakura-vii-full-lut-adjust-only-exposure-u.cube
# LUTr-Schema-Version: 2
# LUTr-ID: freshluts--0001006-picturefx-superia-sakura-vii-full-lut-adjust-only-exposure-u
# LUTr-Title: PictureFX Superia Sakura v.II - full lut, adjust only exposure - used on Olympus/Panasonic sensor
# LUTr-Collection: Fresh LUTs
# LUTr-Collection-ID: freshluts-community
# LUTr-Source: https://freshluts.com
# LUTr-Retrieved: 2026-07-27
# LUTr-Source-File: submissions-raw/freshluts/cubes/1006__PictureFX-Superia-Sakura-vII-Oly-Pana.cube
# LUTr-Source-Format: CUBE
# LUTr-Source-SHA256: 9596651a9d5f773b2c630b5b3b268f15a8aa2bca1e91decb41f717ce08298d54
# LUTr-License: CC0-1.0
# LUTr-License-URL: https://freshluts.com/termsandconditions
# LUTr-License-Basis: site-terms
# LUTr-Transform-Class: creative-look
# LUTr-Tags: creative, freshluts, community, cube, film-emulation, rec709, assumed-input
# LUTr-Input-Color-Space: rec709
# LUTr-Input-Gamut: rec709
# LUTr-Input-Transfer: rec709
# LUTr-Output-Color-Space: srgb
# LUTr-Output-Gamut: rec709
# LUTr-Output-Transfer: srgb
# LUTr-Color-Space-Confidence: assumed-display-referred
# LUTr-Domain-Normalized: true
# LUTr-Shaper: none
# LUTr-Original-Grid: 25x25x25
# LUTr-Conversion-Grid: 25x25x25
# LUTr-Conversion-Interpolation: none
# LUTr-Conversion-Method: Metadata normalization; numeric LUT samples preserved
# LUTr-Conversion-Tool: LUTr scripts/convert-all-to-cube.mjs 2.0.0
# LUTr-Conversion-Date: 2026-07-28
# LUTr-Asset-URL: https://freshluts.com/luts/1006
# LUTr-Author: MarcR.
# LUTr-Author-URL: https://freshluts.com/users/86490
# LUTr-Attribution: MarcR. via Fresh LUTs
# LUTr-Source-Labels: gamma=Other; color=None; key=Neutral; style=Film emulation; LUTr assumption=input Rec.709 per repository policy
# LUTr-Conversion-Warning: Input Rec.709 is a LUTr catalog assumption requested for this otherwise unspecified Fresh LUT; it is not verified by the upstream asset.
# LUTr-Note: Preserve this metadata and the upstream license notices when redistributing.
# LUTr-Upstream-Comment: Generated with IWLTBAP LUT Generator
# LUTr-Upstream-Comment: Website: http://luts.iwltbap.com
# LUTr-Upstream-Comment: LUT size
# LUTr-Upstream-Comment: LUT data points
TITLE "PictureFX Superia Sakura v.II - full lut, adjust only exposure - used on Olympus/Panasonic sensor"
LUT_3D_SIZE 5
DOMAIN_MIN 0 0 0
DOMAIN_MAX 1 1 1
0 0 0
0.058824 0 0
0.278431 0 0.003922
0.701961 0 0.003922
1 0.094118 0.168627
0 0.082353 0
0.094118 0.098039 0
0.34902 0.160784 0.003922
0.737255 0.211765 0
1 0.286275 0.196078
0 0.423529 0
0.156863 0.443137 0
0.466667 0.490196 0
0.768627 0.517647 0.105882
1 0.556863 0.270588
0 0.788235 0.141176
0.176471 0.788235 0.156863
0.501961 0.796078 0.203922
0.772549 0.803922 0.27451
1 0.815686 0.403922
0.356863 1 0.431373
0.435294 1 0.443137
0.607843 1 0.470588
0.803922 1 0.52549
0.980392 1 0.596078
0 0 0.062745
0.082353 0 0.086275
0.333333 0 0.152941
0.72549 0 0.227451
1 0.12549 0.301961
0 0.105882 0.109804
0.121569 0.129412 0.129412
0.388235 0.180392 0.184314
0.752941 0.219608 0.239216
1 0.298039 0.321569
0 0.45098 0.211765
0.164706 0.466667 0.219608
0.478431 0.498039 0.239216
0.772549 0.521569 0.282353
1 0.564706 0.372549
0 0.788235 0.301961
0.192157 0.792157 0.309804
0.505882 0.796078 0.333333
0.776471 0.807843 0.380392
1 0.819608 0.47451
0.372549 1 0.501961
0.447059 1 0.509804
0.611765 1 0.533333
0.803922 1 0.576471
0.980392 1 0.639216
0 0 0.368627
0.156863 0 0.396078
0.439216 0 0.462745
0.764706 0 0.513725
1 0.203922 0.54902
0 0.192157 0.423529
0.176471 0.2 0.443137
0.466667 0.219608 0.490196
0.772549 0.25098 0.521569
1 0.337255 0.560784
0 0.501961 0.513725
0.172549 0.505882 0.517647
0.498039 0.52549 0.537255
0.780392 0.541176 0.54902
1 0.584314 0.592157
0 0.8 0.560784
0.231373 0.8 0.564706
0.521569 0.807843 0.580392
0.780392 0.815686 0.603922
0.992157 0.827451 0.654902
0.415686 1 0.670588
0.478431 1 0.67451
0.627451 1 0.690196
0.807843 1 0.717647
0.972549 1 0.756863
0 0.094118 0.772549
0.176471 0.109804 0.776471
0.482353 0.141176 0.788235
0.772549 0.196078 0.803922
1 0.317647 0.819608
0 0.266667 0.784314
0.196078 0.27451 0.784314
0.494118 0.290196 0.796078
0.776471 0.32549 0.811765
1 0.415686 0.823529
0 0.533333 0.803922
0.231373 0.537255 0.803922
0.513725 0.54902 0.811765
0.784314 0.572549 0.827451
1 0.623529 0.839216
0.156863 0.815686 0.831373
0.313725 0.815686 0.835294
0.54902 0.823529 0.839216
0.792157 0.835294 0.85098
0.984314 0.847059 0.862745
0.490196 1 0.870588
0.537255 1 0.870588
0.662745 1 0.878431
0.819608 1 0.890196
0.964706 1 0.901961
0.235294 0.333333 1
0.345098 0.341176 1
0.556863 0.368627 1
0.792157 0.419608 1
1 0.494118 1
0.266667 0.411765 1
0.364706 0.419608 1
0.568627 0.443137 1
0.796078 0.486275 1
0.996078 0.552941 1
0.337255 0.607843 1
0.419608 0.611765 1
0.596078 0.627451 1
0.8 0.658824 1
0.988235 0.701961 1
0.45098 0.839216 1
0.505882 0.839216 1
0.643137 0.847059 1
0.811765 0.858824 1
0.972549 0.87451 1
0.588235 1 1
0.623529 1 1
0.709804 1 1
0.835294 1 1
0.960784 1 1
