site/assets/luts/freshluts--0000405-correction-faded.cube
# LUTr-Schema-Version: 2
# LUTr-ID: freshluts--0000405-correction-faded
# LUTr-Title: Correction Faded
# LUTr-Collection: Fresh LUTs
# LUTr-Collection-ID: freshluts-community
# LUTr-Source: https://freshluts.com
# LUTr-Retrieved: 2026-07-27
# LUTr-Source-File: submissions-raw/freshluts/cubes/405__Wine_bottle_1.MVI_3956.cube
# LUTr-Source-Format: CUBE
# LUTr-Source-SHA256: c39fee33cbf051f28b683a3e84c9393dbe898d94298bd6da351c69f5cf328a02
# LUTr-License: CC0-1.0
# LUTr-License-URL: https://freshluts.com/termsandconditions
# LUTr-License-Basis: site-terms
# LUTr-Transform-Class: creative-look
# LUTr-Tags: creative, freshluts, community, cube, faded, vintage, brown, low-key, canon-cinestyle, correction
# LUTr-Input-Color-Space: canon-cinestyle
# LUTr-Input-Gamut: rec709
# LUTr-Input-Transfer: canon-cinestyle
# LUTr-Output-Color-Space: srgb
# LUTr-Output-Gamut: rec709
# LUTr-Output-Transfer: srgb
# LUTr-Color-Space-Confidence: inferred-from-source-label
# LUTr-Domain-Normalized: true
# LUTr-Shaper: none
# LUTr-Original-Grid: 33x33x33
# LUTr-Conversion-Grid: 33x33x33
# LUTr-Conversion-Interpolation: none
# LUTr-Conversion-Method: Metadata normalization; numeric LUT samples preserved
# LUTr-Conversion-Tool: LUTr scripts/convert-all-to-cube.mjs 2.0.0
# LUTr-Conversion-Date: 2026-07-28
# LUTr-Asset-URL: https://freshluts.com/luts/405
# LUTr-Author: Jùan
# LUTr-Author-URL: https://freshluts.com/users/23428
# LUTr-Attribution: Jùan via Fresh LUTs
# LUTr-Source-Labels: gamma=Canon Cinestyle; color=Brown; key=Low Key; style=Faded
# LUTr-Note: Preserve this metadata and the upstream license notices when redistributing.
TITLE "Correction Faded"
LUT_3D_SIZE 33
DOMAIN_MIN 0 0 0
DOMAIN_MAX 1 1 1
0.111147 0.142504 0.169741
0.11284 0.142809 0.170047
0.114855 0.14313 0.170382
0.117311 0.143359 0.170596
0.120653 0.143465 0.170703
0.125429 0.14345 0.170672
0.131685 0.143297 0.17052
0.139254 0.14313 0.170321
0.14818 0.142992 0.170169
0.158373 0.142855 0.170001
0.170016 0.142733 0.169863
0.183047 0.142702 0.169802
0.197345 0.14284 0.169909
0.21265 0.143099 0.170123
0.228153 0.143435 0.170443
0.243381 0.143877 0.170871
0.258076 0.144366 0.171328
0.27248 0.144991 0.171954
0.2869 0.14583 0.172778
0.301335 0.146807 0.17377
0.315831 0.14786 0.174823
0.330312 0.148943 0.175906
0.344274 0.150118 0.177096
0.358526 0.151369 0.178363
0.373526 0.152789 0.179797
0.389532 0.154467 0.181506
0.405921 0.156146 0.183185
0.422568 0.157824 0.184894
0.439673 0.159579 0.186664
0.457389 0.161501 0.188632
0.474922 0.163424 0.19057
0.49192 0.165393 0.192569
0.507424 0.167437 0.194644
0.112306 0.144717 0.170809
0.114076 0.145068 0.17116
0.116136 0.145403 0.171496
0.118746 0.145739 0.171832
0.122271 0.145937 0.17203
0.12723 0.145983 0.172061
0.13373 0.145907 0.171984
0.141527 0.145785 0.171862
0.150713 0.145693 0.171756
0.161349 0.145693 0.17174
0.173648 0.145785 0.171832
0.187304 0.145907 0.171954
0.20209 0.14612 0.172152
0.218006 0.146517 0.172519
0.234104 0.147051 0.173037
0.250233 0.147799 0.17377
0.26627 0.14876 0.174731
0.281834 0.149798 0.175753
0.296925 0.150881 0.176822
0.31191 0.152087 0.178027
0.327413 0.153552 0.179477
0.342458 0.155077 0.181003
0.357412 0.156741 0.18265
0.373053 0.158572 0.184466
0.388998 0.160372 0.186267
0.40531 0.16228 0.188159
0.422248 0.164355 0.190234
0.439597 0.166506 0.19237
0.457176 0.168658 0.194522
0.474754 0.170855 0.196704
0.492226 0.17319 0.199039
0.507866 0.175402 0.201236
0.523766 0.177798 0.203632
0.113497 0.147234 0.171923
0.11545 0.147738 0.172396
0.117647 0.14818 0.172839
0.120363 0.148562 0.17322
0.124086 0.148882 0.173526
0.12932 0.14905 0.173693
0.136217 0.149157 0.173785
0.144549 0.149264 0.173907
0.154314 0.149386 0.174029
0.165393 0.149493 0.174136
0.178195 0.149706 0.17435
0.192859 0.150179 0.174807
0.208942 0.150835 0.175463
0.226017 0.151644 0.176257
0.243168 0.15259 0.177172
0.260044 0.153582 0.178164
0.276631 0.154757 0.179309
0.293126 0.156207 0.180713
0.30959 0.1579 0.182376
0.32578 0.159655 0.1841
0.341512 0.161456 0.18584
0.357076 0.163409 0.187762
0.372686 0.165408 0.1897
0.388983 0.167529 0.191791
0.405936 0.169894 0.19411
0.422766 0.172259 0.196414
0.439918 0.174624 0.198734
0.457359 0.177066 0.201114
0.475303 0.179751 0.203754
0.492851 0.182376 0.206332
0.508812 0.185 0.208896
0.525292 0.187869 0.211704
0.54136 0.190677 0.21445
0.114733 0.150332 0.173068
0.116793 0.150912 0.173632
0.119265 0.151598 0.174273
0.122332 0.152255 0.174899
0.126406 0.152819 0.175448
0.132052 0.153216 0.17583
0.139361 0.15349 0.176104
0.148226 0.153826 0.17644
0.158801 0.15433 0.176928
0.171191 0.155047 0.177615
0.185245 0.155764 0.178332
0.200885 0.156527 0.179065
0.217975 0.157504 0.180026
0.235767 0.158618 0.181094
0.253849 0.159945 0.182391
0.272038 0.161563 0.183932
0.28986 0.163317 0.185626
0.307027 0.165103 0.18735
0.323857 0.167041 0.189197
0.340612 0.169253 0.191318
0.356435 0.17142 0.193408
0.37261 0.173739 0.195621
0.389303 0.176287 0.198062
0.406195 0.17882 0.200488
0.423148 0.18143 0.202991
0.440497 0.184268 0.205722
0.458274 0.187259 0.208591
0.475975 0.190219 0.211429
0.493507 0.193179 0.214267
0.509819 0.196292 0.217258
0.526085 0.199344 0.220188
0.542535 0.202548 0.223255
0.559136 0.206088 0.226658
0.116045 0.154498 0.174319
0.11841 0.155383 0.175128
0.121096 0.156252 0.175921
0.124453 0.157168 0.176761
0.129046 0.158114 0.177646
0.135424 0.15903 0.1785
0.143709 0.159915 0.179339
0.153658 0.160861 0.180224
0.165057 0.1617 0.181033
0.178103 0.162631 0.181918
0.193347 0.163867 0.183093
0.210422 0.165209 0.18436
0.228687 0.166705 0.185794
0.247486 0.168338 0.187335
0.266346 0.170047 0.188952
0.284916 0.171878 0.190661
0.303197 0.173922 0.192584
0.321263 0.176272 0.194781
0.338766 0.178653 0.197009
0.354925 0.181064 0.199252
0.371588 0.183749 0.20177
0.388464 0.186496 0.204334
0.405631 0.18941 0.207065
0.423148 0.192569 0.210025
0.440757 0.195804 0.213046
0.458183 0.199023 0.216052
0.475761 0.202304 0.219135
0.493645 0.205905 0.222507
0.509972 0.209308 0.225696
0.526253 0.212818 0.228977
0.543038 0.216587 0.232502
0.559564 0.220264 0.23595
0.575891 0.224063 0.239506
0.117174 0.160037 0.175448
0.120058 0.161456 0.176684
0.123415 0.162997 0.178042
0.127504 0.164599 0.179446
0.132753 0.166094 0.180774
0.139788 0.167468 0.181994
0.148714 0.168734 0.183139
0.159472 0.170123 0.184405
0.172259 0.171786 0.185916
0.186603 0.173373 0.187381
0.202762 0.17496 0.188846
0.220798 0.176699 0.190433
0.239597 0.178531 0.192111
0.2589 0.180438 0.193866
0.278386 0.182544 0.195789
0.297749 0.184894 0.197925
0.316396 0.187259 0.200076
0.3346 0.189822 0.202396
0.352102 0.192737 0.205035
0.368978 0.195697 0.207706
0.386206 0.19881 0.210513
0.403937 0.202182 0.213565
0.421469 0.205615 0.216693
0.439017 0.20911 0.219852
0.456794 0.212802 0.223209
0.474708 0.216785 0.226841
0.492332 0.220645 0.23035
0.508995 0.224475 0.233829
0.525231 0.228534 0.237522
0.54165 0.232486 0.241108
0.558206 0.236561 0.244816
0.574945 0.240894 0.248753
0.591379 0.245319 0.252796
0.119417 0.168383 0.1776
0.122698 0.17026 0.179156
0.126482 0.17229 0.180835
0.131167 0.174487 0.182681
0.137179 0.176684 0.184543
0.145113 0.17879 0.186328
0.1552 0.18088 0.188128
0.166781 0.182757 0.189746
0.180117 0.184619 0.191394
0.195407 0.186725 0.19324
0.212543 0.188754 0.195041
0.23125 0.190845 0.196902
0.250538 0.193027 0.198825
0.270436 0.195361 0.20087
0.290227 0.197742 0.202976
0.309865 0.200366 0.20528
0.329427 0.203464 0.20798
0.347997 0.206546 0.210681
0.36524 0.209735 0.213458
0.382773 0.21326 0.216526
0.400641 0.216907 0.21973
0.418585 0.220706 0.223056
0.436454 0.22475 0.226596
0.454582 0.228992 0.23032
0.472328 0.233127 0.233967
0.489815 0.237354 0.23769
0.507271 0.241901 0.241688
0.523033 0.246189 0.245472
0.53933 0.250568 0.249317
0.555978 0.255177 0.253391
0.572534 0.259754 0.257435
0.588876 0.264317 0.261479
0.605051 0.269062 0.265675
0.122454 0.179141 0.180514
0.126452 0.181872 0.182666
0.131014 0.184756 0.184955
0.136324 0.18761 0.187228
0.143053 0.190478 0.189548
0.151583 0.193011 0.191608
0.162203 0.195407 0.193591
0.174853 0.197986 0.195743
0.189059 0.200351 0.197726
0.204913 0.202686 0.19971
0.222873 0.205097 0.20177
0.242206 0.20766 0.203952
0.262013 0.210224 0.206149
0.282368 0.21294 0.208453
0.303029 0.216022 0.211048
0.323049 0.219043 0.213611
0.342596 0.222309 0.216373
0.361181 0.226032 0.219516
0.37908 0.229801 0.22269
0.397116 0.233799 0.226062
0.415488 0.238025 0.229648
0.433722 0.242435 0.233387
0.451606 0.246845 0.23714
0.46952 0.251392 0.241016
0.487633 0.256336 0.245243
0.504967 0.261067 0.249302
0.520958 0.265736 0.253285
0.537041 0.270649 0.257496
0.553292 0.275471 0.261616
0.569574 0.280278 0.265736
0.585946 0.285252 0.269993
0.602304 0.290394 0.274418
0.618128 0.29543 0.278737
0.126848 0.193103 0.184695
0.131289 0.196399 0.187152
0.136416 0.199954 0.189853
0.14229 0.203418 0.192508
0.149554 0.206775 0.195117
0.158968 0.21004 0.197696
0.170275 0.212863 0.199939
0.183383 0.215641 0.202167
0.198611 0.218662 0.204623
0.215473 0.221546 0.206973
0.234226 0.224445 0.209369
0.253956 0.227314 0.211734
0.274464 0.230457 0.214313
0.295201 0.233524 0.216831
0.315999 0.23682 0.219547
0.336889 0.24065 0.222675
0.356603 0.24445 0.225772
0.374975 0.248386 0.228992
0.393423 0.252705 0.232532
0.412055 0.257282 0.236301
0.430488 0.261921 0.240116
0.448737 0.266712 0.244068
0.467094 0.271931 0.248386
0.484901 0.276905 0.252506
0.502373 0.281956 0.256687
0.519219 0.287343 0.261158
0.534676 0.292393 0.265324
0.550576 0.297475 0.269551
0.566735 0.302724 0.273915
0.582971 0.308034 0.27834
0.598947 0.313146 0.282612
0.61471 0.318273 0.286885
0.630396 0.323751 0.291493
0.132097 0.209796 0.18967
0.137072 0.213748 0.192538
0.14258 0.217746 0.195468
0.149096 0.221912 0.19855
0.156909 0.225757 0.20145
0.166873 0.229404 0.204227
0.179309 0.233112 0.20708
0.193332 0.236469 0.209705
0.20914 0.239734 0.212284
0.226841 0.24303 0.214908
0.246418 0.24654 0.2177
0.266682 0.249882 0.220371
0.287556 0.253346 0.223133
0.309148 0.257176 0.226169
0.330297 0.260868 0.229114
0.35111 0.264805 0.232227
0.37084 0.269261 0.235767
0.3897 0.273732 0.239307
0.40856 0.278477 0.243076
0.427329 0.283452 0.247059
0.446067 0.288762 0.251301
0.464286 0.293919 0.255451
0.482155 0.299214 0.259709
0.500099 0.304875 0.264286
0.517189 0.310277 0.268635
0.53257 0.315618 0.272953
0.548257 0.321111 0.277394
0.564065 0.326574 0.281834
0.579751 0.331823 0.286091
0.595468 0.337072 0.290379
0.611337 0.342611 0.294896
0.626719 0.34786 0.299168
0.641688 0.353124 0.303456
0.137789 0.228916 0.195087
0.143404 0.233661 0.198428
0.149493 0.238346 0.20177
0.156527 0.243046 0.205173
0.165255 0.247807 0.208652
0.175906 0.251972 0.211734
0.188815 0.255879 0.214679
0.203937 0.260044 0.217823
0.220752 0.26392 0.220783
0.239353 0.267781 0.223758
0.25922 0.27155 0.226673
0.280278 0.275563 0.22977
0.301518 0.279377 0.232715
0.323171 0.28333 0.235782
0.345098 0.287816 0.239231
0.365942 0.29218 0.242618
0.385367 0.296742 0.246128
0.404639 0.30164 0.249912
0.424033 0.306966 0.254063
0.442725 0.31223 0.258183
0.461128 0.317601 0.262394
0.479637 0.32343 0.266972
0.497276 0.329 0.271366
0.514473 0.334569 0.275761
0.530877 0.340414 0.280385
0.54583 0.345861 0.284688
0.56112 0.351278 0.288991
0.576547 0.356756 0.293355
0.592203 0.362402 0.297841
0.607492 0.367666 0.302037
0.622568 0.372824 0.306127
0.637659 0.378241 0.31043
0.652033 0.383352 0.314504
0.144579 0.251133 0.201541
0.150576 0.256336 0.205112
0.157366 0.261875 0.208957
0.16495 0.267155 0.21268
0.174166 0.272328 0.216358
0.185931 0.277485 0.220096
0.199771 0.282017 0.223438
0.215457 0.286397 0.226673
0.233112 0.290669 0.229862
0.252659 0.295247 0.23331
0.27303 0.299428 0.236484
0.294316 0.303609 0.239628
0.316381 0.308156 0.243076
0.338323 0.312428 0.246311
0.360113 0.316854 0.249653
0.380865 0.321798 0.253391
0.40058 0.326665 0.257053
0.420127 0.331807 0.260975
0.439307 0.337163 0.265064
0.458259 0.343023 0.269551
0.476509 0.348577 0.273838
0.494301 0.354162 0.278157
0.511864 0.360143 0.282795
0.528496 0.365774 0.28716
0.543511 0.371313 0.291463
0.558495 0.376944 0.295857
0.573709 0.38262 0.300282
0.588602 0.3879 0.304387
0.603464 0.393057 0.3084
0.61857 0.39852 0.312657
0.633204 0.403601 0.316625
0.647547 0.408606 0.320531
0.661631 0.41384 0.324636
0.152316 0.275944 0.208865
0.158938 0.281865 0.212879
0.166201 0.287892 0.216999
0.174716 0.294148 0.221347
0.184573 0.29984 0.22536
0.196796 0.30515 0.22916
0.211734 0.310475 0.233021
0.228367 0.315358 0.236591
0.246967 0.32015 0.240116
0.266728 0.324788 0.243565
0.287892 0.329625 0.247166
0.309514 0.334035 0.250446
0.331502 0.338491 0.253758
0.354101 0.343359 0.257389
0.375814 0.348013 0.260853
0.396063 0.352819 0.264393
0.416037 0.35787 0.268177
0.436057 0.363485 0.272389
0.454978 0.368902 0.276478
0.47332 0.374426 0.280659
0.491676 0.380407 0.285206
0.509133 0.386069 0.289525
0.525872 0.391714 0.293858
0.541802 0.397559 0.298329
0.556237 0.402914 0.302434
0.570764 0.40824 0.306508
0.585351 0.41352 0.310552
0.600214 0.419074 0.314809
0.614664 0.424094 0.318654
0.628901 0.428916 0.322347
0.642969 0.433829 0.326497
0.656382 0.43827 0.330602
0.66949 0.442756 0.334783
0.161089 0.303151 0.217121
0.16846 0.309926 0.221683
0.176272 0.316457 0.226139
0.185168 0.322942 0.230625
0.196063 0.329564 0.235264
0.20911 0.335393 0.239414
0.224567 0.34081 0.24332
0.242054 0.346014 0.247105
0.261616 0.351415 0.251057
0.281758 0.356313 0.254658
0.302983 0.361044 0.258137
0.325338 0.366033 0.261814
0.347585 0.370657 0.265217
0.369955 0.37528 0.26862
0.391424 0.380301 0.272312
0.41181 0.385107 0.275837
0.431922 0.390173 0.279576
0.451484 0.395483 0.283513
0.470588 0.401297 0.287861
0.488655 0.40679 0.291997
0.506157 0.412238 0.296101
0.523354 0.41799 0.300465
0.539422 0.423407 0.30457
0.553948 0.428733 0.308583
0.568292 0.433997 0.312566
0.582757 0.43946 0.316701
0.596796 0.444358 0.320409
0.61033 0.448875 0.324453
0.624063 0.453559 0.328771
0.637507 0.457847 0.332784
0.650767 0.461997 0.33669
0.663951 0.466239 0.340749
0.676432 0.470085 0.344442
0.171283 0.332601 0.226658
0.179049 0.339651 0.231418
0.187747 0.347051 0.236484
0.197223 0.353979 0.241291
0.208453 0.360586 0.245945
0.222446 0.366995 0.250523
0.238804 0.372808 0.254704
0.257115 0.378286 0.258701
0.276799 0.383551 0.262547
0.297658 0.388983 0.266529
0.319173 0.39379 0.270054
0.341329 0.398413 0.273442
0.364004 0.403357 0.277058
0.386282 0.407935 0.2804
0.407019 0.412573 0.283772
0.427604 0.417365 0.287282
0.448081 0.422705 0.291203
0.467201 0.427756 0.294926
0.485512 0.432914 0.298772
0.503532 0.43856 0.302998
0.520607 0.443839 0.306981
0.536965 0.449042 0.310903
0.5523 0.454414 0.314961
0.565972 0.459144 0.3187
0.579339 0.463569 0.322789
0.592554 0.467994 0.326894
0.606012 0.472618 0.331167
0.61912 0.476753 0.335027
0.632105 0.48069 0.338689
0.645182 0.484733 0.342489
0.657877 0.488441 0.345968
0.67039 0.492149 0.349462
0.682597 0.495872 0.353017
0.18291 0.363699 0.237461
0.19118 0.371084 0.242496
0.200137 0.37847 0.247608
0.210437 0.386023 0.252918
0.22237 0.392996 0.257877
0.236805 0.399374 0.262455
0.25388 0.405249 0.266728
0.273075 0.41117 0.271077
0.292943 0.416403 0.274922
0.31368 0.421408 0.278599
0.335775 0.426551 0.282383
0.358099 0.431159 0.285756
0.380499 0.435645 0.289052
0.402258 0.440253 0.292409
0.423087 0.444633 0.295598
0.443626 0.449104 0.298894
0.463523 0.453834 0.302373
0.482765 0.459052 0.306264
0.50074 0.463966 0.309926
0.517815 0.468849 0.313573
0.534157 0.473762 0.317708
0.549233 0.478202 0.321752
0.562722 0.482628 0.325765
0.57583 0.486946 0.329686
0.589075 0.491417 0.333776
0.60177 0.495399 0.337438
0.614389 0.499214 0.340963
0.627237 0.503227 0.344701
0.639857 0.506874 0.348135
0.652369 0.510399 0.351476
0.664912 0.514061 0.354971
0.676951 0.517327 0.358114
0.68864 0.520607 0.361303
0.195575 0.395331 0.249104
0.204623 0.403342 0.254673
0.214115 0.410971 0.26006
0.224643 0.418357 0.265324
0.237156 0.425498 0.270497
0.252338 0.431998 0.275273
0.269993 0.437797 0.279576
0.289113 0.443275 0.28368
0.309606 0.448829 0.287816
0.330526 0.453696 0.291432
0.352255 0.458213 0.294774
0.374807 0.462837 0.298161
0.397055 0.467109 0.301274
0.418021 0.47129 0.30425
0.438956 0.475547 0.307301
0.4598 0.480247 0.310674
0.479194 0.484627 0.313832
0.497063 0.488655 0.317525
0.51429 0.493141 0.321614
0.530343 0.497368 0.325505
0.545617 0.501534 0.329305
0.560052 0.50576 0.333196
0.572717 0.509606 0.336736
0.585382 0.513344 0.340185
0.59794 0.517082 0.343664
0.610544 0.521065 0.347387
0.622858 0.524605 0.350729
0.635065 0.527977 0.353933
0.647425 0.531456 0.357275
0.659495 0.5346 0.360296
0.671458 0.537743 0.363333
0.683238 0.540841 0.366354
0.694835 0.544167 0.369589
0.209659 0.427665 0.261952
0.218799 0.435264 0.267414
0.228763 0.443 0.273014
0.239796 0.450492 0.278492
0.252644 0.457511 0.28365
0.268315 0.463966 0.288411
0.286656 0.470161 0.292988
0.305776 0.475502 0.296941
0.325963 0.480476 0.300618
0.34728 0.485557 0.304372
0.369131 0.489998 0.307637
0.391409 0.494133 0.310643
0.412909 0.498222 0.313558
0.433845 0.501915 0.316457
0.454261 0.50518 0.3196
0.473976 0.508644 0.322866
0.492805 0.512551 0.326528
0.510155 0.516213 0.329931
0.52639 0.51986 0.333318
0.541894 0.523751 0.336934
0.556481 0.527382 0.340291
0.569757 0.530983 0.343633
0.582147 0.534554 0.346975
0.594766 0.538308 0.350484
0.606912 0.541665 0.353658
0.61883 0.544961 0.356786
0.630976 0.54844 0.360128
0.642893 0.551629 0.36318
0.65478 0.554696 0.36614
0.666728 0.55787 0.369223
0.678355 0.560754 0.372
0.689738 0.563592 0.374731
0.700832 0.566476 0.377539
0.224369 0.459571 0.275273
0.234012 0.467536 0.280995
0.24416 0.475196 0.28658
0.255436 0.482612 0.292027
0.268818 0.489693 0.297307
0.284703 0.495872 0.301915
0.302754 0.501472 0.306127
0.322393 0.507042 0.310292
0.342626 0.511788 0.313802
0.363485 0.516121 0.316991
0.385321 0.519905 0.320363
0.407279 0.523186 0.323598
0.427619 0.526192 0.326558
0.448096 0.529137 0.329427
0.468421 0.532326 0.332494
0.487388 0.535241 0.335271
0.50518 0.538247 0.33814
0.522194 0.541756 0.341405
0.537926 0.545113 0.344549
0.552743 0.548501 0.347723
0.566842 0.55198 0.350973
0.579339 0.555261 0.354055
0.59144 0.55848 0.357076
0.60351 0.5617 0.360128
0.615625 0.565164 0.363439
0.627298 0.568322 0.366461
0.638926 0.571328 0.369375
0.650675 0.574487 0.372396
0.662226 0.577325 0.375113
0.673716 0.580118 0.377798
0.685069 0.582895 0.380438
0.696406 0.585855 0.383276
0.707179 0.588571 0.38587
0.23949 0.491432 0.288884
0.249226 0.499092 0.29453
0.259724 0.506737 0.300221
0.271229 0.513924 0.305608
0.284672 0.520638 0.310658
0.300908 0.52694 0.315373
0.318807 0.532128 0.319295
0.338308 0.536324 0.323354
0.358846 0.540413 0.327306
0.379675 0.54403 0.330846
0.4009 0.547143 0.333944
0.421515 0.549935 0.336736
0.441581 0.55259 0.339361
0.461555 0.554986 0.341726
0.481102 0.557504 0.344182
0.499916 0.560449 0.34699
0.517311 0.563241 0.349645
0.533516 0.56611 0.352346
0.548837 0.569268 0.355322
0.56318 0.572396 0.358251
0.576364 0.575463 0.361151
0.588449 0.578515 0.364034
0.600626 0.581842 0.367193
0.612375 0.584848 0.370047
0.623926 0.587808 0.372854
0.635523 0.591043 0.375921
0.646906 0.593973 0.378668
0.658244 0.596811 0.381353
0.669657 0.599695 0.38407
0.680903 0.602396 0.386618
0.691951 0.604974 0.389059
0.702815 0.607569 0.391501
0.713542 0.610437 0.394232
0.254688 0.522667 0.302495
0.2645 0.530098 0.308034
0.274891 0.537285 0.313405
0.286946 0.544213 0.319005
0.300893 0.550011 0.3243
0.317143 0.555154 0.329091
0.335561 0.559899 0.333577
0.35465 0.563867 0.337407
0.374304 0.567254 0.340749
0.39443 0.570367 0.343816
0.415167 0.573175 0.346624
0.434714 0.575525 0.348989
0.454383 0.577783 0.351232
0.474372 0.580224 0.353628
0.493385 0.582361 0.355718
0.511391 0.584634 0.357885
0.528511 0.587335 0.360464
0.544396 0.590112 0.363058
0.559167 0.592935 0.365728
0.573098 0.595895 0.368521
0.585595 0.59884 0.371298
0.597467 0.601648 0.373938
0.609171 0.604547 0.376669
0.62092 0.607675 0.379644
0.632258 0.610498 0.382315
0.643366 0.61326 0.384955
0.654597 0.616098 0.387671
0.66569 0.618753 0.390204
0.676722 0.621286 0.39263
0.687678 0.623743 0.39498
0.698665 0.626398 0.397528
0.709255 0.628763 0.399817
0.719509 0.631174 0.402152
0.269657 0.55227 0.315785
0.280507 0.559167 0.321904
0.291691 0.565682 0.327703
0.303761 0.571878 0.333242
0.317586 0.577737 0.338567
0.333211 0.582406 0.342947
0.350668 0.586358 0.346746
0.369299 0.590005 0.350317
0.388693 0.593271 0.353567
0.408347 0.596017 0.356344
0.427893 0.598337 0.358694
0.447318 0.600519 0.360922
0.466651 0.60238 0.362799
0.48603 0.604242 0.364675
0.504936 0.606424 0.366812
0.522652 0.608515 0.368841
0.539162 0.610712 0.370962
0.55462 0.613199 0.373327
0.569085 0.615854 0.375875
0.582315 0.618463 0.378378
0.594263 0.621057 0.38085
0.606226 0.623911 0.383597
0.617639 0.626535 0.386114
0.628885 0.629114 0.388602
0.640131 0.631922 0.391302
0.651057 0.634546 0.393866
0.661936 0.637064 0.396307
0.672816 0.639567 0.398749
0.68368 0.642023 0.401129
0.694362 0.644282 0.403326
0.704936 0.64654 0.405524
0.715465 0.649012 0.407935
0.725505 0.651286 0.410193
0.286473 0.580148 0.330312
0.296849 0.586404 0.335897
0.307851 0.59263 0.341543
0.31928 0.598215 0.346685
0.332357 0.603311 0.351522
0.34786 0.607858 0.355932
0.365087 0.611612 0.35967
0.383078 0.61471 0.362814
0.401846 0.617426 0.365606
0.421256 0.62002 0.368246
0.439948 0.622019 0.370321
0.458991 0.623774 0.372137
0.478416 0.625681 0.374075
0.497414 0.627237 0.375647
0.515679 0.62887 0.377234
0.53312 0.630808 0.379126
0.549416 0.632944 0.381186
0.564446 0.635126 0.383291
0.57847 0.637461 0.38555
0.591119 0.639994 0.388006
0.602792 0.642329 0.390265
0.614389 0.644755 0.392615
0.625803 0.64744 0.395254
0.636866 0.649897 0.397665
0.6477 0.652308 0.400015
0.658442 0.654795 0.402487
0.669154 0.657221 0.404883
0.679744 0.65948 0.407126
0.690303 0.661677 0.409293
0.700938 0.664027 0.411627
0.711254 0.666133 0.413703
0.72137 0.668208 0.415778
0.731334 0.670527 0.418128
0.301701 0.606027 0.343465
0.311833 0.611887 0.348898
0.32224 0.617517 0.354192
0.333654 0.623041 0.359503
0.346288 0.627695 0.36408
0.361151 0.631617 0.368002
0.37792 0.634989 0.371405
0.39585 0.638071 0.374563
0.414298 0.640558 0.377127
0.432807 0.642649 0.379309
0.451316 0.644572 0.381292
0.47013 0.646052 0.382834
0.489097 0.647501 0.384314
0.508003 0.649058 0.38587
0.526085 0.650599 0.387396
0.543069 0.652186 0.388922
0.558907 0.653986 0.390692
0.573739 0.656123 0.392767
0.587289 0.658244 0.394827
0.599252 0.660395 0.396948
0.611048 0.662806 0.399329
0.622385 0.665019 0.401511
0.633387 0.667292 0.403769
0.644327 0.669688 0.406165
0.655055 0.672038 0.40853
0.665507 0.674296 0.410803
0.675959 0.676509 0.413031
0.686458 0.678782 0.415335
0.696788 0.680812 0.41738
0.707027 0.682811 0.419394
0.717296 0.684993 0.421637
0.72723 0.686976 0.423651
0.736812 0.688991 0.425727
0.315618 0.630213 0.355718
0.325582 0.635874 0.361181
0.335561 0.641062 0.366262
0.346426 0.646006 0.37113
0.358968 0.650538 0.375647
0.37377 0.654414 0.379583
0.390127 0.65742 0.382666
0.407492 0.659983 0.385321
0.425879 0.66244 0.387884
0.443671 0.664317 0.389853
0.461845 0.665858 0.39147
0.480797 0.667414 0.393088
0.499489 0.66862 0.394324
0.517922 0.669779 0.395483
0.535714 0.671122 0.396796
0.55256 0.672709 0.398352
0.568078 0.674327 0.399939
0.582452 0.676097 0.401679
0.595575 0.678203 0.403754
0.607187 0.680156 0.405707
0.618708 0.682185 0.407736
0.630014 0.684428 0.41001
0.640879 0.686625 0.412253
0.651499 0.688731 0.414389
0.661997 0.690883 0.416602
0.672358 0.693141 0.418936
0.682582 0.695186 0.421042
0.69276 0.697169 0.423087
0.703059 0.699306 0.425315
0.7131 0.701167 0.427253
0.722988 0.703014 0.429175
0.732799 0.704997 0.431266
0.742245 0.706981 0.433371
0.328588 0.653162 0.367468
0.338094 0.658335 0.372595
0.348165 0.663523 0.377783
0.358709 0.668116 0.382406
0.370825 0.672206 0.386572
0.385183 0.675669 0.390127
0.401617 0.678737 0.393317
0.418784 0.681147 0.39585
0.436652 0.683146 0.397971
0.454017 0.684993 0.399924
0.472023 0.68632 0.401328
0.490623 0.68748 0.402533
