site/assets/luts/freshluts--0001228-correction.cube
# LUTr-Schema-Version: 2
# LUTr-ID: freshluts--0001228-correction
# LUTr-Title: Correction
# LUTr-Collection: Fresh LUTs
# LUTr-Collection-ID: freshluts-community
# LUTr-Source: https://freshluts.com
# LUTr-Retrieved: 2026-07-27
# LUTr-Source-File: submissions-raw/freshluts/cubes/1228__correction.cube
# LUTr-Source-Format: CUBE
# LUTr-Source-SHA256: ebede24dae608c314daaca3acab6aa58cd8912a98bd36d604c158b5372fc07c1
# LUTr-License: CC0-1.0
# LUTr-License-URL: https://freshluts.com/termsandconditions
# LUTr-License-Basis: site-terms
# LUTr-Transform-Class: creative-look
# LUTr-Tags: creative, freshluts, community, cube, warm, sony-s-log3, correction
# LUTr-Input-Color-Space: sony-slog3-sgamut3
# LUTr-Input-Gamut: sony-s-gamut3
# LUTr-Input-Transfer: sony-s-log3
# LUTr-Output-Color-Space: srgb
# LUTr-Output-Gamut: rec709
# LUTr-Output-Transfer: srgb
# LUTr-Color-Space-Confidence: inferred-from-source-label
# LUTr-Domain-Normalized: true
# LUTr-Shaper: none
# LUTr-Original-Grid: 16x16x16
# LUTr-Conversion-Grid: 16x16x16
# LUTr-Conversion-Interpolation: none
# LUTr-Conversion-Method: Metadata normalization; numeric LUT samples preserved
# LUTr-Conversion-Tool: LUTr scripts/convert-all-to-cube.mjs 2.0.0
# LUTr-Conversion-Date: 2026-07-28
# LUTr-Asset-URL: https://freshluts.com/luts/1228
# LUTr-Author: lvannoeun@gmail.com
# LUTr-Author-URL: https://freshluts.com/users/57563
# LUTr-Attribution: lvannoeun@gmail.com via Fresh LUTs
# LUTr-Source-Labels: gamma=Sony S-Log 3; color=Warm; key=Neutral; style=Correction
# LUTr-Note: Preserve this metadata and the upstream license notices when redistributing.
TITLE "Correction"
LUT_3D_SIZE 6
DOMAIN_MIN 0 0 0
DOMAIN_MAX 1 1 1
0 0 0
0 0 0
0.50301 0 0.003771
0.947169 0.056216 0.067895
0.97392 0.075729 0.098464
0.97392 0.075716 0.10185
0 0 0
0 0 0
0.43819 0.005812 0
0.879039 0.039082 0.050727
0.97392 0.075715 0.095911
0.97392 0.075716 0.101469
0.014815 0.439362 0.018225
0.004744 0.3923 0.011395
0.357345 0.350543 0
0.826936 0.293414 0.016746
0.97392 0.075726 0.095142
0.97392 0.075716 0.101316
0.147101 0.832638 0.131563
0.132533 0.793284 0.117807
0.194507 0.774569 0.08712
0.724695 0.739276 0.099773
0.967959 0.667114 0.099937
0.97392 0.075716 0.101284
0.207485 0.976855 0.224175
0.207893 0.976855 0.199303
0.208052 0.976855 0.192294
0.668317 0.976855 0.171456
0.939797 0.974356 0.191956
0.961294 0.932125 0.179598
0.233747 0.976855 0.635561
0.221737 0.976855 0.584357
0.318689 0.976855 0.555021
0.659815 0.975475 0.510854
0.907288 0.975232 0.455467
0.961689 0.976855 0.19859
0 0 0
0 0 0
0.500593 0 0.059421
0.943798 0.05532 0.075921
0.97392 0.075729 0.098341
0.97392 0.075716 0.10182
0 0 0
0 0 0
0.422307 0 0.030155
0.866672 0.036181 0.057059
0.97392 0.075717 0.095526
0.97392 0.075716 0.10139
0.010446 0.420744 0.020715
0.001578 0.372322 0.013454
0.33642 0.331948 0
0.806795 0.285817 0.014251
0.97392 0.075726 0.094589
0.97392 0.075716 0.101213
0.140973 0.816303 0.125911
0.12642 0.776763 0.112106
0.173281 0.758375 0.081514
0.710086 0.722745 0.093794
0.968339 0.649074 0.09589
0.97392 0.075716 0.101166
0.206777 0.976855 0.281782
0.207358 0.976855 0.220665
0.206966 0.976855 0.208638
0.649472 0.976288 0.173014
0.933851 0.969296 0.189582
0.961172 0.918883 0.175111
0.225047 0.976855 0.633994
0.210451 0.976855 0.583541
0.288713 0.976855 0.556333
0.637273 0.975774 0.50906
0.899787 0.975155 0.456699
0.961755 0.976855 0.202712
0.009086 0 0.290569
0.056195 0 0.309337
0.500722 0 0.376851
0.940424 0.059068 0.464375
0.97392 0.075877 0.255448
0.97392 0.075716 0.10183
0.008509 0 0.28472
0.023278 0 0.257965
0.415894 0 0.295817
0.859592 0.037694 0.36986
0.97392 0.075542 0.197286
0.97392 0.075716 0.101362
0.003101 0.386948 0.318029
0 0.339707 0.274053
0.315064 0.275415 0.256551
0.807168 0.149948 0.300221
0.97392 0.075548 0.185717
0.97392 0.075716 0.101185
0.130584 0.788865 0.380868
0.116624 0.75141 0.332261
0.148696 0.733843 0.307429
0.692104 0.699902 0.243413
0.965374 0.654027 0.118541
0.97392 0.075716 0.10114
0.205283 0.976855 0.476206
0.204309 0.976855 0.423478
0.203002 0.976855 0.405419
0.616725 0.967323 0.334408
0.92638 0.961018 0.238152
0.961222 0.915551 0.173869
0.217826 0.976855 0.685625
0.209353 0.976855 0.636666
0.27216 0.976855 0.613032
0.62659 0.97534 0.573482
0.893051 0.974285 0.531155
0.960644 0.976977 0.243756
0.026179 0 0.758257
0.026612 0 0.767222
0.555101 0.001525 0.810808
0.938397 0.074872 0.848319
0.97392 0.094979 0.846091
0.97392 0.084647 0.639112
0.025767 0 0.738439
0.025175 0 0.711856
0.46353 0 0.727796
0.851236 0.05039 0.751004
0.97392 0.089529 0.752759
0.97392 0.080545 0.516705
0 0.320984 0.736525
0 0.252474 0.696802
0.319025 0.07521 0.687699
0.811827 0.052655 0.71722
0.97392 0.08821 0.726756
0.97392 0.079719 0.484606
0.117806 0.752448 0.727589
0.103319 0.71394 0.682582
0.114101 0.696598 0.669025
0.670909 0.638106 0.652275
0.963673 0.511378 0.644859
0.97392 0.079944 0.491936
0.202799 0.975257 0.75684
0.198181 0.965628 0.712693
0.195579 0.958991 0.698337
0.577111 0.938149 0.666007
0.904804 0.925369 0.635272
0.95628 0.882336 0.426782
0.213321 0.976855 0.823554
0.208584 0.976855 0.78512
0.240588 0.976855 0.769475
0.611558 0.974428 0.746197
0.880528 0.97293 0.725212
0.954992 0.974079 0.611672
0.028697 0 0.850621
0.028659 0 0.850621
0.528624 0.011054 0.850621
0.935368 0.086418 0.850621
0.97392 0.106444 0.850621
0.97392 0.106404 0.850621
0.028681 0 0.850621
0.028706 0 0.850621
0.403468 0.001254 0.850621
0.851131 0.064137 0.850621
0.97392 0.105442 0.850621
0.97392 0.10474 0.850621
0.000107 0.207761 0.850621
0 0.122592 0.850621
0.2466 0.007257 0.850621
0.807878 0.053492 0.850621
0.97392 0.104572 0.850621
0.97392 0.103686 0.850621
0.111638 0.727183 0.850621
0.095226 0.684807 0.850621
0.092806 0.666218 0.850621
0.648035 0.572467 0.850621
0.964866 0.42006 0.850621
0.97392 0.103469 0.850621
0.195787 0.946927 0.850621
0.189615 0.932747 0.850621
0.186695 0.925959 0.850621
0.547386 0.900523 0.850621
0.888843 0.878288 0.850621
0.95232 0.804533 0.850621
0.215768 0.976855 0.850621
0.211803 0.976855 0.850621
0.232572 0.976855 0.850621
0.594386 0.973007 0.850621
0.867891 0.969641 0.850621
0.947446 0.968923 0.850621
0.01705 0.382105 0.850621
0.015556 0.371961 0.850621
0.337923 0.284316 0.850621
0.880582 0.223714 0.850621
0.97392 0.106404 0.850621
0.97392 0.106404 0.850621
0.011639 0.342715 0.850621
0.003704 0.252639 0.850621
0.18459 0.113154 0.850621
0.812974 0.079019 0.850621
0.97392 0.106404 0.850621
0.97392 0.106404 0.850621
0.046918 0.525127 0.850621
0.029832 0.454439 0.850621
0.066528 0.40403 0.850621
0.740633 0.236589 0.850621
0.97392 0.107194 0.850621
0.97392 0.106404 0.850621
0.128141 0.76667 0.850621
0.111327 0.721488 0.850621
0.105393 0.70384 0.850621
0.622681 0.621672 0.850621
0.952292 0.521604 0.850621
0.97392 0.106675 0.850621
0.195215 0.942203 0.850621
0.188706 0.92596 0.850621
0.185867 0.918543 0.850621
0.542536 0.892776 0.850621
0.882348 0.87165 0.850621
0.952237 0.804092 0.850621
0.219933 0.976855 0.850621
0.213088 0.976855 0.850621
0.242449 0.976855 0.850621
0.593338 0.967286 0.850621
0.863901 0.960236 0.850621
0.943047 0.957964 0.850621
