site/assets/luts/freshluts--0001659-mfahri-photo-100c-negative.cube
# LUTr-Schema-Version: 2
# LUTr-ID: freshluts--0001659-mfahri-photo-100c-negative
# LUTr-Title: M.Fahri Photo - 100c Negative
# LUTr-Collection: Fresh LUTs
# LUTr-Collection-ID: freshluts-community
# LUTr-Source: https://freshluts.com
# LUTr-Retrieved: 2026-07-27
# LUTr-Source-File: submissions-raw/freshluts/cubes/1659__---_M.Fahri_-_AnalogFilmPack_-_100c_Negative.cube
# LUTr-Source-Format: CUBE
# LUTr-Source-SHA256: aa2c3fddd8ac0263422f1692e6c6f6f200fa13234816f8c81790b07210c5de22
# LUTr-License: CC0-1.0
# LUTr-License-URL: https://freshluts.com/termsandconditions
# LUTr-License-Basis: site-terms
# LUTr-Transform-Class: creative-look
# LUTr-Tags: creative, freshluts, community, cube, film-emulation, warm, rec709
# LUTr-Input-Color-Space: rec709
# LUTr-Input-Gamut: rec709
# LUTr-Input-Transfer: rec709
# LUTr-Output-Color-Space: srgb
# LUTr-Output-Gamut: rec709
# LUTr-Output-Transfer: srgb
# LUTr-Color-Space-Confidence: declared-by-source
# LUTr-Domain-Normalized: true
# LUTr-Shaper: none
# LUTr-Original-Grid: 25x25x25
# LUTr-Conversion-Grid: 25x25x25
# LUTr-Conversion-Interpolation: none
# LUTr-Conversion-Method: Metadata normalization; numeric LUT samples preserved
# LUTr-Conversion-Tool: LUTr scripts/convert-all-to-cube.mjs 2.0.0
# LUTr-Conversion-Date: 2026-07-28
# LUTr-Asset-URL: https://freshluts.com/luts/1659
# LUTr-Author: M.Fahri
# LUTr-Author-URL: https://freshluts.com/users/223435
# LUTr-Attribution: M.Fahri via Fresh LUTs
# LUTr-Source-Labels: gamma=Rec 709; color=Warm; key=Neutral; style=Film emulation
# LUTr-Note: Preserve this metadata and the upstream license notices when redistributing.
# LUTr-Upstream-Comment: M.Fahri Analog Film Pack 2023
# LUTr-Upstream-Comment: Follow me: https://www.instagram.com/m.fahri.photo/
# LUTr-Upstream-Comment: LUT size
# LUTr-Upstream-Comment: LUT data points
TITLE "M.Fahri Photo - 100c Negative"
LUT_3D_SIZE 25
DOMAIN_MIN 0 0 0
DOMAIN_MAX 1 1 1
0.054902 0.105882 0.082353
0.054902 0.105882 0.082353
0.054902 0.101961 0.082353
0.054902 0.101961 0.078431
0.058824 0.101961 0.078431
0.094118 0.101961 0.078431
0.12549 0.101961 0.078431
0.160784 0.098039 0.078431
0.192157 0.098039 0.078431
0.239216 0.090196 0.07451
0.309804 0.078431 0.07451
0.368627 0.062745 0.070588
0.439216 0.039216 0.070588
0.517647 0.011765 0.070588
0.588235 0.019608 0.07451
0.647059 0.035294 0.07451
0.698039 0.011765 0.066667
0.752941 0.015686 0.082353
0.796078 0.035294 0.090196
0.843137 0.113725 0.078431
0.890196 0.196078 0.07451
0.92549 0.243137 0.090196
0.960784 0.301961 0.113725
0.980392 0.352941 0.141176
1 0.403922 0.164706
0.054902 0.105882 0.082353
0.054902 0.105882 0.082353
0.054902 0.105882 0.082353
0.054902 0.105882 0.082353
0.066667 0.105882 0.078431
0.098039 0.101961 0.078431
0.12549 0.101961 0.078431
0.160784 0.098039 0.078431
0.192157 0.098039 0.07451
0.239216 0.090196 0.07451
0.309804 0.078431 0.07451
0.372549 0.066667 0.07451
0.439216 0.043137 0.070588
0.513725 0.011765 0.070588
0.584314 0.015686 0.070588
0.647059 0.027451 0.070588
0.701961 0.007843 0.066667
0.752941 0.023529 0.07451
0.796078 0.070588 0.078431
0.843137 0.129412 0.07451
0.890196 0.196078 0.070588
0.92549 0.25098 0.086275
0.956863 0.309804 0.117647
0.980392 0.364706 0.145098
0.996078 0.407843 0.168627
0.054902 0.105882 0.086275
0.054902 0.109804 0.082353
0.054902 0.109804 0.082353
0.062745 0.109804 0.082353
0.07451 0.109804 0.082353
0.101961 0.109804 0.082353
0.133333 0.105882 0.078431
0.164706 0.105882 0.078431
0.196078 0.101961 0.07451
0.247059 0.098039 0.07451
0.317647 0.086275 0.078431
0.388235 0.07451 0.078431
0.45098 0.05098 0.07451
0.517647 0.023529 0.070588
0.584314 0.023529 0.070588
0.643137 0.023529 0.066667
0.705882 0.003922 0.058824
0.752941 0.058824 0.062745
0.796078 0.109804 0.066667
0.843137 0.164706 0.066667
0.890196 0.219608 0.066667
0.921569 0.266667 0.090196
0.952941 0.32549 0.121569
0.980392 0.380392 0.156863
0.992157 0.415686 0.176471
0.054902 0.109804 0.086275
0.054902 0.109804 0.086275
0.058824 0.113725 0.082353
0.066667 0.113725 0.082353
0.082353 0.113725 0.082353
0.105882 0.113725 0.082353
0.137255 0.113725 0.082353
0.172549 0.113725 0.082353
0.215686 0.113725 0.078431
0.266667 0.109804 0.078431
0.333333 0.101961 0.082353
0.4 0.090196 0.078431
0.462745 0.070588 0.07451
0.533333 0.062745 0.070588
0.596078 0.062745 0.066667
0.65098 0.066667 0.066667
0.705882 0.070588 0.062745
0.756863 0.101961 0.062745
0.8 0.152941 0.062745
0.847059 0.203922 0.066667
0.890196 0.25098 0.07451
0.92549 0.294118 0.098039
0.956863 0.345098 0.113725
0.980392 0.392157 0.14902
0.992157 0.431373 0.184314
0.054902 0.113725 0.086275
0.054902 0.117647 0.086275
0.054902 0.117647 0.082353
0.066667 0.117647 0.082353
0.086275 0.117647 0.082353
0.109804 0.117647 0.082353
0.145098 0.12549 0.082353
0.188235 0.129412 0.082353
0.231373 0.129412 0.082353
0.286275 0.12549 0.078431
0.352941 0.12549 0.078431
0.415686 0.117647 0.07451
0.478431 0.105882 0.070588
0.545098 0.101961 0.070588
0.607843 0.098039 0.062745
0.658824 0.105882 0.062745
0.709804 0.133333 0.062745
0.760784 0.156863 0.058824
0.803922 0.188235 0.058824
0.85098 0.243137 0.066667
0.890196 0.286275 0.078431
0.92549 0.32549 0.090196
0.960784 0.364706 0.109804
0.980392 0.411765 0.156863
0.996078 0.45098 0.196078
0.05098 0.12549 0.090196
0.054902 0.12549 0.086275
0.058824 0.121569 0.086275
0.062745 0.12549 0.082353
0.090196 0.129412 0.082353
0.109804 0.133333 0.082353
0.145098 0.141176 0.082353
0.2 0.145098 0.078431
0.258824 0.152941 0.07451
0.309804 0.160784 0.070588
0.376471 0.152941 0.070588
0.431373 0.141176 0.066667
0.490196 0.137255 0.066667
0.556863 0.141176 0.062745
0.615686 0.14902 0.058824
0.670588 0.160784 0.062745
0.717647 0.188235 0.066667
0.764706 0.207843 0.054902
0.807843 0.227451 0.047059
0.85098 0.27451 0.062745
0.890196 0.317647 0.07451
0.921569 0.352941 0.121569
0.956863 0.392157 0.12549
0.980392 0.431373 0.164706
0.992157 0.466667 0.2
0.047059 0.133333 0.090196
0.054902 0.137255 0.094118
0.062745 0.141176 0.094118
0.07451 0.137255 0.094118
0.094118 0.145098 0.090196
0.109804 0.145098 0.082353
0.152941 0.156863 0.078431
0.215686 0.172549 0.07451
0.27451 0.184314 0.070588
0.329412 0.196078 0.062745
0.392157 0.192157 0.058824
0.45098 0.184314 0.054902
0.501961 0.184314 0.054902
0.560784 0.192157 0.054902
0.627451 0.203922 0.05098
0.67451 0.215686 0.058824
0.72549 0.231373 0.07451
0.768627 0.254902 0.062745
0.807843 0.278431 0.054902
0.85098 0.313725 0.066667
0.894118 0.34902 0.070588
0.921569 0.384314 0.098039
0.94902 0.419608 0.137255
0.976471 0.458824 0.176471
0.992157 0.486275 0.207843
0.047059 0.164706 0.101961
0.054902 0.164706 0.101961
0.070588 0.160784 0.101961
0.086275 0.156863 0.101961
0.105882 0.164706 0.101961
0.12549 0.180392 0.098039
0.156863 0.188235 0.090196
0.219608 0.207843 0.078431
0.286275 0.231373 0.062745
0.345098 0.243137 0.043137
0.407843 0.247059 0.035294
0.466667 0.247059 0.039216
0.517647 0.25098 0.039216
0.576471 0.25098 0.039216
0.631373 0.258824 0.035294
0.682353 0.270588 0.047059
0.72549 0.286275 0.05098
0.768627 0.305882 0.047059
0.807843 0.329412 0.05098
0.85098 0.360784 0.066667
0.890196 0.392157 0.082353
0.913725 0.415686 0.109804
0.945098 0.45098 0.152941
0.972549 0.490196 0.188235
0.992157 0.513725 0.215686
0.043137 0.203922 0.113725
0.05098 0.2 0.117647
0.066667 0.2 0.117647
0.090196 0.203922 0.121569
0.117647 0.211765 0.121569
0.141176 0.219608 0.113725
0.164706 0.227451 0.101961
0.215686 0.243137 0.090196
0.286275 0.270588 0.066667
0.356863 0.290196 0.035294
0.423529 0.309804 0.011765
0.482353 0.313725 0.015686
0.529412 0.313725 0.019608
0.588235 0.313725 0.019608
0.639216 0.309804 0.015686
0.682353 0.32549 0.023529
0.72549 0.341176 0.027451
0.772549 0.360784 0.031373
0.807843 0.376471 0.047059
0.847059 0.403922 0.070588
0.882353 0.435294 0.098039
0.909804 0.458824 0.12549
0.937255 0.486275 0.164706
0.964706 0.521569 0.203922
0.988235 0.541176 0.227451
0.031373 0.243137 0.12549
0.043137 0.239216 0.129412
0.070588 0.243137 0.133333
0.094118 0.247059 0.141176
0.121569 0.254902 0.137255
0.14902 0.262745 0.129412
0.176471 0.266667 0.121569
0.215686 0.282353 0.113725
0.282353 0.305882 0.098039
0.34902 0.329412 0.062745
0.427451 0.356863 0.027451
0.490196 0.372549 0.007843
0.541176 0.380392 0.011765
0.596078 0.384314 0.011765
0.647059 0.384314 0.007843
0.686275 0.388235 0.015686
0.72549 0.396078 0.023529
0.768627 0.411765 0.047059
0.807843 0.423529 0.058824
0.847059 0.447059 0.070588
0.878431 0.470588 0.101961
0.905882 0.494118 0.137255
0.933333 0.521569 0.180392
0.960784 0.54902 0.219608
0.984314 0.564706 0.247059
0.015686 0.282353 0.137255
0.043137 0.286275 0.145098
0.07451 0.290196 0.152941
0.098039 0.294118 0.156863
0.12549 0.301961 0.160784
0.156863 0.309804 0.152941
0.192157 0.321569 0.152941
0.223529 0.333333 0.141176
0.27451 0.352941 0.129412
0.337255 0.372549 0.105882
0.415686 0.4 0.07451
0.490196 0.427451 0.043137
0.54902 0.45098 0.019608
0.607843 0.454902 0.011765
0.658824 0.458824 0.007843
0.694118 0.458824 0.011765
0.729412 0.462745 0.011765
0.776471 0.470588 0.027451
0.811765 0.482353 0.05098
0.85098 0.494118 0.07451
0.878431 0.509804 0.117647
0.905882 0.533333 0.156863
0.933333 0.552941 0.196078
0.964706 0.580392 0.239216
0.984314 0.596078 0.270588
0.054902 0.345098 0.176471
0.066667 0.345098 0.176471
0.086275 0.345098 0.176471
0.109804 0.345098 0.180392
0.133333 0.34902 0.180392
0.172549 0.360784 0.180392
0.207843 0.368627 0.184314
0.231373 0.380392 0.168627
0.27451 0.396078 0.156863
0.337255 0.419608 0.141176
0.407843 0.439216 0.12549
0.478431 0.466667 0.098039
0.545098 0.494118 0.058824
0.611765 0.513725 0.023529
0.662745 0.521569 0.015686
0.698039 0.521569 0.015686
0.741176 0.52549 0.019608
0.780392 0.529412 0.027451
0.811765 0.533333 0.062745
0.847059 0.545098 0.101961
0.878431 0.556863 0.137255
0.905882 0.576471 0.172549
0.937255 0.592157 0.215686
0.964706 0.607843 0.254902
0.988235 0.623529 0.282353
0.035294 0.392157 0.196078
0.062745 0.392157 0.2
0.098039 0.396078 0.203922
0.129412 0.4 0.211765
0.160784 0.4 0.211765
0.192157 0.407843 0.215686
0.223529 0.415686 0.215686
0.25098 0.423529 0.207843
0.286275 0.435294 0.2
0.337255 0.454902 0.188235
0.396078 0.478431 0.172549
0.462745 0.501961 0.14902
0.533333 0.52549 0.105882
0.603922 0.552941 0.062745
0.666667 0.572549 0.019608
0.705882 0.576471 0.011765
0.745098 0.576471 0.039216
0.784314 0.576471 0.066667
0.811765 0.580392 0.094118
0.847059 0.588235 0.12549
0.882353 0.603922 0.156863
0.909804 0.615686 0.192157
0.937255 0.623529 0.231373
0.968627 0.635294 0.266667
0.988235 0.65098 0.298039
0.070588 0.447059 0.227451
0.086275 0.447059 0.231373
0.117647 0.45098 0.235294
0.156863 0.454902 0.247059
0.188235 0.458824 0.25098
0.211765 0.458824 0.25098
0.239216 0.458824 0.25098
0.278431 0.470588 0.247059
0.313725 0.482353 0.243137
0.352941 0.498039 0.231373
0.4 0.517647 0.223529
0.447059 0.537255 0.211765
0.513725 0.560784 0.176471
0.588235 0.584314 0.129412
0.65098 0.607843 0.078431
0.705882 0.627451 0.047059
0.752941 0.631373 0.07451
0.788235 0.631373 0.109804
0.819608 0.635294 0.133333
0.854902 0.643137 0.152941
0.890196 0.65098 0.176471
0.913725 0.654902 0.211765
0.941176 0.658824 0.247059
0.968627 0.666667 0.282353
0.992157 0.678431 0.309804
0.117647 0.494118 0.266667
0.129412 0.498039 0.266667
0.141176 0.501961 0.266667
0.172549 0.505882 0.27451
0.207843 0.509804 0.282353
0.239216 0.505882 0.286275
0.270588 0.509804 0.290196
0.301961 0.517647 0.286275
0.333333 0.529412 0.286275
0.364706 0.537255 0.282353
0.411765 0.556863 0.270588
0.458824 0.576471 0.262745
0.513725 0.596078 0.243137
0.580392 0.615686 0.207843
0.639216 0.639216 0.184314
0.686275 0.65098 0.176471
0.745098 0.666667 0.156863
0.792157 0.67451 0.160784
0.827451 0.678431 0.168627
0.858824 0.682353 0.2
0.890196 0.686275 0.215686
0.917647 0.690196 0.243137
0.945098 0.698039 0.278431
0.972549 0.705882 0.313725
0.996078 0.709804 0.341176
0.160784 0.545098 0.298039
0.172549 0.54902 0.305882
0.188235 0.54902 0.305882
0.203922 0.54902 0.305882
0.243137 0.552941 0.317647
0.270588 0.552941 0.321569
0.298039 0.552941 0.32549
0.32549 0.560784 0.32549
0.356863 0.568627 0.32549
0.384314 0.580392 0.32549
0.419608 0.596078 0.321569
0.470588 0.611765 0.309804
0.513725 0.627451 0.298039
0.576471 0.647059 0.278431
0.623529 0.662745 0.278431
0.670588 0.678431 0.27451
0.729412 0.690196 0.247059
0.784314 0.705882 0.219608
0.835294 0.717647 0.207843
0.866667 0.72549 0.223529
0.894118 0.721569 0.25098
0.92549 0.72549 0.278431
0.94902 0.729412 0.309804
0.976471 0.733333 0.341176
0.992157 0.737255 0.364706
0.203922 0.592157 0.333333
0.219608 0.596078 0.341176
0.239216 0.596078 0.345098
0.254902 0.596078 0.345098
0.278431 0.6 0.352941
0.305882 0.6 0.360784
0.329412 0.603922 0.364706
0.360784 0.607843 0.368627
0.388235 0.615686 0.368627
0.415686 0.623529 0.368627
0.447059 0.635294 0.368627
0.482353 0.647059 0.364706
0.521569 0.662745 0.356863
0.568627 0.678431 0.345098
0.619608 0.694118 0.341176
0.666667 0.705882 0.337255
0.717647 0.717647 0.317647
0.772549 0.733333 0.294118
0.823529 0.74902 0.27451
0.866667 0.756863 0.270588
0.901961 0.760784 0.294118
0.929412 0.760784 0.321569
0.952941 0.764706 0.34902
0.976471 0.768627 0.376471
0.992157 0.772549 0.4
0.266667 0.643137 0.380392
0.27451 0.643137 0.380392
0.290196 0.643137 0.388235
0.301961 0.647059 0.388235
0.317647 0.647059 0.392157
0.345098 0.647059 0.4
0.372549 0.65098 0.407843
0.4 0.654902 0.411765
0.423529 0.658824 0.419608
0.447059 0.662745 0.419608
0.478431 0.67451 0.419608
0.513725 0.686275 0.411765
0.545098 0.698039 0.407843
0.576471 0.709804 0.403922
0.619608 0.721569 0.4
0.662745 0.733333 0.396078
0.713725 0.745098 0.384314
0.764706 0.760784 0.360784
0.807843 0.768627 0.345098
0.854902 0.780392 0.341176
0.901961 0.788235 0.345098
0.937255 0.796078 0.364706
0.964706 0.8 0.388235
0.980392 0.803922 0.411765
0.996078 0.803922 0.435294
0.329412 0.682353 0.423529
0.333333 0.682353 0.427451
0.345098 0.682353 0.427451
0.356863 0.686275 0.427451
0.364706 0.686275 0.431373
0.388235 0.690196 0.439216
0.411765 0.690196 0.447059
0.439216 0.694118 0.45098
0.462745 0.698039 0.458824
0.482353 0.701961 0.462745
0.505882 0.705882 0.462745
0.537255 0.717647 0.458824
0.568627 0.72549 0.454902
0.6 0.737255 0.454902
0.631373 0.74902 0.454902
0.666667 0.756863 0.45098
0.705882 0.772549 0.439216
0.756863 0.784314 0.423529
0.8 0.792157 0.415686
0.847059 0.8 0.403922
0.894118 0.807843 0.403922
0.937255 0.823529 0.411765
0.968627 0.827451 0.423529
0.988235 0.827451 0.447059
0.996078 0.827451 0.454902
0.392157 0.72549 0.470588
0.396078 0.72549 0.470588
0.403922 0.72549 0.47451
0.411765 0.72549 0.47451
0.423529 0.72549 0.47451
0.443137 0.729412 0.482353
0.458824 0.733333 0.490196
0.482353 0.737255 0.498039
0.509804 0.737255 0.501961
0.529412 0.741176 0.505882
0.54902 0.745098 0.509804
0.568627 0.74902 0.509804
0.596078 0.756863 0.505882
0.623529 0.768627 0.505882
0.654902 0.780392 0.505882
0.682353 0.788235 0.501961
0.713725 0.796078 0.498039
0.756863 0.807843 0.490196
0.8 0.811765 0.478431
0.835294 0.823529 0.47451
0.878431 0.835294 0.470588
0.92549 0.843137 0.470588
0.972549 0.854902 0.466667
0.996078 0.854902 0.47451
0.996078 0.854902 0.47451
0.447059 0.768627 0.513725
0.454902 0.768627 0.513725
0.458824 0.764706 0.517647
0.466667 0.768627 0.517647
0.478431 0.772549 0.521569
0.494118 0.772549 0.529412
0.509804 0.772549 0.533333
0.529412 0.772549 0.537255
0.552941 0.776471 0.545098
0.568627 0.780392 0.54902
0.592157 0.780392 0.556863
0.607843 0.788235 0.556863
0.627451 0.796078 0.556863
0.65098 0.803922 0.556863
0.678431 0.811765 0.552941
0.705882 0.815686 0.54902
0.737255 0.823529 0.545098
0.768627 0.831373 0.545098
0.803922 0.839216 0.537255
0.843137 0.847059 0.533333
0.878431 0.854902 0.533333
0.917647 0.866667 0.529412
0.968627 0.87451 0.521569
0.996078 0.878431 0.521569
0.996078 0.878431 0.521569
0.513725 0.803922 0.556863
0.517647 0.803922 0.556863
0.521569 0.803922 0.556863
0.52549 0.803922 0.560784
0.533333 0.807843 0.564706
0.545098 0.807843 0.568627
0.560784 0.807843 0.572549
0.576471 0.807843 0.580392
0.588235 0.811765 0.584314
0.611765 0.811765 0.588235
0.635294 0.815686 0.596078
0.65098 0.815686 0.6
0.666667 0.823529 0.6
0.686275 0.831373 0.6
0.709804 0.835294 0.592157
0.729412 0.843137 0.588235
0.756863 0.847059 0.588235
0.784314 0.854902 0.588235
0.815686 0.866667 0.588235
0.85098 0.870588 0.584314
0.886275 0.87451 0.580392
0.921569 0.882353 0.580392
0.960784 0.890196 0.572549
0.988235 0.894118 0.572549
0.996078 0.898039 0.576471
0.596078 0.839216 0.615686
0.596078 0.839216 0.611765
0.6 0.835294 0.611765
0.6 0.839216 0.611765
0.607843 0.839216 0.615686
0.619608 0.843137 0.619608
0.631373 0.843137 0.623529
0.647059 0.843137 0.627451
0.654902 0.843137 0.627451
0.67451 0.847059 0.635294
0.690196 0.85098 0.643137
0.701961 0.85098 0.647059
0.721569 0.854902 0.647059
0.741176 0.858824 0.643137
0.752941 0.862745 0.643137
0.776471 0.866667 0.639216
0.8 0.87451 0.639216
0.819608 0.882353 0.639216
0.843137 0.886275 0.639216
0.866667 0.890196 0.635294
0.901961 0.898039 0.635294
0.929412 0.901961 0.631373
0.956863 0.905882 0.631373
0.980392 0.909804 0.635294
0.996078 0.913725 0.635294
0.67451 0.87451 0.662745
0.67451 0.87451 0.662745
0.67451 0.87451 0.658824
0.678431 0.87451 0.662745
0.686275 0.87451 0.666667
0.694118 0.878431 0.670588
0.705882 0.878431 0.67451
0.717647 0.878431 0.678431
0.72549 0.878431 0.67451
0.745098 0.878431 0.686275
0.760784 0.882353 0.690196
0.776471 0.886275 0.690196
0.788235 0.886275 0.694118
0.803922 0.886275 0.694118
0.811765 0.890196 0.690196
0.827451 0.894118 0.690196
0.847059 0.898039 0.690196
0.862745 0.905882 0.690196
0.878431 0.909804 0.690196
0.894118 0.909804 0.682353
0.92549 0.917647 0.686275
0.945098 0.921569 0.686275
0.964706 0.92549 0.686275
0.980392 0.92549 0.686275
0.996078 0.929412 0.690196
0.745098 0.909804 0.713725
0.733333 0.901961 0.705882
0.729412 0.901961 0.698039
0.733333 0.901961 0.701961
0.745098 0.905882 0.709804
0.756863 0.905882 0.713725
0.760784 0.905882 0.713725
0.768627 0.905882 0.713725
0.780392 0.901961 0.713725
0.796078 0.905882 0.721569
0.819608 0.913725 0.729412
0.831373 0.913725 0.729412
0.839216 0.909804 0.729412
0.85098 0.909804 0.733333
0.858824 0.913725 0.729412
0.870588 0.917647 0.733333
0.882353 0.921569 0.729412
0.898039 0.92549 0.733333
0.917647 0.933333 0.741176
0.913725 0.917647 0.705882
0.945098 0.933333 0.733333
0.960784 0.937255 0.733333
0.972549 0.937255 0.729412
0.984314 0.937255 0.729412
0.996078 0.941176 0.737255
0.054902 0.105882 0.082353
0.054902 0.101961 0.082353
0.054902 0.101961 0.082353
0.054902 0.101961 0.082353
0.062745 0.101961 0.082353
0.098039 0.101961 0.082353
0.129412 0.098039 0.082353
0.160784 0.098039 0.082353
0.196078 0.098039 0.078431
0.247059 0.086275 0.078431
0.317647 0.070588 0.078431
0.380392 0.054902 0.078431
0.447059 0.035294 0.078431
0.521569 0.019608 0.078431
0.588235 0.023529 0.086275
0.647059 0.031373 0.086275
0.701961 0.023529 0.082353
0.752941 0.011765 0.086275
0.796078 0.035294 0.090196
0.843137 0.117647 0.090196
0.890196 0.192157 0.094118
0.92549 0.243137 0.101961
0.960784 0.298039 0.117647
0.980392 0.352941 0.152941
0.996078 0.396078 0.176471
0.054902 0.105882 0.086275
0.054902 0.105882 0.086275
0.054902 0.105882 0.082353
0.058824 0.105882 0.082353
0.070588 0.105882 0.082353
0.098039 0.101961 0.082353
0.129412 0.101961 0.082353
0.160784 0.098039 0.082353
0.196078 0.098039 0.078431
0.25098 0.090196 0.078431
0.317647 0.078431 0.078431
0.380392 0.058824 0.078431
0.447059 0.039216 0.078431
0.521569 0.015686 0.078431
0.588235 0.019608 0.082353
0.647059 0.027451 0.086275
0.701961 0.015686 0.082353
0.752941 0.027451 0.082353
0.796078 0.066667 0.082353
0.843137 0.129412 0.086275
0.890196 0.2 0.090196
0.92549 0.254902 0.101961
0.960784 0.313725 0.12549
0.980392 0.364706 0.156863
0.992157 0.396078 0.172549
0.05098 0.105882 0.086275
0.054902 0.105882 0.086275
0.054902 0.109804 0.082353
0.062745 0.109804 0.082353
0.078431 0.109804 0.082353
0.101961 0.109804 0.082353
0.133333 0.105882 0.082353
0.164706 0.105882 0.082353
0.203922 0.101961 0.078431
0.254902 0.098039 0.078431
0.321569 0.086275 0.082353
0.388235 0.070588 0.078431
0.45098 0.05098 0.078431
0.521569 0.027451 0.078431
0.592157 0.027451 0.078431
0.65098 0.031373 0.078431
0.705882 0.027451 0.082353
0.752941 0.062745 0.082353
0.796078 0.109804 0.082353
0.843137 0.164706 0.082353
0.886275 0.223529 0.090196
0.92549 0.270588 0.105882
0.956863 0.32549 0.133333
0.980392 0.376471 0.164706
0.992157 0.411765 0.184314
0.05098 0.109804 0.086275
0.054902 0.109804 0.086275
0.058824 0.113725 0.086275
0.066667 0.113725 0.086275
0.082353 0.113725 0.082353
0.105882 0.113725 0.082353
0.137255 0.113725 0.082353
0.176471 0.109804 0.082353
0.211765 0.109804 0.082353
0.266667 0.105882 0.082353
0.333333 0.098039 0.082353
0.396078 0.086275 0.078431
0.462745 0.070588 0.078431
0.533333 0.054902 0.078431
0.6 0.058824 0.07451
0.65098 0.070588 0.082353
0.709804 0.078431 0.082353
0.756863 0.105882 0.082353
0.8 0.14902 0.082353
0.847059 0.2 0.082353
0.886275 0.247059 0.094118
0.921569 0.294118 0.113725
0.960784 0.345098 0.129412
0.980392 0.392157 0.164706
0.992157 0.427451 0.188235
0.054902 0.113725 0.086275
0.054902 0.113725 0.086275
0.058824 0.117647 0.086275
0.070588 0.117647 0.086275
0.086275 0.117647 0.082353
0.109804 0.117647 0.082353
0.145098 0.12549 0.082353
0.188235 0.129412 0.082353
0.231373 0.12549 0.082353
0.282353 0.12549 0.078431
0.352941 0.12549 0.078431
0.415686 0.117647 0.078431
0.478431 0.105882 0.078431
0.54902 0.098039 0.078431
0.607843 0.101961 0.078431
0.662745 0.113725 0.078431
0.713725 0.137255 0.082353
0.760784 0.164706 0.078431
0.803922 0.192157 0.078431
0.847059 0.235294 0.086275
0.886275 0.278431 0.098039
0.921569 0.321569 0.113725
0.956863 0.368627 0.133333
0.976471 0.415686 0.164706
0.996078 0.45098 0.2
0.05098 0.12549 0.090196
0.054902 0.12549 0.090196
0.062745 0.12549 0.090196
0.070588 0.12549 0.090196
0.090196 0.129412 0.086275
0.113725 0.133333 0.086275
0.152941 0.141176 0.082353
0.203922 0.145098 0.078431
0.254902 0.152941 0.07451
0.305882 0.160784 0.070588
0.372549 0.156863 0.07451
0.435294 0.145098 0.078431
0.494118 0.141176 0.078431
0.556863 0.145098 0.078431
0.619608 0.152941 0.07451
0.670588 0.160784 0.07451
0.717647 0.184314 0.07451
0.764706 0.211765 0.07451
0.807843 0.235294 0.07451
0.847059 0.270588 0.086275
0.886275 0.313725 0.098039
0.921569 0.352941 0.129412
0.952941 0.392157 0.145098
0.976471 0.435294 0.176471
0.992157 0.466667 0.203922
0.05098 0.133333 0.094118
0.058824 0.137255 0.094118
0.070588 0.137255 0.098039
0.078431 0.141176 0.094118
0.098039 0.145098 0.094118
0.117647 0.152941 0.090196
0.156863 0.156863 0.086275
0.215686 0.168627 0.078431
0.27451 0.184314 0.070588
0.329412 0.192157 0.066667
0.392157 0.192157 0.066667
0.454902 0.188235 0.070588
0.505882 0.188235 0.070588
0.564706 0.196078 0.070588
0.627451 0.207843 0.066667
0.67451 0.215686 0.066667
0.72549 0.227451 0.078431
0.768627 0.254902 0.07451
0.807843 0.282353 0.082353
0.85098 0.313725 0.090196
0.890196 0.352941 0.101961
0.921569 0.384314 0.121569
0.94902 0.419608 0.152941
0.976471 0.458824 0.184314
0.996078 0.490196 0.207843
0.054902 0.168627 0.109804
0.062745 0.164706 0.109804
0.07451 0.160784 0.105882
0.086275 0.156863 0.101961
0.105882 0.164706 0.101961
0.129412 0.176471 0.101961
0.164706 0.188235 0.094118
0.219608 0.207843 0.086275
0.286275 0.231373 0.070588
0.345098 0.243137 0.058824
0.411765 0.247059 0.05098
0.466667 0.25098 0.054902
0.521569 0.25098 0.054902
0.576471 0.254902 0.054902
0.635294 0.262745 0.054902
0.682353 0.266667 0.054902
0.72549 0.282353 0.062745
0.768627 0.305882 0.066667
0.807843 0.329412 0.07451
0.85098 0.360784 0.094118
0.890196 0.392157 0.109804
0.917647 0.419608 0.129412
0.945098 0.454902 0.160784
0.972549 0.490196 0.192157
0.996078 0.517647 0.219608
0.05098 0.207843 0.121569
0.058824 0.203922 0.121569
0.070588 0.2 0.121569
0.090196 0.203922 0.12549
0.113725 0.211765 0.121569
0.141176 0.219608 0.117647
0.164706 0.223529 0.109804
