site/assets/luts/freshluts--0000186-glut003.cube
# LUTr-Schema-Version: 2
# LUTr-ID: freshluts--0000186-glut003
# LUTr-Title: gLUT003
# LUTr-Collection: Fresh LUTs
# LUTr-Collection-ID: freshluts-community
# LUTr-Source: https://freshluts.com
# LUTr-Retrieved: 2026-07-27
# LUTr-Source-File: submissions-raw/freshluts/cubes/186__GRL_2.P2640005.cube
# LUTr-Source-Format: CUBE
# LUTr-Source-SHA256: d6f4a828f3dbe65e8c4d8d5df3f77c3c4b6e97a417e870f05cdef227e6e50881
# LUTr-License: CC0-1.0
# LUTr-License-URL: https://freshluts.com/termsandconditions
# LUTr-License-Basis: site-terms
# LUTr-Transform-Class: creative-look
# LUTr-Tags: creative, freshluts, community, cube, green, high-key, rec709
# LUTr-Input-Color-Space: rec709
# LUTr-Input-Gamut: rec709
# LUTr-Input-Transfer: rec709
# LUTr-Output-Color-Space: srgb
# LUTr-Output-Gamut: rec709
# LUTr-Output-Transfer: srgb
# LUTr-Color-Space-Confidence: inferred-from-source-label
# LUTr-Domain-Normalized: true
# LUTr-Shaper: none
# LUTr-Original-Grid: 33x33x33
# LUTr-Conversion-Grid: 33x33x33
# LUTr-Conversion-Interpolation: none
# LUTr-Conversion-Method: Metadata normalization; numeric LUT samples preserved
# LUTr-Conversion-Tool: LUTr scripts/convert-all-to-cube.mjs 2.0.0
# LUTr-Conversion-Date: 2026-07-28
# LUTr-Asset-URL: https://freshluts.com/luts/186
# LUTr-Author: directorgodfrey_M
# LUTr-Author-URL: https://freshluts.com/users/1455
# LUTr-Attribution: directorgodfrey_M via Fresh LUTs
# LUTr-Source-Labels: gamma=Rec 709; color=Green; key=High Key; style=green shadow
# LUTr-Note: Preserve this metadata and the upstream license notices when redistributing.
TITLE "gLUT003"
LUT_3D_SIZE 5
DOMAIN_MIN 0 0 0
DOMAIN_MAX 1 1 1
0 0.00181582 0.00546273
0.108446 0.03122 0.005066
0.518257 0.170336 0.036286
0.897673 0.243259 0.0767224
1 0.509773 0.228428
0 0.0171206 0.0645304
0.106447 0.200977 0.0538796
0.545754 0.221912 0.0372931
0.956146 0.307362 0.0923323
1 0.592523 0.275288
0 0.540322 0.0207218
0 0.505898 0.0211032
0 0.467857 0.0334173
0.782712 0.485649 0.0482338
1 0.558053 0.254917
0.612665 0.910964 0.287922
0.540642 0.87425 0.247227
0.464561 0.834226 0.207477
0.465583 0.834775 0.20798
1 0.829221 0.306981
0.724804 0.965087 0.362509
0.724804 0.965087 0.362509
0.724804 0.965087 0.362509
0.724804 0.965087 0.362509
0.926299 0.943725 0.347799
0 0.0491646 0.19942
0.222507 0.0831006 0.167208
0.58819 0.187503 0.140078
0.912001 0.259037 0.0776989
1 0.624979 0.295796
0 0.072343 0.292927
0.128527 0.1935 0.145632
0.465766 0.221714 0.105119
0.823774 0.235721 0.0684215
1 0.46363 0.205158
0 0.523919 0.162509
0.112383 0.495354 0.13933
0.411948 0.452338 0.0237888
0.875105 0.45037 0.0657511
1 0.572259 0.263203
0.571756 0.890608 0.269276
0.514 0.86096 0.238987
0.469017 0.829282 0.202518
0.818586 0.818051 0.211795
1 0.80087 0.310506
0.724804 0.965087 0.362509
0.724804 0.965087 0.362509
0.724804 0.965087 0.362509
0.724804 0.965087 0.362509
0.931121 0.942428 0.347097
0 0.103212 0.43032
0.341344 0.157458 0.607523
0.727398 0.207355 0.497688
1 0.44744 0.446113
1 0.721294 0.511727
0 0.249912 0.64564
0.17612 0.23859 0.454398
0.611749 0.22945 0.420554
0.965026 0.361349 0.350088
1 0.568185 0.320134
0 0.537301 0.547234
0.11667 0.494667 0.391592
0.430426 0.438621 0.30399
0.792493 0.451545 0.275654
1 0.49221 0.254124
0.488548 0.885618 0.467857
0.443305 0.849729 0.374258
0.459815 0.808026 0.301488
0.828473 0.787198 0.21001
1 0.77557 0.300633
0.724804 0.965087 0.362509
0.724804 0.965087 0.362509
0.724804 0.965087 0.362509
0.724804 0.965087 0.362509
0.963058 0.932937 0.34226
0.179171 0.104936 0.642481
0.62594 0.179324 0.800916
0.796262 0.316869 0.909285
1 0.550774 0.909224
1 0.732082 0.804303
0.556344 0.256611 0.81883
0.396109 0.259342 0.794202
0.732433 0.256107 0.853574
0.998413 0.461952 0.777325
1 0.698772 0.735744
0.00784314 0.566339 0.930266
0.363134 0.495155 0.808591
0.50663 0.453849 0.682429
0.946197 0.462547 0.623331
1 0.624491 0.584833
0.12546 0.918853 0.883406
0.464591 0.875563 0.76585
0.513741 0.820676 0.679301
0.847913 0.787762 0.590265
1 0.791653 0.553552
0.642039 0.982284 0.676677
0.669612 0.978195 0.606302
0.682704 0.975845 0.564858
0.746471 0.970672 0.503899
0.988495 0.924605 0.338567
0.734813 0.264988 0.869368
0.82034 0.338796 0.923964
0.948074 0.482826 0.964904
1 0.672038 1
1 0.723888 1
0.669505 0.251911 0.844373
0.727138 0.258915 0.8645
0.895994 0.418509 0.946914
0.990616 0.586892 0.994598
1 0.73286 1
0.803037 0.539422 0.962219
0.538827 0.538735 0.960479
0.713878 0.474357 0.943465
0.976852 0.534707 0.975647
1 0.710323 0.959792
0.189929 0.910277 1
0.633341 0.872755 1
0.653239 0.830289 0.972427
0.905882 0.807889 0.942489
1 0.795026 0.897688
0.202518 1 0.975235
0.487724 1 0.946029
0.578332 1 0.934569
0.78677 0.988251 0.881682
1 0.935912 0.756817
