site/assets/luts/freshluts--0000123-toastedgarden.cube
# LUTr-Schema-Version: 2
# LUTr-ID: freshluts--0000123-toastedgarden
# LUTr-Title: ToastedGarden
# LUTr-Collection: Fresh LUTs
# LUTr-Collection-ID: freshluts-community
# LUTr-Source: https://freshluts.com
# LUTr-Retrieved: 2026-07-27
# LUTr-Source-File: submissions-raw/freshluts/cubes/123__ToastedGarden.cube
# LUTr-Source-Format: CUBE
# LUTr-Source-SHA256: dc2bb9ec4f0eb2df7b2bbb67680d280a8cce4d689e522c9613814a0f4f633560
# LUTr-License: CC0-1.0
# LUTr-License-URL: https://freshluts.com/termsandconditions
# LUTr-License-Basis: site-terms
# LUTr-Transform-Class: creative-look
# LUTr-Tags: creative, freshluts, community, cube, brown, canon-cinestyle
# LUTr-Input-Color-Space:
# LUTr-Input-Gamut: rec709
# LUTr-Input-Transfer: canon-cinestyle
# LUTr-Output-Color-Space: srgb
# LUTr-Output-Gamut: rec709
# LUTr-Output-Transfer: srgb
# LUTr-Color-Space-Confidence: camera-profile-input-required
# LUTr-Domain-Normalized: true
# LUTr-Shaper: none
# LUTr-Original-Grid: 33x33x33
# LUTr-Conversion-Grid: 33x33x33
# LUTr-Conversion-Interpolation: none
# LUTr-Conversion-Method: Metadata normalization; numeric LUT samples preserved
# LUTr-Conversion-Tool: LUTr scripts/convert-all-to-cube.mjs 2.0.0
# LUTr-Conversion-Date: 2026-07-28
# LUTr-Asset-URL: https://freshluts.com/luts/123
# LUTr-Author: J. T. Semple
# LUTr-Author-URL: https://freshluts.com/users/120
# LUTr-Attribution: J. T. Semple via Fresh LUTs
# LUTr-Source-Labels: gamma=Canon Cinestyle; color=Brown; key=Neutral; style=Hipster
# LUTr-Note: Preserve this metadata and the upstream license notices when redistributing.
TITLE "ToastedGarden"
LUT_3D_SIZE 9
DOMAIN_MIN 0 0 0
DOMAIN_MAX 1 1 1
0 0 0
0 0 0
0 0 0
0.0773175 0 0
0.213031 0 0
0.380682 0 0
0.542885 0 0
0.685267 0 0
0.795331 0 0
0 0 0
0 0 0
0.00427253 0 0
0.113237 0 0
0.25835 0 0
0.426368 0 0
0.586328 0 0
0.722423 0 0
0.828687 0 0
0 0.0491493 0
0 0.0527962 0
0.0363775 0.0569467 0
0.151232 0.0581826 0
0.306493 0.0500191 0
0.476356 0.0400092 0
0.638865 0.0358892 0
0.776165 0.0429084 0
0.888594 0.0608377 0
0 0.157488 0
0 0.163043 0
0.0622416 0.171435 0
0.190158 0.178134 0
0.361318 0.178058 0
0.538964 0.18056 0
0.706752 0.19057 0
0.845579 0.210941 0
0.961105 0.238071 0
0 0.297704 0
0 0.313695 0
0.0797742 0.333806 0
0.227863 0.350225 0
0.41326 0.358968 0
0.594018 0.36907 0
0.757504 0.383627 0
0.889632 0.405707 0
1 0.433417 0
0 0.479683 0
0 0.503868 0
0.122011 0.528222 0
0.280262 0.543435 0
0.465766 0.551171 0
0.644038 0.562005 0
0.802304 0.577859 0
0.928893 0.600809 0
1 0.626215 0.000762951
0 0.671901 0
0.0464942 0.695232 0
0.179294 0.717784 0
0.346319 0.730709 0
0.530373 0.737163 0
0.703258 0.744823 0
0.851286 0.75584 0
0.966964 0.771435 0.00329595
1 0.7879 0.0167391
0.00653086 0.849515 0
0.134325 0.870237 0.00190738
0.267918 0.886931 0.0164492
0.433692 0.891524 0.0202182
0.606271 0.890669 0.0194858
0.767193 0.889738 0.018967
0.901183 0.892622 0.0217746
1 0.900206 0.0285801
1 0.908736 0.0360266
0.0990921 1 0.0448768
0.217624 1 0.0559548
0.344839 1 0.0618143
0.503655 1 0.0569924
0.664332 1 0.049897
0.814496 1 0.0436103
0.937087 1 0.0429541
1 1 0.0470436
1 1 0.0529335
0 0 0
0 0 0
0 0 0
0.081651 0 0
0.218402 0 0
0.386145 0 0
0.548165 0 0
0.689723 0 0
0.798993 0 0
0 0 0
0 0 0
0.00825513 0 0
0.117845 0 0
0.264134 0 0
0.431662 0 0
0.591791 0 0
0.727214 0 0
0.83357 0 0
0 0.052079 0
0 0.0556802 0
0.040528 0.0597696 0
0.156115 0.0611429 0
0.313115 0.0531472 0
0.483558 0.0440681 0
0.646845 0.0412146 0
0.784283 0.0497749 0
0.897581 0.0689708 0
0 0.161059 0
0 0.167193 0
0.0675822 0.176593 0
0.197971 0.184192 0
0.371008 0.184878 0
0.549767 0.188983 0
0.717449 0.200153 0
0.856092 0.221164 0.0127565
0.970855 0.248631 0.0343328
0 0.304723 0
0 0.321904 0
0.0895094 0.343084 0
0.239475 0.359899 0.00189212
0.424979 0.368429 0.00549325
0.605356 0.379126 0.0112306
0.767773 0.393469 0.0200198
0.899199 0.41561 0.0365148
1 0.443824 0.0580758
0 0.489464 0
0.00456245 0.514199 0
0.133227 0.538094 0.0108186
0.292027 0.552987 0.0198215
0.477684 0.560983 0.0232853
0.655177 0.572015 0.0297856
0.812573 0.587777 0.0405737
0.937789 0.61001 0.0572824
1 0.635157 0.0763409
0 0.681331 0.00321965
0.057847 0.705119 0.0225376
0.191226 0.727413 0.0401312
0.358724 0.739773 0.049134
0.541604 0.745876 0.0530404
0.713237 0.752865 0.057908
0.859434 0.763134 0.0657054
0.973587 0.777737 0.0775616
1 0.793423 0.0903487
0.0178683 0.858457 0.0607004
0.145129 0.87866 0.0784161
0.278202 0.894362 0.0921798
0.443168 0.897627 0.095079
0.614633 0.896162 0.0937362
0.774151 0.894484 0.0923476
0.906294 0.896681 0.094667
1 0.9037 0.101259
1 0.911757 0.108644
0.107301 1 0.120241
0.22472 1 0.130495
0.351568 1 0.135378
0.50985 1 0.129854
0.669657 1 0.122499
0.819181 1 0.116304
0.940673 1 0.115175
1 1 0.119814
1 1 0.125826
0 0 0.00343328
0 0 0.00665293
0 0 0.00973526
0.0855421 0 0.0128328
0.223514 0 0.00840772
0.390967 0 0
0.553079 0 0
0.693904 0 0
0.802197 0 0
0 0 0.022034
0 0 0.0250401
0.0117494 0 0.0289006
0.121874 0 0.0310369
0.269474 0 0.0243381
0.436759 0 0.0124514
0.596689 0 0.00375372
0.731975 0 0.00209049
0.838331 0 0.00933852
0 0.0545968 0.0406958
0 0.0582284 0.0439155
0.0442359 0.0624399 0.0476387
0.160952 0.06392 0.0488289
0.319417 0.0562448 0.0420386
0.490822 0.0482338 0.0345922
0.654612 0.0467842 0.0334478
0.792599 0.0567788 0.0425727
0.906691 0.0772869 0.0611734
0 0.164477 0.0509499
0 0.171344 0.0553445
0.0733349 0.181735 0.062562
0.205997 0.190295 0.0677195
0.380835 0.191943 0.066743
0.560479 0.197498 0.0690929
0.72813 0.209522 0.0776226
0.866026 0.230808 0.0945907
0.98056 0.258503 0.116808
0 0.311559 0.0424964
0 0.330159 0.0553597
0.0994583 0.352239 0.0711986
0.251148 0.369146 0.0824903
0.436744 0.377951 0.0865644
0.616251 0.388586 0.0927596
0.777798 0.402808 0.102419
0.908492 0.425299 0.1196
1 0.453559 0.141833
0 0.499229 0.0552987
0.0152743 0.523964 0.0744793
0.143801 0.547433 0.0920882
0.303029 0.561807 0.101808
0.488991 0.570275 0.106126
0.665827 0.581323 0.113283
0.821942 0.596948 0.124712
0.946227 0.618662 0.141741
1 0.642954 0.161318
0 0.6907 0.0858015
0.0686809 0.714488 0.105776
0.202533 0.736324 0.124239
0.369589 0.747738 0.133165
0.551675 0.753658 0.137758
0.721798 0.759899 0.142702
0.865919 0.768902 0.150866
0.979049 0.782879 0.163378
1 0.797604 0.176761
0.0283665 0.866667 0.145769
0.154788 0.886091 0.16379
0.28719 0.900694 0.177569
0.451377 0.902876 0.180285
0.621256 0.900511 0.179583
0.779553 0.897887 0.178897
0.90988 0.899184 0.181598
1 0.905791 0.189471
1 0.913298 0.198322
0.114 1 0.206332
0.230259 1 0.216587
0.356466 1 0.221775
0.514473 1 0.216968
0.673243 1 0.21059
0.822065 1 0.205783
0.942504 1 0.206256
1 1 0.212604
1 1 0.220905
0 0 0.0805066
0 0 0.083711
0 0 0.0877852
0.08925 0 0.0912032
0.227787 0 0.0867323
0.395529 0 0.0754864
0.557397 0 0.0663615
0.697673 0 0.0625162
0.80499 0 0.0664225
0 0 0.100496
0 0 0.104112
0.0150149 0 0.108507
0.12549 0 0.110979
0.273457 0 0.104952
0.441199 0 0.0943923
0.601144 0 0.0869306
0.736065 0 0.08748
0.842893 0 0.0973373
0 0.0569314 0.121691
0 0.0603037 0.125475
0.0471351 0.0646372 0.130388
0.165133 0.0661631 0.133288
0.324819 0.058732 0.127825
0.497169 0.0518807 0.123491
0.661738 0.051606 0.125322
0.799649 0.0625772 0.137194
0.914763 0.0845808 0.159167
0 0.167041 0.13576
0 0.174884 0.142275
0.0784772 0.186297 0.151904
0.21326 0.195682 0.15964
0.389609 0.198367 0.161471
0.569909 0.204868 0.166918
0.737194 0.217548 0.178088
0.87425 0.238788 0.197177
0.988373 0.266392 0.221607
0 0.317601 0.135531
0 0.33753 0.151308
0.108064 0.360098 0.169665
0.260838 0.376974 0.183001
0.446418 0.385763 0.189334
0.624994 0.396002 0.197314
0.785611 0.410285 0.209232
0.916121 0.432837 0.228885
1 0.460899 0.253559
0 0.507378 0.157244
0.023743 0.531899 0.178027
0.15198 0.554757 0.197223
0.312139 0.568872 0.209079
0.497841 0.577417 0.215854
0.673976 0.58822 0.225132
0.828611 0.603174 0.238209
0.951843 0.62446 0.257557
1 0.647761 0.278676
0 0.697963 0.194919
0.0771038 0.721569 0.216785
0.210742 0.742763 0.236866
0.377935 0.753475 0.247593
0.55874 0.758633 0.253544
0.727535 0.76376 0.260365
0.869749 0.771832 0.269673
0.980911 0.784955 0.283818
1 0.798535 0.298375
0.035584 0.872236 0.261875
0.161074 0.890715 0.28098
0.292165 0.903838 0.295354
0.456184 0.904997 0.299748
0.624628 0.901671 0.300206
0.781506 0.898116 0.300847
0.910384 0.898634 0.305104
1 0.904646 0.314626
1 0.911696 0.324773
0.117159 1 0.326925
0.232197 1 0.33817
0.357504 1 0.344091
0.51548 1 0.340551
0.673808 1 0.33579
0.821271 1 0.332082
0.941009 1 0.334462
1 1 0.342779
1 1 0.352667
0 0 0.175265
0 0 0.180224
0 0 0.186557
0.0907912 0 0.192065
0.229969 0 0.189776
0.397665 0 0.181186
0.559091 0 0.174517
0.698512 0 0.173678
0.805264 0 0.180636
0 0 0.203082
0 0 0.208728
0.0156558 0 0.215641
0.126574 0 0.220798
0.275013 0 0.216815
0.44271 0 0.209201
0.602716 0 0.204776
0.737163 0 0.20856
0.844739 0 0.222446
0 0.0565499 0.232639
0 0.0599222 0.238849
0.0472419 0.0642252 0.246708
0.165942 0.0658122 0.251987
0.327367 0.0588846 0.250034
0.500893 0.0529488 0.249027
0.666133 0.0538338 0.254353
0.804364 0.0660868 0.269932
0.920119 0.0890669 0.295109
0 0.16733 0.256138
0 0.175937 0.26569
0.0808423 0.188266 0.27866
0.21709 0.198169 0.289021
0.395544 0.202121 0.294286
0.576303 0.209415 0.302586
0.743282 0.222553 0.316152
0.879484 0.243977 0.336675
0.99292 0.271168 0.362463
0 0.321294 0.266545
0 0.342123 0.28513
0.113436 0.365164 0.305913
0.266896 0.381765 0.320546
0.452689 0.39057 0.328496
0.630335 0.400397 0.337697
0.790402 0.414527 0.351186
0.920607 0.437659 0.372335
1 0.465415 0.398077
0 0.512581 0.2963
0.0289006 0.536767 0.317983
0.157122 0.559243 0.338445
0.318212 0.573343 0.351202
0.503487 0.581872 0.359106
0.679225 0.592386 0.369024
0.832639 0.60679 0.38265
0.954787 0.627619 0.402029
1 0.649927 0.422965
0 0.702495 0.338354
0.0825666 0.725887 0.360967
0.215854 0.746593 0.381231
0.383032 0.756649 0.392203
0.562936 0.760983 0.398184
0.730205 0.765164 0.404257
0.871092 0.772442 0.413184
0.981277 0.784619 0.426871
1 0.797391 0.441276
0.0396735 0.875257 0.407248
0.16434 0.89279 0.426001
0.294575 0.904814 0.439811
0.458305 0.904906 0.443412
0.62562 0.900694 0.443412
0.781064 0.896208 0.443076
0.909087 0.896345 0.447395
1 0.902007 0.45658
1 0.908553 0.466835
0.117678 1 0.471077
0.231495 1 0.481605
0.356619 1 0.487037
0.514504 1 0.483055
0.672602 1 0.477806
0.819409 1 0.473854
0.938338 0.998459 0.476188
1 1 0.48452
1 1 0.494697
0 0 0.307851
0 0 0.314412
0 0 0.322393
0.0887922 0 0.329458
0.228687 0 0.328145
0.396582 0 0.320668
0.558251 0 0.314809
0.696635 0 0.314504
0.80325 0 0.322164
0 0 0.340978
0 0 0.347875
0.0131075 0 0.355825
0.124407 0 0.361654
0.273762 0 0.358007
0.441825 0 0.350881
0.602304 0 0.347433
0.736965 0 0.352117
0.84538 0 0.367269
0 0.0539406 0.373907
0 0.0572671 0.380819
0.0452583 0.0618296 0.389319
0.16527 0.0637522 0.395178
0.328511 0.0576333 0.394202
0.503349 0.0528725 0.3944
0.669245 0.0549477 0.400824
0.808347 0.0687572 0.41799
0.924651 0.0927138 0.444114
0 0.166094 0.399374
0 0.175723 0.410224
0.0818189 0.189197 0.424414
0.220142 0.200153 0.43595
0.400565 0.205081 0.442145
0.581567 0.213184 0.451255
0.747967 0.226337 0.464637
0.884108 0.248173 0.486229
0.996811 0.275029 0.51191
0 0.324132 0.413306
0 0.345907 0.433021
0.117708 0.3691 0.454032
0.272511 0.38587 0.469368
0.458061 0.394461 0.477378
0.635447 0.404105 0.486473
0.795071 0.418677 0.500053
0.924941 0.44184 0.52192
1 0.469474 0.547601
0 0.517021 0.444739
0.0328374 0.540856 0.46656
0.16112 0.562921 0.486686
0.323613 0.57731 0.500023
0.508812 0.585748 0.508049
0.684001 0.596002 0.517891
0.83624 0.61001 0.531243
0.957122 0.630167 0.550195
1 0.65153 0.57026
0 0.7066 0.487709
0.0870985 0.729824 0.510445
0.220432 0.749737 0.530327
0.387671 0.759213 0.540642
0.566461 0.762722 0.546212
0.732158 0.765759 0.551049
0.871839 0.772473 0.559625
0.980591 0.783932 0.572473
1 0.795773 0.586023
0.0434882 0.877607 0.556298
0.166766 0.894224 0.574441
0.296483 0.905226 0.587442
0.459495 0.904356 0.589853
0.626123 0.899214 0.589029
0.780453 0.893965 0.587625
0.907286 0.893812 0.591104
1 0.899092 0.599649
1 0.905409 0.608927
0.117586 1 0.617716
0.23032 1 0.627237
0.355505 1 0.631647
0.513207 1 0.626642
0.670924 1 0.620554
0.817334 0.996826 0.615702
0.935897 0.995239 0.617578
1 1 0.625406
1 1 0.634287
0 0 0.452125
0 0 0.459129
0 0 0.467216
0.0858167 0 0.47393
0.227161 0 0.472679
0.395254 0 0.46508
0.556893 0 0.459266
0.694667 0 0.459007
0.801007 0 0.467079
0 0 0.485908
0 0 0.492866
0.0102388 0 0.500801
0.121706 0 0.506462
0.272435 0 0.502861
0.440818 0 0.495995
0.601862 0 0.492729
0.737011 0 0.498375
0.846326 0 0.514397
0 0.0509499 0.519249
0 0.0544442 0.526299
0.0428473 0.0594797 0.535149
0.164538 0.0618296 0.541451
0.329732 0.0566873 0.540749
0.506111 0.0531167 0.541451
0.672541 0.0564584 0.548516
0.812711 0.071809 0.566461
0.929458 0.0966049 0.59266
0 0.164981 0.545403
0 0.175769 0.556802
0.0830701 0.190311 0.571481
0.223865 0.202457 0.583474
0.405737 0.208408 0.589853
0.587289 0.217182 0.598459
0.753429 0.230701 0.611627
0.88864 0.252659 0.631952
1 0.279454 0.656336
0 0.327276 0.56051
0 0.349966 0.58056
0.122438 0.373404 0.601251
0.278187 0.390219 0.615579
0.463615 0.39852 0.62211
0.640467 0.408194 0.630076
0.800275 0.423331 0.643198
0.929549 0.446738 0.663508
1 0.474144 0.687556
0 0.521553 0.590372
0.0374151 0.545052 0.611002
0.166522 0.567361 0.630426
0.329625 0.581796 0.642588
0.514672 0.590204 0.649088
0.688701 0.599878 0.656916
0.840467 0.613886 0.668879
0.960281 0.633387 0.685634
1 0.653681 0.702998
0 0.711177 0.629831
0.0923934 0.733837 0.650965
0.225681 0.753735 0.669566
0.393011 0.762402 0.677958
0.57055 0.765255 0.680964
0.735302 0.767437 0.683589
0.873457 0.773571 0.689906
0.981201 0.784329 0.700404
1 0.795285 0.711009
0.0479133 0.880705 0.692821
0.169726 0.896223 0.708537
0.299535 0.906493 0.719768
0.461967 0.904799 0.719554
0.62768 0.89897 0.716258
0.781292 0.893156 0.712749
0.907164 0.892775 0.714
1 0.897917 0.72047
1 0.904112 0.727749
0.118822 1 0.746471
0.230579 1 0.754025
0.355856 1 0.756191
0.513802 1 0.749004
0.670939 1 0.740566
0.817182 0.995453 0.733837
0.935561 0.994095 0.734371
1 0.999298 0.740322
1 1 0.747341
0 0 0.594659
0 0 0.600717
0 0 0.607645
0.0839399 0 0.612924
0.226123 0 0.609949
0.39443 0 0.600504
0.556146 0 0.592813
0.694011 0 0.590906
0.800153 0 0.597559
0 0 0.624109
0 0 0.62974
0.00840772 0 0.63624
0.120485 0 0.640101
0.272282 0 0.634501
0.441444 0 0.625879
0.60293 0 0.621042
0.739101 0 0.625788
0.849332 0 0.641093
0 0.0489815 0.652064
0 0.0528725 0.657557
0.0421149 0.05832 0.664698
0.165988 0.061677 0.669841
0.33344 0.0576486 0.667796
0.511009 0.0555581 0.667643
0.67863 0.0604257 0.673777
0.819181 0.0772412 0.690654
0.936416 0.102892 0.715297
0 0.165759 0.672587
0 0.177859 0.683406
0.0866407 0.193545 0.696956
0.230259 0.207004 0.708064
0.413581 0.213886 0.713024
0.595178 0.223285 0.72018
0.760922 0.237339 0.731426
0.89546 0.259251 0.749752
1 0.286305 0.772229
0 0.332784 0.683833
0.00280766 0.356146 0.702861
0.12987 0.379934 0.721813
0.286458 0.396643 0.734264
0.471519 0.404715 0.738689
0.64828 0.414755 0.745159
0.807858 0.430457 0.756786
0.936751 0.45391 0.775418
1 0.480919 0.797116
0 0.528176 0.708217
0.0444495 0.5514 0.727016
0.174563 0.574182 0.745098
0.338491 0.588586 0.755322
0.523018 0.596918 0.759899
0.696406 0.606394 0.766003
0.846967 0.620035 0.775601
0.96553 0.638849 0.789929
1 0.658228 0.80502
0 0.718151 0.742107
0.100298 0.74049 0.761578
0.233753 0.759869 0.778271
0.400702 0.767819 0.784207
0.576791 0.769604 0.784848
0.74049 0.771374 0.785321
0.877623 0.776745 0.789502
0.983856 0.786969 0.797909
1 0.797269 0.80647
0.0548257 0.885878 0.798596
0.17586 0.900496 0.812284
0.304875 0.909957 0.821057
0.467109 0.907301 0.818814
0.63122 0.900679 0.812787
0.78439 0.894636 0.80763
0.909361 0.894011 0.807446
1 0.898817 0.812207
1 0.905165 0.818357
0.122087 1 0.844358
0.23357 1 0.850294
0.358587 1 0.850797
0.516854 1 0.841932
0.673609 1 0.832013
0.819303 0.996323 0.824338
0.937545 0.995239 0.823621
1 1 0.82887
1 1 0.835035
0 0 0.709789
0 0 0.713954
0 0 0.718746
0.0847486 0 0.722194
0.228046 0 0.716869
0.396658 0 0.705455
0.558206 0 0.695781
0.695705 0 0.692119
0.802136 0 0.697261
0 0 0.732128
0 0 0.735821
0.00918593 0 0.740642
0.122087 0 0.742412
0.275044 0 0.735058
0.444968 0 0.724849
0.607187 0 0.719188
0.744045 0 0.723629
0.855512 0 0.738262
0 0.0495766 0.753613
0 0.0539254 0.757733
0.0448768 0.0600748 0.763684
0.170581 0.0643931 0.767773
0.340398 0.0614328 0.765072
0.518578 0.0604868 0.764233
0.687343 0.0672313 0.77052
0.828382 0.0851606 0.786908
0.945968 0.111437 0.810758
0 0.169284 0.769955
0 0.182788 0.780056
0.0939345 0.199695 0.793408
0.239811 0.214176 0.804166
0.424125 0.22182 0.808286
0.604974 0.23154 0.814466
0.770687 0.246021 0.82504
0.904219 0.267765 0.842161
1 0.294774 0.863737
0 0.340734 0.779309
0.0117647 0.364263 0.797391
0.139681 0.388647 0.815961
0.297017 0.40499 0.826993
0.481712 0.413031 0.830549
0.658335 0.423484 0.836469
0.817456 0.439368 0.847578
0.945678 0.462776 0.865324
1 0.489158 0.886122
0 0.536675 0.800519
0.0539712 0.559823 0.818616
0.184878 0.582879 0.836271
0.349386 0.597101 0.845457
0.533028 0.605173 0.849424
0.705577 0.614389 0.854429
0.854765 0.62742 0.863172
0.971984 0.645365 0.876204
1 0.663874 0.89015
0 0.72665 0.832441
0.110246 0.748669 0.851026
0.243458 0.767346 0.866575
0.409827 0.774395 0.871214
0.584329 0.775296 0.870588
0.746853 0.776303 0.870298
0.882414 0.781018 0.873396
0.987411 0.79028 0.880766
1 0.800122 0.888731
0.0626841 0.892012 0.88542
0.18291 0.905959 0.898146
0.311543 0.914382 0.905531
0.47274 0.910796 0.902327
0.635889 0.903548 0.895781
0.788144 0.897002 0.890043
0.912535 0.895994 0.889464
1 0.900664 0.894118
1 0.906889 0.89984
0.126909 1 0.927749
0.237598 1 0.932906
0.362524 1 0.932708
0.520272 1 0.923308
0.67686 1 0.91368
0.822538 0.997879 0.905638
0.940063 0.997147 0.905074
1 1 0.910246
1 1 0.916747
