site/assets/luts/freshluts--0000984-dust.cube
# LUTr-Schema-Version: 2
# LUTr-ID: freshluts--0000984-dust
# LUTr-Title: Dust
# LUTr-Collection: Fresh LUTs
# LUTr-Collection-ID: freshluts-community
# LUTr-Source: https://freshluts.com
# LUTr-Retrieved: 2026-07-27
# LUTr-Source-File: submissions-raw/freshluts/cubes/984__Dust.cube
# LUTr-Source-Format: CUBE
# LUTr-Source-SHA256: f21555d9c29922dbcdb002c3e4b537a619873f4057f3171c4da54c78446fb785
# LUTr-License: CC0-1.0
# LUTr-License-URL: https://freshluts.com/termsandconditions
# LUTr-License-Basis: site-terms
# LUTr-Transform-Class: creative-look
# LUTr-Tags: creative, freshluts, community, cube, noir, cinematic, cool, rec709, assumed-input
# LUTr-Input-Color-Space: rec709
# LUTr-Input-Gamut: rec709
# LUTr-Input-Transfer: rec709
# LUTr-Output-Color-Space: srgb
# LUTr-Output-Gamut: rec709
# LUTr-Output-Transfer: srgb
# LUTr-Color-Space-Confidence: assumed-display-referred
# LUTr-Domain-Normalized: true
# LUTr-Shaper: none
# LUTr-Original-Grid: 32x32x32
# LUTr-Conversion-Grid: 32x32x32
# LUTr-Conversion-Interpolation: none
# LUTr-Conversion-Method: Metadata normalization; numeric LUT samples preserved
# LUTr-Conversion-Tool: LUTr scripts/convert-all-to-cube.mjs 2.0.0
# LUTr-Conversion-Date: 2026-07-28
# LUTr-Asset-URL: https://freshluts.com/luts/984
# LUTr-Author: ButterflyBD
# LUTr-Author-URL: https://freshluts.com/users/53416
# LUTr-Attribution: ButterflyBD via Fresh LUTs
# LUTr-Source-Labels: gamma=Other; color=Cool; key=Neutral; style=Noir; LUTr assumption=input Rec.709 per repository policy
# LUTr-Conversion-Warning: Input Rec.709 is a LUTr catalog assumption requested for this otherwise unspecified Fresh LUT; it is not verified by the upstream asset.
# LUTr-Note: Preserve this metadata and the upstream license notices when redistributing.
# LUTr-Upstream-Comment: Created by: Adobe Photoshop Export Color Lookup Plugin
# LUTr-Upstream-Comment: LUT size
# LUTr-Upstream-Comment: data domain
# LUTr-Upstream-Comment: LUT data points
TITLE "Dust"
LUT_3D_SIZE 5
DOMAIN_MIN 0.000000 0.000000 0.000000
DOMAIN_MAX 0.903226 0.903226 0.903226
0.031372 0.031372 0.031372
0.214813 0.031372 0.04541
0.4151 0.072815 0.079407
0.604401 0.110962 0.110352
0.737671 0.137451 0.131439
0.031372 0.234436 0.039459
0.221527 0.217133 0.036713
0.430389 0.218628 0.054657
0.624573 0.22406 0.064392
0.758728 0.230103 0.067963
0.054718 0.463501 0.084717
0.27243 0.457916 0.075348
0.436371 0.424011 0.071259
0.636444 0.424927 0.086334
0.775299 0.426605 0.095795
0.079834 0.680115 0.12384
0.297272 0.672699 0.112396
0.503845 0.671997 0.107422
0.640808 0.62146 0.102112
0.782104 0.621552 0.112213
0.097351 0.832306 0.151337
0.310089 0.825439 0.141388
0.524689 0.821198 0.131775
0.715637 0.824158 0.12915
0.784607 0.760345 0.12323
0.031372 0.051514 0.223633
0.196136 0.032501 0.222565
0.414459 0.075653 0.267059
0.604187 0.113129 0.293274
0.737122 0.139404 0.311615
0.031372 0.232147 0.213409
0.233429 0.250427 0.247589
0.443298 0.272003 0.283356
0.640045 0.296295 0.317963
0.777191 0.31485 0.341614
0.038574 0.453552 0.21933
0.26535 0.471069 0.275421
0.447601 0.453735 0.274139
0.647491 0.453735 0.288605
0.786072 0.454895 0.298492
0.056885 0.664673 0.225555
0.289246 0.685516 0.306885
0.498566 0.683777 0.302887
0.651611 0.649048 0.300934
0.792664 0.648773 0.311523
0.069336 0.813171 0.22998
0.300842 0.83844 0.331757
0.519226 0.832764 0.323517
0.71106 0.835175 0.32309
0.794891 0.786896 0.320282
0.031372 0.106018 0.438324
0.179169 0.064301 0.433899
0.377014 0.078064 0.427032
0.601288 0.118042 0.484802
0.735046 0.143555 0.502441
0.031372 0.291992 0.447327
0.242157 0.290863 0.460449
0.422913 0.274139 0.458923
0.638824 0.299072 0.50943
0.776184 0.317688 0.531647
0.040131 0.454987 0.418701
0.238495 0.474854 0.453705
0.459045 0.489166 0.4841
0.660156 0.508484 0.51767
0.799927 0.52359 0.541931
0.058716 0.666016 0.424103
0.232697 0.691711 0.466553
0.490753 0.698547 0.50946
0.663452 0.682404 0.508759
0.804596 0.681732 0.518616
0.070892 0.814484 0.42807
0.208282 0.847046 0.48349
0.511108 0.847046 0.528839
0.704834 0.847046 0.528259
0.806702 0.819 0.526733
0.031372 0.156219 0.642517
0.146576 0.099487 0.638
0.364227 0.102661 0.629395
0.548767 0.117981 0.621399
0.730774 0.149658 0.686401
0.039032 0.334015 0.652405
0.245728 0.334045 0.665894
0.411255 0.293365 0.66098
0.601044 0.300507 0.659698
0.773956 0.321228 0.716187
0.052185 0.529755 0.660126
0.237915 0.536011 0.680481
0.468536 0.526428 0.686493
0.640137 0.51059 0.685486
0.798431 0.526398 0.726868
0.060089 0.667633 0.614075
0.218628 0.698639 0.659943
0.467743 0.701508 0.678802
0.674255 0.71698 0.709656
0.816315 0.730011 0.732941
0.07251 0.815887 0.61792
0.184906 0.847046 0.679291
0.472504 0.847046 0.68457
0.697052 0.847046 0.727112
0.817932 0.847046 0.726746
0.031372 0.191376 0.785767
0.102692 0.131561 0.787323
0.350616 0.122528 0.771576
0.540771 0.134094 0.76416
0.669098 0.145996 0.757629
0.045288 0.364716 0.79657
0.243591 0.367188 0.811737
0.400238 0.308624 0.803528
0.593506 0.314178 0.801605
0.725159 0.320618 0.799957
0.058472 0.557892 0.804504
0.233734 0.567596 0.827332
0.47406 0.554169 0.829712
0.633209 0.522888 0.827209
0.766449 0.527069 0.827271
0.069763 0.747345 0.811768
0.188721 0.775482 0.847046
0.471802 0.747681 0.841705
0.681396 0.742523 0.847046
0.80188 0.731384 0.847046
0.073303 0.817139 0.751587
0.142487 0.847046 0.825653
0.468536 0.847046 0.818024
0.681519 0.847046 0.845886
0.82547 0.847046 0.847046
