site/assets/luts/freshluts--0000151-city.cube
# LUTr-Schema-Version: 2
# LUTr-ID: freshluts--0000151-city
# LUTr-Title: CITY
# LUTr-Collection: Fresh LUTs
# LUTr-Collection-ID: freshluts-community
# LUTr-Source: https://freshluts.com
# LUTr-Retrieved: 2026-07-27
# LUTr-Source-File: submissions-raw/freshluts/cubes/151__CITY__7.DJI_0002.cube
# LUTr-Source-Format: CUBE
# LUTr-Source-SHA256: 6e22d7741b9638e902b92302b3b0d96dc738c038104c55ee2748ebbc68ce4a4d
# LUTr-License: CC0-1.0
# LUTr-License-URL: https://freshluts.com/termsandconditions
# LUTr-License-Basis: site-terms
# LUTr-Transform-Class: creative-look
# LUTr-Tags: creative, freshluts, community, cube, film-emulation, dji-d-log
# LUTr-Input-Color-Space: dji-dlog-dgamut
# LUTr-Input-Gamut: dji-d-gamut
# LUTr-Input-Transfer: dji-d-log
# LUTr-Output-Color-Space: srgb
# LUTr-Output-Gamut: rec709
# LUTr-Output-Transfer: srgb
# LUTr-Color-Space-Confidence: inferred-from-source-label
# LUTr-Domain-Normalized: true
# LUTr-Shaper: none
# LUTr-Original-Grid: 33x33x33
# LUTr-Conversion-Grid: 33x33x33
# LUTr-Conversion-Interpolation: none
# LUTr-Conversion-Method: Metadata normalization; numeric LUT samples preserved
# LUTr-Conversion-Tool: LUTr scripts/convert-all-to-cube.mjs 2.0.0
# LUTr-Conversion-Date: 2026-07-28
# LUTr-Asset-URL: https://freshluts.com/luts/151
# LUTr-Author: Shamoon Abbasi
# LUTr-Author-URL: https://freshluts.com/users/1258
# LUTr-Attribution: Shamoon Abbasi via Fresh LUTs
# LUTr-Source-Labels: gamma=DJI D-log; color=None; key=Neutral; style=Film emulation
# LUTr-Note: Preserve this metadata and the upstream license notices when redistributing.
TITLE "CITY"
LUT_3D_SIZE 33
DOMAIN_MIN 0 0 0
DOMAIN_MAX 1 1 1
0.0131075 0.031342 0.0278935
0.0144045 0.0321965 0.0281987
0.0170291 0.0325322 0.0284581
0.0207065 0.0328679 0.028397
0.0256352 0.0333257 0.0279545
0.0324407 0.0340734 0.0268406
0.0395514 0.0347143 0.0258793
0.0488594 0.0355688 0.0246281
0.0619059 0.0367895 0.0228122
0.0787366 0.0382544 0.0206149
0.104601 0.0398871 0.0162966
0.135836 0.0413519 0.00985733
0.170092 0.0425116 0.00166323
0.207309 0.0433661 0.000366217
0.245762 0.0450752 0
0.282322 0.0473487 0
0.31548 0.0500038 0
0.349889 0.0515602 0
0.381445 0.0530404 0
0.410803 0.0548714 0
0.438544 0.0572518 0
0.464363 0.0595865 0
0.488624 0.0608225 0
0.51281 0.0617227 0
0.537423 0.0627298 0
0.5608 0.0637369 0
0.583215 0.0628367 0
0.604593 0.0612955 0
0.624079 0.0600137 0
0.639323 0.0610513 0
0.653483 0.0616312 0
0.665904 0.0622873 0
0.676844 0.0630961 0
0.0125124 0.0367895 0.0300755
0.0138857 0.0374304 0.0305638
0.0158236 0.0383154 0.0304875
0.0193484 0.0391089 0.0300908
0.0244602 0.0398566 0.0294041
0.0317998 0.0403754 0.0283207
0.039353 0.0411383 0.0269169
0.0497749 0.0420386 0.0250553
0.0641184 0.043061 0.0227207
0.0813764 0.0444648 0.0204013
0.108843 0.0458381 0.0161288
0.141756 0.0471962 0.00958267
0.177722 0.0483864 0.0015259
0.216464 0.0493935 0.000289921
0.25597 0.0521553 0
0.293339 0.0552529 0
0.327382 0.057969 0
0.362417 0.0601205 0
0.394324 0.0617685 0
0.42446 0.0636149 0
0.453315 0.0660563 0
0.479484 0.0686046 0
0.504555 0.0693675 0
0.529763 0.0699931 0
0.554803 0.0710155 0
0.577935 0.0723888 0
0.60058 0.0721141 0
0.621469 0.0711223 0
0.640391 0.0702525 0
0.656519 0.0708324 0
0.671 0.071519 0
0.683848 0.0719921 0
0.695186 0.0725567 0
0.0100252 0.0433509 0.0319524
0.0110018 0.0441596 0.0324407
0.0126955 0.0454719 0.0323796
0.0163272 0.0464942 0.0319219
0.0217441 0.0471809 0.0312047
0.0297246 0.0474556 0.0302129
0.0383307 0.0484169 0.0286564
0.0506447 0.0492561 0.0266117
0.0668803 0.0500343 0.024155
0.0848859 0.0512245 0.0213779
0.113893 0.0527962 0.0165103
0.148043 0.0544442 0.00941482
0.185809 0.0561379 0.00135805
0.226368 0.0575875 0.000228885
0.26746 0.0598001 0
0.306081 0.062623 0
0.341466 0.0658122 0
0.377371 0.0686503 0
0.410117 0.0704509 0
0.440436 0.0724346 0
0.468589 0.074815 0
0.495247 0.0772412 0
0.521996 0.0776226 0
0.549355 0.0782788 0
0.576089 0.0795148 0
0.599481 0.0808423 0
0.620752 0.0821088 0
0.639963 0.0826581 0
0.657847 0.0823987 0
0.676341 0.0816968 0
0.690196 0.0814679 0
0.702434 0.0822461 0
0.713329 0.0833448 0
0.00602731 0.0511635 0.0337072
0.00669871 0.0521553 0.0341039
0.00856031 0.0536507 0.0340734
0.0125277 0.0545968 0.0336919
0.0184482 0.0551461 0.0330205
0.026978 0.055375 0.0319982
0.0365454 0.0567788 0.0302281
0.0512703 0.0582742 0.027863
0.0698558 0.0595102 0.0250553
0.0893721 0.0602121 0.0221714
0.120043 0.0620737 0.0165103
0.156252 0.0639506 0.00857557
0.196353 0.065568 0.000671397
0.238895 0.0667124 0.0000915541
0.280644 0.0693675 0
0.320272 0.0727855 0
0.357275 0.0763104 0
0.393881 0.0789807 0
0.427893 0.0807202 0
0.459358 0.0827192 0
0.488472 0.0851606 0
0.515526 0.0878462 0
0.542245 0.0890669 0
0.569879 0.090425 0
0.59736 0.0917983 0
0.620508 0.092256 0
0.64184 0.0932326 0
0.661555 0.0937209 0
0.679927 0.0936599 0
0.697871 0.0934462 0
0.711543 0.0933242 0
0.723445 0.0945449 0
0.734127 0.0961471 0
0.00201419 0.0597238 0.0354162
0.00273136 0.0607004 0.0358587
0.00486763 0.0619974 0.0359655
0.00881971 0.0629435 0.0357061
0.0150454 0.0636454 0.0349737
0.0236973 0.0642252 0.0337377
0.0344396 0.065919 0.0317693
0.0516213 0.0676738 0.0290684
0.0725414 0.0691844 0.0259556
0.0947433 0.0700542 0.0225986
0.127657 0.0720531 0.0160678
0.165652 0.0740826 0.00762951
0.207767 0.0759594 0.000167849
0.251728 0.0774548 0.000015259
0.294697 0.0806439 0
0.335576 0.0841688 0
0.374365 0.0875868 0
0.4121 0.0901808 0
0.447242 0.0924697 0
0.479759 0.0948653 0
0.510109 0.0973983 0
0.538079 0.0998856 0
0.564721 0.10161 0
0.591928 0.103334 0
0.618235 0.104723 0
0.641276 0.105058 0
0.663645 0.105699 0
0.684504 0.105882 0
0.703624 0.105791 0
0.720882 0.105669 0
0.733181 0.106386 0
0.74435 0.108309 0
0.754437 0.110094 0
0.0000762951 0.0684367 0.0372931
0.000900282 0.0691997 0.0379644
0.00277714 0.0698405 0.0383459
0.00579843 0.0714885 0.0382239
0.0116121 0.0728466 0.0372778
0.0200046 0.0741131 0.035584
0.0318608 0.0757153 0.0333257
0.0513313 0.0774853 0.0303807
0.0747845 0.0792554 0.0267948
0.100694 0.0808118 0.0225834
0.135866 0.0829023 0.0152438
0.176165 0.0853132 0.0065919
0.219699 0.0877394 0
0.264866 0.0900587 0
0.309438 0.0933547 0
0.352026 0.0966964 0
0.392752 0.099794 0
0.431449 0.102647 0
0.467369 0.105898 0
0.500847 0.108812 0
0.53228 0.11133 0
0.561166 0.113481 0
0.588434 0.115389 0
0.614801 0.117113 0
0.639872 0.118334 0
0.663188 0.118791 0
0.686336 0.119371 0
0.707713 0.119478 0
0.726879 0.119341 0
0.743862 0.119219 0
0.754467 0.120775 0
0.764981 0.123064 0
0.77496 0.125078 0
0 0.077409 0.042359
0.000244144 0.0788891 0.0429541
0.000900282 0.0806592 0.043122
0.00347906 0.0821393 0.0430304
0.00860609 0.0840772 0.0409857
0.0161135 0.086183 0.037995
0.0272526 0.0878309 0.0350652
0.0498817 0.0899825 0.0313268
0.0767987 0.092195 0.0270848
0.106645 0.0942397 0.0221408
0.14258 0.0969711 0.0137484
0.186252 0.0994278 0.00538643
0.232822 0.101854 0
0.27863 0.10457 0
0.324651 0.107866 0
0.369238 0.110826 0
0.411521 0.113787 0
0.451041 0.117372 0
0.487221 0.121584 0
0.521157 0.124666 0
0.552819 0.126909 0
0.582483 0.128923 0
0.610727 0.130953 0
0.638056 0.132403 0
0.663951 0.13315 0
0.688029 0.133165 0
0.710277 0.134173 0
0.729809 0.134798 0
0.747616 0.135073 0
0.764202 0.135103 0
0.774853 0.136507 0
0.785901 0.138643 0
0.796414 0.140795 0
0 0.0869306 0.0457008
0 0.0889754 0.0458076
0.000183108 0.091371 0.0459449
0.00140383 0.0925917 0.0460365
0.00576791 0.0953384 0.0442664
0.0121614 0.0984207 0.0411994
0.0202945 0.101061 0.0367895
0.0465553 0.103258 0.0326085
0.0770123 0.105547 0.0273594
0.110643 0.108309 0.0208286
0.14931 0.111894 0.0122683
0.195026 0.114549 0.00445563
0.243305 0.117174 0
0.29163 0.120165 0
0.339742 0.123445 0
0.385382 0.126528 0
0.428779 0.130068 0
0.469291 0.134218 0
0.506432 0.137896 0
0.540078 0.141024 0
0.571557 0.143511 0
0.602258 0.145525 0
0.6309 0.147814 0
0.657862 0.14905 0
0.683619 0.149905 0
0.707912 0.150866 0
0.730068 0.151919 0
0.750149 0.152316 0
0.768078 0.152514 0
0.783139 0.152895 0
0.794537 0.15407 0
0.805493 0.156283 0
0.815763 0.15877 0
0 0.0983749 0.049485
0 0.10074 0.0492561
0 0.103227 0.0491798
0.000030518 0.104753 0.0492561
0.00337224 0.108034 0.0481575
0.0080415 0.111696 0.0451667
0.0134279 0.115145 0.0398108
0.0419013 0.118151 0.0336614
0.0754253 0.121141 0.0263066
0.113176 0.124208 0.0181277
0.154528 0.128435 0.00923171
0.202502 0.131594 0.00296025
0.251896 0.134585 0
0.302037 0.137819 0
0.351583 0.141314 0
0.398856 0.1449 0
0.443336 0.14873 0
0.484977 0.152819 0
0.523613 0.156649 0
0.557427 0.159915 0
0.58912 0.162753 0
0.620539 0.164981 0
0.649454 0.167468 0
0.67718 0.16907 0
0.703578 0.170443 0
0.728496 0.171695 0
0.749783 0.173053 0
0.768704 0.173938 0
0.78555 0.174563 0
0.800458 0.175036 0
0.812802 0.176104 0
0.823819 0.178073 0
0.834073 0.180621 0
0 0.113588 0.0567483
0 0.115526 0.056199
0 0.117556 0.0550393
0 0.119997 0.0541695
0.0015259 0.122957 0.0531014
0.00440986 0.126253 0.0500954
0.00991836 0.129809 0.04448
0.0357061 0.135653 0.0340124
0.0711986 0.139406 0.0238804
0.112673 0.142702 0.0140078
0.157275 0.146761 0.00466926
0.207889 0.150652 0.00125124
0.258717 0.154116 0
0.309453 0.157305 0
0.36051 0.161242 0
0.409277 0.165377 0
0.455283 0.169406 0
0.498009 0.173205 0
0.538079 0.177218 0
0.572717 0.180743 0
0.605524 0.183948 0
0.637064 0.186587 0
0.666804 0.189715 0
0.695369 0.19205 0
0.722896 0.19379 0
0.748592 0.195193 0
0.768811 0.196963 0
0.785916 0.198672 0
0.801526 0.199924 0
0.816266 0.200671 0
0.829389 0.201648 0
0.840589 0.203738 0
0.850446 0.206195 0
0 0.128344 0.0609903
0 0.130678 0.0612802
0 0.133043 0.0614023
0 0.135531 0.0611582
0.000366217 0.138918 0.0588388
0.00122072 0.142672 0.0553597
0.00497444 0.147189 0.0498054
0.0264897 0.155138 0.0352636
0.0621195 0.160784 0.0210422
0.106203 0.164752 0.0089723
0.156832 0.167422 0.000854505
0.209598 0.170733 0.000167849
0.262226 0.174517 0
0.314153 0.178378 0
0.366766 0.181277 0
0.416175 0.186465 0
0.463371 0.191226 0
0.508339 0.195209 0
0.549371 0.198215 0
0.586191 0.202472 0
0.620081 0.206302 0
0.651896 0.20972 0
0.682887 0.213474 0
0.711833 0.216663 0
0.739818 0.218952 0
0.766461 0.220661 0
0.786694 0.222614 0
0.802777 0.22501 0
0.817243 0.227024 0
0.830884 0.228641 0
0.844114 0.229908 0
0.854932 0.232425 0
0.864302 0.235142 0
0 0.145373 0.0661479
0 0.148348 0.0664988
0 0.151354 0.0667887
0 0.153536 0.0668193
0 0.15729 0.0638895
0.000137331 0.16173 0.0600595
0.00201419 0.167712 0.052903
0.0112306 0.177462 0.032929
0.0458076 0.184527 0.0148775
0.0941329 0.189563 0.00309758
0.152071 0.192935 0
0.207553 0.197024 0
0.262882 0.200946 0
0.317571 0.204746 0
0.371542 0.209079 0
0.422217 0.213993 0
0.470436 0.218296 0
0.516472 0.222034 0
0.559548 0.226352 0
0.596551 0.231388 0
0.630488 0.235798 0
0.662577 0.239811 0
0.695003 0.24358 0
0.72433 0.246387 0
0.752621 0.248951 0
0.778881 0.251133 0
0.800259 0.253437 0
0.817548 0.255375 0
0.832471 0.257511 0
0.845335 0.259358 0
0.857008 0.260349 0
0.866835 0.262898 0
0.875166 0.266133 0
0 0.164248 0.0717327
0 0.168017 0.0720073
0 0.171481 0.0720684
0 0.173449 0.0720226
0 0.177523 0.0691386
0 0.182635 0.0650187
0.0000762951 0.189792 0.0561379
0.000396735 0.201328 0.0333867
0.028275 0.210117 0.0116579
0.0770733 0.216648 0
0.143938 0.221103 0
0.204379 0.22565 0
0.262699 0.229679 0
0.319448 0.233936 0
0.375082 0.239139 0
0.427054 0.243641 0
0.47657 0.247654 0
0.523644 0.25156 0
0.567452 0.256504 0
0.604669 0.261707 0
0.638804 0.26685 0
0.671611 0.271733 0
0.704509 0.276417 0
0.734462 0.279606 0
0.762524 0.282109 0
0.788464 0.284443 0
0.810346 0.28716 0
0.828077 0.288716 0
0.843595 0.290547 0
0.857191 0.292622 0
0.869017 0.294652 0
0.878462 0.297765 0
0.886091 0.301259 0
0 0.184848 0.0774548
0 0.188739 0.0780194
0 0.19237 0.0779583
0 0.195087 0.0776226
0 0.19939 0.0751354
0 0.204639 0.0708934
0 0.212604 0.061326
0 0.225986 0.0395819
0.0114748 0.237537 0.0132906
0.0577859 0.245792 0.000259403
0.133822 0.251209 0
0.200336 0.256306 0
0.261479 0.260746 0
0.320348 0.265629 0
0.377432 0.271015 0
0.43151 0.275441 0
0.482155 0.279713 0
0.529732 0.283955 0
0.573861 0.288808 0
0.610941 0.293873 0
0.645747 0.299702 0
0.679393 0.305837 0
0.712657 0.311437 0
0.742535 0.3149 0
0.770504 0.317678 0
0.796109 0.319982 0
0.818265 0.32253 0
0.835966 0.324208 0
0.852369 0.325948 0
0.867353 0.32813 0
0.880018 0.330861 0
0.889693 0.334356 0
0.897063 0.337758 0
0 0.209491 0.083238
0 0.213458 0.0838483
0 0.216999 0.083772
0 0.220066 0.0831159
0 0.224048 0.0805982
0 0.229557 0.0768139
0 0.238209 0.0669871
0 0.251881 0.0448463
0.00215152 0.266484 0.0163119
0.0454566 0.276585 0.00227359
0.11902 0.283375 0
0.193194 0.289769 0
0.259327 0.295598 0
0.322057 0.301472 0
0.381598 0.307103 0
0.436805 0.311528 0
0.487816 0.316274 0
0.535439 0.320775 0
0.579171 0.325017 0
0.616907 0.330327 0
0.652232 0.336385 0
0.68632 0.342443 0
0.719768 0.347738 0
0.749569 0.351354 0
0.777447 0.354055 0
0.803021 0.356527 0
0.825437 0.358785 0
0.843198 0.361059 0
0.8607 0.363073 0
0.876692 0.364965 0
0.889799 0.367483 0
0.900221 0.369909 0
0.907912 0.373251 0
0 0.236271 0.0890516
0 0.240894 0.0897383
0 0.244709 0.0897688
0 0.247898 0.0892195
0 0.251957 0.0874647
0 0.25832 0.0836805
0 0.267659 0.0732891
0 0.280797 0.0520638
0 0.297734 0.0197757
0.038056 0.309957 0.00404364
0.105104 0.318547 0
0.189197 0.326314 0
0.258213 0.332753 0
0.323674 0.33904 0
0.386725 0.345556 0
0.442741 0.350515 0
0.494316 0.355489 0
0.541833 0.360311 0
0.585275 0.365316 0
0.623728 0.370626 0
0.660395 0.376745 0
0.695048 0.383078 0
0.727794 0.389303 0
0.757733 0.393545 0
0.785992 0.396521 0
0.811933 0.398688 0
0.834867 0.400961 0
0.852506 0.402686 0
0.869535 0.404898 0
0.884672 0.406775 0
0.897124 0.408164 0
0.907027 0.410193 0
0.914717 0.412909 0
0 0.264698 0.0952316
0 0.269505 0.0959487
0 0.273655 0.0960861
0 0.276982 0.0956283
0 0.281773 0.0943618
0 0.288991 0.0900435
0 0.299199 0.0789044
0 0.313039 0.0581521
0 0.330205 0.0239719
0.0337682 0.343786 0.00648508
0.0959945 0.354482 0
0.18349 0.362921 0
0.256565 0.370199 0
0.32636 0.377691 0
0.392325 0.38468 0
0.449805 0.390585 0
0.501945 0.395331 0
0.550011 0.400183 0
0.593942 0.405631 0
0.633463 0.411261 0
0.669993 0.417594 0
0.70425 0.424155 0
0.73666 0.430671 0
0.766644 0.43505 0
0.794766 0.438239 0
0.820722 0.440681 0
0.843915 0.44239 0
0.861295 0.44332 0
0.877974 0.444816 0
0.892378 0.446281 0
0.903609 0.446799 0
0.913176 0.44773 0
0.920485 0.449317 0
0 0.29427 0.102022
0 0.298695 0.102739
0 0.302785 0.102831
0 0.306813 0.102174
0 0.313085 0.100572
0 0.320562 0.095552
0 0.332113 0.0834974
0 0.348501 0.0622873
0 0.36376 0.0287327
0.0322728 0.378225 0.00907912
0.0919661 0.3906 0
0.178317 0.399359 0
0.256809 0.408499 0
0.33077 0.416938 0
0.399054 0.424857 0
0.458503 0.431388 0
0.511711 0.435996 0
0.56083 0.441199 0
0.605554 0.446754 0
0.645411 0.452735 0
0.680919 0.459129 0
0.714611 0.465553 0
0.746944 0.471702 0
0.776745 0.476265 0
0.804105 0.479545 0
0.829633 0.481651 0
0.852781 0.482948 0
0.8701 0.482719 0
0.886442 0.483436 0
0.90013 0.484291 0
0.910231 0.484306 0
0.919799 0.483726 0
0.926818 0.484428 0
0 0.325368 0.109133
0 0.329473 0.109621
0 0.333288 0.109606
0 0.337819 0.109056
0 0.34461 0.107576
0 0.352468 0.102327
0 0.365774 0.090013
0 0.385306 0.0681926
0 0.40267 0.0288701
0.0332189 0.417075 0.00843824
0.0950179 0.429389 0
0.184558 0.440192 0
0.266163 0.448661 0
0.341192 0.457954 0
0.409873 0.467002 0
0.47219 0.474418 0
0.525521 0.478965 0
0.575174 0.485023 0
0.620233 0.491936 0
0.657969 0.497749 0
0.693614 0.503288 0
0.727184 0.508583 0
0.758587 0.513451 0
0.787472 0.517311 0
0.81442 0.51986 0
0.839231 0.521492 0
0.861662 0.521889 0
0.879484 0.520485 0
0.895705 0.520836 0
0.908537 0.521279 0
0.918029 0.521385 0
0.92781 0.519005 0
0.9346 0.519081 0
0 0.353841 0.117037
0 0.358404 0.117571
0 0.362615 0.11754
0 0.367391 0.116899
0 0.374472 0.115267
0 0.383627 0.108843
0 0.39826 0.0952163
0 0.418662 0.0720378
0 0.438285 0.029099
0.0370947 0.454307 0.00836194
0.102831 0.467445 0
0.193881 0.47808 0
0.277317 0.487785 0
0.353902 0.497429 0
0.423926 0.506172 0
0.485801 0.512947 0
0.540169 0.518776 0
0.589258 0.524697 0
0.633234 0.530373 0
0.671595 0.534905 0
0.705989 0.539651 0
0.738399 0.544259 0
0.76878 0.548547 0
0.796796 0.552193 0
0.823362 0.554482 0
0.848585 0.555566 0
0.871427 0.555291 0
0.889143 0.553857 0
0.905241 0.554086 0
0.917266 0.554238 0
0.925551 0.553933 0
0.933486 0.551492 0
0.940032 0.551125 0
0 0.380926 0.125475
0 0.385718 0.125963
0 0.390234 0.125933
0 0.395193 0.125063
0 0.402899 0.122591
0 0.413657 0.114565
0 0.430106 0.0993973
0 0.451286 0.0744335
0 0.47274 0.0284581
0.0434577 0.490181 0.00794995
0.114916 0.503914 0
0.206744 0.514199 0
0.290867 0.523568 0
0.367086 0.53257 0
0.436484 0.540658 0
0.498116 0.547524 0
0.552453 0.553384 0
0.601022 0.559319 0
0.644358 0.564431 0
0.682704 0.568215 0
0.716884 0.573037 0
0.748775 0.577386 0
0.778515 0.581079 0
0.806043 0.583871 0
0.83212 0.585107 0
0.857084 0.585489 0
0.879576 0.585397 0
0.896757 0.584634 0
0.912688 0.584573 0
0.924773 0.584375 0
0.933577 0.58352 0
0.941054 0.582193 0
0.946883 0.581308 0
0 0.406958 0.133898
0 0.411322 0.134371
0 0.415854 0.134401
0 0.421378 0.13315
0 0.429877 0.129015
0 0.442481 0.11957
0 0.460685 0.102892
0 0.483116 0.0754711
0 0.505898 0.0260166
0.0517739 0.523934 0.0068513
0.129015 0.537728 0
0.221378 0.54789 0
0.304509 0.555825 0
0.37911 0.563668 0
0.446632 0.571237 0
0.508034 0.578439 0
0.562081 0.584039 0
0.610437 0.589807 0
0.653681 0.594812 0
0.692058 0.59852 0
0.725826 0.603769 0
0.757565 0.608194 0
0.787137 0.611536 0
0.814542 0.613428 0
0.840177 0.613794 0
0.86453 0.613901 0
0.886183 0.613825 0
0.903136 0.613581 0
0.918929 0.613581 0
0.931701 0.613123 0
0.941634 0.612268 0
0.949645 0.612131 0
0.95465 0.610819 0
0 0.429572 0.140276
0 0.433692 0.141955
0 0.438804 0.142153
0 0.445457 0.140185
0 0.454688 0.135409
0 0.467842 0.125002
0 0.487633 0.106401
0 0.512032 0.0754711
0 0.535698 0.0213626
0.0571145 0.553277 0.005066
0.137621 0.567178 0
0.230594 0.578027 0
0.312871 0.586374 0
0.387045 0.593393 0
0.453925 0.600229 0
0.513802 0.607141 0
0.56846 0.613046 0
0.617212 0.618158 0
0.661097 0.622629 0
0.70045 0.626719 0
0.73286 0.631952 0
0.76437 0.636774 0
0.794263 0.640574 0
0.82211 0.642924 0
0.847013 0.643259 0
0.870314 0.642939 0
0.891249 0.642191 0
0.908614 0.641123 0
0.924697 0.641718 0
0.938277 0.641596 0
0.949477 0.64126 0
0.958541 0.641932 0
0.962737 0.640589 0
0 0.449378 0.147387
0 0.453666 0.148974
0 0.459388 0.148226
0 0.466621 0.145098
0 0.475334 0.139376
0 0.48925 0.128038
0 0.509453 0.107851
0 0.53373 0.0736706
0 0.557916 0.014023
0.0555276 0.57435 0.00268559
0.137682 0.587045 0
0.232883 0.597223 0
0.315373 0.606683 0
0.390112 0.614008 0
0.456886 0.621134 0
0.516625 0.62826 0
0.571283 0.634577 0
0.619928 0.639673 0
0.663661 0.644633 0
0.702998 0.649927 0
0.73579 0.655146 0
0.767712 0.659754 0
0.798047 0.663554 0
0.826215 0.666362 0
0.850889 0.667475 0
0.874067 0.667903 0
0.895155 0.667704 0
0.913466 0.666804 0
0.930037 0.666911 0
0.944045 0.667781 0
0.95613 0.669017 0
0.966888 0.670542 0
0.970504 0.6701 0
0 0.465965 0.154086
0 0.470665 0.154772
0 0.476967 0.153109
0 0.484504 0.149126
0 0.49279 0.142687
0 0.507637 0.1299
0 0.527504 0.108797
0 0.550881 0.0723888
0 0.576059 0.00741588
0.0491493 0.592432 0.000915541
0.131395 0.604822 0
0.229908 0.614679 0
0.314397 0.624002 0
0.389685 0.631907 0
0.457313 0.63949 0
0.517388 0.646815 0
0.572549 0.653391 0
0.620462 0.658686 0
0.664088 0.664347 0
0.703258 0.670497 0
0.737011 0.675746 0
0.76965 0.680201 0
0.800412 0.683925 0
0.829053 0.6869 0
0.854002 0.688914 0
0.877623 0.690105 0
0.89926 0.690593 0
0.918105 0.69073 0
0.935668 0.690349 0
0.949477 0.691661 0
0.961852 0.693477 0
0.974289 0.695216 0
0.977447 0.69601 0
0 0.479103 0.160037
0 0.484154 0.159365
0 0.490929 0.157122
0 0.498802 0.15288
0 0.507027 0.146197
0 0.522911 0.131533
0 0.542062 0.11014
0 0.564508 0.0717937
0 0.590402 0.00299077
0.0382544 0.608194 0.000030518
0.119799 0.621241 0
0.222705 0.630945 0
0.310262 0.63917 0
0.387274 0.647959 0
0.455253 0.656016 0
0.516182 0.663478 0
0.571771 0.670542 0
0.619333 0.676555 0
0.662837 0.682841 0
0.702296 0.689097 0
0.737392 0.694423 0
0.77084 0.699077 0
0.802396 0.70309 0
0.831724 0.706432 0
0.857099 0.708934 0
0.881773 0.710933 0
0.903685 0.712398 0
0.922545 0.713573 0
0.940597 0.713558 0
0.954543 0.715358 0
0.967422 0.717479 0
0.980087 0.719463 0
0.984192 0.720363 0
0 0.489174 0.165927
0 0.492973 0.164523
0 0.49955 0.161334
0 0.507881 0.156481
0 0.517327 0.149905
0 0.533257 0.134356
0 0.552575 0.111696
0 0.575006 0.0711681
0 0.600168 0.00111391
0.0234226 0.619486 0
0.105272 0.632853 0
0.21323 0.642756 0
0.305211 0.652079 0
0.382712 0.662211 0
0.451469 0.671077 0
0.512993 0.679118 0
0.56875 0.686931 0
0.616648 0.694514 0
0.661112 0.701091 0
0.702266 0.706722 0
0.738399 0.712062 0
0.772305 0.717556 0
0.804532 0.722606 0
0.834943 0.726726 0
0.861357 0.728771 0
0.8869 0.731502 0
0.908583 0.733761 0
0.926085 0.735576 0
0.943832 0.73727 0
0.959258 0.739574 0
0.972824 0.742123 0
0.984207 0.744244 0
0.990936 0.743328 0
0 0.494759 0.170199
0 0.500008 0.168719
0 0.506981 0.165148
0 0.515358 0.159533
0 0.525216 0.151614
0 0.540673 0.136843
0 0.560342 0.113375
0 0.583124 0.0705882
0.0000915541 0.608164 0
