site/assets/luts/freshluts--0001223-rosa-natural.cube
# LUTr-Schema-Version: 2
# LUTr-ID: freshluts--0001223-rosa-natural
# LUTr-Title: ROSA NATURAL
# LUTr-Collection: Fresh LUTs
# LUTr-Collection-ID: freshluts-community
# LUTr-Source: https://freshluts.com
# LUTr-Retrieved: 2026-07-27
# LUTr-Source-File: submissions-raw/freshluts/cubes/1223__ROSA_NATURAL.cube
# LUTr-Source-Format: CUBE
# LUTr-Source-SHA256: f48eab5e311356cad8e8a69f8a5d637d8f031d8d037001d7b0976411a5929c26
# LUTr-License: CC0-1.0
# LUTr-License-URL: https://freshluts.com/termsandconditions
# LUTr-License-Basis: site-terms
# LUTr-Transform-Class: creative-look
# LUTr-Tags: creative, freshluts, community, cube, orange, sony-s-log2
# LUTr-Input-Color-Space:
# LUTr-Input-Gamut: sony-s-gamut
# LUTr-Input-Transfer: sony-s-log2
# LUTr-Output-Color-Space: srgb
# LUTr-Output-Gamut: rec709
# LUTr-Output-Transfer: srgb
# LUTr-Color-Space-Confidence: camera-profile-input-required
# LUTr-Domain-Normalized: true
# LUTr-Shaper: none
# LUTr-Original-Grid: 33x33x33
# LUTr-Conversion-Grid: 33x33x33
# LUTr-Conversion-Interpolation: none
# LUTr-Conversion-Method: Metadata normalization; numeric LUT samples preserved
# LUTr-Conversion-Tool: LUTr scripts/convert-all-to-cube.mjs 2.0.0
# LUTr-Conversion-Date: 2026-07-28
# LUTr-Asset-URL: https://freshluts.com/luts/1223
# LUTr-Author: Antony Eliezer
# LUTr-Author-URL: https://freshluts.com/users/32961
# LUTr-Attribution: Antony Eliezer via Fresh LUTs
# LUTr-Source-Labels: gamma=Sony S-Log 2; color=Orange; key=Neutral; style=Colorful
# LUTr-Note: Preserve this metadata and the upstream license notices when redistributing.
# LUTr-Upstream-Comment: VEGAS Pro LUT
TITLE "ROSA NATURAL"
LUT_3D_SIZE 33
DOMAIN_MIN 0 0 0
DOMAIN_MAX 1 1 1
0.02413614 0.02413614 0.02413614
0.03225776 0.02413614 0.02413614
0.04069662 0.02437408 0.02437408
0.04968188 0.02504676 0.02502182
0.06051883 0.02653995 0.02620865
0.075453 0.0297663 0.02859945
0.09274541 0.0336812 0.03137433
0.11507546 0.03870775 0.03468875
0.13971291 0.04400085 0.03811063
0.16664147 0.04891896 0.04115751
0.19547796 0.05343787 0.04374746
0.22712752 0.05681634 0.0449021
0.26172903 0.05903114 0.04460938
0.29883334 0.06013006 0.04325137
0.33987907 0.05951207 0.04013977
0.38129693 0.05843753 0.03685945
0.42381474 0.05605164 0.03319442
0.46618316 0.05347742 0.02962355
0.50712067 0.04995089 0.02652884
0.54792422 0.04641487 0.02343413
0.58389819 0.04216863 0.02033942
0.61944366 0.03785099 0.01731613
0.64743453 0.03402223 0.01478283
0.67335659 0.03020781 0.01240071
0.69369531 0.02712954 0.01062799
0.71100312 0.02436849 0.00929325
0.72530037 0.02233677 0.0083174
0.73700434 0.02095539 0.00775632
0.7481209 0.02008639 0.00749623
0.75883675 0.01982954 0.00757744
0.76918769 0.0196856 0.00835856
0.77862203 0.01971094 0.01076124
0.78771335 0.01972798 0.01356806
0.02413614 0.03225776 0.02413614
0.03225776 0.03225776 0.02413614
0.04069662 0.0324957 0.02437408
0.04968188 0.03316837 0.02502182
0.06051883 0.03466156 0.02620865
0.075453 0.03788792 0.02859945
0.09274541 0.04180281 0.03137433
0.11507546 0.04682936 0.03468875
0.13971291 0.05212246 0.03811063
0.16664147 0.05704056 0.04115751
0.19547796 0.06155949 0.04374746
0.22712752 0.06493796 0.0449021
0.26172903 0.06715275 0.04460938
0.29883334 0.06825167 0.04325137
0.33987907 0.06763369 0.04013977
0.38129693 0.06655915 0.03685945
0.42381477 0.06417324 0.03319442
0.46618316 0.06159904 0.02962355
0.50712067 0.0580725 0.02652884
0.54792422 0.05453648 0.02343413
0.58389819 0.05029025 0.02033942
0.61944366 0.0459726 0.01731613
0.64743453 0.04214384 0.01478283
0.67335659 0.03832943 0.01240071
0.69369537 0.03525116 0.010628
0.71100312 0.0324901 0.00929325
0.72530037 0.03045838 0.0083174
0.73700434 0.029077 0.00775632
0.7481209 0.02820801 0.00749623
0.75883675 0.02795116 0.00757744
0.76918769 0.02780722 0.00835856
0.77862203 0.02783255 0.01076123
0.78771335 0.0278496 0.01356806
0.0246649 0.040961 0.0246649
0.03278652 0.040961 0.0246649
0.04109319 0.04109319 0.02477065
0.04995376 0.04161623 0.0252937
0.06066602 0.04300667 0.02640271
0.07549743 0.04613327 0.02871869
0.09277184 0.04998929 0.03143921
0.11512085 0.0549849 0.03472269
0.1397658 0.06027051 0.03813706
0.16667841 0.06517267 0.04116801
0.1955044 0.0696811 0.04374746
0.22715396 0.07305957 0.0449021
0.26175547 0.07527436 0.04460938
0.2988697 0.07637328 0.04325137
0.33993194 0.07575529 0.04013977
0.38133588 0.07468076 0.03685945
0.42380387 0.0723003 0.03319442
0.46612635 0.06974313 0.02962355
0.50704384 0.06619411 0.02652884
0.5478704 0.06265809 0.02343508
0.58381891 0.05841186 0.02036585
0.61936438 0.05412064 0.01731613
0.6473816 0.05026545 0.01478283
0.67330372 0.04647747 0.01240071
0.6936689 0.04337276 0.01062799
0.71100312 0.04061171 0.00929325
0.72532678 0.03857999 0.0083174
0.73700434 0.03719861 0.00775632
0.7481209 0.03632962 0.00749623
0.75883669 0.03607276 0.00757744
0.76918769 0.03592882 0.00833212
0.77862203 0.03595416 0.01076123
0.78771335 0.03597121 0.0135945
0.02612924 0.0506909 0.02607936
0.03425086 0.0506909 0.02607936
0.04243284 0.05067345 0.02608536
0.05090861 0.05088367 0.02627349
0.06129196 0.05189817 0.02705359
0.07577252 0.05474288 0.02915666
0.09282338 0.05837835 0.03170665
0.11518682 0.06325646 0.03487262
0.13990223 0.06847159 0.03821653
0.1668064 0.07335031 0.04123998
0.19557637 0.07780272 0.04375795
0.22721298 0.08118118 0.04491504
0.26181394 0.08339597 0.04462286
0.2989417 0.0844949 0.04325137
0.3400594 0.08387691 0.04013977
0.38146594 0.08280238 0.03685945
0.42379296 0.08042192 0.03319442
0.46598241 0.07791573 0.02962355
0.50685042 0.07433822 0.02652884
0.54770148 0.07078065 0.02343508
0.5836035 0.06655842 0.02041234
0.61914849 0.06228724 0.01734312
0.64720917 0.05841555 0.01480776
0.67315978 0.05464107 0.01240071
0.69359034 0.05150093 0.01065294
0.71099508 0.04873332 0.00926831
0.72536427 0.04667667 0.0083174
0.73701537 0.04532023 0.00775632
0.7481209 0.04445123 0.00749623
0.75883675 0.04419438 0.00757744
0.76918769 0.04405044 0.00830063
0.77862203 0.04407578 0.01074419
0.78771335 0.04409282 0.01362299
0.02904697 0.0624836 0.02871252
0.03716858 0.0624836 0.02871252
0.04524931 0.06233996 0.0286422
0.0534196 0.06217424 0.02859532
0.06299611 0.06257105 0.02897035
0.07675599 0.06482672 0.03063795
0.0933238 0.06789359 0.03278056
0.11549508 0.07236913 0.03561579
0.14014482 0.07728934 0.03869572
0.16703565 0.0819639 0.04153695
0.19571321 0.08625059 0.0439741
0.22733183 0.08953229 0.04501684
0.26186138 0.09168221 0.04473029
0.29899377 0.09273726 0.04328831
0.34006757 0.09207539 0.04015477
0.38149267 0.09096393 0.03686639
0.42372265 0.08856153 0.03321786
0.46581107 0.08603735 0.02964699
0.50665712 0.08251081 0.02655228
0.54743773 0.07892476 0.02345851
0.58331728 0.074728 0.02043578
0.61883873 0.07043435 0.0173896
0.64692295 0.0666056 0.0148563
0.67294049 0.06279118 0.0124292
0.69346493 0.05964598 0.01069491
0.71094012 0.05685494 0.00925931
0.72534084 0.05478274 0.00830785
0.73701537 0.0534308 0.00775632
0.74809748 0.05257285 0.00749623
0.75883675 0.052316 0.00757744
0.76918769 0.05217205 0.00830063
0.77862203 0.05219739 0.01072075
0.78771335 0.05221444 0.01359955
0.035074 0.07873516 0.03414185
0.04319561 0.07873516 0.03414185
0.05119852 0.07848877 0.03401865
0.05908844 0.07799414 0.03376186
0.06801473 0.07780191 0.03384237
0.08005963 0.07879636 0.03481836
0.09516099 0.08057431 0.03612448
0.11667989 0.08381098 0.03801635
0.1409387 0.08766443 0.04023794
0.16752951 0.09168907 0.0425087
0.19605167 0.09555291 0.04460794
0.2275348 0.09850066 0.04543178
0.26204389 0.10037769 0.04494524
0.29903591 0.1012708 0.04342231
0.33995679 0.10046799 0.04022673
0.38125482 0.09922253 0.03688139
0.42349026 0.09675512 0.03326789
0.46559122 0.0941809 0.02969703
0.50636679 0.09065192 0.02660231
0.54707694 0.08709735 0.02350854
0.58288598 0.08287212 0.0204858
0.61835897 0.07862589 0.01741358
0.64648759 0.07479918 0.01487824
0.67257559 0.07098476 0.01249612
0.693214 0.06783956 0.01070146
0.71078819 0.06500655 0.00930129
0.72525936 0.06294484 0.0083174
0.73698235 0.06156346 0.00775632
0.74805999 0.06069446 0.00749623
0.75882268 0.06043761 0.00757744
0.76918763 0.06029367 0.00830063
0.77862203 0.06031901 0.01066583
0.78771335 0.06033605 0.01352758
0.04193967 0.09774248 0.03988965
0.05006128 0.09774248 0.03988965
0.0580507 0.09745766 0.0397779
0.06580796 0.09670158 0.0394385
0.07417861 0.09610428 0.03929859
0.08474576 0.09599379 0.03974256
0.09797504 0.09630125 0.04048184
0.11840735 0.09818003 0.04169019
0.14230736 0.10067561 0.04295155
0.16895311 0.10367117 0.04455225
0.19757418 0.10686692 0.04616656
0.2289567 0.10919043 0.04655698
0.26336849 0.11059838 0.04570001
0.30015364 0.11094347 0.04388556
0.34068418 0.10970306 0.04047643
0.38166767 0.10809316 0.03701428
0.42374614 0.1053848 0.03329243
0.4657321 0.10263697 0.02968053
0.50630462 0.09899679 0.02660231
0.54681742 0.09529883 0.02350854
0.58253652 0.09108559 0.0204858
0.61794758 0.08683991 0.01748351
0.64607626 0.08299277 0.0149502
0.67221069 0.07917835 0.01254765
0.69294006 0.07601272 0.01072845
0.71062815 0.07317969 0.00930129
0.72517782 0.07107601 0.00833784
0.7369104 0.06970552 0.00775632
0.74804741 0.06881608 0.00749623
0.75882268 0.06855923 0.00757744
0.76918769 0.06841529 0.00830063
0.77862203 0.06844062 0.01063134
0.78771335 0.06845767 0.01347605
0.04991698 0.12275818 0.0454124
0.0580386 0.12275818 0.0454124
0.06604695 0.12244842 0.04534452
0.07382767 0.12165075 0.04509454
0.08200944 0.12072933 0.04497523
0.09148695 0.12002099 0.04524416
0.10345612 0.11949116 0.04587203
0.12226341 0.11996462 0.04725084
0.14504911 0.12098102 0.04853107
0.17218801 0.12246552 0.04965186
0.20191729 0.12407003 0.05038865
0.2338485 0.12505926 0.04987265
0.26819763 0.12524103 0.04810026
0.30455661 0.12429097 0.0454632
0.34417963 0.12164184 0.04139285
0.38423651 0.11885178 0.03738423
0.42566943 0.11538639 0.03343897
0.4669728 0.11190126 0.02962355
0.50693166 0.10780337 0.02658582
0.54685152 0.10370737 0.02350949
0.58239365 0.09937119 0.02050475
0.61761284 0.09508653 0.01755343
0.64571637 0.0911899 0.01502218
0.67186981 0.08737194 0.01257164
0.6926921 0.08415982 0.01079387
0.7104761 0.08132025 0.00932828
0.72509629 0.07921656 0.00838132
0.73683846 0.07786911 0.00778632
0.74801594 0.07695024 0.00749623
0.75882268 0.07668085 0.00757744
0.76918769 0.07653691 0.00830063
0.77862203 0.07656224 0.01063133
0.78771335 0.07657929 0.01349499
0.05727133 0.15078244 0.04950422
0.06539294 0.15078244 0.04950422
0.07344368 0.15046519 0.04950368
0.08132974 0.14960903 0.04939461
0.08941042 0.14870018 0.04936788
0.09825844 0.14753571 0.04958379
0.10907055 0.14649758 0.05018507
0.12611748 0.14589515 0.05186391
0.14757043 0.14552225 0.0538093
0.17539905 0.1454749 0.05491253
0.20704974 0.14542404 0.05510886
0.24036333 0.14483957 0.05388533
0.2753152 0.14361665 0.05122662
0.31160253 0.1412119 0.04756587
0.35036793 0.1370282 0.042618
0.38962388 0.13259774 0.03791627
0.43020403 0.12791838 0.03357752
0.47058293 0.12317855 0.02947053
0.50938159 0.11803617 0.02638931
0.54819828 0.11290402 0.02335441
0.58321124 0.10824996 0.02043663
0.61799186 0.10361561 0.01752075
0.64577872 0.09955791 0.01502438
0.67171639 0.09563529 0.01260873
0.69245654 0.09237085 0.0108484
0.71033353 0.08949638 0.00938281
0.72501475 0.0873927 0.00839087
0.73678392 0.08600177 0.00782979
0.7479614 0.08507185 0.00750878
0.75879115 0.08480246 0.00757744
0.76918769 0.08465852 0.00830063
0.77862203 0.08468386 0.01064878
0.78773081 0.0847009 0.01353097
0.0609277 0.18270016 0.04847526
0.06904931 0.18270016 0.04847526
0.07714992 0.18239884 0.04851763
0.08516847 0.18153518 0.04861249
0.0933747 0.18060969 0.04869875
0.10190005 0.17948404 0.04893062
0.11200292 0.17830592 0.04951895
0.12725762 0.1772854 0.05120599
0.14719558 0.17628753 0.05357928
0.17611009 0.1753123 0.05578484
0.21040407 0.17433263 0.05725311
0.24691713 0.17273742 0.05683596
0.28514639 0.17038871 0.05439448
0.32362589 0.16691421 0.05049501
0.3630386 0.16161855 0.04452921
0.40247786 0.15569046 0.03880451
0.4424924 0.14864419 0.03362383
0.48194477 0.14136335 0.02874308
0.51803136 0.1332158 0.02571789
0.55410004 0.12507774 0.02262982
0.58759409 0.11914621 0.01986797
0.6208604 0.11338069 0.01710897
0.64743853 0.10861474 0.01476949
0.67217571 0.10416299 0.01252666
0.69244915 0.10065605 0.01084186
0.71027756 0.09765004 0.00938281
0.72495878 0.09551433 0.00839087
0.73677289 0.09412339 0.00782979
0.7479614 0.09320941 0.00750878
0.75874925 0.09292408 0.00757744
0.76917213 0.09279608 0.00830063
0.77863795 0.09280547 0.01068777
0.78776824 0.09282251 0.0135814
0.06151448 0.2171929 0.04425668
0.06963608 0.2171929 0.04425668
0.07778658 0.21691652 0.04432401
0.08592264 0.2161288 0.04449289
0.09418489 0.21523273 0.04473224
0.10276026 0.21425404 0.04502012
0.11246633 0.21321157 0.04558327
0.12597385 0.21211758 0.04710718
0.14389777 0.21100314 0.04934688
0.17331305 0.20977664 0.05273076
0.21057248 0.2082648 0.05637162
0.25164744 0.20604254 0.05782552
0.29519913 0.20295174 0.05664551
0.33775166 0.19875503 0.05330059
0.37890798 0.19271779 0.04667558
0.41953349 0.18569148 0.03997352
0.45916575 0.1759403 0.03371709
0.49802816 0.1659217 0.02780628
0.53104329 0.15381198 0.02458938
0.5640195 0.14180592 0.02133338
0.5955044 0.13362384 0.01874246
0.62682933 0.12570144 0.01619487
0.65140045 0.11939225 0.01413901
0.67407095 0.11347026 0.01224674
0.69328773 0.10929443 0.01070532
0.71063221 0.10601055 0.00932504
0.72508872 0.10370326 0.00836198
0.73683065 0.1022739 0.00781535
0.74797583 0.10137601 0.00750878
0.75876361 0.10105974 0.00757744
0.76917213 0.10095968 0.00831507
0.77867848 0.10094413 0.01071665
0.78780121 0.10094413 0.0137027
0.05712229 0.25365305 0.03837847
0.0652439 0.25365305 0.03837847
0.07341838 0.25341457 0.03844484
0.08167195 0.25272074 0.03863487
0.08998273 0.25193074 0.03886127
0.09854516 0.25100413 0.0391362
0.10793711 0.25007167 0.03955288
0.12002118 0.24892014 0.04065072
0.13588397 0.24785474 0.04219808
0.16358833 0.24678656 0.04519965
0.20084056 0.24550624 0.04910945
0.24655932 0.24328968 0.05200531
0.29795071 0.2400429 0.05309784
0.34682366 0.23568022 0.05195776
0.39199725 0.2296274 0.04703112
0.43551114 0.22251764 0.04132517
0.47540367 0.21225201 0.03427541
0.51460773 0.20152932 0.0274625
0.54778856 0.18727358 0.02299154
0.58084202 0.17303893 0.01856376
0.61123836 0.16039622 0.01598484
0.64143723 0.1477295 0.01362112
0.66262078 0.13688701 0.0121835
0.68138403 0.1264549 0.01101251
0.69781423 0.11982008 0.0099213
0.71294409 0.11525086 0.0089322
0.726035 0.11222796 0.00818601
0.73723847 0.11057448 0.00771939
0.7480855 0.10952272 0.00749623
0.75882268 0.10919429 0.00757744
0.76918769 0.10908129 0.00835856
0.77867848 0.10906574 0.01084355
0.78784168 0.10906574 0.01391301
0.04800015 0.29208222 0.03105711
0.05612176 0.29208222 0.03105711
0.06430769 0.29188216 0.03109854
0.07258469 0.29131782 0.03121754
0.08092111 0.29063633 0.03132495
0.08947454 0.28970072 0.03152941
0.09855374 0.28873569 0.03176986
0.10951097 0.28764862 0.03223892
0.12357006 0.28665352 0.03296138
0.14771011 0.28612676 0.03427654
0.18149395 0.28566474 0.03640779
0.23029716 0.28420827 0.03961808
0.29185134 0.28142434 0.04361077
0.34969476 0.27753508 0.04601326
0.4012574 0.27192891 0.04524428
0.44976351 0.26560423 0.04274738
0.49061024 0.25700453 0.03562735
0.53093815 0.24766965 0.02838837
0.5670988 0.2331146 0.02184381
0.60322189 0.2185116 0.01528276
0.63343829 0.19974843 0.01255389
0.66321474 0.18061016 0.01003176
0.68045181 0.16265318 0.00915377
0.69426978 0.14504877 0.0087449
0.70654386 0.13384435 0.008374
0.71804672 0.12625341 0.00802554
0.72865295 0.12150966 0.00775259
0.73853374 0.11921941 0.0074843
0.74855536 0.11779641 0.00741392
0.75898546 0.11740818 0.00755455
0.76922196 0.11721846 0.00837
0.77870131 0.11718737 0.01096484
0.78785318 0.11718737 0.01417525
0.03803321 0.33105433 0.02438902
0.04615483 0.33105433 0.02438902
0.05434581 0.33086929 0.02441546
0.06267339 0.33037543 0.02448743
0.07103436 0.32978427 0.02458284
0.07945789 0.32891858 0.02472678
0.0883008 0.32798243 0.02487072
0.09827705 0.32696584 0.0250246
0.11044932 0.32597366 0.02521093
0.13068384 0.32552812 0.02557677
0.15987596 0.32554278 0.02617882
0.20875038 0.32516405 0.02859483
0.27612895 0.32389891 0.03315471
0.34208429 0.32091779 0.03768698
0.40266949 0.31568086 0.04104754
0.45832512 0.31004992 0.04260668
0.50148141 0.30298859 0.03820451
0.54380578 0.29524863 0.03331219
0.58144397 0.28191862 0.02611641
0.61900628 0.26842767 0.01888143
0.64930362 0.24728647 0.0144013
0.67910957 0.22562136 0.01009216
0.69633263 0.20245738 0.00751364
0.71005911 0.17885084 0.00545742
0.72049445 0.16028658 0.00511336
0.72920841 0.14468484 0.00569169
0.73692739 0.13473062 0.00617467
0.74374378 0.12995581 0.00656919
0.75136435 0.12701747 0.00691438
0.76037633 0.12599143 0.0073287
0.76963311 0.12542213 0.00838539
0.77887231 0.12531891 0.01114666
0.78793377 0.12530898 0.0145179
0.02703429 0.37072855 0.01869935
0.0351559 0.37072855 0.01869935
0.04333038 0.37056038 0.01873423
0.05159594 0.37009001 0.0188062
0.05989148 0.36959633 0.01890161
0.06827059 0.36893004 0.01904555
0.07674851 0.36812636 0.01918949
0.08584367 0.36724174 0.01935237
0.0963728 0.36621782 0.01957728
0.1123688 0.36522964 0.0198811
0.13588661 0.3647595 0.0201527
0.18082526 0.36570802 0.02061619
0.24663137 0.36750162 0.0218865
0.31669244 0.3666122 0.0257304
0.39071587 0.36178982 0.03280808
0.45740175 0.35670775 0.03905692
0.5052141 0.35089949 0.04205423
0.55144393 0.34477872 0.04388967
0.58805877 0.33486462 0.03861643
0.62460428 0.32491872 0.03317595
0.65551341 0.30730107 0.02482594
0.68595362 0.28916794 0.0162549
0.70893669 0.26378602 0.00872783
0.7297706 0.23637007 0.001587
0.74206132 0.20681694 -0.00002552
0.74953258 0.17605974 0.00149932
0.75386173 0.15553659 0.00304728
0.75546974 0.14507374 0.00442132
0.75839758 0.13838601 0.00562547
0.76407993 0.13561404 0.00670006
0.77084547 0.13396002 0.00824145
0.77926612 0.13358022 0.011303
0.78800625 0.13345759 0.01494752
0.01697623 0.40996709 0.01222958
0.02509785 0.40996709 0.01222958
0.03326539 0.40984878 0.01226856
0.041524 0.40950283 0.01238756
0.04978261 0.40907961 0.01248297
0.05804121 0.40850386 0.01262692
0.06633376 0.40788761 0.0127778
0.07474831 0.40709782 0.01293373
0.08406033 0.40616086 0.01315659
0.09672415 0.40489444 0.01340438
0.11535005 0.40377799 0.01361065
0.15548033 0.40511733 0.01287201
0.217823 0.40876794 0.01178647
0.28978527 0.41019443 0.01460067
0.37464243 0.40712184 0.02388882
0.45188013 0.40324047 0.03383784
0.5055756 0.39839125 0.04368648
0.55711263 0.39338139 0.05219997
0.59397286 0.38643178 0.04999889
0.63071454 0.37941483 0.04761745
0.66204053 0.36532071 0.03788949
0.69305074 0.350788 0.02766798
0.71966213 0.32540503 0.01703224
0.74513716 0.29702869 0.00623082
0.75932366 0.26100576 0.00228895
0.76711249 0.22066559 0.00219817
0.77050781 0.19073461 0.00240221
0.77015138 0.17154765 0.00241687
0.77007633 0.15752394 0.00319489
0.77147782 0.14957047 0.00511605
0.77452874 0.14403911 0.00752221
0.78103071 0.14247082 0.01124112
0.78845149 0.14176936 0.01537248
0.00985003 0.44807842 0.00382542
0.01797165 0.44807842 0.00382542
0.02611425 0.44801 0.00382542
0.03430784 0.44780499 0.00384491
0.04249597 0.44750077 0.00394577
0.05068412 0.44698048 0.00408971
0.05888725 0.4464156 0.00424865
0.06716084 0.44583726 0.00444561
0.07618301 0.44509578 0.00462444
0.08797953 0.44397926 0.0049337
0.10470849 0.44281879 0.00522513
0.13911492 0.44265476 0.00504301
0.19266982 0.4439747 0.0047244
0.26053163 0.44629234 0.00715275
0.34905887 0.44926739 0.01440612
0.43156752 0.44987816 0.02403749
0.49552742 0.44470721 0.0392119
0.55641502 0.43956482 0.05315224
0.59730148 0.43394628 0.05784149
0.6380195 0.4282898 0.06240553
0.66971129 0.41771021 0.05845617
0.70074064 0.40682453 0.05400779
0.72538966 0.38775262 0.04513019
0.74830747 0.36643112 0.03502903
0.76433516 0.33680609 0.02582248
0.77651322 0.30255261 0.01714195
0.78582686 0.26710159 0.0090125
0.79258263 0.23096898 0.00140356
0.79467213 0.19980024 -0.00214987
0.78971809 0.1767496 0.00088916
0.78551477 0.15918742 0.00531574
0.78687108 0.15328845 0.01039741
0.79013318 0.15055519 0.01569409
0.00436232 0.48571444 -0.00417389
0.01248393 0.48571444 -0.00417389
0.02060554 0.48568013 -0.00416995
0.0287442 0.48560417 -0.00416995
0.03691435 0.48541898 -0.00410752
0.04503201 0.4849731 -0.0039175
0.05315363 0.4844937 -0.00377751
0.06128629 0.48406583 -0.00363751
0.0699923 0.48352769 -0.00346659
0.08082494 0.48256007 -0.00315866
0.09553625 0.48138753 -0.00276362
0.12413579 0.48005325 -0.00250163
0.16849551 0.4790675 -0.00212566
0.23132934 0.48187238 -0.00001212
0.32224554 0.49019974 0.00524105
0.40947551 0.49533063 0.01460981
0.48360687 0.49050251 0.03485359
0.55424076 0.48550409 0.05400917
0.59943622 0.4810493 0.06520516
0.64435923 0.47656509 0.07628828
0.67675573 0.4692601 0.07804853
0.70820451 0.46169269 0.07922199
0.73138601 0.44845679 0.07245121
0.75225931 0.43363959 0.06347039
0.77003002 0.41033193 0.05012326
0.78596222 0.3822006 0.03428334
0.80026782 0.34307447 0.01899594
0.81298751 0.29344913 0.00445971
0.81722444 0.2475857 -0.00344807
0.80771959 0.21029511 -0.00069575
0.797701 0.18056208 0.00434114
0.79395419 0.16786861 0.01006164
0.792898 0.16055131 0.01588338
0.01220706 0.51974285 -0.00863359
0.02032867 0.51974285 -0.00863359
0.02844783 0.51966107 -0.0086096
0.03654451 0.51946765 -0.00856257
0.04461515 0.51925826 -0.00854158
0.05271482 0.51890332 -0.00847206
0.06078001 0.51854593 -0.00840253
0.06888024 0.51818848 -0.00833301
0.07722212 0.51776379 -0.00824605
0.08678034 0.51708049 -0.00809351
0.09887475 0.51616395 -0.00789694
0.12058558 0.51494527 -0.00775789
0.15425278 0.51390237 -0.00743164
0.2071102 0.51620239 -0.00573802
0.28967455 0.52353173 -0.00131272
0.3733187 0.5292632 0.00828514
0.45821533 0.52963167 0.03233188
0.5392803 0.52939969 0.05527329
0.59102505 0.52508885 0.06977747
0.64246768 0.52082556 0.08411457
0.67874306 0.51436776 0.09003258
0.71406275 0.50785333 0.09536628
0.73975426 0.49684003 0.09330063
0.76282632 0.48467693 0.08917273
0.78081894 0.46653321 0.07990547
0.7959882 0.44497463 0.06782668
0.80845422 0.41522983 0.05427667
0.81864762 0.3777006 0.03951449
0.8241446 0.33706316 0.02736722
0.82251877 0.29316649 0.01974411
0.81838876 0.25071722 0.01463446
0.81103748 0.2140214 0.01418708
0.80413443 0.18208656 0.01550314
0.02007457 0.55365336 -0.01296969
0.02819618 0.55365336 -0.01296969
0.03629135 0.55354953 -0.01296969
0.04434195 0.55328751 -0.01296969
0.05239159 0.55307156 -0.01296969
0.06044124 0.55285561 -0.01296969
0.06847045 0.55262023 -0.01296969
0.07644812 0.55233234 -0.01296969
0.08449366 0.55199403 -0.0129532
0.09278826 0.5514912 -0.01289717
0.1022871 0.55089015 -0.01289717
0.11732073 0.54978281 -0.01289717
0.14029557 0.54862392 -0.01274264
0.18315412 0.5504635 -0.01147464
0.25736114 0.55683196 -0.00788433
0.3371326 0.56308401 0.0020205
0.43265504 0.56870079 0.02982128
0.5240643 0.57319862 0.05648335
0.58241224 0.56905812 0.07423297
0.64038897 0.56495297 0.09180494
0.68068117 0.55941129 0.10188074
0.71975422 0.55388379 0.11142407
0.74803448 0.54514575 0.11404379
0.77332693 0.53556073 0.11468352
0.79157001 0.52253127 0.10954832
0.80594611 0.50754714 0.10123913
0.81672055 0.48717394 0.08945499
0.82433236 0.46154141 0.0745209
0.8311547 0.42622179 0.0581768
0.83725327 0.37606877 0.04038433
0.83894932 0.32123131 0.02524463
0.82815301 0.26083133 0.01862022
0.81554842 0.20465228 0.01532929
0.02964657 0.5839417 -0.01325757
0.03776819 0.5839417 -0.01325757
0.04586336 0.58388883 -0.01325757
0.05393794 0.58374375 -0.01325757
0.06203557 0.58357584 -0.01325757
0.07008521 0.58335996 -0.01325757
0.07811442 0.58314401 -0.01325757
0.08609209 0.58290863 -0.01325757
0.09410466 0.58260334 -0.01325757
0.10224331 0.5822264 -0.01325702
0.11124736 0.58173627 -0.01325702
0.1243258 0.5809108 -0.01325702
0.14370216 0.5798763 -0.01316547
0.18026635 0.58067983 -0.01243723
0.24381132 0.58437198 -0.01016338
0.31425214 0.58960593 -0.00129613
0.40400198 0.59916461 0.02645219
0.49139294 0.60747832 0.0534636
0.55995905 0.60580128 0.07466779
0.62815404 0.60402167 0.09576329
0.67384398 0.59970349 0.10878985
