site/assets/luts/freshluts--0000626-green.cube
# LUTr-Schema-Version: 2
# LUTr-ID: freshluts--0000626-green
# LUTr-Title: GREEN
# LUTr-Collection: Fresh LUTs
# LUTr-Collection-ID: freshluts-community
# LUTr-Source: https://freshluts.com
# LUTr-Retrieved: 2026-07-27
# LUTr-Source-File: submissions-raw/freshluts/cubes/626__COOL.RED_37.A007_02270952_C026.cube
# LUTr-Source-Format: CUBE
# LUTr-Source-SHA256: 8b48fe8bdab8467a3c57378be56119321ab4603cc2c7b40f0e54653cf9e2dfa7
# LUTr-License: CC0-1.0
# LUTr-License-URL: https://freshluts.com/termsandconditions
# LUTr-License-Basis: site-terms
# LUTr-Transform-Class: creative-look
# LUTr-Tags: creative, freshluts, community, cube, cool, high-key, bmd-film
# LUTr-Input-Color-Space:
# LUTr-Input-Gamut: bmd-film-gamut
# LUTr-Input-Transfer: bmd-film
# LUTr-Output-Color-Space: srgb
# LUTr-Output-Gamut: rec709
# LUTr-Output-Transfer: srgb
# LUTr-Color-Space-Confidence: camera-profile-input-required
# LUTr-Domain-Normalized: true
# LUTr-Shaper: none
# LUTr-Original-Grid: 33x33x33
# LUTr-Conversion-Grid: 33x33x33
# LUTr-Conversion-Interpolation: none
# LUTr-Conversion-Method: Metadata normalization; numeric LUT samples preserved
# LUTr-Conversion-Tool: LUTr scripts/convert-all-to-cube.mjs 2.0.0
# LUTr-Conversion-Date: 2026-07-28
# LUTr-Asset-URL: https://freshluts.com/luts/626
# LUTr-Author: lvannoeun@gmail.com
# LUTr-Author-URL: https://freshluts.com/users/57563
# LUTr-Attribution: lvannoeun@gmail.com via Fresh LUTs
# LUTr-Source-Labels: gamma=Blackmagic BMD Film; color=Cool; key=High Key; style=Drama
# LUTr-Note: Preserve this metadata and the upstream license notices when redistributing.
TITLE "GREEN"
LUT_3D_SIZE 9
DOMAIN_MIN 0 0 0
DOMAIN_MAX 1 1 1
0.00210575 0 0
0.1355 0 0.000991836
0.289281 0 0.00447089
0.431098 0 0.00602731
0.538247 0 0.0105898
0.641962 0 0.0166171
0.743725 0 0.0246586
0.838712 0.00819409 0.0345159
0.932876 0.0170291 0.0443427
0.0140536 0.0963455 0.00588998
0.137881 0.105928 0.0130312
0.273274 0.112566 0.00842298
0.415229 0.113848 0
0.527504 0.116289 0
0.632242 0.12015 0.0059968
0.739666 0.125429 0.0137942
0.838483 0.132876 0.0253147
0.933776 0.141283 0.0375982
0.000442512 0.224781 0
0.139986 0.229129 0.00982681
0.270954 0.237095 0.00680552
0.404791 0.242206 0
0.516579 0.245441 0
0.621088 0.249088 0
0.731197 0.25359 0.00411994
0.834791 0.259525 0.0162051
0.932342 0.267002 0.0307317
0 0.358831 0
0.122911 0.35874 0
0.264103 0.363088 0
0.397833 0.368093 0
0.507485 0.371862 0
0.611002 0.375525 0
0.722118 0.37969 0
0.828504 0.384787 0.00927749
0.929168 0.39115 0.0256657
0 0.4878 0
0.104799 0.48954 0
0.251209 0.492439 0
0.389685 0.495979 0
0.499977 0.499565 0
0.602762 0.503319 0
0.714305 0.507347 0
0.822126 0.512032 0.00657664
0.925429 0.517617 0.0238956
0 0.615473 0
0.097673 0.618387 0
0.243397 0.621637 0
0.382895 0.62501 0
0.494804 0.628489 0
0.597345 0.632059 0
0.708782 0.635813 0
0.817349 0.640055 0.00978103
0.92253 0.644984 0.0272221
0 0.735302 0
0.100832 0.740719 0
0.242847 0.745403 0
0.38114 0.749401 0
0.493706 0.752941 0
0.59585 0.756481 0
0.706767 0.760189 0.00491341
0.815854 0.764233 0.0199893
0.922255 0.768917 0.0363012
0 0.852491 0.000198367
0.115618 0.858656 0
0.253285 0.864775 0
0.388235 0.869978 0
0.499382 0.874144 0.0030518
0.600183 0.87808 0.0116426
0.710018 0.882155 0.0228733
0.818921 0.886397 0.0364538
0.925841 0.891127 0.0508431
0 0.971267 0.0176242
0.134615 0.975265 0.0206149
0.270207 0.981399 0.0205692
0.402777 0.987259 0.0233768
0.511543 0.992218 0.028748
0.610544 0.996765 0.0361944
0.718883 1 0.045655
0.826871 1 0.0571756
0.933654 1 0.0697948
0.00564584 0 0.0940566
0.134722 0 0.106584
0.280644 0 0.122271
0.42623 0 0.132174
0.537255 0 0.136629
0.642817 0 0.141039
0.748516 0 0.146059
0.845029 0.00627146 0.152056
0.938369 0.0151369 0.159182
0.0144656 0.0975814 0.107317
0.134554 0.107988 0.117327
0.262592 0.115526 0.126085
0.399969 0.117021 0.128649
0.522805 0.116411 0.129107
0.631647 0.119371 0.132265
0.742245 0.123995 0.137285
0.845869 0.13048 0.144335
0.941161 0.139239 0.153094
0.0053254 0.222782 0.116991
0.146212 0.226474 0.132418
0.266163 0.236713 0.139651
0.390295 0.243885 0.135424
0.507454 0.246174 0.127062
0.619211 0.248432 0.12517
0.732097 0.252476 0.129213
0.84062 0.257496 0.135927
0.940978 0.264622 0.145724
0 0.355291 0.106905
0.134997 0.352163 0.125734
0.269413 0.357671 0.138369
0.392767 0.36582 0.135531
0.501335 0.37113 0.125032
0.608637 0.374731 0.120058
0.722271 0.378683 0.122957
0.832761 0.383139 0.129335
0.93753 0.388937 0.139315
0 0.486473 0.0969558
0.106432 0.486564 0.102831
0.255482 0.487953 0.114717
0.389746 0.492897 0.118212
0.497948 0.498024 0.115312
0.601419 0.502251 0.115145
0.714244 0.506447 0.118868
0.825315 0.510842 0.125261
0.932616 0.515969 0.13547
0 0.615091 0.096376
0.0942702 0.617395 0.0968795
0.24097 0.62034 0.100221
0.380804 0.623728 0.104631
0.492943 0.627466 0.108141
0.596109 0.631189 0.112566
0.708568 0.635218 0.117647
0.819776 0.639445 0.124651
0.928267 0.644053 0.13579
0 0.73669 0.105058
0.0930037 0.741634 0.100893
0.237339 0.745556 0.102037
0.37705 0.749249 0.10544
0.49044 0.752911 0.109438
0.593393 0.756634 0.114351
0.705821 0.760494 0.120638
0.81709 0.764553 0.129046
0.926101 0.768856 0.14168
0 0.854002 0.123445
0.105287 0.860929 0.117144
0.243061 0.867231 0.113909
0.379934 0.872084 0.114839
0.492744 0.876143 0.118196
0.595148 0.879973 0.123384
0.707103 0.883818 0.130831
0.818204 0.88777 0.140841
0.927291 0.891966 0.154253
0 0.970443 0.144411
0.126024 0.977234 0.140566
0.260761 0.983886 0.137835
0.393118 0.990219 0.136995
0.503151 0.995209 0.139071
0.603693 0.99913 0.143618
0.714183 1 0.150927
0.82443 1 0.160784
0.933257 1 0.173098
0.00648508 0 0.22562
0.14229 0 0.227832
0.284566 0 0.244892
0.424338 0 0.260624
0.535729 0 0.267033
0.642008 0 0.270787
0.750011 0 0.274434
0.849165 0.0040589 0.277852
0.943008 0.0132448 0.281865
0.0055848 0.100023 0.222858
0.137728 0.108141 0.220035
0.261112 0.11664 0.23328
0.391318 0.119203 0.247761
0.515068 0.117418 0.257542
0.629648 0.118456 0.262852
0.742214 0.122606 0.266926
0.849531 0.128222 0.271626
0.947616 0.136477 0.277241
0 0.224842 0.232349
0.147326 0.227268 0.234684
0.263096 0.238407 0.245808
0.38027 0.246464 0.254322
0.490867 0.249577 0.257511
0.610712 0.249241 0.257389
0.731014 0.251255 0.259785
0.842069 0.255772 0.264164
0.947478 0.261784 0.270268
0 0.354528 0.234562
0.140459 0.349889 0.245396
0.275914 0.354772 0.261402
0.389013 0.365072 0.26894
0.488273 0.372244 0.267475
0.596078 0.375921 0.260304
0.719066 0.37792 0.254932
0.832868 0.381735 0.258091
0.942031 0.386664 0.263844
0 0.485115 0.229541
0.111742 0.48278 0.237583
0.267857 0.481315 0.25713
0.395819 0.487282 0.269642
0.495079 0.494835 0.270008
0.594491 0.501122 0.261524
0.710918 0.505486 0.252857
0.824979 0.509514 0.254215
0.935546 0.514168 0.259663
0 0.614099 0.228382
0.0919509 0.616098 0.229557
0.242985 0.617365 0.236988
0.385443 0.619272 0.248951
0.494591 0.62388 0.253635
0.594644 0.629145 0.251987
0.706798 0.633982 0.249943
0.819348 0.638239 0.252735
0.930434 0.642649 0.258305
0 0.736889 0.233417
0.0885634 0.741192 0.231281
0.234333 0.74461 0.233524
0.37496 0.748028 0.237446
0.48896 0.751553 0.241901
0.591943 0.755398 0.245533
0.704311 0.759533 0.249393
0.816434 0.763729 0.254047
0.927749 0.767987 0.260349
0 0.854887 0.247761
0.0967727 0.862303 0.241535
0.23621 0.867979 0.239719
0.375067 0.87219 0.241779
0.489067 0.87599 0.245258
0.592065 0.879805 0.249088
0.70457 0.883726 0.253956
0.816724 0.887831 0.259449
0.927993 0.891997 0.266926
0 0.971099 0.267002
0.117891 0.978821 0.261906
0.250736 0.986725 0.257221
0.383673 0.992569 0.255177
0.495308 0.997223 0.256794
0.597192 1 0.259907
0.708995 1 0.264775
0.820951 1 0.271199
0.931975 1 0.280232
0.00508125 0 0.388006
0.152911 0 0.384482
0.295979 0 0.391363
0.426642 0 0.400351
0.534463 0 0.405585
0.640436 0 0.40943
0.749157 0 0.412161
0.850263 0.00248722 0.413794
0.945235 0.0116426 0.41529
0 0.100877 0.373373
0.138781 0.105943 0.357733
0.26923 0.113451 0.36054
0.396658 0.116869 0.376211
0.514321 0.116396 0.391714
0.627573 0.117464 0.400549
0.741009 0.121324 0.405249
0.850217 0.126513 0.409079
0.951629 0.134051 0.412528
0 0.228443 0.369635
0.138445 0.229709 0.354925
0.266194 0.238636 0.353094
0.379782 0.247547 0.365316
0.484382 0.251499 0.378531
0.600198 0.251209 0.389838
0.727504 0.250675 0.397238
0.841413 0.254383 0.401694
0.950027 0.259632 0.406332
0 0.355657 0.369329
0.133181 0.351873 0.364904
0.277028 0.355612 0.367895
0.387106 0.36669 0.378271
0.479622 0.374823 0.38761
0.580423 0.379355 0.392721
0.706752 0.379721 0.394018
0.83061 0.380713 0.395819
0.942596 0.385 0.400092
0 0.483833 0.366354
0.109621 0.481926 0.369268
0.273503 0.478996 0.380728
0.403021 0.484245 0.39649
0.494179 0.493477 0.405524
0.58407 0.501671 0.40618
0.695888 0.507057 0.401282
0.819501 0.509117 0.394308
0.935027 0.512734 0.395865
0 0.612741 0.36492
0.090074 0.614633 0.366491
0.249027 0.613352 0.376089
0.398535 0.612497 0.395499
0.503517 0.6177 0.407843
0.594858 0.62501 0.411841
0.69958 0.632456 0.406012
0.814404 0.6374 0.395605
0.929427 0.641352 0.394415
0 0.735973 0.367956
0.0856031 0.740124 0.367437
0.23238 0.743175 0.370459
0.37818 0.744625 0.37937
0.495415 0.746578 0.391333
0.595773 0.750896 0.398459
0.703395 0.756878 0.398077
0.814267 0.76231 0.394507
0.926818 0.766766 0.395544
0 0.854749 0.378653
0.0912337 0.862333 0.374411
0.232181 0.867384 0.374563
0.372381 0.871153 0.377813
0.487587 0.874632 0.382254
0.591073 0.878218 0.387182
0.703197 0.882307 0.391745
0.815137 0.886732 0.395193
0.926955 0.891066 0.399558
0 0.971313 0.395224
0.11075 0.979751 0.390616
0.242634 0.987915 0.386633
0.377646 0.993194 0.386572
0.491081 0.997162 0.38941
0.59379 1 0.392996
0.70605 1 0.397452
0.818402 1 0.402304
0.930282 1 0.407599
0.00308232 0 0.541451
0.154284 0 0.54406
0.298802 0 0.547311
0.426612 0 0.550652
0.53286 0 0.554055
0.63798 0 0.556954
0.746075 0 0.558206
0.8477 0.00218204 0.557778
0.944366 0.0110628 0.557
0 0.0998703 0.533761
0.137606 0.101976 0.532753
0.280385 0.10631 0.530892
0.410376 0.110124 0.536263
0.520211 0.112795 0.543999
0.627207 0.115969 0.549859
0.739528 0.120241 0.55378
0.849104 0.125399 0.556786
0.952178 0.132616 0.558373
0 0.228885 0.525917
0.124666 0.230518 0.519402
0.26714 0.236347 0.505074
0.389487 0.243946 0.505882
0.492988 0.248417 0.517555
0.602762 0.249454 0.532952
0.72546 0.249851 0.544854
0.840208 0.253208 0.550225
0.950072 0.258152 0.554116
0 0.355352 0.519677
0.113741 0.355734 0.515587
0.267414 0.358312 0.501274
0.390494 0.366964 0.498634
0.482597 0.375402 0.506889
0.577508 0.380865 0.519707
0.696529 0.382132 0.533547
0.825376 0.380835 0.543343
0.941634 0.383764 0.548318
0 0.48249 0.515297
0.09897 0.483452 0.516213
0.264866 0.481559 0.511727
0.402975 0.485801 0.512901
0.496117 0.494865 0.518822
0.577111 0.504631 0.530205
0.682506 0.510536 0.538827
0.802823 0.512459 0.543099
0.930602 0.512413 0.544839
0 0.611139 0.513252
0.0875105 0.613565 0.515282
0.246113 0.613016 0.519051
0.40383 0.610758 0.52874
0.512139 0.615091 0.541283
0.598245 0.623133 0.553475
0.691432 0.633066 0.556848
0.797589 0.639704 0.555245
0.919676 0.64213 0.548348
0 0.734157 0.515038
0.0837262 0.738842 0.516243
0.23064 0.741848 0.519448
0.38529 0.740612 0.529717
0.509743 0.740108 0.546029
0.607645 0.744549 0.559197
0.706203 0.752346 0.567315
0.806943 0.760616 0.565652
0.918807 0.766445 0.555215
0 0.853513 0.52285
0.0886854 0.861418 0.521706
0.229618 0.866346 0.523308
0.37116 0.869703 0.527367
0.492348 0.871077 0.536431
0.600519 0.872465 0.549401
0.710414 0.876509 0.560815
0.815732 0.883055 0.562631
0.924102 0.889494 0.556619
0 0.970855 0.536446
0.106355 0.979767 0.534188
0.237781 0.987839 0.532769
0.374319 0.992874 0.534478
0.489082 0.996201 0.538094
0.593057 0.99913 0.542977
0.706416 1 0.549828
0.818143 1 0.55494
0.928923 1 0.557351
0.00173953 0 0.675349
0.152071 0 0.682353
0.296376 0 0.686778
0.424109 0 0.689967
0.529717 0 0.692454
0.633356 0 0.693874
0.739986 0 0.693187
0.84184 0.00328069 0.691341
0.940475 0.0121004 0.689921
0 0.0988479 0.673121
0.135988 0.100603 0.677928
0.281193 0.103655 0.681437
0.413077 0.107225 0.68481
0.520974 0.110979 0.687968
0.625895 0.114931 0.691508
0.737484 0.119509 0.694453
0.846159 0.125063 0.695994
0.949294 0.132433 0.695842
0 0.227665 0.667323
0.119814 0.22948 0.670863
0.265736 0.232761 0.671611
0.399344 0.237308 0.670451
0.506676 0.241535 0.673762
0.611612 0.244785 0.680919
0.726482 0.24802 0.687587
0.83888 0.252186 0.691737
0.948821 0.257176 0.694881
0 0.354025 0.661418
0.105638 0.355932 0.664698
0.254582 0.358862 0.660746
0.390799 0.364706 0.647776
0.491508 0.371664 0.646174
0.587671 0.377172 0.654383
0.70251 0.379507 0.669841
0.824353 0.379904 0.68336
0.940414 0.382727 0.689754
0 0.480812 0.656809
0.0939956 0.483162 0.66041
0.246128 0.48513 0.658137
0.393347 0.488228 0.644221
0.495857 0.495567 0.640711
0.58294 0.504189 0.644984
0.682811 0.511315 0.65774
0.796078 0.51429 0.672099
0.924056 0.51313 0.684016
0 0.60885 0.654261
0.0859998 0.61239 0.658488
0.235309 0.614755 0.660548
0.393912 0.613733 0.655894
0.509255 0.617365 0.65565
0.60058 0.624765 0.65861
0.687144 0.635904 0.669123
0.788067 0.642802 0.680232
0.902922 0.646021 0.686702
0 0.731411 0.655116
0.0833448 0.737346 0.659251
0.228061 0.740978 0.662516
0.380606 0.7411 0.665919
0.512093 0.739605 0.672465
0.614267 0.74313 0.682048
0.711696 0.750622 0.695979
0.801404 0.761318 0.70251
0.903639 0.768933 0.702678
0 0.851347 0.661128
0.0894026 0.859678 0.663691
0.227955 0.865202 0.666453
0.369665 0.868559 0.67013
0.497337 0.868238 0.678203
0.612528 0.86746 0.691844
0.72195 0.871244 0.706737
0.82034 0.878981 0.717113
0.918013 0.887831 0.718456
0 0.969497 0.672572
0.106477 0.978454 0.673594
0.235447 0.987015 0.674388
0.372274 0.991897 0.677195
0.488502 0.995071 0.68101
0.597574 0.996475 0.689052
0.717693 0.996521 0.704234
0.828168 1 0.717708
0.931319 1 0.722148
0.00155642 0 0.789868
0.148928 0 0.802167
0.291539 0 0.811063
0.418387 0 0.816068
0.522911 0 0.818631
0.62501 0 0.819364
0.731044 0 0.818753
0.834058 0.00550851 0.817594
0.934707 0.0136873 0.816541
0 0.0985428 0.794629
0.134783 0.100404 0.807752
0.279118 0.103288 0.815595
0.411322 0.106737 0.820386
0.519036 0.110567 0.823804
0.622919 0.114824 0.826551
0.733577 0.119814 0.828244
0.840665 0.126009 0.828214
0.943313 0.133684 0.826505
0 0.226444 0.794476
0.119081 0.228626 0.805875
0.264271 0.231601 0.811795
0.400076 0.235126 0.815488
0.509255 0.238849 0.81883
0.612955 0.242786 0.822217
0.725765 0.246967 0.825666
0.837095 0.25156 0.828763
0.94638 0.256825 0.831067
0 0.352193 0.791501
0.104967 0.354894 0.801602
0.250416 0.358007 0.806241
0.389288 0.361624 0.808042
0.498665 0.365957 0.807813
0.600122 0.370474 0.809934
0.713008 0.374304 0.816175
0.826963 0.377737 0.822873
0.939254 0.381872 0.827436
0 0.478248 0.788067
0.093843 0.48188 0.797848
0.239246 0.485176 0.802167
0.381048 0.488762 0.799802
0.493462 0.493858 0.790326
0.589624 0.500664 0.785687
0.693263 0.507408 0.790845
0.804532 0.511025 0.8047
0.924819 0.511879 0.819425
0 0.605692 0.785946
0.0869001 0.610834 0.795712
0.231083 0.614466 0.800366
0.376104 0.617166 0.799039
0.498177 0.62002 0.787991
0.596521 0.62623 0.782055
0.693401 0.635142 0.783764
0.790829 0.643122 0.794476
0.899351 0.647425 0.808835
0 0.728267 0.787121
0.0861524 0.735271 0.795926
0.226749 0.739925 0.801175
0.370062 0.742931 0.803464
0.499687 0.743191 0.799588
0.608804 0.745846 0.797238
0.711772 0.752911 0.798596
0.800092 0.763943 0.806012
0.896635 0.771939 0.819135
0 0.848859 0.792859
0.0941024 0.857145 0.799451
0.227558 0.863905 0.804822
0.367071 0.867964 0.808316
0.491325 0.869322 0.81117
0.611063 0.868162 0.815229
0.72607 0.870939 0.823148
0.826947 0.877699 0.835798
0.914321 0.888777 0.845533
0 0.967865 0.803265
0.11017 0.976364 0.807691
0.236149 0.985458 0.811963
0.370504 0.991058 0.815198
0.487221 0.994537 0.819135
0.599374 0.994919 0.825132
0.726848 0.9935 0.837644
0.838743 0.996307 0.852262
0.937011 1 0.864347
0.00209049 0 0.898558
0.146517 0 0.910231
0.286183 0 0.920165
0.411185 0 0.927016
0.514641 0 0.931273
0.615915 0 0.933944
0.722347 0.00138857 0.935164
0.826474 0.0083772 0.935729
0.929 0.0158389 0.936278
0 0.0989548 0.904265
0.135119 0.101625 0.918608
0.27657 0.104845 0.93138
0.407294 0.1084 0.9402
0.514397 0.112291 0.945327
0.616983 0.116838 0.94847
0.72607 0.122332 0.949737
0.83241 0.128786 0.949279
0.935531 0.136294 0.947875
0 0.225711 0.906935
0.121584 0.228519 0.923354
0.263615 0.231632 0.936996
0.398703 0.235019 0.944961
0.508049 0.238621 0.94963
0.611353 0.242588 0.953262
0.72343 0.247028 0.956252
0.833997 0.251972 0.958282
0.941726 0.257893 0.958785
0 0.3505 0.9075
0.108568 0.353964 0.924437
0.250324 0.357412 0.936522
0.38819 0.360922 0.94258
0.499031 0.364523 0.946365
0.60206 0.368399 0.949676
0.714748 0.372564 0.953109
0.826917 0.376852 0.956512
0.938033 0.381476 0.95964
0 0.475776 0.907271
0.0984512 0.480323 0.923491
0.239139 0.484337 0.934279
0.378119 0.48806 0.939223
0.49102 0.49192 0.94168
0.593668 0.496239 0.942229
0.704479 0.501228 0.943282
0.81593 0.505699 0.948119
0.929305 0.509392 0.955093
0 0.60293 0.907881
0.0930953 0.608713 0.922454
0.231266 0.613535 0.932891
0.370703 0.617334 0.937514
0.486625 0.621012 0.93753
0.590875 0.625498 0.930892
0.697963 0.632319 0.923049
0.801022 0.639506 0.925093
0.909346 0.644099 0.937163
0 0.725719 0.910719
0.0939803 0.732631 0.922881
0.227787 0.738766 0.933501
0.366522 0.742885 0.93843
0.484901 0.746151 0.938979
0.595087 0.749035 0.931014
0.706371 0.754681 0.921584
0.805341 0.763363 0.920928
0.90164 0.771878 0.929625
0 0.846799 0.917266
0.102083 0.854414 0.926711
0.230045 0.862348 0.936477
0.366094 0.867277 0.942123
0.483574 0.870771 0.944854
0.596582 0.872221 0.942809
0.718837 0.874113 0.937652
0.824628 0.88072 0.937438
0.915404 0.891295 0.942031
0 0.967865 0.929107
0.116518 0.974136 0.934936
0.240543 0.983429 0.94284
0.370214 0.990188 0.948577
0.485359 0.994293 0.952224
0.593149 0.996277 0.9552
0.722332 0.995331 0.957443
0.840635 0.99762 0.963134
0.943557 1 0.973495
0.00192264 0 1
0.145693 0 1
0.283131 0 1
0.406027 0 1
0.508278 0 1
0.608606 0 1
0.715938 0.0040589 1
0.822629 0.00984207 1
0.928862 0.0157473 1
0 0.0991379 1
0.135805 0.102968 1
0.274464 0.107088 1
0.40267 0.111345 1
0.507881 0.115709 1
0.608927 0.120439 1
0.717174 0.125978 1
0.823331 0.13228 1
0.927504 0.139239 1
0 0.225467 1
0.125032 0.228962 1
0.264057 0.232837 1
0.396674 0.236561 1
0.504646 0.240253 1
0.606989 0.244205 1
0.717952 0.248875 1
0.826993 0.254276 1
0.933608 0.260548 1
0 0.349615 1
0.114595 0.353429 1
0.252827 0.357412 1
0.387915 0.361013 1
0.497978 0.364569 1
0.60061 0.368322 1
0.713146 0.372412 1
0.824689 0.376898 1
0.935149 0.381765 1
0 0.474189 1
0.106477 0.478782 1
0.242496 0.483513 1
0.378225 0.48748 1
0.490547 0.491249 1
0.593225 0.495171 1
0.70576 0.499321 1
0.817868 0.503731 1
0.929458 0.508293 1
0 0.60119 1
0.102525 0.60647 1
0.235508 0.612177 1
0.370764 0.616602 1
0.484825 0.620432 1
0.587655 0.624323 1
0.699702 0.628687 1
0.810605 0.633661 1
0.921187 0.638392 1
0 0.724483 1
0.103838 0.729992 1
0.233433 0.736873 1
0.366583 0.742107 1
0.481788 0.745998 1
0.585245 0.749828 1
0.698604 0.754299 1
0.807935 0.760662 1
0.911421 0.767956 1
0 0.846754 1
0.110979 0.851865 1
0.237629 0.859831 1
0.366903 0.86627 1
0.481682 0.870466 1
0.585565 0.874144 1
0.703304 0.877348 1
0.817761 0.88249 1
0.918868 0.89073 1
0 0.96788 1
0.12372 0.972 1
0.248661 0.980713 1
0.372671 0.988739 1
0.484871 0.993667 1
0.587793 0.997131 1
0.706569 0.999405 1
0.831159 1 1
0.938994 1 1
