site/assets/luts/freshluts--0000774-glut012.cube
# LUTr-Schema-Version: 2
# LUTr-ID: freshluts--0000774-glut012
# LUTr-Title: gLut012
# LUTr-Collection: Fresh LUTs
# LUTr-Collection-ID: freshluts-community
# LUTr-Source: https://freshluts.com
# LUTr-Retrieved: 2026-07-27
# LUTr-Source-File: submissions-raw/freshluts/cubes/774__Untitled_10.0S7A6011.cube
# LUTr-Source-Format: CUBE
# LUTr-Source-SHA256: a896c7b7ba3cb8871489a1ad22cd62f1a147928223c24f0b01cee6540a28a319
# LUTr-License: CC0-1.0
# LUTr-License-URL: https://freshluts.com/termsandconditions
# LUTr-License-Basis: site-terms
# LUTr-Transform-Class: creative-look
# LUTr-Tags: creative, freshluts, community, cube, warm, canon-cinestyle
# LUTr-Input-Color-Space: canon-cinestyle
# LUTr-Input-Gamut: rec709
# LUTr-Input-Transfer: canon-cinestyle
# LUTr-Output-Color-Space: srgb
# LUTr-Output-Gamut: rec709
# LUTr-Output-Transfer: srgb
# LUTr-Color-Space-Confidence: inferred-from-source-label
# LUTr-Domain-Normalized: true
# LUTr-Shaper: none
# LUTr-Original-Grid: 33x33x33
# LUTr-Conversion-Grid: 33x33x33
# LUTr-Conversion-Interpolation: none
# LUTr-Conversion-Method: Metadata normalization; numeric LUT samples preserved
# LUTr-Conversion-Tool: LUTr scripts/convert-all-to-cube.mjs 2.0.0
# LUTr-Conversion-Date: 2026-07-28
# LUTr-Asset-URL: https://freshluts.com/luts/774
# LUTr-Author: directorgodfrey_M
# LUTr-Author-URL: https://freshluts.com/users/1455
# LUTr-Attribution: directorgodfrey_M via Fresh LUTs
# LUTr-Source-Labels: gamma=Canon Cinestyle; color=Warm; key=Neutral; style=Wedding
# LUTr-Note: Preserve this metadata and the upstream license notices when redistributing.
TITLE "gLut012"
LUT_3D_SIZE 5
DOMAIN_MIN 0 0 0
DOMAIN_MAX 1 1 1
0 0 0.00335698
0.255009 0 0
0.564172 0 0
0.950545 0 0
1 0 0
0 0.253666 0
0.177615 0.229175 0
0.486488 0.206104 0
0.830961 0.178286 0
1 0.144274 0
0 0.509163 0
0.0975967 0.484977 0
0.408896 0.462165 0
0.732189 0.436896 0
1 0.405386 0
0 0.781796 0
0.00495918 0.753857 0
0.323934 0.727764 0
0.639292 0.70219 0
1 0.671824 0
0 1 0
0 1 0
0.234836 1 0
0.550881 1 0
0.941878 1 0
0 0 0.318288
0.246326 0 0.295354
0.555688 0 0.272663
0.935821 0 0.243488
1 0 0.210758
0 0.243931 0.240558
0.168383 0.219486 0.216403
0.477623 0.196597 0.193301
0.818677 0.168688 0.165225
1 0.134844 0.131273
0 0.499702 0.162737
0.0878157 0.475395 0.137881
0.399588 0.452781 0.114168
0.721035 0.427527 0.0877546
1 0.396231 0.0550698
0 0.770443 0.0715648
0 0.743267 0.0486763
0.315953 0.71754 0.0259861
0.63035 0.69218 0.00315862
1 0.662409 0
0 1 0
0 1 0
0.228122 1 0
0.544152 1 0
0.929503 1 0
0 0 0.62417
0.237461 0 0.600122
0.547097 0 0.57702
0.921675 0 0.548974
1 0 0.517327
0 0.234363 0.54548
0.159442 0.210544 0.522042
0.468833 0.187259 0.499199
0.806775 0.159319 0.471809
1 0.125505 0.438773
0 0.49044 0.469215
0.0786755 0.466606 0.44538
0.390967 0.443473 0.422263
0.710811 0.418448 0.397086
1 0.387579 0.365759
0 0.759564 0.381857
0 0.73257 0.360372
0.307973 0.707225 0.339864
0.621744 0.682307 0.319036
1 0.653407 0.293095
0 1 0.287556
0 1 0.269841
0.221424 1 0.252644
0.537285 1 0.236301
0.917601 1 0.21619
0 0 1
0.22678 0 0.996597
0.536645 0 0.960555
0.906218 0 0.918242
1 0 0.873655
0 0.223346 0.910414
0.148623 0.199435 0.874937
0.458335 0.176181 0.842206
0.793698 0.148623 0.806836
1 0.115236 0.766934
0 0.480095 0.801801
0.0680858 0.456214 0.771466
0.381338 0.433417 0.742947
0.699901 0.408804 0.713283
1 0.378286 0.679622
0 0.747921 0.697597
0 0.721431 0.672984
0.29958 0.69659 0.649683
0.612863 0.672572 0.62652
1 0.644327 0.599603
0 1 0.596078
0 1 0.577493
0.214801 1 0.560006
0.530968 1 0.54377
0.90544 0.990509 0.523262
0 0 1
0.215305 0 1
0.525093 0 1
0.889296 0 1
1 0 1
0 0.210742 1
0.135927 0.186557 1
0.445686 0.163241 1
0.778912 0.136248 1
1 0.102922 1
0 0.467475 1
0.0556191 0.443671 1
0.369177 0.421241 1
0.687022 0.397055 1
1 0.366629 1
0 0.734539 1
0 0.708873 1
0.289448 0.684657 1
0.602365 0.661067 1
1 0.633249 0.99852
0 1 1
0 1 0.973114
0.206378 1 0.941436
0.522881 1 0.912108
0.892882 0.977783 0.880308
