site/assets/luts/freshluts--0001250-capea-lut.cube
# LUTr-Schema-Version: 2
# LUTr-ID: freshluts--0001250-capea-lut
# LUTr-Title: CAPEA LUT
# LUTr-Collection: Fresh LUTs
# LUTr-Collection-ID: freshluts-community
# LUTr-Source: https://freshluts.com
# LUTr-Retrieved: 2026-07-27
# LUTr-Source-File: submissions-raw/freshluts/cubes/1250__CAPEA_LUT.cube
# LUTr-Source-Format: CUBE
# LUTr-Source-SHA256: 9ddc02a0efd9ef7325c1c244beccc02b910bb06492334529928230207a1ddbaf
# LUTr-License: CC0-1.0
# LUTr-License-URL: https://freshluts.com/termsandconditions
# LUTr-License-Basis: site-terms
# LUTr-Transform-Class: creative-look
# LUTr-Tags: creative, freshluts, community, cube, orange, sony-s-log3
# LUTr-Input-Color-Space:
# LUTr-Input-Gamut: sony-s-gamut3
# LUTr-Input-Transfer: sony-s-log3
# LUTr-Output-Color-Space: srgb
# LUTr-Output-Gamut: rec709
# LUTr-Output-Transfer: srgb
# LUTr-Color-Space-Confidence: camera-profile-input-required
# LUTr-Domain-Normalized: true
# LUTr-Shaper: none
# LUTr-Original-Grid: 33x33x33
# LUTr-Conversion-Grid: 33x33x33
# LUTr-Conversion-Interpolation: none
# LUTr-Conversion-Method: Metadata normalization; numeric LUT samples preserved
# LUTr-Conversion-Tool: LUTr scripts/convert-all-to-cube.mjs 2.0.0
# LUTr-Conversion-Date: 2026-07-28
# LUTr-Asset-URL: https://freshluts.com/luts/1250
# LUTr-Author: Antony Eliezer
# LUTr-Author-URL: https://freshluts.com/users/32961
# LUTr-Attribution: Antony Eliezer via Fresh LUTs
# LUTr-Source-Labels: gamma=Sony S-Log 3; color=Orange; key=Neutral; style=Teal - Orange
# LUTr-Duplicate-Assets: 1251:https://freshluts.com/luts/1251
# LUTr-Note: Preserve this metadata and the upstream license notices when redistributing.
# LUTr-Upstream-Comment: VEGAS Pro LUT
TITLE "CAPEA LUT"
LUT_3D_SIZE 9
DOMAIN_MIN 0 0 0
DOMAIN_MAX 1 1 1
0.00611738 0.06562687 0.04544822
0.02096055 0.06268314 0.04219009
0.16650492 0.04399918 0.03200337
0.41833794 -0.0041547 0.01157965
0.68119776 -0.01642869 0.01253991
0.86209154 -0.02599908 0.04581426
0.96451902 -0.03306402 0.07776099
0.98695493 -0.03543583 0.07991988
1.0018666 -0.03728728 0.07763578
-0.00113172 0.08240216 0.04750849
0.01442392 0.07812899 0.03996048
0.09603669 0.0672221 0.0295391
0.34036487 0.01622811 0.01317472
0.61879575 -0.00203111 0.00313148
0.82768208 -0.01211038 0.03169935
0.94835067 -0.01967316 0.06720592
0.98453486 -0.02276189 0.07556611
0.9998433 -0.02447261 0.0729917
-0.04555691 0.1807476 0.07633609
-0.03186552 0.16272764 0.05848679
0.0470703 0.15239047 0.03872206
0.30027771 0.11236385 0.01299055
0.59213573 0.02295072 0.0031798
0.80755317 0.00939247 0.02388491
0.93764806 -0.00015505 0.05849695
0.98364294 -0.0055772 0.07036653
0.99912435 -0.00904623 0.06774682
-0.04864363 0.30992579 0.17093156
-0.02878749 0.28777295 0.14967476
-0.01077946 0.27331266 0.11157481
0.19723983 0.26351398 0.0686213
0.56256568 0.22558485 0.00863747
0.78871155 0.1547841 0.02786
0.92414898 0.11775655 0.05804843
0.98208624 0.10752039 0.06994244
0.99786687 0.08826078 0.06740329
-0.04723163 0.49893647 0.30415925
-0.03383928 0.47427681 0.27565262
-0.01660349 0.45394397 0.24133179
0.08910203 0.44445026 0.17169422
0.46224728 0.45414281 0.09238116
0.76045907 0.37904298 0.04615247
0.89994508 0.32567164 0.07876875
0.97938478 0.30483931 0.10858211
0.99567646 0.28931779 0.10300353
0.13275343 0.64117914 0.42787093
0.11896972 0.62917024 0.40893948
0.12312922 0.62300122 0.39755651
0.13090597 0.62113702 0.33510378
0.38379028 0.60837787 0.29087746
0.62955642 0.61303979 0.24137008
0.85841411 0.56137717 0.16309384
0.94707704 0.52151197 0.19554855
0.97359651 0.50538522 0.1981397
0.28238332 0.72701484 0.50631529
0.2835615 0.71974194 0.49218121
0.29222333 0.71585673 0.48414525
0.33054304 0.71912968 0.46648729
0.44355124 0.71760058 0.43723974
0.57695663 0.71026665 0.42668915
0.69409633 0.70878381 0.41714358
0.8741411 0.72196603 0.35994744
0.92943519 0.70688272 0.34757131
0.34759757 0.79393852 0.54900515
0.35714284 0.78917789 0.54205716
0.36993322 0.78668195 0.53954047
0.40063578 0.79134393 0.54206407
0.48206484 0.79280478 0.52892643
0.60427916 0.79310524 0.53081006
0.68936706 0.78731424 0.52371418
0.76390249 0.78391081 0.52454585
0.82053524 0.79073864 0.52334517
0.36301914 0.82474422 0.55660373
0.37622032 0.82246172 0.55535167
0.39085242 0.82090187 0.55628753
0.42050081 0.82977211 0.57137042
0.48856476 0.83546191 0.56231833
0.60224539 0.84050578 0.56679595
0.69540411 0.83929574 0.56927001
0.76764405 0.8351289 0.56633639
0.81006581 0.83530807 0.56801194
0.00504618 0.06798092 0.06973904
0.02085204 0.06254612 0.0591508
0.15159613 0.04610224 0.0472706
0.4025712 -0.00424929 0.02759412
0.66927081 -0.01701282 0.02609384
0.8558439 -0.02666042 0.05870734
0.96159416 -0.03380412 0.09139483
0.98686272 -0.03631966 0.09486943
1.0018487 -0.03814016 0.09253816
-0.0014908 0.08135203 0.06326509
0.01456887 0.07580404 0.05417294
0.0817254 0.06603184 0.04490566
0.3275708 0.01784601 0.02912551
0.60776007 -0.00257922 0.01720778
0.82184798 -0.01273892 0.04483711
0.9460901 -0.02038494 0.08102705
0.98459369 -0.02358983 0.09040958
0.99997014 -0.02527464 0.08778422
-0.03900768 0.17468722 0.12053333
-0.02214617 0.1559727 0.09712221
0.04951034 0.14392069 0.06240953
0.28959534 0.10784157 0.02873853
0.5817138 0.02281183 0.01689947
0.80303061 0.00788919 0.03696961
0.93568718 -0.00164684 0.07247187
0.98379385 -0.00712361 0.08514976
0.99926305 -0.01044845 0.08261355
-0.05171741 0.30071247 0.21673106
-0.03538194 0.27879575 0.19168179
0.00736732 0.26639137 0.15577331
0.20380335 0.25858429 0.09654703
0.55596375 0.2173548 0.0225496
0.78571528 0.14617282 0.04111721
0.92285264 0.10965291 0.07162827
0.98234719 0.09986047 0.08472899
0.99804574 0.08139012 0.08247671
-0.04613888 0.49062243 0.35025334
-0.03263408 0.46476263 0.32183346
-0.01529025 0.44652492 0.29237691
0.10252507 0.43785545 0.20823294
0.47210974 0.44630802 0.12341283
0.75845277 0.37143722 0.0608761
0.89808434 0.31844306 0.0910731
0.97959292 0.29863226 0.12195466
0.99597883 0.28360659 0.11700347
0.1117046 0.63590777 0.46556398
0.10310772 0.62375438 0.44566965
0.10907455 0.61728489 0.43228769
0.21117407 0.61254776 0.38954887
0.39868957 0.60160643 0.33236936
0.63681626 0.60714614 0.27369571
0.85786533 0.55261308 0.19197917
0.94721192 0.51498109 0.20880239
0.97440946 0.4998818 0.21191984
0.28280011 0.72432345 0.53526002
0.28758067 0.71673787 0.52478647
0.29771939 0.71264273 0.51856506
0.35330978 0.71338385 0.50477529
0.45569766 0.71269429 0.47512907
0.58478385 0.70695293 0.46031851
0.69946927 0.70468849 0.44833404
0.87735987 0.71882099 0.39766017
0.93034047 0.69984543 0.3903226
0.36107376 0.79113466 0.58273906
0.371943 0.78608209 0.5766322
0.38428983 0.78326583 0.57406557
0.41452655 0.78824741 0.57900894
0.49480075 0.79062414 0.56197721
0.60858291 0.79327846 0.55936003
0.69529957 0.78592128 0.55218178
0.76715744 0.78051078 0.54716593
0.82681292 0.78769857 0.54469508
0.38423839 0.82436335 0.59443516
0.39756867 0.8219924 0.59390104
0.41123345 0.82021934 0.59461409
0.43505064 0.82959813 0.60626578
0.50250357 0.83443773 0.59564751
0.60486728 0.8414523 0.59318918
0.70263165 0.84002453 0.59753537
0.77235925 0.83553851 0.59115821
0.81921405 0.83450854 0.59369045
-0.01484001 0.08010744 0.22169888
0.01747272 0.07421677 0.17614636
0.1424962 0.05732706 0.13518654
0.38705656 0.00956144 0.09581386
0.6605314 -0.00458131 0.06203147
0.84945112 -0.01630536 0.07356431
0.95868421 -0.025965 0.10500889
0.98689777 -0.0313957 0.10961272
1.0019178 -0.03602434 0.10726501
-0.02303314 0.10636785 0.17236449
0.0004986 0.08981573 0.14028017
0.09065438 0.07977017 0.1001524
0.31539607 0.03123133 0.06994422
0.59775382 0.00465999 0.0420532
0.81604534 -0.00782705 0.05902572
0.94391763 -0.0181139 0.09481581
0.98468769 -0.02392559 0.10520599
1.0001159 -0.02606571 0.10256644
-0.03526058 0.16524164 0.1705699
-0.02136053 0.15061666 0.14787263
0.05594788 0.13562408 0.10239676
0.28189451 0.08934139 0.06049314
0.57221335 0.02223635 0.03112824
0.79884434 0.00639712 0.05010766
0.93387425 -0.00312138 0.08648314
0.98393565 -0.00859666 0.09996561
0.99939597 -0.01182446 0.09751946
-0.05046991 0.29324159 0.26973593
-0.0357476 0.27217668 0.24285336
0.00829694 0.2585226 0.20367382
0.21783404 0.2475622 0.13879322
0.55336332 0.20642197 0.0597033
0.78283453 0.13769898 0.05442452
0.92153358 0.10164326 0.08524728
0.98258477 0.09239198 0.09959006
0.9981882 0.07471739 0.09764818
-0.04420884 0.48643744 0.41338059
-0.03061608 0.46006122 0.38342652
-0.01390085 0.4379864 0.34601921
0.14564019 0.42482129 0.26422435
0.48420203 0.43295321 0.1652447
0.75759876 0.36255592 0.08681402
0.89584357 0.31170624 0.10418897
0.97930038 0.29262167 0.1351226
0.99623263 0.27807638 0.13115215
0.08070646 0.63242555 0.50983828
0.07089106 0.62036902 0.49054334
0.07810488 0.61353558 0.47839805
0.22136056 0.60677564 0.43790069
0.41878727 0.59700912 0.37876678
0.64541465 0.60163826 0.31303483
0.85730523 0.54299855 0.23459621
0.94684178 0.50903934 0.2362771
0.97525495 0.49437344 0.23281606
0.27134079 0.72158313 0.5661723
0.27663833 0.7143572 0.55502999
0.28660685 0.7105422 0.54881108
0.34640148 0.71022558 0.5385561
0.47085121 0.70737648 0.51378006
0.59593713 0.70343852 0.49730599
0.70350456 0.70133835 0.48070866
0.87865829 0.71194988 0.43456781
0.93303263 0.69300795 0.43363434
0.35699722 0.79126847 0.60987365
0.36611381 0.78627402 0.60356706
0.37760475 0.78330517 0.60127074
0.40877992 0.78851032 0.6081053
0.50791115 0.78920889 0.5983538
0.6129021 0.79142308 0.58887887
0.70262265 0.78456157 0.58223671
0.7733146 0.77939814 0.57633269
0.83704299 0.78779179 0.56982446
0.38795131 0.82477462 0.62335551
0.4008247 0.82262254 0.62322968
0.4141283 0.82106954 0.62427998
0.43907768 0.83173698 0.63798743
0.51549643 0.83445996 0.63141102
0.60856295 0.84287995 0.62274975
0.70981717 0.84111738 0.62442851
0.77870655 0.83608478 0.61866897
0.82376564 0.83483136 0.61895931
-0.03864793 0.13455839 0.46038896
-0.02042447 0.11151075 0.41497448
0.11433385 0.10384756 0.33528054
0.35451669 0.09057052 0.24403295
0.65546459 0.01879962 0.18457441
0.83900034 0.00737232 0.13134059
0.95420128 -0.00161965 0.13874315
0.98859358 -0.00772746 0.1388258
1.0029923 -0.01382544 0.13117771
-0.04365129 0.1658781 0.38819963
-0.03034398 0.14172645 0.34363478
0.05158868 0.12947465 0.27273503
0.29336849 0.12223885 0.21088484
0.60265434 0.03871905 0.14668106
0.81048799 0.0138256 0.10296568
0.93974674 0.00357416 0.11870476
0.98518664 -0.00345148 0.124208
1.0002522 -0.00929093 0.11831795
-0.0471883 0.2094966 0.33178204
-0.03219184 0.18928485 0.30138817
0.01401289 0.17773233 0.2476732
0.2673007 0.15840268 0.17898384
0.57548767 0.07742818 0.10941307
0.79588211 0.02479258 0.07852294
0.93123978 0.00934714 0.10393717
0.98416132 0.00445546 0.11563994
0.99958038 -0.00305869 0.11252922
-0.04872589 0.28081915 0.32823443
-0.03451838 0.26182681 0.30132258
-0.01126183 0.24891526 0.25957718
0.22248901 0.23497789 0.18774603
0.54891306 0.18879615 0.11014393
0.78133982 0.12292884 0.07689543
0.92066491 0.09397045 0.09925422
0.98294252 0.08537528 0.11452895
0.99841708 0.06835581 0.11289401
-0.04263459 0.47173348 0.47914532
-0.02868237 0.45006001 0.44995928
-0.01139975 0.436966 0.42056575
0.13726993 0.41690192 0.32368073
0.49627489 0.41374686 0.21415088
0.75572413 0.35030651 0.13881899
0.89419842 0.30361682 0.11824562
0.97931856 0.28584063 0.14844079
0.99664927 0.27198306 0.14538525
0.06887937 0.62666428 0.56158692
0.04746893 0.61596817 0.54254699
0.05181513 0.60931325 0.53163844
0.17840996 0.60322422 0.48435587
0.43995762 0.59062022 0.42957789
0.65866536 0.59456873 0.35773987
0.85313481 0.53665549 0.287779
0.94455826 0.50841361 0.28622508
0.97342622 0.49428651 0.28180584
0.26706365 0.72141576 0.60619235
0.26904464 0.71276838 0.59474409
0.27698547 0.70820314 0.58855838
0.32866785 0.70932013 0.57493716
0.48710847 0.70451695 0.55687362
0.6076557 0.70065749 0.53556579
0.71052831 0.69895571 0.51671702
0.87823629 0.70154226 0.47256941
0.93257374 0.68135929 0.47050938
0.35919833 0.79366738 0.64604926
0.3703596 0.78909302 0.64243799
0.38168758 0.78588068 0.64106977
0.40658426 0.79068077 0.64444947
0.50455129 0.78931874 0.63111907
0.61843461 0.79122847 0.62254524
0.71160597 0.78417397 0.61429954
0.78228354 0.7803154 0.60699844
0.84875554 0.78897661 0.59636039
0.39071584 0.82925916 0.65720165
0.40298775 0.82697576 0.65732735
0.41520709 0.82498467 0.65809906
0.43437368 0.83356893 0.66914755
0.51270294 0.83555353 0.66276336
0.6204958 0.84333813 0.65818894
0.71488005 0.84273911 0.65263933
0.78599197 0.83686584 0.64613384
0.82922494 0.8356725 0.64514196
-0.03276442 0.22139229 0.63452667
-0.01992249 0.19913039 0.6170634
0.01674775 0.19124432 0.57666695
0.35531664 0.17609765 0.50569087
0.66027802 0.18680462 0.40700224
0.82831371 0.1522695 0.31207073
0.94806743 0.08140899 0.23989832
0.98822081 0.05078645 0.21509518
1.0032096 0.02652447 0.20009638
-0.03718553 0.25422138 0.59865248
-0.02451616 0.22115928 0.57087344
0.00142319 0.21110173 0.52755708
0.27814814 0.20634429 0.4582417
0.60670853 0.20621699 0.3556501
0.8034727 0.11824141 0.24566007
0.93089122 0.08033653 0.19396731
0.98510236 0.04428358 0.17087331
1.0005108 0.03047714 0.16160846
-0.03980449 0.309522 0.57075727
-0.02650579 0.2816194 0.54579949
-0.00468834 0.26760155 0.50588465
0.22356778 0.25158039 0.41421539
0.57072288 0.22711472 0.29307079
0.7931391 0.14049356 0.19169304
0.92298162 0.09837838 0.1540947
0.98352039 0.08107089 0.14465718
0.99891269 0.06007002 0.1353115
-0.04267453 0.34711853 0.5168258
-0.02884309 0.32261947 0.48707521
-0.01027655 0.30798256 0.44642478
0.19233698 0.28408563 0.33448219
0.53855747 0.24063912 0.22189134
0.77872378 0.17593862 0.14829126
0.91700566 0.13457704 0.12734583
0.98267144 0.12528636 0.13452253
0.99788111 0.11177835 0.13138165
-0.04168596 0.44966382 0.53472096
-0.02741041 0.43084612 0.50912344
-0.01017845 0.41794217 0.48202541
0.11367434 0.41241369 0.39523008
0.49262387 0.3990528 0.28321007
0.75564122 0.33957344 0.19254839
0.89466131 0.29488391 0.16335729
0.97934258 0.27581108 0.16573492
0.99659014 0.26227626 0.16258833
0.08520107 0.61410713 0.61224735
0.06112959 0.6025672 0.59819305
0.06089082 0.59588975 0.58773088
0.14919911 0.59727508 0.54035115
0.45913532 0.58268732 0.47923771
0.67172796 0.58469021 0.40962544
0.83930022 0.53500789 0.35366321
0.94038278 0.5111987 0.34013662
0.97146171 0.49836791 0.3346456
0.26449317 0.71939957 0.64892679
0.2714704 0.7126143 0.64129442
0.28171298 0.70885599 0.63765883
0.32083356 0.70882159 0.62170857
0.47284549 0.70343029 0.58903146
0.61897427 0.69727337 0.57258904
0.7201854 0.69683903 0.55419636
0.87635672 0.69228852 0.51613802
0.93173915 0.67470968 0.51492506
0.34334713 0.79175031 0.67315108
0.35373944 0.78759807 0.6695655
0.36482108 0.78449696 0.66870308
0.38916761 0.78939307 0.67737794
0.49033064 0.78869683 0.6639396
0.62661576 0.78914958 0.65655965
0.7196067 0.78367507 0.6457473
0.79311502 0.78066498 0.63649702
0.86227745 0.78830081 0.62382394
0.37759125 0.8280986 0.68575406
0.38968104 0.82579339 0.68635571
0.40182322 0.8236835 0.68740797
0.42168343 0.83142716 0.69910753
0.50009406 0.83591628 0.69148248
0.62266886 0.84322429 0.6899752
0.71903235 0.84381181 0.68181813
0.7942155 0.8380785 0.67488611
0.84009111 0.83794689 0.67266548
-0.02390717 0.32880601 0.75091684
-0.01146991 0.30353841 0.7387324
0.01998467 0.3021026 0.71897709
0.30277696 0.3079195 0.67384756
0.60381383 0.3133845 0.62732053
0.79798853 0.346793 0.55415905
0.91170788 0.37961492 0.51612377
0.9630987 0.37591475 0.49021688
0.98624784 0.3350153 0.44821358
-0.02837908 0.36149669 0.72390437
-0.01652608 0.3303712 0.70807678
0.00650574 0.32137218 0.68930125
0.21437059 0.33236215 0.64562231
0.56164217 0.34031576 0.59370482
0.77740359 0.37075385 0.50873125
0.90229106 0.37078792 0.45526564
0.97662795 0.32511541 0.39571309
1.0005637 0.26369441 0.33476472
-0.02898598 0.41789231 0.70650452
-0.01752143 0.39319003 0.6928674
0.00084536 0.38017458 0.67504716
0.14550021 0.3808825 0.62201822
0.54456693 0.37448066 0.55123049
0.76921165 0.38483861 0.44926348
0.91256511 0.31987229 0.34635153
0.98509717 0.28010511 0.29790175
1.0013843 0.24191235 0.26546285
-0.03059328 0.452842 0.67632103
-0.02113732 0.42867029 0.65863889
-0.00451483 0.41480982 0.64045382
0.08565134 0.41103467 0.57713759
0.5274266 0.40036961 0.48408663
0.76243705 0.37173045 0.3651419
0.90484959 0.31079632 0.27991581
0.98349315 0.28912631 0.25432962
0.99881369 0.27412438 0.24384794
-0.03606158 0.48264635 0.63587809
-0.02401638 0.45926663 0.61079144
-0.00770982 0.44401056 0.58943045
0.0660127 0.44266558 0.51828974
0.49687818 0.43201691 0.42034593
0.74218029 0.38576892 0.30913782
0.8848353 0.34595871 0.25725925
0.9758594 0.33749938 0.250705
0.99308586 0.34054458 0.25846729
0.10895415 0.59551221 0.65366417
0.08679416 0.5828737 0.64138168
0.08145781 0.57686692 0.63371563
0.15266955 0.57878488 0.59411085
0.45147109 0.57750672 0.52995497
0.66829163 0.57131577 0.4735699
0.83136356 0.53183758 0.41218758
0.93330771 0.51517195 0.39302689
0.9675737 0.50419521 0.38805461
0.25778157 0.70954478 0.68852597
0.26343739 0.70282829 0.68183506
0.27281058 0.69869739 0.67906564
0.30902535 0.70086366 0.66879195
0.45366052 0.69990695 0.63336617
0.62414712 0.69393897 0.61020559
0.73373097 0.69308847 0.58903003
0.86998278 0.68716317 0.56374753
0.92666471 0.67315573 0.56015706
0.33489791 0.78871888 0.71228707
0.34542269 0.78422165 0.71027273
0.35681927 0.78065991 0.71048164
0.38092375 0.78629649 0.71871436
0.47355136 0.78655422 0.70028692
0.61703485 0.78700233 0.6881004
0.72676569 0.7820403 0.6757772
0.80255383 0.77872121 0.66674966
0.87814391 0.78517884 0.65127188
0.36725563 0.82694221 0.72033966
0.37961605 0.82482111 0.72147328
0.39217189 0.82281303 0.72280318
0.41186219 0.82948589 0.73274326
0.48439142 0.83647436 0.72272122
0.61020255 0.84204006 0.71607751
0.72219384 0.84249514 0.70890456
0.80294371 0.83843768 0.70451987
0.85027474 0.83928627 0.70143372
0.02126252 0.41203749 0.8320843
0.01530639 0.39128226 0.82188219
0.04922178 0.39373294 0.81056321
0.31185225 0.40491968 0.7780298
0.5639717 0.42430884 0.74339956
0.75649047 0.42571011 0.7082091
0.88220066 0.44571319 0.66259527
0.93747854 0.45336983 0.63727742
0.96149874 0.44265285 0.61603951
0.05388012 0.44647691 0.80790854
0.0292341 0.42398641 0.79749608
0.04041296 0.41999102 0.78935516
0.26498863 0.43593135 0.75621212
0.52900451 0.45466939 0.71741563
0.74029768 0.45623198 0.67864949
0.86880457 0.47324666 0.62569559
0.93617713 0.48045456 0.60288203
0.95997226 0.46781397 0.58148599
0.11126963 0.49943769 0.79245168
0.10328095 0.4815284 0.78277725
0.10683938 0.47457474 0.77627259
0.24952304 0.48000774 0.7374562
0.51352602 0.48785862 0.6909712
0.73429555 0.48840892 0.6416477
0.86155939 0.50208795 0.58950609
0.93797708 0.49878821 0.56668121
0.96137768 0.48746336 0.55089343
0.13545299 0.53552997 0.76893526
0.1247564 0.51797873 0.75797075
0.12567505 0.50995767 0.75068533
0.23279092 0.51191497 0.70919502
0.50008166 0.51557815 0.65528703
0.72023535 0.5188055 0.59858578
0.85301763 0.52242458 0.55720341
0.93940508 0.51229095 0.53574151
0.96142977 0.50544065 0.53039503
0.14805019 0.56698769 0.74045384
0.13223822 0.54812109 0.72694367
0.12451346 0.53860945 0.71744871
0.21250318 0.54000032 0.67720747
0.47632563 0.54418838 0.6193586
0.69827187 0.55096138 0.5710243
0.83453876 0.545268 0.5400511
0.92980695 0.54366755 0.52968454
0.95369184 0.5469172 0.54034352
0.15007043 0.59425843 0.70652491
0.13775277 0.57907391 0.69146538
0.13483998 0.57173491 0.68468702
0.20267211 0.57836658 0.6577065
0.44604751 0.58840579 0.60676581
0.65926242 0.59647626 0.57627124
0.8013894 0.59234816 0.54993892
0.9059248 0.59235209 0.5467959
0.94293565 0.59727943 0.55631751
0.2593464 0.69647658 0.72735918
0.26549065 0.68874305 0.7206744
0.2748071 0.68348765 0.7177096
0.30628711 0.68687886 0.7095871
0.44099167 0.69324571 0.6793642
0.61887026 0.68959093 0.6501953
0.74978578 0.68923819 0.62586612
0.86665046 0.68024707 0.60991406
0.92570716 0.67180771 0.60290366
0.33505321 0.78503382 0.75367785
0.34600213 0.78037304 0.75290883
0.35754821 0.77639759 0.75375664
0.38001278 0.78199077 0.76135457
0.46349606 0.78233093 0.74089313
0.60368174 0.78555655 0.7211253
0.72927958 0.77909583 0.70668226
0.81424826 0.7763809 0.69549835
0.89142179 0.7791158 0.68162864
0.36210531 0.82589412 0.75749761
0.37525353 0.8237133 0.75943369
0.38855055 0.82162404 0.76129627
0.40775049 0.82747239 0.77005595
0.47504747 0.83478892 0.75936794
0.59709907 0.84175283 0.74707288
0.7208854 0.84022343 0.7386241
0.80689776 0.83668619 0.73071402
0.85776073 0.83733863 0.7293331
0.03148984 0.40606755 0.87348384
0.0376264 0.3993572 0.86902583
0.0789457 0.41094497 0.86733592
0.30250925 0.43149424 0.84351969
0.53991497 0.45902842 0.81706595
0.71763796 0.47264397 0.79181027
0.84935528 0.48391062 0.77269632
0.91576165 0.48789269 0.75165427
0.94808662 0.48390213 0.73016745
0.08314801 0.46088412 0.86174476
0.09144484 0.45360148 0.85697567
0.11846867 0.4620207 0.85782218
0.27705607 0.48188183 0.83421522
0.51253259 0.50996161 0.80772763
0.70004672 0.51737732 0.7761938
0.84078288 0.5181182 0.74446976
0.91197503 0.52028739 0.71407497
0.94352299 0.51511651 0.69530195
0.15694693 0.53360122 0.85378873
0.16789933 0.52742213 0.84888446
0.18892948 0.53323174 0.84925699
0.28737992 0.53864455 0.82230186
0.50490624 0.55206829 0.78450108
0.69417959 0.5500586 0.74596763
0.83764035 0.55025214 0.71310407
0.90764093 0.55412161 0.68469524
0.94039178 0.54908192 0.67481679
0.20225812 0.58844411 0.83912629
0.20726064 0.57835805 0.83103698
0.21641248 0.57241875 0.82470167
0.29474717 0.57364792 0.79793394
0.5005157 0.58291703 0.75750059
0.68945706 0.58433306 0.71877712
0.82572073 0.58622825 0.68872631
0.90220332 0.59303367 0.67554879
0.93394256 0.59247315 0.67487216
0.22741038 0.62570733 0.816697
0.22864613 0.61116141 0.80515367
0.23520282 0.60239518 0.79678309
0.30132324 0.60790646 0.77280897
0.48554558 0.61531609 0.73628157
0.6710884 0.62112188 0.70264524
0.80434573 0.62458903 0.68516088
0.89120269 0.63359612 0.6813308
0.92788672 0.6359458 0.68653166
0.24466877 0.6543619 0.78875506
0.24728957 0.64163691 0.77837157
0.25696892 0.63609064 0.77322835
0.30756205 0.64489985 0.75890118
0.46477944 0.65475708 0.73005241
0.64216733 0.66426724 0.70762056
0.77283418 0.66789573 0.69393575
0.87021399 0.67482144 0.69208455
0.91634685 0.67654294 0.69795728
0.26505777 0.68723845 0.76802856
0.27304617 0.67997962 0.76214981
0.28576833 0.67732614 0.76171285
0.32151493 0.68786401 0.76257217
0.446024 0.70136422 0.74279165
0.61202806 0.71220106 0.72286034
0.74454606 0.7130692 0.70792747
0.84894216 0.71522838 0.69931412
0.9074049 0.71325552 0.69934726
0.33454615 0.77883649 0.79390985
0.34579065 0.77395052 0.79330248
0.35746294 0.76966017 0.79415095
0.37856495 0.77559006 0.80320358
0.45828402 0.7766608 0.78217036
0.59342223 0.7818464 0.75979412
0.7239626 0.77546489 0.74023521
0.82327592 0.77219677 0.72546953
0.89727879 0.76896298 0.71653873
0.36088708 0.8235265 0.79952222
0.37390399 0.82117939 0.80181861
0.38713634 0.81893569 0.80376184
0.40529987 0.82434893 0.81177586
0.46974653 0.8333919 0.80244905
0.5879522 0.84141767 0.7850526
0.71224165 0.83949745 0.77102792
0.81394923 0.83510023 0.76187217
0.87198073 0.83721399 0.75781608
0.02829178 0.39629078 0.89914858
0.03740709 0.38831505 0.89731908
0.06994032 0.39894333 0.89642119
0.27829689 0.414819 0.88079333
0.52056271 0.4439823 0.85791773
0.70219493 0.46112251 0.83157635
0.83799696 0.47577649 0.81246221
0.90860009 0.48529047 0.80028522
0.94563198 0.48803079 0.7921806
0.0562505 0.44565076 0.89285904
0.0658344 0.43788761 0.89103448
0.08803974 0.44584653 0.89105284
0.24923098 0.4643304 0.87244397
0.4931066 0.49318051 0.84738356
0.68527174 0.51342654 0.82181185
0.82596958 0.52345282 0.79877621
0.90397 0.53236365 0.78610438
0.94158965 0.53442091 0.77664769
0.12790135 0.51737267 0.88813901
0.1347746 0.50948972 0.88569313
0.15502715 0.51411331 0.88548434
0.2650727 0.52822101 0.86467785
0.49061716 0.55186486 0.83881956
0.67842466 0.56605411 0.80987883
0.81556934 0.57137412 0.78499997
0.89702106 0.57821673 0.772452
0.93571806 0.57915556 0.76735443
0.17995727 0.57486016 0.87892234
0.19307297 0.57017022 0.87283254
0.21362901 0.57529438 0.87150639
0.30056548 0.58820254 0.85434037
0.49100977 0.60587704 0.82646477
0.6747337 0.61600298 0.80078053
0.80576867 0.61760044 0.77898461
0.88885528 0.62347889 0.76919949
0.92619872 0.62203026 0.7678566
0.22934507 0.62859797 0.86392087
0.24321999 0.62485611 0.85734308
0.2619704 0.62790978 0.85516924
0.3290188 0.64084154 0.84478641
0.48875958 0.65492785 0.8181659
0.65559262 0.66316777 0.79521495
0.78449845 0.66024697 0.78012514
0.8796382 0.66248488 0.77152944
0.91653824 0.6621927 0.77247626
0.27097359 0.67860895 0.84791625
0.28480393 0.6751731 0.84287763
0.30087054 0.67600691 0.84191364
0.34761065 0.68841034 0.84033525
0.47552925 0.69805944 0.81837487
0.63116008 0.70358044 0.79961097
0.75455773 0.70016253 0.78316742
0.85789889 0.70021284 0.77689731
0.9056415 0.6998927 0.77607971
0.30357072 0.72399771 0.83583999
0.31617025 0.72073376 0.83392847
0.33018228 0.71943957 0.83509177
0.35953286 0.73187524 0.84480751
0.46080998 0.73768598 0.82414132
0.60384864 0.74471223 0.80545968
0.73084003 0.74033964 0.78722882
0.83698088 0.73764557 0.77684742
0.89615315 0.73732865 0.77566832
0.33293185 0.77249628 0.83748496
0.34453112 0.76752514 0.8376072
0.35629106 0.76308483 0.8386392
0.37668735 0.77286285 0.84885645
0.45388889 0.77759826 0.83022541
0.58515495 0.78570569 0.81166983
0.71407932 0.78260154 0.79311198
0.82200563 0.77839535 0.77771801
0.8903721 0.77804953 0.77410877
0.35773525 0.82133746 0.8442992
0.37087253 0.8191399 0.84653372
0.38421434 0.81699502 0.84819734
0.40264088 0.82318795 0.85613292
0.46386939 0.83184487 0.84664404
0.57790947 0.83736235 0.82933807
0.70332485 0.83945465 0.8086223
0.81365514 0.83228993 0.79527903
0.87872058 0.83016586 0.79019827
