site/assets/luts/freshluts--0001178-sony-s-log-3-to-rec709.cube
# LUTr-Schema-Version: 2
# LUTr-ID: freshluts--0001178-sony-s-log-3-to-rec709
# LUTr-Title: Sony S-Log 3 to Rec.709
# LUTr-Collection: Fresh LUTs
# LUTr-Collection-ID: freshluts-community
# LUTr-Source: https://freshluts.com
# LUTr-Retrieved: 2026-07-27
# LUTr-Source-File: submissions-raw/freshluts/cubes/1178__S-LOG_3_to_Rec709_v2.cube
# LUTr-Source-Format: CUBE
# LUTr-Source-SHA256: 17a8e89aea24766a2e5d4ede6da00779115185002510c9a01187e1bb5c221e20
# LUTr-License: CC0-1.0
# LUTr-License-URL: https://freshluts.com/termsandconditions
# LUTr-License-Basis: site-terms
# LUTr-Transform-Class: creative-look
# LUTr-Tags: creative, freshluts, community, cube, sony-s-log3
# LUTr-Input-Color-Space:
# LUTr-Input-Gamut: sony-s-gamut3
# LUTr-Input-Transfer: sony-s-log3
# LUTr-Output-Color-Space: srgb
# LUTr-Output-Gamut: rec709
# LUTr-Output-Transfer: srgb
# LUTr-Color-Space-Confidence: camera-profile-input-required
# LUTr-Domain-Normalized: true
# LUTr-Shaper: none
# LUTr-Original-Grid: 33x33x33
# LUTr-Conversion-Grid: 33x33x33
# LUTr-Conversion-Interpolation: none
# LUTr-Conversion-Method: Metadata normalization; numeric LUT samples preserved
# LUTr-Conversion-Tool: LUTr scripts/convert-all-to-cube.mjs 2.0.0
# LUTr-Conversion-Date: 2026-07-28
# LUTr-Asset-URL: https://freshluts.com/luts/1178
# LUTr-Author: Revirssab
# LUTr-Author-URL: https://freshluts.com/users/9194
# LUTr-Attribution: Revirssab via Fresh LUTs
# LUTr-Source-Labels: gamma=Sony S-Log 3; color=None; key=Neutral; style=NEUTRAL
# LUTr-Note: Preserve this metadata and the upstream license notices when redistributing.
TITLE "Sony S-Log 3 to Rec.709"
LUT_3D_SIZE 5
DOMAIN_MIN 0 0 0
DOMAIN_MAX 1 1 1
0 0 0
0.202914 0 0
0.690135 0 0
1 0 0
1 0 0
0 0.127932 0
0.0831769 0.10602 0
0.662776 0.0215915 0
1 0 0
1 0.0220951 0
0 0.540124 0
0 0.53434 0
0.488655 0.507866 0
1 0.529442 0
1 0.616678 0
0 1 0
0 0.996948 0
0 0.9738 0
0.797818 0.937224 0
1 0.962234 0
0 1 0
0 1 0
0 1 0
0.651286 1 0
0.972488 1 0
0 0 0.170352
0.206714 0 0.133104
0.714061 0 0.0158694
1 0 0
1 0 0
0 0.0990921 0.105898
0.0555581 0.0665446 0.102098
0.637705 0 0.0282597
1 0 0
1 0 0
0 0.532403 0
0 0.526482 0
0.482734 0.492927 0
1 0.508125 0
1 0.596399 0
0 0.999649 0
0 0.990356 0
0 0.967285 0
0.79765 0.92871 0
1 0.954025 0
0 1 0
0 1 0
0 1 0
0.65507 1 0
0.972503 1 0
0 0 0.569665
0.164736 0 0.536461
0.699443 0 0.520424
1 0 0.392767
1 0 0.141741
0 0 0.519829
0 0 0.518029
0.65127 0 0.510903
1 0 0.385122
1 0 0.11426
0 0.496406 0.48748
0 0.488701 0.486366
0.445884 0.444816 0.476661
1 0.440406 0.381201
1 0.553719 0.236789
0 0.980224 0.361975
0 0.971374 0.347341
0 0.950362 0.318654
0.772183 0.908263 0.250584
1 0.935912 0
0 1 0.0762341
0 1 0.0401923
0 1 0
0.639445 1 0
0.967926 1 0
0 0 1
0 0 1
0.673961 0 1
1 0 1
1 0 0.964065
0 0 1
0 0 1
0.619913 0 1
1 0 0.999222
1 0 0.960952
0 0.367285 0.99353
0 0.351736 0.991455
0.408774 0.276143 0.985489
1 0 0.974502
1 0 0.921233
0 0.921706 0.939803
0 0.91252 0.933883
0 0.890913 0.925978
0.720073 0.840742 0.91487
1 0.846479 0.869459
0 1 0.896071
0 1 0.890959
0 1 0.885237
0.534874 1 0.877089
0.931289 1 0.882536
0 0 1
0.00218204 0 1
0.693278 0 1
1 0 1
1 0 1
0 0 1
0 0 1
0.639719 0 1
1 0 1
1 0 1
0 0.323445 1
0 0.300359 1
0.416114 0.203632 1
1 0 1
1 0 1
0 0.906584 1
0 0.895262 1
0 0.871839 1
0.727871 0.814023 1
1 0.769589 1
0 1 1
0 1 1
0 1 1
0.494148 1 1
0.92462 0.999466 1
