site/assets/luts/freshluts--0002335-retro-bl.cube
# LUTr-Schema-Version: 2
# LUTr-ID: freshluts--0002335-retro-bl
# LUTr-Title: retro bl
# LUTr-Collection: Fresh LUTs
# LUTr-Collection-ID: freshluts-community
# LUTr-Source: https://freshluts.com
# LUTr-Retrieved: 2026-07-27
# LUTr-Source-File: submissions-raw/freshluts/cubes/2335__retro_bl_10.C0133.cube
# LUTr-Source-Format: CUBE
# LUTr-Source-SHA256: 9397e95e58c574333709b15290279ca8cb9851b487c46880404bc519dd1a7dae
# LUTr-License: CC0-1.0
# LUTr-License-URL: https://freshluts.com/termsandconditions
# LUTr-License-Basis: site-terms
# LUTr-Transform-Class: creative-look
# LUTr-Tags: creative, freshluts, community, cube, cool, high-key, sony-s-log1, vintage
# LUTr-Input-Color-Space:
# LUTr-Input-Gamut: sony-s-gamut
# LUTr-Input-Transfer: sony-s-log1
# LUTr-Output-Color-Space: srgb
# LUTr-Output-Gamut: rec709
# LUTr-Output-Transfer: srgb
# LUTr-Color-Space-Confidence: camera-profile-input-required
# LUTr-Domain-Normalized: true
# LUTr-Shaper: none
# LUTr-Original-Grid: 17x17x17
# LUTr-Conversion-Grid: 17x17x17
# LUTr-Conversion-Interpolation: none
# LUTr-Conversion-Method: Metadata normalization; numeric LUT samples preserved
# LUTr-Conversion-Tool: LUTr scripts/convert-all-to-cube.mjs 2.0.0
# LUTr-Conversion-Date: 2026-07-28
# LUTr-Asset-URL: https://freshluts.com/luts/2335
# LUTr-Author: abhijith t s
# LUTr-Author-URL: https://freshluts.com/users/267812
# LUTr-Attribution: abhijith t s via Fresh LUTs
# LUTr-Source-Labels: gamma=Sony S-Log; color=Cool; key=High Key; style=Teal - Orange
# LUTr-Note: Preserve this metadata and the upstream license notices when redistributing.
TITLE "retro bl"
LUT_3D_SIZE 9
DOMAIN_MIN 0 0 0
DOMAIN_MAX 1 1 1
0.021088 0 0.0209812
0.0211948 0 0.0216983
0.145861 0 0.0544442
0.378775 0.0582589 0.104341
0.672618 0.113481 0.197803
0.930282 0.187472 0.286671
1 0.268086 0.357534
1 0.277699 0.364721
1 0.277562 0.365179
0.021088 0 0.0209812
0.021088 0 0.0209812
0.129 0 0.0487984
0.358312 0.0537423 0.103624
0.652201 0.108339 0.19089
0.917464 0.182452 0.282032
1 0.266453 0.356298
1 0.277699 0.364721
1 0.277241 0.365179
0.0534524 0.0690471 0.0254826
0.051194 0.0665446 0.0243534
0.0808881 0.0551614 0.0278325
0.327611 0.0910964 0.0607767
0.632334 0.145434 0.163134
0.893248 0.214664 0.2645
1 0.294102 0.343099
1 0.304402 0.363592
1 0.318761 0.363745
0.0622568 0.21593 0.100755
0.0626993 0.213565 0.10013
0.0722972 0.202792 0.0980545
0.231235 0.185107 0.0827192
0.599664 0.240986 0.033875
0.901335 0.306096 0.140398
1 0.402869 0.273686
1 0.431464 0.31368
1 0.446403 0.291264
0.0428168 0.390768 0.170306
0.0428016 0.388235 0.169589
0.0450294 0.378271 0.1664
0.117723 0.356435 0.161715
0.439094 0.348104 0.101122
0.840406 0.427771 0
0.997101 0.510842 0.103395
0.991806 0.544701 0.171984
0.985107 0.578103 0.139635
0.0306554 0.566598 0.220005
0.032166 0.564095 0.219165
0.0378424 0.553231 0.216114
0.0740673 0.535348 0.214939
0.266499 0.510643 0.208927
0.644221 0.504524 0.0725414
0.95993 0.649851 0
0.965179 0.679438 0.0232242
0.954757 0.728313 0
0 0.746426 0.172961
0 0.743984 0.175006
0 0.736019 0.181796
0.00857557 0.720577 0.194781
0.208728 0.703639 0.197711
0.486976 0.706127 0.198734
0.864363 0.725078 0
0.930495 0.827192 0
0.916823 0.87454 0
0 0.855009 0.00640879
0 0.854765 0.00749218
0 0.853254 0.00947585
0 0.850431 0.0145571
0.0606088 0.854124 0.0123598
0.542245 0.870436 0.0443885
0.811383 0.897429 0.0406806
0.901183 0.920531 0
0.896803 0.940414 0
0 0.862486 0.00746166
0 0.862486 0.00746166
0 0.86154 0.00729381
0 0.857084 0.00886549
0 0.872938 0.00283818
0.565438 0.891112 0.00836194
0.857542 0.927092 0
0.895323 0.944915 0
0.895552 0.946822 0
0.021088 0 0.0209812
0.021088 0 0.0209812
0.0875257 0 0.0356146
0.368978 0.0530251 0.105241
0.664607 0.0974899 0.194217
0.92488 0.16379 0.282704
1 0.197711 0.356451
1 0.196017 0.367483
1 0.195956 0.367834
0.0222019 0 0.0287938
0.0220035 0 0.0273899
0.110201 0 0.0436866
0.36025 0.0523384 0.10367
0.650233 0.0950332 0.190524
0.914107 0.163897 0.281651
1 0.229664 0.356649
1 0.237522 0.36611
1 0.237125 0.366461
0.052369 0.0684977 0.0284276
0.0509499 0.0664683 0.0255589
0.0790265 0.0535286 0.0269169
0.327993 0.0876631 0.0644846
0.630594 0.140719 0.168856
0.892164 0.20737 0.26566
1 0.288441 0.344305
1 0.290776 0.363851
1 0.302724 0.364096
0.0623484 0.214862 0.100649
0.0627146 0.213947 0.100069
0.0705272 0.203265 0.0977951
0.229084 0.183948 0.0827344
0.600855 0.237858 0.0347295
0.900694 0.301595 0.148196
1 0.398978 0.27924
1 0.427359 0.319753
1 0.441352 0.298878
0.0424048 0.38996 0.170443
0.0428016 0.388235 0.169589
0.0440681 0.378256 0.166522
0.114977 0.356176 0.161563
0.437125 0.346792 0.101259
0.840558 0.425864 0
0.997833 0.507271 0.106813
0.992447 0.54136 0.175708
0.986145 0.573129 0.14464
0.0318303 0.565179 0.219379
0.032166 0.564095 0.219165
0.0377508 0.553292 0.216495
0.0717632 0.535424 0.214649
0.261997 0.510536 0.20914
0.642771 0.502266 0.072343
0.960067 0.648173 0
0.965667 0.676829 0.0264744
0.955612 0.724422 0
0 0.74493 0.17409
0 0.744244 0.17496
0 0.736614 0.181704
0.00675975 0.720745 0.194598
0.20296 0.702815 0.198291
0.482856 0.704982 0.199695
0.86392 0.723934 0
0.930831 0.826017 0
0.917372 0.872557 0
0 0.854856 0.00680552
0 0.854765 0.00749218
0 0.853407 0.00946059
0 0.850629 0.0144503
0.0431678 0.85507 0.0146487
0.536843 0.869505 0.0437324
0.809979 0.897139 0.0413825
0.901228 0.920302 0
0.896834 0.940307 0
0 0.862135 0.00560006
0 0.86215 0.00672923
0 0.862196 0.0065919
0 0.857679 0.00802625
0 0.872145 0.00283818
0.557641 0.89012 0.00668345
0.855406 0.926482 0
0.895338 0.944793 0
0.895552 0.946822 0
0.0633707 0.00706493 0.297368
0.063386 0.00749218 0.290196
0.0705882 0.00697337 0.281956
0.185687 0 0.388052
0.607858 0.0163119 0.465599
0.880659 0.0952163 0.397131
1 0.163653 0.442557
1 0.166384 0.449531
1 0.153368 0.474159
0.0552224 0.050309 0.260945
0.0580758 0.0401465 0.26302
0.0773632 0.0100862 0.266011
0.182818 0.0158389 0.350607
0.597848 0.0457008 0.376349
0.876234 0.11368 0.353491
1 0.211185 0.419486
1 0.222034 0.422843
1 0.223178 0.437263
0.0351873 0.102235 0.209659
0.0348516 0.0996414 0.206287
0.0477302 0.0813306 0.190005
0.26743 0.0747845 0.187045
0.592767 0.110109 0.201465
0.876814 0.177111 0.292363
1 0.269825 0.367147
1 0.282185 0.375967
1 0.278386 0.372854
0.0269474 0.220539 0.188739
0.0298161 0.218051 0.175418
0.0413977 0.207309 0.145754
0.211398 0.184924 0.119265
0.61297 0.232059 0.0577707
0.895994 0.294057 0.173785
1 0.389258 0.293309
1 0.417212 0.335256
1 0.424079 0.324559
0.0110475 0.386816 0.191333
0.0238346 0.384787 0.181842
0.0372473 0.376593 0.169497
0.107057 0.354162 0.161944
0.430243 0.34197 0.103212
0.838514 0.418723 0
0.999756 0.497398 0.112459
0.994339 0.53167 0.18529
0.989166 0.55787 0.160723
0.0316777 0.560845 0.22092
0.0337987 0.559319 0.219104
0.0384222 0.551873 0.21593
0.0672465 0.532799 0.213489
0.250355 0.508644 0.208789
0.636484 0.498634 0.0741283
0.960327 0.64268 0
0.966781 0.670573 0.0349584
0.957992 0.713359 0
0 0.741604 0.177417
0 0.740658 0.178378
0 0.735058 0.183398
0.00367742 0.718517 0.19585
0.189837 0.699748 0.20029
0.469886 0.701518 0.202533
0.860853 0.719738 0
0.931838 0.822324 0
0.918883 0.867109 0
0 0.854353 0.00814832
0 0.854078 0.0084535
0 0.853407 0.00982681
0 0.85037 0.0147555
0 0.859159 0.0224918
0.521508 0.867338 0.0415198
0.803571 0.895705 0.0442969
0.901396 0.919539 0
0.897078 0.939727 0
0 0.86125 0
0 0.861265 0
0 0.862089 0
0 0.860822 0
0 0.870756 0
0.540154 0.887572 0
0.851164 0.924514 0
0.896696 0.944045 0
0.895552 0.946822 0
0.0833448 0.0312047 0.588846
0.0811475 0.031754 0.590356
0.0948348 0.0247654 0.538186
0.0857862 0.0273747 0.548379
0.24741 0.0155032 0.666606
0.726497 0.0211643 0.816617
1 0.0760662 0.858549
1 0.0963607 0.862715
1 0.0732738 0.953521
0.0372625 0.176944 0.535393
0.047715 0.133867 0.551675
0.0659037 0.0950332 0.512367
0.0737469 0.0573129 0.527443
0.23624 0.0456245 0.631968
0.730434 0.050248 0.775982
1 0.182864 0.747631
1 0.225025 0.744762
1 0.216754 0.83183
0.0254673 0.218677 0.448615
0.0256962 0.216403 0.450584
0.0340581 0.196872 0.451911
0.0736706 0.114611 0.451881
0.285298 0.0916152 0.546532
0.776852 0.111955 0.634119
1 0.253117 0.568765
1 0.305196 0.586725
1 0.313039 0.631006
0.0166781 0.247211 0.400519
0.0164645 0.245426 0.398032
0.0175631 0.237354 0.386114
0.0514992 0.226871 0.356954
0.504234 0.229206 0.3467
0.882292 0.310735 0.383032
0.993469 0.383734 0.447562
0.999359 0.407645 0.470924
1 0.397818 0.464302
0 0.397589 0.408591
0 0.396719 0.402396
0 0.390646 0.383017
0 0.372564 0.306645
0.332311 0.3608 0.264317
0.846418 0.44416 0.195163
0.986053 0.514336 0.286992
0.984604 0.540352 0.337957
0.985824 0.547189 0.285801
0 0.56994 0.35172
0 0.566552 0.340337
0 0.555947 0.314
0 0.532433 0.280995
0.200977 0.509331 0.259342
0.588327 0.510567 0.18967
0.956329 0.65005 0.00294499
0.96405 0.667674 0.106249
0.959686 0.696498 0.0434424
0 0.739528 0.228351
0 0.73753 0.225223
0 0.730739 0.219257
0 0.713329 0.22359
0.160632 0.694224 0.222553
0.449729 0.693401 0.222675
0.846159 0.711803 0.0353704
0.932479 0.818036 0
0.921309 0.858244 0
0 0.853605 0.0511482
0 0.853513 0.0460975
0 0.852491 0.0319524
0 0.849897 0.0253758
0 0.856901 0.0343023
0.500526 0.863478 0.0429847
0.794064 0.892882 0.0495003
0.901854 0.917632 0
0.897551 0.938689 0
0 0.858778 0
0 0.858534 0
0 0.858778 0
0 0.860075 0
0 0.867048 0
0.545342 0.883177 0
0.845243 0.921248 0
0.896971 0.943557 0
0.895537 0.946822 0
0.0373999 0.247745 0.781338
0.0422827 0.227527 0.786145
0.0833448 0.116396 0.779751
0.0977493 0.0390784 0.7617
0.129747 0.0343786 0.796689
0.401511 0.021912 0.906996
0.85655 0.0358282 1
0.923674 0.0420844 1
0.847974 0.0386206 1
0 0.360952 0.744518
0.0119326 0.319844 0.755795
0.0372168 0.243488 0.755352
0.0618296 0.132494 0.728496
0.103899 0.0787976 0.766522
0.397711 0.0510567 0.879164
0.872419 0.112352 1
0.945052 0.172244 1
0.888472 0.167025 1
0 0.375875 0.68217
0 0.374197 0.685267
0 0.357168 0.695567
0.0343786 0.252033 0.674769
0.0788586 0.145083 0.702327
0.378683 0.105715 0.808301
0.866148 0.209842 0.949325
0.981277 0.298726 0.976699
0.94287 0.303639 1
0 0.374533 0.608835
0 0.373083 0.609018
0 0.364599 0.604257
0.00553903 0.349233 0.596933
0.140337 0.246983 0.60882
0.57409 0.220706 0.698833
0.977478 0.313924 0.694133
0.997803 0.407416 0.734447
0.997726 0.405844 0.802075
0 0.40441 0.561669
0 0.402457 0.559823
0 0.395239 0.553872
0 0.399649 0.538872
0.0366979 0.405982 0.524453
0.618921 0.417609 0.503761
0.946639 0.52726 0.549325
0.961669 0.552789 0.591409
0.964431 0.541802 0.581765
0 0.555627 0.57026
0 0.554528 0.567681
0 0.548379 0.559319
0 0.538567 0.535348
0 0.541451 0.460472
0.407187 0.538659 0.43241
0.927886 0.671962 0.368948
0.937102 0.7149 0.457832
0.938659 0.71783 0.402197
0 0.762173 0.436011
0 0.759289 0.431662
0 0.751141 0.422431
0 0.732097 0.418585
0 0.712108 0.377325
0.302968 0.69778 0.364553
0.754879 0.734905 0.338399
0.913176 0.833036 0.264836
0.911208 0.853971 0.171542
0 0.861738 0.234653
0 0.86128 0.229664
0 0.859434 0.216312
0 0.855528 0.200443
0 0.857832 0.182223
0.423087 0.861631 0.186481
0.764675 0.894926 0.191653
0.893675 0.918624 0.145815
0.893446 0.937713 0.0337987
0 0.867826 0.231296
0 0.867033 0.223514
0 0.864195 0.198627
0 0.861616 0.150698
0 0.863981 0.0679942
0.472465 0.878401 0
0.828412 0.9187 0
0.897231 0.94287 0
0.895521 0.946822 0
0 0.53138 0.905364
0 0.524971 0.9037
0 0.479088 0.915007
0.039826 0.331212 0.943297
0.182681 0.0585336 0.964279
0.440299 0.0217136 1
0.711559 0.0372931 1
0.777142 0.0488441 1
0.797818 0.0406348 1
0 0.555947 0.882307
0 0.544762 0.888258
0 0.505959 0.897627
0.00720226 0.402045 0.91957
0.115175 0.184161 0.929046
0.409201 0.076051 0.992554
0.707362 0.119524 1
0.782345 0.176318 1
0.822095 0.13489 1
0 0.545113 0.846021
0 0.543648 0.847776
0 0.528161 0.852369
0 0.457938 0.875563
0.0480964 0.300496 0.879042
0.287098 0.151888 0.928237
0.647501 0.216159 1
0.79646 0.306844 1
0.828428 0.262974 1
0 0.536583 0.791897
0 0.534783 0.792447
0 0.52639 0.790311
0 0.514626 0.797284
0.0108492 0.426703 0.829236
0.268971 0.253727 0.840757
0.673655 0.281132 0.941283
0.926757 0.412711 1
0.885374 0.391531 1
0 0.526879 0.730297
0 0.524987 0.729534
0 0.517296 0.726162
0 0.516365 0.720073
0 0.525902 0.748394
0.309026 0.427222 0.75378
0.777752 0.427619 0.810117
0.955917 0.563607 0.840314
0.956619 0.560388 0.891035
0 0.564416 0.68632
0 0.561563 0.685069
0 0.551781 0.678645
0 0.535241 0.663767
0 0.577325 0.677913
0.0423438 0.590112 0.657893
0.79115 0.634577 0.641566
0.90277 0.761776 0.751019
0.904967 0.752758 0.745754
0 0.788266 0.657496
0 0.784955 0.656413
0 0.776349 0.653925
0 0.755169 0.652979
0 0.746151 0.629877
0 0.739376 0.565255
0.619593 0.756039 0.563439
0.890288 0.863493 0.606638
0.891432 0.867414 0.554833
0 0.888304 0.451423
0 0.887388 0.446815
0 0.884337 0.434562
0 0.878691 0.418601
0 0.872572 0.39266
0.0346227 0.874388 0.379324
0.679332 0.901366 0.426352
0.877333 0.931945 0.444999
0.876432 0.947509 0.349889
0 0.903014 0.49189
0 0.901167 0.484504
0 0.89604 0.459602
0 0.888991 0.41706
0 0.880049 0.356268
0 0.890578 0.27776
0.728374 0.924605 0.291371
0.88365 0.947692 0.174517
0.88481 0.95024 0.131792
0 0.613657 0.938704
0 0.613565 0.938949
0 0.597833 0.954177
0.0104067 0.554421 0.998474
0.365057 0.360739 1
0.657206 0.152071 1
0.8038 0.0421454 1
0.973495 0.071809 1
0.995575 0.0782788 1
0 0.642695 0.928313
0 0.634226 0.931533
0 0.621546 0.942916
0 0.58616 0.98854
0.323735 0.410468 0.999008
0.627741 0.250645 1
0.795178 0.120989 1
0.973053 0.111345 1
1 0.108415 1
0 0.670497 0.922728
0 0.667063 0.922988
0 0.658289 0.926482
0 0.630152 0.962753
0.201724 0.49099 0.988525
0.554314 0.321386 1
0.750744 0.227543 1
0.969223 0.154025 1
1 0.141466 1
0 0.697765 0.909194
0 0.696162 0.909651
0 0.689601 0.909758
0 0.690532 0.92549
0 0.649104 0.968215
0.458045 0.46421 0.972488
0.715129 0.358404 1
0.930434 0.311681 1
0.983108 0.251438 1
0 0.70898 0.880674
0 0.708339 0.880781
0 0.702953 0.879744
0 0.704219 0.885298
0 0.714336 0.914076
0.2215 0.630259 0.919402
0.678111 0.49221 0.950149
0.908248 0.543725 1
0.946502 0.486305 1
0 0.711131 0.83975
0 0.709331 0.839292
0 0.70161 0.835828
0 0.689647 0.828794
0 0.715648 0.850416
0 0.729107 0.869993
0.645167 0.645945 0.854734
0.906874 0.71809 0.920577
0.906996 0.712398 0.952773
0 0.820935 0.806638
0 0.818555 0.805951
0 0.809262 0.80238
0 0.78706 0.793744
0 0.779278 0.794293
0 0.792859 0.802029
0.369467 0.78526 0.771282
0.869978 0.878996 0.841749
0.869612 0.878111 0.846922
0 0.936629 0.710552
0 0.93579 0.707698
0 0.933043 0.699245
0 0.92755 0.685603
0 0.920729 0.668589
0 0.916609 0.637705
0.356802 0.896574 0.615793
0.85713 0.951461 0.711681
0.857145 0.963577 0.680476
0 0.956466 0.774136
0 0.955703 0.770275
0 0.953094 0.755673
0 0.947951 0.726909
0 0.940368 0.682826
0 0.930282 0.606943
0.38851 0.909194 0.509972
0.858991 0.970611 0.600168
0.858839 0.973388 0.585336
0 0.613672 0.934279
0 0.613642 0.934295
0 0.596246 0.951919
0.0293431 0.54435 1
0.446342 0.32871 1
0.688685 0.10869 1
0.910491 0.0556649 1
0.99939 0.0800031 1
0.998978 0.0802167 1
0 0.644312 0.927642
0 0.634394 0.929732
0 0.621088 0.942748
0 0.580179 0.994537
0.401831 0.386358 1
0.657786 0.233951 1
0.909148 0.108415 1
0.999786 0.107774 1
1 0.109529 1
0 0.673228 0.923201
0 0.669474 0.923735
0 0.658213 0.92755
0 0.631403 0.96936
0.274403 0.483055 0.991714
0.619684 0.334707 1
0.881056 0.182528 1
0.999313 0.137743 1
1 0.141649 1
0 0.715633 0.916899
0 0.713527 0.917205
0 0.707149 0.918166
0 0.71017 0.937087
0.0332341 0.674815 0.97673
0.587274 0.514656 0.990097
0.816464 0.380713 1
0.997635 0.24712 1
1 0.230747 1
0 0.756573 0.908232
0 0.755642 0.908598
0 0.751995 0.90959
0 0.756832 0.918746
0 0.774929 0.947433
0.458991 0.716731 0.942809
0.799466 0.593851 0.983185
0.953918 0.476097 1
0.969467 0.446677 1
0 0.795209 0.896773
0 0.7944 0.897185
0 0.791959 0.897978
0 0.791272 0.901198
0 0.816403 0.921096
0.129137 0.815717 0.916854
0.732967 0.771908 0.932494
0.91632 0.669108 1
0.927199 0.611811 1
0 0.880323 0.88896
0 0.878874 0.888808
0 0.872969 0.888701
0 0.863569 0.888228
0 0.860197 0.898009
0 0.869657 0.923003
0.520836 0.847044 0.907576
0.869261 0.843351 0.936843
0.875944 0.813993 0.97583
0 0.963668 0.868788
0 0.963531 0.868559
0 0.961959 0.867552
0 0.958587 0.865492
0 0.954894 0.863935
0 0.955901 0.87393
0 0.962127 0.882719
0.824659 0.965728 0.898436
0.8374 0.97055 0.923384
0 0.972778 0.871504
0 0.972778 0.871504
0 0.972595 0.870726
0 0.97258 0.868406
0 0.972519 0.865476
0 0.976471 0.865232
0 0.987762 0.866255
0.785992 0.983261 0.844678
0.834592 0.997925 0.884169
0 0.614588 0.93106
0 0.614237 0.931121
0 0.591394 0.955383
0.097734 0.499382 1
0.561578 0.254902 1
0.764721 0.0512856 1
1 0.0837415 1
0.999908 0.080705 1
1 0.0819867 1
0 0.64622 0.927153
0 0.634791 0.928557
0 0.61677 0.946517
0.0326543 0.548714 1
0.526833 0.329961 1
0.747921 0.157015 1
1 0.104631 1
1 0.108492 1
1 0.110506 1
0 0.680171 0.921981
0 0.675151 0.922713
0 0.658534 0.92752
0 0.624491 0.979614
0.396155 0.429023 0.994263
0.702007 0.289525 1
0.986404 0.137819 1
0.99855 0.139742 1
1 0.141649 1
0 0.726513 0.915236
0 0.723796 0.915663
0 0.714107 0.917128
0 0.71075 0.937255
0.104158 0.653437 0.977539
0.676921 0.459648 1
0.906279 0.313313 1
0.998856 0.235309 1
1 0.229267 1
0 0.770474 0.904555
0 0.768658 0.905043
0 0.762905 0.9066
0 0.762219 0.915251
0 0.775952 0.947143
0.556359 0.693172 0.948486
0.8748 0.543862 1
0.967926 0.451804 1
0.969894 0.445151 1
0 0.821347 0.893217
0 0.818662 0.893355
0 0.810925 0.894209
0 0.801846 0.896712
0 0.819608 0.916335
0.137392 0.815351 0.916777
0.80325 0.744228 0.944152
0.925261 0.618692 1
0.927626 0.610117 1
0 0.936233 0.886351
0 0.933806 0.886473
0 0.926604 0.887312
0 0.913237 0.888548
0 0.89839 0.896284
0 0.884733 0.92311
0.535943 0.849989 0.911467
0.87393 0.831556 0.961624
0.876173 0.808804 0.981369
0 0.971862 0.877714
0 0.971862 0.877714
0 0.971679 0.877836
0 0.971298 0.87808
0 0.971267 0.879545
0 0.976425 0.894453
0 0.984039 0.914275
0.824079 0.967651 0.928405
0.835889 0.968399 0.95642
0 0.971771 0.877791
0 0.971771 0.877791
0 0.971771 0.877791
0 0.971771 0.877791
0 0.972045 0.878798
0 0.978485 0.891783
0 0.991547 0.910567
0.789853 0.988205 0.921401
0.841443 0.960754 0.903441
