site/assets/luts/freshluts--0000397-yellow-and-green.cube
# LUTr-Schema-Version: 2
# LUTr-ID: freshluts--0000397-yellow-and-green
# LUTr-Title: Yellow and Green
# LUTr-Collection: Fresh LUTs
# LUTr-Collection-ID: freshluts-community
# LUTr-Source: https://freshluts.com
# LUTr-Retrieved: 2026-07-27
# LUTr-Source-File: submissions-raw/freshluts/cubes/397__Green_and_Yellow_.cube
# LUTr-Source-Format: CUBE
# LUTr-Source-SHA256: d8c811977e9e9f811ee52df809a1e5850b947e87b7ed9d1905268e5909f9f24b
# LUTr-License: CC0-1.0
# LUTr-License-URL: https://freshluts.com/termsandconditions
# LUTr-License-Basis: site-terms
# LUTr-Transform-Class: creative-look
# LUTr-Tags: creative, freshluts, community, cube, yellow, arri-logc3-ei800
# LUTr-Input-Color-Space: arri-logc3-ei800-awg3
# LUTr-Input-Gamut: arri-wide-gamut-3
# LUTr-Input-Transfer: arri-logc3-ei800
# LUTr-Output-Color-Space: srgb
# LUTr-Output-Gamut: rec709
# LUTr-Output-Transfer: srgb
# LUTr-Color-Space-Confidence: inferred-from-source-label
# LUTr-Domain-Normalized: true
# LUTr-Shaper: none
# LUTr-Original-Grid: 33x33x33
# LUTr-Conversion-Grid: 33x33x33
# LUTr-Conversion-Interpolation: none
# LUTr-Conversion-Method: Metadata normalization; numeric LUT samples preserved
# LUTr-Conversion-Tool: LUTr scripts/convert-all-to-cube.mjs 2.0.0
# LUTr-Conversion-Date: 2026-07-28
# LUTr-Asset-URL: https://freshluts.com/luts/397
# LUTr-Author: gabriel s
# LUTr-Author-URL: https://freshluts.com/users/3294
# LUTr-Attribution: gabriel s via Fresh LUTs
# LUTr-Source-Labels: gamma=Arri log c; color=Yellow; key=Neutral; style=Cinematic light
# LUTr-Note: Preserve this metadata and the upstream license notices when redistributing.
TITLE "Yellow and Green"
LUT_3D_SIZE 33
DOMAIN_MIN 0 0 0
DOMAIN_MAX 1 1 1
0.0228122 0 0
0.062089 0 0
0.127962 0 0
0.203174 0 0
0.273625 0 0
0.338323 0 0
0.399725 0 0
0.459876 0 0
0.519051 0 0
0.577798 0 0
0.63624 0 0
0.694987 0 0
0.754238 0 0
0.813642 0 0
0.873991 0 0
0.935409 0 0
0.998306 0 0
1 0 0
1 0 0
1 0 0
1 0 0
1 0 0
1 0 0
1 0 0
1 0 0
1 0 0
1 0 0
1 0 0
1 0 0
1 0 0
1 0 0
1 0 0
1 0 0
0 0.00825513 0
0.0271916 0 0
0.0670176 0 0
0.143053 0 0
0.215747 0 0
0.284016 0 0
0.348074 0 0
0.409461 0 0
0.469413 0 0
0.528893 0 0
0.5879 0 0
0.647181 0 0
0.707103 0 0
0.767941 0 0
0.829374 0 0
0.891722 0 0
0.955978 0 0
1 0 0
1 0 0
1 0 0
1 0 0
1 0 0
1 0 0
1 0 0
1 0 0
1 0 0
1 0 0
1 0 0
1 0 0
1 0 0
1 0 0
1 0 0
1 0 0
0 0.0209964 0
0.00154116 0.0119326 0
0.0310063 0.00283818 0
0.0763104 0 0
0.154788 0 0
0.227863 0 0
0.295216 0 0
0.358862 0 0
0.420874 0 0
0.482033 0 0
0.542916 0 0
0.603449 0 0
0.664698 0 0
0.727398 0 0
0.791974 0 0
0.858 0 0
0.925338 0 0
0.993866 0 0
1 0 0
1 0 0
1 0 0
1 0 0
1 0 0
1 0 0
1 0 0
1 0 0
1 0 0
1 0 0
1 0 0
1 0 0
1 0 0
1 0 0
1 0 0
0 0.0397803 0
0 0.0245518 0
0.00320439 0.0157015 0
0.034638 0.0055848 0
0.0893721 0 0
0.168185 0 0
0.243091 0 0
0.311055 0 0
0.375845 0 0
0.439353 0 0
0.503273 0 0
0.567636 0 0
0.632517 0 0
0.697643 0 0
0.763638 0 0
0.83093 0 0
0.899931 0 0
0.969833 0 0
1 0 0
1 0 0
1 0 0
1 0 0
1 0 0
1 0 0
1 0 0
1 0 0
1 0 0
1 0 0
1 0 0
1 0 0
1 0 0
1 0 0
1 0 0
0 0.0703899 0
0 0.0544289 0
0 0.0392615 0
0.00463874 0.0251621 0
0.0384527 0.00788891 0
0.110811 0 0
0.190707 0 0
0.266224 0 0
0.336706 0 0
0.404883 0 0
0.471366 0 0
0.537362 0 0
0.603418 0 0
0.670146 0 0
0.737392 0 0
0.805753 0 0
0.87483 0 0
0.945144 0 0
1 0 0
1 0 0
1 0 0
1 0 0
1 0 0
1 0 0
1 0 0
1 0 0
1 0 0
1 0 0
1 0 0
1 0 0
1 0 0
1 0 0
1 0 0
0 0.105837 0
0 0.0916457 0
0 0.0783093 0
0 0.0669261 0
0.0087892 0.0553902 0
0.0660105 0.0422065 0
0.151202 0.0299535 0
0.231754 0.0182345 0
0.305241 0.00694286 0
0.375219 0 0
0.443519 0 0
0.510842 0 0
0.577829 0 0
0.645289 0 0
0.713085 0 0
0.781506 0 0
0.850919 0 0
0.921584 0 0
0.993667 0 0
1 0 0
1 0 0
1 0 0
1 0 0
1 0 0
1 0 0
1 0 0
1 0 0
1 0 0
1 0 0
1 0 0
1 0 0
1 0 0
1 0 0
0 0.149126 0
0 0.140215 0
0 0.131945 0
0 0.123842 0
0 0.115404 0
0.0313268 0.103883 0
0.117464 0.0925002 0
0.202106 0.0806287 0
0.277592 0.0674296 0
0.348684 0.0531777 0
0.417685 0.0379034 0
0.48574 0.0212711 0
0.553399 0.00460822 0
0.621134 0 0
0.689357 0 0
0.758175 0 0
0.828153 0 0
0.899046 0 0
0.971862 0 0
1 0 0
1 0 0
1 0 0
1 0 0
1 0 0
1 0 0
1 0 0
1 0 0
1 0 0
1 0 0
1 0 0
1 0 0
1 0 0
1 0 0
0 0.202701 0
0 0.195193 0
0 0.188602 0
0 0.182284 0
0 0.175631 0
0.00463874 0.165988 0
0.0868544 0.156115 0
0.173388 0.145113 0
0.250462 0.133547 0
0.322576 0.120943 0
0.392355 0.10753 0
0.461372 0.0931258 0
0.529412 0.0774395 0
0.59765 0.0602121 0
0.666163 0.0410773 0
0.735409 0.0191653 0
0.805997 0 0
0.877638 0 0
0.950545 0 0
1 0 0
1 0 0
1 0 0
1 0 0
1 0 0
1 0 0
1 0 0
1 0 0
1 0 0
1 0 0
1 0 0
1 0 0
1 0 0
1 0 0
0 0.255558 0
0 0.249104 0
0 0.242954 0
0 0.236728 0
0 0.230869 0
0 0.22208 0
0.0556802 0.212802 0
0.144228 0.202884 0
0.223148 0.192584 0
0.29662 0.181659 0
0.367605 0.16997 0
0.436957 0.157671 0
0.505608 0.144045 0
0.574395 0.129427 0
0.643397 0.113405 0
0.713283 0.0958572 0
0.784344 0.0762036 0
0.856275 0.0537423 0
0.929641 0.0275425 0
1 0 0
1 0 0
1 0 0
1 0 0
1 0 0
1 0 0
1 0 0
1 0 0
1 0 0
1 0 0
1 0 0
1 0 0
1 0 0
1 0 0
0 0.306661 0
0 0.300481 0
0 0.294453 0
0 0.288792 0
0 0.282673 0
0 0.274479 0
0.024506 0.265827 0
0.11487 0.256809 0
0.195956 0.24715 0
0.271046 0.237446 0
0.342641 0.226719 0
0.412619 0.215518 0
0.482094 0.203372 0
0.551293 0.19057 0
0.621347 0.177035 0
0.691768 0.16199 0
0.762997 0.145541 0
0.835431 0.127199 0
0.909117 0.106523 0
0.984787 0.0829023 0
1 0.0556039 0
1 0.0213321 0
1 0 0
1 0 0
1 0 0
1 0 0
1 0 0
1 0 0
1 0 0
1 0 0
1 0 0
1 0 0
1 0 0
0 0.356466 0
0 0.350729 0
0 0.344976 0
0 0.339117 0
0 0.333181 0
0 0.325307 0
0 0.317159 0
0.0850538 0.309117 0
0.168658 0.300084 0
0.244923 0.290608 0
0.317571 0.280827 0
0.388586 0.270329 0
0.45861 0.259388 0
0.528954 0.248035 0
0.599115 0.235355 0
0.6701 0.221851 0
0.741878 0.207248 0
0.814847 0.191272 0
0.88925 0.173648 0
0.965469 0.15433 0
1 0.132387 0
1 0.106889 0
1 0.0770581 0
1 0.0399481 0
1 0 0
1 0 0
1 0 0
1 0 0
1 0 0
1 0 0
1 0 0
1 0 0
1 0 0
0 0.40621 0
0 0.400443 0
0 0.394675 0
0 0.388968 0
0 0.383185 0
0 0.375845 0
0 0.368429 0
0.0540475 0.360235 0
0.140642 0.351843 0
0.218647 0.342931 0
0.292485 0.333761 0
0.364248 0.323949 0
0.435569 0.313863 0
0.506294 0.303044 0
0.577127 0.291371 0
0.648554 0.279072 0
0.720943 0.265675 0
0.794858 0.251637 0
0.869856 0.236011 0
0.946303 0.218891 0
1 0.199893 0
1 0.178653 0
1 0.154681 0
1 0.126696 0
1 0.0931106 0
1 0.050782 0
1 0 0
1 0 0
1 0 0
1 0 0
1 0 0
1 0 0
1 0 0
0 0.455879 0
0 0.450126 0
0 0.44448 0
0 0.438956 0
0 0.4336 0
0 0.426627 0
0 0.419272 0
0.022446 0.41149 0
0.111879 0.403388 0
0.191791 0.395087 0
0.267338 0.386557 0
0.340352 0.37731 0
0.4121 0.367437 0
0.483421 0.357519 0
0.554971 0.34667 0
0.627283 0.335119 0
0.700648 0.323232 0
0.774701 0.310002 0
0.850324 0.295827 0
0.927413 0.280262 0
1 0.263355 0
1 0.244633 0
1 0.223972 0
1 0.200336 0
1 0.173129 0
1 0.141238 0
1 0.102358 0
1 0.0532387 0
1 0 0
1 0 0
1 0 0
1 0 0
1 0 0
0 0.505959 0
0 0.500359 0
0 0.495018 0
0 0.489876 0
0 0.484474 0
0 0.477684 0
0 0.470695 0
0 0.463279 0
0.0819104 0.455589 0
0.164645 0.447868 0
0.241428 0.439506 0
0.31548 0.430777 0
0.388388 0.421622 0
0.460624 0.411994 0
0.532982 0.401846 0
0.606195 0.391363 0
0.679942 0.379889 0
0.754726 0.36762 0
0.83093 0.354406 0
0.908583 0.340139 0
0.987228 0.325032 0
1 0.308003 0
1 0.289433 0
1 0.268513 0
1 0.245014 0
1 0.218433 0
1 0.188006 0
1 0.151202 0
1 0.106554 0
1 0.0473487 0
1 0 0
1 0 0
1 0 0
0 0.556954 0
0 0.551522 0
0 0.546639 0
0 0.541848 0
0 0.536217 0
0 0.529778 0
0 0.522957 0
0 0.516045 0
0.0514382 0.509026 0
0.13637 0.501259 0
0.214969 0.493339 0
0.29041 0.484916 0
0.364248 0.476265 0
0.437812 0.467323 0
0.511055 0.457755 0
0.584787 0.447623 0
0.659205 0.436728 0
0.734768 0.425269 0
0.811536 0.413031 0
0.890532 0.399924 0
0.968658 0.385641 0
1 0.370123 0
1 0.353124 0
1 0.334401 0
1 0.313359 0
1 0.290501 0
1 0.26363 0
1 0.232929 0
1 0.196841 0
1 0.152956 0
1 0.0972 0
1 0.0164645 0
1 0 0
0 0.609323 0
0 0.60441 0
0 0.599283 0
0 0.594842 0
0 0.589303 0
0 0.583032 0
0 0.576699 0
0 0.570123 0
0.0189517 0.563165 0
0.106889 0.555764 0
0.187518 0.548089 0
0.264469 0.540246 0
0.339788 0.532036 0
0.414328 0.523445 0
0.488426 0.51426 0
0.562936 0.504585 0
0.638224 0.494499 0
0.714656 0.483452 0
0.792615 0.472313 0
0.871855 0.459876 0
0.950271 0.446494 0
1 0.431998 0
1 0.416251 0
1 0.399268 0
1 0.380423 0
1 0.359228 0
1 0.335485 0
1 0.308598 0
1 0.277668 0
1 0.241306 0
1 0.197253 0
1 0.140795 0
1 0.0615549 0
0 0.663493 0
0 0.658473 0
0 0.653513 0
0 0.649271 0
0 0.643854 0
0 0.638361 0
0 0.632029 0
0 0.625635 0
0 0.618845 0
0.0750896 0.611658 0
0.158633 0.604532 0
0.23801 0.59707 0
0.314534 0.589166 0
0.390036 0.580911 0
0.465309 0.572061 0
0.540887 0.562768 0
0.617136 0.553292 0
0.694652 0.543206 0
0.772961 0.532204 0
0.852842 0.520623 0
0.932219 0.507988 0
0.99939 0.494575 0
1 0.480171 0
1 0.464271 0
1 0.446632 0
1 0.427268 0
1 0.405585 0
1 0.381384 0
1 0.354009 0
1 0.322271 0
1 0.285222 0
1 0.240711 0
1 0.185504 0
0 0.719142 0
0 0.714183 0
0 0.709392 0
0 0.705547 0
0 0.700587 0
0 0.694926 0
0 0.688914 0
0 0.682521 0
0 0.676081 0
0.0411078 0.669398 0
0.128573 0.662638 0
0.209842 0.655283 0
0.288045 0.647654 0
0.365072 0.639658 0
0.441627 0.631296 0
0.518288 0.622736 0
0.595575 0.613703 0
0.673716 0.603952 0
0.752972 0.593637 0
0.833616 0.582452 0
0.91426 0.570672 0
0.980819 0.558312 0
1 0.544625 0
1 0.529549 0
1 0.513024 0
1 0.495171 0
1 0.475273 0
1 0.453361 0
1 0.428458 0
1 0.400229 0
1 0.367788 0
1 0.33019 0
1 0.285496 0
0 0.776684 0
0 0.771954 0
0 0.7673 0
0 0.763943 0
0 0.758785 0
0 0.753277 0
0 0.747585 0
0 0.741512 0
0 0.735759 0
0.00407416 0.729107 0
0.096025 0.722393 0
0.180102 0.715282 0
0.260533 0.70811 0
0.33904 0.70045 0
0.417136 0.692958 0
0.494957 0.684565 0
0.573083 0.675746 0
0.65214 0.666423 0
0.73225 0.65655 0
0.813901 0.646052 0
0.896468 0.635187 0
0.961334 0.622919 0
1 0.609934 0
1 0.595697 0
1 0.580392 0
1 0.563638 0
1 0.545403 0
1 0.52491 0
1 0.502068 0
1 0.476463 0
1 0.447562 0
1 0.414588 0
1 0.376425 0
0 0.836164 0
0 0.832212 0
0 0.827817 0
0 0.824186 0
0 0.819165 0
0 0.813977 0
0 0.808438 0
0 0.803052 0
0 0.796994 0
0 0.790768 0
0.0604105 0.784344 0
0.148135 0.777676 0
0.231113 0.770565 0
0.311955 0.763699 0
0.391226 0.756161 0
0.470329 0.748074 0
0.549798 0.73959 0
0.629892 0.730632 0
0.711192 0.72134 0
0.793988 0.71165 0
0.875227 0.70071 0
0.940871 0.689265 0
0.996094 0.676951 0
1 0.663447 0
1 0.649378 0
1 0.633494 0
1 0.616159 0
1 0.597055 0
1 0.576013 0
1 0.552728 0
1 0.526513 0
1 0.496498 0
1 0.46244 0
0 0.898528 0
0 0.894301 0
0 0.890257 0
0 0.886641 0
0 0.881956 0
0 0.876722 0
0 0.871611 0
0 0.865705 0
0 0.859846 0
0 0.853849 0
0.0214389 0.847517 0
0.114183 0.841382 0
0.20032 0.834714 0
0.283024 0.827863 0
0.364065 0.820584 0
0.444648 0.813031 0
0.525399 0.805341 0
0.607065 0.797375 0
0.689494 0.788266 0
0.773144 0.778637 0
0.853483 0.768399 0
0.920348 0.757259 0
0.975784 0.745556 0
1 0.733303 0
1 0.719524 0
1 0.704555 0
1 0.688319 0
1 0.670542 0
1 0.650935 0
1 0.629343 0
1 0.604791 0
1 0.577173 0
1 0.545968 0
0 0.957397 0
0 0.952865 0
0 0.948623 0
0 0.944167 0
0 0.938949 0
0 0.933394 0
0 0.927382 0
0 0.921492 0
0 0.915373 0
0 0.909056 0
0 0.902846 0
0.0767224 0.896406 0
0.166415 0.889708 0
0.25185 0.882734 0
0.334997 0.875746 0
0.417365 0.868452 0
0.500191 0.861341 0
0.582864 0.85359 0
0.666285 0.845563 0
0.751095 0.837156 0
0.832013 0.828626 0
0.899504 0.819577 0
0.955505 0.809903 0
1 0.799039 0
1 0.787305 0
1 0.774227 0
1 0.759228 0
1 0.743313 0
1 0.725567 0
1 0.706065 0
1 0.683772 0
1 0.658122 0
1 0.62948 0
0 1 0
0 0.99646 0
0 0.991302 0
0 0.986206 0
0 0.980667 0
0 0.974838 0
0 0.968811 0
0 0.962707 0
0 0.956527 0
0 0.950454 0
0 0.944015 0
0.0339208 0.937484 0
0.129076 0.930861 0
0.218006 0.924147 0
0.304173 0.917418 0
0.388815 0.91046 0
0.472923 0.903273 0
0.557107 0.895933 0
0.641855 0.888319 0
0.72784 0.880262 0
0.81117 0.872206 0
0.87863 0.863615 0
0.934646 0.854673 0
0.984863 0.845319 0
1 0.835492 0
1 0.824948 0
1 0.813947 0
1 0.801694 0
1 0.78822 0
1 0.772885 0
1 0.754955 0
1 0.734707 0
1 0.711833 0
0 1 0
0 1 0
0 1 0
0 1 0
0 1 0
0 1 0
0 1 0
0 0.99736 0
0 0.991196 0
0 0.984894 0
0 0.978439 0
0 0.971923 0
0.0875563 0.96524 0
0.18143 0.958724 0
0.27068 0.951965 0
0.357565 0.944915 0
0.443626 0.937728 0
0.529335 0.930343 0
0.615808 0.922881 0
0.703578 0.915343 0
0.789456 0.907469 0
0.857267 0.899397 0
0.913512 0.891081 0
0.963775 0.882383 0
1 0.873457 0
1 0.86421 0
1 0.854337 0
1 0.843809 0
1 0.832593 0
1 0.820478 0
1 0.807599 0
1 0.792813 0
1 0.776028 0
0 1 0
0 1 0
0 1 0
0 1 0
0 1 0
0 1 0
0 1 0
0 1 0
0 1 0
0 1 0
0 1 0
0 1 0
0.0403754 0.995727 0
0.140154 0.988907 0
0.23328 0.982025 0
0.323278 0.975052 0
0.411902 0.96791 0
0.500008 0.960815 0
0.588342 0.953475 0
0.677012 0.94609 0
0.765423 0.938491 0
0.83447 0.930648 0
0.891203 0.922637 0
0.942138 0.914549 0
0.989319 0.906081 0
1 0.897337 0
1 0.888197 0
1 0.87866 0
1 0.868589 0
1 0.858183 0
1 0.84686 0
1 0.834684 0
1 0.821424 0
0 1 0
0 1 0
0 1 0
0 1 0
0 1 0
0 1 0
0 1 0
0 1 0
0 1 0
0 1 0
0 1 0
0 1 0
0 1 0
0.0932937 1 0
0.192111 1 0
0.285985 1 0
0.377523 0.995666 0
0.468101 0.988602 0
0.558038 0.981384 0
0.648676 0.974014 0
0.737148 0.966522 0
0.810117 0.958923 0
0.868559 0.951217 0
0.920058 0.943358 0
0.96762 0.935195 0
1 0.926741 0
1 0.91812 0
1 0.909133 0
1 0.900008 0
1 0.890211 0
1 0.880018 0
1 0.869169 0
1 0.857603 0
0 1 0
0 1 0
0 1 0
0 1 0
0 1 0
0 1 0
0 1 0
0 1 0
0 1 0
0 1 0
0 1 0
0 1 0
0 1 0
0.0398413 1 0
0.145785 1 0
0.244556 1 0
0.339712 1 0
0.432853 1 0
0.525322 1 0
0.617823 1 0
0.708339 0.99266 0
0.785138 0.98526 0
0.845029 0.97763 0
0.897398 0.969818 0
0.945449 0.961898 0
0.990768 0.953765 0
1 0.94548 0
1 0.936996 0
1 0.928115 0
1 0.918883 0
1 0.9093 0
1 0.899199 0
1 0.888838 0
0 1 0
0 1 0
0 1 0
0 1 0
0 1 0
0 1 0
0 1 0
0 1 0
0 1 0
