site/assets/luts/freshluts--0001839-lut-fx3.cube
# LUTr-Schema-Version: 2
# LUTr-ID: freshluts--0001839-lut-fx3
# LUTr-Title: LUT FX3
# LUTr-Collection: Fresh LUTs
# LUTr-Collection-ID: freshluts-community
# LUTr-Source: https://freshluts.com
# LUTr-Retrieved: 2026-07-27
# LUTr-Source-File: submissions-raw/freshluts/cubes/1839__TRAP_FX3.cube
# LUTr-Source-Format: CUBE
# LUTr-Source-SHA256: f4bfa3f7741ffee67b5974ba5f180350546e9b6b339370c81bef3cc6e69056e7
# LUTr-License: CC0-1.0
# LUTr-License-URL: https://freshluts.com/termsandconditions
# LUTr-License-Basis: site-terms
# LUTr-Transform-Class: creative-look
# LUTr-Tags: creative, freshluts, community, cube, orange, sony-s-log3
# LUTr-Input-Color-Space:
# LUTr-Input-Gamut: sony-s-gamut3
# LUTr-Input-Transfer: sony-s-log3
# LUTr-Output-Color-Space: srgb
# LUTr-Output-Gamut: rec709
# LUTr-Output-Transfer: srgb
# LUTr-Color-Space-Confidence: camera-profile-input-required
# LUTr-Domain-Normalized: true
# LUTr-Shaper: none
# LUTr-Original-Grid: 33x33x33
# LUTr-Conversion-Grid: 33x33x33
# LUTr-Conversion-Interpolation: none
# LUTr-Conversion-Method: Metadata normalization; numeric LUT samples preserved
# LUTr-Conversion-Tool: LUTr scripts/convert-all-to-cube.mjs 2.0.0
# LUTr-Conversion-Date: 2026-07-28
# LUTr-Asset-URL: https://freshluts.com/luts/1839
# LUTr-Author: Antony Eliezer
# LUTr-Author-URL: https://freshluts.com/users/32961
# LUTr-Attribution: Antony Eliezer via Fresh LUTs
# LUTr-Source-Labels: gamma=Sony S-Log 3; color=Orange; key=Neutral; style=NEUTRAL
# LUTr-Note: Preserve this metadata and the upstream license notices when redistributing.
# LUTr-Upstream-Comment: VEGAS Pro LUT
TITLE "LUT FX3"
LUT_3D_SIZE 5
DOMAIN_MIN 0 0 0
DOMAIN_MAX 1 1 1
0.00765074 0.01148323 0.00765967
0.12213654 0.01161509 0.00716682
0.72195268 0.04600686 0.12192555
0.8469767 0.06434523 0.16161513
0.85207915 0.06449413 0.16193525
0.01193279 0.07025253 0.000153
0.10339726 0.08664331 0.00008883
0.70454323 0.05111516 0.10841256
0.8484441 0.06895571 0.160991
0.85354584 0.06910461 0.16131161
0.25357029 0.39271134 0.07843722
0.25375456 0.38721335 0.0757385
0.58107424 0.49023151 0.03016469
0.94566548 0.46034342 0.08810916
0.95199114 0.42473581 0.08982786
0.28606617 0.64554667 0.15046933
0.29178646 0.64565021 0.15023434
0.34533986 0.65214944 0.14358935
0.92214215 0.90048677 0.02527853
0.94495553 0.90077704 0.02818375
0.28303674 0.65556443 0.15027346
0.28867459 0.65583986 0.15004095
0.29436246 0.65612394 0.14979954
0.89544648 0.90840894 0.01989442
0.94975561 0.92684776 0.02946473
0.01021929 0.04809244 0.07266007
0.09911509 0.04812241 0.08392727
0.68215269 0.04818111 0.14911222
0.84204388 0.06944141 0.1806611
0.84950382 0.06729279 0.17484364
0.0019339 0.11101235 0.0926223
0.07658773 0.10592883 0.08001963
0.66864282 0.05194977 0.13893794
0.84601617 0.07156287 0.17404345
0.85286605 0.06995498 0.16883965
0.24575564 0.3846668 0.07970917
0.24577138 0.37903026 0.07695281
0.57850754 0.4844023 0.03452674
0.94617295 0.44955069 0.09359518
0.95250857 0.41322637 0.09529035
0.28573686 0.64558685 0.15586235
0.2914739 0.64569145 0.15565239
0.34157151 0.65121311 0.15005341
0.92115128 0.89853352 0.03112346
0.94469118 0.89900076 0.0341359
0.28268167 0.65565771 0.15566623
0.28833559 0.65593779 0.15545951
0.29402244 0.6562224 0.15521957
0.89348143 0.90759891 0.02558393
0.9498381 0.92691994 0.03560371
0.03356486 0.24855553 0.38155282
0.05796244 0.27452117 0.41810793
0.50036222 0.16328956 0.35543701
0.65063483 0.13008128 0.38413364
0.65883142 0.12348326 0.3803947
0.03320573 0.25208026 0.37895665
0.04859954 0.26315004 0.39490601
0.48386213 0.16179483 0.34502792
0.65545839 0.12606834 0.37924141
0.66409111 0.11957328 0.37562102
0.1077029 0.49617594 0.46606588
0.10834897 0.49173808 0.4634456
0.57168901 0.56740344 0.53294694
0.90092719 0.39235446 0.46295732
0.88795924 0.35844848 0.45545885
0.2250434 0.6613096 0.34256265
0.23119029 0.66033995 0.33912313
0.26371247 0.65700811 0.31587347
0.91697985 0.88209605 0.16428599
0.9436568 0.87356842 0.1626074
0.23040158 0.66670316 0.3035776
0.23651193 0.66630203 0.30037874
0.24444926 0.66444522 0.28587231
0.88138717 0.90579355 0.13195775
0.95372081 0.93145043 0.14560159
0.05072765 0.33669627 0.52509785
0.05712136 0.33899102 0.52792388
0.4935225 0.46232012 0.63916677
0.65466267 0.44600806 0.62401479
0.6593231 0.4456152 0.62337172
0.05105206 0.34274259 0.52621531
0.05587703 0.34388372 0.52764219
0.46561196 0.46472371 0.63598871
0.65502089 0.451222 0.62429422
0.65967888 0.45080185 0.62363291
0.09265334 0.49955124 0.60288566
0.094527 0.49499017 0.59979737
0.2446567 0.51802617 0.6320644
0.68426943 0.56894481 0.68044209
0.67986226 0.53324574 0.66038322
0.15950984 0.79547465 0.75714904
0.16510573 0.7927686 0.75491148
0.17270495 0.77800536 0.74457574
0.90090716 0.87164849 0.81663126
0.93889087 0.85813397 0.81337208
0.15396948 0.81162351 0.75540763
0.15899616 0.81095564 0.75396889
0.16321786 0.80856115 0.74847502
0.84758317 0.95284992 0.76523131
0.97967327 0.96594232 0.77384788
0.0511729 0.33823878 0.53170979
0.05624497 0.34005588 0.5339936
0.47502255 0.46416318 0.64489698
0.65501279 0.45077479 0.63390064
0.65969145 0.45062014 0.63376373
0.0515251 0.34436685 0.53323251
0.05635092 0.34551737 0.53473699
0.44480816 0.4652774 0.64063692
0.65538287 0.45618734 0.63462079
0.66006202 0.45603299 0.63448423
0.08176618 0.47671276 0.59662241
0.08406318 0.47230941 0.59391832
0.22370172 0.49826771 0.6303221
0.67192012 0.52869684 0.66838688
0.66634434 0.48855636 0.64706802
0.16720046 0.79374766 0.78535211
0.17300211 0.79106963 0.78339541
0.18115972 0.77453595 0.77166349
0.82692677 0.85802174 0.88312393
0.88630891 0.85189825 0.88865286
0.16092056 0.82945961 0.80707794
0.16627669 0.82939202 0.80699033
0.17164667 0.82932019 0.80689847
0.76634139 0.94924188 0.90153188
0.97035736 0.96979851 0.94852906
