site/assets/luts/freshluts--0002701-cinematic-blue-for-slog.cube
# LUTr-Schema-Version: 2
# LUTr-ID: freshluts--0002701-cinematic-blue-for-slog
# LUTr-Title: Cinematic blue for slog
# LUTr-Collection: Fresh LUTs
# LUTr-Collection-ID: freshluts-community
# LUTr-Source: https://freshluts.com
# LUTr-Retrieved: 2026-07-27
# LUTr-Source-File: submissions-raw/freshluts/cubes/2701__Ramazan-Kocaturk-Slog3_to_cinematic-dis-cekim-108.cube
# LUTr-Source-Format: CUBE
# LUTr-Source-SHA256: 70fa1305987a70eea406fe1b58ff655f3499a6480bfb1ddf057f063e110cb2e7
# LUTr-License: CC0-1.0
# LUTr-License-URL: https://freshluts.com/termsandconditions
# LUTr-License-Basis: site-terms
# LUTr-Transform-Class: creative-look
# LUTr-Tags: creative, freshluts, community, cube, blue, high-key, sony-s-log3, cool, cinematic
# LUTr-Input-Color-Space:
# LUTr-Input-Gamut: sony-s-gamut3
# LUTr-Input-Transfer: sony-s-log3
# LUTr-Output-Color-Space: srgb
# LUTr-Output-Gamut: rec709
# LUTr-Output-Transfer: srgb
# LUTr-Color-Space-Confidence: camera-profile-input-required
# LUTr-Domain-Normalized: true
# LUTr-Shaper: none
# LUTr-Original-Grid: 16x16x16
# LUTr-Conversion-Grid: 16x16x16
# LUTr-Conversion-Interpolation: none
# LUTr-Conversion-Method: Metadata normalization; numeric LUT samples preserved
# LUTr-Conversion-Tool: LUTr scripts/convert-all-to-cube.mjs 2.0.0
# LUTr-Conversion-Date: 2026-07-28
# LUTr-Asset-URL: https://freshluts.com/luts/2701
# LUTr-Author: RKctr
# LUTr-Author-URL: https://freshluts.com/users/114065
# LUTr-Attribution: RKctr via Fresh LUTs
# LUTr-Source-Labels: gamma=Sony S-Log 3; color=Blue; key=High Key; style=cine drama
# LUTr-Note: Preserve this metadata and the upstream license notices when redistributing.
TITLE "Cinematic blue for slog"
LUT_3D_SIZE 16
DOMAIN_MIN 0 0 0
DOMAIN_MAX 1 1 1
0.110379 0.130406 0.138212
0.112243 0.131651 0.13954
0.123615 0.136863 0.14506
0.142773 0.14242 0.149888
0.177449 0.148813 0.156551
0.234241 0.15213 0.159946
0.335931 0.142897 0.150102
0.44507 0.122404 0.128385
0.542698 0.103403 0.108228
0.639543 0.087108 0.090944
0.733556 0.074601 0.077657
0.830387 0.065365 0.067862
0.918052 0.060825 0.06307
0.979725 0.057805 0.059884
0.979569 0.057746 0.059819
0.979569 0.057737 0.059813
0.113268 0.135143 0.142025
0.113781 0.134605 0.141786
0.12307 0.137411 0.145247
0.141788 0.142265 0.149673
0.177044 0.148754 0.156487
0.235473 0.152135 0.159954
0.340057 0.142236 0.149404
0.451544 0.121122 0.127034
0.550252 0.102028 0.106777
0.648759 0.085746 0.089477
0.742791 0.073562 0.076552
0.838438 0.06478 0.067253
0.92332 0.060712 0.062955
0.9797 0.057798 0.059874
0.979569 0.057746 0.059819
0.979569 0.057737 0.059813
0.120075 0.154618 0.15106
0.120106 0.152952 0.15062
0.125769 0.150943 0.150698
0.142061 0.150399 0.152788
0.17775 0.1519 0.157297
0.242782 0.152251 0.159953
0.357614 0.13926 0.146266
0.467552 0.117886 0.123607
0.563798 0.099596 0.104186
0.661164 0.083934 0.087553
0.753381 0.072388 0.075309
0.846128 0.064252 0.066686
0.927908 0.060627 0.062863
0.979686 0.057798 0.059875
0.979569 0.057746 0.059819
0.979569 0.057737 0.059813
0.122228 0.186933 0.154483
0.122411 0.186072 0.154532
0.127306 0.184245 0.154869
0.142068 0.18081 0.156015
0.174674 0.173921 0.166227
0.239464 0.162215 0.160492
0.351364 0.140915 0.147395
0.462165 0.118876 0.124737
0.558807 0.100453 0.105122
0.655945 0.084692 0.088366
0.747886 0.073004 0.075949
0.840315 0.06465 0.067113
0.922512 0.060731 0.062975
0.979709 0.057803 0.059882
0.979569 0.057745 0.059818
0.979569 0.057735 0.05981
0.105961 0.241914 0.138346
0.105989 0.241917 0.138338
0.110774 0.240904 0.139218
0.127161 0.236387 0.142647
0.170575 0.228677 0.149249
0.231939 0.208817 0.168811
0.344758 0.17074 0.144643
0.455254 0.128459 0.125874
0.550581 0.101684 0.106637
0.646601 0.085743 0.089723
0.738212 0.074017 0.077073
0.830916 0.065318 0.067813
0.914463 0.060919 0.063168
0.979757 0.057813 0.059897
0.979569 0.057748 0.059818
0.979569 0.057748 0.059821
-0.075984 0.332669 -0.042734
-0.076217 0.332864 -0.043364
-0.071735 0.332139 -0.038908
0.010475 0.325839 0.041844
0.118862 0.318374 0.067077
0.220744 0.304556 0.110594
0.328076 0.265915 0.153981
0.444891 0.218252 0.115343
0.542232 0.167951 0.103847
0.638507 0.104912 0.091034
0.728786 0.074479 0.077958
0.820712 0.064807 0.067957
0.906519 0.060791 0.063195
0.979727 0.057791 0.05991
0.979569 0.05729 0.059522
0.979569 0.056629 0.059077
-0.157609 0.450566 -0.155033
-0.15746 0.450297 -0.154913
-0.156007 0.447606 -0.153477
-0.14662 0.437853 -0.146378
-0.110924 0.427532 -0.13882
0.158965 0.413669 -0.120848
0.324793 0.388101 0.160366
0.415246 0.35227 0.205329
0.528165 0.299152 0.088592
0.626587 0.249189 0.082909
0.718966 0.188475 0.076373
0.811886 0.117108 0.069318
0.898038 0.068996 0.064173
0.976863 0.038139 0.047925
0.979569 0.068397 0.059935
0.979569 0.109429 0.058508
-0.210924 0.574459 -0.210215
-0.21 0.572162 -0.209331
-0.208058 0.567244 -0.207426
-0.203019 0.556656 -0.202719
-0.187369 0.543723 -0.196522
-0.09784 0.529849 -0.186699
0.268922 0.510696 -0.153758
0.427444 0.478663 0.296467
0.483504 0.448949 0.327603
0.61447 0.398766 0.068801
0.710088 0.3435 0.067704
0.805166 0.298011 0.06484
0.895821 0.260519 0.059382
0.979569 0.263988 0.04295
0.979569 0.317713 0.042939
0.979569 0.394205 0.042935
-0.252575 0.678425 -0.252265
-0.251395 0.6754 -0.251153
-0.248701 0.668336 -0.248538
-0.243978 0.655762 -0.24389
-0.236691 0.643049 -0.238957
-0.201739 0.630468 -0.231657
0.15655 0.616057 -0.216944
0.371774 0.598042 -0.165451
0.512051 0.565153 0.378961
0.559581 0.542762 0.440084
0.698689 0.510843 0.141069
0.804885 0.481112 0.042924
0.897748 0.466148 0.042934
0.979775 0.480565 0.042936
0.979569 0.532032 0.042931
0.979569 0.596977 0.042916
-0.287387 0.770939 -0.287142
-0.285863 0.766799 -0.285665
-0.28292 0.758985 -0.282779
-0.278718 0.747927 -0.278658
-0.274664 0.73747 -0.274747
-0.260585 0.729709 -0.271081
-0.17454 0.724326 -0.264486
0.311592 0.715844 -0.239831
0.476432 0.700602 -0.167727
0.611203 0.666208 0.478831
0.647442 0.649674 0.575669
0.776735 0.637496 0.323655
0.891813 0.626908 0.111915
0.979799 0.648255 0.042907
0.975429 0.702385 0.166937
0.955593 0.768279 0.360409
-0.319907 0.857214 -0.31975
-0.318765 0.854328 -0.318636
-0.317327 0.85047 -0.317245
-0.3149 0.844059 -0.314841
-0.312848 0.83854 -0.312775
-0.308138 0.835058 -0.311266
-0.259988 0.832398 -0.307354
0.233132 0.826492 -0.291934
0.438376 0.815208 -0.254485
0.582541 0.798492 -0.14782
0.708809 0.763214 0.586074
0.740818 0.757226 0.709329
0.836117 0.772078 0.554096
0.94192 0.79824 0.451352
0.922451 0.847536 0.60067
0.908607 0.897527 0.761797
-0.357909 0.955542 -0.357754
-0.357767 0.95529 -0.357635
-0.357435 0.954351 -0.35728
-0.355672 0.950191 -0.35555
-0.353995 0.946096 -0.353916
-0.352388 0.943459 -0.35284
-0.322972 0.941409 -0.350149
0.026442 0.937305 -0.33915
0.396456 0.929365 -0.313946
0.558343 0.915081 -0.260879
0.690517 0.898273 -0.077184
0.80494 0.861064 0.68635
0.83763 0.866126 0.850198
0.897449 0.905058 0.813493
0.915296 0.937536 0.890189
0.932731 0.961769 0.948554
-0.386279 1.01661 -0.386041
-0.386276 1.016557 -0.386039
-0.386059 1.015982 -0.385826
-0.385192 1.013835 -0.385057
-0.384536 1.012059 -0.384435
-0.384055 1.010705 -0.383935
-0.362943 1.009371 -0.382104
-0.196093 1.006411 -0.372877
0.369686 1.001187 -0.352689
0.548161 0.996523 -0.314277
0.690295 0.989617 -0.232032
0.809317 0.97617 0.325379
0.893683 0.948824 0.780861
0.929967 0.960706 0.951393
0.948096 0.976867 0.965473
0.952393 0.980799 0.966179
-0.386386 1.016807 -0.385939
-0.386381 1.016807 -0.385977
-0.386372 1.016807 -0.386021
-0.38639 1.016806 -0.386114
-0.386379 1.016809 -0.386143
-0.386438 1.016815 -0.38628
-0.361577 1.016426 -0.384577
-0.135089 1.014396 -0.37416
0.399076 1.011231 -0.3531
0.576566 1.007141 -0.312013
0.717192 1.002654 -0.22361
0.835482 0.997947 0.343396
0.917342 0.984617 0.740948
0.947901 0.979173 0.940602
0.952331 0.980708 0.966183
0.952301 0.980679 0.966168
-0.386426 1.016809 -0.385741
-0.386418 1.016809 -0.385802
-0.386403 1.016808 -0.385851
-0.386385 1.016807 -0.385948
-0.386396 1.016806 -0.386093
-0.386131 1.016802 -0.386054
-0.341296 1.016117 -0.383195
0.204134 1.013566 -0.369435
0.463212 1.009934 -0.342535
0.634266 1.005351 -0.286504
0.768749 1.000749 -0.138549
0.882893 0.99139 0.569878
0.937261 0.980141 0.861771
0.952363 0.98073 0.966157
0.952301 0.980679 0.966168
0.952321 0.980698 0.966173
-0.387235 1.018852 -0.386335
-0.38723 1.018851 -0.386392
-0.387225 1.018849 -0.386486
-0.387244 1.018846 -0.386673
-0.387339 1.018842 -0.38684
-0.386785 1.01883 -0.387057
-0.299451 1.017617 -0.381402
0.313686 1.014519 -0.363196
0.532055 1.010332 -0.326884
0.695743 1.005345 -0.245037
0.826974 0.999614 0.299528
0.918483 0.98581 0.74424
0.953833 0.982052 0.967313
0.953709 0.981968 0.967288
0.9537 0.981963 0.967268
0.9537 0.981963 0.967268
0.110589 0.066728 0.138087
0.112336 0.071069 0.138901
0.123348 0.087688 0.144054
0.142024 0.100853 0.14979
0.176899 0.11292 0.155072
0.233692 0.11859 0.157355
0.336111 0.102301 0.144834
0.445314 -0.029895 0.109518
0.542518 -0.07696 0.088927
0.639751 -0.091934 0.071963
0.73391 -0.098374 0.060048
0.830469 -0.101303 0.052547
0.918079 -0.1023 0.049514
0.979616 -0.102806 0.047749
0.979569 -0.102817 0.047717
0.979569 -0.102818 0.047712
0.112934 0.134442 0.142466
0.113236 0.133853 0.141941
0.122631 0.136786 0.145113
0.143388 0.142568 0.150096
0.181399 0.149283 0.157022
0.243121 0.152115 0.159909
0.349718 0.140631 0.147705
0.456779 0.120047 0.125901
0.553945 0.101345 0.106053
0.650647 0.085474 0.089207
0.743521 0.073471 0.076467
0.838727 0.064764 0.067236
0.923148 0.060719 0.06296
0.979696 0.057799 0.059873
0.979569 0.057743 0.059816
0.979569 0.057738 0.059813
0.119738 0.153095 0.151271
0.119738 0.152736 0.150722
0.125206 0.150095 0.150487
0.142802 0.149195 0.152589
0.181111 0.151313 0.157492
0.24952 0.151977 0.159751
0.367143 0.137554 0.144452
0.474319 0.116547 0.122178
0.570734 0.098347 0.10289
0.667133 0.08311 0.086686
0.758843 0.071822 0.074717
0.85027 0.063979 0.066405
0.930431 0.060588 0.062823
0.979673 0.057787 0.059862
0.979569 0.057743 0.059816
0.979569 0.057738 0.059813
0.122244 0.185634 0.154955
0.122231 0.186648 0.154537
0.12653 0.184428 0.154835
0.141769 0.180419 0.156003
0.176783 0.172607 0.163502
0.243143 0.160857 0.160314
0.359171 0.139236 0.145978
0.468332 0.117642 0.123424
0.565279 0.099309 0.103886
0.661905 0.083846 0.087476
0.753426 0.072387 0.075302
0.844766 0.064336 0.066781
0.925196 0.060676 0.062916
0.979692 0.057798 0.059875
0.979569 0.057746 0.059819
0.979569 0.057737 0.059813
0.106399 0.240999 0.139508
0.105292 0.243016 0.137722
0.109252 0.241933 0.138567
0.125657 0.236968 0.142272
0.170433 0.228586 0.149265
0.23422 0.207614 0.166007
0.34886 0.168463 0.144182
0.459181 0.126343 0.125177
0.55515 0.100718 0.105742
0.651071 0.0851 0.089014
0.742454 0.073565 0.076591
0.834525 0.065064 0.067551
0.916794 0.06086 0.063109
0.979742 0.057808 0.05989
0.979569 0.057748 0.059819
0.979569 0.057745 0.059818
-0.07571 0.332259 -0.036215
-0.077648 0.334032 -0.046535
-0.074713 0.333444 -0.043886
-0.030429 0.327018 0.035951
0.116746 0.318903 0.065928
0.22073 0.304504 0.110653
0.330778 0.264616 0.149542
0.447061 0.216512 0.11524
0.545039 0.165071 0.103604
0.641596 0.102005 0.090648
0.731779 0.073872 0.077475
0.823488 0.064658 0.067759
0.908372 0.060767 0.063154
0.979709 0.057757 0.059871
0.979569 0.057361 0.05957
0.979569 0.056801 0.059193
-0.15741 0.44987 -0.153404
-0.158316 0.452 -0.155633
-0.156947 0.449226 -0.154336
-0.147966 0.439231 -0.14727
-0.11381 0.428259 -0.139399
0.156684 0.414012 -0.121393
0.324381 0.38798 0.159204
0.416322 0.351379 0.201864
0.529723 0.297663 0.088639
0.628512 0.24708 0.082873
0.721176 0.185256 0.076301
0.813681 0.113536 0.069209
0.899226 0.067357 0.064129
0.978607 0.038302 0.047893
0.979569 0.066157 0.060005
0.979569 0.103294 0.058797
-0.210718 0.573511 -0.208585
-0.211016 0.574626 -0.210098
-0.208607 0.568564 -0.207834
-0.203895 0.557902 -0.203438
-0.188739 0.54454 -0.196929
-0.103571 0.530122 -0.187009
0.266849 0.510818 -0.154449
0.427088 0.478394 0.295771
0.48442 0.448259 0.324313
0.615512 0.39741 0.068866
0.711608 0.341643 0.067737
0.806606 0.296051 0.064837
0.896594 0.258075 0.059497
0.979775 0.261281 0.042962
0.979569 0.315116 0.042939
0.979569 0.390912 0.042935
-0.252244 0.677256 -0.250656
-0.252458 0.678071 -0.25197
-0.249379 0.669969 -0.249072
-0.244488 0.657087 -0.244322
-0.237268 0.643782 -0.239125
-0.203753 0.630922 -0.231966
0.15135 0.616389 -0.21739
0.370628 0.598221 -0.166155
0.512026 0.565154 0.378965
0.56037 0.542607 0.438282
0.700147 0.510478 0.137918
0.806108 0.480451 0.042924
0.898744 0.465302 0.042934
0.979768 0.479387 0.042936
0.979569 0.530611 0.042931
0.979569 0.595172 0.042916
-0.286879 0.769154 -0.285473
-0.287143 0.770181 -0.286755
-0.283512 0.760427 -0.283275
-0.279171 0.749005 -0.279059
-0.274883 0.738066 -0.274888
-0.261596 0.730256 -0.271341
-0.177913 0.724778 -0.264835
0.309658 0.716097 -0.24032
0.47588 0.70095 -0.168441
0.611335 0.666141 0.479533
0.647895 0.649842 0.5747
0.777759 0.637245 0.321863
0.892535 0.626646 0.109856
0.979797 0.647668 0.042907
0.97556 0.701674 0.164892
0.955921 0.767529 0.358275
-0.319607 0.856214 -0.318392
-0.319797 0.856938 -0.31952
-0.317723 0.851502 -0.317526
-0.315395 0.845249 -0.315277
-0.313192 0.839295 -0.313084
-0.30882 0.835768 -0.311533
-0.26208 0.832978 -0.307652
0.229754 0.827013 -0.292394
0.437381 0.815793 -0.255073
0.582112 0.79878 -0.148721
0.708927 0.763491 0.586205
0.741243 0.757364 0.708878
0.836379 0.772033 0.553521
0.941433 0.798154 0.451669
0.922517 0.847281 0.599981
0.9087 0.897018 0.76023
-0.357924 0.955285 -0.356591
-0.358099 0.955994 -0.357794
-0.357762 0.955221 -0.357507
-0.356059 0.95101 -0.355804
-0.35418 0.946531 -0.354054
-0.352544 0.944012 -0.352888
-0.324555 0.941885 -0.35046
-0.061595 0.937744 -0.339541
0.394732 0.92988 -0.314393
0.557624 0.915697 -0.261521
0.690337 0.898463 -0.079293
0.804967 0.861075 0.686374
0.837849 0.866253 0.850123
0.897496 0.905085 0.81347
0.915262 0.937364 0.889779
0.932516 0.961719 0.948324
-0.386458 1.01662 -0.384663
-0.386296 1.016581 -0.385828
-0.38631 1.016627 -0.385909
-0.385191 1.013791 -0.384911
-0.384556 1.012014 -0.384298
-0.384121 1.01082 -0.383951
-0.36434 1.009398 -0.382216
-0.202155 1.006494 -0.373077
0.367628 1.001085 -0.352888
0.547164 0.996687 -0.31471
0.689704 0.989743 -0.232608
0.808986 0.976465 0.323138
0.893666 0.948782 0.780767
0.93006 0.960878 0.951506
0.948274 0.976943 0.965451
0.952394 0.9808 0.96618
-0.386619 1.016825 -0.384075
-0.386433 1.01681 -0.385685
-0.386415 1.016809 -0.385796
-0.386394 1.016808 -0.385881
-0.386373 1.01681 -0.386033
-0.386485 1.016816 -0.38617
-0.36337 1.016453 -0.384671
-0.14835 1.01445 -0.374464
0.396652 1.011275 -0.353444
0.575325 1.007176 -0.31247
0.716468 1.002682 -0.224523
0.835079 0.997916 0.341448
0.917128 0.984703 0.739808
0.947808 0.979184 0.940331
0.952331 0.980707 0.966183
0.952301 0.980679 0.966168
-0.386695 1.01683 -0.383536
-0.38648 1.016812 -0.385471
-0.386454 1.016811 -0.385589
-0.386425 1.016809 -0.385748
-0.386392 1.016808 -0.385907
-0.386397 1.016806 -0.386166
-0.344178 1.016157 -0.383352
0.195767 1.013623 -0.369813
0.460572 1.009991 -0.343061
0.632942 1.005393 -0.287217
0.767934 1.00078 -0.140875
0.882438 0.991539 0.567943
0.937192 0.980179 0.861198
0.952364 0.98073 0.966158
0.952301 0.980679 0.966168
0.952321 0.980698 0.966173
-0.387538 1.018874 -0.383935
-0.387299 1.018854 -0.386059
-0.387279 1.018852 -0.386206
-0.387282 1.018849 -0.386476
-0.38736 1.018844 -0.386701
-0.386734 1.018832 -0.386725
-0.304613 1.017678 -0.381702
0.307994 1.014591 -0.363693
0.529415 1.010401 -0.327647
0.694278 1.005397 -0.246342
0.826212 0.999714 0.295499
0.918273 0.985913 0.743023
0.953833 0.982053 0.967313
0.953709 0.981968 0.967288
0.9537 0.981963 0.967268
0.9537 0.981963 0.967268
0.113322 0.079664 0.150776
0.113897 0.079998 0.150103
0.121995 0.088132 0.150694
0.139801 0.100161 0.153762
0.174933 0.11251 0.156949
0.232375 0.118567 0.157752
0.334763 0.102722 0.145098
0.444637 -0.028897 0.109695
0.542747 -0.07702 0.08887
0.640173 -0.09197 0.071892
0.734612 -0.09841 0.05998
0.831056 -0.101316 0.05252
0.918418 -0.102301 0.049503
0.979615 -0.102806 0.047748
0.979569 -0.102817 0.047717
0.979569 -0.102818 0.047712
0.113819 0.134886 0.154093
0.113695 0.134138 0.153217
0.123239 0.136309 0.150597
0.141249 0.142185 0.153769
0.179255 0.149055 0.158392
0.241448 0.152138 0.160127
0.349297 0.140708 0.147786
0.456884 0.12004 0.125877
0.554223 0.101293 0.105992
0.651338 0.08537 0.089076
0.744738 0.07333 0.076301
0.839344 0.064714 0.067189
0.923253 0.060713 0.062958
0.979676 0.057792 0.059867
0.979569 0.057743 0.059816
0.979569 0.057738 0.059813
0.119206 0.150534 0.158701
0.119017 0.149701 0.158207
0.123319 0.147233 0.156232
0.142184 0.146849 0.154951
0.186408 0.150571 0.159015
0.26935 0.150857 0.158618
0.395424 0.13226 0.138829
0.497906 0.111891 0.117243
0.596456 0.093964 0.09822
0.689739 0.080005 0.083393
0.778743 0.069794 0.072567
0.866348 0.062999 0.065365
0.942135 0.060434 0.062657
0.979611 0.057774 0.059853
0.979569 0.057738 0.059813
0.979587 0.057738 0.059813
0.121855 0.183366 0.161762
0.121904 0.183933 0.160598
0.124383 0.183511 0.158453
0.140164 0.1784 0.158076
0.18145 0.168838 0.161261
0.257689 0.156681 0.159538
0.385052 0.134079 0.14093
0.490141 0.11334 0.118837
0.589173 0.09518 0.099512
0.684667 0.080681 0.084114
0.774913 0.070171 0.072951
0.863145 0.063197 0.065569
0.938827 0.060476 0.062699
0.979609 0.057779 0.059856
0.979569 0.057738 0.059813
0.979569 0.057738 0.059813
0.106194 0.239557 0.147588
0.105547 0.241048 0.145302
0.104715 0.244967 0.139426
0.121457 0.238393 0.142929
0.169721 0.227792 0.150045
0.242839 0.203721 0.158853
0.364404 0.16116 0.142091
0.473743 0.120247 0.122417
0.57272 0.097434 0.10238
0.668751 0.082619 0.086366
0.759355 0.071735 0.074645
0.849472 0.064038 0.066466
0.928224 0.060623 0.062856
0.979668 0.057798 0.059874
0.979569 0.057748 0.059819
0.979569 0.057735 0.05981
-0.076058 0.330868 0.054911
-0.077733 0.332587 0.042647
-0.08301 0.33828 -0.04892
-0.058703 0.331163 -0.016639
0.109016 0.321021 0.062319
0.220248 0.303919 0.110931
0.339934 0.26074 0.137106
0.455907 0.211277 0.114472
0.556736 0.155827 0.102295
0.653964 0.093676 0.088939
0.744433 0.071788 0.075658
0.835522 0.063975 0.066917
0.916915 0.060636 0.062974
0.979741 0.057764 0.059859
0.979569 0.057516 0.059673
0.979569 0.057155 0.059423
-0.157745 0.448766 -0.145277
-0.158371 0.450434 -0.147896
-0.160743 0.456513 -0.155907
-0.154582 0.445201 -0.151658
-0.123435 0.431355 -0.141287
0.148686 0.415403 -0.123285
0.323753 0.386993 0.159671
0.421322 0.348349 0.188459
0.536355 0.292978 0.088547
0.636847 0.24038 0.082485
0.730018 0.174879 0.075771
0.822305 0.10182 0.068661
0.905516 0.062579 0.063898
0.979802 0.038889 0.047761
0.979569 0.05944 0.060146
0.979569 0.088928 0.059319
-0.210412 0.571059 -0.201864
-0.210553 0.571789 -0.203461
-0.211455 0.575236 -0.208748
-0.206628 0.563133 -0.204598
-0.193673 0.547689 -0.1983
-0.12082 0.531832 -0.188292
0.259021 0.510835 -0.156581
0.42567 0.476884 0.294619
0.48813 0.446448 0.313693
0.619961 0.393492 0.068981
0.717606 0.336712 0.067696
0.813268 0.289984 0.064729
0.901799 0.249947 0.059105
0.979731 0.25176 0.043045
0.979569 0.305766 0.042939
0.979569 0.376248 0.042936
-0.251793 0.674499 -0.245008
-0.251858 0.675059 -0.24625
-0.252218 0.677102 -0.250286
-0.246695 0.662618 -0.245412
-0.238263 0.64703 -0.238408
-0.210154 0.632937 -0.232638
0.131539 0.617874 -0.218994
0.366782 0.599153 -0.168658
0.511913 0.565064 0.378891
0.563647 0.54309 0.433232
0.705725 0.510168 0.127778
0.811544 0.479214 0.042924
0.902521 0.463171 0.042934
0.979743 0.476311 0.042938
0.979569 0.526349 0.042932
0.979569 0.588784 0.042919
-0.286294 0.766363 -0.280602
-0.286196 0.766422 -0.281494
-0.2862 0.767247 -0.284592
-0.281225 0.754341 -0.280169
-0.276293 0.741152 -0.275699
-0.264836 0.733361 -0.271836
-0.189805 0.727541 -0.266287
0.302596 0.718211 -0.242288
0.474382 0.702659 -0.171007
0.611876 0.666595 0.48024
0.649778 0.650425 0.572275
0.782059 0.637221 0.315147
0.895617 0.626208 0.102909
0.979768 0.646359 0.042907
0.975988 0.699502 0.158287
0.957127 0.76418 0.348463
-0.319113 0.853823 -0.31426
-0.319175 0.854177 -0.315065
-0.319664 0.856226 -0.318252
-0.317161 0.849787 -0.316156
-0.314681 0.843181 -0.31403
-0.31048 0.839055 -0.31183
-0.269845 0.835291 -0.308917
0.215592 0.829384 -0.294196
0.433865 0.817636 -0.256959
0.580809 0.799703 -0.151923
0.709151 0.764083 0.585779
0.742649 0.758295 0.708137
0.838427 0.772134 0.550503
0.943927 0.797301 0.446437
0.92283 0.846448 0.596896
0.90883 0.895581 0.755795
-0.358154 0.954858 -0.353208
-0.358251 0.955243 -0.353992
-0.359156 0.958109 -0.357541
-0.357776 0.954919 -0.356558
-0.355511 0.949595 -0.354658
-0.353633 0.946371 -0.353319
-0.330186 0.944017 -0.351335
-0.121434 0.939758 -0.341113
0.388235 0.93157 -0.316159
0.555146 0.917069 -0.263509
0.689813 0.899288 -0.085336
0.805257 0.861403 0.686458
0.838346 0.866769 0.850095
0.898979 0.905549 0.810933
0.915065 0.937139 0.888916
0.932413 0.961396 0.947847
-0.386888 1.016647 -0.381175
-0.386874 1.016846 -0.381921
-0.386562 1.01682 -0.384594
-0.385799 1.014953 -0.384288
-0.384745 1.012357 -0.383643
-0.384283 1.011148 -0.38364
-0.368723 1.009766 -0.382191
-0.223392 1.00686 -0.37397
0.359509 1.001677 -0.354007
0.543119 0.996877 -0.316152
0.688037 0.989952 -0.234531
0.80859 0.97676 0.319886
0.89375 0.94878 0.781505
0.929973 0.960774 0.95145
0.948069 0.976744 0.965396
0.952397 0.980803 0.966183
-0.387138 1.016863 -0.380047
-0.387057 1.016856 -0.380821
-0.386607 1.016825 -0.384162
-0.386568 1.01682 -0.384549
-0.386476 1.016816 -0.38506
-0.386513 1.01682 -0.385607
-0.369124 1.016536 -0.384596
-0.186602 1.014639 -0.375592
0.386783 1.01144 -0.354728
0.570441 1.00731 -0.314226
0.714151 1.002763 -0.22704
0.833817 0.998126 0.335058
0.917048 0.984757 0.73919
0.947921 0.97919 0.940983
0.952332 0.980708 0.966184
0.952301 0.980679 0.966168
-0.38727 1.016874 -0.378962
-0.387135 1.016866 -0.379809
-0.386673 1.016828 -0.383811
-0.386568 1.016823 -0.384344
-0.386506 1.016817 -0.384902
-0.386535 1.016813 -0.385596
-0.354318 1.016305 -0.383751
0.157082 1.01384 -0.371113
0.449805 1.010215 -0.345046
0.626988 1.005581 -0.290292
0.76484 1.000887 -0.148476
0.880748 0.991743 0.559891
0.936802 0.980217 0.857908
0.952367 0.980732 0.966146
0.952301 0.980679 0.966168
0.952321 0.980698 0.966173
-0.388172 1.018911 -0.378872
-0.388051 1.018902 -0.379903
-0.387501 1.018869 -0.384521
-0.38742 1.018863 -0.385141
-0.387416 1.018854 -0.385775
-0.387515 1.018848 -0.386656
-0.325163 1.017933 -0.382953
0.282548 1.014894 -0.365677
0.517841 1.010693 -0.330772
0.687556 1.005632 -0.251956
0.821537 0.999976 0.270559
0.916779 0.986248 0.735004
0.95329 0.981771 0.965998
0.953715 0.981973 0.967291
0.953701 0.981964 0.967268
0.9537 0.981963 0.967268
0.117529 0.09468 0.195211
0.117468 0.094295 0.193183
0.121156 0.095242 0.187975
0.135276 0.100791 0.183175
0.171343 0.111907 0.179136
0.228718 0.118355 0.17064
0.331127 0.103722 0.149734
0.442096 -0.024861 0.110493
0.541066 -0.076612 0.089215
0.639356 -0.091888 0.072024
0.733998 -0.098389 0.060024
0.830647 -0.101307 0.052545
0.918128 -0.1023 0.049513
0.979622 -0.102807 0.047747
0.979569 -0.102817 0.047717
0.979569 -0.102819 0.047712
0.120654 0.13819 0.192344
0.120824 0.138303 0.194956
0.124023 0.139014 0.191227
0.138275 0.142472 0.186144
0.175061 0.148643 0.180578
0.237409 0.152056 0.172167
0.345688 0.141266 0.151453
0.454352 0.120532 0.126512
0.55292 0.101529 0.106246
0.650786 0.085443 0.089161
0.744202 0.073396 0.07638
0.83889 0.064751 0.067219
0.92292 0.060723 0.062962
0.979679 0.057791 0.059867
0.979569 0.057743 0.059816
0.979569 0.057738 0.059813
0.123257 0.145908 0.188974
0.12297 0.144737 0.191749
0.124469 0.142835 0.191626
0.138703 0.144236 0.1888
0.182977 0.14963 0.184025
0.265825 0.150932 0.17113
0.39311 0.132686 0.141218
0.496532 0.11215 0.117537
0.595102 0.09419 0.098466
0.688982 0.08013 0.083522
0.778578 0.069824 0.072602
0.865911 0.063026 0.065392
0.941285 0.060446 0.06267
0.979585 0.057774 0.059853
