site/assets/luts/freshluts--0000197-glut007.cube
# LUTr-Schema-Version: 2
# LUTr-ID: freshluts--0000197-glut007
# LUTr-Title: gLUT007
# LUTr-Collection: Fresh LUTs
# LUTr-Collection-ID: freshluts-community
# LUTr-Source: https://freshluts.com
# LUTr-Retrieved: 2026-07-27
# LUTr-Source-File: submissions-raw/freshluts/cubes/197__town.cube
# LUTr-Source-Format: CUBE
# LUTr-Source-SHA256: a69d53786227eb8bd240e35707551aa2ca1febeb705edfcdcc89d70637dcc473
# LUTr-License: CC0-1.0
# LUTr-License-URL: https://freshluts.com/termsandconditions
# LUTr-License-Basis: site-terms
# LUTr-Transform-Class: creative-look
# LUTr-Tags: creative, freshluts, community, cube, brown, low-key, red-logfilm
# LUTr-Input-Color-Space: red-logfilm-rwg
# LUTr-Input-Gamut: red-wide-gamut-rgb
# LUTr-Input-Transfer: red-logfilm
# LUTr-Output-Color-Space: srgb
# LUTr-Output-Gamut: rec709
# LUTr-Output-Transfer: srgb
# LUTr-Color-Space-Confidence: inferred-from-source-label
# LUTr-Domain-Normalized: true
# LUTr-Shaper: none
# LUTr-Original-Grid: 33x33x33
# LUTr-Conversion-Grid: 33x33x33
# LUTr-Conversion-Interpolation: none
# LUTr-Conversion-Method: Metadata normalization; numeric LUT samples preserved
# LUTr-Conversion-Tool: LUTr scripts/convert-all-to-cube.mjs 2.0.0
# LUTr-Conversion-Date: 2026-07-28
# LUTr-Asset-URL: https://freshluts.com/luts/197
# LUTr-Author: directorgodfrey_M
# LUTr-Author-URL: https://freshluts.com/users/1455
# LUTr-Attribution: directorgodfrey_M via Fresh LUTs
# LUTr-Source-Labels: gamma=RED Log Film; color=Brown; key=Low Key; style=Hipster
# LUTr-Note: Preserve this metadata and the upstream license notices when redistributing.
TITLE "gLUT007"
LUT_3D_SIZE 5
DOMAIN_MIN 0 0 0
DOMAIN_MAX 1 1 1
0.00482185 0.00965896 0.0257877
0.426703 0.102693 0.00512703
0.825803 0.163958 0.0216983
0.937102 0.35819 0.0849165
0.946288 0.355886 0.0938735
0.0115358 0.296361 0.191577
0.286992 0.288243 0.0950179
0.786297 0.290227 0
0.92018 0.350668 0.0436561
0.933318 0.351202 0.0623636
0 0.618738 0.509026
0 0.619303 0.508965
0.766888 0.720882 0.330068
0.964111 0.654185 0.0838483
0.964782 0.649165 0.0812085
0 0.81944 0.751019
0 0.821988 0.752956
0 0.793698 0.715007
0.989044 0.995453 0.832395
0.995529 0.994995 0.827176
0 0.81944 0.751019
0 0.821988 0.752956
0 0.794171 0.718944
0.980087 0.997269 0.830762
0.995529 0.994995 0.827176
0.148089 0.0267796 0.109102
0.572961 0.0295262 0.0978103
0.85951 0.0505379 0.141192
0.986191 0.360891 0.197528
0.988403 0.359121 0.200717
0.0230869 0.284321 0.323247
0.260304 0.247761 0.246693
0.817105 0.202243 0.0750439
0.983078 0.362219 0.18703
0.986725 0.357977 0.18822
0 0.616159 0.50663
0 0.617548 0.506844
0.765698 0.717296 0.322866
0.962615 0.649714 0.0819409
0.963073 0.644556 0.0791791
0 0.81944 0.751019
0 0.821988 0.752956
0 0.793667 0.715068
0.988739 0.995499 0.832395
0.995529 0.994995 0.827176
0 0.81944 0.751019
0 0.821988 0.752956
0 0.794247 0.719219
0.979675 0.99736 0.830793
0.995529 0.994995 0.827176
0.531807 0.0309758 0.309209
0.617884 0 0.304143
0.866423 0.0266423 0.315938
1 0.435492 0.489281
1 0.432746 0.487892
0.529824 0.0312963 0.307988
0.536812 0.0301518 0.312505
0.863493 0.027039 0.315328
1 0.437766 0.490028
1 0.43241 0.486809
0.129992 0.641443 0.68188
0.125399 0.640848 0.682155
0.744167 0.684123 0.609354
0.9738 0.619821 0.286015
0.975875 0.613565 0.277348
0 0.816083 0.793774
0 0.818738 0.796689
0 0.788235 0.74464
0.985733 1 0.868086
0.997833 1 0.864469
0 0.816037 0.792569
0 0.818677 0.795438
0 0.792432 0.754681
0.975937 1 0.865034
0.997559 0.999832 0.863142
0.811734 0 0.455161
0.816251 0 0.461219
0.963378 0.0788586 0.646616
1 0.59791 0.780957
1 0.594934 0.780987
0.813535 0 0.457374
0.815839 0 0.460441
0.960174 0.0772259 0.64303
1 0.600748 0.780865
1 0.594934 0.780987
0.369879 0.752621 0.857755
0.363348 0.751827 0.858686
0.89221 0.426764 0.738842
0.929717 0.25539 0.496666
0.933745 0.239643 0.493187
0 0.787747 0.829801
0 0.788266 0.830945
0.13933 0.845075 0.878492
0.988556 0.978821 0.925429
1 0.978134 0.916869
0 0.804395 0.839414
0 0.805402 0.841352
0 0.805341 0.841581
0.969345 1 0.93695
1 1 0.938109
0.812757 0 0.457115
0.817365 0 0.462928
0.961288 0.0777905 0.644297
1 0.59791 0.780957
1 0.594934 0.780987
0.812757 0 0.457115
0.817365 0 0.462928
0.95874 0.0764782 0.641443
1 0.600748 0.780865
1 0.594934 0.780987
0.464317 0.755856 0.874022
0.459205 0.754833 0.875395
0.89575 0.372946 0.734493
0.935607 0.195285 0.492287
0.938537 0.189639 0.492271
0.0891737 0.847913 0.892912
0.086717 0.846143 0.892454
0.11017 0.853361 0.896559
0.993057 0.971908 0.930541
1 0.967239 0.922011
0 0.802457 0.847623
0 0.803113 0.848966
0 0.803052 0.849149
0.972274 1 0.958038
1 1 0.949615
