site/assets/luts/freshluts--0001252-san-lut.cube
# LUTr-Schema-Version: 2
# LUTr-ID: freshluts--0001252-san-lut
# LUTr-Title: SAN LUT
# LUTr-Collection: Fresh LUTs
# LUTr-Collection-ID: freshluts-community
# LUTr-Source: https://freshluts.com
# LUTr-Retrieved: 2026-07-27
# LUTr-Source-File: submissions-raw/freshluts/cubes/1252__SAN_LUT.cube
# LUTr-Source-Format: CUBE
# LUTr-Source-SHA256: 30ea07879c2820e8dfb9e4d3318a13a907e7d0941659207863793824442e79eb
# LUTr-License: CC0-1.0
# LUTr-License-URL: https://freshluts.com/termsandconditions
# LUTr-License-Basis: site-terms
# LUTr-Transform-Class: creative-look
# LUTr-Tags: creative, freshluts, community, cube, sony-s-log3
# LUTr-Input-Color-Space:
# LUTr-Input-Gamut: sony-s-gamut3
# LUTr-Input-Transfer: sony-s-log3
# LUTr-Output-Color-Space: srgb
# LUTr-Output-Gamut: rec709
# LUTr-Output-Transfer: srgb
# LUTr-Color-Space-Confidence: camera-profile-input-required
# LUTr-Domain-Normalized: true
# LUTr-Shaper: none
# LUTr-Original-Grid: 33x33x33
# LUTr-Conversion-Grid: 33x33x33
# LUTr-Conversion-Interpolation: none
# LUTr-Conversion-Method: Metadata normalization; numeric LUT samples preserved
# LUTr-Conversion-Tool: LUTr scripts/convert-all-to-cube.mjs 2.0.0
# LUTr-Conversion-Date: 2026-07-28
# LUTr-Asset-URL: https://freshluts.com/luts/1252
# LUTr-Author: Antony Eliezer
# LUTr-Author-URL: https://freshluts.com/users/32961
# LUTr-Attribution: Antony Eliezer via Fresh LUTs
# LUTr-Source-Labels: gamma=Sony S-Log 3; color=None; key=Neutral; style=Teal - Orange
# LUTr-Note: Preserve this metadata and the upstream license notices when redistributing.
# LUTr-Upstream-Comment: VEGAS Pro LUT
TITLE "SAN LUT"
LUT_3D_SIZE 5
DOMAIN_MIN 0 0 0
DOMAIN_MAX 1 1 1
0.09412502 0.07135916 0.06501074
0.22237241 0.06260681 0.05564015
0.70030934 0.01950359 0.00888604
0.95860016 0.0057298 -0.00585986
0.97948641 0.00412288 -0.00863182
0.07207531 0.15642704 0.10991877
0.14476153 0.1335316 0.06904529
0.62453824 0.08045346 0.01356875
0.92928559 0.04537137 -0.00947748
0.97785836 0.03751628 -0.0146162
0.04390231 0.47148624 0.39079785
0.06386183 0.456292 0.3524588
0.50546145 0.43150315 0.10786758
0.89957637 0.38496304 0.01717712
0.98178667 0.34824568 0.00867352
0.06393033 0.76690316 0.54719049
0.08202668 0.76179814 0.53763896
0.39666158 0.75588197 0.37661672
0.85902822 0.7335456 0.28384915
0.98932761 0.67539877 0.26310498
0.06649195 0.85130405 0.53897214
0.0855593 0.84929699 0.55416435
0.31467748 0.8605631 0.45641172
0.80127221 0.85243857 0.38776329
0.96921575 0.84079945 0.36171547
0.08824665 0.09565774 0.19496484
0.19486803 0.08095653 0.12363736
0.68192536 0.02825291 0.04320162
0.95229816 0.01335628 0.01256118
0.97953701 0.00708169 0.00902684
0.052278 0.15611526 0.19772676
0.12949513 0.1306334 0.12089147
0.60912216 0.07402305 0.03423686
0.92452198 0.04339828 0.0084751
0.97798371 0.03511709 0.00344263
0.04639372 0.46174201 0.4875814
0.06530087 0.44984823 0.45443401
0.49417245 0.42257583 0.21851447
0.89848357 0.37336674 0.05193792
0.98357433 0.33516073 0.03512871
0.06617187 0.76274937 0.65022206
0.08433035 0.75593984 0.6452046
0.33037651 0.75884283 0.55392802
0.85866827 0.72705001 0.4312571
0.99082518 0.6764434 0.40453279
0.06855431 0.84918374 0.65096033
0.08781675 0.84687841 0.66470963
0.26471737 0.86501545 0.62053233
0.81371862 0.84902894 0.53377277
0.96977079 0.84023756 0.5095095
0.06604395 0.27847514 0.62322074
0.13112764 0.24266732 0.53672183
0.66175199 0.20068651 0.34655422
0.95323247 0.11080816 0.13591979
0.9853276 0.06888725 0.0818826
0.04972427 0.33739138 0.58394253
0.07638925 0.3000845 0.50549406
0.58253717 0.22735178 0.24064946
0.91793293 0.14291963 0.05447759
0.98040432 0.11510691 0.03377679
0.0496328 0.46001118 0.59236723
0.06832492 0.44949886 0.56169552
0.4850727 0.41391814 0.33779159
0.90376407 0.35768718 0.13179272
0.99175555 0.31783929 0.09459586
0.06852935 0.75886786 0.75337136
0.08679999 0.75025809 0.75268239
0.28743702 0.75811023 0.70312732
0.85831738 0.72355312 0.56208485
0.99234068 0.68390006 0.53295285
0.07104088 0.84634453 0.75888747
0.0902879 0.84419984 0.77093548
0.24389125 0.86487007 0.74439842
0.82845432 0.84716511 0.64847362
0.97047198 0.84028023 0.63293499
0.07103314 0.4625425 0.89431286
0.10359442 0.45692441 0.87443006
0.62859058 0.44767866 0.73648375
0.93265879 0.40853089 0.62401313
1.0061157 0.36223835 0.54781038
0.06712747 0.53540522 0.87664855
0.08625552 0.52399796 0.85864538
0.53708178 0.49500963 0.68486786
0.91300541 0.45311478 0.5291788
1.0048256 0.42781878 0.48299342
0.0641441 0.58368248 0.81806594
0.08036052 0.56369478 0.78942239
0.38226816 0.56104547 0.68431336
0.88848305 0.55407727 0.54441684
0.99970829 0.57151222 0.57052267
0.0701115 0.74651134 0.84821945
0.08834846 0.73486382 0.84963274
0.28318056 0.75014305 0.81660527
0.86249626 0.71957767 0.66669238
0.98726285 0.70197809 0.64809114
0.07333651 0.84322047 0.86519527
0.0925426 0.84110683 0.87468898
0.2430785 0.86291832 0.84924161
0.82027525 0.84990871 0.76175117
0.97175962 0.84127092 0.73132253
0.07421646 0.4437775 0.94575775
0.10188236 0.45385784 0.94641167
0.61227107 0.49287382 0.85400999
0.91328979 0.47995427 0.80665022
1.000546 0.46854848 0.76514661
0.06894474 0.54741538 0.9618175
0.08773787 0.55718434 0.96087384
0.49418634 0.58237964 0.8780731
0.88625216 0.58691078 0.78924906
0.99071991 0.57766044 0.76070583
0.06920122 0.63868344 0.93995029
0.08777113 0.64474189 0.9361136
0.33903649 0.6803385 0.92064118
0.86553615 0.68021894 0.79672092
0.9837997 0.67284566 0.78473973
0.07074925 0.72838175 0.92841256
0.08947174 0.72389579 0.93632859
0.27868655 0.75498831 0.92987078
0.8249355 0.76427072 0.83636987
0.9775188 0.75566709 0.7931571
0.07403834 0.82228088 0.94899172
0.09306981 0.81838191 0.95341003
0.25032699 0.85305697 0.94256759
0.7654686 0.85918951 0.89709717
0.97232294 0.84226918 0.81202954
