site/assets/luts/freshluts--0000773-glut011.cube
# LUTr-Schema-Version: 2
# LUTr-ID: freshluts--0000773-glut011
# LUTr-Title: gLut011
# LUTr-Collection: Fresh LUTs
# LUTr-Collection-ID: freshluts-community
# LUTr-Source: https://freshluts.com
# LUTr-Retrieved: 2026-07-27
# LUTr-Source-File: submissions-raw/freshluts/cubes/773__GMVISUALZ_WED_01_11.E74A9625.cube
# LUTr-Source-Format: CUBE
# LUTr-Source-SHA256: 55f5434782cc32212416ac85dff83068847d5a3092b7d355f50947bb6c17d951
# LUTr-License: CC0-1.0
# LUTr-License-URL: https://freshluts.com/termsandconditions
# LUTr-License-Basis: site-terms
# LUTr-Transform-Class: creative-look
# LUTr-Tags: creative, freshluts, community, cube, warm, canon-cinestyle
# LUTr-Input-Color-Space: canon-cinestyle
# LUTr-Input-Gamut: rec709
# LUTr-Input-Transfer: canon-cinestyle
# LUTr-Output-Color-Space: srgb
# LUTr-Output-Gamut: rec709
# LUTr-Output-Transfer: srgb
# LUTr-Color-Space-Confidence: inferred-from-source-label
# LUTr-Domain-Normalized: true
# LUTr-Shaper: none
# LUTr-Original-Grid: 33x33x33
# LUTr-Conversion-Grid: 33x33x33
# LUTr-Conversion-Interpolation: none
# LUTr-Conversion-Method: Metadata normalization; numeric LUT samples preserved
# LUTr-Conversion-Tool: LUTr scripts/convert-all-to-cube.mjs 2.0.0
# LUTr-Conversion-Date: 2026-07-28
# LUTr-Asset-URL: https://freshluts.com/luts/773
# LUTr-Author: directorgodfrey_M
# LUTr-Author-URL: https://freshluts.com/users/1455
# LUTr-Attribution: directorgodfrey_M via Fresh LUTs
# LUTr-Source-Labels: gamma=Canon Cinestyle; color=Warm; key=Neutral; style=Wedding
# LUTr-Note: Preserve this metadata and the upstream license notices when redistributing.
TITLE "gLut011"
LUT_3D_SIZE 33
DOMAIN_MIN 0 0 0
DOMAIN_MAX 1 1 1
0 0 0.0136416
0.0554055 0 0.00834669
0.117327 0 0.00341802
0.181064 0 0
0.245472 0 0
0.311025 0 0
0.375296 0 0
0.433341 0 0
0.48397 0 0
0.529213 0 0
0.571771 0 0
0.614176 0 0
0.658106 0 0
0.703624 0 0
0.750744 0 0
0.800244 0 0
0.849638 0 0
0.896895 0 0
0.939193 0 0
0.976883 0 0
1 0 0
1 0 0
1 0 0
1 0 0
1 0 0
1 0 0.00386053
1 0 0.00846876
1 0 0.0131075
1 0.00337224 0.0175631
1 0.00784314 0.0220493
1 0.0123293 0.0265507
1 0.016846 0.0310674
1 0.0215 0.0357366
0 0.0493019 0
0.0401465 0.0447089 0
0.102602 0.0401465 0
0.165347 0.0351568 0
0.229892 0.0296788 0
0.294926 0.0241093 0
0.360098 0.0185092 0
0.42063 0.0143893 0
0.472923 0.0127108 0
0.519371 0.012314 0
0.562081 0.0129702 0
0.604074 0.013901 0
0.647562 0.0144656 0
0.692912 0.0147097 0
0.740215 0.0146639 0
0.788861 0.0139467 0
0.838651 0.0129702 0
0.886702 0.0125429 0
0.930663 0.0132601 0
0.969543 0.0154726 0
1 0.0189059 0
1 0.0227512 0
1 0.0271458 0
1 0.0318608 0
1 0.036408 0
1 0.0408942 0
1 0.045716 0
1 0.0502174 0
1 0.0547341 0.00238041
1 0.0592508 0.00691234
1 0.0637064 0.0113832
1 0.0684825 0.0161593
1 0.0727855 0.0204776
0 0.100175 0
0.024567 0.0961166 0
0.0865187 0.0913405 0
0.149645 0.086305 0
0.213519 0.081178 0
0.279072 0.0755932 0
0.344244 0.070161 0
0.406912 0.0658732 0
0.46157 0.0633555 0
0.508949 0.0628977 0
0.552911 0.0634012 0
0.595087 0.0644236 0
0.638636 0.0650797 0
0.683818 0.0658427 0
0.730373 0.0658579 0
0.778927 0.0653544 0
0.828504 0.0646067 0
0.877562 0.0640116 0
0.922927 0.0648814 0
0.963256 0.0668803 0
0.999329 0.0699321 0
1 0.0738079 0
1 0.0783093 0
1 0.0830396 0
1 0.0880293 0
1 0.0926528 0
1 0.0971542 0
1 0.101595 0
1 0.105943 0
1 0.110231 0
1 0.114733 0
1 0.119051 0.00015259
1 0.123003 0.00411994
0 0.152071 0
0.00883497 0.14757 0
0.0704051 0.143084 0
0.133196 0.138277 0
0.19736 0.133135 0
0.262654 0.128084 0
0.328923 0.122698 0
0.392294 0.117968 0
0.449226 0.114992 0
0.498527 0.114122 0
0.543038 0.114641 0
0.586053 0.115846 0
0.629297 0.117006 0
0.674128 0.117525 0
0.720378 0.117693 0
0.768521 0.117464 0
0.818265 0.116808 0
0.867979 0.116426 0
0.914763 0.116884 0
0.956298 0.118517 0
0.993378 0.121401 0
1 0.125124 0
1 0.129442 0
1 0.134173 0
1 0.139086 0
1 0.143481 0
1 0.147723 0
1 0.152056 0
1 0.15613 0
1 0.160372 0
1 0.163989 0
1 0.167452 0
1 0.170932 0
0 0.204242 0
0 0.199756 0
0.0541085 0.195453 0
0.116777 0.19086 0
0.180743 0.186099 0
0.246189 0.181155 0
0.31223 0.175814 0
0.377264 0.170779 0
0.436149 0.167452 0
0.487343 0.166247 0
0.53315 0.166567 0
0.576486 0.167987 0
0.619654 0.16907 0
0.664134 0.169848 0
0.710262 0.170199 0
0.758068 0.170108 0
0.807965 0.170001 0
0.857984 0.169375 0
0.90576 0.169375 0
0.948592 0.170718 0
0.986755 0.17322 0
1 0.176638 0
1 0.180911 0
1 0.185275 0
1 0.189792 0
1 0.193759 0
1 0.197559 0
1 0.201038 0
1 0.204868 0
1 0.208194 0
1 0.211154 0
1 0.213825 0
1 0.216098 0
0 0.257267 0
0 0.252781 0
0.0373541 0.248615 0
0.100389 0.24448 0
0.164218 0.239857 0
0.229252 0.234882 0
0.295323 0.229633 0
0.361196 0.224475 0
0.42237 0.220676 0
0.475746 0.219394 0
0.52282 0.219608 0
0.566552 0.220569 0
0.609506 0.221805 0
0.653727 0.222721 0
0.699687 0.223178 0
0.747417 0.223545 0
0.79678 0.223209 0
0.84683 0.222492 0
0.895262 0.22208 0
0.939544 0.222705 0
0.978424 0.224796 0
1 0.227924 0
1 0.231479 0
1 0.235035 0
1 0.238788 0
1 0.242283 0
1 0.245441 0
1 0.248646 0
1 0.251041 0
1 0.253315 0
1 0.255497 0
1 0.257435 0
1 0.25919 0
0 0.31075 0
0 0.306523 0
0.020737 0.302617 0
0.0836347 0.298466 0
0.14725 0.293965 0
0.212146 0.289158 0
0.278202 0.284108 0
0.344381 0.279011 0
0.407691 0.274891 0
0.463249 0.27303 0
0.511543 0.272831 0
0.555917 0.273762 0
0.599008 0.274983 0
0.642985 0.275944 0
0.688533 0.276844 0
0.735653 0.276738 0
0.784283 0.276204 0
0.834241 0.275227 0
0.883207 0.274327 0
0.927977 0.274266 0
0.968185 0.275486 0
1 0.277577 0
1 0.280201 0
1 0.283146 0
1 0.285969 0
1 0.288441 0
1 0.290974 0
1 0.293004 0
1 0.294881 0
1 0.296284 0
1 0.297444 0
1 0.298619 0
1 0.29987 0
0 0.364523 0
0 0.360708 0
0.00518807 0.356771 0
0.0673228 0.352789 0
0.130877 0.348409 0
0.195483 0.343801 0
0.26125 0.338872 0
0.328069 0.334218 0
0.392142 0.329793 0
0.449912 0.327047 0
0.49958 0.326436 0
0.544656 0.326925 0
0.587533 0.327962 0
0.631357 0.329137 0
0.67631 0.329473 0
0.722164 0.32929 0
0.770108 0.328176 0
0.819013 0.326589 0
0.868025 0.32488 0
0.914031 0.324147 0
0.954116 0.324269 0
0.989792 0.325002 0
1 0.326497 0
1 0.328344 0
1 0.33048 0
1 0.332662 0
1 0.333913 0
1 0.335088 0
1 0.33611 0
1 0.337072 0
1 0.337911 0
1 0.338476 0
1 0.338949 0
0 0.41767 0
0 0.413916 0
0 0.409949 0
0.0541543 0.406226 0
0.116686 0.402289 0
0.180957 0.397848 0
0.246357 0.393408 0
0.312627 0.388464 0
0.377432 0.383658 0
0.436225 0.380377 0
0.487648 0.379049 0
0.532982 0.379232 0
0.576165 0.380087 0
0.618463 0.380407 0
0.662028 0.380209 0
0.707301 0.379461 0
0.753658 0.378164 0
0.801938 0.375937 0
0.849973 0.373465 0
0.895811 0.371099 0
0.93669 0.36997 0
0.97232 0.369985 0
1 0.370428 0
1 0.371405 0
1 0.372671 0
1 0.374014 0
1 0.374884 0
1 0.375433 0
1 0.375921 0
1 0.376287 0
1 0.376761 0
1 0.37702 0
1 0.37705 0
0 0.468986 0
0 0.465309 0
0 0.461631 0
0.0451667 0.458122 0
0.107424 0.45417 0
0.170535 0.450278 0
0.23505 0.445518 0
0.300114 0.440558 0
0.365026 0.435386 0
0.425132 0.431159 0
0.476661 0.429007 0
0.522805 0.428565 0
0.564782 0.428702 0
0.60621 0.42855 0
0.648234 0.427726 0
0.691432 0.42623 0
0.736599 0.424063 0
0.783246 0.421744 0
0.830716 0.418387 0
0.875853 0.415244 0
0.917006 0.412848 0
0.953079 0.411749 0
0.98497 0.411673 0
1 0.412146 0
1 0.412741 0
1 0.413413 0
1 0.41387 0
1 0.414237 0
1 0.414557 0
1 0.414694 0
1 0.414633 0
1 0.414557 0
1 0.414527 0
0 0.518364 0
0 0.514717 0
0 0.510933 0
0.0407416 0.507332 0
0.102083 0.503807 0
0.164324 0.499306 0
0.227054 0.494331 0
0.291218 0.488716 0
0.355047 0.483162 0
0.415869 0.478157 0
0.469184 0.47509 0
0.514229 0.473381 0
0.555673 0.472343 0
0.595376 0.471717 0
0.636118 0.470512 0
0.677974 0.468772 0
0.721202 0.466209 0
0.766247 0.462791 0
0.8121 0.459113 0
0.85742 0.45536 0
0.898543 0.452445 0
0.934844 0.450736 0
0.966995 0.450019 0
0.995987 0.449973 0
1 0.450202 0
1 0.450675 0
1 0.451041 0
1 0.451194 0
1 0.451453 0
1 0.451438 0
1 0.451469 0
1 0.451331 0
1 0.451164 0
0 0.566018 0
0 0.562127 0
0 0.55816 0
0.0384375 0.554131 0
0.0982681 0.549706 0
0.159167 0.544915 0
0.221271 0.539422 0
0.283696 0.533364 0
0.346944 0.526741 0
0.407553 0.520821 0
0.461509 0.51632 0
0.507668 0.513573 0
0.548272 0.511864 0
0.587045 0.510307 0
0.626108 0.508614 0
0.666712 0.5066 0
0.708507 0.503746 0
0.751965 0.50016 0
0.797024 0.495933 0
0.841581 0.491814 0
0.88333 0.48838 0
0.920089 0.486336 0
0.952148 0.485161 0
0.981094 0.484703 0
1 0.484825 0
1 0.485191 0
1 0.485878 0
1 0.486076 0
1 0.486152 0
1 0.48632 0
1 0.486427 0
1 0.48661 0
1 0.486992 0
0 0.611322 0
0 0.606897 0
0 0.602594 0
0.0359655 0.597665 0
0.0942855 0.592508 0
0.153582 0.58677 0
0.21413 0.580621 0
0.275975 0.573892 0
0.33817 0.567025 0
0.398993 0.559716 0
0.453498 0.553872 0
0.500343 0.550042 0
0.541543 0.54757 0
0.579812 0.545861 0
0.617929 0.543694 0
0.657053 0.541085 0
0.697765 0.538003 0
0.740139 0.534356 0
0.784176 0.530098 0
0.828824 0.525704 0
0.870954 0.521813 0
0.908263 0.519127 0
0.940841 0.517662 0
0.969955 0.517067 0
0.996735 0.517037 0
1 0.517525 0
1 0.518273 0
1 0.518578 0
1 0.519005 0
1 0.519387 0
1 0.519844 0
1 0.520363 0
1 0.520897 0
0 0.65478 0
0 0.649363 0
0 0.643732 0
0.0303655 0.637964 0
0.087953 0.632242 0
0.146502 0.625818 0
0.205814 0.618982 0
0.266346 0.611658 0
0.32781 0.60383 0
0.388571 0.595972 0
0.444724 0.589075 0
0.492485 0.584207 0
0.534218 0.581033 0
0.572534 0.578729 0
0.609857 0.576425 0
0.64828 0.573617 0
0.688075 0.570306 0
0.729625 0.566522 0
0.772946 0.562325 0
0.817304 0.55787 0
0.859937 0.553613 0
0.898451 0.550439 0
0.931762 0.548684 0
0.961379 0.547936 0
0.988724 0.54815 0
1 0.548638 0
1 0.549432 0
1 0.550118 0
1 0.550668 0
1 0.551339 0
1 0.552209 0
1 0.552926 0
1 0.553643 0
0 0.695293 0
0 0.689174 0
0 0.682643 0
0.0213321 0.675959 0
0.0785077 0.669337 0
0.136217 0.662501 0
0.195041 0.655299 0
0.254551 0.647364 0
0.31516 0.638987 0
0.37586 0.630533 0
0.433402 0.622827 0
0.483452 0.617288 0
0.525872 0.613336 0
0.56437 0.610376 0
0.601389 0.607797 0
0.639338 0.604929 0
0.678538 0.601648 0
0.719768 0.598032 0
0.762509 0.593744 0
0.806485 0.58909 0
0.849836 0.58468 0
0.889311 0.581384 0
0.924178 0.57937 0
0.954787 0.57879 0
0.982513 0.578759 0
1 0.579309 0
1 0.58024 0
1 0.581186 0
1 0.581994 0
1 0.582956 0
1 0.583886 0
1 0.584802 0
1 0.585748 0
0 0.733364 0
0 0.726482 0
0 0.719524 0
0.00961318 0.712261 0
0.066453 0.705196 0
0.12343 0.69781 0
0.181445 0.690028 0
0.240589 0.681834 0
0.300618 0.673213 0
0.361379 0.664271 0
0.419684 0.656138 0
0.471687 0.649561 0
0.515755 0.645014 0
0.554849 0.641733 0
0.591913 0.638956 0
0.629419 0.636042 0
0.66862 0.632868 0
0.709056 0.629358 0
0.751675 0.625223 0
0.795712 0.620737 0
0.839643 0.616297 0
0.880659 0.612665 0
0.916732 0.610758 0
0.948562 0.609766 0
0.976974 0.609766 0
1 0.610285 0
1 0.611246 0
1 0.612512 0
1 0.613611 0
1 0.614633 0
1 0.615625 0
1 0.616724 0
1 0.617884 0
0 0.769955 0
0 0.762478 0
0 0.754879 0
0 0.747402 0
0.0524147 0.739757 0
0.108598 0.732097 0
0.165743 0.724086 0
0.224506 0.715602 0
0.284321 0.706828 0
0.345037 0.697993 0
0.404623 0.689128 0
0.457923 0.681971 0
0.503899 0.676753 0
0.544091 0.673167 0
0.581582 0.670375 0
0.619242 0.667842 0
0.657923 0.66479 0
0.698421 0.661265 0
0.740337 0.65742 0
0.784436 0.653071 0
0.828977 0.648676 0
0.871351 0.645151 0
0.908934 0.642664 0
0.941573 0.641611 0
0.97116 0.641459 0
0.998184 0.642084 0
1 0.643076 0
1 0.644648 0
1 0.645747 0
1 0.646876 0
1 0.648127 0
1 0.649332 0
1 0.650584 0
0 0.805463 0
0 0.797589 0
0 0.789883 0
0 0.781842 0
0.0355077 0.773846 0
0.0914931 0.766049 0
0.148821 0.757809 0
0.20679 0.749371 0
0.266636 0.740658 0
0.327169 0.731533 0
0.387259 0.72256 0
0.443229 0.714763 0
0.490745 0.709316 0
0.532448 0.70544 0
0.570718 0.702785 0
0.608225 0.70016 0
0.646967 0.697261 0
0.686961 0.694102 0
0.729076 0.690349 0
0.77258 0.68629 0
0.817746 0.682139 0
0.861158 0.678279 0
0.900191 0.675654 0
0.934417 0.674327 0
0.96463 0.674174 0
0.992782 0.674815 0
1 0.676066 0
1 0.677501 0
1 0.678782 0
1 0.680079 0
1 0.681407 0
1 0.682979 0
1 0.684565 0
0 0.840238 0
0 0.832349 0
0 0.824262 0
0 0.816129 0
0.0170596 0.807904 0
0.0733806 0.799863 0
0.130037 0.791775 0
0.18854 0.78352 0
0.247639 0.774899 0
0.308354 0.76585 0
0.369024 0.756863 0
0.426551 0.748745 0
0.477012 0.742718 0
0.519905 0.738903 0
0.559106 0.735912 0
0.596567 0.73344 0
0.635172 0.730709 0
0.675273 0.727657 0
0.71693 0.724361 0
0.760906 0.720592 0
0.805631 0.716457 0
0.850019 0.712459 0
0.890623 0.709606 0
0.926299 0.708171 0
0.957916 0.707912 0
0.986633 0.708675 0
1 0.709743 0
1 0.711315 0
1 0.712932 0
1 0.714321 0
1 0.715846 0
1 0.717586 0
1 0.719203 0
0 0.874952 0
0 0.866712 0
0 0.858564 0
0 0.850355 0
0 0.842252 0
0.0542611 0.834363 0
0.111513 0.826505 0
0.169162 0.818326 0
0.228595 0.809705 0
0.288777 0.800992 0
0.350134 0.792004 0
0.409018 0.783703 0
0.461662 0.777417 0
0.506706 0.772961 0
0.546471 0.770047 0
0.584619 0.767605 0
0.622995 0.765118 0
0.662867 0.762295 0
0.704662 0.759335 0
0.748028 0.755764 0
0.793271 0.751736 0
0.838102 0.747845 0
0.880232 0.744732 0
0.917556 0.743282 0
0.950393 0.742977 0
0.980102 0.743496 0
1 0.744686 0
1 0.746212 0
1 0.748012 0
1 0.749844 0
1 0.751507 0
1 0.753201 0
1 0.754864 0
0 0.908858 0
0 0.900862 0
0 0.892821 0
0 0.884855 0
0 0.876844 0
0.0366522 0.869108 0
0.0928664 0.861494 0
0.150668 0.853468 0
0.209491 0.845212 0
0.269963 0.836545 0
0.331044 0.827985 0
0.391531 0.819608 0
0.445914 0.812787 0
0.492622 0.808072 0
0.533959 0.804868 0
0.572213 0.802625 0
0.610864 0.800488 0
0.650675 0.798062 0
0.691981 0.795148 0
0.735103 0.791791 0
0.780072 0.788083 0
0.825833 0.784222 0
0.869245 0.78117 0
0.908064 0.779446 0
0.942046 0.778912 0
0.972625 0.779446 0
1 0.780606 0
1 0.782254 0
1 0.784329 0
1 0.78613 0
1 0.787884 0
1 0.789593 0
1 0.791379 0
0 0.942199 0
0 0.934356 0
0 0.926604 0
0 0.918929 0
0 0.911391 0
0.0203555 0.903639 0
0.076524 0.896193 0
0.133974 0.888518 0
0.192569 0.880568 0
0.252552 0.872358 0
0.313954 0.863935 0
0.374578 0.855589 0
0.431159 0.848447 0
0.479622 0.843549 0
0.52192 0.84036 0
0.561074 0.838071 0
0.599481 0.836332 0
0.639002 0.834134 0
0.680049 0.831571 0
0.722911 0.82855 0
0.767559 0.825086 0
0.813565 0.821714 0
0.858137 0.818479 0
0.898375 0.816449 0
0.933532 0.815839 0
0.964996 0.816236 0
0.993912 0.817411 0
1 0.819303 0
1 0.821286 0
1 0.823163 0
1 0.824811 0
1 0.826505 0
1 0.828092 0
0 0.974731 0
0 0.967163 0
0 0.959579 0
0 0.952346 0
0 0.944884 0
0.00761425 0.937514 0
0.0639048 0.930266 0
0.12079 0.922911 0
0.179232 0.915511 0
0.238727 0.907683 0
0.299504 0.899535 0
0.360693 0.891264 0
0.418509 0.883986 0
0.469184 0.878767 0
0.512795 0.875776 0
0.552377 0.873747 0
0.590585 0.872023 0
0.629709 0.870115 0
0.670314 0.867948 0
0.712703 0.865354 0
0.757198 0.862455 0
0.802899 0.859113 0
0.847944 0.855909 0
0.889311 0.853758 0
0.925856 0.852934 0
0.958038 0.853315 0
0.98764 0.854551 0
1 0.856214 0
1 0.858106 0
1 0.859922 0
1 0.861585 0
1 0.863096 0
1 0.864775 0
0 1 0
0 0.999405 0
0 0.992248 0
0 0.984955 0
0 0.977768 0
0 0.970611 0
0.0547799 0.963714 0
0.111696 0.956786 0
0.169451 0.949676 0
0.228626 0.942138 0
0.288945 0.934371 0
0.35021 0.926436 0
0.409262 0.919127 0
0.461891 0.91371 0
0.507088 0.910475 0
0.547173 0.908507 0
0.585321 0.907149 0
0.623972 0.905638 0
0.664149 0.903746 0
0.706127 0.901778 0
0.749813 0.899046 0
0.795132 0.895918 0
0.840421 0.89279 0
0.882811 0.890394 0
0.920012 0.889418 0
0.953246 0.889708 0
0.982864 0.890684 0
1 0.892134 0
1 0.893812 0
1 0.895582 0
1 0.896834 0
1 0.898329 0
1 0.899443 0
0 1 0
0 1 0
0 1 0
0 1 0
0 1 0
0 1 0
0.0496071 0.996796 0
0.105669 0.99025 0
0.16321 0.983383 0
0.22182 0.976211 0
0.281956 0.968734 0
0.342885 0.961105 0
0.403418 0.954025 0
0.457694 0.948348 0
0.504417 0.944717 0
0.545495 0.942657 0
0.583719 0.941421 0
0.621958 0.940246 0
0.661646 0.938994 0
0.702953 0.936996 0
0.745739 0.934539 0
0.790448 0.931502 0
0.835691 0.928298 0
0.878645 0.925689 0
0.917174 0.924483 0
0.950393 0.9243 0
0.98027 0.924758 0
1 0.925826 0
1 0.92723 0
1 0.928801 0
1 0.930053 0
1 0.930785 0
1 0.931441 0
0 1 0
0 1 0
0 1 0
0 1 0
0 1 0
0 1 0
0.0459754 1 0
0.101946 1 0
0.15938 1 0
0.217807 1 0
0.277562 1 0
0.33872 0.995682 0
0.399268 0.988525 0
0.455817 0.982391 0
0.50399 0.978576 0
0.546227 0.976349 0
0.584894 0.975067 0
0.622889 0.974243 0
0.66186 0.972793 0
0.702098 0.970977 0
0.744396 0.968551 0
0.788083 0.965667 0
0.833051 0.96231 0
0.876539 0.959274 0
0.915373 0.957229 0
0.949355 0.95642 0
0.979126 0.956542 0
1 0.957031 0
1 0.957916 0
1 0.959106 0
1 0.959884 0
1 0.960388 0
1 0.960586 0
0 1 0
0 1 0
0 1 0
0 1 0
0 1 0
0 1 0
0.0443122 1 0
0.100664 1 0
0.157458 1 0
0.215824 1 0
0.275349 1 0
0.33611 1 0
0.397162 1 0
0.454719 1 0
0.505302 1 0
0.548226 1 0
0.587655 1 0
0.625193 1 0
0.663371 1 0
0.702968 1 0
0.743908 1 0
0.786984 0.99765 0
0.831266 0.994339 0
0.874678 0.990677 0
0.914214 0.987762 0
0.94844 0.986099 0
0.978576 0.985458 0
1 0.985565 0
1 0.986084 0
1 0.986557 0
1 0.986908 0
1 0.986954 0
1 0.986938 0
0 1 0
0 1 0
0 1 0
0 1 0
0 1 0
0 1 0
0.043946 1 0
0.100389 1 0
0.157382 1 0
