site/assets/luts/freshluts--0001218-lut-1-ig-antonyeliezerfilms.cube
# LUTr-Schema-Version: 2
# LUTr-ID: freshluts--0001218-lut-1-ig-antonyeliezerfilms
# LUTr-Title: (Lut 1)  IG @AntonyEliezerFilms
# LUTr-Collection: Fresh LUTs
# LUTr-Collection-ID: freshluts-community
# LUTr-Source: https://freshluts.com
# LUTr-Retrieved: 2026-07-27
# LUTr-Source-File: submissions-raw/freshluts/cubes/1218___28Lut_1_29__IG__AntonyEliezerFilms.cube
# LUTr-Source-Format: CUBE
# LUTr-Source-SHA256: f850d511f1f228c0c497e62a2b62dfdae7c5a9f61a74e2613762775a1e771b9f
# LUTr-License: CC0-1.0
# LUTr-License-URL: https://freshluts.com/termsandconditions
# LUTr-License-Basis: site-terms
# LUTr-Transform-Class: creative-look
# LUTr-Tags: creative, freshluts, community, cube, blue, rec709
# LUTr-Input-Color-Space: rec709
# LUTr-Input-Gamut: rec709
# LUTr-Input-Transfer: rec709
# LUTr-Output-Color-Space: srgb
# LUTr-Output-Gamut: rec709
# LUTr-Output-Transfer: srgb
# LUTr-Color-Space-Confidence: inferred-from-source-label
# LUTr-Domain-Normalized: true
# LUTr-Shaper: none
# LUTr-Original-Grid: 33x33x33
# LUTr-Conversion-Grid: 33x33x33
# LUTr-Conversion-Interpolation: none
# LUTr-Conversion-Method: Metadata normalization; numeric LUT samples preserved
# LUTr-Conversion-Tool: LUTr scripts/convert-all-to-cube.mjs 2.0.0
# LUTr-Conversion-Date: 2026-07-28
# LUTr-Asset-URL: https://freshluts.com/luts/1218
# LUTr-Author: Antony Eliezer
# LUTr-Author-URL: https://freshluts.com/users/32961
# LUTr-Attribution: Antony Eliezer via Fresh LUTs
# LUTr-Source-Labels: gamma=Rec 709; color=Blue; key=Neutral; style=Colorful
# LUTr-Note: Preserve this metadata and the upstream license notices when redistributing.
# LUTr-Upstream-Comment: VEGAS Pro LUT
TITLE "(Lut 1)  IG @AntonyEliezerFilms"
LUT_3D_SIZE 9
DOMAIN_MIN 0 0 0
DOMAIN_MAX 1 1 1
0.11467963 0.09441194 0.0874785
0.12351736 0.09341177 0.08647833
0.14125092 0.08931152 0.08363397
0.18989204 0.07343407 0.04836521
0.24165708 0.04120939 0.0532406
0.29712182 0.01525618 0.04781776
0.36087641 -0.03283267 0.02057823
0.43423945 -0.07349221 -0.01821752
0.49715114 -0.09875613 -0.026765
0.11411507 0.09859052 0.08962879
0.12203536 0.09789419 0.08883387
0.13597777 0.09526242 0.08686506
0.17072795 0.09462557 0.06011032
0.21629031 0.0620287 0.04366146
0.2693513 0.03967419 0.05343242
0.32639319 0.0069968 0.04531029
0.39284584 -0.04420288 -0.00140858
0.47063643 -0.08432692 -0.0195397
0.1127475 0.11756828 0.09810396
0.11857036 0.12002841 0.09899573
0.15918782 0.11952727 0.07993326
0.21576597 0.11759558 0.04019744
0.28507346 0.08358503 0.02045739
0.3772763 0.00790346 -0.01066275
0.47351307 -0.04437003 -0.03537081
0.56999153 -0.08940843 -0.06272803
0.68136746 -0.11851899 -0.08741392
0.13646398 0.16946191 0.13486929
0.14409459 0.17274304 0.13683748
0.15793675 0.18077219 0.12983686
0.24056312 0.17746174 0.06157126
0.3250691 0.20677021 0.00938664
0.42716646 0.22272213 -0.05807749
0.54750073 0.19878128 -0.0995403
0.67073727 0.1322228 -0.12754099
0.78237486 0.05234879 -0.15174264
0.15404862 0.22966705 0.16966256
0.16350716 0.23713166 0.17478076
0.17406191 0.23819411 0.17405848
0.21181953 0.24933395 0.17342103
0.29554769 0.24914806 0.11858916
0.40592113 0.27879044 -0.00152273
0.50140804 0.34037429 -0.05475586
0.61347759 0.34746492 -0.12966388
0.72535837 0.3440266 -0.16659434
0.15890077 0.24452987 0.18010287
0.16583928 0.24758154 0.18208735
0.17483436 0.25261277 0.18924123
0.18614721 0.25025022 0.17865191
0.23408571 0.25824338 0.18188727
0.30354273 0.25661188 0.12601949
0.38116094 0.26211962 0.03074108
0.45055681 0.3156741 -0.02516648
0.52386796 0.3540538 -0.06278159
0.1665577 0.27679625 0.20519084
0.17129058 0.28542763 0.21205704
0.17969799 0.29677358 0.22079395
0.19468835 0.30342442 0.22129473
0.22300014 0.3144545 0.21825427
0.30283025 0.33169338 0.22605729
0.37563923 0.3363061 0.1782251
0.46945509 0.34050903 0.02173988
0.558743 0.41610187 0.02943683
0.24534708 0.51166344 0.38951287
0.26135236 0.53511137 0.40387341
0.27525759 0.54223299 0.41154945
0.28712445 0.55940038 0.41925165
0.29781818 0.566347 0.42140585
0.37141508 0.56564522 0.38929746
0.50825423 0.57707834 0.39552081
0.60357177 0.58268338 0.36235276
0.70147175 0.55662441 0.20084968
0.32619968 0.67727917 0.54391396
0.34264109 0.69851601 0.56129539
0.35471225 0.7055406 0.56993634
0.36254042 0.70508009 0.5699333
0.37512374 0.71573472 0.57848704
0.38426903 0.71225166 0.54982102
0.55201167 0.7246626 0.54837459
0.65748268 0.73344558 0.54907674
0.74672961 0.73030168 0.5110414
0.11474497 0.09447728 0.08918571
0.12484681 0.09332977 0.08794163
0.15404673 0.08817451 0.08376301
0.2170347 0.05212735 0.05013461
0.28026128 0.0245482 0.05933208
0.36062536 -0.0325432 0.03038383
0.44702524 -0.07994337 -0.01098146
0.53967172 -0.1077375 -0.0247357
0.63095981 -0.12565599 -0.0465596
0.11411329 0.09905589 0.09124651
0.12262354 0.09830755 0.090491
0.1396285 0.09514146 0.08853918
0.1838477 0.08862468 0.05768781
0.23224761 0.05689376 0.05798989
0.2804037 0.03654459 0.06225326
0.33595547 0.00012203 0.05900811
0.38585657 -0.03963102 0.01241776
0.458565 -0.07897305 -0.00831441
0.11212197 0.11441571 0.09893309
0.1191091 0.11532699 0.09953485
0.15012658 0.11239789 0.09691528
0.1975814 0.11642791 0.05174619
0.25323424 0.10144175 0.05588808
0.32347459 0.05441367 0.03197782
0.39801338 -0.00752405 -0.01177932
0.49445462 -0.06436268 -0.02714636
0.58695763 -0.09646365 -0.0516758
0.13493618 0.16549803 0.13553508
0.1435522 0.17043626 0.13906932
0.15732916 0.17861889 0.13198641
0.23893642 0.17512831 0.07531755
0.32075152 0.20461352 0.02213924
0.42003849 0.21906304 -0.04099683
0.53624511 0.18980436 -0.07690081
0.66562515 0.13263476 -0.10520554
0.76769489 0.03978789 -0.12435055
0.15999579 0.25221664 0.19072226
0.1691758 0.25699314 0.1940475
0.18343011 0.26416487 0.19924799
0.22760323 0.27420843 0.20125696
0.32176271 0.27814373 0.15237252
0.45458329 0.31413212 -0.00403053
0.56117702 0.38651949 -0.03701166
0.68118644 0.3918213 -0.12343693
0.79531342 0.36567381 -0.15624906
0.16212776 0.3077777 0.23013303
0.172416 0.30961385 0.23386222
0.18982348 0.31626526 0.24134557
0.2127623 0.32138616 0.2387048
0.27754325 0.32529795 0.22989014
0.37111974 0.3264201 0.18206361
0.47452509 0.34351453 0.04832671
0.5622105 0.42448869 0.04969442
0.65823334 0.45544249 -0.05411752
0.16623938 0.2819401 0.21385328
0.17339891 0.28515419 0.21739204
0.18429326 0.2874026 0.21826264
0.19474772 0.28335363 0.2156232
0.2228954 0.28642532 0.21317658
0.26971728 0.29537907 0.21327145
0.32725659 0.29102287 0.17167826
0.40517831 0.28767234 0.06342309
0.4717294 0.33245972 0.00832095
0.20306516 0.42777258 0.32839906
0.22214772 0.45566595 0.34795812
0.23788631 0.47571099 0.36600673
0.25131452 0.49078017 0.37545949
0.26416886 0.49973139 0.37557015
0.34175834 0.50310647 0.3556444
0.45384651 0.52115953 0.37142685
0.54843122 0.52981001 0.34837312
0.65677494 0.51373047 0.19667049
0.3202689 0.66747391 0.54157323
0.33492765 0.68010944 0.55922377
0.35235718 0.69712567 0.57570267
0.35925892 0.69912934 0.58034855
0.39154491 0.71595734 0.59287077
0.44936344 0.72284323 0.58368528
0.56743419 0.73644352 0.58643204
0.6653915 0.74623388 0.59229493
0.74759823 0.73966217 0.55827427
0.11497017 0.09850925 0.10098305
0.12574503 0.09728986 0.09976365
0.15425853 0.0948002 0.09981523
0.23421812 0.05685355 0.08338542
0.31672433 -0.00150709 0.08080578
0.4174456 -0.05792238 0.02948277
0.51688182 -0.10146431 -0.02496833
0.63229507 -0.12557504 -0.04793869
0.73022312 -0.14300627 -0.07043726
0.11537484 0.10106369 0.09988163
0.12578408 0.10075174 0.09977214
0.14763744 0.09823911 0.10080197
0.21057802 0.07919811 0.0861669
0.28583199 0.03451945 0.07603396
0.3498531 -0.01537079 0.07202549
0.43703383 -0.06342408 0.01527447
0.51522601 -0.09532243 -0.02106041
0.60736334 -0.11453644 -0.03496589
0.11177143 0.11152609 0.10313967
0.12052189 0.11148944 0.10287669
0.14070144 0.1095555 0.10199457
0.17207825 0.11120988 0.10135846
0.21895446 0.09131919 0.08202949
0.27568623 0.07526588 0.07546596
0.33141702 0.04991158 0.04362347
0.3944191 0.00176716 -0.00249823
0.46585071 -0.04018001 -0.01127293
0.13347605 0.15957813 0.13771857
0.14224899 0.16520253 0.14164105
0.16017878 0.17165351 0.14956918
0.21531948 0.17033733 0.12592956
0.28767818 0.186717 0.07934806
0.37670735 0.18228522 0.01994481
0.47135711 0.15240222 -0.00068529
0.57760346 0.07370342 -0.0381391
0.68844539 0.01377746 -0.0580886
0.17842014 0.25611222 0.20963953
0.19362909 0.26607701 0.21826603
0.21027568 0.27385226 0.22601707
0.23740464 0.27699152 0.22048675
0.33121675 0.28343481 0.18416683
0.45121217 0.33689648 0.10792752
0.57652915 0.39731783 0.04068863
0.70606434 0.38303834 -0.06397162
0.81660527 0.35350099 -0.08747961
0.19356085 0.35858151 0.28979027
0.20862293 0.3637456 0.29301417
0.23465313 0.37658837 0.30383176
0.26006129 0.3799071 0.30096307
0.32469392 0.38804302 0.29771045
0.43688276 0.39500028 0.2601949
0.56335121 0.43230176 0.17403978
0.66396618 0.52685815 0.19341296
0.77301556 0.53036684 0.02453031
0.193376 0.3663255 0.29404852
0.20390558 0.37770554 0.30054763
0.21860528 0.38119525 0.30404899
0.24853761 0.3842302 0.30431694
0.27619469 0.3895438 0.30241537
0.34690642 0.40364823 0.30386102
0.43083245 0.40462607 0.27505758
0.5360297 0.41272527 0.18303046
0.6152193 0.48111579 0.18122226
0.18569171 0.32235229 0.257204
0.19795333 0.34013575 0.27023345
0.20989779 0.35344627 0.27875879
0.23466265 0.37389743 0.29640272
0.25347582 0.38822493 0.30338556
0.29390997 0.39564374 0.30150872
0.3730498 0.41960117 0.31183878
0.4589192 0.43714139 0.29987502
0.56312454 0.43767416 0.20716967
0.29459542 0.61171281 0.49775481
0.31282637 0.63456756 0.52842259
0.32786494 0.65012324 0.54023516
0.3525753 0.66272676 0.55511123
0.39713418 0.6773144 0.57475948
0.44672519 0.68113852 0.56912494
0.54123604 0.6913653 0.56248534
0.62721139 0.70466214 0.57356513
0.70130605 0.70256478 0.55716562
0.10935824 0.11201833 0.13593189
0.11522857 0.11303996 0.13697484
0.14808579 0.11205781 0.13615778
0.20954955 0.09943264 0.15085524
0.30860424 0.0611924 0.17606743
0.40866596 -0.02820489 0.17108923
0.52899361 -0.0907825 0.16720682
0.65246356 -0.12622455 0.12124619
0.77118599 -0.15026195 0.05060579
0.1110456 0.11572798 0.13682286
0.1173288 0.1179802 0.13892335
0.15287298 0.11716093 0.13723217
0.2111986 0.10707146 0.15174189
0.29216287 0.08830756 0.17416242
0.39113778 -0.00139824 0.17965674
0.49863622 -0.0650839 0.17917246
0.60566658 -0.10813024 0.15714513
0.71829289 -0.13043486 0.11082673
0.11586611 0.12774429 0.13262551
0.12281052 0.13243538 0.135065
0.14442131 0.12638143 0.13783102
0.18955569 0.12939131 0.13506266
0.24626437 0.12291883 0.14011092
0.31134954 0.09660316 0.14690369
0.38761073 0.03062452 0.13895629
0.46059892 -0.0211894 0.11181552
0.53652924 -0.0676726 0.08041524
0.12904616 0.14929385 0.14136875
0.13743919 0.15423703 0.14651042
0.15167968 0.154383 0.14782393
0.19732702 0.15603907 0.1500399
0.24234158 0.15538076 0.13280582
0.31155625 0.14524536 0.12415354
0.39019722 0.12071788 0.10452219
0.46889308 0.05033375 0.08497479
0.56958795 -0.01004721 0.04764976
0.17608573 0.24105458 0.21343945
0.19133873 0.25135627 0.22417234
0.22082391 0.26791582 0.23575452
0.24762212 0.27138683 0.24189873
0.32228899 0.28120279 0.22315434
0.40669167 0.32683027 0.21969527
0.55549437 0.34320197 0.1046654
0.66808599 0.32385945 0.04293506
0.77579021 0.30774641 0.00349338
0.21294759 0.39716074 0.33767012
0.24237415 0.40822527 0.35267055
0.28952312 0.4204028 0.36685723
0.32864878 0.43492135 0.37910637
0.36010578 0.43963242 0.37320229
0.47835925 0.44320762 0.34223744
0.60278016 0.50368071 0.32837352
0.69201928 0.57434893 0.3560344
0.81315976 0.55915201 0.24771287
0.23049004 0.48570874 0.41508758
0.24544738 0.49820796 0.42430937
0.30615622 0.50436789 0.43480942
0.33292985 0.50193405 0.42980486
0.3651157 0.5151279 0.4366987
0.43508428 0.51486421 0.42313081
0.51886314 0.51217234 0.40863261
0.63319528 0.5376758 0.35998246
0.71451116 0.59989184 0.38164169
0.2185472 0.43392804 0.36164498
0.23829934 0.44656643 0.37461627
0.26636735 0.45227641 0.37768352
0.28827226 0.45439371 0.38035792
0.31354168 0.45787197 0.38182935
0.34107682 0.45104194 0.36837691
0.40216088 0.45491293 0.36301312
0.4732435 0.45482868 0.345429
0.54958421 0.45224538 0.28232557
0.25221881 0.52579397 0.44197407
0.26733342 0.54083765 0.45850688
0.2849952 0.56398064 0.47799101
0.31240612 0.56764227 0.48162758
0.36033681 0.58238631 0.49456248
0.39422822 0.58965039 0.49693576
0.4623501 0.60082269 0.49383092
0.54337978 0.61661851 0.50659621
0.60488224 0.60618025 0.48881373
0.10723776 0.12621717 0.17235224
0.11291441 0.1284519 0.17632392
0.1400319 0.11732232 0.17787223
0.20275415 0.12577146 0.18131591
0.25863743 0.12383543 0.20231457
0.3422116 0.11083493 0.24109422
0.48242614 0.00104322 0.28156042
0.60822219 -0.09615228 0.3034395
0.74135888 -0.13252738 0.30465975
0.10956805 0.14070594 0.19447783
0.11329229 0.14316441 0.19765466
0.14985049 0.12757155 0.19348522
0.21316066 0.14028081 0.19714127
0.27608499 0.14288759 0.22615752
0.36467731 0.14512974 0.27234909
0.51577491 0.03131283 0.32057047
0.65578878 -0.07727012 0.34837055
0.78135872 -0.12552924 0.35601437
0.12990534 0.16222288 0.18720064
0.13585414 0.16856594 0.19488487
0.15236409 0.1533763 0.18932302
0.21926682 0.1621003 0.19482832
0.2680847 0.1622472 0.2112636
0.33667639 0.16665529 0.24683952
0.44863465 0.09356222 0.27305979
0.56950867 -0.01050867 0.29176182
0.66709131 -0.08618226 0.30883822
0.13404901 0.16969453 0.17169979
0.14082515 0.17136921 0.17262577
0.1623576 0.17570147 0.17453682
0.1806342 0.16757105 0.17415583
0.22474271 0.17039584 0.17351671
0.27516377 0.16777177 0.1856253
0.33847049 0.14918184 0.19303069
0.40103415 0.11658968 0.19419952
0.47095183 0.05805899 0.19565925
0.16509561 0.22061536 0.20930821
0.1772607 0.23152931 0.21856317
0.19873022 0.23890069 0.22627541
0.23320599 0.24838939 0.2391969
0.28571647 0.2559661 0.24530558
0.37121069 0.25252414 0.23782864
0.4736231 0.24371248 0.24170117
0.5755437 0.22637458 0.23867095
0.67929971 0.19835794 0.22991666
0.1953454 0.39156899 0.34884462
0.21478005 0.41288832 0.36998424
0.28162387 0.42855224 0.39095974
0.34546301 0.44759196 0.41556802
0.39647093 0.45951396 0.43050307
0.46721873 0.46255681 0.42216775
0.58162272 0.53020573 0.44614446
0.7116465 0.53751916 0.42243093
0.81463271 0.5320369 0.42416054
0.27023035 0.56057131 0.50001293
0.28448302 0.57475358 0.51509881
0.35895574 0.5864808 0.5407064
0.42690253 0.58794802 0.54371917
0.46938825 0.5924648 0.54880083
0.49774149 0.59050107 0.53649777
0.58128053 0.59361452 0.53553557
0.68051732 0.6250245 0.52861029
0.76367378 0.69775242 0.57569414
0.27518424 0.5735684 0.50501794
0.2886807 0.57975543 0.51127148
0.35125899 0.5784328 0.51921231
0.40495646 0.58570838 0.5306589
0.4372274 0.58832812 0.53833342
0.46305797 0.59468859 0.53600967
0.51232076 0.59241503 0.51790833
0.58276641 0.5882926 0.51463467
0.66948158 0.59652567 0.47218105
0.23045312 0.48035005 0.41505918
0.24728268 0.48038656 0.41293538
0.29097176 0.48012763 0.41804868
0.32076296 0.47191888 0.41323406
0.33709982 0.47570094 0.41246551
0.35261145 0.46962827 0.40676564
0.38358659 0.4908756 0.41585252
0.45078242 0.5013364 0.42263383
0.49588463 0.48765445 0.4022769
0.09731913 0.14078915 0.20208031
0.09942131 0.14234971 0.20485874
0.12501438 0.12876463 0.20116724
0.17709808 0.13108367 0.2019663
0.23174796 0.1405369 0.20960873
0.29430893 0.14120272 0.24367183
0.36702934 0.14320713 0.28002527
0.47745651 0.12731074 0.34277603
0.62286246 -0.0275015 0.37858468
0.08520497 0.17438762 0.26295516
0.09413954 0.17957228 0.27315873
0.10417574 0.14984478 0.26349774
0.21452725 0.15660027 0.27296469
0.29216734 0.17784902 0.27619004
0.3566674 0.18304291 0.30821684
0.44346857 0.19999038 0.3664912
0.5719161 0.20660289 0.45128939
0.72644258 0.05834273 0.49124169
0.10432716 0.21915144 0.28670102
0.11538998 0.22733365 0.29827836
0.13019028 0.2017124 0.29027984
0.22766532 0.19621846 0.29303658
0.29771996 0.22506192 0.29784161
0.36469811 0.22089419 0.32042626
0.44650558 0.24418892 0.3809835
0.56381208 0.24352989 0.44541651
0.70114911 0.17308478 0.49134192
0.11454213 0.23761749 0.25801173
0.1221467 0.23917544 0.2579971
0.15421665 0.23777436 0.26403418
0.20698556 0.21746613 0.26196694
0.26437944 0.22255895 0.25890756
0.32171187 0.22502126 0.2764852
0.37656119 0.244471 0.31764588
0.47307086 0.23266061 0.35500005
0.60328728 0.18441817 0.3852396
0.14475334 0.20704523 0.20516376
0.15268575 0.21492153 0.21162909
0.17378794 0.22556807 0.2238591
0.19643468 0.22855408 0.23286678
0.23126954 0.22813927 0.24040315
0.28962296 0.23002821 0.23765659
0.35230941 0.24047786 0.27267805
0.44290406 0.23020802 0.29738808
0.52141041 0.22348195 0.3193787
0.17520711 0.36305726 0.35018155
0.19205111 0.38150966 0.36673126
0.2352064 0.40094891 0.38947627
0.30324495 0.41046429 0.40068275
0.36657524 0.41824937 0.41351116
0.42802152 0.42917228 0.42878604
0.54771715 0.43435019 0.44371673
0.6450277 0.438586 0.46550959
0.76112443 0.4362852 0.47752857
0.28558227 0.58604008 0.54652566
0.30252641 0.60802871 0.57472587
0.34547064 0.61826742 0.58809245
0.4430654 0.62182111 0.59799522
0.50825715 0.62638789 0.61112201
0.5506677 0.62977087 0.61884296
0.61171263 0.63469166 0.61883265
0.71854562 0.69904721 0.67401832
0.79456991 0.72292817 0.68344581
0.33744982 0.67568749 0.62905711
0.39453101 0.69013911 0.64914346
0.45871639 0.69088072 0.65825951
0.52144045 0.70495838 0.67515796
0.56666803 0.7053141 0.68057126
0.59439349 0.70759201 0.68030721
0.62118727 0.70992619 0.68139428
0.68851399 0.70890129 0.67683721
0.74798298 0.73355705 0.69008803
0.3087543 0.63263297 0.57884359
0.33145252 0.63746601 0.58372378
0.39365819 0.6413129 0.58784646
0.44100502 0.6355595 0.58864468
0.48586422 0.64174122 0.59914684
0.50770718 0.63239837 0.59580374
0.52568644 0.64117235 0.59750593
0.55689883 0.61845279 0.56692123
0.59100825 0.60702074 0.55655128
0.09241709 0.14360993 0.20734653
0.09404865 0.14517815 0.21015215
0.11004916 0.13830818 0.21378751
0.1469693 0.1282222 0.21249941
0.20649426 0.14262626 0.22013249
0.25456613 0.14875017 0.23105118
0.30945778 0.14530693 0.25522977
0.37195405 0.14856337 0.28876886
0.4543533 0.15889627 0.34696031
0.10322428 0.20478727 0.32312438
0.11071207 0.20912929 0.32967749
0.11262215 0.18941408 0.33094919
0.18447828 0.16743916 0.33243418
0.28385693 0.18857506 0.33356079
0.34011117 0.21420364 0.33191848
0.39825046 0.22173606 0.36479992
0.48726043 0.24475276 0.43004474
0.58779711 0.27136281 0.50125206
0.14217135 0.28590116 0.41358566
0.15435334 0.29511157 0.42707264
0.1517064 0.26845431 0.41943312
0.17810902 0.22889629 0.40362811
0.33795148 0.2588163 0.41240925
0.40192899 0.2931473 0.40995458
0.45434165 0.30486596 0.43854237
0.53924286 0.33391631 0.50291336
0.64106262 0.36851078 0.57317972
0.1676349 0.34258103 0.42196792
0.1795263 0.35338232 0.43281811
0.17977458 0.33915231 0.42602646
0.19676368 0.3049866 0.41559735
0.32176641 0.29763782 0.41563997
0.39969882 0.32459706 0.41573793
0.43782914 0.33510271 0.42587256
0.51574922 0.36766136 0.48674789
0.59013325 0.39807737 0.54511601
0.1484279 0.31233731 0.33531764
0.16002288 0.32336199 0.34742483
0.16719118 0.3178992 0.34080049
0.19786172 0.30511537 0.34152752
0.26839682 0.28443649 0.32847464
0.31917787 0.2873911 0.3272571
0.36571088 0.29301891 0.33480659
0.42427361 0.30755281 0.37449607
0.49330699 0.31864026 0.4179216
0.16483065 0.34535387 0.35168892
0.18106754 0.36575598 0.37352979
0.19381493 0.37475151 0.38448551
0.22812586 0.38476458 0.39359382
0.291401 0.39342096 0.41240242
0.36678785 0.38015831 0.41135108
0.41952652 0.39679933 0.42005005
0.479844 0.41440654 0.4573541
0.60590798 0.42319542 0.50389397
0.27915949 0.57717711 0.57028604
0.29815039 0.59342581 0.59284574
0.31642586 0.60909617 0.60577643
0.38541174 0.61376107 0.61691129
0.47483543 0.61432171 0.62093395
0.5365572 0.62257159 0.63129175
0.59021252 0.62186772 0.63559526
0.67258382 0.65137392 0.67028588
0.76995814 0.67062455 0.70402634
0.39376968 0.72787642 0.70730036
0.46344858 0.74463862 0.72593027
0.51762331 0.75190735 0.73526031
0.57283443 0.76000953 0.74641597
0.62617987 0.76914018 0.76249808
0.66728342 0.77084148 0.77003449
0.70647484 0.78276873 0.7802701
0.7434715 0.77778798 0.77190787
0.80148137 0.81504667 0.81184721
0.46055382 0.7524938 0.71675146
0.49459374 0.75752437 0.72415483
0.53547549 0.762196 0.73259562
0.58222425 0.77192754 0.74679589
0.61686516 0.77272999 0.75498325
0.64990562 0.76933569 0.75800121
0.67564631 0.77091902 0.76048088
0.68643659 0.75744575 0.74391592
0.71058297 0.74009973 0.73243636
0.08970893 0.17895383 0.28132084
0.09208912 0.1765966 0.276227
0.09541382 0.16527578 0.2728278
0.11758333 0.1380371 0.25987583
0.20454697 0.14601162 0.26392508
0.24819377 0.16225126 0.26092654
0.28964332 0.16371027 0.26461208
0.32642773 0.16308211 0.28082764
0.37688106 0.16244988 0.30722469
0.10655615 0.21155332 0.33551711
0.1157937 0.21993835 0.34879166
0.11651924 0.20141917 0.34626296
0.1141202 0.17003101 0.33810097
0.24534114 0.18212906 0.35729966
0.31948799 0.20763686 0.35004109
0.3673737 0.23244891 0.35988945
0.41984814 0.23705018 0.38985488
0.49741602 0.26203302 0.44897953
0.16519573 0.32779419 0.49021655
0.17778067 0.33752576 0.50620216
0.18188137 0.32313207 0.50776023
0.17161298 0.27432874 0.49465537
0.32018828 0.27691483 0.49821836
0.43038791 0.31488982 0.50038517
0.48336387 0.34832621 0.50274891
0.51864022 0.36843914 0.52141911
0.60536939 0.4002724 0.58319986
0.21814397 0.44236305 0.5760318
0.23201592 0.4547942 0.58528131
0.23549971 0.44031674 0.5857904
0.23084992 0.40839702 0.56906706
0.3452234 0.37716553 0.56497908
0.4718715 0.41126737 0.57898384
0.53396487 0.44327068 0.57020909
0.57110256 0.45666397 0.58521235
0.6309728 0.50168169 0.63147897
0.23263693 0.47561011 0.54435289
0.23939858 0.47796968 0.55154061
0.25116849 0.48335013 0.55936265
0.24365522 0.44998068 0.54325509
0.31519023 0.42039892 0.53417134
0.4191736 0.40384626 0.52048016
0.48073292 0.42532235 0.51559311
0.50975329 0.43827349 0.51862562
0.55539066 0.46084246 0.55087924
0.17274079 0.35980359 0.38182834
0.18057172 0.3626641 0.38604566
0.18296659 0.35570428 0.38114327
0.18752974 0.35266069 0.37845236
0.2317816 0.34600273 0.38161278
0.300823 0.32631469 0.36765963
0.35531428 0.33248281 0.37164581
0.39295718 0.35148662 0.38461658
0.44694906 0.37062418 0.42119145
0.2794005 0.56935102 0.58687091
0.2937274 0.58614862 0.60286963
0.30621794 0.5954777 0.61713195
0.31671715 0.59823895 0.62591618
0.36631751 0.60324895 0.63191068
0.47445172 0.61282557 0.64244676
0.54589289 0.59524542 0.63838005
0.60027987 0.60081011 0.63915312
0.65465242 0.63850671 0.68177795
0.36186111 0.73910069 0.74320245
0.40915215 0.75001007 0.75411493
0.50042558 0.76534855 0.76936322
0.57144195 0.77628708 0.78241765
0.62695414 0.78271031 0.79370278
0.67282605 0.79005247 0.80259246
0.72128767 0.79482383 0.81326127
0.75664145 0.79567766 0.81850255
0.80507475 0.82001787 0.83945799
0.56925476 0.81507719 0.80292374
0.59700114 0.82094818 0.8114568
0.64465904 0.82938457 0.82061636
0.67639661 0.83378369 0.83042073
0.71446729 0.83920246 0.83697993
0.74989551 0.84886229 0.85105222
0.77683443 0.84805566 0.85679388
0.79486251 0.84394974 0.85379195
0.80377609 0.83857375 0.85384339
0.14602734 0.27951989 0.47274697
0.15100645 0.27951989 0.47274697
0.15598549 0.27218503 0.47347456
0.14250988 0.21989411 0.44297218
0.17839555 0.19337626 0.43475378
0.31886086 0.2153585 0.43558967
0.38647678 0.24500409 0.43051901
0.42153913 0.26548359 0.42128327
0.45948935 0.25977761 0.43983021
0.09770454 0.19353703 0.30424446
0.10604113 0.20137767 0.31692535
0.10752454 0.19207907 0.31909257
0.10831758 0.17059392 0.32151353
0.1933931 0.16770366 0.33302963
0.27266073 0.18580133 0.34433466
0.31996775 0.20908445 0.33994418
0.36523989 0.22706369 0.35248184
0.40392444 0.23251969 0.37501383
0.16861387 0.32952607 0.50590378
0.1811879 0.34106088 0.5194391
0.18697865 0.33170211 0.52667224
0.18020488 0.29945782 0.51164591
0.24486941 0.27425891 0.51257867
0.38820159 0.3073439 0.53361952
0.47133642 0.34378767 0.54026043
0.52192223 0.37736779 0.54283714
0.55489349 0.39240474 0.56517583
0.24050294 0.4846203 0.64351511
0.25598013 0.49621037 0.6541037
0.2644313 0.4969351 0.65494204
0.26641148 0.47868228 0.65729415
0.34222341 0.44453117 0.64843071
0.48965794 0.47027394 0.66547877
0.59126353 0.50855994 0.68001968
0.63972706 0.54078501 0.68616414
0.67752743 0.55574256 0.70513642
0.27916035 0.57075959 0.68374866
0.29737788 0.58306688 0.69791198
0.30438602 0.58418006 0.69944572
0.30966979 0.57027751 0.69161958
0.42166609 0.55129111 0.68496221
0.49932322 0.53932375 0.68795156
0.59473288 0.55642068 0.69047809
0.64755177 0.58561635 0.70188618
0.67550904 0.59747714 0.71097434
0.26298207 0.54052246 0.60707694
0.27400726 0.54521906 0.61017835
0.28112316 0.54757106 0.61197156
0.28685528 0.54380012 0.61221552
0.28933042 0.50916308 0.59180498
0.39811498 0.47847462 0.57530403
0.46982777 0.46728301 0.56521076
0.51708579 0.48080009 0.55822515
0.54596478 0.49728531 0.56976044
0.23547643 0.48539856 0.51446408
0.25153428 0.50284928 0.53405815
0.26726231 0.52198333 0.55942869
0.28164735 0.53775221 0.57541889
0.29067335 0.54309738 0.58195096
0.34845173 0.54578876 0.59806788
0.47047567 0.52737689 0.59035617
0.53183359 0.53430814 0.59329498
0.57091796 0.55133438 0.60243958
0.35986108 0.73477751 0.75390506
0.37475294 0.74222147 0.76560795
0.42236313 0.75812888 0.78036553
0.51976204 0.76153249 0.78704274
0.59466249 0.77480638 0.80306
0.65416086 0.78627741 0.81334478
0.70468056 0.79367667 0.82371897
0.74617183 0.79501468 0.83085781
0.76857239 0.79247171 0.8259244
0.59751081 0.83439744 0.83962971
0.63579798 0.84785283 0.85596001
0.67052335 0.85223985 0.85883397
0.70679528 0.86009592 0.87070507
0.75321925 0.87031871 0.88122118
0.78683209 0.87740397 0.89261895
0.81080598 0.87714368 0.89128184
0.83132428 0.87837136 0.8949554
0.83798212 0.86802197 0.89015627
