site/assets/luts/freshluts--0000710-hitman.cube
# LUTr-Schema-Version: 2
# LUTr-ID: freshluts--0000710-hitman
# LUTr-Title: Hitman
# LUTr-Collection: Fresh LUTs
# LUTr-Collection-ID: freshluts-community
# LUTr-Source: https://freshluts.com
# LUTr-Retrieved: 2026-07-27
# LUTr-Source-File: submissions-raw/freshluts/cubes/710__Hitman.cube
# LUTr-Source-Format: CUBE
# LUTr-Source-SHA256: 18819fff1c987f8d4721f5cf643bba4f4a0c11fa8286c83e018556b67f1985e6
# LUTr-License: CC0-1.0
# LUTr-License-URL: https://freshluts.com/termsandconditions
# LUTr-License-Basis: site-terms
# LUTr-Transform-Class: creative-look
# LUTr-Tags: creative, freshluts, community, cube, warm, low-key, bmd-film
# LUTr-Input-Color-Space: bmd-film
# LUTr-Input-Gamut: bmd-film-gamut
# LUTr-Input-Transfer: bmd-film
# LUTr-Output-Color-Space: srgb
# LUTr-Output-Gamut: rec709
# LUTr-Output-Transfer: srgb
# LUTr-Color-Space-Confidence: inferred-from-source-label
# LUTr-Domain-Normalized: true
# LUTr-Shaper: none
# LUTr-Original-Grid: 16x16x16
# LUTr-Conversion-Grid: 16x16x16
# LUTr-Conversion-Interpolation: none
# LUTr-Conversion-Method: Metadata normalization; numeric LUT samples preserved
# LUTr-Conversion-Tool: LUTr scripts/convert-all-to-cube.mjs 2.0.0
# LUTr-Conversion-Date: 2026-07-28
# LUTr-Asset-URL: https://freshluts.com/luts/710
# LUTr-Author: InAvision
# LUTr-Author-URL: https://freshluts.com/users/64078
# LUTr-Attribution: InAvision via Fresh LUTs
# LUTr-Source-Labels: gamma=Blackmagic BMD Film; color=Warm; key=Low Key; style=Warm shadows
# LUTr-Note: Preserve this metadata and the upstream license notices when redistributing.
TITLE "Hitman"
LUT_3D_SIZE 6
DOMAIN_MIN 0 0 0
DOMAIN_MAX 1 1 1
0 0 0
0.089355 0.027234 0.023047
0.348015 0.070685 0.067397
0.636378 0.130755 0.125416
0.782278 0.167962 0.160396
0.883439 0.193546 0.184514
0.057646 0.171276 0.054868
0.198318 0.185009 0.06725
0.464922 0.215191 0.103826
0.666302 0.241926 0.144654
0.803745 0.25926 0.175721
0.899799 0.262465 0.195913
0.147536 0.43813 0.144209
0.261856 0.448316 0.152291
0.523443 0.456323 0.179376
0.716274 0.477374 0.213512
0.846516 0.478263 0.233768
0.932989 0.449648 0.238947
0.270748 0.693047 0.254937
0.375125 0.7042 0.26479
0.631279 0.714298 0.287609
0.844243 0.73826 0.333017
0.951891 0.720443 0.347128
0.980689 0.668514 0.330005
0.40042 0.88891 0.359992
0.480206 0.894101 0.367314
0.690532 0.896753 0.384614
0.89554 0.901547 0.441099
0.990471 0.915305 0.530351
0.990894 0.85948 0.468045
0.478539 0.964733 0.419433
0.543209 0.962051 0.430703
0.719017 0.95449 0.468563
0.899829 0.950664 0.541082
0.985863 0.95517 0.636297
0.996738 0.962493 0.717484
0.01256 0.013136 0.035955
0.081664 0.03506 0.067756
0.327804 0.067469 0.130831
0.616497 0.128013 0.187207
0.773305 0.166923 0.212362
0.879778 0.193133 0.223608
0.061244 0.178154 0.147211
0.185711 0.193583 0.156458
0.463747 0.206732 0.174031
0.669751 0.238012 0.203654
0.809422 0.270689 0.232481
0.908748 0.292036 0.251731
0.151313 0.444393 0.214893
0.252071 0.455918 0.21527
0.517543 0.465288 0.239137
0.71392 0.48758 0.267924
0.850955 0.493188 0.287583
0.942061 0.47369 0.294403
0.276129 0.699804 0.312354
0.383052 0.711647 0.324003
0.627937 0.723966 0.343776
0.841622 0.746936 0.388454
0.95041 0.731957 0.401572
0.981663 0.685779 0.383129
0.406621 0.892903 0.403502
0.501903 0.898804 0.419836
0.697092 0.901835 0.437414
0.895114 0.906124 0.492111
0.989908 0.919876 0.575845
0.991374 0.868709 0.520478
0.487031 0.965582 0.451942
0.585389 0.961323 0.48293
0.743555 0.955058 0.520017
0.907396 0.952274 0.586161
0.98697 0.957261 0.670442
0.996976 0.965332 0.74084
0.028121 0.029346 0.096016
0.11394 0.04515 0.152009
0.27452 0.067445 0.183291
0.528716 0.127553 0.263162
0.718944 0.16937 0.297044
0.850119 0.195838 0.300928
0.072929 0.200574 0.270409
0.198842 0.205766 0.281239
0.401394 0.231592 0.269243
0.637372 0.252418 0.311738
0.797563 0.281587 0.329102
0.905759 0.30089 0.329009
0.160489 0.456115 0.323568
0.262835 0.468372 0.330616
0.517694 0.483509 0.34808
0.725885 0.516481 0.377528
0.873856 0.549869 0.408795
0.96618 0.568304 0.426445
0.2897 0.713875 0.416202
0.398726 0.725065 0.427874
0.638103 0.741658 0.453098
0.840688 0.764017 0.491188
0.954319 0.762431 0.50612
0.985404 0.738615 0.495516
0.41891 0.901751 0.491223
0.516987 0.906462 0.505453
0.74003 0.910002 0.547045
0.90281 0.915824 0.592991
0.989323 0.928824 0.660557
0.992838 0.893723 0.626767
0.507042 0.96816 0.525503
0.608718 0.962583 0.55226
0.82586 0.955799 0.631207
0.936504 0.956868 0.679621
0.991158 0.962708 0.736509
0.997561 0.974145 0.785116
0.037805 0.039399 0.196278
0.14804 0.057991 0.30473
0.304225 0.09091 0.293125
0.464151 0.147161 0.33528
0.610581 0.186395 0.365239
0.764472 0.205094 0.375055
0.089283 0.213833 0.424231
0.212159 0.218489 0.437928
0.401661 0.245536 0.377716
0.543441 0.29061 0.396141
0.698608 0.31544 0.423901
0.852791 0.321193 0.423595
0.169366 0.456869 0.466554
0.272381 0.469035 0.477962
0.522769 0.499856 0.492474
0.684652 0.54612 0.509571
0.859392 0.57042 0.535901
0.967964 0.583118 0.526858
0.30376 0.725605 0.567159
0.412563 0.736224 0.577641
0.646759 0.753044 0.596702
0.83436 0.780029 0.625664
0.960521 0.804544 0.649221
0.989464 0.815982 0.660364
0.432884 0.909242 0.616888
0.532201 0.912496 0.627205
0.754953 0.914077 0.657794
0.917273 0.925622 0.711488
0.98799 0.936988 0.748948
0.994904 0.926044 0.743673
0.533543 0.968649 0.621118
0.635507 0.962394 0.641177
0.844306 0.956576 0.699658
0.972041 0.963114 0.773535
0.99584 0.9712 0.800439
0.999051 0.998617 0.826772
0.054078 0.056028 0.325474
0.168715 0.087852 0.495401
0.342106 0.109817 0.467814
0.459368 0.153048 0.434218
0.580104 0.208821 0.464775
0.666334 0.230125 0.447412
0.112546 0.214349 0.576694
0.223247 0.229592 0.588872
0.417195 0.244517 0.554181
0.537742 0.292038 0.50054
0.650654 0.34579 0.522223
0.739353 0.361369 0.506118
0.173478 0.434238 0.610312
0.276205 0.449511 0.62222
0.535392 0.510028 0.644989
0.681901 0.550836 0.627627
0.790055 0.604782 0.63961
0.89014 0.615812 0.633869
0.286894 0.683092 0.692486
0.396456 0.697637 0.70421
0.639934 0.73117 0.726731
0.835987 0.789526 0.760231
0.92942 0.822147 0.755863
0.986386 0.829935 0.754933
0.447423 0.911717 0.785834
0.548256 0.913556 0.78771
0.770391 0.915091 0.789333
0.924523 0.928709 0.801488
0.987461 0.942933 0.814738
0.99652 0.949958 0.823086
0.563642 0.964979 0.746833
0.664724 0.960475 0.754566
0.864676 0.956772 0.779291
0.978512 0.965277 0.814926
0.998706 0.9886 0.855486
0.999394 0.998987 0.898731
0.090475 0.095163 0.534071
0.169219 0.106094 0.598401
0.33471 0.118203 0.571399
0.451192 0.148894 0.500412
0.544647 0.196856 0.505709
0.660178 0.247837 0.529352
0.120581 0.202916 0.643489
0.229668 0.23594 0.656721
0.396936 0.24568 0.639426
0.529125 0.280078 0.57442
0.617521 0.331245 0.566267
0.72828 0.380642 0.585097
0.168232 0.393983 0.669703
0.271705 0.41682 0.682072
0.540856 0.515427 0.712176
0.674555 0.543872 0.705729
0.767555 0.591458 0.691264
0.866249 0.635249 0.70057
0.255819 0.614461 0.728116
0.365583 0.634802 0.742217
0.624121 0.695964 0.773498
0.840335 0.79293 0.826012
0.922082 0.816978 0.814198
0.974935 0.845004 0.796751
0.396446 0.834628 0.829804
0.496783 0.844321 0.84469
0.727477 0.867228 0.845156
0.907846 0.909245 0.845018
0.988886 0.944609 0.847649
0.996198 0.95357 0.843346
0.591926 0.962378 0.866059
0.691369 0.958948 0.848302
0.881548 0.957602 0.837628
0.983156 0.967248 0.853722
0.999462 0.997617 0.910744
0.999506 0.999164 0.911427
