site/assets/luts/freshluts--0001055-picturefx-ntflx-drk-i.cube
# LUTr-Schema-Version: 2
# LUTr-ID: freshluts--0001055-picturefx-ntflx-drk-i
# LUTr-Title: PictureFX NTFLX DRK I
# LUTr-Collection: Fresh LUTs
# LUTr-Collection-ID: freshluts-community
# LUTr-Source: https://freshluts.com
# LUTr-Retrieved: 2026-07-27
# LUTr-Source-File: submissions-raw/freshluts/cubes/1055__PictureFX-NTFLX-DRK-GRN-25.cube
# LUTr-Source-Format: CUBE
# LUTr-Source-SHA256: ec6ad80dd08352d55fba2f21b0049cb642b8cfe4265d3f4ddf6c9af4ae988997
# LUTr-License: CC0-1.0
# LUTr-License-URL: https://freshluts.com/termsandconditions
# LUTr-License-Basis: site-terms
# LUTr-Transform-Class: creative-look
# LUTr-Tags: creative, freshluts, community, cube, film-emulation, green
# LUTr-Input-Color-Space:
# LUTr-Input-Gamut: unspecified
# LUTr-Input-Transfer: unspecified
# LUTr-Output-Color-Space: srgb
# LUTr-Output-Gamut: rec709
# LUTr-Output-Transfer: srgb
# LUTr-Color-Space-Confidence: camera-profile-input-required
# LUTr-Domain-Normalized: true
# LUTr-Shaper: none
# LUTr-Original-Grid: 25x25x25
# LUTr-Conversion-Grid: 25x25x25
# LUTr-Conversion-Interpolation: none
# LUTr-Conversion-Method: Metadata normalization; numeric LUT samples preserved
# LUTr-Conversion-Tool: LUTr scripts/convert-all-to-cube.mjs 2.0.0
# LUTr-Conversion-Date: 2026-07-28
# LUTr-Asset-URL: https://freshluts.com/luts/1055
# LUTr-Author: MarcR.
# LUTr-Author-URL: https://freshluts.com/users/86490
# LUTr-Attribution: MarcR. via Fresh LUTs
# LUTr-Source-Labels: gamma=Other; color=Green; key=Neutral; style=Film emulation
# LUTr-Note: Preserve this metadata and the upstream license notices when redistributing.
# LUTr-Upstream-Comment: Generated by lutCreator.js
# LUTr-Upstream-Comment: Coded by SirSerch
# LUTr-Upstream-Comment: https://github.com/SirSerch/LutCreatorJs
TITLE "PictureFX NTFLX DRK I"
LUT_3D_SIZE 5
DOMAIN_MIN 0 0 0
DOMAIN_MAX 1 1 1
0.047059 0 0
0.286275 0 0
0.584314 0 0
0.862745 0 0
1 0 0
0.015686 0.254902 0
0.278431 0.247059 0
0.54902 0.215686 0
0.835294 0.058824 0
1 0 0
0 0.509804 0
0.203922 0.505882 0
0.513725 0.494118 0
0.792157 0.47451 0
1 0.427451 0
0 0.776471 0
0 0.776471 0
0.462745 0.772549 0
0.772549 0.764706 0
1 0.741176 0
0 1 0
0 1 0
0.294118 1 0
0.694118 1 0
0.992157 0.992157 0
0.192157 0 0.003922
0.364706 0 0.062745
0.623529 0 0.109804
0.882353 0 0.121569
1 0 0.121569
0.058824 0.258824 0.019608
0.278431 0.25098 0.176471
0.568627 0.203922 0.129412
0.854902 0.003922 0.113725
1 0 0.109804
0 0.513725 0.015686
0.247059 0.505882 0.078431
0.537255 0.494118 0.141176
0.796078 0.478431 0.121569
1 0.423529 0.086275
0 0.772549 0
0 0.772549 0
0.478431 0.768627 0
0.780392 0.756863 0.058824
1 0.737255 0.043137
0 1 0
0 1 0
0.313725 1 0
0.701961 1 0
1 0.996078 0
0.360784 0 0.278431
0.482353 0 0.290196
0.705882 0 0.305882
0.945098 0 0.321569
1 0 0.337255
0.329412 0.219608 0.223529
0.447059 0.188235 0.243137
0.67451 0.062745 0.290196
0.917647 0 0.321569
1 0 0.341176
0.011765 0.517647 0.254902
0.278431 0.513725 0.258824
0.533333 0.501961 0.419608
0.827451 0.470588 0.368627
1 0.403922 0.356863
0 0.772549 0.301961
0.109804 0.772549 0.313725
0.521569 0.760784 0.360784
0.803922 0.74902 0.411765
1 0.741176 0.4
0 1 0.286275
0 1 0.294118
0.372549 1 0.313725
0.733333 1 0.345098
1 0.992157 0.364706
0.52549 0 0.521569
0.603922 0 0.52549
0.788235 0 0.529412
1 0 0.533333
1 0 0.545098
0.482353 0.137255 0.509804
0.564706 0.082353 0.513725
0.760784 0 0.517647
0.996078 0 0.529412
1 0 0.54902
0.376471 0.498039 0.423529
0.490196 0.486275 0.411765
0.705882 0.45098 0.447059
0.945098 0.4 0.513725
1 0.329412 0.552941
0 0.780392 0.494118
0.219608 0.780392 0.494118
0.537255 0.772549 0.498039
0.796078 0.756863 0.670588
1 0.729412 0.619608
0 1 0.541176
0 1 0.54902
0.431373 1 0.560784
0.768627 1 0.603922
1 0.980392 0.635294
0.67451 0 0.760784
0.729412 0 0.760784
0.878431 0 0.760784
1 0 0.760784
1 0 0.768627
0.631373 0 0.756863
0.694118 0 0.756863
0.85098 0 0.756863
1 0 0.756863
1 0 0.772549
0.537255 0.458824 0.729412
0.611765 0.447059 0.729412
0.788235 0.411765 0.733333
1 0.341176 0.74902
1 0.203922 0.776471
0.372549 0.772549 0.690196
0.482353 0.768627 0.678431
0.72549 0.752941 0.647059
0.980392 0.713725 0.686275
1 0.682353 0.768627
0 1 0.745098
0 1 0.741176
0.470588 1 0.733333
0.772549 1 0.72549
1 0.976471 0.886275
