site/assets/luts/freshluts--0000871-picturefx-faux-infrared-viii.cube
# LUTr-Schema-Version: 2
# LUTr-ID: freshluts--0000871-picturefx-faux-infrared-viii
# LUTr-Title: PictureFX Faux Infrared vIII
# LUTr-Collection: Fresh LUTs
# LUTr-Collection-ID: freshluts-community
# LUTr-Source: https://freshluts.com
# LUTr-Retrieved: 2026-07-27
# LUTr-Source-File: submissions-raw/freshluts/cubes/871__PictureFX-Faux-Infrared-vIII.cube
# LUTr-Source-Format: CUBE
# LUTr-Source-SHA256: 7f01a6d8d20a187b5d12ff86785d6c32dec0823fae8d80304d0e42a180a845ec
# LUTr-License: CC0-1.0
# LUTr-License-URL: https://freshluts.com/termsandconditions
# LUTr-License-Basis: site-terms
# LUTr-Transform-Class: creative-look
# LUTr-Tags: creative, freshluts, community, cube, film-emulation
# LUTr-Input-Color-Space:
# LUTr-Input-Gamut: unspecified
# LUTr-Input-Transfer: unspecified
# LUTr-Output-Color-Space: srgb
# LUTr-Output-Gamut: rec709
# LUTr-Output-Transfer: srgb
# LUTr-Color-Space-Confidence: camera-profile-input-required
# LUTr-Domain-Normalized: true
# LUTr-Shaper: none
# LUTr-Original-Grid: 25x25x25
# LUTr-Conversion-Grid: 25x25x25
# LUTr-Conversion-Interpolation: none
# LUTr-Conversion-Method: Metadata normalization; numeric LUT samples preserved
# LUTr-Conversion-Tool: LUTr scripts/convert-all-to-cube.mjs 2.0.0
# LUTr-Conversion-Date: 2026-07-28
# LUTr-Asset-URL: https://freshluts.com/luts/871
# LUTr-Author: MarcR.
# LUTr-Author-URL: https://freshluts.com/users/86490
# LUTr-Attribution: MarcR. via Fresh LUTs
# LUTr-Source-Labels: gamma=Other; color=None; key=Neutral; style=Film emulation
# LUTr-Note: Preserve this metadata and the upstream license notices when redistributing.
# LUTr-Upstream-Comment: Generated with IWLTBAP LUT Generator
# LUTr-Upstream-Comment: Website: http://luts.iwltbap.com
# LUTr-Upstream-Comment: LUT size
# LUTr-Upstream-Comment: LUT data points
TITLE "PictureFX Faux Infrared vIII"
LUT_3D_SIZE 25
DOMAIN_MIN 0 0 0
DOMAIN_MAX 1 1 1
0 0 0
0.145098 0.117647 0.07451
0.239216 0.2 0.137255
0.329412 0.282353 0.2
0.419608 0.360784 0.258824
0.513725 0.435294 0.317647
0.603922 0.517647 0.380392
0.694118 0.596078 0.439216
0.780392 0.67451 0.494118
0.858824 0.745098 0.54902
0.933333 0.811765 0.603922
0.996078 0.87451 0.658824
1 0.933333 0.705882
1 0.964706 0.74902
1 0.964706 0.780392
1 0.968627 0.811765
1 0.972549 0.843137
1 0.980392 0.87451
1 0.984314 0.905882
1 0.988235 0.933333
1 0.988235 0.933333
1 0.988235 0.933333
1 0.988235 0.933333
1 0.988235 0.933333
1 0.988235 0.933333
0.078431 0.007843 0.043137
0.196078 0.05098 0.105882
0.270588 0.172549 0.156863
0.352941 0.262745 0.211765
0.435294 0.345098 0.270588
0.52549 0.427451 0.32549
0.615686 0.505882 0.384314
0.701961 0.588235 0.443137
0.788235 0.666667 0.498039
0.866667 0.741176 0.552941
0.937255 0.807843 0.607843
1 0.87451 0.658824
1 0.929412 0.709804
1 0.960784 0.74902
1 0.964706 0.780392
1 0.968627 0.811765
1 0.972549 0.843137
1 0.976471 0.87451
1 0.984314 0.905882
1 0.988235 0.933333
1 0.988235 0.937255
1 0.988235 0.937255
1 0.988235 0.937255
1 0.988235 0.937255
1 0.988235 0.937255
0.141176 0.019608 0.082353
0.227451 0.043137 0.133333
0.305882 0.121569 0.180392
0.376471 0.235294 0.227451
0.454902 0.329412 0.282353
0.537255 0.411765 0.337255
0.627451 0.498039 0.392157
0.713725 0.580392 0.45098
0.796078 0.658824 0.505882
0.870588 0.733333 0.556863
0.941176 0.803922 0.611765
1 0.870588 0.662745
1 0.929412 0.713725
1 0.956863 0.752941
1 0.960784 0.784314
1 0.968627 0.815686
1 0.972549 0.847059
1 0.976471 0.878431
1 0.980392 0.905882
1 0.988235 0.933333
1 0.988235 0.937255
1 0.988235 0.937255
1 0.988235 0.937255
1 0.988235 0.937255
1 0.988235 0.937255
0.196078 0.035294 0.12549
0.262745 0.058824 0.160784
0.337255 0.082353 0.203922
0.411765 0.184314 0.25098
0.482353 0.298039 0.298039
0.560784 0.392157 0.34902
0.647059 0.478431 0.403922
0.729412 0.564706 0.458824
0.807843 0.647059 0.513725
0.882353 0.72549 0.564706
0.94902 0.796078 0.615686
1 0.862745 0.666667
1 0.921569 0.717647
1 0.952941 0.752941
1 0.956863 0.784314
1 0.964706 0.815686
1 0.968627 0.847059
1 0.976471 0.878431
1 0.980392 0.905882
1 0.988235 0.937255
1 0.988235 0.937255
1 0.988235 0.937255
1 0.988235 0.937255
1 0.988235 0.937255
1 0.988235 0.937255
0.25098 0.054902 0.164706
0.301961 0.070588 0.192157
0.368627 0.094118 0.227451
0.447059 0.121569 0.27451
0.513725 0.247059 0.321569
0.588235 0.360784 0.368627
0.670588 0.454902 0.419608
0.74902 0.545098 0.470588
0.823529 0.631373 0.521569
0.894118 0.713725 0.572549
0.960784 0.788235 0.623529
1 0.854902 0.67451
1 0.917647 0.721569
1 0.945098 0.756863
1 0.952941 0.788235
1 0.960784 0.819608
1 0.968627 0.85098
1 0.972549 0.882353
1 0.980392 0.909804
1 0.984314 0.937255
1 0.988235 0.937255
1 0.988235 0.937255
1 0.988235 0.937255
1 0.988235 0.937255
1 0.988235 0.937255
0.301961 0.07451 0.203922
0.345098 0.086275 0.227451
0.4 0.105882 0.258824
0.47451 0.133333 0.298039
0.556863 0.164706 0.345098
0.623529 0.309804 0.388235
0.698039 0.423529 0.439216
0.772549 0.517647 0.486275
0.843137 0.611765 0.537255
0.909804 0.694118 0.584314
0.976471 0.772549 0.635294
1 0.843137 0.682353
1 0.905882 0.729412
1 0.933333 0.764706
1 0.945098 0.792157
1 0.956863 0.823529
1 0.964706 0.854902
1 0.972549 0.882353
1 0.976471 0.913725
1 0.984314 0.937255
1 0.984314 0.941176
1 0.984314 0.941176
1 0.984314 0.941176
1 0.984314 0.941176
1 0.984314 0.941176
0.356863 0.090196 0.243137
0.392157 0.105882 0.262745
0.439216 0.121569 0.286275
0.505882 0.145098 0.321569
0.580392 0.172549 0.364706
0.662745 0.227451 0.415686
0.729412 0.372549 0.458824
0.8 0.482353 0.505882
0.866667 0.580392 0.552941
0.933333 0.670588 0.6
0.992157 0.752941 0.647059
1 0.827451 0.694118
1 0.894118 0.737255
1 0.921569 0.768627
1 0.937255 0.8
1 0.94902 0.827451
1 0.960784 0.858824
1 0.968627 0.886275
1 0.976471 0.913725
1 0.984314 0.941176
1 0.984314 0.945098
1 0.984314 0.945098
1 0.984314 0.945098
1 0.984314 0.945098
1 0.984314 0.945098
0.407843 0.109804 0.282353
0.439216 0.121569 0.298039
0.478431 0.137255 0.317647
0.537255 0.156863 0.34902
0.611765 0.180392 0.392157
0.694118 0.211765 0.435294
0.768627 0.298039 0.482353
0.835294 0.435294 0.52549
0.898039 0.541176 0.572549
0.956863 0.643137 0.615686
1 0.729412 0.662745
1 0.807843 0.705882
1 0.878431 0.74902
1 0.909804 0.776471
1 0.92549 0.803922
1 0.941176 0.835294
1 0.952941 0.862745
1 0.964706 0.890196
1 0.972549 0.917647
1 0.984314 0.945098
1 0.984314 0.945098
1 0.984314 0.945098
1 0.984314 0.945098
1 0.984314 0.945098
1 0.984314 0.945098
0.458824 0.129412 0.317647
0.486275 0.137255 0.333333
0.521569 0.152941 0.352941
0.576471 0.168627 0.380392
0.643137 0.192157 0.415686
0.721569 0.219608 0.458824
0.803922 0.25098 0.505882
0.870588 0.364706 0.54902
0.929412 0.494118 0.592157
0.984314 0.603922 0.635294
1 0.698039 0.678431
1 0.784314 0.721569
1 0.858824 0.760784
1 0.890196 0.784314
1 0.913725 0.811765
1 0.933333 0.839216
1 0.94902 0.866667
1 0.960784 0.894118
1 0.972549 0.921569
1 0.980392 0.94902
1 0.984314 0.94902
1 0.984314 0.94902
1 0.984314 0.94902
1 0.984314 0.94902
1 0.984314 0.94902
0.513725 0.14902 0.356863
0.533333 0.156863 0.368627
0.568627 0.168627 0.384314
0.615686 0.184314 0.411765
0.678431 0.207843 0.443137
0.752941 0.231373 0.482353
0.827451 0.258824 0.529412
0.905882 0.286275 0.572549
0.964706 0.423529 0.615686
1 0.54902 0.654902
1 0.658824 0.698039
1 0.752941 0.737255
1 0.831373 0.772549
1 0.870588 0.796078
1 0.901961 0.819608
1 0.921569 0.847059
1 0.941176 0.87451
1 0.956863 0.901961
1 0.968627 0.92549
1 0.980392 0.952941
1 0.980392 0.952941
1 0.980392 0.952941
1 0.980392 0.952941
1 0.980392 0.952941
1 0.980392 0.952941
0.564706 0.168627 0.392157
0.584314 0.172549 0.403922
0.615686 0.184314 0.419608
0.658824 0.2 0.443137
0.717647 0.219608 0.47451
0.784314 0.243137 0.509804
0.854902 0.270588 0.54902
0.929412 0.294118 0.596078
1 0.32549 0.639216
1 0.482353 0.678431
1 0.607843 0.717647
1 0.713725 0.752941
1 0.8 0.784314
1 0.847059 0.807843
1 0.886275 0.831373
1 0.913725 0.854902
1 0.933333 0.882353
1 0.952941 0.905882
1 0.968627 0.933333
1 0.980392 0.956863
1 0.980392 0.956863
1 0.980392 0.956863
1 0.980392 0.956863
1 0.980392 0.956863
1 0.980392 0.956863
0.615686 0.184314 0.431373
0.635294 0.192157 0.439216
0.662745 0.203922 0.454902
0.705882 0.215686 0.47451
0.756863 0.235294 0.501961
0.819608 0.254902 0.537255
0.882353 0.278431 0.576471
0.952941 0.305882 0.615686
1 0.329412 0.658824
1 0.388235 0.701961
1 0.541176 0.737255
1 0.662745 0.772549
1 0.760784 0.8
1 0.823529 0.819608
1 0.866667 0.839216
1 0.901961 0.862745
1 0.929412 0.886275
1 0.94902 0.913725
1 0.964706 0.937255
1 0.980392 0.960784
1 0.980392 0.960784
1 0.980392 0.960784
1 0.980392 0.960784
1 0.980392 0.960784
1 0.980392 0.960784
0.670588 0.203922 0.470588
0.686275 0.211765 0.478431
0.713725 0.219608 0.490196
0.74902 0.231373 0.509804
0.796078 0.25098 0.533333
0.85098 0.270588 0.564706
0.913725 0.290196 0.6
0.976471 0.313725 0.639216
1 0.337255 0.682353
1 0.360784 0.721569
1 0.45098 0.760784
1 0.596078 0.796078
1 0.709804 0.807843
1 0.796078 0.831373
1 0.85098 0.85098
1 0.890196 0.87451
1 0.921569 0.894118
1 0.945098 0.921569
1 0.964706 0.945098
1 0.980392 0.964706
1 0.980392 0.968627
1 0.980392 0.968627
1 0.980392 0.968627
1 0.980392 0.968627
1 0.980392 0.968627
0.72549 0.223529 0.505882
0.737255 0.231373 0.513725
0.760784 0.239216 0.52549
0.796078 0.25098 0.545098
0.839216 0.262745 0.564706
0.890196 0.282353 0.596078
0.945098 0.301961 0.627451
1 0.321569 0.662745
1 0.345098 0.701961
1 0.368627 0.741176
1 0.388235 0.784314
1 0.505882 0.815686
1 0.639216 0.815686
1 0.74902 0.831373
1 0.831373 0.862745
1 0.878431 0.882353
1 0.913725 0.905882
1 0.941176 0.92549
1 0.964706 0.94902
1 0.980392 0.972549
1 0.980392 0.972549
1 0.980392 0.972549
1 0.980392 0.972549
1 0.980392 0.972549
1 0.980392 0.972549
0.776471 0.243137 0.545098
0.788235 0.247059 0.552941
0.807843 0.254902 0.560784
0.839216 0.266667 0.576471
0.878431 0.278431 0.6
0.92549 0.294118 0.623529
0.976471 0.313725 0.654902
1 0.333333 0.690196
1 0.352941 0.72549
1 0.372549 0.764706
1 0.392157 0.8
1 0.407843 0.831373
1 0.54902 0.823529
1 0.682353 0.831373
1 0.788235 0.854902
1 0.870588 0.894118
1 0.909804 0.913725
1 0.941176 0.933333
1 0.964706 0.956863
1 0.980392 0.976471
1 0.984314 0.976471
1 0.984314 0.976471
1 0.984314 0.976471
1 0.984314 0.976471
1 0.984314 0.976471
0.827451 0.262745 0.584314
0.839216 0.266667 0.588235
0.854902 0.270588 0.596078
0.882353 0.282353 0.611765
0.917647 0.294118 0.631373
0.960784 0.309804 0.654902
1 0.32549 0.682353
1 0.345098 0.713725
1 0.360784 0.74902
1 0.380392 0.784314
1 0.4 0.819608
1 0.407843 0.835294
1 0.419608 0.827451
1 0.588235 0.831373
1 0.721569 0.847059
1 0.827451 0.878431
1 0.905882 0.921569
1 0.937255 0.941176
1 0.964706 0.964706
1 0.984314 0.984314
1 0.984314 0.984314
1 0.984314 0.984314
1 0.984314 0.984314
1 0.984314 0.984314
1 0.984314 0.984314
0.87451 0.278431 0.619608
0.886275 0.282353 0.623529
0.901961 0.290196 0.635294
0.92549 0.298039 0.647059
0.956863 0.309804 0.666667
0.996078 0.321569 0.686275
1 0.337255 0.713725
1 0.352941 0.741176
1 0.372549 0.772549
1 0.388235 0.803922
1 0.403922 0.839216
1 0.407843 0.839216
1 0.407843 0.831373
1 0.458824 0.827451
1 0.631373 0.839216
1 0.764706 0.862745
1 0.862745 0.905882
1 0.937255 0.94902
1 0.968627 0.968627
1 0.988235 0.988235
1 0.988235 0.988235
1 0.988235 0.988235
1 0.988235 0.988235
1 0.988235 0.988235
1 0.988235 0.988235
0.921569 0.298039 0.654902
0.933333 0.298039 0.662745
0.945098 0.305882 0.670588
0.968627 0.313725 0.682353
0.996078 0.321569 0.698039
1 0.333333 0.717647
1 0.34902 0.741176
1 0.364706 0.768627
1 0.380392 0.796078
1 0.396078 0.827451
1 0.407843 0.847059
1 0.407843 0.843137
1 0.407843 0.835294
1 0.407843 0.831373
1 0.505882 0.831373
1 0.678431 0.85098
1 0.803922 0.882353
1 0.898039 0.929412
1 0.972549 0.976471
1 0.992157 0.996078
1 0.996078 0.996078
1 0.996078 0.996078
1 0.996078 0.996078
1 0.996078 0.996078
1 0.996078 0.996078
0.968627 0.313725 0.694118
0.976471 0.313725 0.698039
0.988235 0.321569 0.705882
1 0.32549 0.713725
1 0.337255 0.729412
1 0.34902 0.74902
1 0.360784 0.768627
1 0.376471 0.792157
1 0.388235 0.819608
1 0.403922 0.847059
1 0.407843 0.85098
1 0.407843 0.843137
1 0.407843 0.839216
1 0.407843 0.835294
1 0.407843 0.831373
1 0.552941 0.839216
1 0.721569 0.862745
1 0.843137 0.901961
1 0.933333 0.952941
1 1 1
1 1 1
1 1 1
1 1 1
1 1 1
1 1 1
1 0.329412 0.729412
1 0.329412 0.733333
1 0.337255 0.737255
1 0.341176 0.74902
1 0.34902 0.760784
1 0.360784 0.776471
1 0.372549 0.796078
1 0.384314 0.819608
1 0.396078 0.843137
1 0.407843 0.862745
1 0.407843 0.854902
1 0.407843 0.847059
1 0.407843 0.843137
1 0.407843 0.839216
1 0.407843 0.835294
1 0.407843 0.831373
1 0.603922 0.847059
1 0.764706 0.878431
1 0.878431 0.92549
1 0.964706 0.972549
1 0.968627 0.976471
1 0.968627 0.976471
1 0.968627 0.976471
1 0.968627 0.976471
1 0.968627 0.976471
1 0.345098 0.760784
1 0.345098 0.764706
1 0.34902 0.772549
1 0.356863 0.780392
1 0.364706 0.792157
1 0.372549 0.807843
1 0.384314 0.823529
1 0.396078 0.847059
1 0.407843 0.866667
1 0.407843 0.862745
1 0.407843 0.858824
1 0.407843 0.85098
1 0.407843 0.847059
1 0.407843 0.843137
1 0.407843 0.835294
1 0.407843 0.831373
1 0.427451 0.831373
1 0.65098 0.858824
1 0.803922 0.898039
1 0.913725 0.945098
1 0.921569 0.94902
1 0.921569 0.94902
1 0.921569 0.94902
1 0.921569 0.94902
1 0.921569 0.94902
1 0.356863 0.796078
1 0.360784 0.796078
1 0.364706 0.803922
1 0.368627 0.811765
1 0.376471 0.823529
1 0.384314 0.835294
1 0.392157 0.85098
1 0.403922 0.870588
1 0.407843 0.87451
1 0.407843 0.866667
1 0.407843 0.862745
1 0.407843 0.854902
1 0.407843 0.85098
1 0.407843 0.843137
1 0.407843 0.839216
1 0.407843 0.835294
1 0.407843 0.831373
1 0.486275 0.835294
1 0.701961 0.870588
1 0.843137 0.913725
1 0.85098 0.917647
1 0.85098 0.917647
1 0.85098 0.917647
1 0.85098 0.917647
1 0.85098 0.917647
1 0.372549 0.827451
1 0.372549 0.827451
1 0.376471 0.835294
1 0.380392 0.843137
1 0.388235 0.85098
1 0.396078 0.862745
1 0.403922 0.878431
1 0.407843 0.882353
1 0.407843 0.878431
1 0.407843 0.870588
1 0.407843 0.862745
1 0.407843 0.858824
1 0.407843 0.85098
1 0.407843 0.847059
1 0.407843 0.843137
1 0.407843 0.839216
1 0.407843 0.835294
1 0.407843 0.831373
1 0.545098 0.843137
1 0.745098 0.882353
1 0.756863 0.886275
1 0.756863 0.886275
1 0.756863 0.886275
1 0.756863 0.886275
1 0.756863 0.886275
1 0.384314 0.858824
1 0.388235 0.858824
1 0.388235 0.862745
1 0.392157 0.870588
1 0.4 0.878431
1 0.403922 0.890196
1 0.407843 0.890196
1 0.407843 0.886275
1 0.407843 0.878431
1 0.407843 0.87451
1 0.407843 0.866667
1 0.407843 0.862745
1 0.407843 0.854902
1 0.407843 0.85098
1 0.407843 0.847059
1 0.407843 0.839216
1 0.407843 0.835294
1 0.407843 0.831373
1 0.407843 0.831373
1 0.6 0.854902
1 0.615686 0.854902
1 0.615686 0.854902
1 0.615686 0.854902
1 0.615686 0.854902
1 0.615686 0.854902
1 0.396078 0.886275
1 0.4 0.890196
1 0.4 0.894118
1 0.403922 0.898039
1 0.407843 0.901961
1 0.407843 0.898039
1 0.407843 0.894118
1 0.407843 0.886275
1 0.407843 0.882353
1 0.407843 0.87451
1 0.407843 0.870588
1 0.407843 0.862745
1 0.407843 0.858824
1 0.407843 0.854902
1 0.407843 0.847059
1 0.407843 0.843137
1 0.407843 0.839216
1 0.407843 0.835294
1 0.407843 0.831373
1 0.407843 0.827451
1 0.407843 0.827451
1 0.407843 0.827451
1 0.407843 0.827451
1 0.407843 0.827451
1 0.407843 0.827451
0 0.054902 0.047059
0 0.14902 0.101961
0.180392 0.215686 0.14902
0.294118 0.286275 0.203922
0.392157 0.360784 0.258824
0.490196 0.439216 0.317647
0.588235 0.517647 0.376471
0.682353 0.596078 0.435294
0.768627 0.67451 0.494118
0.85098 0.745098 0.54902
0.92549 0.815686 0.603922
0.992157 0.878431 0.658824
1 0.933333 0.709804
1 0.964706 0.74902
1 0.968627 0.780392
1 0.972549 0.815686
1 0.976471 0.847059
1 0.980392 0.87451
1 0.984314 0.905882
1 0.988235 0.933333
1 0.988235 0.937255
1 0.988235 0.937255
1 0.988235 0.937255
1 0.988235 0.937255
1 0.988235 0.937255
0.003922 0.023529 0.078431
0.094118 0.078431 0.109804
0.211765 0.180392 0.156863
0.313725 0.266667 0.211765
0.407843 0.34902 0.270588
0.501961 0.427451 0.32549
0.596078 0.509804 0.384314
0.690196 0.592157 0.443137
0.776471 0.666667 0.498039
0.854902 0.741176 0.552941
0.929412 0.811765 0.607843
0.996078 0.87451 0.662745
1 0.933333 0.709804
1 0.964706 0.74902
1 0.964706 0.784314
1 0.968627 0.815686
1 0.972549 0.847059
1 0.980392 0.878431
1 0.984314 0.905882
1 0.988235 0.933333
1 0.988235 0.937255
1 0.988235 0.937255
1 0.988235 0.937255
1 0.988235 0.937255
1 0.988235 0.937255
0.007843 0.035294 0.105882
0.156863 0.023529 0.133333
0.254902 0.129412 0.180392
0.341176 0.239216 0.227451
0.427451 0.329412 0.282353
0.517647 0.415686 0.337255
0.611765 0.498039 0.392157
0.698039 0.580392 0.447059
0.784314 0.662745 0.505882
0.862745 0.737255 0.556863
0.933333 0.803922 0.611765
1 0.870588 0.662745
1 0.929412 0.713725
1 0.960784 0.752941
1 0.964706 0.784314
1 0.968627 0.815686
1 0.972549 0.847059
1 0.976471 0.878431
1 0.984314 0.905882
1 0.988235 0.933333
1 0.988235 0.937255
1 0.988235 0.937255
1 0.988235 0.937255
1 0.988235 0.937255
1 0.988235 0.937255
0.113725 0.039216 0.133333
0.207843 0.039216 0.160784
0.301961 0.070588 0.203922
0.380392 0.192157 0.25098
0.458824 0.301961 0.298039
0.541176 0.396078 0.34902
0.627451 0.482353 0.403922
0.713725 0.568627 0.458824
0.796078 0.65098 0.513725
0.870588 0.72549 0.564706
0.941176 0.8 0.619608
1 0.862745 0.670588
1 0.92549 0.717647
1 0.952941 0.756863
1 0.960784 0.788235
1 0.964706 0.819608
1 0.972549 0.85098
1 0.976471 0.878431
1 0.980392 0.909804
1 0.988235 0.937255
1 0.988235 0.937255
1 0.988235 0.937255
1 0.988235 0.937255
1 0.988235 0.937255
1 0.988235 0.937255
0.192157 0.039216 0.164706
0.258824 0.058824 0.192157
0.333333 0.082353 0.227451
0.423529 0.113725 0.27451
0.494118 0.254902 0.317647
0.568627 0.360784 0.364706
0.654902 0.458824 0.419608
0.737255 0.54902 0.470588
0.811765 0.635294 0.521569
0.886275 0.713725 0.572549
0.952941 0.788235 0.627451
1 0.854902 0.67451
1 0.917647 0.721569
1 0.945098 0.760784
1 0.952941 0.792157
1 0.960784 0.819608
1 0.968627 0.85098
1 0.972549 0.882353
1 0.980392 0.909804
1 0.988235 0.937255
1 0.988235 0.941176
1 0.988235 0.941176
1 0.988235 0.941176
1 0.988235 0.941176
1 0.988235 0.941176
0.258824 0.058824 0.203922
0.309804 0.07451 0.227451
0.372549 0.098039 0.258824
0.45098 0.12549 0.298039
0.537255 0.164706 0.345098
0.603922 0.313725 0.388235
0.682353 0.423529 0.435294
0.760784 0.521569 0.486275
0.835294 0.611765 0.537255
0.901961 0.698039 0.584314
0.968627 0.772549 0.635294
1 0.843137 0.682353
1 0.905882 0.729412
1 0.937255 0.764706
1 0.94902 0.796078
1 0.956863 0.823529
1 0.964706 0.854902
1 0.972549 0.886275
1 0.980392 0.913725
1 0.984314 0.941176
1 0.984314 0.941176
1 0.984314 0.941176
1 0.984314 0.941176
1 0.984314 0.941176
1 0.984314 0.941176
0.321569 0.082353 0.243137
0.360784 0.094118 0.262745
0.415686 0.113725 0.286275
0.482353 0.137255 0.321569
0.564706 0.164706 0.364706
0.647059 0.235294 0.411765
0.717647 0.376471 0.458824
0.788235 0.486275 0.505882
0.858824 0.584314 0.552941
0.92549 0.67451 0.6
0.984314 0.756863 0.647059
1 0.827451 0.694118
1 0.894118 0.737255
1 0.92549 0.772549
1 0.937255 0.8
1 0.94902 0.831373
1 0.960784 0.858824
1 0.968627 0.886275
1 0.976471 0.917647
1 0.984314 0.941176
1 0.984314 0.945098
1 0.984314 0.945098
1 0.984314 0.945098
1 0.984314 0.945098
1 0.984314 0.945098
0.380392 0.101961 0.282353
0.411765 0.113725 0.294118
0.458824 0.129412 0.317647
0.521569 0.14902 0.34902
0.596078 0.176471 0.388235
0.678431 0.207843 0.435294
0.756863 0.301961 0.482353
0.823529 0.435294 0.52549
0.886275 0.545098 0.572549
0.94902 0.643137 0.615686
1 0.733333 0.662745
1 0.811765 0.705882
1 0.878431 0.74902
1 0.909804 0.780392
1 0.929412 0.807843
1 0.941176 0.835294
1 0.952941 0.862745
1 0.964706 0.890196
1 0.976471 0.917647
1 0.984314 0.945098
1 0.984314 0.94902
1 0.984314 0.94902
1 0.984314 0.94902
1 0.984314 0.94902
1 0.984314 0.94902
0.435294 0.121569 0.317647
0.462745 0.129412 0.333333
0.501961 0.145098 0.352941
0.560784 0.164706 0.380392
0.627451 0.188235 0.415686
0.709804 0.215686 0.458824
0.792157 0.247059 0.505882
0.858824 0.368627 0.54902
0.921569 0.494118 0.592157
0.976471 0.603922 0.635294
1 0.701961 0.678431
1 0.784314 0.721569
1 0.858824 0.760784
1 0.894118 0.788235
1 0.917647 0.815686
1 0.933333 0.843137
1 0.94902 0.870588
1 0.960784 0.898039
1 0.972549 0.921569
1 0.984314 0.94902
1 0.984314 0.94902
1 0.984314 0.94902
1 0.984314 0.94902
1 0.984314 0.94902
1 0.984314 0.94902
0.494118 0.141176 0.356863
0.517647 0.14902 0.368627
0.54902 0.160784 0.384314
0.6 0.180392 0.411765
0.666667 0.203922 0.443137
0.741176 0.227451 0.482353
0.815686 0.254902 0.529412
0.898039 0.282353 0.572549
0.956863 0.427451 0.615686
1 0.552941 0.654902
1 0.662745 0.698039
1 0.756863 0.737255
1 0.835294 0.772549
1 0.87451 0.796078
1 0.901961 0.823529
1 0.92549 0.847059
1 0.941176 0.87451
1 0.956863 0.901961
1 0.968627 0.929412
1 0.980392 0.952941
1 0.980392 0.952941
1 0.980392 0.952941
1 0.980392 0.952941
1 0.980392 0.952941
1 0.980392 0.952941
0.545098 0.160784 0.392157
0.568627 0.168627 0.403922
0.6 0.180392 0.419608
0.647059 0.196078 0.443137
0.705882 0.215686 0.47451
0.772549 0.239216 0.509804
0.847059 0.266667 0.54902
0.921569 0.294118 0.596078
0.992157 0.329412 0.639216
1 0.486275 0.678431
1 0.607843 0.717647
1 0.713725 0.752941
1 0.8 0.788235
1 0.85098 0.807843
1 0.886275 0.831373
1 0.913725 0.854902
1 0.937255 0.882353
1 0.952941 0.905882
1 0.968627 0.933333
1 0.980392 0.956863
1 0.980392 0.956863
1 0.980392 0.956863
1 0.980392 0.956863
1 0.980392 0.956863
1 0.980392 0.956863
