site/assets/luts/freshluts--0000701-london-nights.cube
# LUTr-Schema-Version: 2
# LUTr-ID: freshluts--0000701-london-nights
# LUTr-Title: London Nights
# LUTr-Collection: Fresh LUTs
# LUTr-Collection-ID: freshluts-community
# LUTr-Source: https://freshluts.com
# LUTr-Retrieved: 2026-07-27
# LUTr-Source-File: submissions-raw/freshluts/cubes/701__London_Nights.cube
# LUTr-Source-Format: CUBE
# LUTr-Source-SHA256: 0e11aa8b99917139adb361944b8580136482e4854d9edac3638f8981a50b105c
# LUTr-License: CC0-1.0
# LUTr-License-URL: https://freshluts.com/termsandconditions
# LUTr-License-Basis: site-terms
# LUTr-Transform-Class: creative-look
# LUTr-Tags: creative, freshluts, community, cube, noir, cinematic, warm, low-key, bmd-film
# LUTr-Input-Color-Space: bmd-film
# LUTr-Input-Gamut: bmd-film-gamut
# LUTr-Input-Transfer: bmd-film
# LUTr-Output-Color-Space: srgb
# LUTr-Output-Gamut: rec709
# LUTr-Output-Transfer: srgb
# LUTr-Color-Space-Confidence: inferred-from-source-label
# LUTr-Domain-Normalized: true
# LUTr-Shaper: none
# LUTr-Original-Grid: 16x16x16
# LUTr-Conversion-Grid: 16x16x16
# LUTr-Conversion-Interpolation: none
# LUTr-Conversion-Method: Metadata normalization; numeric LUT samples preserved
# LUTr-Conversion-Tool: LUTr scripts/convert-all-to-cube.mjs 2.0.0
# LUTr-Conversion-Date: 2026-07-28
# LUTr-Asset-URL: https://freshluts.com/luts/701
# LUTr-Author: InAvision
# LUTr-Author-URL: https://freshluts.com/users/64078
# LUTr-Attribution: InAvision via Fresh LUTs
# LUTr-Source-Labels: gamma=Blackmagic BMD Film; color=Warm; key=Low Key; style=Noir
# LUTr-Note: Preserve this metadata and the upstream license notices when redistributing.
TITLE "London Nights"
LUT_3D_SIZE 6
DOMAIN_MIN 0 0 0
DOMAIN_MAX 1 1 1
-0.008657 -0.001742 0.001249
0.293467 -0.003918 -0.000621
0.53539 -0.002817 0
0.628686 0 0
0.675021 0 0
0.706404 0 0
-0.000112 0.06735 0.001821
0.05793 0.087077 0.000936
0.411284 0.140818 0
0.668018 0.141741 0
0.793035 0.120846 0
0.845034 0.086615 0
0 0.220045 0
-0.019802 0.251945 0
0.354845 0.350833 0
0.689886 0.407716 0
0.857719 0.41536 0
0.923375 0.387631 0
0 0.335052 0
0 0.380421 0
0.22291 0.506523 0
0.655258 0.609199 0
0.863685 0.634286 0
0.958888 0.609035 0
0 0.405777 0
0 0.457313 0
-0.078608 0.593688 0
0.575237 0.721683 0
0.848967 0.789295 0
0.96487 0.775761 0
-0.009514 0.452757 -0.007221
-0.100795 0.502454 -0.018285
-0.168252 0.637724 -0.018861
0.39757 0.773936 -0.02161
0.760069 0.865272 -0.027285
0.949793 0.91326 -0.031052
-0.020984 -0.136079 0.139019
0.372026 -0.156944 0.269971
0.615974 -0.194326 0.289765
0.692815 -0.232143 0.293648
0.717962 -0.257165 0.29668
0.72749 -0.269138 0.293092
0 0.067976 0.036463
0.070319 0.109307 0.11137
0.473049 0.153527 0.17802
0.725759 0.145145 0.224331
0.844412 0.129064 0.264112
0.896793 0.124335 0.291888
0 0.226448 0.026909
-0.019108 0.289668 0.08668
0.387995 0.38684 0.140849
0.736096 0.438163 0.17994
0.897167 0.444149 0.219726
0.960473 0.421028 0.257173
0 0.352541 0.008824
0 0.429076 0.064068
0.224466 0.553685 0.107593
0.681896 0.647868 0.136724
0.887945 0.669371 0.174415
0.987471 0.644245 0.213978
0 0.428336 -0.001339
0 0.512037 0.055667
-0.074772 0.643428 0.095181
0.586644 0.762259 0.116468
0.859598 0.823842 0.147805
0.988445 0.811244 0.181598
-0.020068 0.475864 -0.065681
-0.112566 0.5688 -0.080363
-0.17759 0.691356 -0.039572
0.407056 0.819213 0.068842
0.774554 0.902636 0.102403
0.95799 0.945953 0.162686
0.071792 -0.147001 0.320159
0.411771 -0.175432 0.418173
0.629725 -0.216671 0.446667
0.704427 -0.248372 0.453368
0.730185 -0.269414 0.454973
0.739355 -0.279627 0.450151
-0.00168 0.092852 0.216142
0.126432 0.125545 0.347543
0.526407 0.140628 0.453333
0.757813 0.107782 0.497621
0.863825 0.071861 0.52198
0.907801 0.067609 0.519954
0 0.268752 0.198804
-0.025699 0.340588 0.31428
0.43417 0.422532 0.416487
0.763614 0.465352 0.486644
0.915231 0.478951 0.53635
0.989396 0.484345 0.561349
0 0.398743 0.174505
0 0.490794 0.27623
0.258116 0.606359 0.378979
0.710448 0.684477 0.444498
0.904449 0.70343 0.493337
1.005331 0.687142 0.530624
0 0.473514 0.154226
0 0.57371 0.242794
-0.082918 0.712669 0.354394
0.610902 0.807104 0.411929
0.868189 0.858254 0.459442
0.996684 0.846506 0.496855
-0.043878 0.518021 0.091521
-0.124331 0.623346 0.188277
-0.181677 0.781189 0.334366
0.472289 0.879074 0.385403
0.799512 0.945624 0.429799
0.967094 0.980172 0.472867
0.207814 -0.164492 0.427875
0.467171 -0.193575 0.485702
0.637787 -0.234161 0.508329
0.710043 -0.265342 0.519067
0.739656 -0.279893 0.526985
0.747792 -0.287426 0.523387
-0.02128 0.101236 0.418017
0.250863 0.118916 0.528119
0.585418 0.103926 0.610877
0.787428 0.03986 0.654107
0.880445 -0.010855 0.671895
0.916664 0.006568 0.665055
0 0.315716 0.412076
-0.059367 0.372126 0.517872
0.511611 0.442202 0.61993
0.789075 0.470108 0.683043
0.927046 0.47903 0.713287
1.00681 0.482722 0.711582
0 0.467451 0.380829
-0.000291 0.547279 0.489325
0.336487 0.643056 0.591696
0.74558 0.705491 0.657886
0.921248 0.729407 0.698696
1.013397 0.739043 0.723704
0 0.543009 0.338666
0 0.637888 0.43886
-0.10974 0.756259 0.555736
0.665893 0.842399 0.630974
0.882046 0.88 0.671233
1.003802 0.874399 0.700804
-0.07921 0.581756 0.27879
-0.139092 0.687313 0.376384
-0.187522 0.825012 0.50156
0.596741 0.933846 0.618274
0.825267 0.97498 0.652457
0.982731 1.001358 0.684461
0.340232 -0.186556 0.49102
0.520338 -0.211627 0.524348
0.646983 -0.246279 0.540204
0.713218 -0.273657 0.553074
0.748251 -0.286112 0.568782
0.757205 -0.291376 0.569094
0.112671 0.08719 0.559014
0.373044 0.104648 0.640782
0.63737 0.060014 0.703122
0.801978 -0.023641 0.738397
0.895208 -0.045399 0.762266
0.925443 -0.044233 0.756233
-0.002065 0.342971 0.578811
0.14605 0.388199 0.66393
0.580386 0.45168 0.743477
0.808663 0.470254 0.790073
0.941801 0.477074 0.823162
1.018477 0.480536 0.815331
0 0.514397 0.553839
-0.017106 0.576756 0.64166
0.46336 0.659472 0.738677
0.78259 0.716956 0.79114
0.942351 0.735623 0.823138
1.022024 0.741611 0.823868
0 0.622546 0.527496
0 0.694924 0.607478
0.214177 0.792236 0.702577
0.713544 0.862757 0.772757
0.902068 0.892336 0.808643
1.008237 0.905671 0.827761
-0.112214 0.663103 0.466513
-0.153287 0.747344 0.548549
-0.199256 0.863113 0.649066
0.636792 0.953029 0.733727
0.875224 0.995324 0.804493
0.994444 1.011594 0.825503
0.420811 -0.207956 0.519239
0.544616 -0.227955 0.537341
0.648925 -0.257185 0.551464
0.710481 -0.279021 0.56635
0.744511 -0.289186 0.580889
0.77234 -0.293272 0.607417
0.269333 0.048104 0.638974
0.463798 0.092464 0.704282
0.658925 0.040638 0.744593
0.797912 -0.030473 0.773766
0.885608 -0.047788 0.795817
0.935426 -0.05142 0.814284
-0.050573 0.335603 0.671499
0.340478 0.375946 0.740868
0.639762 0.458572 0.812056
0.810694 0.469419 0.848739
0.930279 0.475121 0.871877
1.027328 0.478416 0.890645
0 0.517909 0.664746
-0.07139 0.572497 0.735824
0.548302 0.646869 0.808571
0.805621 0.722437 0.856402
0.933342 0.735827 0.883433
1.034109 0.744287 0.907233
0 0.642502 0.645606
-0.000955 0.70582 0.717276
0.419192 0.789835 0.793237
0.763215 0.85315 0.844599
0.920994 0.899226 0.873769
1.017065 0.909578 0.892612
0 0.719828 0.615689
0 0.788533 0.688263
0.104562 0.882289 0.77181
0.69375 0.950861 0.827367
0.887181 0.980765 0.860568
1.001167 0.993063 0.880278
