site/assets/luts/freshluts--0001107-teal-and-orange.cube
# LUTr-Schema-Version: 2
# LUTr-ID: freshluts--0001107-teal-and-orange
# LUTr-Title: Teal and Orange
# LUTr-Collection: Fresh LUTs
# LUTr-Collection-ID: freshluts-community
# LUTr-Source: https://freshluts.com
# LUTr-Retrieved: 2026-07-27
# LUTr-Source-File: submissions-raw/freshluts/cubes/1107__TO_2.DJI_0007.cube
# LUTr-Source-Format: CUBE
# LUTr-Source-SHA256: 4abd5758be78f879efcfa3552e1e44877fa7ca7aa64af2389ab7b6daebdfc193
# LUTr-License: CC0-1.0
# LUTr-License-URL: https://freshluts.com/termsandconditions
# LUTr-License-Basis: site-terms
# LUTr-Transform-Class: creative-look
# LUTr-Tags: creative, freshluts, community, cube, orange, rec709, warm
# LUTr-Input-Color-Space: rec709
# LUTr-Input-Gamut: rec709
# LUTr-Input-Transfer: rec709
# LUTr-Output-Color-Space: srgb
# LUTr-Output-Gamut: rec709
# LUTr-Output-Transfer: srgb
# LUTr-Color-Space-Confidence: declared-by-source
# LUTr-Domain-Normalized: true
# LUTr-Shaper: none
# LUTr-Original-Grid: 17x17x17
# LUTr-Conversion-Grid: 17x17x17
# LUTr-Conversion-Interpolation: none
# LUTr-Conversion-Method: Metadata normalization; numeric LUT samples preserved
# LUTr-Conversion-Tool: LUTr scripts/convert-all-to-cube.mjs 2.0.0
# LUTr-Conversion-Date: 2026-07-28
# LUTr-Asset-URL: https://freshluts.com/luts/1107
# LUTr-Author: Neeraj Badyal
# LUTr-Author-URL: https://freshluts.com/users/117643
# LUTr-Attribution: Neeraj Badyal via Fresh LUTs
# LUTr-Source-Labels: gamma=Rec 709; color=Orange; key=Neutral; style=Teal - Orange
# LUTr-Note: Preserve this metadata and the upstream license notices when redistributing.
TITLE "Teal and Orange"
LUT_3D_SIZE 5
DOMAIN_MIN 0 0 0
DOMAIN_MAX 1 1 1
0 0 0
0.161868 0 0
0.577951 0 0
0.942748 0 0
1 0 0
0 0 0
0 0.00233463 0.000183108
0.529809 0.0661631 0.00570687
0.916426 0.0572976 0.00535592
1 0.088838 0.00709544
0 0.406973 0.0122835
0 0.434226 0.0121614
0.452354 0.440101 0.0121309
0.815961 0.446601 0.0120851
0.987747 0.483574 0.0118105
0 0.80145 0.0059968
0 0.831052 0.00518807
0.406302 0.831052 0.00518807
0.831189 0.821561 0.00546273
0.996185 0.833036 0.00514229
0 1 0
0 1 0
0.412955 1 0
0.837293 1 0
1 1 0
0.0000610361 0 0.193942
0.127016 0 0.187411
0.613504 0 0.147494
0.980392 0 0.129381
1 0 0.131136
0 0.0928359 0.187259
0.0164492 0.089128 0.182681
0.566033 0.0661326 0.156603
0.953185 0.0623331 0.152209
1 0.0973983 0.191226
0 0.414801 0.134035
0 0.436408 0.0874342
0.427985 0.472251 0.120211
0.81677 0.45539 0.179858
0.973007 0.491539 0.220569
0 0.812879 0.155825
0 0.840024 0.184482
0.355062 0.837568 0.179751
0.845426 0.825238 0.130236
0.993545 0.831403 0.179416
0 0.99884 0.245548
0 0.99884 0.241581
0.326101 0.998901 0.208347
0.828382 0.998993 0.171115
1 0.998993 0.167697
0 0 0.5552
0.0470893 0 0.551125
0.603967 0 0.520363
1 0 0.500374
1 0 0.503029
0 0.0830854 0.557931
0 0.0809339 0.561212
0.548486 0.0562142 0.549172
0.998383 0.0623484 0.531884
1 0.100206 0.567758
0 0.415824 0.516457
0 0.447654 0.547936
0.288426 0.451331 0.55201
0.783993 0.456611 0.557504
0.911452 0.49218 0.59234
0 0.813626 0.535744
0 0.841047 0.55758
0.00706493 0.886702 0.607752
0.832151 0.873335 0.597986
0.981964 0.822141 0.536828
0 1 0.601587
0 1 0.588098
0.00830091 0.998901 0.56228
0.79234 0.99884 0.522652
1 1 0.456413
0 0 0.844099
0.0144808 0 0.841733
0.574517 0 0.819226
1 0 0.79881
1 0 0.803891
0 0.0797436 0.851545
0 0.080354 0.85536
0.493553 0.0666819 0.843076
0.997223 0.0695659 0.84477
1 0.108232 0.882048
0 0.422538 0.830137
0 0.4542 0.863661
0.00178531 0.458259 0.873274
0.644923 0.458259 0.895323
0.804089 0.496712 0.909041
0 0.819837 0.85098
0 0.844465 0.873854
0 0.836667 0.866896
0.783108 0.814389 0.846769
0.971206 0.815259 0.848173
0 0.99971 0.910277
0 0.999695 0.903944
0 0.999588 0.871748
0.68896 0.99968 0.897826
1 0.99968 0.900175
0 0 1
0.00277714 0 1
0.562966 0 1
1 0 0.992172
1 0 0.999771
0 0.0846571 1
0 0.088716 1
0.473091 0.0801099 1
0.997925 0.0859693 1
1 0.124483 1
0 0.43827 1
0 0.469001 1
0 0.474266 1
0.573861 0.479042 1
0.759594 0.509316 1
0 0.833646 1
0 0.855009 1
0 0.84303 1
0.581613 0.818601 1
0.896513 0.817243 1
0 1 1
0 1 1
0 1 1
0.452705 1 1
1 1 1
