site/assets/luts/freshluts--0000984-dust.cube
# LUTr-Schema-Version: 2
# LUTr-ID: freshluts--0000984-dust
# LUTr-Title: Dust
# LUTr-Collection: Fresh LUTs
# LUTr-Collection-ID: freshluts-community
# LUTr-Source: https://freshluts.com
# LUTr-Retrieved: 2026-07-27
# LUTr-Source-File: submissions-raw/freshluts/cubes/984__Dust.cube
# LUTr-Source-Format: CUBE
# LUTr-Source-SHA256: f21555d9c29922dbcdb002c3e4b537a619873f4057f3171c4da54c78446fb785
# LUTr-License: CC0-1.0
# LUTr-License-URL: https://freshluts.com/termsandconditions
# LUTr-License-Basis: site-terms
# LUTr-Transform-Class: creative-look
# LUTr-Tags: creative, freshluts, community, cube, noir, cinematic, cool, rec709, assumed-input
# LUTr-Input-Color-Space: rec709
# LUTr-Input-Gamut: rec709
# LUTr-Input-Transfer: rec709
# LUTr-Output-Color-Space: srgb
# LUTr-Output-Gamut: rec709
# LUTr-Output-Transfer: srgb
# LUTr-Color-Space-Confidence: assumed-display-referred
# LUTr-Domain-Normalized: true
# LUTr-Shaper: none
# LUTr-Original-Grid: 32x32x32
# LUTr-Conversion-Grid: 32x32x32
# LUTr-Conversion-Interpolation: none
# LUTr-Conversion-Method: Metadata normalization; numeric LUT samples preserved
# LUTr-Conversion-Tool: LUTr scripts/convert-all-to-cube.mjs 2.0.0
# LUTr-Conversion-Date: 2026-07-28
# LUTr-Asset-URL: https://freshluts.com/luts/984
# LUTr-Author: ButterflyBD
# LUTr-Author-URL: https://freshluts.com/users/53416
# LUTr-Attribution: ButterflyBD via Fresh LUTs
# LUTr-Source-Labels: gamma=Other; color=Cool; key=Neutral; style=Noir; LUTr assumption=input Rec.709 per repository policy
# LUTr-Conversion-Warning: Input Rec.709 is a LUTr catalog assumption requested for this otherwise unspecified Fresh LUT; it is not verified by the upstream asset.
# LUTr-Note: Preserve this metadata and the upstream license notices when redistributing.
# LUTr-Upstream-Comment: Created by: Adobe Photoshop Export Color Lookup Plugin
# LUTr-Upstream-Comment: LUT size
# LUTr-Upstream-Comment: data domain
# LUTr-Upstream-Comment: LUT data points
TITLE "Dust"
LUT_3D_SIZE 32
DOMAIN_MIN 0 0 0
DOMAIN_MAX 1 1 1
0.031372 0.031372 0.031372
0.033417 0.031372 0.031372
0.065735 0.031372 0.031372
0.097626 0.031372 0.031372
0.128021 0.031372 0.031372
0.15744 0.031372 0.031372
0.186432 0.031372 0.039215
0.214813 0.031372 0.04541
0.243805 0.036041 0.05014
0.272156 0.042419 0.055603
0.300964 0.047974 0.061218
0.328705 0.054749 0.065277
0.357269 0.06073 0.070435
0.386261 0.06665 0.074707
0.4151 0.072815 0.079407
0.444397 0.078705 0.084564
0.473236 0.084503 0.089233
0.501709 0.089996 0.093994
0.528748 0.09552 0.098145
0.555145 0.100769 0.102722
0.580475 0.105865 0.106964
0.604401 0.110962 0.110352
0.627655 0.115356 0.114288
0.649414 0.119904 0.117584
0.66983 0.123749 0.120911
0.688965 0.127686 0.12384
0.706635 0.131042 0.126648
0.722931 0.134277 0.129242
0.737671 0.137451 0.131439
0.750946 0.140045 0.133667
0.762756 0.142365 0.135559
0.772949 0.144226 0.13736
0.031372 0.036407 0.031372
0.034088 0.035126 0.031372
0.066833 0.036621 0.031372
0.098541 0.036377 0.031372
0.127991 0.037231 0.031372
0.158112 0.036957 0.031372
0.186737 0.038025 0.031372
0.215088 0.039032 0.031372
0.243805 0.039764 0.031372
0.272217 0.041504 0.031372
0.300629 0.047394 0.031372
0.328857 0.053741 0.034149
0.357117 0.060486 0.039124
0.386322 0.066284 0.044067
0.415283 0.072327 0.049866
0.444733 0.078278 0.054962
0.473785 0.083954 0.060608
0.501465 0.089966 0.064697
0.52887 0.095215 0.070038
0.555176 0.100586 0.074493
0.580414 0.105743 0.0784
0.604889 0.110565 0.08252
0.627777 0.115204 0.086731
0.649384 0.119781 0.089874
0.66983 0.123657 0.093353
0.689026 0.127472 0.096802
0.706482 0.131073 0.099548
0.72287 0.134247 0.102203
0.73761 0.13739 0.104797
0.751099 0.139862 0.106995
0.762634 0.142365 0.108704
0.772797 0.144165 0.110352
0.031372 0.073792 0.031372
0.044434 0.075134 0.031372
0.068787 0.070068 0.031372
0.100525 0.069824 0.031372
0.129913 0.070343 0.031372
0.159485 0.070526 0.031372
0.188568 0.070709 0.031372
0.217163 0.071411 0.031372
0.245361 0.072571 0.031372
0.274231 0.073242 0.031372
0.302368 0.074982 0.031372
0.33136 0.075714 0.031372
0.359283 0.077972 0.031372
0.388123 0.079529 0.031372
0.417023 0.081482 0.031372
0.445526 0.083984 0.031372
0.473999 0.086029 0.031372
0.501465 0.089722 0.031372
0.528839 0.095184 0.035065
0.555054 0.100616 0.040588
0.580505 0.10553 0.046173
0.604736 0.110596 0.050262
0.627655 0.115173 0.055206
0.649536 0.119537 0.058929
0.669861 0.123535 0.062592
0.689117 0.12735 0.066772
0.706848 0.130768 0.069946
0.722961 0.134003 0.072784
0.737915 0.13681 0.0755
0.75119 0.139648 0.077179
0.762787 0.14212 0.079498
0.77298 0.144012 0.081238
0.031372 0.10611 0.031372
0.048553 0.108246 0.031372
0.079865 0.108704 0.031372
0.101379 0.10025 0.031372
0.130829 0.100708 0.031372
0.160858 0.100464 0.031372
0.189606 0.10083 0.031372
0.218781 0.101135 0.031372
0.247375 0.10199 0.031372
0.276398 0.102448 0.031372
0.304871 0.103485 0.031708
0.333954 0.104126 0.034637
0.362732 0.105499 0.035889
0.391815 0.106995 0.036987
0.421143 0.108307 0.037598
0.450165 0.110107 0.038177
0.47879 0.111755 0.03833
0.506622 0.113617 0.038513
0.533691 0.115417 0.038177
0.55954 0.117645 0.037689
0.584167 0.119537 0.036713
0.60788 0.121338 0.036285
0.630249 0.123413 0.035217
0.651489 0.125397 0.033417
0.671234 0.127258 0.032349
0.689514 0.128876 0.03183
0.706787 0.13089 0.031555
0.723083 0.134033 0.03595
0.737915 0.136902 0.039764
0.751221 0.139587 0.042511
0.762848 0.142059 0.045227
0.773163 0.143982 0.046814
0.031372 0.138733 0.031372
0.053741 0.140045 0.031372
0.084015 0.140747 0.031372
0.113892 0.140869 0.031372
0.131348 0.13031 0.031372
0.161041 0.13028 0.031372
0.190918 0.130127 0.031372
0.219696 0.130524 0.031372
0.248627 0.130798 0.031372
0.277771 0.131134 0.03418
0.306824 0.131775 0.036621
0.335846 0.13269 0.038483
0.365326 0.13324 0.040894
0.394806 0.134064 0.042297
0.424164 0.135437 0.043549
0.453827 0.136566 0.044983
0.482819 0.13797 0.045776
0.510956 0.139313 0.046051
0.538422 0.140961 0.046234
0.564545 0.142548 0.046173
0.58963 0.144104 0.045929
0.613495 0.145874 0.04599
0.636078 0.147491 0.045593
0.657562 0.148865 0.046143
0.67746 0.150513 0.04538
0.696198 0.151978 0.044983
0.71344 0.153442 0.044128
0.729156 0.154755 0.044037
0.743805 0.155914 0.043335
0.756683 0.157104 0.043213
0.768036 0.158142 0.042328
0.777985 0.158905 0.041901
0.031372 0.170502 0.031372
0.058258 0.171631 0.031372
0.089478 0.171753 0.031372
0.118286 0.172211 0.031372
0.147125 0.172455 0.031372
0.161896 0.159363 0.031372
0.191284 0.159363 0.031372
0.220886 0.159271 0.031372
0.249939 0.159546 0.034637
0.279388 0.159729 0.036957
0.308319 0.160187 0.039459
0.33783 0.160553 0.042175
0.367249 0.161255 0.043823
0.396881 0.161987 0.046234
0.42688 0.16275 0.04837
0.456787 0.163574 0.049713
0.485992 0.164886 0.05072
0.514465 0.165863 0.051758
0.541901 0.167236 0.052277
0.568481 0.168488 0.052734
0.593811 0.169739 0.053192
0.618011 0.170959 0.053772
0.640656 0.172516 0.053619
0.662384 0.173889 0.053497
0.682861 0.174988 0.054352
0.701782 0.176361 0.054138
0.718964 0.177612 0.053467
0.734894 0.178772 0.053253
0.749481 0.179657 0.053284
0.762634 0.180786 0.053619
0.774139 0.181549 0.053131
0.78418 0.18219 0.052887
0.031372 0.201904 0.031372
0.062103 0.203125 0.032349
0.094025 0.202881 0.031982
0.123047 0.203156 0.031647
0.151825 0.203308 0.031433
0.179626 0.204041 0.031708
0.19165 0.188293 0.031372
0.221313 0.188202 0.03363
0.250763 0.188232 0.036499
0.279907 0.188416 0.04007
0.30957 0.188568 0.042969
0.339355 0.188751 0.04538
0.368958 0.189301 0.047516
0.398804 0.18985 0.049347
0.428802 0.190704 0.051605
0.458923 0.191223 0.053284
0.488464 0.192017 0.055206
0.517181 0.193115 0.055939
0.54483 0.19397 0.057587
0.571686 0.19519 0.05838
0.597351 0.196014 0.058838
0.621582 0.197327 0.05954
0.644745 0.198181 0.059937
0.666351 0.199585 0.060394
0.686951 0.200592 0.060608
0.706024 0.201782 0.060852
0.723633 0.202515 0.061279
0.739777 0.203522 0.061096
0.754547 0.20462 0.061432
0.767822 0.205231 0.061523
0.779449 0.205963 0.061768
0.78952 0.206726 0.061646
0.031372 0.234436 0.039459
0.065247 0.234863 0.040283
0.098083 0.234253 0.038727
0.128082 0.234131 0.038116
0.156342 0.234406 0.038269
0.184265 0.234863 0.038116
0.212036 0.235291 0.0383
0.221527 0.217133 0.036713
0.251251 0.21698 0.03952
0.280914 0.21698 0.042755
0.310303 0.217285 0.04538
0.340088 0.217377 0.047821
0.370239 0.217621 0.050385
0.400177 0.218262 0.052399
0.430389 0.218628 0.054657
0.460632 0.219147 0.056458
0.490417 0.21991 0.058685
0.519348 0.220673 0.059723
0.54718 0.221344 0.061218
0.574219 0.22226 0.062378
0.599915 0.223206 0.06366
0.624573 0.22406 0.064392
0.647949 0.224945 0.06546
0.669952 0.2258 0.065491
0.690613 0.226562 0.066284
0.709869 0.227539 0.067352
0.727661 0.228424 0.067291
0.743835 0.229309 0.067963
0.758728 0.230103 0.067963
0.772003 0.230713 0.068207
0.783722 0.231232 0.068848
0.794128 0.231964 0.06842
0.033203 0.266724 0.0466
0.066376 0.267487 0.047577
0.100952 0.266052 0.045563
0.131989 0.265472 0.044037
0.16098 0.265411 0.043976
0.189026 0.265808 0.04361
0.216736 0.266235 0.043762
0.244202 0.266815 0.043854
0.251862 0.246033 0.041992
0.281677 0.245972 0.044586
0.311157 0.246063 0.047882
0.341187 0.246063 0.050537
0.371185 0.246307 0.052734
0.401367 0.246582 0.055145
0.431641 0.247101 0.057129
0.462219 0.247528 0.059418
0.492157 0.247925 0.061493
0.521118 0.248627 0.062592
0.549255 0.249084 0.064575
0.576324 0.25 0.06601
0.602295 0.25058 0.0672
0.627106 0.251221 0.068909
0.650543 0.252136 0.069794
0.672882 0.252838 0.070526
0.693542 0.253571 0.071106
0.712891 0.254456 0.072113
0.730774 0.254974 0.072937
0.747284 0.255768 0.072998
0.762207 0.256439 0.073761
0.775635 0.256958 0.07373
0.787354 0.257599 0.074188
0.797729 0.257904 0.07431
0.035858 0.299225 0.054291
0.068573 0.299713 0.054443
0.104797 0.297852 0.051086
0.136169 0.297028 0.049652
0.165314 0.296875 0.049316
0.193573 0.296997 0.049347
0.221405 0.297424 0.048737
0.249298 0.297821 0.049347
0.276917 0.298553 0.049377
0.281769 0.275177 0.047119
0.311951 0.275085 0.049713
0.341797 0.275116 0.052856
0.371918 0.27533 0.054626
0.402344 0.27536 0.057739
0.432983 0.275604 0.059509
0.46347 0.276123 0.061951
0.493439 0.276489 0.064117
0.522766 0.276825 0.065857
0.550995 0.277374 0.067932
0.578217 0.277863 0.069336
0.604279 0.278564 0.070557
0.629211 0.279144 0.072113
0.652771 0.279724 0.072998
0.67511 0.280579 0.074432
0.696136 0.281097 0.075867
0.715576 0.281677 0.076263
0.733521 0.282227 0.077179
0.750061 0.282867 0.077759
0.765137 0.283356 0.078796
0.778564 0.283875 0.079132
0.790619 0.284271 0.079529
0.800964 0.284821 0.079498
0.038147 0.33197 0.06076
0.071228 0.332123 0.06073
0.107788 0.330048 0.057587
0.139923 0.328949 0.055603
0.169434 0.328674 0.054962
0.198151 0.328583 0.054077
0.226105 0.328796 0.054382
0.254059 0.329224 0.054382
0.281769 0.32962 0.054352
0.309753 0.330353 0.054504
0.312134 0.304535 0.052338
0.342438 0.304382 0.054688
0.372833 0.304474 0.056976
0.403107 0.304474 0.060333
0.433868 0.304657 0.062408
0.464447 0.304993 0.064453
0.49472 0.305206 0.066895
0.524231 0.305481 0.068268
0.552338 0.306061 0.070312
0.579834 0.30658 0.072113
0.605988 0.306976 0.073547
0.631073 0.307434 0.075409
0.654755 0.307953 0.076569
0.677155 0.308533 0.077911
0.698273 0.309082 0.079224
0.717804 0.309631 0.079926
0.735992 0.310089 0.080811
0.752625 0.310516 0.082153
0.767761 0.311157 0.082275
0.781342 0.311584 0.083252
0.793274 0.311951 0.083679
0.803772 0.312225 0.084106
0.042297 0.364563 0.06662
0.072144 0.365417 0.067688
0.110474 0.36264 0.063934
0.142944 0.361298 0.061554
0.172882 0.36084 0.061005
0.202545 0.360443 0.059723
0.230591 0.360565 0.059662
0.258698 0.36087 0.059387
0.286652 0.361206 0.059265
0.314362 0.361725 0.059143
0.342316 0.362549 0.059052
0.342926 0.333832 0.057678
0.373322 0.333893 0.059448
0.403717 0.333954 0.062195
0.434723 0.333984 0.064514
0.465546 0.334045 0.067474
0.49588 0.334259 0.069122
0.525208 0.334839 0.070953
0.553802 0.335022 0.072998
0.581268 0.335449 0.075226
0.607513 0.335724 0.076538
0.632721 0.33606 0.078583
0.656464 0.3367 0.079865
0.679016 0.337128 0.081055
0.700165 0.337524 0.082428
0.719788 0.337982 0.083649
0.738007 0.338409 0.08432
0.75473 0.338898 0.085724
0.769958 0.339233 0.086029
0.783539 0.339661 0.086792
0.795624 0.339935 0.087372
0.806183 0.34024 0.087982
0.046387 0.397064 0.072998
0.072968 0.398926 0.07489
0.112335 0.395874 0.070801
0.14621 0.394012 0.067749
0.17688 0.393158 0.066345
0.206451 0.392761 0.065399
0.234863 0.3927 0.065002
0.263428 0.3927 0.064728
0.291321 0.393158 0.064362
0.319397 0.393646 0.064697
0.347351 0.394257 0.064392
0.373962 0.393311 0.064178
0.373749 0.363617 0.062256
0.40451 0.363617 0.064178
0.435303 0.363678 0.067108
0.466187 0.363831 0.06955
0.496735 0.363739 0.07193
0.526276 0.364258 0.073486
0.55481 0.36441 0.075775
0.582397 0.364716 0.077728
0.608917 0.365112 0.079071
0.634186 0.365417 0.080719
0.65802 0.365631 0.08252
0.680695 0.366089 0.08371
0.701874 0.366577 0.085266
0.721558 0.366821 0.08667
0.739899 0.367157 0.087677
0.756744 0.367432 0.088715
0.771912 0.367798 0.089569
0.785583 0.368042 0.090515
0.797821 0.368622 0.091309
0.808319 0.368927 0.091583
0.050446 0.430084 0.078461
0.070251 0.433838 0.083557
0.112946 0.429718 0.07785
0.149414 0.427032 0.073669
0.180786 0.425842 0.072327
0.210327 0.425323 0.071106
0.23941 0.425171 0.070099
0.267853 0.425232 0.070038
0.296082 0.425446 0.06955
0.324158 0.425751 0.06958
0.352264 0.426147 0.069794
0.380402 0.426971 0.069641
0.405182 0.423584 0.069092
0.404877 0.393829 0.066956
0.435944 0.393768 0.069122
0.466858 0.39389 0.071411
0.497406 0.393921 0.073822
0.527069 0.394073 0.075775
0.555847 0.394196 0.078186
0.583588 0.394348 0.079834
0.609955 0.394592 0.081543
0.635345 0.394806 0.083466
0.659485 0.395081 0.085388
0.682159 0.395691 0.086731
0.703369 0.395844 0.087982
0.723083 0.396149 0.089844
0.741547 0.396484 0.090454
0.758453 0.396729 0.091766
0.773743 0.396973 0.092773
0.787354 0.397278 0.093842
0.799683 0.397491 0.09433
0.810181 0.397827 0.094757
0.054718 0.463501 0.084717
0.068695 0.468719 0.091553
0.11377 0.463928 0.084625
0.151215 0.460724 0.080963
0.183868 0.45929 0.078033
0.214325 0.458405 0.076385
0.24353 0.458008 0.076111
0.27243 0.457916 0.075348
0.30069 0.458038 0.075104
0.32901 0.458313 0.074493
0.357117 0.45874 0.07428
0.385651 0.45929 0.074158
0.413879 0.45993 0.074432
0.436554 0.454224 0.074158
0.436371 0.424011 0.071259
0.467529 0.424011 0.074005
0.498199 0.423981 0.076477
0.528076 0.424133 0.078247
0.556671 0.424103 0.080811
0.584442 0.42453 0.082428
0.611084 0.424622 0.084412
0.636444 0.424927 0.086334
0.660431 0.42511 0.08783
0.683197 0.425446 0.089386
0.704559 0.425507 0.091156
0.72464 0.425842 0.092102
0.742859 0.426086 0.093292
0.759918 0.426239 0.094818
0.775299 0.426605 0.095795
0.789062 0.426849 0.096252
0.801178 0.427032 0.097687
0.81189 0.427399 0.09787
0.058624 0.496887 0.090393
0.068054 0.503387 0.099335
0.113037 0.498718 0.093109
0.153076 0.494781 0.08725
0.186768 0.492767 0.084534
0.217773 0.491852 0.082611
0.247711 0.491028 0.081604
0.27655 0.490875 0.080536
0.30542 0.490784 0.079987
0.333588 0.491028 0.080322
0.362 0.491364 0.079498
0.390503 0.491882 0.079742
0.419067 0.492432 0.07962
0.447754 0.493042 0.079468
0.46817 0.484894 0.078827
0.467957 0.45459 0.076355
0.498566 0.454559 0.078827
0.528564 0.454498 0.080872
0.557404 0.454651 0.082367
0.585266 0.454712 0.084839
0.611938 0.454803 0.086609
0.637451 0.454987 0.088715
0.661652 0.455231 0.090363
0.684479 0.455536 0.092133
0.705902 0.455658 0.093353
0.725647 0.455841 0.095032
0.744232 0.456116 0.095917
0.761169 0.456329 0.097717
0.776611 0.456421 0.098267
0.790588 0.456726 0.099213
0.802734 0.456848 0.100189
0.813477 0.456909 0.10083
0.062439 0.529907 0.096893
0.071991 0.536407 0.105286
0.110657 0.533691 0.100769
0.154968 0.52829 0.094269
0.18927 0.526093 0.090424
0.221191 0.524597 0.088837
0.251404 0.523834 0.087219
0.280914 0.523376 0.086365
0.30954 0.523254 0.085846
0.338165 0.523315 0.085144
0.366638 0.523773 0.084778
0.39502 0.524139 0.084778
0.423828 0.524597 0.084259
0.452637 0.525085 0.084442
0.48175 0.525909 0.084259
0.499268 0.514526 0.083221
0.498993 0.48468 0.081024
0.529022 0.484558 0.083466
0.558075 0.48468 0.085052
0.585999 0.484589 0.087433
0.612823 0.484772 0.089142
0.638367 0.484863 0.090759
0.662476 0.484894 0.092896
0.685333 0.485046 0.094757
0.70697 0.485229 0.095917
0.726929 0.485474 0.097534
0.745392 0.485748 0.099121
0.762512 0.485962 0.100006
0.777893 0.486145 0.101196
0.791718 0.486237 0.102081
0.804108 0.486328 0.102814
0.814819 0.486481 0.103638
0.066498 0.562134 0.101929
0.075562 0.568512 0.110596
0.10849 0.567657 0.10907
0.155365 0.561554 0.100769
0.191589 0.558472 0.096863
0.224365 0.556732 0.094086
0.255005 0.555908 0.092285
0.284393 0.555267 0.091644
0.313599 0.555054 0.090576
0.342438 0.554993 0.090027
0.371124 0.555115 0.089874
0.399994 0.555573 0.089294
0.42868 0.556 0.089111
0.457642 0.556427 0.089081
0.486603 0.556976 0.089294
0.515533 0.5578 0.089203
0.529724 0.543121 0.087616
0.529266 0.514069 0.085388
0.558472 0.514008 0.087372
0.586487 0.514008 0.089691
0.613403 0.514069 0.091278
0.639008 0.514099 0.093079
0.663361 0.51416 0.095245
0.68631 0.514313 0.096802
0.707794 0.514404 0.098145
0.727966 0.514557 0.09967
0.746368 0.514557 0.101074
0.763428 0.514923 0.102386
0.779053 0.514954 0.103516
0.792938 0.515076 0.10437
0.805389 0.515167 0.105194
0.815887 0.515442 0.105896
0.070038 0.593292 0.107788
0.079071 0.59964 0.116028
0.104767 0.601074 0.11792
0.155701 0.593597 0.107452
0.193451 0.590088 0.103058
0.226959 0.588135 0.099976
0.257874 0.586884 0.098206
0.287933 0.586273 0.096863
0.317657 0.585846 0.095673
0.346619 0.585754 0.094818
0.375366 0.585846 0.094513
0.404175 0.58606 0.09433
0.433075 0.586304 0.094299
0.462006 0.586761 0.094086
0.491119 0.587402 0.093872
0.520447 0.588013 0.093353
0.549042 0.588715 0.093323
0.559113 0.570679 0.091827
0.558838 0.542419 0.089691
0.587158 0.542389 0.091736
0.613861 0.542358 0.093781
0.63974 0.542389 0.095306
0.66394 0.54245 0.097595
0.686981 0.542542 0.099243
0.708557 0.542633 0.100342
0.728729 0.542603 0.102173
0.747314 0.542816 0.103638
0.764465 0.542908 0.104645
0.779877 0.54306 0.105988
0.793945 0.54306 0.106567
0.806244 0.543182 0.107574
0.817017 0.543274 0.108521
0.073517 0.623413 0.113007
0.082397 0.629669 0.121582
0.099792 0.633698 0.126648
0.154999 0.625031 0.115082
0.195007 0.62088 0.108795
0.229584 0.618439 0.106049
0.261139 0.617096 0.103577
0.291595 0.61615 0.102325
0.321014 0.615723 0.100952
0.350281 0.61554 0.099976
0.379456 0.615448 0.099518
0.408386 0.615601 0.099487
0.437347 0.615875 0.098694
0.466309 0.616425 0.09845
0.495758 0.616821 0.098358
0.524872 0.617371 0.097931
0.55365 0.61795 0.09787
0.581604 0.618805 0.097656
0.587677 0.597382 0.095581
0.587402 0.569946 0.093933
0.614319 0.569885 0.095886
0.640167 0.569855 0.097351
0.664551 0.569855 0.099426
0.6875 0.569977 0.101227
0.70932 0.569977 0.102753
0.729401 0.570129 0.104431
0.748047 0.57016 0.105896
0.765228 0.570312 0.106689
0.780823 0.570312 0.108032
0.794769 0.570312 0.108917
0.807251 0.570526 0.109894
0.817871 0.570587 0.110565
0.076752 0.652374 0.118317
0.085907 0.658661 0.126404
0.095398 0.664948 0.135162
0.153778 0.655396 0.121613
0.196167 0.65033 0.114929
0.231293 0.647705 0.111481
0.263824 0.646057 0.108765
0.294525 0.644958 0.10733
0.324646 0.644379 0.105682
0.353973 0.644104 0.10498
0.383026 0.644043 0.104004
0.412262 0.644104 0.103394
0.441467 0.644287 0.10321
0.47052 0.644592 0.102722
0.499756 0.644958 0.102936
0.529083 0.645599 0.102936
0.558014 0.646149 0.102661
0.585999 0.64679 0.101929
0.613068 0.647552 0.102081
0.615021 0.622559 0.099884
0.614746 0.596222 0.098022
0.640503 0.596191 0.099915
0.6651 0.596161 0.101562
0.688202 0.596222 0.103271
0.709808 0.596283 0.104736
0.730103 0.596313 0.106384
0.748871 0.596313 0.107727
0.766022 0.596283 0.109253
0.781555 0.596405 0.110168
0.795502 0.596466 0.111389
0.807922 0.596741 0.112335
0.818817 0.596893 0.112793
0.079834 0.680115 0.12384
0.088959 0.686401 0.131378
0.097748 0.692749 0.140198
0.152283 0.684509 0.129028
0.196564 0.678833 0.121277
0.232819 0.675751 0.116974
0.266174 0.673737 0.114197
0.297272 0.672699 0.112396
0.327576 0.671814 0.111084
0.357208 0.671478 0.109711
0.386536 0.671326 0.108704
0.415833 0.671326 0.108337
0.445221 0.671417 0.10788
0.474396 0.671692 0.107422
0.503845 0.671997 0.107422
0.533112 0.672607 0.107239
0.562134 0.673096 0.106873
0.590088 0.673706 0.106293
0.617279 0.674347 0.106293
0.641235 0.672852 0.105743
0.641052 0.646637 0.103729
0.640808 0.62146 0.102112
0.665436 0.621399 0.103302
0.688568 0.62146 0.105225
0.710236 0.621429 0.106934
0.730591 0.621399 0.108429
0.749298 0.62149 0.110016
0.76651 0.621521 0.110962
0.782104 0.621552 0.112213
0.796265 0.621613 0.113098
0.808594 0.621735 0.113892
0.819427 0.621826 0.114929
0.082977 0.706329 0.128632
0.091858 0.712708 0.136108
0.100586 0.719025 0.144836
0.148865 0.71286 0.136292
0.196411 0.706024 0.127563
0.234436 0.702423 0.12262
0.267944 0.700378 0.119476
0.299591 0.698883 0.117401
0.330475 0.69812 0.115356
0.360443 0.697571 0.114624
0.389984 0.697235 0.113495
0.419464 0.697113 0.11261
0.448486 0.697418 0.111755
0.478027 0.69754 0.112091
0.507385 0.697815 0.11145
0.536957 0.698242 0.111145
0.565948 0.69873 0.110748
0.593933 0.699402 0.110596
0.621246 0.699982 0.110077
0.64743 0.700562 0.110046
0.666046 0.694458 0.109497
0.665955 0.669525 0.107391
0.665649 0.64563 0.105377
0.688934 0.64566 0.107086
0.710693 0.645538 0.108643
0.731018 0.645569 0.109955
0.749756 0.645599 0.11142
0.766937 0.645569 0.11319
0.782806 0.64563 0.114105
0.796783 0.645691 0.115234
0.809326 0.645752 0.115906
0.820099 0.645691 0.116608
0.085938 0.731201 0.132996
0.094635 0.737549 0.140808
0.103302 0.743835 0.1492
0.145447 0.739716 0.143494
0.196777 0.731812 0.133148
0.235626 0.727875 0.127716
0.27002 0.725403 0.124146
0.302307 0.723755 0.121765
0.333069 0.72287 0.120087
0.363281 0.72229 0.118591
0.392822 0.721832 0.117859
0.422546 0.72168 0.116669
0.451965 0.721649 0.116455
0.481415 0.721802 0.116028
0.510986 0.722198 0.115356
0.540558 0.722565 0.115356
0.56958 0.723053 0.114746
0.597626 0.723541 0.11441
0.625 0.724182 0.114227
0.651459 0.724762 0.113678
0.676544 0.725433 0.113251
0.689606 0.71463 0.112427
0.689362 0.690765 0.110596
0.689087 0.668121 0.108917
0.71109 0.668152 0.110168
0.731293 0.668121 0.112335
0.750183 0.66806 0.113464
0.767365 0.668121 0.114929
0.783203 0.668121 0.115662
0.79718 0.668152 0.116608
0.809723 0.668213 0.117798
0.820648 0.668152 0.118652
0.088623 0.7547 0.137146
0.09726 0.760895 0.144958
0.105927 0.767151 0.15329
0.13916 0.765991 0.15094
0.195892 0.756287 0.138519
0.236603 0.751709 0.132843
0.271759 0.749084 0.128815
0.303955 0.747375 0.12616
0.335449 0.746155 0.124084
0.365723 0.745483 0.123108
0.395721 0.745117 0.121613
0.425354 0.744873 0.120819
0.455017 0.74469 0.120087
0.484589 0.744873 0.119537
0.514252 0.745148 0.119049
0.543854 0.745453 0.118896
0.572815 0.745819 0.118347
0.601105 0.746368 0.11792
0.628418 0.746948 0.118073
0.654724 0.747528 0.117432
0.680023 0.748047 0.117371
0.704102 0.74884 0.116608
0.7117 0.733246 0.115509
0.711517 0.710846 0.113678
0.711365 0.689484 0.111908
0.731781 0.689362 0.1138
0.75058 0.689301 0.115143
0.767944 0.689362 0.11618
0.783508 0.689514 0.117554
0.797821 0.689423 0.118408
0.810181 0.689362 0.119476
0.821106 0.689484 0.120056
0.091156 0.77652 0.140991
0.099731 0.782806 0.149048
0.108307 0.788971 0.157471
0.134003 0.79007 0.158325
0.195312 0.779114 0.143951
0.237244 0.774139 0.136963
0.273041 0.771118 0.132935
0.305969 0.769318 0.130432
0.337494 0.768127 0.128235
0.368195 0.767151 0.126373
0.398346 0.766663 0.125366
0.428131 0.766418 0.124237
0.457825 0.766296 0.123657
0.487366 0.766357 0.123505
0.517181 0.766541 0.122681
0.546844 0.766785 0.122498
0.575958 0.767181 0.121857
0.604248 0.767761 0.121521
0.63147 0.76828 0.121155
0.658051 0.768707 0.12088
0.683258 0.769379 0.120728
0.707367 0.769928 0.120544
0.730316 0.770508 0.120148
