site/assets/luts/freshluts--0001652-zona-colonial.cube
# LUTr-Schema-Version: 2
# LUTr-ID: freshluts--0001652-zona-colonial
# LUTr-Title: ZONA COLONIAL
# LUTr-Collection: Fresh LUTs
# LUTr-Collection-ID: freshluts-community
# LUTr-Source: https://freshluts.com
# LUTr-Retrieved: 2026-07-27
# LUTr-Source-File: submissions-raw/freshluts/cubes/1652__RD_FX_3_LUT.cube
# LUTr-Source-Format: CUBE
# LUTr-Source-SHA256: f7621f5838169f4df7ce1ab958179734b3f78b7dac0acbafd14d5461845b1c7d
# LUTr-License: CC0-1.0
# LUTr-License-URL: https://freshluts.com/termsandconditions
# LUTr-License-Basis: site-terms
# LUTr-Transform-Class: creative-look
# LUTr-Tags: creative, freshluts, community, cube, orange, sony-s-log3
# LUTr-Input-Color-Space:
# LUTr-Input-Gamut: sony-s-gamut3
# LUTr-Input-Transfer: sony-s-log3
# LUTr-Output-Color-Space: srgb
# LUTr-Output-Gamut: rec709
# LUTr-Output-Transfer: srgb
# LUTr-Color-Space-Confidence: camera-profile-input-required
# LUTr-Domain-Normalized: true
# LUTr-Shaper: none
# LUTr-Original-Grid: 33x33x33
# LUTr-Conversion-Grid: 33x33x33
# LUTr-Conversion-Interpolation: none
# LUTr-Conversion-Method: Metadata normalization; numeric LUT samples preserved
# LUTr-Conversion-Tool: LUTr scripts/convert-all-to-cube.mjs 2.0.0
# LUTr-Conversion-Date: 2026-07-28
# LUTr-Asset-URL: https://freshluts.com/luts/1652
# LUTr-Author: Antony Eliezer
# LUTr-Author-URL: https://freshluts.com/users/32961
# LUTr-Attribution: Antony Eliezer via Fresh LUTs
# LUTr-Source-Labels: gamma=Sony S-Log 3; color=Orange; key=Neutral; style=NEUTRAL
# LUTr-Note: Preserve this metadata and the upstream license notices when redistributing.
# LUTr-Upstream-Comment: VEGAS Pro LUT
TITLE "ZONA COLONIAL"
LUT_3D_SIZE 33
DOMAIN_MIN 0 0 0
DOMAIN_MAX 1 1 1
-0.00672971 -0.0494558 0.06122192
-0.00300868 -0.05116471 0.05954387
0.00080482 -0.05188497 0.05906834
0.00376291 -0.05243364 0.0586693
0.03024547 -0.05613197 0.05501556
0.05201393 -0.05914958 0.05197375
0.08830707 -0.06347087 0.0473439
0.1380578 -0.0679765 0.04052065
0.17682435 -0.07270395 0.0345795
0.21596313 -0.07617526 0.0289723
0.26658779 -0.07852223 0.02073279
0.32703361 -0.08038349 0.00908764
0.39239347 -0.08334368 -0.00420424
0.46126479 -0.08768666 -0.01712729
0.53455281 -0.09141774 -0.02805196
0.61351299 -0.09498388 -0.03475138
0.70172918 -0.1018694 -0.03651032
0.79100686 -0.10785515 -0.03657199
0.87769204 -0.11224564 -0.03558204
0.96222615 -0.1142204 -0.03585836
1.0460889 -0.11317098 -0.04055383
1.1144453 -0.11200889 -0.04457007
1.1481224 -0.11337472 -0.0461209
1.1696366 -0.11582834 -0.04674208
1.1926811 -0.11842512 -0.04744733
1.2456248 -0.12419349 -0.05129676
1.3300448 -0.13391988 -0.05894491
1.3689514 -0.13339378 -0.05742999
1.3792907 -0.13013989 -0.05312188
1.3859664 -0.12543361 -0.04756805
1.3898046 -0.11973877 -0.04105275
1.3907088 -0.11741734 -0.03815133
1.3943963 -0.0971652 -0.02148641
-0.06789545 -0.04606147 0.06598449
-0.00713366 -0.05154895 0.06000889
-0.00235505 -0.0523214 0.05940702
0.00145065 -0.05291335 0.0589169
0.02864595 -0.05665942 0.05521018
0.05098066 -0.05973072 0.05214667
0.08797463 -0.06394966 0.04732691
0.14002013 -0.06829592 0.04007566
0.1814104 -0.07296941 0.03364253
0.22038025 -0.07650952 0.02793917
0.26987728 -0.07988712 0.0204259
0.33017951 -0.08357526 0.009612
0.39515227 -0.08691654 -0.00354856
0.46285594 -0.0897647 -0.01677606
0.53494161 -0.09214819 -0.02788551
0.61334139 -0.09528457 -0.03459097
0.70142782 -0.1020804 -0.03634977
0.79066712 -0.1080424 -0.03637623
0.87732893 -0.11242469 -0.03531346
0.96184283 -0.11437564 -0.03556021
1.045688 -0.11329421 -0.04027418
1.1140706 -0.11211988 -0.04431506
1.1478419 -0.11349226 -0.04589752
1.169446 -0.11594855 -0.04655394
1.1925262 -0.11853268 -0.04729012
1.2452537 -0.12417211 -0.05136543
1.3292568 -0.1336707 -0.05944506
1.3683611 -0.13319607 -0.05829173
1.378853 -0.12998417 -0.05404721
1.3856461 -0.12530762 -0.04856646
1.3895761 -0.11962994 -0.04215356
1.3905127 -0.11729304 -0.03934308
1.394274 -0.09705508 -0.0227187
-0.06934633 -0.04531161 0.06496532
-0.00859516 -0.05079827 0.05897626
-0.0037873 -0.05160053 0.05838922
0.00007959 -0.05224984 0.05793637
0.02735599 -0.05607653 0.05428686
0.04978489 -0.05924375 0.05129873
0.08688946 -0.06357421 0.04656771
0.14066724 -0.06787024 0.03904152
0.18522482 -0.07249908 0.03207191
0.22512884 -0.07629666 0.02640162
0.27340791 -0.08006069 0.01950736
0.33314034 -0.08502885 0.00957659
0.39842388 -0.09035517 -0.00287378
0.4656752 -0.09338764 -0.01608708
0.53635097 -0.09421531 -0.02750258
0.61376053 -0.09635297 -0.03431977
0.70149094 -0.10290154 -0.03607402
0.79059726 -0.10872028 -0.03611187
0.87719923 -0.11300828 -0.03502568
0.96165854 -0.11489236 -0.03521562
1.0454555 -0.11375614 -0.03991448
1.1138561 -0.11252942 -0.04399024
1.1477183 -0.11384378 -0.04562461
1.1693702 -0.11621099 -0.04633893
1.1924309 -0.11865837 -0.04713969
1.2447267 -0.12378144 -0.05161326
1.3279291 -0.13239574 -0.0604395
1.3675946 -0.13173701 -0.06005541
1.3785178 -0.12838432 -0.05608544
1.3857449 -0.12353212 -0.05088269
1.3900958 -0.11767522 -0.04469718
1.3912835 -0.11511369 -0.04198636
1.3954297 -0.09479098 -0.0252653
-0.07169936 -0.04109745 0.06297401
-0.01092168 -0.04636418 0.05699055
-0.0061069 -0.04698312 0.05640506
-0.00226082 -0.04747828 0.05593905
0.02495871 -0.05115787 0.05224359
0.0472686 -0.05414371 0.04915001
0.08420129 -0.05825348 0.04425652
0.13843063 -0.06231123 0.03648156
0.18543854 -0.06716974 0.02952348
0.22802523 -0.07175401 0.02428488
0.27622503 -0.07594285 0.01764239
0.33467853 -0.08082733 0.00770253
0.39997318 -0.08707339 -0.00442273
0.46790332 -0.09196477 -0.01710996
0.54247379 -0.09389701 -0.02880917
0.6069327 -0.09224439 -0.03545558
0.69887239 -0.09898536 -0.03770266
0.78836042 -0.10467079 -0.03785418
0.87540549 -0.10896681 -0.03679956
0.96023268 -0.11087692 -0.03694416
1.0443399 -0.10977571 -0.04159549
1.1130376 -0.10860731 -0.04565431
1.1471643 -0.11000016 -0.0472784
1.1689923 -0.112464 -0.04796254
1.1921669 -0.11504524 -0.04870754
1.2447585 -0.12067223 -0.05261947
1.3284954 -0.13018741 -0.06040635
1.3685933 -0.13023162 -0.05946436
1.3795019 -0.12722389 -0.05531036
1.3866361 -0.12275685 -0.04982941
1.3908354 -0.11730264 -0.04329656
1.3918661 -0.11509672 -0.04032763
1.3956172 -0.0953634 -0.02334206
-0.07306068 -0.02816215 0.06018822
-0.01222005 -0.03417591 0.05445157
-0.00743756 -0.03500176 0.05392465
-0.00367175 -0.03565371 0.05350147
0.02503978 -0.03964848 0.04960921
0.0457523 -0.04288888 0.04687843
0.08252273 -0.04660422 0.04186687
0.13728279 -0.05069311 0.03385739
0.18459934 -0.05515585 0.02665717
0.2309304 -0.05963388 0.02048273
0.27949187 -0.0631244 0.0130299
0.33518159 -0.06758079 0.00292898
0.39774385 -0.07345107 -0.00894394
0.46442065 -0.07917467 -0.02109286
0.53528786 -0.08267781 -0.03177658
0.61010516 -0.08415695 -0.03864632
0.69610852 -0.08947784 -0.04079046
0.78547895 -0.09521017 -0.04100452
0.87335902 -0.09984062 -0.03984719
0.95918506 -0.10174506 -0.03992357
1.0437472 -0.10087705 -0.04491727
1.1129583 -0.09965003 -0.04928235
1.1458197 -0.1011059 -0.05081824
1.1678826 -0.10357108 -0.05146719
1.1910467 -0.10594326 -0.05223101
1.2436603 -0.11122195 -0.05577869
1.3277199 -0.11998715 -0.06297249
1.3704276 -0.12072492 -0.062553
1.382284 -0.1180608 -0.05863643
1.3902206 -0.11391015 -0.05328112
1.3951434 -0.10845001 -0.04694132
1.3964411 -0.10614054 -0.04412303
1.4005954 -0.08689025 -0.02674256
-0.07785244 -0.00558132 0.05429725
-0.01687269 -0.01190448 0.04859689
-0.01205739 -0.01270842 0.0480355
-0.00822538 -0.01337458 0.04760005
0.02040387 -0.01757584 0.04381442
0.04230564 -0.02092627 0.04097413
0.08054178 -0.02536386 0.03612643
0.13567376 -0.02981821 0.02814037
0.18620008 -0.03318371 0.01996801
0.23720007 -0.03634663 0.01179027
0.28520393 -0.04037757 0.00392829
0.33656782 -0.04567871 -0.00536582
0.39581779 -0.05137176 -0.0166511
0.46136406 -0.0569082 -0.028602
0.53151846 -0.0610868 -0.03884915
0.60677385 -0.06485269 -0.04487757
0.69227874 -0.0711262 -0.04651035
0.78177607 -0.07696734 -0.04654709
0.87090987 -0.08261623 -0.04507147
0.95756376 -0.08546286 -0.04476987
1.0439107 -0.08492398 -0.04974731
1.1129363 -0.08427594 -0.05452845
1.1434936 -0.08617249 -0.05589461
1.165991 -0.08897417 -0.05635856
1.1896523 -0.09172039 -0.05693838
1.2421188 -0.09596257 -0.0607419
1.3257058 -0.10320249 -0.06834529
1.3720685 -0.10470346 -0.06948512
1.3854991 -0.10263996 -0.06595774
1.3947713 -0.09911606 -0.06080272
1.4008068 -0.09413953 -0.05450144
1.4024521 -0.09204913 -0.05161153
1.4074931 -0.07380493 -0.03347398
-0.08786195 0.03087669 0.04263815
-0.02663364 0.02395681 0.037102
-0.02181545 0.02318201 0.03651465
-0.01799351 0.02255322 0.03605119
0.01116697 0.01805618 0.03227402
0.0329233 0.01545317 0.0290912
0.07296206 0.0100984 0.0252488
0.13166966 0.00376953 0.01613369
0.18459752 0.00029961 0.00833644
0.23630752 -0.00496972 0.00120072
0.28465664 -0.01321778 -0.00580601
0.33251652 -0.01990282 -0.01409936
0.38938144 -0.02624006 -0.02468483
0.45374668 -0.0320433 -0.03637032
0.52296376 -0.03664288 -0.04645383
0.59903842 -0.04111589 -0.052437
0.68535137 -0.04894294 -0.05367797
0.77607471 -0.05554803 -0.05349749
0.86667955 -0.06090001 -0.05214123
0.95508099 -0.06418217 -0.05173879
1.0423191 -0.06401085 -0.05656765
1.1125827 -0.0636837 -0.06156171
1.1404877 -0.06624985 -0.06254722
1.1635381 -0.06940305 -0.0627555
1.1875278 -0.07242643 -0.06315653
1.2403064 -0.07622751 -0.06698893
1.323122 -0.08187307 -0.07481708
1.373002 -0.08439028 -0.07740519
1.3886416 -0.08349181 -0.07418095
1.3996686 -0.08080643 -0.06921884
1.4070256 -0.07667202 -0.06288827
1.40912 -0.07481851 -0.0599853
1.4153909 -0.05826166 -0.04085718
-0.10315286 0.0836229 0.02470951
-0.0414815 0.07558715 0.01956536
-0.03665065 0.07479025 0.01897647
-0.03286459 0.07414252 0.01851628
-0.00211577 0.06993566 0.01430631
0.02002384 0.06661406 0.01131854
0.05475499 0.0621612 0.00805365
0.10973396 0.05392282 0.00430581
0.17265816 0.04154368 -0.00637052
0.22528961 0.03317403 -0.01071769
0.27508113 0.02069374 -0.01514331
0.32249734 0.00836423 -0.02164627
0.37697503 -0.00122526 -0.03108653
0.44127092 -0.00800526 -0.04274623
0.51068002 -0.01295636 -0.05326903
0.58665258 -0.01769303 -0.05960705
0.67409766 -0.02651958 -0.06081039
0.7665329 -0.03405055 -0.06046438
0.8589595 -0.0399515 -0.05894073
0.95004189 -0.04375769 -0.05834021
1.040048 -0.04370903 -0.06312705
1.1132692 -0.04326445 -0.06830269
1.1376809 -0.04619384 -0.06900504
1.1613758 -0.04925333 -0.06912488
1.1859575 -0.05232942 -0.06934149
1.2386398 -0.05538077 -0.07322069
1.3206912 -0.05943334 -0.08120222
1.3731626 -0.0624674 -0.08497182
1.3911024 -0.06237382 -0.0823932
1.4040325 -0.06044382 -0.0778558
1.4130182 -0.05702695 -0.07169926
1.4156634 -0.05544614 -0.06879202
1.4239875 -0.04038114 -0.04908582
-0.11481534 0.1238886 0.01146348
-0.05285375 0.11531039 0.0065208
-0.04803142 0.11455691 0.00591049
-0.04424463 0.11400265 0.00540523
-0.01390815 0.10952118 0.0013676
0.00854234 0.106311 -0.00168
0.04052482 0.10060786 -0.0056597
0.08409303 0.09791286 -0.00956169
0.14341894 0.08560203 -0.01519697
0.21108785 0.06886565 -0.02487082
0.26149064 0.0601599 -0.02965002
0.31053936 0.04860084 -0.03390089
0.36616558 0.03468807 -0.04079853
0.42768937 0.0221612 -0.05063489
0.49642134 0.01561992 -0.06152347
0.57192451 0.01156888 -0.06870476
0.66079152 0.00273238 -0.07024702
0.75508279 -0.00514915 -0.07002559
0.85013282 -0.01109368 -0.06850892
0.94343281 -0.01478381 -0.06799387
1.0359799 -0.01470534 -0.07292091
1.1109866 -0.01413359 -0.07803132
1.1329677 -0.01737272 -0.07832551
1.1571885 -0.02027387 -0.07831124
1.1818864 -0.0231953 -0.07843409
1.2344284 -0.02591989 -0.08211823
1.3161051 -0.02923396 -0.0899488
1.3705536 -0.03275057 -0.0946107
1.3916261 -0.03397362 -0.09301361
1.4073981 -0.03314532 -0.08923409
1.4187647 -0.0304464 -0.08386256
1.4222873 -0.02912928 -0.08108464
1.4341935 -0.0160067 -0.06107534
-0.12784784 0.16824433 -0.00406681
-0.06539973 0.15922581 -0.00887119
-0.06038293 0.15842555 -0.00951559
-0.05636432 0.15778051 -0.01004108
-0.02739402 0.15323962 -0.01379622
-0.00485014 0.15010823 -0.01689328
0.02761604 0.14424865 -0.02077451
0.05860467 0.1377946 -0.02397517
0.11183071 0.13561976 -0.03145347
0.179157 0.11715343 -0.03523431
0.24545334 0.09729296 -0.04467753
0.29673761 0.08699388 -0.05024192
0.35239258 0.07589914 -0.05609229
0.41942653 0.06011624 -0.0625417
0.48841488 0.04661456 -0.0693121
0.55947024 0.03629334 -0.0759612
0.65002358 0.02625732 -0.07785489
0.74713081 0.01770799 -0.07756106
0.84514225 0.01137019 -0.07593796
0.94186866 0.00781107 -0.0756819
1.0357131 0.00787062 -0.08064461
1.1084104 0.00819609 -0.08536977
1.1311486 0.00505991 -0.08549489
1.1556222 0.00224599 -0.08522061
1.1803455 -0.00048415 -0.08513111
1.2331932 -0.00332416 -0.08858893
1.31462 -0.00645368 -0.09624887
1.3692229 -0.01002613 -0.10096823
1.3924098 -0.01209213 -0.10020617
1.4098397 -0.0118338 -0.09703867
1.4227828 -0.00989391 -0.09178296
1.4268563 -0.00880822 -0.0891155
1.4413455 0.0027448 -0.06888627
-0.13836843 0.20312931 -0.01654955
-0.07564306 0.19370203 -0.02114263
-0.07063757 0.19289359 -0.02177597
-0.06656406 0.19222678 -0.02229746
-0.0392952 0.18836768 -0.02599312
-0.01666186 0.18507217 -0.02903598
0.01555937 0.17967963 -0.03299686
0.04587942 0.17341061 -0.03620203
0.08189454 0.17248428 -0.04358904
0.14331569 0.16285063 -0.0490315
0.21315727 0.13974796 -0.04908247
0.28091553 0.11895202 -0.06245352
0.34097227 0.10955508 -0.07239679
0.40772197 0.09977406 -0.08059409
0.48319224 0.08456738 -0.08467524
0.56037122 0.06981973 -0.0833821
0.64385921 0.05181759 -0.08504026
0.74119991 0.03987663 -0.08469167
0.84193325 0.03331805 -0.08314299
0.94242817 0.02997051 -0.0833893
1.039712 0.03044804 -0.08860436
1.1064084 0.03047249 -0.09274171
1.1296853 0.02750349 -0.09267373
1.1545588 0.02460054 -0.09215801
1.1793257 0.02188291 -0.09190677
1.2321696 0.01911537 -0.09519979
1.3135012 0.01595835 -0.10260986
1.3679029 0.01259976 -0.10720119
1.3926742 0.00991174 -0.10708918
1.4118071 0.0094458 -0.10439401
1.4261785 0.01082044 -0.09950136
1.4307466 0.01167086 -0.09692232
1.4477381 0.0217095 -0.076543
-0.1491909 0.2385027 -0.02928747
-0.08616663 0.22866087 -0.03367312
-0.08118064 0.22788227 -0.03430771
-0.0770777 0.22724228 -0.0348389
-0.05118755 0.22409138 -0.03855402
-0.02857362 0.22110547 -0.04171241
0.00350953 0.21595414 -0.04578891
0.03349182 0.21041922 -0.04921928
0.0626697 0.20609735 -0.05322953
0.1054269 0.20735195 -0.06572148
0.17441754 0.18968023 -0.06219845
0.24936593 0.16283366 -0.06544629
0.32619578 0.14347897 -0.08499878
0.40015393 0.13544464 -0.09988089
0.47644514 0.12788433 -0.1074007
0.56006873 0.11410538 -0.10661072
0.65407199 0.09382556 -0.09902602
0.74960381 0.0763495 -0.09416118
0.84471011 0.06006489 -0.0912854
0.94439113 0.05394647 -0.09183106
1.0437114 0.05464399 -0.09710751
1.1043485 0.05430158 -0.10094769
1.127825 0.05144027 -0.10078099
1.1527575 0.04860298 -0.10013686
1.1777464 0.04592462 -0.0997416
1.230526 0.04338308 -0.10289309
1.3117213 0.04082423 -0.11023856
1.3660618 0.03775269 -0.11471633
1.3917955 0.03479815 -0.11510901
1.4126689 0.03365754 -0.11312874
1.4286724 0.03437366 -0.1086771
1.4338141 0.0349803 -0.10622457
1.453779 0.04325756 -0.08578458
-0.16130437 0.27874318 -0.04342176
-0.09790205 0.26836497 -0.0475798
-0.09288441 0.26753417 -0.04817499
-0.08870498 0.26680902 -0.04865961
-0.0643499 0.26415095 -0.05223954
-0.04048498 0.26103204 -0.05555104
-0.00914091 0.25630695 -0.05965408
0.02043929 0.25121734 -0.06325153
0.0487975 0.24610075 -0.06654398
0.07757957 0.24368697 -0.07324915
0.12894578 0.24166316 -0.0855276
0.20881133 0.2176823 -0.07398167
0.29648954 0.19012563 -0.08892749
0.38871345 0.17172687 -0.1145451
0.47602016 0.16438589 -0.12532119
0.56374604 0.15655693 -0.12868176
0.66100115 0.14258881 -0.12700132
0.76235348 0.12294621 -0.11786275
0.85989749 0.10616986 -0.10956191
0.95607573 0.09246835 -0.10461085
1.0504659 0.08373475 -0.10594317
1.1006037 0.07710815 -0.10897055
1.1262553 0.07462632 -0.10906793
1.1513844 0.07182088 -0.10825438
1.176609 0.06915323 -0.10765919
1.2293771 0.06665754 -0.11061933
1.3105674 0.06420731 -0.11776441
1.3647558 0.06125122 -0.12210314
1.3909595 0.05813348 -0.12264663
1.4131602 0.05645899 -0.12121895
1.4304309 0.05669487 -0.11716238
1.4360553 0.05707376 -0.11481212
1.4586159 0.0636326 -0.09434672
-0.17378317 0.3195338 -0.05695662
-0.11001633 0.30855578 -0.06089786
-0.10500524 0.30770761 -0.06146084
-0.10083226 0.30696332 -0.06191048
-0.07668487 0.30447367 -0.0654776
-0.05244674 0.30169517 -0.06895912
-0.02190473 0.29761708 -0.07313833
0.00718122 0.29337677 -0.0769854
0.03549387 0.28904521 -0.08063459
0.061537 0.28317297 -0.08322267
0.08815654 0.28244302 -0.09317736
0.16048944 0.27519983 -0.10111772
0.25632301 0.25066921 -0.09393962
0.36366963 0.22013421 -0.12167554
0.4723663 0.20284601 -0.14251015
0.57646745 0.19375208 -0.14399438
0.67536169 0.1846641 -0.14671606
0.77234584 0.17538068 -0.14798021
0.8719641 0.16245279 -0.14290333
0.96937883 0.14638543 -0.13324888
1.0629656 0.13421012 -0.12777789
1.1095139 0.12189793 -0.12545399
1.1322253 0.11266002 -0.12263428
1.1553142 0.10518041 -0.11873354
1.1741017 0.09553258 -0.11704131
1.2221398 0.11598399 -0.12757234
1.2930078 0.15793449 -0.149078
1.3415534 0.1777959 -0.16028285
1.3672663 0.1756098 -0.16077709
1.3928431 0.17338397 -0.16141777
1.4173589 0.17136493 -0.16135439
1.4257669 0.17113829 -0.16047809
1.4648569 0.16992056 -0.14556649
-0.21572144 0.46227482 -0.1059732
-0.15365289 0.4510166 -0.10964451
-0.15070444 0.45030582 -0.10990155
-0.14905816 0.4495855 -0.10988913
-0.12908547 0.44799736 -0.11296412
-0.10684697 0.44569552 -0.11615247
-0.07992413 0.44229108 -0.11985773
-0.05437403 0.4385688 -0.12340617
-0.03013924 0.43532693 -0.12721007
-0.00613858 0.43154591 -0.13108192
0.01661963 0.42699775 -0.13430014
0.06315152 0.43242675 -0.15402552
0.17435028 0.41886425 -0.15622668
0.29337826 0.39533663 -0.16577579
0.42267025 0.35873571 -0.20013958
0.55355924 0.34156486 -0.20624053
0.67152578 0.33346954 -0.20731236
0.77024305 0.32872 -0.21229148
0.86885047 0.32345209 -0.2156526
0.96499264 0.31676045 -0.21576943
1.0587484 0.30196604 -0.20731074
1.1092848 0.2872555 -0.19997534
1.1305098 0.27316603 -0.19328146
1.1527353 0.26045614 -0.18573135
1.1731679 0.24794962 -0.18015502
1.2233048 0.23944387 -0.17712839
1.2996443 0.2301134 -0.17660788
1.3509028 0.22299337 -0.17619097
1.3762646 0.21789031 -0.17490086
1.4013556 0.21313742 -0.17411971
1.4248166 0.20937161 -0.17224319
1.4327904 0.20796683 -0.17051813
1.4712747 0.2058156 -0.15305789
-0.2298665 0.51093274 -0.12223878
-0.16756299 0.49941212 -0.12605657
-0.16459405 0.49858856 -0.12627643
-0.16292728 0.49777016 -0.12622863
-0.14324513 0.49702561 -0.12968925
-0.12006626 0.4950535 -0.13329077
-0.09365725 0.49243015 -0.13730355
-0.06836695 0.48948082 -0.14117157
-0.04392409 0.48646173 -0.14515968
-0.02038028 0.48329106 -0.14923118
0.00324047 0.47946355 -0.15312345
0.02789984 0.47625273 -0.15806217
0.10864773 0.48354024 -0.18622829
0.24563159 0.4607155 -0.18429175
0.38050303 0.43944865 -0.20455797
0.53310728 0.39449131 -0.23581083
0.67141122 0.37883341 -0.22935845
0.78493893 0.37600741 -0.23319925
0.88104808 0.37468353 -0.23916756
0.97532117 0.37741292 -0.24784285
1.0616511 0.37795901 -0.25431481
1.1171603 0.3694059 -0.25286776
1.1394783 0.35362402 -0.24463873
1.1633077 0.33876446 -0.23505637
1.1876649 0.32590985 -0.22611876
1.2381378 0.31360805 -0.22024022
1.3150243 0.30125183 -0.21776193
1.3665847 0.29211158 -0.21616608
1.3921645 0.28602192 -0.21395136
1.4151205 0.28148493 -0.21032558
1.4346566 0.27912155 -0.20450342
1.4415673 0.27834386 -0.20130397
1.4738996 0.2787495 -0.17588177
-0.24425215 0.56125122 -0.13723873
-0.18153496 0.5507732 -0.14230204
-0.17864384 0.55000591 -0.14255114
-0.17706822 0.54923773 -0.14253177
-0.15768465 0.54905021 -0.14609873
-0.13361609 0.54734182 -0.14999823
-0.10768191 0.54526967 -0.15419833
-0.08291319 0.54290551 -0.15826465
-0.05863416 0.54036552 -0.16251725
-0.03519386 0.53769225 -0.16686048
-0.01162184 0.53444672 -0.17121188
0.01192141 0.53004795 -0.17492686
0.04465067 0.53263617 -0.18922691
0.17596176 0.53400701 -0.21665581
0.33743027 0.51467264 -0.23539491
0.48515901 0.48878247 -0.2546373
0.65250117 0.44102222 -0.26700154
0.77861804 0.42861536 -0.26035053
0.88526416 0.42839256 -0.26430699
0.97927386 0.43406987 -0.27506146
1.0652518 0.44365445 -0.29024214
1.1213228 0.44439876 -0.29818246
1.1450639 0.43411121 -0.2951709
1.169748 0.42524657 -0.29239422
1.195124 0.41717863 -0.28765282
1.247063 0.40790552 -0.28483716
1.3262039 0.3975144 -0.2853581
1.374458 0.3915019 -0.27969635
1.3943774 0.38851559 -0.27131265
1.4114012 0.38706136 -0.2610701
1.4258138 0.38715887 -0.24924341
1.4306711 0.38729525 -0.24437217
1.4553934 0.39146957 -0.20807579
-0.25893286 0.61467624 -0.14744323
-0.19565408 0.60649049 -0.15512635
-0.19258992 0.60590434 -0.15550868
-0.19083109 0.60526073 -0.15561049
-0.17196313 0.60536873 -0.15892607
-0.14663385 0.60392338 -0.16302435
-0.12091251 0.60207516 -0.16716616
-0.096337 0.60019827 -0.17128423
-0.07231153 0.59803277 -0.17556828
-0.04888272 0.59575903 -0.18003733
-0.02559188 0.59298664 -0.1845843
-0.00183892 0.58976066 -0.1892079
0.02080818 0.58478969 -0.19260515
0.09537047 0.59411448 -0.22405237
0.26967692 0.58549672 -0.23867382
0.44829029 0.57760268 -0.28057671
0.60704625 0.54676187 -0.29394501
0.75802946 0.5033195 -0.29993558
0.87598449 0.49151871 -0.29871759
0.97805816 0.49561402 -0.30591473
1.0669528 0.50833142 -0.3247228
1.1248428 0.51072687 -0.33535799
1.1546055 0.50144446 -0.33393437
1.1798135 0.49426383 -0.33368707
1.2056346 0.48738381 -0.33131647
1.2591399 0.47829714 -0.32956621
1.3325623 0.47008759 -0.32228363
1.3703039 0.46707267 -0.30285141
1.3865035 0.46555528 -0.28941825
1.4002995 0.46567345 -0.27507854
1.4125707 0.46601909 -0.25978273
1.4162992 0.46622983 -0.25478441
1.4398313 0.4705855 -0.21501705
-0.27108359 0.66840661 -0.16062079
-0.20794095 0.66136706 -0.16966547
-0.20523645 0.66100568 -0.17009398
-0.20372352 0.66056424 -0.17023285
-0.18521215 0.66144097 -0.17424975
-0.15903075 0.66039121 -0.17905916
-0.13395225 0.65910774 -0.18356562
-0.1098594 0.6575886 -0.18796846
-0.08630708 0.65548331 -0.19228929
-0.06331199 0.652964 -0.19655468
-0.04043488 0.64978582 -0.20062804
-0.01694729 0.64564788 -0.20440446
0.00706158 0.64041638 -0.20759606
0.02764971 0.63326132 -0.20850098
0.18218485 0.65078068 -0.2601108
0.40167132 0.63396662 -0.26962876
0.63114488 0.63550127 -0.31619459
0.80261177 0.60392737 -0.32579589
0.9445371 0.56250364 -0.33361736
1.0573451 0.55194789 -0.34168461
1.1558662 0.562608 -0.35964915
1.1919352 0.56935042 -0.37205681
1.178344 0.56390953 -0.37283492
1.1828644 0.55739081 -0.37388119
1.2098095 0.55174428 -0.37573519
1.235787 0.54618031 -0.37157235
1.2595071 0.54249811 -0.36595386
1.314138 0.56290227 -0.34089202
1.3839492 0.56390905 -0.26292977
1.37919 0.53505367 -0.28042907
1.3907613 0.53419274 -0.26572001
1.3943175 0.53375059 -0.26127404
1.4214851 0.5360989 -0.22278963
-0.28691167 0.72596705 -0.18222634
-0.22409187 0.71882254 -0.19173734
-0.22164769 0.71793979 -0.19199941
-0.22024153 0.71704155 -0.19200788
-0.20097798 0.71814054 -0.19668168
-0.17480819 0.717646 -0.20204966
-0.15028811 0.71644509 -0.20772505
-0.12682588 0.71440983 -0.21385027
-0.10426408 0.7130307 -0.21958539
-0.08209715 0.71154141 -0.22460607
-0.06038468 0.7096616 -0.22903298
-0.03862121 0.70634067 -0.232914
-0.0171389 0.70224583 -0.23635888
0.00402075 0.69658315 -0.23880425
0.03542493 0.69892573 -0.25084049
0.27996311 0.69926059 -0.28055513
0.46591416 0.70052129 -0.31425521
0.62533027 0.70742333 -0.34328508
0.76076233 0.67741323 -0.3532235
0.88902968 0.63242882 -0.35789093
0.98998851 0.62192297 -0.36844662
1.0474678 0.63111752 -0.37962234
1.0758326 0.62443715 -0.38259691
1.0966978 0.61872673 -0.38478813
1.1171746 0.61401129 -0.38750237
1.1650039 0.60621572 -0.38986847
1.2334012 0.59741253 -0.38154757
1.2709522 0.59224761 -0.36582246
1.2870269 0.58895826 -0.35630551
1.3032042 0.58618951 -0.3450397
1.315156 0.58456349 -0.33553621
1.3184915 0.58414882 -0.33275077
1.3523113 0.58312917 -0.2958039
