site/assets/luts/freshluts--0000638-golden-time.cube
# LUTr-Schema-Version: 2
# LUTr-ID: freshluts--0000638-golden-time
# LUTr-Title: Golden Time
# LUTr-Collection: Fresh LUTs
# LUTr-Collection-ID: freshluts-community
# LUTr-Source: https://freshluts.com
# LUTr-Retrieved: 2026-07-27
# LUTr-Source-File: submissions-raw/freshluts/cubes/638__yangabuz_8.A040_02111302_S.cube
# LUTr-Source-Format: CUBE
# LUTr-Source-SHA256: 9d64783621633903aa35dd8d186a3f8698e2609f0cbe2de84484b682ab3f53e6
# LUTr-License: CC0-1.0
# LUTr-License-URL: https://freshluts.com/termsandconditions
# LUTr-License-Basis: site-terms
# LUTr-Transform-Class: creative-look
# LUTr-Tags: creative, freshluts, community, cube, vintage, warm, bmd-film-4k
# LUTr-Input-Color-Space:
# LUTr-Input-Gamut: bmd-film-gamut
# LUTr-Input-Transfer: bmd-film-4k
# LUTr-Output-Color-Space: srgb
# LUTr-Output-Gamut: rec709
# LUTr-Output-Transfer: srgb
# LUTr-Color-Space-Confidence: camera-profile-input-required
# LUTr-Domain-Normalized: true
# LUTr-Shaper: none
# LUTr-Original-Grid: 33x33x33
# LUTr-Conversion-Grid: 33x33x33
# LUTr-Conversion-Interpolation: none
# LUTr-Conversion-Method: Metadata normalization; numeric LUT samples preserved
# LUTr-Conversion-Tool: LUTr scripts/convert-all-to-cube.mjs 2.0.0
# LUTr-Conversion-Date: 2026-07-28
# LUTr-Asset-URL: https://freshluts.com/luts/638
# LUTr-Author: berat
# LUTr-Author-URL: https://freshluts.com/users/10185
# LUTr-Attribution: berat via Fresh LUTs
# LUTr-Source-Labels: gamma=Blackmagic BMD Film 4K; color=Warm; key=Neutral; style=Vintage
# LUTr-Note: Preserve this metadata and the upstream license notices when redistributing.
TITLE "Golden Time"
LUT_3D_SIZE 9
DOMAIN_MIN 0 0 0
DOMAIN_MAX 1 1 1
0 0 0
0.0408179 0.000335698 0.000335698
0.0917983 0 0
0.155077 0 0
0.220523 0 0
0.287938 0 0
0.356664 0 0
0.426764 0 0
0.497765 0 0
0.0000762951 0.0405585 0.0000762951
0.0404822 0.0404822 0
0.0917067 0.0379034 0
0.156237 0.0327459 0
0.224094 0.0282292 0
0.295369 0.0249638 0
0.368948 0.0230106 0
0.443214 0.0214694 0
0.517769 0.0202792 0
0 0.0867781 0
0.0358892 0.0896925 0
0.09131 0.09131 0
0.160601 0.0909285 0
0.232227 0.0901656 0
0.305562 0.0889448 0
0.379934 0.0878004 0
0.460151 0.0867323 0
0.555901 0.0871595 0
0 0.150958 0
0.0335241 0.157015 0
0.0905776 0.160266 0
0.160418 0.160418 0
0.234226 0.160128 0
0.333684 0.166613 0
0.46273 0.173358 0
0.608026 0.179339 0
0.737118 0.186892 0
0 0.222599 0
0.0319219 0.236362 0
0.0918746 0.254444 0
0.178912 0.274937 0.0000457771
0.299855 0.289967 0
0.447623 0.29839 0
0.593194 0.307881 0
0.720165 0.324346 0
0.820279 0.342092 0
0 0.373175 0
0.0303197 0.401236 0
0.0884871 0.426459 0
0.195346 0.445853 0
0.342321 0.457237 0
0.497139 0.467277 0
0.638926 0.48072 0
0.761532 0.498344 0.00567636
0.860761 0.514244 0.0164187
0 0.545785 0
0.0316472 0.572183 0
0.121584 0.598352 0
0.24358 0.617212 0.00256352
0.390448 0.627268 0.00874342
0.541741 0.63386 0.0128634
0.677226 0.641749 0.0179904
0.791714 0.652399 0.0252232
0.887755 0.661585 0.0316472
0.009308 0.70782 0
0.0873274 0.736507 0.0104372
0.17615 0.755688 0.026215
0.290669 0.763638 0.0339513
0.433173 0.773556 0.037583
0.577203 0.772381 0.0368505
0.70576 0.773342 0.0374762
0.813825 0.777752 0.0405737
0.903807 0.781765 0.0435035
0.0472725 0.815839 0.0159457
0.114794 0.82681 0.0302739
0.195438 0.835142 0.0405127
0.305455 0.842054 0.0448768
0.444541 0.851759 0.0457465
0.589212 0.861402 0.0453651
0.717311 0.868589 0.0458381
0.823316 0.872694 0.0475624
0.910491 0.874586 0.0489052
0.000015259 0.000015259 0.0404822
0.0409094 0.000442512 0.0409094
0.0917525 0 0.0379492
0.155001 0 0.0315251
0.220523 0 0.0246586
0.28809 0 0.0176699
0.357153 0 0.0112306
0.42768 0 0.00593576
0.499214 0 0.00267033
0.000030518 0.0405127 0.0405127
0.0404822 0.0404822 0.0404822
0.0919356 0.0381323 0.0381323
0.156893 0.033402 0.033402
0.22536 0.0294957 0.0294957
0.297078 0.0266575 0.0266575
0.370947 0.0250095 0.0250095
0.445258 0.0235142 0.0235142
0.520195 0.0222934 0.0222934
0 0.0874952 0.0336919
0.0372168 0.0910201 0.0372168
0.0932479 0.0932479 0.0394446
0.162631 0.092958 0.0391546
0.234302 0.0922408 0.0384375
0.307683 0.0910658 0.0372625
0.382116 0.0899825 0.0361791
0.465751 0.0889601 0.0351568
0.569848 0.090547 0.0343786
0 0.153002 0.0295109
0.0354925 0.158984 0.0354925
0.0927291 0.162417 0.0389258
0.1626 0.1626 0.0391241
0.23949 0.163638 0.038941
0.346258 0.172061 0.040528
0.482734 0.178759 0.0389258
0.631434 0.185351 0.0369573
0.753048 0.193927 0.0364233
0 0.226474 0.0279698
0.034165 0.242664 0.0363928
0.0952621 0.262959 0.043061
0.185061 0.284398 0.0433051
0.310262 0.298528 0.038941
0.460182 0.306783 0.038468
0.605509 0.317525 0.0381476
0.730938 0.33518 0.0380255
0.827115 0.35256 0.0468452
0 0.382788 0.025864
0.0326848 0.410925 0.0326848
0.0916304 0.4365 0.0369268
0.204883 0.45594 0.0378882
0.352911 0.467094 0.0381933
0.507897 0.477348 0.0404212
0.649012 0.491142 0.0480201
0.770626 0.508339 0.0596017
0.866667 0.523445 0.0703899
0 0.554498 0.0243534
0.0380407 0.58175 0.0317998
0.131868 0.609125 0.0449073
0.254536 0.627604 0.0567788
0.401236 0.636881 0.0629435
0.551659 0.64268 0.0668193
0.685542 0.649958 0.0718242
0.798733 0.659892 0.0788281
0.892546 0.668223 0.084947
0.0191501 0.718196 0.0444038
0.0964981 0.746059 0.0654154
0.183261 0.759976 0.0800183
0.2981 0.76788 0.0874952
0.440818 0.778317 0.0910201
0.584909 0.778592 0.0902876
0.712093 0.779126 0.0906691
0.819348 0.783322 0.0937057
0.907927 0.78677 0.0963455
0.0534829 0.819959 0.0694133
0.120485 0.830808 0.0835279
0.20087 0.839063 0.0935531
0.311452 0.845975 0.0975814
0.450767 0.855726 0.0982986
0.595163 0.865339 0.0977798
0.722103 0.872297 0.0981308
0.827649 0.876387 0.0999771
0.914046 0.878141 0.101213
0 0 0.0935073
0.0399481 0 0.0937514
0.0907301 0 0.0907301
0.153979 0 0.0843061
0.219577 0 0.0775158
0.287327 0 0.0707256
0.356847 0 0.0647135
0.42797 0 0.060029
0.499931 0 0.0571756
0 0.0395209 0.0933242
0.0372625 0.0372625 0.119615
0.09131 0.0375067 0.09131
0.156634 0.0331579 0.0869612
0.225788 0.0299229 0.0837262
0.298039 0.0276341 0.0814374
0.372015 0.0260929 0.0798962
0.446387 0.0246433 0.0784466
0.521706 0.0234073 0.0772106
0 0.0875257 0.0875257
0.00132753 0.101167 0.101167
0.0942855 0.0942855 0.0942855
0.163729 0.0940414 0.0940414
0.235355 0.0932937 0.0932937
0.308858 0.092256 0.092256
0.383383 0.0912032 0.0912032
0.47303 0.0903639 0.0902113
0.589837 0.093904 0.0915999
0 0.154055 0.0843671
0.0366522 0.160128 0.0904555
0.0939345 0.163622 0.0939345
0.163867 0.163867 0.0941787
0.24686 0.168414 0.0957809
0.361746 0.177279 0.0992905
0.504265 0.183444 0.0979934
0.653117 0.190555 0.093843
0.767269 0.199817 0.095079
0 0.230076 0.0833143
0.0354772 0.248676 0.0937514
0.0980697 0.272099 0.102388
0.191211 0.294041 0.10312
0.321141 0.30724 0.0966354
0.472908 0.315129 0.0937209
0.616464 0.32665 0.0938582
0.740551 0.344396 0.104219
0.833051 0.36173 0.117327
0 0.390433 0.0809186
0.0341192 0.419608 0.0879225
0.095491 0.446693 0.092195
0.214389 0.465309 0.0960555
0.363241 0.476829 0.102541
0.518196 0.487022 0.108965
0.658366 0.500557 0.118257
0.778958 0.517174 0.130327
0.871626 0.53109 0.140856
0 0.562966 0.0796521
0.0473793 0.591714 0.0962997
0.141192 0.618799 0.115038
0.263569 0.636286 0.127291
0.410224 0.645075 0.133623
0.559731 0.649927 0.137148
0.692363 0.656672 0.142
0.804486 0.665812 0.148806
0.896452 0.673442 0.154543
0.0277409 0.727153 0.114687
0.104326 0.754253 0.136309
0.189181 0.763577 0.150134
0.303899 0.771344 0.157336
0.446616 0.781842 0.160723
0.590723 0.783459 0.160052
0.716655 0.783398 0.159976
0.82356 0.787503 0.163088
0.911269 0.790585 0.165515
0.0584878 0.823316 0.138323
0.125017 0.834089 0.152712
0.205112 0.842298 0.16289
0.31603 0.849241 0.166842
0.455329 0.858991 0.167407
0.599542 0.868574 0.166735
0.725643 0.875334 0.166964
0.830961 0.879454 0.168887
0.917021 0.881148 0.170123
0 0 0.161242
0.0377508 0 0.161227
0.0885481 0 0.158221
0.151858 0 0.151858
0.217578 0 0.145205
0.285542 0 0.138613
0.355444 0 0.132998
0.427268 0 0.129
0.499779 0 0.126604
0 0.0374151 0.160906
0.0376745 0.0376745 0.161166
0.0897231 0.035935 0.159411
0.155489 0.0320134 0.155489
0.225071 0.029221 0.152697
0.297917 0.027512 0.150988
0.371954 0.0260319 0.149508
0.446372 0.0246281 0.148119
0.524208 0.0234531 0.146929
0 0.0867018 0.156374
0.0373846 0.0911879 0.160861
0.0877394 0.0877394 0.229313
0.163668 0.0939956 0.163668
0.235309 0.0932479 0.162921
0.308919 0.0923171 0.16199
0.386831 0.09131 0.160998
0.483299 0.0916457 0.161944
0.611307 0.0958114 0.167102
0 0.153994 0.153994
0.0366674 0.160159 0.160159
0.0467842 0.176196 0.176196
0.163958 0.163958 0.163958
0.254749 0.172915 0.170993
0.3776 0.181369 0.176349
0.524926 0.18703 0.177752
0.672236 0.194308 0.180514
0.779675 0.204288 0.187655
0 0.234852 0.15668
0.0359045 0.255451 0.170459
0.0996567 0.280934 0.180545
0.19617 0.302113 0.184588
0.330098 0.314229 0.183291
0.482994 0.321691 0.182391
0.624826 0.333852 0.190356
0.748837 0.351797 0.205035
0.838483 0.368765 0.219486
0 0.39913 0.158206
0.0344244 0.428046 0.168627
0.100435 0.454887 0.181323
0.222217 0.472801 0.193637
0.371328 0.484413 0.202258
0.526116 0.494453 0.209827
0.665415 0.507332 0.219913
0.785306 0.5234 0.232822
0.876081 0.536339 0.243519
0 0.570687 0.170779
0.0549477 0.599557 0.194232
0.148486 0.626261 0.216144
0.270436 0.643107 0.229541
0.416312 0.650965 0.236027
0.565072 0.6551 0.239322
0.696406 0.66067 0.243702
0.808087 0.66949 0.250813
0.899977 0.676493 0.25655
0.034226 0.733989 0.213092
0.109224 0.758144 0.236789
0.193256 0.767208 0.252018
0.307897 0.775082 0.259846
0.450248 0.785534 0.26331
0.593652 0.786145 0.26215
0.71899 0.785687 0.261707
0.825452 0.78938 0.264744
0.91429 0.792447 0.267323
0.0620737 0.826642 0.236271
0.12813 0.837491 0.25301
0.207645 0.845563 0.264485
0.318685 0.852689 0.269032
0.457877 0.862455 0.269718
0.601968 0.872053 0.269001
0.727825 0.878798 0.269154
0.83299 0.882887 0.271122
0.920638 0.884794 0.272618
0 0 0.231418
0.0354009 0 0.231266
0.0861524 0 0.228214
0.149554 0 0.221927
0.215396 0 0.215396
0.283757 0 0.209201
0.35407 0 0.204013
0.426368 0 0.200488
0.501869 0 0.198657
0 0.0350652 0.23093
0.0356146 0.0356146 0.231479
0.0880751 0.034287 0.230137
0.154467 0.0309758 0.226841
0.224506 0.0286412 0.224506
0.297627 0.0272068 0.223072
0.37171 0.0257877 0.221653
0.448066 0.0243076 0.220157
0.528405 0.0233158 0.219181
0 0.0857099 0.227771
0.0370184 0.0908217 0.232883
0.093904 0.093904 0.235966
0.163455 0.0937667 0.235828
0.235126 0.0930648 0.235126
0.308797 0.0921798 0.234241
0.390799 0.0912337 0.23331
0.498222 0.0932479 0.24239
0.635111 0.0967117 0.256748
0 0.153735 0.226108
0.0365148 0.160006 0.23238
0.0938888 0.163577 0.23595
0.158663 0.15938 0.311864
0.263798 0.177462 0.256413
0.393759 0.18468 0.270436
0.543725 0.189425 0.282643
0.687984 0.196811 0.295995
0.791745 0.207599 0.309697
0 0.241184 0.238087
0.0359808 0.263279 0.257359
0.100328 0.288853 0.277913
0.118456 0.330068 0.313878
0.33669 0.319295 0.299977
0.490364 0.326818 0.305516
0.631189 0.339391 0.317174
0.755138 0.357397 0.334249
0.844358 0.374212 0.350301
0 0.406989 0.26479
0.0345312 0.434852 0.284291
0.105623 0.460838 0.304784
0.228336 0.478691 0.320272
0.377523 0.490288 0.330419
0.532052 0.500084 0.339025
0.670542 0.512215 0.349813
0.789548 0.527657 0.363638
0.881056 0.539879 0.374762
0 0.576944 0.29366
0.0608072 0.605737 0.321324
0.153643 0.631525 0.345632
0.275196 0.647761 0.36025
0.42031 0.654841 0.366735
0.568231 0.658122 0.36968
0.698772 0.663005 0.373938
0.809689 0.671153 0.381109
0.904112 0.677943 0.387228
0.0386511 0.738613 0.340902
0.113237 0.76347 0.367544
0.196674 0.772412 0.383948
0.311025 0.78027 0.392157
0.452888 0.790372 0.395514
0.594354 0.786725 0.392523
0.719417 0.786038 0.391943
0.825559 0.789563 0.394949
0.918013 0.792798 0.397971
0.0648814 0.831586 0.365057
0.130449 0.84242 0.383764
0.209628 0.850477 0.396246
0.320562 0.857603 0.401038
0.459648 0.867414 0.401679
0.603326 0.876875 0.400549
0.72932 0.883803 0.400931
0.834409 0.887877 0.403067
0.926055 0.890288 0.405035
0 0 0.303456
0.0328832 0 0.303304
0.0836347 0 0.300252
0.147097 0 0.294026
0.213169 0 0.287724
0.281941 0 0.281941
0.35288 0 0.277348
0.427008 0 0.27425
0.505867 0 0.272755
0 0.0327153 0.303136
0.0335088 0.0335088 0.303914
0.0863508 0.0325475 0.302953
0.153338 0.0298619 0.300267
0.223987 0.0281224 0.298528
0.2972 0.0267796 0.2972
0.371389 0.0254063 0.295811
0.452445 0.0239567 0.294591
0.535317 0.0230259 0.298009
0 0.0847639 0.301381
0.0365606 0.0903639 0.306966
0.0935073 0.0935073 0.310109
0.162951 0.0932784 0.30988
0.234821 0.0927596 0.309361
0.308919 0.0919203 0.308522
0.397772 0.0909133 0.314427
0.515846 0.0945754 0.334264
0.658961 0.0964981 0.362173
0 0.153384 0.300313
0.0362249 0.159701 0.30663
0.0936446 0.163561 0.312078
0.169818 0.170703 0.328008
0.27303 0.181338 0.354803
0.409079 0.186969 0.381369
0.559625 0.190661 0.404837
0.700771 0.198703 0.427771
0.801343 0.210575 0.446464
0 0.247684 0.330877
0.0355077 0.270527 0.359762
0.100267 0.295613 0.392874
0.202625 0.313924 0.418692
0.330312 0.312505 0.540459
0.496117 0.331289 0.442222
0.636683 0.344076 0.455543
0.760815 0.362417 0.474525
0.849729 0.378805 0.491508
0 0.413169 0.391882
0.0345006 0.440375 0.41706
0.110307 0.465522 0.441032
0.233677 0.483864 0.458686
0.286732 0.520821 0.494911
0.53698 0.504646 0.478782
0.674739 0.516182 0.489952
0.792828 0.530785 0.504082
0.885527 0.542458 0.51545
0.00190738 0.582315 0.431113
0.0657054 0.610712 0.460395
0.157977 0.635981 0.485771
0.278965 0.65153 0.500908
0.423285 0.657786 0.507088
0.570321 0.660121 0.509377
0.700191 0.664393 0.513375
0.810407 0.671901 0.520439
0.907851 0.678599 0.526879
0.0420386 0.742184 0.481392
0.115785 0.766171 0.508446
0.199481 0.777386 0.525734
0.313375 0.785183 0.533898
0.453376 0.790722 0.535592
0.594263 0.786557 0.531792
0.719066 0.785672 0.530999
0.824842 0.788785 0.533898
0.921309 0.792416 0.537377
0.0669718 0.836469 0.506081
0.132036 0.847089 0.524758
0.211048 0.855146 0.537453
0.321782 0.862257 0.542153
0.460746 0.872099 0.542641
0.60441 0.881636 0.541421
0.730282 0.888563 0.541756
0.83537 0.892638 0.543984
0.931334 0.895644 0.546639
0 0 0.376394
0.0302739 0 0.376211
0.0810864 0 0.37322
0.144671 0 0.367117
0.210971 0 0.361044
0.280125 0 0.355642
0.351751 0 0.351751
0.43032 0 0.349996
0.509758 0 0.352453
0 0.030396 0.376333
0.0315099 0.0315099 0.377432
0.0847944 0.0309911 0.376928
0.152285 0.0287938 0.374731
0.223438 0.0275731 0.37351
0.296712 0.0263066 0.372244
0.373388 0.0249027 0.371237
0.456443 0.0235752 0.375448
0.546181 0.0229038 0.383627
0 0.0840009 0.376135
0.0360418 0.0898451 0.381964
0.0930037 0.0930037 0.385138
0.162539 0.0928511 0.384985
0.234455 0.0923934 0.384527
0.311009 0.0915999 0.386587
0.408042 0.0921492 0.401434
0.535164 0.0952163 0.432807
0.682673 0.0959945 0.473014
0 0.152987 0.375433
0.035874 0.15935 0.382116
0.0933852 0.164324 0.394156
0.174014 0.175021 0.421073
0.282612 0.184848 0.459174
0.423926 0.18912 0.495277
0.574594 0.192645 0.525689
0.712093 0.201541 0.553094
0.807965 0.214679 0.573632
0 0.253712 0.430304
0.0352941 0.277073 0.467185
0.100572 0.301701 0.508797
0.206226 0.319249 0.540642
0.348379 0.328267 0.557275
0.502251 0.336446 0.567712
0.643275 0.349691 0.5823
0.767193 0.367987 0.602228
0.854215 0.383841 0.619303
0 0.418662 0.517128
0.0344091 0.445777 0.542779
0.116106 0.471138 0.566979
0.239704 0.489601 0.585214
0.388876 0.500999 0.596551
0.540368 0.507744 0.62266
0.679545 0.520729 0.616556
0.796719 0.534463 0.630457
0.889021 0.545403 0.641459
0.00621042 0.587839 0.561318
0.071046 0.616266 0.589166
0.16289 0.640986 0.613428
0.283162 0.655802 0.627909
0.426719 0.661173 0.633173
0.572839 0.662699 0.634638
0.702281 0.666484 0.638346
0.811795 0.673243 0.644999
0.91043 0.679469 0.651102
0.0454871 0.745754 0.61268
0.118349 0.768902 0.63679
0.202106 0.780941 0.652918
0.315618 0.788647 0.660349
0.454536 0.791913 0.660609
0.594995 0.787305 0.656199
0.719478 0.786084 0.655024
0.824933 0.788876 0.657755
0.923491 0.792554 0.661265
0.0688945 0.840146 0.636683
0.133516 0.850431 0.652399
0.212406 0.858412 0.663432
0.322988 0.865476 0.667567
0.461769 0.875288 0.667552
0.605417 0.884871 0.666224
0.731273 0.891829 0.666545
0.836179 0.89543 0.668772
0.934356 0.898741 0.671901
0 0 0.449607
0.0276493 0 0.449393
0.0785382 0 0.446479
0.142275 0 0.440528
0.208942 0 0.434821
0.278538 0 0.429862
0.351003 0 0.426505
0.431846 0 0.429007
0.514885 0 0.433768
0 0.0280919 0.449836
0.0296178 0.0296178 0.451362
0.0835431 0.0297398 0.451484
0.151476 0.0280003 0.449729
0.222904 0.027039 0.448783
0.296223 0.0258183 0.447562
0.375174 0.0243992 0.44979
0.461555 0.0231937 0.456931
0.55465 0.023331 0.468437
0 0.0834058 0.451347
0.035523 0.0893263 0.457267
0.0925002 0.0925002 0.460441
0.162112 0.0924392 0.46038
0.234073 0.0920119 0.460594
0.313848 0.0912795 0.466636
0.421393 0.0936294 0.491814
0.555779 0.0955978 0.532067
0.701289 0.0963149 0.577539
0 0.15259 0.450843
0.0355077 0.158999 0.460182
0.0938125 0.16669 0.478813
0.178607 0.179446 0.516838
0.292851 0.188479 0.562554
0.438193 0.19176 0.602228
0.588785 0.195697 0.634333
0.723125 0.206073 0.662211
0.812192 0.219837 0.674937
0 0.259342 0.528557
0.03505 0.283345 0.569863
0.102281 0.308431 0.616678
0.211215 0.325109 0.648768
0.355703 0.33431 0.665125
0.509834 0.342901 0.675456
0.651057 0.356298 0.690608
0.774762 0.374456 0.710842
0.857252 0.388952 0.718288
0 0.424689 0.625437
0.0342107 0.451743 0.650156
0.123156 0.478004 0.674815
0.246921 0.496483 0.693309
0.395895 0.507607 0.704494
0.54876 0.51574 0.71284
0.685298 0.526162 0.723613
0.801511 0.538964 0.736904
0.891539 0.548806 0.746914
0.00970474 0.594263 0.671077
0.0771038 0.622446 0.697673
0.168734 0.646967 0.721187
0.288258 0.660975 0.734905
0.430854 0.665385 0.739193
0.576516 0.6663 0.740078
0.705272 0.669413 0.743145
0.814191 0.675624 0.749355
0.912398 0.681422 0.755123
0.0500191 0.750622 0.722042
0.122179 0.772992 0.744198
0.204639 0.782788 0.753902
0.317769 0.790433 0.761471
0.456352 0.793896 0.764874
0.596811 0.789136 0.760204
0.720958 0.787533 0.758633
0.826169 0.790112 0.761166
0.92459 0.793637 0.764645
0.0706645 0.841901 0.738293
0.134768 0.851774 0.748135
0.21326 0.85951 0.75581
0.323888 0.866743 0.762966
0.462898 0.876982 0.771099
0.606668 0.886687 0.769787
0.73254 0.893645 0.770077
0.836988 0.896223 0.771923
0.935439 0.899855 0.775433
0 0 0.521874
0.0251164 0 0.52166
0.0760357 0 0.518776
0.140032 0 0.5131
0.207126 0 0.507805
0.277333 0 0.503471
0.351156 0 0.502022
0.43328 0 0.506111
0.519066 0 0.513375
0 0.0259709 0.52253
0.027863 0.027863 0.524422
0.0823529 0.0285496 0.525109
0.150942 0.027451 0.52401
0.222461 0.0265965 0.52314
0.295827 0.0254215 0.521965
0.376425 0.0240482 0.526833
0.466453 0.0229191 0.537438
0.562295 0.0235447 0.551843
0 0.0829175 0.525673
0.0350958 0.0888991 0.53164
0.0920424 0.0920424 0.534798
0.161791 0.0921035 0.534859
0.233783 0.091722 0.537575
0.320226 0.091783 0.550225
0.437095 0.0950484 0.584787
0.577874 0.0958877 0.632593
0.716335 0.0973526 0.673533
0 0.152285 0.525444
0.0352483 0.15874 0.538811
0.095491 0.170626 0.566979
0.183307 0.183734 0.611811
0.302571 0.192035 0.660929
0.45098 0.194827 0.700542
0.600717 0.199115 0.727779
0.731746 0.210636 0.744854
0.81474 0.224643 0.752132
0 0.265278 0.625986
0.0350652 0.290135 0.672267
0.104829 0.315175 0.71989
0.21677 0.330953 0.744533
0.363073 0.34052 0.758709
0.517418 0.34934 0.768658
0.658366 0.362646 0.779126
0.778561 0.379797 0.789319
0.859037 0.393286 0.794827
0 0.431205 0.725948
0.0381933 0.458595 0.750729
0.130571 0.485267 0.774884
0.253956 0.503273 0.786664
0.402533 0.513924 0.797604
0.555032 0.521675 0.807401
0.690593 0.531212 0.816175
0.805646 0.542992 0.823819
0.892805 0.551446 0.827909
0.0129549 0.600992 0.771771
0.0835889 0.629145 0.795026
0.173938 0.652308 0.808728
0.292454 0.665202 0.818402
0.434607 0.669108 0.82681
0.580102 0.669841 0.834028
0.708446 0.672541 0.840024
0.816678 0.67808 0.844923
0.913985 0.683375 0.848905
0.0537423 0.754559 0.80708
0.12462 0.774884 0.820859
0.206058 0.783078 0.829007
0.318868 0.790677 0.836515
0.457694 0.795209 0.844938
0.598489 0.790814 0.850294
0.722728 0.789288 0.854627
0.827588 0.791516 0.85742
0.926024 0.795087 0.860945
0.0713359 0.841962 0.813153
0.135393 0.851942 0.823102
0.213687 0.859632 0.830747
0.323995 0.866758 0.837766
0.463188 0.877195 0.848066
0.607614 0.887663 0.858396
0.733898 0.895079 0.865736
0.838468 0.89781 0.868391
0.937026 0.901457 0.872023
