site/assets/luts/freshluts--0001551-black-woo-by-suchithya.cube
# LUTr-Schema-Version: 2
# LUTr-ID: freshluts--0001551-black-woo-by-suchithya
# LUTr-Title: Black Woo by Suchithya
# LUTr-Collection: Fresh LUTs
# LUTr-Collection-ID: freshluts-community
# LUTr-Source: https://freshluts.com
# LUTr-Retrieved: 2026-07-27
# LUTr-Source-File: submissions-raw/freshluts/cubes/1551__Black_Woo.cube
# LUTr-Source-Format: CUBE
# LUTr-Source-SHA256: 11bbe93977d5d151e6754736ef5088e68024c4e0cf099b436326711a65ad87f9
# LUTr-License: CC0-1.0
# LUTr-License-URL: https://freshluts.com/termsandconditions
# LUTr-License-Basis: site-terms
# LUTr-Transform-Class: creative-look
# LUTr-Tags: creative, freshluts, community, cube, noir, cinematic, black-and-white, arri-logc3-ei800
# LUTr-Input-Color-Space:
# LUTr-Input-Gamut: arri-wide-gamut-3
# LUTr-Input-Transfer: arri-logc3-ei800
# LUTr-Output-Color-Space: srgb
# LUTr-Output-Gamut: rec709
# LUTr-Output-Transfer: srgb
# LUTr-Color-Space-Confidence: camera-profile-input-required
# LUTr-Domain-Normalized: true
# LUTr-Shaper: none
# LUTr-Original-Grid: 33x33x33
# LUTr-Conversion-Grid: 33x33x33
# LUTr-Conversion-Interpolation: none
# LUTr-Conversion-Method: Metadata normalization; numeric LUT samples preserved
# LUTr-Conversion-Tool: LUTr scripts/convert-all-to-cube.mjs 2.0.0
# LUTr-Conversion-Date: 2026-07-28
# LUTr-Asset-URL: https://freshluts.com/luts/1551
# LUTr-Author: Suchithya
# LUTr-Author-URL: https://freshluts.com/users/192577
# LUTr-Attribution: Suchithya via Fresh LUTs
# LUTr-Source-Labels: gamma=Arri log c; color=Black and white; key=Neutral; style=Noir
# LUTr-Note: Preserve this metadata and the upstream license notices when redistributing.
TITLE "Black Woo by Suchithya"
LUT_3D_SIZE 5
DOMAIN_MIN 0 0 0
DOMAIN_MAX 1 1 1
0.000076 0 0.000528
0.003057 0.002868 0.006163
0.014202 0.016977 0.020251
0.035207 0.036736 0.038614
0.070686 0.073025 0.076474
0.071862 0.074436 0.078061
0.109105 0.114794 0.124522
0.186371 0.186808 0.205759
0.281735 0.285936 0.308568
0.372375 0.396537 0.405491
0.373289 0.397487 0.40629
0.472808 0.505521 0.50604
0.585913 0.608742 0.594241
0.676718 0.708904 0.687285
0.765884 0.800004 0.778821
0.762623 0.797265 0.775868
0.838359 0.861763 0.845565
0.892633 0.909668 0.898382
0.932507 0.944644 0.937887
0.962592 0.970685 0.96676
0.934601 0.946476 0.939919
0.961207 0.969514 0.965443
0.978902 0.984924 0.982581
0.989561 0.993899 0.992387
0.994865 0.997194 0.996581
0.000473 0 0.002363
0.007022 0.007647 0.010976
0.019275 0.022042 0.024947
0.047538 0.048522 0.050271
0.082964 0.087785 0.093077
0.084133 0.08919 0.094656
0.133999 0.138098 0.151102
0.221389 0.221713 0.244795
0.311916 0.324098 0.343107
0.414817 0.440621 0.442692
0.415688 0.441594 0.443643
0.517009 0.545578 0.541085
0.62165 0.646882 0.626733
0.707904 0.743802 0.721353
0.798224 0.827283 0.808246
0.795276 0.824749 0.805504
0.861257 0.881931 0.867595
0.908703 0.92373 0.914382
0.944785 0.955355 0.949714
0.969785 0.976783 0.973631
0.946785 0.957099 0.951638
0.968861 0.975973 0.972727
0.984171 0.989621 0.987554
0.991408 0.995032 0.99387
0.996715 0.998483 0.998134
0.001879 0.001467 0.004744
0.011851 0.014023 0.017361
0.02757 0.029819 0.032177
0.061271 0.062383 0.064781
0.100036 0.105636 0.113812
0.101733 0.10735 0.115817
0.166305 0.167238 0.183838
0.258346 0.260682 0.284106
0.341639 0.364561 0.378658
0.455967 0.486656 0.48763
0.45682 0.487611 0.488562
0.564635 0.586038 0.57489
0.655023 0.684385 0.663137
0.741302 0.779354 0.756562
0.829221 0.853925 0.837075
0.826289 0.851408 0.83435
0.882945 0.901172 0.888735
0.922852 0.936128 0.928352
0.956473 0.965495 0.960935
0.975999 0.982302 0.979726
0.957838 0.966655 0.962235
0.974854 0.981271 0.978601
0.988159 0.992977 0.991219
0.993444 0.996282 0.995448
0.998376 0.99944 0.999288
0.005086 0.005226 0.008548
0.016259 0.019031 0.022149
0.03896 0.04014 0.041786
0.074013 0.077021 0.080967
0.119065 0.124651 0.135966
0.121946 0.127243 0.138886
0.201016 0.201405 0.222099
0.292785 0.298084 0.320242
0.38372 0.408322 0.415416
0.497794 0.529392 0.527571
0.498801 0.53024 0.52828
0.601064 0.624907 0.608023
0.687075 0.720529 0.69866
0.774747 0.807446 0.786844
0.854948 0.876327 0.861457
0.852835 0.874451 0.859402
0.899463 0.91565 0.905182
0.936633 0.948247 0.941873
0.964737 0.972495 0.968799
0.982113 0.987795 0.985618
0.966023 0.973576 0.970019
0.981208 0.986988 0.984764
0.990192 0.994298 0.992905
0.995336 0.997513 0.996972
0.999622 0.999912 0.999893
0.009855 0.011319 0.014653
0.021334 0.024097 0.026862
0.051462 0.052481 0.054413
0.085806 0.091198 0.096914
0.148505 0.151175 0.165803
0.151453 0.153835 0.16879
0.23519 0.235724 0.259913
0.320234 0.335426 0.353058
0.423979 0.450861 0.452691
0.542055 0.566676 0.558695
0.543061 0.567523 0.559403
0.634155 0.660788 0.6399
0.717132 0.7541 0.731397
0.805075 0.833173 0.814618
0.875435 0.894523 0.881388
0.873322 0.892646 0.879333
0.913858 0.928235 0.919474
0.948347 0.958461 0.95314
0.971006 0.977851 0.974826
0.986702 0.991836 0.98992
0.971903 0.978639 0.975705
0.985958 0.99119 0.989227
0.99196 0.995363 0.994293
0.997182 0.99882 0.998531
0.999889 0.999986 0.999986
