site/assets/luts/freshluts--0001709-car.cube
# LUTr-Schema-Version: 2
# LUTr-ID: freshluts--0001709-car
# LUTr-Title: Car
# LUTr-Collection: Fresh LUTs
# LUTr-Collection-ID: freshluts-community
# LUTr-Source: https://freshluts.com
# LUTr-Retrieved: 2026-07-27
# LUTr-Source-File: submissions-raw/freshluts/cubes/1709__Car_lut.cube
# LUTr-Source-Format: CUBE
# LUTr-Source-SHA256: c339aaa5e8855fffb905df5d7a9f456cb0440dc97971baab19ccc496e3191324
# LUTr-License: CC0-1.0
# LUTr-License-URL: https://freshluts.com/termsandconditions
# LUTr-License-Basis: site-terms
# LUTr-Transform-Class: creative-look
# LUTr-Tags: creative, freshluts, community, cube, orange, low-key, rec709, assumed-input
# LUTr-Input-Color-Space: rec709
# LUTr-Input-Gamut: rec709
# LUTr-Input-Transfer: rec709
# LUTr-Output-Color-Space: srgb
# LUTr-Output-Gamut: rec709
# LUTr-Output-Transfer: srgb
# LUTr-Color-Space-Confidence: assumed-display-referred
# LUTr-Domain-Normalized: true
# LUTr-Shaper: none
# LUTr-Original-Grid: 25x25x25
# LUTr-Conversion-Grid: 25x25x25
# LUTr-Conversion-Interpolation: none
# LUTr-Conversion-Method: Metadata normalization; numeric LUT samples preserved
# LUTr-Conversion-Tool: LUTr scripts/convert-all-to-cube.mjs 2.0.0
# LUTr-Conversion-Date: 2026-07-28
# LUTr-Asset-URL: https://freshluts.com/luts/1709
# LUTr-Author: Muffin_7
# LUTr-Author-URL: https://freshluts.com/users/231912
# LUTr-Attribution: Muffin_7 via Fresh LUTs
# LUTr-Source-Labels: gamma=Other; color=Orange; key=Low Key; style=Cinematic light; LUTr assumption=input Rec.709 per repository policy
# LUTr-Conversion-Warning: Input Rec.709 is a LUTr catalog assumption requested for this otherwise unspecified Fresh LUT; it is not verified by the upstream asset.
# LUTr-Note: Preserve this metadata and the upstream license notices when redistributing.
# LUTr-Upstream-Comment: Generated by lutCreator.js
# LUTr-Upstream-Comment: Coded by SirSerch
# LUTr-Upstream-Comment: https://github.com/SirSerch/LutCreatorJs
TITLE "Car"
LUT_3D_SIZE 25
DOMAIN_MIN 0 0 0
DOMAIN_MAX 1 1 1
0 0 0
0 0 0
0 0 0
0 0 0
0 0 0
0 0 0
0 0 0
0 0 0
0 0 0
0 0 0
0 0 0
0.003922 0 0
0.003922 0 0
0.007843 0 0
0.011765 0.003922 0
0.011765 0.003922 0
0.019608 0.007843 0
0.027451 0.007843 0.003922
0.039216 0.011765 0.003922
0.054902 0.015686 0.003922
0.070588 0.023529 0.007843
0.082353 0.027451 0.007843
0.101961 0.039216 0.011765
0.117647 0.047059 0.015686
0.137255 0.058824 0.019608
0 0 0
0 0 0
0 0 0
0 0 0
0 0 0
0 0 0
0 0 0
0 0 0
0 0 0
0 0 0
0 0 0
0.003922 0 0
0.003922 0 0
0.007843 0.003922 0
0.011765 0.003922 0
0.015686 0.003922 0
0.023529 0.007843 0
0.031373 0.007843 0.003922
0.043137 0.011765 0.003922
0.054902 0.019608 0.003922
0.070588 0.023529 0.007843
0.086275 0.031373 0.011765
0.101961 0.039216 0.011765
0.121569 0.05098 0.015686
0.141176 0.062745 0.023529
0 0 0
0 0 0
0 0 0
0 0 0
0 0 0
0 0 0
0 0 0
0 0 0
0 0 0
0 0 0
0.003922 0 0
0.003922 0 0
0.003922 0 0
0.007843 0.003922 0
0.011765 0.003922 0
0.019608 0.003922 0
0.023529 0.007843 0.003922
0.035294 0.011765 0.003922
0.047059 0.015686 0.003922
0.058824 0.019608 0.007843
0.07451 0.023529 0.007843
0.090196 0.031373 0.011765
0.105882 0.043137 0.015686
0.121569 0.05098 0.019608
0.141176 0.066667 0.023529
0 0 0
0 0 0
0 0 0
0 0 0
0 0 0
0 0 0
0 0 0
0 0 0
0 0 0
0.003922 0 0
0.003922 0 0
0.003922 0 0
0.007843 0 0
0.007843 0.003922 0
0.015686 0.003922 0
0.019608 0.007843 0
0.027451 0.007843 0.003922
0.039216 0.011765 0.003922
0.05098 0.015686 0.003922
0.066667 0.023529 0.007843
0.078431 0.027451 0.007843
0.094118 0.035294 0.011765
0.109804 0.047059 0.015686
0.129412 0.058824 0.019608
0.14902 0.070588 0.023529
0 0 0
0 0 0
0 0 0
0 0 0
0 0 0
0 0 0
0 0 0
0 0 0
0 0 0
0.003922 0 0
0.003922 0 0
0.007843 0.003922 0
0.007843 0.003922 0
0.011765 0.003922 0
0.019608 0.007843 0
0.023529 0.007843 0.003922
0.035294 0.011765 0.003922
0.047059 0.015686 0.003922
0.058824 0.019608 0.007843
0.070588 0.027451 0.007843
0.086275 0.035294 0.011765
0.101961 0.043137 0.015686
0.117647 0.054902 0.019608
0.137255 0.062745 0.023529
0.156863 0.07451 0.027451
0 0 0
0 0 0
0 0 0
0 0 0
0 0 0
0 0 0
0 0 0
0.003922 0 0
0.003922 0 0
0.003922 0.003922 0
0.007843 0.003922 0
0.011765 0.003922 0
0.011765 0.003922 0
0.015686 0.007843 0
0.023529 0.007843 0.003922
0.031373 0.011765 0.003922
0.039216 0.015686 0.003922
0.054902 0.019608 0.007843
0.066667 0.023529 0.007843
0.078431 0.031373 0.011765
0.094118 0.043137 0.011765
0.109804 0.05098 0.015686
0.12549 0.062745 0.019608
0.145098 0.070588 0.027451
0.164706 0.082353 0.031373
0 0 0
0 0 0
0.003922 0 0
0.003922 0 0
0.003922 0 0
0.003922 0.003922 0
0.003922 0.003922 0
0.003922 0.003922 0
0.007843 0.003922 0
0.007843 0.003922 0
0.011765 0.003922 0
0.015686 0.007843 0
0.019608 0.007843 0.003922
0.023529 0.011765 0.003922
0.031373 0.015686 0.003922
0.039216 0.015686 0.003922
0.05098 0.019608 0.007843
0.062745 0.027451 0.007843
0.07451 0.035294 0.011765
0.090196 0.043137 0.011765
0.105882 0.05098 0.015686
0.121569 0.058824 0.019608
0.137255 0.070588 0.023529
0.156863 0.082353 0.031373
0.176471 0.094118 0.039216
0.003922 0.003922 0
0.003922 0.003922 0
0.003922 0.003922 0
0.003922 0.003922 0
0.003922 0.003922 0
0.003922 0.003922 0
0.007843 0.003922 0
0.007843 0.003922 0
0.011765 0.007843 0
0.011765 0.007843 0.003922
0.015686 0.007843 0.003922
0.019608 0.011765 0.003922
0.027451 0.011765 0.003922
0.031373 0.015686 0.003922
0.043137 0.019608 0.007843
0.05098 0.023529 0.007843
0.062745 0.027451 0.007843
0.07451 0.035294 0.011765
0.086275 0.043137 0.011765
0.101961 0.05098 0.015686
0.117647 0.062745 0.019608
0.133333 0.070588 0.023529
0.14902 0.082353 0.031373
0.168627 0.090196 0.035294
0.188235 0.101961 0.043137
0.007843 0.007843 0
0.007843 0.007843 0
0.007843 0.007843 0
0.007843 0.007843 0
0.007843 0.007843 0
0.007843 0.007843 0.003922
0.011765 0.011765 0.003922
0.011765 0.011765 0.003922
0.015686 0.011765 0.003922
0.019608 0.011765 0.003922
0.023529 0.015686 0.003922
0.031373 0.019608 0.003922
0.039216 0.023529 0.007843
0.047059 0.023529 0.007843
0.054902 0.031373 0.007843
0.066667 0.035294 0.011765
0.078431 0.043137 0.011765
0.090196 0.05098 0.015686
0.101961 0.058824 0.019608
0.117647 0.066667 0.023529
0.133333 0.07451 0.027451
0.14902 0.086275 0.031373
0.164706 0.094118 0.039216
0.184314 0.105882 0.043137
0.203922 0.117647 0.05098
0.011765 0.011765 0.003922
0.011765 0.015686 0.003922
0.011765 0.015686 0.003922
0.015686 0.015686 0.003922
0.015686 0.015686 0.003922
0.015686 0.015686 0.003922
0.019608 0.019608 0.003922
0.023529 0.019608 0.003922
0.027451 0.019608 0.003922
0.031373 0.023529 0.007843
0.035294 0.027451 0.007843
0.043137 0.031373 0.007843
0.054902 0.035294 0.011765
0.062745 0.039216 0.011765
0.070588 0.043137 0.011765
0.082353 0.05098 0.015686
0.094118 0.058824 0.019608
0.105882 0.066667 0.019608
0.121569 0.07451 0.023529
0.133333 0.082353 0.027451
0.14902 0.090196 0.035294
0.164706 0.101961 0.039216
0.184314 0.113725 0.047059
0.203922 0.121569 0.054902
0.223529 0.133333 0.062745
0.023529 0.023529 0.007843
0.023529 0.023529 0.007843
0.023529 0.023529 0.007843
0.023529 0.023529 0.007843
0.027451 0.027451 0.007843
0.027451 0.027451 0.007843
0.031373 0.027451 0.007843
0.035294 0.031373 0.007843
0.039216 0.031373 0.007843
0.047059 0.035294 0.011765
0.05098 0.039216 0.011765
0.058824 0.043137 0.011765
0.070588 0.05098 0.015686
0.078431 0.054902 0.015686
0.090196 0.062745 0.019608
0.098039 0.066667 0.019608
0.109804 0.07451 0.023529
0.12549 0.082353 0.027451
0.137255 0.090196 0.031373
0.152941 0.098039 0.039216
0.168627 0.109804 0.043137
0.184314 0.117647 0.05098
0.203922 0.129412 0.058824
0.219608 0.141176 0.062745
0.243137 0.152941 0.070588
0.035294 0.039216 0.011765
0.039216 0.039216 0.011765
0.039216 0.043137 0.011765
0.039216 0.043137 0.011765
0.043137 0.043137 0.011765
0.047059 0.047059 0.011765
0.05098 0.047059 0.011765
0.054902 0.05098 0.011765
0.058824 0.05098 0.015686
0.066667 0.054902 0.015686
0.07451 0.058824 0.015686
0.082353 0.062745 0.019608
0.090196 0.070588 0.023529
0.098039 0.07451 0.023529
0.109804 0.082353 0.027451
0.117647 0.086275 0.031373
0.133333 0.094118 0.035294
0.145098 0.101961 0.039216
0.160784 0.109804 0.043137
0.172549 0.117647 0.05098
0.192157 0.129412 0.054902
0.207843 0.137255 0.062745
0.227451 0.14902 0.070588
0.243137 0.160784 0.078431
0.266667 0.172549 0.086275
0.058824 0.062745 0.015686
0.058824 0.062745 0.015686
0.062745 0.062745 0.019608
0.062745 0.062745 0.019608
0.062745 0.066667 0.019608
0.066667 0.066667 0.019608
0.070588 0.070588 0.019608
0.07451 0.070588 0.023529
0.082353 0.07451 0.023529
0.090196 0.078431 0.023529
0.094118 0.082353 0.027451
0.101961 0.086275 0.027451
0.109804 0.094118 0.031373
0.121569 0.098039 0.035294
0.133333 0.101961 0.039216
0.141176 0.109804 0.043137
0.156863 0.117647 0.047059
0.168627 0.12549 0.05098
0.184314 0.133333 0.058824
0.2 0.141176 0.062745
0.215686 0.152941 0.070588
0.231373 0.164706 0.07451
0.25098 0.172549 0.082353
0.270588 0.184314 0.090196
0.290196 0.196078 0.098039
0.082353 0.086275 0.027451
0.082353 0.086275 0.027451
0.082353 0.086275 0.027451
0.082353 0.086275 0.027451
0.086275 0.086275 0.027451
0.090196 0.090196 0.027451
0.094118 0.094118 0.031373
0.098039 0.094118 0.031373
0.101961 0.098039 0.035294
0.109804 0.101961 0.035294
0.117647 0.105882 0.039216
0.12549 0.109804 0.039216
0.133333 0.113725 0.043137
0.145098 0.121569 0.047059
0.156863 0.12549 0.05098
0.164706 0.133333 0.054902
0.180392 0.141176 0.062745
0.192157 0.14902 0.066667
0.207843 0.156863 0.070588
0.223529 0.164706 0.078431
0.239216 0.176471 0.082353
0.258824 0.188235 0.090196
0.278431 0.2 0.098039
0.294118 0.207843 0.105882
0.317647 0.223529 0.113725
0.105882 0.113725 0.039216
0.109804 0.113725 0.039216
0.109804 0.113725 0.043137
0.109804 0.113725 0.043137
0.113725 0.117647 0.043137
0.117647 0.117647 0.043137
0.121569 0.121569 0.047059
0.12549 0.121569 0.047059
0.129412 0.12549 0.05098
0.137255 0.129412 0.05098
0.145098 0.133333 0.054902
0.152941 0.137255 0.058824
0.160784 0.145098 0.058824
0.172549 0.14902 0.062745
0.184314 0.156863 0.066667
0.196078 0.160784 0.07451
0.207843 0.168627 0.078431
0.223529 0.176471 0.082353
0.235294 0.184314 0.086275
0.25098 0.196078 0.094118
0.270588 0.207843 0.101961
0.286275 0.215686 0.105882
0.305882 0.227451 0.113725
0.32549 0.239216 0.121569
0.34902 0.25098 0.129412
0.133333 0.141176 0.054902
0.133333 0.141176 0.058824
0.137255 0.141176 0.058824
0.137255 0.141176 0.058824
0.141176 0.145098 0.058824
0.145098 0.145098 0.058824
0.14902 0.14902 0.062745
0.152941 0.14902 0.062745
0.156863 0.152941 0.066667
0.164706 0.156863 0.066667
0.172549 0.160784 0.070588
0.180392 0.164706 0.07451
0.188235 0.172549 0.078431
0.2 0.176471 0.082353
0.211765 0.184314 0.086275
0.223529 0.188235 0.090196
0.235294 0.196078 0.094118
0.25098 0.207843 0.098039
0.266667 0.215686 0.105882
0.282353 0.223529 0.109804
0.301961 0.235294 0.117647
0.317647 0.243137 0.12549
0.337255 0.254902 0.133333
0.356863 0.266667 0.137255
0.380392 0.282353 0.14902
0.168627 0.172549 0.07451
0.168627 0.172549 0.078431
0.168627 0.176471 0.078431
0.172549 0.176471 0.078431
0.172549 0.176471 0.078431
0.176471 0.180392 0.078431
0.180392 0.180392 0.082353
0.184314 0.184314 0.082353
0.192157 0.188235 0.086275
0.2 0.192157 0.086275
0.203922 0.196078 0.090196
0.215686 0.2 0.094118
0.223529 0.203922 0.098039
0.235294 0.211765 0.101961
0.247059 0.219608 0.105882
0.254902 0.223529 0.109804
0.270588 0.231373 0.113725
0.286275 0.239216 0.117647
0.301961 0.25098 0.12549
0.317647 0.258824 0.129412
0.337255 0.270588 0.137255
0.352941 0.278431 0.145098
0.372549 0.294118 0.152941
0.392157 0.301961 0.160784
0.415686 0.317647 0.168627
0.203922 0.211765 0.098039
0.203922 0.211765 0.098039
0.203922 0.211765 0.098039
0.207843 0.211765 0.098039
0.207843 0.215686 0.098039
0.211765 0.215686 0.101961
0.215686 0.219608 0.101961
0.219608 0.219608 0.101961
0.227451 0.223529 0.105882
0.235294 0.227451 0.109804
0.243137 0.231373 0.109804
0.25098 0.239216 0.113725
0.258824 0.243137 0.117647
0.270588 0.247059 0.121569
0.282353 0.254902 0.12549
0.294118 0.262745 0.129412
0.309804 0.270588 0.137255
0.321569 0.278431 0.141176
0.337255 0.286275 0.145098
0.356863 0.298039 0.152941
0.372549 0.309804 0.160784
0.392157 0.317647 0.164706
0.411765 0.329412 0.172549
0.431373 0.341176 0.180392
0.454902 0.356863 0.192157
0.239216 0.247059 0.117647
0.239216 0.247059 0.117647
0.239216 0.247059 0.117647
0.243137 0.25098 0.121569
0.243137 0.25098 0.121569
0.247059 0.25098 0.121569
0.25098 0.254902 0.121569
0.254902 0.258824 0.12549
0.262745 0.262745 0.12549
0.270588 0.266667 0.129412
0.278431 0.270588 0.133333
0.286275 0.27451 0.137255
0.298039 0.278431 0.137255
0.305882 0.286275 0.141176
0.317647 0.294118 0.14902
0.329412 0.298039 0.152941
0.345098 0.305882 0.156863
0.360784 0.317647 0.160784
0.376471 0.32549 0.168627
0.392157 0.333333 0.172549
0.411765 0.345098 0.180392
0.431373 0.356863 0.188235
0.45098 0.368627 0.196078
0.470588 0.380392 0.203922
0.494118 0.396078 0.211765
0.282353 0.290196 0.145098
0.282353 0.290196 0.145098
0.282353 0.294118 0.145098
0.286275 0.294118 0.145098
0.286275 0.294118 0.145098
0.290196 0.298039 0.145098
0.294118 0.298039 0.14902
0.298039 0.301961 0.14902
0.305882 0.305882 0.152941
0.313725 0.309804 0.152941
0.321569 0.313725 0.156863
0.329412 0.317647 0.160784
0.341176 0.32549 0.164706
0.34902 0.329412 0.168627
0.360784 0.337255 0.172549
0.372549 0.345098 0.176471
0.388235 0.352941 0.180392
0.403922 0.360784 0.188235
0.419608 0.368627 0.192157
0.439216 0.380392 0.2
0.454902 0.392157 0.207843
0.47451 0.4 0.215686
0.498039 0.415686 0.223529
0.517647 0.427451 0.231373
0.541176 0.439216 0.239216
0.32549 0.337255 0.168627
0.32549 0.337255 0.172549
0.329412 0.341176 0.172549
0.329412 0.341176 0.172549
0.333333 0.341176 0.172549
0.337255 0.345098 0.172549
0.341176 0.345098 0.176471
0.345098 0.34902 0.176471
0.352941 0.352941 0.180392
0.360784 0.356863 0.180392
0.364706 0.360784 0.184314
0.376471 0.364706 0.188235
0.384314 0.372549 0.192157
0.396078 0.376471 0.196078
0.407843 0.384314 0.2
0.419608 0.392157 0.203922
0.435294 0.4 0.207843
0.45098 0.407843 0.215686
0.466667 0.419608 0.219608
0.486275 0.427451 0.227451
0.505882 0.439216 0.235294
0.521569 0.45098 0.243137
0.545098 0.462745 0.25098
0.564706 0.47451 0.258824
0.592157 0.490196 0.266667
0.372549 0.384314 0.196078
0.372549 0.384314 0.196078
0.372549 0.384314 0.196078
0.376471 0.388235 0.2
0.376471 0.388235 0.2
0.380392 0.392157 0.2
0.384314 0.392157 0.203922
0.392157 0.396078 0.203922
0.396078 0.4 0.207843
0.403922 0.403922 0.207843
0.411765 0.407843 0.211765
0.419608 0.411765 0.215686
0.431373 0.419608 0.219608
0.443137 0.423529 0.223529
0.454902 0.431373 0.227451
0.466667 0.439216 0.231373
0.482353 0.447059 0.235294
0.498039 0.454902 0.243137
0.513725 0.462745 0.247059
0.533333 0.47451 0.254902
0.552941 0.486275 0.262745
0.572549 0.498039 0.270588
0.592157 0.509804 0.278431
0.615686 0.521569 0.286275
0.639216 0.537255 0.294118
0.423529 0.439216 0.227451
0.423529 0.439216 0.227451
0.427451 0.439216 0.227451
0.427451 0.443137 0.231373
0.431373 0.443137 0.231373
0.435294 0.443137 0.231373
0.439216 0.447059 0.235294
0.443137 0.45098 0.235294
0.45098 0.454902 0.239216
0.458824 0.458824 0.239216
0.466667 0.462745 0.243137
0.47451 0.466667 0.247059
0.486275 0.47451 0.25098
0.494118 0.478431 0.254902
0.509804 0.486275 0.258824
0.521569 0.494118 0.262745
0.537255 0.501961 0.266667
0.552941 0.509804 0.27451
0.568627 0.521569 0.278431
0.588235 0.529412 0.286275
0.607843 0.541176 0.294118
0.627451 0.552941 0.301961
0.647059 0.564706 0.309804
0.670588 0.576471 0.317647
0.694118 0.592157 0.32549
0.47451 0.494118 0.258824
0.47451 0.494118 0.258824
0.478431 0.494118 0.258824
0.478431 0.494118 0.258824
0.482353 0.498039 0.262745
0.486275 0.498039 0.262745
0.490196 0.501961 0.262745
0.494118 0.501961 0.266667
0.501961 0.505882 0.266667
0.509804 0.509804 0.270588
0.517647 0.513725 0.27451
0.52549 0.521569 0.278431
0.537255 0.52549 0.282353
0.54902 0.533333 0.282353
0.560784 0.541176 0.290196
0.572549 0.545098 0.294118
0.588235 0.556863 0.298039
0.603922 0.564706 0.305882
0.619608 0.572549 0.309804
0.639216 0.584314 0.317647
0.658824 0.596078 0.32549
0.678431 0.607843 0.333333
0.701961 0.619608 0.341176
0.72549 0.631373 0.34902
0.74902 0.647059 0.356863
0.537255 0.552941 0.294118
0.537255 0.556863 0.294118
0.537255 0.556863 0.294118
0.541176 0.556863 0.294118
0.541176 0.556863 0.298039
0.545098 0.560784 0.298039
0.54902 0.560784 0.298039
0.556863 0.564706 0.301961
0.560784 0.568627 0.301961
0.568627 0.572549 0.305882
0.576471 0.576471 0.309804
0.588235 0.584314 0.313725
0.596078 0.588235 0.317647
0.607843 0.596078 0.321569
0.619608 0.603922 0.32549
0.635294 0.607843 0.329412
0.65098 0.619608 0.333333
0.666667 0.627451 0.341176
0.682353 0.635294 0.345098
0.701961 0.647059 0.352941
0.721569 0.658824 0.360784
0.741176 0.670588 0.368627
0.764706 0.682353 0.376471
0.788235 0.694118 0.384314
0.811765 0.709804 0.396078
0 0 0
0 0 0
0 0 0
0 0 0
0 0 0
0 0 0
0 0 0
0 0 0
0 0 0
0 0 0
0.003922 0 0
0.003922 0 0
0.007843 0 0
0.011765 0.003922 0
0.011765 0.003922 0
0.019608 0.003922 0.003922
0.027451 0.007843 0.003922
0.039216 0.011765 0.003922
0.047059 0.015686 0.003922
0.062745 0.019608 0.007843
0.078431 0.027451 0.007843
0.094118 0.035294 0.011765
0.109804 0.043137 0.015686
0.129412 0.054902 0.019608
0.14902 0.066667 0.027451
0 0 0
0 0 0
0 0 0
0 0 0
0 0 0
0 0 0
0 0 0
0 0 0
0 0 0
0.003922 0 0
0.003922 0 0
0.003922 0 0
0.007843 0 0
0.011765 0.003922 0
0.015686 0.003922 0
0.019608 0.007843 0.003922
0.027451 0.007843 0.003922
0.039216 0.011765 0.003922
0.05098 0.015686 0.007843
0.066667 0.019608 0.007843
0.082353 0.027451 0.011765
0.094118 0.035294 0.011765
0.113725 0.047059 0.015686
0.129412 0.054902 0.019608
0.14902 0.066667 0.027451
0 0 0
0 0 0
0 0 0
0 0 0
0 0 0
0 0 0
0 0 0
0 0 0
0 0 0
0 0 0
0.003922 0 0
0.003922 0 0
0.007843 0.003922 0
0.011765 0.003922 0
0.015686 0.003922 0
0.023529 0.007843 0.003922
0.031373 0.011765 0.003922
0.043137 0.011765 0.003922
0.054902 0.015686 0.007843
0.070588 0.023529 0.007843
0.082353 0.031373 0.011765
0.098039 0.039216 0.015686
0.117647 0.047059 0.019608
0.133333 0.058824 0.023529
0.152941 0.070588 0.027451
0 0 0
0 0 0
0 0 0
0 0 0
0 0 0
0 0 0
0 0 0
0 0 0
0 0 0
0.003922 0 0
0.003922 0 0
0.007843 0 0
0.007843 0.003922 0
0.011765 0.003922 0
0.019608 0.007843 0.003922
0.027451 0.007843 0.003922
0.035294 0.011765 0.003922
0.047059 0.015686 0.003922
0.058824 0.019608 0.007843
0.07451 0.027451 0.007843
0.090196 0.035294 0.011765
0.105882 0.043137 0.015686
0.121569 0.054902 0.019608
0.137255 0.062745 0.023529
0.156863 0.07451 0.031373
0 0 0
0 0 0
0 0 0
0 0 0
0 0 0
0 0 0
0.003922 0 0
0.003922 0 0
0.003922 0 0
0.003922 0 0
0.007843 0.003922 0
0.007843 0.003922 0
0.011765 0.003922 0
0.015686 0.007843 0.003922
0.023529 0.007843 0.003922
0.031373 0.011765 0.003922
0.043137 0.015686 0.003922
0.054902 0.019608 0.007843
0.066667 0.023529 0.007843
0.082353 0.031373 0.011765
0.094118 0.039216 0.015686
0.109804 0.047059 0.015686
0.129412 0.058824 0.023529
0.145098 0.070588 0.027451
0.164706 0.082353 0.035294
0 0 0
0 0 0
0 0 0
0 0 0
0 0 0
0.003922 0 0
0.003922 0 0
0.003922 0.003922 0
0.003922 0.003922 0
0.007843 0.003922 0
0.007843 0.003922 0
0.011765 0.003922 0
0.015686 0.007843 0.003922
0.023529 0.007843 0.003922
0.031373 0.011765 0.003922
0.039216 0.015686 0.003922
0.05098 0.019608 0.007843
0.062745 0.023529 0.007843
0.07451 0.027451 0.011765
0.090196 0.039216 0.011765
0.101961 0.047059 0.015686
0.117647 0.054902 0.019608
0.137255 0.066667 0.023529
0.152941 0.078431 0.031373
0.172549 0.090196 0.039216
0 0.003922 0
0.003922 0 0
0.003922 0 0
0.003922 0.003922 0
0.003922 0.003922 0
0.003922 0.003922 0
0.003922 0.003922 0
0.007843 0.003922 0
0.007843 0.003922 0
0.011765 0.003922 0
0.011765 0.007843 0.003922
0.015686 0.007843 0.003922
0.023529 0.011765 0.003922
0.027451 0.015686 0.003922
0.039216 0.015686 0.003922
0.047059 0.019608 0.007843
0.058824 0.023529 0.007843
0.070588 0.031373 0.011765
0.082353 0.039216 0.011765
0.098039 0.047059 0.015686
0.113725 0.054902 0.019608
0.129412 0.066667 0.023529
0.14902 0.07451 0.027451
0.164706 0.086275 0.035294
0.184314 0.098039 0.043137
0.003922 0.003922 0
0.003922 0.003922 0
0.003922 0.003922 0
0.003922 0.003922 0
0.003922 0.003922 0
0.007843 0.003922 0
0.007843 0.007843 0
0.007843 0.007843 0.003922
0.011765 0.007843 0.003922
0.015686 0.007843 0.003922
0.019608 0.011765 0.003922
0.023529 0.011765 0.003922
0.031373 0.015686 0.003922
0.039216 0.019608 0.007843
0.047059 0.023529 0.007843
0.058824 0.027451 0.007843
0.070588 0.035294 0.011765
0.082353 0.039216 0.015686
0.094118 0.047059 0.015686
0.109804 0.058824 0.019608
0.12549 0.066667 0.023529
0.141176 0.07451 0.027451
0.160784 0.086275 0.035294
0.176471 0.098039 0.043137
0.196078 0.109804 0.05098
0.007843 0.007843 0.003922
0.007843 0.007843 0.003922
0.007843 0.007843 0.003922
0.007843 0.007843 0.003922
0.011765 0.007843 0.003922
0.011765 0.011765 0.003922
0.015686 0.011765 0.003922
0.015686 0.011765 0.003922
0.019608 0.015686 0.003922
0.023529 0.015686 0.003922
0.027451 0.019608 0.003922
0.035294 0.019608 0.007843
0.043137 0.023529 0.007843
0.05098 0.027451 0.007843
0.062745 0.035294 0.011765
0.070588 0.039216 0.011765
0.086275 0.047059 0.015686
0.098039 0.054902 0.019608
0.109804 0.062745 0.023529
0.12549 0.070588 0.027451
0.141176 0.082353 0.031373
0.156863 0.090196 0.035294
0.176471 0.101961 0.043137
0.192157 0.109804 0.05098
0.211765 0.12549 0.058824
0.015686 0.015686 0.003922
0.015686 0.015686 0.003922
0.015686 0.015686 0.003922
0.015686 0.015686 0.003922
0.019608 0.015686 0.003922
0.019608 0.019608 0.003922
0.023529 0.019608 0.003922
0.027451 0.019608 0.007843
0.031373 0.023529 0.007843
0.035294 0.027451 0.007843
0.043137 0.031373 0.007843
0.05098 0.035294 0.011765
0.058824 0.039216 0.011765
0.066667 0.043137 0.011765
0.078431 0.05098 0.015686
0.090196 0.054902 0.019608
0.101961 0.062745 0.019608
0.113725 0.070588 0.023529
0.12549 0.078431 0.027451
0.141176 0.086275 0.035294
0.156863 0.098039 0.039216
0.172549 0.105882 0.047059
0.192157 0.117647 0.05098
0.211765 0.129412 0.058824
0.231373 0.141176 0.066667
0.023529 0.027451 0.007843
0.023529 0.027451 0.007843
0.027451 0.027451 0.007843
0.027451 0.027451 0.007843
0.027451 0.027451 0.007843
0.031373 0.031373 0.007843
0.035294 0.031373 0.007843
0.039216 0.035294 0.011765
0.043137 0.039216 0.011765
0.05098 0.039216 0.011765
0.058824 0.043137 0.011765
0.066667 0.05098 0.015686
0.07451 0.054902 0.015686
0.082353 0.058824 0.019608
0.094118 0.066667 0.023529
0.105882 0.070588 0.023529
0.117647 0.078431 0.027451
0.129412 0.086275 0.031373
0.145098 0.094118 0.039216
0.160784 0.101961 0.043137
0.176471 0.113725 0.05098
0.192157 0.121569 0.054902
0.211765 0.133333 0.062745
0.227451 0.145098 0.070588
0.25098 0.156863 0.078431
