site/assets/luts/freshluts--0000132-music-clip.cube
# LUTr-Schema-Version: 2
# LUTr-ID: freshluts--0000132-music-clip
# LUTr-Title: Music Clip
# LUTr-Collection: Fresh LUTs
# LUTr-Collection-ID: freshluts-community
# LUTr-Source: https://freshluts.com
# LUTr-Retrieved: 2026-07-27
# LUTr-Source-File: submissions-raw/freshluts/cubes/132__MusicClip_Log_V1_CatPlectre.cube
# LUTr-Source-Format: CUBE
# LUTr-Source-SHA256: 811248f7744f2d00c98d68a06d20dc0f99d74a32f396bc65b521df8cffe3b5af
# LUTr-License: CC0-1.0
# LUTr-License-URL: https://freshluts.com/termsandconditions
# LUTr-License-Basis: site-terms
# LUTr-Transform-Class: creative-look
# LUTr-Tags: creative, freshluts, community, cube, high-contrast, blue, high-key, bmd-film
# LUTr-Input-Color-Space:
# LUTr-Input-Gamut: bmd-film-gamut
# LUTr-Input-Transfer: bmd-film
# LUTr-Output-Color-Space: srgb
# LUTr-Output-Gamut: rec709
# LUTr-Output-Transfer: srgb
# LUTr-Color-Space-Confidence: camera-profile-input-required
# LUTr-Domain-Normalized: true
# LUTr-Shaper: none
# LUTr-Original-Grid: 33x33x33
# LUTr-Conversion-Grid: 33x33x33
# LUTr-Conversion-Interpolation: none
# LUTr-Conversion-Method: Metadata normalization; numeric LUT samples preserved
# LUTr-Conversion-Tool: LUTr scripts/convert-all-to-cube.mjs 2.0.0
# LUTr-Conversion-Date: 2026-07-28
# LUTr-Asset-URL: https://freshluts.com/luts/132
# LUTr-Author: Steel Tone
# LUTr-Author-URL: https://freshluts.com/users/816
# LUTr-Attribution: Steel Tone via Fresh LUTs
# LUTr-Source-Labels: gamma=Blackmagic BMD Film; color=Blue; key=High Key; style=High contrast
# LUTr-Note: Preserve this metadata and the upstream license notices when redistributing.
TITLE "Music Clip"
LUT_3D_SIZE 33
DOMAIN_MIN 0 0 0
DOMAIN_MAX 1 1 1
0.134829 0.139605 0.13994
0.143984 0.137682 0.138064
0.156405 0.135698 0.135973
0.169879 0.133455 0.133288
0.184024 0.131411 0.130419
0.2009 0.129137 0.127077
0.221485 0.126436 0.122988
0.245228 0.124315 0.1187
0.271138 0.122179 0.113359
0.29926 0.119463 0.106142
0.330266 0.116564 0.101259
0.358618 0.112734 0.0984207
0.380926 0.107942 0.0971847
0.391974 0.100847 0.0962997
0.408286 0.0969558 0.0957351
0.426764 0.0949722 0.0949722
0.44625 0.0941634 0.0941634
0.463218 0.093431 0.093431
0.478843 0.0928969 0.0928969
0.49276 0.0925154 0.0925154
0.50515 0.0920882 0.0920882
0.516213 0.0913252 0.0943313
0.524239 0.0916762 0.0916762
0.532357 0.0908064 0.0939345
0.537743 0.0912184 0.0912184
0.543908 0.090547 0.0937514
0.548211 0.0904555 0.0936904
0.550683 0.090959 0.090959
0.554238 0.0903334 0.0936141
0.555932 0.0903029 0.0935988
0.556848 0.0902724 0.0935683
0.556985 0.0902724 0.0935836
0.556985 0.0902724 0.0935836
0.129122 0.143511 0.135637
0.1355 0.141665 0.135241
0.147265 0.139071 0.133959
0.161837 0.136126 0.132357
0.177005 0.133074 0.1308
0.193179 0.13019 0.128634
0.211704 0.127642 0.124895
0.233829 0.125261 0.120714
0.258549 0.123217 0.116197
0.285161 0.120851 0.109255
0.315038 0.118196 0.103685
0.344869 0.114733 0.0993057
0.370123 0.110399 0.0977493
0.387213 0.104402 0.0966964
0.399817 0.0987259 0.0959945
0.417258 0.0958267 0.095491
0.436179 0.0944533 0.0944533
0.454643 0.0938125 0.0938125
0.471138 0.0931106 0.0931106
0.486458 0.0926986 0.0926986
0.500023 0.0917067 0.0946059
0.511177 0.0914473 0.0944076
0.520897 0.0912184 0.0942702
0.528847 0.0910506 0.0941482
0.535546 0.0907149 0.0938582
0.540307 0.0911574 0.0911574
0.546014 0.0905013 0.0937209
0.549889 0.0904097 0.0936751
0.552941 0.0903639 0.0936294
0.555047 0.0903182 0.0935988
0.555322 0.0908675 0.0908675
0.555917 0.0908675 0.0908675
0.556985 0.0902724 0.0935836
0.122957 0.147692 0.131167
0.125841 0.146609 0.131533
0.136553 0.143969 0.130236
0.149035 0.141604 0.131426
0.16643 0.138506 0.127031
0.182406 0.135485 0.12517
0.201144 0.132235 0.122927
0.223362 0.128893 0.120439
0.247608 0.125566 0.117342
0.273091 0.122011 0.112734
0.301091 0.119326 0.105821
0.331823 0.116381 0.100969
0.359808 0.11249 0.0983444
0.381933 0.10779 0.0971237
0.392782 0.100649 0.0962539
0.409064 0.096849 0.0957046
0.427573 0.0949264 0.0949264
0.447135 0.0941329 0.0941329
0.464027 0.09337 0.09337
0.479561 0.0928817 0.0928817
0.494301 0.0919661 0.0948196
0.50631 0.0915694 0.0944991
0.515328 0.0918593 0.0918593
0.524224 0.0916762 0.0916762
0.532219 0.0908217 0.0939345
0.53756 0.0912184 0.0912184
0.542626 0.0911116 0.0911116
0.547921 0.0904555 0.0936904
0.550332 0.090959 0.090959
0.553979 0.0903334 0.0936141
0.554665 0.0908827 0.0908827
0.556771 0.0902724 0.0935836
0.556985 0.0902724 0.0935836
0.116808 0.152499 0.126864
0.117861 0.151629 0.127565
0.126085 0.149432 0.126726
0.139528 0.146761 0.126162
0.152667 0.144488 0.129335
0.171115 0.141802 0.122148
0.191028 0.139376 0.119677
0.214191 0.137041 0.117601
0.239506 0.134279 0.11458
0.266545 0.131731 0.110704
0.295964 0.129213 0.10547
0.32752 0.125689 0.101472
0.357259 0.120958 0.098146
0.38088 0.114656 0.0968948
0.393454 0.106035 0.0962081
0.403632 0.0988785 0.0957809
0.42005 0.095491 0.0954299
0.439261 0.094377 0.094377
0.457023 0.0937362 0.0937362
0.472984 0.0930648 0.0930648
0.488685 0.0921798 0.0949874
0.501015 0.0916915 0.0945907
0.511818 0.0914321 0.0944076
0.521309 0.0912184 0.094255
0.527993 0.0915999 0.0915999
0.535531 0.0907149 0.0938582
0.541207 0.0905928 0.0937819
0.544778 0.0910811 0.0910811
0.549691 0.090425 0.0936751
0.552743 0.0903639 0.0936294
0.553872 0.090898 0.090898
0.55523 0.0908827 0.0908827
0.555886 0.0908675 0.0908675
0.110231 0.157885 0.122377
0.111284 0.15697 0.123049
0.115541 0.15555 0.123018
0.127245 0.153185 0.121416
0.143877 0.150622 0.123796
0.158068 0.14966 0.128588
0.17908 0.148363 0.119921
0.204562 0.14638 0.11519
0.233082 0.145602 0.113069
0.263691 0.145495 0.110506
0.295888 0.144518 0.106416
0.329976 0.142306 0.101488
0.365026 0.138933 0.0967422
0.395712 0.133913 0.0948653
0.417166 0.126619 0.093843
0.428138 0.117113 0.0936751
0.429984 0.10753 0.0938125
0.441825 0.103014 0.0936446
0.458183 0.100847 0.0934615
0.472206 0.0987411 0.0932479
0.485954 0.0972457 0.093019
0.49868 0.0961318 0.0929122
0.509651 0.0950942 0.0928359
0.518807 0.0940566 0.0927749
0.526375 0.0928969 0.092546
0.532586 0.0920577 0.0920577
0.537942 0.0913558 0.0913558
0.543694 0.090547 0.0937514
0.547921 0.0904555 0.0936904
0.551308 0.0903944 0.0936446
0.553887 0.0903334 0.0936141
0.554574 0.0908827 0.0908827
0.555627 0.0908675 0.0908675
0.103929 0.164721 0.118441
0.104799 0.163668 0.118929
0.105531 0.162692 0.119387
0.115297 0.16083 0.118288
0.130648 0.159533 0.116869
0.151766 0.157687 0.124285
0.166812 0.15816 0.129473
0.192035 0.159899 0.121904
0.226246 0.16112 0.116014
0.260273 0.161517 0.112139
0.294759 0.161471 0.107256
0.331334 0.160601 0.10248
0.369879 0.158175 0.0965896
0.40763 0.15494 0.0930648
0.438987 0.150271 0.0909133
0.462181 0.143145 0.0897383
0.476158 0.134173 0.0903639
0.481514 0.124788 0.0911574
0.487968 0.118563 0.0916152
0.490211 0.112612 0.0917372
0.496101 0.108919 0.0918593
0.502358 0.105943 0.0917678
0.512779 0.104616 0.0917067
0.522225 0.103456 0.0914778
0.53077 0.10251 0.0914168
0.537621 0.101671 0.0913863
0.543618 0.100801 0.091371
0.548363 0.0999619 0.0913558
0.552331 0.0991684 0.0913558
0.555505 0.0984054 0.091371
0.557885 0.0976883 0.0913863
0.559533 0.0970779 0.0914015
0.560372 0.096437 0.0914473
0.098085 0.174105 0.115557
0.0987869 0.173083 0.115908
0.0994278 0.171984 0.116182
0.105425 0.17055 0.115755
0.118441 0.1691 0.114214
0.140108 0.169696 0.113848
0.164141 0.170291 0.127916
0.184375 0.173968 0.135698
0.214282 0.177768 0.12842
0.252522 0.179522 0.118929
0.29012 0.180087 0.110842
0.329625 0.180102 0.10454
0.371298 0.178653 0.0969406
0.414084 0.176532 0.0911116
0.451164 0.172732 0.0877699
0.481849 0.167147 0.0850996
0.506996 0.160693 0.0844892
0.524254 0.152987 0.0852369
0.535378 0.1458 0.0864118
0.535622 0.136828 0.0881208
0.536217 0.129702 0.0889296
0.541665 0.125643 0.0894179
0.547158 0.122454 0.0895705
0.55172 0.119768 0.089662
0.555367 0.117357 0.0897231
0.557565 0.115099 0.0898146
0.559655 0.11313 0.0898451
0.560708 0.111269 0.0899062
0.561654 0.109682 0.0899977
0.562158 0.10837 0.0901656
0.564706 0.107607 0.0901808
0.566613 0.106935 0.0901961
0.567788 0.10631 0.0902266
0.0936446 0.187381 0.114702
0.0939651 0.185657 0.114565
0.094255 0.184054 0.114458
0.0966506 0.182818 0.114397
0.108019 0.181796 0.11342
0.127703 0.183658 0.11397
0.155444 0.187411 0.11635
0.183841 0.189105 0.136645
0.208118 0.19411 0.143816
0.240864 0.198367 0.135195
0.281788 0.199969 0.121126
0.324224 0.200443 0.109941
0.368032 0.199619 0.0985885
0.415717 0.198169 0.0903792
0.459403 0.195514 0.0849165
0.495842 0.191363 0.0804913
0.527657 0.186328 0.0779126
0.554742 0.180972 0.0776989
0.574899 0.175143 0.0780652
0.589044 0.168887 0.0789197
0.594705 0.161089 0.0808576
0.599313 0.154894 0.0820783
0.601495 0.149187 0.08336
0.603037 0.144472 0.0843519
0.60209 0.139864 0.0852369
0.601175 0.136156 0.0861219
0.599954 0.132815 0.086656
0.601663 0.130724 0.0868849
0.603052 0.128908 0.0870222
0.603738 0.12726 0.0872969
0.604303 0.125856 0.0875563
0.603601 0.124346 0.0877241
0.603098 0.123125 0.0878614
0.0921798 0.206165 0.117525
0.0923018 0.20415 0.117189
0.0924086 0.202274 0.116854
0.0926833 0.200824 0.116808
0.10222 0.2 0.11632
0.116838 0.200259 0.115602
0.143725 0.204257 0.11693
0.176959 0.209125 0.122087
0.208103 0.211048 0.14696
0.236194 0.216922 0.151797
0.271366 0.221347 0.140734
0.315038 0.223194 0.122927
0.362097 0.223178 0.106279
0.413077 0.222034 0.0927443
0.462654 0.219654 0.0839551
0.50547 0.216129 0.0764935
0.542626 0.211307 0.071519
0.574884 0.206271 0.0704967
0.600549 0.201114 0.0703441
0.620981 0.196445 0.0704356
0.637675 0.192233 0.0706493
0.65066 0.188006 0.0711528
0.659739 0.18349 0.0719768
0.666926 0.179355 0.0727703
0.670512 0.174929 0.0738537
0.671885 0.170397 0.075349
0.672129 0.166293 0.0764477
0.671992 0.162646 0.0774395
0.671107 0.159457 0.0784772
0.669413 0.156374 0.079408
0.667353 0.153521 0.0801556
0.664607 0.150942 0.0809949
0.66247 0.148928 0.0816052
0.0908827 0.227039 0.120897
0.090959 0.224887 0.120485
0.0910353 0.222904 0.120134
0.0910964 0.221088 0.119799
0.0973373 0.220157 0.119661
0.108919 0.220035 0.118669
0.127932 0.221988 0.118257
0.165866 0.229786 0.120317
0.203021 0.23386 0.130083
0.237613 0.237064 0.157092
0.268177 0.242741 0.158038
0.305776 0.247501 0.145342
0.351446 0.249027 0.122637
0.404883 0.248493 0.101671
0.461479 0.246708 0.086717
0.510246 0.243397 0.0745098
0.553094 0.239277 0.066804
0.591058 0.234195 0.0634775
0.622065 0.228977 0.0622263
0.646815 0.224247 0.0617533
0.665919 0.219577 0.061738
0.681849 0.215381 0.0620584
0.695247 0.211643 0.0624094
0.704952 0.207782 0.0630503
0.712612 0.204318 0.0640116
0.718746 0.20116 0.064683
0.723522 0.198322 0.0653086
0.727321 0.195712 0.0659037
0.72958 0.193057 0.0665904
0.731868 0.190936 0.0671092
0.732738 0.188602 0.0677348
0.733577 0.18677 0.0681926
0.733959 0.185229 0.068864
0.0890516 0.249409 0.12401
0.089189 0.247379 0.123705
0.0895247 0.245701 0.12369
0.0896468 0.243687 0.123369
0.0924849 0.242405 0.123217
0.10396 0.242252 0.122164
0.117494 0.242985 0.120577
0.150835 0.250156 0.121111
0.190814 0.25742 0.121065
0.235019 0.260304 0.142458
0.270069 0.264683 0.164553
0.30367 0.270924 0.162203
0.342931 0.275242 0.145174
0.394171 0.277836 0.122103
0.454139 0.277424 0.0983597
0.509667 0.274754 0.0782788
0.558236 0.270909 0.0654154
0.602319 0.265827 0.0590524
0.6392 0.260349 0.0555581
0.669017 0.254932 0.0535592
0.692317 0.250187 0.0528115
0.710826 0.245747 0.0526741
0.725795 0.241733 0.0529183
0.738384 0.238224 0.0532387
0.749142 0.235126 0.0536049
0.757122 0.232197 0.0541238
0.7635 0.229419 0.0546731
0.768551 0.22681 0.0552224
0.772717 0.224445 0.0557565
0.775738 0.222232 0.0562905
0.778561 0.220356 0.0567178
0.780255 0.218479 0.0573739
0.781048 0.216571 0.0580148
0.086717 0.273503 0.126772
0.0869306 0.271275 0.126528
0.0871138 0.269215 0.126207
0.0873426 0.267262 0.126101
0.0876326 0.265644 0.125994
0.0983902 0.265888 0.125368
0.110506 0.26685 0.123445
0.132845 0.271046 0.122072
0.17499 0.279988 0.121065
0.223133 0.287053 0.122774
0.270314 0.288792 0.155444
0.306081 0.294347 0.168597
0.342687 0.30103 0.161776
0.386465 0.306203 0.145876
0.441093 0.308339 0.120394
0.500603 0.307607 0.0924849
0.556069 0.304982 0.0727703
0.606394 0.300984 0.0606851
0.650599 0.295659 0.0527962
0.685618 0.290455 0.0484169
0.713039 0.285374 0.0460059
0.734874 0.280491 0.0445869
0.752575 0.276051 0.0439002
0.76762 0.272023 0.0437018
0.779965 0.268452 0.0437629
0.789715 0.265309 0.0439765
0.798108 0.262608 0.0442359
0.804913 0.260212 0.0445411
0.810727 0.258061 0.0449531
0.815045 0.256062 0.0455482
0.818387 0.253971 0.0460517
0.820768 0.251926 0.04654
0.822324 0.249943 0.0470436
0.0831922 0.299489 0.12871
0.0836805 0.297307 0.128695
0.0839246 0.295155 0.128511
0.0841993 0.292912 0.128237
0.0843977 0.291188 0.128161
0.0923934 0.291264 0.127947
0.104143 0.292088 0.125811
0.118563 0.294301 0.123278
0.147692 0.301076 0.12076
0.208865 0.313207 0.117433
0.262318 0.317861 0.129107
0.308675 0.320195 0.161959
0.346319 0.327199 0.168124
0.386252 0.33431 0.162875
0.433326 0.338994 0.144793
0.488792 0.340719 0.116793
0.547494 0.340444 0.09131
0.602609 0.337377 0.0720378
0.651545 0.332723 0.0584421
0.692638 0.327703 0.0497597
0.725063 0.322438 0.0441596
0.751278 0.318013 0.0408179
0.772778 0.313634 0.0387121
0.790616 0.309789 0.0373388
0.80473 0.305913 0.0366217
0.816861 0.302876 0.0361486
0.827176 0.300237 0.0358587
0.834913 0.297581 0.0358434
0.842161 0.295491 0.0357671
0.847593 0.293263 0.0359045
0.852155 0.291142 0.0360876
0.85568 0.28896 0.0363622
0.858366 0.286976 0.0366369
0.0789349 0.327764 0.129946
0.0792859 0.325429 0.129839
0.0796216 0.32314 0.129793
0.079942 0.320912 0.129732
0.0804608 0.319036 0.129824
0.0856489 0.318273 0.129519
0.0971542 0.319219 0.127275
0.109514 0.321874 0.124239
0.125231 0.32639 0.120867
0.188098 0.34023 0.115755
0.246632 0.348852 0.110018
0.305303 0.35082 0.136141
0.350607 0.355978 0.165576
0.390784 0.363348 0.170962
0.433463 0.36965 0.161181
0.48336 0.374075 0.139971
0.538766 0.376501 0.118395
0.594079 0.375586 0.0951247
0.646387 0.372045 0.0749523
0.692973 0.367453 0.0598154
0.730831 0.363027 0.0501869
0.760632 0.357977 0.0435645
0.784909 0.353429 0.0390936
0.804898 0.349035 0.0360876
0.8215 0.345449 0.0340276
0.83563 0.342214 0.0325322
0.847303 0.339666 0.0315099
0.856672 0.337041 0.0308232
0.864958 0.334905 0.0302586
0.871321 0.332525 0.0299687
0.87689 0.330404 0.0297856
0.881636 0.328405 0.029633
0.885603 0.326879 0.0295415
0.0734112 0.358633 0.129839
0.0738537 0.356008 0.129763
0.0743725 0.353933 0.129946
0.0747387 0.351858 0.130083
0.0751049 0.349538 0.129992
0.0780041 0.348272 0.129931
0.0893416 0.349828 0.127993
0.101213 0.35285 0.124361
0.114199 0.35758 0.119966
0.158663 0.368444 0.113115
0.225711 0.380133 0.101289
0.292119 0.386572 0.103609
0.351263 0.388846 0.145602
0.396811 0.395636 0.169726
0.43946 0.40296 0.169757
0.485801 0.409354 0.160571
0.536599 0.414313 0.145312
0.587243 0.415915 0.125628
0.638621 0.414328 0.103166
0.688151 0.410712 0.0825055
0.729625 0.406058 0.066804
0.763027 0.401312 0.0558938
0.790204 0.396582 0.0482032
0.812314 0.391775 0.0425574
0.831296 0.387869 0.0383307
0.847562 0.384665 0.0353094
0.86038 0.381888 0.0331579
0.871397 0.379507 0.0314946
0.8804 0.377081 0.0302129
0.88809 0.374807 0.0292058
0.894652 0.372778 0.028397
0.900267 0.370916 0.0277867
0.904707 0.368856 0.0272831
0.0670024 0.391287 0.128222
0.0676585 0.389044 0.128527
0.0680858 0.386587 0.128588
0.068513 0.384192 0.128664
0.0689097 0.381872 0.128817
0.0696117 0.37995 0.128878
0.0808576 0.382437 0.127337
0.0923934 0.385702 0.12282
0.105089 0.390997 0.117433
0.131182 0.399939 0.109285
0.193378 0.412879 0.0952773
0.274327 0.42472 0.0816968
0.343114 0.428992 0.106981
0.400931 0.432776 0.152255
0.44744 0.439902 0.169009
0.494011 0.448157 0.172869
0.541894 0.454612 0.167803
0.58761 0.458564 0.157168
0.633127 0.459678 0.141512
0.678096 0.457389 0.12192
0.719066 0.45388 0.103761
0.75378 0.4495 0.0889296
0.782849 0.445472 0.0776379
0.807309 0.440986 0.0683452
0.82829 0.436988 0.0612497
0.846021 0.433677 0.0558938
0.860334 0.430732 0.0519417
0.872389 0.427726 0.0486305
0.882506 0.425055 0.0459144
0.891402 0.423041 0.0438239
0.898787 0.420752 0.0419165
0.905287 0.418387 0.0401923
0.910704 0.416052 0.0386816
0.0610361 0.422522 0.125765
0.0614328 0.420249 0.125963
0.0618296 0.418036 0.126177
0.0622568 0.415717 0.126192
0.0626688 0.413886 0.126467
0.0630808 0.412451 0.126802
0.0725719 0.41445 0.125368
0.0840009 0.41825 0.120089
0.0958572 0.424979 0.112871
0.109865 0.433707 0.104173
0.143374 0.444739 0.0872816
0.253956 0.462974 0.0681621
0.32755 0.471977 0.0737011
0.397681 0.474739 0.111482
0.454231 0.480659 0.154452
0.503044 0.489082 0.178439
0.550835 0.497444 0.186816
0.594797 0.503365 0.185275
0.635309 0.505821 0.177264
0.675074 0.506142 0.164508
0.712886 0.504479 0.148898
0.746197 0.501366 0.133211
0.77528 0.498299 0.11986
0.80058 0.495003 0.108461
0.822416 0.491051 0.0984207
0.840604 0.487663 0.0905623
0.855909 0.484413 0.0840467
0.869184 0.481117 0.0784619
0.879774 0.478965 0.0744945
0.88922 0.476448 0.0708171
0.897322 0.473671 0.0675517
0.904524 0.471107 0.0646983
0.91046 0.46891 0.0623636
0.0555276 0.45127 0.122896
0.0559243 0.449393 0.123171
0.0562753 0.447318 0.123262
0.0565194 0.44567 0.123461
0.0567941 0.444022 0.123461
0.057023 0.442542 0.123751
0.065156 0.444572 0.122606
0.0760052 0.448966 0.115969
0.0874647 0.456382 0.107927
0.0992142 0.466682 0.0990158
0.121263 0.478157 0.0797894
0.219532 0.497246 0.0635233
0.306538 0.510979 0.0523537
0.385977 0.516991 0.0707408
0.454398 0.521172 0.128801
0.510185 0.528679 0.175479
0.560632 0.538277 0.196551
0.605844 0.546319 0.20383
0.644587 0.551003 0.204273
0.680919 0.552987 0.198627
0.715297 0.553048 0.188571
0.74641 0.552377 0.177157
0.773037 0.550546 0.165545
0.797131 0.54818 0.154192
0.817807 0.545571 0.14406
0.83592 0.542855 0.135058
0.851469 0.540185 0.127306
0.864744 0.537606 0.120684
0.875486 0.535332 0.115373
0.885084 0.532235 0.109926
0.893187 0.530007 0.105776
0.900526 0.527474 0.101732
0.906798 0.525521 0.0985428
0.05066 0.476997 0.119814
0.0511482 0.475517 0.120104
0.0514382 0.473838 0.120378
0.051667 0.472328 0.120623
0.051957 0.470603 0.120729
0.0522164 0.469001 0.120836
0.0589303 0.471077 0.119753
0.0695506 0.476097 0.112612
0.0804456 0.485054 0.103777
0.0918441 0.496712 0.0943465
0.109911 0.509712 0.0770581
0.185122 0.527504 0.0599832
0.282994 0.544488 0.0431678
0.369711 0.554314 0.0462654
0.448325 0.560189 0.0973831
0.512703 0.565911 0.159564
0.567071 0.574502 0.196887
0.615198 0.584222 0.214679
0.655314 0.591073 0.22179
0.690959 0.594903 0.222492
0.723033 0.596307 0.218204
0.751842 0.59649 0.211078
0.776776 0.596246 0.202976
0.798596 0.595224 0.194491
0.8177 0.593652 0.18613
0.834836 0.592309 0.178408
0.849821 0.590723 0.171237
0.862089 0.588556 0.164614
0.872557 0.586694 0.15903
0.881636 0.584436 0.153674
0.889525 0.582696 0.149279
0.896681 0.580941 0.145205
0.902861 0.579599 0.141848
0.0467689 0.501167 0.117433
0.0469673 0.499794 0.117662
0.0471962 0.498192 0.117632
0.0474098 0.496727 0.117845
0.0476387 0.495155 0.117952
0.0478828 0.493568 0.118059
0.0534981 0.495918 0.117052
0.0639506 0.501915 0.109438
0.0744182 0.511147 0.0999619
0.0855726 0.523552 0.0901808
0.100542 0.538323 0.0752575
0.155123 0.55584 0.0573281
0.257176 0.574105 0.0395056
0.354849 0.586923 0.0323949
0.437446 0.595117 0.070222
0.50988 0.600244 0.134707
0.570001 0.607141 0.187945
0.621149 0.616526 0.217639
0.663203 0.624643 0.232074
0.69926 0.629892 0.238025
0.730724 0.632288 0.238453
0.758297 0.633585 0.235523
0.781888 0.634333 0.2309
0.802747 0.634455 0.22536
0.821271 0.634562 0.219593
0.837293 0.633585 0.213397
0.851362 0.632853 0.207767
0.86273 0.631907 0.202976
0.872496 0.630411 0.197925
0.880858 0.629358 0.19379
0.888228 0.627985 0.189746
0.894789 0.626566 0.185977
0.900649 0.625254 0.182544
0.0429999 0.52372 0.115206
0.0432136 0.52224 0.115267
0.0434272 0.520775 0.115312
0.0436255 0.519341 0.115511
0.0437781 0.51812 0.115587
0.0439765 0.516762 0.115648
0.0489204 0.519066 0.114321
0.0589914 0.525811 0.107134
0.0691539 0.535607 0.0969558
0.0799115 0.549355 0.0871138
0.0924544 0.564935 0.0736706
0.128756 0.582315 0.0549935
0.225986 0.601587 0.0392767
0.341451 0.61619 0.0232242
0.425879 0.626963 0.0517586
0.503288 0.633188 0.108415
0.569467 0.638331 0.17084
0.625116 0.646738 0.214023
0.66923 0.654719 0.236912
0.705699 0.660639 0.248173
0.737789 0.664637 0.253071
0.765286 0.666728 0.253941
0.788647 0.668376 0.252598
0.80914 0.669886 0.25008
0.826658 0.670069 0.246403
0.841947 0.669963 0.242222
0.854917 0.669612 0.238209
0.865858 0.669154 0.23444
0.875425 0.668391 0.230671
0.883009 0.667582 0.227314
0.88986 0.666667 0.224094
0.895827 0.665507 0.220935
0.901183 0.664469 0.218097
0.0395666 0.544808 0.114183
0.0397345 0.543481 0.114122
0.0399176 0.542153 0.114046
0.0402075 0.541131 0.114153
0.0404669 0.540078 0.114214
0.0406348 0.538842 0.114153
0.0448768 0.540566 0.112825
0.0551003 0.548135 0.10573
0.065095 0.558129 0.0941939
0.0752422 0.572457 0.0842756
0.0863813 0.589242 0.0722057
0.107729 0.606577 0.0534676
0.190784 0.62562 0.0421912
0.329397 0.641703 0.0219272
0.414191 0.654932 0.0399634
0.494194 0.663035 0.0861372
0.566293 0.667597 0.149355
0.626032 0.67393 0.203723
0.67332 0.681819 0.236805
0.711116 0.688258 0.25417
0.743984 0.693324 0.263722
0.772183 0.69659 0.268101
0.796155 0.699565 0.270039
0.815991 0.701076 0.269795
0.833188 0.70222 0.268437
0.847852 0.702754 0.266438
0.860349 0.702922 0.264012
0.870817 0.702693 0.261311
0.879805 0.702617 0.258991
0.886717 0.701839 0.256443
0.893065 0.701198 0.254078
0.898482 0.700603 0.251957
0.903426 0.699855 0.24979
0.0369268 0.563882 0.115007
0.0370794 0.562646 0.114931
0.0372473 0.561288 0.114839
0.0373693 0.560281 0.114672
0.0375219 0.559091 0.114626
0.0376745 0.5579 0.114565
0.041886 0.560098 0.11368
0.0516365 0.567895 0.107057
0.0615091 0.578256 0.0937209
0.0717174 0.593469 0.0838941
0.0818952 0.610742 0.0734722
0.0948959 0.628138 0.0521859
0.165805 0.646342 0.0455482
0.312657 0.663111 0.0282902
0.40267 0.677546 0.0323339
0.484459 0.68748 0.0706493
0.559762 0.692531 0.128298
0.62446 0.69752 0.189685
0.675258 0.704906 0.232349
0.715038 0.712001 0.256565
0.749157 0.718074 0.270878
0.778393 0.722499 0.279011
0.802853 0.726131 0.283513
0.822828 0.728573 0.285618
0.839765 0.730236 0.286213
0.854109 0.731487 0.286091
0.866209 0.732097 0.285054
0.876524 0.732525 0.283925
0.884596 0.73257 0.282597
0.890486 0.731868 0.280903
0.895491 0.731182 0.279316
0.89955 0.729961 0.277378
0.903517 0.729335 0.275914
0.0345464 0.579995 0.117235
0.0346075 0.579141 0.11722
0.0348058 0.578286 0.117113
0.0350958 0.577432 0.117082
0.0351873 0.576547 0.116915
0.0353246 0.575479 0.116564
0.0392309 0.577539 0.115572
0.049073 0.586313 0.110231
0.0588388 0.596796 0.0966659
0.0686809 0.61178 0.0843366
0.0787213 0.629908 0.0763867
0.0905776 0.647166 0.0552987
0.153887 0.664652 0.0484779
0.294179 0.68127 0.0375525
0.393103 0.696712 0.0304875
0.474876 0.70753 0.0599069
0.551598 0.713191 0.111269
0.62063 0.717754 0.174228
0.675303 0.724453 0.224903
0.71722 0.731945 0.255756
0.752407 0.738293 0.274769
0.78291 0.743816 0.286687
0.808057 0.748058 0.293538
0.828504 0.751568 0.297963
0.845304 0.753872 0.300343
0.859693 0.755581 0.301564
0.87155 0.756405 0.301762
0.881285 0.756817 0.30135
0.88719 0.755932 0.30013
0.892241 0.755199 0.299016
0.896422 0.754498 0.297932
0.900206 0.753475 0.296574
0.903731 0.752773 0.29546
0.0326696 0.595132 0.120745
0.0327306 0.594354 0.120592
0.0328222 0.593454 0.120256
0.0328985 0.592538 0.120089
0.0331426 0.59173 0.119921
0.033402 0.59086 0.119722
0.0374609 0.593362 0.119142
0.0468757 0.602365 0.114565
0.0563363 0.613169 0.104448
0.0664988 0.628092 0.0874342
0.0762798 0.646021 0.0793164
0.0878309 0.663798 0.0628672
0.148821 0.680613 0.0530251
0.281468 0.697093 0.047776
0.38526 0.712535 0.0333104
0.466835 0.724056 0.0530098
0.544182 0.730938 0.0995499
0.615747 0.734951 0.160327
0.673976 0.740887 0.216312
0.717632 0.747936 0.252522
0.753979 0.754589 0.276081
