site/assets/luts/freshluts--0000133-s-log-to-rec709-basic.cube
# LUTr-Schema-Version: 2
# LUTr-ID: freshluts--0000133-s-log-to-rec709-basic
# LUTr-Title: S-Log to Rec709 - Basic
# LUTr-Collection: Fresh LUTs
# LUTr-Collection-ID: freshluts-community
# LUTr-Source: https://freshluts.com
# LUTr-Retrieved: 2026-07-27
# LUTr-Source-File: submissions-raw/freshluts/cubes/133__S-Log_to_Rec_709_-_Basic.cube
# LUTr-Source-Format: CUBE
# LUTr-Source-SHA256: db08922c818b015f12cde33586ca2f49f5a39c1e2fb7c2198d0b85ff49d71834
# LUTr-License: CC0-1.0
# LUTr-License-URL: https://freshluts.com/termsandconditions
# LUTr-License-Basis: site-terms
# LUTr-Transform-Class: creative-look
# LUTr-Tags: creative, freshluts, community, cube, sony-s-log1
# LUTr-Input-Color-Space: sony-slog1-sgamut
# LUTr-Input-Gamut: sony-s-gamut
# LUTr-Input-Transfer: sony-s-log1
# LUTr-Output-Color-Space: srgb
# LUTr-Output-Gamut: rec709
# LUTr-Output-Transfer: srgb
# LUTr-Color-Space-Confidence: inferred-from-source-label
# LUTr-Domain-Normalized: true
# LUTr-Shaper: none
# LUTr-Original-Grid: 33x33x33
# LUTr-Conversion-Grid: 33x33x33
# LUTr-Conversion-Interpolation: none
# LUTr-Conversion-Method: Metadata normalization; numeric LUT samples preserved
# LUTr-Conversion-Tool: LUTr scripts/convert-all-to-cube.mjs 2.0.0
# LUTr-Conversion-Date: 2026-07-28
# LUTr-Asset-URL: https://freshluts.com/luts/133
# LUTr-Author: Alex Jordan
# LUTr-Author-URL: https://freshluts.com/users/1
# LUTr-Attribution: Alex Jordan via Fresh LUTs
# LUTr-Source-Labels: gamma=Sony S-Log; color=None; key=Neutral; style=Protect highlights
# LUTr-Note: Preserve this metadata and the upstream license notices when redistributing.
TITLE "S-Log to Rec709 - Basic"
LUT_3D_SIZE 33
DOMAIN_MIN 0 0 0
DOMAIN_MAX 1 1 1
0 0 0
0 0 0
0 0 0
0 0 0
0 0 0
0 0 0
0 0 0
0 0 0
0 0 0
0 0 0
0 0 0
0 0 0
0 0 0
0 0 0
0 0 0
0 0 0
0 0 0
0 0 0
0 0 0
0 0 0
0 0 0
0 0 0
0 0 0
0 0 0
0 0 0
0 0 0
0 0 0
0 0 0
0 0 0
0 0 0
0 0 0
0 0 0
0 0 0
0 0 0
0 0 0
0 0 0
0 0 0
0 0 0
0 0 0
0 0 0
0 0 0
0 0 0
0 0 0
0 0 0
0 0 0
0 0 0
0 0 0
0 0 0
0 0 0
0 0 0
0 0 0
0 0 0
0 0 0
0 0 0
0 0 0
0 0 0
0 0 0
0 0 0
0 0 0
0 0 0
0 0 0
0 0 0
0 0 0
0 0 0
0 0 0
0 0 0
0 0 0
0 0 0
0 0 0
0 0 0
0 0 0
0 0 0
0 0 0
0 0 0
0 0 0
0 0 0
0 0 0
0 0 0
0 0 0
0 0 0
0 0 0
0 0 0
0 0 0
0 0 0
0 0 0
0 0 0
0 0 0
0 0 0
0 0 0
0 0 0
0 0 0
0 0 0
0 0 0
0 0 0
0 0 0
0 0 0
0.0273289 0.00047303 0
0.0647898 0 0
0.108858 0 0
0 0 0
0 0 0
0 0 0
0 0 0
0 0 0
0 0 0
0 0 0
0 0 0
0 0 0
0 0 0
0 0 0
0 0 0
0 0 0
0 0 0
0 0 0
0 0 0
0 0 0
0 0 0
0 0 0
0 0 0
0 0 0
0 0 0
0 0 0
0 0 0
0 0 0
0 0 0
0.0083772 0.000900282 0
0.0356146 0.00189212 0
0.0708629 0.00256352 0
0.111391 0.00263981 0
0.156374 0.00204471 0
0.205524 0.000701915 0
0.258701 0 0
0 0 0
0 0 0
0 0 0
0 0 0
0 0 0
0 0 0
0 0 0
0 0 0
0 0 0
0 0 0
0 0 0
0 0 0
0 0 0
0 0 0
0 0 0
0 0 0
0 0 0
0 0 0
0 0 0
0 0 0
0 0 0
0 0 0
0 0 0
0.0160678 0.00218204 0
0.0415198 0.00430304 0
0.0737621 0.0062562 0
0.110491 0.00770581 0
0.151278 0.00851453 0
0.195941 0.00865187 0
0.244434 0.0080415 0
0.296742 0.00665293 0
0.352834 0.00447089 0
0.412757 0.00144961 0
0 0 0
0 0 0
0 0 0
0 0 0
0 0 0
0 0 0
0 0 0
0 0 0
0 0 0
0 0 0
0 0 0
0 0 0
0 0 0
0 0 0
0 0 0
0 0 0
0 0 0
0 0 0
0 0 0
0.00158694 0.000717174 0.000396735
0.0205081 0.00418097 0
0.0446174 0.00770581 0
0.0734417 0.0109865 0
0.106218 0.0138094 0
0.142718 0.0160525 0
0.182879 0.0176394 0
0.226658 0.0185397 0
0.274083 0.0186923 0
0.32517 0.0180667 0
0.379934 0.0166323 0
0.438483 0.0143587 0
0.500816 0.0112154 0
0.567071 0.00717174 0
0 0 0
0 0 0
0 0 0
0 0 0
0 0 0
0 0 0
0 0 0
0 0 0
0 0 0
0 0 0
0 0 0
0 0 0
0 0 0
0 0 0
0 0 0
0 0 0
0.00762951 0.00282292 0
0.0235142 0.00720226 0
0.0448157 0.0120699 0
0.0700084 0.0166934 0
0.0987259 0.0208896 0
0.130907 0.0245518 0
0.166522 0.0276036 0
0.205585 0.029984 0
0.248142 0.0316625 0
0.294224 0.0325933 0
0.343893 0.0327459 0
0.397192 0.0320745 0
0.454215 0.0305638 0
0.515007 0.0281834 0
0.579644 0.0248875 0
0.648219 0.020676 0
0.720775 0.0154879 0
0 0 0
0 0 0
0 0 0
0 0 0
0 0 0
0 0 0
0 0 0
0 0 0
0 0 0
0 0 0
0 0 0
0 0 0
0 0 0
0.0100557 0.0053254 0
0.0241093 0.0111391 0
0.0422065 0.017319 0
0.0636454 0.02327 0
0.0882887 0.0288396 0
0.116136 0.0339055 0
0.14725 0.0383917 0
0.181628 0.042237 0
0.219348 0.0454261 0
0.260487 0.0478828 0
0.305058 0.0495918 0
0.353185 0.0505074 0
0.404898 0.0506142 0
0.460273 0.0498665 0
0.519417 0.048249 0
0.582376 0.045716 0
0.649241 0.0422522 0
0.720073 0.0378271 0
0.794949 0.0324254 0
0.87393 0.0260166 0
0 0 0
0 0 0
0 0 0
0 0 0
0 0 0
0 0 0
0 0 0
0 0 0
0 0 0
0.00228885 0.00209049 0.000213626
0.0107118 0.00852979 0
0.0224308 0.0157931 0
0.037232 0.0232242 0
0.0549325 0.0304417 0
0.0755779 0.0373236 0
0.0992294 0.0437171 0
0.125933 0.0495766 0
0.155764 0.0548409 0
0.1888 0.0594644 0
0.225101 0.0634012 0
0.264759 0.0666056 0
0.30782 0.0690471 0
0.354376 0.0706951 0
0.404501 0.071519 0
0.458289 0.0715038 0
0.515801 0.0705882 0
0.577111 0.0687877 0
0.642298 0.066041 0
0.711421 0.0623331 0
0.784573 0.0576486 0
0.861952 0.0519265 0
0.944686 0.044892 0
1 0.0364385 0
0 0 0
0 0 0
0 0 0
0 0 0
0 0 0
0 0 0
0.00383001 0.00544747 0
0.0101167 0.0127413 0
0.0188754 0.0213016 0
0.0300298 0.0300298 0
0.0437934 0.0385748 0
0.0602731 0.0467994 0
0.07953 0.0545968 0
0.101686 0.0618906 0
0.126818 0.0686046 0
0.155001 0.0747234 0
0.186328 0.0801709 0
0.22089 0.0849165 0
0.258762 0.0889448 0
0.300008 0.092195 0
0.344732 0.094667 0
0.392996 0.0962997 0
0.444892 0.0970779 0
0.500496 0.0969711 0
0.559869 0.0959487 0
0.623102 0.0940108 0
0.690272 0.0911116 0
0.761791 0.0871443 0
0.838575 0.0819104 0
0.92079 0.075349 0
1 0.0674296 0
1 0.0581216 0
1 0.0475624 0
0 0 0
0 0 0
0.000411994 0.000411994 0.000411994
0.002533 0.00903334 0
0.00656138 0.0180667 0
0.0128786 0.0277714 0
0.0213931 0.0375525 0
0.0318761 0.0472725 0
0.0435798 0.0569924 0
0.0578775 0.066331 0
0.0751354 0.0751354 0
0.0952926 0.0834058 0
0.118395 0.0910658 0
0.144549 0.0981155 0
0.173785 0.104479 0
0.206302 0.11014 0
0.242069 0.115053 0
0.281193 0.119203 0
0.323781 0.12256 0
0.369894 0.125078 0
0.419608 0.126757 0
0.473014 0.127535 0
0.53019 0.127413 0
0.591196 0.126345 0
0.656718 0.124224 0
0.727199 0.120897 0
0.802823 0.11632 0
0.88365 0.110491 0
0.969619 0.103365 0
1 0.0950179 0
1 0.0855116 0
1 0.0749523 0
1 0.0634623 0
0 0.0139467 0
0 0.0245975 0
0.00234989 0.0356451 0
0.00747692 0.0466621 0
0.0148623 0.057496 0
0.0244755 0.0680705 0
0.0361486 0.0783703 0
0.0496071 0.088426 0
0.0636454 0.0985122 0
0.0807355 0.107988 0
0.101198 0.116747 0
0.124834 0.124834 0
0.151644 0.132204 0
0.181674 0.138872 0
0.215015 0.144778 0
0.251713 0.149905 0
0.291859 0.154223 0
0.335546 0.157717 0
0.382818 0.160342 0
0.433768 0.162081 0
0.488563 0.162905 0
0.547768 0.162707 0
0.611658 0.161379 0
0.6804 0.158907 0
0.754055 0.15523 0
0.832563 0.150347 0
0.91574 0.144289 0
1 0.137118 0
1 0.128908 0
1 0.119768 0
1 0.109834 0
1 0.0991989 0
1 0.0879835 0
0 0.0572061 0
0 0.0693523 0
0 0.081178 0
0.00663767 0.0926375 0
0.0171817 0.103731 0
0.0299229 0.114427 0
0.0446326 0.124773 0
0.0608835 0.13489 0
0.0771344 0.145129 0
0.0968795 0.154589 0
0.12047 0.163165 0
0.147509 0.170962 0
0.177966 0.177966 0
0.211872 0.184176 0
0.249241 0.189563 0
0.290166 0.194095 0
0.334691 0.197772 0
0.383078 0.200549 0
0.435645 0.202365 0
0.492622 0.203143 0
0.554177 0.202838 0
0.620371 0.201404 0
0.691249 0.198825 0
0.766583 0.195102 0
0.846159 0.19028 0
0.929625 0.184436 0
1 0.17763 0
1 0.16997 0
1 0.161563 0
1 0.152483 0
1 0.142824 0
1 0.132631 0
1 0.121965 0
0 0.108705 0
0 0.12108 0
0 0.132998 0
0 0.144472 0
0.0119631 0.155489 0
0.0277867 0.166094 0
0.0454871 0.176349 0
0.0645151 0.186358 0
0.082826 0.196689 0
0.105165 0.206058 0
0.131853 0.214405 0
0.162295 0.221851 0
0.196399 0.228428 0
0.23415 0.23415 0
0.275669 0.239002 0
0.321187 0.242954 0
0.370886 0.245945 0
0.424933 0.247913 0
0.483452 0.248783 0
0.546426 0.248569 0
0.613779 0.247211 0
0.685313 0.24477 0
0.760784 0.241276 0
0.839811 0.236774 0
0.922057 0.231373 0
1 0.225132 0
1 0.218143 0
1 0.210483 0
1 0.202197 0
1 0.193301 0
1 0.183505 0
1 0.172671 0
1 0.160739 0
0 0.166308 0
0 0.178607 0
0 0.190402 0
0 0.201709 0
0 0.212543 0
0.0169985 0.222965 0
0.037644 0.233021 0
0.0594034 0.242908 0
0.0797589 0.253254 0
0.104677 0.262501 0
0.134386 0.270588 0
0.168124 0.27779 0
0.205859 0.284077 0
0.247715 0.289433 0
0.293797 0.293797 0
0.344244 0.297093 0
0.399084 0.29929 0
0.458274 0.300374 0
0.521691 0.300313 0
0.58912 0.299168 0
0.660288 0.296971 0
0.73492 0.293782 0
0.81265 0.289677 0
0.893248 0.284718 0
0.97641 0.278996 0
1 0.272572 0
1 0.2654 0
1 0.257298 0
1 0.248219 0
1 0.238102 0
1 0.226902 0
1 0.214557 0
1 0.201068 0
0 0.229587 0
0 0.241672 0
0 0.253254 0
0 0.264317 0
0 0.274907 0
0 0.285069 0
0.0201877 0.294926 0
0.04448 0.304707 0
0.0664073 0.315312 0
0.09337 0.324758 0
0.125811 0.332906 0
0.162921 0.339925 0
0.204578 0.34583 0
0.250782 0.350576 0
0.301472 0.354162 0
0.356558 0.356558 0
0.415854 0.357778 0
0.479149 0.35787 0
0.546166 0.356878 0
0.616617 0.354879 0
0.690211 0.351934 0
0.76672 0.348135 0
0.845945 0.343526 0
0.92845 0.338094 0
1 0.331792 0
1 0.324544 0
1 0.316304 0
1 0.307042 0
1 0.296696 0
1 0.285252 0
1 0.272663 0
1 0.258946 0
1 0.244114 0
0 0.298497 0
0 0.310323 0
0 0.321599 0
0 0.332403 0
0 0.342931 0
0 0.353231 0
0 0.363333 0
0.0160525 0.373434 0
0.0394751 0.384375 0
0.0689403 0.39379 0
0.104829 0.401541 0
0.146014 0.407889 0
0.192126 0.412894 0
0.242893 0.416587 0
0.298039 0.419028 0
0.357305 0.420264 0
0.420386 0.420386 0
0.486976 0.419455 0
0.556832 0.417563 0
0.629786 0.414786 0
0.706172 0.4112 0
0.786175 0.40676 0
0.869963 0.40145 0
0.957717 0.395193 0
1 0.387945 0
1 0.379675 0
1 0.370352 0
1 0.35993 0
1 0.348424 0
1 0.335805 0
1 0.322179 0
1 0.307546 0
1 0.292012 0
0 0.373266 0
0 0.385168 0
0 0.396765 0
0 0.407965 0
0 0.418738 0
0 0.429084 0
0 0.439002 0
0 0.448737 0
0.000350958 0.459281 0
0.0336004 0.467903 0
0.0740063 0.474556 0
0.119966 0.479606 0
0.170794 0.483253 0
0.226032 0.485603 0
0.285313 0.486763 0
0.348257 0.486854 0
0.414633 0.486015 0
0.484413 0.484413 0
0.557733 0.481987 0
0.634745 0.478706 0
0.715587 0.474525 0
0.800412 0.469413 0
0.889342 0.46331 0
0.982483 0.456184 0
1 0.448005 0
1 0.438743 0
1 0.428412 0
1 0.417044 0
1 0.404654 0
1 0.391348 0
1 0.377172 0
1 0.36228 0
1 0.346792 0
0 0.456489 0
0 0.468711 0
0 0.480278 0
0 0.491142 0
0 0.501244 0
0 0.510597 0
0 0.519341 0
0 0.527764 0
0 0.537087 0
0 0.54432 0
0.0377203 0.549447 0
0.0883955 0.553033 0
0.143572 0.555322 0
0.202426 0.556725 0
0.264836 0.557305 0
0.3308 0.557061 0
0.400443 0.555993 0
0.473854 0.55404 0
0.551171 0.551171 0
0.632517 0.547341 0
0.717968 0.542504 0
0.807599 0.536645 0
0.901411 0.529702 0
0.999313 0.521691 0
1 0.512612 0
1 0.50248 0
1 0.491371 0
1 0.479332 0
1 0.466484 0
1 0.452903 0
1 0.438712 0
1 0.424018 0
1 0.408911 0
0 0.547555 0
0 0.558831 0
0 0.569085 0
0 0.578317 0
0 0.586603 0
0 0.594049 0
0 0.600916 0
0 0.607584 0
0 0.615473 0
0 0.621408 0
0 0.625757 0
0.0505989 0.629023 0
0.107912 0.631327 0
0.169162 0.632731 0
0.234318 0.633234 0
0.303441 0.632807 0
0.376593 0.631403 0
0.45388 0.629007 0
0.535348 0.625559 0
0.621027 0.621027 0
0.710872 0.615381 0
0.804761 0.608621 0
0.902495 0.600763 0
1 0.591836 0
1 0.581888 0
1 0.571023 0
1 0.559304 0
1 0.546853 0
1 0.533776 0
1 0.52015 0
1 0.506096 0
1 0.491676 0
1 0.476997 0
0 0.641749 0
0 0.650752 0
0 0.658625 0
0 0.665507 0
0 0.67155 0
0 0.676982 0
0 0.68246 0
0 0.688548 0
0 0.696635 0
0 0.703044 0
0 0.707729 0
0.000427253 0.711192 0
0.059968 0.713573 0
0.123919 0.714885 0
0.192218 0.715145 0
0.264881 0.714275 0
0.341939 0.712261 0
0.423346 0.709087 0
0.508995 0.704707 0
0.598764 0.699153 0
0.692424 0.692409 0
0.789624 0.684535 0
0.890043 0.675608 0
0.993317 0.665721 0
1 0.654963 0
1 0.643427 0
1 0.631235 0
1 0.618494 0
1 0.605264 0
1 0.591638 0
1 0.577722 0
1 0.563546 0
1 0.549203 0
0 0.7346 0
0 0.740978 0
0 0.746578 0
0 0.752102 0
0 0.757671 0
0 0.763378 0
0 0.76936 0
0 0.775998 0
0 0.784741 0
0 0.791592 0
0 0.796445 0
0 0.799863 0
0 0.801968 0
0.0667124 0.802731 0
0.138949 0.802213 0
0.215869 0.800336 0
0.297307 0.797162 0
0.383047 0.79266 0
0.472831 0.786862 0
0.566278 0.779889 0
0.663035 0.771801 0
0.762707 0.762707 0
0.864912 0.752697 0
0.969299 0.741909 0
1 0.730419 0
1 0.718349 0
1 0.70576 0
1 0.692775 0
1 0.679454 0
1 0.665843 0
1 0.652049 0
1 0.638086 0
1 0.624018 0
0 0.826566 0
0 0.832746 0
0 0.838895 0
0 0.845014 0
0 0.851148 0
0 0.857343 0
0 0.863737 0
0 0.87068 0
0 0.879759 0
0 0.886549 0
0 0.890974 0
0 0.893599 0
0 0.894591 0
0.000976577 0.894011 0
0.0781872 0.89192 0
0.160143 0.888289 0
0.246326 0.88333 0
0.336385 0.877073 0
0.429908 0.869657 0
0.526482 0.861189 0
0.625696 0.851789 0
0.727199 0.841581 0
0.830655 0.83064 0
0.935729 0.819104 0
1 0.807034 0
1 0.794537 0
1 0.781689 0
1 0.768536 0
1 0.755154 0
1 0.741588 0
1 0.727901 0
1 0.714137 0
1 0.700328 0
0 0.925963 0
0 0.932799 0
0 0.939498 0
0 0.946014 0
0 0.952346 0
0 0.958526 0
0 0.964645 0
0 0.971084 0
0 0.979522 0
0 0.985214 0
0 0.988128 0
0 0.988891 0
0 0.987839 0
0 0.985107 0
0.0159152 0.980865 0
0.102815 0.97525 0
0.193393 0.968399 0
0.28719 0.960449 0
0.383795 0.951537 0
0.482811 0.941787 0
0.583886 0.931319 0
0.686702 0.920211 0
0.790982 0.908553 0
0.896468 0.896452 0
1 0.88397 0
1 0.871183 0
1 0.858137 0
1 0.844907 0
1 0.831525 0
1 0.818051 0
1 0.804501 0
1 0.790967 0
1 0.777523 0
0 1 0
0 1 0
0 1 0
0 1 0
0 1 0
0 1 0
0 1 0
0 1 0
0 1 0
0 1 0
0 1 0
0 1 0
0 1 0
0 1 0
0 1 0
0.0474556 1 0
0.141573 1 0
0.238285 1 0
0.337194 1 0
0.43798 1 0
0.540337 1 0
0.644007 0.998093 0
0.74876 0.985931 0
0.854398 0.973434 0
0.960708 0.960693 0
1 0.947738 0
1 0.934585 0
1 0.921294 0
1 0.907897 0
1 0.894484 0
1 0.881132 0
1 0.867933 0
1 0.854978 0
0 1 0
0 1 0
0 1 0
0 1 0
0 1 0
0 1 0
0 1 0
0 1 0
0 1 0
0 1 0
0 1 0
0 1 0
0 1 0
0 1 0
0 1 0
0 1 0
0.0924849 1 0
0.191272 1 0
0.291783 1 0
0.393759 1 0
0.49691 1 0
0.601053 1 0
0.705989 1 0
0.811521 1 0
0.917418 1 0
1 1 0
1 1 0
1 0.996506 0
1 0.983047 0
1 0.969726 0
1 0.956649 0
1 0.943893 0
1 0.931472 0
0 1 0
0 1 0
0 1 0
0 1 0
0 1 0
0 1 0
0 1 0
0 1 0
0 1 0
0 1 0
0 1 0
0 1 0
0 1 0
0 1 0
0 1 0
0 1 0
0.0469062 1 0
0.147066 1 0
0.248585 1 0
0.351308 1 0
0.455009 1 0
0.559487 1 0
0.664469 1 0
0.76965 1 0
0.874662 1 0
0.97911 1 0
1 1 0
1 1 0
1 1 0
1 1 0
1 1 0
1 1 0
1 1 0
0 1 0
0 1 0
0 1 0
0 1 0
0 1 0
0 1 0
0 1 0
0 1 0
0 1 0
