site/assets/luts/freshluts--0000698-vintage-mob.cube
# LUTr-Schema-Version: 2
# LUTr-ID: freshluts--0000698-vintage-mob
# LUTr-Title: Vintage Mob
# LUTr-Collection: Fresh LUTs
# LUTr-Collection-ID: freshluts-community
# LUTr-Source: https://freshluts.com
# LUTr-Retrieved: 2026-07-27
# LUTr-Source-File: submissions-raw/freshluts/cubes/698__Vintage_Mob.cube
# LUTr-Source-Format: CUBE
# LUTr-Source-SHA256: e782171b0dd554dfb404ae9ac5702caf1801107a52a4ef1f4460e7137423eb49
# LUTr-License: CC0-1.0
# LUTr-License-URL: https://freshluts.com/termsandconditions
# LUTr-License-Basis: site-terms
# LUTr-Transform-Class: creative-look
# LUTr-Tags: creative, freshluts, community, cube, vintage, warm, low-key, rec709
# LUTr-Input-Color-Space: rec709
# LUTr-Input-Gamut: rec709
# LUTr-Input-Transfer: rec709
# LUTr-Output-Color-Space: srgb
# LUTr-Output-Gamut: rec709
# LUTr-Output-Transfer: srgb
# LUTr-Color-Space-Confidence: inferred-from-source-label
# LUTr-Domain-Normalized: true
# LUTr-Shaper: none
# LUTr-Original-Grid: 16x16x16
# LUTr-Conversion-Grid: 16x16x16
# LUTr-Conversion-Interpolation: none
# LUTr-Conversion-Method: Metadata normalization; numeric LUT samples preserved
# LUTr-Conversion-Tool: LUTr scripts/convert-all-to-cube.mjs 2.0.0
# LUTr-Conversion-Date: 2026-07-28
# LUTr-Asset-URL: https://freshluts.com/luts/698
# LUTr-Author: InAvision
# LUTr-Author-URL: https://freshluts.com/users/64078
# LUTr-Attribution: InAvision via Fresh LUTs
# LUTr-Source-Labels: gamma=Rec 709; color=Warm; key=Low Key; style=Vintage
# LUTr-Note: Preserve this metadata and the upstream license notices when redistributing.
TITLE "Vintage Mob"
LUT_3D_SIZE 16
DOMAIN_MIN 0 0 0
DOMAIN_MAX 1 1 1
0.012473 0.008774 0.011725
0.090085 0.015485 0.012296
0.196602 0.022061 0.00946
0.348966 0.022116 0.000734
0.46377 0.012279 0
0.570253 0 0
0.633135 0 0
0.681409 0 0
0.725267 0 0
0.759285 0 0
0.778674 0 0
0.796159 0 0
0.81166 0 0
0.824615 0 0
0.83402 0.004972 0
0.838264 0.007239 0
0.014309 0.079653 0.021016
0.05556 0.076514 0.01888
0.115118 0.087402 0.016958
0.2064 0.102376 0.01209
0.349683 0.116028 0.002103
0.477889 0.118939 0
0.589221 0.11287 0
0.666318 0.10608 0
0.71324 0.101861 0
0.755512 0.09848 0
0.790315 0.097517 0
0.811584 0.101177 0
0.826647 0.106031 0
0.839045 0.110163 0
0.84792 0.112512 0
0.851452 0.110942 0
0.00443 0.142143 0.032922
0.049046 0.136837 0.022982
0.108291 0.146746 0.019147
0.189137 0.161595 0.01277
0.312979 0.180146 0.002204
0.455706 0.193696 0
0.563296 0.197133 0
0.661591 0.195891 0
0.719429 0.193539 0
0.761014 0.191523 0
0.798183 0.189632 0
0.828562 0.188276 0
0.843924 0.188688 0
0.855436 0.188904 0
0.863538 0.187484 0
0.866012 0.181913 0
0 0.213918 0.050722
0.026773 0.211364 0.036311
0.096591 0.221348 0.028136
0.181878 0.237615 0.017403
0.296872 0.258471 0.003054
0.441261 0.278023 0
0.557677 0.286689 0
0.658693 0.289318 0
0.735346 0.288047 0
0.777259 0.285356 0
0.81338 0.282266 0
0.845526 0.278797 0
0.868996 0.275354 0
0.87914 0.271779 0
0.885899 0.266306 0
0.886616 0.256367 0
0 0.294465 0.069065
0.00242 0.295293 0.051621
0.060243 0.30595 0.040227
0.165239 0.323281 0.025105
0.282985 0.346625 0.004687
0.429327 0.369594 0
0.558021 0.381117 0
0.657464 0.383931 0
0.749362 0.38274 0
0.795516 0.377935 0
0.830598 0.372395 0
0.861719 0.36618 0
0.887864 0.359045 0
0.903178 0.351244 0
0.908526 0.341476 0
0.907663 0.326844 0
0 0.368436 0.086003
0 0.370001 0.068169
0.017268 0.381252 0.05331
0.135141 0.398845 0.034872
0.260854 0.422155 0.007875
0.411127 0.451462 0
0.554297 0.469012 0
0.655804 0.473137 0
0.748805 0.472641 0
0.811886 0.467173 0
0.846469 0.459714 0
0.876863 0.45138 0
0.902925 0.442287 0
0.923923 0.431703 0
0.931162 0.419243 0
0.929415 0.399885 0
0 0.434366 0.104427
0 0.437898 0.084927
0.001119 0.450182 0.067458
0.087578 0.467825 0.045896
0.232268 0.490138 0.013875
0.383961 0.518576 0
0.547179 0.547308 0
0.651021 0.550488 0
0.742978 0.548604 0
0.819176 0.542174 0
0.856494 0.533181 0
0.886792 0.523294 0
0.91265 0.512506 0
0.933518 0.500275 0
0.946376 0.485937 0
0.947941 0.467078 0
0 0.487833 0.129701
0 0.491832 0.110532
0 0.503724 0.092361
0.025744 0.521458 0.066537
0.196863 0.544459 0.030584
0.354631 0.573618 0
0.52384 0.605815 0
0.645272 0.622764 0
0.737572 0.621565 0
0.818519 0.615083 0
0.865514 0.605168 0
0.895237 0.592889 0
0.920797 0.579632 0
0.941511 0.564779 0
0.955825 0.547403 0
0.960336 0.525124 0
0 0.538798 0.159863
0 0.543156 0.141875
0 0.554656 0.124726
0 0.571413 0.101276
0.148334 0.592818 0.06854
0.321843 0.619943 0.014203
0.491656 0.65104 0
0.62481 0.672206 0
0.729447 0.680844 0
0.813681 0.673979 0
0.869573 0.664001 0
0.900609 0.652795 0
0.927092 0.640703 0
0.947887 0.625695 0
0.962783 0.608088 0
0.967438 0.583585 0
0 0.583454 0.193016
0 0.589655 0.17645
0 0.601662 0.160556
0 0.618311 0.139434
0.077406 0.639 0.112412
0.283123 0.664546 0.067111
0.455301 0.69399 0.008069
0.599592 0.716998 0
0.709592 0.731635 0
0.806152 0.732991 0
0.870006 0.720959 0
0.904023 0.707597 0
0.930067 0.693347 0
0.951493 0.677537 0
0.966908 0.6596 0
0.972678 0.636788 0
0 0.612673 0.227148
0 0.622283 0.212144
0 0.634886 0.197746
0 0.652152 0.178936
0.035226 0.67347 0.154698
0.239608 0.699492 0.127101
0.416854 0.729426 0.063047
0.571382 0.75599 0.001131
0.680347 0.771732 0
0.786996 0.784874 0
0.869533 0.779343 0
0.906917 0.763855 0
0.933172 0.747312 0
0.954795 0.72901 0
0.969788 0.708216 0
0.975417 0.682601 0
0 0.63844 0.260603
0 0.649325 0.246982
0 0.660875 0.233904
0 0.676921 0.217132
0.011465 0.696406 0.196577
0.193011 0.721578 0.180323
0.378943 0.750528 0.137544
0.537014 0.778096 0.068232
0.649473 0.795543 0.004062
0.753621 0.810704 0
0.851157 0.818166 0
0.90766 0.813621 0
0.934858 0.798825 0
0.957197 0.781209 0
0.972605 0.758266 0
0.977965 0.729263 0
0 0.66322 0.291979
0 0.673135 0.279638
0 0.683977 0.267619
0 0.698636 0.252414
0.000598 0.716389 0.234424
0.115701 0.739869 0.214102
0.340445 0.766442 0.195074
0.499972 0.793668 0.149279
0.617414 0.811904 0.093426
0.718633 0.826552 0.021217
0.819735 0.840506 0.001031
0.894168 0.839831 0
0.932775 0.835482 0
0.956599 0.821701 0
0.973919 0.805183 0
0.980387 0.776624 0
0 0.683062 0.315643
0 0.69303 0.307443
0 0.703191 0.297107
0 0.716722 0.283261
0 0.733054 0.266957
0.058625 0.754248 0.247243
0.296676 0.778852 0.239434
0.459207 0.805252 0.205564
0.583445 0.824861 0.165275
0.681774 0.838805 0.117414
0.778677 0.852263 0.046766
0.874061 0.862514 0
0.918209 0.857511 0
0.953416 0.853155 0
0.971519 0.836388 0
0.980361 0.815983 0
0 0.696981 0.330408
0 0.706332 0.322943
0 0.716279 0.314985
0 0.729113 0.304863
0 0.744587 0.292102
0.004898 0.76347 0.274811
0.242239 0.78638 0.268448
0.411845 0.811099 0.246187
0.547025 0.832893 0.212752
0.64165 0.846338 0.177262
0.73437 0.859212 0.132816
0.828532 0.871574 0.074574
0.89918 0.87535 0.023114
0.935259 0.870537 0
0.968536 0.866419 0
0.977663 0.844053 0
0 0.703132 0.336851
0 0.711921 0.329915
0 0.721244 0.32312
0 0.732845 0.315168
0 0.747479 0.304858
0 0.764396 0.289983
0.165547 0.784741 0.276977
0.352106 0.807658 0.269831
0.493669 0.830485 0.241429
0.595254 0.845524 0.211798
0.683524 0.857982 0.177826
0.77131 0.869684 0.13595
0.860743 0.881266 0.077834
0.911609 0.880581 0.017926
0.943991 0.876149 0
0.974964 0.872225 0
0.026395 0.012368 0.080891
0.185018 0.016758 0.061788
0.298978 0.013015 0.046911
0.418638 0.003273 0.033947
0.529201 0.000821 0.018994
0.614764 0 0.008154
0.663973 0 0.000924
0.708605 0 0
0.749881 0 0
0.773953 0 0
0.792131 0 0
0.808585 0 0
0.823056 0 0
0.835108 0 0
0.843947 0 0
0.847535 0 0
0.007938 0.081411 0.101547
0.060439 0.082727 0.081749
0.132405 0.092657 0.074425
0.239932 0.105799 0.066021
0.391709 0.114007 0.049433
0.513544 0.111193 0.029899
0.621468 0.100437 0.012237
0.686604 0.092429 0.002032
0.732781 0.087433 0
0.773785 0.084245 0
0.805178 0.085281 0
0.824391 0.091223 0
0.839649 0.098439 0
0.852306 0.105488 0
0.86148 0.111191 0
0.865506 0.113728 0
0 0.145084 0.118326
0.045158 0.143907 0.098654
0.115082 0.152781 0.089987
0.207205 0.166334 0.08076
0.345865 0.182453 0.065134
0.483045 0.19088 0.04239
0.591804 0.191141 0.020593
0.685916 0.187322 0.003802
0.736017 0.184459 0
0.777401 0.182044 0
0.814442 0.179976 0
0.840609 0.179526 0
0.855187 0.180751 0
0.866695 0.181495 0
0.875173 0.181169 0
0.878076 0.177198 0
0 0.219366 0.136133
0.017702 0.21924 0.116677
0.095986 0.228864 0.106896
0.191044 0.244079 0.095523
0.318896 0.26387 0.078089
0.469759 0.280463 0.050783
0.579972 0.285677 0.024432
0.68227 0.286072 0.004974
0.750178 0.283252 0
0.79095 0.279918 0
0.827222 0.27634 0
0.859278 0.272511 0
0.878691 0.269311 0
0.888996 0.265804 0
0.895604 0.260464 0
0.89677 0.250744 0
0 0.30398 0.154463
0.000651 0.304682 0.134754
0.049185 0.314848 0.122784
0.169071 0.330394 0.110084
0.297734 0.352102 0.089541
0.450145 0.37233 0.057064
0.574544 0.380629 0.024272
0.675148 0.381969 0.003427
0.763098 0.379337 0
0.805694 0.374083 0
0.841051 0.368396 0
0.872393 0.362047 0
0.898978 0.354943 0
0.910915 0.347449 0
0.91651 0.338037 0
0.916462 0.323888 0
0 0.380775 0.173397
0 0.382199 0.154133
0.0125 0.392681 0.140259
0.132937 0.409155 0.126194
0.270016 0.431764 0.1032
0.429593 0.459936 0.066271
0.569029 0.473716 0.02613
0.670235 0.475909 0.001437
0.764295 0.473843 0
0.820381 0.467352 0
0.855175 0.459253 0
0.885751 0.450367 0
0.911857 0.440662 0
0.931484 0.429424 0
0.937716 0.416465 0
0.936136 0.397216 0
0 0.450652 0.194442
0 0.454171 0.176272
0.00081 0.464676 0.161566
0.070549 0.480475 0.144465
0.23499 0.501847 0.123085
0.396577 0.529121 0.084738
0.558244 0.554461 0.038594
0.662323 0.555706 0.00664
0.755312 0.552271 0
0.82803 0.544571 0
0.863553 0.534919 0
0.894172 0.524667 0
0.920401 0.513606 0
0.941625 0.501267 0
0.953198 0.486618 0
0.95426 0.467651 0
0 0.504809 0.218319
0 0.509566 0.20192
0 0.521238 0.187368
0.004067 0.538171 0.169492
0.190434 0.560328 0.151442
0.361192 0.588436 0.115186
0.532196 0.617984 0.062836
0.653901 0.632394 0.020347
0.747342 0.628555 0.000961
0.827575 0.620199 0
0.871288 0.609045 0
0.901552 0.596256 0
0.92736 0.582455 0
0.948291 0.567133 0
0.962945 0.549399 0
0.966679 0.526863 0
0 0.555109 0.244487
0 0.561143 0.229989
0 0.572488 0.21583
0 0.588395 0.198379
0.12527 0.609028 0.179589
0.323931 0.635561 0.153415
0.500135 0.665551 0.101801
0.629798 0.68405 0.05342
0.736871 0.692068 0.007763
0.82163 0.683421 0
0.875075 0.672389 0
0.906105 0.660294 0
0.932763 0.64744 0
0.954352 0.631251 0
0.969258 0.612256 0
0.974038 0.586711 0
0 0.599754 0.272645
0 0.608599 0.259964
0 0.619868 0.246278
0 0.635648 0.22929
0.059827 0.655092 0.209164
0.283013 0.679975 0.19247
0.461003 0.708469 0.150598
0.601971 0.729127 0.097812
0.713726 0.742894 0.050582
0.81293 0.743867 0.006974
0.875178 0.73095 0
0.908328 0.71695 0
0.935018 0.701924 0
0.957044 0.685491 0
0.972715 0.666739 0
0.978911 0.643293 0
0 0.629331 0.299918
0 0.642092 0.291109
0 0.654058 0.278803
0 0.670593 0.262513
0.026106 0.690509 0.243144
0.237015 0.715983 0.232758
0.420842 0.744772 0.198445
0.572089 0.769184 0.153816
0.682262 0.783088 0.102299
0.79105 0.795876 0.053549
0.872958 0.789892 0.008628
0.909817 0.773666 0.000661
0.936824 0.756797 0
0.958933 0.73805 0
0.974601 0.716904 0
0.980577 0.690614 0
0 0.65446 0.324369
0 0.667411 0.317528
0 0.678761 0.307955
0 0.694674 0.295696
0.002821 0.713677 0.278599
0.168303 0.73829 0.262213
0.382105 0.766356 0.246219
0.538215 0.792068 0.21054
0.650042 0.808439 0.170622
0.755286 0.822743 0.119891
0.8547 0.831129 0.066952
0.909812 0.825817 0.026155
0.937532 0.809789 0
0.960272 0.790883 0
0.976194 0.767601 0
0.982136 0.738407 0
0 0.676291 0.343784
0 0.689075 0.339588
0 0.699863 0.331978
0 0.71465 0.321151
0 0.732438 0.307986
0.106883 0.755919 0.292776
0.344207 0.781969 0.28946
0.502136 0.807713 0.259982
0.617648 0.824801 0.228658
0.719202 0.838776 0.192589
0.821504 0.852249 0.146732
0.896814 0.852896 0.095204
0.934639 0.847726 0.064917
0.958959 0.833641 0.020917
0.976844 0.816436 0
0.983591 0.785998 0
0 0.694357 0.360397
0 0.706991 0.357824
0 0.716912 0.350804
0 0.730528 0.34153
0 0.747505 0.330637
0.055682 0.768979 0.316696
0.297667 0.793514 0.318376
0.463555 0.819323 0.300809
0.58363 0.837457 0.274697
0.682076 0.851011 0.246021
0.779524 0.863789 0.212848
0.877443 0.875821 0.172427
0.919304 0.87019 0.134978
0.954951 0.86518 0.095169
0.973473 0.848142 0.039869
0.983 0.827547 0.005043
0 0.707588 0.372911
0 0.720488 0.371978
0 0.72942 0.365527
0 0.741799 0.357033
0 0.757323 0.34694
0.008607 0.776733 0.334801
0.230446 0.799795 0.329698
0.418893 0.824644 0.328036
0.547943 0.844998 0.306552
0.642262 0.858107 0.284017
0.7349 0.870789 0.259161
0.829435 0.88291 0.227647
0.899904 0.888473 0.195538
0.936071 0.883322 0.16505
0.969662 0.878516 0.134862
0.979587 0.855847 0.058249
0 0.712913 0.377012
0 0.726305 0.378254
0 0.734376 0.372342
0 0.745434 0.364841
0 0.759538 0.355541
0 0.776844 0.344687
0.148882 0.797551 0.3352
0.360461 0.820747 0.343566
0.497472 0.842745 0.325389
0.596299 0.857246 0.306131
0.684015 0.869634 0.285677
0.771944 0.881263 0.261484
0.861765 0.892547 0.232275
0.911897 0.89356 0.205626
0.944727 0.888747 0.179586
0.976091 0.884374 0.150843
0.066598 0.012166 0.173275
0.325141 0.005421 0.151091
0.396466 0.001037 0.121568
0.473091 0 0.100622
0.573878 0 0.081205
0.638134 0 0.06373
0.685475 0 0.048807
0.728459 0 0.03433
0.765667 0 0.02054
0.786286 0 0.010884
0.803815 0 0.006035
0.819397 0 0.002874
0.833166 0 0.000454
0.844684 0 0
0.853011 0 0
0.856089 0 0
0.00883 0.086082 0.180922
0.068874 0.089581 0.157701
0.149762 0.098923 0.146879
0.268911 0.110598 0.135435
0.419052 0.115905 0.11955
0.538832 0.110071 0.100078
0.64402 0.096288 0.076789
0.70128 0.086749 0.057956
0.74658 0.079491 0.04052
0.786534 0.074777 0.023185
0.814918 0.076179 0.011502
0.832765 0.082312 0.006759
0.847284 0.089733 0.003236
0.859419 0.097222 0.000755
0.86821 0.103699 0
0.87161 0.106986 0
0 0.151688 0.200394
0.043224 0.152064 0.176959
0.123467 0.160696 0.165569
0.224899 0.173579 0.154674
0.372617 0.188318 0.14035
0.503051 0.194326 0.121877
0.61241 0.193262 0.100104
0.70029 0.188764 0.07583
0.748732 0.186156 0.057286
0.7901 0.184663 0.039966
0.827249 0.184152 0.026388
0.852201 0.18652 0.020569
0.867228 0.19087 0.01699
0.879556 0.195317 0.014078
0.888716 0.199239 0.011959
0.892818 0.200968 0.011017
0 0.22962 0.22185
0.010231 0.230182 0.199077
0.095545 0.239549 0.187131
0.201057 0.253682 0.175581
0.338799 0.272434 0.160823
0.489776 0.286531 0.140632
0.596948 0.289816 0.117848
0.698441 0.288825 0.089192
0.761172 0.285464 0.063401
0.801832 0.28243 0.042349
0.83829 0.279656 0.028678
0.869981 0.277012 0.022178
0.888314 0.275427 0.01741
0.899165 0.273908 0.013991
0.906447 0.271168 0.011561
0.908624 0.265261 0.01058
0 0.316832 0.243224
0 0.317822 0.221369
0.040589 0.327221 0.208943
0.171357 0.341084 0.196693
0.311108 0.361893 0.181173
0.468547 0.380224 0.159412
0.58839 0.386185 0.133818
0.689968 0.386174 0.103152
0.772952 0.38222 0.068457
0.814828 0.376784 0.044245
0.850312 0.371281 0.031131
0.881902 0.365643 0.024046
0.908535 0.359373 0.017185
0.919415 0.353141 0.01321
0.925568 0.345649 0.010435
0.926244 0.334251 0.009403
0 0.395486 0.263117
0 0.397608 0.242826
0.006325 0.408497 0.230492
0.123154 0.423857 0.216739
0.27786 0.445831 0.20226
0.444353 0.472387 0.179013
0.580841 0.483514 0.150302
0.682673 0.484296 0.117186
0.777978 0.480585 0.074627
0.828486 0.473411 0.044275
0.863441 0.465013 0.033063
0.894337 0.456003 0.025067
0.920699 0.446273 0.017081
0.939349 0.43552 0.011075
0.945137 0.422996 0.008083
0.944525 0.405914 0.007301
0 0.467574 0.282565
0 0.470847 0.264791
0 0.481865 0.253023
0.037423 0.496638 0.237516
0.238028 0.517277 0.225262
0.408023 0.543498 0.20194
0.567508 0.566325 0.171652
0.67203 0.56612 0.138278
0.766534 0.561234 0.095832
0.835581 0.552244 0.053715
0.870557 0.542184 0.038063
0.901601 0.531859 0.029393
0.928287 0.520833 0.02023
0.950063 0.508562 0.012124
0.96047 0.4945 0.00718
0.961777 0.476291 0.005041
0 0.521626 0.302998
0 0.527622 0.286855
0 0.54058 0.277268
0 0.556548 0.261929
0.181025 0.578026 0.247279
0.369343 0.605199 0.228898
0.538922 0.631529 0.198342
0.66097 0.644644 0.164756
0.756046 0.639455 0.124019
0.835742 0.629488 0.072486
0.876582 0.617666 0.045151
0.907402 0.604443 0.036043
0.933891 0.590637 0.026853
0.955508 0.575303 0.01752
0.970429 0.557836 0.010108
0.973565 0.535839 0.006602
0 0.570889 0.323844
0 0.578663 0.310384
0 0.591432 0.301601
0 0.606709 0.287583
0.099936 0.626944 0.271509
0.330347 0.652623 0.260311
0.506535 0.680308 0.231484
0.634194 0.697092 0.200158
0.743426 0.70514 0.163861
0.828054 0.695289 0.115794
0.879441 0.683227 0.070085
0.911031 0.670742 0.046389
0.938447 0.657488 0.036041
0.960163 0.641069 0.02626
0.975317 0.6215 0.017026
0.980655 0.596098 0.011038
0 0.613982 0.341256
0 0.624861 0.331913
0 0.638721 0.326355
0 0.65357 0.313438
0.055488 0.672577 0.297515
0.289433 0.696871 0.293056
0.469818 0.724179 0.267525
0.60482 0.742236 0.238561
0.717065 0.755156 0.206591
0.818847 0.756728 0.167284
0.87939 0.742794 0.122283
0.911848 0.727961 0.079331
0.939294 0.712696 0.049876
0.961763 0.695986 0.039985
0.977647 0.677292 0.029599
0.984373 0.653997 0.019782
0 0.643921 0.358882
0 0.656747 0.350493
0 0.672487 0.347647
0 0.688445 0.337322
0.013388 0.708261 0.323972
0.227865 0.733452 0.314642
0.429832 0.761575 0.303029
0.574621 0.783153 0.276948
0.684408 0.795605 0.249221
0.794038 0.807609 0.21682
0.875697 0.802659 0.17999
0.912035 0.78591 0.141479
0.939735 0.768165 0.097263
0.962394 0.749009 0.061124
0.978489 0.727821 0.045154
0.984942 0.701539 0.034901
0 0.667882 0.376564
0 0.680072 0.368986
0 0.69568 0.368108
0 0.710744 0.358489
0.000883 0.730112 0.346793
0.165457 0.754968 0.336173
0.392786 0.782677 0.337865
0.542615 0.806738 0.315122
0.65213 0.82193 0.29067
0.757052 0.835758 0.263914
0.857653 0.846133 0.233206
0.910914 0.840425 0.203656
0.939447 0.823184 0.165674
0.962627 0.802921 0.122003
0.979059 0.778955 0.077877
0.985824 0.749361 0.049767
0 0.688699 0.392652
0 0.700563 0.386187
0 0.71608 0.387405
0 0.729861 0.378492
0 0.747662 0.367634
0.113169 0.770641 0.355786
0.357312 0.7968 0.363548
0.510162 0.821537 0.347361
0.620461 0.837849 0.329119
0.721183 0.851549 0.30628
0.823208 0.864457 0.280902
0.897675 0.867181 0.255244
0.935644 0.862179 0.232895
0.960674 0.847986 0.193002
0.979041 0.830161 0.145219
0.986145 0.797839 0.091585
0 0.705756 0.406457
0 0.717571 0.400423
0 0.733323 0.404357
0 0.745712 0.396123
0 0.761729 0.386154
0.065914 0.783168 0.374269
0.303986 0.807273 0.375646
0.475756 0.831907 0.372391
0.588398 0.849077 0.355692
0.685229 0.862514 0.338232
0.781851 0.875346 0.319245
0.878962 0.887698 0.297658
0.919795 0.884172 0.277845
0.955852 0.879459 0.258053
0.974919 0.862514 0.217922
0.984884 0.841395 0.164186
0 0.718286 0.416069
0 0.729839 0.410792
0 0.74587 0.417269
0 0.757193 0.409853
0 0.77183 0.400666
0.024118 0.790955 0.389573
0.236481 0.813388 0.38489
0.436479 0.837423 0.392641
0.554433 0.855718 0.377402
0.646995 0.868858 0.361623
0.73863 0.88124 0.34493
0.832081 0.893328 0.326455
0.900639 0.900884 0.3086
0.936355 0.896354 0.292594
0.970427 0.892297 0.276647
0.98106 0.870135 0.230689
0 0.722905 0.417191
0 0.734835 0.413241
0 0.751401 0.422896
0 0.761186 0.416312
0 0.774525 0.408015
0 0.791428 0.398221
0.154115 0.811506 0.389337
0.376025 0.833904 0.399736
0.509487 0.854107 0.390884
0.602733 0.867686 0.376556
0.688808 0.879688 0.361476
0.775676 0.891158 0.345419
0.864134 0.902528 0.327927
0.912227 0.90577 0.313308
0.945161 0.901559 0.299528
0.976859 0.897894 0.285849
0.146412 0.004178 0.275515
0.433182 0.000619 0.262024
0.576864 0 0.236267
0.553095 0 0.203187
0.618044 0 0.182408
0.664913 0 0.165753
0.709379 0 0.149643
0.750264 0 0.133887
0.780521 0 0.119212
0.799895 0 0.10633
0.816748 0 0.093516
0.831606 0 0.080471
0.844547 0 0.067183
0.855164 0 0.05321
0.862723 0 0.03809
0.86502 0 0.020782
0.011405 0.087146 0.269597
0.085788 0.094862 0.256545
0.174462 0.104004 0.248523
0.307211 0.113752 0.235201
0.451245 0.114913 0.21712
0.567532 0.105986 0.197422
0.665395 0.091725 0.177218
0.7179 0.082943 0.159782
0.762327 0.075797 0.143163
0.801153 0.071619 0.127127
0.826445 0.075089 0.11327
0.843249 0.082957 0.101363
0.857217 0.091516 0.09032
0.868732 0.09548 0.074016
0.876735 0.099653 0.056569
0.879466 0.1016 0.037158
0 0.156038 0.290772
0.047352 0.160506 0.276426
0.136131 0.169861 0.268195
0.248691 0.182458 0.256066
0.40114 0.195582 0.240892
0.525694 0.200919 0.223959
0.635545 0.201146 0.207182
0.715662 0.198041 0.190355
0.761756 0.194759 0.17433
0.802426 0.192098 0.158582
0.838265 0.190235 0.142697
0.860781 0.191162 0.127906
0.875229 0.193846 0.114063
0.887013 0.196904 0.100138
0.895639 0.199692 0.086238
0.898917 0.200616 0.07234
0 0.237967 0.31464
0.002925 0.242471 0.300181
0.09606 0.252596 0.292174
0.214934 0.266737 0.280714
0.363091 0.284937 0.267162
0.50774 0.297047 0.251126
0.615344 0.301039 0.234057
0.714514 0.301626 0.216608
0.773337 0.300139 0.200867
0.814328 0.299335 0.186899
0.851416 0.299175 0.173755
0.884274 0.299503 0.161518
0.901998 0.300844 0.152288
0.913682 0.302731 0.145075
0.922279 0.304521 0.139751
0.92608 0.305337 0.137361
0 0.32834 0.337369
0 0.332198 0.32267
0.033745 0.342129 0.314197
0.174272 0.356125 0.305298
0.328098 0.37588 0.29174
0.489645 0.393212 0.27493
0.603625 0.398541 0.256258
0.706423 0.399252 0.237218
0.783617 0.396154 0.218543
0.825097 0.391701 0.202659
0.861111 0.387304 0.187863
0.893204 0.383034 0.17408
0.918941 0.378785 0.161797
0.930936 0.375006 0.153021
0.938038 0.370439 0.146598
0.940044 0.36375 0.143381
0 0.409437 0.355771
0 0.415087 0.341598
0.000753 0.426538 0.332832
0.110533 0.442433 0.325325
0.288984 0.464318 0.315799
0.460905 0.488753 0.29923
0.59307 0.498308 0.278985
0.696134 0.499169 0.258324
0.791955 0.495785 0.236503
0.836967 0.489102 0.218448
0.872704 0.481529 0.201793
0.904126 0.473094 0.186339
0.93088 0.464215 0.172223
0.949567 0.4548 0.160608
0.955475 0.444499 0.153125
0.956029 0.430943 0.149141
0 0.482168 0.371762
0 0.488545 0.358784
0 0.499938 0.349893
0.011278 0.515679 0.342077
0.23979 0.536881 0.334516
0.423222 0.562193 0.324408
0.57709 0.58169 0.303377
0.682485 0.581674 0.281538
0.778344 0.576827 0.259042
0.842174 0.56797 0.237997
0.877762 0.558141 0.219971
0.909289 0.547977 0.203002
0.936463 0.537395 0.187211
0.958757 0.525937 0.172995
0.968901 0.513175 0.162856
0.970666 0.497177 0.15657
0 0.537088 0.386148
0 0.54657 0.374744
0 0.559393 0.366611
0 0.576944 0.359276
0.170992 0.598936 0.349779
0.383594 0.625371 0.346601
0.54719 0.648599 0.329709
0.668294 0.661156 0.308429
0.765238 0.655813 0.284948
0.844343 0.6459 0.261159
0.881999 0.633866 0.241341
0.913686 0.620894 0.223155
0.940596 0.607236 0.206162
0.962752 0.592483 0.190622
0.977531 0.57583 0.177305
0.981228 0.555467 0.168659
0 0.585632 0.40055
0 0.596019 0.3902
0 0.608766 0.383011
0 0.62596 0.376993
