site/assets/luts/freshluts--0000188-glut004.cube
# LUTr-Schema-Version: 2
# LUTr-ID: freshluts--0000188-glut004
# LUTr-Title: gLUT004
# LUTr-Collection: Fresh LUTs
# LUTr-Collection-ID: freshluts-community
# LUTr-Source: https://freshluts.com
# LUTr-Retrieved: 2026-07-27
# LUTr-Source-File: submissions-raw/freshluts/cubes/188__KILABUNI_1.P2640032.cube
# LUTr-Source-Format: CUBE
# LUTr-Source-SHA256: 39a33e1f83920ad1e6e4ab6908fbab8751b3008c9dd1ed239f1107f2e4d7bc28
# LUTr-License: CC0-1.0
# LUTr-License-URL: https://freshluts.com/termsandconditions
# LUTr-License-Basis: site-terms
# LUTr-Transform-Class: creative-look
# LUTr-Tags: creative, freshluts, community, cube, green, rec709
# LUTr-Input-Color-Space: rec709
# LUTr-Input-Gamut: rec709
# LUTr-Input-Transfer: rec709
# LUTr-Output-Color-Space: srgb
# LUTr-Output-Gamut: rec709
# LUTr-Output-Transfer: srgb
# LUTr-Color-Space-Confidence: declared-by-source
# LUTr-Domain-Normalized: true
# LUTr-Shaper: none
# LUTr-Original-Grid: 33x33x33
# LUTr-Conversion-Grid: 33x33x33
# LUTr-Conversion-Interpolation: none
# LUTr-Conversion-Method: Metadata normalization; numeric LUT samples preserved
# LUTr-Conversion-Tool: LUTr scripts/convert-all-to-cube.mjs 2.0.0
# LUTr-Conversion-Date: 2026-07-28
# LUTr-Asset-URL: https://freshluts.com/luts/188
# LUTr-Author: directorgodfrey_M
# LUTr-Author-URL: https://freshluts.com/users/1455
# LUTr-Attribution: directorgodfrey_M via Fresh LUTs
# LUTr-Source-Labels: gamma=Rec 709; color=Green; key=Neutral; style=Protect highlights
# LUTr-Note: Preserve this metadata and the upstream license notices when redistributing.
TITLE "gLUT004"
LUT_3D_SIZE 5
DOMAIN_MIN 0 0 0
DOMAIN_MAX 1 1 1
0.073518 0.0877852 0.0824292
0.213428 0.00318914 0.0244602
0.32604 0 0.0213626
0.393103 0 0.0327459
0.485573 0 0.128939
0 0.202197 0.167041
0.142809 0.221546 0.0699321
0.405203 0.136385 0.0185702
0.397299 0 0.0383307
0.485573 0 0.128939
0 0.314321 0.225757
0 0.366537 0.228702
0.490852 0.486763 0.0200046
0.843793 0.482383 0.192721
0.485573 0 0.128939
0.5729 0.79733 0.636576
0.589837 0.799237 0.638834
0.77641 0.829633 0.654826
0.928603 0.82739 0.572534
0.943832 0.83714 0.758434
0.857206 0.850233 0.66833
0.855055 0.849714 0.667124
0.859739 0.850858 0.669764
0.918532 0.861158 0.690089
0.949355 0.872969 0.784161
0.0844282 0.0231785 0.177554
0.26125 0.000274662 0.0976577
0.352834 0 0.0202945
0.393637 0 0.0335088
0.485573 0 0.128939
0 0.230869 0.27924
0.228336 0.243336 0.196918
0.463462 0.118914 0.0175784
0.398047 0 0.0393072
0.485573 0 0.128939
0 0.377584 0.324407
0 0.408713 0.31931
0.561715 0.526955 0.219928
0.843839 0.482551 0.192721
0.485573 0 0.128939
0.530846 0.792615 0.631327
0.548455 0.794583 0.633433
0.746929 0.819699 0.643336
0.927764 0.826764 0.570611
0.943557 0.836316 0.757076
0.856703 0.850111 0.66804
0.854551 0.849577 0.666835
0.85951 0.850797 0.669627
0.918349 0.861158 0.69015
0.949355 0.872953 0.784131
0.231937 0.0149538 0.250782
0.315587 0.0103609 0.253483
0.479255 0 0.156268
0.467552 0 0.114153
0.485573 0 0.128939
0.162371 0.212345 0.338582
0.293965 0.221576 0.337819
0.576928 0.094728 0.272358
0.442252 0 0.0871901
0.485573 0 0.128939
0 0.496345 0.49366
0.000015259 0.536812 0.526604
0.674525 0.634516 0.52253
0.868101 0.512703 0.397391
0.485573 0 0.128939
0.701244 0.833219 0.751064
0.702678 0.832105 0.748852
0.789273 0.841321 0.738689
0.932219 0.844724 0.731609
0.943328 0.835721 0.756008
0.854887 0.855665 0.724758
0.85211 0.854765 0.722866
0.857008 0.855314 0.722835
0.915984 0.863584 0.745571
0.949355 0.872953 0.784085
0.541161 0.226688 0.419486
0.552987 0.22768 0.421607
0.690196 0.170642 0.415778
0.700725 0 0.280247
0.485573 0 0.128939
0.551904 0.268055 0.443091
0.565652 0.271458 0.446448
0.713664 0.243381 0.442847
0.744335 0.000228885 0.31284
0.485573 0 0.128939
0.538445 0.592706 0.63743
0.551583 0.595743 0.639612
0.741161 0.61146 0.649042
0.928634 0.553384 0.598321
0.837919 0.141939 0.401129
0.809186 0.868696 0.837949
0.804242 0.865629 0.834211
0.849317 0.877852 0.841856
0.956939 0.897612 0.867277
0.961212 0.87689 0.840604
0.897093 0.902098 0.848203
0.894667 0.901167 0.846418
0.898695 0.902205 0.84625
0.943114 0.910231 0.863279
0.965591 0.910369 0.871473
0.894652 0.715785 0.718868
0.896101 0.717952 0.7205
0.904189 0.722011 0.723735
0.946654 0.701991 0.708354
0.938659 0.634775 0.654612
0.901305 0.728222 0.728283
0.903883 0.732097 0.731441
0.912825 0.737942 0.736355
0.948928 0.721019 0.723629
0.940948 0.652232 0.667933
0.91284 0.771572 0.764492
0.913039 0.771649 0.764569
0.917525 0.770871 0.764233
0.953719 0.755367 0.751904
0.945998 0.695933 0.703258
0.941894 0.912947 0.888792
0.940093 0.910933 0.886732
0.940169 0.90901 0.885145
0.9682 0.912947 0.897307
0.968688 0.900633 0.885756
0.949325 0.927092 0.904158
0.94844 0.926848 0.903716
0.948959 0.927001 0.904005
0.963485 0.930663 0.91075
0.971923 0.933165 0.917601
