site/assets/luts/freshluts--0000342-vintasia.cube
# LUTr-Schema-Version: 2
# LUTr-ID: freshluts--0000342-vintasia
# LUTr-Title: Vintasia
# LUTr-Collection: Fresh LUTs
# LUTr-Collection-ID: freshluts-community
# LUTr-Source: https://freshluts.com
# LUTr-Retrieved: 2026-07-27
# LUTr-Source-File: submissions-raw/freshluts/cubes/342__vintasia.cube
# LUTr-Source-Format: CUBE
# LUTr-Source-SHA256: c4395f887bf1be162174cecb48a0fe5191227f20aa28b435e0df1100cab7b70e
# LUTr-License: CC0-1.0
# LUTr-License-URL: https://freshluts.com/termsandconditions
# LUTr-License-Basis: site-terms
# LUTr-Transform-Class: creative-look
# LUTr-Tags: creative, freshluts, community, cube, faded, vintage, warm
# LUTr-Input-Color-Space:
# LUTr-Input-Gamut: unspecified
# LUTr-Input-Transfer: unspecified
# LUTr-Output-Color-Space: srgb
# LUTr-Output-Gamut: rec709
# LUTr-Output-Transfer: srgb
# LUTr-Color-Space-Confidence: camera-profile-input-required
# LUTr-Domain-Normalized: true
# LUTr-Shaper: none
# LUTr-Original-Grid: 32x32x32
# LUTr-Conversion-Grid: 32x32x32
# LUTr-Conversion-Interpolation: none
# LUTr-Conversion-Method: Metadata normalization; numeric LUT samples preserved
# LUTr-Conversion-Tool: LUTr scripts/convert-all-to-cube.mjs 2.0.0
# LUTr-Conversion-Date: 2026-07-28
# LUTr-Asset-URL: https://freshluts.com/luts/342
# LUTr-Author: I WANT TO MAKE A FILM PODCAST
# LUTr-Author-URL: https://freshluts.com/users/15633
# LUTr-Attribution: I WANT TO MAKE A FILM PODCAST via Fresh LUTs
# LUTr-Source-Labels: gamma=Other; color=Warm; key=Neutral; style=Faded
# LUTr-Note: Preserve this metadata and the upstream license notices when redistributing.
# LUTr-Upstream-Comment: Created by: Adobe Photoshop Export Color Lookup Plugin
# LUTr-Upstream-Comment: LUT size
# LUTr-Upstream-Comment: data domain
# LUTr-Upstream-Comment: LUT data points
TITLE "Vintasia"
LUT_3D_SIZE 5
DOMAIN_MIN 0.000000 0.000000 0.000000
DOMAIN_MAX 0.903226 0.903226 0.903226
0.147614 0.091217 0.104767
0.179779 0.088562 0.106812
0.389832 0.071777 0.120331
0.637878 0.040009 0.161987
0.780151 0.036865 0.206451
0.176514 0.110413 0.096558
0.188324 0.112885 0.094604
0.394196 0.071808 0.080597
0.639771 0.039978 0.134247
0.780792 0.036865 0.187073
0.298981 0.15451 0.05957
0.312134 0.166687 0.057892
0.422638 0.238312 0.046234
0.617157 0.129089 0.035309
0.761444 0.09668 0.035309
0.464752 0.241425 0.035309
0.476929 0.256226 0.035309
0.548035 0.325104 0.035309
0.622559 0.348938 0.035309
0.688965 0.248077 0.035309
0.666809 0.471863 0.035309
0.670807 0.477417 0.035309
0.691589 0.493835 0.035309
0.704926 0.460541 0.035309
0.707214 0.398621 0.035309
0.150146 0.095001 0.131134
0.176025 0.094025 0.132263
0.388672 0.07489 0.148865
0.639801 0.040009 0.177979
0.782379 0.036835 0.214722
0.174103 0.133667 0.119293
0.179749 0.124054 0.130829
0.388397 0.099426 0.139587
0.646973 0.045776 0.168945
0.788727 0.036682 0.209167
0.323517 0.215576 0.073975
0.305817 0.177521 0.081299
0.417603 0.247314 0.061798
0.633423 0.12439 0.035706
0.773163 0.090424 0.035309
0.488342 0.293121 0.037811
0.479004 0.268036 0.039368
0.558411 0.337219 0.03656
0.6362 0.357666 0.035309
0.697815 0.247223 0.035309
0.683319 0.50293 0.035309
0.682068 0.49292 0.035309
0.702087 0.507385 0.035309
0.714386 0.470123 0.035309
0.715729 0.404236 0.035309
0.167175 0.120087 0.309052
0.191864 0.120178 0.309052
0.363647 0.112732 0.317902
0.637878 0.057709 0.333344
0.797058 0.03653 0.328522
0.174591 0.154114 0.299225
0.196808 0.148773 0.309143
0.365692 0.142578 0.316833
0.639618 0.077087 0.334076
0.809174 0.036224 0.320801
0.429047 0.398499 0.119293
0.409607 0.390289 0.144958
0.39386 0.338989 0.309967
0.636322 0.221893 0.226715
0.809479 0.131439 0.176788
0.686188 0.558929 0.047211
0.673523 0.546173 0.055786
0.562347 0.426727 0.147858
0.641968 0.430908 0.141113
0.744537 0.290161 0.090881
0.806854 0.651733 0.035309
0.811584 0.654785 0.035309
0.760712 0.596283 0.059235
0.761078 0.553528 0.065552
0.758453 0.466888 0.07373
0.17337 0.1409 0.562073
0.198578 0.141022 0.562073
0.359863 0.133972 0.569946
0.601532 0.123108 0.581696
0.771027 0.092529 0.563904
0.182007 0.176086 0.555786
0.20343 0.169525 0.562714
0.365021 0.164001 0.569183
0.602539 0.15329 0.581146
0.772125 0.115479 0.566559
0.244171 0.477966 0.576874
0.256592 0.457672 0.575623
0.403625 0.359161 0.566772
0.620697 0.351776 0.577484
0.780823 0.303589 0.586792
0.519348 0.67691 0.391296
0.508118 0.67215 0.406311
0.527466 0.64447 0.48175
0.658661 0.610474 0.586029
0.810791 0.54306 0.53183
0.778931 0.838989 0.177246
0.773895 0.836334 0.184509
0.798096 0.82428 0.258362
0.83078 0.736328 0.457306
0.814056 0.67334 0.502197
0.165131 0.145935 0.734497
0.191254 0.146057 0.734497
0.35788 0.142731 0.738159
0.594604 0.121857 0.757568
0.762115 0.121094 0.75882
0.173431 0.181671 0.732391
0.196014 0.174835 0.735352
0.3638 0.173218 0.737701
0.595276 0.153656 0.756348
0.762451 0.151825 0.758606
0.226196 0.452209 0.77356
0.241669 0.435486 0.766998
0.401733 0.366852 0.741058
0.618835 0.358246 0.751709
0.766388 0.354126 0.757416
0.365997 0.765381 0.774719
0.369385 0.767456 0.785187
0.464355 0.733795 0.812775
0.663666 0.620819 0.75827
0.812439 0.617615 0.757538
0.497498 0.81369 0.648834
0.500397 0.821838 0.658234
0.550903 0.812714 0.700806
0.693115 0.798279 0.749664
0.837555 0.789642 0.774597
