site/assets/luts/freshluts--0001089-arri-crosstalk-custom-look-1-by-tjtop.cube
# LUTr-Schema-Version: 2
# LUTr-ID: freshluts--0001089-arri-crosstalk-custom-look-1-by-tjtop
# LUTr-Title: Arri_Crosstalk_Custom_Look_1_by_TJTOP
# LUTr-Collection: Fresh LUTs
# LUTr-Collection-ID: freshluts-community
# LUTr-Source: https://freshluts.com
# LUTr-Retrieved: 2026-07-27
# LUTr-Source-File: submissions-raw/freshluts/cubes/1089__LogC_CCL_1_33.cube
# LUTr-Source-Format: CUBE
# LUTr-Source-SHA256: 4513cb49bfc18242773466921a555b4b1ced8d9042194cf159945efb9f1b67c9
# LUTr-License: CC0-1.0
# LUTr-License-URL: https://freshluts.com/termsandconditions
# LUTr-License-Basis: site-terms
# LUTr-Transform-Class: creative-look
# LUTr-Tags: creative, freshluts, community, cube, cross-process, teal, arri-logc3-ei800
# LUTr-Input-Color-Space:
# LUTr-Input-Gamut: arri-wide-gamut-3
# LUTr-Input-Transfer: arri-logc3-ei800
# LUTr-Output-Color-Space: srgb
# LUTr-Output-Gamut: rec709
# LUTr-Output-Transfer: srgb
# LUTr-Color-Space-Confidence: camera-profile-input-required
# LUTr-Domain-Normalized: true
# LUTr-Shaper: none
# LUTr-Original-Grid: 33x33x33
# LUTr-Conversion-Grid: 33x33x33
# LUTr-Conversion-Interpolation: none
# LUTr-Conversion-Method: Metadata normalization; numeric LUT samples preserved
# LUTr-Conversion-Tool: LUTr scripts/convert-all-to-cube.mjs 2.0.0
# LUTr-Conversion-Date: 2026-07-28
# LUTr-Asset-URL: https://freshluts.com/luts/1089
# LUTr-Author: tjtop
# LUTr-Author-URL: https://freshluts.com/users/10151
# LUTr-Attribution: tjtop via Fresh LUTs
# LUTr-Source-Labels: gamma=Arri log c; color=Teal; key=Neutral; style=Cross Process
# LUTr-Note: Preserve this metadata and the upstream license notices when redistributing.
TITLE "Arri_Crosstalk_Custom_Look_1_by_TJTOP"
LUT_3D_SIZE 5
DOMAIN_MIN 0 0 0
DOMAIN_MAX 1 1 1
0.027843 -0.02794 0
0.260412 -0.09011 -0.077492
0.50106 -0.383534 -0.427283
0.750104 0.597013 0.614067
1.00001 0.868655 0.885244
-0.050979 0.238426 0.078822
0.227843 0.207067 0.00133
0.498032 -0.067862 -0.348461
0.74981 0.601797 0.615104
0.999981 0.869044 0.885327
-0.502703 0.498926 0.312264
-0.187031 0.496496 0.293711
0.478808 0.484223 0.103263
0.74811 0.633989 0.620861
0.999817 0.872113 0.885803
0.652873 0.749896 -11.670675
0.655742 0.749664 -11.748167
0.676344 0.748561 -12.097958
0.786589 0.773262 -3.508163
1.004165 0.899399 0.872135
0.923575 0.99999 -145.117
0.923808 0.999967 -145.1945
0.925662 0.999861 -145.5443
0.943042 1.002501 -136.9545
1.042871 1.027698 -43.542065
0.014508 0.034821 0.25
0.255551 -0.027349 0.214215
0.500554 -0.320773 -0.111611
0.750054 0.597981 0.618161
1.000005 0.868732 0.885577
-0.064314 0.262871 0.277198
0.221205 0.238684 0.250521
0.497511 -0.005101 -0.032789
0.74976 0.602723 0.619159
0.999977 0.869121 0.88566
-0.516038 0.501324 0.365799
-0.200366 0.498949 0.354918
0.478185 0.486969 0.284401
0.748059 0.634676 0.624709
0.999812 0.872188 0.886135
0.65275 0.75013 -11.355003
0.655622 0.749898 -11.432495
0.676245 0.748798 -11.782286
0.786554 0.77345 -3.192491
1.004161 0.899457 0.872512
0.923565 1.000013 -144.80133
0.923799 0.99999 -144.87883
0.925653 0.999883 -145.22861
0.943033 1.002523 -136.63882
1.042868 1.027715 -43.226391
0.070019 0.220553 0.5
0.274481 0.182385 0.496994
0.502646 -0.105502 0.482267
0.750261 0.601238 0.646347
1.000025 0.868997 0.888214
-0.008803 0.319742 0.502974
0.246486 0.306168 0.500051
0.499663 0.197649 0.485766
0.749967 0.605841 0.647115
0.999997 0.869385 0.888295
-0.460527 0.509165 0.51859
-0.144855 0.506959 0.516067
0.480756 0.495886 0.503879
0.74827 0.636999 0.651417
0.999833 0.872445 0.888758
0.653261 0.750928 -8.822201
0.656119 0.750698 -8.899693
0.676656 0.749606 -9.249484
0.786701 0.774093 -0.659689
1.00418 0.899657 0.875485
0.923606 1.000091 -142.26854
0.92384 1.000068 -142.34602
0.925693 0.999962 -142.69582
0.943068 1.0026 -134.10602
1.042882 1.027776 -40.693588
-8.473056 0.203876 0.75
-8.157384 0.157714 0.749711
-5.624582 -0.1354 0.748396
0.712604 0.600791 0.776783
0.996879 0.86896 0.91209
-8.551878 0.313428 0.750293
-8.236205 0.298975 0.750005
-5.703403 0.176592 0.748693
0.712187 0.605413 0.777012
0.996849 0.869348 0.912155
-9.003602 0.50811 0.751959
-8.68793 0.505881 0.751675
-6.155127 0.494691 0.750384
0.709766 0.636679 0.778313
0.99668 0.87241 0.912526
0.512589 0.750818 0.694236
0.522825 0.750587 0.693749
0.58165 0.749494 0.691525
0.761301 0.774004 0.736059
1.001155 0.899629 0.902023
0.917094 1.00008 -116.26878
0.917342 1.000057 -116.34628
0.91931 0.999951 -116.69607
0.937663 1.002589 -108.10627
1.040781 1.027767 -14.693845
-101.88548 0.203876 1
-101.56981 0.157714 0.999972
-99.03701 -0.1354 0.999845
-73.037262 0.600791 1.002923
0.954649 0.86896 1.0317
-101.9643 0.313428 1.000028
-101.64863 0.298975 1
-99.115829 0.176592 0.999873
-73.116081 0.605413 1.002951
0.954605 0.869348 1.031721
-102.41602 0.50811 1.000192
-102.10036 0.505881 1.000164
-99.567551 0.494691 1.000037
-73.567802 0.636679 1.003111
0.954355 0.87241 1.031843
-90.214798 0.750818 0.995677
-89.899132 0.750587 0.995648
-87.366325 0.749494 0.995515
-61.366589 0.774004 0.998719
0.960926 0.899629 1.028499
0.793479 1.00008 0.927554
0.794261 1.000057 0.927499
0.800336 0.999951 0.927249
0.848401 1.002589 0.933221
1.014649 1.027767 0.9829
