site/assets/luts/freshluts--0000881-picturefx-cross-process-methode-1-color-toning-adjustments.cube
# LUTr-Schema-Version: 2
# LUTr-ID: freshluts--0000881-picturefx-cross-process-methode-1-color-toning-adjustments
# LUTr-Title: PictureFX Cross Process Methode 1 – Color Toning adjustments
# LUTr-Collection: Fresh LUTs
# LUTr-Collection-ID: freshluts-community
# LUTr-Source: https://freshluts.com
# LUTr-Retrieved: 2026-07-27
# LUTr-Source-File: submissions-raw/freshluts/cubes/881__PictureFX-Cross-Process-Methode-1.cube
# LUTr-Source-Format: CUBE
# LUTr-Source-SHA256: 790886c6afd574acc3945fd230651ba3689a907dd6e4fe11e9a4553039955d11
# LUTr-License: CC0-1.0
# LUTr-License-URL: https://freshluts.com/termsandconditions
# LUTr-License-Basis: site-terms
# LUTr-Transform-Class: creative-look
# LUTr-Tags: creative, freshluts, community, cube, cross-process
# LUTr-Input-Color-Space:
# LUTr-Input-Gamut: unspecified
# LUTr-Input-Transfer: unspecified
# LUTr-Output-Color-Space: srgb
# LUTr-Output-Gamut: rec709
# LUTr-Output-Transfer: srgb
# LUTr-Color-Space-Confidence: camera-profile-input-required
# LUTr-Domain-Normalized: true
# LUTr-Shaper: none
# LUTr-Original-Grid: 25x25x25
# LUTr-Conversion-Grid: 25x25x25
# LUTr-Conversion-Interpolation: none
# LUTr-Conversion-Method: Metadata normalization; numeric LUT samples preserved
# LUTr-Conversion-Tool: LUTr scripts/convert-all-to-cube.mjs 2.0.0
# LUTr-Conversion-Date: 2026-07-28
# LUTr-Asset-URL: https://freshluts.com/luts/881
# LUTr-Author: MarcR.
# LUTr-Author-URL: https://freshluts.com/users/86490
# LUTr-Attribution: MarcR. via Fresh LUTs
# LUTr-Source-Labels: gamma=Other; color=None; key=Neutral; style=Cross Process
# LUTr-Note: Preserve this metadata and the upstream license notices when redistributing.
# LUTr-Upstream-Comment: Generated with IWLTBAP LUT Generator
# LUTr-Upstream-Comment: Website: http://luts.iwltbap.com
# LUTr-Upstream-Comment: LUT size
# LUTr-Upstream-Comment: LUT data points
TITLE "PictureFX Cross Process Methode 1 – Color Toning adjustments"
LUT_3D_SIZE 5
DOMAIN_MIN 0 0 0
DOMAIN_MAX 1 1 1
0 0 0
0 0 0
0.341176 0 0.196078
0.74902 0.45098 0.462745
1 0.427451 0.25098
0 0.058824 0.023529
0.054902 0.07451 0.031373
0.431373 0.160784 0.239216
0.772549 0.52549 0.423529
1 0.494118 0.27451
0.12549 0.556863 0.368627
0.137255 0.564706 0.376471
0.478431 0.592157 0.403922
0.854902 0.686275 0.243137
1 0.678431 0.356863
0.447059 0.898039 0.380392
0.517647 0.898039 0.384314
0.690196 0.894118 0.396078
0.905882 0.890196 0.411765
1 0.878431 0.45098
0.654902 1 0.509804
0.690196 1 0.509804
0.780392 1 0.517647
0.909804 1 0.52549
0.992157 1 0.533333
0 0 0
0.035294 0 0.043137
0.419608 0 0.290196
0.792157 0.462745 0.431373
1 0.431373 0.266667
0 0.109804 0.113725
0.117647 0.137255 0.145098
0.482353 0.223529 0.337255
0.823529 0.513725 0.329412
1 0.498039 0.27451
0.176471 0.596078 0.427451
0.184314 0.603922 0.431373
0.509804 0.631373 0.45098
0.894118 0.682353 0.262745
1 0.686275 0.360784
0.47451 0.898039 0.384314
0.541176 0.898039 0.388235
0.709804 0.898039 0.4
0.913725 0.890196 0.415686
1 0.882353 0.45098
0.662745 1 0.509804
0.698039 1 0.509804
0.788235 1 0.517647
0.913725 1 0.52549
0.992157 1 0.533333
0 0.129412 0.470588
0.196078 0.12549 0.486275
0.517647 0.156863 0.533333
0.87451 0.47451 0.521569
1 0.529412 0.564706
0 0.301961 0.521569
0.247059 0.317647 0.529412
0.556863 0.384314 0.564706
0.909804 0.529412 0.545098
1 0.584314 0.576471
0.286275 0.682353 0.596078
0.32549 0.690196 0.576471
0.635294 0.694118 0.54902
0.929412 0.705882 0.576471
1 0.729412 0.592157
0.584314 0.901961 0.596078
0.631373 0.901961 0.6
0.756863 0.901961 0.603922
0.921569 0.898039 0.607843
1 0.894118 0.623529
0.72549 1 0.662745
0.752941 1 0.666667
0.823529 1 0.666667
0.929412 1 0.67451
0.996078 1 0.682353
0.427451 0.517647 0.764706
0.505882 0.517647 0.764706
0.701961 0.517647 0.776471
0.937255 0.537255 0.776471
1 0.611765 0.780392
0.505882 0.568627 0.776471
0.568627 0.568627 0.776471
0.737255 0.576471 0.784314
0.941176 0.6 0.784314
1 0.666667 0.788235
0.588235 0.729412 0.792157
0.643137 0.733333 0.796078
0.776471 0.741176 0.8
0.933333 0.760784 0.807843
1 0.796078 0.819608
0.690196 0.909804 0.807843
0.72549 0.909804 0.811765
0.811765 0.909804 0.819608
0.929412 0.909804 0.823529
1 0.913725 0.835294
0.807843 1 0.847059
0.823529 1 0.847059
0.87451 1 0.847059
0.94902 1 0.85098
1 1 0.854902
0.709804 0.643137 0.933333
0.745098 0.647059 0.933333
0.839216 0.65098 0.933333
0.972549 0.658824 0.937255
1 0.678431 0.937255
0.72549 0.686275 0.933333
0.756863 0.690196 0.933333
0.847059 0.694118 0.937255
0.968627 0.701961 0.937255
1 0.72549 0.937255
0.760784 0.803922 0.941176
0.784314 0.803922 0.941176
0.854902 0.807843 0.941176
0.956863 0.815686 0.941176
1 0.831373 0.941176
0.788235 0.92549 0.941176
0.811765 0.92549 0.945098
0.870588 0.92549 0.94902
0.945098 0.92549 0.952941
1 0.937255 0.956863
0.858824 1 0.94902
0.870588 1 0.94902
0.913725 1 0.956863
0.964706 1 0.960784
1 1 0.964706
