site/assets/luts/freshluts--0000131-short-film.cube
# LUTr-Schema-Version: 2
# LUTr-ID: freshluts--0000131-short-film
# LUTr-Title: Short Film
# LUTr-Collection: Fresh LUTs
# LUTr-Collection-ID: freshluts-community
# LUTr-Source: https://freshluts.com
# LUTr-Retrieved: 2026-07-27
# LUTr-Source-File: submissions-raw/freshluts/cubes/131__ShortFilm_Log_V1_CatPlectre.cube
# LUTr-Source-Format: CUBE
# LUTr-Source-SHA256: e1da04bb1c796235ac9bc1c65ba0b133331669ba2f98f928b432002ac32487cd
# LUTr-License: CC0-1.0
# LUTr-License-URL: https://freshluts.com/termsandconditions
# LUTr-License-Basis: site-terms
# LUTr-Transform-Class: creative-look
# LUTr-Tags: creative, freshluts, community, cube, warm, bmd-film, cinematic
# LUTr-Input-Color-Space: bmd-film
# LUTr-Input-Gamut: bmd-film-gamut
# LUTr-Input-Transfer: bmd-film
# LUTr-Output-Color-Space: srgb
# LUTr-Output-Gamut: rec709
# LUTr-Output-Transfer: srgb
# LUTr-Color-Space-Confidence: inferred-from-source-label
# LUTr-Domain-Normalized: true
# LUTr-Shaper: none
# LUTr-Original-Grid: 33x33x33
# LUTr-Conversion-Grid: 33x33x33
# LUTr-Conversion-Interpolation: none
# LUTr-Conversion-Method: Metadata normalization; numeric LUT samples preserved
# LUTr-Conversion-Tool: LUTr scripts/convert-all-to-cube.mjs 2.0.0
# LUTr-Conversion-Date: 2026-07-28
# LUTr-Asset-URL: https://freshluts.com/luts/131
# LUTr-Author: Steel Tone
# LUTr-Author-URL: https://freshluts.com/users/816
# LUTr-Attribution: Steel Tone via Fresh LUTs
# LUTr-Source-Labels: gamma=Blackmagic BMD Film; color=Warm; key=Neutral; style=Retro
# LUTr-Note: Preserve this metadata and the upstream license notices when redistributing.
TITLE "Short Film"
LUT_3D_SIZE 9
DOMAIN_MIN 0 0 0
DOMAIN_MAX 1 1 1
0.0217136 0.0214237 0.0230259
0.076936 0.0236973 0.0260624
0.176822 0.0137331 0.0177462
0.3196 0 0
0.507225 0 0
0.758541 0 0
1 0 0
1 0 0
1 0 0
0.0140536 0.0912337 0.0166018
0.116548 0.0896773 0.00411994
0.283665 0.0775464 0
0.493019 0.0616465 0
0.688457 0.0503548 0
0.89456 0.0294957 0
1 0.013489 0
1 0 0
1 0 0
0 0.241978 0
0.0627146 0.25095 0
0.306676 0.218906 0
0.482124 0.198016 0
0.650278 0.184375 0
0.839597 0.165835 0
1 0.148302 0
1 0.130587 0
1 0.112505 0
0 0.380758 0
0.0096437 0.386709 0
0.227161 0.363287 0
0.470039 0.332555 0
0.65391 0.311055 0
0.825162 0.299672 0
1 0.285725 0
1 0.272831 0
1 0.257633 0
0 0.517174 0
0 0.529686 0
0.124681 0.523171 0
0.397192 0.48603 0
0.642954 0.454887 0
0.819471 0.432334 0
1 0.412848 0
1 0.4038 0
1 0.392538 0
0 0.656672 0
0 0.669078 0
0.0637522 0.669337 0
0.317357 0.638865 0
0.574685 0.60267 0
0.812024 0.574624 0
1 0.5467 0
1 0.529015 0
1 0.515419 0
0 0.80116 0
0 0.811978 0
0.00851453 0.815641 0
0.218814 0.794446 0
0.48658 0.756863 0
0.733791 0.718883 0
0.975982 0.6878 0
1 0.658228 0
1 0.641825 0
0 0.936065 0
0 0.943679 0
0 0.951034 0
0.122072 0.941588 0
0.383169 0.909331 0
0.655451 0.873884 0
0.889738 0.846662 0
1 0.81677 0
1 0.796414 0
0 1 0
0 1 0
0 1 0
0.0636454 1 0
0.310155 1 0
0.587625 1 0
0.848127 1 0
1 0.963607 0
1 0.943603 0.128222
0.0146334 0.024445 0.0667124
0.0716106 0.0237888 0.10222
0.192096 0.00653086 0.107958
0.339239 0 0.0869917
0.533135 0 0.0670024
0.792279 0 0.0412604
1 0 0.0205997
1 0 0.00776684
1 0 0
0 0.0993057 0.0797589
0.0954147 0.0948501 0.102205
0.282307 0.0796979 0.087953
0.493263 0.0635386 0.0737011
0.683711 0.0514382 0.0629129
0.888518 0.0298314 0.0426032
1 0.0131685 0.0270237
1 0 0.00970474
1 0 0
0 0.254429 0.0375525
0.060853 0.249226 0.0657816
0.278859 0.224842 0.0464179
0.450462 0.206928 0.0577859
0.629618 0.189975 0.036347
0.82562 0.1691 0.0200504
1 0.149706 0.00965896
1 0.131167 0.00294499
1 0.112566 0
0 0.393225 0
0.0207065 0.378256 0.0248875
0.189593 0.371084 0
0.440986 0.339254 0
0.623148 0.319753 0.0415961
0.792782 0.309468 0.0242008
0.984985 0.292439 0
1 0.277668 0
1 0.261021 0
0 0.533715 0
0 0.516899 0
0.0975967 0.525582 0
0.362753 0.493263 0
0.612436 0.461341 0
0.789364 0.439826 0.0135958
0.977661 0.422507 0.0027924
1 0.413184 0
1 0.400275 0
0 0.675746 0
0 0.654154 0
0.0489357 0.668345 0
0.277409 0.644968 0
0.543114 0.609751 0
0.780957 0.580911 0
0.96849 0.554009 0
1 0.537408 0
1 0.524636 0
0 0.822797 0
0 0.797253 0
0.00477607 0.810208 0
0.186481 0.797162 0
0.446769 0.763241 0
0.703716 0.72459 0
0.943725 0.693858 0
1 0.664897 0
1 0.650477 0
0 0.957549 0
0 0.930343 0
0 0.940047 0
0.0955673 0.943282 0
0.341878 0.915953 0
0.61886 0.882277 0
0.859739 0.854337 0
1 0.82417 0
1 0.80473 0
0 1 0
0 1 0
0 1 0
0.0467842 1 0
0.27689 1 0
0.547051 1 0
0.818906 1 0
1 0.966949 0.0799878
1 0.948989 0.282918
0.00123598 0.0271305 0.133501
0.0919203 0.0139925 0.19443
0.165713 0.00695811 0.264012
0.349203 0 0.32221
0.569177 0 0.318166
0.836515 0 0.291539
1 0 0.269505
1 0 0.241062
1 0 0.211917
0 0.104372 0.242512
0.048661 0.0989242 0.2981
0.249775 0.0782177 0.358663
0.500481 0.0504311 0.368734
0.692073 0.0379797 0.30782
0.890379 0.0187381 0.258442
1 0.00361639 0.226291
1 0 0.195453
1 0 0.165759
0 0.26978 0.188785
0.0118257 0.261753 0.215305
0.229038 0.229862 0.239597
0.423056 0.208453 0.218189
0.615808 0.187671 0.198657
0.815839 0.166491 0.178866
1 0.146761 0.16051
1 0.128862 0.143969
1 0.11078 0.127245
0 0.397391 0.142824
0 0.387869 0.159197
0.171084 0.369757 0.177081
0.405097 0.345815 0.147097
0.587396 0.329595 0.156832
0.767269 0.317067 0.130007
0.970825 0.296574 0.105715
1 0.280644 0.0911574
1 0.263081 0.0785534
0 0.538186 0.0777295
0 0.53048 0.0862898
0.109789 0.516365 0.11487
0.327398 0.500435 0.0726177
0.585641 0.467887 0.0687877
0.762173 0.447807 0.119966
0.947646 0.432105 0.100572
1 0.421103 0.08159
1 0.406119 0.0641031
0 0.680369 0.0226596
0 0.671244 0.0356146
0.0742199 0.6551 0.078645
0.247089 0.648371 0.0280613
0.512535 0.6168 0.0383612
0.75288 0.587289 0.0238499
0.938888 0.561517 0.0911269
1 0.546105 0.0863203
1 0.533639 0.0654154
0 0.827924 0
0 0.817121 0
0.0327153 0.795438 0.0363928
0.164706 0.797635 0
0.407385 0.76849 0
0.674525 0.730419 0.0016022
0.913283 0.700069 0
1 0.671946 0.0582437
1 0.659724 0.0679179
0 0.96524 0
0 0.951629 0
0 0.926818 0
0.0883345 0.939162 0
0.307149 0.920562 0
0.580667 0.890623 0
0.830961 0.862211 0
1 0.831693 0
1 0.813001 0.0200504
0 1 0
0 1 0
0 1 0
0.0647593 1 0
0.251194 1 0
0.507469 1 0
0.791363 1 0.00787366
1 0.970199 0.23183
1 0.954452 0.423346
0 0.0295262 0.217868
0.0650645 0.0149538 0.309407
0.230076 0 0.37406
0.302724 0 0.504265
0.537621 0 0.615961
0.846616 0 0.654459
1 0 0.620218
1 0 0.555413
1 0 0.498833
0 0.108278 0.42295
0.00303655 0.102235 0.509194
0.322408 0.0491798 0.568948
0.417914 0.0675822 0.634791
0.652659 0.0346227 0.664378
0.893324 0.000610361 0.596597
1 0 0.521965
1 0 0.462394
1 0 0.41651
0 0.278279 0.409705
0 0.266346 0.438102
0.172168 0.233539 0.466728
0.385199 0.209125 0.4981
0.624491 0.174899 0.499611
0.828748 0.152102 0.439475
1 0.132647 0.406134
1 0.115709 0.383017
1 0.0982834 0.361517
0 0.417166 0.286213
0 0.403632 0.309194
0.114458 0.385412 0.335805
0.349706 0.351736 0.361776
0.552483 0.332067 0.342412
0.744945 0.314595 0.326192
0.955444 0.291859 0.304936
1 0.275349 0.289738
1 0.257679 0.273396
0 0.545571 0.24828
0 0.536416 0.266087
0.0700542 0.529351 0.285618
0.293584 0.498421 0.300679
0.532113 0.47361 0.274937
0.706249 0.458045 0.289372
0.903044 0.439994 0.258381
1 0.42475 0.239658
1 0.407294 0.221195
0 0.684108 0.196597
0 0.674662 0.213077
0.0244602 0.668391 0.228412
0.242542 0.636103 0.248859
0.454566 0.623377 0.207141
0.70869 0.593133 0.19884
0.895033 0.569696 0.239094
1 0.555673 0.212619
1 0.541833 0.179385
0 0.8309 0.129351
0 0.820371 0.143297
0 0.810605 0.154726
0.182574 0.780362 0.188006
0.364599 0.77023 0.122499
0.640391 0.73608 0.126711
0.883207 0.706386 0.102419
1 0.679515 0.170489
1 0.669535 0.171267
0 0.968643 0.0692912
0 0.956909 0.0712139
0 0.946273 0.0751812
0.114778 0.924697 0.119188
0.283421 0.923186 0.0470588
0.545037 0.898116 0.0369726
0.805508 0.870054 0.0705425
1 0.83946 0.0402228
1 0.821225 0.138918
0 1 0.0009308
0 1 0.0123445
0 1 0.0333715
0.0889906 1 0.0928359
0.235554 1 0.0247349
0.473991 1 0.0118868
0.76669 1 0.136858
0.979553 0.973358 0.363027
1 0.960037 0.54667
0 0.031632 0.319173
0.0329747 0.0169833 0.436316
0.239948 0 0.53608
0.381353 0 0.63473
0.483513 0 0.819928
0.78117 0 0.948806
1 0 0.967987
1 0 0.921904
1 0 0.851881
0 0.112215 0.611765
0 0.106157 0.725643
0.2757 0.0478828 0.810452
0.517693 0.0333257 0.788052
0.56524 0.0521859 0.879896
0.815015 0.00900282 0.917784
1 0 0.891066
1 0 0.820829
1 0 0.746807
0 0.283223 0.632578
0 0.268879 0.661753
0.117601 0.236652 0.691936
0.456489 0.178897 0.705425
0.546426 0.192584 0.766461
0.793927 0.151843 0.809049
1 0.116655 0.770153
1 0.0956283 0.711192
1 0.078584 0.659602
0 0.426017 0.498604
0 0.411124 0.527535
0.0491798 0.392828 0.562173
0.29221 0.356374 0.595026
0.517601 0.336263 0.634623
0.754986 0.305867 0.645045
0.970001 0.278218 0.573251
1 0.262287 0.536446
1 0.245548 0.508034
0 0.569894 0.389013
0 0.557763 0.413581
0.00726329 0.548318 0.440421
0.238071 0.514778 0.464775
0.476081 0.479225 0.48957
0.671839 0.460517 0.471382
0.882414 0.4374 0.449638
1 0.420203 0.433753
1 0.401907 0.416815
0 0.693889 0.366827
0 0.683711 0.384207
0.0093843 0.676631 0.402945
0.204746 0.650874 0.415793
0.420935 0.622049 0.429175
0.655436 0.598642 0.403113
0.835706 0.579965 0.411093
1 0.563302 0.380499
1 0.545144 0.356405
0 0.8365 0.296254
0 0.824918 0.314641
0 0.814054 0.333181
0.126589 0.79498 0.345342
0.355322 0.755871 0.362615
0.573877 0.740963 0.320684
0.827344 0.711986 0.315847
1 0.68835 0.358938
1 0.681666 0.342885
0 0.971679 0.239063
0 0.959411 0.251011
0 0.949172 0.261021
0.0470588 0.942855 0.271031
0.293004 0.904005 0.299397
0.481193 0.90013 0.239765
0.751446 0.876905 0.251575
1 0.846632 0.235142
1 0.829816 0.321401
0 1 0.179858
0 1 0.19472
0 1 0.208942
0.0191043 1 0.22475
0.26363 1 0.269368
0.433448 1 0.204974
0.721065 1 0.293812
0.952514 0.97615 0.501167
1 0.96553 0.668132
0 0.0334325 0.436957
0.0000457771 0.0176547 0.581979
0.214282 0 0.721675
0.461158 0 0.836393
0.579248 0 0.996124
0.696574 0 1
0.926482 0 1
1 0 1
1 0 1
0 0.116121 0.837568
0 0.109697 0.980575
0.193881 0.0575875 1
0.545052 0.00495918 1
0.664378 0.0154116 1
0.718257 0.0273136 1
0.943893 0 1
1 0 1
1 0 1
0 0.286763 0.882628
0 0.270756 0.906737
0.0603342 0.238972 0.932601
0.399054 0.172564 0.958175
0.652842 0.152651 0.932448
0.707195 0.169665 1
0.958251 0.128801 1
1 0.0920577 1
1 0.064271 1
0 0.43122 0.732448
0 0.415595 0.759594
0 0.396704 0.790799
0.237644 0.360662 0.821897
0.593713 0.30721 0.837736
0.680919 0.32755 0.901732
0.944213 0.281331 0.933623
1 0.250385 0.885817
1 0.228687 0.820386
0 0.58053 0.594064
0 0.56701 0.620233
0 0.55552 0.6486
0.176059 0.521859 0.682582
0.420798 0.483696 0.713237
0.641352 0.467247 0.754894
0.89778 0.43122 0.755489
1 0.408545 0.697658
1 0.389517 0.660929
0 0.720989 0.492073
0 0.708202 0.516106
0 0.697459 0.541268
0.140963 0.67158 0.567926
0.366705 0.639307 0.590768
0.599863 0.604013 0.614664
0.800336 0.581964 0.593362
0.996872 0.55993 0.57261
1 0.540032 0.55404
0 0.847013 0.462394
0 0.834775 0.483833
0 0.82324 0.504173
0.107637 0.805585 0.523186
0.318257 0.771618 0.534615
0.53933 0.739269 0.548592
0.772168 0.7178 0.527962
0.966949 0.699565 0.535668
1 0.690669 0.515175
0 0.979141 0.405905
0 0.966125 0.420722
0 0.955688 0.435691
0.0345159 0.949538 0.45391
0.237598 0.920775 0.461204
0.47335 0.886809 0.481621
0.68423 0.882216 0.444648
0.972259 0.853681 0.443671
1 0.839551 0.514138
0 1 0.350958
0 1 0.370214
0 1 0.389731
0.00469978 1 0.409873
0.198215 1 0.418357
0.449546 1 0.457053
0.666758 1 0.465797
0.920882 0.9785 0.634348
1 0.970916 0.786175
0 0.0350042 0.566125
0 0.0183566 0.737591
0.175891 0 0.910063
0.469993 0 1
0.701122 0 1
0.748989 0 1
0.849714 0 1
1 0 1
1 0 1
0 0.121004 1
0 0.114137 1
0.128634 0.0676127 1
0.505165 0.000244144 1
0.748837 0 1
0.780987 0.00337224 1
0.859022 0.00769055 1
1 0 1
1 0 1
0 0.290242 1
0 0.27306 1
0.0100099 0.240986 1
0.324163 0.179095 1
0.684489 0.122301 1
0.800153 0.135409 1
0.870909 0.145922 1
1 0.110292 1
1 0.0724498 1
0 0.435187 0.962249
0 0.419043 0.99324
0 0.400092 1
0.179828 0.364294 1
0.533028 0.297536 1
0.792767 0.282887 1
0.849195 0.301396 1
1 0.266575 1
1 0.228107 1
0 0.587091 0.833112
0 0.572564 0.865538
0 0.559899 0.898756
0.113893 0.525582 0.935302
0.358434 0.487449 0.964813
0.710277 0.436133 0.987823
0.821332 0.456794 1
1 0.417838 1
1 0.380011 1
0 0.732631 0.71899
0 0.718715 0.744656
0 0.706371 0.769345
0.0699626 0.680003 0.797711
0.298589 0.646387 0.824552
0.5411 0.608026 0.84863
0.769757 0.591424 0.886656
1 0.556466 0.885573
1 0.529885 0.815457
0 0.877287 0.594583
0 0.862394 0.617746
0 0.847608 0.641016
0.025452 0.828641 0.666026
0.254154 0.792859 0.688426
0.488182 0.756817 0.709606
0.718853 0.723949 0.734905
0.938903 0.701793 0.713787
1 0.689113 0.702327
0 0.991379 0.567239
0 0.977386 0.583505
0 0.966613 0.599756
0.00759899 0.961318 0.619364
0.225101 0.934066 0.634653
0.438483 0.905486 0.64828
0.658335 0.881117 0.668544
0.920211 0.8607 0.650431
1 0.851682 0.690639
0 1 0.512749
0 1 0.533394
0 1 0.555383
0 1 0.580194
0.187625 1 0.599573
0.417075 1 0.624887
0.669215 1 0.676997
0.883131 0.980377 0.745327
1 0.976471 0.879561
0 0.0363012 0.710201
0 0.0188296 0.909773
0.129793 0 1
0.453971 0 1
0.754452 0 1
0.88893 0 1
0.887541 0 1
0.996124 0 1
1 0 1
0 0.126284 1
0 0.118822 1
0.0667124 0.0755779 1
0.439994 0.00418097 1
0.748486 0 1
0.908644 0 1
0.906142 0 1
1 0 1
1 0 1
0 0.293233 1
0 0.275227 1
0 0.242466 1
0.256489 0.18584 1
0.651637 0.111894 1
0.902144 0.0926986 1
0.933562 0.122148 1
1 0.126299 1
1 0.0913558 1
0 0.438697 1
0 0.422309 1
0 0.404074 1
0.128298 0.367956 1
0.460349 0.304112 1
0.810834 0.255436 1
0.928038 0.272145 1
0.996918 0.283314 1
1 0.246952 1
0 0.592569 1
0 0.577096 1
0 0.563577 1
0.0646067 0.529122 1
0.306645 0.491508 1
0.649653 0.428153 1
0.922011 0.417609 1
0.973999 0.437049 1
1 0.398123 1
0 0.739605 0.930297
0 0.725155 0.957961
0 0.711818 0.986465
0.0137331 0.684794 1
0.241535 0.650736 1
0.48397 0.611811 1
0.840833 0.561547 1
0.944076 0.58407 1
1 0.543984 1
0 0.889326 0.79237
0 0.873213 0.82211
0 0.857038 0.851484
0 0.836622 0.882155
0.182437 0.80087 0.917662
0.418494 0.76347 0.95259
0.656107 0.728649 0.986374
0.912016 0.716854 1
1 0.69337 1
0 1 0.691585
0 1 0.71339
0 0.995789 0.737545
0 0.987686 0.765179
0.138781 0.960433 0.795804
0.372778 0.930968 0.823224
0.604318 0.902876 0.849912
0.861357 0.867506 0.878691
1 0.857114 0.868025
0 1 0.682002
0 1 0.709117
0 1 0.73579
0 1 0.762173
0.183246 1 0.787793
0.462486 1 0.814847
0.692607 1 0.842664
0.877348 0.978927 0.882887
0.992172 0.982269 0.946777
0 0.0373999 0.869657
0 0.0190585 1
0.0802167 0 1
0.418906 0 1
0.755138 0 1
0.985595 0 1
1 0 1
1 0 1
1 0 1
0 0.13164 1
0 0.123812 1
0.0089723 0.0814984 1
0.363958 0.0124666 1
0.713558 0 1
0.966171 0 1
1 0 1
1 0 1
1 0 1
0 0.295933 1
0 0.277226 1
0 0.244816 1
0.195544 0.190951 1
0.595209 0.111406 1
0.916594 0.0692607 1
1 0.0739452 1
1 0.107546 1
1 0.107454 1
0 0.442084 1
0 0.42562 1
0 0.408103 1
0.0769818 0.371252 1
0.390158 0.312001 1
0.770077 0.245075 1
1 0.226505 1
1 0.258427 1
1 0.263142 1
0 0.597162 1
0 0.58088 1
0 0.566674 1
0.0151675 0.531884 1
0.253452 0.495232 1
0.57525 0.434104 1
0.954955 0.383322 1
1 0.404181 1
1 0.415015 1
0 0.745663 1
0 0.730587 1
0 0.716243 1
0 0.687892 1
0.187579 0.654536 1
0.429572 0.615427 1
0.774807 0.549691 1
1 0.543282 1
1 0.563561 1
0 0.896117 1
0 0.879393 1
0 0.862333 1
0 0.841978 1
0.124697 0.805676 1
0.36466 0.767849 1
0.603723 0.73373 1
0.998123 0.690303 1
1 0.723995 1
0 1 0.881346
0 1 0.904082
0 1 0.92958
0 0.999054 0.958816
0.0756847 0.971222 0.994827
0.309209 0.9411 1
0.544228 0.91133 1
0.809049 0.873259 1
1 0.885176 1
0 1 0.796185
0 1 0.823377
0 1 0.85153
0 1 0.881544
0.12961 1 0.911223
0.440162 1 0.933867
0.705348 1 0.952728
0.890837 0.987228 0.970443
0.987366 0.988174 0.989471
