site/assets/luts/freshluts--0000996-behind-blue-eyes.cube
# LUTr-Schema-Version: 2
# LUTr-ID: freshluts--0000996-behind-blue-eyes
# LUTr-Title: Behind Blue Eyes
# LUTr-Collection: Fresh LUTs
# LUTr-Collection-ID: freshluts-community
# LUTr-Source: https://freshluts.com
# LUTr-Retrieved: 2026-07-27
# LUTr-Source-File: submissions-raw/freshluts/cubes/996__bbe3_cube_150.A042_05040056_C023.cube
# LUTr-Source-Format: CUBE
# LUTr-Source-SHA256: 61853baa55ab866a04aef4e72c4066140dc3fcdaf57ed868c9fb553d6c116e57
# LUTr-License: CC0-1.0
# LUTr-License-URL: https://freshluts.com/termsandconditions
# LUTr-License-Basis: site-terms
# LUTr-Transform-Class: creative-look
# LUTr-Tags: creative, freshluts, community, cube, bmd-film-4k, cool
# LUTr-Input-Color-Space: bmd-film-4k
# LUTr-Input-Gamut: bmd-film-gamut
# LUTr-Input-Transfer: bmd-film-4k
# LUTr-Output-Color-Space: srgb
# LUTr-Output-Gamut: rec709
# LUTr-Output-Transfer: srgb
# LUTr-Color-Space-Confidence: inferred-from-source-label
# LUTr-Domain-Normalized: true
# LUTr-Shaper: none
# LUTr-Original-Grid: 33x33x33
# LUTr-Conversion-Grid: 33x33x33
# LUTr-Conversion-Interpolation: none
# LUTr-Conversion-Method: Metadata normalization; numeric LUT samples preserved
# LUTr-Conversion-Tool: LUTr scripts/convert-all-to-cube.mjs 2.0.0
# LUTr-Conversion-Date: 2026-07-28
# LUTr-Asset-URL: https://freshluts.com/luts/996
# LUTr-Author: Le Salon des Inconnus
# LUTr-Author-URL: https://freshluts.com/users/102026
# LUTr-Attribution: Le Salon des Inconnus via Fresh LUTs
# LUTr-Source-Labels: gamma=Blackmagic BMD Film 4K; color=None; key=Neutral; style=Colorful
# LUTr-Note: Preserve this metadata and the upstream license notices when redistributing.
TITLE "Behind Blue Eyes"
LUT_3D_SIZE 5
DOMAIN_MIN 0 0 0
DOMAIN_MAX 1 1 1
0 0 0
0.0791791 0.0387579 0.0399634
1 0 0
1 0 0
1 0 0
0 0.373022 0
0.284169 0.349142 0
1 0.255528 0
1 0.163027 0
1 0 0
0 0.985031 0
0 0.977676 0
0.780957 0.882811 0
1 0.80737 0
1 0.77789 0
0.256947 1 0.211429
0.233646 1 0.186374
0.881743 1 0.799237
1 1 1
1 1 1
0.360967 1 0.320439
0.360967 1 0.320439
0.360967 1 0.320439
1 1 1
1 1 1
0.000167849 0.000167849 0.000167849
0.106493 0.0375677 0.124529
1 0 0.3028
1 0 0.247196
1 0 0.182666
0 0.298634 0.306371
0.253742 0.271305 0.281971
1 0.177157 0.220645
1 0.00375372 0.160571
1 0 0.0602121
0 0.964569 0
0 0.956359 0
0.785687 0.860166 0
1 0.783703 0
1 0.751339 0
0.188083 1 0.139071
0.166354 1 0.115953
0.814328 1 0.686183
1 1 1
1 1 1
0.360967 1 0.320439
0.360967 1 0.320439
0.360967 1 0.320439
1 1 1
1 1 1
0.00015259 0.00015259 0.00015259
0.259968 0.0122377 0.630106
1 0 0.959594
1 0 0.910979
1 0 0.890455
0.0189364 0.0236515 0.0441138
0.0871595 0.0400092 0.273213
1 0 0.930968
1 0 0.881697
1 0 0.860334
0 0.8654 0.84715
0 0.856138 0.842924
0.765606 0.75729 0.758007
1 0.67274 0.701778
1 0.641093 0.68954
0.220752 1 0.694087
0.193774 1 0.678859
0.799237 1 0.859785
1 1 1
1 1 1
0.659907 1 0.815946
0.656001 1 0.810803
0.63859 1 0.792477
1 1 1
1 1 1
0.0346227 0.0348821 0.174182
0.365042 0 1
1 0 1
1 0 1
1 0 1
0.033402 0.0340429 0.160342
0.129534 0.0267185 0.691371
1 0 1
1 0 1
1 0 1
0 0.783185 1
0 0.771664 1
1 1 1
1 0.509819 1
1 0.466331 1
0.112306 1 1
0.0878767 1 1
0.583841 1 1
1 1 1
1 1 1
0.973648 1 1
0.972839 1 1
0.969909 1 1
1 1 1
1 1 1
0.0383459 0.0375525 0.220432
0.309361 0 1
1 0 1
1 0 1
1 0 1
0.0383459 0.0375525 0.220432
0.0918135 0.0370642 0.547326
1 0 1
1 0 1
1 0 1
0 0.658259 1
0 0.64303 1
1 0.915816 1
1 0.411597 1
1 0.33959 1
0 1 1
0 1 1
0.354025 1 1
1 1 1
1 1 1
1 1 1
1 1 1
1 1 1
1 1 1
1 1 1
