site/assets/luts/freshluts--0000221-cinema-5.cube
# LUTr-Schema-Version: 2
# LUTr-ID: freshluts--0000221-cinema-5
# LUTr-Title: CINEMA 5
# LUTr-Collection: Fresh LUTs
# LUTr-Collection-ID: freshluts-community
# LUTr-Source: https://freshluts.com
# LUTr-Retrieved: 2026-07-27
# LUTr-Source-File: submissions-raw/freshluts/cubes/221__CINEMA_5.cube
# LUTr-Source-Format: CUBE
# LUTr-Source-SHA256: b662cf85d5bfdbf003e9b1ca0a2aa2ebe57f84b294e30efb8946b520d4125af7
# LUTr-License: CC0-1.0
# LUTr-License-URL: https://freshluts.com/termsandconditions
# LUTr-License-Basis: site-terms
# LUTr-Transform-Class: creative-look
# LUTr-Tags: creative, freshluts, community, cube, cinematic, blockbuster, blue, rec709
# LUTr-Input-Color-Space: rec709
# LUTr-Input-Gamut: rec709
# LUTr-Input-Transfer: rec709
# LUTr-Output-Color-Space: srgb
# LUTr-Output-Gamut: rec709
# LUTr-Output-Transfer: srgb
# LUTr-Color-Space-Confidence: declared-by-source
# LUTr-Domain-Normalized: true
# LUTr-Shaper: none
# LUTr-Original-Grid: 16x16x16
# LUTr-Conversion-Grid: 16x16x16
# LUTr-Conversion-Interpolation: none
# LUTr-Conversion-Method: Metadata normalization; numeric LUT samples preserved
# LUTr-Conversion-Tool: LUTr scripts/convert-all-to-cube.mjs 2.0.0
# LUTr-Conversion-Date: 2026-07-28
# LUTr-Asset-URL: https://freshluts.com/luts/221
# LUTr-Author: Andy
# LUTr-Author-URL: https://freshluts.com/users/1003
# LUTr-Attribution: Andy via Fresh LUTs
# LUTr-Source-Labels: gamma=Rec 709; color=Blue; key=Neutral; style=Blockbuster
# LUTr-Note: Preserve this metadata and the upstream license notices when redistributing.
TITLE "CINEMA 5"
LUT_3D_SIZE 16
DOMAIN_MIN 0 0 0
DOMAIN_MAX 1 1 1
0 0 0
0.065453 0.009396 0.002974
0.125055 0.022707 0.013679
0.186382 0.031532 0.024567
0.248932 0.036464 0.02875
0.313017 0.03908 0.035757
0.372701 0.04447 0.04641
0.43264 0.050519 0.055238
0.494647 0.055392 0.063454
0.561209 0.061849 0.072575
0.636997 0.065967 0.082577
0.725626 0.080627 0.0937
0.812837 0.093519 0.104518
0.886342 0.103315 0.115809
0.934955 0.112585 0.124313
0.958452 0.121303 0.128647
0.001237 0.056 0.004073
0.058211 0.06218 0.007397
0.117848 0.068149 0.011442
0.185059 0.074444 0.011809
0.256264 0.076833 0.009909
0.32771 0.0769 0.010161
0.39406 0.080818 0.021555
0.454098 0.085926 0.037209
0.51536 0.092352 0.050176
0.578628 0.100677 0.062212
0.654187 0.110536 0.074535
0.738366 0.128763 0.089235
0.821604 0.14398 0.103293
0.89238 0.160396 0.11591
0.94061 0.171114 0.125238
0.962789 0.1774 0.13038
0.002101 0.10396 0.0116
0.042752 0.109985 0.01417
0.109226 0.118573 0.018552
0.178453 0.122097 0.017262
0.251531 0.125561 0.011177
0.323628 0.128679 0.008907
0.393263 0.132846 0.012454
0.461423 0.136489 0.019635
0.531514 0.139211 0.028319
0.603162 0.144665 0.041347
0.684126 0.156042 0.054015
0.767377 0.171689 0.06873
0.846495 0.188693 0.085312
0.913466 0.20559 0.098842
0.953979 0.217696 0.109483
0.97159 0.221807 0.117025
0.00037 0.152507 0.017329
0.034953 0.157029 0.015942
0.085976 0.164892 0.015105
0.169053 0.176403 0.020711
0.24399 0.17824 0.020728
0.319709 0.180992 0.015167
0.391688 0.183207 0.010863
0.460672 0.186198 0.014151
0.531525 0.191065 0.024689
0.609241 0.196943 0.03317
0.700323 0.207209 0.036192
0.789232 0.221073 0.040053
0.868939 0.238178 0.054219
0.930898 0.254986 0.071456
0.964791 0.26613 0.087014
0.980248 0.26846 0.096477
0 0.201042 0.025769
0.027834 0.205601 0.023654
0.065845 0.212073 0.020204
0.143522 0.223884 0.021706
0.237668 0.237879 0.029015
0.314626 0.236607 0.027063
0.389065 0.237144 0.020077
0.460294 0.238346 0.015964
0.531817 0.241912 0.021423
0.611066 0.248939 0.027515
0.703906 0.261473 0.031884
0.793813 0.278451 0.032715
0.878865 0.294481 0.040148
0.941281 0.308361 0.05307
0.971418 0.319966 0.069019
0.984466 0.3228 0.081247
0.000024 0.251297 0.036948
0.025424 0.256037 0.035622
0.052238 0.260281 0.030896
0.108514 0.272087 0.026598
0.21169 0.288276 0.033341
0.309894 0.301924 0.038557
0.384489 0.297423 0.033795
0.459375 0.294424 0.026453
0.53231 0.296867 0.023241
0.612126 0.304115 0.021367
0.705573 0.317652 0.021132
0.796101 0.336736 0.027541
0.881674 0.352812 0.032698
0.943605 0.368104 0.045209
0.972954 0.380226 0.055288
0.98608 0.381138 0.066365
0.000347 0.302547 0.045665
0.024999 0.307667 0.04419
0.050154 0.310846 0.039368
0.082716 0.319965 0.031243
0.17448 0.336287 0.033781
0.284856 0.352477 0.042557
0.378837 0.363705 0.043893
0.455073 0.359451 0.039678
0.53097 0.355715 0.03056
0.61379 0.360629 0.02059
0.706009 0.373396 0.013949
0.798655 0.392209 0.018612
0.884282 0.413559 0.025977
0.94407 0.433399 0.032584
0.973905 0.443896 0.044809
0.987367 0.441778 0.055396
0.000795 0.352955 0.052603
0.024811 0.358995 0.049509
0.048975 0.360906 0.04304
0.076468 0.368343 0.037527
0.138967 0.383534 0.035921
0.251735 0.400597 0.043153
0.359468 0.415409 0.046628
0.450654 0.42408 0.046771
0.527086 0.421794 0.044232
0.6133 0.421179 0.029254
0.707841 0.431704 0.021692
0.80129 0.452752 0.020197
0.885616 0.478033 0.020482
0.943969 0.497998 0.021635
0.974909 0.50664 0.032391
0.988904 0.50092 0.04576
0.001342 0.407789 0.057327
0.024972 0.416857 0.055229
0.04848 0.417557 0.048352
0.073975 0.42363 0.042931
0.114891 0.437416 0.040423
0.208939 0.45401 0.038453
0.332164 0.470221 0.043312
0.435096 0.484741 0.045579
0.521156 0.492806 0.048048
0.610862 0.494919 0.046243
0.708794 0.500845 0.038218
0.80309 0.517205 0.02879
0.886991 0.542858 0.019696
0.94617 0.561622 0.025371
0.977176 0.56758 0.03767
0.990542 0.559817 0.048542
0.002038 0.470791 0.06379
0.025527 0.480629 0.058818
0.048832 0.481542 0.052168
0.072899 0.48559 0.04234
0.102607 0.496886 0.039264
0.169307 0.5143 0.039494
0.30013 0.530789 0.043173
0.417289 0.546865 0.051969
0.513791 0.560497 0.057015
0.608932 0.567805 0.058785
0.710609 0.578173 0.052405
0.805499 0.591115 0.039977
0.889221 0.608208 0.035734
0.948517 0.623648 0.044146
0.979313 0.628476 0.054488
0.992191 0.618123 0.059082
0.002945 0.542238 0.075797
0.026436 0.551122 0.07407
0.049819 0.551968 0.062151
0.0743 0.555166 0.048261
0.102845 0.564721 0.041204
0.140168 0.580957 0.042844
0.267723 0.598127 0.050047
0.402692 0.615037 0.058635
0.510687 0.629741 0.060138
0.613522 0.642217 0.059309
0.710809 0.651015 0.059231
0.807185 0.667058 0.060231
0.891417 0.681882 0.065596
0.950856 0.690781 0.067433
0.980835 0.691944 0.068911
0.993402 0.678271 0.069728
0.00391 0.616148 0.085248
0.027646 0.625061 0.083705
0.051355 0.627552 0.072383
0.076069 0.630771 0.05679
0.10479 0.640724 0.049682
0.140709 0.656829 0.052977
0.249721 0.674143 0.056815
0.399762 0.690213 0.059613
0.517838 0.70537 0.056713
0.630379 0.720506 0.065349
0.723333 0.726828 0.078137
0.808569 0.73533 0.086559
0.89111 0.750335 0.084969
0.951703 0.756849 0.081208
0.980239 0.753289 0.080995
0.993897 0.736121 0.081064
0.004908 0.690096 0.091449
0.02888 0.696664 0.089412
0.052963 0.700349 0.079296
0.07846 0.704096 0.069953
0.107632 0.713393 0.065381
0.1417 0.727139 0.063643
0.224807 0.743044 0.061504
0.399252 0.756974 0.058421
0.528589 0.771757 0.066269
0.64332 0.785285 0.090025
0.739087 0.794221 0.097534
0.819219 0.799612 0.098437
0.891726 0.805331 0.096821
0.951398 0.811272 0.090701
0.980464 0.807139 0.091187
0.994009 0.788342 0.091421
0.005702 0.748049 0.101674
0.029859 0.754099 0.10076
0.054139 0.757899 0.094573
0.079873 0.76095 0.084767
0.10935 0.76911 0.074646
0.142543 0.780815 0.069511
0.22873 0.794651 0.067575
0.386943 0.807696 0.074985
0.523424 0.821224 0.088635
0.640584 0.833802 0.101453
0.740737 0.845181 0.106803
0.81818 0.848691 0.106211
0.89297 0.853853 0.107711
0.950975 0.857805 0.10328
0.980283 0.853504 0.103207
0.994015 0.835975 0.103434
0.006396 0.787556 0.111091
0.030338 0.792403 0.110358
0.054201 0.795973 0.107183
0.07994 0.799151 0.097356
0.10901 0.806377 0.080338
0.140839 0.8162 0.06789
0.216863 0.82762 0.072433
0.362725 0.838875 0.080692
0.500095 0.851629 0.096969
0.616258 0.863173 0.100643
0.718119 0.87408 0.110525
0.803521 0.882273 0.114459
0.876142 0.884975 0.115906
0.938556 0.889141 0.114385
0.980563 0.893906 0.114818
0.994255 0.87684 0.114767
0.006883 0.80889 0.11865
0.029644 0.812227 0.117335
0.053109 0.816803 0.116248
0.078045 0.819544 0.105634
0.105742 0.825262 0.086979
0.136023 0.833268 0.073195
0.191624 0.843131 0.076276
0.318115 0.853445 0.080637
0.459037 0.86458 0.094782
0.572873 0.875564 0.101451
0.675076 0.885616 0.105856
0.764392 0.895866 0.116637
0.839721 0.901097 0.120496
0.907238 0.904646 0.122127
0.960646 0.908387 0.119303
0.994191 0.914187 0.125235
0.004486 0.004922 0.091734
0.068785 0.010131 0.097456
0.137104 0.015059 0.088232
0.193942 0.023547 0.075072
0.251624 0.027889 0.067473
0.313867 0.031683 0.068829
0.372483 0.036637 0.076087
0.432507 0.042487 0.084301
0.494199 0.048392 0.093463
0.56177 0.054578 0.102633
0.637661 0.057095 0.114278
0.727898 0.073661 0.127404
0.813656 0.08683 0.138933
0.886019 0.096351 0.150363
0.934199 0.105877 0.158839
0.957479 0.115806 0.162364
0.000139 0.064039 0.089739
0.047354 0.067239 0.089237
0.128246 0.073158 0.082467
0.202596 0.080791 0.079811
0.27708 0.084739 0.077362
0.34557 0.090864 0.085148
0.408673 0.09816 0.094183
0.470363 0.105364 0.103257
0.531814 0.11319 0.113022
0.600864 0.122471 0.123618
0.68055 0.134091 0.136293
0.766139 0.149059 0.147484
0.847502 0.163168 0.158406
0.912637 0.176887 0.169102
0.948525 0.189343 0.1788
0.965648 0.19795 0.185324
0.000035 0.115246 0.089236
0.037178 0.11876 0.090338
0.101845 0.122871 0.091087
0.189118 0.130169 0.084457
0.28089 0.134352 0.073295
0.363144 0.136461 0.070109
0.432328 0.138375 0.077084
0.495058 0.142742 0.087352
0.555267 0.149589 0.100658
0.623492 0.160642 0.114115
0.700125 0.174546 0.128795
0.781356 0.19157 0.143107
0.858644 0.209214 0.156997
0.920808 0.225012 0.169632
0.955595 0.236413 0.179529
0.970857 0.241889 0.186373
0.000126 0.166011 0.08519
0.036765 0.169075 0.087466
0.079883 0.171981 0.087509
0.164186 0.180829 0.091131
0.250612 0.186786 0.088878
0.346019 0.190637 0.077718
0.430185 0.192725 0.073754
0.506125 0.19461 0.075041
0.580964 0.197275 0.08064
0.656711 0.205019 0.088532
0.733484 0.21726 0.102015
0.810035 0.233995 0.119638
0.88095 0.252846 0.137358
0.935978 0.269905 0.152436
0.964646 0.281461 0.164194
0.978125 0.285085 0.173275
0 0.215377 0.08844
0.03072 0.219151 0.091752
0.061743 0.220997 0.090279
0.135932 0.229092 0.092303
0.231558 0.242333 0.097002
0.314868 0.244345 0.095275
0.407448 0.247435 0.084695
0.493402 0.249717 0.078256
0.5792 0.25379 0.076889
0.666556 0.260119 0.077294
0.751141 0.270298 0.078882
0.831576 0.286032 0.088119
0.899326 0.303715 0.10599
0.94758 0.322877 0.126696
0.97254 0.334755 0.142593
0.983807 0.335788 0.154998
0 0.264166 0.093103
0.028961 0.270117 0.100154
0.052257 0.270231 0.096225
0.100257 0.278196 0.097854
0.200587 0.292043 0.100285
0.303324 0.306393 0.103356
0.381805 0.303445 0.10079
0.470452 0.305217 0.090406
0.561294 0.310375 0.080342
0.662548 0.318426 0.075595
0.75543 0.33054 0.074873
0.837523 0.345212 0.079346
0.9075 0.361451 0.091576
0.95293 0.384406 0.110759
0.975785 0.396886 0.127764
0.986889 0.395139 0.140267
0 0.314722 0.097969
0.029004 0.322171 0.107473
0.050604 0.321431 0.102949
0.079004 0.326832 0.101797
0.160526 0.34039 0.102864
0.273301 0.355782 0.106067
0.374985 0.369258 0.107514
0.451195 0.365024 0.104559
0.534428 0.364944 0.095557
0.640834 0.372624 0.079595
0.747522 0.388316 0.072694
0.839629 0.408085 0.072683
0.9113 0.429304 0.080938
0.954723 0.452379 0.100704
0.977157 0.460121 0.119897
0.988663 0.454012 0.132468
0.000072 0.364782 0.102678
0.029343 0.373995 0.114179
0.050122 0.373086 0.109798
0.074682 0.375992 0.104642
0.128029 0.388123 0.106191
0.23916 0.404169 0.107303
0.349605 0.419091 0.111179
0.445525 0.430388 0.11101
0.52228 0.426533 0.106305
0.614123 0.426854 0.093336
0.727388 0.445281 0.081251
0.833 0.471802 0.075087
0.912681 0.497074 0.070931
0.955548 0.518553 0.08881
0.979019 0.522398 0.112044
0.990332 0.51258 0.127725
0.000687 0.419576 0.108629
0.030065 0.432143 0.122106
0.05016 0.430212 0.115068
0.07401 0.432804 0.108117
0.109169 0.442531 0.107497
0.197352 0.458063 0.107738
0.318656 0.474309 0.111097
0.425224 0.488687 0.112397
0.51551 0.498589 0.111506
0.607486 0.499042 0.105369
0.708991 0.505242 0.092065
0.816321 0.530139 0.083832
0.907997 0.559119 0.07707
0.957794 0.581288 0.092215
0.981447 0.584242 0.111945
0.992045 0.570551 0.124386
0.001501 0.481732 0.114495
0.031005 0.496008 0.125792
0.050765 0.494814 0.118362
0.073373 0.495885 0.109044
0.101411 0.503938 0.10826
0.152734 0.519641 0.11059
0.279391 0.535245 0.109255
0.405177 0.550401 0.112851
0.506072 0.563796 0.116689
0.605042 0.572148 0.115378
0.708359 0.581674 0.104748
0.805849 0.594229 0.096043
0.896864 0.616241 0.098506
0.956883 0.64002 0.109391
0.982807 0.64699 0.120259
0.993368 0.629776 0.126781
0.002455 0.551256 0.123366
0.031964 0.564343 0.134707
0.051868 0.56394 0.126255
0.074876 0.564901 0.116539
0.102176 0.57195 0.112265
0.137342 0.586152 0.11281
0.245792 0.602399 0.111933
0.389458 0.618734 0.116323
0.502025 0.633503 0.119111
0.611745 0.64877 0.118256
0.708355 0.655367 0.117991
0.8073 0.670664 0.118372
0.89408 0.684832 0.119156
0.954018 0.697102 0.124799
0.983204 0.707667 0.131551
0.994516 0.690292 0.133998
0.003467 0.62402 0.133518
0.033107 0.636919 0.143225
0.053463 0.639384 0.137076
0.076686 0.640607 0.127815
0.104547 0.648359 0.11807
0.138456 0.66161 0.114376
0.229839 0.678056 0.114892
0.385138 0.694143 0.116919
0.509766 0.709633 0.11869
0.626022 0.724616 0.129241
0.722512 0.732652 0.137731
0.808856 0.739744 0.142005
0.893147 0.753752 0.136491
0.953583 0.760376 0.133846
0.9811 0.758397 0.139603
0.994428 0.743708 0.143751
0.004557 0.696262 0.140246
0.034164 0.706022 0.147536
0.054981 0.709651 0.142147
0.07903 0.711862 0.132715
0.107339 0.719334 0.122771
0.14022 0.730892 0.11891
0.205096 0.746119 0.119114
0.386515 0.760795 0.119143
0.523142 0.775625 0.130101
0.639934 0.789227 0.148456
0.740743 0.79988 0.153267
0.820424 0.804183 0.152588
0.893452 0.809203 0.150568
0.952648 0.815356 0.144969
0.981309 0.811548 0.149124
0.99466 0.79323 0.154629
0.005441 0.752905 0.143636
0.035099 0.760452 0.14918
0.056339 0.764152 0.144981
0.081287 0.767352 0.137806
0.109809 0.77409 0.128738
0.141833 0.784397 0.126229
0.213238 0.797839 0.132578
0.376222 0.811019 0.138183
0.521804 0.824925 0.146909
0.639997 0.837311 0.154714
0.741451 0.848708 0.161095
0.821207 0.853389 0.161431
0.895473 0.857906 0.163469
0.952496 0.861564 0.159249
0.98116 0.857494 0.161022
0.994636 0.840526 0.165425
0.006123 0.791398 0.14735
0.035979 0.797822 0.154362
0.056908 0.80152 0.152913
0.081932 0.804814 0.14706
0.109967 0.810656 0.135509
0.140773 0.819508 0.128545
0.207078 0.830487 0.13505
0.351309 0.841596 0.14138
0.5005 0.854784 0.15146
0.618062 0.86609 0.153747
0.719747 0.877112 0.164067
0.805752 0.885513 0.170078
0.878155 0.88866 0.172049
0.94052 0.892769 0.170978
0.981482 0.897559 0.172035
0.994785 0.880588 0.174452
0.006586 0.811795 0.150765
0.036518 0.818203 0.159873
0.056418 0.822261 0.159896
0.080353 0.824987 0.15433
0.107132 0.829547 0.142204
0.136357 0.836635 0.131389
0.18958 0.846054 0.134764
0.306351 0.855803 0.139101
0.456751 0.866924 0.147302
0.575863 0.87827 0.154303
0.676904 0.888254 0.158587
0.765939 0.898653 0.171259
0.841551 0.904268 0.176849
0.908694 0.907775 0.177657
0.961939 0.911519 0.174529
0.994498 0.917536 0.181977
0.004824 0.007974 0.161052
0.052951 0.009838 0.169934
0.131223 0.011916 0.175869
0.210862 0.013886 0.166859
0.277715 0.01975 0.149003
0.333714 0.022288 0.133385
0.383316 0.026141 0.122649
0.434839 0.02916 0.118051
0.490406 0.036769 0.123094
0.554517 0.046687 0.132107
0.624998 0.045799 0.142416
0.709719 0.058331 0.154744
0.796345 0.076854 0.169597
0.870641 0.084469 0.180325
0.922623 0.09132 0.188045
0.948392 0.101536 0.190991
0.000154 0.066883 0.162385
0.039966 0.070298 0.162377
0.110559 0.07137 0.163346
0.203931 0.073592 0.153059
0.278755 0.076452 0.130246
0.345441 0.08161 0.123813
0.407855 0.089876 0.126529
0.469618 0.097907 0.132539
0.532441 0.106143 0.141702
0.603237 0.115926 0.151808
0.68432 0.126834 0.164844
0.76896 0.142438 0.177442
0.848613 0.157111 0.189521
0.911702 0.171398 0.200522
0.945565 0.184223 0.20949
0.963288 0.193057 0.214188
0 0.124865 0.164923
0.032945 0.127109 0.162783
0.081872 0.127142 0.160836
0.18387 0.134191 0.154376
0.262439 0.144587 0.152778
0.335749 0.154192 0.156747
0.404092 0.162059 0.161273
0.473297 0.169961 0.166364
0.544055 0.178025 0.172091
0.626337 0.187533 0.179227
0.715168 0.19908 0.188658
0.802746 0.213488 0.19909
0.875 0.228624 0.209775
0.923179 0.245222 0.223177
0.956027 0.262389 0.237472
0.971109 0.273538 0.247438
0 0.17996 0.161238
0.032057 0.182538 0.160324
0.065868 0.180941 0.16085
0.148181 0.186006 0.161717
0.24666 0.193998 0.156074
0.342854 0.201439 0.151229
0.429383 0.20642 0.149216
0.505555 0.208794 0.147342
0.579968 0.214484 0.153451
0.657651 0.22365 0.163454
0.738082 0.237898 0.177571
0.817801 0.255927 0.192483
0.885787 0.275384 0.207878
0.932754 0.291735 0.220473
0.962339 0.306691 0.235072
0.975892 0.314694 0.24605
0 0.230788 0.158141
0.02957 0.233867 0.156515
0.059731 0.232971 0.159588
0.118498 0.235836 0.159683
0.21804 0.245674 0.1651
0.308371 0.252197 0.16341
0.404316 0.257861 0.153144
0.493742 0.261986 0.151141
0.588228 0.267243 0.147609
0.684805 0.27224 0.140402
0.773302 0.283067 0.142637
0.845509 0.299884 0.16307
0.905684 0.318273 0.183302
0.946873 0.336048 0.201378
0.970358 0.35114 0.220589
0.98218 0.3572 0.234051
0 0.280245 0.157616
0.028961 0.285427 0.158778
0.056244 0.284077 0.162682
0.090134 0.286901 0.162147
0.184724 0.295891 0.16648
0.28855 0.309059 0.171556
0.373016 0.310565 0.171164
0.467961 0.315944 0.160482
0.56441 0.322917 0.155814
0.667761 0.332489 0.15004
0.771567 0.341309 0.138989
0.856364 0.353151 0.138442
0.920393 0.375419 0.158256
0.954793 0.398251 0.179202
0.975887 0.411388 0.201809
0.986419 0.411087 0.218353
0 0.329351 0.15822
0.028961 0.336215 0.161973
0.055833 0.335287 0.168492
0.079816 0.33678 0.165775
0.142409 0.344927 0.170185
0.255371 0.358571 0.174173
0.360294 0.372749 0.178727
0.439572 0.372121 0.178517
0.533486 0.376501 0.168181
0.643231 0.3863 0.160088
0.755342 0.400831 0.152733
0.851636 0.418138 0.140439
0.92094 0.442744 0.145682
0.957165 0.464367 0.167944
0.977996 0.471904 0.192199
0.989205 0.467906 0.208198
0 0.379732 0.162206
0.028964 0.387727 0.16638
0.055843 0.388197 0.175629
0.076069 0.386347 0.169161
0.118436 0.394065 0.1734
0.221768 0.407834 0.178524
0.332116 0.421878 0.181375
0.434764 0.435432 0.183876
0.513063 0.433325 0.181187
0.612635 0.438729 0.171833
0.732474 0.458265 0.162362
0.8395 0.483237 0.152569
0.917959 0.508039 0.142724
0.958095 0.530282 0.161876
0.979893 0.533383 0.188458
0.990834 0.525239 0.204562
0.000004 0.434171 0.166407
0.029226 0.445712 0.173454
0.056203 0.445766 0.182268
0.076631 0.444466 0.177097
0.105258 0.449017 0.176836
0.18026 0.461627 0.18239
0.300803 0.476631 0.181635
0.410426 0.491591 0.183813
0.50682 0.504953 0.186499
0.597647 0.506329 0.183938
0.704557 0.51408 0.174547
0.821618 0.542843 0.164401
0.912843 0.569454 0.154394
0.960092 0.591345 0.161453
0.982024 0.594192 0.185319
0.992454 0.583158 0.202426
0.000562 0.49668 0.173376
0.030203 0.508091 0.177934
0.057315 0.510134 0.187937
0.076579 0.507489 0.179546
0.102505 0.512448 0.178223
0.142865 0.523949 0.181118
0.254879 0.537811 0.179457
0.3878 0.553144 0.183173
0.49083 0.567106 0.19003
0.596038 0.579298 0.192255
0.701602 0.58797 0.183227
0.804253 0.601703 0.1739
0.901244 0.626344 0.175276
0.9594 0.649824 0.176571
0.98358 0.656254 0.188123
0.993759 0.640446 0.200707
0.001616 0.563022 0.18051
0.031294 0.572685 0.180556
0.058548 0.5765 0.188275
0.078363 0.575916 0.180883
0.103588 0.580603 0.177122
0.135425 0.591389 0.180458
0.216762 0.606112 0.184369
0.367432 0.621441 0.18683
0.486258 0.63667 0.192204
0.60229 0.652363 0.194562
0.701158 0.661047 0.194033
0.803047 0.676219 0.191154
0.893918 0.68948 0.186708
0.956342 0.705249 0.192833
0.983849 0.716678 0.199491
0.994878 0.6995 0.206386
0.002806 0.633132 0.184971
0.032519 0.6439 0.187124
0.05992 0.65045 0.195239
0.080343 0.651648 0.190799
0.105867 0.657705 0.187467
0.136951 0.667732 0.186415
0.203139 0.682428 0.188284
0.361598 0.697233 0.18557
0.496602 0.71276 0.192472
0.616104 0.727975 0.202445
0.718511 0.740033 0.210242
0.804634 0.744948 0.209449
0.893181 0.75769 0.199039
0.955288 0.764221 0.196767
0.982082 0.764578 0.209862
0.994972 0.751764 0.21722
0.003955 0.703784 0.193008
0.033675 0.71154 0.192286
0.061172 0.718728 0.201184
0.082468 0.721366 0.197124
0.10848 0.72713 0.190781
0.13946 0.735904 0.183131
0.189359 0.749826 0.185332
0.365453 0.764119 0.187314
0.514336 0.779202 0.202537
0.631943 0.793033 0.216071
0.736958 0.804681 0.220987
0.818584 0.809078 0.217062
0.893645 0.813464 0.213685
0.953333 0.819428 0.206411
0.981831 0.816304 0.214594
0.99512 0.799078 0.225492
0.004986 0.75893 0.194483
0.034677 0.764946 0.191186
0.062193 0.771255 0.199316
0.084476 0.77465 0.193659
0.111753 0.78041 0.185354
0.142409 0.789066 0.183721
0.206633 0.801765 0.193123
0.362174 0.814609 0.201897
0.517672 0.828931 0.211987
0.636552 0.841175 0.218065
0.740181 0.852794 0.22652
0.822615 0.85875 0.227154
0.896501 0.862847 0.226964
0.953171 0.866267 0.222527
0.981795 0.862075 0.224841
0.995041 0.845844 0.233214
0.005718 0.796076 0.188984
0.035422 0.801248 0.188717
0.063424 0.807552 0.198281
0.086323 0.811356 0.195266
0.11306 0.816686 0.188553
0.142483 0.824099 0.188304
0.200929 0.834542 0.196113
0.338042 0.845322 0.204443
0.498667 0.858418 0.211342
0.618376 0.869643 0.214765
0.720247 0.880561 0.225303
0.807921 0.890096 0.234175
0.879562 0.893123 0.2342
0.94163 0.897284 0.231424
0.982118 0.901972 0.23431
0.995064 0.885584 0.239025
0.006107 0.815771 0.187251
0.036115 0.82151 0.189786
0.064288 0.828014 0.204078
0.085827 0.831075 0.201206
0.111196 0.835431 0.1954
0.138661 0.841435 0.190562
0.190914 0.850244 0.194919
0.29776 0.85975 0.200697
0.454535 0.870565 0.20549
0.577285 0.881455 0.210574
0.678552 0.891386 0.216355
0.76701 0.901803 0.230474
0.843187 0.908067 0.235823
0.9099 0.911694 0.235527
0.96286 0.915548 0.233276
0.994879 0.921627 0.242022
0.000837 0.004599 0.221612
0.040564 0.005455 0.233112
0.109818 0.006043 0.240917
0.197157 0.006311 0.25224
0.283441 0.005905 0.246394
0.356336 0.00951 0.225631
0.407787 0.017942 0.203711
0.454428 0.024322 0.187286
0.504156 0.030174 0.178102
0.56133 0.039359 0.175409
0.628225 0.034874 0.178434
0.711188 0.04741 0.189633
0.795492 0.071341 0.205783
0.866455 0.079812 0.21804
0.916586 0.087549 0.224658
0.941406 0.094945 0.224661
0.000022 0.068299 0.231357
0.037228 0.072239 0.232038
0.080064 0.069661 0.232835
0.174613 0.071112 0.23973
0.273047 0.072779 0.230227
0.358293 0.074383 0.206211
0.416787 0.078058 0.182735
0.470606 0.082247 0.170294
0.527006 0.091623 0.171702
0.59148 0.101529 0.179643
0.667436 0.111578 0.191424
0.753592 0.130279 0.206013
0.833862 0.14345 0.218958
0.900195 0.160494 0.230704
0.941132 0.176348 0.241689
0.960675 0.186411 0.245255
0 0.127807 0.234394
0.029205 0.129556 0.233051
0.06313 0.129992 0.232035
0.150561 0.131448 0.231953
0.262335 0.133515 0.220245
0.339775 0.139281 0.200135
0.404882 0.14546 0.191342
0.47181 0.156846 0.194645
0.542153 0.168647 0.201476
0.624204 0.181071 0.209686
0.713167 0.191628 0.218146
0.800032 0.205697 0.228822
0.871988 0.221684 0.240322
0.919286 0.238306 0.254346
0.95186 0.255342 0.267871
0.968534 0.267232 0.275713
0 0.192468 0.237974
0.029073 0.194295 0.236309
0.057662 0.1904 0.231853
0.119139 0.190794 0.230095
0.233947 0.199333 0.225673
0.324524 0.211047 0.223695
0.395972 0.219871 0.225964
0.463407 0.229527 0.230904
0.534877 0.240131 0.235878
0.621436 0.251986 0.239605
0.716233 0.263637 0.244607
0.806964 0.277637 0.253296
0.883691 0.292335 0.261476
0.930592 0.313409 0.279951
0.961194 0.332557 0.299186
0.975598 0.345567 0.311017
0 0.246177 0.232404
0.029039 0.250147 0.232259
0.057534 0.247851 0.231432
0.095925 0.245576 0.232189
0.191699 0.252875 0.234825
0.301081 0.260567 0.230038
0.397399 0.269185 0.224572
0.484633 0.278001 0.226365
0.571943 0.285877 0.223626
0.660795 0.29361 0.224483
0.749599 0.304343 0.229925
0.832012 0.319716 0.239518
