site/assets/luts/freshluts--0001242-lut.cube
# LUTr-Schema-Version: 2
# LUTr-ID: freshluts--0001242-lut
# LUTr-Title: Lut
# LUTr-Collection: Fresh LUTs
# LUTr-Collection-ID: freshluts-community
# LUTr-Source: https://freshluts.com
# LUTr-Retrieved: 2026-07-27
# LUTr-Source-File: submissions-raw/freshluts/cubes/1242__red.violet.hue.cube
# LUTr-Source-Format: CUBE
# LUTr-Source-SHA256: 9b3e65aa310fd48dd7c0640e4b0fb668361823954d19b91a41ec985456a6cdfe
# LUTr-License: CC0-1.0
# LUTr-License-URL: https://freshluts.com/termsandconditions
# LUTr-License-Basis: site-terms
# LUTr-Transform-Class: creative-look
# LUTr-Tags: creative, freshluts, community, cube, red, low-key, sony-s-log3
# LUTr-Input-Color-Space:
# LUTr-Input-Gamut: sony-s-gamut3
# LUTr-Input-Transfer: sony-s-log3
# LUTr-Output-Color-Space: srgb
# LUTr-Output-Gamut: rec709
# LUTr-Output-Transfer: srgb
# LUTr-Color-Space-Confidence: camera-profile-input-required
# LUTr-Domain-Normalized: true
# LUTr-Shaper: none
# LUTr-Original-Grid: 16x16x16
# LUTr-Conversion-Grid: 16x16x16
# LUTr-Conversion-Interpolation: none
# LUTr-Conversion-Method: Metadata normalization; numeric LUT samples preserved
# LUTr-Conversion-Tool: LUTr scripts/convert-all-to-cube.mjs 2.0.0
# LUTr-Conversion-Date: 2026-07-28
# LUTr-Asset-URL: https://freshluts.com/luts/1242
# LUTr-Author: lvannoeun@gmail.com
# LUTr-Author-URL: https://freshluts.com/users/57563
# LUTr-Attribution: lvannoeun@gmail.com via Fresh LUTs
# LUTr-Source-Labels: gamma=Sony S-Log 3; color=Red; key=Low Key; style=Drama
# LUTr-Note: Preserve this metadata and the upstream license notices when redistributing.
TITLE "Lut"
LUT_3D_SIZE 16
DOMAIN_MIN 0 0 0
DOMAIN_MAX 1 1 1
0 0 0
0.026237 -0.005922 -0.005922
0.081194 -0.01252 -0.01252
0.154616 -0.019558 -0.019558
0.233366 -0.026938 -0.026938
0.315693 -0.034566 -0.034566
0.400179 -0.042332 -0.042332
0.48599 -0.050158 -0.050158
0.57074 -0.057844 -0.057844
0.652966 -0.065267 -0.065267
0.731787 -0.072362 -0.072362
0.806473 -0.079051 -0.079051
0.875582 -0.085237 -0.085237
0.93458 -0.090785 -0.090785
0.972155 -0.095364 -0.095364
0.988514 -0.098154 -0.098154
-0.005935 0.024759 -0.005935
0.026098 0.024697 -0.009173
0.081115 0.026747 -0.014321
0.154541 0.027708 -0.020719
0.233345 0.02762 -0.027776
0.315667 0.026298 -0.03521
0.400157 0.023396 -0.042848
0.485992 0.018193 -0.050589
0.570694 0.007587 -0.058207
0.65295 -0.033001 -0.065577
0.731752 -0.048106 -0.072628
0.806457 -0.059474 -0.079285
0.875567 -0.068943 -0.085439
0.934567 -0.077034 -0.090945
0.972147 -0.08373 -0.095517
0.988509 -0.088443 -0.09829
-0.014687 0.081957 -0.014687
0.027708 0.081962 -0.016517
0.080576 0.081851 -0.021339
0.154188 0.086589 -0.026453
0.233103 0.090217 -0.032282
0.315487 0.092809 -0.038825
0.400095 0.094326 -0.045816
0.485839 0.094777 -0.053074
0.570585 0.093903 -0.060315
0.65289 0.091663 -0.067388
0.731676 0.088197 -0.07419
0.806387 0.083554 -0.080651
0.875534 0.077733 -0.086634
0.934557 0.07063 -0.092003
0.97209 0.062083 -0.096448
0.988472 0.051333 -0.099087
-0.024025 0.15317 -0.024025
0.028181 0.153178 -0.025113
0.084709 0.153164 -0.028977
0.153447 0.153031 -0.034241
0.23257 0.159299 -0.039765
0.315068 0.164268 -0.045401
0.399748 0.167905 -0.051518
0.485587 0.170358 -0.058014
0.570383 0.171209 -0.064615
0.652675 0.170485 -0.071143
0.731549 0.168449 -0.077484
0.80619 0.165093 -0.083548
0.875429 0.1605 -0.089184
0.934382 0.15458 -0.09426
0.97197 0.147025 -0.098448
0.98846 0.136457 -0.10082
-0.033817 0.229187 -0.033817
0.027328 0.229194 -0.034562
0.087672 0.229206 -0.037454
0.1592 0.229168 -0.04223
0.231672 0.229008 -0.04774
0.314407 0.23608 -0.053656
0.399165 0.241537 -0.059228
0.485132 0.245475 -0.065023
0.569983 0.247438 -0.070923
0.652308 0.247453 -0.07678
0.731333 0.245753 -0.082515
0.80605 0.24254 -0.088039
0.875259 0.237817 -0.093206
0.934265 0.231411 -0.097835
0.971937 0.222894 -0.101615
0.988328 0.210375 -0.103609
-0.043933 0.308585 -0.043933
0.0248 0.308589 -0.044486
0.089392 0.308601 -0.046731
0.163588 0.308596 -0.050734
0.238217 0.308548 -0.055993
0.313427 0.308364 -0.061672
0.398414 0.315506 -0.067848
0.484483 0.320851 -0.073375
0.569427 0.323671 -0.07872
0.651875 0.324213 -0.083963
0.730936 0.32257 -0.089074
0.805583 0.31917 -0.093991
0.87488 0.31393 -0.098593
0.934068 0.30655 -0.102699
0.971718 0.296664 -0.105986
0.988308 0.281641 -0.107473
-0.054235 0.39015 -0.054235
0.01998 0.390157 -0.05467
0.089683 0.390181 -0.056468
0.166554 0.390168 -0.059819
0.243104 0.390144 -0.064511
0.320005 0.390104 -0.07006
0.397406 0.389943 -0.075862
0.483618 0.396496 -0.082172
0.568708 0.400217 -0.087427
0.651252 0.401089 -0.092249
0.730192 0.399517 -0.096831
0.805215 0.395768 -0.10117
0.874475 0.389817 -0.105179
0.9337 0.381387 -0.108725
0.971522 0.369912 -0.111445
0.988122 0.352146 -0.112357
-0.064617 0.472845 -0.064617
0.011258 0.472848 -0.06497
0.088511 0.472862 -0.066443
0.168061 0.472877 -0.069275
0.246365 0.472874 -0.073392
0.324675 0.472817 -0.078513
0.403424 0.47275 -0.084255
0.482552 0.472522 -0.090156
0.56777 0.477077 -0.096271
0.650367 0.478266 -0.101107
0.729574 0.476649 -0.105368
0.804519 0.472444 -0.109255
0.873889 0.465742 -0.112747
0.933386 0.45614 -0.115721
0.97131 0.44294 -0.117871
0.98799 0.422432 -0.118151
-0.074815 0.554568 -0.074815
-0.032645 0.554571 -0.075112
0.085519 0.554581 -0.076347
0.167694 0.554584 -0.078762
0.24748 0.554592 -0.082354
0.326904 0.554574 -0.086977
0.406462 0.554541 -0.092386
0.486408 0.554411 -0.098239
0.566679 0.554185 -0.1042
0.649468 0.555734 -0.10991
0.728702 0.554052 -0.114279
0.803922 0.549404 -0.117919
0.873309 0.541838 -0.121004
0.932827 0.53105 -0.123495
0.971051 0.516096 -0.125093
0.987821 0.49271 -0.124734
-0.08467 0.633919 -0.08467
-0.054928 0.633921 -0.084924
0.080694 0.633929 -0.085977
0.165483 0.633941 -0.088053
0.246461 0.633952 -0.0912
0.326527 0.633951 -0.095329
0.406532 0.633921 -0.100299
0.486841 0.633844 -0.105874
0.567441 0.633774 -0.11179
0.648402 0.63349 -0.11776
0.727691 0.631673 -0.12297
0.802922 0.626484 -0.126777
0.872541 0.618226 -0.129685
0.932231 0.606077 -0.131784
0.970672 0.589285 -0.1329
0.987574 0.563113 -0.131941
-0.094066 0.709945 -0.094066
-0.070519 0.709804 -0.09429
0.074106 0.709821 -0.09519
0.1616 0.70985 -0.096994
0.24355 0.709881 -0.099754
0.323996 0.709896 -0.103441
0.404114 0.709867 -0.107961
0.484363 0.709903 -0.113155
0.564869 0.709744 -0.118825
0.645615 0.709577 -0.124747
0.726693 0.709437 -0.130713
0.801929 0.703828 -0.135311
0.871607 0.694632 -0.13842
0.931549 0.681196 -0.140363
0.970246 0.66269 -0.141122
0.987232 0.633533 -0.139616
-0.102953 0.781909 -0.102953
-0.083481 0.781911 -0.103144
0.0657 0.781919 -0.103932
0.156169 0.781933 -0.105502
0.238923 0.781949 -0.10793
0.31948 0.781963 -0.111222
0.399377 0.781961 -0.115312
0.479277 0.781932 -0.120085
0.559298 0.78186 -0.125406
0.639538 0.78179 -0.13111
0.720028 0.781622 -0.137018
0.800812 0.781435 -0.142945
0.870636 0.771262 -0.146779
0.930709 0.756692 -0.148932
0.969695 0.73627 -0.149523
0.987006 0.704177 -0.147596
-0.111152 0.848608 -0.111152
-0.094667 0.84861 -0.111319
0.055341 0.848585 -0.112007
0.149195 0.848599 -0.113388
0.232631 0.848618 -0.115538
0.312973 0.848635 -0.118474
0.39237 0.848643 -0.122151
0.471534 0.84863 -0.126519
0.550822 0.848582 -0.131459
0.63013 0.848516 -0.136847
0.709775 0.848427 -0.142545
0.789647 0.848231 -0.148387
0.869492 0.848049 -0.154225
0.92985 0.832168 -0.157054
0.969124 0.80985 -0.157823
0.986605 0.774834 -0.155659
-0.118513 0.908611 -0.118513
-0.10435 0.908613 -0.118653
0.042598 0.908621 -0.119263
0.140533 0.908545 -0.120476
0.22443 0.908565 -0.122379
0.304283 0.908585 -0.124997
0.382764 0.9086 -0.128302
0.460877 0.908599 -0.132273
0.538894 0.908571 -0.136808
0.617032 0.908591 -0.141822
0.695251 0.908464 -0.147216
0.773577 0.908357 -0.152856
0.852274 0.908182 -0.158603
0.928941 0.907986 -0.164361
0.968464 0.883915 -0.165686
0.986231 0.845769 -0.163595
-0.124608 0.958352 -0.124608
-0.11235 0.958354 -0.124734
0.026394 0.958361 -0.125263
0.129996 0.958289 -0.126337
0.214076 0.958309 -0.128015
0.292899 0.958331 -0.130346
0.370005 0.958351 -0.133312
0.446497 0.958359 -0.136892
0.522734 0.958347 -0.141029
0.599017 0.958301 -0.145649
0.675447 0.958295 -0.150676
0.751903 0.958277 -0.156001
0.828581 0.95813 -0.161519
0.905447 0.957953 -0.167158
0.967779 0.957763 -0.172761
0.98577 0.916759 -0.171083
-0.128205 0.987672 -0.128205
-0.117631 0.987674 -0.128312
-0.022452 0.987681 -0.128782
0.116395 0.987694 -0.129718
0.199652 0.987714 -0.131187
0.276381 0.987736 -0.133239
0.350996 0.987761 -0.135867
0.424684 0.987775 -0.139052
0.498077 0.987775 -0.142767
0.571441 0.987746 -0.146956
0.644697 0.987684 -0.151542
0.718364 0.987682 -0.156472
0.791742 0.987506 -0.16164
0.865691 0.987423 -0.166971
0.935977 0.987375 -0.17238
0.985219 0.987222 -0.177751
0.00055 0.00114 0.003955
0.026236 -0.005971 0.005518
0.081192 -0.012548 0.006382
0.154615 -0.019579 0.005638
0.233364 -0.026955 0.001281
0.315692 -0.034581 -0.021648
0.400177 -0.042345 -0.032374
0.48599 -0.050168 -0.041954
0.57074 -0.057852 -0.050964
0.652966 -0.065277 -0.059481
0.731786 -0.072371 -0.067497
0.806473 -0.079061 -0.074982
0.875582 -0.085241 -0.081852
0.93458 -0.090791 -0.088025
0.972155 -0.095369 -0.09321
0.988514 -0.098157 -0.096605
-0.005644 0.024753 0.005514
0.025895 0.024708 0.005319
0.084529 0.02226 0.002126
0.162086 0.014582 -0.019642
0.240962 -0.006921 -0.027781
0.322172 -0.029773 -0.035226
0.405597 -0.040135 -0.042848
0.490423 -0.048888 -0.050572
0.574418 -0.05696 -0.058185
0.6561 -0.064558 -0.065554
0.734506 -0.071724 -0.072601
0.808864 -0.078444 -0.079263
0.877728 -0.084639 -0.085422
0.936176 -0.09017 -0.090938
0.973259 -0.094746 -0.095523
0.989163 -0.097527 -0.0983
-0.014564 0.081952 0.005719
0.016869 0.083308 -0.014427
0.080361 0.082339 -0.021233
0.158214 0.083874 -0.026396
0.238553 0.084601 -0.032173
0.32101 0.084906 -0.038695
0.40515 0.084713 -0.045692
0.490384 0.083889 -0.052945
0.5746 0.082041 -0.060195
0.656395 0.079059 -0.067284
0.734791 0.074985 -0.074097
0.809171 0.069757 -0.08057
0.878066 0.063346 -0.086564
0.936526 0.055535 -0.091959
0.973392 0.046078 -0.096401
0.989312 0.033807 -0.099077
-0.023939 0.153167 0.001879
0.008602 0.15435 -0.024429
0.078304 0.154311 -0.028604
0.153293 0.153457 -0.034271
0.234673 0.158004 -0.039729
0.318137 0.1616 -0.045308
0.403091 0.16419 -0.051399
0.488903 0.165787 -0.057887
0.573531 0.165989 -0.064489
0.655517 0.164857 -0.071021
0.734103 0.16246 -0.077375
0.808661 0.158911 -0.083452
0.877707 0.154204 -0.089103
0.936173 0.148201 -0.094191
0.973304 0.140648 -0.09838
0.98927 0.130176 -0.100788
-0.033751 0.229184 -0.023199
-0.017684 0.23002 -0.034034
0.078037 0.230183 -0.03701
0.155891 0.229861 -0.042042
0.231602 0.229308 -0.047756
0.31556 0.235392 -0.05363
0.401009 0.24004 -0.059156
0.487263 0.243347 -0.064928
0.572228 0.24481 -0.07081
0.654559 0.244437 -0.076674
0.733373 0.24248 -0.082418
0.808113 0.239059 -0.087942
0.877113 0.234233 -0.093118
0.935817 0.227755 -0.097766
0.973099 0.21925 -0.101565
0.989167 0.206831 -0.103582
-0.043877 0.308582 -0.036001
-0.035905 0.309244 -0.044081
0.077975 0.309389 -0.046315
0.158571 0.309271 -0.050475
0.236319 0.309019 -0.055881
0.313326 0.308634 -0.061681
0.399135 0.315146 -0.067831
0.485645 0.319892 -0.073319
0.570855 0.322349 -0.078642
0.653422 0.322479 -0.083874
0.732465 0.320694 -0.088998
0.807321 0.317084 -0.093902
0.876468 0.311705 -0.098519
0.935305 0.304308 -0.102634
0.972744 0.294391 -0.105924
0.988909 0.279404 -0.107444
-0.05419 0.390143 -0.047788
-0.048429 0.390577 -0.054337
0.077182 0.390762 -0.056113
0.16054 0.390727 -0.059547
0.240124 0.390618 -0.064338
0.318783 0.390354 -0.069978
0.397393 0.390112 -0.075864
0.484056 0.396246 -0.082148
0.569491 0.399577 -0.087378
0.652229 0.400186 -0.092189
0.731349 0.398437 -0.096743
0.806322 0.394448 -0.101098
0.875633 0.388385 -0.105111
0.934759 0.379894 -0.108657
0.972338 0.368387 -0.111395
0.988679 0.350673 -0.112318
-0.064575 0.472843 -0.059176
-0.059732 0.473201 -0.064687
0.075224 0.473326 -0.066137
0.161483 0.473323 -0.069016
0.242783 0.473262 -0.07319
0.322778 0.47318 -0.078394
0.40263 0.472963 -0.084196
0.482502 0.472672 -0.090143
0.568093 0.476869 -0.096242
0.650986 0.477826 -0.101072
0.730271 0.476019 -0.105314
0.805356 0.471614 -0.109196
0.874869 0.46485 -0.112687
0.934082 0.455164 -0.115669
0.971977 0.441913 -0.117823
0.988485 0.421445 -0.118116
-0.074781 0.554567 -0.070202
-0.070348 0.554844 -0.074869
0.071671 0.555008 -0.076084
0.160817 0.554964 -0.078523
0.243494 0.554929 -0.082164
0.324517 0.554907 -0.086838
0.40509 0.5548 -0.092288
0.485793 0.554608 -0.098198
0.566663 0.554299 -0.104186
0.649686 0.555643 -0.109889
0.729125 0.553733 -0.114244
0.804325 0.548938 -0.117876
0.873884 0.541261 -0.120957
0.933377 0.530383 -0.123442
0.971579 0.515344 -0.125039
0.988212 0.492069 -0.124698
-0.084648 0.633918 -0.080758
-0.080368 0.634102 -0.084707
0.066396 0.634203 -0.085739
0.158414 0.634198 -0.087836
0.242276 0.634183 -0.091005
0.323936 0.634177 -0.095178
0.404897 0.634102 -0.100187
0.48589 0.634023 -0.105795
0.566988 0.633857 -0.111737
0.648382 0.63354 -0.117741
0.727865 0.631519 -0.122946
0.803104 0.626278 -0.12674
0.872971 0.61786 -0.129644
0.932616 0.605714 -0.131754
0.971028 0.588869 -0.132862
0.987916 0.562636 -0.131907
-0.094044 0.709943 -0.090758
-0.08981 0.709932 -0.094106
0.059328 0.710168 -0.094987
0.154453 0.710154 -0.09681
0.23929 0.710118 -0.099587
0.32122 0.710104 -0.103297
0.402401 0.710103 -0.107842
0.483188 0.710059 -0.113069
0.564206 0.709879 -0.118765
0.645355 0.709742 -0.124712
0.726573 0.709565 -0.130689
0.80209 0.703791 -0.135292
0.871894 0.694591 -0.138385
0.93188 0.681047 -0.140341
0.970435 0.662293 -0.141076
0.987528 0.633213 -0.139582
-0.102931 0.781908 -0.100173
-0.098687 0.782083 -0.102979
0.05033 0.782122 -0.103751
0.14901 0.782125 -0.10533
0.234673 0.782124 -0.107772
0.316655 0.782113 -0.111079
0.39746 0.782193 -0.115187
0.477936 0.782128 -0.119982
0.558364 0.78205 -0.125327
0.639032 0.78189 -0.131057
0.719686 0.781737 -0.13697
0.800792 0.781428 -0.142916
0.870713 0.771232 -0.146747
0.930991 0.756608 -0.148901
0.969864 0.73619 -0.14949
0.987172 0.704061 -0.147566
-0.111136 0.848608 -0.108841
-0.106818 0.848729 -0.111158
0.038987 0.848842 -0.111846
0.142111 0.848847 -0.113236
0.228399 0.848851 -0.115392
0.310163 0.848847 -0.118338
0.390424 0.848829 -0.122038
0.470168 0.848836 -0.126421
0.54985 0.848751 -0.131379
0.629516 0.848653 -0.136782
0.709271 0.848554 -0.142485
0.789375 0.848334 -0.148346
0.869472 0.848075 -0.154202
0.929996 0.83211 -0.157021
0.96927 0.809841 -0.157776
0.986677 0.774722 -0.155618
-0.118497 0.90861 -0.116608
-0.114089 0.908584 -0.118488
0.024036 0.908716 -0.119113
0.133548 0.908723 -0.120329
0.220358 0.908729 -0.122244
0.30153 0.908732 -0.124862
0.380842 0.908724 -0.128191
0.459497 0.908695 -0.132169
0.537896 0.908631 -0.136712
0.616253 0.908574 -0.141747
0.69465 0.908612 -0.147154
0.773498 0.908461 -0.152807
0.852196 0.908284 -0.158566
0.928923 0.908093 -0.164336
0.968561 0.883881 -0.165658
0.986202 0.845772 -0.163578
-0.124593 0.958351 -0.123098
-0.120108 0.95832 -0.124565
-0.02683 0.958494 -0.125128
0.123151 0.958501 -0.126208
0.210159 0.95851 -0.127894
0.290287 0.958517 -0.130219
0.368147 0.958516 -0.133201
0.445111 0.958499 -0.136787
0.521726 0.958454 -0.140933
0.598297 0.958375 -0.145571
0.674801 0.958355 -0.150596
0.751489 0.958299 -0.155933
0.828267 0.958235 -0.161477
0.905325 0.9581 -0.167113
0.967877 0.95787 -0.172721
0.985836 0.916759 -0.171037
-0.128195 0.987672 -0.127109
-0.119996 0.987673 -0.127796
-0.038228 0.98768 -0.128265
0.114698 0.987694 -0.129205
0.198695 0.987713 -0.130693
0.27574 0.987736 -0.132749
0.350435 0.98776 -0.135387
0.424333 0.987775 -0.138594
0.497826 0.987775 -0.142326
0.571214 0.987746 -0.146526
0.64462 0.987684 -0.151138
0.718092 0.987683 -0.156085
0.791699 0.987506 -0.161261
0.865584 0.987424 -0.166622
0.935925 0.987375 -0.172043
0.985219 0.987221 -0.177456
0.006892 0.010466 0.040911
0.022563 0.015608 0.042077
0.075702 0.013244 0.056741
0.154581 -0.020163 0.064285
0.233357 -0.027381 0.068064
0.315681 -0.03491 0.070758
0.40019 -0.042612 0.072324
0.485977 -0.050388 0.072744
0.570733 -0.05804 0.071695
0.652959 -0.065437 0.069148
0.731771 -0.072505 0.065206
0.806466 -0.079183 0.059863
0.875575 -0.085344 0.053054
0.934574 -0.090865 0.044437
0.972151 -0.095452 0.033386
0.988512 -0.098219 0.016822
0.013427 0.027661 0.045099
0.02423 0.027579 0.047345
0.079192 0.026067 0.061079
0.161483 0.013323 0.065401
0.240463 -0.011542 0.065338
0.321864 -0.030309 0.065173
0.405439 -0.040421 0.064763
0.490257 -0.049089 0.063776
0.574362 -0.057123 0.061704
0.656046 -0.064692 0.058362
0.73452 -0.071837 0.053745
0.808823 -0.078542 0.047717
0.877691 -0.084716 0.040052
0.936148 -0.090239 0.030067
0.973241 -0.094824 0.015572
0.989151 -0.097574 -0.039014
0.009265 0.081283 0.059311
0.02023 0.082271 0.061035
0.079904 0.081854 0.059735
0.158499 0.079415 0.057542
0.241348 0.074846 0.053496
0.32918 0.065265 0.045393
0.416718 0.053489 0.034998
0.503075 0.041182 0.023251
0.587136 0.027756 0.006099
0.668343 0.007336 -0.042236
0.745918 -0.044178 -0.057297
0.819624 -0.059627 -0.067973
0.887789 -0.070305 -0.076474
0.943872 -0.078517 -0.083464
0.978367 -0.084745 -0.088981
0.992623 -0.088335 -0.092199
-0.020868 0.153102 0.063738
0.00939 0.154138 0.060269
0.06866 0.155085 0.051461
0.152911 0.153644 0.048712
0.238302 0.154509 0.042004
0.325811 0.153588 0.032826
0.413673 0.151388 0.021071
0.500966 0.14847 -0.015861
0.586088 0.144933 -0.046352
0.668133 0.140721 -0.060119
0.746248 0.135921 -0.070134
0.820295 0.130462 -0.078316
0.888852 0.124278 -0.085276
0.944877 0.11712 -0.091214
0.979092 0.108783 -0.095937
0.993237 0.098259 -0.098672
-0.031864 0.229142 0.066923
-0.013088 0.229939 0.060718
0.050852 0.23218 0.037693
0.14569 0.231673 0.030597
0.231193 0.230094 0.024055
0.319562 0.23307 0.013019
0.407917 0.23475 -0.029851
0.495883 0.235362 -0.048346
0.581786 0.234508 -0.060074
0.664514 0.23227 -0.069253
0.743375 0.228821 -0.077027
0.817941 0.224244 -0.083872
0.886878 0.218571 -0.089937
0.943573 0.211526 -0.095178
0.978368 0.202805 -0.099382
0.992752 0.190573 -0.101648
-0.042511 0.308562 0.068656
-0.034339 0.309199 0.060808
0.036556 0.311479 0.025088
0.138667 0.311646 0.008314
0.229027 0.310712 -0.027936
0.313064 0.309442 -0.04395
0.402121 0.313638 -0.055969
0.490761 0.316397 -0.064798
0.577386 0.31717 -0.072313
0.66073 0.31591 -0.079019
0.740273 0.312911 -0.085175
0.815362 0.308414 -0.090848
0.88457 0.302311 -0.095978
0.94202 0.294432 -0.100492
0.977417 0.284274 -0.104069
0.992195 0.269456 -0.10575
-0.053132 0.390119 0.068806
-0.047355 0.390599 0.059821
0.023842 0.392641 0.009498
0.133612 0.393095 -0.045968
0.227616 0.392525 -0.053647
0.313762 0.391804 -0.061808
0.397138 0.390825 -0.069661
0.486206 0.395308 -0.077409
0.573285 0.397257 -0.083551
0.657101 0.396698 -0.089022
0.73715 0.393919 -0.094082
0.812594 0.389234 -0.098808
0.882153 0.382595 -0.103144
0.940303 0.373628 -0.106921
0.976366 0.361859 -0.10983
0.99163 0.344181 -0.110877
-0.063709 0.472804 0.067292
-0.058898 0.473155 0.057345
0.007781 0.474958 -0.041383
0.129646 0.475517 -0.062264
0.226577 0.475184 -0.067462
0.31428 0.474711 -0.07371
0.398998 0.474098 -0.080473
0.482349 0.47329 -0.087215
0.569689 0.476337 -0.093822
0.653791 0.476246 -0.098943
0.734028 0.473589 -0.103425
0.809856 0.468576 -0.1075
0.879782 0.461196 -0.111144
0.938615 0.451149 -0.114264
0.975317 0.437634 -0.116522
0.99099 0.417187 -0.116894
-0.074058 0.554565 0.063662
-0.069665 0.554814 0.052858
-0.045059 0.556353 -0.059501
0.12538 0.556873 -0.074367
0.224788 0.556673 -0.078481
0.313648 0.55641 -0.083702
0.399075 0.556036 -0.089702
0.483187 0.555506 -0.09609
0.566549 0.554895 -0.102491
0.6509 0.555218 -0.108408
0.731458 0.552595 -0.112874
0.807387 0.547212 -0.116591
0.877524 0.53907 -0.11975
0.936879 0.527885 -0.122306
0.97418 0.512651 -0.12396
0.990184 0.489211 -0.123647
-0.084034 0.633897 0.057727
-0.079803 0.634081 0.045996
-0.063745 0.635443 -0.072992
0.12026 0.635963 -0.084885
0.221785 0.635842 -0.088319
0.31136 0.63557 -0.092814
0.397176 0.635391 -0.098167
0.481453 0.634975 -0.104105
0.564981 0.634567 -0.110349
0.648213 0.634078 -0.116596
0.728736 0.631357 -0.121887
0.804956 0.625503 -0.125731
0.87533 0.616573 -0.128662
0.935239 0.604148 -0.130802
0.973084 0.58716 -0.131952
0.98955 0.56085 -0.131018
-0.093529 0.709896 0.04926
-0.089332 0.710029 0.036085
-0.077349 0.711193 -0.084463
0.113988 0.711778 -0.094514
0.217498 0.711583 -0.097442
0.307502 0.711567 -0.101358
0.393255 0.711393 -0.106136
0.477391 0.711048 -0.111583
0.560688 0.710737 -0.117506
0.643741 0.710344 -0.123645
0.726552 0.709969 -0.129812
0.802756 0.7035 -0.134452
0.873291 0.694116 -0.137573
0.933655 0.680188 -0.139531
0.971941 0.661441 -0.140291
0.988886 0.63209 -0.138805
-0.102485 0.781888 0.037395
-0.098264 0.782063 0.020923
-0.088664 0.783093 -0.094665
0.106369 0.78357 -0.103405
0.211899 0.783507 -0.105951
0.302045 0.783401 -0.109405
0.387578 0.783213 -0.113669
0.4712 0.783128 -0.118634
0.554045 0.78289 -0.124154
0.636387 0.78263 -0.130031
0.718615 0.782281 -0.136105
0.800734 0.781917 -0.142162
0.871327 0.771196 -0.146022
0.931912 0.756316 -0.148183
0.970927 0.735584 -0.148783
0.988129 0.703436 -0.146863
-0.110752 0.848587 0.019117
-0.10646 0.84871 -0.039703
-0.098395 0.849687 -0.103738
0.097266 0.850071 -0.11154
0.204941 0.850079 -0.113782
0.294955 0.850128 -0.116836
0.379897 0.849948 -0.120648
0.462765 0.849809 -0.125145
0.544666 0.849607 -0.130241
0.626018 0.849411 -0.135771
0.707098 0.849178 -0.141594
0.788362 0.848905 -0.147581
0.86938 0.848522 -0.153512
0.930463 0.8322 -0.156364
0.96988 0.809694 -0.157132
0.987329 0.774559 -0.154973
-0.11817 0.908591 -0.048037
-0.113779 0.908566 -0.0668
-0.106732 0.909518 -0.111684
0.086506 0.909942 -0.118804
0.196319 0.909915 -0.120761
0.285918 0.909942 -0.12347
0.369959 0.909783 -0.126881
0.451609 0.909727 -0.130943
0.532205 0.90966 -0.135613
0.612231 0.909399 -0.140747
0.692038 0.909236 -0.146242
0.771687 0.908987 -0.151982
0.851396 0.908683 -0.157827
0.928819 0.908356 -0.163664
0.968771 0.884015 -0.165026
0.986628 0.845773 -0.162937
-0.124309 0.958333 -0.073352
-0.119831 0.958302 -0.083669
-0.113462 0.959149 -0.118175
0.074051 0.959553 -0.124784
0.185721 0.959572 -0.126507
0.274478 0.959503 -0.128897
0.356998 0.959473 -0.131948
0.43687 0.959424 -0.135606
0.515628 0.959273 -0.139833
0.593789 0.959183 -0.14456
0.671635 0.959065 -0.149671
0.749408 0.958939 -0.155104
0.82696 0.95867 -0.160689
0.90469 0.958462 -0.166413
0.967762 0.958139 -0.172061
0.986 0.916845 -0.170406
-0.127959 0.987656 -0.089151
-0.119745 0.987658 -0.092335
-0.051322 0.987666 -0.097258
0.112221 0.98768 -0.098638
0.197304 0.9877 -0.100796
0.274806 0.987723 -0.103738
0.349776 0.987746 -0.107429
0.423797 0.987765 -0.111807
0.497398 0.987765 -0.116803
0.570926 0.987738 -0.122288
0.644328 0.987677 -0.12817
0.717956 0.987676 -0.134343
0.791596 0.987501 -0.140683
0.865474 0.987528 -0.147122
0.935955 0.987371 -0.153522
0.985217 0.987217 -0.159833
0.017714 0.023917 0.097152
0.030652 0.027226 0.097503
0.066872 0.038369 0.101307
0.129921 0.044293 0.119227
0.230987 0.006646 0.144724
0.315648 -0.035822 0.151277
0.400158 -0.04335 0.155498
0.485971 -0.051006 0.158389
0.570683 -0.058564 0.159494
0.652939 -0.065883 0.158871
0.731729 -0.072891 0.15671
0.806447 -0.079514 0.153112
0.875556 -0.085637 0.148112
0.934559 -0.091129 0.141579
0.972141 -0.095675 0.133118
0.988505 -0.098415 0.121117
0.022903 0.037092 0.099597
0.029906 0.034972 0.106181
0.069448 0.044442 0.108861
0.134192 0.049962 0.124803
0.237578 0.011853 0.148042
0.321323 -0.03173 0.151413
0.405112 -0.041295 0.153579
0.490103 -0.049745 0.15512
0.574225 -0.057654 0.155338
0.655959 -0.065135 0.154118
0.734383 -0.072219 0.151553
0.808734 -0.07887 0.14775
0.877611 -0.085001 0.14265
0.936161 -0.090491 0.136064
0.973202 -0.095041 0.127693
0.989127 -0.097761 0.115942
0.042901 0.084933 0.114994
0.047189 0.084375 0.118111
0.079367 0.08541 0.116868
0.14018 0.089743 0.13061
0.241277 0.073246 0.146041
0.32888 0.06354 0.146585
