site/assets/luts/freshluts--0001102-woman-flowers-in-face-in-garden-background.cube
# LUTr-Schema-Version: 2
# LUTr-ID: freshluts--0001102-woman-flowers-in-face-in-garden-background
# LUTr-Title: Woman_Flowers In Face_In Garden Background
# LUTr-Collection: Fresh LUTs
# LUTr-Collection-ID: freshluts-community
# LUTr-Source: https://freshluts.com
# LUTr-Retrieved: 2026-07-27
# LUTr-Source-File: submissions-raw/freshluts/cubes/1102__Woman_FlowersInFace_InGardenBackground.cube
# LUTr-Source-Format: CUBE
# LUTr-Source-SHA256: 49183337080b72da46ec7948da1502d5bb89462661954ba4d6201b0082973c2f
# LUTr-License: CC0-1.0
# LUTr-License-URL: https://freshluts.com/termsandconditions
# LUTr-License-Basis: site-terms
# LUTr-Transform-Class: creative-look
# LUTr-Tags: creative, freshluts, community, cube, low-key, panasonic-v-log
# LUTr-Input-Color-Space:
# LUTr-Input-Gamut: panasonic-v-gamut
# LUTr-Input-Transfer: panasonic-v-log
# LUTr-Output-Color-Space: srgb
# LUTr-Output-Gamut: rec709
# LUTr-Output-Transfer: srgb
# LUTr-Color-Space-Confidence: camera-profile-input-required
# LUTr-Domain-Normalized: true
# LUTr-Shaper: none
# LUTr-Original-Grid: 35x35x35
# LUTr-Conversion-Grid: 35x35x35
# LUTr-Conversion-Interpolation: none
# LUTr-Conversion-Method: Metadata normalization; numeric LUT samples preserved
# LUTr-Conversion-Tool: LUTr scripts/convert-all-to-cube.mjs 2.0.0
# LUTr-Conversion-Date: 2026-07-28
# LUTr-Asset-URL: https://freshluts.com/luts/1102
# LUTr-Author: Camera Head Studios LUTS
# LUTr-Author-URL: https://freshluts.com/users/107973
# LUTr-Attribution: Camera Head Studios LUTS via Fresh LUTs
# LUTr-Source-Labels: gamma=Panasonic V-log; color=None; key=Low Key; style=Cinematic/Dark
# LUTr-Note: Preserve this metadata and the upstream license notices when redistributing.
# LUTr-Upstream-Comment: Created by: Pixelmator Pro
# LUTr-Upstream-Comment: Color profile: "sRGB IEC61966-2.1"
# LUTr-Upstream-Comment: Data domain
# LUTr-Upstream-Comment: LUT size
TITLE "Woman_Flowers In Face_In Garden Background"
LUT_3D_SIZE 35
DOMAIN_MIN 0 0 0
DOMAIN_MAX 1 1 1
0 0 0
0 0 0
0 0 0
0 0 0
0 0 0
0 0 0
0 0 0
0 0 0
0 0 0
0 0 0
0 0 0
0 0 0
0 0 0
0 0 0
0 0 0
0 0 0
0 0 0
0 0 0
0 0 0
0 0 0
0 0 0
0.021 0 0
0.058 0 0
0.1 0 0
0.146 0 0
0.199 0 0
0.258 0 0
0.332 0 0
0.427 0 0
0.551 0 0
0.693 0 0
0.816 0 0
0.906 0 0
0.995 0 0
1 0.549 0.549
0 0 0
0 0 0
0 0 0
0 0 0
0 0 0
0 0 0
0 0 0
0 0 0
0 0 0
0 0 0
0 0 0
0 0 0
0 0 0
0 0 0
0 0 0
0 0 0
0 0 0
0 0 0
0 0 0
0 0 0
0.005 0 0
0.036 0.001 0
0.072 0.001 0
0.113 0.002 0
0.159 0.003 0
0.211 0.004 0
0.271 0.005 0
0.345 0.006 0
0.441 0.008 0
0.565 0.011 0
0.703 0.015 0
0.82 0.019 0
0.91 0.024 0
0.996 0.038 0
1 0.565 0.562
0 0 0
0 0 0
0 0 0
0 0 0
0 0 0
0 0 0
0 0 0
0 0 0
0 0 0
0 0 0
0 0 0
0 0 0
0 0 0
0 0 0
0 0 0
0 0 0
0 0 0
0 0 0
0 0 0
0 0 0
0.02 0.001 0
0.051 0.002 0
0.086 0.003 0
0.127 0.005 0
0.172 0.006 0
0.224 0.008 0
0.284 0.011 0
0.358 0.014 0
0.456 0.018 0
0.579 0.024 0
0.713 0.032 0
0.824 0.04 0
0.913 0.05 0
0.998 0.077 0
1 0.584 0.575
0 0 0
0 0 0
0 0 0
0 0 0
0 0 0
0 0 0
0 0 0
0 0 0
0 0 0
0 0 0
0 0 0
0 0 0
0 0 0
0 0 0
0 0 0
0 0 0
0 0 0
0 0 0
0 0 0
0.008 0.001 0
0.035 0.002 0
0.066 0.004 0
0.101 0.006 0
0.141 0.008 0
0.186 0.011 0
0.237 0.014 0
0.298 0.018 0
0.373 0.023 0
0.472 0.03 0
0.594 0.039 0
0.724 0.05 0
0.828 0.062 0
0.917 0.077 0
1 0.115 0
1 0.605 0.59
0 0 0
0 0 0
0 0 0
0 0 0
0 0 0
0 0 0
0 0 0
0 0 0
0 0 0
0 0 0
0 0 0
0 0 0
0 0 0
0 0 0
0 0 0
0 0 0
0 0 0
0 0 0
0.002 0 0
0.024 0.002 0
0.051 0.005 0
0.082 0.007 0
0.117 0.01 0
0.157 0.013 0
0.201 0.017 0
0.252 0.022 0
0.313 0.027 0
0.39 0.034 0
0.49 0.044 0
0.61 0.056 0
0.734 0.071 0
0.832 0.085 0
0.922 0.106 0
1 0.161 0.021
1 0.629 0.607
0 0 0
0 0 0
0 0 0
0 0 0
0 0 0
0 0 0
0 0 0
0 0 0
0 0 0
0 0 0
0 0 0
0 0 0
0 0 0
0 0 0
0 0 0
0 0 0
0 0 0
0 0 0
0.019 0.003 0
0.041 0.006 0
0.068 0.009 0
0.099 0.012 0
0.134 0.016 0
0.173 0.02 0
0.217 0.025 0
0.268 0.031 0
0.33 0.039 0
0.409 0.048 0
0.509 0.06 0
0.627 0.076 0
0.746 0.094 0
0.836 0.109 0
0.927 0.136 0
1 0.204 0.048
1 0.657 0.626
0 0 0
0 0 0
0 0 0
0 0 0
0 0 0
0 0 0
0 0 0
0 0 0
0 0 0
0 0 0
0 0 0
0 0 0
0 0 0
0 0 0
0 0 0
0 0 0
0 0 0
0.016 0.003 0
0.036 0.007 0
0.06 0.01 0
0.086 0.014 0
0.117 0.019 0
0.152 0.023 0
0.191 0.029 0
0.235 0.036 0
0.287 0.043 0
0.35 0.053 0
0.43 0.065 0
0.531 0.08 0
0.645 0.099 0
0.757 0.119 0
0.841 0.136 0
0.932 0.169 0
1 0.247 0.076
1 0.687 0.647
0 0 0
0 0 0
0 0 0
0 0 0
0 0 0
0 0 0
0 0 0
0 0 0
0 0 0
0 0 0
0 0 0
0 0 0
0 0 0
0 0 0
0 0 0
0.003 0.001 0
0.017 0.005 0
0.035 0.009 0
0.055 0.013 0
0.079 0.018 0
0.106 0.022 0
0.137 0.028 0
0.172 0.034 0
0.211 0.041 0
0.255 0.049 0
0.308 0.059 0
0.373 0.071 0
0.454 0.086 0
0.554 0.104 0
0.664 0.124 0
0.768 0.146 0
0.848 0.164 0
0.938 0.203 0
1 0.291 0.106
1 0.721 0.671
0 0 0
0 0 0
0 0 0
0 0 0
0 0 0
0 0 0
0 0 0
0 0 0
0 0 0
0 0 0
0 0 0
0 0 0
0 0 0
0 0 0
0.008 0.003 0
0.02 0.008 0
0.036 0.012 0
0.054 0.017 0
0.075 0.022 0
0.099 0.028 0
0.127 0.034 0
0.158 0.04 0
0.193 0.048 0
0.232 0.056 0
0.277 0.067 0
0.331 0.079 0
0.398 0.093 0
0.48 0.11 0
0.578 0.13 0
0.684 0.152 0
0.778 0.174 0
0.856 0.194 0
0.944 0.239 0
1 0.338 0.136
1 0.756 0.697
0 0 0
0 0 0
0 0 0
0 0 0
0 0 0
0 0 0
0 0 0
0 0 0
0 0 0
0 0 0
0 0 0
0 0 0
0.004 0.002 0
0.013 0.007 0
0.024 0.012 0
0.038 0.017 0
0.055 0.023 0
0.074 0.028 0
0.096 0.034 0
0.121 0.041 0
0.149 0.048 0
0.18 0.056 0
0.215 0.065 0
0.255 0.076 0
0.301 0.088 0
0.357 0.102 0
0.425 0.118 0
0.508 0.137 0
0.604 0.159 0
0.702 0.182 0
0.788 0.203 0
0.865 0.226 0
0.951 0.277 0
1 0.387 0.167
1 0.792 0.726
0 0 0
0 0 0
0 0 0
0 0 0
0 0 0
0 0 0
0 0 0
0 0 0
0 0 0
0 0 0
0.003 0.003 0
0.01 0.008 0
0.018 0.014 0
0.029 0.019 0
0.041 0.025 0
0.057 0.031 0
0.074 0.037 0
0.095 0.044 0
0.118 0.051 0
0.143 0.059 0
0.172 0.067 0
0.204 0.077 0
0.239 0.087 0
0.28 0.1 0
0.328 0.113 0
0.385 0.129 0
0.455 0.147 0
0.537 0.168 0
0.629 0.19 0
0.72 0.213 0
0.795 0.231 0
0.875 0.26 0
0.957 0.317 0
1 0.44 0.198
1 0.827 0.756
0 0 0
0 0 0
0 0 0
0 0 0
0 0 0
0 0 0
0 0 0
0.001 0.001 0
0.004 0.006 0
0.008 0.011 0
0.014 0.017 0
0.023 0.023 0
0.033 0.028 0
0.045 0.035 0
0.059 0.041 0
0.076 0.048 0
0.095 0.055 0
0.116 0.063 0
0.14 0.071 0
0.167 0.08 0
0.196 0.09 0
0.228 0.101 0
0.265 0.114 0
0.306 0.127 0
0.356 0.142 0
0.415 0.159 0
0.485 0.178 0
0.566 0.199 0
0.653 0.222 0
0.735 0.243 0
0.805 0.261 0
0.886 0.296 0
0.964 0.361 0
1 0.494 0.229
1 0.86 0.787
0 0 0
0 0 0
0 0 0
0 0.001 0
0.001 0.005 0
0.002 0.009 0
0.005 0.013 0
0.008 0.018 0
0.012 0.023 0
0.018 0.029 0
0.026 0.035 0
0.036 0.041 0
0.048 0.048 0
0.061 0.055 0
0.077 0.062 0
0.096 0.07 0
0.116 0.078 0
0.139 0.087 0
0.163 0.096 0
0.191 0.107 0
0.221 0.118 0
0.254 0.13 0
0.291 0.143 0
0.335 0.158 0
0.386 0.174 0
0.446 0.192 0
0.516 0.211 0
0.595 0.232 0
0.675 0.254 0
0.748 0.274 0
0.816 0.294 0
0.897 0.336 0
0.97 0.407 0
1 0.549 0.261
1 0.89 0.82
0 0.011 0
0.001 0.014 0
0.002 0.017 0
0.003 0.021 0
0.005 0.025 0
0.007 0.029 0
0.011 0.033 0
0.015 0.038 0
0.021 0.044 0
0.029 0.05 0
0.038 0.057 0
0.05 0.064 0
0.063 0.071 0
0.079 0.079 0
0.097 0.087 0
0.116 0.096 0
0.138 0.105 0
0.162 0.115 0
0.187 0.125 0
0.215 0.136 0
0.246 0.148 0
0.28 0.161 0
0.319 0.176 0
0.364 0.191 0
0.417 0.208 0
0.478 0.226 0
0.547 0.246 0
0.621 0.266 0
0.694 0.287 0
0.758 0.303 0
0.83 0.329 0
0.909 0.378 0
0.976 0.456 0
1 0.603 0.294
1 0.917 0.852
0 0.035 0
0.001 0.038 0
0.003 0.041 0
0.005 0.045 0
0.008 0.048 0
0.012 0.053 0
0.017 0.058 0
0.023 0.063 0
0.03 0.069 0
0.04 0.076 0
0.051 0.083 0
0.065 0.091 0
0.08 0.099 0
0.097 0.108 0
0.117 0.117 0
0.138 0.126 0
0.161 0.136 0
0.185 0.147 0
0.212 0.158 0
0.241 0.17 0
0.273 0.182 0
0.308 0.196 0
0.348 0.21 0
0.395 0.226 0
0.448 0.243 0
0.509 0.262 0
0.575 0.281 0
0.644 0.301 0
0.709 0.319 0
0.77 0.336 0
0.844 0.369 0
0.92 0.424 0
0.982 0.508 0
1 0.655 0.329
1 0.94 0.884
0 0.062 0
0.002 0.066 0
0.005 0.069 0
0.008 0.073 0
0.012 0.077 0
0.017 0.082 0
0.023 0.087 0
0.031 0.093 0
0.04 0.1 0
0.052 0.107 0
0.065 0.115 0
0.081 0.123 0
0.098 0.132 0
0.117 0.141 0
0.138 0.15 0
0.16 0.16 0
0.184 0.171 0
0.21 0.182 0
0.237 0.193 0
0.267 0.206 0
0.3 0.219 0
0.337 0.233 0
0.379 0.248 0
0.426 0.264 0
0.48 0.281 0
0.539 0.299 0
0.602 0.317 0
0.664 0.335 0
0.721 0.35 0
0.785 0.372 0
0.859 0.412 0
0.93 0.473 0
0.987 0.56 0
1 0.705 0.367
1 0.96 0.917
0 0.095 0
0.003 0.098 0
0.007 0.102 0
0.011 0.106 0
0.017 0.111 0
0.023 0.116 0
0.031 0.121 0
0.04 0.127 0
0.051 0.134 0
0.065 0.142 0
0.08 0.15 0
0.098 0.159 0
0.117 0.168 0
0.138 0.178 0
0.16 0.188 0
0.184 0.198 0
0.209 0.209 0
0.235 0.22 0
0.264 0.232 0
0.295 0.245 0
0.329 0.258 0
0.367 0.272 0
0.41 0.287 0
0.458 0.303 0
0.51 0.32 0
0.567 0.337 0
0.624 0.354 0
0.679 0.369 0
0.735 0.385 0
0.803 0.414 0
0.874 0.459 0
0.94 0.525 0
0.992 0.612 0
1 0.75 0.408
1 0.977 0.948
0 0.132 0
0.004 0.136 0
0.009 0.14 0
0.015 0.144 0
0.022 0.149 0
0.029 0.154 0
0.039 0.16 0
0.05 0.166 0
0.064 0.173 0
0.08 0.181 0
0.097 0.19 0
0.117 0.199 0
0.138 0.208 0
0.16 0.218 0
0.184 0.228 0
0.208 0.239 0
0.234 0.25 0
0.261 0.261 0
0.291 0.274 0
0.323 0.287 0
0.359 0.3 0
0.398 0.314 0
0.441 0.329 0
0.488 0.345 0
0.539 0.361 0
0.591 0.377 0
0.642 0.391 0
0.693 0.404 0
0.753 0.426 0
0.821 0.461 0
0.889 0.511 0
0.95 0.578 0
0.997 0.663 0
1 0.792 0.453
1 0.991 0.979
0 0.174 0
0.006 0.178 0
0.012 0.182 0
0.019 0.186 0
0.027 0.191 0
0.037 0.196 0
0.049 0.202 0
0.062 0.209 0
0.078 0.216 0
0.096 0.224 0
0.116 0.233 0
0.137 0.242 0
0.16 0.252 0
0.183 0.262 0
0.208 0.272 0
0.233 0.283 0
0.26 0.295 0
0.289 0.307 0
0.319 0.319 0
0.352 0.332 0
0.389 0.346 0
0.428 0.36 0
0.471 0.374 0
0.516 0.389 0
0.563 0.403 0
0.61 0.415 0
0.657 0.427 0
0.712 0.446 0
0.774 0.474 0
0.841 0.513 0
0.904 0.565 0
0.959 0.632 0
1 0.712 0.05
1 0.83 0.503
1 1 1
0 0.221 0
0.007 0.224 0
0.015 0.229 0
0.024 0.233 0
0.034 0.238 0
0.046 0.243 0
0.06 0.249 0
0.075 0.256 0
0.094 0.264 0
0.114 0.272 0
0.135 0.281 0
0.158 0.29 0
0.182 0.3 0
0.207 0.311 0
0.233 0.322 0
0.259 0.333 0
0.287 0.345 0
0.316 0.357 0
0.348 0.369 0
0.382 0.382 0
0.418 0.395 0
0.457 0.408 0
0.498 0.42 0
0.54 0.432 0
0.582 0.443 0
0.626 0.454 0
0.677 0.471 0
0.735 0.495 0
0.797 0.527 0
0.86 0.569 0
0.918 0.622 0
0.968 0.685 0
1 0.758 0.148
1 0.865 0.558
1 1 1
0 0.272 0
0.009 0.276 0
0.019 0.281 0
0.029 0.285 0
0.042 0.29 0
0.056 0.296 0
0.072 0.302 0
0.09 0.309 0
0.111 0.317 0
0.133 0.326 0
0.156 0.335 0
0.181 0.345 0
0.206 0.355 0
0.231 0.366 0
0.258 0.377 0
0.285 0.388 0
0.314 0.399 0
0.344 0.41 0
0.376 0.422 0
0.409 0.434 0
0.445 0.445 0
0.482 0.455 0
0.519 0.465 0
0.557 0.474 0
0.6 0.485 0
0.648 0.501 0
0.703 0.523 0
0.761 0.55 0
0.821 0.585 0
0.879 0.628 0
0.932 0.678 0
0.976 0.736 0
1 0.8 0.223
1 0.895 0.618
1 1 1
0 0.332 0
0.011 0.336 0
0.023 0.34 0
0.036 0.345 0
0.051 0.35 0
0.067 0.356 0
0.086 0.362 0
0.107 0.37 0
0.129 0.378 0
0.153 0.386 0
0.178 0.396 0
0.203 0.406 0
0.229 0.416 0
0.256 0.426 0
0.283 0.436 0
0.31 0.446 0
0.339 0.456 0
0.369 0.466 0
0.401 0.476 0
0.433 0.485 0
0.466 0.493 0
0.5 0.5 0
0.537 0.509 0
0.579 0.522 0
0.626 0.538 0
0.677 0.557 0
0.732 0.582 0
0.789 0.611 0
0.845 0.646 0
0.898 0.687 0
0.944 0.733 0
0.983 0.784 0
1 0.839 0.291
1 0.922 0.684
1 1 1
0 0.4 0
0.013 0.404 0
0.028 0.408 0
0.043 0.413 0
0.061 0.418 0
0.08 0.424 0
0.101 0.431 0
0.123 0.438 0
0.148 0.445 0
0.173 0.454 0
0.199 0.462 0
0.225 0.471 0
0.251 0.48 0
0.278 0.488 0
0.305 0.497 0
0.333 0.505 0
0.361 0.513 0
0.39 0.52 0
0.42 0.526 0
0.451 0.532 0
0.485 0.541 0
0.523 0.552 0
0.565 0.565 0
0.61 0.581 0
0.659 0.599 0
0.711 0.621 0
0.764 0.646 0
0.817 0.675 0
0.868 0.708 0
0.915 0.745 0
0.956 0.785 0
0.991 0.828 0
1 0.873 0.362
1 0.945 0.755
1 1 1
0 0.476 0
0.016 0.48 0
0.033 0.484 0
0.051 0.488 0
0.071 0.493 0
0.092 0.498 0
0.115 0.503 0
0.14 0.509 0
0.165 0.515 0
0.191 0.522 0
0.218 0.529 0
0.244 0.535 0
0.27 0.542 0
0.297 0.548 0
0.323 0.553 0
0.35 0.558 0
0.378 0.564 0
0.409 0.572 0
0.442 0.58 0
0.477 0.591 0
0.516 0.603 0
0.557 0.616 0
0.601 0.631 0
0.648 0.648 0
0.697 0.668 0
0.747 0.689 0
0.797 0.713 0
0.845 0.739 0
0.891 0.768 0
0.932 0.799 0
0.967 0.833 0
0.997 0.867 0
1 0.904 0.443
1 0.966 0.829
1 1 1
0 0.553 0
0.019 0.555 0
0.038 0.558 0
0.059 0.562 0
0.081 0.565 0
0.104 0.568 0
0.128 0.572 0
0.153 0.576 0
0.179 0.58 0
0.205 0.583 0
0.231 0.587 0
0.258 0.592 0
0.285 0.598 0
0.313 0.604 0
0.342 0.612 0
0.372 0.62 0
0.405 0.629 0
0.439 0.639 0
0.476 0.65 0
0.515 0.662 0
0.556 0.675 0
0.6 0.689 0
0.645 0.704 0
0.691 0.72 0
0.738 0.738 0
0.784 0.757 0
0.83 0.778 0
0.872 0.8 0
0.912 0.824 0
0.947 0.849 0
0.978 0.875 0
1 0.901 0.155
1 0.931 0.54
1 0.983 0.904
1 1 1
0 0.618 0
0.021 0.62 0
0.042 0.622 0
0.064 0.624 0
0.088 0.627 0
0.112 0.63 0
0.138 0.634 0
0.165 0.638 0
0.192 0.643 0
0.221 0.649 0
0.249 0.655 0
0.279 0.662 0
0.309 0.67 0
0.34 0.678 0
0.373 0.687 0
0.408 0.696 0
0.444 0.706 0
0.482 0.717 0
0.521 0.727 0
0.563 0.739 0
0.605 0.751 0
0.649 0.763 0
0.693 0.777 0
0.736 0.791 0
0.78 0.806 0
