site/assets/luts/freshluts--0000455-bmpcc4k.cube
# LUTr-Schema-Version: 2
# LUTr-ID: freshluts--0000455-bmpcc4k
# LUTr-Title: BMPCC4K
# LUTr-Collection: Fresh LUTs
# LUTr-Collection-ID: freshluts-community
# LUTr-Source: https://freshluts.com
# LUTr-Retrieved: 2026-07-27
# LUTr-Source-File: submissions-raw/freshluts/cubes/455__BMPCC4K.cube
# LUTr-Source-Format: CUBE
# LUTr-Source-SHA256: e4f6fbfbb5dd0822d1d340d47d213ab4dd49bb19278eb2f4e62ea2ff54d7947d
# LUTr-License: CC0-1.0
# LUTr-License-URL: https://freshluts.com/termsandconditions
# LUTr-License-Basis: site-terms
# LUTr-Transform-Class: creative-look
# LUTr-Tags: creative, freshluts, community, cube, bmd-film
# LUTr-Input-Color-Space: bmd-film
# LUTr-Input-Gamut: bmd-film-gamut
# LUTr-Input-Transfer: bmd-film
# LUTr-Output-Color-Space: srgb
# LUTr-Output-Gamut: rec709
# LUTr-Output-Transfer: srgb
# LUTr-Color-Space-Confidence: inferred-from-source-label
# LUTr-Domain-Normalized: true
# LUTr-Shaper: none
# LUTr-Original-Grid: 33x33x33
# LUTr-Conversion-Grid: 33x33x33
# LUTr-Conversion-Interpolation: none
# LUTr-Conversion-Method: Metadata normalization; numeric LUT samples preserved
# LUTr-Conversion-Tool: LUTr scripts/convert-all-to-cube.mjs 2.0.0
# LUTr-Conversion-Date: 2026-07-28
# LUTr-Asset-URL: https://freshluts.com/luts/455
# LUTr-Author: Revirssab
# LUTr-Author-URL: https://freshluts.com/users/9194
# LUTr-Attribution: Revirssab via Fresh LUTs
# LUTr-Source-Labels: gamma=Blackmagic BMD Film; color=None; key=Neutral; style=Adventure
# LUTr-Note: Preserve this metadata and the upstream license notices when redistributing.
TITLE "BMPCC4K"
LUT_3D_SIZE 9
DOMAIN_MIN 0 0 0
DOMAIN_MAX 1 1 1
0 0 0
0 0 0
0.169909 0 0
0.458869 0 0
0.704921 0 0
0.838544 0 0
0.936599 0 0
1 0 0
1 0 0
0 0 0
0 0 0
0.147951 0 0
0.45716 0 0
0.710079 0 0
0.845823 0 0
0.943938 0 0
1 0 0
1 0 0
0 0.239078 0
0 0.236316 0
0.125658 0.2056 0
0.437964 0.191943 0
0.69453 0.188785 0
0.830014 0.189715 0
0.927916 0.191516 0
1 0.194018 0
1 0.197116 0
0 0.525063 0
0 0.518334 0
0.0981308 0.482109 0
0.412284 0.461357 0
0.677852 0.454093 0
0.81445 0.452934 0
0.912963 0.453635 0
0.993942 0.45536 0
1 0.457908 0
0 0.741268 0
0 0.735988 0
0.0750134 0.713161 0
0.389075 0.697673 0
0.661158 0.69131 0
0.798489 0.689357 0
0.897581 0.68893 0
0.986984 0.689174 0
1 0.690028 0
0 0.876875 0
0 0.871397 0
0.0598154 0.849363 0
0.374273 0.833127 0
0.649729 0.826398 0
0.787228 0.824079 0
0.886519 0.823301 0
0.981933 0.823209 0
1 0.823682 0
0 0.974807 0
0 0.970657 0
0.0488136 0.950408 0
0.363958 0.933623 0
0.64152 0.926726 0
0.778943 0.924239 0
0.878492 0.923308 0
0.975433 0.923018 0
1 0.923293 0
0 1 0
0 1 0
0.038056 1 0
0.354253 1 0
0.633677 1 0
0.770886 1 0
0.870359 0.999924 0
0.9673 0.999741 0
1 0.999802 0
0 1 0
0 1 0
0.0273136 1 0
0.345098 1 0
0.626169 1 0
0.763149 1 0
0.862455 1 0
0.959335 1 0
1 1 0
0 0 0.0484016
0 0 0.0309758
0.172396 0 0
0.462791 0 0
0.707393 0 0
0.841245 0 0
0.939681 0 0
1 0 0
1 0 0
0 0 0.00540169
0 0 0.000198367
0.160845 0 0
0.469429 0 0
0.714748 0 0
0.849439 0 0
0.94699 0 0
1 0 0
1 0 0
0 0.240391 0
0 0.239368 0
0.124605 0.205035 0
0.444709 0.188785 0
0.69836 0.185473 0
0.833249 0.186481 0
0.930724 0.188586 0
1 0.190951 0
1 0.19411 0
0 0.524834 0
0 0.519707 0
0.0866407 0.483848 0
0.410727 0.459846 0
0.679332 0.450996 0
0.816464 0.449378 0
0.914992 0.449958 0
0.994858 0.451637 0
1 0.4542 0
0 0.740566 0
0 0.735973 0
0.0615702 0.713985 0
0.38262 0.697154 0
0.659663 0.68983 0
0.798428 0.687358 0
0.8981 0.686671 0
0.98735 0.686763 0
1 0.687663 0
0 0.87599 0
0 0.871031 0
0.0461585 0.849989 0
0.366323 0.8327 0
0.646571 0.825269 0
0.785626 0.822431 0
0.885725 0.821363 0
0.981781 0.821042 0
1 0.821347 0
0 0.974075 0
0 0.970245 0
0.0350958 0.951095 0
0.355581 0.933165 0
0.637552 0.925719 0
0.776394 0.922805 0
0.876799 0.921584 0
0.974411 0.92105 0
1 0.921126 0
0 1 0
0 1 0
0.0239872 1 0
0.345754 1 0
0.62916 1 0
0.76762 0.999786 0
0.867903 0.999191 0
0.965545 0.998886 0
1 0.998871 0
0 1 0
0 1 0
0.0109865 1 0
0.336645 1 0
0.621332 1 0
0.759365 1 0
0.859388 1 0
0.956939 1 0
1 1 0
0 0 0.310613
0 0 0.303838
0.163806 0 0.26276
0.4607 0 0.243824
0.707881 0 0.237583
0.842725 0 0.238911
0.942153 0 0.243442
1 0 0.252781
1 0 0.259815
0 0 0.287205
0 0 0.294347
0.158801 0 0.261097
0.474968 0 0.246769
0.717556 0 0.242649
0.851804 0 0.243549
0.949081 0 0.245579
1 0 0.248432
1 0 0.251957
0 0.237781 0.271412
0 0.236194 0.269871
0.11989 0.201709 0.234119
0.455665 0.182757 0.214786
0.702678 0.180819 0.212894
0.836484 0.182376 0.214542
0.933379 0.184756 0.216739
1 0.187304 0.219638
1 0.1906 0.223026
0 0.522087 0.254353
0 0.518318 0.241993
0.0648203 0.486946 0.200595
0.408408 0.457572 0.175967
0.682307 0.446143 0.180713
0.819455 0.444358 0.185855
0.917678 0.445045 0.189776
0.995972 0.446906 0.193851
1 0.449607 0.198062
0 0.738827 0.239292
0 0.734936 0.225422
0.0431983 0.714946 0.189319
0.372168 0.69688 0.160571
0.657801 0.687984 0.155673
0.79884 0.684718 0.159716
0.899214 0.683726 0.164096
0.987991 0.68368 0.168902
1 0.684367 0.173831
0 0.874327 0.229541
0 0.869932 0.215793
0.0289616 0.85066 0.182574
0.3552 0.832364 0.153307
0.642191 0.824048 0.144015
0.783719 0.820478 0.1449
0.885039 0.818982 0.148074
0.981735 0.818357 0.152377
1 0.818479 0.157229
0 0.972839 0.222599
0 0.969543 0.209201
0.0171969 0.951873 0.177996
0.344762 0.932662 0.148028
0.632197 0.924697 0.137087
0.773144 0.921202 0.135943
0.874846 0.919402 0.137881
0.973388 0.9187 0.141299
1 0.918532 0.145663
0 1 0.215915
0 1 0.202853
0.00436408 1 0.1738
0.335393 1 0.142733
0.623316 1 0.130861
0.763455 0.999115 0.128222
0.864881 0.998367 0.128939
0.9635 0.997909 0.131395
1 0.997742 0.135073
0 1 0.209506
0 1 0.196658
0 1 0.168933
0.326665 1 0.137362
0.615274 1 0.124971
0.754589 1 0.121279
0.855604 1 0.121035
0.95407 1 0.12256
1 1 0.125414
0 0 0.599313
0 0 0.595041
0.152193 0 0.557534
0.453483 0 0.539208
0.70605 0 0.531975
0.842786 0 0.533196
0.944442 0 0.539971
1 0 0.548211
1 0 0.553994
0 0 0.58323
0 0 0.589624
0.147311 0 0.568612
0.468544 0 0.555062
0.716579 0 0.545296
0.851881 0 0.542351
0.949493 0 0.542168
1 0 0.543389
1 0 0.545663
0 0.234668 0.576013
0 0.230579 0.581659
0.114961 0.19855 0.56144
0.451209 0.179019 0.537926
0.704021 0.176623 0.517372
0.838148 0.178515 0.511589
0.934981 0.18088 0.510445
1 0.183841 0.511025
1 0.187274 0.512947
0 0.517906 0.556878
0 0.513085 0.552087
0.057908 0.482597 0.521447
0.403128 0.452506 0.490455
0.688228 0.438514 0.476326
0.82356 0.438132 0.475914
0.920913 0.43946 0.477256
0.997238 0.441779 0.479576
1 0.444816 0.482643
0 0.736324 0.536187
0 0.73254 0.525002
0.0282444 0.714549 0.487221
0.35494 0.697322 0.443732
0.655848 0.686061 0.427039
0.801083 0.681346 0.434058
0.901946 0.680125 0.439933
0.989227 0.680095 0.445487
1 0.680873 0.450858
0 0.872084 0.522042
0 0.867964 0.508721
0.00996414 0.851347 0.472694
0.341253 0.832258 0.430396
0.635691 0.823438 0.410651
0.781842 0.81857 0.410254
0.885252 0.816373 0.414984
0.982223 0.815366 0.421012
1 0.815335 0.42739
0 0.971252 0.512047
0 0.968017 0.497993
0.000320439 0.952239 0.463478
0.332433 0.932113 0.421759
0.624918 0.924208 0.402411
0.769116 0.919768 0.398291
0.872953 0.917647 0.400412
0.973007 0.916259 0.405112
1 0.915602 0.411078
0 1 0.502586
0 1 0.488167
0 1 0.454948
0.324147 1 0.413642
0.615991 1 0.394995
0.758221 0.998657 0.388983
0.861433 0.99765 0.388922
0.961593 0.996963 0.391791
1 0.996612 0.396582
0 1 0.493568
0 1 0.479042
0 1 0.446906
0.316289 1 0.405936
0.608148 1 0.3879
0.748821 1 0.381018
0.851164 1 0.379461
0.950988 1 0.380728
1 1 0.3841
0 0 0.799817
0 0 0.797208
0.143297 0 0.775021
0.445319 0 0.765652
0.702876 0 0.762432
0.841978 0 0.76408
0.94551 0 0.768978
1 0 0.771756
1 0 0.774227
0 0 0.790799
0 0 0.79443
0.141573 0 0.783017
0.458747 0 0.776532
0.712291 0 0.771527
0.849302 0 0.768917
0.947829 0 0.767758
1 0 0.767376
1 0 0.767681
0 0.232685 0.788052
0 0.227955 0.790921
0.113817 0.19791 0.775464
0.435279 0.180774 0.766537
0.698543 0.17554 0.757397
0.835737 0.176333 0.751553
0.933806 0.178592 0.748699
1 0.181186 0.747112
1 0.184573 0.746578
0 0.513832 0.775464
0 0.507591 0.774777
0.0723278 0.47396 0.759197
0.398138 0.447639 0.752956
0.684825 0.433417 0.743145
0.824079 0.432547 0.733227
0.922042 0.434226 0.729229
0.997833 0.436896 0.727275
1 0.440238 0.726696
0 0.733547 0.760723
0 0.729229 0.75639
0.0319677 0.710323 0.737438
0.349462 0.693629 0.720714
0.65182 0.682414 0.70901
0.80705 0.675669 0.702464
0.906416 0.675273 0.702052
0.990906 0.675822 0.702556
1 0.67715 0.703685
0 0.86949 0.749935
0 0.865187 0.743542
0.00552377 0.84892 0.72398
0.331594 0.830411 0.699428
0.623621 0.82359 0.680079
0.779767 0.816434 0.672724
0.88748 0.812772 0.676997
0.983612 0.811475 0.681132
1 0.811505 0.684672
0 0.969421 0.742031
0 0.965866 0.7346
0 0.950408 0.714672
0.322576 0.930831 0.688136
0.614679 0.923964 0.671016
0.762524 0.919203 0.66212
0.870954 0.91577 0.662425
0.973693 0.913329 0.666087
1 0.912627 0.670329
0 1 0.734432
0 1 0.726268
0 1 0.706188
0.314626 1 0.678904
0.606851 1 0.66334
0.750637 0.998398 0.654902
0.856703 0.997024 0.652689
0.95967 0.995926 0.654124
1 0.995315 0.657557
0 1 0.727123
0 1 0.718471
0 1 0.698451
0.307149 1 0.670909
0.59852 1 0.656382
0.741299 1 0.648524
0.845197 1 0.645304
0.947127 1 0.644938
1 1 0.646922
0 0 0.9411
0 0 0.938857
0.138338 0 0.917937
0.440024 0 0.910231
0.700404 0 0.908858
0.842222 0 0.913115
0.94464 0 0.916564
1 0 0.918807
1 0 0.920897
0 0 0.934051
0 0 0.93814
0.13901 0 0.927184
0.45272 0 0.921721
0.708354 0 0.918502
0.846204 0 0.916609
0.945388 0 0.915572
1 0 0.915022
1 0 0.914992
0 0.231724 0.933028
0 0.226825 0.935241
0.113268 0.197635 0.919081
0.428046 0.181735 0.911315
0.692912 0.17612 0.905867
0.831678 0.176013 0.901518
0.930907 0.177752 0.89868
1 0.179965 0.896635
1 0.183108 0.895415
0 0.511208 0.921752
0 0.504326 0.921645
0.0788739 0.470115 0.905959
0.39675 0.446311 0.898833
0.676585 0.434241 0.894957
0.819165 0.431296 0.888304
0.919387 0.432013 0.883406
0.997101 0.434256 0.87985
1 0.437476 0.877714
0 0.731472 0.90782
0 0.726711 0.905074
0.0405737 0.706508 0.888106
0.357305 0.689387 0.876936
0.648905 0.679042 0.878889
0.804028 0.672435 0.872175
0.906767 0.671824 0.863844
0.991363 0.672663 0.859159
1 0.674296 0.857038
0 0.86743 0.897063
0 0.862806 0.892393
0.0115969 0.845426 0.874998
0.333608 0.8271 0.856977
0.620356 0.82031 0.850095
0.776638 0.813077 0.842786
0.89279 0.807858 0.837324
0.985489 0.807477 0.836896
1 0.808072 0.837461
0 0.967941 0.88893
0 0.963668 0.883101
0 0.947845 0.865751
0.321157 0.928222 0.843229
0.609003 0.922332 0.830732
0.752468 0.919234 0.816602
0.869368 0.91368 0.8112
0.97615 0.910384 0.815991
1 0.909239 0.820172
0 1 0.880964
0 1 0.874159
0 1 0.856336
0.311299 1 0.831449
0.599741 0.999664 0.817517
0.742565 0.998383 0.806104
0.850797 0.996811 0.799329
0.95816 0.995102 0.799466
1 0.994156 0.803601
0 1 0.873228
0 1 0.86598
0 1 0.847532
0.302876 1 0.821408
0.591546 1 0.80737
0.734524 1 0.79762
0.838895 1 0.791547
0.943145 1 0.789014
1 1 0.7906
0 0 1
0 0 1
0.135409 0 1
0.436728 0 1
0.698756 0 1
0.841733 0 1
0.943526 0 1
1 0 1
1 0 1
0 0 1
0 0 1
0.137682 0 1
0.449119 0 1
0.705516 0 1
0.843595 0 1
0.943145 0 1
1 0 1
1 0 1
0 0.231174 1
0 0.226474 1
0.112902 0.197726 1
0.424292 0.182208 1
0.689097 0.176913 1
0.828153 0.176425 1
0.928008 0.177569 0.998428
1 0.179492 0.997009
1 0.182605 0.996002
0 0.509499 1
0 0.502327 1
0.0820478 0.468071 1
0.39588 0.445472 0.99649
0.67219 0.434791 0.994583
0.814466 0.431464 0.991547
0.915785 0.431479 0.988602
0.995834 0.433402 0.985946
1 0.435996 0.984024
0 0.729976 1
0 0.724926 1
0.0464332 0.704021 0.990234
0.361593 0.687114 0.982712
0.647883 0.677974 0.983459
0.796887 0.672618 0.982162
0.902327 0.670924 0.977539
0.990234 0.671107 0.973098
1 0.672374 0.97023
0 0.865873 0.996323
0 0.86099 0.9935
0.0194705 0.842329 0.98085
0.337697 0.82443 0.969558
0.624567 0.816648 0.968246
0.773907 0.810239 0.971771
0.889906 0.805051 0.966827
0.985611 0.804364 0.959747
1 0.805463 0.955749
0 0.96672 0.990265
0 0.961913 0.986572
0.000183108 0.945327 0.974227
0.323232 0.92604 0.958434
0.610025 0.919615 0.951736
0.749935 0.916259 0.94873
0.866651 0.91075 0.943114
0.979034 0.906508 0.93817
1 0.905943 0.938003
0 1 0.984253
0 1 0.979828
0 1 0.967102
0.311513 1 0.945953
0.598123 0.998672 0.935699
0.737942 0.997681 0.927337
0.843091 0.996826 0.916991
0.956802 0.994171 0.911986
1 0.992721 0.91696
0 1 0.978332
0 1 0.973297
0 1 0.959213
0.301732 1 0.934829
0.588464 1 0.922835
0.730053 1 0.913878
0.832807 1 0.905852
0.938415 1 0.89958
1 1 0.899931
0 0 1
0 0 1
0.132982 0 1
0.433997 0 1
0.697475 0 1
0.840757 0 1
0.942214 0 1
1 0 1
1 0 1
0 0 1
0 0 1
0.13669 0 1
0.446189 0 1
0.702892 0 1
0.840986 0 1
0.940719 0 1
1 0 1
1 0 1
0 0.230747 1
0 0.225772 1
0.112657 0.19736 1
0.421424 0.182528 1
0.685878 0.177172 1
0.824781 0.176516 1
0.92491 0.177401 1
0.999847 0.179263 1
1 0.181918 1
0 0.507958 1
0 0.500618 1
0.0842908 0.466423 1
0.395117 0.444724 1
0.66894 0.435035 1
0.810208 0.4318 1
0.911788 0.431708 1
0.994232 0.432883 1
1 0.435309 1
0 0.728573 1
0 0.723293 1
0.0513161 0.7019 1
0.364477 0.685374 1
0.647013 0.677089 1
0.791943 0.67274 1
0.896925 0.670817 1
0.988205 0.67042 1
1 0.671229 1
0 0.864378 1
0 0.85922 1
0.0255894 0.839704 1
0.341711 0.822065 1
0.627436 0.814099 1
0.772686 0.808972 1
0.882338 0.804974 1
0.983124 0.803479 1
1 0.803601 1
0 0.965179 1
0 0.960143 1
0.00369268 0.942931 1
0.326482 0.923629 1
0.613108 0.916457 1
0.754086 0.912673 1
0.863874 0.908248 1
0.976944 0.903441 1
1 0.903136 1
0 1 1
0 1 1
0 1 1
0.313375 1 1
0.599741 0.997406 1
0.738537 0.996155 1
0.840406 0.995163 1
0.954177 0.99202 0.99971
1 0.990875 1
0 1 1
0 1 1
0 1 1
0.302266 1 1
0.588022 1 1
0.728191 1 1
0.828305 1 0.998856
0.930892 1 0.994553
0.999893 1 0.993347
0 0 1
0 0 1
0.131029 0 1
0.431846 0 1
0.696757 0 1
0.839582 0 1
0.940795 0 1
1 0 1
1 0 1
0 0 1
0 0 1
0.135897 0 1
0.443763 0 1
0.700557 0 1
0.838514 0 1
0.938338 0 1
1 0 1
1 0 1
0 0.230411 1
0 0.225391 1
0.112383 0.197238 1
0.419135 0.182742 1
0.683146 0.177584 1
0.821683 0.176852 1
0.921859 0.177829 1
0.998657 0.179248 1
1 0.181903 1
0 0.506615 1
0 0.499153 1
0.0859388 0.465049 1
0.39443 0.444053 1
0.666438 0.43508 1
0.806638 0.43212 1
0.908049 0.431617 1
0.992569 0.432731 1
1 0.434516 1
0 0.727245 1
0 0.721798 1
0.0552682 0.700099 1
0.366415 0.683955 1
0.646189 0.676463 1
0.788571 0.672618 1
0.892317 0.670863 1
0.986068 0.670192 1
1 0.670787 1
0 0.862898 1
0 0.857557 1
0.0307927 0.837385 1
0.345037 0.82005 1
0.629038 0.812238 1
0.771695 0.80795 1
0.877836 0.805066 1
0.980362 0.803128 1
1 0.802731 1
0 0.963668 1
0 0.958434 1
0.0100099 0.940124 1
0.329854 0.921233 1
0.615702 0.914137 1
0.756481 0.910002 1
0.862684 0.906538 1
0.969955 0.903349 1
1 0.901625 1
0 1 1
0 1 1
0 1 1
0.31606 0.999481 1
0.602686 0.996185 1
0.741436 0.99469 1
0.844282 0.993317 1
0.951492 0.991348 1
1 0.989792 1
0 1 1
0 1 1
0 1 1
0.303868 1 1
0.589517 1 1
0.729168 1 1
0.828687 1 1
0.928038 1 1
0.998749 1 1
