site/assets/luts/freshluts--0000985-night-shift.cube
# LUTr-Schema-Version: 2
# LUTr-ID: freshluts--0000985-night-shift
# LUTr-Title: Night Shift
# LUTr-Collection: Fresh LUTs
# LUTr-Collection-ID: freshluts-community
# LUTr-Source: https://freshluts.com
# LUTr-Retrieved: 2026-07-27
# LUTr-Source-File: submissions-raw/freshluts/cubes/985__Night_Shift.cube
# LUTr-Source-Format: CUBE
# LUTr-Source-SHA256: 1e03f8a8cab47819b52040200311b9463520c71527185f35eee79dd2b84da8ec
# LUTr-License: CC0-1.0
# LUTr-License-URL: https://freshluts.com/termsandconditions
# LUTr-License-Basis: site-terms
# LUTr-Transform-Class: creative-look
# LUTr-Tags: creative, freshluts, community, cube, high-contrast, high-key, rec709
# LUTr-Input-Color-Space: rec709
# LUTr-Input-Gamut: rec709
# LUTr-Input-Transfer: rec709
# LUTr-Output-Color-Space: srgb
# LUTr-Output-Gamut: rec709
# LUTr-Output-Transfer: srgb
# LUTr-Color-Space-Confidence: declared-by-source
# LUTr-Domain-Normalized: true
# LUTr-Shaper: none
# LUTr-Original-Grid: 32x32x32
# LUTr-Conversion-Grid: 32x32x32
# LUTr-Conversion-Interpolation: none
# LUTr-Conversion-Method: Metadata normalization; numeric LUT samples preserved
# LUTr-Conversion-Tool: LUTr scripts/convert-all-to-cube.mjs 2.0.0
# LUTr-Conversion-Date: 2026-07-28
# LUTr-Asset-URL: https://freshluts.com/luts/985
# LUTr-Author: ButterflyBD
# LUTr-Author-URL: https://freshluts.com/users/53416
# LUTr-Attribution: ButterflyBD via Fresh LUTs
# LUTr-Source-Labels: gamma=Rec 709; color=None; key=High Key; style=High contrast
# LUTr-Note: Preserve this metadata and the upstream license notices when redistributing.
# LUTr-Upstream-Comment: Created by: Adobe Photoshop Export Color Lookup Plugin
# LUTr-Upstream-Comment: LUT size
# LUTr-Upstream-Comment: data domain
# LUTr-Upstream-Comment: LUT data points
TITLE "Night Shift"
LUT_3D_SIZE 5
DOMAIN_MIN 0.000000 0.000000 0.000000
DOMAIN_MAX 0.903226 0.903226 0.903226
0.017639 0.019226 0.018311
0.228821 0.005829 0.025574
0.489746 0.016602 0.049347
0.724487 0.037598 0.076569
0.928528 0.070953 0.115112
0.025299 0.256439 0.011353
0.228058 0.239685 0.007874
0.492004 0.234467 0.016205
0.726593 0.223663 0.030609
0.928833 0.245422 0.076019
0.050629 0.504852 0.034912
0.238953 0.507172 0.026031
0.486359 0.474243 0.03299
0.731873 0.463074 0.047424
0.929596 0.459076 0.078247
0.083221 0.723358 0.063904
0.246307 0.727325 0.054535
0.519928 0.72879 0.058899
0.720947 0.679565 0.066956
0.93103 0.679199 0.102783
0.13678 0.928406 0.111176
0.261963 0.928467 0.105377
0.511383 0.928741 0.109222
0.740662 0.923492 0.116364
0.910431 0.876892 0.126923
0.003754 0.024841 0.246765
0.203339 0.001709 0.240997
0.488953 0.00708 0.255554
0.723358 0.019562 0.26001
0.928528 0.052521 0.267151
0.003601 0.250641 0.226501
0.20932 0.241089 0.231354
0.533386 0.166229 0.201569
0.761444 0.161896 0.201447
0.936401 0.203217 0.225494
0.015839 0.504852 0.227783
0.163727 0.539764 0.150177
0.5289 0.500763 0.144287
0.764099 0.43811 0.147614
0.937195 0.440033 0.183014
0.035828 0.723358 0.220551
0.179352 0.754211 0.158173
0.515198 0.757843 0.145721
0.754852 0.700562 0.149567
0.938599 0.675232 0.194489
0.09906 0.928406 0.251709
0.219025 0.936554 0.209412
0.488037 0.936798 0.195251
0.742493 0.937317 0.199493
0.922913 0.888947 0.205902
0.007385 0.039215 0.47464
0.185364 0.001892 0.475372
0.455505 0.00708 0.468872
0.723358 0.019562 0.49884
0.928528 0.052521 0.495667
0.003357 0.260437 0.475983
0.128052 0.192505 0.514648
0.49118 0.143677 0.513123
0.760559 0.144012 0.498779
0.93634 0.179993 0.472931
0.01474 0.490295 0.439819
0.125214 0.531403 0.462799
0.478149 0.488861 0.456146
0.76709 0.415497 0.422974
0.936066 0.43515 0.433441
0.035828 0.723358 0.436005
0.127319 0.754211 0.409668
0.415894 0.762878 0.369812
0.764374 0.71579 0.362885
0.937561 0.665131 0.406799
0.08374 0.928406 0.435883
0.173523 0.936554 0.416962
0.425598 0.936127 0.401337
0.71228 0.936737 0.387726
0.927429 0.899109 0.391174
0.011139 0.052551 0.689301
0.192139 0.002014 0.689941
0.447937 0.007904 0.691742
0.678528 0.019562 0.681732
0.924408 0.052521 0.710693
0.003143 0.260681 0.690338
0.127258 0.19278 0.727936
0.421356 0.133911 0.729187
0.708527 0.138855 0.722748
0.93634 0.178436 0.708893
0.014221 0.520721 0.694183
0.116028 0.521851 0.727997
0.362061 0.423218 0.744324
0.733582 0.380981 0.737854
0.936066 0.415131 0.680939
0.03299 0.701263 0.645233
0.126465 0.738464 0.667633
0.361053 0.755615 0.684021
0.710815 0.69989 0.671692
0.935547 0.670441 0.661469
0.08374 0.928406 0.655792
0.173523 0.936554 0.65155
0.38678 0.936127 0.634003
0.676025 0.935486 0.629425
0.932159 0.91153 0.622192
0.014832 0.066254 0.912537
0.196655 0.013824 0.913147
0.435089 0.008575 0.914368
0.674774 0.026062 0.915009
0.875824 0.052521 0.891602
0.002899 0.264343 0.913391
0.157898 0.210297 0.922394
0.413452 0.158997 0.922729
0.672363 0.165253 0.92334
0.889832 0.175934 0.905121
0.015625 0.518097 0.914795
0.137543 0.492065 0.923035
0.386688 0.426819 0.922577
0.655487 0.391174 0.923218
0.902405 0.39856 0.910522
0.038879 0.728333 0.903351
0.150391 0.731232 0.921051
0.373352 0.701813 0.92395
0.646667 0.65921 0.923309
0.917206 0.641876 0.917084
0.076111 0.904785 0.858765
0.168915 0.917816 0.872406
0.383423 0.922852 0.884125
0.645355 0.928406 0.897705
0.921204 0.915863 0.899078
