site/assets/luts/freshluts--0000756-correction-style-black-magic-footage.cube
# LUTr-Schema-Version: 2
# LUTr-ID: freshluts--0000756-correction-style-black-magic-footage
# LUTr-Title: Correction Style( black magic footage)
# LUTr-Collection: Fresh LUTs
# LUTr-Collection-ID: freshluts-community
# LUTr-Source: https://freshluts.com
# LUTr-Retrieved: 2026-07-27
# LUTr-Source-File: submissions-raw/freshluts/cubes/756__natural_1.A003_02171201_C024.cube
# LUTr-Source-Format: CUBE
# LUTr-Source-SHA256: 443a27a07d41ddc4f1d7d63c4e92ed9fbd7d4cf0c192e868964a1ab193c5a6be
# LUTr-License: CC0-1.0
# LUTr-License-URL: https://freshluts.com/termsandconditions
# LUTr-License-Basis: site-terms
# LUTr-Transform-Class: creative-look
# LUTr-Tags: creative, freshluts, community, cube, bmd-film, correction
# LUTr-Input-Color-Space:
# LUTr-Input-Gamut: bmd-film-gamut
# LUTr-Input-Transfer: bmd-film
# LUTr-Output-Color-Space: srgb
# LUTr-Output-Gamut: rec709
# LUTr-Output-Transfer: srgb
# LUTr-Color-Space-Confidence: camera-profile-input-required
# LUTr-Domain-Normalized: true
# LUTr-Shaper: none
# LUTr-Original-Grid: 33x33x33
# LUTr-Conversion-Grid: 33x33x33
# LUTr-Conversion-Interpolation: none
# LUTr-Conversion-Method: Metadata normalization; numeric LUT samples preserved
# LUTr-Conversion-Tool: LUTr scripts/convert-all-to-cube.mjs 2.0.0
# LUTr-Conversion-Date: 2026-07-28
# LUTr-Asset-URL: https://freshluts.com/luts/756
# LUTr-Author: lvannoeun@gmail.com
# LUTr-Author-URL: https://freshluts.com/users/57563
# LUTr-Attribution: lvannoeun@gmail.com via Fresh LUTs
# LUTr-Source-Labels: gamma=Blackmagic BMD Film; color=None; key=Neutral; style=Correction
# LUTr-Note: Preserve this metadata and the upstream license notices when redistributing.
TITLE "Correction Style( black magic footage)"
LUT_3D_SIZE 9
DOMAIN_MIN 0 0 0
DOMAIN_MAX 1 1 1
0 0 0
0 0 0
0 0 0
0.192462 0 0
0.432959 0 0
0.674296 0 0
0.901091 0 0
1 0 0
1 0 0
0 0 0
0 0 0
0 0 0
0.256504 0 0
0.557382 0 0
0.804715 0 0
0.997055 0 0
1 0 0
1 0 0
0 0 0
0 0.0381628 0
0 0.0547799 0
0.21915 0.0199893 0
0.537957 0 0
0.838346 0 0
1 0 0
1 0 0
1 0 0
0 0.208576 0
0 0.230076 0
0 0.255329 0
0.0306706 0.2701 0
0.427314 0.224338 0
0.763928 0.200458 0
1 0.173693 0
1 0.165164 0
1 0.165331 0
0 0.426322 0.0240787
0 0.454383 0.0244755
0 0.484871 0.00688182
0 0.511406 0
0.131441 0.529793 0
0.590616 0.466957 0
0.884871 0.450782 0
1 0.442084 0
1 0.437949 0
0 0.658854 0.121233
0 0.684474 0.12314
0 0.711559 0.108522
0 0.73402 0.0627756
0.0549172 0.756817 0
0.219471 0.773159 0
0.623758 0.722774 0
0.963394 0.674586 0
1 0.674739 0
0 0.876921 0.214343
0 0.899535 0.214481
0 0.921935 0.199481
0 0.938476 0.152422
0.0140688 0.951766 0.0843366
0.122698 0.969192 0
0.281163 0.974792 0
0.58999 0.933379 0
0.907485 0.886732 0
0 1 0.298344
0 1 0.288563
0 1 0.260884
0 1 0.201709
0 1 0.127428
0.0811475 1 0.0390631
0.177554 1 0
0.324224 1 0
0.571221 1 0
0 1 0.342458
0 1 0.327153
0 1 0.295842
0 1 0.228
0 1 0.149767
0.0424659 1 0.0643473
0.135103 1 0
0.220172 1 0
0.354955 1 0
0 0 0
0 0 0
0.00743114 0 0
0.229007 0 0
0.467918 0 0
0.698161 0 0
0.919524 0 0
1 0 0.00553903
1 0 0.0303197
0 0 0
0 0 0
0 0 0
0.201617 0 0
0.467552 0 0
0.711833 0 0
0.936278 0 0
1 0 0.0117952
1 0 0.0357214
0 0.00798047 0
0 0.0208896 0
0 0.0382086 0
0.258045 0.00758373 0
0.552941 0 0
0.812924 0 0
1 0 0
1 0 0.0210269
1 0 0.0514687
0 0.201541 0.00175479
0 0.213642 0.0228733
0 0.237659 0.00773632
0.0777295 0.25864 0
0.467628 0.220325 0
0.804715 0.18732 0
1 0.161837 0
1 0.156573 0
1 0.160739 0
0 0.419409 0.092958
0 0.440986 0.11632
0 0.468956 0.113695
0.0224155 0.495659 0.0697642
0.183932 0.519097 0
0.63212 0.45832 0
0.931975 0.441367 0
1 0.428077 0
1 0.423133 0
0 0.649531 0.199237
0 0.66923 0.220966
0 0.693431 0.219104
0 0.71632 0.171176
0.101808 0.741756 0.0968338
0.270817 0.760616 0
0.693523 0.702876 0
0.988281 0.667079 0
1 0.665431 0
0 0.864851 0.302434
0 0.882017 0.318883
0 0.901259 0.315465
0 0.916732 0.268696
0.0597086 0.93312 0.185367
0.167071 0.950591 0.0964218
0.330098 0.958373 0
0.639033 0.918395 0
0.95198 0.866178 0
0 1 0.383612
0 1 0.389075
0 1 0.376547
0 1 0.326162
0.0230869 1 0.235187
0.124269 1 0.143084
0.229068 1 0.0482948
0.370153 1 0
0.618753 1 0
0 1 0.42295
0 1 0.421408
0 1 0.404364
0 1 0.353674
0 1 0.264286
0.0850233 1 0.167254
0.177523 1 0.0751354
0.272068 1 0
0.400275 1 0
0 0 0.0113222
0 0 0.00564584
0.00494392 0 0
0.215946 0 0.00320439
0.481743 0 0.0322881
0.749645 0 0.061326
0.990219 0 0.0981765
1 0 0.147921
1 0 0.180438
0 0 0
0 0 0
0 0 0
0.23798 0 0.0274205
0.513756 0 0.0652171
0.749752 0 0.0890364
0.959777 0 0.112306
1 0 0.142718
1 0 0.177996
0 0.0206149 0.0141299
0 0.0242771 0.0174868
0.0174716 0.0220035 0.0165103
0.232563 0.00949111 0.0373999
0.476417 0 0.0646372
0.718883 0 0.0949264
0.947555 0 0.129015
1 0 0.16846
1 0 0.210651
0 0.210224 0.0598154
0 0.21236 0.0797894
0 0.22269 0.108888
0.130861 0.248737 0.0460059
0.512703 0.20856 0.000244144
0.827619 0.17673 0.0389715
1 0.161242 0.0996872
1 0.166522 0.156558
1 0.181048 0.206394
0 0.424674 0.147463
0 0.436225 0.18819
0 0.454658 0.216922
0.0795148 0.478523 0.189273
0.236652 0.50837 0.0709087
0.668544 0.453376 0
0.971878 0.427298 0
1 0.41326 0
1 0.407675 0.0222934
0 0.6495 0.258885
0 0.661845 0.295766
0 0.679271 0.318059
0.0340734 0.696773 0.298772
0.166873 0.723232 0.214374
0.32256 0.747921 0.0847639
0.755154 0.684016 0
1 0.659388 0
1 0.650477 0
0 0.861677 0.363729
0 0.872602 0.394369
0 0.885542 0.409049
0 0.895415 0.386358
0.111559 0.90956 0.312245
0.2271 0.931197 0.197894
0.37911 0.942229 0.0779126
0.697261 0.899245 0
0.980041 0.849699 0
0 1 0.444724
0 1 0.463813
0 1 0.468162
0 1 0.439887
0.0667887 1 0.368917
0.175677 1 0.259571
0.282994 1 0.145541
0.416648 1 0.047013
0.666072 1 0
0 1 0.481605
0 1 0.492699
0 1 0.490822
0 1 0.460731
0.0291752 1 0.391974
0.129946 1 0.287388
0.228458 1 0.174365
0.325063 1 0.0897993
0.446189 1 0.00326543
0 0 0.239979
0 0 0.231662
0 0 0.222416
0.212955 0 0.202899
0.468635 0 0.197101
0.726452 0 0.230243
0.985458 0 0.29163
1 0 0.339651
1 0 0.377646
0 0 0.216678
0 0 0.216297
0 0 0.220661
0.23743 0 0.231479
0.499275 0 0.240391
0.75787 0 0.278492
0.996475 0 0.3149
1 0 0.351324
1 0 0.388724
0 0.0191501 0.249485
0 0.0201419 0.252781
0.0130465 0.0170596 0.251041
0.240909 0.00486763 0.237934
0.503258 0 0.259464
0.77409 0 0.299855
1 0 0.334218
1 0 0.371893
1 0 0.412177
0 0.219303 0.219608
0 0.223789 0.225193
0 0.228916 0.231785
0.225849 0.223514 0.228824
0.478401 0.212711 0.261723
0.725673 0.203174 0.296452
0.955734 0.197269 0.331395
1 0.201297 0.368368
1 0.212314 0.407156
0 0.439475 0.24361
0 0.448753 0.261158
0 0.456092 0.284962
0.180224 0.455375 0.32929
0.33695 0.481117 0.245319
0.724605 0.435874 0.170611
0.993866 0.404166 0.218921
1 0.394949 0.270222
1 0.395941 0.317296
0 0.659968 0.328115
0 0.666987 0.354147
0 0.674067 0.386282
0.122301 0.675944 0.420706
0.277424 0.692576 0.378744
0.416129 0.719387 0.249744
0.827527 0.659129 0.150546
1 0.640299 0.082063
1 0.625406 0.096025
0 0.867094 0.422583
0 0.871366 0.451591
0 0.875669 0.480369
0.0595865 0.873884 0.498009
0.213748 0.878492 0.465843
0.335775 0.895552 0.365759
0.460426 0.91252 0.225391
0.794842 0.862593 0.102205
1 0.827497 0.0661021
0 1 0.498299
0 1 0.522484
0 1 0.54313
0.0129854 1 0.547036
0.156207 1 0.517098
0.279911 1 0.425956
0.378119 1 0.30724
0.483925 1 0.184543
0.730098 0.984787 0.0715496
0 1 0.532631
0 1 0.551522
0 1 0.565835
0 1 0.562127
0.103868 1 0.531533
0.229847 1 0.45124
0.327886 1 0.341619
0.406195 1 0.2318
0.5019 1 0.124529
0 0 0.523507
0 0 0.515724
0 0 0.5075
0.200748 0 0.488701
0.463905 0 0.465415
0.724788 0 0.459129
0.979324 0 0.497505
1 0 0.535012
1 0 0.574365
0 0 0.50251
0 0 0.503838
0 0 0.514519
0.228901 0 0.520928
0.494667 0 0.501335
0.748058 0 0.491646
0.980652 0 0.512856
1 0 0.554101
1 0 0.600427
0 0.0115053 0.537179
0 0.0120089 0.538949
0.00509651 0.00895705 0.537057
0.230732 0 0.524926
0.497673 0 0.507271
0.75584 0 0.508263
0.992187 0 0.546883
1 0 0.59733
1 0 0.646326
0 0.213611 0.506706
0 0.218555 0.513039
0 0.224231 0.520226
0.218692 0.218448 0.516014
0.49099 0.206668 0.504997
0.752117 0.194583 0.520256
0.993713 0.180758 0.566598
1 0.178103 0.609003
1 0.185092 0.648127
0 0.448493 0.464515
0 0.458915 0.476402
0 0.466819 0.48574
0.183566 0.4598 0.480018
0.449531 0.445426 0.467124
0.698161 0.431205 0.492256
0.922347 0.422065 0.522423
1 0.421942 0.554879
1 0.426841 0.587137
0 0.676234 0.466728
0 0.683009 0.477821
0 0.687083 0.48867
0.162203 0.674723 0.50367
0.39379 0.659251 0.542702
0.534524 0.680293 0.457404
0.892927 0.632563 0.378592
1 0.607797 0.414603
1 0.594491 0.451438
0 0.881331 0.522896
0 0.882963 0.535515
0 0.880796 0.549538
0.118837 0.863294 0.576486
0.320562 0.84596 0.608576
0.460334 0.852277 0.555062
0.574731 0.869886 0.427527
0.918715 0.812741 0.338277
1 0.794934 0.263401
0 1 0.576791
0 1 0.589044
0 1 0.604257
0.0693065 1 0.63151
0.255451 0.992416 0.656153
0.394385 0.988846 0.61146
0.497276 0.997391 0.506661
0.593484 0.99675 0.389838
0.86479 0.961791 0.275227
0 1 0.600214
0 1 0.611872
0 1 0.626856
0.0189364 1 0.646601
0.196811 1 0.661341
0.338567 1 0.626551
0.445441 1 0.533974
0.524178 1 0.432105
0.611185 1 0.331106
0 0 0.80737
0 0 0.799985
0 0 0.792523
0.18883 0 0.774563
0.453758 0 0.752865
0.724132 0 0.742947
0.979522 0 0.751522
1 0 0.762768
1 0 0.784695
0 0 0.788357
0 0 0.791592
0 0 0.812741
0.219257 0 0.806943
0.484047 0 0.78616
0.741863 0 0.765133
0.979629 0 0.755398
1 0 0.770962
1 0 0.803159
0 0.00399786 0.821881
0 0.00361639 0.822309
0 0.0018616 0.821149
0.220752 0 0.8094
0.488701 0 0.79266
0.752804 0 0.779843
0.991348 0 0.77882
1 0 0.804334
1 0 0.843961
0 0.20679 0.791699
0 0.212619 0.798627
0 0.219013 0.806302
0.211383 0.213535 0.80235
0.483574 0.201709 0.791485
0.74934 0.190387 0.780697
0.986893 0.182406 0.780102
1 0.184497 0.809873
1 0.191409 0.853101
0 0.445441 0.751141
0 0.45539 0.762921
0 0.462501 0.771862
0.172915 0.45449 0.765606
0.441291 0.4392 0.751781
0.704555 0.424308 0.73785
0.944533 0.412512 0.741695
1 0.406744 0.781491
1 0.405646 0.820935
0 0.680842 0.711269
0 0.688136 0.719783
0 0.69279 0.725628
0.126894 0.682322 0.71606
0.388312 0.66302 0.697475
0.643351 0.642054 0.677333
0.877928 0.6206 0.690929
1 0.613108 0.712016
1 0.609628 0.734524
0 0.893843 0.697993
0 0.895476 0.7019
0 0.8934 0.702876
0.0911727 0.874693 0.69279
0.347112 0.843534 0.688472
0.572381 0.815091 0.712963
0.690471 0.826368 0.630823
0.980621 0.782269 0.554406
1 0.757641 0.574914
0 1 0.714427
0 1 0.714458
0 1 0.713405
0.0611887 1 0.711513
0.303181 0.981704 0.728878
0.499901 0.952361 0.753552
0.620279 0.951904 0.696437
0.706615 0.964935 0.590219
0.992462 0.914717 0.510246
0 1 0.719478
0 1 0.717494
0 1 0.716838
0.0241398 1 0.718212
0.252781 1 0.741344
0.436561 1 0.765209
0.561624 1 0.723796
0.64361 1 0.635569
0.721416 1 0.538918
0 0 1
0 0 1
0 0 1
0.179126 0 1
0.446326 0 1
0.727275 0 1
0.973999 0 1
1 0 1
1 0 1
0 0 1
0 0 1
0 0 1
0.210788 0 1
0.474769 0 1
0.733272 0 1
0.973892 0 1
1 0 1
1 0 1
0 0 1
0 0 1
0 0 1
0.212909 0 1
0.481987 0 1
0.746563 0 1
0.988861 0 1
1 0 1
1 0 1
0 0.201801 1
0 0.208438 1
0 0.215473 1
0.2056 0.209918 1
0.477592 0.197955 1
0.743023 0.18613 1
0.984222 0.1776 1
1 0.180621 1
1 0.190234 1
0 0.44239 1
0 0.451865 1
0 0.458259 1
0.16611 0.450065 1
0.434745 0.434684 1
0.697398 0.419165 1
0.940764 0.406882 0.992264
1 0.404669 0.992737
1 0.407111 1
0 0.678523 0.978073
0 0.685145 0.986206
0 0.688975 0.991547
0.114824 0.677791 0.981674
0.377646 0.656794 0.961654
0.633997 0.634684 0.940475
0.870542 0.614771 0.921035
1 0.603143 0.914717
1 0.59527 0.936355
0 0.89546 0.93846
0 0.896712 0.94049
0 0.893996 0.93846
0.0584268 0.875883 0.920638
0.312703 0.846738 0.891539
0.558602 0.816464 0.861234
0.784619 0.789014 0.833783
0.974487 0.766598 0.835325
1 0.753368 0.848875
0 1 0.917113
0 1 0.910643
0 1 0.901244
0.020264 1 0.879118
0.267872 0.989776 0.850034
0.509911 0.950744 0.829923
0.719005 0.91693 0.836347
0.815778 0.92195 0.775753
1 0.88452 0.715938
0 1 0.899275
0 1 0.887877
0 1 0.874952
0 1 0.853284
0.232013 1 0.831022
0.468437 1 0.832746
0.656275 1 0.860136
0.755673 1 0.821485
0.826108 1 0.733059
0 0 1
0 0 1
0 0 1
0.173739 0 1
0.444038 0 1
0.726513 0 1
0.969268 0 1
1 0 1
1 0 1
0 0 1
0 0 1
0 0 1
0.205432 0 1
0.46949 0 1
0.728237 0 1
0.970062 0 1
1 0 1
1 0 1
0 0 1
0 0 1
0 0 1
0.209262 0 1
0.479042 0 1
0.744411 0 1
0.987472 0 1
1 0 1
1 0 1
0 0.19968 1
0 0.207202 1
0 0.214679 1
0.20383 0.209384 1
0.475334 0.197177 1
0.740154 0.184787 1
0.982315 0.176135 1
1 0.178851 1
1 0.187625 1
0 0.441993 1
0 0.451041 1
0 0.456809 1
0.163134 0.448386 1
0.431296 0.432517 1
0.693477 0.416602 1
0.936553 0.403998 1
1 0.400565 1
1 0.402548 1
0 0.677394 1
0 0.683452 1
0 0.686885 1
0.109422 0.674617 1
0.372351 0.653025 1
0.628122 0.630121 1
0.863767 0.609308 1
1 0.596704 1
1 0.589853 1
0 0.89395 1
0 0.894163 1
0 0.890654 1
0.0464027 0.871473 1
0.301289 0.841077 1
0.54873 0.80972 1
0.77673 0.780987 1
0.963867 0.760723 1
1 0.746899 1
0 1 1
0 1 1
0 1 1
0.00509651 1 1
0.242481 0.987579 1
0.482734 0.950652 1
0.703624 0.916854 0.968551
0.885527 0.892638 0.943954
1 0.87332 0.937285
0 1 1
0 1 1
0 1 1
0 1 1
0.196048 1 0.986572
0.435233 1 0.949477
0.655406 1 0.927031
0.826581 0.998154 0.930144
0.917418 0.999176 0.889448
0 0 1
0 0 1
0 0 1
0.171969 0 1
0.447913 0 1
0.726223 0 1
0.966827 0 1
1 0 1
1 0 1
0 0 1
0 0 1
0 0 1
0.203067 0 1
0.466896 0 1
0.726589 0 1
0.968978 0 1
1 0 1
1 0 1
0 0 1
0 0 1
0 0 1
0.208682 0 1
0.47924 0 1
0.74493 0 1
0.988006 0 1
1 0 1
1 0 1
0 0.200595 1
0 0.208804 1
0 0.216587 1
0.204852 0.211398 1
0.475822 0.198932 1
0.740017 0.185977 1
0.98204 0.17705 1
1 0.179416 1
1 0.187762 1
0 0.443748 1
0 0.452308 1
0 0.457664 1
0.162875 0.449027 1
0.43061 0.432868 1
0.692546 0.416724 1
0.93463 0.403174 1
1 0.399222 1
1 0.40032 1
0 0.678248 1
0 0.684092 1
0 0.686625 1
0.107286 0.673838 1
0.369268 0.651102 1
0.624338 0.627314 1
0.859037 0.60557 1
1 0.592325 1
1 0.584634 1
0 0.89366 1
0 0.892973 1
0 0.888426 1
0.0408637 0.868193 1
0.294804 0.836561 1
0.542229 0.80441 1
0.769818 0.774929 1
0.956481 0.754055 1
1 0.739635 1
0 1 1
0 1 1
0 1 1
0 1 1
0.230671 0.981979 1
0.472053 0.944137 1
0.694423 0.909667 1
0.877455 0.884947 1
1 0.866529 1
0 1 1
0 1 1
0 1 1
0 1 1
0.177844 1 1
0.4159 1 1
0.634592 1 1
0.81471 0.997253 1
0.967559 0.978637 1
