site/assets/luts/freshluts--0000207-filmic.cube
# LUTr-Schema-Version: 2
# LUTr-ID: freshluts--0000207-filmic
# LUTr-Title: FILMIC
# LUTr-Collection: Fresh LUTs
# LUTr-Collection-ID: freshluts-community
# LUTr-Source: https://freshluts.com
# LUTr-Retrieved: 2026-07-27
# LUTr-Source-File: submissions-raw/freshluts/cubes/207__FILMIC.cube
# LUTr-Source-Format: CUBE
# LUTr-Source-SHA256: 0638aab77e86c2baede0248686beba9c85b44aa5a17f5bcff588c95406809dbe
# LUTr-License: CC0-1.0
# LUTr-License-URL: https://freshluts.com/termsandconditions
# LUTr-License-Basis: site-terms
# LUTr-Transform-Class: creative-look
# LUTr-Tags: creative, freshluts, community, cube, film-emulation, purple
# LUTr-Input-Color-Space:
# LUTr-Input-Gamut: unspecified
# LUTr-Input-Transfer: unspecified
# LUTr-Output-Color-Space: srgb
# LUTr-Output-Gamut: rec709
# LUTr-Output-Transfer: srgb
# LUTr-Color-Space-Confidence: camera-profile-input-required
# LUTr-Domain-Normalized: true
# LUTr-Shaper: none
# LUTr-Original-Grid: 16x16x16
# LUTr-Conversion-Grid: 16x16x16
# LUTr-Conversion-Interpolation: none
# LUTr-Conversion-Method: Metadata normalization; numeric LUT samples preserved
# LUTr-Conversion-Tool: LUTr scripts/convert-all-to-cube.mjs 2.0.0
# LUTr-Conversion-Date: 2026-07-28
# LUTr-Asset-URL: https://freshluts.com/luts/207
# LUTr-Author: Andy
# LUTr-Author-URL: https://freshluts.com/users/1003
# LUTr-Attribution: Andy via Fresh LUTs
# LUTr-Source-Labels: gamma=Other; color=Purple; key=Neutral; style=Film emulation
# LUTr-Note: Preserve this metadata and the upstream license notices when redistributing.
TITLE "FILMIC"
LUT_3D_SIZE 6
DOMAIN_MIN 0 0 0
DOMAIN_MAX 1 1 1
0.028638 0.042656 0.0557
0.140696 0.053924 0.049472
0.461606 0.020798 0.017348
0.671935 0.017308 0.020695
0.715806 0.019263 0.023215
0.728244 0.021163 0.023246
0.007447 0.099796 0.060493
0.100166 0.1088 0.054599
0.456256 0.125589 0.013333
0.703557 0.075138 0.018055
0.764512 0.062838 0.021856
0.770216 0.044917 0.022796
0.001575 0.264198 0.050756
0.014222 0.272715 0.038168
0.432225 0.358404 0.009465
0.814127 0.372271 0.007989
0.885531 0.363528 0.008279
0.888211 0.339355 0.011053
0.000772 0.433827 0.012416
0.013628 0.450266 0.01278
0.202932 0.586689 0.012806
0.857907 0.723307 0.013969
0.98445 0.711904 0.015737
0.998571 0.694503 0.016944
0.005572 0.496062 0.018515
0.020386 0.502709 0.018412
0.053152 0.60415 0.016943
0.757018 0.826696 0.018976
0.988155 0.867166 0.020033
1.000007 0.860688 0.02111
0.012038 0.535313 0.022904
0.026075 0.53662 0.022384
0.05408 0.617254 0.021125
0.633194 0.8219 0.021179
0.98807 0.907315 0.024861
1.000007 0.903473 0.026369
0.011277 0.034631 0.160436
0.135675 0.047902 0.160819
0.473188 0.017138 0.141857
0.687914 0.015208 0.128168
0.73107 0.01686 0.113552
0.741791 0.018984 0.090924
0.006063 0.106663 0.147129
0.0829 0.114315 0.138864
0.451041 0.108565 0.098243
0.704656 0.037811 0.066295
0.767097 0.03564 0.056548
0.778451 0.032679 0.048919
0.001021 0.282511 0.121103
0.012029 0.284367 0.105172
0.420169 0.356806 0.032868
0.817429 0.368858 0.021984
0.890258 0.361253 0.024943
0.892352 0.337842 0.028301
0.000773 0.445655 0.064892
0.013091 0.456282 0.044449
0.166606 0.582459 0.024424
0.852811 0.723004 0.026729
0.985195 0.707106 0.028048
0.999497 0.688837 0.028836
0.006114 0.499115 0.050157
0.020143 0.502104 0.037358
0.04723 0.597106 0.029264
0.740682 0.821494 0.031007
0.988449 0.866066 0.032441
1.000007 0.859135 0.033326
0.011253 0.536144 0.040814
0.025272 0.537339 0.039763
0.051215 0.61389 0.033577
0.616579 0.817418 0.033228
0.986723 0.907089 0.037021
1.000007 0.903383 0.038436
0.007046 0.041025 0.377554
0.110264 0.03755 0.391724
0.499583 0.027435 0.423088
0.726292 0.019888 0.420556
0.771546 0.020886 0.404982
0.784341 0.021915 0.381117
0.006185 0.062123 0.377647
0.033864 0.102934 0.392147
0.459299 0.085415 0.413736
0.743869 0.031849 0.393929
0.800448 0.032548 0.376429
0.811379 0.032328 0.350383
0.000775 0.317597 0.424337
0.009228 0.31851 0.414452
0.354141 0.38517 0.425647
0.800993 0.364402 0.386302
0.878725 0.34712 0.358468
0.883155 0.320779 0.328292
0.000778 0.512854 0.39005
0.012661 0.518752 0.369437
0.051574 0.603943 0.331984
0.816015 0.725973 0.244069
0.981351 0.714197 0.179763
0.997532 0.697265 0.152228
0.005991 0.560675 0.344634
0.019722 0.556792 0.314447
0.040173 0.622024 0.266877
0.68687 0.823485 0.119172
0.98806 0.880789 0.081996
1.000007 0.875282 0.083869
0.010538 0.588893 0.322084
0.023741 0.586181 0.304219
0.044712 0.641227 0.276741
0.54981 0.81589 0.169624
0.974457 0.909908 0.078308
1.000007 0.910827 0.080106
0.005839 0.055076 0.533585
0.080571 0.053945 0.555584
0.491823 0.036022 0.619089
0.744081 0.024111 0.627432
0.747783 0.024704 0.581507
0.76543 0.027648 0.579265
0.005079 0.067593 0.552765
0.01908 0.085626 0.57222
0.428198 0.07695 0.64489
0.757533 0.035467 0.650866
0.776397 0.036309 0.60805
0.791378 0.038707 0.599213
0.000779 0.29866 0.653927
0.01062 0.297056 0.659704
0.255583 0.367203 0.718391
0.777032 0.341969 0.735743
0.862775 0.316841 0.712481
0.872058 0.292466 0.689754
0.000772 0.543855 0.707774
0.011641 0.550786 0.706498
0.027996 0.639689 0.733303
0.756305 0.763538 0.763734
0.961532 0.745734 0.73932
0.984793 0.728283 0.714319
0.004752 0.613511 0.695265
0.016748 0.614818 0.682146
0.032263 0.687692 0.68997
0.570308 0.877506 0.702568
0.967157 0.925634 0.671516
0.999988 0.916722 0.638664
0.008656 0.646876 0.673231
0.02049 0.646569 0.660466
0.036034 0.704642 0.662503
0.380854 0.87248 0.669443
0.928361 0.952178 0.638172
1.000003 0.951585 0.595695
0.006225 0.061475 0.588757
0.067248 0.077517 0.621657
0.47676 0.043692 0.692261
0.706667 0.02922 0.664789
0.769641 0.027856 0.673059
0.792117 0.028415 0.67405
0.005393 0.078096 0.616554
0.015613 0.140713 0.661583
0.415787 0.181973 0.75834
0.718411 0.111797 0.719384
0.798452 0.130216 0.733533
0.813603 0.100861 0.720974
0.000781 0.297968 0.747125
0.012304 0.302269 0.759788
0.209807 0.371467 0.820322
0.74108 0.362887 0.832111
0.8528 0.340314 0.822989
0.867605 0.317294 0.813401
0.000772 0.542253 0.800648
0.012377 0.548272 0.807783
0.029075 0.629435 0.852502
0.70484 0.755428 0.929555
0.945447 0.737338 0.931725
0.97402 0.721357 0.924718
0.005584 0.624869 0.81936
0.017098 0.626195 0.819185
0.031635 0.697294 0.854955
0.455846 0.887734 0.923539
0.940041 0.946327 0.94497
0.999658 0.944201 0.936843
0.009049 0.667734 0.829943
0.020361 0.66883 0.82903
0.034607 0.725346 0.853984
0.200552 0.890238 0.905251
0.892691 0.981831 0.930055
0.998914 0.992107 0.92067
0.006694 0.063896 0.603031
0.057007 0.074023 0.631092
0.460625 0.046515 0.704741
0.699761 0.032147 0.680534
0.768453 0.030734 0.694615
0.792056 0.029992 0.696067
0.005977 0.077586 0.630901
0.016159 0.132272 0.671469
0.395469 0.179575 0.76915
0.707385 0.103391 0.730634
0.794755 0.123941 0.751371
0.812123 0.097777 0.740182
0.000918 0.288416 0.768168
0.012524 0.292014 0.778145
0.195403 0.362189 0.83846
0.72161 0.361499 0.839035
0.850109 0.345597 0.844307
0.870308 0.3341 0.83955
0.000796 0.53916 0.818812
0.013176 0.543274 0.825189
0.030398 0.621382 0.870303
0.681225 0.749914 0.953587
0.938614 0.739571 0.962608
0.973294 0.727495 0.959304
0.005962 0.628665 0.847691
0.017553 0.629499 0.848888
0.032719 0.697492 0.885912
0.411016 0.882844 0.960635
0.926985 0.943093 0.992504
0.997735 0.942248 0.993714
0.009728 0.672353 0.863307
0.020713 0.673802 0.86449
0.034546 0.726171 0.890297
0.141459 0.8847 0.950869
0.874241 0.98207 0.991328
0.99423 0.995578 0.993856
