site/assets/luts/freshluts--0000128-softsknn.cube
# LUTr-Schema-Version: 2
# LUTr-ID: freshluts--0000128-softsknn
# LUTr-Title: softSKNN
# LUTr-Collection: Fresh LUTs
# LUTr-Collection-ID: freshluts-community
# LUTr-Source: https://freshluts.com
# LUTr-Retrieved: 2026-07-27
# LUTr-Source-File: submissions-raw/freshluts/cubes/128__softSKNN.cube
# LUTr-Source-Format: CUBE
# LUTr-Source-SHA256: 6508819253d737e1278dcfa3a581ff5e1102d51106865bf105097e4e241b8e46
# LUTr-License: CC0-1.0
# LUTr-License-URL: https://freshluts.com/termsandconditions
# LUTr-License-Basis: site-terms
# LUTr-Transform-Class: creative-look
# LUTr-Tags: creative, freshluts, community, cube, yellow, arri-logc3-ei800
# LUTr-Input-Color-Space:
# LUTr-Input-Gamut: arri-wide-gamut-3
# LUTr-Input-Transfer: arri-logc3-ei800
# LUTr-Output-Color-Space: srgb
# LUTr-Output-Gamut: rec709
# LUTr-Output-Transfer: srgb
# LUTr-Color-Space-Confidence: camera-profile-input-required
# LUTr-Domain-Normalized: true
# LUTr-Shaper: none
# LUTr-Original-Grid: 33x33x33
# LUTr-Conversion-Grid: 33x33x33
# LUTr-Conversion-Interpolation: none
# LUTr-Conversion-Method: Metadata normalization; numeric LUT samples preserved
# LUTr-Conversion-Tool: LUTr scripts/convert-all-to-cube.mjs 2.0.0
# LUTr-Conversion-Date: 2026-07-28
# LUTr-Asset-URL: https://freshluts.com/luts/128
# LUTr-Author: Remzi Bayram
# LUTr-Author-URL: https://freshluts.com/users/326
# LUTr-Attribution: Remzi Bayram via Fresh LUTs
# LUTr-Source-Labels: gamma=Arri log c; color=Yellow; key=Neutral; style=Retro
# LUTr-Note: Preserve this metadata and the upstream license notices when redistributing.
TITLE "softSKNN"
LUT_3D_SIZE 33
DOMAIN_MIN 0 0 0
DOMAIN_MAX 1 1 1
0 0 0
0 0 0
0 0 0
0 0 0
0 0 0
0 0 0
0 0 0
0 0 0
0 0 0
0 0 0
0 0 0
0 0 0
0 0 0
0 0 0
0 0 0
0.0532387 0 0.0103761
0.180652 0 0.0263523
0.337514 0 0.0387121
0.510399 0 0.0472725
0.688701 0 0.0525673
0.870436 0 0.0557565
1 0 0.0568856
1 0 0.0573129
1 0 0.0576944
1 0 0.0580911
1 0 0.0586557
1 0 0.0599069
1 0 0.0627298
1 0 0.0673686
1 0 0.0721599
1 0 0.0761578
1 0 0.07953
1 0 0.0824292
0 0 0
0 0 0
0 0 0
0 0 0
0 0 0
0 0 0
0 0 0
0 0 0
0 0 0
0 0 0
0 0 0
0 0 0
0.0740063 0.00166323 0.0158846
0.18912 0 0.0305943
0.322469 0 0.0407568
0.468345 0 0.0471962
0.619348 0 0.0505531
0.769802 0 0.0516823
0.916533 0 0.0514992
1 0 0.0511177
1 0 0.050309
1 0 0.0494545
1 0 0.0485237
1 0 0.0478676
1 0 0.0485237
1 0 0.05037
1 0 0.0518349
1 0 0.0535134
1 0 0.0553445
1 0 0.0575875
1 0 0.0602426
1 0 0.0625315
1 0 0.06421
0 0 0
0 0 0
0 0 0
0 0 0
0 0 0
0 0 0
0 0 0
0 0 0
0.0154116 0.00332647 0.00547799
0.0834211 0.00932326 0.0209812
0.173846 0.00976577 0.0328527
0.281025 0.00579843 0.0408179
0.402899 0 0.0456703
0.527092 0 0.0473182
0.652811 0 0.0470741
0.777157 0 0.0457923
0.897215 0 0.0442359
1 0 0.04271
1 0 0.0414588
1 0 0.0397192
1 0 0.038468
1 0 0.0385138
1 0 0.0388647
1 0 0.0388342
1 0 0.0375067
1 0 0.0360571
1 0 0.0353552
1 0 0.0357671
1 0 0.0367437
1 0 0.0381323
1 0 0.0394293
1 0 0.0407416
1 0 0.0419165
0 0 0
0 0 0
0 0 0
0 0 0
0 0 0
0.0253147 0.010605 0.0112764
0.0756085 0.0224308 0.0243992
0.142275 0.0303044 0.0337224
0.222782 0.0344701 0.039353
0.313939 0.0356756 0.0419165
0.414343 0.0349737 0.0424506
0.517235 0.0327611 0.0412909
0.6215 0.0299535 0.0393225
0.724239 0.0272374 0.0372931
0.821088 0.0247501 0.0352941
0.910109 0.0222782 0.0331426
0.992584 0.0204623 0.0315099
1 0.0191043 0.0302281
1 0.0189364 0.0300755
1 0.0183108 0.0294499
1 0.0166171 0.0277562
1 0.0142367 0.0253758
1 0.0122225 0.0233616
1 0.00988785 0.0210269
1 0.00749218 0.0186313
1 0.00505074 0.0161898
1 0.00317388 0.014313
1 0.00260929 0.0137484
1 0.0031281 0.0142672
1 0.00376898 0.0149081
1 0.00453193 0.015671
1 0.00520333 0.0163424
1 0.00585946 0.0169985
0 0 0
0.00103761 0.00125124 0.00106813
0.0198825 0.0216831 0.0154574
0.0489052 0.0408789 0.0265202
0.0910506 0.0569009 0.0327611
0.145296 0.0691234 0.0357977
0.21033 0.0781567 0.0365454
0.284611 0.0843824 0.0355688
0.365789 0.0884718 0.0335546
0.452583 0.0915999 0.0315709
0.53962 0.0934005 0.029572
0.623758 0.0938582 0.0274357
0.703929 0.0931563 0.0251164
0.780118 0.0919814 0.0230411
0.852384 0.0913558 0.0220645
0.922164 0.0914626 0.0221561
0.99028 0.090135 0.0208286
1 0.0876783 0.0183719
1 0.0846265 0.0153201
1 0.0815442 0.0122377
1 0.0783703 0.00906386
1 0.0753948 0.00608835
1 0.07187 0.00256352
1 0.0683604 0
1 0.0650797 0
1 0.0620737 0
1 0.0600748 0
1 0.0588693 0
1 0.0584573 0
1 0.0586557 0
1 0.059144 0
1 0.059617 0
1 0.0603037 0
0.00976577 0.0632029 0.0265049
0.0281224 0.0859083 0.0316167
0.0580453 0.105821 0.0345464
0.0985428 0.12256 0.0359808
0.147921 0.135973 0.0362707
0.206149 0.146899 0.0337682
0.273198 0.155215 0.0292821
0.345892 0.160693 0.0250401
0.4206 0.164111 0.0220188
0.493324 0.16492 0.0191043
0.564721 0.164874 0.0170443
0.634501 0.164828 0.0163119
0.703487 0.164141 0.0153811
0.771862 0.16257 0.0136263
0.838926 0.159808 0.0107576
0.905333 0.156405 0.00726329
0.971481 0.152941 0.0037232
1 0.149248 0
1 0.14522 0
1 0.141283 0
1 0.137041 0
1 0.132891 0
1 0.128847 0
1 0.124834 0
1 0.120912 0
1 0.117678 0
1 0.114946 0
1 0.113481 0
1 0.112825 0
1 0.112718 0
1 0.112963 0
1 0.113588 0
1 0.113893 0
0 0.167224 0.0274205
0.0202335 0.185885 0.0269474
0.0641794 0.200809 0.0265812
0.115053 0.213153 0.0269932
0.170535 0.222477 0.027863
0.228244 0.228748 0.028748
0.287816 0.232959 0.0282902
0.350958 0.235767 0.0257572
0.416693 0.236988 0.0221256
0.483757 0.236652 0.0178073
0.550729 0.23476 0.0131075
0.617288 0.231769 0.00830091
0.684352 0.22855 0.00384527
0.751339 0.225071 0
0.817578 0.221042 0
0.883299 0.216587 0
0.948516 0.211872 0
1 0.207156 0
1 0.202716 0
1 0.198047 0
1 0.193164 0
1 0.188357 0
1 0.183795 0
1 0.179446 0
1 0.175631 0
1 0.171756 0
1 0.168719 0
1 0.167025 0
1 0.166262 0
1 0.1664 0
1 0.166629 0
1 0.166873 0
1 0.167163 0
0 0.270756 0.0167239
0.00914015 0.281071 0.0174716
0.0619364 0.287953 0.0184634
0.116472 0.292729 0.0200504
0.172747 0.296452 0.0227512
0.229831 0.299443 0.0257572
0.287053 0.301305 0.0276188
0.344533 0.301289 0.0268406
0.403662 0.300221 0.0227359
0.465248 0.298421 0.016434
0.529122 0.295781 0.00885023
0.594659 0.292592 0.00132753
0.660548 0.288182 0
0.726604 0.283375 0
0.792401 0.278508 0
0.858 0.273472 0
0.923278 0.268406 0
0.988022 0.263233 0
1 0.257877 0
1 0.252644 0
1 0.247456 0
1 0.24239 0
1 0.237736 0
1 0.233204 0
1 0.22884 0
1 0.224857 0
1 0.221759 0
1 0.22002 0
1 0.219471 0
1 0.219364 0
1 0.219623 0
1 0.220035 0
1 0.220523 0
0 0.351354 0.0111238
0.00570687 0.355047 0.0143587
0.0612802 0.357824 0.0171359
0.115587 0.359487 0.0187991
0.169772 0.360464 0.0197757
0.223774 0.360372 0.0196841
0.27866 0.359899 0.0192111
0.334829 0.358694 0.0180056
0.391821 0.356741 0.0156252
0.449973 0.354284 0.0108186
0.510201 0.351537 0.00411994
0.572168 0.347936 0
0.636103 0.343587 0
0.701015 0.338628 0
0.766171 0.333288 0
0.831571 0.327916 0
0.896849 0.322591 0
0.961501 0.316976 0
1 0.31136 0
1 0.305806 0
1 0.300343 0
1 0.295293 0
1 0.290486 0
1 0.285756 0
1 0.281331 0
1 0.277302 0
1 0.27422 0
1 0.272908 0
1 0.272267 0
1 0.272282 0
1 0.272694 0
1 0.273289 0
1 0.274342 0
0 0.416358 0.0108339
0.00263981 0.416815 0.0112917
0.0555886 0.416968 0.0114443
0.108659 0.417411 0.0118715
0.161379 0.416907 0.0113832
0.214359 0.415793 0.0102693
0.26804 0.41413 0.00860609
0.323262 0.411963 0.00643931
0.379614 0.409415 0.00389105
0.436851 0.406744 0.000946059
0.494606 0.403372 0
0.55375 0.399603 0
0.614847 0.395377 0
0.677562 0.390692 0
0.741619 0.385931 0
0.805997 0.380468 0
0.870649 0.374807 0
0.935195 0.3691 0
0.999374 0.363424 0
1 0.357946 0
1 0.352697 0
1 0.347387 0
1 0.342397 0
1 0.337728 0
1 0.33341 0
1 0.329732 0
1 0.327001 0
1 0.32549 0
1 0.325063 0
1 0.325475 0
1 0.326375 0
1 0.327657 0
1 0.328954 0
0 0.473075 0.00395209
0 0.472908 0.0037995
0.0470283 0.471992 0.00288396
0.0985275 0.470863 0.00173953
0.150423 0.469551 0.000442512
0.202884 0.467918 0
0.256092 0.465766 0
0.311055 0.46334 0
0.366781 0.460166 0
0.423239 0.456733 0
0.480262 0.453086 0
0.538018 0.449226 0
0.597116 0.445045 0
0.657893 0.440894 0
0.719493 0.436133 0
0.782315 0.431067 0
0.845914 0.425742 0
0.909865 0.420264 0
0.973846 0.414801 0
1 0.409628 0
1 0.404273 0
1 0.399176 0
1 0.39443 0
1 0.389929 0
1 0.385916 0
1 0.382574 0
1 0.380087 0
1 0.379095 0
1 0.379065 0
1 0.379843 0
1 0.38175 0
1 0.383673 0
1 0.385809 0
0 0.526268 0
0 0.52517 0
0.035935 0.523705 0
0.0869001 0.522057 0
0.13817 0.520119 0
0.190097 0.517937 0
0.243305 0.515785 0
0.297688 0.512795 0
0.353155 0.509361 0
0.409323 0.505638 0
0.466087 0.501747 0
0.523369 0.497719 0
0.581842 0.493919 0
0.640894 0.489632 0
0.700816 0.485176 0
0.761852 0.480522 0
0.82388 0.475685 0
0.887083 0.471061 0
0.950362 0.466056 0
1 0.461036 0
1 0.456031 0
1 0.451255 0
1 0.446937 0
1 0.44329 0
1 0.439673 0
1 0.436515 0
1 0.434485 0
1 0.434195 0
1 0.435248 0
1 0.437232 0
1 0.43949 0
1 0.442374 0
1 0.446052 0
0 0.577218 0
0 0.575387 0
0.02327 0.57348 0
0.0739605 0.571542 0
0.125231 0.569604 0
0.176989 0.567269 0
0.229572 0.564492 0
0.283757 0.561303 0
0.339132 0.557763 0
0.395254 0.554009 0
0.452277 0.550362 0
0.509544 0.546349 0
0.567391 0.542153 0
0.625788 0.537987 0
0.684764 0.533867 0
0.744625 0.529702 0
0.805676 0.52575 0
0.86717 0.52134 0
0.929366 0.51696 0
0.99205 0.512688 0
1 0.508476 0
1 0.504372 0
1 0.500938 0
1 0.497612 0
1 0.494896 0
1 0.492775 0
1 0.491585 0
1 0.492164 0
1 0.494667 0
1 0.498146 0
1 0.502403 0
1 0.507012 0
1 0.513176 0
0 0.626459 0
0 0.624399 0
0.0100862 0.622202 0
0.0607156 0.620203 0
0.111742 0.618021 0
0.163317 0.615503 0
0.215869 0.612696 0
0.270024 0.609461 0
0.325368 0.60589 0
0.381765 0.602411 0
0.438682 0.598672 0
0.496071 0.594781 0
0.554116 0.590784 0
0.612436 0.586755 0
0.671016 0.582849 0
0.730632 0.579477 0
0.790631 0.57586 0
0.851316 0.572244 0
0.912566 0.568612 0
0.974334 0.565103 0
1 0.562203 0
1 0.559335 0
1 0.556725 0
1 0.55436 0
1 0.552651 0
1 0.55201 0
1 0.553353 0
1 0.55581 0
1 0.559792 0
1 0.566476 0
1 0.576532 0
1 0.589746 0
1 0.607355 0
0 0.674647 0
0 0.67248 0
0 0.670558 0
0.0476081 0.66833 0
0.0984512 0.665965 0
0.150011 0.663432 0
0.202609 0.66067 0
0.257053 0.657725 0
0.312779 0.654551 0
0.369116 0.651011 0
0.426123 0.647349 0
0.483742 0.643687 0
0.542138 0.64004 0
0.60119 0.636744 0
0.660166 0.633417 0
0.71931 0.630076 0
0.779034 0.627039 0
0.839475 0.624353 0
0.900557 0.621927 0
0.962371 0.619928 0
1 0.617792 0
1 0.61622 0
1 0.615518 0
1 0.615412 0
1 0.615686 0
1 0.617899 0
1 0.622995 0
1 0.632334 0
1 0.645487 0
1 0.662089 0
1 0.684657 0
1 0.719631 0.0675364
1 0.76759 0.214282
0 0.722606 0
0 0.720668 0
0 0.71841 0
0.0345922 0.716258 0
0.0856184 0.714061 0
0.137377 0.711727 0
0.190295 0.7093 0
0.244953 0.706569 0
0.300771 0.703471 0
0.357534 0.700359 0
0.415045 0.697215 0
0.473106 0.69398 0
0.532097 0.690944 0
0.591653 0.688136 0
0.651331 0.685527 0
0.711284 0.683146 0
0.771389 0.680919 0
0.831968 0.679103 0
0.893889 0.678477 0
0.956207 0.678172 0
1 0.678187 0
1 0.678614 0
1 0.680812 0
1 0.686534 0
1 0.694926 0
1 0.705653 0
1 0.719768 0
1 0.741421 0.00178531
1 0.774273 0.110811
1 0.821729 0.283299
1 0.877623 0.496498
1 0.936217 0.713405
1 0.984497 0.8551
0 0.770794 0
0 0.76878 0
0 0.766735 0
0.0223545 0.764752 0
0.0735485 0.762737 0
0.125994 0.76109 0
0.179263 0.758984 0
0.234211 0.756558 0
0.29041 0.753857 0
0.347616 0.751171 0
0.40589 0.748806 0
0.465187 0.746807 0
0.52491 0.744488 0
0.585046 0.742275 0
0.64564 0.740566 0
0.706996 0.739605 0
0.769146 0.739544 0
0.831495 0.739864 0
0.894286 0.740749 0
0.959304 0.743954 0
1 0.750195 0
1 0.758816 0
1 0.769421 0
1 0.782589 0
1 0.802014 0.0505531
1 0.831037 0.175647
1 0.870375 0.357397
1 0.917388 0.575219
1 0.967376 0.78558
1 1 0.866865
1 1 0.895277
1 1 0.921904
1 1 0.948211
0 0.819318 0
0 0.817517 0
0 0.815854 0
0.011368 0.814389 0
0.063386 0.813214 0
0.115862 0.811597 0
0.169619 0.809979 0
0.225345 0.808331 0
0.282536 0.806622 0
0.340688 0.804868 0
0.399954 0.803479 0
0.460014 0.802274 0
0.521431 0.801633 0
0.583581 0.801434 0
0.645914 0.80148 0
0.709728 0.80296 0
0.776349 0.807401 0
0.845243 0.814389 0
0.91429 0.822797 0
0.979965 0.831739 0
1 0.843351 0.0129244
1 0.861799 0.107469
1 0.886366 0.252415
1 0.917617 0.44802
1 0.953887 0.663142
1 0.991638 0.844526
1 1 0.878691
1 1 0.906371
1 1 0.932509
1 1 0.958663
1 1 0.984878
1 1 1
1 1 1
0 0.869154 0
0 0.867765 0
0 0.866499 0
0.00233463 0.865995 0
0.0548867 0.865339 0
0.108339 0.864698 0
0.162875 0.863874 0
0.219409 0.863035 0
0.27834 0.86305 0
0.338277 0.863111 0
0.399176 0.863355 0
0.46099 0.863874 0
0.525216 0.866072 0
0.592721 0.871214 0
0.663722 0.879347 0
0.735592 0.886656 0
0.806882 0.893919 0
0.876936 0.903441 0.0479744
0.941909 0.916869 0.158206
0.99353 0.934707 0.324666
1 0.957092 0.536995
1 0.983169 0.743938
1 1 0.862669
1 1 0.891157
1 1 0.917449
1 1 0.943542
1 1 0.969772
1 1 0.995682
1 1 1
1 1 1
1 1 1
1 1 1
1 1 1
0 0.920699 0
0 0.920638 0
0 0.920348 0
0 0.920195 0
0.0493019 0.920485 0
0.10425 0.92134 0
0.160769 0.922515 0
0.219654 0.92401 0
0.280095 0.925551 0
0.343664 0.929229 0
0.410864 0.935775 0
0.482551 0.943206 0
0.558465 0.949065 0
0.639292 0.955001 0.00460822
0.72372 0.961273 0.0853132
0.810407 0.968612 0.215854
0.890669 0.976852 0.399374
0.954543 0.987808 0.612406
0.999283 1 0.807568
1 1 0.875242
1 1 0.903059
1 1 0.929168
1 1 0.95494
1 1 0.980636
1 1 1
1 1 1
1 1 1
1 1 1
1 1 1
1 1 1
1 1 1
1 1 1
1 1 1
0 0.975647 0
0 0.976455 0
0 0.977844 0
0 0.979721 0
0.0493477 0.981735 0
0.106645 0.984939 0
0.168383 0.991318 0
0.234455 0.999313 0
0.3084 1 0
0.389349 1 0
0.479713 1 0.0281682
0.585519 1 0.129427
0.700557 1 0.281239
0.814679 1 0.480232
0.912001 1 0.692332
0.980606 1 0.855482
1 1 0.885206
1 1 0.913451
1 1 0.939513
1 1 0.965545
1 1 0.991531
1 1 1
1 1 1
1 1 1
1 1 1
1 1 1
1 1 1
1 1 1
1 1 1
1 1 1
1 1 1
1 1 1
1 1 1
0 1 0
0 1 0
0 1 0
0.00321965 1 0
0.069337 1 0
0.145769 1 0
0.233082 1 0
0.338201 1 0.0589303
0.466484 1 0.17528
0.614008 1 0.34551
0.767636 1 0.561776
0.894163 1 0.766278
0.9635 1 0.867384
1 1 0.89601
1 1 0.922576
1 1 0.948531
1 1 0.975586
1 1 1
1 1 1
1 1 1
1 1 1
1 1 1
1 1 1
1 1 1
1 1 1
1 1 1
1 1 1
1 1 1
1 1 1
1 1 1
1 1 1
1 1 1
1 1 1
0 1 0
0 1 0
0 1 0
0.0950484 1 0.00553903
0.22121 1 0.0942397
0.379446 1 0.232471
0.563104 1 0.421973
0.745541 1 0.635828
0.891783 1 0.824598
0.946303 1 0.878737
0.983444 1 0.906462
1 1 0.932677
1 1 0.958648
1 1 0.984619
1 1 1
1 1 1
1 1 1
1 1 1
1 1 1
1 1 1
1 1 1
1 1 1
1 1 1
1 1 1
1 1 1
1 1 1
1 1 1
1 1 1
1 1 1
1 1 1
1 1 1
1 1 1
1 1 1
0 1 0.0260624
0.12517 1 0.132158
0.3252 1 0.296178
0.546548 1 0.501274
0.754818 1 0.713588
0.890257 1 0.858595
0.928466 1 0.888228
0.965057 1 0.915908
1 1 0.94258
1 1 0.968612
1 1 0.994629
1 1 1
1 1 1
1 1 1
1 1 1
1 1 1
1 1 1
1 1 1
1 1 1
1 1 1
1 1 1
1 1 1
1 1 1
1 1 1
1 1 1
1 1 1
1 1 1
1 1 1
1 1 1
1 1 1
1 1 1
1 1 1
1 1 1
0.551568 1 0.57583
0.78233 1 0.784146
0.876234 1 0.869383
0.913054 1 0.898039
0.948043 1 0.924773
0.982681 1 0.951019
1 1 0.97763
1 1 1
1 1 1
1 1 1
1 1 1
1 1 1
1 1 1
1 1 1
1 1 1
1 1 1
1 1 1
1 1 1
1 1 1
1 1 1
1 1 1
1 1 1
1 1 1
1 1 1
1 1 1
1 1 1
1 1 1
1 1 1
1 1 1
1 1 1
1 1 1
1 1 1
1 1 1
0.897887 1 0.907362
0.932448 1 0.933791
0.966918 1 0.960067
1 1 0.986328
1 1 1
1 1 1
1 1 1
1 1 1
1 1 1
1 1 1
1 1 1
1 1 1
1 1 1
1 1 1
1 1 1
1 1 1
1 1 1
1 1 1
1 1 1
1 1 1
1 1 1
1 1 1
1 1 1
1 1 1
1 1 1
1 1 1
1 1 1
1 1 1
1 1 1
1 1 1
1 1 1
1 1 1
1 1 1
0.985763 1 0.995239
1 1 1
1 1 1
1 1 1
1 1 1
1 1 1
1 1 1
1 1 1
1 1 1
1 1 1
1 1 1
1 1 1
1 1 1
1 1 1
1 1 1
1 1 1
1 1 1
1 1 1
1 1 1
1 1 1
1 1 1
1 1 1
1 1 1
1 1 1
1 1 1
1 1 1
1 1 1
1 1 1
1 1 1
1 1 1
1 1 1
1 1 1
1 1 1
1 1 1
1 1 1
1 1 1
1 1 1
1 1 1
1 1 1
1 1 1
1 1 1
1 1 1
