site/assets/luts/freshluts--0000129-tango-teal.cube
# LUTr-Schema-Version: 2
# LUTr-ID: freshluts--0000129-tango-teal
# LUTr-Title: Tango Teal
# LUTr-Collection: Fresh LUTs
# LUTr-Collection-ID: freshluts-community
# LUTr-Source: https://freshluts.com
# LUTr-Retrieved: 2026-07-27
# LUTr-Source-File: submissions-raw/freshluts/cubes/129__TangoTealVlog.cube
# LUTr-Source-Format: CUBE
# LUTr-Source-SHA256: dca93644214f9c2345513eda956af6b10d8062e40a9712994b130cdc4ad7f2df
# LUTr-License: CC0-1.0
# LUTr-License-URL: https://freshluts.com/termsandconditions
# LUTr-License-Basis: site-terms
# LUTr-Transform-Class: creative-look
# LUTr-Tags: creative, freshluts, community, cube, orange, high-key, panasonic-v-log
# LUTr-Input-Color-Space:
# LUTr-Input-Gamut: panasonic-v-gamut
# LUTr-Input-Transfer: panasonic-v-log
# LUTr-Output-Color-Space: srgb
# LUTr-Output-Gamut: rec709
# LUTr-Output-Transfer: srgb
# LUTr-Color-Space-Confidence: camera-profile-input-required
# LUTr-Domain-Normalized: true
# LUTr-Shaper: none
# LUTr-Original-Grid: 33x33x33
# LUTr-Conversion-Grid: 33x33x33
# LUTr-Conversion-Interpolation: none
# LUTr-Conversion-Method: Metadata normalization; numeric LUT samples preserved
# LUTr-Conversion-Tool: LUTr scripts/convert-all-to-cube.mjs 2.0.0
# LUTr-Conversion-Date: 2026-07-28
# LUTr-Asset-URL: https://freshluts.com/luts/129
# LUTr-Author: Forty Miles West
# LUTr-Author-URL: https://freshluts.com/users/391
# LUTr-Attribution: Forty Miles West via Fresh LUTs
# LUTr-Source-Labels: gamma=Panasonic V-log; color=Orange; key=High Key; style=Teal - Orange
# LUTr-Note: Preserve this metadata and the upstream license notices when redistributing.
TITLE "Tango Teal"
LUT_3D_SIZE 33
DOMAIN_MIN 0 0 0
DOMAIN_MAX 1 1 1
0 0.00943008 0.026978
0 0.0153353 0.0330968
0 0.022446 0.0403754
0 0.0299077 0.0480201
0.0216068 0.0376135 0.0559243
0.0491035 0.0455024 0.0640116
0.0773785 0.0537423 0.0724651
0.105837 0.0619211 0.0808423
0.134615 0.0701762 0.0893111
0.165118 0.0759594 0.0966201
0.20351 0.0789807 0.103029
0.238315 0.0796521 0.106706
0.26743 0.0791485 0.108583
0.29836 0.077821 0.109712
0.331319 0.0757458 0.110216
0.366308 0.0729992 0.110124
0.402869 0.0695811 0.109422
0.439902 0.0656138 0.108125
0.479896 0.0611887 0.106523
0.525307 0.0557259 0.104158
0.574029 0.0494087 0.101122
0.625422 0.0423743 0.0974289
0.678721 0.0347295 0.0931563
0.735119 0.0263676 0.0882582
0.793851 0.01738 0.0827802
0.8542 0.00798047 0.0768597
0.91696 0 0.0705272
0.981796 0 0.0636454
1 0 0.0562753
1 0 0.0485389
1 0 0.0404669
1 0 0.0321355
1 0 0.0235752
0 0.0235142 0.0334478
0 0.0307012 0.0407416
0 0.0383154 0.0485847
0.005066 0.0467384 0.0568399
0.0331579 0.0549935 0.065507
0.0595865 0.0629282 0.0738994
0.0867323 0.0710155 0.0823682
0.114839 0.0792859 0.0909743
0.149004 0.0860456 0.0995346
0.189136 0.0901961 0.106386
0.232929 0.0920577 0.111101
0.273594 0.0918135 0.11342
0.306218 0.0902113 0.113909
0.340932 0.087892 0.113756
0.377691 0.0848402 0.112963
0.416464 0.0811017 0.111559
0.456886 0.0767987 0.109667
0.498039 0.0720989 0.107362
0.54078 0.0666667 0.104417
0.589212 0.0603189 0.100801
0.641077 0.0532235 0.0965591
0.695354 0.0454871 0.091783
0.751369 0.0373083 0.0865339
0.809186 0.0287938 0.0810407
0.869352 0.0195163 0.0748302
0.931228 0.00981155 0.0681926
0.994659 0 0.0612345
1 0 0.0539406
1 0 0.0463417
1 0 0.0385443
1 0 0.0305333
1 0 0.022385
1 0 0.0140841
0 0.0397955 0.0410773
0 0.0473182 0.0487831
0 0.0551308 0.0566415
0.00386053 0.0631266 0.0638285
0.0354009 0.0717327 0.0737316
0.0680552 0.0808118 0.0822919
0.0992142 0.0894484 0.0910964
0.134508 0.0969253 0.0993668
0.175967 0.102373 0.105974
0.219852 0.105226 0.110231
0.266026 0.105837 0.112383
0.309819 0.104631 0.112673
0.344717 0.102403 0.111757
0.382132 0.0994278 0.110155
0.421805 0.0958572 0.107988
0.463386 0.0915541 0.10518
0.506539 0.0865797 0.101717
0.54992 0.0811322 0.0978561
0.595193 0.0752422 0.0935836
0.644694 0.0686046 0.0886549
0.698466 0.0614023 0.0833143
0.75404 0.0534829 0.0772717
0.811505 0.0450752 0.0708476
0.869902 0.0363165 0.0641184
0.930434 0.0271305 0.0569467
0.992309 0.0176242 0.0495308
1 0.00782788 0.0419318
1 0 0.0340124
1 0 0.0260166
1 0 0.0179599
1 0 0.0099031
1 0 0.00170901
1 0 0
0 0.056611 0.0489357
0 0.0645304 0.0569924
0 0.0725872 0.0652781
0.0113832 0.0805982 0.0732433
0.0216526 0.0873579 0.0753185
0.0685893 0.0975204 0.0909285
0.0972 0.106783 0.098909
0.138155 0.114855 0.104402
0.189471 0.119966 0.10721
0.244572 0.121691 0.107424
0.301122 0.120577 0.105425
0.349722 0.117876 0.102632
0.389029 0.114748 0.100038
0.428977 0.111086 0.0971389
0.470146 0.10695 0.0938582
0.512627 0.102342 0.0901503
0.556573 0.0972 0.0859083
0.600671 0.0916609 0.0812848
0.646082 0.085893 0.076463
0.696651 0.0792401 0.0707256
0.750469 0.0719005 0.0643931
0.806012 0.0641184 0.0576181
0.863218 0.0559548 0.0505989
0.921126 0.0475166 0.0433051
0.980911 0.0387121 0.0357824
1 0.0296788 0.027985
1 0.0205386 0.0202182
1 0.0112764 0.0123751
1 0.00180056 0.00434882
1 0 0
1 0 0
1 0 0
1 0 0
0 0.0743572 0.0572976
0 0.0822919 0.0654002
0 0.0904555 0.0737621
0.0179904 0.0986343 0.0821698
0.043595 0.106569 0.0899062
0.0430762 0.113832 0.0893721
0.087892 0.126497 0.101167
0.13283 0.13402 0.108232
0.180407 0.139147 0.108873
0.243458 0.14081 0.104158
0.311742 0.139132 0.0968795
0.374945 0.135119 0.0893721
0.419623 0.130678 0.08365
0.466438 0.125917 0.0776684
0.513344 0.120531 0.0718395
0.560494 0.114885 0.0661784
0.60734 0.109087 0.0607156
0.652766 0.103395 0.0556497
0.698528 0.0973831 0.0504005
0.748867 0.0908064 0.04448
0.802243 0.0839094 0.0381933
0.856443 0.0766003 0.0316014
0.911971 0.068986 0.0247349
0.968139 0.0612192 0.0178073
1 0.0532387 0.0106355
1 0.0449836 0.00326543
1 0.0365454 0
1 0.0280003 0
1 0.01944 0
1 0.0108644 0
1 0.00233463 0
1 0 0
1 0 0
0 0.0923781 0.0657511
0 0.100267 0.0737774
0 0.108476 0.0822003
0.0199893 0.117388 0.0902724
0.0377966 0.129412 0.0975204
0.0587167 0.139986 0.102327
0.0516213 0.147539 0.0975052
0.0912642 0.157595 0.0980697
0.174411 0.161028 0.103883
0.235172 0.162539 0.0997635
0.300481 0.161349 0.0914778
0.373709 0.157443 0.0793317
0.433295 0.15169 0.067628
0.485206 0.145754 0.0581826
0.536904 0.139605 0.0497292
0.588846 0.13315 0.0417334
0.640574 0.12636 0.0339208
0.690471 0.119539 0.0266575
0.740429 0.112627 0.0197299
0.794736 0.105653 0.0123903
0.849485 0.0983597 0.00552377
0.904585 0.0911574 0
0.959731 0.0839857 0
1 0.0768902 0
1 0.0694743 0
1 0.062089 0
1 0.0546578 0
1 0.0471656 0
1 0.0396735 0
1 0.0322423 0
1 0.0249332 0
1 0.0177005 0
1 0.0105898 0
0 0.11046 0.0740826
0 0.118379 0.0821393
0 0.128573 0.0897841
0.00628672 0.141909 0.0963302
0.0235599 0.154101 0.100923
0.0472114 0.16495 0.103304
0.0748455 0.173922 0.102678
0.0606546 0.182956 0.0939498
0.0931716 0.191241 0.0851759
0.203616 0.190051 0.0821851
0.296407 0.185107 0.0778821
0.364645 0.181735 0.0678416
0.432242 0.176852 0.0561227
0.485634 0.170932 0.0440528
0.542748 0.163989 0.0309758
0.599725 0.156664 0.0191806
0.655482 0.149279 0.00888075
0.709224 0.141894 0
0.761898 0.134493 0
0.818479 0.126879 0
0.876799 0.119066 0
0.934951 0.111254 0
0.992706 0.103563 0
1 0.0960861 0
1 0.0887465 0
1 0.0816358 0
1 0.0749065 0
1 0.0686656 0
1 0.0621347 0
1 0.0558175 0
1 0.0497292 0
1 0.0438849 0
1 0.0382086 0
0 0.128634 0.0823682
0 0.140688 0.08925
0 0.155276 0.0950179
0 0.169162 0.0988785
0.00173953 0.181613 0.10042
0.0261845 0.192569 0.0995193
0.0592508 0.201343 0.0959793
0.0961013 0.208118 0.0894636
0.0747539 0.219043 0.0769055
0.101198 0.226566 0.0615854
0.21062 0.223468 0.0476844
0.349935 0.20972 0.0449378
0.429252 0.202777 0.03682
0.482124 0.197711 0.0281834
0.534737 0.191913 0.0177462
0.591836 0.185046 0.00466926
0.65182 0.177279 0
0.710994 0.169284 0
0.767071 0.161654 0
0.824216 0.153811 0
0.884535 0.145815 0
0.944625 0.137819 0
1 0.129931 0
1 0.122271 0
1 0.114778 0
1 0.107546 0
1 0.100633 0
1 0.0941634 0
1 0.0880903 0
1 0.0823835 0
1 0.0770428 0
1 0.0721904 0
1 0.0677043 0
0 0.15404 0.0884108
0 0.169421 0.0932326
0 0.184985 0.096437
0 0.199374 0.0971847
0 0.212085 0.0954452
0 0.22298 0.0911116
0.0327611 0.23151 0.0842603
0.0781872 0.237308 0.0751049
0.125643 0.241596 0.0638743
0.0984054 0.254246 0.0477455
0.11667 0.262318 0.0285039
0.21239 0.25951 0.00773632
0.38117 0.239887 0.0028687
0.478706 0.226215 0.00363165
0.531121 0.220264 0
0.583017 0.214893 0
0.63769 0.20856 0
0.695979 0.201343 0
0.755184 0.193439 0
0.814069 0.185367 0
0.876585 0.177218 0
0.938811 0.169253 0
1 0.161486 0
1 0.153933 0
1 0.14667 0
1 0.139681 0
1 0.132937 0
1 0.126589 0
1 0.120668 0
1 0.115145 0
1 0.109834 0
1 0.104738 0
1 0.0999619 0
0 0.185229 0.091249
0 0.201694 0.0934005
0 0.217777 0.0932937
0 0.232563 0.0906844
0 0.245518 0.0855268
0 0.256031 0.0779736
0 0.264042 0.0682536
0.0483711 0.269352 0.0567025
0.107408 0.271977 0.0438087
0.164706 0.273747 0.0296483
0.134279 0.288151 0.011017
0.140597 0.297749 0
0.224735 0.295964 0
0.390417 0.276387 0
0.512642 0.255207 0
0.576867 0.245319 0
0.628626 0.239719 0
0.68127 0.233936 0
0.735943 0.227604 0
0.791791 0.220584 0
0.852491 0.213062 0
0.917372 0.205188 0
0.981338 0.197482 0
1 0.190066 0
1 0.183032 0
1 0.17644 0
1 0.170123 0
1 0.163912 0
1 0.1579 0
1 0.152102 0
1 0.146502 0
1 0.141054 0
1 0.135882 0
0 0.219959 0.0898756
0 0.237217 0.0890364
0 0.253895 0.0856336
0 0.26894 0.0796674
0 0.281788 0.0712902
0 0.291737 0.0610208
0 0.299107 0.0489204
0.0136568 0.30367 0.035584
0.0762798 0.305623 0.0215152
0.147951 0.305226 0.00714122
0.213626 0.305058 0
0.18175 0.32018 0
0.173632 0.332204 0
0.248051 0.331624 0
0.391424 0.316304 0
0.530983 0.290501 0
0.614008 0.274571 0
0.671183 0.267216 0
0.722332 0.261906 0
0.773098 0.256443 0
0.825986 0.250507 0
0.88571 0.244007 0
0.948837 0.23711 0
1 0.230015 0
1 0.222995 0
1 0.216281 0
1 0.209781 0
1 0.203494 0
1 0.197391 0
1 0.191745 0
1 0.186069 0
1 0.180316 0
1 0.174914 0
0 0.259113 0.0836805
0 0.276951 0.0796368
0 0.293919 0.0730907
0 0.308568 0.0639506
0 0.320607 0.0530098
0 0.329854 0.0403143
0 0.336248 0.0265354
0 0.339864 0.0121767
0.041474 0.340948 0
0.116411 0.339879 0
0.198734 0.337041 0
0.269215 0.335622 0
0.23975 0.351446 0
0.217121 0.366598 0
0.279454 0.36759 0
0.398215 0.356786 0
0.535683 0.331731 0
0.639109 0.309575 0
0.708247 0.298283 0
0.759457 0.292851 0
0.807767 0.288106 0
0.860456 0.283085 0
0.917983 0.277653 0
0.978698 0.271748 0
1 0.265324 0
1 0.258656 0
1 0.252018 0
1 0.245655 0
1 0.239231 0
1 0.233295 0
1 0.227588 0
1 0.222095 0
1 0.216724 0
0 0.302464 0.0725872
0 0.3205 0.0654459
0 0.336889 0.0558022
0 0.35082 0.0441749
0 0.361852 0.0310674
0 0.36994 0.016968
0 0.375082 0.00248722
0 0.377707 0
0.00433356 0.377966 0
0.0827039 0.376211 0
0.16762 0.372976 0
0.257725 0.368643 0
0.326207 0.366827 0
0.300313 0.383078 0
0.26804 0.40061 0
0.317266 0.403861 0
0.414862 0.397009 0
0.534417 0.376806 0
0.651606 0.350912 0
0.736294 0.33434 0
0.794232 0.326253 0
0.844617 0.321691 0
0.898482 0.31722 0
0.954376 0.312596 0
1 0.307607 0
1 0.302098 0
1 0.295964 0
1 0.28983 0
1 0.283635 0
1 0.277501 0
1 0.271595 0
1 0.265919 0
1 0.260227 0
0 0.350027 0.0560922
0 0.367575 0.0463722
0 0.3832 0.0344854
0 0.395697 0.0208591
0 0.405341 0.0065156
0 0.411841 0
0 0.415641 0
0 0.41706 0
0 0.416419 0
0.0485084 0.414008 0
0.136202 0.410376 0
0.228779 0.4056 0
0.318135 0.400702 0
0.383978 0.399435 0
0.363104 0.415381 0
0.323064 0.43534 0
0.359426 0.441337 0
0.439368 0.437781 0
0.53608 0.422873 0
0.65594 0.396841 0
0.75697 0.375097 0
0.827222 0.363104 0
0.885237 0.357214 0
0.939147 0.353109 0
0.994034 0.349004 0
1 0.34464 0
1 0.339895 0
1 0.334905 0
1 0.329274 0
1 0.323186 0
1 0.317037 0
1 0.31133 0
1 0.305608 0
0 0.402518 0.0346838
0 0.419013 0.0228428
0 0.432822 0.00917067
0 0.443595 0
0 0.451316 0
0 0.456168 0
0 0.458351 0
0 0.458244 0
0 0.456565 0
0.014847 0.453483 0
0.105623 0.449409 0
0.200259 0.444526 0
0.293416 0.43949 0
0.379477 0.434653 0
0.439643 0.434134 0
0.423835 0.450294 0
0.380911 0.47277 0
0.404288 0.481804 0
0.467735 0.480995 0
0.544808 0.470649 0
0.657618 0.44712 0
0.770413 0.42121 0
0.857252 0.404181 0
0.925643 0.39527 0
0.981949 0.390845 0
1 0.387137 0
1 0.383215 0
1 0.378958 0
1 0.374548 0
1 0.369741 0
1 0.364492 0
1 0.358968 0
1 0.353109 0
0 0.457359 0.00894179
0 0.472236 0
0 0.484077 0
0 0.49279 0
0 0.498909 0
0 0.502007 0
0 0.502647 0
0 0.501335 0
0 0.498711 0
0 0.495064 0
0.0773022 0.490547 0
0.173556 0.485481 0
0.269657 0.480705 0
0.358144 0.476188 0
0.438392 0.471794 0
0.484413 0.47216 0
0.475074 0.488655 0
0.438087 0.512581 0
0.449912 0.524315 0
0.493004 0.525872 0
0.560006 0.519356 0
0.660868 0.500587 0
0.777813 0.473198 0
0.881346 0.450446 0
0.962036 0.437278 0
1 0.430579 0
1 0.426947 0
1 0.423423 0
1 0.419776 0
1 0.415686 0
1 0.41149 0
1 0.406912 0
1 0.401984 0
0 0.514092 0
0 0.526772 0
0 0.536355 0
0 0.542809 0
0 0.546532 0
0 0.54786 0
0 0.547082 0
0 0.544732 0
0 0.541299 0
0 0.537011 0
0.0513008 0.53228 0
0.148531 0.52784 0
0.246784 0.52343 0
0.33724 0.519249 0
0.420188 0.51519 0
0.484779 0.511269 0
0.524529 0.512322 0
0.51722 0.528786 0
0.483879 0.553811 0
0.485634 0.568048 0
0.521508 0.571588 0
0.580301 0.568078 0
0.668605 0.554131 0
0.782528 0.528435 0
0.898253 0.502266 0
0.993164 0.484276 0
1 0.474281 0
1 0.469215 0
1 0.465888 0
1 0.462516 0
1 0.458869 0
1 0.455116 0
1 0.451041 0
0 0.570809 0
0 0.581033 0
0 0.588159 0
0 0.592401 0
0 0.594141 0
0 0.593591 0
0 0.591653 0
0 0.588403 0
0 0.584283 0
0 0.579904 0
0.0275883 0.575738 0
0.125383 0.571694 0
0.224582 0.567437 0
0.31725 0.563577 0
0.402625 0.559792 0
0.472648 0.556405 0
0.526986 0.552804 0
0.565713 0.554421 0
0.56022 0.570794 0
0.526482 0.596475 0
0.522164 0.613016 0
0.552636 0.618585 0
0.60499 0.617487 0
0.68249 0.607538 0
0.786679 0.586038 0
0.90959 0.558511 0
1 0.536004 0
1 0.522057 0
1 0.514443 0
1 0.510628 0
1 0.507439 0
1 0.504402 0
1 0.501183 0
0 0.626917 0
0 0.634531 0
0 0.639231 0
0 0.641321 0
0 0.64097 0
0 0.639078 0
0 0.635737 0
0 0.631891 0
0 0.627802 0
0 0.623941 0
0.0049897 0.620157 0
0.10312 0.616175 0
0.203006 0.612497 0
0.2981 0.608911 0
0.385351 0.605203 0
0.461677 0.602075 0
0.515846 0.598901 0
0.569924 0.595666 0
0.607858 0.597848 0
0.603967 0.614206 0
0.570291 0.640558 0
0.560479 0.659236 0
0.585794 0.666911 0
0.632959 0.667796 0
0.70135 0.661234 0
0.794736 0.643854 0
0.917769 0.617472 0
1 0.591653 0
1 0.573434 0
1 0.562463 0
1 0.556939 0
1 0.553887 0
1 0.551095 0
0 0.681437 0
0 0.68661 0
0 0.688548 0
0 0.688487 0
0 0.686519 0
0 0.683207 0
0 0.679545 0
0 0.675914 0
0 0.672389 0
0 0.66862 0
0 0.665141 0
0.0814221 0.661707 0
0.181231 0.658152 0
0.278767 0.654902 0
0.368322 0.651713 0
0.448402 0.6486 0
0.505013 0.645777 0
0.559442 0.642664 0
0.613413 0.639857 0
0.650553 0.642618 0
0.648112 0.658946 0
0.615122 0.685618 0
0.600381 0.706218 0
0.620676 0.716106 0
0.663264 0.718791 0
0.724208 0.714946 0
0.807477 0.701686 0
0.924666 0.677958 0
1 0.650629 0
1 0.628321 0
1 0.613962 0
1 0.605798 0
1 0.60174 0
0 0.734112 0
0 0.736736 0
0 0.736568 0
0 0.73431 0
0 0.73106 0
0 0.727901 0
0 0.724636 0
0 0.721309 0
0 0.717922 0
0 0.714717 0
0 0.711299 0
0.0609445 0.708171 0
0.161089 0.705119 0
0.260624 0.701991 0
0.351995 0.699123 0
0.434409 0.696315 0
0.494987 0.693736 0
0.549813 0.690883 0
0.604257 0.688273 0
0.657984 0.685756 0
0.694224 0.689052 0
0.693172 0.705394 0
0.661021 0.732357 0
0.642512 0.755169 0
0.65774 0.767086 0
0.695994 0.77116 0
0.750195 0.769558 0
0.82536 0.759884 0
0.934737 0.740063 0
1 0.712963 0
1 0.687404 0
1 0.669245 0
1 0.657832 0
0 0.784344 0
0 0.784482 0
0 0.782116 0
0 0.779461 0
0 0.776822 0
0 0.773953 0
0 0.770764 0
0 0.767742 0
0 0.764843 0
0 0.761791 0
0 0.758862 0
0.0409705 0.755703 0
0.141924 0.753216 0
0.242878 0.750256 0
0.335805 0.7476 0
0.420478 0.745022 0
0.485405 0.742824 0
0.540597 0.740078 0
0.595392 0.737667 0
0.649653 0.735286 0
0.702739 0.733074 0
0.737713 0.736873 0
0.737713 0.753063 0
0.707591 0.780499 0
0.685969 0.804898 0
0.695949 0.818524 0
0.730053 0.824384 0
0.778775 0.824689 0
0.848508 0.818173 0
0.948425 0.802121 0
1 0.777096 0
1 0.750011 0
1 0.728008 0
0 0.830549 0
0 0.829709 0
0 0.827832 0
0 0.825544 0
0 0.822889 0
0 0.82034 0
0 0.817502 0
0 0.814908 0
0 0.812268 0
0 0.809476 0
0 0.806989 0
0.0221866 0.804273 0
0.123156 0.801923 0
0.225513 0.799451 0
0.320348 0.797223 0
0.407355 0.79501 0
0.476295 0.792737 0
0.532219 0.790585 0
0.587396 0.788449 0
0.641978 0.786297 0
0.695827 0.783993 0
0.747417 0.781964 0
0.780957 0.786236 0
0.782254 0.80267 0
0.754177 0.830045 0
0.730541 0.855329 0
0.735958 0.87097 0
0.765393 0.878477 0
0.810575 0.880308 0
0.8766 0.876631 0
0.967895 0.864836 0
1 0.843732 0
1 0.816953 0
0 0.876127 0
0 0.875441 0
0 0.873869 0
0 0.871916 0
0 0.869551 0
0 0.867308 0
0 0.865049 0
0 0.862547 0
0 0.860273 0
0 0.857801 0
0 0.85565 0
0.00451667 0.853376 0
0.105867 0.851316 0
0.208865 0.849393 0
0.305669 0.847349 0
0.394614 0.845518 0
0.46833 0.843534 0
0.524559 0.841688 0
0.580041 0.839811 0
0.63476 0.837674 0
0.688746 0.835447 0
0.741833 0.833722 0
0.79205 0.831998 0
0.826154 0.836713 0
0.828702 0.85304 0
0.800519 0.880156 0
0.775616 0.906905 0
0.776852 0.924468 0
0.802869 0.933669 0
0.846723 0.937484 0
0.909209 0.936095 0
0.992432 0.927428 0
1 0.909972 0
0 0.922103 0
0 0.921782 0
0 0.920287 0
0 0.918593 0
0 0.916777 0
0 0.914595 0
0 0.912642 0
0 0.910613 0
0 0.908476 0
0 0.906584 0
0 0.904494 0
0 0.902739 0
0.0888228 0.900816 0
0.19205 0.899245 0
0.290974 0.89749 0
0.381888 0.895979 0
0.461234 0.894377 0
0.517128 0.892714 0
0.573022 0.891096 0
0.628061 0.889204 0
0.682811 0.887587 0
0.73637 0.886061 0
0.788052 0.884535 0
0.839948 0.883497 0
0.876158 0.888685 0
0.880156 0.905287 0
0.851286 0.932937 0
0.823423 0.960433 0
0.821057 0.980087 0
0.844602 0.990997 0
0.88719 0.993576 0
0.942519 0.991318 0
1 0.983276 0
0 0.968948 0
0 0.968933 0
0 0.96791 0
0 0.966308 0
0 0.964797 0
0 0.963104 0
0 0.961273 0
0 0.959625 0
0 0.957732 0
0 0.956161 0
0 0.954376 0
0 0.952956 0
0.0731212 0.951354 0
0.17644 0.950103 0
0.277378 0.948699 0
0.370031 0.94754 0
0.452628 0.946319 0
0.510857 0.945022 0
0.56701 0.943511 0
0.622751 0.94229 0
0.677974 0.941024 0
0.732052 0.939712 0
0.784253 0.938537 0
0.836957 0.937057 0
0.891981 0.936599 0
0.928496 0.942657 0
0.933135 0.958877 0
0.905531 0.983932 0
0.877211 1 0
0.872877 1 0
0.893919 1 0
0.929961 1 0
0.973266 1 0.0115969
0 1 0
0 1 0
0 1 0
0 1 0
0 1 0
0 1 0
0 1 0
0 1 0
0 1 0
0 1 0
0 1 0
0 1 0
0.0575113 1 0
0.161074 1 0
0.26392 1 0
0.358297 0.999725 0
0.443473 0.999115 0
0.505287 0.998077 0
0.562158 0.997208 0
0.618402 0.996323 0
0.674083 0.995483 0
0.728634 0.994385 0
0.781308 0.993484 0
0.834562 0.991424 0
0.890822 0.988251 0
0.942946 0.98558 0
0.974426 0.98854 0
0.977829 1 0
0.956878 1 0.0126192
0.935073 1 0.0701457
0.933303 1 0.142611
0.950988 1 0.226612
0.978149 1 0.320211
0 1 0
0 1 0
0 1 0
0 1 0
0 1 0
0 1 0
0 1 0
0 1 0
0 1 0
