site/assets/luts/freshluts--0001105-rfh-chemist-embakasi.cube
# LUTr-Schema-Version: 2
# LUTr-ID: freshluts--0001105-rfh-chemist-embakasi
# LUTr-Title: RFH CHEMIST EMBAKASI
# LUTr-Collection: Fresh LUTs
# LUTr-Collection-ID: freshluts-community
# LUTr-Source: https://freshluts.com
# LUTr-Retrieved: 2026-07-27
# LUTr-Source-File: submissions-raw/freshluts/cubes/1105__RFH_CHEMIST_LUT_RFH.cube
# LUTr-Source-Format: CUBE
# LUTr-Source-SHA256: f6cc5407f6db387d24ab4b8ca2a90dd8a41fb471056bf54e748ae47dbdf545d6
# LUTr-License: CC0-1.0
# LUTr-License-URL: https://freshluts.com/termsandconditions
# LUTr-License-Basis: site-terms
# LUTr-Transform-Class: creative-look
# LUTr-Tags: creative, freshluts, community, cube, magenta, high-key, bmd-film
# LUTr-Input-Color-Space:
# LUTr-Input-Gamut: bmd-film-gamut
# LUTr-Input-Transfer: bmd-film
# LUTr-Output-Color-Space: srgb
# LUTr-Output-Gamut: rec709
# LUTr-Output-Transfer: srgb
# LUTr-Color-Space-Confidence: camera-profile-input-required
# LUTr-Domain-Normalized: true
# LUTr-Shaper: none
# LUTr-Original-Grid: 33x33x33
# LUTr-Conversion-Grid: 33x33x33
# LUTr-Conversion-Interpolation: none
# LUTr-Conversion-Method: Metadata normalization; numeric LUT samples preserved
# LUTr-Conversion-Tool: LUTr scripts/convert-all-to-cube.mjs 2.0.0
# LUTr-Conversion-Date: 2026-07-28
# LUTr-Asset-URL: https://freshluts.com/luts/1105
# LUTr-Author: Sammy Sholei
# LUTr-Author-URL: https://freshluts.com/users/76663
# LUTr-Attribution: Sammy Sholei via Fresh LUTs
# LUTr-Source-Labels: gamma=Blackmagic BMD Film; color=Magenta; key=High Key; style=Adventure
# LUTr-Note: Preserve this metadata and the upstream license notices when redistributing.
TITLE "RFH CHEMIST EMBAKASI"
LUT_3D_SIZE 5
DOMAIN_MIN 0 0 0
DOMAIN_MAX 1 1 1
0 0.000793469 0
0 0.000793469 0
0.363226 0.106691 0
0.893187 0.274296 0
0.893187 0.274296 0
0 0.000793469 0
0 0.000793469 0
0.582605 0.282765 0
0.918074 0.364263 0
0.914809 0.349371 0
0.308598 0.153979 0.000869764
0.302159 0.130129 0.00755322
0.542611 0.32697 0.125322
0.94641 0.511452 0
0.946654 0.512154 0
0.711696 0.390265 0
0.711696 0.390265 0
0.828473 0.360967 0.136416
0.979767 0.681056 0.619104
0.983246 0.735286 0.326192
0.711696 0.390265 0
0.711696 0.390265 0
0.784131 0.339467 0.032517
0.980758 0.626139 0.598627
0.979767 0.681056 0.619104
0 0.000793469 0
0 0.000793469 0
0.725032 0.178882 0.111528
0.911421 0.248829 0.00653086
0.893675 0.273655 0.0000610361
0 0.000793469 0
0 0.000793469 0
0.593133 0.183413 0
0.893187 0.274296 0
0.893187 0.274296 0
0.31696 0.158755 0.000793469
0.31516 0.157626 0.000793469
0.591424 0.367468 0.116381
0.945281 0.506935 0
0.948379 0.517113 0
0.711696 0.390265 0
0.711696 0.390265 0
0.813855 0.351476 0.100175
0.979767 0.681056 0.619104
0.97998 0.687861 0.583062
0.711696 0.390265 0
0.711696 0.390265 0
0.757656 0.337591 0.00343328
0.980621 0.632837 0.601526
0.979767 0.681056 0.619104
0.0139467 0.273045 0.492546
0.00663767 0.258518 0.490242
0.752804 0.237797 0.73492
0.93959 0.204868 0.562585
0.946502 0.204349 0.505577
0.151003 0.316136 0.477562
0.00299077 0.241443 0.440681
0.693156 0.200992 0.632746
0.947387 0.201999 0.455528
0.947051 0.202396 0.447822
0.198138 0.378378 0.453346
0.20705 0.388952 0.463523
0.501228 0.47805 0.520104
0.94432 0.482551 0.390723
0.944549 0.489845 0.401648
0.468864 0.687831 0.615274
0.486625 0.674876 0.593179
0.788708 0.424933 0.172976
0.979721 0.687037 0.626627
0.979736 0.685573 0.624781
0.70808 0.497017 0.115175
0.722316 0.439918 0.0118868
0.777554 0.359548 0.0580606
0.980713 0.628962 0.599863
0.979767 0.681056 0.619104
0.0989395 0.323003 0.542718
0.0989395 0.323003 0.542718
0.604532 0.342214 0.996643
0.848997 0.360998 0.987396
0.848997 0.360998 0.987396
0.152193 0.35404 0.55938
0.0989395 0.323003 0.542718
0.463996 0.347112 0.997177
0.848997 0.360998 0.987396
0.848997 0.360998 0.987396
0.316869 0.466041 0.642527
0.325063 0.473564 0.649058
0.292042 0.443153 0.721538
0.894453 0.541512 0.999817
0.894102 0.540047 0.999817
0.44831 0.677211 0.75436
0.44831 0.677211 0.75436
0.460182 0.689769 0.767651
0.988693 0.995712 0.999359
0.982132 0.973144 0.999481
0.44831 0.677211 0.75436
0.44831 0.677211 0.75436
0.449683 0.681178 0.755306
0.980499 0.896559 0.87042
0.979568 0.827924 0.788037
0.0989395 0.323003 0.542718
0.0989395 0.323003 0.542718
0.572778 0.344442 0.998001
0.848997 0.360998 0.987396
0.848997 0.360998 0.987396
0.0989395 0.323003 0.542718
0.0989395 0.323003 0.542718
0.435981 0.346044 0.994461
0.848997 0.360998 0.987396
0.848997 0.360998 0.987396
0.309712 0.459693 0.636088
0.325567 0.474037 0.649439
0.293965 0.444251 0.722408
0.893767 0.538643 0.999817
0.891905 0.530877 0.999817
0.44831 0.677211 0.75436
0.44831 0.677211 0.75436
0.458488 0.688624 0.766354
0.985306 0.986969 0.99939
0.978363 0.951858 0.999588
0.44831 0.677211 0.75436
0.44831 0.677211 0.75436
0.450782 0.680217 0.757412
0.560357 0.806546 0.842054
0.990814 0.999207 0.99939
