site/assets/luts/freshluts--0000409-rocky.cube
# LUTr-Schema-Version: 2
# LUTr-ID: freshluts--0000409-rocky
# LUTr-Title: rocky
# LUTr-Collection: Fresh LUTs
# LUTr-Collection-ID: freshluts-community
# LUTr-Source: https://freshluts.com
# LUTr-Retrieved: 2026-07-27
# LUTr-Source-File: submissions-raw/freshluts/cubes/409__Untitled_1.C0062.cube
# LUTr-Source-Format: CUBE
# LUTr-Source-SHA256: 0895059e0b73d26a038508b25d212da6ea857c2cbc7636671bfb7ebb740133a4
# LUTr-License: CC0-1.0
# LUTr-License-URL: https://freshluts.com/termsandconditions
# LUTr-License-Basis: site-terms
# LUTr-Transform-Class: creative-look
# LUTr-Tags: creative, freshluts, community, cube, blue, arri-logc3-ei800
# LUTr-Input-Color-Space:
# LUTr-Input-Gamut: arri-wide-gamut-3
# LUTr-Input-Transfer: arri-logc3-ei800
# LUTr-Output-Color-Space: srgb
# LUTr-Output-Gamut: rec709
# LUTr-Output-Transfer: srgb
# LUTr-Color-Space-Confidence: camera-profile-input-required
# LUTr-Domain-Normalized: true
# LUTr-Shaper: none
# LUTr-Original-Grid: 33x33x33
# LUTr-Conversion-Grid: 33x33x33
# LUTr-Conversion-Interpolation: none
# LUTr-Conversion-Method: Metadata normalization; numeric LUT samples preserved
# LUTr-Conversion-Tool: LUTr scripts/convert-all-to-cube.mjs 2.0.0
# LUTr-Conversion-Date: 2026-07-28
# LUTr-Asset-URL: https://freshluts.com/luts/409
# LUTr-Author: rocky
# LUTr-Author-URL: https://freshluts.com/users/24560
# LUTr-Attribution: rocky via Fresh LUTs
# LUTr-Source-Labels: gamma=Arri log c; color=Blue; key=Neutral; style=Colorful
# LUTr-Note: Preserve this metadata and the upstream license notices when redistributing.
TITLE "rocky"
LUT_3D_SIZE 9
DOMAIN_MIN 0 0 0
DOMAIN_MAX 1 1 1
0 0 0
0.13698 0 0
0.273991 0 0
0.410986 0 0
0.547997 0 0
0.684993 0 0
0.821988 0 0
0.958999 0 0
1 0 0
0 0.13698 0
0.13698 0.13698 0
0.273991 0.13698 0
0.410986 0.13698 0
0.547997 0.13698 0
0.684993 0.13698 0
0.821988 0.13698 0
0.958999 0.13698 0
1 0.13698 0
0 0.273991 0
0.13698 0.273991 0
0.273991 0.273991 0
0.410986 0.273991 0
0.547997 0.273991 0
0.684993 0.273991 0
0.821988 0.273991 0
0.958999 0.273991 0
1 0.273991 0
0 0.410986 0
0.13698 0.410986 0
0.273991 0.410986 0
0.410986 0.410986 0
0.547997 0.410986 0
0.684993 0.410986 0
0.821988 0.410986 0
0.958999 0.410986 0
1 0.410986 0
0 0.547997 0
0.13698 0.547997 0
0.273991 0.547997 0
0.410986 0.547997 0
0.547997 0.547997 0
0.684993 0.547997 0
0.821988 0.547997 0
0.958999 0.547997 0
1 0.547997 0
0 0.684993 0
0.13698 0.684993 0
0.273991 0.684993 0
0.410986 0.684993 0
0.547997 0.684993 0
0.684993 0.684993 0
0.821988 0.684993 0
0.958999 0.684993 0
1 0.684993 0
0 0.821988 0
0.13698 0.821988 0
0.273991 0.821988 0
0.410986 0.821988 0
0.547997 0.821988 0
0.684993 0.821988 0
0.821988 0.821988 0
0.958999 0.821988 0
1 0.821988 0
0 0.958999 0
0.13698 0.958999 0
0.273991 0.958999 0
0.410986 0.958999 0
0.547997 0.958999 0
0.684993 0.958999 0
0.821988 0.958999 0
0.958999 0.958999 0
1 0.958999 0
0 1 0
0.13698 1 0
0.273991 1 0
0.410986 1 0
0.547997 1 0
0.684993 1 0
0.821988 1 0
0.958999 1 0
1 1 0
0 0 0.13698
0.13698 0 0.13698
0.273991 0 0.13698
0.410986 0 0.13698
0.547997 0 0.13698
0.684993 0 0.13698
0.821988 0 0.13698
0.958999 0 0.13698
1 0 0.13698
0 0.13698 0.13698
0.13698 0.13698 0.13698
0.273991 0.13698 0.13698
0.410986 0.13698 0.13698
0.547997 0.13698 0.13698
0.684993 0.13698 0.13698
0.821988 0.13698 0.13698
0.958999 0.13698 0.13698
1 0.13698 0.13698
0 0.273991 0.13698
0.13698 0.273991 0.13698
0.273991 0.273991 0.13698
0.410986 0.273991 0.13698
0.547997 0.273991 0.13698
0.684993 0.273991 0.13698
0.821988 0.273991 0.13698
0.958999 0.273991 0.13698
1 0.273991 0.13698
0 0.410986 0.13698
0.13698 0.410986 0.13698
0.273991 0.410986 0.13698
0.410986 0.410986 0.13698
0.547997 0.410986 0.13698
0.684993 0.410986 0.13698
0.821988 0.410986 0.13698
0.958999 0.410986 0.13698
1 0.410986 0.13698
0 0.547997 0.13698
0.13698 0.547997 0.13698
0.273991 0.547997 0.13698
0.410986 0.547997 0.13698
0.547997 0.547997 0.13698
0.684993 0.547997 0.13698
0.821988 0.547997 0.13698
0.958999 0.547997 0.13698
1 0.547997 0.13698
0 0.684993 0.13698
0.13698 0.684993 0.13698
0.273991 0.684993 0.13698
0.410986 0.684993 0.13698
0.547997 0.684993 0.13698
0.684993 0.684993 0.13698
0.821988 0.684993 0.13698
0.958999 0.684993 0.13698
1 0.684993 0.13698
0 0.821988 0.13698
0.13698 0.821988 0.13698
0.273991 0.821988 0.13698
0.410986 0.821988 0.13698
0.547997 0.821988 0.13698
0.684993 0.821988 0.13698
0.821988 0.821988 0.13698
0.958999 0.821988 0.13698
1 0.821988 0.13698
0 0.958999 0.13698
0.13698 0.958999 0.13698
0.273991 0.958999 0.13698
0.410986 0.958999 0.13698
0.547997 0.958999 0.13698
0.684993 0.958999 0.13698
0.821988 0.958999 0.13698
0.958999 0.958999 0.13698
1 0.958999 0.13698
0 1 0.13698
0.13698 1 0.13698
0.273991 1 0.13698
0.410986 1 0.13698
0.547997 1 0.13698
0.684993 1 0.13698
0.821988 1 0.13698
0.958999 1 0.13698
1 1 0.13698
0 0 0.273991
0.13698 0 0.273991
0.273991 0 0.273991
0.410986 0 0.273991
0.547997 0 0.273991
0.684993 0 0.273991
0.821988 0 0.273991
0.958999 0 0.273991
1 0 0.273991
0 0.13698 0.273991
0.13698 0.13698 0.273991
0.273991 0.13698 0.273991
0.410986 0.13698 0.273991
0.547997 0.13698 0.273991
0.684993 0.13698 0.273991
0.821988 0.13698 0.273991
0.958999 0.13698 0.273991
1 0.13698 0.273991
0 0.273991 0.273991
0.13698 0.273991 0.273991
0.273991 0.273991 0.273991
0.410986 0.273991 0.273991
0.547997 0.273991 0.273991
0.684993 0.273991 0.273991
0.821988 0.273991 0.273991
0.958999 0.273991 0.273991
1 0.273991 0.273991
0 0.410986 0.273991
0.13698 0.410986 0.273991
0.273991 0.410986 0.273991
0.410986 0.410986 0.273991
0.547997 0.410986 0.273991
0.684993 0.410986 0.273991
0.821988 0.410986 0.273991
0.958999 0.410986 0.273991
1 0.410986 0.273991
0 0.547997 0.273991
0.13698 0.547997 0.273991
0.273991 0.547997 0.273991
0.410986 0.547997 0.273991
0.547997 0.547997 0.273991
0.684993 0.547997 0.273991
0.821988 0.547997 0.273991
0.958999 0.547997 0.273991
1 0.547997 0.273991
0 0.684993 0.273991
0.13698 0.684993 0.273991
0.273991 0.684993 0.273991
0.410986 0.684993 0.273991
0.547997 0.684993 0.273991
0.684993 0.684993 0.273991
0.821988 0.684993 0.273991
0.958999 0.684993 0.273991
1 0.684993 0.273991
0 0.821988 0.273991
0.13698 0.821988 0.273991
0.273991 0.821988 0.273991
0.410986 0.821988 0.273991
0.547997 0.821988 0.273991
0.684993 0.821988 0.273991
0.821988 0.821988 0.273991
0.958999 0.821988 0.273991
1 0.821988 0.273991
0 0.958999 0.273991
0.13698 0.958999 0.273991
0.273991 0.958999 0.273991
0.410986 0.958999 0.273991
0.547997 0.958999 0.273991
0.684993 0.958999 0.273991
0.821988 0.958999 0.273991
0.958999 0.958999 0.273991
1 0.958999 0.273991
0 1 0.273991
0.13698 1 0.273991
0.273991 1 0.273991
0.410986 1 0.273991
0.547997 1 0.273991
0.684993 1 0.273991
0.821988 1 0.273991
0.958999 1 0.273991
1 1 0.273991
0 0 0.410986
0.13698 0 0.410986
0.273991 0 0.410986
0.410986 0 0.410986
0.547997 0 0.410986
0.684993 0 0.410986
0.821988 0 0.410986
0.958999 0 0.410986
1 0 0.410986
0 0.13698 0.410986
0.13698 0.13698 0.410986
0.273991 0.13698 0.410986
0.410986 0.13698 0.410986
0.547997 0.13698 0.410986
0.684993 0.13698 0.410986
0.821988 0.13698 0.410986
0.958999 0.13698 0.410986
1 0.13698 0.410986
0 0.273991 0.410986
0.13698 0.273991 0.410986
0.273991 0.273991 0.410986
0.410986 0.273991 0.410986
0.547997 0.273991 0.410986
0.684993 0.273991 0.410986
0.821988 0.273991 0.410986
0.958999 0.273991 0.410986
1 0.273991 0.410986
0 0.410986 0.410986
0.13698 0.410986 0.410986
0.273991 0.410986 0.410986
0.410986 0.410986 0.410986
0.547997 0.410986 0.410986
0.684993 0.410986 0.410986
0.821988 0.410986 0.410986
0.958999 0.410986 0.410986
1 0.410986 0.410986
0 0.547997 0.410986
0.13698 0.547997 0.410986
0.273991 0.547997 0.410986
0.410986 0.547997 0.410986
0.547997 0.547997 0.410986
0.684993 0.547997 0.410986
0.821988 0.547997 0.410986
0.958999 0.547997 0.410986
1 0.547997 0.410986
0 0.684993 0.410986
0.13698 0.684993 0.410986
0.273991 0.684993 0.410986
0.410986 0.684993 0.410986
0.547997 0.684993 0.410986
0.684993 0.684993 0.410986
0.821988 0.684993 0.410986
0.958999 0.684993 0.410986
1 0.684993 0.410986
0 0.821988 0.410986
0.13698 0.821988 0.410986
0.273991 0.821988 0.410986
0.410986 0.821988 0.410986
0.547997 0.821988 0.410986
0.684993 0.821988 0.410986
0.821988 0.821988 0.410986
0.958999 0.821988 0.410986
1 0.821988 0.410986
0 0.958999 0.410986
0.13698 0.958999 0.410986
0.273991 0.958999 0.410986
0.410986 0.958999 0.410986
0.547997 0.958999 0.410986
0.684993 0.958999 0.410986
0.821988 0.958999 0.410986
0.958999 0.958999 0.410986
1 0.958999 0.410986
0 1 0.410986
0.13698 1 0.410986
0.273991 1 0.410986
0.410986 1 0.410986
0.547997 1 0.410986
0.684993 1 0.410986
0.821988 1 0.410986
0.958999 1 0.410986
1 1 0.410986
0 0 0.547997
0.13698 0 0.547997
0.273991 0 0.547997
0.410986 0 0.547997
0.547997 0 0.547997
0.684993 0 0.547997
0.821988 0 0.547997
0.958999 0 0.547997
1 0 0.547997
0 0.13698 0.547997
0.13698 0.13698 0.547997
0.273991 0.13698 0.547997
0.410986 0.13698 0.547997
0.547997 0.13698 0.547997
0.684993 0.13698 0.547997
0.821988 0.13698 0.547997
0.958999 0.13698 0.547997
1 0.13698 0.547997
0 0.273991 0.547997
0.13698 0.273991 0.547997
0.273991 0.273991 0.547997
0.410986 0.273991 0.547997
0.547997 0.273991 0.547997
0.684993 0.273991 0.547997
0.821988 0.273991 0.547997
0.958999 0.273991 0.547997
1 0.273991 0.547997
0 0.410986 0.547997
0.13698 0.410986 0.547997
0.273991 0.410986 0.547997
0.410986 0.410986 0.547997
0.547997 0.410986 0.547997
0.684993 0.410986 0.547997
0.821988 0.410986 0.547997
0.958999 0.410986 0.547997
1 0.410986 0.547997
0 0.547997 0.547997
0.13698 0.547997 0.547997
0.273991 0.547997 0.547997
0.410986 0.547997 0.547997
0.547997 0.547997 0.547997
0.684993 0.547997 0.547997
0.821988 0.547997 0.547997
0.958999 0.547997 0.547997
1 0.547997 0.547997
0 0.684993 0.547997
0.13698 0.684993 0.547997
0.273991 0.684993 0.547997
0.410986 0.684993 0.547997
0.547997 0.684993 0.547997
0.684993 0.684993 0.547997
0.821988 0.684993 0.547997
0.958999 0.684993 0.547997
1 0.684993 0.547997
0 0.821988 0.547997
0.13698 0.821988 0.547997
0.273991 0.821988 0.547997
0.410986 0.821988 0.547997
0.547997 0.821988 0.547997
0.684993 0.821988 0.547997
0.821988 0.821988 0.547997
0.958999 0.821988 0.547997
1 0.821988 0.547997
0 0.958999 0.547997
0.13698 0.958999 0.547997
0.273991 0.958999 0.547997
0.410986 0.958999 0.547997
0.547997 0.958999 0.547997
0.684993 0.958999 0.547997
0.821988 0.958999 0.547997
0.958999 0.958999 0.547997
1 0.958999 0.547997
0 1 0.547997
0.13698 1 0.547997
0.273991 1 0.547997
0.410986 1 0.547997
0.547997 1 0.547997
0.684993 1 0.547997
0.821988 1 0.547997
0.958999 1 0.547997
1 1 0.547997
0 0 0.684993
0.13698 0 0.684993
0.273991 0 0.684993
0.410986 0 0.684993
0.547997 0 0.684993
0.684993 0 0.684993
0.821988 0 0.684993
0.958999 0 0.684993
1 0 0.684993
0 0.13698 0.684993
0.13698 0.13698 0.684993
0.273991 0.13698 0.684993
0.410986 0.13698 0.684993
0.547997 0.13698 0.684993
0.684993 0.13698 0.684993
0.821988 0.13698 0.684993
0.958999 0.13698 0.684993
1 0.13698 0.684993
0 0.273991 0.684993
0.13698 0.273991 0.684993
0.273991 0.273991 0.684993
0.410986 0.273991 0.684993
0.547997 0.273991 0.684993
0.684993 0.273991 0.684993
0.821988 0.273991 0.684993
0.958999 0.273991 0.684993
1 0.273991 0.684993
0 0.410986 0.684993
0.13698 0.410986 0.684993
0.273991 0.410986 0.684993
0.410986 0.410986 0.684993
0.547997 0.410986 0.684993
0.684993 0.410986 0.684993
0.821988 0.410986 0.684993
0.958999 0.410986 0.684993
1 0.410986 0.684993
0 0.547997 0.684993
0.13698 0.547997 0.684993
0.273991 0.547997 0.684993
0.410986 0.547997 0.684993
0.547997 0.547997 0.684993
0.684993 0.547997 0.684993
0.821988 0.547997 0.684993
0.958999 0.547997 0.684993
1 0.547997 0.684993
0 0.684993 0.684993
0.13698 0.684993 0.684993
0.273991 0.684993 0.684993
0.410986 0.684993 0.684993
0.547997 0.684993 0.684993
0.684993 0.684993 0.684993
0.821988 0.684993 0.684993
0.958999 0.684993 0.684993
1 0.684993 0.684993
0 0.821988 0.684993
0.13698 0.821988 0.684993
0.273991 0.821988 0.684993
0.410986 0.821988 0.684993
0.547997 0.821988 0.684993
0.684993 0.821988 0.684993
0.821988 0.821988 0.684993
0.958999 0.821988 0.684993
1 0.821988 0.684993
0 0.958999 0.684993
0.13698 0.958999 0.684993
0.273991 0.958999 0.684993
0.410986 0.958999 0.684993
0.547997 0.958999 0.684993
0.684993 0.958999 0.684993
0.821988 0.958999 0.684993
0.958999 0.958999 0.684993
1 0.958999 0.684993
0 1 0.684993
0.13698 1 0.684993
0.273991 1 0.684993
0.410986 1 0.684993
0.547997 1 0.684993
0.684993 1 0.684993
0.821988 1 0.684993
0.958999 1 0.684993
1 1 0.684993
0 0 0.821988
0.13698 0 0.821988
0.273991 0 0.821988
0.410986 0 0.821988
0.547997 0 0.821988
0.684993 0 0.821988
0.821988 0 0.821988
0.958999 0 0.821988
1 0 0.821988
0 0.13698 0.821988
0.13698 0.13698 0.821988
0.273991 0.13698 0.821988
0.410986 0.13698 0.821988
0.547997 0.13698 0.821988
0.684993 0.13698 0.821988
0.821988 0.13698 0.821988
0.958999 0.13698 0.821988
1 0.13698 0.821988
0 0.273991 0.821988
0.13698 0.273991 0.821988
0.273991 0.273991 0.821988
0.410986 0.273991 0.821988
0.547997 0.273991 0.821988
0.684993 0.273991 0.821988
0.821988 0.273991 0.821988
0.958999 0.273991 0.821988
1 0.273991 0.821988
0 0.410986 0.821988
0.13698 0.410986 0.821988
0.273991 0.410986 0.821988
0.410986 0.410986 0.821988
0.547997 0.410986 0.821988
0.684993 0.410986 0.821988
0.821988 0.410986 0.821988
0.958999 0.410986 0.821988
1 0.410986 0.821988
0 0.547997 0.821988
0.13698 0.547997 0.821988
0.273991 0.547997 0.821988
0.410986 0.547997 0.821988
0.547997 0.547997 0.821988
0.684993 0.547997 0.821988
0.821988 0.547997 0.821988
0.958999 0.547997 0.821988
1 0.547997 0.821988
0 0.684993 0.821988
0.13698 0.684993 0.821988
0.273991 0.684993 0.821988
0.410986 0.684993 0.821988
0.547997 0.684993 0.821988
0.684993 0.684993 0.821988
0.821988 0.684993 0.821988
0.958999 0.684993 0.821988
1 0.684993 0.821988
0 0.821988 0.821988
0.13698 0.821988 0.821988
0.273991 0.821988 0.821988
0.410986 0.821988 0.821988
0.547997 0.821988 0.821988
0.684993 0.821988 0.821988
0.821988 0.821988 0.821988
0.958999 0.821988 0.821988
1 0.821988 0.821988
0 0.958999 0.821988
0.13698 0.958999 0.821988
0.273991 0.958999 0.821988
0.410986 0.958999 0.821988
0.547997 0.958999 0.821988
0.684993 0.958999 0.821988
0.821988 0.958999 0.821988
0.958999 0.958999 0.821988
1 0.958999 0.821988
0 1 0.821988
0.13698 1 0.821988
0.273991 1 0.821988
0.410986 1 0.821988
0.547997 1 0.821988
0.684993 1 0.821988
0.821988 1 0.821988
0.958999 1 0.821988
1 1 0.821988
0 0 0.958999
0.13698 0 0.958999
0.273991 0 0.958999
0.410986 0 0.958999
0.547997 0 0.958999
0.684993 0 0.958999
0.821988 0 0.958999
0.958999 0 0.958999
1 0 0.958999
0 0.13698 0.958999
0.13698 0.13698 0.958999
0.273991 0.13698 0.958999
0.410986 0.13698 0.958999
0.547997 0.13698 0.958999
0.684993 0.13698 0.958999
0.821988 0.13698 0.958999
0.958999 0.13698 0.958999
1 0.13698 0.958999
0 0.273991 0.958999
0.13698 0.273991 0.958999
0.273991 0.273991 0.958999
0.410986 0.273991 0.958999
0.547997 0.273991 0.958999
0.684993 0.273991 0.958999
0.821988 0.273991 0.958999
0.958999 0.273991 0.958999
1 0.273991 0.958999
0 0.410986 0.958999
0.13698 0.410986 0.958999
0.273991 0.410986 0.958999
0.410986 0.410986 0.958999
0.547997 0.410986 0.958999
0.684993 0.410986 0.958999
0.821988 0.410986 0.958999
0.958999 0.410986 0.958999
1 0.410986 0.958999
0 0.547997 0.958999
0.13698 0.547997 0.958999
0.273991 0.547997 0.958999
0.410986 0.547997 0.958999
0.547997 0.547997 0.958999
0.684993 0.547997 0.958999
0.821988 0.547997 0.958999
0.958999 0.547997 0.958999
1 0.547997 0.958999
0 0.684993 0.958999
0.13698 0.684993 0.958999
0.273991 0.684993 0.958999
0.410986 0.684993 0.958999
0.547997 0.684993 0.958999
0.684993 0.684993 0.958999
0.821988 0.684993 0.958999
0.958999 0.684993 0.958999
1 0.684993 0.958999
0 0.821988 0.958999
0.13698 0.821988 0.958999
0.273991 0.821988 0.958999
0.410986 0.821988 0.958999
0.547997 0.821988 0.958999
0.684993 0.821988 0.958999
0.821988 0.821988 0.958999
0.958999 0.821988 0.958999
1 0.821988 0.958999
0 0.958999 0.958999
0.13698 0.958999 0.958999
0.273991 0.958999 0.958999
0.410986 0.958999 0.958999
0.547997 0.958999 0.958999
0.684993 0.958999 0.958999
0.821988 0.958999 0.958999
0.958999 0.958999 0.958999
1 0.958999 0.958999
0 1 0.958999
0.13698 1 0.958999
0.273991 1 0.958999
0.410986 1 0.958999
0.547997 1 0.958999
0.684993 1 0.958999
0.821988 1 0.958999
0.958999 1 0.958999
1 1 0.958999
0 0 1
0.13698 0 1
0.273991 0 1
0.410986 0 1
0.547997 0 1
0.684993 0 1
0.821988 0 1
0.958999 0 1
1 0 1
0 0.13698 1
0.13698 0.13698 1
0.273991 0.13698 1
0.410986 0.13698 1
0.547997 0.13698 1
0.684993 0.13698 1
0.821988 0.13698 1
0.958999 0.13698 1
1 0.13698 1
0 0.273991 1
0.13698 0.273991 1
0.273991 0.273991 1
0.410986 0.273991 1
0.547997 0.273991 1
0.684993 0.273991 1
0.821988 0.273991 1
0.958999 0.273991 1
1 0.273991 1
0 0.410986 1
0.13698 0.410986 1
0.273991 0.410986 1
0.410986 0.410986 1
0.547997 0.410986 1
0.684993 0.410986 1
0.821988 0.410986 1
0.958999 0.410986 1
1 0.410986 1
0 0.547997 1
0.13698 0.547997 1
0.273991 0.547997 1
0.410986 0.547997 1
0.547997 0.547997 1
0.684993 0.547997 1
0.821988 0.547997 1
0.958999 0.547997 1
1 0.547997 1
0 0.684993 1
0.13698 0.684993 1
0.273991 0.684993 1
0.410986 0.684993 1
0.547997 0.684993 1
0.684993 0.684993 1
0.821988 0.684993 1
0.958999 0.684993 1
1 0.684993 1
0 0.821988 1
0.13698 0.821988 1
0.273991 0.821988 1
0.410986 0.821988 1
0.547997 0.821988 1
0.684993 0.821988 1
0.821988 0.821988 1
0.958999 0.821988 1
1 0.821988 1
0 0.958999 1
0.13698 0.958999 1
0.273991 0.958999 1
0.410986 0.958999 1
0.547997 0.958999 1
0.684993 0.958999 1
0.821988 0.958999 1
0.958999 0.958999 1
1 0.958999 1
0 1 1
0.13698 1 1
0.273991 1 1
0.410986 1 1
0.547997 1 1
0.684993 1 1
0.821988 1 1
0.958999 1 1
1 1 1
