site/assets/luts/freshluts--0000151-city.cube
# LUTr-Schema-Version: 2
# LUTr-ID: freshluts--0000151-city
# LUTr-Title: CITY
# LUTr-Collection: Fresh LUTs
# LUTr-Collection-ID: freshluts-community
# LUTr-Source: https://freshluts.com
# LUTr-Retrieved: 2026-07-27
# LUTr-Source-File: submissions-raw/freshluts/cubes/151__CITY__7.DJI_0002.cube
# LUTr-Source-Format: CUBE
# LUTr-Source-SHA256: 6e22d7741b9638e902b92302b3b0d96dc738c038104c55ee2748ebbc68ce4a4d
# LUTr-License: CC0-1.0
# LUTr-License-URL: https://freshluts.com/termsandconditions
# LUTr-License-Basis: site-terms
# LUTr-Transform-Class: creative-look
# LUTr-Tags: creative, freshluts, community, cube, film-emulation, dji-d-log
# LUTr-Input-Color-Space: dji-dlog-dgamut
# LUTr-Input-Gamut: dji-d-gamut
# LUTr-Input-Transfer: dji-d-log
# LUTr-Output-Color-Space: srgb
# LUTr-Output-Gamut: rec709
# LUTr-Output-Transfer: srgb
# LUTr-Color-Space-Confidence: inferred-from-source-label
# LUTr-Domain-Normalized: true
# LUTr-Shaper: none
# LUTr-Original-Grid: 33x33x33
# LUTr-Conversion-Grid: 33x33x33
# LUTr-Conversion-Interpolation: none
# LUTr-Conversion-Method: Metadata normalization; numeric LUT samples preserved
# LUTr-Conversion-Tool: LUTr scripts/convert-all-to-cube.mjs 2.0.0
# LUTr-Conversion-Date: 2026-07-28
# LUTr-Asset-URL: https://freshluts.com/luts/151
# LUTr-Author: Shamoon Abbasi
# LUTr-Author-URL: https://freshluts.com/users/1258
# LUTr-Attribution: Shamoon Abbasi via Fresh LUTs
# LUTr-Source-Labels: gamma=DJI D-log; color=None; key=Neutral; style=Film emulation
# LUTr-Note: Preserve this metadata and the upstream license notices when redistributing.
TITLE "CITY"
LUT_3D_SIZE 5
DOMAIN_MIN 0 0 0
DOMAIN_MAX 1 1 1
0.0131075 0.031342 0.0278935
0.0619059 0.0367895 0.0228122
0.31548 0.0500038 0
0.537423 0.0627298 0
0.676844 0.0630961 0
0 0.0983749 0.049485
0.0754253 0.121141 0.0263066
0.443336 0.14873 0
0.703578 0.170443 0
0.834073 0.180621 0
0 0.264698 0.0952316
0 0.330205 0.0239719
0.501945 0.395331 0
0.794766 0.438239 0
0.920485 0.449317 0
0 0.465965 0.154086
0 0.576059 0.00741588
0.572549 0.653391 0
0.854002 0.688914 0
0.977447 0.69601 0
0 0.517662 0.182925
0 0.638422 0.0157015
0.575677 0.749096 0
0.888777 0.799558 0
1 0.816327 0
0.00120546 0.0431373 0.0915694
0.0638132 0.0436103 0.0981613
0.367407 0.0382239 0.0628367
0.61326 0.0425727 0.0532235
0.788449 0 0.057023
0 0.120119 0.130755
0.0928511 0.137835 0.13991
0.470481 0.17052 0.115572
0.807675 0.147036 0.0807813
0.987915 0.0978408 0.0523842
0 0.303792 0.194781
0.100313 0.355306 0.205951
0.535775 0.442771 0.123598
0.858412 0.476112 0.0758679
1 0.467338 0
0 0.513649 0.304311
0.0335241 0.608469 0.260731
0.586419 0.715267 0.0964828
0.8804 0.738949 0.109697
1 0.749233 0
0 0.566293 0.350454
0 0.686748 0.304646
0.557351 0.830182 0.00199893
0.947173 0.867903 0
1 0.871061 0.00573739
0 0.102434 0.244739
0.037171 0.0593423 0.328969
0.378134 0.0501106 0.325277
0.651469 0.0409705 0.33875
0.819928 0 0.36582
0 0.184543 0.330053
0.0870832 0.197711 0.366598
0.491295 0.201572 0.437659
0.837766 0.163241 0.490761
0.996048 0.114839 0.525185
0 0.380865 0.436408
0.118181 0.433677 0.477729
0.535683 0.504311 0.509483
0.898314 0.523812 0.495109
1 0.503975 0.474434
0 0.595148 0.578408
0.0588693 0.677165 0.602731
0.513085 0.802808 0.51841
0.883467 0.815213 0.521996
1 0.816129 0.45626
0 0.648234 0.624918
0 0.754879 0.665309
0.446891 0.897704 0.573556
0.889189 0.932219 0.549615
1 0.933257 0.58735
0 0.16228 0.381415
0.0100404 0.108583 0.504509
0.396933 0.0590066 0.566918
0.675151 0.0597238 0.580194
0.835492 0.0132143 0.618814
0 0.251392 0.49546
0.0234226 0.249577 0.592721
0.526955 0.195117 0.751476
0.840085 0.190356 0.772946
1 0.116304 0.836912
0 0.45243 0.623346
0.0971847 0.498772 0.672419
0.503151 0.549523 0.831647
0.875074 0.552697 0.824781
1 0.532677 0.814649
0 0.652354 0.743862
0.0676585 0.723156 0.790784
0.480842 0.834791 0.831495
0.858259 0.857633 0.816251
0.999969 0.855253 0.802228
0 0.697246 0.777798
0 0.797955 0.850614
0.373877 0.939147 0.87924
0.847517 0.96701 0.854994
0.994675 0.97258 0.863081
0 0.205371 0.464927
0 0.134005 0.627894
0.420661 0.0399634 0.751965
0.704494 0.0491646 0.759884
0.866957 0.00946059 0.79588
0 0.290272 0.580102
0 0.287892 0.711986
0.553231 0.166308 0.958236
0.885008 0.148028 0.971893
1 0.136095 0.991653
0 0.48983 0.714015
0 0.544717 0.805173
0.470359 0.566995 0.997742
0.862196 0.56527 0.993851
0.998962 0.535195 0.990387
0 0.67541 0.812299
0.0009308 0.746548 0.879515
0.375647 0.859449 0.99649
0.832792 0.874556 0.980758
0.9897 0.874067 0.973129
0 0.71725 0.833982
0 0.815213 0.920821
0.314992 0.955779 0.999649
0.823041 0.983917 0.984421
0.9823 0.989166 0.978225
