site/assets/luts/freshluts--0001115-correctlovemood.cube
# LUTr-Schema-Version: 2
# LUTr-ID: freshluts--0001115-correctlovemood
# LUTr-Title: Correct+lovemood
# LUTr-Collection: Fresh LUTs
# LUTr-Collection-ID: freshluts-community
# LUTr-Source: https://freshluts.com
# LUTr-Retrieved: 2026-07-27
# LUTr-Source-File: submissions-raw/freshluts/cubes/1115__love_mood.cube
# LUTr-Source-Format: CUBE
# LUTr-Source-SHA256: e17dc64086f8f10790dfdcada7121ae0a161718d0360deafd5169fb95ef8050e
# LUTr-License: CC0-1.0
# LUTr-License-URL: https://freshluts.com/termsandconditions
# LUTr-License-Basis: site-terms
# LUTr-Transform-Class: creative-look
# LUTr-Tags: creative, freshluts, community, cube, red, sony-s-log3, correction
# LUTr-Input-Color-Space:
# LUTr-Input-Gamut: sony-s-gamut3
# LUTr-Input-Transfer: sony-s-log3
# LUTr-Output-Color-Space: srgb
# LUTr-Output-Gamut: rec709
# LUTr-Output-Transfer: srgb
# LUTr-Color-Space-Confidence: camera-profile-input-required
# LUTr-Domain-Normalized: true
# LUTr-Shaper: none
# LUTr-Original-Grid: 16x16x16
# LUTr-Conversion-Grid: 16x16x16
# LUTr-Conversion-Interpolation: none
# LUTr-Conversion-Method: Metadata normalization; numeric LUT samples preserved
# LUTr-Conversion-Tool: LUTr scripts/convert-all-to-cube.mjs 2.0.0
# LUTr-Conversion-Date: 2026-07-28
# LUTr-Asset-URL: https://freshluts.com/luts/1115
# LUTr-Author: lvannoeun@gmail.com
# LUTr-Author-URL: https://freshluts.com/users/57563
# LUTr-Attribution: lvannoeun@gmail.com via Fresh LUTs
# LUTr-Source-Labels: gamma=Sony S-Log 3; color=Red; key=Neutral; style=sun dwon
# LUTr-Note: Preserve this metadata and the upstream license notices when redistributing.
TITLE "Correct+lovemood"
LUT_3D_SIZE 6
DOMAIN_MIN 0 0 0
DOMAIN_MAX 1 1 1
0 0 0
0 0 0
0.442939 -0.116037 -0.116037
0.852546 -0.220528 -0.218672
1.069431 -0.258886 -0.261263
1.069414 -0.257691 -0.255025
0.001453 0.000743 0.001031
0.000412 0.000187 0.000275
0.433784 -0.089532 -0.116525
0.848836 -0.21919 -0.215811
1.069435 -0.258847 -0.260585
1.069414 -0.257694 -0.255019
0.046917 0.383359 0.002546
0.062824 0.381157 -0.020806
0.41856 0.372111 0.18723
0.780703 0.382489 -0.188566
1.066208 -0.131268 -0.277595
1.069413 -0.257689 -0.25488
0.204261 0.714376 0.252103
0.20942 0.714118 0.254626
0.432677 0.706518 0.237962
0.745964 0.699497 0.415954
0.952102 0.715108 0.365986
1.014148 0.563591 -0.183954
0.294576 0.907527 0.532851
0.312378 0.907517 0.532848
0.518154 0.905035 0.520587
0.779927 0.899632 0.534212
0.938147 0.895994 0.632459
0.97196 0.901354 0.565775
0.593837 0.907375 0.76108
0.620693 0.907428 0.762129
0.720737 0.907253 0.766014
0.863808 0.903169 0.79762
0.940321 0.906953 0.82387
0.968148 0.908279 0.78837
0 0 0
0 0 0
0.446694 -0.117304 -0.105633
0.853759 -0.221532 -0.186471
1.069428 -0.25912 -0.246511
1.069414 -0.257691 -0.255028
0 0 0
0 0 0
0.442521 -0.115811 -0.110055
0.851091 -0.220944 -0.174954
1.069421 -0.259072 -0.24332
1.069413 -0.257693 -0.255016
0.044156 0.379006 0.089811
0.058963 0.37687 0.088428
0.415265 0.367921 0.196821
0.786652 0.366697 -0.171573
1.067374 -0.176267 -0.24989
1.069413 -0.25769 -0.254915
0.202168 0.710987 0.312449
0.207176 0.710719 0.314568
0.421311 0.70303 0.294682
0.743413 0.696478 0.441743
0.954213 0.709095 0.381051
1.014232 0.563955 -0.178739
0.293235 0.90754 0.561229
0.310391 0.907528 0.561414
0.516677 0.903626 0.549985
0.777525 0.89831 0.558935
0.936809 0.894415 0.652658
0.97124 0.899624 0.587462
0.593438 0.907374 0.774584
0.620108 0.907427 0.775313
0.720407 0.90726 0.779713
0.866638 0.901504 0.816994
0.937953 0.907179 0.841341
0.968813 0.908407 0.80167
-0.010325 -0.01033 0.219311
0.063266 -0.011765 0.231681
0.445789 -0.125802 0.314996
0.852598 -0.230788 0.399433
1.071267 -0.269381 0.385109
1.069767 -0.259566 -0.17461
-0.011135 0.002019 0.237197
0.061595 -0.012216 0.244441
0.447996 -0.126354 0.322322
0.851665 -0.230927 0.409551
1.071299 -0.269764 0.403755
1.069829 -0.259993 -0.149059
0.030524 0.358158 0.347477
0.04011 0.356861 0.348763
0.385862 0.34683 0.364209
0.813549 0.272691 0.386786
1.070369 -0.227805 0.441274
1.070196 -0.261742 0.138135
0.19537 0.696953 0.498675
0.198903 0.696598 0.500326
0.406497 0.689345 0.493004
0.735841 0.683699 0.555158
0.975026 0.676837 0.486405
1.037233 0.506788 0.251895
0.289579 0.904815 0.668153
0.301917 0.904237 0.668803
0.509169 0.895919 0.660095
0.768733 0.889174 0.661961
0.931761 0.886063 0.730439
0.968286 0.889607 0.693893
0.591408 0.907445 0.828703
0.618447 0.907411 0.829632
0.719024 0.907261 0.833987
0.881784 0.895746 0.874386
0.92881 0.909874 0.896468
0.958931 0.911573 0.874193
0.031199 -0.029094 0.643104
0.033757 -0.029184 0.645018
0.460047 -0.055601 0.673676
0.836621 -0.22123 0.744591
1.067512 -0.279181 0.780828
1.068673 -0.278798 0.753196
0.031239 -0.029198 0.645455
0.037943 -0.029237 0.645777
0.462443 -0.056497 0.673446
0.835709 -0.220795 0.745424
1.067205 -0.278693 0.786005
1.068356 -0.278624 0.761
-0.027878 0.321108 0.675161
-0.025788 0.319722 0.675676
0.397787 0.255259 0.677319
0.810624 0.134516 0.743834
1.065942 -0.269149 0.806746
1.066588 -0.277179 0.79802
0.187351 0.676265 0.730656
0.18865 0.676268 0.731841
0.384003 0.666898 0.731144
0.715117 0.665184 0.710905
1.007025 0.610253 0.767119
1.058236 0.375967 0.789478
0.28485 0.885871 0.828019
0.293256 0.885279 0.828665
0.495125 0.876523 0.824305
0.795136 0.860233 0.835842
0.905098 0.874176 0.869227
0.973054 0.867094 0.840129
0.589889 0.907398 0.901535
0.617068 0.907365 0.902354
0.717931 0.905022 0.902889
0.888269 0.892156 0.895883
0.922085 0.909738 0.913164
0.949581 0.913747 0.915443
0.037511 -0.038106 0.905491
0.037601 -0.038078 0.905491
0.432503 -0.033834 0.905877
0.815473 -0.145544 0.928051
1.053725 -0.255458 0.950829
1.053726 -0.254224 0.950782
0.037448 -0.03819 0.905491
0.0374 -0.038208 0.905491
0.428726 -0.033972 0.905861
0.814422 -0.145002 0.927829
1.053718 -0.255049 0.950813
1.053725 -0.254182 0.95078
-0.023915 0.176415 0.905362
-0.023392 0.174758 0.905367
0.385511 0.118951 0.905667
0.801053 -0.05844 0.925755
1.053716 -0.253603 0.950758
1.053718 -0.253691 0.950762
0.180771 0.652697 0.903922
0.182048 0.652647 0.903922
0.346946 0.639935 0.903991
0.726408 0.61916 0.904605
0.985117 0.574986 0.931869
1.045916 0.308744 0.94478
0.281444 0.861234 0.903202
0.294357 0.860529 0.903202
0.486794 0.851865 0.903141
0.778725 0.840299 0.887482
0.900021 0.858127 0.885318
0.968632 0.843169 0.900368
0.595681 0.904759 0.902923
0.622297 0.903973 0.902896
0.721714 0.901668 0.902905
0.886996 0.889417 0.894076
0.919078 0.90625 0.910333
0.945341 0.910213 0.913432
0.053469 0.009386 0.905488
0.053462 0.009388 0.905488
0.380348 0.020012 0.905765
0.803443 -0.129815 0.926418
1.053695 -0.252262 0.950707
1.05367 -0.25067 0.950764
0.05335 0.009313 0.905488
0.053372 0.009332 0.905488
0.378813 0.019526 0.90576
0.802108 -0.129012 0.926225
1.053701 -0.252658 0.950722
1.05367 -0.25067 0.950764
0.05407 0.264692 0.905172
0.053886 0.263547 0.905177
0.323223 0.205573 0.905436
0.776109 0.17747 0.921534
1.050623 -0.239466 0.950475
1.05367 -0.25067 0.950764
0.189335 0.659066 0.903879
0.190155 0.658987 0.903879
0.357053 0.646666 0.903943
0.725242 0.62889 0.904524
0.976751 0.593377 0.930512
1.042136 0.400432 0.941671
0.283678 0.855024 0.903184
0.305528 0.853913 0.903183
0.506807 0.845106 0.903167
0.786545 0.835014 0.883635
0.899801 0.854487 0.884848
0.9698 0.838784 0.900736
0.616104 0.900648 0.902927
0.641361 0.899815 0.902901
0.737504 0.896526 0.902135
0.888479 0.886249 0.891782
0.91736 0.903087 0.90777
0.943499 0.907236 0.91182
