site/assets/luts/freshluts--0001168-mini-3-pro-d-cinelike-to-rec709.cube
# LUTr-Schema-Version: 2
# LUTr-ID: freshluts--0001168-mini-3-pro-d-cinelike-to-rec709
# LUTr-Title: Mini 3 pro d-cinelike to rec709
# LUTr-Collection: Fresh LUTs
# LUTr-Collection-ID: freshluts-community
# LUTr-Source: https://freshluts.com
# LUTr-Retrieved: 2026-07-27
# LUTr-Source-File: submissions-raw/freshluts/cubes/1168__jem454_d-cinelike_to_rec709_1.DJI_0022.cube
# LUTr-Source-Format: CUBE
# LUTr-Source-SHA256: e2dc26ae90b9366bf9f4562db9bc4435abfd569b28cb97803e30b1088e96f09d
# LUTr-License: CC0-1.0
# LUTr-License-URL: https://freshluts.com/termsandconditions
# LUTr-License-Basis: site-terms
# LUTr-Transform-Class: creative-look
# LUTr-Tags: creative, freshluts, community, cube, rec709, assumed-input
# LUTr-Input-Color-Space: rec709
# LUTr-Input-Gamut: rec709
# LUTr-Input-Transfer: rec709
# LUTr-Output-Color-Space: srgb
# LUTr-Output-Gamut: rec709
# LUTr-Output-Transfer: srgb
# LUTr-Color-Space-Confidence: assumed-display-referred
# LUTr-Domain-Normalized: true
# LUTr-Shaper: none
# LUTr-Original-Grid: 33x33x33
# LUTr-Conversion-Grid: 33x33x33
# LUTr-Conversion-Interpolation: none
# LUTr-Conversion-Method: Metadata normalization; numeric LUT samples preserved
# LUTr-Conversion-Tool: LUTr scripts/convert-all-to-cube.mjs 2.0.0
# LUTr-Conversion-Date: 2026-07-28
# LUTr-Asset-URL: https://freshluts.com/luts/1168
# LUTr-Author: jon
# LUTr-Author-URL: https://freshluts.com/users/124075
# LUTr-Attribution: jon via Fresh LUTs
# LUTr-Source-Labels: gamma=Other; color=None; key=Neutral; style=NEUTRAL; LUTr assumption=input Rec.709 per repository policy
# LUTr-Conversion-Warning: Input Rec.709 is a LUTr catalog assumption requested for this otherwise unspecified Fresh LUT; it is not verified by the upstream asset.
# LUTr-Note: Preserve this metadata and the upstream license notices when redistributing.
TITLE "Mini 3 pro d-cinelike to rec709"
LUT_3D_SIZE 5
DOMAIN_MIN 0 0 0
DOMAIN_MAX 1 1 1
0 0 0
0.239704 0.0599069 0.0599069
0.521553 0.130358 0.130358
0.748623 0.187106 0.187106
0.800046 0.199954 0.199954
0.000610361 0.173846 0.000610361
0.165835 0.165835 0
0.50135 0.159716 0.0311589
0.776776 0.212497 0.138277
0.839673 0.22594 0.160327
0.00158694 0.447517 0.00158694
0.0903487 0.456321 0
0.442939 0.442908 0
0.836255 0.420951 0
0.974365 0.425544 0.0256352
0.00277714 0.782086 0.00277714
0.0218357 0.797726 0.0009308
0.373175 0.788479 0
0.753826 0.753567 0.0247807
0.868009 0.696498 0.131991
0.131029 0.868971 0.131029
0.145815 0.870939 0.129061
0.400809 0.886946 0.113054
0.677623 0.848753 0.151247
0.799725 0.799725 0.200275
0.0630655 0.0630655 0.251789
0.217288 0.0333257 0.217395
0.518563 0.104234 0.229511
0.757076 0.1729 0.246448
0.810285 0.189715 0.246509
0 0.169451 0.169451
0.162631 0.162661 0.162631
0.499779 0.177691 0.177127
0.760464 0.23061 0.230274
0.856214 0.21413 0.213825
0 0.449042 0.0830854
0.0928664 0.458381 0.0928664
0.446067 0.446082 0.0803235
0.84004 0.424521 0.0589914
0.98468 0.427756 0.0737926
0.000946059 0.786877 0.0144045
0.0238041 0.801968 0.023621
0.376959 0.792233 0.0166781
0.754955 0.754696 0.0312505
0.867491 0.698512 0.134554
0.130953 0.869047 0.14258
0.14699 0.871305 0.146868
0.401297 0.888228 0.122576
0.676005 0.849241 0.150759
0.799725 0.799725 0.200275
0.137011 0.137011 0.547097
0.23653 0.0856794 0.539132
0.508064 0.0769818 0.508217
0.777935 0.134508 0.474739
0.845975 0.154025 0.462074
0.0647593 0.201755 0.519295
0.188785 0.188907 0.514275
0.4907 0.133623 0.490883
0.791302 0.186801 0.470069
0.905379 0.16965 0.465614
0 0.441947 0.441962
0.0867475 0.452491 0.452476
0.440528 0.440528 0.440543
0.834791 0.419501 0.419501
1 0.420859 0.420874
0 0.782483 0.367163
0.0206912 0.796933 0.382055
0.371969 0.786709 0.371923
0.742138 0.741634 0.36405
0.936141 0.73109 0.369543
0.140658 0.859342 0.4065
0.153368 0.861448 0.414923
0.389181 0.907607 0.389029
0.693324 0.904189 0.358114
0.840238 0.840238 0.362051
0.195392 0.195392 0.780209
0.2701 0.158465 0.803189
0.494072 0.107408 0.819852
0.778454 0.117586 0.778592
0.867872 0.132128 0.753704
0.147723 0.24715 0.796887
0.237629 0.237659 0.801205
0.480934 0.162142 0.843397
0.797879 0.161593 0.798093
0.929381 0.141375 0.811536
0.0395209 0.437247 0.818906
0.0919661 0.445106 0.845243
0.431464 0.431479 0.846784
0.826078 0.410529 0.826078
1 0.411902 0.82742
0.0299992 0.756115 0.757153
0.0615091 0.759304 0.760266
0.376181 0.751003 0.752499
0.756237 0.756497 0.756252
1 0.755184 0.755413
0.175326 0.824674 0.679072
0.183246 0.82533 0.686549
0.385672 0.881559 0.702129
0.701656 0.954299 0.701488
0.914473 0.91516 0.661799
0.200275 0.200275 0.799725
0.270069 0.168765 0.831235
0.487327 0.119539 0.880461
0.77055 0.119844 0.880156
0.868971 0.131029 0.868971
0.162341 0.252293 0.837659
0.220066 0.220096 0.87808
0.476219 0.139605 0.961074
0.823072 0.128328 0.945296
0.929046 0.140093 0.929046
0.070573 0.439414 0.929427
0.0889143 0.443198 0.984771
0.430274 0.430274 1
0.825086 0.409567 1
0.997909 0.41149 0.997909
0.0890059 0.723354 0.910994
0.106294 0.731701 0.904875
0.364157 0.771176 0.990662
0.754879 0.75465 1
0.999115 0.751842 0.999115
0.199954 0.800046 0.800046
0.20502 0.801312 0.801312
0.390524 0.847669 0.847669
0.677241 0.919341 0.919341
0.98761 0.988296 0.987396
