site/assets/luts/freshluts--0001115-correctlovemood.cube
# LUTr-Schema-Version: 2
# LUTr-ID: freshluts--0001115-correctlovemood
# LUTr-Title: Correct+lovemood
# LUTr-Collection: Fresh LUTs
# LUTr-Collection-ID: freshluts-community
# LUTr-Source: https://freshluts.com
# LUTr-Retrieved: 2026-07-27
# LUTr-Source-File: submissions-raw/freshluts/cubes/1115__love_mood.cube
# LUTr-Source-Format: CUBE
# LUTr-Source-SHA256: e17dc64086f8f10790dfdcada7121ae0a161718d0360deafd5169fb95ef8050e
# LUTr-License: CC0-1.0
# LUTr-License-URL: https://freshluts.com/termsandconditions
# LUTr-License-Basis: site-terms
# LUTr-Transform-Class: creative-look
# LUTr-Tags: creative, freshluts, community, cube, red, sony-s-log3, correction
# LUTr-Input-Color-Space:
# LUTr-Input-Gamut: sony-s-gamut3
# LUTr-Input-Transfer: sony-s-log3
# LUTr-Output-Color-Space: srgb
# LUTr-Output-Gamut: rec709
# LUTr-Output-Transfer: srgb
# LUTr-Color-Space-Confidence: camera-profile-input-required
# LUTr-Domain-Normalized: true
# LUTr-Shaper: none
# LUTr-Original-Grid: 16x16x16
# LUTr-Conversion-Grid: 16x16x16
# LUTr-Conversion-Interpolation: none
# LUTr-Conversion-Method: Metadata normalization; numeric LUT samples preserved
# LUTr-Conversion-Tool: LUTr scripts/convert-all-to-cube.mjs 2.0.0
# LUTr-Conversion-Date: 2026-07-28
# LUTr-Asset-URL: https://freshluts.com/luts/1115
# LUTr-Author: lvannoeun@gmail.com
# LUTr-Author-URL: https://freshluts.com/users/57563
# LUTr-Attribution: lvannoeun@gmail.com via Fresh LUTs
# LUTr-Source-Labels: gamma=Sony S-Log 3; color=Red; key=Neutral; style=sun dwon
# LUTr-Note: Preserve this metadata and the upstream license notices when redistributing.
TITLE "Correct+lovemood"
LUT_3D_SIZE 16
DOMAIN_MIN 0 0 0
DOMAIN_MAX 1 1 1
0 0 0
0 0 0
0 0 0
0 0 0
0.09026 0.018581 0.02232
0.27687 -0.072385 -0.072385
0.442939 -0.116037 -0.116037
0.598495 -0.158153 -0.157767
0.73217 -0.192666 -0.191183
0.852546 -0.220528 -0.218672
0.958149 -0.243117 -0.242731
1.054534 -0.262085 -0.262643
1.069431 -0.258886 -0.261263
1.069404 -0.257598 -0.259056
1.069417 -0.257672 -0.256796
1.069414 -0.257691 -0.255025
0 0 0
0 0 0
0 0 0
0 0 0
0.087607 0.018759 0.022521
0.275189 -0.071948 -0.071948
0.441104 -0.11556 -0.11556
0.59728 -0.157828 -0.157442
0.731608 -0.192515 -0.190928
0.85195 -0.220409 -0.218268
0.957458 -0.242955 -0.242122
1.054283 -0.262063 -0.262519
1.069432 -0.258889 -0.261209
1.069405 -0.257601 -0.259021
1.069417 -0.257672 -0.256798
1.069414 -0.257691 -0.255025
0 0 0
0 0 0
0 0 0
0 0 0
0.083623 0.023273 0.026431
0.267102 -0.069859 -0.069859
0.436802 -0.114401 -0.114401
0.59394 -0.156902 -0.156422
0.729278 -0.191978 -0.190051
0.85057 -0.220107 -0.2169
0.956266 -0.242744 -0.24007
1.053166 -0.261874 -0.261762
1.069434 -0.258939 -0.261064
1.069406 -0.257605 -0.258902
1.069417 -0.257672 -0.256804
1.069414 -0.257691 -0.255022
0.001453 0.000743 0.001031
0.000844 0.000411 0.000584
0 0 0
0.000412 0.000187 0.000275
0.091657 0.044759 0.039201
0.268104 0.040414 -0.075427
0.433784 -0.089532 -0.116525
0.588536 -0.152816 -0.155809
0.725837 -0.189371 -0.189957
0.848836 -0.21919 -0.215811
0.955702 -0.242675 -0.236861
1.052861 -0.261874 -0.258789
1.069435 -0.258847 -0.260585
1.069407 -0.257607 -0.258747
1.069417 -0.257673 -0.256749
1.069414 -0.257694 -0.255019
0.030329 0.103166 0.025202
0.030709 0.102696 0.025531
0.032169 0.100832 0.026814
0.075632 0.097214 0.046121
0.126643 0.099304 0.063637
0.264244 0.13414 -0.038632
0.427599 0.133041 -0.121185
0.578762 0.084127 -0.163223
0.716247 -0.127532 -0.19723
0.84208 -0.202172 -0.221954
0.954026 -0.237131 -0.238544
1.053724 -0.26203 -0.254322
1.069444 -0.258746 -0.257305
1.06941 -0.257624 -0.258427
1.069417 -0.257674 -0.256712
1.069414 -0.257687 -0.25498
-0.022979 0.243846 -0.022979
-0.02297 0.243717 -0.02297
-0.022843 0.242475 -0.022861
0.040237 0.240329 -0.022489
0.159971 0.237508 -0.016554
0.275797 0.235486 0.115181
0.408028 0.259212 0.086788
0.555119 0.261719 -0.139604
0.692332 0.239587 -0.197559
0.819975 0.181174 -0.231672
0.937193 -0.102823 -0.253149
1.043108 -0.234471 -0.264473
1.069441 -0.255251 -0.255879
1.069413 -0.257601 -0.255789
1.069417 -0.257675 -0.256608
1.069414 -0.257691 -0.254966
0.046917 0.383359 0.002546
0.047118 0.383164 0.001641
0.04788 0.382481 0.006743
0.062824 0.381157 -0.020806
0.152819 0.378373 -0.031472
0.297867 0.375058 0.011399
0.41856 0.372111 0.18723
0.527024 0.389492 0.19268
0.654385 0.396146 0.053785
0.780703 0.382489 -0.188566
0.899138 0.343284 -0.244424
1.009576 0.261898 -0.276932
1.066208 -0.131268 -0.277595
1.068704 -0.237864 -0.268007
1.069396 -0.256802 -0.256584
1.069413 -0.257689 -0.25488
0.107445 0.507117 0.077826
0.107458 0.507025 0.078169
0.107555 0.506781 0.079803
0.115004 0.506151 0.079714
0.157646 0.504253 0.065444
0.294009 0.500393 0.06447
0.439898 0.496216 0.12959
0.543378 0.494469 0.261136
0.633804 0.50777 0.284391
0.741613 0.515277 0.216698
0.85202 0.508514 0.034878
0.959574 0.483483 -0.214158
1.039893 0.431847 -0.273163
1.057351 0.274349 -0.288535
1.066912 -0.171022 -0.279634
1.069413 -0.25769 -0.254921
0.160241 0.61767 0.160343
0.160212 0.61762 0.160655
0.160248 0.617569 0.162026
0.164694 0.617154 0.163368
0.191528 0.61597 0.159028
0.288013 0.612613 0.142286
0.438229 0.608785 0.151286
0.561377 0.604362 0.238678
0.651743 0.603438 0.337887
0.72925 0.61352 0.366306
0.818992 0.621508 0.324012
0.914332 0.61915 0.244613
0.988522 0.603088 0.105268
1.015955 0.556604 -0.189048
1.03793 0.443534 -0.271609
1.064589 0.090869 -0.282604
0.204261 0.714376 0.252103
0.20427 0.714336 0.252313
0.204279 0.714322 0.253459
0.20942 0.714118 0.254626
0.229768 0.71289 0.253689
0.299307 0.710453 0.2432
0.432677 0.706518 0.237962
0.561623 0.703472 0.249732
0.666832 0.698979 0.341889
0.745964 0.699497 0.415954
0.813805 0.707101 0.441668
0.887818 0.714574 0.41491
0.952102 0.715108 0.365986
0.978488 0.705117 0.31974
0.988708 0.673654 0.250531
1.014148 0.563591 -0.183954
0.240753 0.7976 0.348582
0.240785 0.797632 0.348806
0.24083 0.797609 0.349667
0.247138 0.797528 0.35049
0.264926 0.796668 0.350487
0.321675 0.794508 0.345105
0.435491 0.790601 0.332694
0.564202 0.787783 0.338265
0.670258 0.785359 0.360838
0.76005 0.782108 0.438666
0.829113 0.783392 0.494743
0.885144 0.789275 0.513669
0.932374 0.795467 0.499445
0.960088 0.797186 0.471657
0.964945 0.791391 0.448177
0.968005 0.76668 0.407235
0.271179 0.868993 0.443549
0.271146 0.868917 0.443676
0.272684 0.869066 0.444197
0.279728 0.868727 0.44469
0.299576 0.867765 0.444068
0.355979 0.865469 0.439314
0.466735 0.861378 0.429294
0.575521 0.858694 0.426952
0.67547 0.856937 0.43382
0.767033 0.854206 0.470216
0.842858 0.851486 0.530112
0.895861 0.852544 0.567823
0.932961 0.855949 0.576155
0.957286 0.860245 0.5646
0.965946 0.862309 0.540154
0.966055 0.858134 0.514025
0.294576 0.907527 0.532851
0.295556 0.907527 0.532946
0.301152 0.907524 0.532955
0.312378 0.907517 0.532848
0.344883 0.907493 0.531206
0.422454 0.907419 0.5261
0.518154 0.905035 0.520587
0.607389 0.902673 0.5177
0.695853 0.901111 0.521466
0.779927 0.899632 0.534212
0.854123 0.895727 0.583144
0.904314 0.894669 0.616443
0.938147 0.895994 0.632459
0.961392 0.898413 0.630974
0.970053 0.900117 0.60801
0.97196 0.901354 0.565775
0.34359 0.907522 0.61063
0.34748 0.907519 0.610402
0.36359 0.907508 0.60947
0.39519 0.907483 0.607818
0.444425 0.907436 0.605501
0.511231 0.907496 0.602896
0.580398 0.907413 0.602265
0.653303 0.907234 0.603177
0.726969 0.907153 0.606017
0.799465 0.90672 0.613903
0.863439 0.904153 0.648704
0.906433 0.903872 0.674258
0.936571 0.904809 0.689236
0.956759 0.905962 0.688975
0.966292 0.906462 0.675267
0.966862 0.90589 0.633219
0.467021 0.907433 0.684146
0.470292 0.90743 0.684126
0.484052 0.907416 0.683793
0.511204 0.907387 0.683274
0.548745 0.907427 0.682729
0.596238 0.907446 0.683228
0.649349 0.907347 0.684478
0.707573 0.907197 0.686691
0.76878 0.907136 0.689819
0.8273 0.906735 0.695857
0.877985 0.904693 0.721258
0.913904 0.904645 0.741172
0.938146 0.90574 0.751131
0.95606 0.906822 0.751445
0.965217 0.907299 0.740564
0.967066 0.906953 0.713497
0.593837 0.907375 0.76108
0.595855 0.907373 0.761266
0.604135 0.907362 0.761437
0.620693 0.907428 0.762129
0.645954 0.90739 0.762882
0.680055 0.907333 0.76418
0.720737 0.907253 0.766014
0.767255 0.906951 0.769441
0.819164 0.904317 0.782378
0.863808 0.903169 0.79762
0.897047 0.903141 0.815758
0.920726 0.90499 0.823972
0.940321 0.906953 0.82387
0.955496 0.908026 0.816795
0.965819 0.908397 0.804952
0.968148 0.908279 0.78837
0 0 0
0 0 0
0 0 0
0 0 0
0.090357 0.018574 0.02231
0.276331 -0.072241 -0.072241
0.443756 -0.116263 -0.116263
0.598532 -0.158162 -0.157444
0.732775 -0.19279 -0.190555
0.852652 -0.220569 -0.21742
0.957917 -0.243062 -0.241027
1.054497 -0.262103 -0.262032
1.069435 -0.258895 -0.260878
1.069405 -0.257603 -0.258929
1.069417 -0.257672 -0.256796
1.069414 -0.25769 -0.255028
0 0 0
0 0 0
0 0 0
0 0 0
0.08751 0.018764 0.022529
0.274476 -0.071761 -0.071761
0.442112 -0.115814 -0.115814
0.597449 -0.157876 -0.1571
0.731751 -0.192603 -0.190248
0.852292 -0.220503 -0.217068
0.95774 -0.243065 -0.24055
1.054228 -0.26207 -0.261886
1.069435 -0.258896 -0.260847
1.069406 -0.257606 -0.258902
1.069417 -0.257672 -0.256803
1.069414 -0.257691 -0.255026
0 0 0
0 0 0
0 0 0
0 0 0
0.081778 0.022546 0.025944
0.268416 -0.070205 -0.070205
0.438369 -0.114823 -0.114823
0.594628 -0.157096 -0.156174
0.72986 -0.19212 -0.18933
0.850753 -0.22016 -0.215732
0.956298 -0.242746 -0.238513
1.053168 -0.261894 -0.261138
1.069437 -0.258951 -0.260728
1.069407 -0.257608 -0.258851
1.069417 -0.257673 -0.256778
1.069414 -0.257691 -0.255023
0.000886 0.000432 0.000614
0.000402 0.000182 0.000268
0 0 0
0 0 0
0.091753 0.044047 0.038703
0.268952 0.036953 -0.075459
0.434852 -0.095936 -0.116186
0.589291 -0.1531 -0.156008
0.726365 -0.189604 -0.188924
0.849095 -0.219275 -0.214438
0.955912 -0.242704 -0.235446
1.0529 -0.261895 -0.257261
1.069438 -0.258875 -0.26032
1.069408 -0.257611 -0.258648
1.069417 -0.257674 -0.256729
1.069413 -0.257693 -0.25502
0.030743 0.102637 0.025564
0.031129 0.102174 0.0259
0.032548 0.100311 0.027147
0.073955 0.096534 0.046018
0.125911 0.098639 0.063591
0.264734 0.132766 -0.042313
0.428339 0.130186 -0.121544
0.579339 0.078264 -0.163139
0.71679 -0.131796 -0.196988
0.842663 -0.2027 -0.22058
0.954311 -0.23736 -0.236329
1.053718 -0.262041 -0.252916
1.069442 -0.258771 -0.256113
1.069411 -0.257626 -0.258388
1.069417 -0.257674 -0.256706
1.069414 -0.257687 -0.254982
-0.022962 0.243644 -0.022962
-0.022936 0.243302 -0.022936
-0.022815 0.242118 -0.022833
0.022825 0.239878 -0.022569
0.15775 0.237161 -0.016815
0.275473 0.235147 0.115049
0.408154 0.258541 0.085439
0.555544 0.260368 -0.140435
0.6929 0.237905 -0.197469
0.820409 0.177768 -0.230885
0.937459 -0.108969 -0.252152
1.043156 -0.234773 -0.262265
1.069457 -0.255251 -0.254938
1.069412 -0.257609 -0.255233
1.069417 -0.257676 -0.256599
1.069414 -0.257691 -0.254967
0.046723 0.383085 0.016252
0.046919 0.382895 0.016477
0.047655 0.382139 0.017724
0.062516 0.380876 0.007957
0.150037 0.378088 -0.030455
0.297174 0.374809 0.013685
0.418492 0.371967 0.187463
0.527007 0.389027 0.192467
0.654456 0.395385 0.053251
0.781082 0.381731 -0.188307
0.899426 0.342047 -0.243535
1.009835 0.260423 -0.276212
1.066325 -0.135569 -0.276362
1.068699 -0.237639 -0.267818
1.069396 -0.256797 -0.256511
1.069413 -0.257689 -0.254882
0.10724 0.506752 0.083592
0.107178 0.506701 0.083983
0.107362 0.506511 0.085368
0.114802 0.505953 0.08523
0.157394 0.504001 0.071217
0.292957 0.500104 0.067912
0.439526 0.495956 0.130729
0.543178 0.494127 0.262218
0.633621 0.50737 0.284932
0.741701 0.514876 0.2171
0.852257 0.507823 0.041147
0.959961 0.482722 -0.213291
1.040135 0.430665 -0.272074
1.057284 0.275106 -0.288056
1.066954 -0.172601 -0.279129
1.069413 -0.25769 -0.254922
0.1601 0.617313 0.165585
0.160092 0.61726 0.165881
0.160086 0.617216 0.167212
0.16454 0.617096 0.16835
0.191366 0.615852 0.163957
0.286746 0.61228 0.146199
0.437676 0.608569 0.154656
0.561056 0.60415 0.24085
0.651612 0.603269 0.33948
0.729237 0.613345 0.367296
0.819039 0.621086 0.324978
0.914767 0.618667 0.245686
0.988572 0.602708 0.106779
1.016108 0.556163 -0.188232
1.037711 0.444755 -0.271144
1.064541 0.093903 -0.282647
0.204079 0.714199 0.256709
0.20406 0.714157 0.256938
0.204118 0.714173 0.257947
0.209216 0.713769 0.25908
0.229533 0.712708 0.258199
0.298973 0.710185 0.247769
0.431901 0.706101 0.241978
0.561132 0.703385 0.253599
0.666747 0.698814 0.34427
0.745858 0.699644 0.417629
0.813687 0.706673 0.443077
0.887877 0.714344 0.416129
0.952486 0.714734 0.366298
0.978511 0.704762 0.320649
0.988719 0.673647 0.250891
1.014165 0.563581 -0.183614
0.240637 0.797504 0.352253
0.240649 0.797482 0.352487
0.240729 0.797342 0.353415
0.246979 0.79727 0.354281
0.264738 0.796427 0.354327
0.321492 0.794223 0.348787
0.435231 0.790323 0.336556
0.563804 0.787625 0.341642
0.670095 0.785286 0.363377
0.759804 0.781902 0.440654
0.828817 0.783161 0.49649
0.885059 0.788997 0.515224
0.932316 0.795148 0.500612
0.960026 0.796684 0.472526
0.964986 0.791054 0.448445
0.967985 0.76714 0.408106
0.271097 0.868928 0.446174
0.271083 0.868906 0.446362
0.272677 0.868861 0.446865
0.279636 0.868569 0.44734
0.299431 0.8676 0.446822
0.355906 0.865177 0.442168
0.466642 0.861188 0.432031
0.575106 0.858446 0.429574
0.675356 0.856746 0.436439
0.766709 0.853934 0.472211
0.842871 0.851545 0.531836
0.89591 0.852274 0.569495
0.932753 0.855841 0.577775
0.957193 0.860264 0.566139
0.965797 0.862008 0.541562
0.965981 0.858176 0.514322
0.29446 0.907528 0.534928
0.295389 0.907528 0.534996
0.301052 0.907524 0.534865
0.312146 0.907517 0.534906
0.344806 0.907494 0.533381
0.422474 0.90742 0.528255
0.518057 0.904884 0.522721
0.607315 0.902534 0.519896
0.695624 0.901008 0.523583
0.779745 0.899523 0.535978
0.853948 0.895556 0.584685
0.904236 0.894465 0.617963
0.938144 0.896104 0.633908
0.961286 0.898407 0.632576
0.969855 0.900052 0.609663
0.971951 0.901101 0.567168
0.34363 0.907522 0.612178
0.347525 0.907519 0.611952
0.363565 0.907508 0.61102
0.395151 0.907483 0.609375
0.444325 0.907437 0.606998
0.511171 0.907496 0.604604
0.580185 0.907415 0.603894
0.653253 0.907237 0.604779
0.726957 0.907156 0.607606
0.799227 0.906736 0.615322
0.863362 0.904105 0.649954
0.906436 0.903845 0.67553
0.936571 0.904831 0.690459
0.956684 0.905997 0.690278
0.966305 0.906438 0.676647
0.966859 0.905932 0.635051
0.466962 0.907434 0.685498
0.470239 0.90743 0.68541
0.484044 0.907417 0.685017
0.511177 0.907387 0.6845
0.548684 0.907427 0.684018
0.596059 0.907447 0.684475
0.649317 0.907349 0.685625
0.707542 0.907199 0.687982
0.768818 0.907138 0.691038
0.827259 0.906769 0.697138
0.877954 0.904723 0.722029
0.913651 0.90466 0.742004
0.938017 0.905755 0.752109
0.955999 0.906851 0.752529
0.965165 0.907331 0.741812
0.967064 0.90699 0.714992
0.59381 0.907375 0.762201
0.595749 0.907373 0.762268
0.604101 0.907362 0.762375
0.620733 0.907428 0.762922
0.646017 0.90739 0.76398
0.680139 0.907333 0.765185
0.72065 0.907254 0.767137
0.767245 0.906881 0.770535
0.819566 0.904221 0.783546
0.864005 0.903069 0.798941
0.897028 0.903077 0.816988
0.920728 0.905096 0.825299
0.94019 0.906983 0.824998
0.955356 0.90806 0.817832
0.965706 0.908429 0.805938
0.968332 0.908327 0.789365
0 0 0
0 0 0
0 0 0
0 0 0
0.092149 0.018438 0.022154
0.277129 -0.072452 -0.072452
0.44595 -0.116854 -0.116642
0.599118 -0.158378 -0.154425
0.733585 -0.19309 -0.184893
0.853188 -0.220736 -0.211576
0.958382 -0.243292 -0.233748
1.054562 -0.262212 -0.256389
1.069449 -0.258964 -0.259298
1.069409 -0.257613 -0.25849
1.069417 -0.257674 -0.256688
1.069414 -0.25769 -0.25503
0 0 0
0 0 0
0 0 0
0 0 0
0.088453 0.018703 0.022459
0.27598 -0.072152 -0.072152
0.444818 -0.116549 -0.116323
0.598373 -0.158168 -0.154177
0.732837 -0.192926 -0.184383
0.852896 -0.220704 -0.211074
0.957859 -0.243171 -0.233275
1.054103 -0.26212 -0.255849
1.069448 -0.258958 -0.259318
1.06941 -0.257616 -0.25848
1.069417 -0.257674 -0.256678
1.069414 -0.25769 -0.255032
0 0 0
0 0 0
0 0 0
0 0 0
0.085835 0.018852 0.022628
0.272718 -0.071304 -0.071304
0.441425 -0.115638 -0.115521
0.596587 -0.157682 -0.1534
0.731106 -0.192532 -0.182838
0.851422 -0.220419 -0.208532
0.957221 -0.243054 -0.231773
1.053589 -0.26207 -0.25395
1.069453 -0.258978 -0.258809
1.06941 -0.257624 -0.25845
1.069417 -0.257675 -0.256659
1.069414 -0.25769 -0.255028
0 0 0
0 0 0
0 0 0
0 0 0
0.091958 0.039484 0.035777
0.272899 -0.03685 -0.074492
0.438517 -0.114068 -0.114977
0.59136 -0.154094 -0.155294
0.72833 -0.190425 -0.183236
0.849791 -0.21972 -0.204959
0.956891 -0.243035 -0.228187
1.053246 -0.262052 -0.250623
1.069445 -0.258957 -0.255535
1.069411 -0.257623 -0.258371
1.069417 -0.257675 -0.256672
1.069414 -0.257693 -0.255021
0.032939 0.099774 0.027491
0.033267 0.099327 0.027778
0.034502 0.097526 0.028865
0.062884 0.093914 0.044058
0.12311 0.096089 0.063392
0.267256 0.125078 -0.055962
0.431622 0.115261 -0.122816
0.581776 0.047971 -0.162591
0.718906 -0.152038 -0.194389
0.844031 -0.204485 -0.213392
0.955074 -0.237979 -0.225664
1.054219 -0.262303 -0.245709
1.069432 -0.258838 -0.251116
1.069416 -0.257695 -0.256042
1.069417 -0.257674 -0.256677
1.069414 -0.257694 -0.254984
-0.02282 0.241817 -0.019459
-0.022801 0.241559 -0.019361
-0.0227 0.240495 -0.020767
0.01924 0.23811 -0.022436
0.148918 0.235756 -0.017705
0.274015 0.233608 0.114408
0.408775 0.254748 0.077349
0.557417 0.254924 -0.14302
0.695003 0.229975 -0.196214
0.822438 0.163858 -0.226829
0.938796 -0.132704 -0.247076
1.043864 -0.236099 -0.252423
1.069343 -0.255416 -0.247826
1.069408 -0.25765 -0.252862
1.069415 -0.257685 -0.255766
1.069414 -0.257691 -0.254972
0.045978 0.381783 0.042843
0.046155 0.381607 0.042895
0.046747 0.380949 0.043342
0.061502 0.379649 0.037873
0.138077 0.37696 -0.015901
0.293637 0.373644 0.025263
0.417345 0.370557 0.189085
0.527113 0.387019 0.192132
0.655405 0.392525 0.053329
0.783045 0.376645 -0.184909
0.900862 0.336524 -0.239263
1.011415 0.250794 -0.270391
1.066662 -0.151292 -0.270785
1.068771 -0.238303 -0.261393
1.069395 -0.256788 -0.256069
1.069413 -0.25769 -0.254891
0.106495 0.505602 0.106279
0.10653 0.5056 0.106491
0.106544 0.505299 0.107438
0.113963 0.504748 0.106673
0.156399 0.503014 0.093776
0.288178 0.499044 0.083335
0.436755 0.494792 0.138534
0.542177 0.492869 0.267178
0.633477 0.506076 0.287585
0.74237 0.512608 0.219628
0.853554 0.504655 0.062343
0.961308 0.479567 -0.209611
1.041263 0.425409 -0.267088
1.057211 0.277199 -0.285956
1.067101 -0.17777 -0.277111
1.069413 -0.25769 -0.254937
0.159393 0.616415 0.186448
0.159387 0.616401 0.186667
0.159327 0.616239 0.187737
0.163823 0.615948 0.188409
0.190596 0.614735 0.18387
0.280699 0.611294 0.164132
0.434502 0.607304 0.174461
0.559034 0.603004 0.250118
0.650953 0.602295 0.346223
0.728853 0.61226 0.371724
0.81971 0.619162 0.329254
0.915796 0.616434 0.250087
0.989468 0.599855 0.118455
1.016702 0.554598 -0.184133
1.03747 0.446698 -0.269323
1.064309 0.107233 -0.28278
0.20342 0.712996 0.275489
0.20347 0.712903 0.275772
0.203547 0.713011 0.276758
0.208568 0.712819 0.27761
0.228918 0.711946 0.276659
0.298093 0.709077 0.267788
0.428294 0.704932 0.260034
0.559242 0.70242 0.270366
0.665567 0.697827 0.353747
0.745236 0.698462 0.425402
0.813395 0.705799 0.449363
0.888166 0.712767 0.420986
0.952732 0.713209 0.369494
0.979186 0.702695 0.323034
0.98871 0.673636 0.252264
1.014279 0.56331 -0.182534
0.240119 0.796755 0.367532
0.240127 0.796757 0.367725
0.240113 0.796697 0.368558
0.246366 0.796456 0.369373
0.264027 0.795745 0.36936
0.320556 0.79348 0.364395
0.434133 0.789625 0.352882
0.562023 0.786876 0.355487
0.668566 0.784481 0.374577
0.758936 0.781262 0.448944
0.828479 0.782359 0.503851
0.88486 0.788207 0.52179
0.932303 0.794048 0.5059
0.960257 0.79532 0.477379
0.96528 0.790315 0.449699
0.967948 0.768598 0.410783
0.270701 0.868007 0.457424
0.270663 0.867965 0.457529
0.27228 0.867764 0.458125
0.279168 0.867786 0.458717
0.299028 0.867012 0.45845
0.355084 0.864665 0.453923
0.466009 0.860479 0.44427
0.573495 0.85781 0.440779
0.674159 0.856095 0.447514
0.766052 0.8534 0.48049
0.842157 0.850599 0.539124
0.895318 0.851585 0.576157
0.932462 0.855136 0.584463
0.956985 0.858956 0.572471
0.96534 0.860808 0.547526
0.965951 0.858374 0.515561
0.294038 0.907533 0.543706
0.295081 0.907533 0.543724
0.300669 0.907528 0.543881
0.311563 0.907521 0.543869
0.344415 0.907498 0.542498
0.421796 0.907415 0.537472
0.517471 0.904578 0.532006
0.606883 0.902285 0.52917
0.694764 0.900625 0.532241
0.779034 0.899169 0.543649
0.85353 0.895166 0.591056
0.903862 0.894242 0.62407
0.937829 0.895608 0.640206
0.960808 0.897838 0.638955
0.969801 0.899458 0.616748
0.971513 0.90048 0.573581
0.343654 0.907523 0.618865
0.347484 0.907521 0.6186
0.363514 0.90751 0.617933
0.394813 0.907485 0.616209
0.443816 0.90744 0.614006
0.510907 0.907495 0.611465
0.579906 0.907423 0.610941
0.65289 0.907247 0.611731
0.726303 0.907167 0.614459
0.798666 0.906784 0.62169
0.863427 0.904206 0.655521
0.906262 0.903886 0.680745
0.936544 0.90489 0.695787
0.956817 0.906007 0.696202
0.966149 0.906436 0.682578
0.96687 0.906038 0.643228
0.466745 0.907434 0.690904
0.469859 0.907431 0.690688
0.483647 0.907418 0.690441
0.511046 0.907388 0.689854
0.548374 0.907429 0.689622
0.595977 0.90736 0.689598
0.649054 0.907354 0.690944
0.707511 0.907207 0.693256
0.768575 0.907148 0.696362
0.826908 0.906905 0.702367
0.877747 0.904787 0.726362
0.913569 0.90475 0.746239
0.938066 0.905741 0.75647
0.956005 0.906986 0.757105
0.965081 0.907376 0.746872
0.967069 0.907133 0.721212
0.593649 0.907375 0.766171
0.595664 0.907372 0.766354
0.603993 0.907361 0.766609
0.620579 0.907428 0.767216
0.645867 0.90739 0.767891
0.680139 0.907334 0.769199
0.720643 0.907256 0.771076
0.767713 0.906691 0.775066
0.820676 0.903737 0.789286
0.864972 0.902528 0.805413
0.89726 0.902766 0.822762
0.920364 0.904992 0.831057
0.939478 0.907003 0.830208
0.954854 0.908199 0.822802
0.965529 0.908443 0.810171
0.968379 0.908385 0.79354
0 0 0
0 0 0
0 0 0
0 0 0
0.095856 0.018086 0.021753
0.278167 -0.072727 -0.071896
0.446694 -0.117304 -0.105633
0.60001 -0.15909 -0.135899
0.733857 -0.193757 -0.161264
0.853759 -0.221532 -0.186471
0.95875 -0.243965 -0.209931
1.05486 -0.262635 -0.239693
1.069428 -0.25912 -0.246511
1.069414 -0.257687 -0.255161
1.069417 -0.257678 -0.256443
1.069414 -0.257691 -0.255028
0 0 0
0 0 0
0 0 0
0 0 0
0.091554 0.018483 0.022207
0.277349 -0.072516 -0.071624
0.446108 -0.117157 -0.105181
0.599374 -0.158938 -0.135333
0.733351 -0.193697 -0.160464
0.853279 -0.221424 -0.185787
0.958765 -0.243987 -0.209218
1.05449 -0.26256 -0.238684
1.069428 -0.259138 -0.246154
1.069413 -0.257694 -0.254877
1.069417 -0.257678 -0.256448
1.069414 -0.257691 -0.255027
0 0 0
0 0 0
0 0 0
0 0 0
0.088266 0.018716 0.022475
0.276166 -0.072212 -0.071214
0.444603 -0.116764 -0.104368
0.597767 -0.158546 -0.132685
0.732395 -0.193499 -0.157543
0.852275 -0.221288 -0.182093
0.957899 -0.243856 -0.20604
1.053893 -0.262546 -0.234965
1.069425 -0.25913 -0.245003
1.069411 -0.257706 -0.253769
1.069417 -0.257677 -0.256494
1.069414 -0.257691 -0.255021
0 0 0
0 0 0
0 0 0
0 0 0
0.098858 0.01774 0.021355
0.277753 -0.072602 -0.072602
0.442521 -0.115811 -0.110055
0.594556 -0.156068 -0.136668
0.730851 -0.192279 -0.155239
0.851091 -0.220944 -0.174954
0.957977 -0.244056 -0.200197
1.053852 -0.262752 -0.227547
1.069421 -0.259072 -0.24332
1.069408 -0.257764 -0.251925
1.069416 -0.25768 -0.256014
1.069413 -0.257693 -0.255016
0.036768 0.093929 0.030865
0.037015 0.093509 0.031086
0.038038 0.091685 0.03199
0.040955 0.089257 0.034528
0.116976 0.090087 0.062914
0.273471 0.103061 -0.072853
0.437871 0.072589 -0.123128
0.586878 -0.104431 -0.157392
0.72179 -0.162188 -0.175154
0.846344 -0.208077 -0.182415
0.956343 -0.239689 -0.194173
1.055445 -0.263344 -0.216832
1.069467 -0.259233 -0.232864
1.069404 -0.257785 -0.249965
1.069413 -0.257693 -0.254848
1.069413 -0.257691 -0.254992
-0.022861 0.238372 0.040779
-0.02284 0.238082 0.040729
-0.022733 0.236983 0.0397
0.015195 0.23463 0.030485
0.123768 0.232038 -0.014711
0.271008 0.229984 0.114386
0.411168 0.246234 0.062669
0.561775 0.240962 -0.142008
0.699387 0.21031 -0.187396
0.825935 0.128003 -0.211816
0.941388 -0.16564 -0.224026
1.045041 -0.238752 -0.2226
