site/assets/luts/freshluts--0000504-dark-green.cube
# LUTr-Schema-Version: 2
# LUTr-ID: freshluts--0000504-dark-green
# LUTr-Title: dark green
# LUTr-Collection: Fresh LUTs
# LUTr-Collection-ID: freshluts-community
# LUTr-Source: https://freshluts.com
# LUTr-Retrieved: 2026-07-27
# LUTr-Source-File: submissions-raw/freshluts/cubes/504__dark_green_33pt_7.A008_04210712_C007.cube
# LUTr-Source-Format: CUBE
# LUTr-Source-SHA256: b9047ca899bae1d4efae35d65c9a4cb2995699a18d7f37aecd6d8566b141982a
# LUTr-License: CC0-1.0
# LUTr-License-URL: https://freshluts.com/termsandconditions
# LUTr-License-Basis: site-terms
# LUTr-Transform-Class: creative-look
# LUTr-Tags: creative, freshluts, community, cube, green, bmd-film-4k
# LUTr-Input-Color-Space: bmd-film-4k
# LUTr-Input-Gamut: bmd-film-gamut
# LUTr-Input-Transfer: bmd-film-4k
# LUTr-Output-Color-Space: srgb
# LUTr-Output-Gamut: rec709
# LUTr-Output-Transfer: srgb
# LUTr-Color-Space-Confidence: inferred-from-source-label
# LUTr-Domain-Normalized: true
# LUTr-Shaper: none
# LUTr-Original-Grid: 33x33x33
# LUTr-Conversion-Grid: 33x33x33
# LUTr-Conversion-Interpolation: none
# LUTr-Conversion-Method: Metadata normalization; numeric LUT samples preserved
# LUTr-Conversion-Tool: LUTr scripts/convert-all-to-cube.mjs 2.0.0
# LUTr-Conversion-Date: 2026-07-28
# LUTr-Asset-URL: https://freshluts.com/luts/504
# LUTr-Author: sswyft
# LUTr-Author-URL: https://freshluts.com/users/10877
# LUTr-Attribution: sswyft via Fresh LUTs
# LUTr-Source-Labels: gamma=Blackmagic BMD Film 4K; color=Green; key=Neutral; style=Cinematic/Dark
# LUTr-Note: Preserve this metadata and the upstream license notices when redistributing.
TITLE "dark green"
LUT_3D_SIZE 33
DOMAIN_MIN 0 0 0
DOMAIN_MAX 1 1 1
0 0 0
0.0336309 0 0
0.0430915 0 0
0.0524758 0 0
0.0624094 0 0
0.0731975 0.000015259 0
0.0851606 0.00125124 0
0.0985733 0.00225834 0
0.112718 0.00277714 0
0.128084 0.00318914 0
0.144213 0.0031281 0
0.161196 0.00302129 0
0.178531 0.00271611 0
0.196002 0.00239567 0
0.213535 0.00238041 0
0.231006 0.00225834 0
0.248936 0.00231937 0
0.266682 0.00227359 0
0.284382 0.00230411 0
0.302052 0.00274662 0
0.319265 0.00329595 0
0.335958 0.00437934 0
0.352224 0.0059968 0
0.367666 0.00782788 0
0.382528 0.00996414 0
0.396933 0.0126802 0
0.410742 0.0155337 0
0.424323 0.0187686 0.00241093
0.438041 0.0225834 0.00622568
0.451469 0.0263981 0.0100557
0.464988 0.0303655 0.014023
0.47863 0.0344549 0.0181277
0.492515 0.0389868 0.0226596
0 0.0153353 0
0.00184634 0.0168612 0.00273136
0.0502327 0.00848402 0
0.0595102 0.0104372 0
0.069337 0.0124361 0
0.0800183 0.0139162 0
0.0920119 0.0151675 0
0.105226 0.0159915 0
0.119356 0.016495 0
0.134768 0.0169375 0
0.151003 0.0169833 0
0.168215 0.0170901 0
0.185733 0.0169833 0
0.203449 0.0168917 0
0.22121 0.0171054 0
0.238895 0.0171817 0
0.256916 0.0173495 0
0.275319 0.0179599 0
0.293645 0.018616 0
0.312047 0.0197757 0
0.329946 0.0210117 0
0.347112 0.0225681 0
0.363745 0.0245212 0.00108339
0.379919 0.0270695 0.00364691
0.395453 0.0298772 0.00645457
0.410376 0.0331426 0.00972
0.425177 0.0369573 0.0135653
0.439368 0.0408026 0.0174105
0.453346 0.0448615 0.0214847
0.467247 0.049134 0.0257572
0.481376 0.0536965 0.0303349
0.495598 0.0583658 0.0350042
0.509697 0.0630961 0.039765
0 0.0327153 0
0 0.0344854 0
0.00607309 0.0361486 0
0.0661479 0.0242313 0
0.0759594 0.0261692 0
0.0866407 0.0276493 0
0.0986191 0.0288853 0
0.112047 0.0299229 0
0.126375 0.0306249 0
0.142016 0.0312963 0.000686656
0.158495 0.0315862 0.000976577
0.175784 0.0317845 0.00115969
0.193683 0.0320287 0.00141909
0.211734 0.0322881 0.00167849
0.23003 0.0330358 0.00242618
0.248371 0.0337835 0.00318914
0.267124 0.0346685 0.00407416
0.286168 0.0359045 0.0053254
0.305013 0.0370642 0.00648508
0.32369 0.0384833 0.00791943
0.342382 0.040528 0.00996414
0.360265 0.0427863 0.012253
0.377615 0.0454719 0.0149386
0.394293 0.0485084 0.0179904
0.410605 0.0520943 0.0215763
0.426078 0.0558785 0.0253758
0.441077 0.0598917 0.0294194
0.455741 0.0641947 0.0337224
0.470176 0.0687266 0.0382696
0.484611 0.0735332 0.0430762
0.49926 0.0785992 0.0481575
0.513863 0.0836347 0.0532082
0.52845 0.0888533 0.0584421
0 0.0469825 0.00117494
0.00131228 0.0486305 0.00314336
0.0115206 0.0504005 0.00520333
0.0215457 0.0521248 0.00714122
0.0730297 0.0428626 0.00668345
0.0937209 0.0418708 0.00415045
0.106004 0.0434119 0.0056611
0.1196 0.0446021 0.0068513
0.134142 0.0455177 0.00776684
0.150057 0.0464637 0.0087129
0.166934 0.0471504 0.00939956
0.184741 0.0478676 0.0101167
0.203433 0.0489052 0.0111696
0.222171 0.0498512 0.0121157
0.240818 0.0509499 0.0132143
0.259892 0.0524147 0.0146944
0.279133 0.0537881 0.0160678
0.298589 0.0554208 0.0177157
0.318425 0.0575875 0.0198825
0.33785 0.0597696 0.0220798
0.35697 0.0621958 0.0245212
0.375372 0.0649882 0.0273289
0.393439 0.0683757 0.0307317
0.41059 0.0718853 0.0342412
0.427176 0.0757153 0.0380865
0.443046 0.0799115 0.042298
0.458518 0.0843977 0.0468147
0.473655 0.0891737 0.0515908
0.48867 0.094255 0.0566873
0.50367 0.0996109 0.0620737
0.518654 0.105028 0.0674907
0.533761 0.110552 0.0730297
0.548852 0.116274 0.0787671
0 0.0615549 0.00631724
0.00665293 0.0634775 0.00848402
0.0170443 0.0653849 0.0106355
0.0274052 0.0673228 0.0127871
0.0384375 0.069398 0.0149996
0.0844739 0.0615702 0.0171359
0.113634 0.0587167 0.0132906
0.127825 0.0605173 0.0150759
0.143008 0.0620737 0.0166323
0.159533 0.0636301 0.0181888
0.177188 0.065095 0.0196689
0.195529 0.066331 0.0209049
0.214466 0.067628 0.0221866
0.233982 0.0693523 0.0239261
0.253315 0.0711223 0.0257115
0.272923 0.0731212 0.0277104
0.293095 0.0754253 0.0300298
0.313191 0.0776989 0.0323033
0.333272 0.0801099 0.0347295
0.353155 0.0827344 0.0373693
0.372732 0.0856336 0.0402838
0.391882 0.089128 0.0437934
0.410147 0.0927443 0.047425
0.427756 0.0966964 0.0514076
0.444831 0.101015 0.0557259
0.461219 0.105684 0.0604105
0.477165 0.110658 0.0654154
0.492805 0.115923 0.0706951
0.508232 0.121431 0.0762188
0.523598 0.127153 0.0819562
0.539071 0.133028 0.0878462
0.55465 0.139025 0.0938582
0.570321 0.145296 0.10016
0.000869764 0.0772869 0.0110323
0.0113069 0.0793011 0.0131685
0.0220951 0.0816052 0.0156252
0.0328527 0.0838941 0.0180514
0.0445106 0.0865034 0.0207828
0.0574502 0.0887922 0.0231174
0.0999313 0.0828412 0.0276493
0.137224 0.0790265 0.0244755
0.152911 0.0811017 0.0265354
0.169818 0.0830396 0.0284886
0.188113 0.0851453 0.0305943
0.207248 0.0871748 0.0326238
0.226947 0.0892195 0.0346838
0.246906 0.0913863 0.0368505
0.266865 0.0937819 0.0392462
0.287129 0.096437 0.0419165
0.307561 0.0989853 0.04448
0.328069 0.101686 0.0471809
0.348623 0.10454 0.0500649
0.368978 0.107637 0.0531777
0.389273 0.111254 0.0567941
0.408652 0.114992 0.0605631
0.427436 0.119081 0.0646677
0.445548 0.123522 0.0691234
0.463096 0.128328 0.0739452
0.479973 0.133501 0.0791485
0.496468 0.138979 0.0846418
0.512596 0.144732 0.0904097
0.528496 0.150713 0.0964065
0.544305 0.156863 0.102586
0.560174 0.163149 0.108888
0.57615 0.169528 0.115297
0.592065 0.176043 0.121828
0.00527962 0.0944533 0.0154726
0.0162661 0.0970779 0.0181277
0.0277562 0.100145 0.0212406
0.0391699 0.10312 0.0242924
0.0512093 0.106065 0.0272984
0.0649119 0.109041 0.0303197
0.0800336 0.111604 0.0328679
0.119783 0.107225 0.0389258
0.163668 0.102541 0.0372931
0.181415 0.105318 0.0400702
0.200153 0.107881 0.0426337
0.219745 0.110369 0.0451209
0.240009 0.112978 0.0477302
0.260578 0.11574 0.0505074
0.280934 0.118547 0.053315
0.301472 0.121462 0.05626
0.322362 0.124483 0.0592813
0.343359 0.127657 0.0624704
0.364401 0.130999 0.0658274
0.385306 0.13463 0.0694743
0.405951 0.138582 0.0734417
0.425925 0.142916 0.0778058
0.445212 0.147494 0.082414
0.463813 0.152453 0.0873884
0.48188 0.157733 0.0926833
0.499229 0.163363 0.0983444
0.516136 0.169268 0.10428
0.532677 0.175418 0.110445
0.548959 0.18175 0.116793
0.565118 0.188251 0.123323
0.581323 0.194842 0.129931
0.59736 0.201312 0.136431
0.613458 0.208011 0.14316
0.0105592 0.114366 0.0207523
0.0220493 0.117525 0.0239109
0.0337377 0.120836 0.0272221
0.0459297 0.12462 0.0310216
0.0586557 0.128267 0.0346838
0.0729076 0.131777 0.0382086
0.0888228 0.135088 0.0415351
0.106569 0.138247 0.0446784
0.142199 0.135912 0.0510719
0.192264 0.129824 0.0528573
0.212482 0.132601 0.0549477
0.232654 0.135683 0.0580453
0.253407 0.138781 0.0611429
0.274296 0.141863 0.0642252
0.29514 0.145129 0.0675059
0.316167 0.148547 0.0709392
0.33756 0.152056 0.0744488
0.359045 0.155703 0.0781262
0.380591 0.159548 0.0819867
0.401953 0.163638 0.0861067
0.422995 0.167987 0.0904707
0.443351 0.172686 0.0951858
0.463096 0.177722 0.100252
0.482139 0.183093 0.105638
0.500572 0.188754 0.11133
0.518288 0.194736 0.117342
0.535531 0.200977 0.123613
0.552377 0.207416 0.130083
0.568933 0.214023 0.136706
0.585321 0.220752 0.143465
0.60174 0.227543 0.150286
0.618189 0.234379 0.157153
0.634516 0.241291 0.164096
0.0164034 0.136248 0.0265812
0.028809 0.140337 0.0306706
0.0412757 0.144411 0.0347601
0.0538796 0.148623 0.0389715
0.0671397 0.152834 0.0431678
0.0821088 0.157061 0.0473945
0.0984207 0.160769 0.0511025
0.116457 0.164187 0.0545205
0.13576 0.167437 0.0577707
0.169039 0.166552 0.06392
0.221225 0.160494 0.0717479
0.24625 0.162905 0.0716259
0.267369 0.166354 0.0750896
0.288746 0.169924 0.0786755
0.310079 0.173693 0.0824598
0.331624 0.177615 0.0863966
0.353521 0.181628 0.0904097
0.375509 0.185763 0.0945754
0.397513 0.190082 0.098909
0.419318 0.194598 0.103441
0.440772 0.199344 0.108217
0.461509 0.204425 0.113329
0.481605 0.209796 0.11873
0.500969 0.215488 0.124437
0.519707 0.221439 0.130434
0.537682 0.22768 0.136706
0.555169 0.234134 0.143175
0.572213 0.240772 0.149859
0.588739 0.247333 0.156435
0.605249 0.254154 0.163287
0.621759 0.261051 0.17023
0.6383 0.267964 0.177172
0.654688 0.274937 0.184176
0.0236057 0.161089 0.0337987
0.0363317 0.165499 0.0382086
0.0492561 0.170031 0.0427253
0.062562 0.17496 0.0476539
0.0762951 0.179614 0.0523232
0.0914778 0.184054 0.0567636
0.108248 0.188235 0.0609293
0.126757 0.192126 0.0648356
0.146548 0.195865 0.0685588
0.167712 0.19939 0.0720836
0.199405 0.199847 0.0777752
0.250965 0.194293 0.0920272
0.282002 0.195972 0.0897383
0.303899 0.200046 0.0938125
0.325719 0.204288 0.098085
0.347707 0.208667 0.102464
0.370031 0.213092 0.10692
0.392416 0.217624 0.111467
0.414679 0.222187 0.116045
0.436912 0.227131 0.121019
0.458503 0.232013 0.125933
0.479469 0.237308 0.131258
0.499809 0.242924 0.136919
0.519402 0.248814 0.14284
0.538338 0.254963 0.14902
0.556481 0.261372 0.155459
0.57409 0.267948 0.162066
0.591257 0.274678 0.168826
0.608057 0.281514 0.175708
0.624659 0.288426 0.182635
0.641184 0.295323 0.189593
0.65771 0.30222 0.196506
0.673884 0.308934 0.203281
0.0311589 0.187716 0.0413519
0.044358 0.192584 0.0462196
0.057969 0.197818 0.0514534
0.071519 0.202976 0.0565957
0.0857252 0.208118 0.0617533
0.101396 0.213046 0.0666819
0.118654 0.217716 0.0713359
0.137652 0.222095 0.0757153
0.157931 0.226322 0.0799573
0.179614 0.230365 0.0840009
0.202548 0.234226 0.0878614
0.232868 0.235966 0.09308
0.281834 0.231128 0.112261
0.319219 0.231754 0.109514
0.341604 0.236362 0.11397
0.363943 0.241077 0.118715
0.386587 0.245838 0.123476
0.409277 0.250675 0.128328
0.431937 0.255604 0.133288
0.454307 0.2607 0.138415
0.476295 0.265949 0.143709
0.497505 0.271473 0.149264
0.518013 0.277241 0.155062
0.537713 0.283253 0.16112
0.55668 0.289418 0.167315
0.574685 0.295689 0.173617
0.59234 0.302281 0.180255
0.609491 0.30901 0.18703
0.626291 0.315816 0.193866
0.642817 0.322652 0.200748
0.659281 0.329458 0.207584
0.675669 0.336217 0.214389
0.691875 0.342977 0.221195
0.0395666 0.216251 0.0497597
0.0534218 0.22179 0.0552834
0.0673075 0.227298 0.0607919
0.0813153 0.232914 0.0664073
0.0960098 0.23856 0.0720531
0.112184 0.243992 0.0774701
0.129961 0.249165 0.0826429
0.149447 0.254032 0.0875257
0.170184 0.258732 0.0922103
0.192294 0.263203 0.0966812
0.215641 0.267475 0.100954
0.239918 0.271595 0.105089
0.26891 0.274372 0.110155
0.314427 0.270878 0.131456
0.354406 0.270756 0.134401
0.380743 0.274983 0.1355
0.403616 0.279957 0.140505
0.426322 0.28481 0.145373
0.449073 0.28983 0.150423
0.47158 0.295048 0.155688
0.49369 0.30042 0.161074
0.514977 0.30602 0.16672
0.535531 0.311833 0.172564
0.555245 0.317845 0.178637
0.574289 0.324056 0.184894
0.592447 0.33048 0.191333
0.61004 0.336996 0.197894
0.627085 0.343618 0.204562
0.643748 0.350286 0.211276
0.660014 0.356847 0.217868
0.676265 0.363439 0.224521
0.692714 0.37023 0.231357
0.709056 0.377096 0.23827
0.0490272 0.246494 0.0592203
0.0633097 0.252461 0.0651713
0.0776989 0.258488 0.0711833
0.0922103 0.264607 0.0773022
0.107347 0.27068 0.0833753
0.124132 0.276722 0.0894179
0.14226 0.282261 0.0949416
0.16202 0.287404 0.100099
0.183047 0.292393 0.105074
0.205509 0.297215 0.109895
0.229129 0.301762 0.114458
0.253681 0.306172 0.118853
0.278828 0.310506 0.123201
0.306477 0.314092 0.128252
0.347951 0.312169 0.148394
0.388037 0.311482 0.160266
0.420462 0.314519 0.157473
0.443503 0.319631 0.162554
0.466392 0.324804 0.167758
0.488945 0.330053 0.173037
0.51104 0.335409 0.178439
0.532158 0.340841 0.183902
0.55256 0.346487 0.189609
0.572213 0.352422 0.195575
0.591134 0.358511 0.201709
0.609155 0.364782 0.208026
0.626627 0.371176 0.21445
0.643641 0.377752 0.221088
0.660365 0.384482 0.227863
0.676921 0.391318 0.23473
0.693462 0.398199 0.241672
0.710048 0.405097 0.248615
0.726497 0.412085 0.255665
0.06009 0.278523 0.0702831
0.0747234 0.28484 0.076585
0.0895399 0.291279 0.0830243
0.104463 0.29781 0.0895552
0.120012 0.304311 0.0960403
0.13698 0.310552 0.102281
0.155489 0.316472 0.108186
0.175662 0.322026 0.113741
0.197024 0.327352 0.119066
0.219684 0.332387 0.124102
0.243534 0.337163 0.128862
0.268269 0.341741 0.133455
0.293523 0.346181 0.137896
0.31899 0.350652 0.142382
0.345068 0.354604 0.147082
0.383398 0.353979 0.16437
0.422599 0.35285 0.183688
0.457786 0.354894 0.182803
0.483345 0.359548 0.184695
0.505821 0.364736 0.189929
0.52784 0.370001 0.195239
0.548989 0.375448 0.200717
0.569345 0.381048 0.206363
0.588891 0.386877 0.212238
0.607828 0.392966 0.218372
0.625956 0.399329 0.224796
0.643488 0.405798 0.231296
0.660487 0.412345 0.237903
0.677333 0.419181 0.2448
0.694011 0.426123 0.251774
0.710643 0.433082 0.258793
0.727291 0.440055 0.265827
0.743801 0.447074 0.272908
0.0728466 0.311925 0.0830243
0.0878462 0.318624 0.0897078
0.102983 0.325399 0.0964675
0.118227 0.33225 0.103319
0.134066 0.33904 0.110094
0.15108 0.345312 0.116381
0.169833 0.351492 0.122545
0.190097 0.357168 0.128191
0.211627 0.362646 0.133669
0.234424 0.367819 0.138842
0.258381 0.372702 0.143725
0.283192 0.377371 0.148379
0.308507 0.381872 0.152911
0.333974 0.386358 0.157397
0.359197 0.390875 0.161929
0.384924 0.395193 0.166613
0.421012 0.395346 0.181125
0.458381 0.394141 0.204639
0.493309 0.395315 0.209064
0.522377 0.398932 0.206668
0.544396 0.40412 0.21181
0.565591 0.409613 0.217334
0.586084 0.415335 0.223102
0.605798 0.421332 0.229145
0.624857 0.427543 0.235416
0.643107 0.434012 0.241932
0.660838 0.440665 0.248631
0.678096 0.447456 0.255497
0.695018 0.454368 0.26244
0.711727 0.461341 0.269474
0.728344 0.468269 0.276463
0.744793 0.475044 0.283284
0.761303 0.482048 0.290364
0.0864271 0.346227 0.0966049
0.101686 0.353185 0.103563
0.117082 0.360204 0.110567
0.132525 0.367269 0.117617
0.148531 0.374243 0.124575
0.165911 0.38088 0.131212
0.184756 0.387152 0.137453
0.205188 0.392996 0.143297
0.22678 0.39855 0.148836
0.249454 0.403601 0.153887
0.273426 0.408499 0.158785
0.298085 0.413016 0.163302
0.323339 0.417472 0.167758
0.348714 0.421866 0.172152
0.373816 0.426261 0.176562
0.398917 0.430579 0.180911
0.42446 0.434775 0.18529
0.458351 0.435737 0.197208
0.494087 0.434806 0.222705
0.527916 0.43595 0.234043
0.558999 0.439323 0.232349
0.582879 0.444511 0.234623
0.603479 0.450355 0.240513
0.623133 0.456275 0.246494
0.642161 0.462455 0.252735
0.660471 0.468986 0.259312
0.678233 0.475654 0.266041
0.695521 0.482475 0.272908
0.712444 0.489372 0.279866
0.729152 0.49633 0.28687
0.745785 0.503273 0.293873
0.762387 0.510185 0.300862
0.77882 0.517128 0.307866
0.100832 0.381643 0.111009
0.116258 0.388785 0.118135
0.131548 0.395697 0.125032
0.147112 0.402884 0.132204
0.16318 0.409918 0.139223
0.180591 0.416617 0.145907
0.199451 0.422904 0.152178
0.219883 0.428748 0.158007
0.241428 0.434272 0.163516
0.264179 0.439399 0.168627
0.288014 0.44419 0.173404
0.312673 0.448692 0.177905
0.337774 0.452995 0.182223
0.363058 0.457298 0.186526
0.388159 0.461692 0.190951
0.413306 0.466072 0.195331
0.438636 0.470298 0.199573
0.464164 0.474723 0.204089
0.496178 0.476722 0.213794
0.530221 0.476478 0.239078
0.562387 0.477592 0.25687
0.592584 0.480827 0.260365
0.619455 0.485588 0.259358
0.640482 0.491508 0.263844
0.659632 0.49781 0.270191
0.677928 0.504326 0.276783
0.695674 0.510979 0.283497
0.712779 0.517617 0.290181
0.729534 0.52433 0.296956
0.746151 0.531182 0.303868
0.762692 0.538033 0.31078
0.779187 0.544823 0.317647
0.795483 0.551629 0.324529
0.115511 0.417258 0.125689
0.130999 0.424475 0.132876
0.146563 0.431678 0.140063
0.162112 0.438865 0.147219
0.17818 0.445899 0.154238
0.195544 0.452552 0.160861
0.214115 0.458549 0.166842
0.23447 0.464332 0.17261
0.255756 0.469612 0.177859
0.278355 0.474601 0.182834
0.302144 0.479332 0.187564
0.326833 0.483894 0.192111
0.352071 0.488334 0.196567
0.377508 0.49279 0.201007
0.402747 0.497322 0.20557
0.428077 0.501884 0.210132
0.453681 0.506386 0.214664
0.479271 0.510903 0.219242
0.504753 0.51548 0.22385
0.534615 0.518349 0.231876
0.56672 0.518669 0.254353
0.596613 0.520012 0.276555
0.624994 0.523079 0.2869
0.651713 0.52752 0.288655
0.675608 0.532952 0.289021
0.695003 0.539239 0.293858
0.712657 0.5458 0.300481
0.729793 0.552468 0.30721
0.746548 0.559167 0.313985
0.763012 0.565896 0.320775
0.779416 0.57258 0.32752
0.795743 0.579187 0.334203
0.811841 0.585794 0.340871
0.130419 0.452934 0.140581
0.145876 0.460121 0.147738
0.161364 0.467262 0.154864
0.176822 0.474357 0.161929
0.192767 0.481285 0.168826
0.209964 0.48777 0.175296
0.228611 0.493874 0.181369
0.248905 0.499596 0.18706
0.270375 0.505058 0.192493
0.293126 0.510201 0.19762
0.317037 0.515099 0.202487
0.341848 0.519768 0.207156
0.367071 0.524208 0.211597
0.392447 0.528603 0.215991
0.417746 0.533211 0.2206
0.443122 0.53782 0.225254
0.468772 0.542367 0.229801
0.494362 0.546899 0.234394
0.519844 0.551476 0.238987
0.54493 0.55613 0.243748
0.572549 0.559655 0.25156
0.602777 0.561349 0.268818
0.630762 0.562951 0.292714
0.656931 0.565835 0.309285
0.681956 0.569818 0.316777
0.705455 0.574762 0.318944
0.727245 0.580484 0.32018
0.746212 0.586664 0.323781
0.762829 0.593179 0.330297
0.77911 0.599695 0.336873
0.79527 0.606149 0.343404
0.811368 0.612512 0.349844
0.827222 0.61886 0.356252
0.145739 0.488502 0.155917
0.161059 0.495567 0.162921
0.176394 0.502556 0.169894
0.191638 0.509468 0.176761
0.207645 0.516442 0.183734
0.224765 0.522881 0.190127
0.243565 0.529137 0.196338
0.263981 0.534997 0.202167
0.285557 0.540566 0.207706
0.3084 0.54583 0.21294
0.332403 0.55079 0.217884
0.357259 0.555535 0.222599
0.382635 0.560143 0.227207
0.408164 0.564721 0.231785
0.433478 0.569329 0.236393
0.458839 0.573938 0.241016
0.484337 0.578332 0.245441
0.509743 0.582681 0.249851
0.535195 0.587091 0.255116
0.560143 0.591501 0.261463
0.584314 0.595972 0.268879
0.609003 0.599985 0.278447
0.636728 0.602701 0.291005
0.664012 0.605234 0.305699
0.688319 0.60795 0.326055
0.711208 0.611765 0.339574
0.73341 0.616358 0.346822
0.754849 0.621546 0.350042
0.775219 0.6271 0.35172
0.794049 0.632929 0.354055
0.810819 0.638987 0.358968
0.826596 0.645045 0.365118
0.84213 0.651057 0.371206
0.160952 0.523262 0.171099
0.176303 0.530373 0.178164
0.191791 0.537514 0.18529
0.207294 0.544686 0.192416
0.223362 0.551766 0.199435
0.240772 0.558495 0.206134
0.259663 0.564843 0.212436
0.28014 0.570794 0.218341
0.301762 0.576425 0.223941
0.324407 0.581491 0.228962
0.348379 0.586465 0.233906
0.373236 0.591211 0.238621
0.398596 0.595804 0.243214
0.424094 0.600336 0.247745
0.449332 0.604898 0.252323
0.474632 0.60943 0.25687
0.500298 0.613733 0.262043
0.525948 0.617868 0.268223
0.551354 0.621912 0.275395
0.576089 0.625986 0.283574
0.599878 0.630137 0.292729
0.622232 0.634546 0.302861
0.644022 0.638804 0.31397
0.668269 0.642283 0.326421
0.693095 0.645426 0.338003
0.717006 0.648844 0.347951
0.739986 0.652628 0.356222
0.760723 0.65687 0.368322
0.780819 0.661418 0.375891
0.800641 0.6663 0.379828
0.820157 0.671366 0.381613
0.838911 0.676555 0.382925
0.850263 0.682658 0.394705
0.1776 0.558221 0.187747
0.193103 0.565484 0.194965
0.208499 0.572564 0.202014
0.224094 0.579843 0.209232
0.240223 0.586984 0.216312
0.257679 0.593759 0.223056
0.276585 0.600153 0.229389
0.297063 0.606104 0.235309
0.318669 0.611749 0.240879
0.341512 0.617029 0.246128
0.365469 0.621988 0.251041
0.390249 0.626673 0.255695
0.415518 0.631205 0.260197
0.440787 0.635508 0.264515
0.466056 0.639689 0.269581
0.491661 0.643748 0.275715
0.51754 0.647562 0.28278
0.543206 0.651255 0.290745
0.568429 0.654887 0.299687
0.592813 0.658579 0.309499
0.616129 0.662394 0.320195
0.637934 0.666468 0.331716
0.658274 0.670771 0.343984
0.677409 0.675242 0.356802
0.698268 0.679133 0.369055
0.71989 0.682826 0.379614
0.741634 0.686564 0.388052
0.763043 0.690486 0.394491
0.784009 0.69456 0.399069
0.804639 0.698878 0.402274
0.824994 0.703319 0.404273
0.843473 0.707835 0.407889
0.847105 0.714504 0.43064
0.195377 0.593194 0.205539
0.210925 0.600504 0.212772
0.22652 0.607813 0.22002
0.24213 0.615091 0.227283
0.258152 0.622141 0.234272
0.275608 0.628946 0.241016
0.294301 0.635126 0.24715
0.314733 0.641047 0.252995
0.336263 0.646616 0.258503
0.358999 0.65182 0.263645
0.382834 0.656672 0.268452
0.407507 0.661234 0.273014
0.433005 0.665431 0.278141
0.458961 0.669291 0.284199
0.48481 0.673014 0.291249
0.510674 0.676524 0.299214
0.536568 0.679835 0.307988
0.562051 0.68307 0.317632
0.586938 0.68629 0.328084
0.610834 0.689586 0.339315
0.633555 0.693019 0.351308
0.654704 0.696712 0.363958
0.674342 0.700664 0.377203
0.692424 0.70486 0.390906
0.709178 0.70927 0.404974
0.726604 0.713481 0.417487
0.745342 0.717433 0.427222
0.764691 0.721355 0.434272
0.784329 0.725307 0.438788
0.804303 0.729473 0.441413
0.824491 0.733532 0.44184
0.837613 0.738506 0.450675
0.839704 0.744945 0.474876
0.214099 0.627863 0.224247
0.229618 0.635172 0.231479
0.245197 0.642466 0.238697
0.260761 0.649714 0.245914
0.276829 0.656809 0.252949
0.294163 0.663523 0.259586
0.312932 0.669795 0.265797
0.333242 0.675608 0.27155
0.354635 0.681056 0.276921
0.377249 0.686107 0.281971
0.401434 0.690547 0.287419
0.426719 0.694316 0.293416
0.452781 0.697704 0.300206
0.479316 0.701045 0.308186
0.505287 0.704082 0.316777
0.531106 0.707027 0.326268
0.556802 0.70985 0.336522
0.582071 0.712734 0.347738
0.606424 0.715511 0.359426
0.629709 0.71841 0.371801
0.651759 0.721492 0.384833
0.672221 0.724865 0.398428
0.691066 0.728435 0.412329
0.70837 0.732265 0.426566
0.72433 0.736309 0.441062
0.738872 0.740612 0.455741
0.753491 0.7449 0.468925
0.769574 0.749004 0.478325
0.786709 0.753063 0.484352
0.804822 0.757275 0.487633
0.82356 0.761181 0.487556
0.829206 0.766552 0.508476
0.831006 0.772244 0.535348
0.233768 0.66244 0.2439
0.249058 0.66952 0.250904
0.264576 0.676768 0.258091
0.279911 0.683787 0.265064
0.295857 0.690776 0.271992
0.313039 0.697368 0.278477
0.33164 0.703487 0.284535
0.351858 0.709087 0.290211
0.373739 0.714046 0.29633
0.39733 0.718334 0.302937
0.422385 0.722011 0.310109
0.448463 0.725185 0.317952
0.475044 0.728008 0.326513
0.50161 0.730617 0.335866
0.527626 0.733181 0.346014
0.553231 0.735622 0.356832
0.578515 0.737957 0.368277
0.603052 0.740261 0.380316
0.626719 0.742611 0.39295
0.64921 0.745098 0.406088
0.670466 0.747814 0.419821
0.690211 0.750912 0.434165
0.708263 0.754162 0.448539
0.724804 0.757641 0.463096
0.740017 0.761364 0.477821
0.753857 0.765332 0.492607
0.766629 0.769467 0.507439
0.779202 0.773922 0.521843
0.79295 0.778058 0.531304
0.808057 0.782132 0.536492
0.821759 0.786313 0.543084
0.825345 0.791241 0.568826
0.829816 0.796353 0.592569
0.253819 0.696132 0.263951
0.269139 0.703258 0.270985
0.284459 0.710323 0.277989
0.299748 0.717342 0.284916
0.315526 0.724147 0.291676
0.332784 0.730419 0.298283
0.352102 0.735927 0.305211
