site/assets/luts/freshluts--0000993-green-shadows.cube
# LUTr-Schema-Version: 2
# LUTr-ID: freshluts--0000993-green-shadows
# LUTr-Title: Green Shadows
# LUTr-Collection: Fresh LUTs
# LUTr-Collection-ID: freshluts-community
# LUTr-Source: https://freshluts.com
# LUTr-Retrieved: 2026-07-27
# LUTr-Source-File: submissions-raw/freshluts/cubes/993__Green_action_Movie_Lut_3.pexels-pixabay-163443.cube
# LUTr-Source-Format: CUBE
# LUTr-Source-SHA256: 12001bb17cad8cc993bca40cf7311e1f83669a1767163843672e7c2d4f07d2b6
# LUTr-License: CC0-1.0
# LUTr-License-URL: https://freshluts.com/termsandconditions
# LUTr-License-Basis: site-terms
# LUTr-Transform-Class: creative-look
# LUTr-Tags: creative, freshluts, community, cube, cinematic, blockbuster, green, low-key, panasonic-v-log
# LUTr-Input-Color-Space:
# LUTr-Input-Gamut: panasonic-v-gamut
# LUTr-Input-Transfer: panasonic-v-log
# LUTr-Output-Color-Space: srgb
# LUTr-Output-Gamut: rec709
# LUTr-Output-Transfer: srgb
# LUTr-Color-Space-Confidence: camera-profile-input-required
# LUTr-Domain-Normalized: true
# LUTr-Shaper: none
# LUTr-Original-Grid: 33x33x33
# LUTr-Conversion-Grid: 33x33x33
# LUTr-Conversion-Interpolation: none
# LUTr-Conversion-Method: Metadata normalization; numeric LUT samples preserved
# LUTr-Conversion-Tool: LUTr scripts/convert-all-to-cube.mjs 2.0.0
# LUTr-Conversion-Date: 2026-07-28
# LUTr-Asset-URL: https://freshluts.com/luts/993
# LUTr-Author: LutMaster
# LUTr-Author-URL: https://freshluts.com/users/57203
# LUTr-Attribution: LutMaster via Fresh LUTs
# LUTr-Source-Labels: gamma=Panasonic V-log; color=Green; key=Low Key; style=Blockbuster
# LUTr-Note: Preserve this metadata and the upstream license notices when redistributing.
TITLE "Green Shadows"
LUT_3D_SIZE 9
DOMAIN_MIN 0 0 0
DOMAIN_MAX 1 1 1
0.0554513 0.101472 0.0794995
0.0605478 0.105333 0.0836652
0.0935988 0.109361 0.0861677
0.149798 0.106844 0.0835889
0.22005 0.102327 0.0818189
0.282963 0.100725 0.0762646
0.349218 0.0987411 0.0704814
0.418509 0.0963607 0.0681315
0.426596 0.111269 0.0742962
0.0745708 0.117906 0.0971847
0.0763714 0.122927 0.0988022
0.0957351 0.128634 0.101701
0.167681 0.130419 0.0935836
0.231495 0.131044 0.0897841
0.296193 0.13077 0.0836042
0.364523 0.129366 0.0762646
0.437217 0.127352 0.0732738
0.486244 0.132067 0.0755016
0.0720531 0.148684 0.102998
0.0944839 0.148089 0.11162
0.0947738 0.157443 0.107683
0.145144 0.164141 0.0941634
0.240085 0.161044 0.0901961
0.307332 0.161593 0.083711
0.378088 0.162264 0.0784772
0.45243 0.162676 0.0757916
0.513787 0.166293 0.0774243
0.0723125 0.182391 0.103792
0.0867933 0.185061 0.110491
0.110689 0.188693 0.11191
0.168734 0.199359 0.0930648
0.243793 0.197528 0.0889601
0.321248 0.194354 0.0831159
0.397208 0.195071 0.0804913
0.471077 0.197086 0.0782483
0.543816 0.199863 0.076524
0.0748302 0.218326 0.106844
0.0903182 0.223133 0.111742
0.110018 0.227283 0.109483
0.178668 0.237736 0.0961013
0.261051 0.240681 0.088426
0.336599 0.23682 0.0859236
0.41529 0.23473 0.0831311
0.487358 0.236698 0.0805371
0.556161 0.240146 0.0789502
0.0757458 0.258869 0.10927
0.0910964 0.264836 0.112627
0.11812 0.267933 0.111604
0.186633 0.280522 0.0967269
0.277836 0.290806 0.0903487
0.356542 0.292607 0.0890669
0.435691 0.287465 0.0863203
0.502846 0.287739 0.0852522
0.559396 0.28983 0.0870375
0.083711 0.300298 0.116609
0.0898909 0.310216 0.112779
0.117571 0.316121 0.105791
0.203357 0.325109 0.102937
0.294148 0.343572 0.093019
0.380499 0.353536 0.0918593
0.459052 0.354833 0.0899062
0.526238 0.348699 0.0894331
0.58294 0.347585 0.0918135
0.0979324 0.342061 0.129259
0.103899 0.353216 0.122621
0.118807 0.367956 0.103426
0.21268 0.378424 0.103502
0.306538 0.400366 0.0959793
0.402594 0.416068 0.0949264
0.480705 0.426673 0.0934157
0.548928 0.426581 0.0935836
0.592508 0.416739 0.11078
0.100237 0.394873 0.131655
0.108598 0.405844 0.1252
0.130678 0.421912 0.107424
0.220645 0.43595 0.106462
0.312932 0.459342 0.0986496
0.415457 0.482506 0.0978408
0.496391 0.495155 0.0965896
0.568017 0.504036 0.0979934
0.615549 0.499214 0.118151
0.0924544 0.0924544 0.0924544
0.095964 0.095964 0.095964
0.101503 0.109056 0.103685
0.160449 0.107469 0.104662
0.226078 0.104997 0.101671
0.292271 0.103166 0.0961929
0.362066 0.100175 0.0882124
0.43267 0.0971389 0.0852827
0.463996 0.105867 0.0897536
0.109483 0.109483 0.109483
0.114061 0.114061 0.114061
0.106508 0.12987 0.11136
0.163531 0.133593 0.115663
0.230488 0.134157 0.111818
0.29987 0.133028 0.105852
0.371801 0.13019 0.0967727
0.443351 0.127016 0.0910658
0.480476 0.133928 0.0973526
0.0960403 0.147143 0.125582
0.111833 0.149859 0.128557
0.111009 0.155947 0.13022
0.135058 0.166506 0.122621
0.234699 0.168063 0.118212
0.308049 0.168811 0.112459
0.381933 0.168048 0.103853
0.458289 0.165621 0.0960861
0.507225 0.17055 0.10219
0.100237 0.179782 0.134432
0.114229 0.182803 0.138125
0.128145 0.185901 0.141787
0.141848 0.197665 0.135622
0.23975 0.203738 0.117357
0.323903 0.201785 0.110002
0.399634 0.201907 0.101686
0.477317 0.20267 0.0976883
0.529519 0.209491 0.106004
0.0916609 0.217655 0.136843
0.124376 0.217502 0.147692
0.122652 0.226551 0.140841
0.175158 0.233021 0.14258
0.259678 0.246769 0.112825
0.33817 0.243351 0.107485
0.420005 0.239399 0.101472
0.495262 0.240223 0.0981155
0.560754 0.245167 0.101228
0.0876326 0.257588 0.138445
0.113466 0.263249 0.147341
0.129488 0.268162 0.1449
0.174594 0.279454 0.135668
0.271611 0.295048 0.114107
0.358206 0.299336 0.107149
0.439811 0.292729 0.103883
0.511345 0.290593 0.10222
0.574502 0.291905 0.104051
0.0869917 0.300847 0.141588
0.116915 0.306996 0.152941
0.119081 0.31873 0.138567
0.185657 0.32697 0.135821
0.283101 0.346868 0.114794
0.382055 0.359609 0.109575
0.464851 0.36202 0.107347
0.536736 0.354055 0.106493
0.597498 0.350927 0.108598
0.104433 0.343755 0.154269
0.120409 0.354086 0.158572
0.121386 0.370031 0.139269
0.189349 0.38378 0.12723
0.29218 0.403754 0.116228
0.401785 0.422431 0.112688
0.488685 0.434577 0.110842
0.56257 0.435645 0.11136
0.607889 0.424491 0.127932
0.108995 0.395865 0.161486
0.125933 0.407126 0.164767
0.141314 0.420676 0.146822
0.197131 0.441855 0.127382
0.300008 0.463386 0.118044
0.411673 0.487404 0.115618
0.505776 0.503456 0.114122
0.580499 0.513039 0.115389
0.627573 0.509972 0.143938
0.0954147 0.0954147 0.0954147
0.0984665 0.0984665 0.0984665
0.10605 0.10605 0.10605
0.161456 0.111299 0.125765
0.231876 0.108537 0.125719
0.302983 0.107042 0.120912
0.378317 0.103273 0.112581
0.451301 0.0990768 0.105608
0.484871 0.106523 0.108278
0.112657 0.112657 0.112657
0.117464 0.117464 0.117464
0.122972 0.122972 0.122972
0.158038 0.138537 0.135988
0.234699 0.137682 0.136767
0.309621 0.136095 0.131121
0.386236 0.13225 0.123262
0.460075 0.128374 0.116396
0.494942 0.135134 0.118318
0.138537 0.138537 0.138537
0.144152 0.144152 0.144152
0.128466 0.156374 0.144564
0.147524 0.1682 0.144732
0.226444 0.172839 0.148302
0.308141 0.172595 0.143069
0.38735 0.170291 0.135836
0.462577 0.167208 0.129107
0.502571 0.173022 0.132403
0.168719 0.168719 0.168719
0.137499 0.188968 0.163516
0.150469 0.191302 0.166583
0.150134 0.197391 0.167605
0.218296 0.211841 0.155779
0.318639 0.213489 0.151385
0.400809 0.213733 0.144854
0.477684 0.213443 0.138796
0.522957 0.221134 0.145937
0.11754 0.227024 0.17496
0.146914 0.225269 0.179355
0.153048 0.228199 0.17821
0.169757 0.231342 0.176532
0.243595 0.252842 0.157412
0.339834 0.252628 0.14757
0.422019 0.249882 0.139681
0.496895 0.251713 0.133135
0.544625 0.261097 0.143297
0.11664 0.263447 0.179889
0.153597 0.261845 0.189349
0.158694 0.269139 0.187762
0.166033 0.277852 0.178714
0.245609 0.298222 0.160021
0.355871 0.307805 0.138628
0.440864 0.301213 0.133715
0.514672 0.297719 0.126055
0.564065 0.302678 0.140826
0.120272 0.302419 0.185748
0.152987 0.306081 0.197482
0.157137 0.314366 0.192081
0.167361 0.327749 0.178729
0.255497 0.348745 0.159426
0.374273 0.366201 0.135988
0.466865 0.369711 0.128252
0.543481 0.360754 0.127047
0.59498 0.358022 0.143053
0.129427 0.345281 0.195422
0.172 0.347234 0.211627
0.151919 0.366705 0.194614
0.163684 0.385534 0.174075
0.277485 0.402884 0.169299
0.387717 0.427802 0.138231
0.490517 0.440528 0.131716
0.571237 0.444251 0.132021
0.618326 0.432242 0.155978
0.11426 0.403708 0.197711
0.155245 0.405432 0.211963
0.170504 0.416251 0.205814
0.169314 0.443931 0.172244
0.284886 0.465415 0.164706
0.394644 0.490608 0.140368
0.506127 0.509255 0.135088
0.590982 0.520134 0.136141
0.639033 0.520592 0.169085
0.0996414 0.0996414 0.0996414
0.102541 0.102541 0.102541
0.106249 0.106249 0.106249
0.138125 0.117815 0.135805
0.229465 0.114549 0.148318
0.31133 0.110369 0.145647
0.390036 0.10631 0.139284
0.467124 0.102098 0.132937
0.500999 0.1093 0.130831
0.116976 0.116976 0.116976
0.122179 0.122179 0.122179
0.126802 0.126802 0.126802
0.139727 0.142885 0.137179
0.233783 0.143343 0.161532
0.318486 0.140139 0.158587
0.398566 0.136889 0.152605
0.475242 0.132815 0.146334
0.509926 0.139559 0.144594
0.142626 0.142626 0.142626
0.148638 0.148638 0.148638
0.15375 0.15375 0.15375
0.14757 0.167697 0.149157
0.22031 0.178515 0.173342
0.31429 0.176776 0.172091
0.397635 0.173617 0.165698
0.474418 0.169879 0.159075
0.51313 0.176089 0.160327
0.172763 0.172763 0.172763
0.181125 0.181125 0.181125
0.187961 0.187961 0.187961
0.16759 0.199084 0.186572
0.206561 0.215122 0.18706
0.308431 0.219043 0.188373
0.3991 0.217792 0.181918
0.479271 0.215915 0.175799
0.523217 0.22266 0.180117
0.197955 0.213306 0.20914
0.156832 0.241276 0.209201
0.173632 0.246296 0.214664
0.18439 0.245289 0.213947
0.21973 0.249348 0.213123
0.318853 0.265293 0.196262
0.414435 0.267887 0.192767
0.49601 0.271092 0.18854
0.543603 0.280705 0.197299
0.131533 0.290745 0.228916
0.174395 0.287831 0.233585
0.184649 0.289891 0.233188
0.191638 0.287861 0.226917
0.219409 0.292729 0.219883
0.33608 0.317586 0.191897
0.43975 0.316045 0.185977
0.520012 0.31458 0.183261
0.567178 0.324575 0.194995
0.132586 0.337224 0.238132
0.179294 0.329458 0.244205
0.195727 0.328969 0.243641
0.192233 0.334447 0.234623
0.218006 0.34522 0.22153
0.346075 0.374548 0.192325
0.462821 0.381323 0.172503
0.544442 0.375753 0.174716
0.594476 0.37496 0.192508
0.135271 0.379416 0.24271
0.182467 0.37261 0.252628
0.201312 0.374578 0.253529
0.202121 0.382696 0.243336
0.219303 0.404837 0.220233
0.353201 0.434333 0.195346
0.480598 0.450294 0.170642
0.57229 0.454963 0.161746
0.623438 0.445212 0.189319
0.14432 0.425559 0.251835
0.199039 0.418997 0.266804
0.218219 0.422461 0.267689
0.195132 0.440848 0.244312
0.230549 0.466712 0.219562
0.362814 0.495933 0.197574
0.489784 0.516655 0.176043
0.592798 0.527291 0.1626
0.658198 0.52961 0.189014
0.104524 0.104524 0.104524
0.10724 0.10724 0.10724
0.109514 0.109514 0.109514
0.121706 0.121706 0.121706
0.211826 0.120089 0.171283
0.304723 0.118425 0.170062
0.399573 0.110307 0.16669
0.478721 0.105196 0.160571
0.512627 0.112612 0.155062
0.12256 0.12256 0.12256
0.128496 0.128496 0.128496
0.133364 0.133364 0.133364
0.140627 0.140627 0.140627
0.210605 0.150149 0.181659
0.316533 0.146868 0.185153
0.407904 0.140597 0.180667
0.485069 0.13669 0.175219
0.52401 0.143511 0.171939
0.14847 0.14847 0.14847
0.154849 0.154849 0.154849
0.16051 0.16051 0.16051
0.164126 0.164126 0.164126
0.195438 0.182254 0.188434
0.312123 0.182284 0.200641
0.406226 0.17763 0.19588
0.484016 0.174762 0.190494
0.523201 0.182437 0.190143
0.173892 0.179919 0.180789
0.187137 0.187137 0.187137
0.193896 0.193896 0.193896
0.196597 0.196597 0.196597
0.192905 0.213657 0.201007
0.3037 0.223728 0.220661
0.40412 0.222232 0.215747
0.487449 0.220081 0.210422
0.529717 0.226856 0.211521
0.196109 0.220478 0.21854
0.224216 0.225574 0.225376
0.234241 0.234241 0.234241
0.240497 0.240497 0.240497
0.241672 0.241672 0.241672
0.284932 0.273381 0.239902
0.402335 0.275471 0.238102
0.491142 0.276432 0.233539
0.538506 0.284779 0.237385
0.220813 0.26952 0.25861
0.254856 0.274418 0.268833
0.270512 0.283894 0.279576
0.208408 0.314275 0.275486
0.218112 0.309209 0.268116
0.294743 0.322164 0.252705
0.422827 0.332265 0.245624
0.514397 0.33666 0.245563
0.565179 0.349813 0.255802
0.238361 0.327886 0.297627
0.188067 0.359411 0.29189
0.206394 0.361776 0.294057
0.216327 0.363409 0.292699
0.227237 0.358755 0.281544
0.303304 0.371618 0.274311
0.445151 0.395361 0.23798
0.541985 0.395193 0.239094
0.599481 0.399191 0.257664
0.140581 0.420249 0.3019
0.189731 0.413931 0.306813
0.209628 0.410086 0.304967
0.219257 0.41117 0.302068
0.232792 0.408133 0.289296
0.30457 0.431312 0.276387
0.453285 0.461524 0.242496
0.567727 0.469612 0.225193
0.623316 0.465339 0.252827
0.155001 0.468757 0.312703
0.206928 0.458595 0.31928
0.225483 0.454307 0.316564
0.238178 0.456275 0.312886
0.237095 0.460975 0.294545
0.314763 0.494438 0.276493
0.458824 0.526055 0.24712
0.5841 0.540902 0.227146
0.658534 0.544793 0.243839
0.106828 0.110262 0.114687
0.112917 0.112917 0.112917
0.114855 0.114855 0.114855
0.121813 0.121813 0.121813
0.199542 0.123156 0.198718
0.290257 0.12401 0.198779
0.397391 0.117998 0.193256
0.489921 0.1093 0.188373
0.52256 0.116503 0.179828
0.126162 0.12932 0.13228
0.136004 0.136004 0.136004
0.140719 0.140719 0.140719
0.143084 0.143084 0.143084
0.187961 0.154711 0.195315
0.295277 0.153384 0.214191
0.405951 0.147372 0.208865
0.495445 0.140581 0.204517
0.531701 0.147753 0.19881
0.148318 0.157061 0.160891
0.162081 0.162081 0.162081
0.168505 0.168505 0.168505
0.171313 0.171313 0.171313
0.181521 0.181521 0.181521
0.289204 0.187747 0.231388
0.404776 0.183612 0.226062
0.490684 0.178958 0.221683
0.528756 0.187411 0.218769
0.171298 0.189487 0.196292
0.193973 0.194888 0.195163
0.201495 0.201495 0.201495
0.2056 0.2056 0.2056
0.208072 0.208072 0.208072
0.269337 0.23006 0.243
0.40763 0.225788 0.249073
0.492409 0.224674 0.243992
0.534508 0.233494 0.243198
0.193332 0.22858 0.232517
0.223087 0.232883 0.233692
0.237827 0.239948 0.240131
0.246448 0.246448 0.246448
0.245655 0.245655 0.245655
0.266331 0.272312 0.255314
0.39913 0.279942 0.274403
0.49427 0.281132 0.27097
0.542107 0.289342 0.271687
0.217762 0.274281 0.27097
0.251209 0.278721 0.275914
0.266468 0.287373 0.284779
0.282399 0.295705 0.293965
0.296635 0.299413 0.299001
0.307134 0.307134 0.307134
0.383352 0.343236 0.301335
0.49987 0.346654 0.299321
0.555138 0.357702 0.302876
0.239307 0.32813 0.310506
0.277974 0.332525 0.319234
0.295796 0.342672 0.330114
0.309285 0.355215 0.342367
0.32549 0.365896 0.353536
0.259663 0.385931 0.332692
0.392432 0.403326 0.315816
0.529335 0.415076 0.312001
0.594751 0.426551 0.326284
0.253697 0.393454 0.350332
0.191333 0.430518 0.346944
0.217197 0.437644 0.355901
0.23534 0.443244 0.361547
0.242344 0.448768 0.361349
0.265415 0.43859 0.341314
0.403494 0.462074 0.326635
0.554528 0.485161 0.301518
0.62034 0.487633 0.324437
0.158007 0.495781 0.367086
0.211795 0.493187 0.375158
0.231388 0.49308 0.375341
0.247929 0.490089 0.371603
0.254917 0.494347 0.366644
0.276081 0.490028 0.346975
0.410483 0.523201 0.343816
0.562341 0.553719 0.307424
0.653651 0.561105 0.316793
0.10605 0.117006 0.13518
0.117418 0.119799 0.123095
0.121736 0.121736 0.121736
0.125124 0.125124 0.125124
0.183886 0.126284 0.22356
0.276661 0.128099 0.231846
0.379614 0.124956 0.225071
0.486137 0.116503 0.215259
0.536965 0.120668 0.2065
0.125307 0.13753 0.152819
0.141924 0.143618 0.145663
0.148119 0.148119 0.148119
0.148821 0.148821 0.148821
0.171023 0.155917 0.211917
0.279728 0.157092 0.249104
0.38613 0.154467 0.242222
0.491142 0.147356 0.233692
0.54052 0.152544 0.225925
0.149996 0.164904 0.17525
0.166613 0.170291 0.172717
0.176989 0.176989 0.176989
0.180377 0.180377 0.180377
0.1823 0.1823 0.1823
0.26453 0.192401 0.260716
0.384314 0.18967 0.263157
0.489433 0.185306 0.253254
0.535943 0.192126 0.247471
0.169009 0.199512 0.217807
0.19147 0.204929 0.212467
0.202289 0.210575 0.215381
0.213886 0.215457 0.215991
0.214832 0.214832 0.214832
0.244083 0.232212 0.261372
0.379995 0.232105 0.288014
0.494163 0.228641 0.278477
0.537346 0.238102 0.273381
0.191394 0.236652 0.251011
0.220249 0.242344 0.248951
0.234485 0.249943 0.254932
0.246403 0.255787 0.259251
0.253452 0.254307 0.254704
0.265766 0.265766 0.265766
0.363104 0.285527 0.307408
0.493935 0.283986 0.307958
0.542733 0.294743 0.304768
0.214313 0.281559 0.288869
0.249241 0.285359 0.288151
0.262943 0.29308 0.295583
0.277165 0.300771 0.303029
0.290578 0.30573 0.307424
0.306127 0.306127 0.306127
0.350378 0.343618 0.327382
0.493095 0.351003 0.340703
0.552972 0.364202 0.339574
0.236072 0.332372 0.327245
0.273808 0.336477 0.331075
0.291096 0.345571 0.340169
0.305348 0.356176 0.351034
0.319371 0.367575 0.362737
0.33669 0.367346 0.363638
0.36199 0.39852 0.375006
0.493736 0.424994 0.370016
0.582223 0.436027 0.374212
0.256275 0.390997 0.366247
0.299016 0.394415 0.373724
0.317678 0.404135 0.384024
0.334188 0.415015 0.395209
0.34432 0.431479 0.40972
0.362173 0.44065 0.418311
0.341405 0.470039 0.403357
0.51577 0.492943 0.390768
0.617288 0.506188 0.395483
0.276875 0.456672 0.406744
0.322499 0.458534 0.416281
0.340963 0.466743 0.425391
0.357641 0.474388 0.433997
0.263127 0.519707 0.426215
0.276646 0.527474 0.424674
0.347967 0.52578 0.412207
0.520668 0.556497 0.395132
0.644892 0.574166 0.392447
0.108537 0.123293 0.158221
0.120119 0.126696 0.143282
0.125566 0.12871 0.139406
0.129488 0.130236 0.135592
0.1635 0.131167 0.23122
0.266682 0.131487 0.266606
0.363867 0.130648 0.260685
0.472877 0.124178 0.249866
0.539162 0.126558 0.234501
0.125856 0.144793 0.174273
0.141665 0.15172 0.167666
0.150149 0.156344 0.168139
0.153964 0.156451 0.163149
0.162158 0.162158 0.162158
0.264729 0.161196 0.281285
0.368688 0.160311 0.280598
0.476677 0.155138 0.269718
0.533333 0.160647 0.252918
0.146288 0.173587 0.200031
0.164935 0.179278 0.192721
0.176165 0.186542 0.197498
0.184009 0.190356 0.19855
0.187152 0.187152 0.187152
0.243549 0.196506 0.285573
0.363577 0.195743 0.30312
0.474449 0.191974 0.292546
0.53167 0.199207 0.277806
0.167895 0.208698 0.232547
0.190814 0.214343 0.227283
0.202686 0.21973 0.229984
0.213458 0.226307 0.235309
0.218662 0.22414 0.229236
0.234806 0.234806 0.234806
0.350271 0.239063 0.322805
0.473411 0.235508 0.321462
0.535882 0.244068 0.308827
0.188342 0.246174 0.275608
0.216709 0.251789 0.269642
0.230488 0.25861 0.274144
0.242374 0.264683 0.278508
0.251698 0.266865 0.273335
0.267384 0.267384 0.267384
0.327535 0.289708 0.328969
0.468009 0.289754 0.353384
0.538766 0.299733 0.342184
0.210193 0.288533 0.310063
0.242679 0.293202 0.306508
0.257984 0.300465 0.312154
0.271916 0.308446 0.319585
0.285542 0.314824 0.325017
0.300237 0.313741 0.320134
0.338766 0.338766 0.338766
0.461692 0.354925 0.382574
0.552178 0.366812 0.377584
0.232181 0.338598 0.348623
0.269261 0.343221 0.348608
0.286336 0.351461 0.356176
0.301381 0.360571 0.365255
0.313054 0.370901 0.37644
0.327321 0.371191 0.376532
0.384146 0.384146 0.384146
0.458656 0.426322 0.400778
0.570809 0.440299 0.411307
0.25359 0.394705 0.387167
0.294926 0.398825 0.390707
0.313252 0.408042 0.399771
0.329824 0.417502 0.409339
0.339757 0.431678 0.42356
0.355535 0.441764 0.433494
0.397925 0.447242 0.439796
0.479225 0.492729 0.430777
0.593164 0.516197 0.443275
0.275792 0.455924 0.425437
0.318791 0.458869 0.43154
0.337514 0.467201 0.440269
0.354376 0.476066 0.449363
0.371176 0.489158 0.461891
0.385763 0.508721 0.478386
0.416587 0.517647 0.486946
0.468727 0.555673 0.475105
0.629267 0.580575 0.471473
0.111513 0.129259 0.176608
0.121126 0.133181 0.1691
0.127489 0.134981 0.164965
0.13228 0.135744 0.160952
0.145846 0.143206 0.161074
0.257374 0.134829 0.302037
0.351797 0.135592 0.298787
0.459251 0.131395 0.288579
0.516899 0.138094 0.26392
0.12874 0.151827 0.19379
0.141726 0.159716 0.194354
0.15111 0.164492 0.195163
0.156237 0.164523 0.190692
0.162295 0.16408 0.182208
0.250828 0.165331 0.313375
0.355077 0.165637 0.320668
0.46041 0.163012 0.310964
0.513191 0.172427 0.284794
0.144747 0.181399 0.226093
0.163439 0.187259 0.21648
0.175204 0.195392 0.223239
0.184314 0.200137 0.226337
0.186999 0.194766 0.214435
0.212512 0.212192 0.213474
0.344335 0.202152 0.341848
0.453849 0.199893 0.336675
0.519585 0.207935 0.316457
0.166003 0.217456 0.258656
0.189212 0.223026 0.249439
0.199786 0.228397 0.253178
0.211124 0.235767 0.260014
0.217517 0.235203 0.257328
0.233783 0.235752 0.241993
0.325017 0.244739 0.354223
0.449561 0.242847 0.369512
0.52253 0.251423 0.350805
0.183139 0.255634 0.304417
0.210376 0.261952 0.286061
0.22417 0.268406 0.290196
0.236149 0.274174 0.295033
0.247105 0.279133 0.300023
0.259525 0.276036 0.291341
0.297826 0.297826 0.297826
0.438895 0.296132 0.397162
0.523262 0.305608 0.385214
0.206378 0.296468 0.336507
0.238041 0.301167 0.329244
0.25333 0.308812 0.335027
0.267399 0.31722 0.342901
0.28101 0.3243 0.349248
0.291463 0.325154 0.340185
0.337774 0.337774 0.337774
0.417395 0.360861 0.407141
0.525032 0.371344 0.418067
0.227893 0.344427 0.37293
0.264179 0.349462 0.369482
0.28101 0.358007 0.376593
0.296376 0.367163 0.385367
0.312352 0.376623 0.394217
0.325628 0.379263 0.396277
0.366293 0.388113 0.397513
0.424445 0.424445 0.424445
0.547234 0.440055 0.44889
0.241443 0.404883 0.413352
0.280003 0.409476 0.413977
0.297841 0.41738 0.420981
0.313634 0.424857 0.428183
0.330678 0.434226 0.437415
0.347723 0.441428 0.444282
0.383871 0.447837 0.448997
0.47715 0.47715 0.47715
0.572442 0.515785 0.466377
0.281422 0.457877 0.447791
0.315328 0.463203 0.452888
0.333639 0.470726 0.460029
0.349844 0.478691 0.467765
0.367987 0.490074 0.478767
0.388052 0.50428 0.49189
0.416541 0.514107 0.50103
0.507729 0.531624 0.524147
0.598566 0.58294 0.500175
