site/assets/luts/freshluts--0000112-brightgreen.cube
# LUTr-Schema-Version: 2
# LUTr-ID: freshluts--0000112-brightgreen
# LUTr-Title: BrightGreen
# LUTr-Collection: Fresh LUTs
# LUTr-Collection-ID: freshluts-community
# LUTr-Source: https://freshluts.com
# LUTr-Retrieved: 2026-07-27
# LUTr-Source-File: submissions-raw/freshluts/cubes/112__BrightGreen.cube
# LUTr-Source-Format: CUBE
# LUTr-Source-SHA256: 62040af96d990a52c8061b4c71203e96e4de0ae83ee2b8f4e3b62affc2af9ee4
# LUTr-License: CC0-1.0
# LUTr-License-URL: https://freshluts.com/termsandconditions
# LUTr-License-Basis: site-terms
# LUTr-Transform-Class: creative-look
# LUTr-Tags: creative, freshluts, community, cube, green, canon-cinestyle
# LUTr-Input-Color-Space:
# LUTr-Input-Gamut: rec709
# LUTr-Input-Transfer: canon-cinestyle
# LUTr-Output-Color-Space: srgb
# LUTr-Output-Gamut: rec709
# LUTr-Output-Transfer: srgb
# LUTr-Color-Space-Confidence: camera-profile-input-required
# LUTr-Domain-Normalized: true
# LUTr-Shaper: none
# LUTr-Original-Grid: 33x33x33
# LUTr-Conversion-Grid: 33x33x33
# LUTr-Conversion-Interpolation: none
# LUTr-Conversion-Method: Metadata normalization; numeric LUT samples preserved
# LUTr-Conversion-Tool: LUTr scripts/convert-all-to-cube.mjs 2.0.0
# LUTr-Conversion-Date: 2026-07-28
# LUTr-Asset-URL: https://freshluts.com/luts/112
# LUTr-Author: J. T. Semple
# LUTr-Author-URL: https://freshluts.com/users/120
# LUTr-Attribution: J. T. Semple via Fresh LUTs
# LUTr-Source-Labels: gamma=Canon Cinestyle; color=Green; key=Neutral; style=Colorful
# LUTr-Note: Preserve this metadata and the upstream license notices when redistributing.
TITLE "BrightGreen"
LUT_3D_SIZE 9
DOMAIN_MIN 0 0 0
DOMAIN_MAX 1 1 1
0 0 0
0 0 0
0 0 0
0.104311 0 0
0.233936 0 0
0.372946 0 0
0.517113 0 0
0.663966 0 0
0.805524 0 0
0 0 0
0 0 0
0.00389105 0 0
0.127932 0 0
0.258808 0 0
0.398062 0 0
0.543374 0 0
0.690303 0 0
0.832181 0 0
0 0.0426947 0
0 0.0507973 0
0.0271763 0.0584573 0
0.151736 0.0660105 0
0.283864 0.0716259 0
0.424674 0.074815 0
0.571221 0.0774243 0
0.719234 0.0804303 0
0.861967 0.0856489 0
0 0.184497 0
0 0.193042 0
0.0508583 0.201724 0
0.176699 0.210208 0
0.31162 0.217136 0
0.454643 0.222309 0
0.603998 0.227039 0
0.753491 0.232425 0
0.896864 0.23949 0
0 0.330877 0
0 0.341115 0
0.0754406 0.352148 0
0.20444 0.362661 0
0.342519 0.371145 0
0.487984 0.377997 0
0.638453 0.383825 0
0.78732 0.389853 0
0.929686 0.397238 0
0 0.484321 0
0 0.496483 0
0.107164 0.508736 0
0.238254 0.519738 0
0.378027 0.527764 0
0.524559 0.534463 0
0.675364 0.540093 0
0.822843 0.546242 0
0.964736 0.553841 0
0 0.640406 0
0.0164187 0.652781 0
0.144213 0.66453 0
0.277241 0.674907 0
0.418433 0.682536 0
0.565881 0.688655 0
0.716106 0.693614 0
0.86157 0.698955 0
1 0.705501 0
0 0.793637 0
0.0603494 0.805722 0
0.188403 0.816861 0
0.32253 0.825544 0
0.46453 0.831983 0
0.611582 0.836454 0
0.759808 0.839902 0
0.902739 0.843656 0
1 0.848493 0
0 0.94316 0
0.106798 0.953933 0
0.234165 0.963424 0
0.368536 0.96994 0
0.509499 0.97435 0
0.655451 0.976699 0
0.800732 0.978546 0
0.94052 0.981079 0
1 0.984573 0
0 0 0
0 0 0
0 0 0
0.105699 0 0
0.235203 0 0
0.374166 0 0
0.518441 0 0
0.665522 0 0
0.807034 0 0
0 0 0
0 0 0
0.00529488 0 0
0.129335 0 0
0.260288 0 0
0.399573 0 0
0.545037 0 0
0.691997 0 0
0.833432 0 0
0 0.0438239 0
0 0.0512703 0
0.0284581 0.0597086 0
0.153216 0.067216 0
0.285481 0.0728771 0
0.426322 0.0762188 0
0.573251 0.0789807 0
0.721523 0.0822309 0
0.864286 0.0874037 0
0 0.185763 0
0 0.194186 0
0.0525368 0.203204 0
0.178668 0.211887 0
0.31368 0.218662 0
0.45716 0.22443 0
0.606806 0.229358 0
0.756313 0.234928 0
0.899641 0.2421 0
0 0.332708 0
0 0.343175 0
0.0780194 0.354345 0
0.206928 0.365148 0
0.345205 0.37351 0
0.490913 0.380575 0
0.641642 0.386297 0
0.790219 0.392218 0
0.932708 0.399741 0
0 0.486763 0
0 0.499046 0
0.109819 0.511376 0
0.241215 0.522194 0
0.380957 0.530236 0
0.527443 0.537011 0
0.678233 0.542657 0
0.825711 0.548623 0
0.967575 0.556237 0
0 0.642863 0
0.0191501 0.655344 0
0.146883 0.66714 0
0.279927 0.677211 0
0.421408 0.685008 0.00202945
0.56878 0.691051 0.00727855
0.718746 0.695796 0.0116579
0.864225 0.70103 0.0165866
1 0.707378 0.0226444
0 0.796155 0.00257877
0.0632944 0.808179 0.0139467
0.19118 0.819242 0.0248875
0.325231 0.827756 0.0334783
0.466926 0.834028 0.0399939
0.614191 0.838209 0.0441444
0.7617 0.841276 0.0472114
0.904433 0.845151 0.0511177
1 0.84976 0.055787
0 0.945342 0.0459297
0.109316 0.955856 0.0567178
0.236515 0.965148 0.0662089
0.37052 0.971511 0.0726787
0.51136 0.975692 0.0768749
0.656916 0.97792 0.0791028
0.801907 0.979324 0.0804761
0.941833 0.981964 0.0831922
1 0.985229 0.0869306
0 0 0
0 0 0
0 0 0
0.106859 0 0
0.236484 0 0
0.375418 0 0
0.519783 0 0
0.666835 0 0
0.808377 0 0
0 0 0
0 0 0
0.00650034 0 0
0.130556 0 0.000808728
0.261036 0 0.00581369
0.400992 0 0.00886549
0.546349 0 0.0108034
0.693492 0 0.0122988
0.835004 0 0.0153811
0 0.04477 0
0 0.0523384 0.00624094
0.0297093 0.0607309 0.0143893
0.154452 0.0682689 0.0216983
0.28661 0.0737011 0.0267033
0.427893 0.0774548 0.030518
0.574945 0.0804456 0.0332799
0.723445 0.083711 0.036347
0.866621 0.0892805 0.0416571
0 0.186648 0.0193332
0 0.195377 0.0274052
0.0539559 0.204578 0.0359045
0.18027 0.213504 0.0441444
0.315679 0.220432 0.0506142
0.459693 0.226337 0.0558328
0.6094 0.231479 0.0601816
0.758648 0.23682 0.0649882
0.902342 0.244388 0.0717937
0 0.334066 0.0391089
0 0.345022 0.0491188
0.0800793 0.356481 0.0594644
0.209384 0.367376 0.0692302
0.347814 0.375799 0.0766613
0.493614 0.382864 0.0827497
0.644327 0.388525 0.0875257
0.792523 0.394217 0.092668
0.935119 0.402014 0.0996109
0 0.488792 0.0656443
0 0.501396 0.0773327
0.11252 0.513603 0.0888991
0.243229 0.524132 0.0986191
0.383551 0.532433 0.106111
0.530205 0.539162 0.112108
0.681056 0.544732 0.117021
0.828443 0.550622 0.122408
0.969985 0.55819 0.129549
0 0.645075 0.0991684
0.0217899 0.657511 0.111482
0.149401 0.669337 0.122774
0.282139 0.679271 0.132418
0.42385 0.686992 0.140093
0.571145 0.692866 0.145739
0.720867 0.697398 0.150072
0.866209 0.702541 0.155123
1 0.708736 0.161288
0 0.798215 0.140322
0.065507 0.810117 0.152575
0.193164 0.820966 0.163638
0.327352 0.829328 0.172427
0.468788 0.835447 0.178882
0.615717 0.83946 0.183154
0.763119 0.842222 0.186191
0.905623 0.84593 0.190234
1 0.850355 0.195056
0 0.946838 0.185107
0.111009 0.957214 0.195865
0.237751 0.966049 0.205219
0.371984 0.972351 0.212253
0.512474 0.976364 0.216434
0.657786 0.978256 0.218799
0.802594 0.97966 0.220371
0.942397 0.982116 0.223377
1 0.985275 0.227253
0 0 0.0899825
0 0 0.0978408
0 0 0.106081
0.107958 0 0.113466
0.237751 0 0.119203
0.376715 0 0.122286
0.521126 0 0.124269
0.667765 0 0.124971
0.809628 0 0.127794
0 0 0.111269
0 0 0.119219
0.00755322 0 0.12755
0.131731 0 0.134905
0.262074 0 0.139879
0.40235 0 0.143481
0.547692 0 0.145449
0.694865 0 0.147341
0.836576 0 0.150866
0 0.045594 0.132494
0 0.0533761 0.140322
0.03093 0.0617075 0.148714
0.15555 0.0692607 0.156634
0.288151 0.0746471 0.162142
0.429511 0.078645 0.166049
0.576989 0.0817578 0.169543
0.725338 0.0852369 0.1729
0.868864 0.0910658 0.178851
0 0.187625 0.154131
0 0.196521 0.162753
0.055436 0.205875 0.171817
0.181842 0.214847 0.180499
0.317571 0.222156 0.187533
0.461753 0.22826 0.193362
0.61178 0.233463 0.198505
0.761135 0.23888 0.20351
0.904982 0.246372 0.21091
0 0.335698 0.175631
0 0.346822 0.186297
0.0822003 0.35845 0.197284
0.211307 0.369085 0.207355
0.350179 0.377859 0.215702
0.495918 0.384909 0.222187
0.646342 0.390234 0.227161
0.794842 0.396124 0.232868
0.937392 0.403922 0.240085
0 0.490883 0.204501
0 0.503487 0.216678
0.114702 0.515633 0.228779
0.245396 0.526024 0.238926
0.385809 0.53431 0.246983
0.532494 0.540993 0.253468
0.682918 0.546166 0.258488
0.830304 0.552346 0.264576
0.971893 0.559747 0.271931
0 0.646937 0.240055
0.0239261 0.659388 0.252766
0.151629 0.671107 0.26482
0.284398 0.680919 0.274998
0.425986 0.688518 0.282887
0.573068 0.694286 0.288685
0.722393 0.698466 0.2934
0.867643 0.703578 0.298848
1 0.709606 0.305287
0 0.799893 0.283146
0.0672618 0.811673 0.295644
0.194659 0.822019 0.307149
0.328832 0.830472 0.316472
0.470207 0.836378 0.322942
0.616846 0.840116 0.327642
0.764096 0.84268 0.330724
0.906249 0.846235 0.334874
1 0.850446 0.340093
0 0.947936 0.329213
0.112169 0.958068 0.340444
0.238636 0.966598 0.349981
0.372778 0.972732 0.357046
0.513039 0.976532 0.361425
0.658091 0.978164 0.363912
0.802731 0.979492 0.365942
0.942367 0.981872 0.368826
1 0.984817 0.372641
0 0 0.220401
0 0 0.228672
0 0 0.237476
0.109331 0 0.245365
0.23888 0 0.251255
0.378195 0 0.2551
0.522606 0 0.257343
0.668788 0 0.258534
0.811032 0 0.261891
0 0 0.242588
0 0 0.25127
0.00880446 0 0.260044
0.133013 0 0.268025
0.263493 0 0.273701
0.40383 0 0.277455
0.549218 0 0.280125
0.696101 0 0.282277
0.838209 0 0.286549
0 0.0460365 0.264897
0 0.0544289 0.273899
0.032166 0.0627146 0.282811
0.156817 0.0702373 0.290974
0.289525 0.0757763 0.297139
0.43125 0.0798657 0.301778
0.579019 0.0832074 0.305638
0.727382 0.0868238 0.309773
0.871092 0.0929274 0.316426
0 0.188693 0.288502
0 0.197772 0.297719
0.0569924 0.207294 0.307424
0.18349 0.216281 0.316548
0.319707 0.223926 0.324315
0.464134 0.230182 0.330892
0.614221 0.23537 0.336095
0.763668 0.240986 0.34168
0.907225 0.248554 0.349157
0 0.337346 0.312459
0 0.348745 0.323598
0.0843061 0.36051 0.334813
0.213703 0.371176 0.345464
0.352621 0.37998 0.35404
0.498482 0.386954 0.360769
0.648569 0.392187 0.365621
0.797269 0.398184 0.371511
0.93991 0.405936 0.379034
0 0.493065 0.342901
0 0.505608 0.355352
0.116564 0.517571 0.367239
0.2477 0.528069 0.377646
0.388037 0.536416 0.385901
0.534768 0.543069 0.392447
0.685145 0.54818 0.397467
0.832563 0.554253 0.403433
0.97377 0.561608 0.410697
0 0.648997 0.379141
0.0260319 0.661509 0.391775
0.15349 0.672831 0.403632
0.286732 0.682857 0.413993
0.428183 0.690394 0.42179
0.574975 0.69572 0.427329
0.724453 0.700023 0.431891
0.869398 0.705013 0.43714
1 0.710842 0.44329
0 0.801831 0.422278
0.0695811 0.813428 0.434714
0.196719 0.823713 0.445792
0.330861 0.831968 0.454826
0.472175 0.837674 0.461112
0.61825 0.84097 0.465171
0.765637 0.843595 0.468391
0.907423 0.847028 0.47219
1 0.851102 0.47715
0 0.949432 0.467475
0.113588 0.959411 0.478386
0.240116 0.967727 0.487541
0.374197 0.973648 0.49427
0.514305 0.977264 0.498375
0.659083 0.978637 0.500572
0.803616 0.97998 0.502495
0.943145 0.982254 0.505257
1 0.984771 0.508598
0 0 0.351232
0 0 0.359915
0 0 0.368795
0.110643 0 0.376654
0.240436 0 0.382696
0.379614 0 0.386603
0.524285 0 0.388754
0.670497 0 0.390127
0.812482 0 0.393393
0 0 0.373999
0 0 0.382742
0.0102083 0 0.391501
0.133791 0 0.398688
0.265187 0 0.405173
0.405585 0 0.408896
0.551095 0 0.411597
0.697902 0 0.413733
0.840299 0 0.41825
0 0.0472725 0.396521
0 0.0556344 0.405417
0.0336767 0.06392 0.414252
0.15819 0.0713054 0.422095
0.291447 0.0772106 0.428534
0.433402 0.0815137 0.433402
0.58117 0.0847486 0.437003
0.73022 0.0888991 0.44152
0.874037 0.0952773 0.448173
0 0.190127 0.419867
0 0.19939 0.429206
0.0590524 0.209094 0.439094
0.185931 0.21828 0.448325
0.322545 0.226123 0.456138
0.467063 0.232639 0.462333
0.617105 0.23772 0.467445
0.766735 0.243626 0.473243
0.910216 0.251225 0.48043
0 0.339559 0.444068
0 0.351217 0.455131
0.0868544 0.362997 0.466651
0.216419 0.373877 0.477089
0.355642 0.382666 0.485451
0.501534 0.389578 0.491981
0.651789 0.394705 0.496742
0.800244 0.400885 0.50251
0.942718 0.408698 0.509865
0 0.495766 0.474556
0 0.508354 0.486915
0.119188 0.520119 0.498283
0.250629 0.530755 0.508675
0.391302 0.53904 0.516701
0.537911 0.54548 0.52314
0.688243 0.55079 0.527962
0.835477 0.556817 0.533715
0.976623 0.563958 0.54081
0 0.651713 0.510369
0.0290684 0.664103 0.522835
0.156344 0.675532 0.534371
0.28957 0.685512 0.544457
0.431205 0.692866 0.551934
0.577859 0.697978 0.557153
0.727184 0.70222 0.561502
0.871733 0.707118 0.566506
1 0.712535 0.57203
0 0.80444 0.552575
0.0721447 0.815656 0.564569
0.199481 0.826047 0.57554
0.333593 0.834104 0.584161
0.474754 0.839612 0.590219
0.620752 0.842756 0.593591
0.767666 0.845243 0.59675
0.909407 0.848463 0.600229
1 0.852171 0.604288
0 0.951598 0.596674
0.115587 0.961089 0.60679
0.242176 0.969528 0.615854
0.376349 0.975204 0.622095
0.515816 0.978469 0.62562
0.66099 0.979919 0.627741
0.80531 0.981186 0.629282
0.944579 0.983368 0.63183
1 0.985214 0.634333
0 0 0.477882
0 0 0.486488
0 0 0.495232
0.112398 0 0.502831
0.242435 0 0.508797
0.38172 0 0.512612
0.525765 0 0.514565
0.672724 0 0.516152
0.814542 0 0.519539
0 0 0.500343
0 0 0.509071
0.0120241 0 0.517647
0.135576 0 0.524941
0.267353 0 0.530999
0.40763 0 0.534737
0.553216 0 0.537087
0.700404 0 0.539681
0.842741 0 0.544182
0 0.0489052 0.522667
0 0.0572518 0.531395
0.0354314 0.0654917 0.540002
0.160327 0.073106 0.547723
0.293935 0.0791638 0.554147
0.436255 0.0836652 0.559243
0.5841 0.0872053 0.562783
0.733455 0.0915694 0.5673
0.877455 0.0981765 0.573892
0 0.191989 0.545815
0 0.20148 0.555032
0.0611887 0.21117 0.564477
0.188586 0.220951 0.573938
0.325582 0.228992 0.581689
0.470512 0.235599 0.587961
0.6206 0.240818 0.592935
0.770199 0.246815 0.598444
0.913863 0.254322 0.605463
0 0.342351 0.569848
0 0.354177 0.580896
0.0897231 0.365911 0.591791
0.219791 0.377096 0.602152
0.359075 0.38587 0.610346
0.50454 0.392432 0.616114
0.655238 0.397925 0.620966
0.803845 0.40412 0.626444
0.946227 0.411963 0.633509
0 0.499016 0.599786
0 0.511635 0.611719
0.122637 0.523262 0.622843
0.254124 0.533989 0.632868
0.394934 0.54229 0.640558
0.541482 0.548531 0.646235
0.692119 0.553887 0.651026
0.838941 0.55993 0.656458
0.979873 0.566903 0.662806
0 0.654963 0.634577
0.0325017 0.667308 0.646342
0.159869 0.678813 0.657511
0.29337 0.688609 0.667231
0.434791 0.695888 0.674174
0.58146 0.700893 0.678889
0.730587 0.704997 0.682872
0.875013 0.709728 0.687343
1 0.7149 0.692256
0 0.807553 0.675456
0.0753033 0.818692 0.686473
0.202731 0.829007 0.696986
0.336996 0.836851 0.704875
0.47776 0.842008 0.710384
0.62388 0.845121 0.713558
0.77055 0.847501 0.715953
0.912001 0.850492 0.719112
1 0.8542 0.722622
0 0.954253 0.717067
0.118685 0.963668 0.72668
0.245182 0.971908 0.735073
0.379019 0.977462 0.740841
0.51873 0.980453 0.743923
0.663691 0.981888 0.745434
0.807813 0.983108 0.746532
0.946426 0.985016 0.748562
1 0.98587 0.750271
0 0 0.600183
0 0 0.608469
0 0 0.616861
0.114488 0 0.624125
0.244648 0 0.629999
0.384237 0 0.633448
0.528222 0 0.634806
0.67541 0 0.636545
0.817182 0 0.639475
0 0 0.622049
0 0 0.630274
0.0142367 0 0.638407
0.138048 0 0.645396
0.269871 0 0.651286
0.410407 0 0.654673
0.555901 0 0.656825
0.703548 0 0.659083
0.846052 0 0.663691
0 0.0509804 0.643488
0 0.0593576 0.65182
0.0377813 0.0675975 0.659983
0.162982 0.0754253 0.667704
0.296986 0.0816815 0.673655
0.439551 0.0863355 0.678477
0.588022 0.090135 0.682155
0.737331 0.0948653 0.686427
0.881361 0.101701 0.692821
0 0.194476 0.665522
0 0.204227 0.674586
0.0641642 0.214191 0.683787
0.19202 0.224186 0.692943
0.329427 0.232425 0.70042
0.474296 0.23888 0.706142
0.624979 0.24445 0.711055
0.774502 0.250492 0.716304
0.917556 0.257939 0.722591
0 0.345708 0.688807
0 0.35761 0.699367
0.0935378 0.369635 0.710155
0.223728 0.38088 0.72018
0.363272 0.389624 0.727733
0.508919 0.396078 0.733166
0.659724 0.401648 0.737682
0.808042 0.40795 0.742992
0.950195 0.415442 0.749187
0 0.502876 0.717556
0 0.515114 0.728801
0.12636 0.527153 0.73962
0.258442 0.537789 0.749279
0.399268 0.54612 0.756558
0.545693 0.552407 0.761654
0.696254 0.557702 0.766033
0.843076 0.563607 0.771054
0.983398 0.570367 0.776852
0 0.658885 0.75079
0.0363317 0.671016 0.762219
0.164004 0.682673 0.772915
0.297658 0.692378 0.781857
0.438712 0.699199 0.788266
0.585672 0.704356 0.792813
0.734585 0.70837 0.796017
0.878737 0.712932 0.800122
1 0.717998 0.804746
0 0.811337 0.78999
0.0795148 0.822263 0.800809
0.206821 0.832456 0.810513
0.340978 0.840131 0.818082
0.481544 0.845014 0.822522
0.627649 0.84802 0.825559
0.774075 0.850263 0.827359
0.915038 0.853132 0.830243
1 0.856718 0.833616
0 0.957473 0.829892
0.122286 0.966781 0.838956
0.248707 0.974838 0.846769
0.382513 0.980148 0.851759
0.522118 0.983047 0.854612
0.666743 0.984436 0.855833
0.810849 0.985534 0.856733
0.949203 0.987106 0.858305
1 0.987106 0.858915
0 0 0.716503
0 0 0.724483
0 0 0.732219
0.117067 0 0.739193
0.247623 0 0.744488
0.387243 0 0.7476
0.531533 0 0.748867
0.678462 0 0.750179
0.820401 0 0.753017
0 0 0.737224
0 0 0.744991
0.0162051 0 0.752132
0.141009 0 0.759564
0.272969 0 0.764813
0.413733 0 0.768109
0.559503 0 0.769848
0.707118 0 0.77229
0.85005 0 0.776547
0 0.0535897 0.75758
0 0.0620279 0.765515
0.0407111 0.0702678 0.77322
0.166262 0.0783551 0.780758
0.300679 0.0847791 0.786862
0.443244 0.0895247 0.791028
0.592218 0.0937819 0.794858
0.742016 0.0986496 0.799313
0.88603 0.105592 0.805478
0 0.197559 0.778775
0 0.207507 0.787457
0.0679637 0.217731 0.796674
0.196246 0.227939 0.805631
0.333837 0.236408 0.81297
0.478828 0.242939 0.818616
0.629557 0.248661 0.823072
0.779217 0.254688 0.827924
0.922103 0.261997 0.834058
0 0.349691 0.80148
0 0.361669 0.811872
0.0976883 0.373922 0.822278
0.228183 0.385168 0.831846
0.367514 0.393744 0.839048
0.513603 0.400259 0.84445
0.664286 0.405921 0.848844
0.812741 0.412207 0.853819
0.954574 0.419745 0.859998
0 0.507149 0.829618
0.00358587 0.519539 0.840497
0.130938 0.531395 0.850828
0.262882 0.542138 0.860151
0.403632 0.550042 0.866972
0.550668 0.556497 0.872374
0.701137 0.56173 0.876524
0.847288 0.567391 0.881132
0.987839 0.574182 0.886809
0 0.662959 0.861708
0.0409705 0.675288 0.872908
0.168521 0.68687 0.883497
0.302159 0.696437 0.892317
0.443244 0.703151 0.898116
0.590188 0.70808 0.902586
0.738888 0.71191 0.90576
0.882277 0.71606 0.909255
1 0.721233 0.913878
0 0.815015 0.900221
0.0837262 0.826215 0.910796
0.210986 0.836194 0.920302
0.345205 0.843626 0.927504
0.485618 0.848295 0.932036
0.631632 0.851102 0.934447
0.777722 0.853178 0.936477
0.918273 0.855772 0.938872
1 0.859403 0.942306
0.00204471 0.960861 0.939315
0.12578 0.970123 0.948318
0.252125 0.977966 0.955901
0.385901 0.982757 0.960494
0.525444 0.985855 0.963104
0.670314 0.986999 0.964202
0.814008 0.988037 0.964858
0.952056 0.988724 0.966323
1 0.987533 0.965042
