site/assets/luts/freshluts--0001178-sony-s-log-3-to-rec709.cube
# LUTr-Schema-Version: 2
# LUTr-ID: freshluts--0001178-sony-s-log-3-to-rec709
# LUTr-Title: Sony S-Log 3 to Rec.709
# LUTr-Collection: Fresh LUTs
# LUTr-Collection-ID: freshluts-community
# LUTr-Source: https://freshluts.com
# LUTr-Retrieved: 2026-07-27
# LUTr-Source-File: submissions-raw/freshluts/cubes/1178__S-LOG_3_to_Rec709_v2.cube
# LUTr-Source-Format: CUBE
# LUTr-Source-SHA256: 17a8e89aea24766a2e5d4ede6da00779115185002510c9a01187e1bb5c221e20
# LUTr-License: CC0-1.0
# LUTr-License-URL: https://freshluts.com/termsandconditions
# LUTr-License-Basis: site-terms
# LUTr-Transform-Class: creative-look
# LUTr-Tags: creative, freshluts, community, cube, sony-s-log3
# LUTr-Input-Color-Space:
# LUTr-Input-Gamut: sony-s-gamut3
# LUTr-Input-Transfer: sony-s-log3
# LUTr-Output-Color-Space: srgb
# LUTr-Output-Gamut: rec709
# LUTr-Output-Transfer: srgb
# LUTr-Color-Space-Confidence: camera-profile-input-required
# LUTr-Domain-Normalized: true
# LUTr-Shaper: none
# LUTr-Original-Grid: 33x33x33
# LUTr-Conversion-Grid: 33x33x33
# LUTr-Conversion-Interpolation: none
# LUTr-Conversion-Method: Metadata normalization; numeric LUT samples preserved
# LUTr-Conversion-Tool: LUTr scripts/convert-all-to-cube.mjs 2.0.0
# LUTr-Conversion-Date: 2026-07-28
# LUTr-Asset-URL: https://freshluts.com/luts/1178
# LUTr-Author: Revirssab
# LUTr-Author-URL: https://freshluts.com/users/9194
# LUTr-Attribution: Revirssab via Fresh LUTs
# LUTr-Source-Labels: gamma=Sony S-Log 3; color=None; key=Neutral; style=NEUTRAL
# LUTr-Note: Preserve this metadata and the upstream license notices when redistributing.
TITLE "Sony S-Log 3 to Rec.709"
LUT_3D_SIZE 33
DOMAIN_MIN 0 0 0
DOMAIN_MAX 1 1 1
0 0 0
0 0 0
0 0 0
0.0207675 0 0
0.0633402 0 0
0.105058 0 0
0.138521 0 0
0.167147 0 0
0.202914 0 0
0.243122 0 0
0.290028 0 0
0.34432 0 0
0.405997 0 0
0.474403 0 0
0.546181 0 0
0.617105 0 0
0.690135 0 0
0.762493 0 0
0.830091 0 0
0.890883 0 0
0.947601 0 0
1 0 0
1 0 0
1 0 0
1 0 0
1 0 0
1 0 0
1 0 0
1 0 0
1 0 0
1 0 0
1 0 0
1 0 0
0 0 0
0 0 0
0 0 0
0 0 0
0.0404212 0 0
0.0832532 0 0
0.121324 0 0
0.152422 0 0
0.188479 0 0
0.231022 0 0
0.280201 0 0
0.336065 0 0
0.399008 0 0
0.467506 0 0
0.540383 0 0
0.61207 0 0
0.685634 0 0
0.759136 0 0
0.826963 0 0
0.888289 0 0
0.945342 0 0
1 0 0
1 0 0
1 0 0
1 0 0
1 0 0
1 0 0
1 0 0
1 0 0
1 0 0
1 0 0
1 0 0
1 0 0
0 0 0
0 0 0
0 0 0
0 0 0
0.0157321 0 0
0.0630503 0 0
0.107195 0 0
0.141802 0 0
0.179034 0 0
0.222568 0 0
0.272801 0 0
0.329503 0 0
0.392874 0 0
0.462181 0 0
0.535897 0 0
0.608759 0 0
0.682902 0 0
0.756374 0 0
0.824689 0 0
0.886412 0 0
0.944137 0 0
0.999588 0 0
1 0 0
1 0 0
1 0 0
1 0 0
1 0 0
1 0 0
1 0 0
1 0 0
1 0 0
1 0 0
1 0 0
0 0 0
0 0 0
0 0 0
0 0 0
0 0 0
0.0442664 0 0
0.0907912 0 0
0.128557 0 0
0.167514 0 0
0.21326 0 0
0.264714 0 0
0.322713 0 0
0.387152 0 0
0.457328 0 0
0.532372 0 0
0.605325 0 0
0.679973 0 0
0.754009 0 0
0.822812 0 0
0.885344 0 0
0.942931 0 0
0.998474 0 0
1 0 0
1 0 0
1 0 0
1 0 0
1 0 0
1 0 0
1 0 0
1 0 0
1 0 0
1 0 0
1 0 0
0 0 0
0 0 0
0 0 0
0 0 0
0 0 0
0.0253452 0 0
0.0722362 0 0
0.114748 0 0
0.156207 0 0
0.204059 0 0
0.257328 0 0
0.316747 0 0
0.382681 0 0
0.453727 0 0
0.529046 0 0
0.602609 0 0
0.677714 0 0
0.752636 0 0
0.821927 0 0
0.884291 0 0
0.942107 0 0
0.997681 0 0
1 0 0
1 0 0
1 0 0
1 0 0
1 0 0
1 0 0
1 0 0
1 0 0
1 0 0
1 0 0
1 0 0
0 0.0205997 0
0 0.0165103 0
0 0.0126497 0
0 0.00854505 0
0 0.00424201 0
0.00521859 0.00239567 0
0.0522774 0.00419623 0
0.0979629 0.00596628 0
0.142428 0.00701915 0
0.192859 0.00608835 0
0.248295 0.00263981 0
0.309972 0 0
0.377005 0 0
0.449119 0 0
0.525261 0 0
0.599634 0 0
0.675883 0 0
0.75079 0 0
0.82034 0 0
0.882811 0 0
0.940597 0 0
0.996475 0 0
1 0 0
1 0 0
1 0 0
1 0 0
1 0 0
1 0 0
1 0 0
1 0 0
1 0 0
1 0 0
1 0 0
0 0.0594949 0
0 0.055375 0
0 0.0516976 0
0 0.0476844 0
0 0.0435187 0
0 0.0394446 0
0.029099 0.0377966 0
0.0755169 0.0396277 0
0.124666 0.0407111 0
0.178805 0.0395209 0
0.237308 0.035874 0
0.300816 0.0285344 0
0.369757 0.0168307 0
0.443565 0 0
0.520943 0 0
0.596582 0 0
0.672724 0 0
0.747921 0 0
0.817578 0 0
0.88014 0 0
0.938415 0 0
0.993957 0 0
1 0 0
1 0 0
1 0 0
1 0 0
1 0 0
1 0 0
1 0 0
1 0 0
1 0 0
1 0 0
1 0 0
0 0.0955062 0
0 0.091783 0
0 0.0883497 0
0 0.0847181 0
0 0.080415 0
0 0.0762493 0
0.00697337 0.0720378 0
0.0539559 0.0706493 0
0.106432 0.0721294 0
0.164508 0.0710002 0
0.225589 0.0670329 0
0.29099 0.0608072 0
0.361395 0.0508583 0
0.437079 0.036347 0
0.515679 0.0165713 0
0.591699 0 0
0.668467 0 0
0.744106 0 0
0.814527 0 0
0.877333 0 0
0.935271 0 0
0.99086 0 0
1 0 0
1 0 0
1 0 0
1 0 0
1 0 0
1 0 0
1 0 0
1 0 0
1 0 0
1 0 0
1 0 0
0 0.127932 0
0 0.124987 0
0 0.122362 0
0 0.11931 0
0 0.116121 0
0 0.112917 0
0 0.109575 0
0.0301671 0.106401 0
0.0831769 0.10602 0
0.145876 0.107652 0
0.209461 0.107301 0
0.277363 0.103975 0
0.350271 0.0972152 0
0.427176 0.0852369 0
0.507332 0.0671702 0
0.584772 0.0464332 0
0.662776 0.0215915 0
0.739712 0 0
0.81004 0 0
0.873045 0 0
0.931182 0 0
0.986877 0 0
1 0 0
1 0 0
1 0 0
1 0 0
1 0 0
1 0 0
1 0 0
1 0 0
1 0 0
1 0 0
1 0.0220951 0
0 0.166217 0
0 0.16379 0
0 0.161578 0
0 0.159167 0
0 0.156649 0
0 0.154467 0
0 0.151934 0
0 0.149371 0
0.049134 0.14638 0
0.12018 0.145785 0
0.189395 0.147631 0
0.260121 0.147066 0
0.33521 0.14342 0
0.414176 0.136217 0
0.496117 0.124788 0
0.575509 0.110399 0
0.65507 0.090486 0
0.732708 0.0651713 0
0.803891 0.0406958 0
0.867292 0.0192569 0
0.925963 0.000350958 0
0.981979 0 0
1 0 0
1 0 0
1 0 0
1 0 0
1 0 0
1 0 0
1 0 0
1 0.0321508 0
1 0.0709392 0
1 0.11313 0
1 0.150164 0
0 0.207446 0
0 0.205463 0
0 0.203677 0
0 0.201801 0
0 0.200107 0
0 0.198169 0
0 0.196201 0
0 0.194263 0
0.00604257 0.191959 0
0.0817273 0.188754 0
0.162203 0.188128 0
0.238346 0.189502 0
0.315969 0.188769 0
0.397436 0.184955 0
0.481987 0.178241 0
0.562631 0.1691 0
0.643641 0.15671 0
0.722744 0.141466 0
0.795193 0.12549 0
0.859922 0.111254 0
0.918807 0.0978866 0
0.97499 0.0845502 0
1 0.0718242 0
1 0.0633097 0
1 0.0607004 0
1 0.0663005 0
1 0.0800946 0
1 0.101671 0
1 0.128038 0
1 0.155459 0
1 0.183368 0
1 0.210941 0
1 0.238468 0
0 0.252216 0
0 0.250614 0
0 0.249302 0
0 0.24799 0
0 0.246418 0
0 0.244877 0
0 0.243351 0
0 0.241901 0
0 0.240467 0
0.025742 0.237644 0
0.122469 0.23357 0
0.209445 0.232883 0
0.292607 0.234119 0
0.376974 0.233631 0
0.463279 0.229984 0
0.54583 0.224552 0
0.628611 0.216754 0
0.709346 0.207019 0
0.783688 0.19765 0
0.849271 0.189197 0
0.909239 0.182071 0
0.966079 0.175921 0
1 0.171008 0
1 0.169162 0
1 0.170031 0
1 0.175998 0
1 0.186984 0
1 0.202319 0
1 0.222553 0
1 0.24329 0
1 0.265248 0
1 0.288151 0
1 0.311711 0
0 0.301076 0
0 0.300099 0
0 0.298955 0
0 0.297704 0
0 0.296422 0
0 0.295186 0
0 0.294377 0
0 0.293202 0
0 0.291814 0
0 0.289586 0
0.0565805 0.286275 0
0.168673 0.281941 0
0.262028 0.281193 0
0.351644 0.282307 0
0.440284 0.281575 0
0.524742 0.279271 0
0.61004 0.275135 0
0.692699 0.269169 0
0.768277 0.263157 0
0.835401 0.258228 0
0.896681 0.254337 0
0.954971 0.25153 0
1 0.24979 0
1 0.250019 0
1 0.252644 0
1 0.258991 0
1 0.269245 0
1 0.282918 0
1 0.299626 0
1 0.317632 0
1 0.336812 0
1 0.357122 0
1 0.378576 0
0 0.354589 0
0 0.353506 0
0 0.35256 0
0 0.351522 0
0 0.350545 0
0 0.34992 0
0 0.348913 0
0 0.347951 0
0 0.346792 0
0 0.344961 0
0 0.342702 0
0.102922 0.338796 0
0.219409 0.333303 0
0.318532 0.332555 0
0.413092 0.333639 0
0.50042 0.334371 0
0.586969 0.332845 0
0.671748 0.329625 0
0.749187 0.326284 0
0.81796 0.323781 0
0.881056 0.322545 0
0.940414 0.321431 0
0.996292 0.321065 0
1 0.322484 0
1 0.32607 0
1 0.333104 0
1 0.342718 0
1 0.354788 0
1 0.369711 0
1 0.385855 0
1 0.403525 0
1 0.422141 0
1 0.441123 0
0 0.412253 0
0 0.411353 0
0 0.410544 0
0 0.410132 0
0 0.409216 0
0 0.408362 0
0 0.407507 0
0 0.406683 0
0 0.406149 0
0 0.404547 0
0 0.402228 0
0 0.398932 0
0.155734 0.394324 0
0.275273 0.38851 0
0.378668 0.387839 0
0.471122 0.389593 0
0.56022 0.390356 0
0.646464 0.389853 0
0.726329 0.389075 0
0.796963 0.388556 0
0.861234 0.388495 0
0.921981 0.388769 0
0.979294 0.389578 0
1 0.391989 0
1 0.396078 0
1 0.402533 0
1 0.411521 0
1 0.422736 0
1 0.436561 0
1 0.451652 0
1 0.467353 0
1 0.483925 0
1 0.501213 0
0 0.474357 0
0 0.473625 0
0 0.473304 0
0 0.472496 0
0 0.471672 0
0 0.470863 0
0 0.470054 0
0 0.46978 0
0 0.468849 0
0 0.467384 0
0 0.465293 0
0 0.462348 0
0.0390021 0.458824 0
0.212421 0.453452 0
0.333318 0.446479 0
0.43357 0.446525 0
0.528313 0.448478 0
0.617945 0.450233 0
0.698756 0.451392 0
0.771221 0.452384 0
0.837278 0.453605 0
0.89958 0.454902 0
0.958663 0.456962 0
1 0.4598 0
1 0.463767 0
1 0.469825 0
1 0.47808 0
1 0.488685 0
1 0.501396 0
1 0.514763 0
1 0.528969 0
1 0.543969 0
1 0.559777 0
0 0.540124 0
0 0.539651 0
0 0.538903 0
0 0.538079 0
0 0.537255 0
0 0.536599 0
0 0.536187 0
0 0.535363 0
0 0.53434 0
0 0.532921 0
0 0.530953 0
0 0.528771 0
0 0.525093 0
0.107393 0.520287 0
0.27068 0.514168 0
0.385992 0.507012 0
0.488655 0.507866 0
0.583581 0.510094 0
0.667659 0.512398 0
0.741238 0.515084 0
0.808957 0.517555 0
0.873365 0.520302 0
0.934066 0.522576 0
0.98909 0.525505 0
1 0.529442 0
1 0.535027 0
1 0.542992 0
1 0.552193 0
1 0.563378 0
1 0.575463 0
1 0.588388 0
1 0.602518 0
1 0.616678 0
0 0.608225 0
0 0.607446 0
0 0.606683 0
0 0.605844 0
0 0.605432 0
0 0.604562 0
0 0.603677 0
0 0.602777 0
0 0.601648 0
0 0.600626 0
0 0.598627 0
0 0.596033 0
0 0.592615 0
0 0.58819 0
0.176684 0.583108 0
0.322881 0.576715 0
0.438788 0.569055 0
0.541146 0.569741 0
0.631052 0.57258 0
0.7084 0.576242 0
0.777401 0.579904 0
0.843015 0.583001 0
0.905852 0.585718 0
0.96289 0.58883 0
1 0.59292 0
1 0.598245 0
1 0.604837 0
1 0.61297 0
1 0.622843 0
1 0.63386 0
1 0.645808 0
1 0.658 0
1 0.670741 0
0 0.677607 0
0 0.676722 0
0 0.676005 0
0 0.675486 0
0 0.674495 0
0 0.673457 0
0 0.672374 0
0 0.671336 0
0 0.670604 0
0 0.668986 0
0 0.666911 0
0 0.66424 0
0 0.660914 0
0 0.657298 0
0 0.652171 0
0.232761 0.646281 0
0.374136 0.639429 0
0.489357 0.631464 0
0.586999 0.633249 0
0.669581 0.636759 0
0.742275 0.640467 0
0.809354 0.644205 0
0.873762 0.647547 0
0.933288 0.651148 0
0.986435 0.654948 0
1 0.659556 0
1 0.665415 0
1 0.672496 0
1 0.681376 0
1 0.691066 0
1 0.701244 0
1 0.712077 0
1 0.723369 0
0 0.745602 0
0 0.745174 0
0 0.744183 0
0 0.743069 0
0 0.74197 0
0 0.740856 0
0 0.740154 0
0 0.738888 0
0 0.737423 0
0 0.735698 0
0 0.733577 0
0 0.731472 0
0 0.728191 0
0 0.724193 0
0 0.719387 0
0.0721904 0.713954 0
0.290105 0.708064 0
0.426535 0.701015 0
0.535088 0.693248 0
0.624475 0.695262 0
0.702205 0.698955 0
0.773388 0.702892 0
0.839948 0.706706 0
0.900786 0.710292 0
0.956191 0.713787 0
1 0.717968 0
1 0.723323 0
1 0.729809 0
1 0.737224 0
1 0.745388 0
1 0.754162 0
1 0.763638 0
1 0.773861 0
0 0.810452 0
0 0.809445 0
0 0.808392 0
0 0.807187 0
0 0.805951 0
0 0.805142 0
0 0.803861 0
0 0.802502 0
0 0.800946 0
0 0.7991 0
0 0.797406 0
0 0.794812 0
0 0.791669 0
0 0.787823 0
0 0.783246 0
0 0.778576 0
0.166323 0.772793 0
0.349416 0.766217 0
0.474861 0.759197 0
0.573587 0.75198 0
0.65771 0.754742 0
0.733394 0.758282 0
0.80412 0.761501 0
0.867384 0.764996 0
0.924254 0.768612 0
0.973953 0.772656 0
1 0.777371 0
1 0.78265 0
1 0.788952 0
1 0.79585 0
1 0.803372 0
1 0.81149 0
1 0.819837 0
0 0.86949 0
0 0.86833 0
0 0.867201 0
0 0.866087 0
0 0.865141 0
0 0.863844 0
0 0.86247 0
0 0.861082 0
0 0.859556 0
0 0.858122 0
0 0.855955 0
0 0.853376 0
0 0.850324 0
0 0.846677 0
0 0.842771 0
0 0.837934 0
0 0.832486 0
0.250324 0.826398 0
0.405905 0.819913 0
0.517769 0.813779 0
0.609018 0.80705 0
0.690272 0.809415 0
0.765469 0.812207 0
0.833082 0.815 0
0.892821 0.81854 0
0.944137 0.822049 0
0.98674 0.825925 0
1 0.830381 0
1 0.835721 0
1 0.842039 0
1 0.848325 0
1 0.854994 0
1 0.862028 0
0 0.921233 0
0 0.920119 0
0 0.919264 0
0 0.917998 0
0 0.916762 0
0 0.915526 0
0 0.914199 0
0 0.913207 0
0 0.911665 0
0 0.90988 0
0 0.90782 0
0 0.905364 0
0 0.9028 0
0 0.899321 0
0 0.895247 0
0 0.890684 0
0 0.885603 0
0.10193 0.880201 0
0.327489 0.87422 0
0.45803 0.868147 0
0.558526 0.862043 0
0.645274 0.855695 0
0.725994 0.857832 0
0.797864 0.860258 0
0.86125 0.862684 0
0.915419 0.865614 0
0.959503 0.869215 0
0.995804 0.873289 0
1 0.878019 0
1 0.883055 0
1 0.888365 0
1 0.89398 0
1 0.899962 0
0 0.966751 0
0 0.96582 0
0 0.964675 0
0 0.963455 0
0 0.962219 0
0 0.961044 0
0 0.960098 0
0 0.958816 0
0 0.957366 0
0 0.955673 0
0 0.953689 0
0 0.951675 0
0 0.948882 0
0 0.945586 0
0 0.941695 0
0 0.937346 0
0 0.93286 0
0 0.927504 0
0.23209 0.921798 0
0.393988 0.916106 0
0.506996 0.910399 0
0.600839 0.904814 0
0.685344 0.898665 0
0.762188 0.900298 0
0.829221 0.902144 0
0.887175 0.904234 0
0.933989 0.90724 0
0.971679 0.91078 0
1 0.914717 0
1 0.918959 0
1 0.923384 0
1 0.928161 0
1 0.933242 0
0 1 0
0 1 0
0 1 0
0 1 0
0 1 0
0 1 0
0 0.999451 0
0 0.99826 0
0 0.996948 0
0 0.995666 0
0 0.99382 0
0 0.991623 0
0 0.988998 0
0 0.985885 0
0 0.982452 0
0 0.978332 0
0 0.9738 0
0 0.968719 0
0.0947433 0.963317 0
0.325185 0.958099 0
0.455299 0.952834 0
0.557092 0.947402 0
0.646525 0.941665 0
0.726268 0.935988 0
0.797818 0.937224 0
0.859342 0.938811 0
0.909102 0.94081 0
0.949203 0.943389 0
0.980026 0.94667 0
1 0.950469 0
1 0.954345 0
1 0.958206 0
1 0.962234 0
0 1 0
0 1 0
0 1 0
0 1 0
0 1 0
0 1 0
0 1 0
0 1 0
0 1 0
0 1 0
0 1 0
0 1 0
0 1 0
0 1 0
0 1 0
0 1 0
0 1 0
0 1 0
0 0.999557 0
0.248066 0.99443 0
0.402594 0.989349 0
0.514488 0.984207 0
0.609644 0.978851 0
0.693584 0.97348 0
0.766751 0.968475 0
0.832105 0.969131 0
0.88484 0.970397 0
0.927474 0.972198 0
0.960769 0.974685 0
0.985183 0.97789 0
1 0.981048 0
1 0.984207 0
1 0.987488 0
0 1 0
0 1 0
0 1 0
0 1 0
0 1 0
0 1 0
0 1 0
0 1 0
0 1 0
0 1 0
0 1 0
0 1 0
0 1 0
0 1 0
0 1 0
0 1 0
0 1 0
0 1 0
0 1 0
0.156207 1 0
0.35024 1 0
0.47425 1 0
0.576074 1 0
0.663798 1 0
0.739528 1 0
0.80589 0.995697 0
0.861875 0.996201 0
0.907134 0.997482 0
0.942535 0.999146 0
0.968536 1 0
0.990753 1 0
1 1 0
1 1 0
0 1 0
0 1 0
0 1 0
0 1 0
0 1 0
0 1 0
0 1 0
0 1 0
0 1 0
