site/assets/luts/freshluts--0000928-picturefx-louvre-paris-classic-chrome-3dl25.cube
# LUTr-Schema-Version: 2
# LUTr-ID: freshluts--0000928-picturefx-louvre-paris-classic-chrome-3dl25
# LUTr-Title: PictureFX-Louvre-Paris-Classic-Chrome-3DL25
# LUTr-Collection: Fresh LUTs
# LUTr-Collection-ID: freshluts-community
# LUTr-Source: https://freshluts.com
# LUTr-Retrieved: 2026-07-27
# LUTr-Source-File: submissions-raw/freshluts/cubes/928__PictureFX-Louvre-Paris-Classic-Chrome-3DL25.cube
# LUTr-Source-Format: CUBE
# LUTr-Source-SHA256: 2976a748d070faaa435781a498aea95be1a454b3b4a4cce2ab8cffb660b8bef0
# LUTr-License: CC0-1.0
# LUTr-License-URL: https://freshluts.com/termsandconditions
# LUTr-License-Basis: site-terms
# LUTr-Transform-Class: creative-look
# LUTr-Tags: creative, freshluts, community, cube, rec709, assumed-input
# LUTr-Input-Color-Space: rec709
# LUTr-Input-Gamut: rec709
# LUTr-Input-Transfer: rec709
# LUTr-Output-Color-Space: srgb
# LUTr-Output-Gamut: rec709
# LUTr-Output-Transfer: srgb
# LUTr-Color-Space-Confidence: assumed-display-referred
# LUTr-Domain-Normalized: true
# LUTr-Shaper: none
# LUTr-Original-Grid: 25x25x25
# LUTr-Conversion-Grid: 25x25x25
# LUTr-Conversion-Interpolation: none
# LUTr-Conversion-Method: Metadata normalization; numeric LUT samples preserved
# LUTr-Conversion-Tool: LUTr scripts/convert-all-to-cube.mjs 2.0.0
# LUTr-Conversion-Date: 2026-07-28
# LUTr-Asset-URL: https://freshluts.com/luts/928
# LUTr-Author: MarcR.
# LUTr-Author-URL: https://freshluts.com/users/86490
# LUTr-Attribution: MarcR. via Fresh LUTs
# LUTr-Source-Labels: gamma=Other; color=None; key=Neutral; style=Correction; LUTr assumption=input Rec.709 per repository policy
# LUTr-Conversion-Warning: Input Rec.709 is a LUTr catalog assumption requested for this otherwise unspecified Fresh LUT; it is not verified by the upstream asset.
# LUTr-Note: Preserve this metadata and the upstream license notices when redistributing.
# LUTr-Upstream-Comment: Generated with IWLTBAP LUT Generator
# LUTr-Upstream-Comment: Website: http://luts.iwltbap.com
# LUTr-Upstream-Comment: LUT size
# LUTr-Upstream-Comment: LUT data points
TITLE "PictureFX-Louvre-Paris-Classic-Chrome-3DL25"
LUT_3D_SIZE 9
DOMAIN_MIN 0 0 0
DOMAIN_MAX 1 1 1
0.054902 0 0
0.109804 0.027451 0.007843
0.2 0.105882 0.054902
0.270588 0.180392 0.066667
0.360784 0.227451 0.113725
0.458824 0.278431 0.164706
0.556863 0.337255 0.219608
0.662745 0.4 0.27451
0.760784 0.462745 0.329412
0.117647 0.129412 0.078431
0.172549 0.141176 0.086275
0.243137 0.164706 0.109804
0.309804 0.207843 0.113725
0.380392 0.258824 0.133333
0.470588 0.305882 0.184314
0.568627 0.360784 0.235294
0.670588 0.415686 0.286275
0.768627 0.478431 0.341176
0.211765 0.243137 0.137255
0.239216 0.247059 0.145098
0.294118 0.258824 0.160784
0.360784 0.278431 0.192157
0.431373 0.313725 0.2
0.505882 0.360784 0.227451
0.596078 0.407843 0.270588
0.690196 0.458824 0.313725
0.788235 0.513725 0.364706
0.298039 0.356863 0.211765
0.317647 0.356863 0.215686
0.360784 0.364706 0.227451
0.419608 0.380392 0.247059
0.490196 0.403922 0.278431
0.564706 0.439216 0.298039
0.639216 0.478431 0.32549
0.729412 0.52549 0.364706
0.823529 0.576471 0.411765
0.396078 0.482353 0.298039
0.411765 0.482353 0.301961
0.447059 0.486275 0.309804
0.494118 0.498039 0.321569
0.556863 0.513725 0.345098
0.627451 0.537255 0.372549
0.701961 0.568627 0.4
0.780392 0.603922 0.427451
0.858824 0.643137 0.454902
0.498039 0.607843 0.388235
0.509804 0.611765 0.392157
0.537255 0.615686 0.396078
0.580392 0.623529 0.407843
0.639216 0.635294 0.427451
0.698039 0.65098 0.447059
0.764706 0.670588 0.470588
0.827451 0.690196 0.490196
0.898039 0.717647 0.505882
0.592157 0.729412 0.470588
0.6 0.729412 0.470588
0.623529 0.729412 0.478431
0.654902 0.733333 0.482353
0.701961 0.741176 0.494118
0.752941 0.74902 0.505882
0.811765 0.760784 0.52549
0.87451 0.780392 0.545098
0.945098 0.803922 0.564706
0.670588 0.831373 0.537255
0.678431 0.831373 0.541176
0.698039 0.835294 0.545098
0.72549 0.839216 0.54902
0.764706 0.843137 0.560784
0.815686 0.854902 0.572549
0.87451 0.866667 0.592157
0.937255 0.882353 0.611765
1 0.901961 0.631373
0.760784 0.94902 0.619608
0.768627 0.94902 0.619608
0.780392 0.94902 0.623529
0.807843 0.952941 0.627451
0.843137 0.956863 0.635294
0.886275 0.964706 0.647059
0.937255 0.972549 0.658824
0.992157 0.980392 0.670588
1 0.988235 0.686275
0.062745 0.003922 0.043137
0.117647 0.039216 0.070588
0.211765 0.105882 0.109804
0.290196 0.172549 0.12549
0.360784 0.231373 0.145098
0.45098 0.286275 0.192157
0.552941 0.341176 0.247059
0.654902 0.403922 0.301961
0.756863 0.462745 0.352941
0.12549 0.133333 0.117647
0.176471 0.141176 0.133333
0.247059 0.168627 0.14902
0.313725 0.207843 0.152941
0.372549 0.266667 0.156863
0.462745 0.313725 0.203922
0.560784 0.364706 0.258824
0.662745 0.419608 0.309804
0.764706 0.478431 0.360784
0.207843 0.247059 0.180392
0.239216 0.25098 0.188235
0.298039 0.258824 0.196078
0.364706 0.282353 0.219608
0.427451 0.317647 0.227451
0.494118 0.368627 0.239216
0.588235 0.415686 0.286275
0.682353 0.462745 0.333333
0.784314 0.513725 0.384314
0.298039 0.356863 0.243137
0.317647 0.360784 0.247059
0.360784 0.368627 0.254902
0.423529 0.380392 0.278431
0.490196 0.403922 0.309804
0.564706 0.439216 0.32549
0.635294 0.482353 0.341176
0.72549 0.529412 0.380392
0.819608 0.576471 0.427451
0.396078 0.482353 0.321569
0.411765 0.482353 0.32549
0.443137 0.490196 0.333333
0.494118 0.498039 0.345098
0.556863 0.513725 0.368627
0.627451 0.537255 0.396078
0.698039 0.568627 0.415686
0.772549 0.603922 0.439216
0.85098 0.639216 0.466667
0.498039 0.607843 0.403922
0.509804 0.611765 0.407843
0.537255 0.615686 0.415686
0.580392 0.623529 0.427451
0.635294 0.635294 0.443137
0.698039 0.65098 0.462745
0.760784 0.670588 0.486275
0.827451 0.690196 0.501961
0.894118 0.717647 0.521569
0.588235 0.72549 0.482353
0.6 0.72549 0.486275
0.619608 0.729412 0.490196
0.654902 0.733333 0.494118
0.698039 0.741176 0.505882
0.752941 0.74902 0.521569
0.811765 0.760784 0.537255
0.87451 0.780392 0.556863
0.945098 0.803922 0.580392
0.670588 0.831373 0.552941
0.678431 0.835294 0.552941
0.694118 0.835294 0.556863
0.72549 0.839216 0.560784
0.764706 0.847059 0.572549
0.815686 0.854902 0.584314
0.87451 0.866667 0.603922
0.937255 0.882353 0.623529
1 0.901961 0.643137
0.760784 0.94902 0.627451
0.768627 0.94902 0.631373
0.780392 0.94902 0.631373
0.807843 0.952941 0.639216
0.843137 0.956863 0.647059
0.886275 0.964706 0.654902
0.937255 0.972549 0.666667
0.992157 0.980392 0.682353
1 0.992157 0.694118
0.090196 0.019608 0.109804
0.141176 0.062745 0.133333
0.223529 0.113725 0.172549
0.305882 0.168627 0.196078
0.384314 0.227451 0.219608
0.462745 0.286275 0.247059
0.552941 0.34902 0.290196
0.65098 0.407843 0.341176
0.752941 0.466667 0.392157
0.152941 0.137255 0.172549
0.192157 0.14902 0.184314
0.254902 0.172549 0.203922
0.32549 0.207843 0.219608
0.396078 0.258824 0.235294
0.470588 0.317647 0.254902
0.560784 0.372549 0.298039
0.658824 0.427451 0.34902
0.756863 0.482353 0.4
0.219608 0.25098 0.235294
0.247059 0.254902 0.235294
0.301961 0.262745 0.254902
0.368627 0.286275 0.270588
0.435294 0.321569 0.27451
0.494118 0.376471 0.27451
0.576471 0.423529 0.313725
0.67451 0.466667 0.364706
0.772549 0.517647 0.415686
0.298039 0.360784 0.294118
0.317647 0.364706 0.298039
0.360784 0.372549 0.309804
0.427451 0.384314 0.321569
0.494118 0.407843 0.341176
0.560784 0.443137 0.356863
0.619608 0.490196 0.356863
0.709804 0.537255 0.403922
0.807843 0.580392 0.454902
0.396078 0.482353 0.364706
0.411765 0.486275 0.368627
0.443137 0.490196 0.372549
0.494118 0.498039 0.384314
0.556863 0.513725 0.403922
0.623529 0.537255 0.439216
0.694118 0.568627 0.45098
0.764706 0.607843 0.462745
0.839216 0.643137 0.490196
0.494118 0.607843 0.439216
0.505882 0.611765 0.443137
0.533333 0.615686 0.447059
0.576471 0.623529 0.458824
0.631373 0.635294 0.47451
0.694118 0.647059 0.498039
0.756863 0.666667 0.521569
0.823529 0.690196 0.533333
0.890196 0.717647 0.54902
0.584314 0.72549 0.509804
0.596078 0.72549 0.513725
0.615686 0.729412 0.517647
0.65098 0.733333 0.52549
0.694118 0.741176 0.533333
0.74902 0.74902 0.54902
0.811765 0.764706 0.568627
0.87451 0.780392 0.588235
0.941176 0.803922 0.607843
0.670588 0.835294 0.576471
0.678431 0.835294 0.580392
0.694118 0.835294 0.584314
0.72549 0.839216 0.588235
0.764706 0.847059 0.6
0.815686 0.854902 0.611765
0.87451 0.870588 0.627451
0.937255 0.886275 0.647059
1 0.905882 0.670588
0.760784 0.94902 0.65098
0.764706 0.94902 0.654902
0.780392 0.952941 0.654902
0.803922 0.952941 0.662745
0.839216 0.960784 0.670588
0.886275 0.964706 0.678431
0.937255 0.972549 0.690196
0.992157 0.984314 0.705882
1 0.996078 0.717647
0.141176 0.066667 0.180392
0.180392 0.090196 0.2
0.243137 0.129412 0.227451
0.317647 0.176471 0.254902
0.396078 0.227451 0.282353
0.478431 0.286275 0.313725
0.564706 0.34902 0.34902
0.654902 0.411765 0.392157
0.752941 0.470588 0.435294
0.184314 0.14902 0.231373
0.211765 0.160784 0.239216
0.266667 0.180392 0.254902
0.337255 0.215686 0.278431
0.411765 0.258824 0.301961
0.494118 0.313725 0.32549
0.576471 0.368627 0.356863
0.662745 0.427451 0.396078
0.756863 0.486275 0.443137
0.243137 0.254902 0.286275
0.266667 0.258824 0.290196
0.313725 0.270588 0.301961
0.376471 0.290196 0.321569
0.447059 0.32549 0.337255
0.517647 0.368627 0.352941
0.592157 0.419608 0.376471
0.678431 0.470588 0.411765
0.772549 0.521569 0.458824
0.309804 0.364706 0.34902
0.32549 0.368627 0.352941
0.368627 0.376471 0.356863
0.427451 0.388235 0.376471
0.498039 0.411765 0.396078
0.564706 0.447059 0.403922
0.623529 0.494118 0.403922
0.701961 0.545098 0.435294
0.8 0.588235 0.486275
0.4 0.486275 0.415686
0.411765 0.490196 0.419608
0.443137 0.494118 0.427451
0.490196 0.501961 0.443137
0.560784 0.517647 0.45098
0.627451 0.537255 0.470588
0.694118 0.572549 0.486275
0.745098 0.615686 0.482353
0.823529 0.65098 0.513725
0.494118 0.611765 0.490196
0.505882 0.611765 0.490196
0.533333 0.615686 0.498039
0.576471 0.623529 0.505882
0.631373 0.635294 0.521569
0.694118 0.65098 0.537255
0.756863 0.670588 0.568627
0.819608 0.690196 0.576471
0.882353 0.721569 0.580392
0.584314 0.72549 0.552941
0.592157 0.72549 0.552941
0.611765 0.729412 0.556863
0.647059 0.733333 0.564706
0.694118 0.741176 0.576471
0.74902 0.74902 0.588235
0.807843 0.764706 0.607843
0.87451 0.784314 0.631373
0.941176 0.807843 0.647059
0.670588 0.835294 0.615686
0.67451 0.835294 0.619608
0.694118 0.839216 0.623529
0.721569 0.843137 0.627451
0.764706 0.847059 0.635294
0.815686 0.858824 0.65098
0.870588 0.870588 0.666667
0.933333 0.886275 0.686275
1 0.905882 0.709804
0.756863 0.94902 0.686275
0.764706 0.952941 0.690196
0.780392 0.952941 0.690196
0.803922 0.956863 0.694118
0.839216 0.960784 0.701961
0.882353 0.968627 0.713725
0.933333 0.976471 0.72549
0.988235 0.984314 0.737255
1 0.996078 0.752941
0.196078 0.105882 0.254902
0.219608 0.121569 0.266667
0.270588 0.14902 0.286275
0.333333 0.192157 0.313725
0.411765 0.239216 0.345098
0.494118 0.290196 0.376471
0.580392 0.34902 0.411765
0.666667 0.411765 0.447059
0.760784 0.47451 0.490196
0.219608 0.164706 0.290196
0.243137 0.176471 0.294118
0.286275 0.196078 0.309804
0.352941 0.227451 0.333333
0.427451 0.270588 0.360784
0.505882 0.317647 0.388235
0.588235 0.372549 0.419608
0.67451 0.427451 0.454902
0.764706 0.490196 0.498039
0.266667 0.262745 0.341176
0.286275 0.266667 0.345098
0.329412 0.278431 0.356863
0.388235 0.298039 0.372549
0.458824 0.329412 0.396078
0.533333 0.372549 0.415686
0.611765 0.419608 0.443137
0.690196 0.470588 0.470588
0.776471 0.52549 0.509804
0.329412 0.372549 0.4
0.34902 0.372549 0.403922
0.384314 0.380392 0.411765
0.439216 0.396078 0.427451
0.505882 0.415686 0.447059
0.576471 0.447059 0.462745
0.647059 0.490196 0.478431
0.721569 0.541176 0.501961
0.803922 0.588235 0.537255
0.407843 0.490196 0.470588
0.419608 0.494118 0.47451
0.45098 0.498039 0.482353
0.501961 0.505882 0.486275
0.560784 0.521569 0.509804
0.631373 0.541176 0.529412
0.698039 0.572549 0.533333
0.752941 0.615686 0.529412
0.819608 0.654902 0.54902
0.498039 0.615686 0.545098
0.509804 0.615686 0.545098
0.533333 0.619608 0.552941
0.576471 0.627451 0.560784
0.627451 0.639216 0.576471
0.698039 0.65098 0.588235
0.760784 0.670588 0.6
0.819608 0.694118 0.611765
0.866667 0.733333 0.6
0.584314 0.72549 0.6
0.592157 0.729412 0.603922
0.611765 0.729412 0.607843
0.647059 0.733333 0.615686
0.694118 0.741176 0.623529
0.74902 0.752941 0.635294
0.811765 0.764706 0.654902
0.87451 0.784314 0.686275
0.941176 0.807843 0.698039
0.670588 0.839216 0.662745
0.67451 0.839216 0.662745
0.694118 0.839216 0.666667
0.721569 0.843137 0.67451
0.764706 0.85098 0.682353
0.815686 0.858824 0.694118
0.87451 0.87451 0.709804
0.933333 0.890196 0.733333
1 0.905882 0.756863
0.756863 0.952941 0.729412
0.764706 0.952941 0.733333
0.780392 0.952941 0.733333
0.803922 0.956863 0.737255
0.839216 0.960784 0.745098
0.882353 0.968627 0.752941
0.933333 0.976471 0.764706
0.988235 0.988235 0.780392
1 0.996078 0.796078
0.239216 0.137255 0.32549
0.258824 0.14902 0.333333
0.298039 0.172549 0.34902
0.356863 0.207843 0.372549
0.427451 0.25098 0.4
0.505882 0.301961 0.435294
0.592157 0.356863 0.470588
0.678431 0.415686 0.509804
0.768627 0.478431 0.54902
0.258824 0.184314 0.34902
0.278431 0.196078 0.356863
0.313725 0.211765 0.368627
0.372549 0.243137 0.392157
0.439216 0.282353 0.415686
0.517647 0.32549 0.447059
0.603922 0.380392 0.482353
0.686275 0.431373 0.513725
0.776471 0.494118 0.552941
0.298039 0.270588 0.396078
0.313725 0.278431 0.4
0.34902 0.290196 0.411765
0.403922 0.309804 0.427451
0.470588 0.341176 0.45098
0.545098 0.380392 0.47451
0.623529 0.423529 0.501961
0.705882 0.47451 0.533333
0.792157 0.52549 0.568627
0.356863 0.376471 0.458824
0.368627 0.380392 0.458824
0.403922 0.388235 0.466667
0.45098 0.403922 0.482353
0.517647 0.427451 0.501961
0.584314 0.454902 0.517647
0.662745 0.494118 0.541176
0.741176 0.541176 0.568627
0.819608 0.588235 0.6
0.427451 0.494118 0.52549
0.439216 0.498039 0.52549
0.466667 0.501961 0.533333
0.513725 0.509804 0.541176
0.576471 0.52549 0.556863
0.639216 0.54902 0.576471
0.709804 0.576471 0.592157
0.776471 0.611765 0.603922
0.843137 0.65098 0.619608
0.509804 0.619608 0.6
0.521569 0.623529 0.6
0.545098 0.627451 0.607843
0.584314 0.631373 0.615686
0.639216 0.643137 0.619608
0.698039 0.658824 0.643137
0.764706 0.67451 0.658824
0.827451 0.698039 0.662745
0.878431 0.733333 0.65098
0.588235 0.729412 0.654902
0.596078 0.733333 0.658824
0.615686 0.733333 0.662745
0.65098 0.737255 0.670588
0.694118 0.745098 0.682353
0.745098 0.756863 0.694118
0.815686 0.768627 0.701961
0.882353 0.784314 0.717647
0.941176 0.811765 0.729412
0.670588 0.839216 0.713725
0.678431 0.839216 0.713725
0.694118 0.843137 0.717647
0.72549 0.847059 0.72549
0.764706 0.854902 0.733333
0.815686 0.862745 0.745098
0.87451 0.87451 0.760784
0.937255 0.890196 0.776471
1 0.909804 0.807843
0.760784 0.952941 0.776471
0.764706 0.956863 0.780392
0.780392 0.956863 0.780392
0.803922 0.960784 0.784314
0.839216 0.964706 0.792157
0.882353 0.972549 0.8
0.933333 0.980392 0.811765
0.988235 0.988235 0.823529
1 0.996078 0.839216
0.282353 0.168627 0.388235
0.298039 0.176471 0.396078
0.329412 0.196078 0.411765
0.380392 0.227451 0.431373
0.447059 0.266667 0.458824
0.521569 0.313725 0.494118
0.607843 0.368627 0.529412
0.690196 0.423529 0.564706
0.784314 0.486275 0.607843
0.298039 0.207843 0.411765
0.313725 0.215686 0.415686
0.345098 0.231373 0.431373
0.396078 0.258824 0.45098
0.458824 0.294118 0.47451
0.533333 0.337255 0.505882
0.615686 0.388235 0.541176
0.698039 0.443137 0.576471
0.788235 0.498039 0.615686
0.333333 0.286275 0.454902
0.345098 0.290196 0.458824
0.376471 0.301961 0.466667
0.427451 0.32549 0.486275
0.486275 0.352941 0.505882
0.560784 0.392157 0.533333
0.635294 0.431373 0.560784
0.717647 0.478431 0.592157
0.803922 0.533333 0.627451
0.384314 0.388235 0.513725
0.396078 0.388235 0.513725
0.423529 0.4 0.521569
0.470588 0.411765 0.537255
0.529412 0.435294 0.552941
0.596078 0.462745 0.572549
0.67451 0.501961 0.6
0.752941 0.545098 0.631373
0.835294 0.592157 0.658824
0.45098 0.501961 0.580392
0.462745 0.501961 0.580392
0.486275 0.509804 0.588235
0.529412 0.517647 0.596078
0.584314 0.533333 0.611765
0.647059 0.556863 0.631373
0.717647 0.584314 0.65098
0.788235 0.615686 0.666667
0.858824 0.65098 0.686275
0.529412 0.627451 0.654902
0.541176 0.627451 0.654902
0.560784 0.631373 0.658824
0.6 0.639216 0.666667
0.65098 0.647059 0.67451
0.713725 0.662745 0.690196
0.772549 0.678431 0.709804
0.835294 0.701961 0.717647
0.894118 0.729412 0.721569
0.6 0.733333 0.713725
0.607843 0.737255 0.713725
0.627451 0.737255 0.717647
0.654902 0.741176 0.72549
0.701961 0.74902 0.733333
0.756863 0.760784 0.737255
0.815686 0.772549 0.760784
0.878431 0.788235 0.776471
0.945098 0.815686 0.780392
0.67451 0.843137 0.768627
0.682353 0.843137 0.768627
0.698039 0.847059 0.772549
0.72549 0.85098 0.780392
0.764706 0.858824 0.788235
0.815686 0.866667 0.8
0.870588 0.878431 0.819608
0.941176 0.894118 0.827451
1 0.909804 0.843137
0.760784 0.956863 0.831373
0.768627 0.956863 0.831373
0.780392 0.960784 0.831373
0.803922 0.960784 0.839216
0.839216 0.968627 0.843137
0.882353 0.972549 0.85098
0.933333 0.980392 0.862745
0.988235 0.988235 0.870588
1 0.996078 0.882353
0.321569 0.196078 0.454902
0.337255 0.203922 0.458824
0.364706 0.223529 0.470588
0.407843 0.25098 0.490196
0.470588 0.286275 0.517647
0.541176 0.333333 0.552941
0.623529 0.384314 0.588235
0.705882 0.439216 0.627451
0.796078 0.498039 0.666667
0.337255 0.235294 0.47451
0.34902 0.239216 0.478431
0.376471 0.254902 0.490196
0.423529 0.278431 0.509804
0.482353 0.313725 0.533333
0.552941 0.352941 0.564706
0.631373 0.4 0.596078
0.713725 0.454902 0.635294
0.803922 0.509804 0.67451
0.368627 0.301961 0.509804
0.380392 0.305882 0.517647
0.407843 0.317647 0.52549
0.45098 0.341176 0.541176
0.509804 0.368627 0.564706
0.576471 0.403922 0.592157
0.65098 0.443137 0.619608
0.733333 0.490196 0.654902
0.815686 0.541176 0.690196
0.415686 0.4 0.568627
0.427451 0.4 0.572549
0.45098 0.411765 0.580392
0.494118 0.427451 0.592157
0.54902 0.447059 0.607843
0.611765 0.47451 0.631373
0.686275 0.513725 0.658824
0.768627 0.556863 0.690196
0.847059 0.6 0.721569
0.478431 0.509804 0.635294
0.486275 0.509804 0.635294
0.509804 0.517647 0.643137
0.54902 0.529412 0.654902
0.6 0.545098 0.666667
0.662745 0.568627 0.686275
0.729412 0.596078 0.705882
0.8 0.627451 0.72549
0.870588 0.658824 0.745098
0.556863 0.635294 0.709804
0.564706 0.635294 0.713725
0.584314 0.639216 0.717647
0.619608 0.647059 0.72549
0.666667 0.658824 0.737255
0.721569 0.670588 0.74902
0.780392 0.686275 0.760784
0.843137 0.705882 0.772549
0.905882 0.733333 0.784314
0.615686 0.741176 0.768627
0.623529 0.741176 0.768627
0.643137 0.745098 0.772549
0.670588 0.74902 0.776471
0.713725 0.752941 0.784314
0.768627 0.764706 0.788235
0.827451 0.776471 0.803922
0.886275 0.792157 0.823529
0.952941 0.819608 0.835294
0.686275 0.847059 0.823529
0.690196 0.847059 0.823529
0.705882 0.85098 0.827451
0.733333 0.854902 0.831373
0.772549 0.862745 0.843137
0.819608 0.870588 0.85098
0.882353 0.882353 0.858824
0.941176 0.898039 0.882353
1 0.913725 0.901961
0.768627 0.960784 0.882353
0.772549 0.960784 0.882353
0.784314 0.960784 0.886275
0.807843 0.964706 0.890196
0.843137 0.968627 0.898039
0.882353 0.976471 0.905882
0.929412 0.984314 0.917647
0.980392 0.992157 0.929412
1 0.996078 0.929412
0.364706 0.227451 0.521569
0.372549 0.231373 0.52549
0.4 0.247059 0.537255
0.439216 0.27451 0.552941
0.498039 0.309804 0.580392
0.564706 0.352941 0.611765
0.643137 0.4 0.647059
0.72549 0.454902 0.686275
0.811765 0.513725 0.729412
0.376471 0.258824 0.537255
0.388235 0.262745 0.541176
0.411765 0.278431 0.552941
0.454902 0.301961 0.568627
0.509804 0.333333 0.592157
0.576471 0.372549 0.623529
0.65098 0.415686 0.654902
0.733333 0.466667 0.694118
0.819608 0.52549 0.737255
0.407843 0.321569 0.572549
0.415686 0.32549 0.576471
0.439216 0.337255 0.584314
0.478431 0.356863 0.6
0.533333 0.384314 0.623529
0.596078 0.419608 0.65098
0.670588 0.458824 0.678431
0.74902 0.505882 0.713725
0.831373 0.556863 0.74902
0.45098 0.415686 0.627451
0.462745 0.419608 0.631373
0.486275 0.427451 0.639216
0.521569 0.439216 0.65098
0.568627 0.458824 0.666667
0.635294 0.490196 0.690196
0.705882 0.529412 0.721569
0.784314 0.568627 0.752941
0.858824 0.607843 0.780392
0.509804 0.521569 0.694118
0.517647 0.52549 0.694118
0.541176 0.529412 0.701961
0.576471 0.541176 0.709804
0.623529 0.560784 0.72549
0.682353 0.580392 0.745098
0.74902 0.607843 0.764706
0.815686 0.635294 0.784314
0.882353 0.666667 0.803922
0.584314 0.643137 0.768627
0.592157 0.643137 0.768627
0.607843 0.647059 0.772549
0.643137 0.654902 0.780392
0.682353 0.666667 0.792157
0.733333 0.678431 0.8
0.788235 0.694118 0.811765
0.85098 0.713725 0.823529
0.913725 0.737255 0.839216
0.639216 0.745098 0.819608
0.643137 0.745098 0.823529
0.662745 0.74902 0.823529
0.690196 0.752941 0.831373
0.729412 0.760784 0.835294
0.776471 0.768627 0.847059
0.831373 0.780392 0.858824
0.894118 0.8 0.87451
0.960784 0.823529 0.890196
0.701961 0.85098 0.87451
0.705882 0.85098 0.878431
0.721569 0.854902 0.878431
0.74902 0.858824 0.886275
0.784314 0.866667 0.894118
0.831373 0.87451 0.901961
0.890196 0.886275 0.909804
0.952941 0.898039 0.92549
1 0.917647 0.945098
0.776471 0.960784 0.937255
0.780392 0.964706 0.937255
0.792157 0.964706 0.941176
0.815686 0.968627 0.945098
0.847059 0.972549 0.94902
0.886275 0.976471 0.956863
0.933333 0.984314 0.964706
0.992157 0.988235 0.964706
1 0.992157 0.980392
