site/assets/luts/freshluts--0000147-ramadan.cube
# LUTr-Schema-Version: 2
# LUTr-ID: freshluts--0000147-ramadan
# LUTr-Title: RAMADAN
# LUTr-Collection: Fresh LUTs
# LUTr-Collection-ID: freshluts-community
# LUTr-Source: https://freshluts.com
# LUTr-Retrieved: 2026-07-27
# LUTr-Source-File: submissions-raw/freshluts/cubes/147__RAMDAN_10.A088_C011_0101D0.cube
# LUTr-Source-Format: CUBE
# LUTr-Source-SHA256: 76cfe61975d951c04ca6a5fe984fecbf733b21929ff616edae93e77ff9202312
# LUTr-License: CC0-1.0
# LUTr-License-URL: https://freshluts.com/termsandconditions
# LUTr-License-Basis: site-terms
# LUTr-Transform-Class: creative-look
# LUTr-Tags: creative, freshluts, community, cube, blue, high-key, red-logfilm
# LUTr-Input-Color-Space: red-logfilm-rwg
# LUTr-Input-Gamut: red-wide-gamut-rgb
# LUTr-Input-Transfer: red-logfilm
# LUTr-Output-Color-Space: srgb
# LUTr-Output-Gamut: rec709
# LUTr-Output-Transfer: srgb
# LUTr-Color-Space-Confidence: inferred-from-source-label
# LUTr-Domain-Normalized: true
# LUTr-Shaper: none
# LUTr-Original-Grid: 33x33x33
# LUTr-Conversion-Grid: 33x33x33
# LUTr-Conversion-Interpolation: none
# LUTr-Conversion-Method: Metadata normalization; numeric LUT samples preserved
# LUTr-Conversion-Tool: LUTr scripts/convert-all-to-cube.mjs 2.0.0
# LUTr-Conversion-Date: 2026-07-28
# LUTr-Asset-URL: https://freshluts.com/luts/147
# LUTr-Author: MUSTAFA ALKARKHY
# LUTr-Author-URL: https://freshluts.com/users/1250
# LUTr-Attribution: MUSTAFA ALKARKHY via Fresh LUTs
# LUTr-Source-Labels: gamma=RED Log Film; color=Blue; key=High Key; style=Colorful
# LUTr-Note: Preserve this metadata and the upstream license notices when redistributing.
TITLE "RAMADAN"
LUT_3D_SIZE 33
DOMAIN_MIN 0 0 0
DOMAIN_MAX 1 1 1
0 0 0
0 0 0
0 0 0
0 0 0
0.00624094 0 0
0.0308995 0 0
0.0519417 0 0
0.0699016 0 0
0.0878767 0 0
0.109545 0 0
0.139757 0 0
0.179324 0 0
0.22501 0 0
0.277272 0 0
0.335698 0 0
0.386282 0 0
0.419089 0 0
0.439292 0 0
0.451362 0 0
0.451865 0 0
0.435676 0 0
0.40148 0 0
0.347616 0 0
0.273091 0 0
0.177356 0 0
0.0599985 0.0124361 0.0128939
0.0258793 0.0258793 0.0258793
0.0291295 0.0291295 0.0291295
0.0323796 0.0323796 0.0323796
0.0356451 0.0356451 0.0356451
0.038941 0.038941 0.038941
0.0423438 0.0423438 0.0423438
0.0457313 0.0457313 0.0457313
0 0 0
0 0 0
0 0 0
0 0 0
0 0 0
0.0242618 0 0
0.0460975 0 0
0.0650797 0 0
0.0840467 0 0
0.106859 0 0
0.13901 0 0
0.180774 0 0
0.22826 0 0
0.281575 0 0
0.339406 0 0
0.390768 0 0
0.425559 0 0
0.447822 0 0
0.461479 0 0
0.466331 0 0
0.455207 0 0
0.426673 0 0
0.378592 0 0
0.308446 0 0
0.216022 0 0
0.096849 0.0171969 0.0163272
0.0368811 0.0368811 0.0368811
0.0401923 0.0401923 0.0401923
0.0435187 0.0435187 0.0435187
0.0468757 0.0468757 0.0468757
0.0504158 0.0504158 0.0504158
0.0542153 0.0542153 0.0542153
0.0582589 0.0582589 0.0582589
0 0 0
0 0 0
0 0 0
0 0 0
0 0 0
0.0190738 0 0
0.0417639 0 0
0.0613565 0 0
0.0812238 0 0
0.105333 0 0
0.139498 0 0
0.183673 0 0
0.233265 0 0
0.287266 0 0
0.34432 0 0
0.395819 0 0
0.432044 0 0
0.455955 0 0
0.471199 0 0
0.47866 0 0
0.471885 0 0
0.448463 0 0
0.406256 0 0
0.342046 0 0
0.253544 0 0
0.133791 0.0228275 0.0192111
0.0481575 0.0481575 0.0481575
0.0517128 0.0517128 0.0517128
0.0556039 0.0556039 0.0556039
0.0598459 0.0598459 0.0598459
0.0641031 0.0641031 0.0641031
0.0685283 0.0685283 0.0685283
0.0736706 0.0736706 0.0736706
0 0 0
0 0 0
0 0 0
0 0 0
0 0 0
0.0142824 0 0
0.0375372 0 0
0.0578622 0 0
0.078645 0 0
0.104005 0 0
0.140307 0 0
0.186908 0 0
0.238193 0 0
0.293233 0 0
0.34966 0 0
0.400839 0 0
0.437888 0 0
0.462867 0 0
0.479225 0 0
0.489036 0 0
0.487022 0 0
0.468772 0 0
0.432654 0 0
0.374365 0 0
0.290745 0.00239567 0
0.171908 0.0308232 0.0230564
0.0612802 0.0612802 0.0612802
0.0655833 0.0655833 0.0655833
0.0703746 0.0703746 0.0703746
0.0758831 0.0758831 0.0758831
0.0824292 0.0824292 0.0824292
0.0896315 0.0896315 0.0896315
0.0970626 0.0970626 0.0970626
0 0.0132753 0
0 0.0116274 0
0 0.00967422 0
0 0.00767529 0
0 0.00555428 0
0.00825513 0.00344854 0
0.0321508 0.00207523 0
0.0528725 0.00155642 0
0.0741588 0.00114443 0
0.10074 0 0
0.139193 0 0
0.188724 0 0
0.242283 0 0
0.29836 0 0
0.354208 0 0
0.405249 0 0
0.443153 0 0
0.469718 0 0
0.487755 0 0
0.499489 0 0
0.501686 0 0
0.489067 0 0
0.459174 0 0
0.407858 0 0
0.329809 0.0178073 0
0.212726 0.0433509 0.0300755
0.0782483 0.0782483 0.0782483
0.0850996 0.0850996 0.0850996
0.0924086 0.0924086 0.0924086
0.0999924 0.0999924 0.0999924
0.108553 0.108553 0.108553
0.118715 0.118715 0.118715
0.130694 0.130694 0.130694
0 0.0331579 0
0 0.0320134 0
0 0.030518 0
0 0.0286412 0
0 0.0262913 0
0.00329595 0.0238804 0
0.0269322 0.0221561 0
0.0475471 0.02121 0
0.0688792 0.020325 0
0.0960403 0.0187381 0
0.136553 0.0150454 0
0.189181 0.00875868 0
0.245701 0.00137331 0
0.304036 0 0
0.360464 0 0
0.411536 0 0
0.45034 0 0
0.478477 0 0
0.498589 0 0
0.512901 0 0
0.51931 0 0
0.511452 0 0
0.48777 0.00115969 0
0.444495 0.0210269 0
0.373709 0.0432288 0.00830091
0.260517 0.0670634 0.0476539
0.103059 0.103059 0.103059
0.112184 0.112184 0.112184
0.122927 0.122927 0.122927
0.134798 0.134798 0.134798
0.147036 0.147036 0.147036
0.16022 0.16022 0.16022
0.17406 0.17406 0.17406
0 0.0512245 0
0 0.0503243 0
0 0.0488136 0
0 0.0469215 0
0 0.0445716 0
0.000167849 0.041886 0
0.0231632 0.0397192 0
0.0433509 0.0383001 0
0.0642405 0.0367132 0
0.0911421 0.0343023 0
0.133898 0.0314794 0
0.190478 0.0269017 0
0.250614 0.0208438 0
0.311513 0.0138705 0
0.369223 0.00695811 0
0.421439 0.000732433 0
0.461997 0 0
0.492073 0 0
0.514656 0 0
0.531975 0.000686656 0
0.543893 0.00805676 0
0.543145 0.0196689 0
0.526268 0.0357214 0
0.490059 0.0571908 0
0.426627 0.0811627 0.0374762
0.316747 0.103578 0.0780194
0.139406 0.139406 0.139406
0.151751 0.151751 0.151751
0.164767 0.164767 0.164767
0.179568 0.179568 0.179568
0.195117 0.195117 0.195117
0.21117 0.21117 0.21117
0.227436 0.227436 0.227436
0 0.0678264 0
0 0.0669718 0
0 0.0654612 0
0 0.0634165 0
0 0.0609445 0
0 0.0583047 0
0.018677 0.0562295 0
0.0387121 0.0547951 0
0.0596475 0.0531777 0
0.0864271 0.0502785 0
0.12961 0.0467842 0
0.191302 0.0451972 0
0.256596 0.0419471 0
0.321569 0.0373846 0
0.381613 0.0325017 0
0.435721 0.0283513 0
0.479667 0.0267796 0
0.514717 0.0289158 0
0.542016 0.0335393 0
0.563256 0.040238 0
0.580041 0.0499275 0
0.586938 0.0648508 0
0.579843 0.0860761 0.00543221
0.553826 0.112337 0.043595
0.497093 0.13753 0.084184
0.387793 0.155581 0.122957
0.184787 0.184787 0.184787
0.200549 0.200549 0.200549
0.217151 0.217151 0.217151
0.233722 0.233722 0.233722
0.251087 0.251087 0.251087
0.269535 0.269535 0.269535
0.288762 0.288762 0.288762
0 0.0834058 0
0 0.0826734 0
0 0.0814984 0
0 0.0799268 0
0 0.0780804 0
0 0.0758221 0
0.0110628 0.0739757 0
0.0310826 0.0728923 0
0.052369 0.0717937 0
0.0798505 0.0694438 0
0.122515 0.0644846 0
0.18854 0.0648661 0
0.261982 0.0668803 0
0.33463 0.0677195 0
0.401266 0.0686961 0
0.460212 0.0694743 0
0.508064 0.0710918 0
0.547555 0.0762036 0
0.581506 0.0856336 0
0.610544 0.098146 0
0.634531 0.112352 0
0.648936 0.13022 0.0235447
0.649332 0.153445 0.0564584
0.632425 0.182589 0.0988479
0.585946 0.211353 0.144976
0.478996 0.225193 0.18265
0.243854 0.238453 0.237629
0.257939 0.257939 0.257939
0.276738 0.276738 0.276738
0.296117 0.296117 0.296117
0.315526 0.315526 0.315526
0.334752 0.334752 0.334752
0.354208 0.354208 0.354208
0 0.100633 0
0 0.100496 0
0 0.0999619 0
0 0.0992752 0
0 0.0983139 0
0 0.0973068 0
0 0.0967117 0
0.0154116 0.0965744 0
0.0369421 0.0964523 0
0.0655222 0.0956588 0
0.109895 0.0919203 0
0.175463 0.0890364 0
0.262303 0.100069 0
0.34789 0.110063 0
0.424506 0.119448 0
0.491997 0.12874 0
0.547906 0.137545 0
0.594018 0.147402 0
0.633661 0.160082 0.00909438
0.668956 0.176272 0.0292821
0.701076 0.195697 0.0536355
0.725032 0.216999 0.0818952
0.734859 0.241901 0.11754
0.728038 0.271931 0.162631
0.695872 0.304402 0.21532
0.59939 0.316945 0.256291
0.338064 0.298482 0.290761
0.32282 0.32282 0.32282
0.341955 0.341955 0.341955
0.360769 0.360769 0.360769
0.379355 0.379355 0.379355
0.398276 0.398276 0.398276
0.416602 0.416602 0.416602
0 0.120821 0
0 0.121721 0
0 0.122499 0
0 0.12311 0
0 0.123552 0
0 0.124376 0
0 0.126284 0
0 0.129564 0
0.0146944 0.132479 0
0.0436561 0.133944 0
0.088426 0.132082 0
0.153826 0.127611 0
0.239261 0.132097 0
0.349767 0.161089 0
0.444114 0.184985 0
0.521614 0.203922 0.000183108
0.58584 0.220523 0.0168307
0.640665 0.237247 0.0345922
0.688716 0.255665 0.0558938
0.731609 0.27631 0.0811017
0.76968 0.298466 0.109239
0.80383 0.323262 0.141604
0.827497 0.351461 0.181521
0.835187 0.383169 0.230533
0.82211 0.418799 0.289982
0.746761 0.4336 0.33962
0.459739 0.370352 0.346136
0.386343 0.386343 0.386343
0.404761 0.404761 0.404761
0.422522 0.422522 0.422522
0.439658 0.439658 0.439658
0.454887 0.454887 0.454887
0.46949 0.46949 0.46949
0 0.144503 0
0 0.146258 0
0 0.148577 0
0 0.151675 0
0 0.155276 0
0 0.158984 0
0 0.163699 0
0 0.16968 0
0 0.176761 0
0.0231174 0.183307 0
0.068513 0.186053 0
0.133074 0.183352 0
0.213855 0.181003 0
0.31249 0.192538 0
0.430945 0.236103 0
0.528695 0.274098 0.00447089
0.605585 0.303273 0.0338598
0.671351 0.330007 0.0616312
0.729381 0.356359 0.0911269
0.781537 0.383352 0.123339
0.82826 0.410605 0.157687
0.869917 0.437781 0.19353
0.903227 0.465766 0.234012
0.923781 0.496605 0.284031
0.925887 0.529686 0.344396
0.883391 0.553704 0.409766
0.604715 0.465156 0.410742
0.444953 0.444953 0.444953
0.460044 0.460044 0.460044
0.474968 0.474968 0.474968
0.489189 0.489189 0.489189
0.502525 0.502525 0.502525
0.514702 0.514702 0.514702
0 0.173816 0
0 0.177829 0
0 0.182086 0
0 0.187137 0
0 0.193759 0
0 0.201617 0
0 0.210178 0
0 0.219226 0
0 0.22887 0
0.00538643 0.238682 0
0.0517128 0.246952 0
0.116091 0.249561 0
0.194232 0.247211 0
0.283803 0.247654 0
0.375189 0.260517 0
0.476967 0.300954 0
0.571252 0.347417 0
0.651194 0.388098 0.0407263
0.721233 0.425345 0.0818036
0.783154 0.459922 0.122545
0.838514 0.492714 0.163638
0.888685 0.524468 0.205524
0.933013 0.556268 0.250843
0.963806 0.586267 0.301946
0.978271 0.616266 0.362646
0.962753 0.644511 0.438575
0.734371 0.563958 0.466972
0.493935 0.493935 0.493935
0.507256 0.507256 0.507256
0.519051 0.519051 0.519051
0.530205 0.530205 0.530205
0.541207 0.541207 0.541207
0.551919 0.551919 0.551919
0 0.210986 0
0 0.217151 0
0 0.224521 0
0 0.232685 0
0 0.241367 0
0 0.250965 0
0 0.261982 0
0 0.274037 0
0 0.28632 0
0 0.298848 0
0.0438087 0.310018 0
0.108629 0.317617 0
0.186847 0.31989 0
0.273793 0.319509 0
0.359472 0.325719 0
0.436728 0.340871 0
0.505577 0.36199 0
0.578241 0.395499 0
0.650874 0.434867 0.0145724
0.719936 0.475334 0.062623
0.784192 0.514977 0.112047
0.841382 0.551019 0.159823
0.892561 0.585824 0.210269
0.934279 0.620188 0.268635
0.962982 0.654246 0.337377
0.969436 0.687999 0.425055
0.803647 0.632853 0.495399
0.534386 0.534386 0.534386
0.545312 0.545312 0.545312
0.555825 0.555825 0.555825
0.565744 0.565744 0.565744
0.575219 0.575219 0.575219
0.584817 0.584817 0.584817
0 0.258762 0
0 0.266499 0
0 0.275792 0
0 0.285878 0
0 0.296727 0
0 0.308019 0
0 0.320241 0
0 0.333989 0
0 0.348699 0
0.000366217 0.36318 0
0.0489662 0.376471 0
0.114794 0.386419 0
0.192569 0.390845 0
0.277729 0.390768 0
0.359716 0.393729 0
0.431861 0.403738 0
0.493095 0.417426 0
0.54699 0.432273 0
0.596887 0.448692 0
0.651026 0.47361 0.00149538
0.707759 0.50457 0.0437781
0.76466 0.53872 0.0913252
0.818235 0.574334 0.145937
0.8654 0.61088 0.210422
0.903014 0.648188 0.286992
0.92578 0.688334 0.387152
0.813138 0.6607 0.498009
0.56936 0.56936 0.56936
0.578698 0.578698 0.578698
0.587961 0.587961 0.587961
0.59707 0.59707 0.59707
0.60621 0.60621 0.60621
0.61471 0.61471 0.61471
0 0.309026 0
0 0.320409 0
0 0.331655 0
0 0.343618 0
0 0.356573 0
0 0.370321 0
0 0.384817 0
0 0.399664 0
0 0.414008 0
0.0129549 0.427848 0
0.0612802 0.440589 0
0.127504 0.450858 0
0.206134 0.456596 0
0.290364 0.45623 0
0.36878 0.455695 0
0.435233 0.459937 0
0.491188 0.468376 0
0.54081 0.478981 0
0.586313 0.490852 0
0.627741 0.502663 0
0.667369 0.515816 0.0140841
0.71075 0.535882 0.0500191
0.756146 0.562585 0.0995651
0.800641 0.594751 0.163958
0.840604 0.63122 0.244282
0.87013 0.672175 0.35082
0.797284 0.667521 0.494591
0.600443 0.600443 0.600443
0.60914 0.60914 0.60914
0.617838 0.617838 0.617838
0.626169 0.626169 0.626169
0.634409 0.634409 0.634409
0.642512 0.642512 0.642512
0 0.359854 0
0 0.373816 0
0 0.388251 0
0 0.402777 0
0 0.417227 0
0 0.43209 0
0 0.446281 0
0 0.460563 0
0.000137331 0.474754 0
0.0334173 0.488121 0
0.0795911 0.499809 0
0.143435 0.508507 0
0.219745 0.512291 0
0.302785 0.510735 0
0.379232 0.508019 0
0.44213 0.508598 0
0.493751 0.512703 0
0.539223 0.519127 0
0.580926 0.527092 0
0.619883 0.536156 0
0.656458 0.545907 0.0153201
0.690288 0.556359 0.0452735
0.722927 0.569955 0.0858778
0.757839 0.591409 0.143435
0.792584 0.620569 0.220737
0.821958 0.657404 0.328115
0.778347 0.670161 0.496925
0.628977 0.628977 0.628977
0.637446 0.637446 0.637446
0.645533 0.645533 0.645533
0.653376 0.653376 0.653376
0.661097 0.661097 0.661097
0.668788 0.668788 0.668788
0 0.412634 0
0 0.427863 0
0 0.442863 0
0 0.457694 0
0 0.472984 0
0 0.487449 0
0 0.501076 0
0 0.513695 0
0.0232242 0.525536 0
0.0532082 0.537133 0
0.0966354 0.54815 0
0.157671 0.556161 0
0.231769 0.559075 0
0.312703 0.555886 0
0.386877 0.550912 0
0.447532 0.549264 0
0.496773 0.551064 0
0.539422 0.554696 0
0.578408 0.559884 0
0.615045 0.566491 0
0.649516 0.574121 0.0236973
0.681727 0.582895 0.0557259
0.71046 0.592248 0.0961013
0.735622 0.603143 0.147097
0.761044 0.621454 0.217685
0.785916 0.650782 0.322057
0.762707 0.674617 0.507927
0.656306 0.656306 0.656306
0.664012 0.664012 0.664012
0.671687 0.671687 0.671687
0.679301 0.679301 0.679301
0.686793 0.686793 0.686793
0.694408 0.694408 0.694408
0 0.461006 0
0 0.477211 0
0 0.492638 0
0 0.507332 0
0 0.520424 0
0 0.532876 0
0.00187686 0.544991 0
0.0238804 0.556527 0
0.0465553 0.567559 0
0.0729076 0.577371 0
0.111879 0.586542 0
0.169375 0.594095 0
0.241352 0.597253 0
0.321157 0.594263 0
0.39408 0.588602 0
0.452522 0.585031 0
0.499611 0.584863 0
0.540536 0.586892 0
0.577783 0.590417 0
0.612497 0.595087 0.0115206
0.645121 0.600885 0.0383764
0.675242 0.607523 0.0724346
0.702663 0.615213 0.114778
0.726482 0.624109 0.167697
0.74583 0.635096 0.234867
0.76408 0.655329 0.334249
0.753674 0.684108 0.529503
0.682155 0.682155 0.682155
0.689616 0.689616 0.689616
0.696986 0.696986 0.696986
0.704356 0.704356 0.704356
0.711879 0.711879 0.711879
0.71928 0.71928 0.71928
0 0.500053 0
0 0.516243 0
0 0.531182 0
0 0.545296 0
0 0.558312 0
0.00888075 0.569955 0
0.0285039 0.580362 0
0.0476081 0.590509 0
0.0674296 0.600137 0
0.0915847 0.609537 0
0.127596 0.618555 0
0.181521 0.626123 0
0.250568 0.629694 0
0.329015 0.627543 0
0.400595 0.621698 0
0.457633 0.617395 0
0.503044 0.615976 0
0.542382 0.616663 0
0.578256 0.618814 0.00714122
0.611627 0.622126 0.0302586
0.64242 0.626108 0.0593881
0.67097 0.631052 0.0953841
0.697017 0.63711 0.13991
0.71989 0.644511 0.195117
0.74023 0.655436 0.265904
0.756542 0.671611 0.364858
0.752422 0.699779 0.562325
0.707134 0.707134 0.707134
0.714473 0.714473 0.714473
0.721843 0.721843 0.721843
0.729259 0.729259 0.729259
0.736477 0.736477 0.736477
0.743709 0.743709 0.743709
0 0.525902 0.0043946
0 0.542458 0
0.00302129 0.557473 0
0.0145876 0.571221 0
0.0282902 0.584161 0
0.0434424 0.596277 0
0.0593271 0.607355 0
0.074464 0.617044 0
0.0907912 0.626352 0
0.111543 0.635843 0
0.14406 0.645502 0
0.194965 0.654154 0
0.261036 0.658595 0
0.336934 0.656947 0
0.407065 0.651514 0
0.462928 0.647059 0
0.50721 0.644999 0
0.545602 0.64477 0.00984207
0.580072 0.645502 0.0298314
0.611887 0.647272 0.0555123
0.641398 0.649989 0.0869612
0.668666 0.65362 0.125353
0.693492 0.658259 0.172152
0.716457 0.665293 0.230579
0.738125 0.676631 0.305165
0.757687 0.694087 0.407843
0.758587 0.721187 0.605661
0.731716 0.731716 0.731716
0.739025 0.739025 0.739025
0.746441 0.746441 0.746441
0.753658 0.753658 0.753658
0.760891 0.760891 0.760891
0.768139 0.768139 0.768139
0.0646525 0.53991 0.0805524
0.0635386 0.555718 0.0685435
0.0661631 0.571817 0.0585946
0.0713359 0.58674 0.0500038
0.0789044 0.600671 0.042771
0.0885023 0.613489 0.0370489
0.0994278 0.624979 0.0337987
0.110918 0.63537 0.0325475
0.123598 0.64535 0.031281
0.139666 0.655741 0.0278477
0.166384 0.667201 0.020798
0.210697 0.677791 0.0113375
0.272511 0.684031 0.00352483
0.345785 0.683711 0
0.414206 0.678904 0
0.468986 0.674281 0.00619516
0.512688 0.671839 0.0194095
0.549889 0.670558 0.0372625
0.583276 0.670283 0.0603189
0.613825 0.67097 0.088365
0.6421 0.672541 0.122347
0.668193 0.675044 0.163195
0.692775 0.679332 0.213138
0.716899 0.687175 0.275669
0.74081 0.700023 0.35462
0.763638 0.719158 0.461204
0.770367 0.74638 0.657526
0.756405 0.756405 0.756405
0.763638 0.763638 0.763638
0.770886 0.770886 0.770886
0.778134 0.778134 0.778134
0.785428 0.785428 0.785428
0.792828 0.792828 0.792828
0.174945 0.559976 0.187335
0.159915 0.570047 0.163928
0.149722 0.581704 0.143511
0.144762 0.594659 0.126909
0.144091 0.608225 0.113329
0.147112 0.621744 0.102617
0.152895 0.634241 0.0954604
0.160159 0.645487 0.0909285
0.16875 0.656535 0.0864729
0.18024 0.668589 0.07953
0.199329 0.682185 0.0661173
0.234638 0.695766 0.0488289
0.288853 0.705058 0.0343023
0.357488 0.706966 0.0263371
0.423972 0.703471 0.0277714
0.477531 0.699031 0.0376135
0.519905 0.695903 0.0537423
0.556039 0.694057 0.0745708
0.588312 0.693156 0.100237
0.617746 0.693065 0.131044
0.64506 0.693996 0.167819
0.67071 0.696239 0.21178
0.696483 0.701793 0.266163
0.72285 0.711696 0.333547
0.749416 0.726589 0.416129
0.775158 0.747311 0.525841
0.785504 0.772976 0.715816
0.78088 0.78088 0.78088
0.78819 0.78819 0.78819
0.795575 0.795575 0.795575
0.803006 0.803006 0.803006
0.810468 0.810468 0.810468
0.818219 0.818219 0.818219
0.324712 0.596338 0.33312
0.297047 0.600748 0.299901
0.273045 0.606241 0.268452
0.254765 0.613046 0.241123
0.24094 0.621317 0.21677
0.232227 0.630777 0.19646
0.228763 0.640665 0.181765
0.229114 0.650614 0.171679
0.231418 0.661158 0.162249
0.23566 0.673472 0.149615
0.245899 0.689769 0.129534
0.270207 0.707332 0.103639
0.314336 0.720546 0.0812695
0.37583 0.725765 0.0687572
0.4383 0.723949 0.0698863
0.489693 0.720165 0.0818952
0.530541 0.717174 0.100481
0.565332 0.715099 0.124056
0.596338 0.713787 0.152438
0.624872 0.713527 0.186145
0.652277 0.715129 0.226658
0.679698 0.719646 0.275746
0.707805 0.727855 0.335286
0.736629 0.740307 0.406577
0.765576 0.757305 0.492958
0.792996 0.778637 0.602258
0.802365 0.798779 0.777844
0.805814 0.805814 0.805814
0.81326 0.81326 0.81326
0.820783 0.820783 0.820783
0.828733 0.828733 0.828733
0.8365 0.8365 0.8365
0.844343 0.844343 0.844343
0.501366 0.639735 0.505486
0.470954 0.644633 0.472526
0.439994 0.647913 0.437247
0.411124 0.650721 0.402396
0.385473 0.653849 0.369146
0.364294 0.657893 0.339086
0.349767 0.663172 0.315602
0.340703 0.669322 0.297948
0.333562 0.675944 0.280995
0.325139 0.683742 0.25803
0.317205 0.694987 0.223133
0.32253 0.711711 0.18233
0.352697 0.729458 0.149874
0.403601 0.738857 0.130816
0.459754 0.739666 0.130251
0.507622 0.737194 0.143557
0.546227 0.734813 0.164401
0.579644 0.733364 0.190829
0.610513 0.733501 0.223072
0.640116 0.735607 0.261631
0.66949 0.740307 0.307515
0.699306 0.748165 0.361913
0.729702 0.759487 0.425391
0.760845 0.774731 0.500771
0.790555 0.792645 0.587076
0.816144 0.811536 0.690196
0.823667 0.823667 0.823667
0.831357 0.831357 0.831357
0.83917 0.83917 0.83917
0.847288 0.847288 0.847288
0.855207 0.855207 0.855207
0.86331 0.86331 0.86331
0.871611 0.871611 0.871611
0.655604 0.655604 0.655604
0.658473 0.665125 0.658518
0.640742 0.679377 0.640253
0.619821 0.690318 0.61738
0.596841 0.698436 0.590997
0.573785 0.704555 0.56318
0.554101 0.709331 0.538125
0.538445 0.713787 0.51693
0.522362 0.717754 0.494087
0.500511 0.720638 0.461738
0.467506 0.722286 0.40798
0.435843 0.726207 0.338247
0.430488 0.735424 0.278676
0.45684 0.74493 0.242939
0.500084 0.74931 0.237003
0.542245 0.750713 0.251377
0.579034 0.752514 0.276249
0.612726 0.755627 0.308125
0.6448 0.760388 0.346212
0.676081 0.767224 0.389914
0.70753 0.776471 0.44126
0.738949 0.788083 0.499626
0.770092 0.802014 0.565362
0.799573 0.817212 0.637888
0.825055 0.832013 0.71577
0.842924 0.843519 0.801678
0.849973 0.849973 0.849973
0.857939 0.857939 0.857939
0.866423 0.866423 0.866423
0.8748 0.8748 0.8748
0.883314 0.883314 0.883314
0.892058 0.892058 0.892058
0.90219 0.90219 0.90219
0.681468 0.681468 0.681468
0.68893 0.68893 0.68893
0.69633 0.69633 0.69633
0.7037 0.7037 0.7037
0.711315 0.711315 0.711315
0.718624 0.718624 0.718624
0.725872 0.725872 0.725872
0.733104 0.733104 0.733104
0.740322 0.740322 0.740322
0.7476 0.7476 0.7476
0.755047 0.755047 0.755047
0.720043 0.772595 0.70425
0.676722 0.780346 0.631144
0.651652 0.782986 0.567117
0.657206 0.786511 0.541634
0.679042 0.792233 0.548608
0.70425 0.799069 0.570993
0.729931 0.806821 0.601465
0.755169 0.815213 0.637293
0.779492 0.823957 0.67718
0.802411 0.832837 0.720165
0.823178 0.841199 0.765332
0.840452 0.84799 0.811215
0.852964 0.852964 0.852964
0.86099 0.86099 0.86099
0.869245 0.869245 0.869245
0.877867 0.877867 0.877867
0.886534 0.886534 0.886534
0.895659 0.895659 0.895659
0.9066 0.9066 0.9066
0.920058 0.920058 0.920058
0.935424 0.935424 0.935424
0.951904 0.951904 0.951904
0.706462 0.706462 0.706462
0.713802 0.713802 0.713802
0.721355 0.721355 0.721355
0.728603 0.728603 0.728603
0.735821 0.735821 0.735821
0.743053 0.743053 0.743053
0.750271 0.750271 0.750271
0.757504 0.757504 0.757504
0.765026 0.765026 0.765026
