site/assets/luts/freshluts--0001119-correctioncute-cute.cube
# LUTr-Schema-Version: 2
# LUTr-ID: freshluts--0001119-correctioncute-cute
# LUTr-Title: correction&cute cute
# LUTr-Collection: Fresh LUTs
# LUTr-Collection-ID: freshluts-community
# LUTr-Source: https://freshluts.com
# LUTr-Retrieved: 2026-07-27
# LUTr-Source-File: submissions-raw/freshluts/cubes/1119__1.cube
# LUTr-Source-Format: CUBE
# LUTr-Source-SHA256: 0e03d1c10e5cdc3dd4c9dccae3da6930a24132db2a7a1bc124611fa9caea7dbf
# LUTr-License: CC0-1.0
# LUTr-License-URL: https://freshluts.com/termsandconditions
# LUTr-License-Basis: site-terms
# LUTr-Transform-Class: creative-look
# LUTr-Tags: creative, freshluts, community, cube, sony-s-log2, correction
# LUTr-Input-Color-Space:
# LUTr-Input-Gamut: sony-s-gamut
# LUTr-Input-Transfer: sony-s-log2
# LUTr-Output-Color-Space: srgb
# LUTr-Output-Gamut: rec709
# LUTr-Output-Transfer: srgb
# LUTr-Color-Space-Confidence: camera-profile-input-required
# LUTr-Domain-Normalized: true
# LUTr-Shaper: none
# LUTr-Original-Grid: 16x16x16
# LUTr-Conversion-Grid: 16x16x16
# LUTr-Conversion-Interpolation: none
# LUTr-Conversion-Method: Metadata normalization; numeric LUT samples preserved
# LUTr-Conversion-Tool: LUTr scripts/convert-all-to-cube.mjs 2.0.0
# LUTr-Conversion-Date: 2026-07-28
# LUTr-Asset-URL: https://freshluts.com/luts/1119
# LUTr-Author: lvannoeun@gmail.com
# LUTr-Author-URL: https://freshluts.com/users/57563
# LUTr-Attribution: lvannoeun@gmail.com via Fresh LUTs
# LUTr-Source-Labels: gamma=Sony S-Log 2; color=None; key=Neutral; style=fresh
# LUTr-Note: Preserve this metadata and the upstream license notices when redistributing.
TITLE "correction&cute cute"
LUT_3D_SIZE 6
DOMAIN_MIN 0 0 0
DOMAIN_MAX 1 1 1
0 0 0
0.089441 0 0
0.50155 0.040966 0.051839
0.752267 0.26536 0.272043
0.864611 0.394418 0.424561
0.885171 0.433881 0.476886
0 0.124209 0
0.08962 0.109297 0
0.489285 0.127371 0.0078
0.742573 0.255123 0.25871
0.856206 0.384642 0.412646
0.885171 0.433872 0.476093
0.173529 0.517749 0.157442
0.163618 0.50408 0.143877
0.436617 0.474377 0.141521
0.720309 0.396762 0.268495
0.848291 0.379153 0.402404
0.885171 0.433679 0.475302
0.379098 0.767071 0.414012
0.37124 0.758379 0.404234
0.373342 0.748738 0.398012
0.666482 0.731074 0.414882
0.822808 0.643249 0.4675
0.885171 0.496895 0.50062
0.490798 0.886287 0.553967
0.48545 0.88058 0.547165
0.480638 0.87569 0.5412
0.574405 0.869082 0.561226
0.782126 0.859977 0.575809
0.875679 0.801467 0.595215
0.543145 0.937273 0.621432
0.542356 0.937273 0.619945
0.541604 0.936917 0.618807
0.563169 0.936421 0.63146
0.728433 0.933843 0.651072
0.847264 0.930184 0.666102
0 0 0
0.075872 0 0.018277
0.501988 0.03802 0.174152
0.751221 0.264366 0.298546
0.864042 0.39355 0.424233
0.885171 0.433875 0.476865
0 0.099477 0.054309
0.068634 0.078605 0.047007
0.476397 0.093615 0.134546
0.739166 0.251659 0.276642
0.86033 0.389421 0.418494
0.885171 0.433881 0.476684
0.167811 0.510771 0.18663
0.15774 0.497418 0.165409
0.42731 0.467807 0.154077
0.71772 0.387706 0.269455
0.850854 0.380046 0.405171
0.885171 0.433872 0.475688
0.375976 0.763583 0.410274
0.3729 0.760215 0.406246
0.365664 0.748175 0.394401
0.664484 0.728912 0.412382
0.824289 0.634773 0.4648
0.885171 0.485179 0.501403
0.488399 0.883876 0.551032
0.487511 0.882906 0.549871
0.480538 0.875521 0.54103
0.56445 0.868737 0.560381
0.781235 0.859001 0.574661
0.876056 0.797467 0.593254
0.542492 0.937273 0.624518
0.542629 0.937273 0.621241
0.541771 0.937053 0.619051
0.554708 0.936472 0.626155
0.724021 0.933542 0.650223
0.846925 0.929771 0.665569
0.104404 0.075412 0.452092
0.126541 0.077818 0.467424
0.499959 0.063639 0.544681
0.749982 0.267696 0.528968
0.863221 0.39324 0.524084
0.885171 0.433868 0.481037
0.107772 0.0784 0.468274
0.105093 0.075874 0.454843
0.474019 0.048332 0.515369
0.739142 0.255854 0.502925
0.859146 0.388372 0.498538
0.885171 0.433862 0.478991
0.294694 0.46659 0.517739
0.287357 0.451571 0.503745
0.428184 0.422164 0.481214
0.712282 0.372915 0.477698
0.843888 0.371373 0.463743
0.885171 0.433816 0.475862
0.368111 0.755533 0.519874
0.364469 0.751206 0.494363
0.354256 0.73769 0.46707
0.658809 0.719609 0.48625
0.818979 0.630542 0.473927
0.885171 0.458476 0.488859
0.484074 0.879622 0.582104
0.482758 0.878269 0.563013
0.479093 0.873994 0.541248
0.542553 0.867202 0.558554
0.778076 0.856263 0.571039
0.877084 0.786936 0.588456
0.540119 0.937211 0.676946
0.540448 0.937224 0.660967
0.541667 0.937273 0.62743
0.541804 0.937081 0.621574
0.711299 0.932591 0.648355
0.84574 0.928351 0.663697
0.180443 0.146332 0.808872
0.181253 0.146982 0.810411
0.419109 0.177607 0.837703
0.735251 0.288498 0.871979
0.860954 0.40155 0.813653
0.885171 0.438789 0.771685
0.180863 0.146881 0.810092
0.175987 0.140669 0.794578
0.389008 0.163333 0.81563
0.725173 0.277781 0.858885
0.856661 0.395812 0.796262
0.885171 0.437825 0.745492
0.217878 0.272772 0.804401
0.206352 0.245116 0.801258
0.303212 0.22157 0.79089
0.699382 0.266306 0.832604
0.841493 0.377091 0.76108
0.885171 0.436251 0.699338
0.492488 0.704553 0.806772
0.488398 0.699126 0.801248
0.478072 0.68439 0.787246
0.675033 0.68634 0.782072
0.817258 0.644717 0.777941
0.885171 0.457864 0.678773
0.475673 0.869799 0.794661
0.473637 0.867981 0.781901
0.469122 0.863575 0.753006
0.543138 0.854693 0.761266
0.780661 0.844075 0.792205
0.870754 0.802277 0.737978
0.536563 0.935701 0.804835
0.536102 0.935534 0.79249
0.536111 0.935682 0.757996
0.534175 0.932991 0.743327
0.734888 0.926228 0.799838
0.846219 0.922534 0.753179
0.265176 0.24351 0.966889
0.26501 0.243329 0.966891
0.344791 0.25338 0.969555
0.659825 0.331175 0.99692
0.842703 0.416973 1
0.885171 0.454216 1
0.262854 0.240897 0.965555
0.258502 0.236189 0.959217
0.312853 0.244674 0.965066
0.645002 0.323161 0.99568
0.837196 0.411583 1
0.885171 0.45312 1
0.259368 0.237291 0.960205
0.259635 0.237463 0.960855
0.261272 0.229585 0.949119
0.608618 0.299388 0.980867
0.822084 0.393571 0.994796
0.885171 0.45025 0.97218
0.441067 0.594517 0.938744
0.431409 0.581381 0.93885
0.410659 0.554213 0.932633
0.628661 0.618136 0.940299
0.799213 0.525181 0.978212
0.885171 0.448446 0.951924
0.596256 0.816267 0.945764
0.594113 0.813945 0.942995
0.588932 0.808032 0.936506
0.613849 0.802251 0.929617
0.798266 0.820939 0.933236
0.869019 0.801678 0.943609
0.603757 0.919753 0.957181
0.598345 0.919632 0.951553
0.583587 0.920044 0.935696
0.575971 0.917771 0.926957
0.768893 0.909278 0.942864
0.864493 0.9055 0.944446
0.311238 0.294337 0.966676
0.311025 0.294137 0.966677
0.328683 0.295644 0.967261
0.644268 0.356103 0.994542
0.835744 0.43228 1
0.885171 0.466191 1
0.309732 0.292727 0.966685
0.310284 0.293322 0.966681
0.314623 0.293817 0.966874
0.622718 0.349911 0.992257
0.825156 0.42683 1
0.885171 0.465683 1
0.307681 0.290495 0.966696
0.308466 0.291326 0.966691
0.304838 0.2872 0.966727
0.565859 0.330545 0.985915
0.794251 0.410329 1
0.885171 0.464323 1
0.413462 0.533343 0.957498
0.401053 0.512399 0.958532
0.373194 0.463381 0.960895
0.549163 0.505919 0.970708
0.760831 0.436138 1
0.885171 0.460656 1
0.582094 0.769779 0.954629
0.578016 0.7641 0.95406
0.567472 0.749245 0.952892
0.573826 0.73898 0.953002
0.784369 0.800322 0.971775
0.860772 0.771383 0.995251
0.632857 0.89187 0.978454
0.632632 0.890045 0.977925
0.632159 0.88629 0.977014
0.631334 0.881128 0.975771
0.777091 0.885231 0.976025
0.865089 0.892113 0.978788
