site/assets/luts/freshluts--0001221-color-domi.cube
# LUTr-Schema-Version: 2
# LUTr-ID: freshluts--0001221-color-domi
# LUTr-Title: COLOR DOMI
# LUTr-Collection: Fresh LUTs
# LUTr-Collection-ID: freshluts-community
# LUTr-Source: https://freshluts.com
# LUTr-Retrieved: 2026-07-27
# LUTr-Source-File: submissions-raw/freshluts/cubes/1221__Color_Domi.cube
# LUTr-Source-Format: CUBE
# LUTr-Source-SHA256: fb4de7f19d3c286cf62aac4314bd22041ef176ef178d8bd63502220e51f10a90
# LUTr-License: CC0-1.0
# LUTr-License-URL: https://freshluts.com/termsandconditions
# LUTr-License-Basis: site-terms
# LUTr-Transform-Class: creative-look
# LUTr-Tags: creative, freshluts, community, cube, orange, sony-s-log3
# LUTr-Input-Color-Space: sony-slog3-sgamut3
# LUTr-Input-Gamut: sony-s-gamut3
# LUTr-Input-Transfer: sony-s-log3
# LUTr-Output-Color-Space: srgb
# LUTr-Output-Gamut: rec709
# LUTr-Output-Transfer: srgb
# LUTr-Color-Space-Confidence: inferred-from-source-label
# LUTr-Domain-Normalized: true
# LUTr-Shaper: none
# LUTr-Original-Grid: 33x33x33
# LUTr-Conversion-Grid: 33x33x33
# LUTr-Conversion-Interpolation: none
# LUTr-Conversion-Method: Metadata normalization; numeric LUT samples preserved
# LUTr-Conversion-Tool: LUTr scripts/convert-all-to-cube.mjs 2.0.0
# LUTr-Conversion-Date: 2026-07-28
# LUTr-Asset-URL: https://freshluts.com/luts/1221
# LUTr-Author: Antony Eliezer
# LUTr-Author-URL: https://freshluts.com/users/32961
# LUTr-Attribution: Antony Eliezer via Fresh LUTs
# LUTr-Source-Labels: gamma=Sony S-Log 3; color=Orange; key=Neutral; style=Correction
# LUTr-Note: Preserve this metadata and the upstream license notices when redistributing.
# LUTr-Upstream-Comment: VEGAS Pro LUT
TITLE "COLOR DOMI"
LUT_3D_SIZE 5
DOMAIN_MIN 0 0 0
DOMAIN_MAX 1 1 1
-0.05703908 -0.05127686 -0.05127686
0.16219103 -0.05025929 -0.05229425
0.48641992 -0.03077054 -0.07336569
0.7615993 -0.00755429 -0.07255691
0.97565514 0.01322907 -0.0334456
-0.06794608 0.1589672 -0.05116266
0.16591829 0.16292286 -0.05715328
0.49800593 0.19873846 -0.07278103
0.76514435 0.20683485 -0.07080746
0.97491878 0.22353274 -0.03463686
-0.07336569 0.44022685 -0.02030087
0.12847263 0.44384426 -0.06177467
0.49578008 0.45745921 -0.07336569
0.77322525 0.46111414 -0.07298988
0.9751429 0.45979333 -0.0255717
-0.07240522 0.70635206 0.04278964
0.12789235 0.70842451 0.03310224
0.40571457 0.71490103 -0.01363361
0.76397514 0.71292311 -0.07174832
0.97587925 0.71145743 0.02534834
-0.01990396 0.96755612 0.10699463
0.20130667 0.96902865 0.1046828
0.40151644 0.97093415 0.08349299
0.72741401 0.97255838 0.05849236
0.97587925 0.95327818 0.06889957
-0.06314415 -0.05014509 0.15698937
0.16388336 -0.05387259 0.15489733
0.496593 -0.0094136 0.12877598
0.76640129 0.00446466 0.12852982
0.97418261 0.02074507 0.16752452
-0.0648936 0.16551858 0.16388336
0.16687879 0.16766775 0.15975636
0.5059309 0.21282545 0.12772101
0.77039444 0.21749359 0.12922418
0.97497588 0.22771269 0.16888285
-0.07287568 0.44324014 0.19715595
0.12900013 0.4453893 0.17468268
0.49210975 0.45670754 0.1293335
0.7739616 0.46476644 0.12809688
0.97559804 0.46133819 0.17552626
-0.07336569 0.70725542 0.25269786
0.1291486 0.70665544 0.24960804
0.4081977 0.71570957 0.21036348
0.76562995 0.71201986 0.14708734
0.97587925 0.712699 0.22781295
-0.02227288 0.96840227 0.30949676
0.20033759 0.96913856 0.30955386
0.41163242 0.96976483 0.29022098
0.72537231 0.97218251 0.26746407
0.97587925 0.95333529 0.26880863
-0.07249993 -0.0179472 0.41876015
0.1290344 -0.03135508 0.41955346
0.47018802 -0.03384072 0.40910164
0.77122533 0.02626118 0.35627988
0.97587925 0.03426301 0.37349647
-0.07330859 0.19585299 0.41912052
0.13289374 0.18801823 0.42330047
0.46901873 0.19278684 0.41245493
0.77090234 0.23763955 0.3692286
0.97461551 0.24225044 0.37388784
-0.07283813 0.4471387 0.44723332
0.13003832 0.44612113 0.44448164
0.47301462 0.46269402 0.4470441
0.76698154 0.48713651 0.44067088
0.97587925 0.46894884 0.38693517
-0.00111789 0.7035656 0.48509479
0.20523012 0.70514554 0.48208413
0.42988932 0.71090776 0.46653125
0.75370747 0.72179067 0.46710053
0.97505522 0.71513194 0.43482056
-0.03272784 0.96635634 0.52237409
0.19048867 0.9665429 0.5222795
0.45913789 0.97114289 0.52226424
0.71539944 0.97350347 0.49390775
0.97587925 0.95252669 0.47208205
-0.07321399 0.02514905 0.68876183
0.12777811 0.01936719 0.68756205
0.4450509 0.01087281 0.69009805
0.72924966 0.03970659 0.67582184
0.97469467 0.08439627 0.67669445
-0.07336569 0.23541099 0.68838173
0.12792984 0.23243538 0.68531835
0.44403344 0.22546631 0.68938822
0.72379059 0.25269786 0.67756015
0.97567046 0.28817517 0.68014491
-0.07336569 0.46568516 0.68816197
0.15522283 0.46472469 0.68744099
0.44215018 0.46429178 0.68940347
0.72318387 0.48547742 0.69315046
0.97469473 0.50508308 0.68742144
0.00366697 0.70716089 0.7095868
0.21419483 0.70620036 0.70812112
0.45587924 0.70576757 0.70539182
0.73855019 0.72702557 0.71550095
0.97543108 0.7315796 0.70107567
-0.01721728 0.9643144 0.74434996
0.19983876 0.96563542 0.74511683
0.45360926 0.96778029 0.74741334
0.71028978 0.97263086 0.73807544
0.9751429 0.96057695 0.7181325
0.00631455 0.09422159 0.95206219
0.21389982 0.09145045 0.95347762
0.4479363 0.07840726 0.95351934
0.73850137 0.07825559 0.95346224
0.9751429 0.09428561 0.93637568
0.00592339 0.2997191 0.95421803
0.21904683 0.29706201 0.95336771
0.44819784 0.28237948 0.95336765
0.73754114 0.28315315 0.95286232
0.97587925 0.29825783 0.93568522
-0.01735175 0.51541352 0.95470375
0.19929215 0.51427096 0.95468169
0.45250985 0.50737685 0.95523131
0.73080301 0.49915105 0.9567762
0.97543108 0.51429302 0.94250685
-0.02656257 0.74294984 0.96665287
0.18653458 0.74279815 0.96691877
0.42929351 0.74053216 0.96415591
0.70245516 0.72715914 0.96201956
0.97587925 0.74492759 0.95433491
-0.01276577 0.97034115 0.97152549
0.20062947 0.96943778 0.97062236
0.44578975 0.97299802 0.97419792
0.71564573 0.97380686 0.97416717
0.9751429 0.9751429 0.97469473
