site/assets/luts/freshluts--0000223-matrix.cube
# LUTr-Schema-Version: 2
# LUTr-ID: freshluts--0000223-matrix
# LUTr-Title: MATRIX
# LUTr-Collection: Fresh LUTs
# LUTr-Collection-ID: freshluts-community
# LUTr-Source: https://freshluts.com
# LUTr-Retrieved: 2026-07-27
# LUTr-Source-File: submissions-raw/freshluts/cubes/223__MATRIX.cube
# LUTr-Source-Format: CUBE
# LUTr-Source-SHA256: 4e53623a32750767558aefd19b6fdf3908cedd074009ab1ae21c435f0bc97c85
# LUTr-License: CC0-1.0
# LUTr-License-URL: https://freshluts.com/termsandconditions
# LUTr-License-Basis: site-terms
# LUTr-Transform-Class: creative-look
# LUTr-Tags: creative, freshluts, community, cube, cinematic, blockbuster, green, rec709
# LUTr-Input-Color-Space: rec709
# LUTr-Input-Gamut: rec709
# LUTr-Input-Transfer: rec709
# LUTr-Output-Color-Space: srgb
# LUTr-Output-Gamut: rec709
# LUTr-Output-Transfer: srgb
# LUTr-Color-Space-Confidence: declared-by-source
# LUTr-Domain-Normalized: true
# LUTr-Shaper: none
# LUTr-Original-Grid: 16x16x16
# LUTr-Conversion-Grid: 16x16x16
# LUTr-Conversion-Interpolation: none
# LUTr-Conversion-Method: Metadata normalization; numeric LUT samples preserved
# LUTr-Conversion-Tool: LUTr scripts/convert-all-to-cube.mjs 2.0.0
# LUTr-Conversion-Date: 2026-07-28
# LUTr-Asset-URL: https://freshluts.com/luts/223
# LUTr-Author: Andy
# LUTr-Author-URL: https://freshluts.com/users/1003
# LUTr-Attribution: Andy via Fresh LUTs
# LUTr-Source-Labels: gamma=Rec 709; color=Green; key=Neutral; style=Blockbuster
# LUTr-Note: Preserve this metadata and the upstream license notices when redistributing.
TITLE "MATRIX"
LUT_3D_SIZE 16
DOMAIN_MIN 0 0 0
DOMAIN_MAX 1 1 1
0.004075 0.031447 0.032974
0.025489 0.038406 0.024579
0.06647 0.048462 0.024405
0.110124 0.0595 0.023246
0.154005 0.067456 0.023385
0.196612 0.072988 0.024285
0.235609 0.077528 0.02582
0.272236 0.081886 0.028985
0.30822 0.084229 0.033205
0.344036 0.083836 0.038761
0.379304 0.080365 0.044862
0.412699 0.074378 0.052488
0.447433 0.069826 0.061475
0.481214 0.068178 0.071458
0.509047 0.068404 0.082139
0.523132 0.068473 0.088576
0.002105 0.052334 0.032965
0.022161 0.062091 0.028907
0.064841 0.072911 0.024064
0.106355 0.084328 0.022505
0.147134 0.093844 0.022715
0.18996 0.100854 0.023985
0.231582 0.106229 0.026049
0.27218 0.110245 0.029351
0.311219 0.11204 0.033219
0.350086 0.11218 0.037731
0.389683 0.109001 0.042646
0.430836 0.101092 0.048701
0.469116 0.094318 0.056542
0.502539 0.092036 0.064701
0.527909 0.091035 0.072181
0.539485 0.088323 0.077248
0.000603 0.076735 0.033055
0.017354 0.088091 0.029875
0.055957 0.101998 0.028445
0.099803 0.113974 0.027116
0.141751 0.123794 0.026876
0.183304 0.130978 0.027262
0.22682 0.137117 0.028281
0.270613 0.142344 0.03075
0.313916 0.145899 0.034364
0.356797 0.147625 0.039162
0.400015 0.147731 0.044604
0.447358 0.144946 0.050758
0.49358 0.140593 0.058074
0.528485 0.135103 0.065264
0.553042 0.130195 0.072124
0.564139 0.123489 0.075881
0.002094 0.103837 0.034415
0.014637 0.115467 0.034321
0.051768 0.130914 0.034972
0.092578 0.145472 0.035545
0.135776 0.155246 0.034443
0.179862 0.162985 0.033476
0.225246 0.168559 0.032957
0.270438 0.17361 0.033722
0.316301 0.178374 0.036007
0.362142 0.18213 0.040009
0.407526 0.18447 0.045608
0.458574 0.185268 0.053473
0.508402 0.18344 0.062032
0.544588 0.176678 0.069626
0.570591 0.168588 0.077415
0.582393 0.160189 0.081606
0.001502 0.131539 0.038776
0.01616 0.144143 0.039253
0.048065 0.159865 0.040166
0.087638 0.17479 0.041048
0.130536 0.189084 0.041402
0.176103 0.196529 0.039282
0.224963 0.202416 0.037468
0.272104 0.207537 0.036701
0.318928 0.212789 0.037254
0.366167 0.218011 0.040077
0.414701 0.222064 0.045921
0.469335 0.225127 0.055006
0.522521 0.225287 0.06544
0.561303 0.219972 0.074923
0.589567 0.210853 0.083335
0.602276 0.199192 0.088117
0.004798 0.160642 0.043273
0.015193 0.173311 0.044039
0.044377 0.188729 0.045201
0.081077 0.203602 0.046397
0.123144 0.218927 0.04719
0.171152 0.234309 0.047117
0.222278 0.240427 0.043281
0.273982 0.245982 0.041152
0.323973 0.251459 0.040741
0.373021 0.257242 0.042631
0.424699 0.263018 0.048186
0.483659 0.268737 0.058491
0.541359 0.271192 0.071805
0.584227 0.268151 0.083929
0.613561 0.259102 0.09344
0.625648 0.245546 0.096884
0.004773 0.19252 0.049028
0.021029 0.206283 0.04967
0.044009 0.220571 0.051051
0.069989 0.232443 0.052515
0.111666 0.248769 0.053791
0.158868 0.265571 0.05471
0.217708 0.283195 0.054381
0.273655 0.289182 0.050497
0.329649 0.295258 0.047578
0.383078 0.301595 0.048199
0.438493 0.308868 0.053121
0.500962 0.317503 0.063782
0.562419 0.32315 0.078716
0.610693 0.323556 0.094341
0.642295 0.315915 0.106349
0.654779 0.300078 0.110183
0.00505 0.227238 0.056261
0.026911 0.243617 0.056529
0.048581 0.257769 0.05778
0.071481 0.26742 0.05939
0.09676 0.278451 0.06147
0.143755 0.296047 0.062519
0.204797 0.316459 0.062845
0.271961 0.335238 0.060809
0.333048 0.342918 0.056536
0.392426 0.35079 0.055307
0.4524 0.35973 0.059067
0.517378 0.370609 0.068745
0.580976 0.379702 0.083896
0.633978 0.383175 0.102009
0.669691 0.377101 0.116825
0.684888 0.360991 0.12334
0.007087 0.268343 0.064679
0.024663 0.283709 0.064544
0.059925 0.29893 0.065677
0.082262 0.308557 0.067135
0.092318 0.314076 0.069208
0.125467 0.326975 0.070616
0.190908 0.350493 0.07138
0.262274 0.372432 0.068564
0.333595 0.391877 0.06486
0.398657 0.401699 0.060377
0.464123 0.413448 0.062899
0.532829 0.427114 0.072116
0.59989 0.440476 0.087927
0.657047 0.447079 0.108243
0.695734 0.441865 0.125045
0.713911 0.426119 0.135145
0.003817 0.308841 0.075673
0.026242 0.324435 0.076257
0.040486 0.333457 0.07699
0.053657 0.340878 0.078126
0.067722 0.347381 0.079588
0.095511 0.358855 0.081207
0.160972 0.383644 0.082897
0.244451 0.41126 0.080679
0.326604 0.436257 0.076582
0.403758 0.455892 0.070207
0.475759 0.471381 0.067366
0.549411 0.488599 0.07504
0.621434 0.506332 0.093158
0.682882 0.515994 0.117627
0.72091 0.509866 0.131539
0.738588 0.492186 0.140755
0.005951 0.35179 0.088523
0.015943 0.36464 0.089654
0.028355 0.371943 0.090381
0.036955 0.376355 0.09119
0.052969 0.385964 0.09297
0.08404 0.402217 0.095112
0.146138 0.430005 0.097135
0.233272 0.460073 0.095863
0.324906 0.489562 0.092109
0.411314 0.51393 0.085238
0.487369 0.532202 0.079115
0.566222 0.553143 0.081455
0.64237 0.573581 0.09874
0.706261 0.585522 0.124317
0.747182 0.580229 0.139956
0.76534 0.56069 0.149492
0.00348 0.398418 0.10478
0.005941 0.404959 0.105584
0.009383 0.408909 0.106101
0.016758 0.4154 0.107269
0.035682 0.43636 0.111521
0.066761 0.466473 0.116979
0.143283 0.497391 0.118927
0.23733 0.528044 0.119008
0.327814 0.552836 0.113412
0.421167 0.579455 0.106445
0.5051 0.601322 0.099476
0.578712 0.615404 0.094829
0.656722 0.636439 0.103645
0.723917 0.64984 0.126161
0.772337 0.646785 0.148504
0.791055 0.626028 0.158081
0.001097 0.452724 0.125637
0.001937 0.458566 0.126442
0.005042 0.465132 0.127476
0.011051 0.475249 0.129348
0.019399 0.498445 0.134575
0.050623 0.529748 0.140533
0.136047 0.56282 0.144966
0.230989 0.593082 0.145129
0.340108 0.623236 0.141484
0.432832 0.647639 0.134652
0.521324 0.670494 0.128578
0.600475 0.687247 0.123304
0.671625 0.701136 0.123297
0.742561 0.716082 0.138104
0.795604 0.709838 0.161192
0.814746 0.684089 0.169756
0.000208 0.507199 0.147519
0.000282 0.512698 0.14888
0.001893 0.521126 0.15065
0.004428 0.532749 0.153037
0.006343 0.548345 0.156626
0.032631 0.573593 0.161818
0.074691 0.602529 0.167279
0.189473 0.640777 0.17133
0.316305 0.67938 0.172017
0.43783 0.71376 0.168652
0.533433 0.739269 0.16451
0.621764 0.760791 0.161533
0.69759 0.778921 0.16219
0.771533 0.794546 0.170015
0.828173 0.788277 0.186549
0.841006 0.749289 0.189089
0.000032 0.556314 0.168043
0.000139 0.562532 0.170112
0.000365 0.568481 0.172026
0.000651 0.575397 0.174034
0.000988 0.583064 0.176241
0.0107 0.59943 0.179994
0.024286 0.619477 0.184612
0.109552 0.65819 0.192035
0.234863 0.706137 0.19888
0.407036 0.76228 0.204805
0.533858 0.801777 0.208313
0.6397 0.832843 0.213253
0.721425 0.854936 0.22116
0.794914 0.869357 0.232799
0.868476 0.877531 0.275056
0.875479 0.83277 0.234296
0.000095 0.587685 0.181545
0.000106 0.593196 0.183733
0.000065 0.59782 0.185908
0.000073 0.602519 0.187951
0.000377 0.607777 0.190027
0.005732 0.621216 0.193766
0.013355 0.636832 0.197886
0.06175 0.669686 0.205568
0.15821 0.718988 0.216236
0.340607 0.774 0.226928
0.488733 0.820585 0.236144
0.610337 0.856263 0.244449
0.703377 0.881595 0.254569
0.778839 0.89891 0.271735
0.844071 0.903285 0.300043
0.89668 0.897742 0.352355
0.00201 0.032014 0.059373
0.022534 0.040265 0.0585
0.065537 0.050869 0.05418
0.107338 0.061607 0.051849
0.149226 0.069624 0.051946
0.192627 0.075297 0.052977
0.232533 0.079406 0.054495
0.269519 0.082512 0.056686
0.304516 0.083637 0.0599
0.340565 0.083962 0.06419
0.377673 0.082275 0.069342
0.416633 0.078478 0.075859
0.454504 0.074929 0.084262
0.488563 0.073801 0.092216
0.51375 0.073554 0.099462
0.526037 0.07304 0.103987
0.000658 0.054764 0.065384
0.016087 0.063594 0.064081
0.059287 0.075979 0.05947
0.105471 0.087789 0.05524
0.148344 0.097174 0.054317
0.192204 0.104795 0.055547
0.235809 0.111591 0.057604
0.277262 0.117537 0.060259
0.317443 0.121294 0.063201
0.357816 0.122601 0.067045
0.398456 0.120245 0.071707
0.439706 0.114048 0.077
0.478711 0.107081 0.083759
0.51316 0.104019 0.09124
0.539661 0.102937 0.09792
0.552291 0.101311 0.102083
0.000681 0.08347 0.067346
0.012952 0.093712 0.067548
0.049159 0.106817 0.065032
0.098102 0.118567 0.060182
0.144865 0.127716 0.057829
0.189409 0.134808 0.057664
0.235308 0.141099 0.058683
0.279846 0.147067 0.060533
0.323766 0.151891 0.063169
0.367815 0.154246 0.067105
0.412 0.153367 0.071927
0.45781 0.148765 0.077801
0.50186 0.142436 0.084026
0.535329 0.136203 0.090008
0.56018 0.131948 0.096592
0.57157 0.126852 0.100669
0.001253 0.114023 0.069746
0.013431 0.124163 0.071794
0.045182 0.137554 0.070172
0.087539 0.150795 0.06899
0.135909 0.160062 0.065999
0.184755 0.167965 0.063921
0.23398 0.173724 0.062918
0.281248 0.179176 0.063098
0.328298 0.18467 0.064717
0.375558 0.188325 0.068457
0.422465 0.189061 0.073778
0.471626 0.187043 0.080568
0.518819 0.18254 0.087513
0.552842 0.174768 0.093114
0.578002 0.166941 0.099585
0.589959 0.159487 0.103982
0.001141 0.143054 0.071559
0.013574 0.154207 0.075727
0.041957 0.167362 0.074915
0.08154 0.180844 0.07512
0.127851 0.194056 0.074478
0.178667 0.201939 0.071628
0.232152 0.2078 0.068939
0.282641 0.213174 0.067577
0.331982 0.218712 0.067642
0.381202 0.223347 0.070003
0.431514 0.225752 0.074886
0.483917 0.226143 0.082151
0.533803 0.224099 0.090243
0.570494 0.217935 0.097594
0.596861 0.208406 0.104342
0.609701 0.196971 0.109317
0.00326 0.172847 0.073622
0.011737 0.184251 0.079325
0.038792 0.19701 0.07964
0.074513 0.210614 0.080261
0.11994 0.225034 0.080367
0.171959 0.240374 0.08053
0.228256 0.246562 0.076741
0.283585 0.251898 0.073292
0.336532 0.257248 0.071572
0.387506 0.262252 0.072401
0.44112 0.266402 0.076744
0.497719 0.269739 0.084502
0.552506 0.271104 0.094812
0.593665 0.267412 0.105296
0.621531 0.257888 0.113776
0.633579 0.243494 0.118017
0.002899 0.202734 0.074989
0.018651 0.216522 0.082436
0.037107 0.227787 0.083201
0.063944 0.239776 0.084341
0.108765 0.255486 0.084938
0.158934 0.271999 0.086031
0.221947 0.289666 0.086863
0.281562 0.29555 0.083003
0.340668 0.301388 0.079257
0.39628 0.307247 0.078833
0.45372 0.313264 0.082049
0.514421 0.319803 0.089579
0.573589 0.324951 0.101279
0.620834 0.324989 0.115497
0.650869 0.316812 0.126527
0.663133 0.300211 0.130889
0.002873 0.23299 0.076811
0.020074 0.249428 0.08525
0.032516 0.259557 0.085879
0.058236 0.270781 0.087455
0.093738 0.284743 0.088864
0.143985 0.302338 0.089944
0.208272 0.323103 0.091843
0.278388 0.342264 0.091552
0.341891 0.349764 0.087211
0.402793 0.357116 0.084815
0.464436 0.365236 0.086266
0.528482 0.374745 0.092843
0.590476 0.38317 0.104055
0.643028 0.386442 0.121093
0.676553 0.378929 0.134771
0.692362 0.362378 0.142645
0.005469 0.270297 0.080639
0.011715 0.283361 0.087639
0.031598 0.293786 0.088391
0.056696 0.304976 0.090024
0.081947 0.316426 0.091939
0.126207 0.333022 0.093685
0.194567 0.35727 0.095922
0.268348 0.379756 0.095382
0.341314 0.399535 0.093518
0.407681 0.409027 0.088497
0.474631 0.419908 0.089151
0.542783 0.432616 0.095346
0.608006 0.444912 0.106847
0.664532 0.451209 0.12605
0.700336 0.443343 0.140805
0.718593 0.426101 0.15145
0.002922 0.309067 0.0862
0.014874 0.319947 0.090779
0.023333 0.326018 0.091891
0.033406 0.334083 0.093472
0.050575 0.344817 0.095058
0.095 0.362391 0.097168
0.164154 0.38853 0.099822
0.249678 0.416924 0.099224
0.332242 0.442181 0.096754
0.409774 0.46147 0.0912
0.483045 0.476549 0.088366
0.555994 0.493078 0.093695
0.62592 0.509892 0.107949
0.686881 0.519135 0.130968
0.723978 0.5102 0.14569
0.741782 0.49086 0.155138
0.004447 0.351325 0.09319
0.011244 0.360755 0.095793
0.013319 0.363446 0.096613
0.016333 0.367003 0.097687
0.038597 0.379531 0.099421
0.084355 0.402529 0.102249
0.149874 0.431573 0.10473
0.237785 0.462682 0.104668
0.327878 0.492336 0.101902
0.413669 0.516399 0.095704
0.490133 0.534695 0.090909
0.568094 0.555407 0.092181
0.64216 0.575125 0.106052
0.707415 0.587256 0.132319
0.749608 0.579653 0.152195
0.76674 0.557429 0.161051
0.003317 0.405112 0.108004
0.014097 0.416771 0.109425
0.021488 0.422249 0.110215
0.026661 0.4263 0.110932
0.039127 0.436613 0.112585
0.070563 0.462147 0.116941
0.150697 0.49454 0.119549
0.241333 0.526827 0.121315
0.328381 0.554457 0.117649
0.421705 0.582038 0.111214
0.506362 0.604531 0.105205
0.577786 0.61697 0.100338
0.652526 0.6352 0.106631
0.72226 0.649019 0.130281
0.773808 0.645958 0.156396
0.792367 0.623348 0.167278
0.000921 0.460837 0.128696
0.005352 0.471475 0.129945
0.011791 0.481928 0.131614
0.015577 0.488676 0.132786
0.020971 0.499421 0.134778
0.054601 0.527502 0.140492
0.141155 0.562641 0.149291
0.232462 0.594598 0.152809
0.339583 0.626639 0.148822
0.435946 0.653785 0.139764
0.524068 0.676458 0.132471
0.598681 0.689406 0.125936
0.664812 0.697656 0.122928
0.737887 0.71279 0.137484
0.795805 0.709793 0.163634
0.815713 0.683317 0.174141
0.000118 0.514221 0.150442
0.000393 0.52029 0.151851
0.00196 0.528978 0.153614
0.003485 0.538539 0.155606
0.005177 0.550486 0.158146
0.031371 0.573937 0.162865
0.070643 0.602759 0.170742
0.187772 0.643602 0.179094
0.317157 0.684186 0.179596
0.43948 0.719635 0.173786
0.532212 0.743636 0.167691
0.619016 0.763508 0.163926
0.694662 0.778305 0.162309
0.771185 0.794255 0.170126
0.828931 0.787995 0.187424
0.842563 0.750325 0.191258
0.000028 0.56181 0.170704
0.000144 0.568916 0.173135
0.000318 0.574213 0.17477
0.000495 0.58022 0.176589
0.000828 0.586743 0.178396
0.009721 0.602174 0.181872
0.021022 0.620477 0.186268
0.100646 0.658359 0.194158
0.232982 0.709471 0.201416
0.408409 0.766543 0.207496
0.533602 0.805191 0.211119
0.638844 0.83511 0.215595
0.724963 0.856993 0.222834
0.800047 0.87094 0.23467
0.869484 0.876177 0.273859
0.878119 0.833122 0.236602
0.000038 0.591037 0.183502
0.000034 0.598143 0.186436
0.000044 0.601951 0.188093
0.000057 0.606282 0.18996
0.000333 0.611295 0.191905
0.004953 0.623382 0.195213
0.013478 0.639764 0.199563
0.063366 0.675933 0.208238
0.171886 0.725744 0.21878
0.35243 0.779534 0.229098
0.49791 0.824782 0.238083
0.616784 0.858877 0.245898
0.707774 0.882585 0.255202
0.782996 0.899274 0.272591
0.850635 0.9045 0.307912
0.902778 0.901013 0.369868
0.000566 0.027819 0.091541
0.015939 0.035968 0.092769
0.058554 0.046699 0.092294
0.099946 0.058083 0.089594
0.140091 0.06686 0.088601
0.182429 0.073541 0.088483
0.224331 0.078973 0.088744
0.263093 0.082485 0.089573
0.298038 0.082977 0.09145
0.333554 0.082772 0.094907
0.372027 0.082001 0.100514
0.41609 0.08119 0.107835
0.460356 0.079981 0.115975
0.495832 0.079017 0.122432
0.519978 0.07827 0.127015
0.530959 0.077355 0.128318
0.000241 0.052762 0.10051
0.010477 0.063182 0.102216
0.0497 0.076214 0.100392
0.098105 0.088643 0.094241
0.143743 0.098033 0.090125
0.18861 0.105985 0.088505
0.234581 0.113095 0.088181
0.278024 0.119075 0.088919
0.3193 0.122712 0.090261
0.359498 0.123204 0.092733
0.400322 0.120552 0.097242
0.442832 0.115783 0.10361
0.484674 0.110645 0.110263
0.517905 0.106579 0.116438
0.542416 0.104295 0.121712
0.553947 0.101955 0.123554
0.000535 0.086658 0.10916
0.00948 0.096276 0.109184
0.039782 0.107945 0.107918
0.089842 0.121802 0.102978
0.141233 0.132758 0.098805
0.190228 0.141608 0.096704
0.23954 0.149369 0.096827
0.28684 0.156827 0.098366
0.333697 0.163261 0.100275
0.379909 0.167189 0.102595
0.426269 0.166154 0.106403
0.473332 0.161474 0.112062
0.516055 0.154206 0.11705
0.547785 0.145947 0.120788
0.571367 0.141018 0.126909
0.582756 0.137034 0.130914
0.000538 0.121001 0.11372
0.011371 0.130047 0.113701
0.038649 0.142322 0.114495
0.079339 0.15469 0.112324
0.13199 0.165296 0.107865
0.186479 0.174458 0.10365
0.24023 0.181344 0.101128
0.290587 0.187559 0.10064
0.340331 0.193765 0.101617
0.38918 0.198252 0.103689
0.438447 0.198372 0.107549
0.488767 0.195314 0.113524
0.53439 0.18888 0.118566
0.567309 0.179033 0.121765
0.59085 0.170037 0.126845
0.601762 0.162613 0.131049
0.000966 0.152625 0.116397
0.009949 0.16196 0.116751
0.039623 0.175628 0.119784
0.075117 0.187572 0.118513
0.123141 0.20036 0.116254
0.178944 0.209268 0.112007
0.237754 0.21597 0.107639
0.292724 0.22166 0.105004
0.345614 0.227474 0.104103
0.396905 0.232181 0.105261
0.449646 0.23384 0.108951
0.503061 0.233354 0.115697
0.551547 0.230089 0.122009
0.587089 0.222864 0.126834
0.611683 0.212958 0.132165
0.623017 0.202295 0.136257
0.0021 0.184436 0.117447
0.009109 0.19347 0.118079
0.037818 0.207988 0.124283
0.068977 0.220038 0.123421
0.11597 0.233934 0.122044
0.171165 0.248414 0.119779
0.232629 0.255112 0.114775
0.292413 0.260871 0.110409
0.349238 0.266588 0.107447
0.402674 0.271708 0.107383
0.458543 0.275568 0.110144
0.516128 0.278325 0.116377
0.569515 0.278809 0.124102
0.609669 0.274624 0.131951
0.636212 0.264661 0.139499
0.647614 0.250609 0.144009
0.001666 0.215356 0.117774
0.015652 0.226904 0.119152
0.032606 0.240707 0.127697
0.05819 0.251754 0.127466
0.104237 0.266723 0.126875
0.157662 0.282075 0.125402
0.225302 0.298252 0.12291
0.289277 0.304194 0.117313
0.351839 0.310118 0.112131
0.409393 0.316124 0.110733
0.46821 0.321783 0.112184
0.529609 0.32786 0.117776
0.587931 0.332696 0.126766
0.634171 0.332926 0.138792
0.663398 0.324444 0.149052
0.675175 0.308503 0.154008
0.003025 0.246753 0.117156
0.016142 0.260087 0.119189
0.028397 0.274028 0.129004
0.05294 0.283906 0.129722
0.088169 0.297346 0.130078
0.141048 0.314019 0.129129
0.210533 0.333328 0.127842
0.284347 0.351313 0.125993
0.351601 0.358963 0.12047
0.414368 0.366349 0.116441
0.477379 0.374482 0.116763
0.542923 0.383698 0.122288
0.605113 0.39191 0.130602
0.65676 0.394994 0.144516
0.689384 0.386698 0.158152
0.70329 0.36923 0.165597
0.004223 0.281767 0.115033
0.0089 0.292445 0.117297
0.030765 0.308086 0.12861
0.049722 0.317328 0.12944
0.072238 0.328354 0.130609
0.121182 0.345245 0.130718
0.195377 0.368437 0.130434
0.273651 0.39007 0.12899
0.349322 0.409333 0.127164
0.417713 0.418835 0.120603
0.485663 0.429386 0.118692
0.555167 0.441872 0.123058
0.620251 0.453571 0.1315
0.675727 0.459309 0.14675
0.711702 0.450614 0.162141
0.728529 0.431191 0.173501
0.001978 0.314855 0.10906
0.010079 0.32397 0.111537
0.019105 0.335511 0.122301
0.027198 0.342976 0.12292
0.041093 0.353072 0.123732
0.091274 0.37218 0.125158
0.165708 0.398752 0.126662
0.255098 0.42677 0.1257
0.339086 0.451448 0.123771
0.416948 0.469571 0.117538
0.490716 0.484268 0.112563
0.564691 0.500516 0.115786
0.633357 0.516288 0.126172
0.692937 0.5249 0.145401
0.730956 0.515435 0.160706
0.749041 0.493788 0.173173
0.002458 0.352584 0.106423
0.008513 0.361799 0.108449
0.010336 0.368605 0.117137
0.012501 0.372639 0.118381
0.032361 0.385182 0.119938
0.080981 0.410058 0.122446
0.150903 0.440164 0.124439
0.24368 0.472128 0.124787
0.334199 0.500737 0.122383
0.41977 0.523634 0.116294
0.49568 0.540795 0.110955
0.574137 0.560906 0.110014
0.646493 0.579621 0.119514
0.710677 0.591144 0.143596
0.753556 0.582933 0.163409
0.77057 0.558087 0.173384
0.002431 0.40759 0.117552
0.008007 0.415367 0.11676
0.015385 0.424968 0.123746
0.020532 0.430153 0.125709
0.032741 0.442257 0.129108
0.062702 0.469971 0.134346
0.150791 0.502777 0.136467
0.244862 0.535019 0.138514
0.33417 0.562394 0.13485
0.42718 0.589189 0.128578
0.511203 0.610644 0.12254
0.581209 0.620961 0.113291
0.65262 0.636738 0.11193
0.721679 0.650299 0.134066
0.775411 0.647256 0.163082
0.793896 0.622354 0.175473
0.00059 0.464125 0.136036
0.002984 0.471186 0.134479
0.009094 0.485631 0.139996
0.01192 0.492166 0.141846
0.017051 0.504976 0.14626
0.053416 0.534833 0.154805
0.138656 0.568713 0.163251
0.233541 0.600877 0.16698
0.34254 0.632997 0.163142
0.441618 0.662202 0.156248
0.530259 0.685111 0.148526
0.602452 0.695299 0.134639
0.663571 0.698781 0.125373
0.734945 0.711538 0.138055
0.796633 0.710276 0.167319
0.81758 0.6837 0.180851
0.000055 0.517359 0.155426
0.000073 0.521878 0.155668
0.001622 0.534231 0.159741
0.002905 0.54285 0.161525
0.004488 0.554581 0.164721
0.031412 0.57883 0.171051
0.072111 0.607047 0.178588
0.189174 0.647759 0.188224
0.319203 0.688224 0.187838
0.442622 0.725408 0.183445
0.53807 0.751771 0.177574
0.622276 0.76973 0.170434
0.693954 0.780698 0.16478
0.770012 0.794504 0.17101
0.830926 0.790012 0.190055
0.846045 0.753977 0.196253
0.000026 0.56602 0.173652
0.0001 0.571601 0.175691
0.000279 0.57965 0.178888
0.000377 0.584405 0.180139
0.000723 0.590115 0.181613
0.008972 0.605051 0.18494
0.018054 0.621574 0.188907
0.095795 0.659018 0.196519
0.238865 0.714875 0.204602
0.412447 0.770246 0.210476
0.538823 0.80937 0.214831
0.643959 0.838966 0.219561
0.729632 0.859795 0.226645
0.806827 0.872947 0.239012
0.871748 0.876602 0.277411
0.880334 0.834912 0.23975
0.000017 0.595208 0.185823
0.000025 0.600671 0.188007
0.000038 0.606906 0.19094
0.000044 0.610399 0.192392
0.000347 0.615039 0.194141
0.004746 0.627464 0.197598
0.015183 0.646129 0.202761
0.063272 0.682728 0.211481
0.182513 0.732293 0.221788
0.361068 0.784602 0.231607
0.506782 0.829134 0.240519
0.624179 0.862483 0.248644
0.71342 0.885444 0.258498
0.78835 0.901178 0.27652
0.854707 0.905657 0.314261
0.906485 0.9035 0.381772
0.000709 0.025174 0.120559
0.011442 0.033121 0.123717
0.049534 0.04406 0.126472
0.0905 0.052485 0.128238
0.128339 0.061267 0.126878
0.169816 0.069209 0.126438
0.211114 0.075939 0.126144
0.251294 0.08034 0.126408
0.28872 0.082454 0.127404
0.326304 0.083162 0.129693
0.366971 0.083401 0.134388
0.414304 0.084208 0.141519
0.461882 0.084272 0.149795
0.497647 0.083032 0.154703
0.521859 0.081859 0.157118
0.533272 0.080828 0.155912
0.000513 0.052835 0.130827
0.007493 0.062936 0.134585
0.039328 0.07467 0.136971
0.084785 0.086776 0.136377
0.130302 0.097014 0.131796
0.176773 0.106176 0.128844
0.224494 0.113855 0.126704
0.270875 0.120344 0.125552
0.314989 0.124564 0.125462
0.356974 0.125208 0.126814
0.398706 0.12217 0.130432
0.442015 0.117637 0.136514
0.48533 0.113507 0.142724
0.517534 0.108476 0.146906
0.54084 0.10506 0.149791
0.552879 0.102615 0.149308
0.00033 0.08986 0.143835
0.007163 0.097824 0.145813
0.030334 0.1107 0.147549
0.076144 0.123663 0.14585
0.129549 0.135177 0.139842
0.182992 0.14439 0.134462
0.23639 0.151681 0.131155
0.286229 0.158391 0.13022
0.335342 0.164334 0.130544
0.383168 0.167944 0.131738
0.430279 0.166576 0.134509
0.4767 0.161364 0.139919
0.518814 0.154551 0.144385
0.550231 0.146431 0.146306
0.572624 0.140529 0.150172
0.583544 0.136385 0.152018
0.000171 0.123185 0.153584
0.008264 0.131673 0.153748
0.03345 0.143795 0.153793
0.069969 0.155313 0.153253
0.123954 0.168373 0.149529
0.182103 0.180292 0.145046
0.240547 0.189218 0.141477
0.295045 0.196735 0.140022
0.348893 0.203693 0.140002
0.400378 0.208063 0.141074
0.451797 0.207923 0.143261
0.502003 0.204081 0.148368
0.546043 0.197617 0.152021
0.578692 0.188317 0.153141
0.60269 0.179971 0.15621
0.61451 0.174657 0.160313
0.000756 0.156958 0.157625
0.006699 0.165782 0.157267
0.036214 0.179361 0.1585
0.069483 0.191466 0.160289
0.116782 0.204183 0.157932
0.175437 0.215589 0.153489
0.238982 0.223974 0.147934
0.298704 0.230703 0.143923
