site/assets/luts/freshluts--0000188-glut004.cube
# LUTr-Schema-Version: 2
# LUTr-ID: freshluts--0000188-glut004
# LUTr-Title: gLUT004
# LUTr-Collection: Fresh LUTs
# LUTr-Collection-ID: freshluts-community
# LUTr-Source: https://freshluts.com
# LUTr-Retrieved: 2026-07-27
# LUTr-Source-File: submissions-raw/freshluts/cubes/188__KILABUNI_1.P2640032.cube
# LUTr-Source-Format: CUBE
# LUTr-Source-SHA256: 39a33e1f83920ad1e6e4ab6908fbab8751b3008c9dd1ed239f1107f2e4d7bc28
# LUTr-License: CC0-1.0
# LUTr-License-URL: https://freshluts.com/termsandconditions
# LUTr-License-Basis: site-terms
# LUTr-Transform-Class: creative-look
# LUTr-Tags: creative, freshluts, community, cube, green, rec709
# LUTr-Input-Color-Space: rec709
# LUTr-Input-Gamut: rec709
# LUTr-Input-Transfer: rec709
# LUTr-Output-Color-Space: srgb
# LUTr-Output-Gamut: rec709
# LUTr-Output-Transfer: srgb
# LUTr-Color-Space-Confidence: declared-by-source
# LUTr-Domain-Normalized: true
# LUTr-Shaper: none
# LUTr-Original-Grid: 33x33x33
# LUTr-Conversion-Grid: 33x33x33
# LUTr-Conversion-Interpolation: none
# LUTr-Conversion-Method: Metadata normalization; numeric LUT samples preserved
# LUTr-Conversion-Tool: LUTr scripts/convert-all-to-cube.mjs 2.0.0
# LUTr-Conversion-Date: 2026-07-28
# LUTr-Asset-URL: https://freshluts.com/luts/188
# LUTr-Author: directorgodfrey_M
# LUTr-Author-URL: https://freshluts.com/users/1455
# LUTr-Attribution: directorgodfrey_M via Fresh LUTs
# LUTr-Source-Labels: gamma=Rec 709; color=Green; key=Neutral; style=Protect highlights
# LUTr-Note: Preserve this metadata and the upstream license notices when redistributing.
TITLE "gLUT004"
LUT_3D_SIZE 33
DOMAIN_MIN 0 0 0
DOMAIN_MAX 1 1 1
0.073518 0.0877852 0.0824292
0.0931106 0.0828107 0.0704204
0.112108 0.0736858 0.0581216
0.135622 0.0587625 0.042298
0.158206 0.0391546 0.0298009
0.177554 0.0234073 0.0255741
0.190661 0.0113832 0.0250858
0.202701 0.00582895 0.0247654
0.213428 0.00318914 0.0244602
0.225544 0.0000457771 0.0241398
0.240177 0 0.0237736
0.254505 0.000015259 0.0234226
0.269688 0 0.0230259
0.291829 0 0.0224613
0.308782 0 0.0219883
0.317952 0 0.0216831
0.32604 0 0.0213626
0.33344 0 0.0210727
0.340734 0 0.0207828
0.347982 0 0.0205081
0.354665 0 0.0202182
0.362127 0 0.0199283
0.370245 0 0.0196078
0.379736 0 0.0198367
0.393103 0 0.0327459
0.407523 0 0.0509804
0.423148 0 0.0686046
0.44007 0 0.0875257
0.455787 0 0.103975
0.471214 0 0.117418
0.485573 0 0.128939
0.485573 0 0.128939
0.485573 0 0.128939
0.0501411 0.098909 0.0947433
0.0757916 0.0966201 0.0792706
0.102647 0.0890364 0.0632029
0.127016 0.0753948 0.047303
0.151293 0.0561379 0.0301366
0.174014 0.038529 0.0264439
0.18854 0.0247044 0.0251621
0.202411 0.0132906 0.0247807
0.213214 0.00941482 0.0244907
0.225086 0.00241093 0.0241703
0.237766 0.000457771 0.0238346
0.251652 0.00030518 0.0234836
0.262989 0 0.023209
0.280995 0 0.0227207
0.302068 0 0.0221714
0.318029 0 0.0216831
0.326116 0 0.0213626
0.333501 0 0.0210727
0.340826 0 0.0207828
0.348119 0 0.0205081
0.354726 0 0.0202182
0.362219 0 0.0199283
0.370352 0 0.0196078
0.379858 0 0.0198672
0.393378 0 0.0331426
0.407843 0 0.0513619
0.423423 0 0.0689097
0.440345 0 0.0877852
0.456138 0 0.104326
0.471534 0 0.117693
0.485573 0 0.128939
0.485573 0 0.128939
0.485573 0 0.128939
0.0167239 0.112428 0.114565
0.0395819 0.111971 0.100252
0.0780346 0.108644 0.0780346
0.113115 0.0977188 0.0567483
0.142535 0.0790265 0.0349279
0.166629 0.0609903 0.026978
0.186236 0.0465095 0.0252384
0.200992 0.0323491 0.0248569
0.214023 0.0236362 0.024506
0.226001 0.0139925 0.024155
0.238483 0.00390631 0.0238041
0.251621 0.00224308 0.0234836
0.26392 0.000610361 0.0231785
0.277531 0 0.0228275
0.2925 0 0.0224308
0.31078 0 0.021912
0.326009 0 0.0213626
0.333593 0 0.0210727
0.340948 0 0.0207828
0.348226 0 0.0204929
0.354818 0 0.0202182
0.362371 0 0.0199283
0.370504 0 0.0195926
0.380179 0 0.0199588
0.393759 0 0.0336614
0.408194 0 0.0517891
0.423774 0 0.069337
0.440818 0 0.0882277
0.456657 0 0.104814
0.472084 0 0.118196
0.485573 0 0.128939
0.485573 0 0.128939
0.485573 0 0.128939
0.00103761 0.128542 0.13225
0.00729381 0.128313 0.123552
0.0328222 0.127916 0.105715
0.0833143 0.123095 0.0757916
0.127977 0.107225 0.047364
0.157809 0.0902571 0.0299077
0.179507 0.0770581 0.025864
0.198489 0.0640269 0.0249332
0.212558 0.0525521 0.0245518
0.227878 0.0395819 0.0241093
0.240513 0.0258183 0.0237888
0.253788 0.0120241 0.0234379
0.267842 0.00508125 0.0231174
0.27985 0.000183108 0.0227817
0.294987 0 0.0223545
0.307836 0 0.0219883
0.316533 0 0.0217441
0.330404 0 0.0211795
0.341161 0 0.0207675
0.348394 0 0.0204929
0.354986 0 0.0202182
0.362615 0 0.019913
0.370886 0 0.0195773
0.380575 0 0.0200656
0.394293 0 0.0344244
0.408804 0 0.0524758
0.424399 0 0.0700694
0.44155 0 0.0889296
0.457481 0 0.105592
0.472648 0 0.118685
0.485573 0 0.128939
0.485573 0 0.128939
0.485573 0 0.128939
0 0.147631 0.142702
0.000579843 0.148211 0.139467
0.00680552 0.14934 0.130404
0.0249332 0.148959 0.111391
0.0955215 0.140063 0.0700084
0.140398 0.125154 0.0404059
0.168933 0.112856 0.0307927
0.191577 0.102068 0.0251011
0.210605 0.0913252 0.0246128
0.227817 0.0809644 0.0241398
0.244648 0.0686351 0.0236973
0.259495 0.0538491 0.0233005
0.274647 0.035523 0.0229191
0.286213 0.0152132 0.0226139
0.303929 0.000549325 0.0220493
0.319936 0 0.0215
0.328405 0 0.0212253
0.324987 0 0.0214084
0.334234 0 0.0210422
0.348623 0 0.0204776
0.3552 0 0.0202029
0.362966 0 0.0198978
0.371176 0 0.0195773
0.381018 0 0.0202029
0.394903 0 0.0352178
0.409461 0 0.0532235
0.425238 0 0.071046
0.442329 0 0.0897078
0.458183 0 0.106279
0.473304 0 0.119249
0.485573 0 0.128939
0.485573 0 0.128939
0.485573 0 0.128939
0 0.163516 0.14847
0 0.163577 0.146624
0 0.166781 0.142992
0.00201419 0.168643 0.133669
0.0361181 0.166949 0.106584
0.107393 0.158831 0.0641489
0.150439 0.149248 0.0333257
0.180774 0.139437 0.0272068
0.204379 0.129397 0.0247807
0.224506 0.1196 0.0242313
0.246265 0.110735 0.0236515
0.267262 0.101701 0.0231022
0.282338 0.0837262 0.0226902
0.298085 0.059266 0.0221866
0.314275 0.0249332 0.021622
0.335729 0.00386053 0.0208896
0.345922 0 0.0205234
0.348745 0 0.0204623
0.343221 0 0.0207065
0.337881 0 0.0209049
0.355535 0 0.0201877
0.363302 0 0.0198978
0.371542 0 0.0195621
0.381552 0 0.0204929
0.395483 0 0.0359655
0.410315 0 0.0541848
0.42594 0 0.0718853
0.443076 0 0.0904402
0.458961 0 0.106996
0.47396 0 0.119814
0.485573 0 0.128939
0.485573 0 0.128939
0.485573 0 0.128939
0 0.176822 0.154818
0 0.175937 0.153384
0 0.178866 0.149111
0 0.18265 0.142733
0.00199893 0.186175 0.130297
0.0457618 0.183749 0.102785
0.116808 0.179095 0.0635843
0.160861 0.172976 0.0391241
0.195621 0.166613 0.0252689
0.220066 0.158236 0.0243381
0.245487 0.152026 0.023682
0.269947 0.145663 0.0230106
0.293996 0.135821 0.0223087
0.312779 0.116289 0.0216831
0.330022 0.089128 0.0211643
0.351247 0.0380713 0.0203708
0.370001 0.00462348 0.0197147
0.374273 0 0.0195621
0.372122 0 0.0196536
0.365652 0 0.019852
0.345281 0 0.0205997
0.363638 0 0.0198825
0.371923 0 0.0195468
0.382101 0 0.0208286
0.396262 0 0.0369879
0.411002 0 0.0549477
0.426673 0 0.0727398
0.443809 0 0.0911879
0.459678 0 0.107591
0.474723 0 0.120485
0.485573 0 0.128939
0.485573 0 0.128939
0.485573 0 0.128939
0 0.190249 0.161059
0 0.188495 0.160327
0 0.191073 0.156085
0 0.194888 0.149844
0 0.201495 0.141588
0.00146487 0.20441 0.128191
0.0505074 0.20116 0.101701
0.125841 0.200809 0.0687572
0.174762 0.198245 0.0382696
0.21297 0.196262 0.0247044
0.244053 0.192004 0.0236973
0.269383 0.185901 0.0230259
0.296498 0.178637 0.0222324
0.320012 0.165118 0.0214542
0.34461 0.146044 0.0206455
0.364843 0.117449 0.0199435
0.389548 0.0630045 0.0190738
0.401755 0.00939956 0.018677
0.405585 0 0.0185702
0.403998 0 0.0186465
0.395026 0 0.0189364
0.372198 0 0.0196231
0.372305 0 0.0195315
0.382696 0 0.0211643
0.396872 0 0.0377813
0.411643 0 0.0556802
0.427298 0 0.0734722
0.444358 0 0.091722
0.460349 0 0.108171
0.475273 0 0.120958
0.485573 0 0.128939
0.485573 0 0.128939
0.485573 0 0.128939
0 0.202197 0.167041
0 0.200885 0.166201
0 0.201953 0.162448
0 0.205936 0.156008
0 0.21265 0.148241
0 0.219318 0.140993
0.0021973 0.219974 0.127764
0.0591135 0.219944 0.101915
0.142809 0.221546 0.0699321
0.192355 0.22536 0.0359808
0.236591 0.227726 0.0243229
0.267185 0.223239 0.0231479
0.295857 0.216129 0.0222019
0.322377 0.206195 0.0214084
0.350164 0.192203 0.0204318
0.375769 0.172473 0.0195468
0.405203 0.136385 0.0185702
0.426551 0.0788891 0.0179599
0.43563 0.0135195 0.0177157
0.438437 0.000488289 0.0176699
0.438315 0 0.0176699
0.431983 0 0.0178073
0.40763 0 0.018555
0.383108 0 0.0214084
0.397299 0 0.0383307
0.412177 0 0.0562753
0.427787 0 0.0740673
0.444984 0 0.0923476
0.460838 0 0.108583
0.4757 0 0.121279
0.485573 0 0.128939
0.485573 0 0.128939
0.485573 0 0.128939
0 0.212345 0.173907
0 0.211307 0.173251
0 0.211597 0.17052
0 0.214893 0.163561
0 0.221042 0.155703
0 0.22768 0.149538
0 0.232441 0.141955
0.011841 0.235599 0.127016
0.0890516 0.238773 0.100038
0.165957 0.244816 0.0708934
0.215869 0.250324 0.0329137
0.260853 0.251102 0.0247044
0.29395 0.246464 0.0223087
0.321416 0.238285 0.0214389
0.352865 0.228809 0.0203555
0.384039 0.216114 0.0192111
0.4168 0.194842 0.0182345
0.449866 0.154513 0.01738
0.466529 0.0885023 0.0168917
0.473091 0.0178531 0.0167239
0.476814 0.000549325 0.0166476
0.477485 0.000015259 0.0166171
0.470558 0 0.0167849
0.448035 0 0.0187381
0.375128 0 0.01944
0.412589 0 0.056733
0.428305 0 0.0747082
0.445335 0 0.0927138
0.461173 0 0.108873
0.47599 0 0.121508
0.485573 0 0.128939
0.485573 0 0.128939
0.485573 0 0.128939
0 0.222126 0.180087
0 0.221332 0.179583
0 0.221134 0.177676
0 0.223987 0.170718
0 0.228336 0.16286
0 0.23534 0.157336
0 0.242237 0.151446
0.000564584 0.247791 0.143679
0.0426337 0.253468 0.124498
0.122774 0.258137 0.0988327
0.190936 0.267231 0.0653239
0.240772 0.271916 0.031632
0.28809 0.272343 0.0228275
0.318761 0.266911 0.0215763
0.34844 0.257969 0.0205081
0.379431 0.248859 0.019379
0.411551 0.237201 0.0183719
0.464393 0.216541 0.0169833
0.493721 0.171756 0.016144
0.510597 0.104433 0.0156252
0.514839 0.0611429 0.0155032
0.520485 0.0335546 0.0152895
0.521294 0.0133974 0.0152895
0.512825 0.00178531 0.0156252
0.491096 0 0.0259403
0.404196 0 0.029099
0.428595 0 0.0750439
0.445548 0 0.092958
0.461387 0 0.109056
0.476188 0 0.121645
0.485573 0 0.128939
0.485573 0 0.128939
0.485573 0 0.128939
0 0.231495 0.186282
0 0.230762 0.185794
0 0.230488 0.184375
0 0.233631 0.177722
0 0.2374 0.170306
0 0.244511 0.165225
0 0.251286 0.160357
0 0.258732 0.154803
0.0180056 0.265461 0.144045
0.0780804 0.272892 0.122896
0.159655 0.280552 0.0985885
0.22356 0.291142 0.0586557
0.276295 0.296239 0.0276646
0.320027 0.295415 0.0215305
0.351614 0.288685 0.0204013
0.380789 0.279713 0.0193027
0.412467 0.270298 0.0183566
0.471885 0.264134 0.0167849
0.520348 0.238849 0.0153506
0.547967 0.19118 0.0144808
0.560357 0.140948 0.0140536
0.565377 0.111681 0.0138399
0.571557 0.0853895 0.013611
0.571008 0.0513313 0.013611
0.561502 0.0202182 0.0146029
0.540871 0.00419623 0.0440528
0.467369 0 0.0657969
0.44567 0 0.0930953
0.46154 0 0.109178
0.476402 0 0.121813
0.485573 0 0.128939
0.485573 0 0.128939
0.485573 0 0.128939
0 0.24123 0.193072
0 0.240711 0.192706
0 0.240909 0.191012
0 0.243946 0.184802
0 0.247135 0.177584
0 0.253742 0.173114
0 0.261082 0.169345
0 0.270954 0.166583
0.000488289 0.27985 0.162661
0.0342107 0.288151 0.149355
0.118822 0.296437 0.124544
0.197635 0.305486 0.0983749
0.263416 0.317617 0.0558022
0.315953 0.322164 0.0226291
0.359152 0.319829 0.0200656
0.390036 0.312016 0.0189822
0.421134 0.304234 0.0181277
0.459464 0.296544 0.0171206
0.536995 0.293584 0.0148928
0.582712 0.263111 0.0132448
0.611414 0.213062 0.0121462
0.619013 0.191089 0.0118563
0.625742 0.166506 0.0115663
0.630335 0.14313 0.0113985
0.628 0.104433 0.0144045
0.617212 0.0590982 0.0301061
0.591531 0.0127108 0.0679332
0.524605 0 0.107851
0.461616 0 0.109255
0.476371 0 0.121798
0.485573 0 0.128939
0.485573 0 0.128939
0.485573 0 0.128939
0 0.252155 0.200473
0 0.251591 0.200092
0 0.253407 0.197406
0 0.256107 0.192035
0 0.25835 0.185107
0 0.265919 0.181567
0 0.276143 0.180026
0 0.287129 0.178958
0 0.296178 0.176699
0.0019379 0.306889 0.173877
0.0666819 0.314885 0.155032
0.162432 0.323461 0.126284
0.238849 0.334768 0.0965438
0.305837 0.347555 0.0478828
0.357809 0.350866 0.0200809
0.400961 0.347692 0.0186618
0.434119 0.340139 0.0178225
0.466911 0.33193 0.0168765
0.536187 0.336202 0.0149386
0.609812 0.329213 0.0121767
0.652781 0.295155 0.0105745
0.671946 0.268498 0.00988785
0.681163 0.251972 0.00950637
0.688396 0.230869 0.00926223
0.69221 0.21178 0.0100557
0.693294 0.182193 0.0319066
0.6795 0.142336 0.0760815
0.651087 0.0558938 0.11873
0.581308 0 0.142809
0.476295 0 0.121736
0.485573 0 0.128939
0.485573 0 0.128939
0.485573 0 0.128939
0 0.266468 0.209949
0 0.26775 0.207599
0 0.269688 0.204288
0 0.272023 0.2
0 0.27509 0.194995
0 0.284276 0.192889
0 0.29453 0.19144
0 0.30573 0.191028
0 0.316106 0.190021
0 0.326818 0.189715
0.00782788 0.33904 0.184787
0.102129 0.347326 0.159197
0.213886 0.358099 0.125444
0.291539 0.372641 0.0886397
0.363333 0.388891 0.0224308
0.41294 0.387961 0.0184176
0.452201 0.383932 0.0173037
0.48716 0.377203 0.0163577
0.531365 0.373175 0.0151369
0.624704 0.386831 0.0116426
0.688914 0.37528 0.00933852
0.724727 0.343008 0.00828565
0.734691 0.33434 0.00798047
0.743923 0.322454 0.0113832
0.750072 0.310353 0.0392309
0.755505 0.295964 0.0751507
0.758938 0.275822 0.120653
0.746059 0.23563 0.164538
0.712428 0.146899 0.187854
0.634913 0 0.180453
0.485573 0 0.128939
0.485573 0 0.128939
0.485573 0 0.128939
0 0.28867 0.217395
0 0.289815 0.215549
0 0.291173 0.212924
0 0.293294 0.209964
0 0.298878 0.208087
0 0.30721 0.206607
0 0.317418 0.206577
0 0.329198 0.207507
0 0.339818 0.207187
0 0.352544 0.2094
0.00015259 0.365209 0.208835
0.0306859 0.377356 0.199786
0.169772 0.38584 0.16228
0.27042 0.401816 0.13257
0.35108 0.419974 0.0701305
0.426627 0.434562 0.0211948
0.470069 0.430518 0.0168307
0.509758 0.425559 0.0157321
0.547311 0.420539 0.0146181
0.633188 0.436194 0.0113069
0.714855 0.444099 0.00915541
0.768582 0.425681 0.00724804
0.786389 0.414847 0.0136263
0.795468 0.407004 0.0450752
0.800961 0.400809 0.08336
0.806134 0.390875 0.145373
0.809079 0.380224 0.191501
0.811902 0.364752 0.23267
0.80499 0.335332 0.261891
0.776181 0.258747 0.269093
0.694545 0.0486152 0.228962
0.485573 0 0.128939
0.485573 0 0.128939
0 0.314321 0.225757
0 0.315358 0.224857
0 0.318044 0.22417
0 0.32253 0.223621
0 0.328771 0.222965
0 0.337057 0.223346
0 0.346212 0.224689
0 0.356054 0.226642
0 0.366537 0.228702
0 0.381048 0.2327
0.0000610361 0.398642 0.237858
0.0110323 0.41352 0.236683
0.0947127 0.427283 0.219242
0.240177 0.43888 0.188296
0.338582 0.457053 0.156954
0.425376 0.479652 0.0663157
0.490852 0.486763 0.0200046
0.533928 0.482887 0.0150149
0.574578 0.479133 0.0135653
0.629526 0.477623 0.0114443
0.737011 0.504662 0.0153353
0.798733 0.502312 0.0227817
0.831098 0.489677 0.0365454
0.839231 0.485893 0.129168
0.843793 0.482383 0.192721
0.846235 0.477943 0.236408
0.847608 0.471138 0.271534
0.84863 0.463035 0.305547
0.849928 0.453849 0.336858
0.844205 0.425345 0.354681
0.82739 0.357656 0.346853
0.753094 0.128237 0.285664
0.485573 0 0.128939
0 0.355566 0.24799
0 0.357382 0.248035
0 0.359899 0.248142
0 0.3635 0.248386
0 0.369314 0.25005
0 0.376593 0.252171
0 0.384985 0.254505
0 0.3935 0.256947
0 0.403906 0.261372
0 0.419684 0.266957
0 0.439063 0.273121
0.0108949 0.461723 0.281498
0.108415 0.477791 0.266255
0.231952 0.493172 0.252674
0.335988 0.510231 0.235019
0.428443 0.527779 0.195117
0.508843 0.545113 0.106264
0.559152 0.543999 0.0291905
0.599359 0.538399 0.0125582
0.637415 0.528206 0.0111391
0.742428 0.554025 0.0192569
0.818479 0.564416 0.123323
0.857801 0.550896 0.130144
0.866499 0.548562 0.215076
0.868086 0.546395 0.270176
0.870237 0.545022 0.309789
0.870436 0.543053 0.343389
0.871366 0.539956 0.374029
0.872206 0.534966 0.401312
0.873655 0.527352 0.425452
0.872557 0.503944 0.434699
0.861875 0.444511 0.421942
0.809766 0.258961 0.353643
0 0.406638 0.286427
0 0.407935 0.286915
0 0.409812 0.287587
0 0.412985 0.288823
0 0.416587 0.289937
0 0.422095 0.291859
0 0.429236 0.294591
0 0.437781 0.298299
0 0.448585 0.303349
0 0.465187 0.308812
0.00120546 0.48716 0.316533
0.0317693 0.509422 0.324208
0.143542 0.536019 0.323384
0.262715 0.556176 0.322179
0.36257 0.575357 0.319539
0.462547 0.594141 0.29723
0.536889 0.609796 0.250446
0.603967 0.616846 0.157076
0.640574 0.608576 0.0631723
0.674769 0.595499 0.0185397
0.716655 0.585443 0.010193
0.825589 0.614603 0.195087
0.870375 0.608087 0.247807
0.886519 0.602899 0.279667
0.888212 0.602136 0.329381
0.887312 0.601053 0.368444
0.887022 0.600336 0.402426
0.886137 0.59794 0.430274
0.886122 0.595544 0.455131
0.886259 0.59292 0.478737
0.89012 0.588861 0.497963
0.890517 0.56936 0.503288
0.884596 0.521996 0.491188
0 0.476967 0.344945
0 0.478477 0.345907
0 0.479988 0.346654
0 0.482322 0.347906
0 0.4851 0.349111
0 0.489128 0.350805
0 0.49604 0.354452
0 0.505089 0.359243
0 0.521477 0.366018
0.00047303 0.541711 0.373373
0.0209812 0.560769 0.379721
0.0801099 0.57908 0.385229
0.2065 0.602335 0.387778
0.321782 0.62417 0.397574
0.410376 0.639597 0.396994
0.499733 0.653788 0.38172
0.570962 0.667216 0.361868
0.637766 0.680888 0.320348
0.686458 0.680461 0.266758
0.71725 0.666865 0.177508
0.747112 0.64979 0.0706951
0.81886 0.653849 0.193332
0.876677 0.659464 0.332418
0.902068 0.649699 0.349752
0.904143 0.651728 0.384741
0.903151 0.65156 0.41384
0.900526 0.651057 0.448173
0.899001 0.650553 0.477104
0.897597 0.649042 0.503212
0.896757 0.648386 0.526482
0.898711 0.646998 0.546334
0.90367 0.642252 0.559518
0.905303 0.623316 0.561837
0 0.569589 0.423255
0 0.570443 0.423697
0 0.571603 0.424308
0 0.573571 0.425422
0 0.576471 0.426993
0 0.581018 0.42887
0.000411994 0.588403 0.432151
0.00378424 0.596811 0.434577
0.0153201 0.610498 0.438727
0.0491798 0.625483 0.443946
0.112367 0.639002 0.447807
0.194186 0.653025 0.452689
0.30663 0.672648 0.463127
0.401724 0.687266 0.471717
0.479561 0.698589 0.469612
0.555215 0.707362 0.458732
0.612284 0.717723 0.447562
0.674937 0.729198 0.422721
0.723674 0.73814 0.398596
0.755047 0.72929 0.348333
0.777417 0.713558 0.272511
0.804471 0.694362 0.156008
0.873304 0.700526 0.361379
0.908843 0.694987 0.412116
0.91603 0.695338 0.44625
0.915358 0.694484 0.460838
0.913054 0.693492 0.485298
0.910063 0.692622 0.514183
0.90808 0.69192 0.53991
0.906676 0.691432 0.565087
0.907378 0.692164 0.585901
0.91014 0.692164 0.601297
0.915145 0.690211 0.615381
0.0551461 0.675547 0.505287
0.057023 0.675669 0.505058
0.0601816 0.676036 0.504891
0.0657664 0.676783 0.504692
0.076173 0.678553 0.504768
0.0855726 0.681712 0.50544
0.0966201 0.685832 0.506035
0.123369 0.690471 0.506905
0.169146 0.695689 0.508034
0.217624 0.701076 0.510353
0.272541 0.706615 0.513542
0.335805 0.714305 0.519615
0.420233 0.72697 0.52961
0.485481 0.735607 0.536049
0.551232 0.743755 0.532174
0.612345 0.749783 0.524453
0.661265 0.758297 0.516472
0.710765 0.767819 0.504433
0.753338 0.775464 0.490883
0.792065 0.780346 0.481498
0.813291 0.770382 0.437171
0.830259 0.753246 0.365148
0.864469 0.735042 0.35111
0.90808 0.736675 0.462959
0.925322 0.735775 0.500328
0.924422 0.736522 0.523461
0.922683 0.735241 0.535424
0.920424 0.734127 0.554711
0.918334 0.732891 0.578286
0.916579 0.732372 0.60116
0.916548 0.731975 0.622843
0.918547 0.734005 0.640299
0.923033 0.736706 0.656519
0.327092 0.750637 0.570138
0.327306 0.750484 0.569863
0.328573 0.750393 0.569619
0.333135 0.750805 0.569879
0.339391 0.751354 0.570214
0.344045 0.751446 0.570397
0.34963 0.751598 0.571023
0.358618 0.751766 0.571969
0.374472 0.752468 0.573037
0.39913 0.754833 0.575601
0.429664 0.757946 0.578729
0.473808 0.762478 0.583108
0.529915 0.76878 0.588556
0.575326 0.773465 0.590707
0.625177 0.779004 0.590249
0.673793 0.783749 0.583352
0.710414 0.790036 0.57583
0.751446 0.797238 0.565942
0.779934 0.803403 0.560327
0.813123 0.807935 0.555398
0.840864 0.809796 0.548592
0.857801 0.799237 0.506081
0.872312 0.783062 0.447745
0.904631 0.768963 0.481346
0.932006 0.769421 0.537102
0.932174 0.77351 0.577356
0.930159 0.773892 0.593484
0.928298 0.772168 0.602457
0.926665 0.770825 0.619013
0.924681 0.769528 0.638407
0.924376 0.770428 0.65893
0.925551 0.771557 0.676402
0.930388 0.775799 0.694942
0.496162 0.787808 0.62504
0.495598 0.787594 0.62472
0.495659 0.787503 0.624567
0.49575 0.78735 0.624292
0.496422 0.787228 0.624063
0.498085 0.787198 0.623941
0.501518 0.787335 0.623957
0.507668 0.787823 0.624399
0.517266 0.788632 0.625147
0.532143 0.789685 0.625849
0.554879 0.791562 0.627543
0.582544 0.793774 0.629496
0.610941 0.796567 0.632242
0.64213 0.799802 0.633799
0.68571 0.804044 0.633753
0.719783 0.809506 0.630137
0.752102 0.814893 0.624781
0.786206 0.820813 0.618845
0.812116 0.826612 0.616648
0.835828 0.830976 0.62005
0.858915 0.833219 0.618921
0.882216 0.834684 0.613626
0.892927 0.823117 0.56997
0.903044 0.806699 0.51368
0.930648 0.799908 0.571557
0.939773 0.806683 0.622049
0.937926 0.807645 0.642542
0.936019 0.806729 0.657008
0.934874 0.805188 0.66421
0.933135 0.804395 0.678233
0.933532 0.805142 0.694942
0.934478 0.805875 0.711482
0.938613 0.80911 0.729763
0.5729 0.79733 0.636576
0.5729 0.79733 0.636576
0.572595 0.797299 0.63653
0.572793 0.79733 0.636561
0.573495 0.797406 0.636652
0.575082 0.797589 0.636866
0.578347 0.797955 0.637293
0.582925 0.798459 0.637903
0.589837 0.799237 0.638834
0.600412 0.800412 0.640253
0.615442 0.802213 0.642374
0.631281 0.804303 0.645106
0.649058 0.806928 0.648554
0.678386 0.810941 0.651377
0.714946 0.816114 0.652964
0.745495 0.822721 0.653727
0.77641 0.829633 0.654826
0.808484 0.836927 0.655451
0.833097 0.843976 0.658961
0.854627 0.848386 0.663798
0.870802 0.85034 0.667033
0.891112 0.852567 0.668803
0.909209 0.852583 0.663218
0.92015 0.843442 0.627466
0.928603 0.82739 0.572534
0.944121 0.829099 0.650813
0.944259 0.833844 0.681636
0.942229 0.833692 0.699168
0.940475 0.832456 0.707424
0.939666 0.831296 0.713024
0.939132 0.832105 0.726253
0.940352 0.833738 0.740154
0.943832 0.83714 0.758434
0.632242 0.804456 0.645304
0.631891 0.804395 0.645228
0.631586 0.804349 0.645167
0.631434 0.804334 0.645136
0.63154 0.804349 0.645167
0.631998 0.80441 0.645258
0.632654 0.804501 0.645396
0.634089 0.804715 0.645685
0.636469 0.805066 0.646174
0.640406 0.805646 0.646922
0.646754 0.806577 0.648127
0.658274 0.808209 0.649607
0.675715 0.81059 0.651179
0.700862 0.813733 0.652796
0.726696 0.818524 0.652918
0.751202 0.824063 0.654139
0.779873 0.83035 0.654765
0.808667 0.836973 0.655467
0.831479 0.843519 0.658579
0.854383 0.849546 0.666743
0.871168 0.853712 0.676387
0.8916 0.857542 0.684459
0.909575 0.860319 0.689616
0.927337 0.860868 0.68632
0.9355 0.855589 0.663691
0.941451 0.84622 0.662455
0.948135 0.854139 0.718303
0.947341 0.854627 0.730343
0.945068 0.853742 0.740475
0.944137 0.852201 0.745846
0.944106 0.852094 0.753124
0.94522 0.853498 0.76582
0.947967 0.856855 0.77966
0.675929 0.81062 0.651194
0.675303 0.810529 0.651148
0.674601 0.810437 0.651102
0.674174 0.810376 0.651072
0.674327 0.810407 0.651072
0.67425 0.810391 0.651072
0.674601 0.810437 0.651102
0.675441 0.810544 0.651164
0.677256 0.810788 0.651301
0.680613 0.811246 0.651545
0.68632 0.811994 0.651957
0.695994 0.813153 0.652522
0.709163 0.814969 0.653056
0.723827 0.817929 0.652888
0.740887 0.821653 0.653391
0.760388 0.826215 0.654841
0.786221 0.831662 0.654627
0.810681 0.837476 0.655619
0.83122 0.843442 0.658534
0.852842 0.849165 0.665873
0.86923 0.853193 0.675242
0.887892 0.856947 0.683192
0.90602 0.85977 0.688594
0.922118 0.861097 0.688869
0.937118 0.859709 0.677714
0.943786 0.858457 0.670466
0.947372 0.861921 0.723857
0.95021 0.868971 0.756405
0.949462 0.869688 0.76762
0.948394 0.868086 0.773816
0.947982 0.867613 0.778958
0.949599 0.869551 0.788083
0.951247 0.873182 0.799741
0.723552 0.817868 0.652888
0.722942 0.817731 0.652873
0.722606 0.81767 0.652873
0.722118 0.817563 0.652873
0.721721 0.817472 0.652857
0.721431 0.817426 0.652873
0.721325 0.817395 0.652873
0.721492 0.817426 0.652857
0.722438 0.817624 0.652873
