site/assets/luts/freshluts--0001107-teal-and-orange.cube
# LUTr-Schema-Version: 2
# LUTr-ID: freshluts--0001107-teal-and-orange
# LUTr-Title: Teal and Orange
# LUTr-Collection: Fresh LUTs
# LUTr-Collection-ID: freshluts-community
# LUTr-Source: https://freshluts.com
# LUTr-Retrieved: 2026-07-27
# LUTr-Source-File: submissions-raw/freshluts/cubes/1107__TO_2.DJI_0007.cube
# LUTr-Source-Format: CUBE
# LUTr-Source-SHA256: 4abd5758be78f879efcfa3552e1e44877fa7ca7aa64af2389ab7b6daebdfc193
# LUTr-License: CC0-1.0
# LUTr-License-URL: https://freshluts.com/termsandconditions
# LUTr-License-Basis: site-terms
# LUTr-Transform-Class: creative-look
# LUTr-Tags: creative, freshluts, community, cube, orange, rec709, warm
# LUTr-Input-Color-Space: rec709
# LUTr-Input-Gamut: rec709
# LUTr-Input-Transfer: rec709
# LUTr-Output-Color-Space: srgb
# LUTr-Output-Gamut: rec709
# LUTr-Output-Transfer: srgb
# LUTr-Color-Space-Confidence: declared-by-source
# LUTr-Domain-Normalized: true
# LUTr-Shaper: none
# LUTr-Original-Grid: 17x17x17
# LUTr-Conversion-Grid: 17x17x17
# LUTr-Conversion-Interpolation: none
# LUTr-Conversion-Method: Metadata normalization; numeric LUT samples preserved
# LUTr-Conversion-Tool: LUTr scripts/convert-all-to-cube.mjs 2.0.0
# LUTr-Conversion-Date: 2026-07-28
# LUTr-Asset-URL: https://freshluts.com/luts/1107
# LUTr-Author: Neeraj Badyal
# LUTr-Author-URL: https://freshluts.com/users/117643
# LUTr-Attribution: Neeraj Badyal via Fresh LUTs
# LUTr-Source-Labels: gamma=Rec 709; color=Orange; key=Neutral; style=Teal - Orange
# LUTr-Note: Preserve this metadata and the upstream license notices when redistributing.
TITLE "Teal and Orange"
LUT_3D_SIZE 9
DOMAIN_MIN 0 0 0
DOMAIN_MAX 1 1 1
0 0 0
0 0 0
0.161868 0 0
0.381399 0 0
0.577951 0 0
0.776944 0 0
0.942748 0 0
1 0 0
1 0 0
0 0 0
0 0 0
0 0 0
0.384909 0 0
0.5841 0 0
0.784329 0 0
0.947906 0 0
1 0 0
1 0 0
0 0 0
0 0 0
0 0.00233463 0.000183108
0.329686 0.0811322 0.00361639
0.529809 0.0661631 0.00570687
0.740764 0.0551614 0.00520333
0.916426 0.0572976 0.00535592
1 0.0711528 0.00614939
1 0.088838 0.00709544
0 0.233158 0.0113069
0 0.236439 0.0113527
0 0.239582 0.0114137
0.253239 0.240345 0
0.477592 0.231769 0
0.670787 0.231586 0.0112764
0.852247 0.241291 0.0114443
0.995132 0.260349 0.0116884
1 0.279667 0.0119173
0 0.406973 0.0122835
0 0.421027 0.0122225
0 0.434226 0.0121614
0.190295 0.442435 0.0121157
0.452354 0.440101 0.0121309
0.65066 0.43827 0.0121462
0.815961 0.446601 0.0120851
0.953063 0.464591 0.0119783
0.987747 0.483574 0.0118105
0 0.609476 0.0101625
0 0.626322 0.00987259
0 0.639475 0.00962844
0.0929732 0.647593 0.00949111
0.424949 0.645853 0.00222782
0.660945 0.6439 0
0.826322 0.649012 0
0.947585 0.663462 0.00917067
0.988693 0.677119 0.00889601
0 0.80145 0.0059968
0 0.818097 0.00555428
0 0.831052 0.00518807
0.0744335 0.837598 0.00502022
0.406302 0.831052 0.00518807
0.660075 0.822919 0.00541695
0.831189 0.821561 0.00546273
0.953902 0.827726 0.00527962
0.996185 0.833036 0.00514229
0 0.977111 0.000762951
0 0.988983 0.000366217
0 0.995422 0.00015259
0.0895094 0.994553 0.000183108
0.406607 0.979828 0.000671397
0.664439 0.963378 0.00120546
0.839948 0.954101 0.00151064
0.961105 0.953109 0.00154116
0.999619 0.952743 0.00155642
0 1 0
0 1 0
0 1 0
0.113207 1 0
0.412955 1 0
0.662058 1 0
0.837293 1 0
0.958648 1 0
1 1 0
0.000137331 0 0.0498207
0.000564584 0 0.0483864
0.160998 0 0.0352789
0.385153 0 0.0212253
0.578561 0 0
0.778149 0 0
0.944915 0 0
1 0 0
1 0 0
0 0 0.0384833
0 0 0.0368963
0.157839 0 0.0342412
0.392584 0 0.0280156
0.587686 0 0.0077821
0.785412 0 0
0.948989 0 0
1 0 0
1 0 0
0 0 0
0 0 0
0 0.0106203 0.00122072
0.265782 0.0145876 0.00166323
0.532647 0.0664683 0.00730907
0.743999 0.0565957 0.00531014
0.919493 0.060029 0.00555428
1 0.0749371 0.0209354
1 0.0931258 0.0442054
0 0.233753 0.0131533
0 0.192935 0.0105592
0 0.204669 0.0108034
0.165713 0.215732 0.0106661
0.474037 0.237613 0.020676
0.677043 0.236194 0.0225376
0.858778 0.245991 0.0366979
0.995682 0.264744 0.0599527
1 0.283558 0.0822766
0 0.411246 0.012253
0 0.426398 0.0122072
0 0.440101 0.0121309
0.192462 0.448356 0.0188602
0.457465 0.445426 0.0183261
0.656291 0.442969 0.0190433
0.820981 0.451286 0.0317235
0.957198 0.469047 0.0543984
0.984283 0.487526 0.0764935
0 0.615 0.010071
0 0.631724 0.00976577
0 0.645121 0.00953689
0.0922103 0.653407 0.0175784
0.42884 0.651072 0.0100404
0.664347 0.648447 0
0.829526 0.653025 0.0129854
0.950866 0.666545 0.0416419
0.987015 0.679103 0.0574655
0 0.808103 0.00563058
0 0.823316 0.0261997
0 0.835767 0.0385901
0.0541238 0.841886 0.0440375
0.401221 0.834562 0.035935
0.661265 0.825406 0.026276
0.832776 0.823072 0.0252079
0.955428 0.828199 0.0314794
0.997971 0.832547 0.0357061
0 0.980484 0.0676432
0 0.991562 0.0773632
0 0.997101 0.0814832
0.0440681 0.995636 0.0785382
0.388022 0.98027 0.0619211
0.659892 0.963073 0.0438239
0.838575 0.953017 0.0336614
0.959869 0.951537 0.0332799
0.999557 0.95079 0.033875
0 0.999207 0.107683
0 0.999207 0.109087
0 0.999222 0.105119
0.0554055 0.999268 0.0950942
0.388617 0.99939 0.0716259
0.654704 0.999542 0.0476844
0.834333 0.999649 0.0329747
0.960403 1 0.016022
1 1 0.00758373
0.0000610361 0 0.193942
0.000244144 0 0.199512
0.127016 0 0.187411
0.381689 0 0.16846
0.613504 0 0.147494
0.814862 0 0.131304
0.980392 0 0.129381
1 0 0.13135
1 0 0.131136
0 0 0.185595
0 0 0.188998
0.129549 0 0.188251
0.391348 0 0.17615
0.623087 0 0.155245
0.823453 0 0.137331
0.98526 0 0.131945
1 0 0.137713
1 0 0.147631
0 0.0928359 0.187259
0 0.092958 0.187259
0.0164492 0.089128 0.182681
0.320623 0.0797131 0.171954
0.566033 0.0661326 0.156603
0.776547 0.0575723 0.146975
0.953185 0.0623331 0.152209
1 0.0784009 0.17023
1 0.0973983 0.191226
0 0.233295 0.16289
0 0.195438 0.0860456
0 0.210285 0.0948196
0.131853 0.226856 0.0881819
0.56286 0.200519 0.00854505
0.698894 0.238254 0.169116
0.868406 0.250217 0.185595
0.998108 0.268879 0.206348
1 0.287816 0.226841
0 0.414801 0.134035
0 0.430884 0.148745
0 0.436408 0.0874342
0.0305028 0.465415 0.113176
0.427985 0.472251 0.120211
0.661555 0.446983 0.168215
0.81677 0.45539 0.179858
0.953292 0.473091 0.200259
0.973007 0.491539 0.220569
0 0.619684 0.132677
0 0.636103 0.147646
0 0.649836 0.159472
0.00630198 0.658549 0.166796
0.416052 0.654994 0.163821
0.664317 0.651301 0.162493
0.825238 0.656199 0.170275
0.947692 0.668956 0.185702
0.979294 0.680613 0.199573
0 0.812879 0.155825
0 0.82771 0.174228
0 0.840024 0.184482
0 0.845685 0.188602
0.355062 0.837568 0.179751
0.65658 0.827848 0.162966
0.845426 0.825238 0.130236
0.966079 0.827924 0.150622
0.993545 0.831403 0.179416
0 0.983688 0.210361
0 0.994064 0.218769
0 0.998871 0.221607
0 0.996658 0.217929
0.328725 0.980484 0.200961
0.642985 0.962356 0.182788
0.83537 0.951492 0.172549
0.958236 0.949401 0.17174
0.999329 0.948287 0.17203
0 0.99884 0.245548
0 0.99884 0.246052
0 0.99884 0.241581
0 0.998856 0.231373
0.326101 0.998901 0.208347
0.633219 0.998962 0.185214
0.828382 0.998993 0.171115
0.954299 0.998993 0.168078
1 0.998993 0.167697
0 0 0.372549
0 0 0.371572
0.0785534 0 0.36669
0.33959 0 0.353109
0.617975 0 0.33228
0.85214 0 0.317281
0.999954 0 0.312474
1 0 0.31371
1 0 0.315801
0 0 0.368399
0 0 0.37615
0.0914321 0 0.397513
0.364111 0 0.373144
0.628183 0 0.340002
0.858473 0 0.320974
0.999969 0 0.314946
1 0 0.320485
1 0 0.330327
0 0.0880751 0.370642
0 0.0878309 0.372976
0 0.0847181 0.373983
0.249027 0.0763561 0.363531
0.560143 0.0635691 0.344091
0.808881 0.0563058 0.332998
0.986267 0.0623789 0.337667
1 0.079469 0.354879
1 0.0991226 0.374899
0 0.230228 0.347845
0 0.237125 0.355062
0 0.244404 0.362539
0.101122 0.24683 0.365148
0.485496 0.241138 0.359304
0.69543 0.241016 0.359182
0.873854 0.251575 0.370092
0.999985 0.270039 0.388876
1 0.289128 0.408316
0 0.415534 0.321508
0 0.43238 0.336706
0 0.4439 0.323583
0 0.473884 0.347341
0.377951 0.482307 0.33756
0.772335 0.464317 0.253819
0.828519 0.452949 0.351247
0.934264 0.474372 0.381125
0.948547 0.4925 0.400137
0 0.621149 0.318486
0 0.637751 0.332448
0 0.651881 0.343252
0 0.698024 0.360189
0.283513 0.704189 0.364843
0.658091 0.705898 0.369696
0.823255 0.65655 0.347692
0.935271 0.66836 0.36228
0.963516 0.679194 0.375158
0 0.813046 0.342458
0 0.829206 0.355627
0 0.841306 0.364248
0 0.846723 0.366278
0.249454 0.837842 0.355016
0.644099 0.826246 0.343206
0.831998 0.821561 0.340261
0.948913 0.824765 0.345815
0.988281 0.827482 0.350774
0 0.989181 0.378119
0 0.996719 0.388586
0 0.997391 0.396139
0 0.994797 0.390875
0.200168 0.977966 0.372259
0.605127 0.959045 0.35259
0.827283 0.947463 0.3411
0.966003 0.946014 0.307652
1 0.944457 0.284489
0 0.999298 0.417746
0 0.998764 0.417853
0 0.998764 0.412146
0 0.998749 0.400946
0.194293 0.998749 0.377188
0.584482 0.998749 0.353353
0.814908 0.998764 0.338659
0.948699 0.998764 0.335348
1 0.998764 0.335592
0 0 0.5552
0 0 0.554604
0.0470893 0 0.551125
0.306371 0 0.53959
0.603967 0 0.520363
0.865629 0 0.506767
1 0 0.500374
1 0 0.500969
1 0 0.503029
0 0 0.553155
0 0 0.557244
0.0562753 0 0.559991
0.316228 0 0.54992
0.613504 0 0.528893
0.870527 0 0.510506
1 0 0.504707
1 0 0.510613
1 0 0.520729
0 0.0830854 0.557931
0 0.0828107 0.562753
0 0.0809339 0.561212
0.198291 0.0727245 0.562982
0.548486 0.0562142 0.549172
0.825254 0.0539559 0.528527
0.998383 0.0623484 0.531884
1 0.0801709 0.548455
1 0.100206 0.567758
0 0.226902 0.538445
0 0.234684 0.548074
0 0.242649 0.559823
0.000656138 0.246876 0.571893
0.370428 0.240269 0.56733
0.660945 0.241367 0.55816
0.870726 0.252064 0.565972
1 0.270436 0.58262
1 0.289799 0.60087
0 0.415824 0.516457
0 0.432837 0.533364
0 0.447654 0.547936
0 0.456855 0.557015
0.288426 0.451331 0.55201
0.648081 0.44741 0.548547
0.783993 0.456611 0.557504
0.901686 0.474388 0.574868
0.911452 0.49218 0.59234
0 0.621561 0.512963
0 0.638315 0.527947
0 0.652598 0.539956
0 0.702007 0.580941
0.0302892 0.7084 0.582483
0.630137 0.710384 0.568933
0.941512 0.699947 0.477882
0.985672 0.656077 0.513878
0.953033 0.674983 0.559808
0 0.813626 0.535744
0 0.829557 0.54902
0 0.841047 0.55758
0 0.846113 0.559243
0.00706493 0.886702 0.607752
0.568765 0.877302 0.598581
0.832151 0.873335 0.597986
0.942245 0.820157 0.532433
0.981964 0.822141 0.536828
0 0.982467 0.577935
0 0.991135 0.584222
0 0.994476 0.584955
0 0.991379 0.579187
0.0109865 0.974029 0.559625
0.526802 0.954589 0.538659
0.81503 0.942077 0.526192
0.947875 0.938979 0.524376
0.997635 0.937133 0.524804
0 1 0.601587
0 1 0.597742
0 1 0.588098
0 1 0.584283
0.00830091 0.998901 0.56228
0.488792 0.998871 0.538033
0.79234 0.99884 0.522652
0.941054 0.99884 0.519051
1 1 0.456413
0 0 0.720012
0 0 0.719661
0.0253758 0 0.71693
0.280324 0 0.707195
0.58529 0 0.690333
0.862058 0 0.677256
1 0 0.670604
1 0 0.671427
1 0 0.674846
0 0 0.720012
0 0 0.725704
0.0319371 0 0.72665
0.289509 0 0.717647
0.592813 0 0.698665
0.866499 0 0.681895
1 0 0.677501
1 0 0.684504
1 0 0.695689
0 0.0797742 0.724758
0 0.0800183 0.727031
0 0.0789502 0.728038
0.172396 0.0739147 0.72433
0.51075 0.0625315 0.71223
0.815427 0.0564279 0.703899
0.998459 0.0640726 0.709453
1 0.0823987 0.726329
1 0.102586 0.745403
0 0.225376 0.711284
0 0.234257 0.722164
0 0.243305 0.735882
0 0.248783 0.744305
0.283772 0.243702 0.750622
0.648554 0.233768 0.762402
0.902419 0.242252 0.760784
1 0.269474 0.764111
1 0.291752 0.779156
0 0.417441 0.694362
0 0.43473 0.712108
0 0.449195 0.72781
0 0.457313 0.73843
0.0783093 0.452781 0.738811
0.504341 0.448829 0.736202
0.712764 0.457588 0.740948
0.852979 0.475441 0.755611
0.857588 0.492912 0.770947
0 0.623072 0.691341
0 0.639963 0.707424
0 0.654017 0.720928
0 0.663264 0.729641
0 0.659815 0.726635
0.54992 0.652659 0.720607
0.810849 0.653895 0.72224
0.892378 0.664378 0.732479
0.913268 0.673869 0.741527
0 0.81529 0.713863
0 0.830625 0.727443
0 0.841382 0.736522
0 0.845701 0.73901
0 0.886946 0.78265
0.382696 0.877043 0.771023
0.82002 0.874372 0.747311
1 0.862577 0.657191
1 0.796429 0.606332
0 0.992584 0.746822
0 0.989624 0.759548
0 0.992111 0.760418
0 0.988388 0.754971
0 0.97052 0.735897
0.321462 0.999329 0.78027
0.766918 0.996963 0.772183
0.951644 0.997711 0.774289
0.99649 0.931609 0.697658
0 0.999329 0.777188
0 0.999329 0.776013
0 0.999313 0.770214
0 0.999283 0.759472
0 0.999222 0.736126
0.309499 0.999176 0.71194
0.750957 0.999146 0.695811
0.933181 0.99913 0.691524
1 0.99913 0.691295
0 0 0.844099
0 0 0.843976
0.0144808 0 0.841733
0.264683 0 0.833249
0.574517 0 0.819226
0.856046 0 0.805188
1 0 0.79881
1 0 0.800351
1 0 0.803891
0 0 0.84622
0 0 0.852216
0.0182803 0 0.851987
0.273167 0 0.843503
0.578546 0 0.82594
0.860655 0 0.810971
1 0 0.808362
1 0 0.816983
1 0 0.829602
0 0.0797436 0.851545
0 0.0804608 0.853834
0 0.080354 0.85536
0.155993 0.0767529 0.852918
0.493553 0.0666819 0.843076
0.805539 0.0614176 0.837491
0.997223 0.0695659 0.84477
1 0.088014 0.862699
1 0.108232 0.882048
0 0.227649 0.842481
0 0.237629 0.854063
0 0.247852 0.866346
0 0.254444 0.875242
0.261784 0.251774 0.874861
0.599374 0.250553 0.874739
0.84741 0.259449 0.882719
0.997162 0.277363 0.898924
0.996597 0.297002 0.916579
0 0.422538 0.830137
0 0.439963 0.848203
0 0.4542 0.863661
0 0.461814 0.873487
0.00178531 0.458259 0.873274
0.377325 0.454719 0.880385
0.644923 0.458259 0.895323
0.813657 0.478187 0.897719
0.804089 0.496712 0.909041
0 0.627955 0.828244
0 0.644739 0.844785
0 0.658671 0.858763
0 0.667185 0.868132
0 0.662882 0.866453
0.354192 0.655985 0.864225
0.70399 0.656107 0.865873
0.829007 0.665721 0.872282
0.851774 0.674357 0.879042
0 0.819837 0.85098
0 0.834562 0.864591
0 0.844465 0.873854
0 0.847684 0.876936
0 0.836667 0.866896
0.257038 0.823301 0.854658
0.783108 0.814389 0.846769
0.941634 0.814023 0.846906
0.971206 0.815259 0.848173
0 0.995651 0.88603
0 0.990875 0.894606
0 0.992493 0.895598
0 0.9879 0.8907
0 0.969406 0.872877
0.143465 0.99968 0.901244
0.670298 0.998047 0.89189
0.946136 0.999283 0.89044
1 0.999664 0.895247
0 0.99971 0.910277
0 0.99971 0.909224
0 0.999695 0.903944
0 0.999664 0.89395
0 0.999588 0.871748
0.101839 0.999527 0.848814
0.68896 0.99968 0.897826
0.95227 0.99968 0.89807
1 0.99968 0.900175
0 0 0.940902
0 0 0.940902
0.00746166 0 0.939147
0.256641 0 0.931746
0.56817 0 0.918853
0.851774 0 0.904051
1 0 0.897719
1 0 0.899825
1 0 0.904051
0 0 0.945113
0 0 0.950378
0.0102235 0 0.949447
0.264271 0 0.94136
0.570443 0 0.92459
0.857572 0 0.910979
1 0 0.909697
1 0 0.919661
1 0 0.933516
0 0.0819562 0.949859
0 0.0833906 0.952514
0 0.0842451 0.954787
0.14432 0.0819715 0.953613
0.480812 0.0732128 0.945403
0.796155 0.0690166 0.941436
0.996292 0.0775311 0.949981
1 0.0962539 0.968353
1 0.116381 0.985275
0 0.232685 0.944457
0 0.243763 0.956954
0 0.2551 0.969848
0 0.262547 0.97908
0.248493 0.260365 0.978927
0.584192 0.259266 0.979278
0.836347 0.267552 0.985382
0.996414 0.285359 0.995575
0.988006 0.304738 1
0 0.430182 0.935485
0 0.447623 0.953445
0 0.461616 0.96846
0 0.469245 0.977768
0 0.466178 0.977432
0.305974 0.463859 0.977569
0.582803 0.470985 0.984085
0.778637 0.487098 0.993118
0.765621 0.502937 1
0 0.635279 0.933715
0 0.652186 0.950408
0 0.665888 0.964416
0 0.673793 0.97351
0 0.668986 0.971145
0.209552 0.662089 0.967773
0.581064 0.662089 0.97023
0.748196 0.669993 0.977569
0.774044 0.677516 0.981994
0 0.826688 0.956039
0 0.840681 0.96936
0 0.849729 0.977691
0 0.851835 0.979919
0 0.839704 0.970794
0.114519 0.825101 0.959121
0.657374 0.81619 0.953979
0.892607 0.815213 0.953887
0.935912 0.815824 0.952239
0 0.98822 0.991226
0 0.994293 0.99675
0 0.995041 0.997436
0 0.989456 0.99237
0 0.970352 0.975113
0.0145266 0.949874 0.95671
0.59498 0.936492 0.94461
0.936248 0.931533 0.940307
1 0.928298 0.937591
0 1 1
0 1 1
0 1 1
0 0.999985 0.994858
0 0.999908 0.973571
0 0.999832 0.951797
0.571374 1 0.998474
0.915282 1 0.998474
1 1 0.998245
0 0 1
0 0 1
0.00277714 0 1
0.253117 0 1
0.562966 0 1
0.847227 0 0.998367
1 0 0.992172
1 0 0.994736
1 0 0.999771
0 0 1
0 0 1
0.00810254 0 1
0.260395 0 1
0.565591 0 1
0.85536 0 1
1 0 1
1 0 1
1 0 1
0 0.0846571 1
0 0.0866865 1
0 0.088716 1
0.137942 0.0876478 1
0.473091 0.0801099 1
0.789593 0.076997 1
0.997925 0.0859693 1
1 0.104677 1
1 0.124483 1
0 0.238254 1
0 0.250507 1
0 0.262654 1
0 0.27068 1
0.244388 0.268849 1
0.578698 0.267765 1
0.833295 0.275654 1
0.992767 0.293538 1
0.981064 0.312642 1
0 0.43827 1
0 0.455528 1
0 0.469001 1
0 0.476844 1
0 0.474266 1
0.291615 0.47219 1
0.573861 0.479042 1
0.773938 0.494362 1
0.759594 0.509316 1
0 0.64303 1
0 0.65977 1
0 0.673182 1
0 0.680674 1
0 0.675273 1
0.162631 0.668132 1
0.536797 0.667643 1
0.723018 0.674647 1
0.752895 0.681056 1
0 0.833646 1
0 0.84686 1
0 0.855009 1
0 0.856001 1
0 0.84303 1
0.0551766 0.827604 1
0.581613 0.818601 1
0.841138 0.817609 1
0.896513 0.817243 1
0 0.992447 1
0 0.997528 1
0 0.997406 1
0 0.990967 1
0 0.97116 1
0.00552377 0.950271 1
0.527245 0.936553 1
0.896757 0.931853 1
0.996139 0.928634 1
0 1 1
0 1 1
0 1 1
0 1 1
0 1 1
0 1 1
0.452705 1 1
0.847639 1 1
1 1 1
