site/assets/luts/freshluts--0000106-bozen.cube
# LUTr-Schema-Version: 2
# LUTr-ID: freshluts--0000106-bozen
# LUTr-Title: Bozen
# LUTr-Collection: Fresh LUTs
# LUTr-Collection-ID: freshluts-community
# LUTr-Source: https://freshluts.com
# LUTr-Retrieved: 2026-07-27
# LUTr-Source-File: submissions-raw/freshluts/cubes/106__bozen.cube
# LUTr-Source-Format: CUBE
# LUTr-Source-SHA256: 4dc21f540cf0467194d91f7c4cbb03f8cfa88c130983cc79c1c50a2dfc7ec688
# LUTr-License: CC0-1.0
# LUTr-License-URL: https://freshluts.com/termsandconditions
# LUTr-License-Basis: site-terms
# LUTr-Transform-Class: creative-look
# LUTr-Tags: creative, freshluts, community, cube, high-contrast, blue, rec709
# LUTr-Input-Color-Space: rec709
# LUTr-Input-Gamut: rec709
# LUTr-Input-Transfer: rec709
# LUTr-Output-Color-Space: srgb
# LUTr-Output-Gamut: rec709
# LUTr-Output-Transfer: srgb
# LUTr-Color-Space-Confidence: inferred-from-source-label
# LUTr-Domain-Normalized: true
# LUTr-Shaper: none
# LUTr-Original-Grid: 32x32x32
# LUTr-Conversion-Grid: 32x32x32
# LUTr-Conversion-Interpolation: none
# LUTr-Conversion-Method: Metadata normalization; numeric LUT samples preserved
# LUTr-Conversion-Tool: LUTr scripts/convert-all-to-cube.mjs 2.0.0
# LUTr-Conversion-Date: 2026-07-28
# LUTr-Asset-URL: https://freshluts.com/luts/106
# LUTr-Author: Mattias Horvath
# LUTr-Author-URL: https://freshluts.com/users/84
# LUTr-Attribution: Mattias Horvath via Fresh LUTs
# LUTr-Source-Labels: gamma=Rec 709; color=Blue; key=Neutral; style=High contrast
# LUTr-Note: Preserve this metadata and the upstream license notices when redistributing.
# LUTr-Upstream-Comment: Created by: Adobe Photoshop Export Color Lookup Plugin
# LUTr-Upstream-Comment: LUT size
# LUTr-Upstream-Comment: data domain
# LUTr-Upstream-Comment: LUT data points
TITLE "Bozen"
LUT_3D_SIZE 5
DOMAIN_MIN 0.000000 0.000000 0.000000
DOMAIN_MAX 0.903226 0.903226 0.903226
0.090057 0.102478 0.124329
0.158295 0.14798 0.165558
0.445953 0.220428 0.23938
0.724731 0.393707 0.390808
0.866302 0.625397 0.620941
0.105103 0.125977 0.140137
0.174835 0.180023 0.173096
0.487885 0.283447 0.257477
0.742554 0.455444 0.419586
0.869415 0.658264 0.634979
0.119293 0.168396 0.155487
0.192688 0.250153 0.20166
0.437958 0.426971 0.31955
0.7435 0.631409 0.523438
0.871765 0.759521 0.695953
0.210571 0.329834 0.238312
0.28418 0.419403 0.293945
0.527802 0.610779 0.450531
0.751129 0.747101 0.634796
0.88678 0.861542 0.822998
0.486359 0.668762 0.511322
0.558563 0.712158 0.562592
0.730072 0.802429 0.694153
0.868286 0.881989 0.838989
0.922943 0.920868 0.900085
0.100281 0.112671 0.139404
0.166199 0.152649 0.199677
0.452271 0.218292 0.286652
0.738861 0.376129 0.422394
0.870239 0.612183 0.637299
0.118958 0.151031 0.175568
0.180389 0.191711 0.225067
0.467529 0.285522 0.288513
0.733887 0.459717 0.441071
0.874817 0.648712 0.645691
0.131927 0.200287 0.185211
0.200409 0.277802 0.233276
0.45285 0.443634 0.370697
0.750458 0.633759 0.544434
0.880219 0.756653 0.704193
0.224426 0.362152 0.26828
0.300873 0.452454 0.329132
0.545441 0.631226 0.49472
0.759247 0.755554 0.661957
0.888184 0.861725 0.826904
0.498291 0.67804 0.539398
0.573608 0.72995 0.594055
0.742096 0.814087 0.716705
0.86969 0.883301 0.845856
0.922516 0.92041 0.902344
0.124573 0.136841 0.179413
0.176025 0.17337 0.258179
0.381378 0.262238 0.39621
0.665802 0.418793 0.555878
0.836639 0.614838 0.711456
0.160858 0.190063 0.273285
0.213898 0.224274 0.338837
0.418549 0.317017 0.436951
0.70166 0.464508 0.576416
0.856201 0.642609 0.722717
0.171478 0.280487 0.31192
0.225311 0.330414 0.366669
0.47403 0.491699 0.5513
0.764618 0.627411 0.621582
0.89325 0.753021 0.752411
0.256042 0.456848 0.378174
0.321442 0.51825 0.432648
0.574432 0.667603 0.607788
0.780212 0.778564 0.736145
0.892151 0.860016 0.832489
0.522552 0.715637 0.611511
0.593414 0.755524 0.658813
0.758545 0.830109 0.769257
0.871979 0.885864 0.858704
0.920776 0.91864 0.903442
0.16272 0.175171 0.271881
0.206604 0.206421 0.351013
0.375 0.287506 0.510925
0.609863 0.4263 0.616486
0.796722 0.661957 0.761139
0.207306 0.233521 0.392273
0.245392 0.256287 0.439819
0.416412 0.337616 0.559387
0.634338 0.474335 0.641632
0.81134 0.686005 0.774811
0.251892 0.351624 0.493011
0.295837 0.381012 0.531525
0.497955 0.499969 0.654175
0.70816 0.628754 0.720306
0.860931 0.760986 0.81604
0.292786 0.52536 0.547485
0.329956 0.561035 0.58194
0.559601 0.675659 0.697784
0.779388 0.791412 0.813538
0.898926 0.85199 0.845154
0.533905 0.748749 0.696991
0.593506 0.779602 0.729919
0.736298 0.834381 0.798767
0.869171 0.886383 0.869843
0.91803 0.916138 0.904694
0.203308 0.215851 0.382141
0.237427 0.239258 0.436584
0.351654 0.297424 0.557129
0.560242 0.40921 0.644928
0.756348 0.611725 0.758453
0.238983 0.262512 0.468353
0.222626 0.234589 0.421265
0.345154 0.302826 0.560638
0.569733 0.426575 0.656281
0.769836 0.642212 0.771851
0.297363 0.374268 0.577179
0.303101 0.361481 0.582916
0.444794 0.447418 0.673889
0.660004 0.571289 0.739349
0.815948 0.732513 0.8172
0.377197 0.555511 0.658875
0.405151 0.573334 0.681671
0.536743 0.645538 0.74353
0.760742 0.760681 0.836609
0.869995 0.840393 0.869476
0.530945 0.744598 0.749084
0.567352 0.763977 0.767487
0.664093 0.813507 0.814423
0.844421 0.874725 0.875153
0.914368 0.912964 0.910828
