site/assets/luts/freshluts--0001166-teal-and-orange.cube
# LUTr-Schema-Version: 2
# LUTr-ID: freshluts--0001166-teal-and-orange
# LUTr-Title: teal and orange
# LUTr-Collection: Fresh LUTs
# LUTr-Collection-ID: freshluts-community
# LUTr-Source: https://freshluts.com
# LUTr-Retrieved: 2026-07-27
# LUTr-Source-File: submissions-raw/freshluts/cubes/1166__teal___orange_2.Sony_F3_-_Short_film_Insect_selects.cube
# LUTr-Source-Format: CUBE
# LUTr-Source-SHA256: 0274e91d42841f5d36cffa60d9d849b75f0bbf4eff9d4607ae2188bf6ad8a7a8
# LUTr-License: CC0-1.0
# LUTr-License-URL: https://freshluts.com/termsandconditions
# LUTr-License-Basis: site-terms
# LUTr-Transform-Class: creative-look
# LUTr-Tags: creative, freshluts, community, cube, green, high-key, sony-s-log1, warm
# LUTr-Input-Color-Space: sony-slog1-sgamut
# LUTr-Input-Gamut: sony-s-gamut
# LUTr-Input-Transfer: sony-s-log1
# LUTr-Output-Color-Space: srgb
# LUTr-Output-Gamut: rec709
# LUTr-Output-Transfer: srgb
# LUTr-Color-Space-Confidence: inferred-from-source-label
# LUTr-Domain-Normalized: true
# LUTr-Shaper: none
# LUTr-Original-Grid: 33x33x33
# LUTr-Conversion-Grid: 33x33x33
# LUTr-Conversion-Interpolation: none
# LUTr-Conversion-Method: Metadata normalization; numeric LUT samples preserved
# LUTr-Conversion-Tool: LUTr scripts/convert-all-to-cube.mjs 2.0.0
# LUTr-Conversion-Date: 2026-07-28
# LUTr-Asset-URL: https://freshluts.com/luts/1166
# LUTr-Author: henryimmanuel
# LUTr-Author-URL: https://freshluts.com/users/120774
# LUTr-Attribution: henryimmanuel via Fresh LUTs
# LUTr-Source-Labels: gamma=Sony S-Log; color=Green; key=High Key; style=Teal - Orange
# LUTr-Note: Preserve this metadata and the upstream license notices when redistributing.
TITLE "teal and orange"
LUT_3D_SIZE 33
DOMAIN_MIN 0 0 0
DOMAIN_MAX 1 1 1
0 0.00866712 0.00517281
0 0.00753796 0.00418097
0 0.00595102 0.00280766
0.0241093 0.00433356 0.0010071
0.0557259 0.00140383 0
0.0900587 0 0
0.126818 0 0
0.166232 0 0
0.208164 0 0
0.252033 0 0
0.297932 0 0
0.345235 0 0
0.393713 0 0
0.44271 0 0
0.492576 0 0
0.543053 0 0
0.593454 0 0
0.643397 0 0
0.692531 0 0
0.740642 0 0
0.787381 0 0
0.831632 0 0
0.873838 0 0
0.913481 0 0
0.9505 0 0
0.985275 0 0
1 0 0
1 0 0
1 0 0
1 0 0
1 0 0
1 0 0
1 0 0
0 0.0289464 0.00189212
0 0.0282292 0.00131228
0 0.0271153 0.000488289
0.0196384 0.026215 0
0.0534676 0.0231479 0
0.0882429 0.0199893 0
0.125673 0.0163119 0
0.165438 0.0125429 0
0.207614 0.00810254 0
0.25211 0.00358587 0
0.297902 0 0
0.345159 0 0
0.393805 0 0
0.443351 0 0
0.493538 0 0
0.544137 0 0
0.594858 0 0
0.645243 0 0
0.694881 0 0
0.743297 0 0
0.790036 0 0
0.834516 0 0
0.877058 0 0
0.917128 0 0
0.954681 0 0
0.990173 0 0
1 0 0
1 0 0
1 0 0
1 0 0
1 0 0
1 0 0
1 0 0
0 0.0516976 0
0 0.0514839 0
0 0.0505074 0
0.0101778 0.0514839 0
0.0412146 0.0505226 0
0.0809491 0.0464942 0
0.120851 0.042771 0
0.161852 0.0386816 0
0.205066 0.0342718 0
0.250263 0.0295415 0
0.296742 0.0246128 0
0.344945 0.0191806 0
0.394247 0.0136416 0
0.444099 0.00776684 0
0.494896 0.00234989 0
0.545739 0 0
0.59704 0 0
0.64773 0 0
0.697978 0 0
0.746288 0 0
0.793591 0 0
0.838544 0 0
0.881346 0 0
0.922072 0 0
0.959945 0 0
0.995743 0 0
1 0 0
1 0 0
1 0 0
1 0 0
1 0 0
1 0 0
1 0 0
0 0.0764782 0
0 0.0766766 0
0 0.0762036 0
0.0087129 0.0764782 0
0.0306859 0.0783703 0
0.0645609 0.0776684 0
0.107774 0.0736095 0
0.153216 0.0687114 0
0.198703 0.0639963 0
0.245182 0.0591592 0
0.293462 0.0543526 0
0.342351 0.0493019 0
0.392309 0.0438544 0
0.442527 0.0383154 0
0.493721 0.0326543 0
0.545541 0.027039 0
0.597223 0.0220645 0
0.648661 0.0168612 0
0.699138 0.0119783 0
0.748302 0.00761425 0
0.79585 0.00445563 0
0.841627 0.00149538 0
0.884978 0 0
0.925765 0 0
0.964065 0 0
1 0 0
1 0 0
1 0.000732433 0
1 0.00361639 0
1 0.00668345 0
1 0.0112917 0
1 0.016434 0
1 0.0223697 0
0 0.103655 0
0 0.104158 0
0 0.104051 0
0.00588998 0.104219 0
0.0265049 0.106661 0
0.0531167 0.108232 0
0.0893568 0.107347 0
0.134752 0.103609 0
0.184848 0.0982071 0
0.235218 0.0929732 0
0.285191 0.0877089 0
0.335973 0.0823529 0
0.387366 0.076936 0
0.438682 0.0716564 0
0.490822 0.0661936 0
0.543252 0.0611124 0
0.595514 0.0559701 0
0.647578 0.0511025 0
0.698497 0.0466773 0
0.748119 0.042649 0
0.796414 0.0391699 0
0.842496 0.0367437 0
0.886229 0.0348516 0
0.927581 0.0336919 0
0.96611 0.0333715 0
1 0.0338445 0
1 0.0356298 0
1 0.0378729 0
1 0.0410773 0
1 0.0449683 0
1 0.0496834 0
1 0.0552224 0
1 0.061799 0
0 0.133089 0
0 0.134005 0
0 0.134279 0
0.000442512 0.134432 0
0.0248875 0.136034 0
0.0465553 0.139193 0
0.0771954 0.140536 0
0.116075 0.139681 0
0.163668 0.136492 0
0.216327 0.131212 0
0.270619 0.125231 0
0.32459 0.11931 0
0.37818 0.113512 0
0.431449 0.108278 0
0.484779 0.103014 0
0.538399 0.0977646 0
0.591379 0.0928054 0
0.643946 0.0880903 0
0.695689 0.0838178 0
0.746395 0.0803998 0
0.795193 0.0772259 0
0.84152 0.0747845 0
0.885725 0.0730449 0
0.927291 0.0722362 0
0.966369 0.0723125 0
1 0.0733959 0
1 0.0750896 0
1 0.0776379 0
1 0.0810101 0
1 0.0852827 0
1 0.0903334 0
1 0.0963302 0
1 0.102815 0
0 0.164569 0
0 0.16614 0
0 0.166812 0
0 0.167071 0
0.0214542 0.168017 0
0.0434424 0.171145 0
0.0690318 0.174411 0
0.103258 0.175753 0
0.144656 0.174975 0
0.193301 0.171969 0
0.248142 0.166781 0
0.305531 0.160601 0
0.363134 0.154421 0
0.418677 0.148577 0
0.474235 0.142885 0
0.529335 0.13756 0
0.5841 0.132555 0
0.637873 0.127916 0
0.690349 0.124147 0
0.741466 0.120531 0
0.790982 0.117556 0
0.83827 0.115343 0
0.882795 0.113924 0
0.92517 0.113146 0
0.964935 0.11371 0
1 0.114885 0
1 0.116808 0
1 0.119631 0
1 0.123186 0
1 0.127962 0
1 0.133196 0
1 0.139239 0
1 0.145937 0
0 0.198459 0
0 0.200198 0
0 0.201297 0
0 0.201907 0
0.015671 0.202808 0
0.0413367 0.205264 0
0.0641489 0.209247 0
0.0934462 0.212177 0
0.130632 0.213336 0
0.174182 0.212711 0
0.224384 0.209918 0
0.280507 0.205493 0
0.339849 0.199359 0
0.399069 0.192966 0
0.457862 0.186664 0
0.515267 0.180926 0
0.572137 0.175875 0
0.627558 0.171283 0
0.68159 0.167071 0
0.733791 0.163455 0
0.784146 0.160479 0
0.831922 0.158419 0
0.877607 0.157504 0
0.920485 0.157031 0
0.960494 0.157366 0
0.998016 0.158648 0
1 0.160708 0
1 0.16376 0
1 0.16791 0
1 0.172412 0
1 0.177905 0
1 0.184115 0
1 0.191043 0
0 0.234409 0
0 0.236561 0
0 0.237842 0
0 0.238895 0
0.00834669 0.240162 0
0.0375219 0.241993 0
0.0616159 0.245563 0
0.0867628 0.249592 0
0.119539 0.252293 0
0.15938 0.253605 0
0.204959 0.2533 0
0.256397 0.250797 0
0.313115 0.246418 0
0.3729 0.240665 0
0.433814 0.234485 0
0.494545 0.22855 0
0.554162 0.222797 0
0.611841 0.217655 0
0.667826 0.213184 0
0.721675 0.209476 0
0.77322 0.20647 0
0.822477 0.204578 0
0.86862 0.203387 0
0.912474 0.202899 0
0.953109 0.203433 0
0.991211 0.204837 0
1 0.207019 0
1 0.210513 0
1 0.21445 0
1 0.219089 0
1 0.224628 0
1 0.230945 0
1 0.238407 0
0 0.272282 0
0 0.274784 0
0 0.276616 0
0 0.278187 0
0 0.27921 0
0.031281 0.280873 0
0.0588693 0.283879 0
0.0832227 0.288228 0
0.111818 0.292287 0
0.147753 0.295064 0
0.189593 0.296193 0
0.236637 0.295842 0
0.289021 0.29369 0
0.345434 0.289799 0
0.405432 0.2851 0
0.467384 0.279271 0
0.529091 0.273365 0
0.589624 0.267735 0
0.64802 0.26276 0
0.70396 0.258915 0
0.757504 0.255848 0
0.807843 0.253574 0
0.855726 0.252003 0
0.899962 0.251575 0
0.941421 0.252049 0
0.980865 0.253666 0
1 0.256031 0
1 0.259144 0
1 0.263188 0
1 0.267826 0
1 0.273457 0
1 0.280201 0
1 0.287251 0
0 0.312032 0
0 0.315129 0
0 0.317388 0
0 0.319081 0
0 0.320439 0
0.0233158 0.321965 0
0.0542916 0.324361 0
0.0811475 0.328664 0
0.10724 0.33341 0
0.138842 0.33727 0
0.177096 0.339666 0
0.220752 0.340764 0
0.269215 0.340642 0
0.321675 0.339086 0
0.377905 0.335866 0
0.437598 0.331456 0
0.49929 0.326253 0
0.561257 0.320821 0
0.621653 0.315969 0
0.679973 0.311635 0
0.735576 0.307942 0
0.788113 0.305196 0
0.83714 0.303578 0
0.88278 0.302968 0
0.925902 0.303395 0
0.965743 0.304768 0
1 0.30692 0
1 0.310079 0
1 0.313985 0
1 0.318593 0
1 0.324605 0
1 0.331014 0
1 0.338064 0
0 0.353964 0
0 0.357061 0
0 0.359609 0
0 0.361608 0
0 0.363272 0
0.0149081 0.364874 0
0.0482795 0.367269 0
0.0779126 0.370611 0
0.104356 0.375357 0
0.132921 0.380194 0
0.167391 0.383871 0
0.207843 0.386236 0
0.25333 0.387549 0
0.30193 0.387442 0
0.354284 0.386114 0
0.410651 0.383398 0
0.469657 0.379675 0
0.53077 0.375586 0
0.591333 0.371008 0
0.650767 0.366644 0
0.708034 0.362768 0
0.761929 0.359854 0
0.812711 0.358083 0
0.860685 0.357168 0
0.904601 0.357198 0
0.945861 0.358114 0
0.982605 0.360235 0
1 0.363073 0
1 0.367224 0
1 0.371862 0
1 0.37734 0
1 0.383597 0
1 0.390539 0
0 0.397177 0
0 0.400656 0
0 0.403494 0
0 0.405707 0
0 0.407919 0
0.00588998 0.409628 0
0.0408484 0.411673 0
0.0731975 0.414527 0
0.101793 0.418723 0
0.129213 0.423835 0
0.160739 0.428901 0
0.19762 0.43241 0
0.239948 0.434562 0
0.285557 0.43563 0
0.334432 0.435737 0
0.387137 0.434806 0
0.442878 0.433082 0
0.500755 0.430121 0
0.559319 0.426703 0
0.618082 0.423026 0
0.67602 0.419409 0
0.731121 0.416663 0
0.783154 0.414786 0
0.831876 0.41355 0
0.877394 0.413199 0
0.919493 0.413977 0
0.957794 0.415671 0
0.992859 0.418585 0
1 0.422248 0
1 0.426551 0
1 0.4318 0
1 0.437888 0
1 0.444694 0
0 0.441581 0
0 0.445365 0
0 0.4486 0
0 0.451438 0
0 0.453468 0
0 0.455329 0
0.0328527 0.457313 0
0.0674754 0.459907 0
0.0992142 0.463432 0
0.127886 0.468635 0
0.156985 0.473838 0
0.190402 0.47834 0
0.229587 0.48159 0
0.272633 0.48368 0
0.318975 0.48481 0
0.368688 0.485359 0
0.420768 0.484764 0
0.475334 0.483284 0
0.53109 0.481209 0
0.58761 0.47866 0
0.644083 0.476387 0
0.698497 0.474006 0
0.750851 0.472038 0
0.800153 0.470848 0
0.846006 0.470542 0
0.88893 0.471153 0
0.928588 0.472938 0
0.964416 0.475319 0
0.996796 0.47863 0
1 0.482765 0
1 0.487861 0
1 0.493904 0
1 0.500648 0
0 0.487221 0
0 0.491112 0
0 0.494957 0
0 0.497734 0
0 0.500069 0
0 0.502068 0
0.0251469 0.503914 0
0.0619516 0.506493 0
0.095964 0.509728 0
0.12636 0.514138 0
0.155138 0.519387 0
0.186069 0.524468 0
0.222034 0.528572 0
0.262715 0.53196 0
0.306508 0.533944 0
0.353429 0.535088 0
0.40264 0.535531 0
0.454154 0.535225 0
0.506996 0.534386 0
0.56109 0.533394 0
0.614984 0.531762 0
0.667613 0.530221 0
0.718273 0.529046 0
0.767407 0.528069 0
0.813245 0.528084 0
0.856336 0.528923 0
0.896193 0.530358 0
0.932509 0.532555 0
0.96495 0.535805 0
0.994934 0.539696 0
1 0.544717 0
1 0.550546 0
1 0.556878 0
0 0.533852 0
0 0.538186 0
0 0.541802 0
0 0.544793 0
0 0.547173 0
0 0.549325 0
0.0179294 0.551644 0
0.0560769 0.55375 0
0.0919509 0.556497 0
0.124758 0.560311 0
0.15465 0.56527 0
0.184207 0.570657 0
0.217807 0.575784 0
0.255161 0.579614 0
0.296315 0.582361 0
0.340917 0.584253 0
0.38793 0.585473 0
0.43682 0.586084 0
0.48716 0.586603 0
0.538094 0.586282 0
0.58938 0.585626 0
0.640024 0.584909 0
0.689006 0.584436 0
0.736629 0.584573 0
0.781445 0.584802 0
0.823453 0.585687 0
0.863142 0.587213 0
0.89897 0.589578 0
0.931823 0.592721 0
0.962097 0.596704 0
0.988312 0.601419 0
1 0.607004 0
1 0.613184 0
0 0.580926 0
0 0.585321 0
0 0.589258 0
0 0.592294 0
0 0.594903 0
0 0.597452 0
0.011429 0.599466 0
0.050309 0.60148 0
0.0878004 0.603922 0
0.122911 0.607111 0
0.154849 0.61178 0
0.184588 0.617136 0
0.2159 0.622293 0
0.250629 0.626764 0
0.289006 0.630182 0
0.331167 0.632715 0
0.376379 0.634867 0
0.423194 0.636133 0
0.470909 0.637003 0
0.519417 0.637491 0
0.568215 0.637644 0
0.616175 0.637797 0
0.663722 0.638285 0
0.709133 0.638712 0
0.752377 0.639506 0
0.793301 0.640665 0
0.831525 0.642557 0
0.866773 0.64509 0
0.89926 0.648554 0
0.928618 0.652369 0
0.954604 0.656931 0
0.977523 0.662211 0
0.997696 0.668223 0
0 0.628305 0
0 0.632792 0
0 0.63679 0
0 0.640223 0
0 0.643076 0
0 0.64535 0
0.00575265 0.647349 0
0.0454871 0.649195 0
0.0842145 0.651392 0
0.121157 0.654444 0
0.154925 0.658412 0
0.185534 0.663249 0
0.2159 0.668421 0
0.248539 0.673274 0
0.284291 0.677256 0
0.324392 0.680644 0
0.367056 0.68304 0
0.411765 0.684764 0
0.457755 0.686046 0
0.504204 0.687083 0
0.550851 0.687877 0
0.59704 0.689006 0
0.641764 0.689799 0
0.685222 0.690715 0
0.727031 0.691875 0
0.76614 0.693599 0
0.803281 0.69601 0
0.837705 0.69868 0
0.86894 0.7019 0
0.89781 0.705684 0
0.922835 0.710399 0
0.945006 0.715724 0
0.96495 0.721782 0
0 0.675608 0
0 0.680232 0
0 0.684504 0
0 0.688045 0
0 0.690806 0
0 0.693065 0
0.00135805 0.695033 0
0.0413977 0.696849 0
0.0817884 0.699031 0
0.11989 0.701427 0
0.155184 0.704723 0
0.187259 0.709026 0
0.217548 0.714015 0
0.248814 0.719249 0
0.282628 0.72369 0
0.319905 0.727214 0
0.36025 0.730022 0
0.402899 0.732189 0
0.447074 0.733822 0
0.492042 0.73547 0
0.536706 0.736751 0
0.580819 0.737926 0
0.623972 0.739086 0
0.665568 0.740398 0
0.705303 0.74197 0
0.743511 0.744183 0
0.778576 0.746654 0
0.81207 0.749432 0
0.841886 0.752834 0
0.869734 0.756558 0
0.894255 0.761105 0
0.915984 0.76669 0
0.935027 0.772381 0
0 0.722759 0
0 0.727794 0
0 0.731899 0
0 0.735332 0
0 0.738033 0
0 0.740322 0
0 0.742245 0
0.0392615 0.744213 0
0.0796368 0.745922 0
0.118853 0.747951 0
0.155886 0.750622 0
0.189487 0.754284 0
0.22063 0.75903 0
0.251194 0.764126 0
0.28304 0.768627 0
0.317845 0.772488 0
0.355993 0.775586 0
0.396551 0.778088 0
0.439277 0.780285 0
0.482383 0.781979 0
0.525521 0.783352 0
0.567956 0.784726 0
0.609201 0.786236 0
0.64918 0.787884 0
0.687892 0.789975 0
0.723949 0.792065 0
0.757565 0.794614 0
0.789792 0.797498 0
0.818524 0.801022 0
0.845731 0.805081 0
0.869291 0.809461 0
0.889799 0.814557 0
0.908202 0.820111 0
0 0.769757 0
0 0.774441 0
0 0.778637 0
0 0.781918 0
0 0.78468 0
0 0.786923 0
0 0.789059 0
0.0378882 0.790524 0
0.0789044 0.791913 0
0.118959 0.793591 0
0.157031 0.795834 0
0.192325 0.799329 0
0.224231 0.803281 0
0.254353 0.807874 0
0.284901 0.812421 0
0.318044 0.816419 0
0.354162 0.819913 0
0.392996 0.822721 0
0.433402 0.824872 0
0.474739 0.826703 0
0.516472 0.82826 0
0.557305 0.82977 0
0.597391 0.83154 0
0.63595 0.833356 0
0.67274 0.835325 0
0.707637 0.837522 0
0.73994 0.840131 0
0.770825 0.842969 0
0.798718 0.846708 0
0.824659 0.850477 0
0.847242 0.854871 0
0.867079 0.859709 0
0.884657 0.864942 0
0 0.815579 0
0 0.820249 0
0 0.824323 0
0 0.827619 0
0 0.830564 0
0 0.8327 0
0 0.834394 0
0.0382849 0.835691 0
0.079469 0.836881 0
0.12015 0.838239 0
0.159457 0.840284 0
0.195773 0.842802 0
0.228595 0.846235 0
0.259083 0.850355 0
0.288731 0.854643 0
0.32047 0.858747 0
0.354818 0.86244 0
0.391516 0.865263 0
0.43003 0.867506 0
0.469718 0.869337 0
0.509941 0.870924 0
0.549722 0.87274 0
0.58851 0.874434 0
0.625406 0.876173 0
0.660761 0.87808 0
0.694667 0.880217 0
0.725872 0.882872 0
0.755795 0.886061 0
0.782437 0.889311 0
0.807111 0.892882 0
0.828855 0.897124 0
0.848157 0.901793 0
0.864973 0.907179 0
0 0.860319 0
0 0.865095 0
0 0.868925 0
0 0.872496 0
0 0.874998 0
0 0.876967 0
0 0.878355 0
0.0400854 0.87953 0
0.0817121 0.880491 0
0.123049 0.881773 0
0.1626 0.883055 0
0.199863 0.884947 0
0.233768 0.887755 0
0.264622 0.891432 0
0.294423 0.895689 0
0.324498 0.899535 0
0.357031 0.902907 0
0.392035 0.905776 0
0.428992 0.908125 0
0.467048 0.91014 0
0.506081 0.911833 0
0.544244 0.913344 0
0.581582 0.914931 0
0.617624 0.916625 0
0.65185 0.918456 0
0.684291 0.920699 0
0.71487 0.923171 0
0.743358 0.92604 0
0.768948 0.929259 0
0.792828 0.932616 0
0.813458 0.936568 0
0.832151 0.941161 0
0.848463 0.946044 0
0 0.903944 0
0 0.908843 0
0 0.912566 0
0 0.915541 0
0 0.917983 0
0 0.919799 0
0.00277714 0.920974 0
0.0439155 0.922194 0
0.0855879 0.922759 0
0.12694 0.923384 0
0.166995 0.924285 0
0.204791 0.925658 0
0.239628 0.927749 0
0.271321 0.931105 0
0.30071 0.934646 0
0.330022 0.938277 0
0.361242 0.941497 0
0.394217 0.944335 0
0.429557 0.946731 0
0.466392 0.948867 0
0.5037 0.950408 0
0.54052 0.951797 0
0.576715 0.953124 0
0.611688 0.95465 0
0.645136 0.956558 0
0.676738 0.958587 0
0.705928 0.960784 0
0.732921 0.963317 0
0.758297 0.966262 0
0.781125 0.969573 0
0.801373 0.973571 0
0.818967 0.977615 0
0.83444 0.982025 0
0 0.946349 0
0 0.950866 0
0 0.954406 0
0 0.957137 0
0 0.959304 0
0 0.960891 0
0.00831617 0.962219 0
0.0490425 0.962844 0
0.0905318 0.963073 0
0.132036 0.963211 0
0.17258 0.963623 0
0.210819 0.964569 0
0.246708 0.966384 0
0.278599 0.968765 0
0.307836 0.97174 0
0.336492 0.975082 0
0.366598 0.978195 0
0.39881 0.98114 0
0.432349 0.983291 0
0.467414 0.985016 0
0.503304 0.986496 0
0.538964 0.987869 0
0.573938 0.989181 0
0.608011 0.9906 0
0.640421 0.992004 0
0.670985 0.993759 0
0.699367 0.995819 0
0.725475 0.998138 0
0.749966 1 0
0.772061 1 0
0.791287 1 0
0.808362 1 0
0.822889 1 0
0 0.987121 0
0 0.99118 0
0 0.994446 0
0 0.997162 0
0 0.999191 0
0 1 0
0.0145571 1 0
0.0553597 1 0
0.0968032 1 0
0.138415 1 0
0.179187 1 0
0.217884 1 0
0.254032 1 0
0.286473 1 0
0.315847 1 0
0.344274 1 0
0.373251 1 0
0.404135 1 0
0.43653 1 0
0.470207 1 0
0.504707 1 0
0.538979 1 0
0.573266 1 0
0.606134 1 0
0.637369 1 0
0.666941 1 0
0.694499 1 0
0.719966 1 0
0.743786 1 0
0.765057 1 0
0.783505 1 0
0.799649 1 0
0.813962 1 0
0 1 0
0 1 0
0 1 0
0 1 0
0 1 0
0 1 0
0.0228733 1 0
0.0633402 1 0
0.104555 1 0
0.146304 1 0
0.187137 1 0
0.226001 1 0
0.262226 1 0
0.294942 1 0
0.32459 1 0
0.353109 1 0
0.381018 1 0
0.41059 1 0
0.441779 1 0
0.474327 1 0
0.507713 1 0
0.540978 1 0
0.5738 1 0
0.605707 1 0
0.636118 1 0
0.664912 1 0
0.691783 1 0
0.716289 1 0
0.739315 1 0
0.75993 1 0
0.777691 1 0
0.793423 1 0
0.806928 1 0
0 1 0
0 1 0
0 1 0
0 1 0
0 1 0
0 1 0
0.0318456 1 0
0.0720684 1 0
0.113329 1 0
