site/assets/luts/freshluts--0001089-arri-crosstalk-custom-look-1-by-tjtop.cube
# LUTr-Schema-Version: 2
# LUTr-ID: freshluts--0001089-arri-crosstalk-custom-look-1-by-tjtop
# LUTr-Title: Arri_Crosstalk_Custom_Look_1_by_TJTOP
# LUTr-Collection: Fresh LUTs
# LUTr-Collection-ID: freshluts-community
# LUTr-Source: https://freshluts.com
# LUTr-Retrieved: 2026-07-27
# LUTr-Source-File: submissions-raw/freshluts/cubes/1089__LogC_CCL_1_33.cube
# LUTr-Source-Format: CUBE
# LUTr-Source-SHA256: 4513cb49bfc18242773466921a555b4b1ced8d9042194cf159945efb9f1b67c9
# LUTr-License: CC0-1.0
# LUTr-License-URL: https://freshluts.com/termsandconditions
# LUTr-License-Basis: site-terms
# LUTr-Transform-Class: creative-look
# LUTr-Tags: creative, freshluts, community, cube, cross-process, teal, arri-logc3-ei800
# LUTr-Input-Color-Space:
# LUTr-Input-Gamut: arri-wide-gamut-3
# LUTr-Input-Transfer: arri-logc3-ei800
# LUTr-Output-Color-Space: srgb
# LUTr-Output-Gamut: rec709
# LUTr-Output-Transfer: srgb
# LUTr-Color-Space-Confidence: camera-profile-input-required
# LUTr-Domain-Normalized: true
# LUTr-Shaper: none
# LUTr-Original-Grid: 33x33x33
# LUTr-Conversion-Grid: 33x33x33
# LUTr-Conversion-Interpolation: none
# LUTr-Conversion-Method: Metadata normalization; numeric LUT samples preserved
# LUTr-Conversion-Tool: LUTr scripts/convert-all-to-cube.mjs 2.0.0
# LUTr-Conversion-Date: 2026-07-28
# LUTr-Asset-URL: https://freshluts.com/luts/1089
# LUTr-Author: tjtop
# LUTr-Author-URL: https://freshluts.com/users/10151
# LUTr-Attribution: tjtop via Fresh LUTs
# LUTr-Source-Labels: gamma=Arri log c; color=Teal; key=Neutral; style=Cross Process
# LUTr-Note: Preserve this metadata and the upstream license notices when redistributing.
TITLE "Arri_Crosstalk_Custom_Look_1_by_TJTOP"
LUT_3D_SIZE 33
DOMAIN_MIN 0 0 0
DOMAIN_MAX 1 1 1
0.027843 -0.02794 0
0.059093 -0.03419 -0.007813
0.090343 -0.04044 -0.015625
0.121593 -0.04669 -0.023437
0.152796 -0.05292 -0.031221
0.179681 -0.059155 -0.039
0.205478 -0.066747 -0.048461
0.232464 -0.076812 -0.060984
0.260412 -0.09011 -0.077492
0.289126 -0.107588 -0.099124
0.318441 -0.130383 -0.127231
0.348221 -0.159765 -0.163274
0.37836 -0.196929 -0.208551
0.408771 -0.242443 -0.263496
0.43939 -0.294939 -0.326058
0.470166 -0.348063 -0.388081
0.50106 -0.383534 -0.427283
0.532043 -0.355338 -0.389443
0.563093 -0.153648 -0.148656
0.594194 0.260616 0.288195
0.625332 0.387388 0.407445
0.656498 0.457816 0.4762
0.687686 0.511163 0.528832
0.718889 0.556389 0.573674
0.750104 0.597013 0.614067
0.781328 0.634771 0.651675
0.812558 0.67064 0.687443
0.843793 0.705217 0.72195
0.875032 0.738888 0.755572
0.906274 0.771913 0.788561
0.937518 0.804471 0.821092
0.968763 0.836688 0.85329
1.00001 0.868655 0.885244
0.02003 0.00331 0.007812
0.05128 -0.00294 0
0.08253 -0.00919 -0.007813
0.11378 -0.01544 -0.015625
0.14503 -0.02167 -0.023408
0.173606 -0.027905 -0.031188
0.20073 -0.035497 -0.040649
0.228789 -0.045562 -0.053172
0.257591 -0.05886 -0.069679
0.286974 -0.076338 -0.091312
0.316807 -0.099133 -0.119418
0.346985 -0.128515 -0.155461
0.377427 -0.165679 -0.200739
0.40807 -0.211193 -0.255684
0.438863 -0.263689 -0.318245
0.46977 -0.316813 -0.380269
0.500764 -0.352284 -0.41947
0.531821 -0.324088 -0.38163
0.562927 -0.122398 -0.140843
0.594069 0.271194 0.290323
0.625239 0.390748 0.408151
0.656429 0.459573 0.476572
0.687634 0.512235 0.52906
0.71885 0.557094 0.573825
0.750075 0.597496 0.61417
0.781306 0.635111 0.651748
0.812542 0.670884 0.687495
0.843781 0.705394 0.721988
0.875023 0.739017 0.755599
0.906267 0.772008 0.788581
0.937513 0.804541 0.821107
0.96876 0.836739 0.853302
1.000007 0.868693 0.885252
0.012218 0.03456 0.015625
0.043468 0.02831 0.007812
0.074718 0.02206 0
0.105968 0.01581 -0.007812
0.137218 0.00958 -0.015596
0.167166 0.003345 -0.023375
0.195762 -0.004247 -0.032836
0.224985 -0.014312 -0.045359
0.254694 -0.02761 -0.061867
0.284778 -0.045088 -0.083499
0.315148 -0.067883 -0.111606
0.345735 -0.097265 -0.147649
0.376487 -0.134429 -0.192926
0.407364 -0.179943 -0.247871
0.438333 -0.232439 -0.310433
0.469374 -0.285563 -0.372456
0.500466 -0.321034 -0.411658
0.531599 -0.292838 -0.373818
0.562761 -0.091148 -0.133031
0.593945 0.280822 0.29241
0.625146 0.394006 0.408852
0.656359 0.461301 0.476943
0.687581 0.513297 0.529288
0.718811 0.557794 0.573975
0.750046 0.597977 0.614273
0.781284 0.63545 0.65182
0.812525 0.671127 0.687547
0.843769 0.70557 0.722026
0.875014 0.739146 0.755627
0.906261 0.772103 0.788601
0.937508 0.804611 0.821122
0.968756 0.836791 0.853313
1.000004 0.868732 0.88526
0.004405 0.06581 0.023438
0.035655 0.05956 0.015625
0.066905 0.05331 0.007812
0.098155 0.04706 0
0.129405 0.04083 -0.007783
0.160315 0.034595 -0.015563
0.190553 0.027003 -0.025024
0.22104 0.016938 -0.037547
0.251716 0.00364 -0.054054
0.282535 -0.013838 -0.075687
0.313462 -0.036633 -0.103793
0.34447 -0.066015 -0.139836
0.375539 -0.103179 -0.185114
0.406653 -0.148693 -0.240059
0.437801 -0.201189 -0.30262
0.468975 -0.254313 -0.364644
0.500168 -0.289784 -0.403845
0.531376 -0.261588 -0.366005
0.562594 -0.059898 -0.125218
0.59382 0.289658 0.294457
0.625053 0.397167 0.409548
0.656289 0.463002 0.477313
0.687529 0.514348 0.529515
0.718772 0.55849 0.574125
0.750016 0.598456 0.614376
0.781262 0.635788 0.651893
0.812509 0.671369 0.687599
0.843757 0.705746 0.722064
0.875005 0.739275 0.755655
0.906254 0.772197 0.788622
0.937503 0.804681 0.821137
0.968752 0.836843 0.853324
1.000002 0.86877 0.885268
-0.003407 0.09706 0.03125
0.027843 0.09081 0.023437
0.059093 0.08456 0.015625
0.090343 0.07831 0.007812
0.121593 0.07208 0.000029
0.152997 0.065845 -0.00775
0.185078 0.058253 -0.017212
0.216945 0.048188 -0.029734
0.248654 0.03489 -0.046242
0.280245 0.017412 -0.067875
0.31175 -0.005383 -0.095981
0.34319 -0.034765 -0.132024
0.374582 -0.071929 -0.177302
0.405937 -0.117443 -0.232247
0.437266 -0.169939 -0.294808
0.468575 -0.223063 -0.356832
0.49987 -0.258534 -0.396033
0.531152 -0.230338 -0.358193
0.562427 -0.028648 -0.117406
0.593696 0.297821 0.296466
0.624959 0.400239 0.41024
0.65622 0.464676 0.477682
0.687477 0.515388 0.529742
0.718733 0.559181 0.574275
0.749987 0.598933 0.614479
0.781241 0.636125 0.651966
0.812493 0.671611 0.687652
0.843745 0.705922 0.722101
0.874996 0.739404 0.755682
0.906247 0.772292 0.788642
0.937498 0.804751 0.821152
0.968748 0.836895 0.853335
0.999999 0.868809 0.885277
-0.011269 0.128517 0.039112
0.019981 0.122267 0.031299
0.051231 0.116017 0.023487
0.082481 0.109767 0.015675
0.113731 0.103537 0.007891
0.145188 0.097302 0.000112
0.179271 0.08971 -0.009349
0.21266 0.079644 -0.021872
0.245481 0.066347 -0.03838
0.27789 0.048869 -0.060012
0.309999 0.026074 -0.088119
0.341886 -0.003308 -0.124162
0.37361 -0.040472 -0.169439
0.405213 -0.085986 -0.224384
0.436726 -0.138482 -0.286946
0.468172 -0.191606 -0.348969
0.499568 -0.227077 -0.388171
0.530927 -0.198881 -0.350331
0.562259 0.002809 -0.109544
0.59357 0.305456 0.29845
0.624865 0.403244 0.410932
0.656149 0.466336 0.478052
0.687425 0.516426 0.529969
0.718694 0.559872 0.574425
0.749958 0.599411 0.614582
0.781219 0.636463 0.652039
0.812477 0.671854 0.687704
0.843732 0.706098 0.722139
0.874987 0.739533 0.75571
0.90624 0.772387 0.788662
0.937493 0.804821 0.821167
0.968745 0.836947 0.853346
0.999996 0.868848 0.885285
-0.020905 0.16581 0.048748
0.010345 0.160293 0.040935
0.041595 0.154478 0.033123
0.072845 0.148338 0.02531
0.104095 0.142108 0.017527
0.135552 0.135873 0.009748
0.171697 0.128281 0.000286
0.207163 0.118215 -0.012236
0.24146 0.104918 -0.028744
0.274931 0.08744 -0.050377
0.307813 0.064645 -0.078483
0.340266 0.035262 -0.114526
0.372407 -0.001901 -0.159804
0.404317 -0.047415 -0.214749
0.436059 -0.099911 -0.27731
0.467675 -0.153035 -0.339334
0.499197 -0.188506 -0.378535
0.530651 -0.16031 -0.340695
0.562052 0.04138 -0.099908
0.593415 0.314132 0.300833
0.62475 0.406818 0.411773
0.656063 0.468336 0.478503
0.68736 0.517685 0.530248
0.718646 0.560714 0.574609
0.749922 0.599994 0.614709
0.781192 0.636876 0.652128
0.812456 0.672152 0.687768
0.843717 0.706315 0.722186
0.874976 0.739691 0.755744
0.906232 0.772504 0.788687
0.937486 0.804907 0.821186
0.96874 0.837011 0.85336
0.999992 0.868895 0.885295
-0.033784 0.202965 0.061626
-0.002534 0.199092 0.053814
0.028716 0.195074 0.046001
0.059966 0.1909 0.038189
0.091216 0.186571 0.030405
0.122673 0.182057 0.022626
0.16066 0.17629 0.013165
0.199348 0.168134 0.000642
0.235839 0.156311 -0.015865
0.270845 0.139044 -0.037498
0.30482 0.116249 -0.065604
0.338062 0.086866 -0.101647
0.370777 0.049703 -0.146925
0.403109 0.004189 -0.20187
0.435161 -0.048307 -0.264431
0.467007 -0.101431 -0.326455
0.4987 -0.136903 -0.365656
0.53028 -0.108707 -0.327817
0.561776 0.092984 -0.087029
0.593209 0.324741 0.303938
0.624596 0.411421 0.412888
0.655948 0.470955 0.479103
0.687274 0.519346 0.530619
0.718581 0.561829 0.574855
0.749874 0.600769 0.614878
0.781156 0.637427 0.652247
0.81243 0.672548 0.687854
0.843697 0.706603 0.722248
0.874961 0.739903 0.75579
0.906221 0.77266 0.788721
0.937478 0.805022 0.821211
0.968734 0.837097 0.853378
0.999988 0.868959 0.885309
-0.050979 0.238426 0.078822
-0.019729 0.235657 0.071009
0.011521 0.232814 0.063197
0.042771 0.229894 0.055384
0.074021 0.226902 0.047601
0.105478 0.223822 0.039822
0.144049 0.219948 0.030361
0.187938 0.214587 0.017838
0.227843 0.207067 0.00133
0.265135 0.196306 -0.020302
0.300689 0.180426 -0.048409
0.335047 0.155731 -0.084452
0.368562 0.118743 -0.129729
0.401475 0.073229 -0.184674
0.433951 0.020733 -0.247236
0.466109 -0.032391 -0.309259
0.498032 -0.067862 -0.348461
0.529782 -0.039666 -0.310621
0.561405 0.161362 -0.069834
0.592932 0.33747 0.307948
0.62439 0.417285 0.414359
0.655794 0.474362 0.479899
0.687159 0.52153 0.531112
0.718496 0.563304 0.575182
0.74981 0.601797 0.615104
0.781108 0.638158 0.652407
0.812394 0.673076 0.687968
0.843671 0.706988 0.722331
0.874941 0.740185 0.75585
0.906206 0.772868 0.788766
0.937467 0.805176 0.821244
0.968725 0.837211 0.853403
0.999981 0.869044 0.885327
-0.073896 0.272719 0.101738
-0.042646 0.270714 0.093926
-0.011396 0.268671 0.086113
0.019854 0.266588 0.078301
0.051104 0.264471 0.070517
0.082561 0.26231 0.062738
0.121132 0.259618 0.053277
0.170562 0.255941 0.040754
0.216168 0.250883 0.024247
0.25702 0.24385 0.002614
0.294924 0.233926 -0.025492
0.330892 0.21961 -0.061535
0.365538 0.198249 -0.106813
0.399257 0.16452 -0.161758
0.432317 0.113102 -0.22432
0.4649 0.059977 -0.286343
0.497135 0.024506 -0.325544
0.529116 0.052702 -0.287705
0.560909 0.222752 -0.046917
0.592563 0.352436 0.313069
0.624114 0.424662 0.416288
0.655589 0.478758 0.480951
0.687006 0.524383 0.531767
0.718381 0.565246 0.575616
0.749724 0.603157 0.615403
0.781044 0.63913 0.652618
0.812346 0.673779 0.68812
0.843635 0.7075 0.722441
0.874914 0.740562 0.755931
0.906186 0.773146 0.788825
0.937452 0.805382 0.821288
0.968714 0.837364 0.853435
0.999973 0.869157 0.885351
-0.104329 0.306188 0.132172
-0.073079 0.304724 0.124359
-0.041829 0.30324 0.116547
-0.010579 0.301734 0.108734
0.020671 0.300212 0.100951
0.052128 0.298668 0.093172
0.090699 0.296756 0.08371
0.142303 0.294168 0.071188
0.198396 0.29065 0.05468
0.245197 0.285844 0.033047
0.286757 0.279234 0.004941
0.325114 0.270065 -0.031102
0.361384 0.25722 -0.07638
0.396239 0.239056 -0.131325
0.430107 0.21339 -0.193886
0.463273 0.179117 -0.25591
0.495933 0.148085 -0.295111
0.528225 0.173441 -0.257271
0.560247 0.27204 -0.016484
0.59207 0.369667 0.319514
0.623747 0.433799 0.418798
0.655315 0.484371 0.482333
0.686802 0.528085 0.532629
0.718229 0.56779 0.57619
0.74961 0.604951 0.6158
0.780959 0.640415 0.652899
0.812283 0.674711 0.688322
0.843588 0.708183 0.722588
0.874879 0.741063 0.756038
0.906159 0.773516 0.788904
0.937432 0.805657 0.821346
0.968699 0.837568 0.853478
0.999962 0.869309 0.885383
-0.144483 0.339068 0.170223
-0.113233 0.337992 0.163571
-0.081983 0.336905 0.156479
-0.050733 0.335807 0.148888
-0.019483 0.334701 0.141104
0.011974 0.333583 0.133325
0.050545 0.332205 0.123864
0.102149 0.330351 0.111341
0.169281 0.327852 0.094834
0.227294 0.324476 0.073201
0.274932 0.319907 0.045095
0.31698 0.313715 0.009052
0.355646 0.305335 -0.036226
0.392123 0.294091 -0.091171
0.42712 0.279467 -0.153733
0.461088 0.262312 -0.215756
0.494325 0.249112 -0.254957
0.527037 0.259734 -0.217118
0.559367 0.315034 0.02367
0.591417 0.389095 0.327464
0.623261 0.444921 0.422022
0.654953 0.491449 0.484129
0.686532 0.532847 0.533757
0.718027 0.571102 0.576943
0.74946 0.607304 0.616321
0.780847 0.642112 0.653268
0.812199 0.675946 0.688587
0.843525 0.709088 0.722781
0.874832 0.741731 0.75618
0.906124 0.77401 0.789008
0.937406 0.806023 0.821423
0.96868 0.83784 0.853535
0.999948 0.869511 0.885426
-0.196818 0.37152 0.206537
-0.165568 0.370725 0.201837
-0.134318 0.369925 0.196921
-0.103068 0.369119 0.191769
-0.071818 0.368309 0.186378
-0.040361 0.367493 0.180705
-0.00179 0.36649 0.173375
0.049814 0.365146 0.162833
0.118854 0.363345 0.147169
0.19832 0.36093 0.125536
0.257261 0.357696 0.09743
0.305361 0.353379 0.061387
0.347676 0.347658 0.016109
0.38651 0.340209 -0.038836
0.423098 0.330921 -0.101397
0.458172 0.320625 -0.163421
0.492193 0.313157 -0.202622
0.525469 0.319135 -0.164783
0.558209 0.354293 0.076005
0.590559 0.410572 0.337015
0.622624 0.4582 0.426084
0.654479 0.500242 0.486425
0.686179 0.538905 0.535209
0.717764 0.575379 0.577916
0.749264 0.610374 0.616996
0.7807 0.644341 0.653747
0.812089 0.677577 0.688932
0.843443 0.710288 0.723032
0.874771 0.742618 0.756364
0.906079 0.774667 0.789144
0.937372 0.806511 0.821523
0.968654 0.838203 0.85361
0.999928 0.869782 0.885481
-0.263449 0.403659 0.239972
-0.232199 0.403071 0.236549
-0.200949 0.40248 0.233014
-0.169699 0.401885 0.229359
-0.138449 0.401289 0.225588
-0.106992 0.400689 0.221683
-0.068421 0.399954 0.216734
-0.016817 0.398972 0.209811
0.052223 0.39766 0.199946
0.144591 0.395911 0.18547
0.229509 0.393587 0.163173
0.288476 0.390514 0.128018
0.336588 0.386498 0.08274
0.378911 0.381365 0.027796
0.41775 0.375123 -0.034766
0.454341 0.368414 -0.09679
0.489416 0.363688 -0.135991
0.523439 0.367461 -0.098151
0.556716 0.391161 0.142636
0.589457 0.433889 0.34806
0.621807 0.473732 0.431042
0.653873 0.510983 0.489279
0.685728 0.546509 0.53703
0.717428 0.580848 0.579143
0.749014 0.614349 0.61785
0.780514 0.647252 0.654354
0.81195 0.679721 0.68937
0.843339 0.711873 0.723351
0.874693 0.743793 0.756598
0.906021 0.77554 0.789316
0.937329 0.807161 0.821651
0.968622 0.838687 0.853704
0.999904 0.870143 0.885551
-0.344361 0.43557 0.270179
-0.313111 0.435133 0.267606
-0.281861 0.434694 0.26497
-0.250611 0.434254 0.262268
-0.219361 0.433814 0.259506
-0.187904 0.433371 0.256673
-0.149333 0.432829 0.253123
-0.097729 0.432107 0.248237
-0.028689 0.431145 0.241436
0.063679 0.429868 0.231817
0.181895 0.428179 0.217875
0.2636 0.425961 0.196853
0.321376 0.42309 0.162812
0.368895 0.419465 0.108707
0.410874 0.415126 0.046146
0.449497 0.410549 -0.015878
0.485945 0.407381 -0.055079
0.520922 0.409907 -0.017239
0.554876 0.426427 0.20588
0.588103 0.458802 0.360105
0.620807 0.491519 0.436771
0.653132 0.523854 0.492646
0.685178 0.555907 0.5392
0.717019 0.587753 0.580614
0.748709 0.619447 0.618878
0.780286 0.651028 0.655087
0.811781 0.682524 0.689899
0.843213 0.713958 0.723737
0.874599 0.745345 0.756881
0.90595 0.776697 0.789525
0.937276 0.808024 0.821805
0.968583 0.839331 0.853819
0.999875 0.870623 0.885636
-0.432677 0.46731 0.295644
-0.401427 0.466986 0.29362
-0.370177 0.46666 0.291557
-0.338927 0.466333 0.289453
-0.307677 0.466007 0.287315
-0.27622 0.465679 0.285135
-0.237649 0.465278 0.282423
-0.186045 0.464745 0.278724
-0.117005 0.464036 0.273645
-0.024636 0.463097 0.266603
0.098943 0.46186 0.256705
0.227643 0.460245 0.242509
0.301867 0.458166 0.221518
0.356778 0.455563 0.188894
0.40283 0.452482 0.134462
0.443948 0.44927 0.072438
0.482023 0.447071 0.033237
0.518105 0.448823 0.071077
0.55283 0.460583 0.248494
0.586605 0.485057 0.371872
0.619705 0.511475 0.442693
0.652317 0.538966 0.496205
0.684574 0.567317 0.54152
0.716571 0.596348 0.582196
0.748375 0.62591 0.619989
0.780038 0.65588 0.655881
0.811595 0.686163 0.690474
0.843075 0.716684 0.724156
0.874496 0.747387 0.757189
0.905873 0.778226 0.789752
0.937218 0.809167 0.821974
0.96854 0.840186 0.853944
0.999843 0.871263 0.885729
-0.502703 0.498926 0.312264
-0.471453 0.498684 0.310533
-0.440203 0.498442 0.308772
-0.408953 0.498199 0.306983
-0.377703 0.497956 0.30517
-0.346246 0.497713 0.303327
-0.307675 0.497416 0.301042
-0.256072 0.49702 0.297941
-0.187031 0.496496 0.293711
-0.094663 0.495803 0.287903
0.028916 0.494892 0.279854
0.186953 0.493707 0.268562
0.283404 0.492189 0.252455
0.346092 0.4903 0.228975
0.395994 0.488079 0.193952
0.439335 0.485783 0.142465
0.478808 0.484223 0.103263
0.515818 0.485465 0.141103
0.551179 0.493955 0.273286
0.585403 0.512417 0.380364
0.618823 0.533432 0.447167
0.651667 0.55634 0.498945
0.684093 0.580903 0.543324
0.716214 0.606867 0.583435
0.74811 0.633989 0.620861
0.77984 0.662046 0.656506
0.811448 0.690846 0.690927
0.842965 0.720228 0.724488
0.874414 0.75006 0.757433
0.905812 0.780237 0.789932
0.937173 0.810679 0.822107
0.968506 0.84132 0.854043
0.999817 0.872113 0.885803
-0.480432 0.530448 0.307252
-0.449182 0.530268 0.305437
-0.417932 0.530087 0.30359
-0.386682 0.529907 0.301712
-0.355432 0.529726 0.299807
-0.323975 0.529545 0.297868
-0.285404 0.529324 0.295463
-0.2338 0.529031 0.292194
-0.16476 0.528642 0.287726
-0.072391 0.528129 0.281575
0.051188 0.527456 0.273018
0.201637 0.526582 0.260941
0.289627 0.525466 0.243547
0.349607 0.524083 0.217772
0.398216 0.522467 0.178094
0.440823 0.520805 0.120193
0.479841 0.519682 0.080992
0.51655 0.520576 0.118831
0.551707 0.526764 0.266004
0.585787 0.540664 0.377735
0.619105 0.55717 0.445764
0.651874 0.575906 0.498081
0.684246 0.596746 0.542754
0.716327 0.619499 0.583043
0.748194 0.643926 0.620584
0.779903 0.669778 0.656307
0.811495 0.696808 0.690783
0.843 0.724792 0.724382
0.87444 0.753534 0.757355
0.905831 0.782871 0.789875
0.937187 0.812668 0.822065
0.968516 0.842819 0.854012
0.999825 0.87324 0.88578
-0.17169 0.561901 0.190621
-0.14044 0.561767 0.185149
-0.10919 0.561632 0.179384
-0.07794 0.561497 0.173292
-0.04669 0.561363 0.166857
-0.015233 0.561228 0.160016
0.023338 0.561064 0.151062
0.074942 0.560846 0.138549
0.143982 0.560557 0.122041
0.213208 0.560176 0.100408
0.266109 0.559677 0.072302
0.311097 0.55903 0.036259
0.351577 0.558206 -0.009019
0.389242 0.557189 -0.063964
0.425048 0.556004 -0.126525
0.459582 0.554791 -0.188549
0.493222 0.553973 -0.22775
0.526225 0.554623 -0.18991
0.558766 0.559165 0.050877
0.590972 0.569613 0.332535
0.62293 0.582441 0.424153
0.654707 0.597509 0.485329
0.686349 0.61484 0.534514
0.717891 0.634364 0.57745
0.749358 0.655929 0.616673
0.780771 0.679322 0.653517
0.812142 0.7043 0.688767
0.843482 0.730611 0.722912
0.8748 0.758014 0.756275
0.906101 0.786296 0.789079
0.937388 0.815273 0.821475
0.968667 0.844792 0.853574
0.999938 0.87473 0.885454
0.336748 0.593303 -0.627776
0.342083 0.593202 -0.635589
0.347166 0.593102 -0.643401
0.352018 0.593002 -0.651214
0.356661 0.592901 -0.658997
0.36114 0.592801 -0.666776
0.366389 0.592678 -0.676237
0.373033 0.592516 -0.68876
0.381323 0.592301 -0.705268
0.391499 0.592017 -0.726901
0.403761 0.591647 -0.755007
0.418241 0.591167 -0.79105
0.434988 0.590557 -0.836327
0.453954 0.589805 -0.891272
0.475008 0.588932 -0.953834
0.497949 0.588041 -1.015857
0.52254 0.587441 -1.055059
0.548529 0.587918 -1.017219
0.57567 0.591267 -0.776432
0.603744 0.599111 -0.195294
0.632556 0.608994 0.326435
0.661947 0.620936 0.441048
0.691787 0.635082 0.508696
0.72197 0.651494 0.560847
0.752416 0.670138 0.605429
0.783061 0.690893 0.645663
0.813856 0.71357 0.683169
0.844765 0.737932 0.718868
0.87576 0.763729 0.753327
0.906818 0.790715 0.786915
0.937925 0.818663 0.819879
0.969068 0.847377 0.852393
1.000238 0.876691 0.884578
0.449224 0.624666 -1.763112
0.451126 0.624591 -1.770924
0.452994 0.624516 -1.778737
0.454831 0.624441 -1.786549
0.456637 0.624366 -1.794333
0.458424 0.624291 -1.802112
0.460576 0.6242 -1.811573
0.463389 0.624079 -1.824096
0.467041 0.623919 -1.840603
0.47174 0.623708 -1.862236
0.477721 0.623432 -1.890342
0.485236 0.623075 -1.926385
0.494532 0.622622 -1.971663
0.505829 0.622065 -2.026608
0.519295 0.621419 -2.08917
0.535016 0.620761 -2.151193
0.552991 0.62032 -2.190394
0.573122 0.620671 -2.152555
0.595237 0.62315 -1.911767
0.619114 0.629032 -1.330629
0.644501 0.636593 -0.535894
0.67115 0.645942 0.311565
0.698828 0.657299 0.458565
0.727328 0.670827 0.532853
0.756475 0.686613 0.587788
0.786126 0.704649 0.633854
0.816166 0.724838 0.674979
0.846502 0.747007 0.713059
0.877063 0.770929 0.749145
0.907796 0.796355 0.783872
0.938658 0.823036 0.817649
0.969616 0.85074 0.85075
1.000648 0.87926 0.883363
0.516343 0.656 -3.282069
0.517365 0.655944 -3.289881
0.518377 0.655888 -3.297694
0.51938 0.655833 -3.305506
0.520373 0.655777 -3.313289
0.521364 0.655721 -3.321069
0.522567 0.655653 -3.33053
0.524155 0.655562 -3.343052
0.526243 0.655443 -3.35956
0.528976 0.655285 -3.381193
0.532526 0.65508 -3.409299
0.537099 0.654815 -3.445342
0.542927 0.654478 -3.49062
0.550261 0.654064 -3.545565
0.559349 0.653585 -3.608126
0.570418 0.653098 -3.67015
0.583639 0.652771 -3.709351
0.599112 0.653031 -3.671511
0.616841 0.65487 -3.430724
0.636743 0.659278 -2.849586
0.658651 0.665031 -2.054851
0.682345 0.672276 -0.991581
0.707579 0.681262 0.287775
0.734101 0.692217 0.478266
0.761677 0.705317 0.558476
0.790095 0.720666 0.615701
0.819179 0.738274 0.662943
0.848781 0.75806 0.704761
0.878783 0.779863 0.743281
0.90909 0.803466 0.779661
0.93963 0.828622 0.814592
0.970346 0.85508 0.848512
1.001195 0.882604 0.881716
0.568261 0.687313 -5.314268
0.568892 0.687272 -5.32208
0.569519 0.68723 -5.329893
0.570143 0.687188 -5.337705
0.570763 0.687146 -5.345489
0.571384 0.687105 -5.353268
0.57214 0.687054 -5.362729
0.573144 0.686986 -5.375251
0.574472 0.686897 -5.391759
0.576223 0.68678 -5.413392
0.578523 0.686627 -5.441498
0.581524 0.686429 -5.477541
0.585413 0.686178 -5.522819
0.590404 0.68587 -5.577764
0.596739 0.685514 -5.640325
0.604669 0.685153 -5.702349
0.614437 0.684911 -5.74155
0.626254 0.685103 -5.703711
0.64027 0.68647 -5.462923
0.656549 0.689771 -4.881785
0.675065 0.69413 -4.08705
0.695702 0.699699 -3.023781
0.718272 0.706724 -1.601241
0.742543 0.715457 0.244477
0.768263 0.72613 0.499991
0.795186 0.738927 0.58532
0.823083 0.753964 0.644387
0.851757 0.771265 0.692549
0.881041 0.79076 0.7349
0.910797 0.812298 0.773757
0.940917 0.835668 0.81036
0.971314 0.860626 0.845444
1.001922 0.88692 0.879472
0.612716 0.718611 -8.033132
0.613133 0.718579 -8.040944
0.613549 0.718548 -8.048757
0.613964 0.718517 -8.056569
0.614376 0.718486 -8.064353
0.61479 0.718455 -8.072132
0.615296 0.718417 -8.081594
0.615968 0.718366 -8.094115
0.616861 0.7183 -8.110623
0.618044 0.718212 -8.132256
0.619607 0.718098 -8.160362
0.621663 0.71795 -8.196405
0.624354 0.717764 -8.241683
0.627851 0.717534 -8.296628
0.632359 0.717269 -8.359189
0.638108 0.717 -8.421213
0.645348 0.71682 -8.460414
0.654329 0.716964 -8.422575
0.665277 0.717981 -8.181787
0.67837 0.720452 -7.600648
0.693712 0.723744 -6.805914
0.711313 0.727996 -5.742644
0.731092 0.733434 -4.320105
0.75289 0.740304 -2.4169
0.776488 0.748856 0.12938
0.801639 0.759327 0.523526
0.828094 0.771908 0.613154
0.855614 0.78672 0.67368
0.883989 0.803798 0.722553
0.913039 0.823081 0.765312
0.942615 0.844425 0.804424
0.972596 0.867624 0.841196
1.002887 0.892436 0.876395
0.652873 0.749896 -11.670675
0.653161 0.749873 -11.678488
0.653447 0.749849 -11.686299
0.653733 0.749826 -11.694113
0.654018 0.749803 -11.701896
0.654305 0.749779 -11.709676
0.654654 0.749751 -11.719137
0.655121 0.749713 -11.731659
0.655742 0.749664 -11.748167
0.656567 0.749598 -11.769799
0.657661 0.749513 -11.797905
0.659107 0.749403 -11.833948
0.661013 0.749264 -11.879227
0.66351 0.749093 -11.934172
0.666763 0.748895 -11.996734
0.670966 0.748695 -12.058757
0.676344 0.748561 -12.097958
0.683142 0.748667 -12.060118
0.691612 0.749426 -11.819331
0.70199 0.751275 -11.238194
0.71447 0.753755 -10.443458
0.729178 0.756985 -9.380188
0.746152 0.761161 -7.957648
0.765336 0.766505 -6.054443
0.786589 0.773262 -3.508163
0.809708 0.781685 -0.101515
