site/assets/luts/freshluts--0000673-this-is-sample-cinestyle-look-correct-your-footages-first-th.cube
# LUTr-Schema-Version: 2
# LUTr-ID: freshluts--0000673-this-is-sample-cinestyle-look-correct-your-footages-first-th
# LUTr-Title: This is sample CINEstyle LOOK . correct your footages first then apply THIS LUT.
# LUTr-Collection: Fresh LUTs
# LUTr-Collection-ID: freshluts-community
# LUTr-Source: https://freshluts.com
# LUTr-Retrieved: 2026-07-27
# LUTr-Source-File: submissions-raw/freshluts/cubes/673__fit_for_hope_3.00002.cube
# LUTr-Source-Format: CUBE
# LUTr-Source-SHA256: 0a10b44504e6eb07ce5a96e8dc4138a47da0ad589580b255a101cb4a912b8b0f
# LUTr-License: CC0-1.0
# LUTr-License-URL: https://freshluts.com/termsandconditions
# LUTr-License-Basis: site-terms
# LUTr-Transform-Class: creative-look
# LUTr-Tags: creative, freshluts, community, cube, canon-cinestyle, correction
# LUTr-Input-Color-Space:
# LUTr-Input-Gamut: rec709
# LUTr-Input-Transfer: canon-cinestyle
# LUTr-Output-Color-Space: srgb
# LUTr-Output-Gamut: rec709
# LUTr-Output-Transfer: srgb
# LUTr-Color-Space-Confidence: camera-profile-input-required
# LUTr-Domain-Normalized: true
# LUTr-Shaper: none
# LUTr-Original-Grid: 33x33x33
# LUTr-Conversion-Grid: 33x33x33
# LUTr-Conversion-Interpolation: none
# LUTr-Conversion-Method: Metadata normalization; numeric LUT samples preserved
# LUTr-Conversion-Tool: LUTr scripts/convert-all-to-cube.mjs 2.0.0
# LUTr-Conversion-Date: 2026-07-28
# LUTr-Asset-URL: https://freshluts.com/luts/673
# LUTr-Author: lvannoeun@gmail.com
# LUTr-Author-URL: https://freshluts.com/users/57563
# LUTr-Attribution: lvannoeun@gmail.com via Fresh LUTs
# LUTr-Source-Labels: gamma=Canon Cinestyle; color=None; key=Neutral; style=Drama
# LUTr-Note: Preserve this metadata and the upstream license notices when redistributing.
TITLE "This is sample CINEstyle LOOK . correct your footages first then apply THIS LUT."
LUT_3D_SIZE 5
DOMAIN_MIN 0 0 0
DOMAIN_MAX 1 1 1
0 0 0.0339971
0.135378 0 0.0163729
0.420722 0 0.0108034
0.687739 0 0.0104982
0.932219 0 0.0129549
0 0.246235 0.0567788
0.170779 0.229587 0.0403143
0.454536 0.225315 0.0362249
0.721279 0.226017 0.0371099
0.960739 0.228763 0.0400549
0 0.503227 0.0686656
0.194186 0.487343 0.0529946
0.476524 0.484062 0.0499275
0.742733 0.485328 0.0513924
0.977325 0.48867 0.0549477
0 0.764096 0.0770733
0.213001 0.748623 0.0618143
0.494057 0.746151 0.059556
0.759655 0.747799 0.0614176
0.988724 0.751141 0.0649729
0 1 0.082536
0.228412 1 0.0676738
0.507759 0.999496 0.0656596
0.772488 1 0.0675212
0.996139 1 0.0707866
0 0.000167849 0.249744
0.138979 0 0.232013
0.424033 0 0.226276
0.690883 0 0.225788
0.934691 0 0.227909
0 0.248508 0.272175
0.174487 0.231952 0.255497
0.458 0.227832 0.251209
0.724758 0.228672 0.25185
0.963211 0.231495 0.25452
0 0.505684 0.28368
0.198016 0.489845 0.267735
0.479973 0.486778 0.264469
0.746075 0.488014 0.26569
0.979675 0.491432 0.26891
0 0.766629 0.291066
0.2168 0.751141 0.275517
0.497398 0.748852 0.273121
0.762875 0.750484 0.274647
0.991196 0.753872 0.277852
0 1 0.295628
0.232166 1 0.280476
0.511177 1 0.278126
0.775616 1 0.279576
0.998306 1 0.282628
0 0.00129702 0.470314
0.142214 0 0.452689
0.426993 0 0.446983
0.693996 0 0.446586
0.936507 0 0.448569
0 0.250446 0.49308
0.17792 0.234104 0.476493
0.461158 0.23003 0.47219
0.727642 0.230762 0.472755
0.965484 0.233845 0.475776
0 0.507912 0.504692
0.20119 0.492012 0.488655
0.483253 0.489128 0.485649
0.749279 0.490532 0.486885
0.981949 0.493904 0.490135
0 0.768963 0.512474
0.220188 0.753643 0.497032
0.500633 0.751324 0.494591
0.766003 0.753017 0.496178
0.993255 0.756344 0.499382
0 1 0.517021
0.235508 1 0.501915
0.514229 1 0.499565
0.778592 1 0.50106
1 1 0.504097
0 0.00280766 0.693111
0.14551 0.000015259 0.675654
0.430014 0 0.670115
0.696818 0 0.66981
0.938582 0 0.671885
0 0.252354 0.716182
0.18114 0.235996 0.699657
0.464225 0.232151 0.695659
0.73051 0.232929 0.696315
0.96762 0.236088 0.699306
0 0.509896 0.727947
0.204578 0.494102 0.712077
0.486366 0.491341 0.709178
0.75227 0.49279 0.710521
0.984085 0.496239 0.713787
0 0.771069 0.735988
0.223651 0.755749 0.720562
0.503807 0.753567 0.718105
0.768963 0.755291 0.719738
0.995315 0.758694 0.722927
0 1 0.740368
0.238727 1 0.725368
0.517082 1 0.723095
0.781277 1 0.724514
1 1 0.727642
0 0.00428779 0.917647
0.148577 0.0000762951 0.900114
0.432898 0 0.894728
0.699626 0 0.894499
0.940581 0 0.896666
0 0.254185 0.94078
0.184298 0.237858 0.924331
0.466987 0.234241 0.920501
0.733272 0.235065 0.921218
0.969406 0.238239 0.924254
0 0.511833 0.95285
0.207858 0.496086 0.93698
0.48925 0.493614 0.934218
0.755032 0.495048 0.935592
0.986007 0.498436 0.938903
0 0.773053 0.960906
0.226871 0.757931 0.945602
0.50663 0.755734 0.943328
0.771634 0.757336 0.944808
0.997238 0.7608 0.948165
0 1 0.965454
0.241871 1 0.950484
0.519951 1 0.948196
0.783871 1 0.949645
1 1 0.95256
