site/assets/luts/freshluts--0000127-softskn.cube
# LUTr-Schema-Version: 2
# LUTr-ID: freshluts--0000127-softskn
# LUTr-Title: softskn
# LUTr-Collection: Fresh LUTs
# LUTr-Collection-ID: freshluts-community
# LUTr-Source: https://freshluts.com
# LUTr-Retrieved: 2026-07-27
# LUTr-Source-File: submissions-raw/freshluts/cubes/127__softskn.cube
# LUTr-Source-Format: CUBE
# LUTr-Source-SHA256: dc23960f7f68cffab1e1cd85f353c92fa8c0b4cd9eebf6106fb12e8ea7c2115d
# LUTr-License: CC0-1.0
# LUTr-License-URL: https://freshluts.com/termsandconditions
# LUTr-License-Basis: site-terms
# LUTr-Transform-Class: creative-look
# LUTr-Tags: creative, freshluts, community, cube, yellow, arri-logc3-ei800
# LUTr-Input-Color-Space: arri-logc3-ei800-awg3
# LUTr-Input-Gamut: arri-wide-gamut-3
# LUTr-Input-Transfer: arri-logc3-ei800
# LUTr-Output-Color-Space: srgb
# LUTr-Output-Gamut: rec709
# LUTr-Output-Transfer: srgb
# LUTr-Color-Space-Confidence: inferred-from-source-label
# LUTr-Domain-Normalized: true
# LUTr-Shaper: none
# LUTr-Original-Grid: 33x33x33
# LUTr-Conversion-Grid: 33x33x33
# LUTr-Conversion-Interpolation: none
# LUTr-Conversion-Method: Metadata normalization; numeric LUT samples preserved
# LUTr-Conversion-Tool: LUTr scripts/convert-all-to-cube.mjs 2.0.0
# LUTr-Conversion-Date: 2026-07-28
# LUTr-Asset-URL: https://freshluts.com/luts/127
# LUTr-Author: Remzi Bayram
# LUTr-Author-URL: https://freshluts.com/users/326
# LUTr-Attribution: Remzi Bayram via Fresh LUTs
# LUTr-Source-Labels: gamma=Arri log c; color=Yellow; key=Neutral; style=Retro
# LUTr-Note: Preserve this metadata and the upstream license notices when redistributing.
TITLE "softskn"
LUT_3D_SIZE 33
DOMAIN_MIN 0 0 0
DOMAIN_MAX 1 1 1
0 0 0
0 0 0
0 0 0
0 0 0
0 0 0
0 0 0
0 0 0
0 0 0
0 0 0
0 0 0
0 0 0
0 0 0
0 0 0
0 0 0
0.0243992 0.000503548 0.000503548
0.107713 0 0
0.207538 0 0
0.322362 0 0
0.447242 0 0
0.577813 0 0
0.714885 0 0
0.846967 0 0
0.975875 0 0
1 0 0
1 0 0
1 0 0
1 0 0
1 0 0
1 0 0
1 0 0
1 0 0
1 0 0
1 0 0
0 0 0
0 0 0
0 0 0
0 0 0
0 0 0
0 0 0
0 0 0
0 0 0
0 0 0
0 0 0
0 0 0
0.0397192 0.00328069 0.000167849
0.108812 0.00274662 0
0.197681 0 0
0.297719 0 0
0.408331 0 0
0.525963 0 0
0.647272 0 0
0.769894 0 0
0.892638 0 0
1 0 0
1 0 0
1 0 0
1 0 0
1 0 0
1 0 0
1 0 0
1 0 0
1 0 0
1 0 0
1 0 0
1 0 0
1 0 0
0 0 0
0 0 0
0 0 0
0 0 0
0 0 0
0 0 0
0 0 0
0.00448615 0.00177005 0.000793469
0.0435645 0.00967422 0
0.0971542 0.0138247 0
0.165393 0.0141146 0
0.246952 0.0108492 0
0.342672 0.00444038 0
0.44477 0 0
0.552789 0 0
0.664118 0 0
0.776059 0 0
0.886351 0 0
0.994644 0 0
1 0 0
1 0 0
1 0 0
1 0 0
1 0 0
1 0 0
1 0 0
1 0 0
1 0 0
1 0 0
1 0 0
1 0 0
1 0 0
1 0 0
0 0 0
0 0 0
0 0 0
0 0 0
0.0091249 0.00708019 0.0018616
0.0345922 0.0198215 0.000427253
0.0702678 0.0292973 0
0.118456 0.0355688 0
0.179171 0.0384527 0
0.251789 0.038117 0
0.336461 0.03505 0
0.428504 0.0294194 0
0.526696 0.0218662 0
0.628702 0.0131685 0
0.731838 0.00399786 0
0.833982 0 0
0.934661 0 0
1 0 0
1 0 0
1 0 0
1 0 0
1 0 0
1 0 0
1 0 0
1 0 0
1 0 0
1 0 0
1 0 0
1 0.000686656 0
1 0.00535592 0
1 0.00999466 0
1 0.0144808 0
1 0.0189364 0
0 0 0
0.00581369 0.0155947 0.00242618
0.0167849 0.0319371 0.000549325
0.0352483 0.0468452 0
0.0626078 0.0593576 0
0.0997482 0.0690013 0
0.148379 0.0756237 0
0.209201 0.078996 0
0.281102 0.0792248 0
0.36321 0.0770581 0
0.451835 0.0725719 0
0.5449 0.0664836 0
0.640772 0.0594339 0
0.736828 0.0521401 0
0.830625 0.045243 0
0.921401 0.0396277 0
1 0.0350958 0
1 0.0323186 0
1 0.0316625 0
1 0.0326543 0
1 0.0344549 0
1 0.0375219 0
1 0.0406806 0
1 0.0443122 0
1 0.0483253 0
1 0.0526131 0
1 0.0576333 0
1 0.0622721 0
1 0.0669261 0
1 0.0715953 0
1 0.0762188 0
1 0.0807202 0
1 0.0856641 0
0 0.0672007 0
0.00325017 0.0842145 0
0.0234684 0.0991684 0
0.0527352 0.111604 0
0.0909743 0.12108 0
0.138247 0.127962 0
0.194949 0.132265 0
0.261601 0.133898 0
0.338643 0.133394 0
0.422339 0.130129 0
0.510811 0.125307 0
0.601221 0.119646 0
0.691524 0.113741 0
0.779599 0.108598 0
0.86244 0.104433 0
0.938918 0.101534 0
1 0.0996414 0
1 0.0986801 0
1 0.0986801 0
1 0.100069 0
1 0.101946 0
1 0.104463 0
1 0.107607 0
1 0.111223 0
1 0.115221 0
1 0.120012 0
1 0.124498 0
1 0.129137 0
1 0.133776 0
1 0.138415 0
1 0.143038 0
1 0.148028 0
1 0.152468 0
0 0.14934 0
0 0.163668 0
0.00827039 0.174762 0
0.0488441 0.18352 0
0.0970626 0.190005 0
0.152667 0.194232 0
0.215549 0.196521 0
0.285328 0.197086 0
0.361089 0.195575 0
0.442176 0.192508 0
0.526497 0.188357 0
0.611078 0.18381 0
0.694514 0.17969 0
0.776242 0.17583 0
0.855131 0.172351 0
0.931182 0.169604 0
1 0.167697 0
1 0.16669 0
1 0.167056 0
1 0.168124 0
1 0.169879 0
1 0.172381 0
1 0.175509 0
1 0.17911 0
1 0.183612 0
1 0.187869 0
1 0.19234 0
1 0.196948 0
1 0.201572 0
1 0.206683 0
1 0.211337 0
1 0.215793 0
1 0.220218 0
0 0.236347 0
0 0.245808 0
0 0.253101 0
0.0333867 0.258549 0
0.0896773 0.262196 0
0.151522 0.264256 0
0.218616 0.264897 0
0.289281 0.263828 0
0.362875 0.261936 0
0.439292 0.259373 0
0.518502 0.256184 0
0.600244 0.253025 0
0.682322 0.249042 0
0.763546 0.245197 0
0.842557 0.24184 0
0.918868 0.239139 0
0.992111 0.237507 0
1 0.236789 0
1 0.236744 0
1 0.237659 0
1 0.239399 0
1 0.241871 0
1 0.245319 0
1 0.249088 0
1 0.25304 0
1 0.257282 0
1 0.261738 0
1 0.266331 0
1 0.271382 0
1 0.276097 0
1 0.280674 0
1 0.285115 0
1 0.28954 0
0 0.321218 0
0 0.326528 0
0 0.330236 0
0.016495 0.332647 0
0.0793011 0.334295 0
0.14493 0.334249 0
0.21326 0.33344 0
0.284123 0.33196 0
0.356985 0.329961 0
0.431846 0.327718 0
0.509056 0.32546 0
0.587564 0.322423 0
0.667369 0.319112 0
0.747112 0.315785 0
0.825345 0.312795 0
0.901549 0.310521 0
0.974945 0.309087 0
1 0.308141 0
1 0.308141 0
1 0.309087 0
1 0.310826 0
1 0.313588 0
1 0.31693 0
1 0.320485 0
1 0.324437 0
1 0.328664 0
1 0.333104 0
1 0.338201 0
1 0.342809 0
1 0.347417 0
1 0.35198 0
1 0.356405 0
1 0.361181 0
0 0.399313 0
0 0.400809 0
0 0.401602 0
0.00805676 0.402869 0
0.0718395 0.403281 0
0.137606 0.403174 0
0.205936 0.40235 0
0.276783 0.40087 0
0.349676 0.398917 0
0.424414 0.396994 0
0.49984 0.394476 0
0.576303 0.391821 0
0.653727 0.389059 0
0.731197 0.386328 0
0.808179 0.384405 0
0.882979 0.382361 0
0.955337 0.380911 0
1 0.380194 0
1 0.380331 0
1 0.381491 0
1 0.383673 0
1 0.386175 0
1 0.389303 0
1 0.392889 0
1 0.396841 0
1 0.401312 0
1 0.406043 0
1 0.410605 0
1 0.415198 0
1 0.419806 0
1 0.424353 0
1 0.429099 0
1 0.433692 0
0 0.469337 0
0 0.470634 0
0 0.471489 0
0 0.472221 0
0.0634318 0.472648 0
0.129183 0.472526 0
0.197528 0.471717 0
0.268894 0.470756 0
0.341741 0.468757 0
0.415976 0.466346 0
0.49099 0.463767 0
0.566369 0.461234 0
0.642145 0.458747 0
0.718135 0.456977 0
0.792554 0.455009 0
0.865492 0.453468 0
0.936446 0.452461 0
1 0.452094 0
1 0.452598 0
1 0.454261 0
1 0.456214 0
1 0.458839 0
1 0.462043 0
1 0.465675 0
1 0.469871 0
1 0.474464 0
1 0.47892 0
1 0.483497 0
1 0.488121 0
1 0.492729 0
1 0.49781 0
1 0.50222 0
1 0.506615 0
0 0.539498 0
0 0.540475 0
0 0.541253 0
0 0.541985 0
0.0540627 0.542412 0
0.119814 0.54229 0
0.188647 0.54197 0
0.259525 0.54052 0
0.332372 0.538506 0
0.406607 0.53611 0
0.481605 0.533532 0
0.556634 0.530922 0
0.632059 0.52903 0
0.706203 0.52694 0
0.778973 0.525307 0
0.850217 0.524147 0
0.919478 0.523552 0
0.986786 0.524117 0
1 0.52488 0
1 0.526421 0
1 0.528618 0
1 0.531441 0
1 0.534859 0
1 0.539117 0
1 0.543206 0
1 0.54757 0
1 0.552087 0
1 0.556725 0
1 0.561517 0
1 0.566537 0
1 0.57113 0
1 0.575936 0
1 0.581811 0
0 0.609888 0
0 0.610742 0
0 0.611521 0
0 0.612253 0
0.0438087 0.613016 0
0.109743 0.613077 0
0.178073 0.612268 0
0.248936 0.610788 0
0.321767 0.608774 0
0.396017 0.606378 0
0.471458 0.604227 0
0.546563 0.601709 0
0.62118 0.599237 0
0.694621 0.597177 0
0.766354 0.595682 0
0.836286 0.594751 0
0.904631 0.59498 0
0.970016 0.595361 0
1 0.59646 0
1 0.598321 0
1 0.600809 0
1 0.603906 0
1 0.608026 0
1 0.611994 0
1 0.616266 0
1 0.620768 0
1 0.625422 0
1 0.630304 0
1 0.636027 0
1 0.642176 0
1 0.649317 0
1 0.657557 0
1 0.667231 0
0 0.680568 0
0 0.681407 0
0 0.682185 0
0 0.683223 0
0.0324254 0.683864 0
0.0981765 0.683742 0
0.166522 0.682933 0
0.237369 0.681453 0
0.310216 0.679438 0
0.384848 0.67744 0
0.459968 0.674983 0
0.534997 0.672374 0
0.609598 0.669886 0
0.682841 0.667781 0
0.754025 0.666285 0
0.823682 0.66598 0
0.890486 0.665843 0
0.954742 0.666438 0
1 0.667781 0
1 0.669902 0
1 0.673152 0
1 0.676539 0
1 0.680385 0
1 0.684596 0
1 0.689158 0
1 0.694362 0
1 0.700893 0
1 0.707744 0
1 0.715557 0
1 0.724498 0
1 0.734752 0
1 0.746502 0
1 0.760662 0.0195621
0 0.751537 0
0 0.752377 0
0 0.753689 0
0 0.754421 0
0.0201114 0.754833 0
0.0858625 0.754726 0
0.154192 0.753918 0
0.225299 0.752682 0
0.298421 0.750942 0
0.372656 0.748547 0
0.447654 0.745968 0
0.522683 0.743358 0
0.597284 0.740871 0
0.670863 0.739101 0
0.742092 0.737743 0
0.810819 0.736889 0
0.877012 0.736797 0
0.94049 0.737499 0
1 0.738994 0
1 0.741726 0
1 0.744778 0
1 0.748379 0
1 0.752697 0
1 0.757733 0
1 0.763592 0
1 0.770947 0
1 0.778729 0
1 0.78764 0
1 0.797757 0
1 0.809262 0.03682
1 0.822278 0.108827
1 0.837659 0.192203
1 0.854002 0.279591
0 0.823041 0
0 0.824292 0
0 0.825071 0
0 0.825803 0
0.00680552 0.82623 0
0.0725567 0.826108 0
0.1411 0.825498 0
0.212268 0.824338 0
0.285115 0.822339 0
0.35935 0.819928 0
0.434348 0.817349 0
0.509377 0.81474 0
0.584283 0.812558 0
0.65774 0.810666 0
0.728786 0.809125 0
0.797421 0.80824 0
0.863325 0.808118 0
0.926268 0.808804 0
0.985718 0.810681 0
1 0.812833 0
1 0.815793 0
1 0.819654 0
1 0.824475 0
1 0.830655 0
1 0.837644 0
1 0.845609 0
1 0.854795 0.0579538
1 0.865293 0.134264
1 0.877134 0.218235
1 0.89102 0.312337
1 0.90576 0.408209
1 0.921721 0.505989
1 0.938766 0.602686
0 0.895247 0
0 0.896086 0
0 0.896864 0
0 0.897597 0
0 0.898024 0
0.058793 0.898436 0
0.127138 0.897612 0
0.197986 0.896132 0
0.270832 0.894118 0
0.345068 0.891722 0
0.420218 0.889296 0
0.495613 0.887068 0
0.570214 0.884565 0
0.643458 0.88246 0
0.714595 0.88069 0
0.783078 0.879072 0
0.847929 0.878111 0
0.907851 0.877867 0
0.961776 0.878294 0
1 0.879805 0
1 0.882383 0
1 0.886091 0
1 0.891279 0.00436408
1 0.89752 0.0778363
1 0.904845 0.158648
1 0.913466 0.246921
1 0.9234 0.341131
1 0.934661 0.439307
1 0.947662 0.541207
1 0.961395 0.638666
1 0.975906 0.728496
1 0.990921 0.806973
1 1 0.818998
0 0.967437 0
0 0.968292 0
0 0.96907 0
0 0.969818 0
0 0.970748 0
0.0435187 0.970626 0
0.111849 0.969818 0
0.182712 0.968338 0
0.255543 0.966323 0
0.3299 0.964034 0
0.405371 0.961837 0
0.481529 0.95848 0
0.558053 0.954376 0
0.633036 0.950027 0
0.704799 0.945861 0
0.772442 0.942275 0
0.834653 0.939513 0
0.890028 0.937484 0
0.938216 0.936645 0
0.978759 0.937118 0.0160372
1 0.938949 0.0929122
1 0.94255 0.181735
1 0.947204 0.274311
1 0.953292 0.372152
1 0.960815 0.472892
1 0.969802 0.572869
1 0.980392 0.671046
1 0.992172 0.759564
1 1 0.809628
1 1 0.82179
1 1 0.833921
1 1 0.845991
1 1 0.858427
0 1 0
0 1 0
0 1 0
0 1 0
0 1 0
0.0272526 1 0
0.0955825 1 0
0.167025 1 0
0.243717 1 0
0.323125 1 0
0.404288 1 0
0.485481 1 0
0.565225 1 0
0.641688 1 0
0.713756 0.996841 0
0.778912 0.990707 0
0.836927 0.985687 0.0310216
0.887114 0.98204 0.111604
0.929061 0.97998 0.200839
0.96289 0.97969 0.29836
0.989075 0.981292 0.402457
1 0.984619 0.50518
1 0.989807 0.606271
1 0.996841 0.701091
1 1 0.785031
1 1 0.810834
1 1 0.823438
1 1 0.835737
1 1 0.84802
1 1 0.860258
1 1 0.872465
1 1 0.884962
1 1 0.897276
0 1 0
0 1 0
0 1 0
0 1 0
0 1 0
0.0184329 1 0
0.0961471 1 0
0.179858 1 0
0.265888 1 0
0.353552 1 0
0.441077 1 0
0.526574 1 0
0.608454 1 0
0.685969 1 0.0523079
0.755123 1 0.136019
0.816312 1 0.228168
0.868879 1 0.327108
0.912627 1 0.430243
0.948013 1 0.534707
0.976074 1 0.638911
0.997452 1 0.731472
1 1 0.798733
1 1 0.811109
1 1 0.823499
1 1 0.836439
1 1 0.848844
1 1 0.86125
1 1 0.87364
1 1 0.886015
1 1 0.898528
1 1 0.911162
1 1 0.9234
1 1 0.935607
0 1 0
0 1 0
0 1 0
0 1 0
0 1 0
0.0602579 1 0
0.153429 1 0
0.248203 1 0
0.344213 1 0
0.439414 1 0
0.531807 1 0.0736248
0.620996 1 0.164355
0.701839 1 0.259724
0.774182 1 0.360937
0.836973 1 0.465446
0.889769 1 0.569146
0.932937 1 0.668574
0.968017 1 0.761227
0.991913 1 0.799069
1 1 0.811154
1 1 0.823346
1 1 0.835645
1 1 0.848081
1 1 0.86099
1 1 0.873472
1 1 0.885985
1 1 0.898466
1 1 0.910948
1 1 0.923552
1 1 0.936339
1 1 0.94873
1 1 0.961059
1 1 0.973358
0 1 0
0 1 0
0 1 0
0 1 0
0.0744182 1 0
0.178653 1 0
0.284108 1 0.0133364
0.389654 1 0.0971389
0.492805 1 0.189136
0.591028 1 0.28806
0.68394 1 0.39559
0.765286 1 0.501305
0.835691 1 0.605219
0.894072 1 0.702068
0.940551 1 0.78703
0.963073 1 0.799146
0.98555 1 0.811383
1 1 0.823209
1 1 0.835172
1 1 0.847257
1 1 0.859449
1 1 0.871763
1 1 0.884657
1 1 0.897093
1 1 0.90959
1 1 0.922118
1 1 0.934661
1 1 0.947753
1 1 0.960296
1 1 0.972808
1 1 0.985275
1 1 0.997696
1 1 1
0 1 0
0 1 0
0.032517 1 0
0.150668 1 0.0247654
0.269139 1 0.116838
0.385351 1 0.21503
0.498268 1 0.318959
0.605066 1 0.426352
0.702342 1 0.533333
0.790494 1 0.640711
0.861814 1 0.734539
0.906645 1 0.788418
0.929961 1 0.799771
0.953063 1 0.811185
0.976242 1 0.823087
0.998749 1 0.834806
1 1 0.846525
1 1 0.858351
1 1 0.870314
1 1 0.882399
1 1 0.895094
1 1 0.907423
1 1 0.919799
1 1 0.932235
1 1 0.944732
1 1 0.957259
1 1 0.970336
1 1 0.98291
1 1 0.995483
1 1 1
1 1 1
1 1 1
1 1 1
0.0343023 1 0.0343023
0.1682 1 0.13228
0.30219 1 0.239322
0.429129 1 0.348547
0.549081 1 0.45948
0.65922 1 0.568536
0.756329 1 0.671107
0.838575 1 0.763546
0.871122 1 0.788861
0.894377 1 0.800229
0.917769 1 0.811566
0.941161 1 0.822919
0.964462 1 0.834272
0.98793 1 0.846036
1 1 0.857725
1 1 0.869307
1 1 0.881025
1 1 0.892851
1 1 0.904814
1 1 0.917357
1 1 0.929625
1 1 0.941924
1 1 0.954299
1 1 0.966735
1 1 0.979232
1 1 0.992279
1 1 1
1 1 1
1 1 1
1 1 1
1 1 1
1 1 1
1 1 1
0.376165 1 0.376165
0.513252 1 0.493004
0.635157 1 0.60322
0.740459 1 0.704021
0.814984 1 0.776486
0.836927 1 0.788205
0.859464 1 0.800031
0.882521 1 0.811856
0.905562 1 0.823285
0.928817 1 0.834653
0.952193 1 0.846006
0.975586 1 0.857343
0.99942 1 0.86923
1 1 0.880644
1 1 0.892149
1 1 0.903746
1 1 0.915465
1 1 0.927596
1 1 0.939773
1 1 0.951858
1 1 0.96405
1 1 0.976349
1 1 0.988739
1 1 1
1 1 1
1 1 1
1 1 1
1 1 1
1 1 1
1 1 1
1 1 1
1 1 1
1 1 1
0.736141 1 0.736141
0.785336 1 0.775814
0.806745 1 0.787671
0.828168 1 0.799512
0.849867 1 0.811383
0.872267 1 0.82356
0.894591 1 0.835157
0.917327 1 0.846677
0.940368 1 0.858106
0.963638 1 0.869474
0.987182 1 0.88098
1 1 0.892699
1 1 0.904051
1 1 0.915465
1 1 0.92697
1 1 0.938567
1 1 0.95053
1 1 0.962631
1 1 0.974594
1 1 0.986679
1 1 0.998871
1 1 1
1 1 1
1 1 1
1 1 1
1 1 1
1 1 1
1 1 1
1 1 1
1 1 1
1 1 1
1 1 1
1 1 1
0.799069 1 0.799069
0.820432 1 0.810925
0.84184 1 0.822766
0.863294 1 0.834638
0.88542 1 0.846937
0.907362 1 0.858656
0.929702 1 0.870253
0.952422 1 0.881773
0.975479 1 0.893202
0.998856 1 0.904692
1 1 0.916442
1 1 0.927794
1 1 0.939147
1 1 0.950561
1 1 0.962066
1 1 0.974182
1 1 0.985901
1 1 0.997726
1 1 1
1 1 1
1 1 1
1 1 1
1 1 1
1 1 1
1 1 1
1 1 1
1 1 1
1 1 1
1 1 1
1 1 1
1 1 1
1 1 1
1 1 1
0.83418 1 0.83418
0.855543 1 0.846021
0.877455 1 0.858381
0.898909 1 0.870237
0.920531 1 0.882048
0.942473 1 0.893751
0.964797 1 0.905364
0.987533 1 0.916884
1 1 0.928832
