site/assets/luts/freshluts--0000131-short-film.cube
# LUTr-Schema-Version: 2
# LUTr-ID: freshluts--0000131-short-film
# LUTr-Title: Short Film
# LUTr-Collection: Fresh LUTs
# LUTr-Collection-ID: freshluts-community
# LUTr-Source: https://freshluts.com
# LUTr-Retrieved: 2026-07-27
# LUTr-Source-File: submissions-raw/freshluts/cubes/131__ShortFilm_Log_V1_CatPlectre.cube
# LUTr-Source-Format: CUBE
# LUTr-Source-SHA256: e1da04bb1c796235ac9bc1c65ba0b133331669ba2f98f928b432002ac32487cd
# LUTr-License: CC0-1.0
# LUTr-License-URL: https://freshluts.com/termsandconditions
# LUTr-License-Basis: site-terms
# LUTr-Transform-Class: creative-look
# LUTr-Tags: creative, freshluts, community, cube, warm, bmd-film, cinematic
# LUTr-Input-Color-Space: bmd-film
# LUTr-Input-Gamut: bmd-film-gamut
# LUTr-Input-Transfer: bmd-film
# LUTr-Output-Color-Space: srgb
# LUTr-Output-Gamut: rec709
# LUTr-Output-Transfer: srgb
# LUTr-Color-Space-Confidence: inferred-from-source-label
# LUTr-Domain-Normalized: true
# LUTr-Shaper: none
# LUTr-Original-Grid: 33x33x33
# LUTr-Conversion-Grid: 33x33x33
# LUTr-Conversion-Interpolation: none
# LUTr-Conversion-Method: Metadata normalization; numeric LUT samples preserved
# LUTr-Conversion-Tool: LUTr scripts/convert-all-to-cube.mjs 2.0.0
# LUTr-Conversion-Date: 2026-07-28
# LUTr-Asset-URL: https://freshluts.com/luts/131
# LUTr-Author: Steel Tone
# LUTr-Author-URL: https://freshluts.com/users/816
# LUTr-Attribution: Steel Tone via Fresh LUTs
# LUTr-Source-Labels: gamma=Blackmagic BMD Film; color=Warm; key=Neutral; style=Retro
# LUTr-Note: Preserve this metadata and the upstream license notices when redistributing.
TITLE "Short Film"
LUT_3D_SIZE 5
DOMAIN_MIN 0 0 0
DOMAIN_MAX 1 1 1
0.0217136 0.0214237 0.0230259
0.176822 0.0137331 0.0177462
0.507225 0 0
1 0 0
1 0 0
0 0.241978 0
0.306676 0.218906 0
0.650278 0.184375 0
1 0.148302 0
1 0.112505 0
0 0.517174 0
0.124681 0.523171 0
0.642954 0.454887 0
1 0.412848 0
1 0.392538 0
0 0.80116 0
0.00851453 0.815641 0
0.48658 0.756863 0
0.975982 0.6878 0
1 0.641825 0
0 1 0
0 1 0
0.310155 1 0
0.848127 1 0
1 0.943603 0.128222
0.00123598 0.0271305 0.133501
0.165713 0.00695811 0.264012
0.569177 0 0.318166
1 0 0.269505
1 0 0.211917
0 0.26978 0.188785
0.229038 0.229862 0.239597
0.615808 0.187671 0.198657
1 0.146761 0.16051
1 0.11078 0.127245
0 0.538186 0.0777295
0.109789 0.516365 0.11487
0.585641 0.467887 0.0687877
0.947646 0.432105 0.100572
1 0.406119 0.0641031
0 0.827924 0
0.0327153 0.795438 0.0363928
0.407385 0.76849 0
0.913283 0.700069 0
1 0.659724 0.0679179
0 1 0
0 1 0
0.251194 1 0
0.791363 1 0.00787366
1 0.954452 0.423346
0 0.031632 0.319173
0.239948 0 0.53608
0.483513 0 0.819928
1 0 0.967987
1 0 0.851881
0 0.283223 0.632578
0.117601 0.236652 0.691936
0.546426 0.192584 0.766461
1 0.116655 0.770153
1 0.078584 0.659602
0 0.569894 0.389013
0.00726329 0.548318 0.440421
0.476081 0.479225 0.48957
0.882414 0.4374 0.449638
1 0.401907 0.416815
0 0.8365 0.296254
0 0.814054 0.333181
0.355322 0.755871 0.362615
0.827344 0.711986 0.315847
1 0.681666 0.342885
0 1 0.179858
0 1 0.208942
0.26363 1 0.269368
0.721065 1 0.293812
1 0.96553 0.668132
0 0.0350042 0.566125
0.175891 0 0.910063
0.701122 0 1
0.849714 0 1
1 0 1
0 0.290242 1
0.0100099 0.240986 1
0.684489 0.122301 1
0.870909 0.145922 1
1 0.0724498 1
0 0.587091 0.833112
0 0.559899 0.898756
0.358434 0.487449 0.964813
0.821332 0.456794 1
1 0.380011 1
0 0.877287 0.594583
0 0.847608 0.641016
0.254154 0.792859 0.688426
0.718853 0.723949 0.734905
1 0.689113 0.702327
0 1 0.512749
0 1 0.555383
0.187625 1 0.599573
0.669215 1 0.676997
1 0.976471 0.879561
0 0.0373999 0.869657
0.0802167 0 1
0.755138 0 1
1 0 1
1 0 1
0 0.295933 1
0 0.244816 1
0.595209 0.111406 1
1 0.0739452 1
1 0.107454 1
0 0.597162 1
0 0.566674 1
0.253452 0.495232 1
0.954955 0.383322 1
1 0.415015 1
0 0.896117 1
0 0.862333 1
0.124697 0.805676 1
0.603723 0.73373 1
1 0.723995 1
0 1 0.796185
0 1 0.85153
0.12961 1 0.911223
0.705348 1 0.952728
0.987366 0.988174 0.989471
