site/assets/luts/freshluts--0000197-glut007.cube
# LUTr-Schema-Version: 2
# LUTr-ID: freshluts--0000197-glut007
# LUTr-Title: gLUT007
# LUTr-Collection: Fresh LUTs
# LUTr-Collection-ID: freshluts-community
# LUTr-Source: https://freshluts.com
# LUTr-Retrieved: 2026-07-27
# LUTr-Source-File: submissions-raw/freshluts/cubes/197__town.cube
# LUTr-Source-Format: CUBE
# LUTr-Source-SHA256: a69d53786227eb8bd240e35707551aa2ca1febeb705edfcdcc89d70637dcc473
# LUTr-License: CC0-1.0
# LUTr-License-URL: https://freshluts.com/termsandconditions
# LUTr-License-Basis: site-terms
# LUTr-Transform-Class: creative-look
# LUTr-Tags: creative, freshluts, community, cube, brown, low-key, red-logfilm
# LUTr-Input-Color-Space: red-logfilm-rwg
# LUTr-Input-Gamut: red-wide-gamut-rgb
# LUTr-Input-Transfer: red-logfilm
# LUTr-Output-Color-Space: srgb
# LUTr-Output-Gamut: rec709
# LUTr-Output-Transfer: srgb
# LUTr-Color-Space-Confidence: inferred-from-source-label
# LUTr-Domain-Normalized: true
# LUTr-Shaper: none
# LUTr-Original-Grid: 33x33x33
# LUTr-Conversion-Grid: 33x33x33
# LUTr-Conversion-Interpolation: none
# LUTr-Conversion-Method: Metadata normalization; numeric LUT samples preserved
# LUTr-Conversion-Tool: LUTr scripts/convert-all-to-cube.mjs 2.0.0
# LUTr-Conversion-Date: 2026-07-28
# LUTr-Asset-URL: https://freshluts.com/luts/197
# LUTr-Author: directorgodfrey_M
# LUTr-Author-URL: https://freshluts.com/users/1455
# LUTr-Attribution: directorgodfrey_M via Fresh LUTs
# LUTr-Source-Labels: gamma=RED Log Film; color=Brown; key=Low Key; style=Hipster
# LUTr-Note: Preserve this metadata and the upstream license notices when redistributing.
TITLE "gLUT007"
LUT_3D_SIZE 9
DOMAIN_MIN 0 0 0
DOMAIN_MAX 1 1 1
0.00482185 0.00965896 0.0257877
0.156909 0.0330816 0.0127718
0.426703 0.102693 0.00512703
0.674617 0.163928 0.0193027
0.825803 0.163958 0.0216983
0.907179 0.29601 0.0360571
0.937102 0.35819 0.0849165
0.942107 0.359701 0.0926223
0.946288 0.355886 0.0938735
0 0.134066 0.10341
0.0947738 0.124895 0.0679789
0.396857 0.162783 0.0266575
0.661585 0.189807 0.0199741
0.82005 0.17116 0.0209049
0.908644 0.285832 0.0281224
0.935851 0.354559 0.0751812
0.939788 0.356954 0.0883803
0.942382 0.355428 0.0911879
0.0115358 0.296361 0.191577
0.0100404 0.297612 0.191959
0.286992 0.288243 0.0950179
0.628107 0.325216 0.0495766
0.786297 0.290227 0
0.903853 0.210498 0
0.92018 0.350668 0.0436561
0.928481 0.353857 0.0603037
0.933318 0.351202 0.0623636
0 0.496025 0.363134
0 0.496666 0.362753
0 0.496269 0.362295
0.58175 0.52221 0.136675
0.798215 0.500603 0.037995
0.889632 0.411688 0.0146944
0.890806 0.390616 0.0116732
0.891478 0.386221 0.0101015
0.894362 0.382818 0.00840772
0 0.618738 0.509026
0 0.619501 0.509239
0 0.619303 0.508965
0.215412 0.617121 0.333577
0.766888 0.720882 0.330068
0.939147 0.687236 0.114122
0.964111 0.654185 0.0838483
0.963333 0.651728 0.0829175
0.964782 0.649165 0.0812085
0 0.781781 0.717342
0 0.784283 0.719219
0 0.784161 0.719112
0 0.783627 0.718639
0.100633 0.760204 0.615167
0.928222 0.936217 0.697154
0.999207 0.92285 0.665766
0.999313 0.921447 0.662699
1 0.91931 0.653895
0 0.81944 0.751019
0 0.821988 0.752956
0 0.821988 0.752956
0 0.821988 0.752956
0 0.793698 0.715007
0.700603 0.976532 0.750896
0.989044 0.995453 0.832395
0.995285 0.995254 0.831632
0.995529 0.994995 0.827176
0 0.81944 0.751019
0 0.821988 0.752956
0 0.821988 0.752956
0 0.821988 0.752956
0 0.793759 0.71751
0.614649 0.967498 0.759854
0.982071 0.996948 0.832654
0.995285 0.995254 0.831632
0.995529 0.994995 0.827176
0 0.81944 0.751019
0 0.821988 0.752956
0 0.821988 0.752956
0 0.821988 0.752956
0 0.794171 0.718944
0.58468 0.964324 0.762921
0.980087 0.997269 0.830762
0.995285 0.995254 0.831632
0.995529 0.994995 0.827176
0.0392157 0.0146487 0.0596475
0.230777 0.0283207 0.0531624
0.516411 0.0750439 0.0496529
0.722484 0.112459 0.0720531
0.846952 0.122103 0.0783856
0.928618 0.310613 0.091722
0.965103 0.357259 0.0985428
0.96643 0.359014 0.0993362
0.969543 0.354757 0.0997482
0 0.116381 0.145876
0.0991684 0.104265 0.116045
0.376272 0.143923 0.0826886
0.701854 0.142367 0.062501
0.845045 0.124575 0.0741283
0.926665 0.30753 0.0901045
0.964431 0.355306 0.0979019
0.965805 0.357031 0.0988174
0.967758 0.354849 0.0991379
0 0.294072 0.256703
0 0.295399 0.258457
0.267445 0.271534 0.139879
0.61677 0.308812 0.123369
0.782559 0.272694 0.0425574
0.936385 0.181903 0.0133059
0.955413 0.359976 0.0956588
0.959014 0.359777 0.096788
0.96231 0.355489 0.0971542
0 0.494972 0.361883
0 0.495598 0.361517
0 0.49514 0.360998
0.580789 0.520668 0.136263
0.797711 0.499138 0.0377813
0.890013 0.407492 0.0130312
0.895369 0.364797 0.00207523
0.897276 0.355428 0
0.899992 0.351339 0
0 0.617853 0.50837
0 0.619058 0.508675
0 0.618936 0.508598
0.214633 0.616144 0.333547
0.766659 0.720058 0.328481
0.938643 0.686259 0.113558
0.963912 0.653178 0.0834669
0.962951 0.650568 0.0823682
0.964385 0.647974 0.0806744
0 0.781582 0.717189
0 0.784039 0.719005
0 0.783948 0.718914
0 0.783413 0.718441
0.10164 0.760189 0.614374
0.928161 0.935821 0.696132
0.999252 0.922316 0.664561
0.999329 0.920867 0.661326
1 0.918822 0.652796
0 0.81944 0.751019
0 0.821988 0.752956
0 0.821988 0.752956
0 0.821988 0.752956
0 0.793683 0.715023
0.699397 0.976425 0.751049
0.988952 0.995468 0.832395
0.995285 0.995254 0.831632
0.995529 0.994995 0.827176
0 0.81944 0.751019
0 0.821988 0.752956
0 0.821988 0.752956
0 0.821988 0.752956
0 0.793744 0.717525
0.613672 0.967407 0.759976
0.981994 0.996963 0.832654
0.995285 0.995254 0.831632
0.995529 0.994995 0.827176
0 0.81944 0.751019
0 0.821988 0.752956
0 0.821988 0.752956
0 0.821988 0.752956
0 0.794202 0.71902
0.583505 0.964202 0.763027
0.97998 0.997284 0.830793
0.995285 0.995254 0.831632
0.995529 0.994995 0.827176
0.148089 0.0267796 0.109102
0.322774 0.0245975 0.0998703
0.572961 0.0295262 0.0978103
0.744747 0.0508431 0.142321
0.85951 0.0505379 0.141192
0.957443 0.305287 0.169894
0.986191 0.360891 0.197528
0.985473 0.363775 0.204868
0.988403 0.359121 0.200717
0.0890822 0.0593423 0.138674
0.230991 0.0442817 0.12047
0.553094 0.0387274 0.0969863
0.742885 0.0512551 0.1402
0.858915 0.0507515 0.139681
0.957473 0.300679 0.164706
0.987198 0.35819 0.191821
0.986435 0.361059 0.198947
0.987961 0.35877 0.197604
0.0230869 0.284321 0.323247
0.0221103 0.285634 0.325139
0.260304 0.247761 0.246693
0.608927 0.276738 0.187655
0.817105 0.202243 0.0750439
0.951583 0.296361 0.154925
0.983078 0.362219 0.18703
0.983764 0.362615 0.192355
0.986725 0.357977 0.18822
0 0.501549 0.469993
0 0.502602 0.47097
0 0.502159 0.47126
0.512184 0.489845 0.296284
0.796246 0.460472 0.169345
0.893248 0.371023 0.0476539
0.892485 0.360372 0.0404669
0.892393 0.358907 0.037995
0.894087 0.357427 0.036347
0 0.616159 0.50663
0 0.617746 0.507134
0 0.617548 0.506844
0.211933 0.613001 0.334157
0.765698 0.717296 0.322866
0.936843 0.682643 0.111315
0.962615 0.649714 0.0819409
0.961563 0.646967 0.080705
0.963073 0.644556 0.0791791
0 0.780987 0.716625
0 0.783276 0.718318
0 0.783169 0.718227
0 0.782635 0.717754
0.104295 0.759991 0.611811
0.928145 0.934539 0.692515
0.999313 0.920363 0.660227
0.999344 0.919051 0.657221
1 0.917006 0.648539
0 0.81944 0.751019
0 0.821988 0.752956
0 0.821988 0.752956
0 0.821988 0.752956
0 0.793667 0.715068
0.696757 0.976226 0.751553
0.988739 0.995499 0.832395
0.995285 0.995254 0.831632
0.995529 0.994995 0.827176
0 0.81944 0.751019
0 0.821988 0.752956
0 0.821988 0.752956
0 0.821988 0.752956
0 0.793759 0.717647
0.609171 0.966949 0.760464
0.981781 0.997009 0.83267
0.995285 0.995254 0.831632
0.995529 0.994995 0.827176
0 0.81944 0.751019
0 0.821988 0.752956
0 0.821988 0.752956
0 0.821988 0.752956
0 0.794247 0.719219
0.579019 0.963729 0.763439
0.979675 0.99736 0.830793
0.995285 0.995254 0.831632
0.995529 0.994995 0.827176
0.32311 0.0457313 0.191241
0.32903 0.0443122 0.19408
0.628412 0.0105287 0.187564
0.762936 0.043183 0.229679
0.861143 0.0465705 0.229694
0.968734 0.331762 0.327688
0.998459 0.392203 0.353658
0.996963 0.395224 0.356985
1 0.389731 0.352193
0.325185 0.0451514 0.192401
0.328145 0.0444343 0.193774
0.620127 0.00985733 0.186343
0.761776 0.0431373 0.229129
0.860685 0.0465858 0.229557
0.968673 0.328908 0.325765
0.998444 0.392142 0.353063
0.996963 0.395163 0.356558
1 0.389654 0.351614
0.249226 0.082475 0.212406
0.262882 0.0780346 0.212116
0.569574 0.0204623 0.181964
0.757656 0.0423896 0.226627
0.858091 0.0468147 0.228717
0.96527 0.324071 0.322744
0.996826 0.394369 0.354101
0.996918 0.394614 0.354742
0.999924 0.389151 0.34995
0.116564 0.510826 0.548302
0.114916 0.511086 0.548852
0.114946 0.510521 0.548455
0.526177 0.464683 0.432761
0.802182 0.429694 0.258961
0.891737 0.370321 0.0573129
0.895247 0.343542 0.0398718
0.89601 0.337316 0.0380407
0.897765 0.334127 0.0367285
0 0.619043 0.624674
0 0.620417 0.626154
0 0.620203 0.626047
0.207218 0.608042 0.568414
0.720729 0.709453 0.532128
0.951202 0.661067 0.346654
0.994736 0.622156 0.188144
0.993393 0.619898 0.188022
0.995361 0.616312 0.178607
0 0.763241 0.737118
0 0.767224 0.740536
0 0.766918 0.740322
0 0.765484 0.73933
0.119783 0.772763 0.669322
0.913878 0.92462 0.732631
0.995926 0.911238 0.686198
0.995956 0.910063 0.684199
0.997162 0.908186 0.676402
0 0.81944 0.751019
0 0.821988 0.752956
0 0.821988 0.752956
0 0.821988 0.752956
0 0.790051 0.709239
0.704799 0.971557 0.738705
0.984985 0.990906 0.822675
0.992721 0.990051 0.821317
0.993011 0.989792 0.816754
0 0.81944 0.751019
0 0.821988 0.752956
0 0.821988 0.752956
0 0.821988 0.752956
0 0.794095 0.718654
0.589395 0.964843 0.762448
0.980468 0.997253 0.8327
0.995285 0.995254 0.831632
0.995529 0.994995 0.827176
0 0.81944 0.751019
0 0.821988 0.752956
0 0.821988 0.752956
0 0.821988 0.752956
0 0.794858 0.72076
0.555123 0.961151 0.765545
0.978317 0.99762 0.830762
0.995285 0.995254 0.831632
0.995529 0.994995 0.827176
0.531807 0.0309758 0.309209
0.538567 0.0299229 0.313634
0.617884 0 0.304143
0.785046 0.0212558 0.318654
0.866423 0.0266423 0.315938
0.97763 0.361395 0.454353
1 0.435492 0.489281
1 0.43856 0.491737
1 0.432746 0.487892
0.53135 0.0310521 0.308904
0.538033 0.0300145 0.313237
0.589578 0.00531014 0.308217
0.784222 0.0211185 0.318196
0.865873 0.026627 0.315908
0.976745 0.359365 0.453208
1 0.435462 0.489067
1 0.438499 0.491402
1 0.4327 0.487556
0.529824 0.0312963 0.307988
0.53666 0.0301518 0.312367
0.536812 0.0301518 0.312505
0.781903 0.0209659 0.317189
0.863493 0.027039 0.315328
0.974258 0.353597 0.449866
1 0.437766 0.490028
1 0.437812 0.490394
1 0.43241 0.486809
0.132097 0.482185 0.547906
0.129152 0.482506 0.549126
0.128939 0.481361 0.548333
0.656367 0.355627 0.454795
0.82919 0.280034 0.34229
0.94905 0.143191 0.175113
0.962509 0.101091 0.155993
0.964691 0.0874342 0.16025
0.967239 0.0823072 0.161196
0.129992 0.641443 0.68188
0.125032 0.640986 0.682261
0.125399 0.640848 0.682155
0.127443 0.640558 0.682002
0.744167 0.684123 0.609354
0.928435 0.654627 0.440467
0.9738 0.619821 0.286015
0.973251 0.616297 0.284871
0.975875 0.613565 0.277348
0 0.735515 0.739757
0 0.738079 0.742229
0 0.737865 0.742061
0 0.736416 0.741039
0.184009 0.799191 0.737758
0.910857 0.91957 0.778927
1 0.906203 0.72285
1 0.904982 0.720913
1 0.903334 0.714427
0 0.816083 0.793774
0 0.818738 0.796674
0 0.818738 0.796689
0 0.818738 0.79678
0 0.788235 0.74464
0.686656 0.979644 0.833738
0.985733 1 0.868086
0.997589 1 0.867384
0.997833 1 0.864469
0 0.816052 0.792828
0 0.818692 0.795697
0 0.818692 0.795712
0 0.818692 0.795773
0 0.7897 0.749599
0.612482 0.970977 0.836118
0.978531 1 0.867857
0.997375 1 0.866377
0.99762 0.999939 0.863462
0 0.816037 0.792569
0 0.818677 0.795422
0 0.818677 0.795438
0 0.818692 0.795529
0 0.792432 0.754681
0.586358 0.967834 0.836515
0.975937 1 0.865034
0.997299 1 0.866056
0.997559 0.999832 0.863142
0.719448 0 0.412161
0.724056 0 0.418509
0.724056 0 0.418509
0.837812 0 0.491814
0.90132 0.0424048 0.512474
0.994079 0.425101 0.621759
1 0.514946 0.660349
1 0.518349 0.661875
1 0.512306 0.659907
0.719265 0 0.412131
0.723873 0 0.418479
0.723873 0 0.418479
0.837217 0 0.491234
0.900755 0.041886 0.51194
0.993347 0.423362 0.620829
1 0.514733 0.660151
1 0.518105 0.661524
1 0.512078 0.659693
0.718685 0 0.411902
0.723201 0 0.418235
0.723293 0 0.418357
0.835203 0 0.489143
0.899214 0.0401923 0.510292
0.991333 0.416999 0.617517
1 0.514855 0.659388
1 0.515129 0.659892
1 0.511543 0.658701
0.714794 0 0.410422
0.719921 0 0.416602
0.719982 0 0.416617
0.822339 0 0.47042
0.885893 0.0328222 0.499336
0.979156 0.39205 0.602014
1 0.514733 0.655955
1 0.514992 0.656443
1 0.508995 0.654521
0.225086 0.672282 0.736721
0.221576 0.67126 0.736767
0.221912 0.671077 0.736629
0.223102 0.67071 0.736492
0.835401 0.570413 0.684977
0.917815 0.501534 0.543862
0.952728 0.447486 0.483406
0.951675 0.443549 0.481682
0.953841 0.437858 0.477958
0.0527504 0.733211 0.778347
0.0493019 0.732067 0.77789
0.0498054 0.732067 0.77792
0.0520485 0.732464 0.778485
0.419409 0.83772 0.844221
0.914702 0.896925 0.830182
1 0.892287 0.772717
1 0.890745 0.77113
1 0.88925 0.766873
0 0.810437 0.819471
0 0.812345 0.822065
0 0.812238 0.822003
0 0.811643 0.821744
0 0.778225 0.776562
0.735515 0.981353 0.900282
0.983734 0.995117 0.902602
1 0.994507 0.900984
1 0.994034 0.898985
0 0.813382 0.820279
0 0.815427 0.822919
0 0.815412 0.822934
0 0.815381 0.822995
0 0.810956 0.816617
0.656916 0.980087 0.904799
0.977295 1 0.909346
1 1 0.909056
1 1 0.907317
0 0.813458 0.820142
0 0.815503 0.822812
0 0.815503 0.822828
0 0.815457 0.822858
0 0.814588 0.821897
0.636225 0.977554 0.904204
0.97438 1 0.908583
1 1 0.908934
1 1 0.906981
0.811734 0 0.455161
0.816205 0 0.461112
0.816251 0 0.461219
0.867994 0.0140993 0.537484
0.963378 0.0788586 0.646616
1 0.503731 0.753658
1 0.59791 0.780957
1 0.600748 0.780865
1 0.594934 0.780987
0.811658 0 0.455024
0.816129 0 0.460975
0.816159 0 0.461082
0.867384 0.0132296 0.536522
0.9626 0.0784619 0.645762
1 0.502373 0.753292
1 0.59791 0.780957
1 0.600748 0.780865
1 0.594934 0.780987
0.813535 0 0.457374
0.815793 0 0.460319
0.815839 0 0.460441
0.865232 0.010193 0.533211
0.960174 0.0772259 0.64303
1 0.497154 0.750942
1 0.600748 0.780865
1 0.600748 0.780865
1 0.594934 0.780987
0.809903 0 0.451713
0.814359 0 0.457664
0.814389 0 0.457771
0.849928 0 0.510781
0.947814 0.0708324 0.629221
1 0.473243 0.740093
1 0.598321 0.777325
1 0.59852 0.777722
1 0.592569 0.777737
0.369879 0.752621 0.857755
0.362676 0.751888 0.858671
0.363348 0.751827 0.858686
0.368246 0.751171 0.858946
0.89221 0.426764 0.738842
0.917845 0.32459 0.567742
0.929717 0.25539 0.496666
0.93048 0.246555 0.494072
0.933745 0.239643 0.493187
0.113664 0.783963 0.842695
0.111238 0.782071 0.841611
0.111223 0.782071 0.841657
0.111315 0.782147 0.841932
0.498863 0.850172 0.887724
0.938842 0.86659 0.85185
1 0.834592 0.796872
1 0.832135 0.795285
1 0.829602 0.793149
0 0.787747 0.829801
0 0.788357 0.831006
0 0.788266 0.830945
0 0.787686 0.83064
0.13933 0.845075 0.878492
0.816663 0.970718 0.947036
0.988556 0.978821 0.925429
1 0.978927 0.917967
1 0.978134 0.916869
0 0.804334 0.839658
0 0.805341 0.841581
0 0.805341 0.841581
0 0.80531 0.841642
0 0.805249 0.841794
0.749706 0.989395 0.959213
0.9729 1 0.936553
1 1 0.939178
1 1 0.937789
0 0.804395 0.839414
0 0.805417 0.841321
0 0.805402 0.841352
0 0.805386 0.841428
0 0.805341 0.841581
0.738964 0.987976 0.958801
0.969345 1 0.93695
1 1 0.939925
1 1 0.938109
0.812757 0 0.457115
0.817365 0 0.462928
0.817365 0 0.462928
0.866514 0.0119936 0.53518
0.961975 0.0781262 0.645075
1 0.498558 0.752056
1 0.59791 0.780957
1 0.600748 0.780865
1 0.594934 0.780987
0.812757 0 0.457115
0.817365 0 0.462928
0.817365 0 0.462928
0.865858 0.0110781 0.534188
0.961303 0.0778058 0.644297
1 0.49723 0.75169
1 0.59791 0.780957
1 0.600748 0.780865
1 0.594934 0.780987
0.812757 0 0.457115
0.817365 0 0.462928
0.817365 0 0.462928
0.863767 0.00814832 0.530999
0.959411 0.0768444 0.642176
1 0.493416 0.750698
1 0.600748 0.780865
1 0.600748 0.780865
1 0.594934 0.780987
0.812757 0 0.457115
0.817365 0 0.462928
0.817365 0 0.462928
0.847578 0 0.507515
0.949554 0.0717327 0.631174
1 0.472923 0.744121
1 0.600748 0.780865
1 0.600748 0.780865
1 0.594934 0.780987
0.453712 0.758083 0.874464
0.446937 0.757275 0.875959
0.447883 0.757168 0.875959
0.452842 0.756161 0.875776
0.896529 0.384604 0.738903
0.923445 0.251774 0.564385
0.935241 0.198581 0.492622
0.935393 0.19704 0.49247
0.938293 0.192172 0.492287
0.118578 0.799481 0.862028
0.118715 0.796887 0.860548
0.118715 0.796841 0.860533
0.118486 0.796475 0.860349
0.584634 0.857908 0.904631
0.947326 0.854154 0.855146
1 0.813031 0.798627
1 0.809873 0.796002
1 0.807034 0.794308
0.0740673 0.840696 0.885176
0.0697032 0.839246 0.884413
0.0702831 0.839384 0.884596
0.0730144 0.840024 0.885435
0.125048 0.854536 0.896468
0.808118 0.968032 0.953964
0.992172 0.973404 0.930251
1 0.969833 0.922789
1 0.969207 0.922255
0 0.802792 0.846204
0 0.803494 0.84773
0 0.803494 0.84773
0 0.803494 0.847791
0 0.803281 0.847807
0.778561 0.987823 0.970108
0.979049 0.996918 0.949737
1 1 0.945266
1 1 0.943572
0 0.802823 0.846006
0 0.803555 0.847562
0 0.80354 0.847578
0 0.803525 0.847608
0 0.803494 0.847745
0.767468 0.98996 0.971298
0.972595 1 0.953826
1 1 0.949264
1 1 0.947311
0.812757 0 0.457115
0.817365 0 0.462928
0.817365 0 0.462928
0.865812 0.011017 0.534096
0.961288 0.0777905 0.644297
1 0.497185 0.75169
1 0.59791 0.780957
1 0.600748 0.780865
1 0.594934 0.780987
0.812757 0 0.457115
0.817365 0 0.462928
0.817365 0 0.462928
0.865232 0.010193 0.533227
0.960693 0.0774853 0.643626
1 0.498863 0.750698
1 0.59791 0.780957
1 0.600748 0.780865
1 0.594934 0.780987
0.812757 0 0.457115
0.817365 0 0.462928
0.817365 0 0.462928
0.863035 0.00714122 0.5299
0.95874 0.0764782 0.641443
1 0.492271 0.750301
1 0.600748 0.780865
1 0.600748 0.780865
1 0.594934 0.780987
0.812757 0 0.457115
0.817365 0 0.462928
0.817365 0 0.462928
0.846006 0 0.505287
0.948821 0.0713664 0.630335
1 0.471611 0.743618
1 0.600748 0.780865
1 0.600748 0.780865
1 0.594934 0.780987
0.464317 0.755856 0.874022
0.458137 0.755123 0.875502
0.459205 0.754833 0.875395
0.463828 0.753735 0.875074
0.89575 0.372946 0.734493
0.925765 0.231968 0.561334
0.935607 0.195285 0.492287
0.935714 0.194141 0.492226
0.938537 0.189639 0.492271
0.118273 0.79881 0.861799
0.118212 0.796246 0.860349
0.118273 0.796201 0.860334
0.118181 0.796094 0.86038
0.586404 0.856458 0.903975
0.94754 0.850507 0.852583
1 0.807996 0.79556
1 0.804349 0.792523
1 0.801556 0.790951
0.0891737 0.847913 0.892912
0.0866407 0.846174 0.89247
0.086717 0.846143 0.892454
0.0873884 0.845838 0.892241
0.11017 0.853361 0.896559
0.804501 0.967117 0.954818
0.993057 0.971908 0.930541
1 0.967849 0.92253
1 0.967239 0.922011
0.000946059 0.803296 0.848463
0 0.803052 0.849134
0 0.803052 0.849134
0 0.802976 0.849134
0.00885023 0.809918 0.854734
0.780667 0.986923 0.972915
0.97734 0.996155 0.952117
1 0.999222 0.946502
1 0.998566 0.944884
0 0.802457 0.847623
0 0.803113 0.848966
0 0.803113 0.848966
0 0.803098 0.849027
0 0.803052 0.849149
0.770153 0.990433 0.974853
0.972274 1 0.958038
1 1 0.951736
1 1 0.949615
