site/assets/luts/freshluts--0001347-green-til-nightbright.cube
# LUTr-Schema-Version: 2
# LUTr-ID: freshluts--0001347-green-til-nightbright
# LUTr-Title: green til nightbright
# LUTr-Collection: Fresh LUTs
# LUTr-Collection-ID: freshluts-community
# LUTr-Source: https://freshluts.com
# LUTr-Retrieved: 2026-07-27
# LUTr-Source-File: submissions-raw/freshluts/cubes/1347__green_til_hightbright.cube
# LUTr-Source-Format: CUBE
# LUTr-Source-SHA256: 90c8046a329a218c6fa1525843a917f4bb8da5434e10de699ef1fc0b3a439ba1
# LUTr-License: CC0-1.0
# LUTr-License-URL: https://freshluts.com/termsandconditions
# LUTr-License-Basis: site-terms
# LUTr-Transform-Class: creative-look
# LUTr-Tags: creative, freshluts, community, cube, warm, high-key, rec709
# LUTr-Input-Color-Space: rec709
# LUTr-Input-Gamut: rec709
# LUTr-Input-Transfer: rec709
# LUTr-Output-Color-Space: srgb
# LUTr-Output-Gamut: rec709
# LUTr-Output-Transfer: srgb
# LUTr-Color-Space-Confidence: declared-by-source
# LUTr-Domain-Normalized: true
# LUTr-Shaper: none
# LUTr-Original-Grid: 16x16x16
# LUTr-Conversion-Grid: 16x16x16
# LUTr-Conversion-Interpolation: none
# LUTr-Conversion-Method: Metadata normalization; numeric LUT samples preserved
# LUTr-Conversion-Tool: LUTr scripts/convert-all-to-cube.mjs 2.0.0
# LUTr-Conversion-Date: 2026-07-28
# LUTr-Asset-URL: https://freshluts.com/luts/1347
# LUTr-Author: lvannoeun@gmail.com
# LUTr-Author-URL: https://freshluts.com/users/57563
# LUTr-Attribution: lvannoeun@gmail.com via Fresh LUTs
# LUTr-Source-Labels: gamma=Rec 709; color=Warm; key=High Key; style=Colorful
# LUTr-Note: Preserve this metadata and the upstream license notices when redistributing.
TITLE "green til nightbright"
LUT_3D_SIZE 6
DOMAIN_MIN 0 0 0
DOMAIN_MAX 1 1 1
0 0 0
0.163649 -0.000861 -0.000861
0.474495 -0.001886 -0.001886
0.7335 -0.002914 -0.002914
0.905317 -0.003786 -0.003786
1.01318 -0.004314 -0.004314
-0.001329 0.199874 -0.001329
0.163663 0.203544 -0.001508
0.474495 0.22022 -0.002255
0.7335 0.211327 -0.003147
0.905317 0.187486 -0.003941
1.01318 0.162229 -0.004419
-0.00291 0.469787 -0.00291
0.185975 0.469787 -0.00299
0.474493 0.464601 -0.003301
0.733498 0.448241 -0.003946
0.905316 0.404374 -0.004528
1.013179 0.358046 -0.004834
-0.004496 0.680013 -0.004496
0.176283 0.680013 -0.004543
0.461762 0.680012 -0.004737
0.733493 0.671411 -0.0051
0.905314 0.608473 -0.005471
1.013179 0.542057 -0.005551
-0.005841 0.823446 -0.005841
0.151506 0.823445 -0.005872
0.412845 0.823445 -0.006001
0.671696 0.823445 -0.006252
0.905312 0.80505 -0.006626
1.013178 0.719225 -0.006483
-0.006657 0.895401 -0.006657
0.11801 0.895401 -0.006677
0.346862 0.895401 -0.006764
0.573456 0.895401 -0.006936
0.798639 0.8954 -0.007199
1.013177 0.891741 -0.007551
-0.000476 -0.000476 0.153741
0.163664 -0.000942 0.161979
0.474495 -0.001921 0.178713
0.7335 -0.002935 0.169794
0.905317 -0.003799 0.145984
1.01318 -0.004323 0.120966
-0.001375 0.199874 0.158339
0.166311 0.199262 0.149563
0.495253 0.164307 0.112196
0.754075 0.1176 0.061882
0.91909 0.091391 0.037752
1.01318 0.190349 0.153703
-0.002929 0.469787 0.181477
0.098424 0.474108 0.066773
0.477797 0.463836 0.054141
0.74352 0.433157 0.037588
0.914354 0.385078 0.027861
1.013179 0.367713 0.153704
-0.004508 0.680013 0.173059
0.063772 0.683078 0.027531
0.442752 0.682009 0.025184
0.735365 0.670981 0.021683
0.909513 0.602589 0.019134
1.013179 0.546329 0.15371
-0.005849 0.823446 0.151345
0.050317 0.825119 0.01704
0.388861 0.824827 0.016518
0.66501 0.824288 0.015645
0.906308 0.804802 0.0147
1.013178 0.720978 0.153679
-0.006662 0.895401 0.121854
0.044573 0.896822 0.014595
0.326012 0.896617 0.014434
0.565325 0.896381 0.014172
0.796481 0.89604 0.013881
1.013177 0.891821 0.153661
-0.001042 -0.001042 0.440303
0.189056 -0.001327 0.440303
0.474495 -0.002063 0.429781
0.7335 -0.003022 0.412624
0.905317 -0.003857 0.366987
1.01318 -0.004362 0.31902
-0.001698 0.22568 0.440325
0.156217 0.193133 0.459477
0.494041 0.161938 0.441598
0.755158 0.111674 0.401261
0.920667 0.081939 0.345095
1.01318 0.199869 0.33557
-0.00301 0.469787 0.43519
0.087306 0.473803 0.434691
0.478466 0.468389 0.434412
0.754996 0.452611 0.418934
0.928328 0.43353 0.402022
1.013179 0.461621 0.440314
-0.004556 0.680013 0.418932
0.035829 0.683739 0.390388
0.43358 0.686257 0.384468
0.740307 0.67363 0.36705
0.923284 0.612383 0.350833
1.013179 0.593065 0.44031
-0.005881 0.823445 0.377237
0.019615 0.825665 0.341132
0.3778 0.829618 0.328856
0.66276 0.827269 0.319246
0.910387 0.806106 0.305811
1.013178 0.739854 0.440312
-0.006683 0.895401 0.320714
0.015091 0.897326 0.284441
0.380516 0.899857 0.344783
0.5813 0.899673 0.313941
0.802123 0.898305 0.287024
1.013178 0.892507 0.440303
-0.00161 -0.00161 0.665963
0.179453 -0.001794 0.665963
0.467988 -0.002385 0.665963
0.7335 -0.003188 0.64876
0.905317 -0.003969 0.581713
1.01318 -0.004438 0.51128
-0.002077 0.217354 0.665963
0.138816 0.177942 0.697737
0.474897 0.145097 0.693218
0.752697 0.104434 0.661078
0.919529 0.078931 0.579628
1.01318 0.19987 0.519089
-0.003262 0.459346 0.665962
0.076633 0.452455 0.683658
0.473728 0.466302 0.685025
0.753816 0.45435 0.668302
0.927997 0.441238 0.611275
1.013179 0.469792 0.580805
-0.004652 0.680013 0.658132
0.034048 0.683056 0.658348
0.439791 0.68468 0.661488
0.738873 0.677337 0.657496
0.922813 0.66125 0.64713
1.013179 0.670496 0.665965
-0.005944 0.823445 0.59678
0.019153 0.825508 0.58506
0.386489 0.830085 0.587808
0.701551 0.827356 0.627156
0.911825 0.811803 0.614399
1.013178 0.774809 0.665963
-0.006726 0.895401 0.513816
0.014919 0.897196 0.498631
0.406487 0.899809 0.543147
0.685761 0.899384 0.623272
0.840357 0.898574 0.602195
1.013177 0.893385 0.665992
-0.002091 -0.002091 0.831432
0.157311 -0.002216 0.831432
0.42428 -0.002664 0.831432
0.688644 -0.003343 0.831431
0.905316 -0.004141 0.792753
1.01318 -0.004558 0.700172
-0.002422 0.197959 0.831432
0.114746 0.15482 0.864207
0.422527 0.129799 0.858733
0.699231 0.098631 0.849426
0.918002 0.074717 0.800747
1.013179 0.199867 0.7036
-0.003409 0.423634 0.831431
0.06999 0.412499 0.852531
0.465053 0.462294 0.857702
0.712523 0.451353 0.854136
0.927383 0.436598 0.815147
1.013179 0.469792 0.732201
-0.004677 0.636106 0.83147
0.033833 0.633801 0.839256
0.438992 0.649529 0.848371
0.732105 0.677324 0.843055
0.922007 0.669466 0.823291
1.013179 0.680009 0.781955
-0.006043 0.823445 0.812659
0.018461 0.82511 0.812422
0.382476 0.829024 0.815903
0.71547 0.826351 0.822983
0.910684 0.820165 0.822887
1.013178 0.820152 0.831466
-0.006793 0.895401 0.703436
0.014654 0.897079 0.697635
0.399726 0.899731 0.716066
0.707726 0.899202 0.771108
0.897228 0.897554 0.809249
1.013177 0.894476 0.831464
-0.002383 -0.002383 0.913449
0.123615 -0.002468 0.913449
0.357865 -0.002791 0.913449
0.589866 -0.003322 0.913448
0.820304 -0.003984 0.913448
1.013179 -0.00472 0.886805
-0.002613 0.168148 0.913449
0.107233 0.149099 0.941449
0.357928 0.122429 0.940855
0.597831 0.099179 0.933695
0.831557 0.078545 0.926794
1.013179 0.199876 0.887734
-0.003375 0.368834 0.913448
0.07008 0.36113 0.937029
0.459731 0.460559 0.939053
0.644698 0.452456 0.938018
0.852292 0.437879 0.936112
1.013179 0.469791 0.893676
-0.004441 0.557577 0.913447
0.038036 0.554677 0.925283
0.445371 0.601899 0.935917
0.725627 0.675753 0.932085
0.877153 0.669756 0.929374
1.013179 0.680009 0.902773
-0.005635 0.739231 0.913445
0.021603 0.739425 0.918051
0.397565 0.755001 0.928114
0.719124 0.787799 0.923971
0.909917 0.82176 0.916471
1.013178 0.823443 0.911806
-0.006887 0.895401 0.890932
0.014305 0.896783 0.890733
0.388304 0.899631 0.895145
0.703365 0.898976 0.903225
0.900388 0.896985 0.907826
1.013177 0.894973 0.91344
