site/assets/luts/freshluts--0000147-ramadan.cube
# LUTr-Schema-Version: 2
# LUTr-ID: freshluts--0000147-ramadan
# LUTr-Title: RAMADAN
# LUTr-Collection: Fresh LUTs
# LUTr-Collection-ID: freshluts-community
# LUTr-Source: https://freshluts.com
# LUTr-Retrieved: 2026-07-27
# LUTr-Source-File: submissions-raw/freshluts/cubes/147__RAMDAN_10.A088_C011_0101D0.cube
# LUTr-Source-Format: CUBE
# LUTr-Source-SHA256: 76cfe61975d951c04ca6a5fe984fecbf733b21929ff616edae93e77ff9202312
# LUTr-License: CC0-1.0
# LUTr-License-URL: https://freshluts.com/termsandconditions
# LUTr-License-Basis: site-terms
# LUTr-Transform-Class: creative-look
# LUTr-Tags: creative, freshluts, community, cube, blue, high-key, red-logfilm
# LUTr-Input-Color-Space: red-logfilm-rwg
# LUTr-Input-Gamut: red-wide-gamut-rgb
# LUTr-Input-Transfer: red-logfilm
# LUTr-Output-Color-Space: srgb
# LUTr-Output-Gamut: rec709
# LUTr-Output-Transfer: srgb
# LUTr-Color-Space-Confidence: inferred-from-source-label
# LUTr-Domain-Normalized: true
# LUTr-Shaper: none
# LUTr-Original-Grid: 33x33x33
# LUTr-Conversion-Grid: 33x33x33
# LUTr-Conversion-Interpolation: none
# LUTr-Conversion-Method: Metadata normalization; numeric LUT samples preserved
# LUTr-Conversion-Tool: LUTr scripts/convert-all-to-cube.mjs 2.0.0
# LUTr-Conversion-Date: 2026-07-28
# LUTr-Asset-URL: https://freshluts.com/luts/147
# LUTr-Author: MUSTAFA ALKARKHY
# LUTr-Author-URL: https://freshluts.com/users/1250
# LUTr-Attribution: MUSTAFA ALKARKHY via Fresh LUTs
# LUTr-Source-Labels: gamma=RED Log Film; color=Blue; key=High Key; style=Colorful
# LUTr-Note: Preserve this metadata and the upstream license notices when redistributing.
TITLE "RAMADAN"
LUT_3D_SIZE 9
DOMAIN_MIN 0 0 0
DOMAIN_MAX 1 1 1
0 0 0
0.00624094 0 0
0.0878767 0 0
0.22501 0 0
0.419089 0 0
0.435676 0 0
0.177356 0 0
0.0323796 0.0323796 0.0323796
0.0457313 0.0457313 0.0457313
0 0.0132753 0
0 0.00555428 0
0.0741588 0.00114443 0
0.242283 0 0
0.443153 0 0
0.501686 0 0
0.329809 0.0178073 0
0.0924086 0.0924086 0.0924086
0.130694 0.130694 0.130694
0 0.0834058 0
0 0.0780804 0
0.052369 0.0717937 0
0.261982 0.0668803 0
0.508064 0.0710918 0
0.634531 0.112352 0
0.585946 0.211353 0.144976
0.276738 0.276738 0.276738
0.354208 0.354208 0.354208
0 0.173816 0
0 0.193759 0
0 0.22887 0
0.194232 0.247211 0
0.571252 0.347417 0
0.838514 0.492714 0.163638
0.978271 0.616266 0.362646
0.507256 0.507256 0.507256
0.551919 0.551919 0.551919
0 0.359854 0
0 0.417227 0
0.000137331 0.474754 0
0.219745 0.512291 0
0.493751 0.512703 0
0.656458 0.545907 0.0153201
0.792584 0.620569 0.220737
0.637446 0.637446 0.637446
0.668788 0.668788 0.668788
0 0.525902 0.0043946
0.0282902 0.584161 0
0.0907912 0.626352 0
0.261036 0.658595 0
0.50721 0.644999 0
0.641398 0.649989 0.0869612
0.738125 0.676631 0.305165
0.739025 0.739025 0.739025
0.768139 0.768139 0.768139
0.501366 0.639735 0.505486
0.385473 0.653849 0.369146
0.333562 0.675944 0.280995
0.352697 0.729458 0.149874
0.546227 0.734813 0.164401
0.66949 0.740307 0.307515
0.790555 0.792645 0.587076
0.83917 0.83917 0.83917
0.871611 0.871611 0.871611
0.73106 0.73106 0.73106
0.760235 0.760235 0.760235
0.789609 0.789609 0.789609
0.819379 0.819379 0.819379
0.850736 0.850736 0.850736
0.884123 0.884123 0.884123
0.931563 0.931563 0.931563
1 1 1
1 1 1
0.830655 0.830655 0.830655
0.862562 0.862562 0.862562
0.897566 0.897566 0.897566
0.954574 0.954574 0.954574
1 1 1
1 1 1
1 1 1
1 1 1
1 1 1
0 0 0.0462654
0.00387579 0 0.0387274
0.0914626 0 0.0298619
0.237339 0 0
0.428855 0 0
0.478752 0 0
0.283543 0 0
0.0368658 0.0368658 0.0368658
0.0504005 0.0504005 0.0504005
0 0.0111391 0.0215763
0 0.00331121 0.0150454
0.0764019 0 0.00801099
0.247608 0 0
0.438758 0 0
0.523095 0 0
0.432425 0 0
0.103014 0.103014 0.103014
0.146975 0.146975 0.146975
0 0.0796216 0.00190738
0 0.076997 0
0.0507668 0.072694 0
0.277028 0.0653086 0
0.509087 0.0700389 0.0148775
0.657832 0.107149 0.0547646
0.689799 0.196368 0.158007
0.303334 0.303334 0.303334
0.379248 0.379248 0.379248
0 0.17499 0
0 0.202182 0
0 0.244541 0
0.212482 0.270039 0
0.629511 0.404562 0.125765
0.907454 0.545846 0.272297
1 0.642084 0.401389
0.523247 0.523247 0.523247
0.565698 0.565698 0.565698
0 0.368261 0
0 0.423621 0
0.000518807 0.478965 0
0.229007 0.52253 0.000564584
0.502312 0.521782 0.00144961
0.677638 0.558358 0.0550698
0.874418 0.655207 0.207248
0.648341 0.648341 0.648341
0.679255 0.679255 0.679255
0 0.539483 0.0110018
0 0.590784 0.00758373
0.06009 0.628717 0.0208133
0.246296 0.663905 0.0235752
0.50602 0.654688 0.0220035
0.651682 0.661799 0.0644083
0.779782 0.687129 0.182528
0.748852 0.748852 0.748852
0.778088 0.778088 0.778088
0.354177 0.625956 0.384298
0.235172 0.640848 0.246479
0.212543 0.682979 0.185702
0.290745 0.753384 0.101198
0.519371 0.761044 0.0911879
0.651591 0.758862 0.15819
0.763333 0.768261 0.320851
0.849928 0.849928 0.849928
0.883253 0.883253 0.883253
0.740978 0.740978 0.740978
0.770184 0.770184 0.770184
0.799756 0.799756 0.799756
0.829862 0.829862 0.829862
0.861723 0.861723 0.861723
0.896544 0.896544 0.896544
0.953017 0.953017 0.953017
1 1 1
1 1 1
0.841367 0.841367 0.841367
0.873991 0.873991 0.873991
0.913893 0.913893 0.913893
0.979324 0.979324 0.979324
1 1 1
1 1 1
1 1 1
1 1 1
1 1 1
0 0 0.124331
0.000228885 0 0.123171
0.0853285 0 0.116625
0.241825 0 0.0598917
0.432731 0 0.00924697
0.501457 0 0
0.359869 0 0.00404364
0.041413 0.041413 0.041413
0.0555734 0.0555734 0.0555734
0 0.00859083 0.107088
0 0.00102235 0.110872
0.0719768 0 0.107546
0.250904 0 0.0522011
0.432319 0 0.00553903
0.53196 0 0
0.498573 0 0.0192416
0.115938 0.115938 0.115938
0.164614 0.164614 0.164614
0 0.0734264 0.0854047
0 0.071809 0.0855573
0.0484779 0.0714275 0.0866255
0.27483 0.0485389 0.0603952
0.498039 0.0568856 0.0658122
0.662089 0.0939193 0.102617
0.740627 0.172107 0.179232
0.329458 0.329458 0.329458
0.404547 0.404547 0.404547
0 0.174502 0
0 0.207599 0
0 0.257801 0.000137331
0.232761 0.296254 0.0238651
0.686625 0.45623 0.237552
0.957885 0.591302 0.378927
1 0.663584 0.465721
0.537987 0.537987 0.537987
0.578607 0.578607 0.578607
0 0.372259 0
0 0.424689 0
0 0.477913 0.0215305
0.236393 0.534096 0.0707408
0.512276 0.531807 0.0746319
0.694377 0.571389 0.11722
0.937499 0.698116 0.269917
0.658839 0.658839 0.658839
0.689525 0.689525 0.689525
0 0.541466 0.035462
0 0.587137 0.0416114
0.0361639 0.623911 0.0578622
0.236851 0.662715 0.074464
0.507652 0.661021 0.0730602
0.658305 0.669078 0.0955062
0.806989 0.698589 0.166735
0.75877 0.75877 0.75877
0.788113 0.788113 0.788113
0.231708 0.606683 0.300893
0.138903 0.641779 0.193408
0.141817 0.696086 0.158709
0.255924 0.760937 0.107988
0.50901 0.773678 0.100847
0.648463 0.774334 0.127886
0.776898 0.783749 0.214206
0.860899 0.860899 0.860899
0.895537 0.895537 0.895537
0.750881 0.750881 0.750881
0.780133 0.780133 0.780133
0.809903 0.809903 0.809903
0.840574 0.840574 0.840574
0.873121 0.873121 0.873121
0.91252 0.91252 0.91252
0.977295 0.977295 0.977295
1 1 1
1 1 1
0.852155 0.852155 0.852155
0.885664 0.885664 0.885664
0.933928 0.933928 0.933928
1 1 1
1 1 1
1 1 1
1 1 1
1 1 1
1 1 1
0 0 0.312901
0 0 0.313802
0.0482032 0 0.316564
0.20911 0 0.28481
0.421851 0 0.228031
0.511421 0 0.199496
0.476371 0 0.148394
0.0459907 0.0459907 0.0459907
0.0612192 0.0612192 0.0612192
0 0 0.305287
0 0 0.312856
0.0366064 0 0.319982
0.210941 0 0.292683
0.413993 0 0.218509
0.531472 0 0.201801
0.587121 0 0.185336
0.131518 0.131518 0.131518
0.184512 0.184512 0.184512
0 0.0422675 0.295033
0 0.0385901 0.306172
0.0246586 0.0402533 0.322148
0.232868 0.0249638 0.322454
0.467079 0.0161135 0.265278
0.627634 0.0425879 0.287312
0.763668 0.0953384 0.323857
0.355306 0.355306 0.355306
0.428626 0.428626 0.428626
0 0.147005 0.171771
0 0.174273 0.200793
0 0.21883 0.247654
0.224201 0.303853 0.343374
0.603372 0.325551 0.356054
0.780667 0.396902 0.422614
0.950774 0.452277 0.476875
0.855711 0.535225 0.544671
0.591272 0.591272 0.591272
0 0.331228 0.114137
0 0.363928 0.144945
0 0.406653 0.185611
0.168322 0.505837 0.253727
0.533059 0.557351 0.284566
0.79559 0.659434 0.418097
1 0.866697 0.645304
1 0.932326 0.765011
0.699641 0.699641 0.699641
0 0.48365 0.162707
0 0.512505 0.169802
0 0.536675 0.185031
0.165499 0.6009 0.240986
0.508003 0.676661 0.289723
0.6645 0.676188 0.304234
0.847395 0.726238 0.370535
1 1 0.78732
0.798245 0.798245 0.798245
0 0.542733 0.238819
0 0.602808 0.206744
0 0.641657 0.203296
0.143954 0.698848 0.217853
0.482002 0.767452 0.280964
0.635874 0.776776 0.29163
0.778454 0.787106 0.304448
1 1 0.65771
0.911177 0.911177 0.911177
0.760815 0.760815 0.760815
0.790173 0.790173 0.790173
0.819959 0.819959 0.819959
0.665248 0.842145 0.679896
0.421134 0.864332 0.279072
0.543313 0.923354 0.271748
0.704158 0.980331 0.327703
1 1 0.709148
1 1 1
0.863203 0.863203 0.863203
0.898375 0.898375 0.898375
0.955871 0.955871 0.955871
1 1 1
1 1 1
1 1 1
1 1 1
1 1 1
1 1 1
0 0 0.486748
0 0 0.497337
0.0340581 0 0.50219
0.187427 0 0.480461
0.395438 0 0.422477
0.469841 0 0.372229
0.42179 0 0.269368
0.0506142 0.0506142 0.0506142
0.0671397 0.0671397 0.0671397
0 0 0.4878
0 0 0.493935
0.0185702 0 0.493874
0.17319 0 0.468757
0.39678 0 0.424903
0.505623 0 0.398474
0.564691 0 0.361135
0.147936 0.147936 0.147936
0.206241 0.206241 0.206241
0 0.0254215 0.480644
0 0.0200504 0.483375
0.0083772 0.0217441 0.487312
0.185748 0.0146334 0.486442
0.445884 0.00373846 0.474495
0.611597 0.0289464 0.498619
0.748516 0.079881 0.520439
0.380697 0.380697 0.380697
0.450324 0.450324 0.450324
0 0.131014 0.37821
0 0.146014 0.397314
0 0.176364 0.430671
0.173571 0.229435 0.514473
0.541314 0.274617 0.575647
0.699107 0.304845 0.576486
0.832258 0.331289 0.585397
0.982467 0.384405 0.565698
0.603555 0.603555 0.603555
0 0.30988 0.318669
0 0.33846 0.347723
0 0.357412 0.366766
0.094316 0.418296 0.428641
0.546975 0.58024 0.596216
0.768353 0.587533 0.601236
0.93341 0.634379 0.645365
1 0.663676 0.672755
0.709728 0.709728 0.709728
0 0.433509 0.329473
0 0.45771 0.340261
0 0.47068 0.347341
0.05832 0.497429 0.368826
0.463066 0.679393 0.503563
0.697459 0.71368 0.530632
1 0.888014 0.732677
1 1 0.94522
0.808454 0.808454 0.808454
0.0137636 0.493095 0.354986
0 0.533669 0.332067
0 0.56257 0.331823
0.0208591 0.577615 0.323293
0.416663 0.740215 0.449622
0.640787 0.812482 0.500954
0.805737 0.815885 0.51754
1 1 1
0.941222 0.930098 0.926329
0.770748 0.770748 0.770748
0.800336 0.800336 0.800336
0.830472 0.830472 0.830472
0.229129 0.706752 0.390387
0.250568 0.843687 0.278065
0.443168 0.918105 0.330022
0.659281 1 0.41416
1 1 0.493523
1 1 1
0.874647 0.874647 0.874647
0.914931 0.914931 0.914931
0.980911 0.980911 0.980911
1 1 1
1 1 1
1 1 1
1 1 1
1 1 1
1 1 1
0 0 0.427283
0 0 0.498863
0.0234989 0 0.537316
0.167865 0 0.554345
0.356252 0 0.492515
0.395727 0 0.407843
0.314961 0 0.263233
0.0558328 0.0558328 0.0558328
0.0740673 0.0740673 0.0740673
0 0 0.490867
0 0 0.544274
0.0128481 0 0.566735
0.16202 0 0.572595
0.37705 0 0.526604
0.475792 0 0.490608
0.509957 0 0.426017
0.165682 0.165682 0.165682
0.228519 0.228519 0.228519
0 0.021088 0.518074
0 0.0170138 0.558541
0.0077821 0.0204929 0.585229
0.180972 0.0123598 0.605585
0.44509 0.00596628 0.602518
0.603265 0.037705 0.619394
0.729931 0.0925917 0.628412
0.405966 0.405966 0.405966
0.470451 0.470451 0.470451
0 0.127565 0.470192
0 0.148867 0.517601
0 0.177127 0.557778
0.159197 0.209323 0.597482
0.499733 0.261051 0.669978
0.668925 0.290852 0.686213
0.807492 0.308171 0.692592
0.99234 0.349676 0.645365
0.615259 0.615259 0.615259
0 0.300832 0.417243
0 0.334554 0.466026
0 0.355047 0.493141
0.0738537 0.37435 0.518212
0.468544 0.495445 0.689113
0.706966 0.530617 0.730938
0.838666 0.526574 0.698283
1 0.521279 0.660777
0.719753 0.719753 0.719753
0 0.401266 0.405051
0 0.439048 0.443976
0 0.454612 0.459998
0.0249485 0.454841 0.460548
0.401785 0.612161 0.619928
0.711803 0.731029 0.740871
0.919951 0.743206 0.751568
1 0.815869 0.821576
0.928527 0.813031 0.813779
0.231769 0.546624 0.502617
0 0.496315 0.413046
0 0.532631 0.427512
0 0.537224 0.413977
0.335317 0.669459 0.523873
0.613397 0.813565 0.637385
0.837217 0.849882 0.669322
1 1 1
1 1 1
0.780713 0.780713 0.780713
0.81033 0.81033 0.81033
0.841184 0.841184 0.841184
0.133379 0.661006 0.388647
0.17467 0.787808 0.332143
0.399466 0.878843 0.416266
0.660136 1 0.544381
1 1 0.629084
1 1 1
0.886336 0.886336 0.886336
0.935027 0.935027 0.935027
1 1 1
1 1 1
1 1 1
1 1 1
1 1 0.958038
1 1 0.82211
1 1 1
0 0 0.0479896
0 0 0.19823
0.00428779 0 0.308064
0.114717 0 0.462867
0.254978 0 0.429511
0.252171 0 0.316152
0.156298 0 0.158648
0.0615549 0.0615549 0.0615549
0.0828565 0.0828565 0.0828565
0 0 0.2103
0 0 0.355901
0.0134127 0 0.45272
0.13611 0 0.579965
0.330709 0 0.565194
0.401892 0 0.50634
0.399725 0 0.406455
0.185702 0.185702 0.185702
0.252155 0.252155 0.252155
0 0.0331884 0.313283
0 0.0256962 0.450767
0.0202335 0.0298772 0.548928
0.174044 0.0218509 0.670115
0.428885 0.0194858 0.692836
0.576699 0.0582284 0.703807
0.672099 0.124407 0.681849
0.429923 0.429923 0.429923
0.490028 0.490028 0.490028
0 0.119188 0.427665
0 0.150256 0.560098
0 0.18439 0.643397
0.157824 0.207065 0.715068
0.467109 0.242496 0.755199
0.640818 0.27335 0.785321
0.791165 0.293126 0.803983
0.965911 0.33608 0.722164
0.626657 0.626657 0.626657
0 0.286732 0.431174
0 0.323796 0.535256
0 0.34992 0.592432
0.0529641 0.346014 0.61384
0.403906 0.425956 0.728908
0.626001 0.477333 0.799725
0.785412 0.490852 0.800229
1 0.470192 0.737591
0.729702 0.729702 0.729702
0.19118 0.458579 0.505852
0 0.41059 0.500267
0 0.439765 0.553124
0.00773632 0.434913 0.567987
0.348226 0.52929 0.685817
0.615595 0.631251 0.819242
0.840467 0.666835 0.858976
1 0.639704 0.774701
1 0.743221 0.795911
0.606439 0.686259 0.686641
0.160021 0.517845 0.519707
0 0.500542 0.503471
0 0.521019 0.525139
0.284871 0.602426 0.607111
0.54316 0.739773 0.745617
0.858671 0.873716 0.88098
1 0.952407 0.956893
1 1 1
0.790753 0.790753 0.790753
0.820554 0.820554 0.820554
0.851972 0.851972 0.851972
0.132753 0.63064 0.444511
0.101976 0.719829 0.387304
0.336187 0.818433 0.481437
0.631403 0.999329 0.644968
1 1 0.779232
1 1 1
0.899062 0.899062 0.899062
0.957168 0.957168 0.957168
1 1 1
1 1 1
1 1 1
0.865934 1 0.918288
0.729854 1 0.738598
1 1 0.766155
1 1 0.9794
0 0 0
0 0 0
0 0 0
0.00941482 0.00941482 0.00941482
0.0242008 0.0242008 0.0242008
0.0373846 0.0373846 0.0373846
0.0508888 0.0508888 0.0508888
0.0674907 0.0674907 0.0674907
0.0928206 0.0928206 0.0928206
0.0150759 0.0150759 0.0150759
0.0290074 0.0290074 0.0290074
0.0422522 0.0422522 0.0422522
0.0565652 0.0565652 0.0565652
0.0750896 0.0750896 0.0750896
0.104341 0.104341 0.104341
0.148898 0.148898 0.148898
0.207492 0.207492 0.207492
0.27779 0.27779 0.27779
0.0627451 0.0627451 0.0627451
0.0848402 0.0848402 0.0848402
0.118425 0.118425 0.118425
0.168154 0.168154 0.168154
0.231525 0.231525 0.231525
0.306127 0.306127 0.306127
0.382132 0.382132 0.382132
0.451499 0.451499 0.451499
0.507927 0.507927 0.507927
0.190097 0.190097 0.190097
0.257267 0.257267 0.257267
0.334066 0.334066 0.334066
0.37969 0.38555 0.486427
0.39382 0.252735 0.789654
0.536385 0.27306 0.884718
0.654902 0.299092 0.907576
0.71252 0.477714 0.717693
0.637781 0.637781 0.637781
0.434562 0.434562 0.434562
0.493568 0.493568 0.493568
0.54081 0.54081 0.54081
0.215534 0.361822 0.665858
0.325872 0.344259 0.918883
0.485084 0.363256 0.963989
0.638682 0.384817 0.991104
0.963302 0.396216 0.980926
0.803662 0.704936 0.764294
0.594537 0.594537 0.594537
0.628672 0.628672 0.628672
0.660822 0.660822 0.660822
0.173571 0.415488 0.683864
0.261662 0.41294 0.87866
0.423819 0.434928 0.909407
0.601648 0.480522 0.957809
0.963363 0.507012 0.981735
1 0.57641 0.882567
0.702296 0.702296 0.702296
0.731456 0.731456 0.731456
0.760647 0.760647 0.760647
0.189593 0.488624 0.674128
0.197192 0.477836 0.820157
0.363119 0.503929 0.850919
0.573693 0.582788 0.945632
1 0.670756 1
1 0.714443 1
0.800916 0.800916 0.800916
0.831083 0.831083 0.831083
0.863005 0.863005 0.863005
0.87097 0.900053 0.900267
0.0359655 0.619211 0.625162
0.16643 0.64564 0.651972
0.403479 0.768383 0.775036
1 1 1
1 1 1
0.915755 0.915755 0.915755
0.982513 0.982513 0.982513
1 1 1
1 1 1
1 1 1
0.395666 0.935897 0.690593
0.376883 1 0.696712
0.908598 1 0.927153
1 1 1
0 0 0
0 0 0
0 0 0
0.0146944 0.0146944 0.0146944
0.028687 0.028687 0.028687
0.0419318 0.0419318 0.0419318
0.0561532 0.0561532 0.0561532
0.0745098 0.0745098 0.0745098
0.103487 0.103487 0.103487
0.0201114 0.0201114 0.0201114
0.033463 0.033463 0.033463
0.0467231 0.0467231 0.0467231
0.0623026 0.0623026 0.0623026
0.0841077 0.0841077 0.0841077
0.117601 0.117601 0.117601
0.166766 0.166766 0.166766
0.229816 0.229816 0.229816
0.304402 0.304402 0.304402
0.0687877 0.0687877 0.0687877
0.0948959 0.0948959 0.0948959
0.134295 0.134295 0.134295
0.188495 0.188495 0.188495
0.255406 0.255406 0.255406
0.332128 0.332128 0.332128
0.407385 0.407385 0.407385
0.471595 0.471595 0.471595
0.523766 0.523766 0.523766
0.212039 0.212039 0.212039
0.283024 0.283024 0.283024
0.359976 0.359976 0.359976
0.432898 0.432898 0.432898
0.4925 0.4925 0.4925
0.539712 0.539712 0.539712
0.580041 0.580041 0.580041
0.615915 0.615915 0.615915
0.648676 0.648676 0.648676
0.455695 0.455695 0.455695
0.510964 0.510964 0.510964
0.555398 0.555398 0.555398
0.593622 0.593622 0.593622
0.628 0.628 0.628
0.660044 0.660044 0.660044
0.690684 0.690684 0.690684
0.744564 0.682002 0.789273
0.749249 0.749249 0.749249
0.606683 0.606683 0.606683
0.639902 0.639902 0.639902
0.671366 0.671366 0.671366
0.701549 0.701549 0.701549
0.730724 0.730724 0.730724
0.731792 0.732845 0.815763
0.6177 0.572869 0.899855
0.787396 0.492027 1
0.904921 0.800504 0.904921
0.712169 0.712169 0.712169
0.74136 0.74136 0.74136
0.770565 0.770565 0.770565
0.800153 0.800153 0.800153
0.830289 0.830289 0.830289
0.582147 0.631937 0.898131
0.517784 0.523613 1
0.86482 0.56701 1
1 0.676844 1
0.810849 0.810849 0.810849
0.841794 0.841794 0.841794
0.874449 0.874449 0.874449
0.914641 0.914641 0.914641
0.962997 0.97998 0.991165
0.332341 0.624018 0.873655
0.363867 0.677852 1
0.786374 0.798505 1
1 0.991333 1
0.936263 0.936263 0.936263
1 1 1
1 1 1
1 1 1
1 1 1
1 1 1
0.390204 0.889204 0.889204
0.544778 0.970092 0.970092
1 1 1
