site/assets/luts/freshluts--0000765-correctionsony-footage.cube
# LUTr-Schema-Version: 2
# LUTr-ID: freshluts--0000765-correctionsony-footage
# LUTr-Title: correction(sony footage)
# LUTr-Collection: Fresh LUTs
# LUTr-Collection-ID: freshluts-community
# LUTr-Source: https://freshluts.com
# LUTr-Retrieved: 2026-07-27
# LUTr-Source-File: submissions-raw/freshluts/cubes/765__correct_4.D6_C03_S001_S001_T023.cube
# LUTr-Source-Format: CUBE
# LUTr-Source-SHA256: a56da937a58d432e4bc269b9f7a39d8c0f93cf817f2b471e9c3ecd417146c86b
# LUTr-License: CC0-1.0
# LUTr-License-URL: https://freshluts.com/termsandconditions
# LUTr-License-Basis: site-terms
# LUTr-Transform-Class: creative-look
# LUTr-Tags: creative, freshluts, community, cube, sony-s-log1, correction
# LUTr-Input-Color-Space:
# LUTr-Input-Gamut: sony-s-gamut
# LUTr-Input-Transfer: sony-s-log1
# LUTr-Output-Color-Space: srgb
# LUTr-Output-Gamut: rec709
# LUTr-Output-Transfer: srgb
# LUTr-Color-Space-Confidence: camera-profile-input-required
# LUTr-Domain-Normalized: true
# LUTr-Shaper: none
# LUTr-Original-Grid: 33x33x33
# LUTr-Conversion-Grid: 33x33x33
# LUTr-Conversion-Interpolation: none
# LUTr-Conversion-Method: Metadata normalization; numeric LUT samples preserved
# LUTr-Conversion-Tool: LUTr scripts/convert-all-to-cube.mjs 2.0.0
# LUTr-Conversion-Date: 2026-07-28
# LUTr-Asset-URL: https://freshluts.com/luts/765
# LUTr-Author: lvannoeun@gmail.com
# LUTr-Author-URL: https://freshluts.com/users/57563
# LUTr-Attribution: lvannoeun@gmail.com via Fresh LUTs
# LUTr-Source-Labels: gamma=Sony S-Log; color=None; key=Neutral; style=Correction
# LUTr-Note: Preserve this metadata and the upstream license notices when redistributing.
TITLE "correction(sony footage)"
LUT_3D_SIZE 33
DOMAIN_MIN 0 0 0
DOMAIN_MAX 1 1 1
0 0 0
0 0 0
0 0 0
0 0 0
0 0 0
0.025391 0 0
0.0845045 0 0
0.150011 0 0
0.222629 0 0
0.30959 0 0
0.396429 0 0
0.483925 0 0
0.571969 0 0
0.659037 0 0
0.743755 0 0
0.828061 0 0
0.912337 0 0
0.996094 0 0
1 0 0
1 0 0
1 0 0
1 0 0
1 0 0
1 0 0
1 0 0
1 0 0
1 0 0
1 0 0
1 0 0
1 0 0
1 0 0
1 0 0
1 0 0
0 0 0
0 0 0
0 0 0
0 0 0
0 0 0
0.0419318 0 0
0.11078 0 0
0.178195 0 0
0.249393 0 0
0.325353 0 0
0.406165 0 0
0.490349 0 0
0.576333 0 0
0.66183 0 0
0.745235 0 0
0.828351 0 0
0.911894 0 0
0.995224 0 0
1 0 0
1 0 0
1 0 0
1 0 0
1 0 0
1 0 0
1 0 0
1 0 0
1 0 0
1 0 0
1 0 0
1 0 0
1 0 0
1 0 0
1 0 0
0 0 0
0 0 0
0 0 0
0 0 0
0.0223545 0 0
0.0746624 0 0
0.129809 0 0
0.190234 0 0
0.257954 0 0
0.33196 0 0
0.411368 0 0
0.49485 0 0
0.579782 0 0
0.664591 0 0
0.7476 0 0
0.830121 0 0
0.913481 0 0
0.99675 0 0
1 0 0
1 0 0
1 0 0
1 0 0
1 0 0
1 0 0
1 0 0
1 0 0
1 0 0
1 0 0
1 0 0
1 0 0
1 0 0
1 0 0
1 0 0
0 0 0
0 0 0
0 0 0
0 0 0
0.0279698 0 0
0.0885176 0 0
0.147204 0 0
0.205356 0 0
0.268559 0 0
0.337758 0 0
0.415305 0 0
0.49807 0 0
0.582574 0 0
0.667124 0 0
0.74992 0 0
0.832471 0 0
0.916045 0 0
0.999573 0 0
1 0 0
1 0 0
1 0 0
1 0 0
1 0 0
1 0 0
1 0 0
1 0 0
1 0 0
1 0 0
1 0 0
1 0 0
1 0 0
1 0 0
1 0 0
0 0.0236057 0
0 0.0243839 0
0 0.0259556 0
0 0.0277409 0
0.026154 0.028687 0
0.0844892 0.0267643 0
0.150652 0.021912 0
0.216175 0.0175631 0
0.281315 0.0139925 0
0.350393 0.0100557 0
0.423697 0.00543221 0
0.501747 0 0
0.584497 0 0
0.66865 0 0
0.751308 0 0
0.834226 0 0
0.918212 0 0
1 0 0
1 0 0
1 0 0
1 0 0
1 0 0
1 0 0
1 0 0
1 0 0
1 0 0
1 0 0
1 0 0
1 0 0
1 0 0
1 0 0
1 0 0
1 0 0
0 0.0787366 0
0 0.0792096 0
0 0.0804761 0
0 0.0815595 0
0.0258488 0.0820935 0
0.0783856 0.0818799 0
0.13994 0.0788128 0
0.213275 0.0717632 0
0.28658 0.065095 0
0.361715 0.0590066 0
0.435172 0.054078 0
0.513085 0.048188 0
0.591608 0.0426795 0
0.672038 0.0365148 0
0.752865 0.0297856 0
0.835157 0.0226139 0
0.919173 0.0150759 0
1 0.00750744 0
1 0.000289921 0
1 0 0
1 0 0
1 0 0
1 0 0
1 0 0
1 0 0
1 0 0
1 0 0
1 0 0
1 0 0
1 0 0
1 0 0
1 0 0
1 0 0
0 0.133791 0
0 0.134386 0
0 0.135164 0
0 0.135927 0
0.0215763 0.136507 0
0.0742504 0.136507 0
0.1308 0.135515 0
0.197772 0.131441 0
0.278767 0.122728 0
0.360861 0.114031 0
0.443565 0.10573 0
0.522591 0.0995346 0
0.602747 0.0934615 0
0.682078 0.0879683 0
0.759121 0.0833143 0
0.837766 0.0780957 0
0.919554 0.0719005 0
1 0.0652323 0
1 0.0585184 0
1 0.0522316 0
1 0.0468299 0
1 0.0424659 0
1 0.038941 0
1 0.0369421 0
1 0.0360113 0
1 0.0359503 0
1 0.0367285 0
1 0.0378119 0
1 0.0394903 0
1 0.041413 0
1 0.0432593 0
1 0.044892 0
1 0.0459144 0
0 0.190326 0
0 0.190829 0
0 0.191806 0
0 0.192813 0
0.0133364 0.193668 0
0.0663615 0.194049 0
0.123262 0.19353 0
0.185412 0.191669 0
0.258503 0.186511 0
0.347158 0.176257 0
0.437644 0.165499 0
0.525765 0.155886 0
0.611139 0.147738 0
0.68954 0.142702 0
0.768719 0.137285 0
0.846754 0.132479 0
0.924712 0.127596 0
1 0.122774 0
1 0.117372 0
1 0.111833 0
1 0.106783 0
1 0.10248 0
1 0.0987869 0
1 0.0964675 0
1 0.09514 0
1 0.0946059 0
1 0.0948501 0
1 0.0953536 0
1 0.0965286 0
1 0.097673 0
1 0.0988632 0
1 0.0997787 0
1 0.10016 0
0 0.24947 0
0 0.250324 0
0 0.251621 0
0 0.253056 0
0.00129702 0.254276 0
0.0545663 0.254948 0
0.111757 0.254765 0
0.174121 0.253254 0
0.242176 0.250233 0
0.321279 0.243626 0
0.41648 0.231876 0
0.513451 0.219471 0
0.605173 0.208972 0
0.693294 0.199924 0
0.773724 0.193896 0
0.851072 0.18912 0
0.931136 0.183215 0
1 0.17789 0
1 0.173266 0
1 0.168978 0
1 0.16492 0
1 0.161227 0
1 0.157763 0
1 0.155398 0
1 0.153796 0
1 0.152895 0
1 0.152621 0
1 0.152575 0
1 0.153109 0
1 0.153582 0
1 0.154025 0
1 0.154192 0
1 0.153872 0
0 0.31191 0
0 0.312917 0
0 0.314504 0
0 0.316274 0
0 0.317784 0
0.0380102 0.318685 0
0.0954147 0.31873 0
0.158053 0.317479 0
0.226276 0.314702 0
0.300359 0.310384 0
0.385306 0.302754 0
0.484276 0.289921 0
0.584878 0.276112 0
0.67866 0.264744 0
0.766613 0.255283 0
0.851881 0.246647 0
0.931273 0.240238 0
1 0.234714 0
1 0.228565 0
1 0.223148 0
1 0.21886 0
1 0.215534 0
1 0.212696 0
1 0.210819 0
1 0.209491 0
1 0.208591 0
1 0.208164 0
1 0.207889 0
1 0.20795 0
1 0.20795 0
1 0.207904 0
1 0.207706 0
1 0.207111 0
0 0.377569 0
0 0.378866 0
0 0.380606 0
0 0.382635 0
0 0.38439 0
0.0174868 0.385183 0
0.0749828 0.385321 0
0.137682 0.384176 0
0.205844 0.381399 0
0.279683 0.377005 0
0.359121 0.371115 0
0.447089 0.362081 0
0.546288 0.348791 0
0.648585 0.334096 0
0.742962 0.321736 0
0.832303 0.310842 0
0.91957 0.300267 0
1 0.290867 0
1 0.284138 0
1 0.278599 0
1 0.272892 0
1 0.267979 0
1 0.263981 0
1 0.261418 0
1 0.2598 0
1 0.258854 0
1 0.258442 0
1 0.258427 0
1 0.258732 0
1 0.2589 0
1 0.258961 0
1 0.258976 0
1 0.258549 0
0 0.445106 0
0 0.446494 0
0 0.448402 0
0 0.450523 0
0 0.452308 0
0 0.453346 0
0.0512551 0.453086 0
0.113756 0.451728 0
0.181552 0.448676 0
0.255024 0.443915 0
0.333959 0.437598 0
0.41622 0.429801 0
0.504799 0.419928 0
0.602472 0.406622 0
0.703029 0.391577 0
0.799542 0.377356 0
0.891386 0.364202 0
0.979812 0.352483 0
1 0.341619 0
1 0.331945 0
1 0.325093 0
1 0.320241 0
1 0.315785 0
1 0.311559 0
1 0.308598 0
1 0.306615 0
1 0.305486 0
1 0.305058 0
1 0.30515 0
1 0.305333 0
1 0.305623 0
1 0.305653 0
1 0.305501 0
0 0.513619 0
0 0.514916 0
0 0.516655 0
0 0.518532 0
0 0.520058 0
0 0.520745 0
0.0252537 0.520104 0
0.0873121 0.518303 0
0.154574 0.514794 0
0.227451 0.509575 0
0.305653 0.502632 0
0.387243 0.494408 0
0.470558 0.485527 0
0.558358 0.475013 0
0.652003 0.461921 0
0.751278 0.446159 0
0.850309 0.429816 0
0.943954 0.415061 0
1 0.401938 0
1 0.390127 0
1 0.379751 0
1 0.370993 0
1 0.364553 0
1 0.360601 0
1 0.357946 0
1 0.355917 0
1 0.354192 0
1 0.352941 0
1 0.352193 0
1 0.351583 0
1 0.35108 0
1 0.350576 0
1 0.349859 0
0 0.581308 0
0 0.582376 0
0 0.58381 0
0 0.585336 0
0 0.586435 0
0 0.586557 0
0 0.585534 0
0.0591135 0.5832 0
0.125689 0.579126 0
0.197864 0.573297 0
0.275334 0.565728 0
0.356146 0.556848 0
0.438697 0.547311 0
0.521553 0.537499 0
0.606577 0.526558 0
0.697826 0.512978 0
0.796445 0.496361 0
0.895964 0.478965 0
0.990097 0.463035 0
1 0.448981 0
1 0.437079 0
1 0.427008 0
1 0.418585 0
1 0.411597 0
1 0.406241 0
1 0.402594 0
1 0.400565 0
1 0.399298 0
1 0.398749 0
1 0.398138 0
1 0.397345 0
1 0.396277 0
1 0.394827 0
0 0.647364 0
0 0.648005 0
0 0.648966 0
0 0.649958 0
0 0.650492 0
0 0.649973 0
0 0.648386 0
0.0301518 0.645411 0
0.0959945 0.640665 0
0.167361 0.634165 0
0.24416 0.626001 0
0.3243 0.616541 0
0.405859 0.606012 0
0.487892 0.595483 0
0.568597 0.585229 0
0.652552 0.573678 0
0.743618 0.559503 0
0.840696 0.542977 0
0.938933 0.525505 0
1 0.509224 0
1 0.495079 0
1 0.48333 0
1 0.47364 0
1 0.465583 0
1 0.459037 0
1 0.453742 0
1 0.449454 0
1 0.446006 0
1 0.443549 0
1 0.441657 0
1 0.440284 0
1 0.439109 0
1 0.437812 0
0 0.712001 0
0 0.712062 0
0 0.712413 0
0 0.712764 0
0 0.712642 0
0 0.711528 0
0 0.709163 0
0 0.70547 0
0.0632639 0.700008 0
0.133806 0.69276 0
0.209873 0.683909 0
0.289479 0.673945 0
0.37084 0.663264 0
0.452445 0.652308 0
0.532631 0.641627 0
0.612757 0.630945 0
0.697139 0.618723 0
0.787015 0.60444 0
0.88127 0.588251 0
0.976257 0.571176 0
1 0.555138 0
1 0.541344 0
1 0.529992 0
1 0.520439 0
1 0.512627 0
1 0.506371 0
1 0.501213 0
1 0.49688 0
1 0.493294 0
1 0.489891 0
1 0.486625 0
1 0.483436 0
1 0.480278 0
0 0.774868 0
0 0.774258 0
0 0.773892 0
0 0.773541 0
0 0.772671 0
0 0.770916 0
0 0.767956 0
0 0.763424 0
0.0276493 0.757504 0
0.0977798 0.749905 0
0.17348 0.740749 0
0.25275 0.73048 0
0.333806 0.719463 0
0.415167 0.708263 0
0.495125 0.697368 0
0.574807 0.686366 0
0.655283 0.674723 0
0.738979 0.662104 0
0.826505 0.647959 0
0.916564 0.632441 0
1 0.616281 0
1 0.601099 0
1 0.587869 0
1 0.576699 0
1 0.567559 0
1 0.560037 0
1 0.553857 0
1 0.548577 0
1 0.543984 0
1 0.539986 0
1 0.535988 0
1 0.531975 0
1 0.527733 0
0 0.835294 0
0 0.833921 0
0 0.832822 0
0 0.831724 0
0 0.830304 0
0 0.828122 0
0 0.824887 0
0 0.820249 0
0 0.814038 0
0.0609751 0.805936 0
0.136187 0.796384 0
0.215137 0.785748 0
0.295827 0.774411 0
0.376852 0.762829 0
0.456428 0.751553 0
0.535729 0.7402 0
0.61593 0.72842 0
0.696132 0.716503 0
0.778103 0.703777 0
0.862196 0.690013 0
0.946761 0.675319 0
1 0.660533 0
1 0.646632 0
1 0.63415 0
1 0.623392 0
1 0.61442 0
1 0.607004 0
1 0.600595 0
1 0.59498 0
1 0.590036 0
1 0.585214 0
1 0.580514 0
1 0.575586 0
0 0.892989 0
0 0.891127 0
0 0.889525 0
0 0.887968 0
0 0.886244 0
0 0.883757 0
0 0.880171 0
0 0.875212 0
0 0.86865 0
0.0242618 0.860395 0
0.0991379 0.850523 0
0.177539 0.839353 0
0.257862 0.827649 0
0.338445 0.815656 0
0.41767 0.803967 0
0.49659 0.792248 0
0.576425 0.780102 0
0.656138 0.767834 0
0.73489 0.755718 0
0.814084 0.74316 0
0.893614 0.730037 0
0.972168 0.716701 0
1 0.703639 0
1 0.691142 0
1 0.679683 0
1 0.669581 0
1 0.660853 0
1 0.653193 0
1 0.646403 0
1 0.640452 0
1 0.634592 0
1 0.62884 0
1 0.623133 0
0 0.948226 0
0 0.946059 0
0 0.944228 0
0 0.942473 0
0 0.9402 0
0 0.937331 0
0 0.933394 0
0 0.928054 0
0 0.921157 0
0 0.912551 0
0.0627146 0.902296 0
0.140978 0.890913 0
0.22089 0.878859 0
0.301167 0.866529 0
0.379995 0.854459 0
0.458534 0.842359 0
0.537972 0.829862 0
0.617334 0.817212 0
0.695491 0.804685 0
0.771695 0.792569 0
0.847196 0.780529 0
0.921218 0.768322 0
0.993042 0.756359 0
1 0.744793 0
1 0.733684 0
1 0.7234 0
1 0.714046 0
1 0.705547 0
1 0.697719 0
1 0.690425 0
1 0.683665 0
1 0.676921 0
1 0.670222 0
0 1 0
0 0.998566 0
0 0.996384 0
0 0.994247 0
0 0.991806 0
0 0.988617 0
0 0.984329 0
0 0.978515 0
0 0.97113 0
0 0.962158 0
0.0281224 0.951537 0
0.10602 0.939757 0
0.185519 0.927352 0
0.265446 0.914656 0
0.343923 0.90219 0
0.422034 0.889708 0
0.501137 0.876844 0
0.580118 0.863828 0
0.657969 0.850965 0
0.733684 0.838575 0
0.806424 0.826825 0
0.877012 0.815351 0
0.945113 0.804211 0
1 0.79353 0
1 0.783322 0
1 0.773602 0
1 0.764385 0
1 0.755673 0
1 0.747387 0
1 0.739437 0
1 0.732067 0
1 0.724346 0
1 0.716487 0
0 1 0
0 1 0
0 1 0
0 1 0
0 1 0
0 1 0
0 1 0
0 1 0
0 1 0
0 1 0
0 0.998077 0
0.07393 0.985916 0
0.153063 0.973114 0
0.232609 0.960052 0
0.310765 0.947204 0
0.388464 0.93434 0
0.46717 0.921096 0
0.545815 0.907729 0
0.623316 0.894499 0
0.698665 0.881712 0
0.77084 0.869642 0
0.839094 0.858457 0
0.904326 0.847852 0
0.967041 0.837812 0
1 0.828107 0
1 0.818906 0
1 0.810254 0
1 0.801862 0
1 0.793744 0
1 0.785779 0
1 0.777707 0
1 0.76968 0
1 0.761273 0
0 1 0
0 1 0
0 1 0
0 1 0
0 1 0
0 1 0
0 1 0
0 1 0
0 1 0
0 1 0
0 1 0
0.0445258 1 0
0.123308 1 0
0.202502 1 0
0.280446 0.989258 0
0.357778 0.976013 0
0.436118 0.962371 0
0.514382 0.948608 0
0.591531 0.935027 0
0.666529 0.921843 0
0.738338 0.909392 0
0.805997 0.897902 0
0.869337 0.887617 0
0.929564 0.877836 0
0.986847 0.868544 0
1 0.85977 0
1 0.851514 0
1 0.843732 0
1 0.835966 0
1 0.828122 0
1 0.820203 0
1 0.812207 0
1 0.803449 0
0 1 0
0 1 0
0 1 0
0 1 0
0 1 0
0 1 0
0 1 0
0 1 0
0 1 0
0 1 0
0 1 0
0.0180056 1 0
0.0964065 1 0
0.175219 1 0
0.252659 1 0
0.329809 1 0
0.407721 1 0
0.485618 0.986603 0
0.562387 0.972641 0
0.637079 0.959106 0
0.70869 0.946395 0
0.776165 0.934676 0
0.838819 0.923995 0
0.897246 0.914336 0
0.952575 0.905303 0
1 0.897017 0
1 0.889067 0
1 0.881422 0
1 0.874022 0
1 0.866606 0
1 0.858976 0
1 0.851194 0
1 0.842573 0
0 1 0
0 1 0
0 1 0
0 1 0
0 1 0
0 1 0
0 1 0
0 1 0
0 1 0
0 1 0
0 1 0
0 1 0
0.0720226 1 0
0.150469 1 0
0.22771 1 0
0.304295 1 0
0.381888 1 0
0.459449 1 0
0.535912 1 0
0.610513 0.993881 0
0.681758 0.980743 0
0.748837 0.968627 0
0.811231 0.957671 0
0.869322 0.947997 0
0.923247 0.939071 0
0.97406 0.9308 0
1 0.923171 0
1 0.915816 0
1 0.908568 0
1 0.901534 0
1 0.894087 0
1 0.886305 0
1 0.878264 0
0 1 0
0 1 0
0 1 0
0 1 0
0 1 0
0 1 0
0 1 0
0 1 0
0 1 0
0 1 0
0 1 0
0 1 0
0.049897 1 0
0.128176 1 0
0.204959 1 0
0.281209 1 0
0.358465 1 0
0.435843 1 0
0.512108 1 0
0.586236 1 0
0.657237 1 0
0.724315 1 0
0.78648 0.989105 0
0.844099 0.978973 0
0.897627 0.970108 0
0.94728 0.961898 0
0.994232 0.954284 0
1 0.947188 0
1 0.940108 0
1 0.933074 0
1 0.926009 0
1 0.918425 0
1 0.910643 0
0 1 0
0 1 0
0 1 0
0 1 0
0 1 0
0 1 0
0 1 0
0 1 0
0 1 0
0 1 0
0 1 0
0 1 0
0.0297093 1 0
0.1075 1 0
0.183963 1 0
0.260136 1 0
0.337102 1 0
0.414069 1 0
0.490013 1 0
0.564065 1 0
0.634852 1 0
0.701503 1 0
0.763638 1 0
0.821073 1 0
0.87425 0.998886 0
0.923445 0.990707 0
0.969329 0.983124 0
1 0.97612 0
1 0.969146 0
1 0.962417 0
1 0.955398 0
1 0.948013 0
1 0.940459 0
0 1 0
0 1 0
0 1 0
0 1 0
0 1 0
0 1 0
0 1 0
0 1 0
0 1 0
