site/assets/luts/freshluts--0000353-cine-series-roma-fellini.cube
# LUTr-Schema-Version: 2
# LUTr-ID: freshluts--0000353-cine-series-roma-fellini
# LUTr-Title: CINE SERIES_ROMA_FELLINI
# LUTr-Collection: Fresh LUTs
# LUTr-Collection-ID: freshluts-community
# LUTr-Source: https://freshluts.com
# LUTr-Retrieved: 2026-07-27
# LUTr-Source-File: submissions-raw/freshluts/cubes/353__ROMA_FELLINI.cube
# LUTr-Source-Format: CUBE
# LUTr-Source-SHA256: c810f343382e273c088a703d690f27e957bf4ca3d48ae08aeb393e92a752301e
# LUTr-License: CC0-1.0
# LUTr-License-URL: https://freshluts.com/termsandconditions
# LUTr-License-Basis: site-terms
# LUTr-Transform-Class: creative-look
# LUTr-Tags: creative, freshluts, community, cube, blue, cinematic
# LUTr-Input-Color-Space:
# LUTr-Input-Gamut: unspecified
# LUTr-Input-Transfer: unspecified
# LUTr-Output-Color-Space: srgb
# LUTr-Output-Gamut: rec709
# LUTr-Output-Transfer: srgb
# LUTr-Color-Space-Confidence: camera-profile-input-required
# LUTr-Domain-Normalized: true
# LUTr-Shaper: none
# LUTr-Original-Grid: 32x32x32
# LUTr-Conversion-Grid: 32x32x32
# LUTr-Conversion-Interpolation: none
# LUTr-Conversion-Method: Metadata normalization; numeric LUT samples preserved
# LUTr-Conversion-Tool: LUTr scripts/convert-all-to-cube.mjs 2.0.0
# LUTr-Conversion-Date: 2026-07-28
# LUTr-Asset-URL: https://freshluts.com/luts/353
# LUTr-Author: I WANT TO MAKE A FILM PODCAST
# LUTr-Author-URL: https://freshluts.com/users/15633
# LUTr-Attribution: I WANT TO MAKE A FILM PODCAST via Fresh LUTs
# LUTr-Source-Labels: gamma=Other; color=Blue; key=Neutral; style=Cinematic light
# LUTr-Note: Preserve this metadata and the upstream license notices when redistributing.
# LUTr-Upstream-Comment: Created by: Adobe Photoshop Export Color Lookup Plugin
# LUTr-Upstream-Comment: LUT size
# LUTr-Upstream-Comment: data domain
# LUTr-Upstream-Comment: LUT data points
TITLE "CINE SERIES_ROMA_FELLINI"
LUT_3D_SIZE 32
DOMAIN_MIN 0 0 0
DOMAIN_MAX 1 1 1
0.00296 0.003418 0.004669
0.007843 0.003662 0.005157
0.012909 0.003937 0.005768
0.018463 0.004578 0.005798
0.024323 0.005493 0.006256
0.033417 0.005463 0.007172
0.043457 0.006104 0.007538
0.055267 0.007172 0.007843
0.071198 0.00769 0.008545
0.090485 0.008301 0.009125
0.112274 0.009644 0.009644
0.139526 0.010315 0.0112
0.170074 0.012054 0.011719
0.206238 0.013519 0.01358
0.247253 0.015869 0.014435
0.30072 0.019257 0.015503
0.358124 0.023285 0.01651
0.414215 0.027466 0.017883
0.464905 0.032166 0.018463
0.502502 0.034729 0.018188
0.540161 0.037018 0.018463
0.576202 0.039673 0.018616
0.611084 0.04184 0.01886
0.643097 0.043762 0.019135
0.671173 0.04538 0.019562
0.69455 0.046844 0.019745
0.713806 0.04776 0.020203
0.729034 0.04892 0.019867
0.74173 0.049469 0.019928
0.752045 0.049988 0.02002
0.761017 0.050354 0.020477
0.769135 0.050781 0.020508
0.003082 0.005951 0.005219
0.008148 0.006256 0.005371
0.013489 0.006592 0.005615
0.018921 0.007263 0.006134
0.02655 0.007294 0.006744
0.033142 0.008728 0.007294
0.044037 0.008972 0.008026
0.056702 0.009674 0.008362
0.073273 0.010101 0.008942
0.091675 0.0112 0.009979
0.113373 0.012817 0.010254
0.140533 0.013763 0.011688
0.171539 0.015472 0.012146
0.207306 0.017426 0.013794
0.247681 0.020355 0.014496
0.302246 0.023254 0.016632
0.359528 0.027649 0.017548
0.414734 0.032806 0.017944
0.466217 0.036926 0.019928
0.503998 0.039032 0.019806
0.54126 0.041168 0.019897
0.577606 0.043304 0.019958
0.61203 0.04541 0.019379
0.644135 0.046783 0.020538
0.672272 0.048187 0.020325
0.695953 0.049194 0.020905
0.714752 0.050293 0.020874
0.730255 0.050995 0.020813
0.742981 0.051422 0.020996
0.753296 0.051849 0.021027
0.762146 0.052246 0.021057
0.769806 0.052795 0.021027
0.003601 0.008759 0.005646
0.009644 0.008545 0.005676
0.014893 0.00885 0.005829
0.020355 0.009521 0.006378
0.026337 0.010559 0.006897
0.034576 0.011139 0.008057
0.04483 0.011963 0.008148
0.058289 0.01236 0.008545
0.073975 0.013275 0.009247
0.093018 0.014313 0.010101
0.114685 0.016083 0.01062
0.141724 0.017303 0.011932
0.172241 0.01947 0.012573
0.208282 0.021545 0.014282
0.24942 0.024292 0.015137
0.302612 0.028351 0.016479
0.359985 0.03299 0.017426
0.41568 0.037903 0.019287
0.467438 0.042145 0.021118
0.504883 0.044098 0.020325
0.542419 0.045593 0.020752
0.57901 0.047119 0.020782
0.613708 0.048553 0.021393
0.645599 0.049866 0.021576
0.673431 0.051147 0.021423
0.697021 0.052002 0.021606
0.716187 0.052551 0.021973
0.731476 0.053284 0.021759
0.743958 0.05365 0.022034
0.754089 0.054138 0.021942
0.763153 0.054352 0.021851
0.77124 0.054504 0.022217
0.003418 0.01236 0.006378
0.009491 0.012207 0.00647
0.015717 0.012024 0.0065
0.021942 0.012024 0.006805
0.027771 0.013123 0.007721
0.037292 0.013245 0.008423
0.046448 0.014618 0.008728
0.059937 0.015289 0.008942
0.075378 0.016327 0.010193
0.094604 0.017548 0.010559
0.116089 0.019592 0.011292
0.142609 0.021484 0.011688
0.17392 0.023285 0.013519
0.209106 0.026215 0.014099
0.250336 0.029083 0.015869
0.304108 0.03299 0.017731
0.361053 0.038208 0.018311
0.416962 0.043488 0.019897
0.468597 0.047943 0.021667
0.50647 0.04892 0.022369
0.543854 0.050201 0.021851
0.580475 0.0513 0.022369
0.615265 0.052216 0.022766
0.64682 0.053375 0.022614
0.675018 0.054047 0.022949
0.698273 0.054779 0.022827
0.717316 0.055359 0.022736
0.73291 0.055634 0.022858
0.745178 0.056061 0.02298
0.755463 0.056274 0.02301
0.764221 0.05658 0.022736
0.7724 0.056641 0.023071
0.003967 0.01651 0.007324
0.009888 0.016327 0.007812
0.015289 0.016632 0.007538
0.023254 0.015656 0.007965
0.029816 0.0159 0.008026
0.037628 0.016998 0.008545
0.047791 0.018066 0.008972
0.061066 0.018829 0.009674
0.076691 0.020081 0.010376
0.095734 0.021545 0.010895
0.117767 0.023499 0.012024
0.143616 0.025909 0.012512
0.174469 0.028351 0.013458
0.210327 0.031097 0.014984
0.251526 0.034363 0.016205
0.305023 0.038818 0.017792
0.362427 0.044037 0.019287
0.418884 0.049133 0.021973
0.470734 0.053741 0.023651
0.508362 0.054413 0.023773
0.545746 0.055054 0.024231
0.582275 0.055756 0.024139
0.616974 0.056366 0.024139
0.64856 0.057007 0.024506
0.676514 0.057587 0.02417
0.699829 0.057922 0.024231
0.718689 0.058289 0.024048
0.734222 0.058502 0.024078
0.746765 0.058533 0.024139
0.756744 0.058807 0.023926
0.765442 0.05896 0.023926
0.773804 0.058929 0.02417
0.003632 0.022247 0.008362
0.009705 0.022095 0.008453
0.015961 0.021912 0.008514
0.024048 0.020935 0.008514
0.030609 0.021149 0.008514
0.039276 0.020599 0.008972
0.04953 0.02182 0.009094
0.062744 0.022827 0.010101
0.0784 0.024261 0.010559
0.096802 0.026367 0.010925
0.118805 0.028564 0.011841
0.145508 0.030701 0.013275
0.176605 0.033295 0.014313
0.211731 0.036743 0.015656
0.252563 0.040619 0.016754
0.306122 0.045441 0.018402
0.364258 0.050415 0.020966
0.420898 0.055939 0.023438
0.4729 0.060608 0.025787
0.510468 0.06076 0.025513
0.547974 0.060791 0.025726
0.584473 0.060852 0.026306
0.618927 0.061035 0.026031
0.650574 0.061249 0.026154
0.678528 0.06134 0.02594
0.701599 0.061493 0.025696
0.720703 0.061493 0.025787
0.736053 0.061493 0.025696
0.748169 0.061707 0.02536
0.75824 0.061737 0.025299
0.76709 0.061707 0.025391
0.775208 0.061676 0.025116
0.004608 0.028961 0.009552
0.011475 0.02832 0.009949
0.017731 0.028168 0.01004
0.025696 0.027252 0.010468
0.031372 0.027863 0.010132
0.042023 0.026367 0.010406
0.050812 0.026489 0.009827
0.064819 0.027283 0.010559
0.079773 0.029388 0.010864
0.099213 0.031036 0.011993
0.121185 0.03363 0.012482
0.147705 0.036224 0.013885
0.17804 0.039429 0.015503
0.213684 0.04306 0.016327
0.2547 0.047119 0.018341
0.30835 0.052246 0.020111
0.366547 0.057831 0.022278
0.423004 0.063721 0.025391
0.475342 0.06842 0.028503
0.512909 0.067963 0.028168
0.550262 0.067383 0.028381
0.586792 0.066864 0.028168
0.621185 0.066498 0.028076
0.652863 0.066193 0.027924
0.68042 0.065979 0.027649
0.703766 0.065582 0.027466
0.72287 0.065247 0.027527
0.737915 0.065216 0.027191
0.750305 0.065033 0.026825
0.760437 0.064911 0.026825
0.769104 0.064789 0.026825
0.776825 0.064789 0.026825
0.00705 0.036957 0.011139
0.012146 0.037292 0.011292
0.018372 0.037079 0.011353
0.026489 0.036133 0.011414
0.034058 0.035858 0.011353
0.044556 0.034393 0.011627
0.053925 0.034119 0.011505
0.066772 0.032684 0.0112
0.082214 0.03476 0.01178
0.101044 0.037109 0.01239
0.12323 0.039825 0.013702
0.148773 0.043335 0.014618
0.180115 0.0466 0.015656
0.215332 0.050842 0.017181
0.25647 0.055206 0.019318
0.310425 0.060638 0.021637
0.3685 0.066681 0.02417
0.425507 0.072784 0.02771
0.477753 0.077942 0.03067
0.515442 0.076477 0.030792
0.552917 0.075104 0.030914
0.589417 0.073853 0.030884
0.623962 0.072693 0.03064
0.655731 0.071625 0.030701
0.683197 0.071014 0.030029
0.706238 0.070343 0.029968
0.724915 0.069855 0.029083
0.740173 0.069397 0.028961
0.752533 0.069 0.028931
0.762451 0.068817 0.028748
0.771088 0.068573 0.028351
0.778931 0.068359 0.028229
0.005005 0.049988 0.012817
0.012909 0.04895 0.012543
0.019867 0.04837 0.012848
0.02774 0.047485 0.013245
0.035278 0.047241 0.013123
0.045654 0.045868 0.013336
0.057404 0.044434 0.013031
0.070465 0.042816 0.012787
0.084534 0.041229 0.012573
0.103271 0.044006 0.013306
0.124603 0.047668 0.013947
0.151581 0.050751 0.015411
0.182007 0.054871 0.016785
0.217621 0.059418 0.018311
0.25882 0.064301 0.020477
0.312622 0.070374 0.022644
0.371094 0.07666 0.026215
0.42804 0.083527 0.029633
0.480377 0.088867 0.033234
0.518036 0.086639 0.033142
0.555847 0.084076 0.033997
0.592316 0.08197 0.033752
0.626831 0.080017 0.033661
0.658478 0.078369 0.03299
0.686066 0.076935 0.032654
0.709229 0.075745 0.032074
0.727875 0.074829 0.031891
0.743042 0.074066 0.031464
0.755341 0.073425 0.031433
0.764954 0.073181 0.03064
0.773651 0.072662 0.030701
0.781738 0.072205 0.030426
0.005188 0.071228 0.015533
0.012512 0.070374 0.0159
0.020203 0.069489 0.015839
0.028595 0.068359 0.016174
0.036743 0.06778 0.016174
0.047882 0.066193 0.015625
0.060486 0.06427 0.015686
0.073761 0.062592 0.015198
0.08902 0.060455 0.014832
0.105194 0.058319 0.014465
0.12796 0.061096 0.015686
0.153992 0.064728 0.016632
0.184998 0.068298 0.018707
0.220245 0.072998 0.019958
0.261597 0.077637 0.022461
0.315277 0.083588 0.025024
0.373627 0.089905 0.028046
0.430603 0.096466 0.031891
0.48291 0.101562 0.035553
0.520905 0.098114 0.035858
0.558655 0.094543 0.036591
0.595367 0.091309 0.03656
0.630066 0.088348 0.036652
0.661591 0.085846 0.036011
0.689392 0.083679 0.035339
0.71228 0.08194 0.035034
0.730957 0.080627 0.034241
0.74585 0.079651 0.03363
0.758026 0.078735 0.0336
0.767853 0.078094 0.033356
0.776611 0.077393 0.032776
0.78421 0.076935 0.032532
0.005768 0.103577 0.020325
0.013 0.102753 0.02066
0.020782 0.101807 0.020782
0.028931 0.100952 0.020844
0.038208 0.099823 0.020477
0.049988 0.09787 0.020203
0.063324 0.095612 0.019867
0.077545 0.093414 0.01944
0.094086 0.090698 0.019318
0.111725 0.087921 0.018524
0.130981 0.084503 0.018585
0.157379 0.087006 0.019623
0.187683 0.090118 0.021057
0.223145 0.093567 0.022461
0.264282 0.097229 0.025024
0.318237 0.101776 0.027496
0.37677 0.106628 0.030914
0.433441 0.111938 0.034882
0.485748 0.115601 0.038818
0.523804 0.11084 0.039429
0.561615 0.106384 0.039368
0.598297 0.102051 0.039398
0.632996 0.098022 0.039398
0.664673 0.094604 0.038544
0.692505 0.091522 0.038208
0.715363 0.089172 0.037323
0.734253 0.087097 0.037262
0.749115 0.085724 0.036713
0.761322 0.084473 0.036072
0.771271 0.083527 0.03595
0.779663 0.082733 0.035461
0.787659 0.081909 0.035278
0.006561 0.138336 0.025879
0.01181 0.138519 0.02655
0.020233 0.137238 0.026855
0.02829 0.136414 0.026978
0.039429 0.134308 0.026978
0.052032 0.13208 0.026001
0.066406 0.129395 0.025269
0.081909 0.126678 0.02475
0.099548 0.123291 0.024597
0.118286 0.120117 0.02356
0.138214 0.116486 0.022827
0.159943 0.112122 0.022797
0.190369 0.114166 0.023926
0.226013 0.116302 0.025696
0.267029 0.118805 0.027893
0.321167 0.121887 0.030792
0.379547 0.125336 0.034454
0.436279 0.129089 0.038361
0.488434 0.131378 0.041901
0.526611 0.125366 0.04245
0.564545 0.119507 0.042542
0.601318 0.113953 0.042786
0.63623 0.108765 0.042267
0.668091 0.104126 0.041656
0.69574 0.10022 0.041046
0.718964 0.096954 0.040741
0.737457 0.094543 0.0401
0.752533 0.092529 0.03952
0.764435 0.091095 0.038757
0.774506 0.089783 0.038513
0.782837 0.088806 0.03772
0.790771 0.087769 0.037842
0.007416 0.175568 0.032867
0.010162 0.176636 0.035004
0.018677 0.175385 0.035278
0.027557 0.174042 0.035645
0.038757 0.17215 0.034698
0.053101 0.169189 0.033356
0.069214 0.16568 0.032349
0.085663 0.162567 0.031311
0.105072 0.158508 0.030731
0.125 0.154663 0.029755
0.146545 0.150269 0.029053
0.169586 0.145264 0.028748
0.193451 0.140198 0.027588
0.228912 0.141174 0.02951
0.269928 0.142303 0.031586
0.324036 0.143982 0.034119
0.382202 0.145935 0.037994
0.439209 0.147888 0.042053
0.491119 0.148651 0.045471
0.529419 0.141296 0.045837
0.567413 0.134094 0.045959
0.60437 0.127106 0.045959
0.639404 0.120575 0.045502
0.671326 0.114807 0.044983
0.698853 0.109955 0.044373
0.722137 0.105957 0.043335
0.740723 0.102814 0.042725
0.755646 0.100433 0.04184
0.767853 0.098297 0.041779
0.777924 0.096649 0.041229
0.786285 0.095337 0.040985
0.794128 0.094055 0.040405
0.007965 0.214966 0.041412
0.010864 0.215912 0.044098
0.014893 0.216492 0.046173
0.025696 0.214539 0.045258
0.037476 0.212158 0.045135
0.05307 0.208649 0.043457
0.070099 0.204987 0.041565
0.089264 0.2005 0.040649
0.109741 0.196075 0.039215
0.131866 0.191193 0.038025
0.154755 0.186218 0.036774
0.179565 0.18045 0.036255
0.205383 0.174408 0.035004
0.231995 0.167938 0.033875
0.273071 0.167603 0.036163
0.326874 0.167847 0.038757
0.385376 0.16806 0.042084
0.441895 0.168457 0.045959
0.493988 0.167358 0.049377
0.532349 0.1586 0.049438
0.570404 0.149994 0.049103
0.607513 0.141541 0.048981
0.642548 0.133636 0.048828
0.674469 0.126587 0.048279
0.702362 0.120575 0.047424
0.725433 0.115723 0.046631
0.744202 0.111786 0.045746
0.759277 0.108795 0.044891
0.771393 0.106293 0.044769
0.781281 0.104401 0.043976
0.789764 0.102661 0.043488
0.797638 0.101166 0.043121
0.008514 0.256195 0.052246
0.011566 0.256958 0.055115
0.014771 0.257904 0.057404
0.021271 0.257568 0.058899
0.034821 0.254608 0.057892
0.052704 0.250122 0.05542
0.071411 0.245728 0.053406
0.092224 0.240692 0.051422
0.114563 0.235382 0.049896
0.138672 0.229736 0.047882
0.163757 0.223755 0.0466
0.190216 0.217316 0.045288
0.217773 0.210419 0.043762
0.246613 0.20285 0.042816
0.27594 0.194885 0.041229
0.329956 0.194 0.043701
0.388214 0.193085 0.047516
0.444763 0.192352 0.05072
0.496979 0.189972 0.053864
0.535156 0.180573 0.05365
0.573486 0.170929 0.053772
0.61084 0.161621 0.053375
0.646179 0.152924 0.052948
0.678467 0.144928 0.052734
0.706696 0.138153 0.052063
0.730194 0.132629 0.051361
0.749268 0.128143 0.050781
0.764496 0.124725 0.050171
0.776764 0.122009 0.049713
0.787109 0.11972 0.049042
0.795593 0.117859 0.048431
0.803589 0.116089 0.048431
0.008972 0.299164 0.06366
0.012329 0.300171 0.066437
0.015686 0.30127 0.069244
0.019348 0.302429 0.072083
0.031097 0.300537 0.072418
0.049438 0.296356 0.070251
0.072662 0.290558 0.066803
0.095459 0.28537 0.064667
0.119812 0.279938 0.062317
0.145447 0.274384 0.060516
0.172546 0.268402 0.059204
0.20105 0.262024 0.057495
0.230927 0.255157 0.056091
0.261597 0.247894 0.054932
0.293518 0.240021 0.053497
0.332977 0.231903 0.05249
0.391144 0.23111 0.055725
0.447876 0.230316 0.059052
0.500122 0.228088 0.062042
0.538605 0.219177 0.061951
0.577393 0.210022 0.062042
0.615082 0.201294 0.061798
0.651245 0.192749 0.062073
0.684235 0.18515 0.061859
0.713257 0.178558 0.061493
0.737762 0.173096 0.061371
0.757538 0.168793 0.060669
0.773895 0.165161 0.060913
0.786835 0.162476 0.060455
0.797699 0.160126 0.060364
0.806824 0.158295 0.059937
0.815277 0.156555 0.059753
0.009521 0.343719 0.076477
0.013 0.345093 0.079285
0.016602 0.346436 0.082336
0.020508 0.347931 0.08548
0.02475 0.349609 0.088989
0.044708 0.345398 0.086731
0.071075 0.339111 0.08252
0.09729 0.333435 0.079163
0.124176 0.327911 0.076843
0.152222 0.322418 0.074585
0.181763 0.31662 0.072876
0.212372 0.310669 0.071259
0.244415 0.304321 0.069946
0.277588 0.297516 0.068817
0.311737 0.290283 0.067474
0.351196 0.282898 0.066437
0.393951 0.274872 0.066223
0.450836 0.274109 0.069061
0.503082 0.272064 0.071747
0.541809 0.263763 0.071777
0.58078 0.255341 0.071747
0.618866 0.24707 0.071655
0.655457 0.239166 0.071747
0.688904 0.231995 0.071808
0.718811 0.225647 0.07193
0.743958 0.220367 0.07193
0.764191 0.216278 0.071716
0.781067 0.21286 0.071716
0.794678 0.210205 0.071472
0.805786 0.208038 0.071686
0.815308 0.206207 0.07132
0.824341 0.204529 0.07135
0.01001 0.389587 0.089386
0.013702 0.391266 0.092407
0.017517 0.392975 0.095795
0.021637 0.394836 0.099091
0.026154 0.396942 0.102844
0.037415 0.396851 0.104889
0.068359 0.389496 0.099274
0.098419 0.383087 0.095154
0.128448 0.37738 0.092041
0.159271 0.371826 0.089661
0.191071 0.366425 0.087646
0.22403 0.36084 0.085999
0.258575 0.354919 0.084625
0.294037 0.348785 0.083557
0.330688 0.342194 0.082336
0.3703 0.335266 0.081848
0.411682 0.328094 0.081207
0.453552 0.320404 0.080566
0.505829 0.318542 0.082825
0.544647 0.311005 0.082855
0.58374 0.303253 0.082642
0.622131 0.295715 0.082642
0.658783 0.288422 0.082794
0.692871 0.28183 0.082642
0.723053 0.275909 0.082794
0.748413 0.271088 0.082916
0.769226 0.267273 0.082947
0.786255 0.26416 0.082825
0.800079 0.261688 0.082916
0.811707 0.259613 0.082886
0.821442 0.257965 0.082855
0.830688 0.256409 0.082642
0.010529 0.435608 0.10257
0.014343 0.437592 0.105743
0.018402 0.439636 0.1091
0.022705 0.441803 0.112976
0.027435 0.444275 0.117065
0.032837 0.44696 0.12204
0.060699 0.441681 0.118042
0.097412 0.433502 0.111511
0.130646 0.427429 0.107758
0.164124 0.421844 0.104889
0.198425 0.416565 0.102753
0.233734 0.411316 0.101166
0.270355 0.405945 0.09964
0.308167 0.400269 0.098694
0.346954 0.394409 0.097656
0.386597 0.388214 0.096954
0.426971 0.381714 0.096191
0.46756 0.374786 0.095581
0.508331 0.367523 0.095276
0.547241 0.360748 0.095062
0.586273 0.353851 0.09491
0.624817 0.347015 0.095062
0.661743 0.340515 0.094788
0.695801 0.334564 0.094849
0.726166 0.329254 0.095093
0.751801 0.32489 0.095184
0.772766 0.321411 0.095123
0.790192 0.318573 0.095062
0.80426 0.316254 0.095123
0.815887 0.314484 0.09494
0.825867 0.312988 0.094971
0.835236 0.311493 0.095154
0.010559 0.477905 0.114136
0.014404 0.480011 0.117615
0.018463 0.482208 0.12085
0.022766 0.484589 0.124664
0.027557 0.487152 0.128967
0.03299 0.490143 0.133606
0.04303 0.491974 0.137451
0.086395 0.481689 0.12854
0.123322 0.47467 0.123199
0.158417 0.468994 0.119751
0.194305 0.463593 0.116974
0.230347 0.458588 0.115051
0.2677 0.453583 0.113495
0.305969 0.448456 0.112244
0.345306 0.443115 0.111267
0.385223 0.437592 0.110504
0.425903 0.431824 0.109833
0.466797 0.42569 0.109253
0.507782 0.419312 0.108887
0.549438 0.412567 0.108551
0.588593 0.406494 0.108307
0.627045 0.400543 0.108246
0.66394 0.394836 0.108276
0.698212 0.389526 0.108246
0.728699 0.384888 0.108337
0.754486 0.381104 0.108185
0.775543 0.37796 0.108368
0.792908 0.375519 0.108246
0.807159 0.373505 0.108307
0.818848 0.371857 0.108429
0.828949 0.370453 0.108429
0.83844 0.369202 0.108368
0.010681 0.520813 0.126099
0.014526 0.523132 0.129425
0.018555 0.525574 0.133026
0.022827 0.528137 0.136871
0.027679 0.531006 0.141052
0.033112 0.534241 0.145905
0.039246 0.537903 0.151398
0.067444 0.533813 0.148773
0.112915 0.523743 0.139954
0.151764 0.516968 0.135132
0.188965 0.511475 0.13205
0.226288 0.506561 0.129761
0.264374 0.501831 0.127869
0.303223 0.497101 0.126678
0.343048 0.49231 0.125427
0.383484 0.487335 0.124542
0.42453 0.482208 0.123932
0.465637 0.476959 0.123474
0.50705 0.471344 0.123016
0.548767 0.465607 0.122833
0.590576 0.459656 0.12265
0.628937 0.454529 0.122467
0.665863 0.449615 0.122467
0.700043 0.445068 0.122467
0.73056 0.441101 0.122345
0.756226 0.437775 0.122559
0.777496 0.435089 0.122467
0.794861 0.432922 0.122559
0.809021 0.431244 0.122559
0.820831 0.42984 0.122589
0.830994 0.42865 0.122742
0.840424 0.427551 0.12262
0.010773 0.564209 0.138
0.014618 0.566742 0.14151
0.018616 0.569427 0.14502
0.022919 0.572296 0.148773
0.02771 0.575409 0.153198
0.033142 0.579041 0.157959
0.039307 0.583221 0.163483
0.046448 0.587952 0.169891
0.099213 0.574768 0.158325
0.143005 0.566254 0.15155
0.182709 0.560028 0.147461
0.221497 0.554871 0.144684
0.26059 0.550232 0.142609
0.30011 0.545746 0.140961
0.340576 0.541199 0.139862
0.381378 0.536743 0.139038
0.42276 0.532166 0.138275
0.464203 0.527496 0.137787
0.505798 0.522583 0.13739
0.547852 0.517548 0.137299
0.589661 0.512482 0.137085
0.630402 0.507538 0.136963
0.667267 0.503326 0.137085
0.701416 0.499481 0.136932
0.731842 0.496124 0.137054
0.757477 0.493286 0.137238
0.778625 0.491028 0.137177
0.796021 0.489197 0.137238
0.81012 0.487762 0.137299
0.82193 0.486572 0.137207
0.832092 0.485596 0.137238
0.841492 0.48465 0.137177
0.010773 0.607178 0.149292
0.014679 0.610016 0.152954
0.018677 0.612915 0.156433
0.02298 0.61615 0.16037
0.027771 0.619659 0.164764
0.033203 0.623749 0.169495
0.039368 0.628265 0.175232
0.046448 0.633575 0.181519
0.080048 0.628632 0.178162
0.132477 0.616302 0.16806
0.175354 0.608917 0.162659
0.215912 0.603363 0.159271
0.256348 0.598419 0.156738
0.296661 0.594086 0.155121
0.337585 0.589874 0.153839
0.378998 0.585632 0.152863
0.420746 0.581482 0.152222
0.462494 0.577271 0.151733
0.504364 0.572968 0.151337
0.546661 0.568573 0.151215
0.588684 0.564117 0.151031
0.629456 0.559845 0.151215
0.668182 0.555725 0.151184
0.702271 0.552368 0.151184
0.732574 0.549438 0.151398
0.758209 0.547028 0.151428
0.779327 0.545074 0.151611
0.796539 0.543549 0.151611
0.81076 0.542267 0.151581
0.822357 0.54126 0.151642
0.83255 0.540314 0.151825
0.841827 0.539642 0.151703
0.010834 0.648468 0.159882
0.014648 0.651611 0.163361
0.018738 0.654907 0.166992
0.02301 0.658417 0.17099
0.027832 0.662384 0.175262
0.033234 0.66684 0.180359
0.039429 0.672058 0.185974
0.046509 0.677948 0.192444
0.054779 0.684631 0.199677
0.120087 0.666077 0.184296
0.167572 0.656738 0.177307
0.210236 0.650391 0.173065
0.25177 0.645294 0.170258
0.293091 0.640839 0.168335
0.334717 0.636719 0.166901
0.376465 0.632874 0.165955
0.41864 0.629059 0.1651
0.460724 0.625275 0.164734
0.502808 0.62146 0.16452
0.545258 0.617615 0.164337
0.587494 0.61377 0.164215
0.62851 0.609985 0.164307
0.667236 0.606476 0.164398
0.702789 0.603241 0.164642
0.733032 0.600677 0.164764
0.758484 0.598663 0.164978
0.77951 0.597015 0.165009
0.796753 0.595642 0.165161
0.81073 0.594543 0.165192
0.822357 0.593689 0.165253
0.832397 0.592926 0.165344
0.841797 0.592255 0.165314
0.010834 0.686554 0.169159
0.01474 0.690063 0.172638
0.018738 0.693634 0.1763
0.023071 0.697632 0.180237
0.027863 0.701996 0.184753
0.033264 0.70694 0.189606
0.039429 0.712738 0.195251
0.0466 0.719391 0.201904
0.054565 0.72702 0.209351
0.10553 0.714661 0.200104
0.159088 0.702118 0.190582
0.204285 0.694641 0.185547
0.24704 0.689148 0.182373
0.28952 0.684387 0.180115
0.331635 0.68042 0.178528
0.374054 0.676666 0.177368
0.416473 0.673218 0.176819
0.458954 0.6698 0.17627
0.501251 0.666382 0.176178
0.543884 0.662994 0.175964
0.586212 0.659637 0.176056
0.627258 0.656464 0.17627
0.666138 0.653412 0.176392
0.701752 0.650696 0.176544
0.733185 0.648193 0.176727
0.758545 0.646454 0.17691
0.779419 0.64505 0.177094
0.796509 0.64386 0.177277
0.810455 0.642975 0.177368
0.822083 0.642242 0.177399
0.832062 0.641571 0.177429
0.841339 0.640991 0.177521
0.010895 0.71991 0.176788
0.01474 0.723694 0.18045
0.018768 0.727692 0.184113
0.023071 0.731995 0.187988
0.027893 0.736847 0.192444
0.033264 0.74231 0.19751
0.03949 0.748657 0.203278
0.0466 0.756104 0.2099
0.054596 0.764648 0.217346
0.088776 0.76059 0.21521
0.15097 0.74292 0.202271
0.198639 0.7341 0.196198
0.243011 0.727844 0.192474
0.286255 0.722961 0.190002
0.328979 0.718933 0.188324
0.371796 0.715363 0.187164
0.414581 0.712067 0.186401
0.457336 0.708893 0.185944
0.499847 0.705872 0.185699
0.542572 0.702911 0.185699
0.584991 0.700012 0.185822
0.62616 0.697266 0.186096
0.6651 0.694702 0.18634
0.700806 0.692261 0.186523
0.732208 0.690216 0.18692
0.758331 0.688507 0.187073
0.779205 0.687317 0.187164
0.796173 0.68634 0.187439
0.810089 0.685547 0.1875
