site/assets/luts/freshluts--0001240-rd-natural.cube
# LUTr-Schema-Version: 2
# LUTr-ID: freshluts--0001240-rd-natural
# LUTr-Title: RD NATURAL
# LUTr-Collection: Fresh LUTs
# LUTr-Collection-ID: freshluts-community
# LUTr-Source: https://freshluts.com
# LUTr-Retrieved: 2026-07-27
# LUTr-Source-File: submissions-raw/freshluts/cubes/1240__RD_NATURAL.cube
# LUTr-Source-Format: CUBE
# LUTr-Source-SHA256: 74632e52a9a7b5708e25252feaf878499d254d517e9f8b7d27618c6ff274d32d
# LUTr-License: CC0-1.0
# LUTr-License-URL: https://freshluts.com/termsandconditions
# LUTr-License-Basis: site-terms
# LUTr-Transform-Class: creative-look
# LUTr-Tags: creative, freshluts, community, cube, orange, sony-s-log3
# LUTr-Input-Color-Space: sony-slog3-sgamut3
# LUTr-Input-Gamut: sony-s-gamut3
# LUTr-Input-Transfer: sony-s-log3
# LUTr-Output-Color-Space: srgb
# LUTr-Output-Gamut: rec709
# LUTr-Output-Transfer: srgb
# LUTr-Color-Space-Confidence: inferred-from-source-label
# LUTr-Domain-Normalized: true
# LUTr-Shaper: none
# LUTr-Original-Grid: 33x33x33
# LUTr-Conversion-Grid: 33x33x33
# LUTr-Conversion-Interpolation: none
# LUTr-Conversion-Method: Metadata normalization; numeric LUT samples preserved
# LUTr-Conversion-Tool: LUTr scripts/convert-all-to-cube.mjs 2.0.0
# LUTr-Conversion-Date: 2026-07-28
# LUTr-Asset-URL: https://freshluts.com/luts/1240
# LUTr-Author: Antony Eliezer
# LUTr-Author-URL: https://freshluts.com/users/32961
# LUTr-Attribution: Antony Eliezer via Fresh LUTs
# LUTr-Source-Labels: gamma=Sony S-Log 3; color=Orange; key=Neutral; style=Teal - Orange
# LUTr-Note: Preserve this metadata and the upstream license notices when redistributing.
# LUTr-Upstream-Comment: VEGAS Pro LUT
TITLE "RD NATURAL"
LUT_3D_SIZE 9
DOMAIN_MIN 0 0 0
DOMAIN_MAX 1 1 1
0.01659718 0.0229658 0.01535054
0.04136832 0.02175252 0.01449235
0.06691234 0.01968047 0.01272573
0.10009108 0.01707679 0.00983855
0.18302885 0.02777676 0.01183815
0.35787216 0.03845623 -0.01091749
0.49845758 0.05791224 -0.00285079
0.59742188 0.05777242 -0.01970297
0.67844206 0.0858741 -0.00358984
0.01669133 0.06417909 0.0249674
0.04356316 0.06140253 0.0224736
0.07338379 0.05161425 0.01537871
0.12030701 0.04783617 0.01224207
0.23928346 0.06115004 0.00611708
0.39534941 0.06570809 -0.01258318
0.5129351 0.08381119 0.00063977
0.60433918 0.08214074 -0.02126304
0.67854553 0.11399278 -0.00311346
0.00514336 0.11340273 0.03119867
0.03551602 0.11394877 0.03036457
0.0738585 0.10880901 0.02427534
0.16097036 0.1073923 0.0198935
0.30803394 0.1108494 -0.00768564
0.43884447 0.10798368 -0.01430643
0.5332076 0.11711469 -0.0006108
0.61464244 0.11517815 -0.0234342
0.69493353 0.15787168 -0.00607745
0.00479021 0.18055356 0.04712585
0.0357436 0.17999852 0.04592121
0.07026213 0.18788426 0.03511003
0.22378491 0.19302084 0.01302818
0.38155749 0.1936377 -0.0128919
0.50332934 0.19227996 -0.01412649
0.58761424 0.18668836 -0.01830674
0.64964348 0.18112785 -0.01987329
0.71686041 0.21115579 -0.00843596
0.00126113 0.26103964 0.06593966
0.03560779 0.25788498 0.06449777
0.06791127 0.27386054 0.04533217
0.29679269 0.31097153 -0.01076373
0.45081109 0.30745122 -0.01284143
0.5608803 0.30215624 -0.00768737
0.63796616 0.29210287 -0.00532964
0.69656533 0.27664942 -0.02447932
0.74016988 0.27527046 -0.00993263
-0.00119473 0.37424836 0.0946386
0.03121361 0.36897519 0.0922588
0.07202762 0.37988722 0.08407327
0.27639532 0.44561514 -0.01359409
0.50958532 0.4855803 -0.01216514
0.62128699 0.46640906 -0.01426993
0.69715434 0.44698808 0.00149945
0.74842608 0.41881841 -0.0117269
0.76878399 0.35585916 -0.00859137
0.01221749 0.47465369 0.11559115
0.04162339 0.47149011 0.11368521
0.06323621 0.47477257 0.11072297
0.1319035 0.53636193 0.02528201
0.45962268 0.60675746 -0.00601196
0.6547994 0.64497936 -0.01371691
0.75578725 0.64030159 -0.00293016
0.80881459 0.60240245 -0.01545063
0.80229414 0.45908165 0.0078802
0.00946754 0.53681874 0.12240733
0.04104354 0.5354895 0.12157833
0.07245391 0.53657258 0.12115783
0.09876769 0.57628006 0.10176636
0.36718303 0.66187942 -0.01940474
0.60910445 0.72310811 -0.0143901
0.75843626 0.75205761 -0.00812368
0.85061324 0.75792646 0.01663772
0.85150141 0.60351354 0.01145998
0.11891239 0.77398032 0.18094912
0.29804489 0.79712671 0.14583598
0.43136126 0.81714219 0.12844224
0.5399918 0.83361888 0.1109044
0.65090495 0.84997326 0.08991674
0.74846023 0.86353928 0.05566614
0.84054214 0.87466085 0.03602651
0.92423612 0.88254625 0.03362377
0.99277878 0.88319403 0.11616556
0.01567655 0.0253347 0.05211243
0.04142177 0.02506375 0.05286696
0.06774189 0.02181803 0.04703949
0.10778824 0.01930749 0.03931358
0.20853861 0.03197458 0.03665545
0.3799817 0.04012853 0.01490037
0.50711828 0.05919908 0.02564373
0.6018194 0.05759938 0.00553747
0.67851365 0.08664805 0.02633615
0.0169209 0.06904359 0.0633931
0.04412994 0.06977244 0.06269311
0.07435959 0.05870205 0.04984173
0.13001551 0.05391308 0.04199557
0.26127559 0.06384907 0.03033848
0.4127079 0.0696075 0.01364971
0.52054185 0.08511873 0.02746658
0.60881543 0.08196428 0.003554
0.67861861 0.11458114 0.026963
0.01072014 0.12378719 0.06982714
0.03804377 0.12400971 0.06720695
0.06922872 0.1191842 0.05910561
0.17098609 0.11642238 0.04936692
0.32519239 0.11843465 0.01809586
0.45269647 0.11607257 0.013949
0.53934145 0.11788312 0.02171369
0.61642659 0.11598627 0.00210335
0.69666111 0.16001885 0.02317709
0.0059119 0.18998376 0.07999616
0.03272389 0.18831085 0.0767346
0.06914787 0.19269663 0.06665246
0.22671096 0.20195858 0.03843508
0.38943434 0.20221668 0.01350463
0.51112348 0.19940561 0.01334726
0.59322757 0.19122098 0.00656161
0.65194517 0.18390726 0.00653738
0.718261 0.21411595 0.02209367
0.00006439 0.26951489 0.09600112
0.03214379 0.26650235 0.09343699
0.06375309 0.27465764 0.08461303
0.2897414 0.322106 0.01590795
0.45226368 0.31845579 0.01330737
0.56493586 0.30932513 0.0174453
0.64171362 0.29704461 0.01974447
0.69837737 0.27967 0.0015127
0.74210435 0.27887201 0.01876809
-0.00263867 0.38117221 0.12292291
0.0285085 0.37764192 0.12097511
0.07187138 0.38189754 0.11538653
0.24399351 0.44849715 0.01306027
0.5016821 0.49177927 0.01333808
0.62351781 0.47669858 0.01195727
0.69961405 0.45373419 0.02743356
0.75026995 0.42400306 0.01634489
0.77071118 0.36034614 0.02017041
0.0133056 0.47694385 0.14269035
0.04282955 0.47396651 0.14050475
0.0633394 0.47683805 0.1374768
0.1240389 0.5354827 0.06287052
0.4541969 0.60856998 0.02020422
0.65329283 0.64808768 0.01210578
0.75725222 0.64558905 0.02440348
0.81104863 0.60844648 0.01306487
0.80492175 0.46519276 0.03455602
0.00803303 0.5378021 0.14995129
0.03912716 0.53652745 0.14923698
0.07089402 0.53766328 0.14897007
0.09850007 0.57917166 0.12830634
0.37106892 0.66403615 0.00914706
0.61069572 0.72476864 0.01470624
0.75962657 0.75373894 0.02404377
0.85251331 0.76157713 0.0498758
0.8539322 0.60961771 0.03804759
0.12331559 0.78572285 0.27430418
0.29422033 0.80949652 0.25323266
0.42778 0.82896429 0.23679227
0.54006582 0.84637922 0.22253075
0.65333915 0.86346728 0.20291512
0.75257069 0.87614352 0.17296112
0.84711808 0.88736826 0.14151424
0.9322533 0.89628923 0.13013218
0.99656904 0.8934381 0.20091121
0.00484337 0.02746264 0.10832187
0.02858763 0.02771615 0.1102562
0.05897339 0.02639608 0.11016282
0.11162544 0.02490375 0.09855311
0.22626604 0.03601852 0.08345994
0.4008365 0.03974581 0.04495771
0.51241058 0.06003786 0.05747932
0.60410887 0.05788637 0.03611352
0.67858177 0.08764639 0.05533999
0.00162386 0.06840336 0.12403942
0.02741821 0.07005505 0.12396149
0.06091691 0.07030001 0.12164278
0.13561344 0.06399195 0.10394402
0.2804026 0.06695287 0.0772168
0.43146166 0.07029054 0.04429188
0.52532732 0.0862279 0.05941147
0.61101574 0.08251526 0.03578585
0.67899054 0.11577147 0.05583967
0.01086214 0.13833758 0.14465924
0.03556136 0.13995561 0.14307688
0.06815746 0.14009383 0.14013533
0.17473572 0.13181396 0.11177055
0.34613028 0.12644181 0.06295814
0.4737339 0.11807446 0.04441488
0.54325134 0.11862072 0.05231253
0.61778486 0.11702613 0.03594894
0.69925535 0.16318586 0.0504732
0.00835189 0.20936801 0.15631151
0.03338582 0.20876068 0.15071048
0.0665055 0.2075462 0.14264268
0.22956099 0.22157773 0.10964224
0.41027886 0.2159963 0.04821051
0.52514333 0.20893344 0.04631658
0.59834689 0.19699889 0.04070533
0.65588462 0.18879659 0.04114218
0.72028536 0.21841514 0.0516794
-0.0011354 0.29352617 0.16328864
0.02759869 0.29010174 0.15612173
0.06726193 0.29053035 0.14677963
0.28058377 0.34572741 0.06519537
0.47057652 0.341203 0.04776746
0.57788509 0.3231107 0.04679481
0.64700496 0.30531579 0.05293009
0.70241386 0.28654936 0.03733754
0.74710679 0.28405008 0.04692383
-0.0001036 0.40145999 0.1734208
0.02923007 0.39787212 0.16880751
0.06589218 0.39515254 0.1621245
0.20781541 0.46337914 0.0486576
0.50888181 0.51173538 0.04818759
0.63649935 0.49775678 0.05378213
0.70519406 0.46591794 0.0620788
0.75503081 0.43481281 0.05352406
0.77937877 0.36840388 0.05199509
0.00286622 0.48674762 0.18443474
0.03299936 0.48329222 0.18128847
0.07226205 0.4849239 0.17788935
0.12598929 0.54203057 0.10762034
0.4595626 0.61925411 0.05423639
0.66521013 0.66193897 0.04643643
0.77000308 0.65985727 0.05695841
0.816881 0.61993861 0.04978789
0.82043695 0.47810683 0.06469116
0.00586457 0.54294562 0.19128513
0.03644504 0.54134989 0.18993631
0.06935498 0.54380631 0.18807583
0.09729211 0.58875406 0.16397929
0.38523105 0.67384714 0.05296333
0.62549102 0.73386312 0.05058379
0.7762453 0.76370794 0.06798065
0.86890841 0.77158231 0.08984213
0.8756386 0.62661898 0.06645394
0.12546441 0.79660666 0.35184509
0.2885704 0.82162899 0.33648345
0.42745945 0.84076369 0.32919371
0.54294968 0.8578549 0.32016328
0.65593231 0.87413841 0.30662182
0.75471967 0.886464 0.29249156
0.85002625 0.89712173 0.27635142
0.93494958 0.90571398 0.25787035
0.99656975 0.90219069 0.30059969
-0.00304287 0.0323174 0.18561603
0.02161987 0.03254849 0.1861988
0.04615215 0.03264035 0.19072868
0.09834434 0.02575606 0.19370134
0.24621604 0.04037578 0.18457566
0.44198585 0.0016402 0.14290963
0.57557708 -0.01473727 0.08555723
0.63739789 0.02482264 0.07237644
0.70450187 0.06663866 0.06830596
-0.00297289 0.07718343 0.19974837
0.02289623 0.07751229 0.1993742
0.04806446 0.07744577 0.20090832
0.12443345 0.071045 0.21442275
0.30004874 0.069845 0.1886614
0.47989291 0.01591344 0.13966458
0.58839673 0.00913794 0.08663083
0.64448011 0.04651467 0.07227288
0.71144736 0.09228838 0.06872158
-0.00244526 0.14840363 0.22486445
0.023438 0.14888354 0.22354317
0.04993585 0.14931627 0.22196199
0.15351592 0.15343559 0.24245884
0.36579168 0.14341168 0.19862318
0.53447235 0.05962921 0.13939966
0.60676903 0.04170986 0.09374388
0.65648645 0.06990182 0.07212508
0.7304076 0.15713274 0.07583713
0.00335864 0.23705544 0.26175576
0.02743933 0.23765332 0.25917253
0.05620062 0.23617505 0.25386152
0.19512345 0.25408646 0.25780001
0.43158108 0.24104373 0.20495565
0.59322292 0.19870572 0.13140087
0.66874433 0.16895618 0.08146707
0.69744641 0.17821954 0.07169712
0.75381368 0.21986377 0.07838739
0.00006558 0.32972297 0.27803269
0.02601365 0.32787612 0.27123854
0.06234445 0.32418144 0.26173356
0.21611232 0.37649158 0.25195619
0.50762182 0.37916365 0.20323224
0.65666771 0.33970761 0.12000901
0.72354025 0.30745849 0.07728498
0.7474556 0.29564098 0.07812489
0.7826851 0.29011795 0.07419205
0.00575207 0.44054356 0.28720379
0.03249905 0.43773392 0.28166324
0.07238004 0.43275487 0.2703332
0.09647279 0.50437284 0.22657722
0.54170501 0.56718922 0.13777609
0.71976012 0.54753101 0.08125304
0.78392982 0.50139582 0.07674909
0.80926389 0.4585664 0.07359131
0.81920344 0.37966931 0.08184464
0.01608043 0.52079779 0.28656021
0.04326576 0.51728833 0.28015608
0.06914975 0.51875746 0.27444115
0.09588394 0.57700461 0.24955496
0.47424313 0.68010986 0.09185463
0.72665238 0.71563262 0.08102148
0.83937454 0.70956141 0.08811603
0.87518388 0.66044676 0.08863907
0.85909545 0.49395233 0.08977798
0.00873656 0.572236 0.29106823
0.04098853 0.5689981 0.28507128
0.07960561 0.57178158 0.28128445
0.08998538 0.62023449 0.26581937
0.35873803 0.7265563 0.0860419
0.66496819 0.77804303 0.07869235
0.82853872 0.80318505 0.09444248
0.92043358 0.80614883 0.12943244
0.91264153 0.65014237 0.0815656
0.12523423 0.8087073 0.43230367
0.27715269 0.83422816 0.42051914
0.42380312 0.85242361 0.41546479
0.54413819 0.8690623 0.4087584
0.65744716 0.88462788 0.3991743
0.75736439 0.89760286 0.39090198
0.85156214 0.90836781 0.38237712
0.9354862 0.91539639 0.37102738
0.99657118 0.91308516 0.38042128
-0.00620877 0.05446031 0.26523182
0.01926467 0.05477046 0.26551652
0.04430282 0.05784917 0.26853231
0.07641406 0.05198855 0.27297729
0.25850192 0.02489284 0.32036877
0.47208437 -0.00919201 0.29005525
0.60235 -0.01574863 0.24721043
0.67672819 -0.01958835 0.20937856
0.74324238 -0.0042444 0.15865217
-0.00150188 0.09581324 0.27451089
0.02413706 0.09615342 0.27540556
0.04760741 0.09677307 0.27946159
0.09073029 0.06019841 0.30820173
0.32100213 0.04785689 0.3403118
0.5050661 0.01473422 0.29566589
0.61502558 0.00892889 0.25166869
0.68204421 0.00489007 0.21458532
0.76006013 0.02304124 0.15534228
-0.00518391 0.16421011 0.3092086
0.02070405 0.16541016 0.31051514
0.04605588 0.16585048 0.31200859
0.08922332 0.15846559 0.33329383
0.38353804 0.1611841 0.37276128
0.56304038 0.07534923 0.31308669
0.63896054 0.04253776 0.2610476
0.6902203 0.03852011 0.22460949
0.79376584 0.05403461 0.14112154
-0.00027526 0.25290421 0.35162747
0.02530248 0.25446397 0.3520937
0.05332514 0.25332686 0.34918365
0.09588367 0.25802743 0.38081458
0.44051638 0.27161479 0.39381182
0.6164158 0.22532079 0.32843947
0.70998937 0.14321312 0.27070397
0.76161379 0.08119307 0.21561885
0.81866652 0.16387777 0.13380139
0.00523916 0.37338829 0.40756929
0.03079395 0.37353787 0.40499488
0.0581469 0.36785713 0.39602059
0.11027904 0.41298723 0.43835822
0.50943089 0.42541331 0.41734302
0.67665881 0.37698331 0.34666404
0.76676524 0.32678834 0.2857165
0.81662589 0.28081641 0.21757832
0.84568715 0.26778424 0.13036774
-0.00147258 0.48458126 0.42345938
0.02548217 0.48245052 0.41866091
0.05910423 0.47718075 0.40753269
0.09179845 0.53315037 0.42308807
0.52516031 0.61582857 0.41159394
0.74088168 0.60252863 0.36537796
0.83266532 0.54164249 0.29479954
0.87908524 0.47661194 0.21658204
0.881244 0.37643325 0.11487266
-0.00037138 0.56029326 0.42120373
0.03016537 0.55650449 0.41394535
0.06328429 0.55699688 0.40744889
0.10857375 0.61206406 0.41518423
0.43961489 0.72127295 0.37119359
0.73987937 0.76288074 0.34911549
0.88026816 0.75519514 0.29685843
0.93933338 0.70139378 0.20732442
0.92215562 0.51172 0.11377602
0.00169125 0.60599774 0.41757509
0.03429765 0.60238981 0.40958732
0.06934905 0.60500664 0.40469521
0.10718326 0.65594763 0.41026568
0.3100028 0.76342219 0.35375386
0.67204285 0.81988406 0.31827274
0.85611963 0.84413314 0.29089478
0.9563666 0.84553242 0.26005498
0.96994966 0.68058592 0.11498335
0.11023388 0.82271582 0.51560843
0.26292396 0.84852737 0.50860506
0.42371297 0.86597204 0.50431663
0.5490998 0.88294256 0.4998216
0.65871519 0.89733833 0.49393234
0.75875074 0.90906024 0.48737946
0.85248935 0.91903281 0.4806608
0.93307662 0.9271425 0.47166058
0.9965741 0.9230566 0.47920915
-0.00856975 0.09198992 0.3429324
0.01765857 0.09228181 0.34368697
0.04437644 0.09363216 0.3474052
0.07997561 0.09265175 0.35077453
0.22803253 -0.00556097 0.44822693
0.50049013 -0.01165782 0.46897233
0.62357897 -0.01502977 0.42263705
0.69317693 -0.01907193 0.37612605
0.75512666 -0.00191088 0.29696158
-0.00729322 0.12418751 0.35056961
0.01933645 0.12460977 0.35206917
0.04765437 0.12422577 0.35533828
0.07625185 0.11947733 0.36076599
0.27721763 0.02213517 0.46507803
0.52885801 0.01571103 0.47663325
0.63386077 0.00999956 0.42925617
0.69831115 0.00584803 0.38372785
0.78191209 0.02514031 0.29781649
-0.00847902 0.18284951 0.38972685
0.01706148 0.18413752 0.39243501
0.0425963 0.18501648 0.39656526
0.07983824 0.18179606 0.40264657
0.33473349 0.13063879 0.51732361
0.58509928 0.07121392 0.51293898
0.66418278 0.04391212 0.44854107
0.70571446 0.03938967 0.39665562
0.81453937 0.05486539 0.29861525
-0.00529367 0.26505396 0.44042045
0.01965342 0.26796338 0.44416237
0.04720192 0.26737291 0.44391355
0.08330777 0.26611239 0.4558135
0.38724571 0.26596484 0.56227243
0.63139558 0.24649629 0.54423279
0.72711486 0.1713261 0.48202014
0.7771886 0.09843908 0.41924921
0.83941454 0.18723394 0.30433509
0.01018372 0.38169855 0.50021809
0.03531555 0.3845996 0.50232899
0.06555405 0.38003105 0.49674386
0.09484079 0.39516124 0.5284304
0.45030814 0.4338342 0.61039662
0.68620288 0.41791582 0.5834468
0.77968127 0.36013174 0.5167864
0.83035851 0.31038332 0.44872519
0.86771309 0.29478186 0.31687686
0.01177939 0.53338999 0.56878692
0.03952221 0.53128445 0.56545871
0.06853679 0.52588278 0.55782461
0.09240244 0.57876599 0.60188919
0.4831669 0.65783125 0.64450538
0.73747683 0.65499544 0.62117273
0.8396821 0.59396893 0.55790401
0.89039052 0.52268904 0.48404253
0.90050006 0.41211471 0.33074546
-0.00040668 0.60649705 0.56966984
0.02881688 0.60290575 0.56285012
0.05956704 0.60234261 0.55822122
0.09103084 0.65747416 0.59034276
0.38479879 0.76346308 0.61233193
0.72554439 0.80465907 0.60901535
0.87650341 0.8002035 0.58193767
0.9431361 0.7491715 0.50731236
0.93967873 0.54915947 0.34164193
0.00059453 0.64560682 0.55486768
0.03064726 0.64172965 0.54676658
0.06113322 0.64718145 0.54656851
0.09144288 0.70133519 0.57120711
0.25573051 0.80327451 0.57700092
0.66196102 0.85638887 0.57216817
0.85055846 0.87908375 0.56408995
0.95527858 0.87953997 0.53555858
0.98341179 0.72047257 0.34698594
0.0816272 0.84227598 0.60582519
0.26039737 0.86483061 0.60396218
0.42645684 0.8816542 0.60215354
0.55497402 0.897443 0.60021132
0.66116762 0.91146386 0.5961833
0.76067847 0.92269969 0.59068596
0.85218054 0.93237138 0.58442438
0.93168294 0.93884361 0.57804942
0.99657559 0.93600184 0.58630401
-0.01602293 0.12119902 0.42683503
0.01013796 0.12140895 0.4273777
0.03501057 0.12223969 0.43044201
0.06734949 0.12232428 0.43430859
0.18070456 -0.00066218 0.55302972
0.4732227 -0.00958931 0.59244108
0.64249229 -0.01020722 0.59051484
0.70785129 0.00001816 0.54945707
0.77428019 0.00159678 0.45067686
-0.01546123 0.15408875 0.43524528
0.01013328 0.15360996 0.4360117
0.03496604 0.15202795 0.43712997
0.07234291 0.14874139 0.43612006
0.22627756 0.01903998 0.57000595
0.50356048 0.01655645 0.59642249
0.65070289 0.01848767 0.59215289
0.71158588 0.02645144 0.55423504
0.80936337 0.02832549 0.46132061
-0.01299977 0.2017519 0.46411934
0.01183991 0.20160605 0.46592164
0.03884471 0.20077789 0.46820131
0.07691345 0.19819134 0.46772817
0.27132341 0.07339497 0.61717433
0.55416238 0.05041387 0.63694268
0.68264061 0.04557895 0.61863077
0.71841395 0.0617204 0.56512731
0.83533078 0.10738935 0.47172639
-0.00953569 0.27403486 0.51103568
0.01512207 0.27548268 0.51464581
0.043873 0.27594668 0.51664251
0.08010743 0.27256635 0.522632
0.30414099 0.23034255 0.67278391
0.60339671 0.2244669 0.69016749
0.74009192 0.18263489 0.67742968
0.79152715 0.11321588 0.62105507
0.85763097 0.23783441 0.48357621
-0.00629908 0.38078457 0.5718199
0.01840905 0.38358697 0.57478011
0.04881126 0.38103816 0.57215214
0.08371788 0.38532779 0.59054559
0.33000341 0.39993617 0.72828698
0.65603793 0.41430652 0.74509072
0.78747445 0.38877848 0.72419143
0.84109199 0.33648059 0.66413844
0.88338554 0.34116262 0.49988821
-0.00357871 0.5350039 0.64521313
0.02331917 0.53578758 0.6453923
0.05428271 0.53019339 0.63964134
0.0982724 0.55398619 0.67127448
0.32572266 0.63095766 0.7802217
0.69658709 0.65781599 0.79209298
0.83907968 0.63360959 0.77269667
0.89419264 0.56368637 0.71087408
0.91396844 0.46097627 0.52154851
0.01375943 0.64012951 0.68505311
0.04401515 0.63721144 0.6803596
0.07601824 0.63903195 0.68105829
0.1012132 0.69370592 0.72942251
0.32018399 0.79375148 0.80169022
0.70460171 0.83564335 0.81004256
0.86710358 0.83597732 0.79718149
0.93768466 0.78967482 0.73920637
0.94928002 0.60460788 0.542831
0.00672159 0.67723793 0.67175519
0.03698642 0.67462027 0.66675568
0.06272761 0.68763983 0.67644316
0.09211981 0.74193865 0.71714818
0.23878887 0.83511901 0.76665169
0.64831966 0.88804024 0.7753495
0.83656836 0.90780711 0.77163386
0.94753635 0.91044402 0.75512397
0.98791534 0.7704829 0.55794823
0.0881188 0.86514378 0.71221113
0.28947583 0.88526571 0.71335882
0.43293285 0.89980149 0.71315384
0.56056964 0.91583711 0.71332335
0.66755337 0.92893779 0.71337855
0.76591629 0.94019604 0.71089941
0.85454398 0.94896185 0.70579135
0.93021393 0.95563924 0.70039999
0.9965741 0.95327151 0.69983792
-0.016585 0.14709112 0.50435424
0.01023998 0.14711572 0.50424927
0.03577199 0.14729637 0.50534248
0.06418556 0.14709413 0.50739843
0.1087873 0.12976727 0.54059905
0.42511901 -0.00269391 0.68578446
0.63376188 -0.00247844 0.69070971
0.73217374 0.01004411 0.69091624
0.81911957 0.00794188 0.63543391
-0.01593637 0.18929239 0.52363169
0.01043616 0.18914577 0.5236491
0.03549145 0.18801308 0.5239172
0.06732459 0.18553443 0.52331012
0.1343445 0.08556189 0.62476993
0.46314725 0.02396662 0.7092483
0.65250683 0.02270789 0.70244735
0.73467219 0.03236606 0.6913622
0.8445881 0.08837008 0.65409064
-0.01509259 0.23250614 0.54491276
0.01055159 0.23176184 0.54499429
0.0368515 0.23055261 0.5458557
0.07174765 0.22695765 0.54291558
0.15863259 0.1407676 0.66567451
0.50048602 0.08918084 0.7389735
0.68310106 0.04781469 0.73507172
0.76484144 0.0472435 0.72430241
0.86269772 0.21475708 0.67068124
-0.01364292 0.28445944 0.57432199
0.01148444 0.28426778 0.57522911
0.04103692 0.28428191 0.57599658
0.07613412 0.28125826 0.57439804
0.178561 0.22405784 0.71892279
0.53545994 0.21351869 0.77257091
0.71893871 0.17415434 0.77829778
0.80564219 0.1523148 0.7723527
0.88217527 0.31143719 0.68904537
-0.01076066 0.37458217 0.62170768
0.01479987 0.37623772 0.623514
0.04572608 0.37554908 0.62332046
0.07983998 0.37455201 0.62939489
0.173979 0.37507036 0.7619043
0.57704175 0.38199553 0.822074
0.76141346 0.37954241 0.82999879
0.84905195 0.36713216 0.82120621
0.90455103 0.41846421 0.71102077
0.01249337 0.51847333 0.69126832
0.03825738 0.52104741 0.69302773
0.07361019 0.51594245 0.68923783
0.08620977 0.52314711 0.70390332
0.14179942 0.58021921 0.8253057
0.61194301 0.6123997 0.87496144
0.80519104 0.61729151 0.87991029
0.89585626 0.59708869 0.86995983
0.93232363 0.54336846 0.73463488
-0.00186152 0.63974571 0.7399922
0.02814439 0.63881165 0.73898226
0.06019872 0.63617641 0.73709166
0.1055142 0.666695 0.77007776
0.16657805 0.75897378 0.86719745
0.62652057 0.81303447 0.90517318
0.83291656 0.82750922 0.91030145
0.93126887 0.81532145 0.89904839
0.96055913 0.68233889 0.7552743
0.04080765 0.69540608 0.74871898
0.06904347 0.69475377 0.74725318
0.08064501 0.71494836 0.76750362
0.10659061 0.7702868 0.81757438
0.13786733 0.8552717 0.88906926
0.63294917 0.9050107 0.9087562
0.82573622 0.92600167 0.91289449
0.93761468 0.93090034 0.9077884
0.98749006 0.82766795 0.77058786
0.17426692 0.89351159 0.83841735
0.32812846 0.91142386 0.84410936
0.46734396 0.92609417 0.84674025
0.57858604 0.93903112 0.84801394
0.67534256 0.94998682 0.84768635
0.77078176 0.960379 0.84672302
0.85465598 0.96774745 0.84587675
0.92631704 0.97341871 0.84383571
0.99660474 0.97405016 0.8365854
0.03233181 0.46419227 0.83345735
0.12709726 0.47851354 0.89854211
0.35370037 0.49221849 0.91934574
0.50562763 0.50133663 0.92814529
0.62423009 0.5063495 0.93339723
0.71963292 0.50844467 0.93736976
0.79727376 0.50810516 0.94012314
0.86150897 0.51000327 0.94262987
0.94686586 0.53307784 0.9489193
0.03412088 0.52742743 0.84838736
0.13883267 0.54850811 0.90292716
0.33479366 0.56386477 0.92937499
0.5024808 0.57528102 0.93897319
0.6251511 0.58231831 0.94392455
0.72268826 0.58527404 0.94801652
0.80278844 0.58593005 0.95087606
0.8699441 0.5886901 0.95383757
0.95629835 0.60480809 0.95842373
0.0354908 0.58783847 0.86324489
0.1324853 0.61236119 0.91006905
0.31933668 0.6294952 0.93801254
0.50002807 0.64345503 0.94771898
0.62672049 0.652421 0.95314902
0.72664332 0.65614122 0.95716435
0.80853677 0.65851742 0.95989019
0.8775472 0.66184819 0.96274698
0.96422124 0.67034513 0.96672845
0.03819619 0.64840341 0.87977839
0.1060448 0.67522621 0.92242295
0.29430082 0.69488627 0.94696778
0.49830663 0.71070796 0.95624125
0.63060361 0.72101617 0.96181303
0.73092568 0.72681397 0.96615547
0.81417191 0.73110855 0.96830648
0.88590038 0.73453033 0.97142154
0.97265095 0.73641568 0.97325331
0.053697 0.70445102 0.89607996
0.08283594 0.73468846 0.93458879
0.2917296 0.75480092 0.95363778
0.50388288 0.7715227 0.96223491
0.63346368 0.78217679 0.96829027
0.73478818 0.78932422 0.97148907
0.81816554 0.79410511 0.97471464
0.89082742 0.79866177 0.97760248
0.97964144 0.79744554 0.97849995
0.06042839 0.75892162 0.91344202
0.09847538 0.78817916 0.94626421
0.31830174 0.80910802 0.96071631
0.51812899 0.82480067 0.9681682
0.63858593 0.83700413 0.97282857
0.73971778 0.84462076 0.97675645
0.82181126 0.85000116 0.97948295
0.89665884 0.85599011 0.98227471
0.98586869 0.85223764 0.98347902
0.05717893 0.81065989 0.9312796
0.12956788 0.8368836 0.95748591
0.37387255 0.85496813 0.96541613
0.53883761 0.86896968 0.9719404
0.64899844 0.88002253 0.97666591
0.74382657 0.88841146 0.98031098
0.82749701 0.89461756 0.98261106
0.9023813 0.90105516 0.98548782
0.99026316 0.89773643 0.98737568
0.04577528 0.860466 0.95172358
0.2555283 0.88134187 0.9643966
0.45222646 0.89625442 0.9703142
0.57248253 0.90877432 0.97483605
0.66625714 0.91782194 0.97841692
0.75520039 0.92634666 0.98230648
0.8365975 0.93325174 0.98502928
0.90961993 0.94008428 0.98743552
0.99284613 0.93894947 0.98936981
0.51712519 0.95563489 0.97774708
0.59219444 0.96235716 0.980784
0.66117728 0.96963471 0.98331684
0.72386402 0.97518981 0.98510647
0.78918535 0.98069066 0.98703861
0.84515327 0.98496729 0.98874605
0.8959896 0.98871797 0.9905678
0.93983728 0.9921385 0.9911707
0.99427778 0.9943437 0.99150681
