site/assets/luts/freshluts--0001055-picturefx-ntflx-drk-i.cube
# LUTr-Schema-Version: 2
# LUTr-ID: freshluts--0001055-picturefx-ntflx-drk-i
# LUTr-Title: PictureFX NTFLX DRK I
# LUTr-Collection: Fresh LUTs
# LUTr-Collection-ID: freshluts-community
# LUTr-Source: https://freshluts.com
# LUTr-Retrieved: 2026-07-27
# LUTr-Source-File: submissions-raw/freshluts/cubes/1055__PictureFX-NTFLX-DRK-GRN-25.cube
# LUTr-Source-Format: CUBE
# LUTr-Source-SHA256: ec6ad80dd08352d55fba2f21b0049cb642b8cfe4265d3f4ddf6c9af4ae988997
# LUTr-License: CC0-1.0
# LUTr-License-URL: https://freshluts.com/termsandconditions
# LUTr-License-Basis: site-terms
# LUTr-Transform-Class: creative-look
# LUTr-Tags: creative, freshluts, community, cube, film-emulation, green
# LUTr-Input-Color-Space:
# LUTr-Input-Gamut: unspecified
# LUTr-Input-Transfer: unspecified
# LUTr-Output-Color-Space: srgb
# LUTr-Output-Gamut: rec709
# LUTr-Output-Transfer: srgb
# LUTr-Color-Space-Confidence: camera-profile-input-required
# LUTr-Domain-Normalized: true
# LUTr-Shaper: none
# LUTr-Original-Grid: 25x25x25
# LUTr-Conversion-Grid: 25x25x25
# LUTr-Conversion-Interpolation: none
# LUTr-Conversion-Method: Metadata normalization; numeric LUT samples preserved
# LUTr-Conversion-Tool: LUTr scripts/convert-all-to-cube.mjs 2.0.0
# LUTr-Conversion-Date: 2026-07-28
# LUTr-Asset-URL: https://freshluts.com/luts/1055
# LUTr-Author: MarcR.
# LUTr-Author-URL: https://freshluts.com/users/86490
# LUTr-Attribution: MarcR. via Fresh LUTs
# LUTr-Source-Labels: gamma=Other; color=Green; key=Neutral; style=Film emulation
# LUTr-Note: Preserve this metadata and the upstream license notices when redistributing.
# LUTr-Upstream-Comment: Generated by lutCreator.js
# LUTr-Upstream-Comment: Coded by SirSerch
# LUTr-Upstream-Comment: https://github.com/SirSerch/LutCreatorJs
TITLE "PictureFX NTFLX DRK I"
LUT_3D_SIZE 25
DOMAIN_MIN 0 0 0
DOMAIN_MAX 1 1 1
0.047059 0 0
0.086275 0 0
0.121569 0 0
0.156863 0 0
0.203922 0 0
0.243137 0 0
0.286275 0 0
0.329412 0 0
0.384314 0 0
0.435294 0 0
0.482353 0 0
0.533333 0 0
0.584314 0 0
0.627451 0 0
0.678431 0 0
0.721569 0 0
0.768627 0 0
0.819608 0 0
0.862745 0 0
0.909804 0 0
0.960784 0 0
1 0 0
1 0 0
1 0 0
1 0 0
0.027451 0.031373 0
0.066667 0.027451 0
0.098039 0.019608 0
0.141176 0.015686 0
0.192157 0.007843 0
0.231373 0 0
0.282353 0 0
0.329412 0 0
0.380392 0 0
0.431373 0 0
0.478431 0 0
0.529412 0 0
0.580392 0 0
0.627451 0 0
0.67451 0 0
0.717647 0 0
0.768627 0 0
0.815686 0 0
0.862745 0 0
0.909804 0 0
0.956863 0 0
1 0 0
1 0 0
1 0 0
1 0 0
0.031373 0.070588 0
0.062745 0.066667 0
0.086275 0.066667 0
0.117647 0.07451 0
0.172549 0.066667 0
0.223529 0.058824 0
0.27451 0.043137 0
0.32549 0.023529 0
0.376471 0 0
0.427451 0 0
0.47451 0 0
0.529412 0 0
0.576471 0 0
0.623529 0 0
0.670588 0 0
0.717647 0 0
0.764706 0 0
0.815686 0 0
0.858824 0 0
0.909804 0 0
0.956863 0 0
1 0 0
1 0 0
1 0 0
1 0 0
0.043137 0.117647 0
0.078431 0.113725 0
0.109804 0.109804 0
0.145098 0.109804 0
0.176471 0.113725 0
0.219608 0.113725 0
0.270588 0.109804 0
0.317647 0.101961 0
0.372549 0.090196 0
0.423529 0.070588 0
0.470588 0.043137 0
0.521569 0 0
0.572549 0 0
0.615686 0 0
0.666667 0 0
0.713725 0 0
0.760784 0 0
0.811765 0 0
0.854902 0 0
0.905882 0 0
0.952941 0 0
0.996078 0 0
1 0 0
1 0 0
1 0 0
0.047059 0.160784 0
0.086275 0.156863 0
0.117647 0.156863 0
0.160784 0.156863 0
0.2 0.152941 0
0.231373 0.156863 0
0.270588 0.156863 0
0.313725 0.156863 0
0.364706 0.14902 0
0.415686 0.141176 0
0.462745 0.129412 0
0.513725 0.109804 0
0.564706 0.082353 0
0.611765 0.039216 0
0.658824 0 0
0.705882 0 0
0.752941 0 0
0.803922 0 0
0.85098 0 0
0.898039 0 0
0.945098 0 0
0.992157 0 0
1 0 0
1 0 0
1 0 0
0.035294 0.203922 0
0.078431 0.203922 0
0.113725 0.203922 0
0.156863 0.2 0
0.203922 0.2 0
0.239216 0.2 0
0.278431 0.2 0
0.313725 0.2 0
0.360784 0.196078 0
0.411765 0.192157 0
0.454902 0.184314 0
0.505882 0.172549 0
0.556863 0.156863 0
0.6 0.137255 0
0.65098 0.109804 0
0.698039 0.070588 0
0.74902 0 0
0.796078 0 0
0.843137 0 0
0.894118 0 0
0.941176 0 0
0.988235 0 0
1 0 0
1 0 0
1 0 0
0.015686 0.254902 0
0.066667 0.25098 0
0.105882 0.25098 0
0.152941 0.25098 0
0.196078 0.247059 0
0.239216 0.247059 0
0.278431 0.247059 0
0.317647 0.243137 0
0.360784 0.243137 0
0.403922 0.239216 0
0.45098 0.235294 0
0.498039 0.227451 0
0.54902 0.215686 0
0.592157 0.203922 0
0.643137 0.188235 0
0.690196 0.172549 0
0.741176 0.145098 0
0.792157 0.109804 0
0.835294 0.058824 0
0.886275 0 0
0.937255 0 0
0.984314 0 0
1 0 0
1 0 0
1 0 0
0 0.294118 0
0.039216 0.294118 0
0.090196 0.294118 0
0.141176 0.294118 0
0.188235 0.290196 0
0.231373 0.290196 0
0.278431 0.286275 0
0.317647 0.286275 0
0.360784 0.286275 0
0.403922 0.282353 0
0.443137 0.278431 0
0.494118 0.27451 0
0.541176 0.266667 0
0.588235 0.258824 0
0.635294 0.247059 0
0.682353 0.235294 0
0.733333 0.219608 0
0.784314 0.196078 0
0.831373 0.172549 0
0.882353 0.141176 0
0.929412 0.090196 0
0.976471 0.003922 0
1 0 0
1 0 0
1 0 0
0 0.341176 0
0 0.341176 0
0.058824 0.341176 0
0.121569 0.337255 0
0.176471 0.337255 0
0.223529 0.333333 0
0.270588 0.333333 0
0.313725 0.329412 0
0.356863 0.329412 0
0.4 0.32549 0
0.439216 0.32549 0
0.486275 0.321569 0
0.533333 0.317647 0
0.580392 0.309804 0
0.627451 0.301961 0
0.67451 0.294118 0
0.72549 0.282353 0
0.776471 0.266667 0
0.819608 0.25098 0
0.870588 0.231373 0
0.921569 0.207843 0
0.968627 0.176471 0
1 0.137255 0
1 0.086275 0
1 0 0
0 0.384314 0
0 0.384314 0
0 0.384314 0
0.090196 0.380392 0
0.156863 0.380392 0
0.207843 0.380392 0
0.258824 0.376471 0
0.301961 0.376471 0
0.34902 0.372549 0
0.396078 0.372549 0
0.435294 0.368627 0
0.482353 0.364706 0
0.529412 0.364706 0
0.572549 0.356863 0
0.619608 0.352941 0
0.666667 0.345098 0
0.713725 0.337255 0
0.764706 0.32549 0
0.811765 0.313725 0
0.862745 0.298039 0
0.913725 0.282353 0
0.960784 0.262745 0
1 0.243137 0
1 0.219608 0
1 0.188235 0
0 0.423529 0
0 0.423529 0
0 0.419608 0
0.043137 0.419608 0
0.129412 0.419608 0
0.188235 0.419608 0
0.243137 0.415686 0
0.294118 0.415686 0
0.341176 0.411765 0
0.388235 0.411765 0
0.431373 0.407843 0
0.478431 0.407843 0
0.52549 0.403922 0
0.564706 0.4 0
0.615686 0.396078 0
0.658824 0.388235 0
0.705882 0.384314 0
0.756863 0.376471 0
0.803922 0.364706 0
0.854902 0.356863 0
0.905882 0.341176 0
0.952941 0.329412 0
1 0.313725 0
1 0.298039 0
1 0.278431 0
0 0.466667 0
0 0.466667 0
0 0.466667 0
0 0.466667 0
0.094118 0.462745 0
0.164706 0.462745 0
0.227451 0.462745 0
0.278431 0.458824 0
0.333333 0.458824 0
0.380392 0.454902 0
0.423529 0.454902 0
0.470588 0.45098 0
0.521569 0.45098 0
0.560784 0.447059 0
0.607843 0.443137 0
0.654902 0.439216 0
0.701961 0.435294 0
0.752941 0.427451 0
0.8 0.423529 0
0.85098 0.411765 0
0.901961 0.403922 0
0.94902 0.396078 0
1 0.384314 0
1 0.372549 0
1 0.356863 0
0 0.509804 0
0 0.509804 0
0 0.509804 0
0 0.509804 0
0.019608 0.509804 0
0.129412 0.505882 0
0.203922 0.505882 0
0.262745 0.505882 0
0.317647 0.501961 0
0.372549 0.501961 0
0.415686 0.498039 0
0.466667 0.498039 0
0.513725 0.494118 0
0.556863 0.494118 0
0.603922 0.490196 0
0.65098 0.486275 0
0.698039 0.482353 0
0.74902 0.478431 0
0.792157 0.47451 0
0.843137 0.466667 0
0.898039 0.462745 0
0.945098 0.454902 0
1 0.447059 0
1 0.439216 0
1 0.427451 0
0 0.54902 0
0 0.54902 0
0 0.54902 0
0 0.54902 0
0 0.54902 0
0.082353 0.54902 0
0.176471 0.545098 0
0.239216 0.545098 0
0.301961 0.545098 0
0.356863 0.541176 0
0.407843 0.541176 0
0.458824 0.537255 0
0.505882 0.537255 0
0.552941 0.533333 0
0.6 0.533333 0
0.643137 0.529412 0
0.694118 0.52549 0
0.745098 0.52549 0
0.788235 0.521569 0
0.843137 0.517647 0
0.894118 0.509804 0
0.941176 0.505882 0
0.996078 0.501961 0
1 0.494118 0
1 0.486275 0
0 0.592157 0
0 0.592157 0
0 0.592157 0
0 0.592157 0
0 0.592157 0
0 0.592157 0
0.137255 0.588235 0
0.211765 0.588235 0
0.282353 0.588235 0
0.341176 0.584314 0
0.392157 0.584314 0
0.447059 0.584314 0
0.498039 0.580392 0
0.545098 0.580392 0
0.596078 0.576471 0
0.639216 0.576471 0
0.690196 0.576471 0
0.741176 0.572549 0
0.788235 0.572549 0
0.839216 0.568627 0
0.890196 0.564706 0
0.941176 0.560784 0
0.992157 0.556863 0
1 0.552941 0
1 0.545098 0
0 0.631373 0
0 0.631373 0
0 0.631373 0
0 0.631373 0
0 0.631373 0
0 0.631373 0
0.07451 0.631373 0
0.180392 0.627451 0
0.258824 0.627451 0
0.32549 0.627451 0
0.380392 0.627451 0
0.435294 0.623529 0
0.490196 0.623529 0
0.537255 0.623529 0
0.588235 0.623529 0
0.635294 0.619608 0
0.686275 0.619608 0
0.737255 0.619608 0
0.784314 0.619608 0
0.835294 0.615686 0
0.890196 0.611765 0
0.937255 0.611765 0
0.988235 0.603922 0
1 0.6 0
1 0.596078 0
0 0.682353 0
0 0.682353 0
0 0.682353 0
0 0.682353 0
0 0.682353 0
0 0.678431 0
0 0.678431 0
0.137255 0.678431 0
0.231373 0.678431 0
0.305882 0.678431 0
0.364706 0.678431 0
0.423529 0.67451 0
0.482353 0.67451 0
0.533333 0.67451 0
0.584314 0.67451 0
0.631373 0.670588 0
0.686275 0.670588 0
0.737255 0.670588 0
0.784314 0.666667 0
0.831373 0.666667 0
0.886275 0.662745 0
0.933333 0.662745 0
0.984314 0.658824 0
1 0.65098 0
1 0.647059 0
0 0.729412 0
0 0.729412 0
0 0.729412 0
0 0.729412 0
0 0.729412 0
0 0.729412 0
0 0.729412 0
0.070588 0.729412 0
0.2 0.729412 0
0.286275 0.729412 0
0.34902 0.729412 0
0.411765 0.72549 0
0.470588 0.72549 0
0.52549 0.72549 0
0.580392 0.72549 0
0.627451 0.721569 0
0.678431 0.721569 0
0.733333 0.721569 0
0.780392 0.717647 0
0.831373 0.717647 0
0.882353 0.713725 0
0.92549 0.709804 0
0.976471 0.705882 0
1 0.701961 0
1 0.694118 0
0 0.776471 0
0 0.776471 0
0 0.776471 0
0 0.776471 0
0 0.776471 0
0 0.776471 0
0 0.776471 0
0 0.776471 0
0.160784 0.776471 0
0.258824 0.772549 0
0.329412 0.772549 0
0.4 0.772549 0
0.462745 0.772549 0
0.513725 0.772549 0
0.572549 0.768627 0
0.623529 0.768627 0
0.67451 0.768627 0
0.729412 0.764706 0
0.772549 0.764706 0
0.827451 0.760784 0
0.87451 0.756863 0
0.921569 0.752941 0
0.972549 0.74902 0
1 0.745098 0
1 0.741176 0
0 0.827451 0
0 0.827451 0
0 0.827451 0
0 0.827451 0
0 0.827451 0
0 0.827451 0
0 0.827451 0
0 0.827451 0
0.098039 0.827451 0
0.227451 0.827451 0
0.305882 0.823529 0
0.380392 0.823529 0
0.447059 0.823529 0
0.501961 0.823529 0
0.560784 0.819608 0
0.611765 0.819608 0
0.666667 0.815686 0
0.721569 0.815686 0
0.768627 0.811765 0
0.815686 0.807843 0
0.866667 0.803922 0
0.913725 0.803922 0
0.964706 0.8 0
1 0.796078 0
1 0.796078 0
0 0.878431 0
0 0.878431 0
0 0.878431 0
0 0.878431 0
0 0.87451 0
0 0.87451 0
0 0.87451 0
0 0.87451 0
0 0.87451 0
0.176471 0.87451 0
0.270588 0.870588 0
0.352941 0.870588 0
0.423529 0.866667 0
0.482353 0.866667 0
0.541176 0.862745 0
0.596078 0.862745 0
0.65098 0.858824 0
0.705882 0.858824 0
0.752941 0.854902 0
0.803922 0.85098 0
0.858824 0.85098 0
0.905882 0.85098 0
0.964706 0.854902 0
1 0.854902 0
1 0.847059 0
0 0.917647 0
0 0.913725 0
0 0.913725 0
0 0.913725 0
0 0.913725 0
0 0.913725 0
0 0.913725 0
0 0.913725 0
0 0.909804 0
0.078431 0.909804 0
0.223529 0.909804 0
0.317647 0.905882 0
0.396078 0.905882 0
0.458824 0.905882 0
0.521569 0.901961 0
0.576471 0.901961 0
0.635294 0.901961 0
0.694118 0.898039 0
0.745098 0.898039 0
0.803922 0.901961 0
0.858824 0.901961 0
0.905882 0.898039 0
0.956863 0.898039 0
1 0.890196 0
1 0.886275 0
0 0.956863 0
0 0.956863 0
0 0.956863 0
0 0.956863 0
0 0.956863 0
0 0.956863 0
0 0.956863 0
0 0.956863 0
0 0.956863 0
0 0.952941 0
0.152941 0.952941 0
0.27451 0.952941 0
0.364706 0.952941 0
0.435294 0.952941 0
0.505882 0.956863 0
0.568627 0.956863 0
0.627451 0.956863 0
0.686275 0.952941 0
0.737255 0.952941 0
0.792157 0.94902 0
0.843137 0.945098 0
0.890196 0.941176 0
0.937255 0.933333 0
0.984314 0.929412 0
1 0.92549 0
0 1 0
0 1 0
0 1 0
0 1 0
0 1 0
0 1 0
0 1 0
0 1 0
0 1 0
0 1 0
0.078431 1 0
0.247059 1 0
0.345098 1 0
0.419608 1 0
0.490196 1 0
0.54902 1 0
0.611765 0.996078 0
0.666667 0.992157 0
0.717647 0.988235 0
0.772549 0.984314 0
0.823529 0.980392 0
0.870588 0.976471 0
0.921569 0.968627 0
0.964706 0.964706 0
1 0.960784 0
0 1 0
0 1 0
0 1 0
0 1 0
0 1 0
0 1 0
0 1 0
0 1 0
0 1 0
0 1 0
0 1 0
0.168627 1 0
0.294118 1 0
0.376471 1 0
0.454902 1 0
0.517647 1 0
0.580392 1 0
0.639216 1 0
0.694118 1 0
0.74902 1 0
0.8 1 0
0.847059 1 0
0.898039 1 0
0.941176 1 0
0.992157 0.992157 0
0.094118 0 0
0.113725 0 0
0.137255 0 0
0.168627 0 0
0.211765 0 0
0.25098 0 0
0.290196 0 0
0.333333 0 0
0.384314 0 0
0.439216 0 0
0.486275 0 0
0.537255 0 0
0.584314 0 0
0.631373 0 0
0.678431 0 0
0.721569 0 0
0.772549 0 0
0.819608 0 0
0.862745 0 0
0.913725 0 0
0.960784 0 0
1 0 0
1 0 0
1 0 0
1 0 0
0.047059 0.027451 0
0.070588 0.023529 0
0.109804 0.015686 0
0.152941 0.007843 0
0.2 0 0
0.239216 0 0
0.286275 0 0
0.333333 0 0
0.384314 0 0
0.435294 0 0
0.482353 0 0
0.533333 0 0
0.584314 0 0
0.627451 0 0
0.67451 0 0
0.721569 0 0
0.768627 0 0
0.815686 0 0
0.862745 0 0
0.909804 0 0
0.960784 0 0
1 0 0
1 0 0
1 0 0
1 0 0
0.031373 0.070588 0
0.062745 0.070588 0
0.098039 0.070588 0
0.133333 0.070588 0
0.180392 0.066667 0
0.227451 0.054902 0
0.278431 0.039216 0
0.32549 0.019608 0
0.380392 0 0
0.431373 0 0
0.478431 0 0
0.529412 0 0
0.580392 0 0
0.623529 0 0
0.67451 0 0
0.717647 0 0
0.764706 0 0
0.815686 0 0
0.858824 0 0
0.909804 0 0
0.956863 0 0
1 0 0
1 0 0
1 0 0
1 0 0
0.035294 0.117647 0
0.07451 0.113725 0
0.105882 0.113725 0
0.129412 0.113725 0
0.164706 0.117647 0
0.215686 0.113725 0
0.270588 0.109804 0
0.317647 0.101961 0
0.372549 0.090196 0
0.423529 0.066667 0
0.470588 0.039216 0
0.521569 0 0
0.572549 0 0
0.619608 0 0
0.666667 0 0
0.713725 0 0
0.760784 0 0
0.811765 0 0
0.854902 0 0
0.905882 0 0
0.952941 0 0
1 0 0
1 0 0
1 0 0
1 0 0
0.043137 0.160784 0
0.082353 0.160784 0
0.113725 0.160784 0
0.156863 0.156863 0
0.196078 0.156863 0
0.227451 0.160784 0
0.270588 0.160784 0
0.313725 0.156863 0
0.364706 0.152941 0
0.415686 0.141176 0
0.462745 0.129412 0
0.513725 0.109804 0
0.564706 0.082353 0
0.611765 0.039216 0
0.658824 0 0
0.705882 0 0
0.756863 0 0
0.803922 0 0
0.85098 0 0
0.898039 0 0
0.94902 0 0
0.992157 0 0
1 0 0
1 0 0
1 0 0
0.035294 0.203922 0
0.078431 0.203922 0
0.113725 0.203922 0
0.160784 0.2 0
0.207843 0.2 0
0.243137 0.196078 0
0.278431 0.2 0
0.313725 0.2 0
0.360784 0.196078 0
0.407843 0.192157 0
0.454902 0.184314 0
0.505882 0.172549 0
0.556863 0.156863 0
0.603922 0.137255 0
0.65098 0.109804 0
0.698039 0.070588 0
0.74902 0 0
0.8 0 0
0.843137 0 0
0.894118 0 0
0.941176 0 0
0.988235 0 0
1 0 0
1 0 0
1 0 0
0.015686 0.254902 0
0.066667 0.25098 0
0.109804 0.25098 0
0.152941 0.25098 0
0.2 0.247059 0
0.243137 0.247059 0
0.282353 0.243137 0
0.317647 0.243137 0
0.360784 0.243137 0
0.403922 0.239216 0
0.447059 0.235294 0
0.498039 0.227451 0
0.54902 0.215686 0
0.592157 0.203922 0
0.643137 0.188235 0
0.690196 0.172549 0
0.741176 0.145098 0
0.792157 0.109804 0
0.839216 0.058824 0
0.886275 0 0
0.937255 0 0
0.984314 0 0
1 0 0
1 0 0
1 0 0
0 0.294118 0
0.043137 0.294118 0
0.094118 0.294118 0
0.145098 0.294118 0
0.192157 0.290196 0
0.235294 0.290196 0
0.282353 0.286275 0
0.317647 0.286275 0
0.360784 0.282353 0
0.403922 0.282353 0
0.443137 0.278431 0
0.490196 0.27451 0
0.541176 0.266667 0
0.588235 0.258824 0
0.639216 0.247059 0
0.682353 0.235294 0
0.733333 0.219608 0
0.784314 0.196078 0
0.831373 0.172549 0
0.882353 0.141176 0
0.933333 0.090196 0
0.976471 0.003922 0
1 0 0
1 0 0
1 0 0
0 0.341176 0
0 0.341176 0
0.066667 0.337255 0
0.12549 0.337255 0
0.180392 0.337255 0
0.227451 0.333333 0
0.27451 0.333333 0
0.313725 0.329412 0
0.356863 0.329412 0
0.4 0.32549 0
0.443137 0.32549 0
0.486275 0.321569 0
0.537255 0.317647 0
0.580392 0.309804 0
0.627451 0.301961 0
0.67451 0.294118 0
0.72549 0.282353 0
0.776471 0.266667 0
0.823529 0.25098 0
0.87451 0.231373 0
0.92549 0.207843 0
0.968627 0.180392 0
1 0.141176 0
1 0.086275 0
1 0 0
0 0.384314 0
0 0.384314 0
0.011765 0.384314 0
0.098039 0.380392 0
0.160784 0.380392 0
0.211765 0.380392 0
0.262745 0.376471 0
0.305882 0.376471 0
0.352941 0.372549 0
0.396078 0.368627 0
0.439216 0.368627 0
0.482353 0.364706 0
0.529412 0.364706 0
0.572549 0.360784 0
0.619608 0.352941 0
0.666667 0.345098 0
0.713725 0.337255 0
0.764706 0.32549 0
0.811765 0.313725 0
0.862745 0.298039 0
0.913725 0.282353 0
0.960784 0.266667 0
1 0.243137 0
1 0.219608 0
1 0.188235 0
0 0.423529 0
0 0.423529 0
0 0.419608 0
0.054902 0.419608 0
0.137255 0.419608 0
0.192157 0.419608 0
0.247059 0.415686 0
0.294118 0.415686 0
0.345098 0.411765 0
0.392157 0.411765 0
0.435294 0.407843 0
0.478431 0.407843 0
0.52549 0.403922 0
0.568627 0.4 0
0.615686 0.396078 0
0.658824 0.392157 0
0.709804 0.384314 0
0.756863 0.376471 0
0.803922 0.368627 0
0.854902 0.356863 0
0.905882 0.345098 0
0.952941 0.329412 0
1 0.313725 0
1 0.298039 0
1 0.278431 0
