site/assets/luts/freshluts--0001109-rainoir.cube
# LUTr-Schema-Version: 2
# LUTr-ID: freshluts--0001109-rainoir
# LUTr-Title: RaiNoir
# LUTr-Collection: Fresh LUTs
# LUTr-Collection-ID: freshluts-community
# LUTr-Source: https://freshluts.com
# LUTr-Retrieved: 2026-07-27
# LUTr-Source-File: submissions-raw/freshluts/cubes/1109__RaiNoir.cube
# LUTr-Source-Format: CUBE
# LUTr-Source-SHA256: a4a68b284b635c08ed4990e5495d36794a1ba41cc31a61f88f76aa68ebce3586
# LUTr-License: CC0-1.0
# LUTr-License-URL: https://freshluts.com/termsandconditions
# LUTr-License-Basis: site-terms
# LUTr-Transform-Class: creative-look
# LUTr-Tags: creative, freshluts, community, cube, cool, low-key, dji-d-log
# LUTr-Input-Color-Space:
# LUTr-Input-Gamut: dji-d-gamut
# LUTr-Input-Transfer: dji-d-log
# LUTr-Output-Color-Space: srgb
# LUTr-Output-Gamut: rec709
# LUTr-Output-Transfer: srgb
# LUTr-Color-Space-Confidence: camera-profile-input-required
# LUTr-Domain-Normalized: true
# LUTr-Shaper: none
# LUTr-Original-Grid: 16x16x16
# LUTr-Conversion-Grid: 16x16x16
# LUTr-Conversion-Interpolation: none
# LUTr-Conversion-Method: Metadata normalization; numeric LUT samples preserved
# LUTr-Conversion-Tool: LUTr scripts/convert-all-to-cube.mjs 2.0.0
# LUTr-Conversion-Date: 2026-07-28
# LUTr-Asset-URL: https://freshluts.com/luts/1109
# LUTr-Author: InAvision
# LUTr-Author-URL: https://freshluts.com/users/64078
# LUTr-Attribution: InAvision via Fresh LUTs
# LUTr-Source-Labels: gamma=DJI D-log; color=Cool; key=Low Key; style=Overcast Day
# LUTr-Note: Preserve this metadata and the upstream license notices when redistributing.
TITLE "RaiNoir"
LUT_3D_SIZE 6
DOMAIN_MIN 0 0 0
DOMAIN_MAX 1 1 1
0.002775 0.058597 0.071453
0.041129 0.058597 0.071453
0.174494 0.058597 0.071453
0.385072 0.058597 0.071453
0.685833 0.058597 0.071453
1.000019 0.058597 0.071453
0.002775 0.184645 0.071453
0.041129 0.184645 0.071453
0.174494 0.202206 0.071453
0.385072 0.215186 0.071453
0.685833 0.221162 0.071453
1.000019 0.218586 0.071453
0.002775 0.380598 0.071453
0.049744 0.380598 0.071453
0.174494 0.380598 0.071453
0.385072 0.406815 0.071453
0.685833 0.418838 0.071453
1.000019 0.413659 0.071453
0.002775 0.599224 0.071453
0.056619 0.599224 0.071453
0.196097 0.599224 0.071453
0.385072 0.599224 0.071453
0.685833 0.617342 0.071453
1.000019 0.609506 0.071453
0.002775 0.815834 0.071453
0.05994 0.815834 0.071453
0.206288 0.815834 0.071453
0.406213 0.815834 0.071453
0.685833 0.815834 0.071453
1.000019 0.805502 0.071453
0.002775 1.000021 0.071453
0.058488 1.000021 0.071453
0.201862 1.000021 0.071453
0.397 1.000021 0.071453
0.669157 1.000021 0.071453
1.000019 1.000021 0.071453
0.002775 0.058597 0.207781
0.041129 0.058597 0.207781
0.174494 0.058597 0.226138
0.385072 0.058597 0.239589
0.685833 0.058597 0.245766
1.000019 0.058597 0.243109
0.002775 0.184645 0.207781
0.041129 0.184645 0.207781
0.174494 0.184645 0.207781
0.385072 0.184645 0.207781
0.685833 0.184645 0.207781
1.000019 0.184645 0.207781
0.002775 0.380598 0.226138
0.041129 0.380599 0.207781
0.174494 0.380599 0.207781
0.385072 0.399729 0.207781
0.685833 0.408417 0.207781
1.000019 0.403063 0.207781
0.002775 0.599224 0.239589
0.041129 0.599224 0.207781
0.190188 0.599224 0.207781
0.385072 0.599224 0.207781
0.685833 0.61371 0.207781
1.000019 0.60478 0.207781
0.002775 0.815834 0.245766
0.041129 0.815835 0.207781
0.197417 0.815835 0.207781
0.401932 0.815835 0.207781
0.685833 0.815835 0.207781
1.000019 0.803589 0.207781
0.002775 1.000021 0.243109
0.041129 1.000021 0.207781
0.192932 1.000021 0.207781
0.391463 1.000021 0.207781
0.66623 1.000021 0.207781
1.000019 1.000021 0.207781
0.002775 0.058597 0.407215
0.049744 0.058597 0.407215
0.174494 0.058597 0.407215
0.385072 0.058597 0.433224
0.685833 0.058597 0.445091
1.000019 0.058597 0.439995
0.002775 0.202206 0.407215
0.041129 0.184645 0.407215
0.174494 0.184645 0.407215
0.385072 0.184645 0.426209
0.685833 0.184645 0.434817
1.000019 0.184645 0.429471
0.002775 0.380598 0.407215
0.041129 0.380599 0.407215
0.174494 0.380599 0.407215
0.385072 0.380599 0.407215
0.685833 0.380599 0.407215
1.000019 0.380599 0.407215
0.002775 0.599224 0.433224
0.041129 0.599224 0.426209
0.174494 0.599224 0.407215
0.385072 0.599224 0.407215
0.685833 0.604653 0.407215
1.000019 0.595176 0.407215
0.002775 0.815834 0.445091
0.041129 0.815835 0.434817
0.174494 0.815835 0.407215
0.391353 0.815835 0.407215
0.685833 0.815835 0.407215
1.000019 0.799805 0.407215
0.002775 1.000021 0.439995
0.041129 1.000021 0.429471
0.174494 1.000021 0.407215
0.38045 1.000021 0.407215
0.660348 1.000021 0.407215
1.000019 1.000021 0.407215
0.002775 0.058597 0.621112
0.056619 0.058597 0.621112
0.196097 0.058597 0.621112
0.385072 0.058597 0.621112
0.685833 0.058597 0.638495
1.000019 0.058597 0.630982
0.002775 0.215186 0.621112
0.041129 0.184645 0.621112
0.190188 0.184645 0.621112
0.385072 0.184645 0.621112
0.685833 0.184645 0.634974
1.000019 0.184645 0.626431
0.002775 0.406815 0.621112
0.041129 0.399729 0.621112
0.174494 0.380599 0.621112
0.385072 0.380599 0.621112
0.685833 0.380599 0.626303
1.000019 0.380599 0.617179
0.002775 0.599224 0.621112
0.041129 0.599224 0.621112
0.174494 0.599224 0.621112
0.385072 0.599224 0.621112
0.685833 0.599224 0.621112
1.000019 0.599224 0.621112
0.002775 0.815834 0.638495
0.041129 0.815835 0.634974
0.174494 0.815835 0.626303
0.385072 0.815835 0.621112
0.685833 0.815835 0.621112
1.000019 0.801456 0.621112
0.002775 1.000021 0.630982
0.041129 1.000021 0.626431
0.174494 1.000021 0.617179
0.385072 1.000021 0.621112
0.662767 1.000021 0.621112
1.000019 1.000021 0.621112
0.002775 0.058597 0.827522
0.05994 0.058597 0.827522
0.206288 0.058597 0.827522
0.406213 0.058597 0.827522
0.685833 0.058597 0.827522
1.000019 0.058597 0.817721
0.002775 0.221162 0.827522
0.041129 0.184645 0.827522
0.197417 0.184645 0.827522
0.401932 0.184645 0.827522
0.685833 0.184645 0.827522
1.000019 0.184645 0.815959
0.002775 0.418838 0.827522
0.041129 0.408417 0.827522
0.174494 0.380599 0.827522
0.391353 0.380599 0.827522
0.685833 0.380599 0.827522
1.000019 0.380599 0.812397
0.002775 0.617342 0.827522
0.041129 0.61371 0.827522
0.174494 0.604653 0.827522
0.385072 0.599224 0.827522
0.685833 0.599224 0.827522
1.000019 0.599224 0.813907
0.002775 0.815834 0.827522
0.041129 0.815835 0.827522
0.174494 0.815835 0.827522
0.385072 0.815835 0.827522
0.685833 0.815835 0.827522
1.000019 0.815835 0.827522
0.002775 1.000021 0.817721
0.041129 1.000021 0.815959
0.174494 1.000021 0.812397
0.385072 1.000021 0.813907
0.685833 1.000021 0.827522
1.000019 1.000021 0.827522
0.002775 0.058597 1.000021
0.058488 0.058597 1.000021
0.201862 0.058597 1.000021
0.397 0.058597 1.000021
0.669157 0.058597 1.000021
1.000019 0.058597 1.000021
0.002775 0.218586 1.000021
0.041129 0.184645 1.000021
0.192932 0.184645 1.000021
0.391463 0.184645 1.000021
0.66623 0.184645 1.000021
1.000019 0.184645 1.000021
0.002775 0.413659 1.000021
0.041129 0.403063 1.000021
0.174494 0.380599 1.000021
0.38045 0.380599 1.000021
0.660348 0.380599 1.000021
1.000019 0.380599 1.000021
0.002775 0.609506 1.000021
0.041129 0.60478 1.000021
0.174494 0.595176 1.000021
0.385072 0.599224 1.000021
0.662767 0.599224 1.000021
1.000019 0.599224 1.000021
0.002775 0.805502 1.000021
0.041129 0.803589 1.000021
0.174494 0.799805 1.000021
0.385072 0.801456 1.000021
0.685833 0.815835 1.000021
1.000019 0.815835 1.000021
0.002775 1.000021 1.000021
0.041129 1.000021 1.000021
0.174494 1.000021 1.000021
0.385072 1.000021 1.000021
0.685833 1.000021 1.000021
1.000019 1.000021 1.000021
