site/assets/luts/freshluts--0000399-african-cinema-luts.cube
# LUTr-Schema-Version: 2
# LUTr-ID: freshluts--0000399-african-cinema-luts
# LUTr-Title: African Cinema Luts
# LUTr-Collection: Fresh LUTs
# LUTr-Collection-ID: freshluts-community
# LUTr-Source: https://freshluts.com
# LUTr-Retrieved: 2026-07-27
# LUTr-Source-File: submissions-raw/freshluts/cubes/399__African_Cinema_Luts.cube
# LUTr-Source-Format: CUBE
# LUTr-Source-SHA256: e1f1a3012d7464a1421e0c0101c4643b8dcdf18c001cba61cea1d51ce3e2b41e
# LUTr-License: CC0-1.0
# LUTr-License-URL: https://freshluts.com/termsandconditions
# LUTr-License-Basis: site-terms
# LUTr-Transform-Class: creative-look
# LUTr-Tags: creative, freshluts, community, cube, cinematic, blockbuster, warm, high-key, bmd-film-4k
# LUTr-Input-Color-Space: bmd-film-4k
# LUTr-Input-Gamut: bmd-film-gamut
# LUTr-Input-Transfer: bmd-film-4k
# LUTr-Output-Color-Space: srgb
# LUTr-Output-Gamut: rec709
# LUTr-Output-Transfer: srgb
# LUTr-Color-Space-Confidence: inferred-from-source-label
# LUTr-Domain-Normalized: true
# LUTr-Shaper: none
# LUTr-Original-Grid: 33x33x33
# LUTr-Conversion-Grid: 33x33x33
# LUTr-Conversion-Interpolation: none
# LUTr-Conversion-Method: Metadata normalization; numeric LUT samples preserved
# LUTr-Conversion-Tool: LUTr scripts/convert-all-to-cube.mjs 2.0.0
# LUTr-Conversion-Date: 2026-07-28
# LUTr-Asset-URL: https://freshluts.com/luts/399
# LUTr-Author: digdio
# LUTr-Author-URL: https://freshluts.com/users/20080
# LUTr-Attribution: digdio via Fresh LUTs
# LUTr-Source-Labels: gamma=Blackmagic BMD Film 4K; color=Warm; key=High Key; style=Blockbuster
# LUTr-Note: Preserve this metadata and the upstream license notices when redistributing.
# LUTr-Upstream-Comment: Created with CameraBag | Cinema, www.nevercenter.com
TITLE "African Cinema Luts"
LUT_3D_SIZE 9
DOMAIN_MIN 0 0 0
DOMAIN_MAX 1 1 1
0 0.000015 0.002693
0.245821 0.000045 0.00368
0.522914 0.000309 0.001679
0.629208 0.000464 0.000023
0.689028 0.000603 0.000013
0.73907 0.000759 0.000012
0.781275 0.000915 0.000011
0.821837 0.001082 0
1 0.00284 0.000582
0.000888 0.209745 0.002822
0.175985 0.178084 0.001589
0.483282 0.098311 0
0.594493 0.062742 0
0.655793 0.042214 0
0.706473 0.024884 0
0.748783 0.010203 0
0.78968 0.000946 0
1 0.002933 0.000675
0.011007 0.44225 0.000096
0.047858 0.425456 0
0.397749 0.377069 0.000148
0.523336 0.351899 0.00012
0.591923 0.336612 0.000119
0.648148 0.323316 0.000127
0.694754 0.311791 0.000134
0.738857 0.300481 0.000136
0.999876 0.166075 0.000014
0.020887 0.531317 0.000035
0.019066 0.516727 0
0.358239 0.475451 0.000093
0.485265 0.453011 0.000077
0.554403 0.439201 0.000098
0.611057 0.427107 0.000134
0.658034 0.416571 0.000169
0.702515 0.406189 0.0002
0.999733 0.280974 0.000422
0.027357 0.581236 0.000014
0.025652 0.567973 0
0.333306 0.52924 0.000105
0.46053 0.508071 0.000133
0.529909 0.494994 0.00019
0.586817 0.483512 0.000262
0.63404 0.47349 0.000331
0.678776 0.463594 0.000401
0.999304 0.34332 0.001084
0.032408 0.622724 0.000016
0.030999 0.610476 0
0.311141 0.573444 0.000161
0.438559 0.553245 0.000248
0.508167 0.540736 0.00035
0.565318 0.529734 0.000466
0.612775 0.520117 0.000577
0.657756 0.510609 0.000691
0.998677 0.39433 0.001988
0.035794 0.657411 0.000026
0.034779 0.645953 0.000008
0.291737 0.610193 0.000233
0.419359 0.590753 0.000389
0.489186 0.578694 0.00054
0.546567 0.568075 0.000704
0.594243 0.558783 0.000861
0.639454 0.549587 0.001026
0.997882 0.436507 0.003059
0.038087 0.690428 0.000048
0.037444 0.679628 0.000053
0.272608 0.645069 0.000315
0.400471 0.626312 0.000554
0.470537 0.614659 0.000779
0.528161 0.604392 0.001002
0.576067 0.595398 0.001216
0.621497 0.586488 0.001443
0.996811 0.476269 0.004404
0.03886 0.99962 0.009224
0.039031 0.99962 0.0094
0.051053 0.999594 0.008457
0.176563 0.995362 0.013039
0.244773 0.986536 0.015315
0.300684 0.978678 0.017303
0.347158 0.971755 0.018993
0.391314 0.964874 0.020588
0.861345 0.878716 0.03898
0.000016 0.000024 0.290265
0.228701 0.000071 0.235616
0.514649 0.000373 0.132189
0.622373 0.000532 0.089986
0.682742 0.000664 0.065861
0.73311 0.000807 0.045482
0.775493 0.000946 0.028143
0.816138 0.00109 0.011339
1 0.002869 0.000611
0.00127 0.196907 0.199088
0.165769 0.167474 0.168266
0.476226 0.09095 0.088637
0.587965 0.056242 0.052921
0.649497 0.036126 0.03228
0.700228 0.019097 0.014832
0.74251 0.004646 0.000041
0.784303 0.000923 0
1 0.002964 0.000706
0.011306 0.43591 0.040041
0.041553 0.419356 0.024223
0.391406 0.371734 0.000148
0.517474 0.346922 0.00012
0.58636 0.331834 0.000118
0.642841 0.3187 0.000125
0.689661 0.307309 0.000132
0.733962 0.296122 0.000132
0.999935 0.162766 0.000012
0.020199 0.525901 0.000035
0.018426 0.511548 0
0.352883 0.470773 0.000091
0.480431 0.448606 0.00007
0.549824 0.434945 0.000087
0.606671 0.422971 0.000119
0.653799 0.412533 0.000152
0.698414 0.402243 0.00018
0.999747 0.27788 0.000442
0.026715 0.576273 0.000014
0.025024 0.563195 0
0.328527 0.52489 0.000098
0.45617 0.503945 0.000118
0.52575 0.490991 0.000169
0.582812 0.47961 0.000235
0.630154 0.46967 0.0003
0.674996 0.459852 0.000365
0.999333 0.340326 0.001087
0.031886 0.618095 0.000016
0.030462 0.605999 0
0.306762 0.569336 0.000148
0.434523 0.549327 0.000224
0.504295 0.536924 0.000318
0.56157 0.526009 0.000427
0.609123 0.516463 0.000532
0.654191 0.507023 0.00064
0.998722 0.391417 0.001972
0.035423 0.653037 0.000023
0.034376 0.64171 0.000007
0.287643 0.606269 0.000214
0.415552 0.586995 0.000355
0.485516 0.575029 0.000497
0.543 0.564487 0.000653
0.590757 0.555258 0.000802
0.636039 0.546123 0.00096
0.997946 0.433666 0.003021
0.037843 0.686274 0.000042
0.037173 0.675566 0.000049
0.268751 0.641307 0.000289
0.396854 0.622695 0.00051
0.467033 0.611125 0.000724
0.524742 0.600925 0.000937
0.572715 0.591989 0.001141
0.618213 0.583134 0.001359
0.996899 0.473498 0.004341
0.038925 0.99962 0.009291
0.039094 0.99962 0.009466
0.04861 0.999599 0.008436
0.174625 0.992868 0.012783
0.242965 0.984083 0.015035
0.298946 0.976255 0.01701
0.345455 0.969356 0.018693
0.389628 0.962496 0.020286
0.859453 0.876536 0.038737
0.000161 0.000051 0.608515
0.18306 0.000122 0.573712
0.488939 0.000614 0.486754
0.601789 0.000902 0.447189
0.664819 0.001132 0.423874
0.717311 0.001367 0.403886
0.761393 0.001586 0.38674
0.803574 0.001805 0.370051
1 0.003358 0.200721
0.001858 0.159312 0.545361
0.133822 0.134985 0.519756
0.454099 0.067293 0.447044
0.56903 0.035316 0.412887
0.632241 0.016544 0.39295
0.684373 0.001131 0.375934
0.729786 0.001336 0.360378
0.773129 0.001554 0.345053
1 0.003425 0.182636
0.016628 0.415741 0.3975
0.026346 0.399964 0.383624
0.380114 0.355151 0.319122
0.506228 0.331297 0.2902
0.574964 0.316713 0.273506
0.631294 0.303984 0.259363
0.678008 0.292926 0.247315
0.722244 0.282055 0.235638
0.999684 0.151766 0.104939
0.027074 0.509095 0.330558
0.024965 0.495485 0.319788
0.34106 0.455848 0.264418
0.467972 0.434287 0.239871
0.537223 0.420993 0.225554
0.594045 0.409334 0.213291
0.641206 0.399164 0.20275
0.685893 0.389131 0.192454
0.999733 0.267243 0.070006
0.032613 0.560748 0.293045
0.030914 0.54829 0.282895
0.316231 0.510746 0.234653
0.443489 0.490324 0.212337
0.513048 0.477692 0.19917
0.570174 0.466589 0.187815
0.617617 0.456887 0.178001
0.662589 0.4473 0.16837
0.999337 0.33001 0.051216
0.036188 0.603384 0.26289
0.035008 0.591829 0.252915
0.294333 0.555811 0.210194
0.42191 0.53627 0.189529
0.491748 0.524158 0.177211
0.549149 0.513495 0.166523
0.596847 0.504166 0.15724
0.642081 0.494936 0.148095
0.998773 0.381373 0.035343
0.038279 0.638909 0.238549
0.037535 0.62802 0.228721
0.275259 0.59324 0.189804
0.403134 0.574396 0.170377
0.473227 0.562699 0.15869
0.530877 0.55239 0.148495
0.578807 0.543361 0.139605
0.624276 0.53442 0.130821
0.998073 0.42385 0.022177
0.039612 0.672675 0.215968
0.039149 0.662293 0.206263
0.256521 0.628735 0.170361
0.384714 0.610523 0.151991
0.455071 0.599202 0.140848
0.512975 0.589218 0.13107
0.561127 0.580466 0.122526
0.606793 0.571788 0.114092
0.997147 0.46391 0.010065
0.038242 0.999621 0.008897
0.038506 0.999621 0.0091
0.040209 0.997995 0.007848
0.167559 0.984388 0.011512
0.236421 0.975741 0.013698
0.292718 0.968018 0.015644
0.339409 0.961199 0.017322
0.383693 0.954411 0.018926
0.853089 0.869132 0.037874
0.00027 0.000063 0.728951
0.162186 0.000144 0.698707
0.475428 0.000721 0.617571
0.590622 0.001071 0.579152
0.654866 0.001343 0.556265
0.708297 0.001613 0.53656
0.753114 0.001861 0.519617
0.795948 0.002105 0.503108
1 0.003849 0.335552
0.002009 0.140976 0.673102
0.117411 0.11856 0.649593
0.441735 0.054673 0.579851
0.55818 0.023996 0.546565
0.622174 0.005876 0.527041
0.676429 0.001356 0.509568
0.722416 0.001592 0.494098
0.766333 0.001839 0.47887
1 0.003923 0.317688
0.018449 0.404743 0.530389
0.016895 0.389296 0.517531
0.372296 0.345896 0.454179
0.498741 0.322566 0.426055
0.567618 0.308268 0.409849
0.624072 0.295773 0.396095
0.670892 0.284909 0.384362
0.715231 0.274219 0.372974
0.999764 0.145715 0.243718
0.029262 0.499721 0.464608
0.027254 0.486502 0.453998
0.333661 0.447523 0.401129
0.460601 0.42632 0.377403
0.529913 0.413235 0.3635
0.586805 0.401751 0.351559
0.634036 0.391729 0.341274
0.678796 0.381836 0.331211
0.999619 0.261405 0.210459
0.034472 0.552049 0.428207
0.032994 0.539925 0.418041
0.308978 0.502875 0.372245
0.436229 0.48275 0.350655
0.505837 0.470296 0.337847
0.563026 0.459344 0.326765
0.610534 0.449771 0.317165
0.655578 0.440307 0.307727
0.999116 0.324325 0.192083
0.037519 0.595146 0.399197
0.036568 0.583875 0.38918
0.287207 0.548288 0.348443
0.414772 0.529005 0.328416
0.48466 0.51705 0.316403
0.542127 0.506523 0.305943
0.589895 0.497309 0.296838
0.635206 0.488191 0.28785
0.99842 0.375804 0.176667
0.039205 0.631018 0.375734
0.038648 0.620337 0.365868
0.268245 0.585991 0.32855
0.39612 0.56738 0.309681
0.466271 0.555825 0.298253
0.523995 0.54564 0.288248
0.571998 0.536718 0.279506
0.61753 0.527878 0.270872
0.997567 0.418353 0.16411
0.040198 0.665091 0.353899
0.039881 0.654888 0.344179
0.249623 0.621733 0.309538
0.377836 0.603733 0.291646
0.448263 0.592545 0.280713
0.506233 0.582674 0.27111
0.554422 0.574015 0.262733
0.600109 0.565425 0.254476
0.996445 0.45846 0.152784
0.035642 0.999522 0.142306
0.035979 0.999527 0.135331
0.036043 0.992844 0.108976
0.160345 0.979252 0.104205
0.228993 0.970627 0.101707
0.285311 0.962946 0.099522
0.332138 0.956177 0.097447
0.376631 0.949447 0.09515
0.849075 0.86482 0.048318
0.000351 0.000072 0.796259
0.150038 0.000157 0.768091
0.467172 0.000785 0.689931
0.583709 0.001172 0.652144
0.648644 0.001466 0.629514
0.70261 0.001755 0.60999
0.747844 0.002018 0.593186
0.791044 0.002275 0.576807
1 0.00412 0.410504
0.002078 0.130073 0.743882
0.107481 0.10866 0.721502
0.434018 0.046889 0.653399
0.551327 0.016965 0.620641
0.616007 0.001219 0.601213
0.671356 0.00149 0.583574
0.717704 0.001742 0.568185
0.761946 0.002003 0.553034
1 0.004199 0.392764
0.019398 0.397894 0.604074
0.017161 0.382793 0.591568
0.367123 0.340072 0.529246
0.493781 0.317061 0.50159
0.56277 0.302939 0.485652
0.619317 0.29059 0.472114
0.666217 0.279845 0.460555
0.710632 0.269268 0.449331
0.99981 0.141858 0.321037
0.030349 0.493826 0.539077
0.028415 0.480842 0.528564
0.328809 0.442271 0.477123
0.455821 0.421292 0.453836
0.525196 0.408338 0.440158
0.582148 0.396964 0.428395
0.629435 0.387034 0.418253
0.674252 0.377229 0.408321
0.999545 0.257704 0.288593
0.035327 0.546558 0.503382
0.033983 0.534634 0.493221
0.304267 0.497905 0.44872
0.431566 0.477969 0.427516
0.501226 0.465627 0.414902
0.558469 0.45477 0.403971
0.606029 0.445277 0.39449
0.651128 0.435891 0.385161
0.998977 0.320723 0.270444
0.038108 0.589941 0.475005
0.037274 0.578836 0.465005
0.28261 0.543536 0.425279
0.410216 0.524419 0.40559
0.480156 0.512563 0.393742
0.537678 0.502121 0.383408
0.585498 0.49298 0.3744
0.630864 0.483931 0.365501
0.9982 0.372271 0.25534
0.039595 0.62603 0.452018
0.039127 0.615472 0.442158
0.263746 0.581411 0.40566
0.391664 0.562948 0.387086
0.461869 0.551484 0.375797
0.51965 0.541378 0.365898
0.567697 0.532521 0.357249
0.613264 0.523743 0.348712
0.997253 0.414864 0.24317
0.040425 0.660296 0.430589
0.040177 0.650201 0.420884
0.245218 0.617309 0.386887
0.373483 0.599445 0.369247
0.443966 0.588339 0.358432
0.501971 0.578537 0.348942
0.550179 0.569935 0.340673
0.595878 0.5614 0.332527
0.99601 0.455001 0.232331
0.033828 0.999453 0.222797
0.03419 0.999459 0.215817
0.034835 0.98955 0.188966
0.155537 0.975964 0.184646
0.223939 0.967341 0.182477
0.280146 0.959675 0.180465
0.32694 0.952927 0.17847
0.371446 0.946222 0.176203
0.845243 0.86205 0.128146
0.00043 0.000082 0.85223
0.139727 0.000169 0.825589
0.459967 0.00084 0.749742
0.577623 0.001258 0.712469
0.643135 0.001572 0.690062
0.697547 0.001876 0.670699
0.743126 0.002151 0.654023
0.786628 0.002417 0.637766
1 0.004339 0.472665
0.002128 0.12071 0.802469
0.098869 0.100088 0.780993
0.427195 0.040053 0.714227
0.545225 0.010761 0.681926
0.611128 0.001317 0.66236
0.666824 0.001604 0.644786
0.713475 0.00187 0.629474
0.757986 0.002142 0.614397
1 0.004424 0.455027
0.020147 0.391841 0.665064
0.017912 0.377049 0.652833
0.362408 0.334893 0.591456
0.489264 0.312158 0.564189
0.55836 0.298191 0.548472
0.614997 0.285968 0.535112
0.661973 0.275329 0.523699
0.706461 0.26485 0.51261
0.999848 0.138397 0.385195
0.031179 0.488584 0.600779
0.029314 0.475802 0.590355
0.324409 0.43759 0.540094
0.451509 0.41681 0.517162
0.520948 0.403971 0.503671
0.577962 0.392694 0.492054
0.625303 0.382845 0.48203
0.670174 0.373117 0.472207
0.999478 0.254394 0.35337
0.03595 0.541663 0.565702
0.034713 0.529911 0.555563
0.300012 0.493474 0.512085
0.427375 0.473704 0.491195
0.497091 0.461461 0.478739
0.554389 0.450689 0.467932
0.602 0.441267 0.45855
0.647151 0.431949 0.449311
0.998852 0.317499 0.335419
0.038528 0.585298 0.537843
0.037802 0.574327 0.52787
0.278471 0.539297 0.488942
0.406134 0.520326 0.469526
0.476127 0.508558 0.457813
0.533703 0.498191 0.447583
0.581575 0.489114 0.438657
0.62699 0.480128 0.429836
0.998005 0.369107 0.320604
0.039864 0.62158 0.515245
0.039461 0.611128 0.505401
0.259704 0.577324 0.469551
0.387679 0.558993 0.451214
0.457939 0.547609 0.44004
0.515772 0.537572 0.430231
0.563857 0.528772 0.421666
0.609454 0.520049 0.413216
0.996975 0.411739 0.30878
0.04057 0.656017 0.494146
0.040372 0.646014 0.484467
0.24127 0.613359 0.450976
0.369597 0.595615 0.433538
0.440128 0.584583 0.422827
0.498162 0.574841 0.413439
0.546388 0.566291 0.405266
0.592097 0.557803 0.397219
0.995624 0.451902 0.29837
0.032128 0.99939 0.289752
0.032511 0.999397 0.282768
0.033745 0.986598 0.25539
0.151314 0.973027 0.251379
0.219553 0.964414 0.249443
0.2757 0.956765 0.247542
0.32249 0.950038 0.245591
0.367025 0.943356 0.243332
0.841993 0.859585 0.194223
0.000505 0.000091 0.899157
0.130959 0.000179 0.873678
0.453709 0.000888 0.799654
0.5723 0.001333 0.762805
0.638294 0.001662 0.740587
0.693078 0.001978 0.721366
0.738944 0.002263 0.704805
0.782696 0.002537 0.688661
1 0.004516 0.524688
0.002165 0.112676 0.851424
0.091414 0.092679 0.830587
0.42121 0.034084 0.765006
0.539831 0.005324 0.733087
0.606797 0.001402 0.713378
0.662814 0.001702 0.695889
0.709716 0.001978 0.680649
0.754452 0.002259 0.665642
1 0.004606 0.507134
0.020747 0.386529 0.716011
0.018519 0.371998 0.704025
0.358181 0.330324 0.643468
0.485217 0.307829 0.616525
0.554412 0.293995 0.600989
0.611132 0.281883 0.587778
0.658177 0.271335 0.576486
0.702731 0.260942 0.565511
0.99988 0.135323 0.438886
0.031825 0.483961 0.652363
0.030022 0.471353 0.642016
0.320477 0.433455 0.592734
0.447667 0.412847 0.570094
0.517169 0.400109 0.556756
0.57424 0.388917 0.545262
0.621632 0.379139 0.535337
0.666554 0.369479 0.525606
0.999418 0.251457 0.407538
0.036418 0.537339 0.617816
0.035265 0.525734 0.60771
0.29622 0.489555 0.565052
0.423651 0.469932 0.544419
0.493421 0.457776 0.532095
0.550771 0.447077 0.521392
0.598429 0.437718 0.512093
0.643628 0.42846 0.50293
0.998742 0.314639 0.389768
0.038836 0.581193 0.590383
0.038195 0.570336 0.58044
0.274789 0.535546 0.542156
0.402514 0.516704 0.522965
0.472558 0.505014 0.511364
0.530185 0.494713 0.501221
0.578103 0.485693 0.492364
0.62356 0.47676 0.483612
0.997832 0.366298 0.375213
0.040054 0.617644 0.568107
0.039702 0.607283 0.558287
0.256113 0.573706 0.522955
0.384149 0.555492 0.504814
0.454461 0.544179 0.493734
0.512339 0.534201 0.484005
0.560455 0.525452 0.475515
0.606077 0.516776 0.467142
0.99673 0.408965 0.363695
0.040665 0.652231 0.547282
0.040505 0.642308 0.537631
0.237766 0.609862 0.504547
0.366157 0.592225 0.487275
0.436729 0.581256 0.476656
0.494789 0.571568 0.467359
0.543029 0.563061 0.45927
0.588746 0.554615 0.451309
0.995284 0.449151 0.353661
0.030565 0.999335 0.345903
0.030965 0.999342 0.338917
0.032775 0.983977 0.311013
0.147629 0.970426 0.307205
0.215759 0.961825 0.305436
0.271875 0.954194 0.303609
0.318676 0.947486 0.301682
0.363247 0.940828 0.299418
0.839215 0.857406 0.249419
0.000586 0.0001 0.943988
0.122491 0.000188 0.919535
0.447561 0.000935 0.847154
0.567036 0.001405 0.810702
0.633488 0.001749 0.788667
0.688624 0.002077 0.769587
0.734762 0.00237 0.753142
0.778748 0.00265 0.737116
1 0.004678 0.574329
0.002197 0.104861 0.898068
0.084117 0.085432 0.87777
0.415277 0.028191 0.813344
0.534578 0.001155 0.781691
0.602485 0.001484 0.761942
0.658807 0.001797 0.744538
0.705949 0.002083 0.729371
0.750897 0.002372 0.714438
1 0.004774 0.556853
0.021295 0.38126 0.764537
0.019077 0.36697 0.752772
0.353918 0.325773 0.693036
0.481137 0.303512 0.6664
0.550435 0.28981 0.651037
0.60724 0.277807 0.637966
0.654356 0.267348 0.62679
0.698977 0.25704 0.615924
0.99991 0.132241 0.490094
0.032399 0.479356 0.701523
0.030659 0.466917 0.691257
0.316522 0.429328 0.642895
0.443811 0.408892 0.620528
0.51338 0.396253 0.607335
0.570511 0.385145 0.595958
0.617955 0.375437 0.586127
0.66293 0.365844 0.576484
0.999357 0.248518 0.45917
0.036823 0.533025 0.667489
0.035744 0.521562 0.657428
0.292411 0.485642 0.61552
0.41992 0.466165 0.595128
0.489748 0.454095 0.58293
0.547152 0.443469 0.572325
0.594859 0.434172 0.563105
0.640107 0.424973 0.554016
0.998631 0.311774 0.441586
0.039098 0.577095 0.640459
0.038515 0.566341 0.630542
0.271097 0.5318 0.59286
0.39889 0.513086 0.573879
0.46899 0.501472 0.562385
0.526669 0.491237 0.552324
0.574634 0.482272 0.543535
0.620131 0.473392 0.534852
0.99766 0.363484 0.427296
0.040211 0.613713 0.618485
0.039902 0.603441 0.608694
0.252516 0.570091 0.573841
0.38062 0.551993 0.555882
0.450987 0.54075 0.544893
0.508907 0.530831 0.535244
0.557054 0.522132 0.526829
0.602701 0.513503 0.518532
0.996485 0.406184 0.416083
0.040736 0.648449 0.597918
0.04061 0.638603 0.588302
0.234259 0.606366 0.555592
0.36272 0.588836 0.538476
0.433331 0.577929 0.52795
0.491414 0.568293 0.518743
0.539669 0.55983 0.510737
0.585396 0.551426 0.502862
0.994944 0.446393 0.406421
0.028965 0.99928 0.399555
0.029396 0.999287 0.39258
0.031802 0.981349 0.364095
0.143997 0.967825 0.360428
0.212042 0.959238 0.358797
0.268145 0.951628 0.357026
0.314966 0.944941 0.35511
0.35958 0.938305 0.352835
0.836511 0.855229 0.301984
0.000691 0.000107 0.999224
0.026632 0.000126 0.99655
0.368136 0.000845 0.993072
0.49437 0.001373 0.987838
0.564673 0.001781 0.983979
0.623012 0.002179 0.980331
0.671796 0.002537 0.977036
0.718233 0.002885 0.973753
0.999968 0.006049 0.956225
0.000869 0.015149 0.99415
0.00069 0.000683 0.989121
0.341236 0.000688 0.992235
0.468773 0.001215 0.988148
0.539892 0.001615 0.984881
0.598972 0.002 0.981687
0.648386 0.002384 0.978641
0.695343 0.002731 0.97539
0.999968 0.006183 0.956231
0.018066 0.314247 0.97985
0.016547 0.302412 0.981417
0.290656 0.266633 0.967513
0.422576 0.247295 0.961691
0.494308 0.235231 0.959351
0.552967 0.224572 0.957859
0.601527 0.215223 0.956871
0.64744 0.205955 0.956114
0.999754 0.091695 0.954005
0.031396 0.419659 0.964786
0.030143 0.408976 0.966228
0.261642 0.375537 0.957677
0.39183 0.357277 0.955228
0.462849 0.345874 0.954541
0.521112 0.335798 0.954228
0.569461 0.326954 0.954103
0.615266 0.318179 0.954074
0.998677 0.209623 0.95513
0.036854 0.476928 0.958626
0.036114 0.466837 0.959493
0.240975 0.434524 0.955216
0.370602 0.416887 0.954182
0.441532 0.405879 0.954073
0.499823 0.396149 0.954139
0.548259 0.387607 0.954268
0.594193 0.379129 0.954427
0.997329 0.273754 0.95785
0.039425 0.523689 0.955736
0.039048 0.514055 0.956195
0.221991 0.482741 0.954299
0.351439 0.465638 0.954107
0.422445 0.454966 0.954301
0.48088 0.445532 0.954541
0.529467 0.437245 0.954786
0.575534 0.429013 0.955072
0.99551 0.326065 0.962572
0.040508 0.562376 0.954511
0.04035 0.553097 0.954725
0.205088 0.522655 0.954077
0.334572 0.506005 0.954369
0.405729 0.495618 0.954711
0.464282 0.486426 0.955093
0.512923 0.47834 0.955513
0.559 0.470297 0.956011
0.99328 0.369155 0.968979
0.040866 0.598948 0.954069
0.040837 0.589989 0.954139
0.188259 0.560396 0.954179
0.317912 0.54418 0.954769
0.38916 0.53405 0.955297
0.447713 0.52507 0.955932
0.496306 0.51716 0.956623
0.542297 0.509283 0.957427
0.99069 0.409762 0.964964
0.014632 0.973876 0.962789
0.016252 0.967546 0.954465
0.020258 0.946233 0.926461
0.100135 0.93342 0.921176
0.168155 0.92515 0.920117
0.224661 0.917864 0.918367
0.272054 0.911483 0.916229
0.317363 0.905162 0.913593
0.803894 0.826261 0.854576
