site/assets/luts/freshluts--0000709-louetta.cube
# LUTr-Schema-Version: 2
# LUTr-ID: freshluts--0000709-louetta
# LUTr-Title: Louetta
# LUTr-Collection: Fresh LUTs
# LUTr-Collection-ID: freshluts-community
# LUTr-Source: https://freshluts.com
# LUTr-Retrieved: 2026-07-27
# LUTr-Source-File: submissions-raw/freshluts/cubes/709__Louetta.cube
# LUTr-Source-Format: CUBE
# LUTr-Source-SHA256: ecddc042b8c42f1a98728d9fcb3ced5b442dd5a89b861991eff0eab62ff593f0
# LUTr-License: CC0-1.0
# LUTr-License-URL: https://freshluts.com/termsandconditions
# LUTr-License-Basis: site-terms
# LUTr-Transform-Class: creative-look
# LUTr-Tags: creative, freshluts, community, cube, brown, low-key, arri-logc3-ei800
# LUTr-Input-Color-Space:
# LUTr-Input-Gamut: arri-wide-gamut-3
# LUTr-Input-Transfer: arri-logc3-ei800
# LUTr-Output-Color-Space: srgb
# LUTr-Output-Gamut: rec709
# LUTr-Output-Transfer: srgb
# LUTr-Color-Space-Confidence: camera-profile-input-required
# LUTr-Domain-Normalized: true
# LUTr-Shaper: none
# LUTr-Original-Grid: 16x16x16
# LUTr-Conversion-Grid: 16x16x16
# LUTr-Conversion-Interpolation: none
# LUTr-Conversion-Method: Metadata normalization; numeric LUT samples preserved
# LUTr-Conversion-Tool: LUTr scripts/convert-all-to-cube.mjs 2.0.0
# LUTr-Conversion-Date: 2026-07-28
# LUTr-Asset-URL: https://freshluts.com/luts/709
# LUTr-Author: InAvision
# LUTr-Author-URL: https://freshluts.com/users/64078
# LUTr-Attribution: InAvision via Fresh LUTs
# LUTr-Source-Labels: gamma=Arri log c; color=Brown; key=Low Key; style=Warm shadows
# LUTr-Note: Preserve this metadata and the upstream license notices when redistributing.
TITLE "Louetta"
LUT_3D_SIZE 6
DOMAIN_MIN 0 0 0
DOMAIN_MAX 1 1 1
-0.024575 -0.024916 0.009756
0.221848 -0.024277 0.005799
0.51211 -0.039658 -0.002081
0.644281 -0.034315 -0.002614
0.731113 -0.034584 -0.002968
0.796176 -0.045038 -0.00323
-0.0116 0.142555 0.034141
0.110949 0.150187 0.008106
0.382269 0.194542 -0.00201
0.647057 0.21208 -0.002867
0.767653 0.222046 -0.003331
0.855518 0.244075 -0.003705
-0.002085 0.308537 0.07269
-0.037531 0.325963 -0.013678
0.336292 0.380199 -0.003543
0.634942 0.427234 -0.00365
0.817288 0.446101 -0.004229
0.932909 0.458161 -0.004623
-0.003022 0.447867 0.123762
-0.021505 0.469424 0.080708
0.290326 0.526341 -0.013228
0.620262 0.588329 -0.004473
0.843255 0.618709 -0.005102
0.963926 0.630023 -0.005452
-0.003756 0.555329 0.21126
-0.003989 0.587808 0.176129
0.200288 0.651753 0.026397
0.598692 0.726139 -0.015013
0.856495 0.763509 -0.005902
0.973898 0.770452 -0.006181
-0.032098 0.68118 0.329892
-0.134086 0.715543 0.311267
-0.244525 0.77843 0.252863
0.541955 0.85405 0.106896
0.838653 0.89824 0.049407
0.984148 0.914237 -0.006988
-0.015491 -0.292867 0.120011
0.439059 -0.306239 -0.107827
0.624049 -0.332975 -0.113157
0.721912 -0.363904 -0.071109
0.75917 -0.380847 -0.056175
0.807225 -0.38714 -0.047639
-0.005935 0.155384 0.215037
0.120724 0.165665 0.177529
0.443215 0.185212 0.120101
0.684162 0.189582 0.058877
0.805588 0.202703 0.03365
0.878355 0.227503 0.024392
-0.002336 0.338905 0.266967
-0.050384 0.355257 0.229571
0.383462 0.413348 0.112512
0.677872 0.439888 0.07766
0.84291 0.454131 0.040864
0.950654 0.464956 -0.008878
-0.003318 0.485741 0.310381
-0.007948 0.512883 0.288348
0.241963 0.575259 0.145781
0.640387 0.61949 0.113561
0.859702 0.642179 0.062471
0.982565 0.65172 0.035398
-0.004071 0.596705 0.366112
-0.004295 0.631447 0.345586
-0.038504 0.70002 0.288477
0.592965 0.764977 0.186754
0.862445 0.791371 0.120652
0.985309 0.795933 0.081348
-0.102247 0.716742 0.4541
-0.226041 0.75031 0.43799
-0.272731 0.812711 0.415372
0.5054 0.891374 0.28508
0.843944 0.933021 0.219044
0.987642 0.944954 0.177601
0.40103 -0.311227 0.372724
0.745499 -0.324724 0.352443
0.70445 -0.351967 0.272676
0.773591 -0.381114 0.271573
0.799923 -0.396425 0.268707
0.845043 -0.40074 0.266425
-0.020105 0.160494 0.411508
0.174227 0.175877 0.40716
0.497195 0.180803 0.386569
0.730743 0.147411 0.348472
0.86291 0.135528 0.316435
0.928443 0.157095 0.290214
-0.002656 0.367371 0.473164
-0.063195 0.391646 0.457376
0.44327 0.442312 0.441662
0.72735 0.45963 0.401575
0.885334 0.458997 0.353767
0.987274 0.469093 0.324201
-0.0037 0.529056 0.5149
-0.007317 0.559377 0.507946
0.269536 0.623154 0.423277
0.683748 0.659397 0.380747
0.884147 0.672086 0.375063
1.00215 0.680902 0.387461
-0.004484 0.647469 0.551644
-0.004718 0.683997 0.546381
-0.066674 0.753108 0.532906
0.617176 0.802245 0.422246
0.865165 0.823507 0.412594
0.998707 0.826464 0.391457
-0.221476 0.762303 0.605272
-0.307452 0.796519 0.602128
-0.315635 0.861679 0.601876
0.492075 0.933471 0.558173
0.839986 0.972654 0.492462
0.988283 0.98089 0.436572
0.682255 -0.330058 0.517375
0.819454 -0.343577 0.508194
0.85491 -0.37124 0.463289
0.805991 -0.395655 0.4362
0.826768 -0.409522 0.436849
0.858864 -0.414104 0.442427
0.056474 0.137246 0.586598
0.32201 0.149097 0.589179
0.579262 0.125223 0.578232
0.756195 0.099867 0.554727
0.870516 0.097634 0.53706
0.937252 0.124938 0.524581
-0.005912 0.38924 0.634288
0.03527 0.415409 0.649684
0.501497 0.445278 0.642814
0.771415 0.458498 0.624215
0.904147 0.457142 0.600985
0.991461 0.471535 0.580619
-0.004049 0.566007 0.677992
-0.025685 0.596108 0.676258
0.410618 0.655839 0.664195
0.706431 0.681242 0.662107
0.890651 0.688321 0.636835
1.005751 0.699389 0.627864
-0.004891 0.696235 0.711729
-0.005154 0.731772 0.710265
0.20324 0.794034 0.709611
0.652477 0.826534 0.64776
0.879822 0.844486 0.619506
1.002338 0.849132 0.644069
-0.300745 0.810149 0.760501
-0.337685 0.844463 0.759735
-0.355172 0.911724 0.760042
0.516469 0.965113 0.738061
0.838902 0.997591 0.712632
0.988369 1.0081 0.682621
0.810687 -0.348219 0.577716
0.868723 -0.3628 0.565354
0.897786 -0.389498 0.546603
0.85166 -0.408012 0.513426
0.852419 -0.419474 0.5449
0.864322 -0.423683 0.562288
0.311893 0.073918 0.685453
0.473786 0.053788 0.687808
0.673013 -0.043972 0.68355
0.781065 -0.047679 0.677183
0.871364 -0.031451 0.675565
0.937889 0.065363 0.67477
-0.063635 0.397545 0.746511
0.358901 0.419075 0.768962
0.590447 0.433208 0.774482
0.796681 0.440745 0.771208
0.930743 0.437554 0.767842
0.994734 0.460336 0.751108
-0.005225 0.597051 0.783265
-0.048787 0.631184 0.804126
0.498943 0.665997 0.818164
0.781135 0.687776 0.817089
0.910848 0.689488 0.806578
1.008817 0.701652 0.794406
-0.0052 0.734096 0.811265
-0.032188 0.765844 0.822294
0.363757 0.816791 0.843472
0.712439 0.84296 0.81567
0.882015 0.855084 0.828546
1.007264 0.863303 0.823894
-0.34086 0.851864 0.851559
-0.359135 0.888668 0.863108
-0.280064 0.952673 0.88146
0.58025 0.989978 0.879656
0.849101 1.016351 0.870149
0.997364 1.027811 0.85705
0.867259 -0.368052 0.607857
0.887475 -0.381872 0.60266
0.902939 -0.401545 0.595702
0.89263 -0.415498 0.589431
0.850298 -0.423813 0.577669
0.861997 -0.427954 0.605912
0.494882 -0.066565 0.726977
0.613109 -0.065686 0.729537
0.708905 -0.060617 0.728492
0.815779 -0.058993 0.729531
0.872787 -0.058854 0.730044
0.935433 -0.051916 0.735464
0.400918 0.396462 0.847999
0.521055 0.402297 0.850097
0.708691 0.410421 0.851621
0.834058 0.413321 0.844395
0.959212 0.408863 0.844275
0.997781 0.440829 0.825383
0.110088 0.630872 0.888388
0.398126 0.651355 0.903741
0.61166 0.666005 0.904114
0.818834 0.677668 0.898717
0.943464 0.677804 0.891955
1.01667 0.692119 0.871544
-0.02417 0.770848 0.90073
0.212792 0.805246 0.924211
0.511126 0.826685 0.926209
0.789031 0.851413 0.923481
0.908782 0.854718 0.912977
1.026508 0.863591 0.902869
-0.006031 0.854187 0.916542
0.055132 0.888004 0.928644
0.398108 0.926027 0.940679
0.707784 0.956291 0.936823
0.87396 0.971945 0.928672
1.003955 0.982343 0.922497
