site/assets/luts/freshluts--0001113-sony-log3-to-rec709-fallin-love.cube
# LUTr-Schema-Version: 2
# LUTr-ID: freshluts--0001113-sony-log3-to-rec709-fallin-love
# LUTr-Title: Sony-log3 to rec709 fallin love
# LUTr-Collection: Fresh LUTs
# LUTr-Collection-ID: freshluts-community
# LUTr-Source: https://freshluts.com
# LUTr-Retrieved: 2026-07-27
# LUTr-Source-File: submissions-raw/freshluts/cubes/1113__orange_tone1.cube
# LUTr-Source-Format: CUBE
# LUTr-Source-SHA256: f87a01fd3a9b60562eb3d3d7c9b8cc17e4d06db07391ae326e439c69837f39e2
# LUTr-License: CC0-1.0
# LUTr-License-URL: https://freshluts.com/termsandconditions
# LUTr-License-Basis: site-terms
# LUTr-Transform-Class: creative-look
# LUTr-Tags: creative, freshluts, community, cube, red, high-key, sony-s-log3
# LUTr-Input-Color-Space:
# LUTr-Input-Gamut: sony-s-gamut3
# LUTr-Input-Transfer: sony-s-log3
# LUTr-Output-Color-Space: srgb
# LUTr-Output-Gamut: rec709
# LUTr-Output-Transfer: srgb
# LUTr-Color-Space-Confidence: camera-profile-input-required
# LUTr-Domain-Normalized: true
# LUTr-Shaper: none
# LUTr-Original-Grid: 16x16x16
# LUTr-Conversion-Grid: 16x16x16
# LUTr-Conversion-Interpolation: none
# LUTr-Conversion-Method: Metadata normalization; numeric LUT samples preserved
# LUTr-Conversion-Tool: LUTr scripts/convert-all-to-cube.mjs 2.0.0
# LUTr-Conversion-Date: 2026-07-28
# LUTr-Asset-URL: https://freshluts.com/luts/1113
# LUTr-Author: lvannoeun@gmail.com
# LUTr-Author-URL: https://freshluts.com/users/57563
# LUTr-Attribution: lvannoeun@gmail.com via Fresh LUTs
# LUTr-Source-Labels: gamma=Sony S-Log 3; color=Red; key=High Key; style=Correction
# LUTr-Note: Preserve this metadata and the upstream license notices when redistributing.
TITLE "Sony-log3 to rec709 fallin love"
LUT_3D_SIZE 6
DOMAIN_MIN 0 0 0
DOMAIN_MAX 1 1 1
0.064103 -0.045727 -0.059671
0.092953 -0.045728 -0.059671
0.612803 0.068051 0.160483
0.892299 0.115619 0.283229
0.895612 0.15008 0.317122
0.895609 0.150026 0.321045
0.066974 0.068051 -0.057314
0.092953 0.068051 -0.058869
0.562006 0.095532 0.06228
0.867017 0.0794 0.265359
0.895614 0.150129 0.313905
0.895609 0.150032 0.320663
0.092953 0.578613 0.223069
0.092953 0.536752 0.205102
0.495053 0.498576 0.06228
0.835327 0.456302 0.125557
0.895614 0.150173 0.312984
0.895609 0.150035 0.320519
0.182518 0.884049 0.364907
0.167881 0.859337 0.351783
0.227553 0.848797 0.292228
0.76175 0.821078 0.237676
0.887678 0.741921 0.252922
0.895609 0.150141 0.320409
0.347782 0.926459 0.514602
0.34842 0.926459 0.463437
0.348823 0.926459 0.450059
0.693532 0.926459 0.408383
0.860387 0.926458 0.43125
0.880994 0.922468 0.358219
0.466532 0.926459 0.848438
0.398009 0.926459 0.812538
0.515505 0.926459 0.795124
0.725679 0.926459 0.803696
0.843321 0.926458 0.766124
0.873274 0.926458 0.454897
0.064103 -0.045727 -0.033187
0.092953 -0.045728 0.06228
0.610733 0.068051 0.276034
0.89159 0.113089 0.29422
0.895612 0.150083 0.316907
0.895609 0.150027 0.321029
0.064828 0.068051 0.06228
0.092953 0.068051 0.06228
0.547292 0.068051 0.221977
0.860631 0.074389 0.27526
0.895614 0.150148 0.313413
0.895609 0.150033 0.320587
0.092953 0.562128 0.223911
0.092953 0.518881 0.204833
0.478343 0.48144 0.06228
0.824036 0.4486 0.118737
0.895614 0.150179 0.312308
0.895609 0.150037 0.320396
0.17624 0.873907 0.359666
0.161721 0.848297 0.346076
0.210313 0.837548 0.296524
0.752556 0.809511 0.230112
0.888378 0.729873 0.248309
0.895608 0.150294 0.320206
0.347376 0.926459 0.558891
0.347875 0.926459 0.50153
0.348008 0.926459 0.483874
0.679264 0.926459 0.426597
0.858166 0.926458 0.429571
0.88081 0.915909 0.33531
0.43394 0.926459 0.845472
0.37927 0.926459 0.809524
0.484622 0.926459 0.791938
0.711249 0.926459 0.797008
0.839532 0.926458 0.763729
0.872832 0.926458 0.471604
0.072885 -0.034932 0.546346
0.202108 -0.019229 0.565717
0.625357 0.068051 0.645393
0.890463 0.106929 0.699359
0.895478 0.148044 0.486885
0.895609 0.150027 0.321029
0.072261 -0.035568 0.540398
0.085191 -0.0397 0.510937
0.555123 0.068051 0.558786
0.855733 0.072195 0.625443
0.895505 0.148556 0.426867
0.895609 0.150034 0.320585
0.092953 0.537963 0.578931
0.092953 0.494644 0.532224
0.442666 0.432543 0.511382
0.821045 0.293253 0.54682
0.895521 0.148813 0.414002
0.895609 0.150037 0.320357
0.163621 0.856083 0.637748
0.149804 0.830543 0.592869
0.18247 0.819769 0.569322
0.736032 0.791354 0.473868
0.887746 0.73362 0.28037
0.895608 0.150301 0.320176
0.346579 0.926459 0.704435
0.346263 0.926459 0.661204
0.345663 0.926459 0.646007
0.661557 0.926466 0.606746
0.855183 0.925892 0.504575
0.880752 0.914192 0.334429
0.418359 0.926459 0.876889
0.369213 0.926459 0.842228
0.468338 0.926459 0.826041
0.704217 0.926459 0.828266
0.838631 0.926477 0.814028
0.871271 0.926516 0.550215
0.151242 0.068051 0.940351
0.151161 0.068051 0.94401
0.635906 0.07466 0.959081
0.865724 0.197562 0.966465
0.882612 0.218135 0.963208
0.89507 0.149105 0.825311
0.152724 0.068051 0.93172
0.155054 0.068051 0.928251
0.586095 0.068051 0.929045
0.841493 0.16702 0.936547
0.894659 0.153356 0.915897
0.895174 0.147669 0.726891
0.092953 0.489805 0.930187
0.092953 0.443665 0.921759
0.445701 0.23322 0.919485
0.828812 0.155846 0.928635
0.894871 0.150489 0.896941
0.895252 0.147693 0.69706
0.242938 0.826755 0.929045
0.134589 0.809244 0.906771
0.144532 0.798163 0.897754
0.714179 0.746771 0.883964
0.886684 0.654546 0.847563
0.895213 0.147971 0.70655
0.346525 0.926459 0.909147
0.343685 0.926458 0.880288
0.341719 0.926024 0.871479
0.651647 0.922577 0.866981
0.847843 0.921497 0.861901
0.875518 0.896259 0.677201
0.406115 0.926459 0.958249
0.353164 0.926459 0.936567
0.440651 0.926459 0.925558
0.69507 0.926458 0.924778
0.845882 0.926306 0.933705
0.869843 0.926462 0.867436
0.092953 0.097638 0.966466
0.092953 0.098122 0.966466
0.608511 0.100993 0.966465
0.86328 0.210147 0.966465
0.88252 0.23015 0.966465
0.88252 0.230148 0.966465
0.092953 0.095733 0.966465
0.092953 0.092141 0.966466
0.518396 0.071716 0.966465
0.813439 0.184224 0.966465
0.88253 0.229243 0.966464
0.882538 0.228581 0.966465
0.092953 0.391872 0.966465
0.092953 0.298984 0.966466
0.371947 0.114289 0.966466
0.786212 0.170434 0.966465
0.88254 0.228433 0.966465
0.88255 0.227528 0.966465
0.264691 0.772839 0.966463
0.247921 0.743295 0.966464
0.243606 0.730904 0.966464
0.69459 0.697568 0.966463
0.871708 0.590819 0.966463
0.882552 0.227338 0.966464
0.34136 0.913288 0.966462
0.336474 0.905025 0.966462
0.334163 0.901158 0.966462
0.635036 0.888207 0.966462
0.848033 0.896577 0.966461
0.868711 0.869031 0.966462
0.402908 0.926459 0.966462
0.356329 0.926459 0.966462
0.427511 0.926459 0.966462
0.68435 0.924467 0.966461
0.840929 0.924397 0.966461
0.872249 0.925377 0.966461
0.137202 0.517551 0.966465
0.134163 0.510064 0.966465
0.461439 0.45723 0.966465
0.826981 0.375935 0.966464
0.88252 0.230148 0.966465
0.88252 0.230148 0.966465
0.125357 0.491854 0.966465
0.101125 0.418912 0.966465
0.300294 0.301789 0.966465
0.78928 0.207275 0.966465
0.88252 0.230148 0.966465
0.88252 0.230148 0.966465
0.187279 0.623056 0.966464
0.161889 0.571978 0.966465
0.207149 0.537231 0.966465
0.73861 0.402307 0.966464
0.882505 0.231474 0.966464
0.88252 0.230148 0.966465
0.280128 0.798176 0.966463
0.263701 0.767865 0.966463
0.257329 0.755618 0.966464
0.685362 0.72871 0.966463
0.864745 0.660008 0.966463
0.882517 0.230484 0.966465
0.340787 0.910146 0.966462
0.335569 0.900584 0.966462
0.333072 0.896094 0.966462
0.632846 0.883023 0.966462
0.845496 0.893075 0.966461
0.868512 0.866241 0.966462
0.413018 0.926459 0.966462
0.364958 0.926459 0.966462
0.437703 0.926459 0.966462
0.684003 0.922382 0.966461
0.839235 0.921515 0.966461
0.870518 0.923074 0.966461
