site/assets/luts/freshluts--0000983-metro.cube
# LUTr-Schema-Version: 2
# LUTr-ID: freshluts--0000983-metro
# LUTr-Title: Metro
# LUTr-Collection: Fresh LUTs
# LUTr-Collection-ID: freshluts-community
# LUTr-Source: https://freshluts.com
# LUTr-Retrieved: 2026-07-27
# LUTr-Source-File: submissions-raw/freshluts/cubes/983__Metro.cube
# LUTr-Source-Format: CUBE
# LUTr-Source-SHA256: 9136f63f59e4f15d96a5fc3dff104220e0efadb0aed1fd3a028b0ae0a0881301
# LUTr-License: CC0-1.0
# LUTr-License-URL: https://freshluts.com/termsandconditions
# LUTr-License-Basis: site-terms
# LUTr-Transform-Class: creative-look
# LUTr-Tags: creative, freshluts, community, cube, warm, rec709, assumed-input
# LUTr-Input-Color-Space: rec709
# LUTr-Input-Gamut: rec709
# LUTr-Input-Transfer: rec709
# LUTr-Output-Color-Space: srgb
# LUTr-Output-Gamut: rec709
# LUTr-Output-Transfer: srgb
# LUTr-Color-Space-Confidence: assumed-display-referred
# LUTr-Domain-Normalized: true
# LUTr-Shaper: none
# LUTr-Original-Grid: 32x32x32
# LUTr-Conversion-Grid: 32x32x32
# LUTr-Conversion-Interpolation: none
# LUTr-Conversion-Method: Metadata normalization; numeric LUT samples preserved
# LUTr-Conversion-Tool: LUTr scripts/convert-all-to-cube.mjs 2.0.0
# LUTr-Conversion-Date: 2026-07-28
# LUTr-Asset-URL: https://freshluts.com/luts/983
# LUTr-Author: ButterflyBD
# LUTr-Author-URL: https://freshluts.com/users/53416
# LUTr-Attribution: ButterflyBD via Fresh LUTs
# LUTr-Source-Labels: gamma=Other; color=Warm; key=Neutral; style=Teal - Orange; LUTr assumption=input Rec.709 per repository policy
# LUTr-Conversion-Warning: Input Rec.709 is a LUTr catalog assumption requested for this otherwise unspecified Fresh LUT; it is not verified by the upstream asset.
# LUTr-Note: Preserve this metadata and the upstream license notices when redistributing.
# LUTr-Upstream-Comment: Created by: Adobe Photoshop Export Color Lookup Plugin
# LUTr-Upstream-Comment: LUT size
# LUTr-Upstream-Comment: data domain
# LUTr-Upstream-Comment: LUT data points
TITLE "Metro"
LUT_3D_SIZE 32
DOMAIN_MIN 0 0 0
DOMAIN_MAX 1 1 1
0 0 0
0.025482 0.000244 0.000275
0.051727 0.000519 0.00061
0.079315 0.000946 0.001099
0.108643 0.001526 0.00177
0.140289 0.002228 0.002625
0.174927 0.003143 0.003693
0.212799 0.004242 0.004974
0.253235 0.005493 0.0065
0.295197 0.006989 0.00824
0.337433 0.008759 0.010315
0.378937 0.010834 0.012756
0.418579 0.013 0.01532
0.455109 0.015442 0.018188
0.487823 0.018127 0.021362
0.517609 0.021088 0.024841
0.545532 0.024323 0.028656
0.572571 0.027924 0.032898
0.59967 0.031921 0.037567
0.627747 0.03598 0.042328
0.657501 0.0401 0.04715
0.688751 0.044128 0.051849
0.721008 0.048096 0.056488
0.753906 0.052032 0.061096
0.786926 0.055817 0.065491
0.819672 0.059509 0.069794
0.851715 0.062988 0.073822
0.88269 0.066284 0.077637
0.912231 0.069489 0.081329
0.940002 0.072449 0.084747
0.965729 0.075134 0.08786
0.989105 0.077637 0.090729
0.000549 0.027985 0.000702
0.026062 0.028259 0.000977
0.052155 0.028534 0.001312
0.07962 0.028961 0.001801
0.108917 0.029572 0.002472
0.140503 0.030304 0.003326
0.17514 0.031219 0.004395
0.212982 0.032349 0.005676
0.253387 0.033661 0.007202
0.295319 0.035156 0.008972
0.337585 0.036774 0.011078
0.379059 0.038574 0.013458
0.41864 0.040588 0.016022
0.45517 0.042725 0.01889
0.487885 0.044983 0.022064
0.517639 0.047455 0.025543
0.545563 0.050079 0.029358
0.572601 0.052826 0.0336
0.599701 0.055634 0.038269
0.627777 0.058624 0.042999
0.657532 0.061615 0.047791
0.688782 0.064636 0.052429
0.721039 0.067688 0.057068
0.753937 0.070801 0.061615
0.786957 0.073822 0.065979
0.819702 0.076782 0.070251
0.851746 0.079712 0.07428
0.882721 0.082458 0.078064
0.912262 0.085144 0.081757
0.940033 0.087646 0.085144
0.965759 0.089996 0.088257
0.989136 0.092163 0.091095
0.00119 0.056305 0.001526
0.026733 0.056488 0.001801
0.052612 0.056702 0.002136
0.079956 0.056976 0.002625
0.109192 0.057373 0.003296
0.140747 0.057922 0.00415
0.175354 0.058563 0.005219
0.213165 0.059326 0.0065
0.253601 0.060211 0.008026
0.295471 0.061218 0.009796
0.337708 0.062408 0.011963
0.379181 0.063629 0.014282
0.418732 0.065033 0.016846
0.455261 0.066589 0.019714
0.487946 0.068268 0.022888
0.517731 0.070129 0.026367
0.545624 0.072083 0.030182
0.572632 0.074188 0.034454
0.599762 0.076385 0.039093
0.627808 0.078735 0.043762
0.657593 0.081146 0.048523
0.688843 0.083588 0.053101
0.7211 0.08609 0.057709
0.753998 0.088684 0.062256
0.786987 0.091217 0.066589
0.819733 0.093719 0.070801
0.851776 0.096222 0.074799
0.882751 0.098602 0.078583
0.912292 0.100922 0.082245
0.940063 0.103119 0.085602
0.96579 0.105103 0.088715
0.989197 0.107025 0.091553
0.002167 0.085175 0.002747
0.02771 0.085297 0.003021
0.053314 0.085449 0.003357
0.080505 0.085663 0.003845
0.109619 0.085938 0.004517
0.141144 0.086334 0.005371
0.17569 0.086792 0.006439
0.21344 0.087341 0.007721
0.253845 0.088013 0.009216
0.295746 0.088776 0.011078
0.337921 0.0896 0.013214
0.379333 0.090637 0.015503
0.418915 0.091705 0.018066
0.455383 0.092865 0.020935
0.488068 0.094147 0.024078
0.517792 0.095612 0.027557
0.545685 0.097107 0.031403
0.572693 0.098755 0.035706
0.599823 0.100525 0.040314
0.627869 0.102386 0.044922
0.657654 0.104279 0.049591
0.688904 0.106293 0.054138
0.721161 0.108368 0.058685
0.754059 0.110535 0.06311
0.787048 0.11264 0.067444
0.819794 0.114746 0.071625
0.851868 0.116852 0.075562
0.882812 0.118866 0.079346
0.912384 0.12085 0.082977
0.940125 0.122742 0.086304
0.965851 0.124512 0.089386
0.989258 0.12616 0.092224
0.003418 0.114777 0.004395
0.029022 0.114868 0.004669
0.054291 0.11496 0.005005
0.081177 0.115143 0.005493
0.110199 0.115356 0.006165
0.141632 0.115692 0.007019
0.176117 0.116028 0.008087
0.213867 0.116455 0.009369
0.254211 0.117004 0.010956
0.296082 0.117554 0.012817
0.338196 0.118256 0.014862
0.379608 0.119019 0.017151
0.419128 0.119873 0.019714
0.455536 0.120819 0.022583
0.48822 0.121887 0.025726
0.517914 0.123016 0.029205
0.545776 0.124268 0.033081
0.572784 0.12561 0.037415
0.599884 0.127045 0.041901
0.62796 0.12854 0.046448
0.657715 0.130188 0.050964
0.688995 0.131836 0.055481
0.721222 0.133545 0.059998
0.75412 0.135315 0.064331
0.787109 0.137115 0.068604
0.819855 0.138916 0.072723
0.851929 0.140717 0.076599
0.882904 0.142426 0.080383
0.912445 0.144135 0.083923
0.940186 0.145782 0.08725
0.965881 0.147308 0.090302
0.989288 0.148712 0.093079
0.005066 0.145233 0.0065
0.030731 0.145325 0.006775
0.05545 0.145386 0.007111
0.082123 0.145538 0.007599
0.110962 0.145752 0.00827
0.142303 0.145996 0.009125
0.176697 0.146271 0.010254
0.214386 0.146637 0.011597
0.254669 0.147064 0.013184
0.296478 0.147583 0.014954
0.338593 0.148132 0.016968
0.379883 0.148773 0.019257
0.419373 0.149475 0.02182
0.45575 0.150238 0.024689
0.488373 0.151123 0.027863
0.518036 0.152069 0.031342
0.545898 0.153107 0.035278
0.572906 0.154205 0.039551
0.600006 0.155426 0.043884
0.628082 0.156738 0.04834
0.657837 0.158081 0.052734
0.689056 0.159485 0.057159
0.721344 0.16098 0.061584
0.754211 0.162506 0.065826
0.787262 0.164032 0.070068
0.819977 0.165619 0.074066
0.85202 0.167114 0.077911
0.882965 0.168671 0.081665
0.912537 0.170135 0.085175
0.940308 0.17157 0.08844
0.966003 0.172882 0.091492
0.98941 0.174133 0.094208
0.007111 0.176849 0.009125
0.032776 0.17691 0.00943
0.056915 0.177002 0.009766
0.083252 0.177124 0.010284
0.111847 0.177277 0.010986
0.143097 0.17749 0.011902
0.177429 0.177734 0.013031
0.215027 0.17804 0.014313
0.25528 0.178406 0.015808
0.296997 0.178833 0.017578
0.33905 0.179321 0.019592
0.38028 0.179871 0.021881
0.419708 0.180481 0.024445
0.456024 0.181152 0.027313
0.488586 0.181915 0.030487
0.518219 0.182709 0.034027
0.546082 0.183624 0.037994
0.573059 0.18457 0.042114
0.600128 0.185608 0.046356
0.628204 0.186737 0.050629
0.657959 0.187927 0.054932
0.689209 0.189178 0.059265
0.721466 0.19046 0.063507
0.754364 0.191772 0.067719
0.787354 0.193146 0.071808
0.820099 0.194489 0.075745
0.852142 0.195831 0.079559
0.883087 0.197174 0.083221
0.912659 0.198486 0.08667
0.940399 0.199738 0.089905
0.966095 0.200928 0.092865
0.989502 0.202057 0.095581
0.009735 0.209747 0.012482
0.035126 0.209808 0.012787
0.058624 0.209869 0.013123
0.084564 0.209991 0.013611
0.112915 0.210114 0.014252
0.144043 0.210297 0.015106
0.178284 0.210541 0.016174
0.215851 0.210815 0.017456
0.255951 0.211121 0.018982
0.297638 0.211487 0.020752
0.339569 0.211914 0.022766
0.380768 0.212402 0.025055
0.420074 0.212921 0.027618
0.456329 0.213531 0.030487
0.488831 0.214172 0.033722
0.518463 0.214874 0.037292
0.546265 0.215698 0.041138
0.573242 0.216522 0.045074
0.600311 0.217468 0.049194
0.628387 0.218445 0.053253
0.658112 0.219482 0.057434
0.689362 0.220612 0.061676
0.721619 0.221741 0.065796
0.754486 0.222931 0.069916
0.787506 0.224182 0.073883
0.820251 0.225372 0.077698
0.852264 0.226562 0.081512
0.88324 0.227783 0.085083
0.912781 0.228973 0.08847
0.940552 0.230072 0.091675
0.966248 0.231171 0.094574
0.989624 0.232147 0.097198
0.012665 0.244263 0.016235
0.037872 0.244324 0.01651
0.060547 0.244385 0.016846
0.086121 0.244476 0.017334
0.114227 0.244629 0.018005
0.145172 0.244781 0.01886
0.179321 0.244965 0.019928
0.216797 0.245209 0.02121
0.256805 0.245514 0.022736
0.29837 0.245819 0.024506
0.34021 0.246216 0.02652
0.381317 0.246643 0.028809
0.420563 0.247131 0.031372
0.456696 0.247681 0.034302
0.489166 0.24826 0.037567
0.518707 0.248871 0.041077
0.546478 0.249603 0.044647
0.573456 0.250366 0.048492
0.600494 0.25119 0.052338
0.628571 0.252106 0.056305
0.658325 0.253082 0.060425
0.689545 0.254059 0.064423
0.721832 0.255096 0.068451
0.754669 0.256195 0.072418
0.78772 0.257294 0.076233
0.820435 0.258362 0.080048
0.852448 0.259491 0.08374
0.883423 0.26059 0.087219
0.912933 0.261658 0.090576
0.940674 0.262634 0.093628
0.96637 0.263641 0.096497
0.989807 0.264557 0.099152
0.016083 0.280609 0.020599
0.040863 0.28064 0.020874
0.062805 0.280701 0.02121
0.087921 0.280762 0.021698
0.115692 0.280884 0.022369
0.146454 0.281036 0.023224
0.180481 0.28125 0.024292
0.217834 0.281433 0.025574
0.257812 0.281708 0.0271
0.299194 0.282013 0.028839
0.340942 0.282349 0.030853
0.381927 0.282745 0.033203
0.421112 0.283203 0.035858
0.457153 0.283691 0.038788
0.489532 0.284241 0.041901
0.519012 0.284851 0.045166
0.546753 0.285461 0.048645
0.573669 0.286194 0.052185
0.600708 0.286957 0.055908
0.628784 0.287781 0.059814
0.658539 0.288635 0.063629
0.689789 0.289612 0.067535
0.722046 0.290558 0.071411
0.754913 0.291534 0.075226
0.787903 0.292511 0.078979
0.820618 0.293549 0.082703
0.852661 0.294556 0.086243
0.883575 0.295593 0.089691
0.913116 0.29657 0.092926
0.940887 0.297546 0.095947
0.966553 0.298431 0.098785
0.98996 0.299286 0.101318
0.019989 0.318939 0.025574
0.044128 0.31897 0.025879
0.065338 0.319031 0.026215
0.089905 0.319092 0.026703
0.117432 0.319214 0.027374
0.147919 0.319336 0.028229
0.181824 0.319489 0.029266
0.219055 0.319702 0.030548
0.258881 0.319946 0.032104
0.300201 0.320221 0.033905
0.341797 0.320557 0.03598
0.38266 0.320923 0.03833
0.421722 0.32132 0.040924
0.457642 0.321808 0.04361
0.489899 0.322296 0.04657
0.519348 0.322815 0.049683
0.547058 0.323456 0.052856
0.573944 0.324097 0.056274
0.600952 0.324799 0.059906
0.629028 0.325592 0.063507
0.658783 0.326416 0.0672
0.690002 0.327271 0.070953
0.72229 0.328156 0.074677
0.755157 0.329071 0.078339
0.788147 0.330017 0.082031
0.820862 0.330963 0.085602
0.852844 0.33194 0.089081
0.88382 0.332855 0.092407
0.91333 0.333801 0.095581
0.941101 0.334717 0.098541
0.966766 0.335541 0.101257
0.990143 0.336334 0.10379
0.024445 0.359497 0.03125
0.04776 0.359528 0.031525
0.068115 0.359558 0.03186
0.092194 0.35965 0.032379
0.119293 0.359772 0.033051
0.149628 0.359863 0.033936
0.18338 0.360077 0.035034
0.220428 0.36026 0.036377
0.260132 0.360474 0.037933
0.3013 0.360718 0.039703
0.342743 0.361023 0.041656
0.383514 0.361359 0.043823
0.422394 0.361725 0.046234
0.458191 0.362183 0.048798
0.490387 0.36264 0.051483
0.519745 0.363159 0.054382
0.547394 0.363739 0.057465
0.574249 0.364349 0.06076
0.601257 0.365051 0.064087
0.629333 0.365784 0.067566
0.659088 0.366547 0.071106
0.690308 0.36734 0.074646
0.722565 0.368195 0.078217
0.755432 0.36908 0.081818
0.788422 0.369934 0.085358
0.821136 0.37085 0.088837
0.853119 0.371735 0.092194
0.884064 0.37262 0.095428
0.913574 0.373535 0.09848
0.941345 0.37439 0.101379
0.96698 0.375183 0.104034
0.990387 0.375916 0.106537
0.029602 0.402618 0.037781
0.051514 0.402649 0.038086
0.071167 0.402679 0.038422
0.094635 0.402771 0.03891
0.121429 0.402863 0.039581
0.151459 0.402985 0.040436
0.185089 0.403137 0.041473
0.221985 0.40329 0.042664
0.261475 0.403503 0.044098
0.302521 0.403748 0.045746
0.343842 0.404053 0.047577
0.38443 0.404388 0.049622
0.423187 0.404755 0.051758
0.458832 0.405151 0.054138
0.490875 0.40564 0.056702
0.520172 0.406097 0.059479
0.54776 0.406647 0.062378
0.574615 0.407257 0.065399
0.601593 0.407898 0.068634
0.629639 0.408569 0.071899
0.659393 0.409271 0.075226
0.690613 0.410095 0.078644
0.7229 0.410889 0.082123
0.755737 0.411713 0.085571
0.788757 0.412567 0.088989
0.821442 0.413391 0.092316
0.853455 0.414276 0.095581
0.884338 0.415131 0.098694
0.913879 0.415955 0.101685
0.941589 0.416748 0.104462
0.967255 0.417542 0.107117
0.990631 0.418274 0.109497
0.035034 0.448273 0.044617
0.055603 0.448303 0.044891
0.074402 0.448334 0.045197
0.097351 0.448395 0.045654
0.123749 0.448456 0.046295
0.153534 0.448578 0.047089
0.186951 0.4487 0.048035
0.223694 0.448914 0.049164
0.263031 0.449097 0.050446
0.303894 0.449341 0.051941
0.345032 0.449646 0.053619
0.385468 0.449921 0.055481
0.424042 0.450287 0.057526
0.459534 0.450653 0.059845
0.491486 0.45108 0.062195
0.52066 0.451538 0.064728
0.548218 0.452057 0.067474
0.574982 0.452606 0.070374
0.601959 0.453186 0.073395
0.630005 0.453857 0.076447
0.65976 0.454529 0.079651
0.69101 0.455261 0.082947
0.723267 0.455994 0.086243
0.756104 0.456787 0.089569
0.789062 0.45755 0.092834
0.821747 0.458344 0.096039
0.85376 0.459167 0.099213
0.884674 0.459961 0.102234
0.914185 0.460724 0.105103
0.941895 0.461456 0.107849
0.967529 0.462189 0.110413
0.990906 0.46283 0.112732
0.040588 0.493622 0.051575
0.059784 0.493652 0.051788
0.077881 0.493683 0.052094
0.10025 0.493774 0.05249
0.126312 0.493835 0.05304
0.155792 0.493927 0.053772
0.189026 0.494049 0.054657
0.225586 0.494202 0.055664
0.26474 0.494354 0.056885
0.305389 0.494598 0.058289
0.346344 0.494812 0.059906
0.386597 0.495056 0.061615
0.424957 0.495361 0.063507
0.460297 0.495697 0.065582
0.492096 0.496033 0.067841
0.52121 0.496429 0.070221
0.548645 0.496887 0.072784
0.575409 0.497345 0.075439
0.602356 0.497833 0.078278
0.630402 0.498352 0.081299
0.660187 0.498962 0.084351
0.691376 0.499512 0.087494
0.723663 0.500183 0.090668
0.75647 0.500793 0.093811
0.789429 0.501465 0.096924
0.822144 0.502167 0.100067
0.854095 0.502777 0.103119
0.88501 0.503479 0.106049
0.91452 0.504089 0.108826
0.94223 0.5047 0.111481
0.967896 0.50531 0.113922
0.991241 0.505859 0.116211
0.046204 0.533752 0.058563
0.06424 0.533783 0.058807
0.081635 0.533813 0.059082
0.103455 0.533844 0.059479
0.129059 0.533905 0.059998
0.158264 0.533966 0.060638
0.191254 0.534058 0.061432
0.227631 0.53421 0.062378
0.266602 0.534332 0.063477
0.307007 0.534485 0.064758
0.347809 0.534637 0.066193
0.387817 0.534851 0.067841
0.426025 0.535065 0.069641
0.461151 0.535309 0.071533
0.492828 0.535614 0.073639
0.52179 0.535889 0.075836
0.549164 0.536224 0.078217
0.575867 0.536621 0.080841
0.602783 0.536987 0.083527
0.630859 0.537415 0.086334
0.660614 0.537842 0.089264
0.691833 0.5383 0.092255
0.72406 0.538788 0.095276
0.756897 0.539276 0.098328
0.789825 0.539795 0.101318
0.82251 0.540314 0.104279
0.854523 0.540833 0.107239
0.885406 0.541321 0.110077
0.914886 0.541809 0.112793
0.942566 0.542297 0.115326
0.968231 0.542755 0.117706
0.991577 0.543152 0.119904
0.05191 0.567963 0.065643
0.068878 0.567993 0.065826
0.085632 0.568024 0.066071
0.106903 0.568054 0.066406
0.13205 0.568115 0.066895
0.161011 0.568146 0.067505
0.193787 0.568207 0.068268
0.229889 0.568329 0.069183
0.268616 0.56839 0.07019
0.308807 0.568542 0.07135
0.349335 0.568665 0.072723
0.38913 0.568848 0.074188
0.427155 0.569031 0.075806
0.462067 0.569214 0.077576
0.49353 0.569427 0.079559
0.5224 0.569641 0.081696
0.549744 0.569916 0.083984
0.576355 0.57019 0.086395
0.603271 0.570526 0.088959
0.631317 0.570862 0.091675
0.661072 0.571198 0.094391
0.692291 0.571564 0.097198
0.724518 0.57193 0.100128
0.757355 0.572327 0.103058
0.790283 0.572754 0.105957
0.822968 0.573151 0.108826
0.854919 0.573547 0.111633
0.885803 0.573944 0.114319
0.915283 0.574371 0.116943
0.942993 0.574738 0.119415
0.968597 0.575104 0.121704
0.991913 0.575439 0.12384
0.057739 0.597992 0.072754
0.07373 0.598022 0.072968
0.089844 0.598022 0.073181
0.110565 0.598053 0.073486
0.135284 0.598083 0.073914
0.16394 0.598145 0.074432
0.196472 0.598175 0.075104
0.232361 0.598236 0.075928
0.270813 0.598358 0.076874
0.31076 0.59845 0.077972
0.351044 0.598541 0.079224
0.390625 0.598694 0.080658
0.428375 0.598846 0.082214
0.463074 0.598999 0.083893
0.494385 0.599182 0.085724
0.523102 0.599396 0.087738
0.550354 0.599579 0.089874
0.576935 0.599823 0.092163
0.60379 0.600098 0.094574
0.631866 0.600372 0.097076
0.661591 0.600647 0.099731
0.69281 0.600983 0.102448
0.725037 0.601288 0.105194
0.757874 0.601593 0.108002
0.790771 0.601959 0.110809
0.823456 0.602295 0.113556
0.855408 0.6026 0.116241
0.886261 0.602966 0.118866
0.915741 0.603302 0.121338
0.94339 0.603607 0.123749
0.969055 0.603912 0.126007
0.992371 0.604218 0.128052
0.063538 0.625641 0.079803
0.078735 0.625641 0.079987
0.094269 0.625671 0.0802
0.11441 0.625702 0.080505
0.138763 0.625732 0.080902
0.167053 0.625763 0.081421
0.199371 0.625824 0.082062
0.235016 0.625885 0.082825
0.273224 0.625977 0.08371
0.312866 0.626038 0.084747
0.352875 0.62619 0.085907
0.392212 0.626282 0.087219
0.429718 0.626404 0.088684
0.464142 0.626556 0.090271
0.495239 0.626709 0.09201
0.523865 0.626862 0.093842
0.550995 0.627075 0.095856
0.577545 0.627289 0.098053
0.60437 0.627502 0.100311
0.632416 0.627747 0.102753
0.66217 0.627991 0.105225
0.69339 0.628296 0.107819
0.725616 0.628571 0.110504
0.758423 0.628845 0.113159
0.791351 0.62915 0.115784
0.824005 0.629486 0.118439
0.855927 0.629761 0.121002
0.88678 0.630066 0.123535
0.916199 0.630341 0.125977
0.943909 0.630676 0.128296
0.969482 0.63092 0.130463
0.992798 0.631165 0.132446
0.069489 0.652802 0.086914
0.083893 0.652802 0.087067
0.098816 0.652832 0.08725
0.1185 0.652863 0.087555
0.142426 0.652863 0.087921
0.17041 0.652924 0.088409
0.202454 0.652954 0.088989
0.237793 0.653015 0.089722
0.275696 0.653107 0.090546
0.315094 0.653198 0.091522
0.354858 0.65329 0.09259
0.39389 0.653381 0.093811
0.431091 0.653534 0.095215
0.465302 0.653656 0.096649
0.496185 0.653839 0.098328
0.524689 0.653992 0.100067
0.551697 0.654144 0.101959
0.578186 0.654358 0.104004
0.605011 0.654572 0.106232
0.633057 0.654816 0.10849
0.662781 0.65506 0.110901
0.694 0.655304 0.113373
0.726196 0.655579 0.115845
0.759003 0.655853 0.118408
0.791931 0.656158 0.120941
0.824524 0.656433 0.123474
0.856445 0.656738 0.125977
0.887299 0.657013 0.128418
0.916748 0.657318 0.130798
0.944397 0.657562 0.132996
0.969971 0.657837 0.135071
0.993256 0.658081 0.136993
0.075378 0.681061 0.093933
0.089172 0.681091 0.094086
0.103546 0.681122 0.094269
0.122742 0.681152 0.094513
0.14624 0.681183 0.094879
0.173889 0.681183 0.095337
0.205688 0.681244 0.095856
0.240753 0.681335 0.096497
0.278381 0.681396 0.09729
0.317474 0.681488 0.098236
0.356903 0.68158 0.099243
0.39566 0.681671 0.100403
0.432587 0.681793 0.101685
0.466492 0.681946 0.103119
0.497192 0.682098 0.104614
0.525513 0.682251 0.106323
0.552429 0.682434 0.108124
0.578857 0.682617 0.110077
0.605652 0.682831 0.112152
0.633698 0.683075 0.114288
0.663452 0.683319 0.116577
0.694641 0.683594 0.118927
0.726837 0.683868 0.121307
0.759613 0.684143 0.123749
0.792542 0.684448 0.126221
0.825104 0.684723 0.128632
0.857025 0.685028 0.131073
0.887878 0.685303 0.133392
0.917297 0.685577 0.135651
0.944885 0.685883 0.137817
0.97049 0.686127 0.139771
0.993805 0.68634 0.141663
0.081268 0.710785 0.10083
0.094421 0.710785 0.100983
0.108398 0.710815 0.101135
0.127106 0.710815 0.101379
0.150208 0.710846 0.101715
0.177551 0.710876 0.102142
0.209045 0.710938 0.102692
0.243835 0.710999 0.103302
0.281158 0.71109 0.104004
0.319946 0.711182 0.104858
0.3591 0.711273 0.105865
0.397491 0.711395 0.106964
0.434143 0.711487 0.108154
0.467773 0.711639 0.109497
0.49826 0.711761 0.110962
0.526428 0.711945 0.112549
0.553253 0.712128 0.114227
0.57959 0.712311 0.116089
0.606354 0.712524 0.118042
0.634369 0.712799 0.120117
0.664124 0.713013 0.122253
0.695312 0.713257 0.124542
0.727509 0.713531 0.126831
0.760284 0.713806 0.129181
0.793152 0.714111 0.131561
0.825745 0.714386 0.133881
0.857666 0.714661 0.136169
0.888458 0.714966 0.138458
0.917847 0.71524 0.140625
0.945496 0.715515 0.1427
0.971039 0.71579 0.144653
0.994324 0.716003 0.146423
0.087158 0.741425 0.107635
0.099762 0.741455 0.107788
0.113281 0.741455 0.107941
0.131561 0.741486 0.108154
0.154327 0.741516 0.108459
0.181396 0.741577 0.108887
0.212585 0.741638 0.109375
0.24704 0.741699 0.109985
0.284058 0.74176 0.110687
0.32251 0.741821 0.111481
0.361328 0.741913 0.112396
0.399414 0.742035 0.113434
0.43576 0.742188 0.114532
0.469086 0.742279 0.115814
0.499329 0.742432 0.117188
0.527344 0.742615 0.118713
0.554047 0.742767 0.1203
0.580322 0.742981 0.12204
0.607086 0.743195 0.123932
0.635101 0.743439 0.125946
0.664856 0.743652 0.128021
0.696014 0.743927 0.130188
0.72821 0.744171 0.132385
0.760986 0.744476 0.134613
0.793823 0.74472 0.136871
0.826416 0.745026 0.139099
0.858276 0.7453 0.141357
0.889069 0.745575 0.143524
0.918488 0.74588 0.14563
0.946106 0.746124 0.147614
0.971588 0.746399 0.149506
0.994873 0.746643 0.151215
0.092957 0.772705 0.114258
0.105103 0.772705 0.11438
0.118256 0.772705 0.114532
0.136078 0.772736 0.114746
0.158478 0.772766 0.115051
0.185272 0.772827 0.115417
0.216156 0.772858 0.115906
0.250336 0.772919 0.116455
0.286957 0.77301 0.117126
0.325104 0.773071 0.117889
0.363586 0.773163 0.118774
0.401367 0.773285 0.11972
0.437347 0.773407 0.120789
0.470428 0.773499 0.121979
0.500427 0.773651 0.123291
0.528259 0.773834 0.124756
0.554901 0.774017 0.126312
0.581085 0.7742 0.127991
0.607819 0.774414 0.129791
0.635834 0.774628 0.131683
0.665588 0.774872 0.133698
0.696747 0.775116 0.135712
0.728943 0.775391 0.137848
0.761688 0.775635 0.139984
0.794525 0.775909 0.142181
0.827087 0.776215 0.144348
0.858948 0.776489 0.146484
0.88974 0.776794 0.14856
0.919098 0.777039 0.150604
0.946686 0.777283 0.152527
0.972198 0.777557 0.154358
0.995453 0.777802 0.156036
0.098633 0.804077 0.120667
0.110413 0.804077 0.120789
0.123169 0.804108 0.120941
0.140656 0.804108 0.121124
0.16272 0.804138 0.121399
0.189178 0.804199 0.121765
0.219818 0.80423 0.122223
0.253662 0.804291 0.122742
0.289978 0.804352 0.123383
0.327759 0.804443 0.124115
0.365936 0.804535 0.124939
0.403381 0.804626 0.125885
0.439056 0.804749 0.126923
0.471771 0.804871 0.128082
0.501556 0.805023 0.129333
0.529266 0.805176 0.130707
0.555756 0.805359 0.132202
0.581909 0.805542 0.133789
0.608582 0.805756 0.135498
0.636597 0.805969 0.137329
0.666351 0.806183 0.139221
0.69751 0.806427 0.141235
0.729675 0.806702 0.14325
0.76239 0.806946 0.145355
0.795227 0.80722 0.14743
0.827789 0.807495 0.149506
0.859619 0.80777 0.15155
0.890381 0.808044 0.153595
0.919708 0.808289 0.155579
0.947296 0.808563 0.15744
0.972778 0.808807 0.15918
0.996033 0.809021 0.160828
0.104218 0.835144 0.126892
0.11557 0.835175 0.127014
0.128021 0.835175 0.127136
0.145233 0.835205 0.12735
0.166962 0.835236 0.127625
0.193176 0.835266 0.12796
0.22348 0.835297 0.128357
0.256989 0.835358 0.128876
0.292999 0.835419 0.129486
0.330444 0.835541 0.130188
0.368286 0.835632 0.130981
0.405396 0.835724 0.131866
0.440704 0.835815 0.132843
0.473145 0.835938 0.133942
0.502716 0.83609 0.135162
0.530212 0.836243 0.136444
0.55661 0.836395 0.137878
0.582703 0.836609 0.139404
0.609314 0.836792 0.141083
0.637329 0.837006 0.142822
0.667114 0.837219 0.144653
0.698242 0.837463 0.146545
0.730438 0.837738 0.148499
0.763123 0.837982 0.150513
