site/assets/luts/freshluts--0000695-crizo-mzeyah.cube
# LUTr-Schema-Version: 2
# LUTr-ID: freshluts--0000695-crizo-mzeyah
# LUTr-Title: Crizo Mzeyah
# LUTr-Collection: Fresh LUTs
# LUTr-Collection-ID: freshluts-community
# LUTr-Source: https://freshluts.com
# LUTr-Retrieved: 2026-07-27
# LUTr-Source-File: submissions-raw/freshluts/cubes/695__Crizo_Mzeyah__1.A020_12040508_C074.cube
# LUTr-Source-Format: CUBE
# LUTr-Source-SHA256: 3eedf0c25f4a2f5dea5a81a896587732e2b64fce6865ffe85796d420fa9339d9
# LUTr-License: CC0-1.0
# LUTr-License-URL: https://freshluts.com/termsandconditions
# LUTr-License-Basis: site-terms
# LUTr-Transform-Class: creative-look
# LUTr-Tags: creative, freshluts, community, cube, warm, bmd-film-4k
# LUTr-Input-Color-Space:
# LUTr-Input-Gamut: bmd-film-gamut
# LUTr-Input-Transfer: bmd-film-4k
# LUTr-Output-Color-Space: srgb
# LUTr-Output-Gamut: rec709
# LUTr-Output-Transfer: srgb
# LUTr-Color-Space-Confidence: camera-profile-input-required
# LUTr-Domain-Normalized: true
# LUTr-Shaper: none
# LUTr-Original-Grid: 33x33x33
# LUTr-Conversion-Grid: 33x33x33
# LUTr-Conversion-Interpolation: none
# LUTr-Conversion-Method: Metadata normalization; numeric LUT samples preserved
# LUTr-Conversion-Tool: LUTr scripts/convert-all-to-cube.mjs 2.0.0
# LUTr-Conversion-Date: 2026-07-28
# LUTr-Asset-URL: https://freshluts.com/luts/695
# LUTr-Author: Crizo
# LUTr-Author-URL: https://freshluts.com/users/10814
# LUTr-Attribution: Crizo via Fresh LUTs
# LUTr-Source-Labels: gamma=Blackmagic BMD Film 4K; color=Warm; key=Neutral; style=Adventure
# LUTr-Note: Preserve this metadata and the upstream license notices when redistributing.
TITLE "Crizo Mzeyah"
LUT_3D_SIZE 9
DOMAIN_MIN 0 0 0
DOMAIN_MAX 1 1 1
0 0 0
0.121447 0 0
0.372213 0 0
0.619165 0 0
0.844297 0 0
1 0 0
1 0 0
1 0 0
1 0 0
0 0.0756237 0
0.038117 0.0616617 0
0.286488 0.029633 0
0.533578 0.00631724 0
0.758846 0 0
0.982727 0 0
1 0 0
1 0 0
1 0 0
0 0.280705 0
0 0.258381 0
0.206607 0.251698 0
0.448585 0.211398 0
0.673991 0.190127 0
0.897856 0.168994 0
1 0.147738 0
1 0.126345 0
1 0.104936 0
0 0.475624 0
0 0.4533 0
0.120378 0.429633 0
0.378988 0.431785 0
0.613794 0.386511 0
0.817121 0.363867 0
1 0.342596 0
1 0.321202 0
1 0.299779 0
0 0.650568 0
0 0.628229 0
0.0474708 0.604578 0
0.294957 0.581216 0
0.538674 0.592782 0
0.790387 0.545419 0
0.969879 0.517494 0
1 0.496086 0
1 0.474678 0
0 0.824338 0
0 0.801999 0
0 0.778347 0
0.222644 0.754971 0
0.448386 0.733776 0
0.696986 0.752575 0
0.9635 0.704524 0
1 0.669825 0
1 0.648417 0
0 0.997818 0
0 0.975479 0
0 0.951843 0
0.150454 0.92845 0
0.376425 0.907118 0
0.597711 0.889967 0
0.857603 0.911803 0
1 0.86363 0
1 0.822599 0
0 1 0
0 1 0
0 1 0
0.0783551 1 0
0.304463 1 0
0.528267 1 0
0.747387 1 0
1 1 0
1 1 0
0 1 0
0 1 0
0 1 0
0.00660716 1 0
0.232868 1 0
0.456641 1 0
0.681987 1 0
0.899657 1 0
1 1 0
0 0 0.180453
0.109438 0 0.158206
0.360189 0 0.134615
0.607172 0 0.111376
0.832319 0 0.0901961
1 0 0.0691539
1 0 0.0479438
1 0 0.026627
1 0 0.00529488
0 0.0638132 0.0976577
0.0238041 0.041474 0.0754101
0.274464 0.0178225 0.0518196
0.521584 0 0.0285649
0.746868 0 0.00738537
0.970748 0 0
1 0 0
1 0 0
1 0 0
0 0.268894 0.0154726
0 0.246571 0
0.188251 0.226383 0
0.436591 0.199588 0
0.662028 0.178302 0
0.885878 0.157183 0
1 0.135912 0
1 0.114534 0
1 0.0931106 0
0 0.463828 0
0 0.441489 0
0.108354 0.417838 0
0.358144 0.4094 0
0.581476 0.37319 0
0.805142 0.352071 0
1 0.330785 0
1 0.309392 0
1 0.287984 0
0 0.638773 0
0 0.616434 0
0.035462 0.592782 0
0.282948 0.569421 0
0.517586 0.571313 0
0.747036 0.527779 0
0.957885 0.505699 0
1 0.484291 0
1 0.462867 0
0 0.812528 0
0 0.790204 0
0 0.766552 0
0.210651 0.743175 0
0.4365 0.721843 0
0.675853 0.731411 0
0.923934 0.684199 0
1 0.658045 0
1 0.636622 0
0 0.986023 0
0 0.963684 0
0 0.940047 0
0.138445 0.916655 0
0.364446 0.895323 0
0.588251 0.874189 0
0.836484 0.890776 0
1 0.842344 0
1 0.810056 0
0 1 0
0 1 0
0 1 0
0.0663462 1 0
0.292485 1 0
0.516289 1 0
0.740017 1 0
0.998993 1 0
1 1 0
0 1 0
0 1 0
0 1 0
0 1 0
0.220874 1 0
0.444663 1 0
0.670008 1 0
0.891203 1 0
1 1 0
0 0 0.476493
0.0977951 0 0.454231
0.348531 0 0.43064
0.595529 0 0.407385
0.820706 0 0.386206
1 0 0.365148
1 0 0.343938
1 0 0.322621
1 0 0.301274
0 0.0523537 0.393683
0.0121462 0.0300298 0.371405
0.262806 0.00636301 0.347814
0.509926 0 0.324559
0.735241 0 0.303365
0.959121 0 0.282307
1 0 0.261112
1 0 0.23978
1 0 0.218433
0 0.25745 0.311452
0 0.235111 0.289189
0.177691 0.21146 0.265614
0.424949 0.188128 0.242344
0.650401 0.166857 0.221134
0.874266 0.145739 0.200076
1 0.124453 0.178882
1 0.103075 0.157549
1 0.0816663 0.136202
0 0.452369 0.233341
0 0.430045 0.211093
0.0966964 0.406394 0.187518
0.343679 0.383703 0.158892
0.569665 0.361746 0.143023
0.79353 0.340612 0.121965
1 0.319341 0.100771
1 0.297948 0.0794537
1 0.276539 0.0581064
0 0.627329 0.163333
0 0.605005 0.141085
0.0237888 0.581353 0.117525
0.271305 0.557977 0.0942245
0.497704 0.548943 0
0.720867 0.515526 0.051957
0.946258 0.494255 0.0307622
1 0.472847 0.00944533
1 0.451438 0
0 0.801099 0.0937972
0 0.778759 0.0715496
0 0.755123 0.0479896
0.199008 0.731731 0.0247044
0.424872 0.710414 0.00344854
0.655436 0.710353 0
0.883131 0.668315 0
1 0.646601 0
1 0.625177 0
0 0.974578 0.0243839
0 0.952255 0.00213626
0 0.928618 0
0.126818 0.905226 0
0.352819 0.883879 0
0.576638 0.86276 0
0.815991 0.870222 0
1 0.823316 0
1 0.798657 0
0 1 0
0 1 0
0 1 0
0.0547036 1 0
0.280858 1 0
0.504646 1 0
0.730007 1 0
0.978515 1 0
1 0.980621 0
0 1 0
0 1 0
0 1 0
0 1 0
0.209262 1 0
0.433036 1 0
0.658381 1 0
0.883955 1 0
1 1 0
0 0 0.749065
0.0870375 0 0.726787
0.337774 0 0.703166
0.584787 0 0.679881
0.809979 0 0.658686
1 0 0.637598
1 0 0.616373
1 0 0.595041
1 0 0.573663
0 0.0417945 0.666163
0.00140383 0.0194705 0.643885
0.252064 0 0.620264
0.499199 0 0.596994
0.724529 0 0.575769
0.948409 0 0.554696
1 0 0.533455
1 0 0.512123
1 0 0.490745
0 0.246891 0.583871
0 0.224567 0.561593
0.166949 0.200916 0.537987
0.414221 0.177584 0.514687
0.639689 0.156313 0.493462
0.863554 0.13518 0.472389
1 0.113924 0.451148
1 0.0925307 0.429816
1 0.0711223 0.408453
0 0.44184 0.505684
0 0.419516 0.483406
0.0859541 0.395865 0.459815
0.333349 0.372503 0.436515
0.558968 0.351202 0.415274
0.782818 0.330083 0.394202
1 0.308812 0.372976
1 0.287419 0.351629
1 0.265995 0.330266
0 0.6168 0.435599
0 0.594476 0.413321
0.0130312 0.570825 0.389731
0.260578 0.547448 0.366415
0.48632 0.526146 0.345159
0.710155 0.505013 0.324102
0.935546 0.483726 0.302876
1 0.462333 0.281544
1 0.440909 0.260182
0 0.79057 0.365988
0 0.768231 0.343725
0 0.744595 0.320134
0.188281 0.721218 0.296818
0.414176 0.699886 0.275547
0.637598 0.689021 0.153872
0.863371 0.657481 0.233265
1 0.636088 0.211933
1 0.614664 0.19057
0 0.964065 0.296498
0 0.941726 0.27422
0 0.91809 0.250645
0.116091 0.894697 0.227314
0.342123 0.873365 0.206027
0.565927 0.852232 0.18497
0.797223 0.850782 0
1 0.809659 0.124178
1 0.788144 0.12105
0 1 0.227085
0 1 0.204822
0 1 0.181247
0.0439765 1 0.1579
0.270161 1 0.136614
0.49395 1 0.115541
0.71931 1 0.0943313
0.959686 1 0
1 0.963745 0
0 1 0.158038
0 1 0.13576
0 1 0.112215
0 1 0.0888533
0.19855 1 0.0675517
0.422339 1 0.046479
0.647684 1 0.0252689
0.874311 1 0.00392157
1 1 0
0 0 0.997894
0.0772106 0 0.975601
0.327932 0 0.951995
0.57496 0 0.92871
0.800183 0 0.9075
1 0 0.886427
1 0 0.865202
1 0 0.843854
1 0 0.822477
0 0.0321508 0.914992
0 0.00982681 0.892714
0.242222 0 0.869093
0.489372 0 0.845808
0.714733 0 0.824582
0.938598 0 0.80351
1 0 0.782284
1 0 0.760937
1 0 0.739574
0 0.237263 0.832685
0 0.214939 0.810407
0.157092 0.191287 0.786801
0.404395 0.167941 0.763516
0.629877 0.14667 0.742275
0.853742 0.125536 0.721202
1 0.10428 0.699977
1 0.082887 0.67863
1 0.0614786 0.657252
0 0.432212 0.754498
0 0.409873 0.732235
0.0760967 0.386236 0.708629
0.323522 0.362875 0.685328
0.549157 0.341573 0.664088
0.773007 0.320455 0.643
0.998398 0.299168 0.621775
1 0.277775 0.600443
1 0.256367 0.57908
0 0.607187 0.684413
0 0.584848 0.662135
0.00318914 0.561196 0.638544
0.250736 0.53782 0.615228
0.476509 0.516503 0.593973
0.700343 0.495384 0.5729
0.925734 0.474098 0.55169
1 0.452705 0.530343
1 0.431281 0.50898
0 0.780941 0.614801
0 0.758618 0.592523
0 0.734981 0.568948
0.178439 0.711589 0.545617
0.404349 0.690257 0.524346
0.628183 0.669123 0.503273
0.853544 0.647852 0.482063
1 0.626459 0.460716
1 0.605035 0.439368
0 0.954437 0.545296
0 0.932097 0.523033
0 0.908476 0.499458
0.106249 0.885069 0.476112
0.332311 0.863737 0.454826
0.556115 0.842603 0.433768
0.781003 0.831083 0.317296
1 0.799939 0.391211
1 0.778515 0.369848
0 1 0.475883
0 1 0.45362
0 1 0.430045
0.0341497 1 0.406699
0.260349 1 0.385412
0.484138 1 0.36434
0.709499 0.994598 0.343114
0.942458 0.99263 0.110582
1 0.951812 0.286961
0 1 0.406836
0 1 0.384558
0 1 0.361013
0 1 0.337636
0.188754 1 0.316335
0.412528 1 0.295277
0.637858 1 0.274052
0.8645 1 0.25272
1 1 0
0 0 1
0.0674296 0 1
0.318135 0 1
0.565194 0 1
0.790433 0 1
1 0 1
1 0 1
1 0 1
1 0 1
0 0.0225681 1
0 0.000244144 1
0.23241 0 1
0.479606 0 1
0.704967 0 1
0.928847 0 1
1 0 1
1 0 1
1 0 0.987091
0 0.227665 1
0 0.205341 1
0.147295 0.181689 1
0.394614 0.158358 1
0.620127 0.137072 0.989792
0.843976 0.115953 0.968719
1 0.0946822 0.947494
1 0.0732891 0.926146
1 0.0518807 0.904784
0 0.422629 1
0 0.40029 0.979751
0.0663005 0.376654 0.956146
0.313741 0.353292 0.932845
0.539391 0.331991 0.911604
0.763241 0.310857 0.890532
0.988632 0.289586 0.869307
1 0.268193 0.847959
1 0.246784 0.826596
0 0.597604 0.93193
0 0.575265 0.909651
0 0.551629 0.886061
0.240955 0.528252 0.862745
0.466758 0.506935 0.841489
0.690593 0.485801 0.820417
0.915969 0.46453 0.799207
1 0.443122 0.777859
1 0.421698 0.756497
0 0.771374 0.862318
0 0.749035 0.84004
0 0.725399 0.816464
0.168658 0.702007 0.793133
0.394598 0.680674 0.771862
0.618418 0.659556 0.75079
0.843793 0.63827 0.729564
1 0.616876 0.708232
1 0.595453 0.68687
0 0.944869 0.792813
0 0.92253 0.770535
0 0.898894 0.74696
0.0964675 0.875502 0.723629
0.322545 0.854154 0.702342
0.546349 0.833021 0.68127
0.77171 0.811749 0.66006
0.998367 0.790356 0.638727
1 0.768933 0.617365
0 1 0.7234
0 1 0.701122
0 1 0.677562
0.0243687 1 0.654215
0.250584 1 0.632914
0.474372 1 0.611841
0.699733 0.985016 0.590631
0.926131 0.973312 0.473915
1 0.942199 0.547936
0 1 0.654337
0 1 0.632074
0 1 0.608515
0 1 0.585153
0.178988 1 0.563836
0.402762 1 0.542779
0.628092 1 0.521553
0.854734 1 0.500221
1 1 0.268299
0 0 1
0.0576791 0 1
0.308385 0 1
0.555459 0 1
0.780713 0 1
1 0 1
1 0 1
1 0 1
1 0 1
0 0.0130159 1
0 0 1
0.22266 0 1
0.469856 0 1
0.695247 0 1
0.919127 0 1
1 0 1
1 0 1
1 0 1
0 0.218112 1
0 0.195789 1
0.137545 0.172137 1
0.384878 0.148791 1
0.610407 0.12752 1
0.834257 0.106401 1
1 0.0851301 1
1 0.0637369 1
1 0.0423285 1
0 0.413077 1
0 0.390753 1
0.0565347 0.367102 1
0.304006 0.34374 1
0.529671 0.322438 1
0.753521 0.30132 1
0.978912 0.280049 1
1 0.258656 1
1 0.237232 1
0 0.588067 1
0 0.565728 1
0 0.542092 1
0.23122 0.518715 1
0.457038 0.497383 1
0.680858 0.476265 1
0.906249 0.454978 1
1 0.433585 1
1 0.412161 1
0 0.761837 1
0 0.739498 1
0 0.715862 1
0.158907 0.69247 1
0.384863 0.671138 1
0.608682 0.650019 0.997299
0.834058 0.628733 0.976074
1 0.60734 0.954742
1 0.585916 0.933379
0 0.935332 1
0 0.912993 1
0 0.889372 0.993469
0.0867323 0.865965 0.970138
0.312825 0.844617 0.948852
0.536629 0.823499 0.927779
0.76199 0.802213 0.906554
0.988632 0.780819 0.885222
1 0.759396 0.863859
0 1 0.969909
0 1 0.947631
0 1 0.924071
0.0146181 1 0.90071
0.240864 1 0.879408
0.464652 0.99675 0.858351
0.689998 0.975479 0.837125
0.91664 0.954086 0.815793
1 0.932662 0.79443
0 1 0.900847
0 1 0.878569
0 1 0.855024
0 1 0.831647
0.169268 1 0.810346
0.393042 1 0.789273
0.618372 1 0.768048
0.844999 1 0.746731
1 1 0.626062
0 0 1
0.0480049 0 1
0.29868 0 1
0.545769 0 1
0.771054 0 1
0.994934 0 1
1 0 1
1 0 1
1 0 1
0 0.00352483 1
0 0 1
0.21297 0 1
0.460197 0 1
0.685603 0 1
0.909468 0 1
1 0 1
1 0 1
1 0 1
0 0.208621 1
0 0.186297 1
0.127855 0.162661 1
0.375204 0.139315 1
0.600748 0.118029 1
0.824598 0.09691 1
1 0.075639 1
1 0.0542458 1
1 0.0328374 1
0 0.403601 1
0 0.381277 1
0.0468452 0.357626 1
0.294316 0.334264 1
0.520027 0.312963 1
0.743862 0.291844 1
0.969253 0.270558 1
1 0.249165 1
1 0.227756 1
0 0.578592 1
0 0.556252 1
0 0.532616 1
0.22153 0.509239 1
0.447364 0.487907 1
0.671199 0.466789 1
0.896574 0.445502 1
1 0.424109 1
1 0.402686 1
0 0.752361 1
0 0.730022 1
0 0.706386 1
0.149233 0.682994 1
0.375219 0.661662 1
0.599023 0.640543 1
0.824399 0.619257 1
1 0.597864 1
1 0.57644 1
0 0.925856 1
0 0.903517 1
0 0.879896 1
0.0770428 0.856489 1
0.303166 0.835142 1
0.52697 0.814008 1
0.752316 0.792737 1
0.978973 0.771344 1
1 0.74992 1
0 1 1
0 1 1
0 1 1
0.00494392 1 1
0.231205 1 1
0.454994 0.987274 1
0.680339 0.966003 1
0.906966 0.94461 1
1 0.923186 1
0 1 1
0 1 1
0 1 1
0 1 1
0.159594 1 1
0.383368 1 1
0.608713 1 1
0.83534 1 0.991577
1 1 0.970214
0 0 1
0.0383154 0 1
0.289006 0 1
0.53611 0 1
0.761395 0 1
0.985275 0 1
1 0 1
1 0 1
1 0 1
0 0 1
0 0 1
0.203281 0 1
0.450523 0 1
0.675959 0 1
0.899809 0 1
1 0 1
1 0 1
1 0 1
0 0.199145 1
0 0.176806 1
0.118166 0.15317 1
0.36553 0.129824 1
0.591104 0.108537 1
0.814954 0.0874189 1
1 0.0661479 1
1 0.04477 1
1 0.0233616 1
0 0.394125 1
0 0.371801 1
0.0371557 0.34815 1
0.284657 0.324788 1
0.510369 0.303487 1
0.734203 0.282353 1
0.959594 0.261082 1
1 0.239689 1
1 0.21828 1
0 0.569116 1
0 0.546792 1
0 0.52314 1
0.211856 0.499763 1
0.43772 0.478447 1
0.66154 0.457313 1
0.886915 0.436042 1
1 0.414633 1
1 0.393225 1
0 0.742885 1
0 0.720562 1
0 0.696925 1
0.139559 0.673533 1
0.36556 0.652186 1
0.58938 0.631067 1
0.81474 0.609796 1
1 0.588388 1
1 0.566964 1
0 0.916381 1
0 0.894057 1
0 0.87042 1
0.0673686 0.847013 1
0.293507 0.825666 1
0.517311 0.804547 1
0.742657 0.783276 1
0.969314 0.761868 1
1 0.740459 1
0 1 1
0 1 1
0 1 1
0 1 1
0.221546 0.998932 1
0.445335 0.977798 1
0.67068 0.956527 1
0.897307 0.935134 1
1 0.91371 1
0 1 1
0 1 1
0 1 1
0 1 1
0.14995 1 1
0.373724 1 1
0.599054 1 1
0.825681 1 1
1 1 1
