site/assets/luts/freshluts--0000628-clean-white-fresh-look.cube
# LUTr-Schema-Version: 2
# LUTr-ID: freshluts--0000628-clean-white-fresh-look
# LUTr-Title: CLEAN WHITE. FRESH LOOK
# LUTr-Collection: Fresh LUTs
# LUTr-Collection-ID: freshluts-community
# LUTr-Source: https://freshluts.com
# LUTr-Retrieved: 2026-07-27
# LUTr-Source-File: submissions-raw/freshluts/cubes/628__COOL.FRESH_4.AIA2AIA2_00000455-focus.cube
# LUTr-Source-Format: CUBE
# LUTr-Source-SHA256: 62338a6e44280bc3015f97bdaa83e9b82de60e2384fb24f7ed04c4fd90bba3cf
# LUTr-License: CC0-1.0
# LUTr-License-URL: https://freshluts.com/termsandconditions
# LUTr-License-Basis: site-terms
# LUTr-Transform-Class: creative-look
# LUTr-Tags: creative, freshluts, community, cube, cool, high-key, canon-cinestyle
# LUTr-Input-Color-Space:
# LUTr-Input-Gamut: rec709
# LUTr-Input-Transfer: canon-cinestyle
# LUTr-Output-Color-Space: srgb
# LUTr-Output-Gamut: rec709
# LUTr-Output-Transfer: srgb
# LUTr-Color-Space-Confidence: camera-profile-input-required
# LUTr-Domain-Normalized: true
# LUTr-Shaper: none
# LUTr-Original-Grid: 33x33x33
# LUTr-Conversion-Grid: 33x33x33
# LUTr-Conversion-Interpolation: none
# LUTr-Conversion-Method: Metadata normalization; numeric LUT samples preserved
# LUTr-Conversion-Tool: LUTr scripts/convert-all-to-cube.mjs 2.0.0
# LUTr-Conversion-Date: 2026-07-28
# LUTr-Asset-URL: https://freshluts.com/luts/628
# LUTr-Author: lvannoeun@gmail.com
# LUTr-Author-URL: https://freshluts.com/users/57563
# LUTr-Attribution: lvannoeun@gmail.com via Fresh LUTs
# LUTr-Source-Labels: gamma=Canon Cinestyle; color=Cool; key=High Key; style=FRESH
# LUTr-Note: Preserve this metadata and the upstream license notices when redistributing.
TITLE "CLEAN WHITE. FRESH LOOK"
LUT_3D_SIZE 33
DOMAIN_MIN 0 0 0
DOMAIN_MAX 1 1 1
0 0.0277714 0.02121
0 0.0260471 0.0184939
0 0.0212863 0.0200656
0.0304875 0.0134127 0.0234379
0.076051 0.00839246 0.028809
0.117739 0.00453193 0.0342565
0.157534 0.00123598 0.0397498
0.196078 0.000030518 0.0452277
0.233616 0 0.0508431
0.270558 0.000015259 0.0564279
0.306905 0 0.062211
0.342794 0 0.0680247
0.378195 0 0.07393
0.413275 0 0.079881
0.44799 0 0.0858625
0.482353 0 0.0919203
0.516503 0 0.0979934
0.550378 0 0.104128
0.583993 0 0.110338
0.617472 0 0.116548
0.65066 0 0.122866
0.683787 0 0.129198
0.716716 0 0.135637
0.749508 0 0.142077
0.782132 0 0.148592
0.814542 0 0.155138
0.846922 0 0.161685
0.879164 0 0.168353
0.911269 0 0.175021
0.943267 0 0.181689
0.975082 0 0.188388
0.995819 0 0.195071
0.995834 0 0.201755
0 0.062501 0.0309453
0 0.0552987 0.0225986
0 0.0538033 0.0184329
0.0209964 0.0486152 0.0132753
0.0645762 0.0449226 0.010605
0.108766 0.0404669 0.0143435
0.149813 0.0370336 0.0175479
0.191257 0.0330205 0.0249638
0.23122 0.0294347 0.032929
0.269871 0.026276 0.0407721
0.3075 0.0234073 0.0485237
0.344244 0.0208133 0.0558785
0.380377 0.0184176 0.063035
0.415976 0.0162356 0.0700694
0.451164 0.0141604 0.0769513
0.485969 0.0122835 0.0838026
0.520439 0.0104219 0.0905623
0.554574 0.00868238 0.0973678
0.588479 0.00698863 0.104158
0.622171 0.00538643 0.110872
0.655634 0.00392157 0.117601
0.688899 0.00244144 0.1243
0.72192 0.00102235 0.131075
0.754833 0.0000762951 0.137804
0.787549 0.0000457771 0.14461
0.820111 0.000015259 0.151415
0.852506 0.000030518 0.15816
0.884794 0.000015259 0.165026
0.916976 0 0.171893
0.948989 0 0.178744
0.980911 0 0.185611
0.995865 0 0.19237
0.99585 0 0.199191
0 0.0941176 0.043061
0 0.0936141 0.0287327
0 0.0821851 0.0224002
0.0224308 0.0791028 0.0161898
0.064332 0.0760967 0.0124056
0.103899 0.07364 0.010193
0.145388 0.070161 0.0124971
0.184344 0.0674144 0.0147555
0.219532 0.0663005 0.012665
0.257313 0.0638743 0.0153201
0.296498 0.0606088 0.0221256
0.335241 0.0573739 0.0300603
0.373358 0.0542458 0.0387274
0.410636 0.0513466 0.0475013
0.447272 0.0487221 0.0561227
0.483284 0.0462501 0.064683
0.518776 0.043946 0.0729534
0.553796 0.0417945 0.0811322
0.588327 0.0398108 0.0891127
0.622553 0.0379492 0.0968338
0.656443 0.0362554 0.104341
0.690089 0.0345922 0.111833
0.723537 0.0329747 0.119356
0.75668 0.0314641 0.126726
0.78967 0.029984 0.134112
0.822492 0.0286717 0.141436
0.855131 0.0273136 0.148669
0.887633 0.0260014 0.155978
0.919905 0.0247654 0.163226
0.952087 0.0235599 0.170413
0.984161 0.0224002 0.177646
0.995789 0.0212558 0.184771
0.995773 0.0201877 0.191867
0 0.125795 0.0551614
0 0.126665 0.0418708
0 0.122148 0.0254368
0.0322271 0.107103 0.019913
0.0691997 0.105531 0.0163424
0.104112 0.104646 0.0123293
0.141863 0.102693 0.0105135
0.180652 0.100191 0.010956
0.220768 0.0969711 0.0151217
0.257084 0.0951095 0.016556
0.291402 0.0940719 0.0157778
0.324559 0.0935378 0.0133822
0.360159 0.0918288 0.0152895
0.397574 0.089189 0.02121
0.435065 0.0864424 0.0285344
0.472297 0.0835889 0.0368963
0.509239 0.0807965 0.0457923
0.545632 0.0781415 0.0548714
0.581552 0.0756237 0.0640879
0.616968 0.0733349 0.073106
0.651896 0.071107 0.0821393
0.686488 0.0690318 0.0909438
0.720714 0.0670481 0.0996872
0.754635 0.0651255 0.108324
0.788235 0.0634012 0.11667
0.8215 0.0618601 0.12488
0.854612 0.0603037 0.132967
0.887449 0.0588235 0.140902
0.920104 0.057435 0.148684
0.95256 0.0560616 0.156588
0.984894 0.0547646 0.164401
0.995651 0.0534981 0.172045
0.995636 0.0522927 0.17969
0 0.157519 0.067277
0 0.158679 0.053666
0 0.158495 0.0392767
0 0.149157 0.0222019
0.0771649 0.134096 0.0194095
0.112627 0.13286 0.0174258
0.143053 0.133364 0.0129854
0.178531 0.132097 0.0108339
0.21503 0.13048 0.0101472
0.25507 0.12726 0.0142061
0.292851 0.124758 0.0177462
0.328023 0.123232 0.0192416
0.36173 0.122194 0.0193179
0.393973 0.121996 0.0173648
0.426078 0.121752 0.0153048
0.460151 0.120562 0.0166934
0.495888 0.118532 0.0214847
0.532265 0.116106 0.0282292
0.56875 0.113527 0.0361181
0.605005 0.11104 0.0445869
0.641016 0.108507 0.0536355
0.676783 0.106004 0.0630503
0.711986 0.103609 0.0724193
0.746944 0.10135 0.0819257
0.781521 0.0991989 0.09131
0.816312 0.0969863 0.102068
0.849638 0.0953841 0.109697
0.883207 0.0935836 0.118837
0.916579 0.0918441 0.127733
0.949676 0.0901961 0.136584
0.982559 0.0886244 0.145342
0.995544 0.0871595 0.153811
0.995514 0.0857404 0.162203
0 0.189334 0.0792401
0 0.19057 0.0651102
0 0.191196 0.0516365
0 0.188769 0.035172
0.0483406 0.174182 0.0183719
0.118791 0.162066 0.0195773
0.153933 0.1608 0.0186923
0.182055 0.162066 0.0142519
0.214466 0.161791 0.011429
0.249516 0.160571 0.0102846
0.287175 0.158282 0.0121309
0.326421 0.155123 0.0171817
0.362783 0.153063 0.0204166
0.397253 0.151858 0.0221561
0.430488 0.150958 0.0227665
0.462715 0.150546 0.0221408
0.493828 0.150591 0.0199588
0.525139 0.150561 0.018143
0.557992 0.149767 0.019028
0.592218 0.148348 0.0226291
0.627634 0.146227 0.0287785
0.66334 0.143938 0.0361791
0.699001 0.141604 0.0443732
0.734539 0.139223 0.0531472
0.769818 0.136889 0.0622416
0.804868 0.134722 0.0716411
0.839704 0.132479 0.0812695
0.874159 0.130358 0.0908217
0.908309 0.128298 0.100511
0.942229 0.126329 0.110124
0.975891 0.124453 0.119722
0.995438 0.122683 0.129107
0.995407 0.120989 0.138384
0 0.221149 0.0910048
0 0.222461 0.0766613
0 0.223407 0.0632792
0 0.223011 0.0484321
0.0139162 0.215732 0.0287175
0.0940719 0.201053 0.0170596
0.158495 0.190555 0.0201877
0.1935 0.189319 0.0199741
0.22092 0.190692 0.0160525
0.250523 0.191287 0.0124666
0.283909 0.190616 0.0107881
0.31928 0.189136 0.0110781
0.357641 0.186435 0.0149844
0.39559 0.183841 0.0199588
0.431083 0.182055 0.023209
0.465049 0.18085 0.0251469
0.497963 0.180026 0.026276
0.530068 0.179553 0.0263981
0.561257 0.179461 0.025391
0.591684 0.17969 0.0232853
0.622324 0.179843 0.0216831
0.654108 0.1794 0.0221561
0.687297 0.178332 0.0250095
0.721523 0.176715 0.0301213
0.756466 0.174716 0.0369573
0.791501 0.172732 0.0447089
0.826474 0.17055 0.0530404
0.861402 0.168353 0.0619364
0.896193 0.166171 0.0712596
0.9308 0.163928 0.0807965
0.965164 0.161837 0.0906386
0.992935 0.159838 0.100237
0.995315 0.157977 0.10988
0 0.252979 0.102617
0 0.254414 0.0882124
0 0.255436 0.0743267
0 0.255818 0.0605478
0 0.253803 0.0443122
0.0577859 0.242664 0.0235142
0.13669 0.228763 0.0168307
0.196963 0.219471 0.0208286
0.23183 0.218097 0.021149
0.259358 0.219348 0.0180209
0.286732 0.220737 0.0138857
0.318074 0.220737 0.0115969
0.351843 0.219852 0.0109712
0.388052 0.218082 0.0129702
0.426246 0.21532 0.0178836
0.463203 0.21294 0.0226444
0.49807 0.211322 0.0259709
0.531655 0.210193 0.0281224
0.56434 0.2094 0.0296635
0.596277 0.208911 0.030396
0.627558 0.208713 0.0303044
0.65803 0.208835 0.029221
0.687953 0.209216 0.0272984
0.717968 0.209522 0.0257877
0.748989 0.209354 0.0258793
0.781201 0.208759 0.0281682
0.814359 0.207568 0.0323033
0.848341 0.205859 0.0383307
0.882856 0.203937 0.0457618
0.917372 0.201938 0.0537423
0.951919 0.199878 0.0623789
0.986068 0.197971 0.0712444
0.995224 0.195926 0.0805066
0 0.28484 0.114092
0 0.286351 0.0998093
0 0.28748 0.0854353
0 0.288197 0.0721599
0 0.287495 0.0568551
0.0270542 0.281834 0.0375982
0.0992752 0.270985 0.0203861
0.177356 0.256992 0.0171054
0.234592 0.248508 0.021622
0.26923 0.247211 0.0223697
0.2972 0.248249 0.0200198
0.323079 0.250095 0.0157168
0.352422 0.250782 0.0127871
0.384558 0.250553 0.0113985
0.419013 0.249363 0.0120394
0.45568 0.247181 0.0153658
0.493324 0.244541 0.0206302
0.529534 0.24239 0.02533
0.563958 0.240879 0.0287327
0.597238 0.239841 0.0311742
0.629679 0.239078 0.0329442
0.661509 0.23859 0.034165
0.692744 0.238346 0.0346685
0.723415 0.238315 0.0345617
0.753414 0.238575 0.0335088
0.782864 0.239185 0.0318761
0.812421 0.239567 0.0304265
0.842756 0.239658 0.0302586
0.874113 0.239246 0.0319524
0.906325 0.238376 0.0353246
0.939452 0.237079 0.0405432
0.973175 0.235599 0.0471199
0.995087 0.233768 0.0548409
0 0.316747 0.125444
0 0.318318 0.111284
0 0.31957 0.0965744
0 0.320394 0.0830854
0 0.320424 0.0688945
0.00927749 0.317708 0.0518502
0.0691386 0.310216 0.0317998
0.138903 0.299763 0.0183108
0.216663 0.285603 0.0175937
0.271366 0.277821 0.0225376
0.305852 0.276555 0.0236057
0.334386 0.277363 0.0218814
0.359503 0.279408 0.0178073
0.387015 0.280812 0.0142824
0.417594 0.28101 0.0123293
0.450355 0.280415 0.0118868
0.485359 0.278904 0.0137331
0.522194 0.276616 0.0179904
0.559136 0.274159 0.0232853
0.594797 0.272175 0.027985
0.62887 0.270771 0.0314794
0.661891 0.269764 0.0341497
0.694148 0.269062 0.0361639
0.725902 0.268544 0.0377813
0.757046 0.268269 0.0387884
0.787778 0.268238 0.0392767
0.817975 0.268345 0.0392004
0.847517 0.268711 0.0382696
0.876661 0.269291 0.03682
0.905837 0.269825 0.0354467
0.935546 0.270115 0.035111
0.966094 0.2701 0.0363165
0.993225 0.269413 0.0393072
0 0.348653 0.136645
0 0.350286 0.122713
0 0.351644 0.107774
0 0.352575 0.0939193
0 0.353017 0.0803845
0 0.35172 0.0645151
0.0465858 0.346929 0.0458228
0.109483 0.33904 0.0273594
0.177829 0.32871 0.016907
0.254917 0.314504 0.0183871
0.3075 0.307347 0.0235142
0.341848 0.306081 0.0247959
0.37084 0.306752 0.0236973
0.395911 0.308843 0.0199741
0.42182 0.310658 0.016083
0.450828 0.31136 0.013611
0.482063 0.311299 0.0123903
0.515496 0.310369 0.0130617
0.550805 0.30869 0.0157626
0.587472 0.306401 0.0205081
0.623911 0.304097 0.0258488
0.659113 0.302235 0.0305943
0.692943 0.300908 0.0342718
0.725765 0.299931 0.0370947
0.757839 0.299321 0.0393835
0.789471 0.298802 0.0412451
0.820584 0.298497 0.042649
0.85127 0.298375 0.0435798
0.881529 0.29839 0.0441749
0.911345 0.298619 0.0441291
0.940642 0.299062 0.0434119
0.969528 0.299748 0.0421912
0.997894 0.300374 0.04094
0 0.380606 0.147768
0 0.382284 0.134066
0 0.383749 0.118929
0 0.384756 0.104753
0 0.385382 0.091371
0 0.384924 0.076585
0.0319829 0.381353 0.0586557
0.0832532 0.376928 0.0407874
0.148455 0.368154 0.0239414
0.216724 0.357549 0.016022
0.292424 0.343618 0.0192111
0.34316 0.337072 0.0244755
0.37731 0.335836 0.0260471
0.406653 0.336355 0.025452
0.431907 0.338262 0.0222171
0.456733 0.340429 0.018143
0.484306 0.341634 0.0150912
0.514214 0.342 0.0133974
0.546105 0.34165 0.0130312
0.579965 0.340505 0.0145724
0.615396 0.33872 0.0179599
0.651789 0.336492 0.0229953
0.687755 0.33431 0.0284123
0.722591 0.332555 0.0331121
0.756222 0.331334 0.0369573
0.788876 0.330404 0.0399786
0.820829 0.329717 0.0425116
0.852338 0.329229 0.0446021
0.883406 0.328908 0.0464027
0.914031 0.328756 0.0476539
0.94432 0.32871 0.0486458
0.974304 0.328939 0.0493324
1 0.329244 0.0493782
0 0.412573 0.158846
0 0.414298 0.145342
0 0.415824 0.130175
0 0.416953 0.115663
0 0.41767 0.102068
0 0.417731 0.0881056
0.0199893 0.415045 0.0708476
0.0663615 0.412024 0.0538186
0.120165 0.40679 0.0360113
0.186053 0.397589 0.0213169
0.255039 0.386603 0.0156252
0.328969 0.373083 0.0201572
0.378286 0.366873 0.0255283
0.41236 0.365713 0.0272984
0.441917 0.366049 0.027039
0.467506 0.367819 0.0243992
0.491676 0.370169 0.0202945
0.517876 0.371847 0.0168765
0.546654 0.37261 0.0146792
0.577142 0.372732 0.013611
0.609628 0.372107 0.0141756
0.643702 0.37084 0.0163272
0.679149 0.368994 0.0202792
0.715129 0.366903 0.025391
0.750774 0.364843 0.0308385
0.785351 0.363165 0.0355993
0.818799 0.361913 0.0396124
0.851347 0.360998 0.0429541
0.883192 0.360327 0.0455787
0.91458 0.359869 0.0479133
0.945602 0.359518 0.0498665
0.976211 0.359457 0.0515297
1 0.359426 0.0528115
0 0.444572 0.169802
0 0.446326 0.156512
0 0.447913 0.141299
0 0.449134 0.126574
0 0.449958 0.112718
0 0.450294 0.0990616
0.00939956 0.448814 0.0832837
0.0544137 0.445716 0.0657054
0.0995041 0.443 0.0493324
0.157534 0.436469 0.031693
0.222614 0.427344 0.0193484
0.292943 0.415686 0.01561
0.36495 0.402625 0.0211185
0.412985 0.396857 0.026627
0.446921 0.395682 0.0284886
0.476738 0.395895 0.0286412
0.502693 0.397498 0.0264591
0.526589 0.399908 0.0226139
0.551583 0.401984 0.0188449
0.579187 0.403082 0.0161898
0.608682 0.403632 0.0146944
0.639735 0.40351 0.014313
0.672572 0.402762 0.0155337
0.706752 0.401404 0.0182193
0.742061 0.399588 0.0225071
0.777768 0.397513 0.0278172
0.813062 0.39556 0.0331884
0.847425 0.393927 0.0381018
0.88072 0.392691 0.0422065
0.913146 0.391791 0.0456855
0.944945 0.391119 0.0485847
0.976257 0.390661 0.0511177
1 0.390448 0.0533303
0 0.47657 0.180667
0 0.47837 0.167651
0 0.480034 0.152392
0 0.481331 0.137499
0 0.482246 0.123369
0 0.482734 0.109697
0.000946059 0.482155 0.0951095
0.0435187 0.479118 0.0775616
0.0856947 0.477302 0.0615702
0.133318 0.473823 0.0448005
0.194583 0.466224 0.027985
0.258701 0.457115 0.0178073
0.33077 0.444785 0.0158236
0.400381 0.432334 0.0221714
0.447318 0.426917 0.0276799
0.481117 0.425742 0.0297704
0.511086 0.425895 0.0301976
0.537499 0.427329 0.0285039
0.561288 0.429648 0.0249485
0.585443 0.431998 0.0209354
0.611856 0.433616 0.0179446
0.64036 0.434485 0.0159762
0.670344 0.43476 0.0150454
0.7019 0.434424 0.0153506
0.734936 0.433509 0.0171206
0.769131 0.43212 0.0202945
0.804288 0.430304 0.0247501
0.839673 0.428321 0.0301061
0.874723 0.426429 0.0355077
0.908843 0.424949 0.0404822
0.942046 0.423728 0.0447242
0.97438 0.422812 0.0484016
1 0.422217 0.051606
0 0.508614 0.191455
0 0.510414 0.178653
0 0.512139 0.16347
0 0.513542 0.148455
0 0.514534 0.134066
0 0.515129 0.120302
0 0.514992 0.106233
0.0328832 0.512444 0.0893416
0.0748913 0.510704 0.0730297
0.116732 0.508888 0.0574502
0.168002 0.504326 0.0402533
0.231189 0.49601 0.0249485
0.294377 0.486976 0.0166018
0.367849 0.474052 0.0163119
0.435401 0.462257 0.02327
0.4813 0.457053 0.028809
0.514977 0.455833 0.0310369
0.545022 0.45594 0.0316472
0.571847 0.457206 0.0304417
0.59585 0.45951 0.0271916
0.619394 0.46215 0.0232548
0.644694 0.464073 0.0198062
0.672206 0.465232 0.0175326
0.701274 0.465827 0.0161746
0.731716 0.465904 0.0157473
0.763607 0.4654 0.0166934
0.796704 0.464439 0.0188144
0.830854 0.463096 0.0222934
0.865827 0.461311 0.0269322
0.900954 0.459388 0.0323186
0.935744 0.457588 0.0378271
0.969726 0.456062 0.0428321
1 0.454932 0.0472725
0 0.540658 0.202182
0 0.542473 0.1897
0 0.544274 0.174472
0 0.545724 0.159396
0 0.546838 0.144778
0 0.547524 0.1308
0 0.547646 0.11696
0.0223545 0.545739 0.100999
0.0646372 0.543938 0.0845502
0.104723 0.542626 0.0690776
0.148211 0.540337 0.0531624
0.203449 0.5346 0.0359808
0.267048 0.525963 0.0224613
0.330098 0.516808 0.0157321
0.404364 0.503532 0.0169833
0.469947 0.492149 0.0243534
0.515053 0.487221 0.0299687
0.548608 0.486091 0.0322423
0.578637 0.486168 0.0331273
0.605814 0.487266 0.0322576
0.630091 0.489586 0.0294957
0.653315 0.492195 0.0256046
0.677638 0.494438 0.0218814
0.704143 0.495918 0.0192264
0.732387 0.496803 0.0174716
0.761868 0.49723 0.0166476
0.792691 0.497063 0.0167391
0.824811 0.496574 0.0181582
0.857923 0.495567 0.0206607
0.892027 0.494148 0.0243381
0.926711 0.492424 0.0291295
0.961639 0.490593 0.0345006
0.996201 0.488838 0.0400092
0 0.572702 0.212818
0 0.574548 0.20058
0 0.576425 0.185443
0 0.577935 0.170275
0 0.579126 0.15552
0 0.579919 0.141344
0 0.580209 0.127428
0.0127718 0.578866 0.112245
0.0549172 0.577035 0.095964
0.0943618 0.575921 0.080354
0.134157 0.574655 0.0652628
0.180591 0.571511 0.0487831
0.239048 0.564752 0.032166
0.301976 0.55613 0.0204318
0.366217 0.546487 0.0151675
0.440528 0.532982 0.0177462
0.504067 0.522255 0.0254978
0.54844 0.51754 0.0310826
0.581872 0.516426 0.0335393
0.612024 0.516457 0.0345922
0.639414 0.517449 0.0340734
0.663996 0.519631 0.031693
0.687099 0.522271 0.0279393
0.710735 0.524742 0.0241093
0.736217 0.526513 0.0210117
0.763622 0.527672 0.0189822
0.792355 0.528359 0.0177157
0.822217 0.528725 0.0173037
0.85333 0.528481 0.0180209
0.885512 0.527825 0.0196994
0.918624 0.526787 0.0224918
0.952575 0.525414 0.0263371
0.987091 0.52372 0.0312352
0 0.604791 0.223438
0 0.606638 0.211368
0 0.608545 0.196353
0 0.610162 0.181109
0 0.611414 0.166232
0 0.612299 0.151873
0 0.612726 0.137896
0.00485237 0.612116 0.12343
0.0455482 0.610025 0.107256
0.0845502 0.609064 0.0916304
0.123262 0.608118 0.0764477
0.164034 0.606592 0.0612039
0.21384 0.602426 0.0444343
0.27454 0.594888 0.028748
0.336446 0.586404 0.0187839
0.401984 0.576226 0.0148165
0.47628 0.562615 0.0187076
0.53785 0.552438 0.0266575
0.581537 0.547921 0.0322423
0.614878 0.546853 0.0348211
0.645075 0.546853 0.0359808
0.672709 0.54786 0.0358282
0.697627 0.549767 0.0337835
0.720668 0.552331 0.0303044
0.743816 0.554971 0.0263676
0.768429 0.557107 0.0230259
0.79498 0.558541 0.0206607
0.822965 0.559609 0.019089
0.852064 0.560128 0.018265
0.882246 0.560235 0.018265
0.913542 0.559838 0.019379
0.945769 0.559167 0.0213474
0.97879 0.558175 0.0243687
0 0.63682 0.233997
0 0.638743 0.222141
0 0.640696 0.207202
0 0.642359 0.191928
0 0.643702 0.176959
0 0.644678 0.162478
0 0.645228 0.148333
0 0.645014 0.134096
0.0365148 0.642908 0.118151
0.0750896 0.642069 0.102861
0.113191 0.641352 0.0875715
0.151659 0.640467 0.072694
0.194553 0.6383 0.0570535
0.247898 0.633112 0.0401312
0.309697 0.625086 0.025864
0.37055 0.616754 0.0174411
0.437705 0.605951 0.0147555
0.511406 0.592416 0.0197147
0.571405 0.582727 0.0277714
0.614389 0.578393 0.0334936
0.647639 0.57734 0.0360418
0.677852 0.57731 0.0374151
0.705715 0.578195 0.0374304
0.730907 0.579965 0.0358434
0.754101 0.582513 0.0326848
0.776883 0.58526 0.0287633
0.800778 0.587686 0.0251926
0.82649 0.589441 0.0224308
0.853681 0.590677 0.0205844
0.882139 0.591379 0.0194095
0.911498 0.591791 0.0189822
0.941894 0.591836 0.0194705
0.973358 0.591424 0.0208438
0 0.66891 0.244541
0 0.670848 0.232807
0 0.672847 0.218051
0 0.674571 0.202716
0 0.67599 0.187732
0 0.677058 0.173068
0 0.677699 0.158785
0 0.677745 0.144594
0.0269932 0.675959 0.129046
0.0661784 0.674983 0.113817
0.103609 0.674434 0.0986954
0.141238 0.673793 0.0836805
0.180194 0.67274 0.0689403
0.225925 0.669779 0.0527657
0.282261 0.663645 0.0362097
0.344305 0.655406 0.0234684
0.404517 0.64712 0.0162814
0.473472 0.635645 0.0149081
0.54612 0.622339 0.020737
0.604578 0.613108 0.0289616
0.647089 0.608927 0.0345769
0.680171 0.607889 0.0373236
0.710384 0.607904 0.0388342
0.738415 0.608652 0.0391089
0.763973 0.610361 0.0378424
0.787335 0.612818 0.0349432
0.809888 0.61561 0.0312047
0.833173 0.618204 0.0274052
0.85803 0.620218 0.0243687
0.88452 0.621637 0.0222477
0.912306 0.62269 0.0207828
0.941039 0.623331 0.0200351
0.970672 0.623606 0.0199283
0 0.701015 0.254994
0 0.702907 0.243412
0 0.705013 0.228809
0 0.706798 0.213474
0 0.708263 0.198398
0 0.709422 0.183612
0 0.710185 0.169223
0 0.710384 0.154955
0.0177157 0.708919 0.139727
0.0575418 0.707805 0.124575
0.0943923 0.707408 0.109743
0.131456 0.70695 0.0947433
0.168948 0.70634 0.0800183
0.209293 0.704875 0.0650034
0.258122 0.700999 0.0484016
0.316747 0.694102 0.0326543
0.378302 0.685863 0.0213474
0.43856 0.677485 0.0153964
0.508949 0.665415 0.0152285
0.580453 0.652384 0.0218509
0.637461 0.643565 0.0301366
0.679469 0.639536 0.0357671
0.712551 0.638636 0.0386053
0.742748 0.63856 0.0401923
0.770871 0.639261 0.0407111
0.796719 0.640787 0.039704
0.82034 0.643137 0.0372015
0.842786 0.64593 0.0335699
0.865583 0.648676 0.0297551
0.889693 0.65095 0.0264439
0.915541 0.652689 0.0239719
0.942596 0.653895 0.0222934
0.970748 0.654734 0.0211948
0 0.733166 0.265385
0 0.735042 0.253971
0 0.737179 0.239475
0 0.739025 0.224186
0 0.740566 0.209064
0 0.741787 0.194202
0 0.74258 0.179675
0 0.742931 0.165301
0.00895705 0.74197 0.150347
0.0492561 0.740429 0.135073
0.0855879 0.740261 0.120592
0.121981 0.740017 0.105745
0.158862 0.73959 0.0908522
0.196551 0.738888 0.0763867
0.2392 0.736797 0.0607767
0.291112 0.732006 0.0441901
0.35111 0.724544 0.0294347
0.411627 0.716472 0.0196384
0.472724 0.707729 0.014725
0.544335 0.695201 0.0157473
0.614404 0.682521 0.0230259
0.6701 0.674098 0.031281
0.711666 0.670207 0.0369879
0.744656 0.669322 0.0398108
0.774899 0.669245 0.0415808
0.803082 0.669871 0.0422217
0.82919 0.671305 0.0415961
0.853071 0.673548 0.0393988
0.875593 0.67631 0.0359655
0.898009 0.67921 0.0321813
0.921492 0.681712 0.0286107
0.946532 0.68365 0.0258488
0.973037 0.685084 0.0238651
0 0.765286 0.275746
0 0.767178 0.2645
0 0.769299 0.250111
0 0.771237 0.234897
0 0.772854 0.219684
0 0.77409 0.204776
0 0.775036 0.190112
0 0.775525 0.175753
0.002121 0.775097 0.161059
0.0408331 0.77322 0.145449
0.0772259 0.773037 0.131167
0.112978 0.772931 0.116625
0.149218 0.772717 0.101732
0.185901 0.77232 0.0872358
0.224537 0.771328 0.0725567
0.269825 0.76849 0.0565499
0.324453 0.762844 0.0402075
0.385351 0.755016 0.0266423
0.444755 0.747127 0.0181735
0.507012 0.737942 0.0141909
0.579263 0.725093 0.0164187
0.648142 0.712734 0.0241855
0.702495 0.704692 0.0324712
0.743633 0.70106 0.0381018
0.776593 0.700053 0.0411078
0.806806 0.699977 0.0429694
0.835081 0.700557 0.0437934
0.861433 0.701885 0.0434272
0.885573 0.704021 0.041474
0.908171 0.706737 0.0383459
0.930373 0.709697 0.0345464
0.953338 0.712367 0.0309148
0.977646 0.714549 0.0278782
0 0.797436 0.286046
0 0.799329 0.274998
0 0.80148 0.2607
0 0.803418 0.245609
0 0.805066 0.230274
0 0.806455 0.21532
0 0.807492 0.20058
0 0.808087 0.186084
0 0.80798 0.171511
0.0322271 0.806073 0.155779
0.0690929 0.805631 0.141497
0.104295 0.805783 0.127337
0.139879 0.805753 0.112612
0.176104 0.805508 0.0979477
0.212924 0.805051 0.0836194
0.253132 0.803616 0.0686046
0.301167 0.799969 0.0522927
0.358068 0.793576 0.0364385
0.418891 0.785626 0.0242618
0.477623 0.777859 0.016846
0.5411 0.76817 0.0139162
0.613947 0.755047 0.0171511
0.681437 0.743069 0.0253758
0.734798 0.735348 0.033753
0.775448 0.731853 0.0393683
0.808331 0.730846 0.0423896
0.838544 0.730755 0.0442969
0.866911 0.731319 0.045304
0.893446 0.73254 0.0451362
0.917815 0.734569 0.0435492
0.940612 0.737285 0.0406348
0.962707 0.7402 0.0370031
0.984833 0.743008 0.0332647
0 0.829602 0.29633
0 0.831495 0.285435
0 0.833677 0.271214
0 0.835645 0.256184
0 0.837385 0.240848
0 0.838804 0.225834
0 0.839933 0.211048
0 0.840635 0.196475
0 0.840742 0.181872
0.0227207 0.839185 0.166308
0.0610971 0.8383 0.151659
0.0960098 0.838529 0.137804
0.130922 0.838651 0.123476
0.166537 0.838605 0.108736
0.202686 0.838376 0.0942855
0.240009 0.837751 0.079942
0.282521 0.835706 0.0644694
0.333181 0.831235 0.0480354
0.391684 0.824277 0.0330663
0.452232 0.816281 0.0220951
0.510399 0.80856 0.0157778
0.575692 0.798276 0.0138399
0.648295 0.785107 0.0180362
0.714427 0.77348 0.0265965
0.766735 0.766217 0.0348211
0.807172 0.762661 0.0405585
0.839902 0.761685 0.0436255
0.870085 0.761608 0.0456703
0.898558 0.762127 0.0467689
