site/assets/luts/freshluts--0000773-glut011.cube
# LUTr-Schema-Version: 2
# LUTr-ID: freshluts--0000773-glut011
# LUTr-Title: gLut011
# LUTr-Collection: Fresh LUTs
# LUTr-Collection-ID: freshluts-community
# LUTr-Source: https://freshluts.com
# LUTr-Retrieved: 2026-07-27
# LUTr-Source-File: submissions-raw/freshluts/cubes/773__GMVISUALZ_WED_01_11.E74A9625.cube
# LUTr-Source-Format: CUBE
# LUTr-Source-SHA256: 55f5434782cc32212416ac85dff83068847d5a3092b7d355f50947bb6c17d951
# LUTr-License: CC0-1.0
# LUTr-License-URL: https://freshluts.com/termsandconditions
# LUTr-License-Basis: site-terms
# LUTr-Transform-Class: creative-look
# LUTr-Tags: creative, freshluts, community, cube, warm, canon-cinestyle
# LUTr-Input-Color-Space: canon-cinestyle
# LUTr-Input-Gamut: rec709
# LUTr-Input-Transfer: canon-cinestyle
# LUTr-Output-Color-Space: srgb
# LUTr-Output-Gamut: rec709
# LUTr-Output-Transfer: srgb
# LUTr-Color-Space-Confidence: inferred-from-source-label
# LUTr-Domain-Normalized: true
# LUTr-Shaper: none
# LUTr-Original-Grid: 33x33x33
# LUTr-Conversion-Grid: 33x33x33
# LUTr-Conversion-Interpolation: none
# LUTr-Conversion-Method: Metadata normalization; numeric LUT samples preserved
# LUTr-Conversion-Tool: LUTr scripts/convert-all-to-cube.mjs 2.0.0
# LUTr-Conversion-Date: 2026-07-28
# LUTr-Asset-URL: https://freshluts.com/luts/773
# LUTr-Author: directorgodfrey_M
# LUTr-Author-URL: https://freshluts.com/users/1455
# LUTr-Attribution: directorgodfrey_M via Fresh LUTs
# LUTr-Source-Labels: gamma=Canon Cinestyle; color=Warm; key=Neutral; style=Wedding
# LUTr-Note: Preserve this metadata and the upstream license notices when redistributing.
TITLE "gLut011"
LUT_3D_SIZE 9
DOMAIN_MIN 0 0 0
DOMAIN_MAX 1 1 1
0 0 0.0136416
0.245472 0 0
0.48397 0 0
0.658106 0 0
0.849638 0 0
1 0 0
1 0 0
1 0.00337224 0.0175631
1 0.0215 0.0357366
0 0.204242 0
0.180743 0.186099 0
0.436149 0.167452 0
0.619654 0.16907 0
0.807965 0.170001 0
0.986755 0.17322 0
1 0.189792 0
1 0.204868 0
1 0.216098 0
0 0.41767 0
0.116686 0.402289 0
0.377432 0.383658 0
0.576165 0.380087 0
0.753658 0.378164 0
0.93669 0.36997 0
1 0.372671 0
1 0.375921 0
1 0.37705 0
0 0.611322 0
0.0942855 0.592508 0
0.33817 0.567025 0
0.541543 0.54757 0
0.697765 0.538003 0
0.870954 0.521813 0
0.996735 0.517037 0
1 0.519005 0
1 0.520897 0
0 0.769955 0
0.0524147 0.739757 0
0.284321 0.706828 0
0.503899 0.676753 0
0.657923 0.66479 0
0.828977 0.648676 0
0.97116 0.641459 0
1 0.645747 0
1 0.650584 0
0 0.908858 0
0 0.876844 0
0.209491 0.845212 0
0.445914 0.812787 0
0.610864 0.800488 0
0.780072 0.788083 0
0.942046 0.778912 0
1 0.784329 0
1 0.791379 0
0 1 0
0 1 0
0.16321 0.983383 0
0.403418 0.954025 0
0.583719 0.941421 0
0.745739 0.934539 0
0.917174 0.924483 0
1 0.92723 0
1 0.931441 0
0 1 0
0 1 0
0.157885 1 0
0.393957 1 0
0.593088 1 0
0.74345 1 0
0.909773 1 0
1 1 0
1 1 0
0 1 0
0 1 0
0.147707 1 0
0.372351 1 0
0.583993 1 0
0.727901 1 0
0.886885 1 0
1 1 0
1 1 0
0 0 0.261997
0.23769 0 0.240665
0.478141 0 0.222705
0.653086 0 0.223621
0.844404 0 0.220706
1 0 0.226276
1 0 0.242924
1 0 0.260899
1 0.0140383 0.278996
0 0.196841 0.195209
0.17406 0.179004 0.177951
0.430716 0.160281 0.158953
0.615656 0.161776 0.160647
0.803433 0.162951 0.162325
0.983459 0.165713 0.164858
1 0.181659 0.180987
1 0.195956 0.195712
1 0.206043 0.205615
0 0.411276 0.130922
0.110353 0.395834 0.114366
0.370901 0.376852 0.0953384
0.571496 0.371801 0.0907759
0.747616 0.369009 0.0893111
0.930343 0.35967 0.0816205
1 0.361089 0.0844739
1 0.36347 0.0895399
1 0.364279 0.0916457
0 0.604471 0.115511
0.0833448 0.584329 0.0880598
0.32607 0.557794 0.0543374
0.531075 0.537011 0.0267033
0.686625 0.526925 0.0106966
0.85977 0.510277 0
0.987167 0.504845 0
1 0.506844 0
1 0.508904 0
0 0.759472 0.080705
0.0393988 0.728862 0.0440528
0.270695 0.695949 0.00517281
0.492119 0.665248 0
0.646708 0.653315 0
0.817304 0.637629 0
0.961501 0.630137 0
1 0.634516 0
1 0.639902 0
0 0.89778 0.00862135
0 0.866056 0
0.197009 0.834333 0
0.434531 0.801892 0
0.600977 0.789578 0
0.770047 0.777493 0
0.933516 0.768246 0
1 0.773785 0
1 0.780728 0
0 1 0
0 1 0
0.149813 0.973953 0
0.390326 0.944869 0
0.573449 0.931701 0
0.734997 0.924804 0
0.907057 0.914275 0
1 0.916121 0
1 0.919539 0
0 1 0
0 1 0
0.144427 1 0
0.37966 1 0
0.580423 1 0
0.730175 1 0
0.895979 1 0
1 1 0
1 1 0
0 1 0
0 1 0
0.132219 1 0
0.355901 1 0
0.569146 1 0
0.712993 1 0
0.871077 1 0
1 1 0
1 1 0
0 0 0.497719
0.230442 0 0.48278
0.472892 0 0.469535
0.647608 0 0.474006
0.838468 0 0.474922
1 0 0.481804
1 0 0.49984
1 0 0.518135
1 0.00553903 0.535363
0 0.188952 0.448096
0.166842 0.171405 0.433524
0.424094 0.152255 0.416007
0.610895 0.153323 0.418463
0.797635 0.154971 0.419715
0.978882 0.157122 0.421195
1 0.172168 0.435203
1 0.18584 0.447471
1 0.194995 0.455268
0 0.403738 0.388708
0.103044 0.38819 0.372168
0.363424 0.369009 0.351827
0.565835 0.362417 0.345235
0.7402 0.358648 0.341207
0.922942 0.348226 0.330404
1 0.348608 0.33135
1 0.350729 0.333608
1 0.351232 0.333974
0 0.596506 0.367254
0.0717937 0.575219 0.33698
0.312673 0.547845 0.300954
0.520088 0.525658 0.27042
0.675181 0.515312 0.252232
0.84802 0.498543 0.228168
0.977737 0.492439 0.215534
1 0.494667 0.211948
1 0.496849 0.209354
0 0.748577 0.323934
0.0261692 0.71754 0.285954
0.256901 0.684779 0.245518
0.480095 0.653742 0.207095
0.635508 0.64181 0.188037
0.805768 0.626612 0.164996
0.951873 0.61886 0.149844
1 0.623484 0.147021
1 0.62916 0.145068
0 0.886641 0.248005
0 0.855039 0.210803
0.184161 0.823682 0.173968
0.423178 0.79115 0.135882
0.591577 0.778653 0.1187
0.759716 0.767132 0.102296
0.925139 0.757763 0.0876783
1 0.763149 0.0884108
1 0.770199 0.090425
0 1 0.202655
0 0.991165 0.164126
0.136782 0.96466 0.127123
0.377371 0.935805 0.0884565
0.563394 0.922011 0.0652018
0.724285 0.915114 0.0497444
0.896635 0.903899 0.0303197
1 0.904646 0.024155
1 0.907485 0.0197299
0 1 0.196094
0 1 0.159014
0.1308 1 0.122225
0.36524 1 0.0817121
0.567727 1 0.0469215
0.716442 1 0.023743
0.881941 1 0
1 1 0
1 1 0
0 1 0.1935
0 1 0.151934
0.116625 1 0.107713
0.339223 1 0.0607309
0.553872 1 0.0137179
0.698268 1 0
0.855375 1 0
0.987991 1 0
1 1 0
0 0 0.656779
0.229282 0 0.643519
0.473838 0 0.632517
0.648936 0 0.640635
0.838865 0 0.645975
1 0 0.658427
1 0 0.682902
1 0 0.708232
1 0.00129702 0.733303
0 0.187671 0.616815
0.16585 0.170016 0.607217
0.423758 0.150256 0.595712
0.611292 0.150652 0.604166
0.796902 0.151888 0.613306
0.978943 0.152712 0.621881
1 0.166171 0.642695
1 0.178119 0.66157
1 0.185763 0.675731
0 0.401511 0.577615
0.100053 0.385321 0.568414
0.359945 0.36492 0.556313
0.563378 0.356283 0.555932
0.73518 0.350866 0.558312
0.91722 0.338369 0.554147
1 0.337285 0.560281
1 0.338674 0.568276
1 0.338216 0.57435
0 0.591257 0.578241
0.0623789 0.568261 0.554559
0.301305 0.539483 0.524742
0.509896 0.515404 0.499794
0.664088 0.504082 0.487144
0.836683 0.486641 0.468177
0.967926 0.480034 0.459632
1 0.481819 0.459388
1 0.483818 0.45922
0 0.738384 0.55613
0.0130617 0.706645 0.523033
0.242664 0.673533 0.487556
0.467948 0.641703 0.452399
0.623606 0.629694 0.435904
0.793347 0.614832 0.415198
0.941405 0.606561 0.400259
1 0.611414 0.397559
1 0.617395 0.395438
0 0.874815 0.495399
0 0.843259 0.460792
0.170748 0.812085 0.425177
0.41062 0.779461 0.388388
0.580987 0.766796 0.370428
0.748669 0.755779 0.353246
0.915846 0.746303 0.337865
1 0.751812 0.336706
1 0.758938 0.336965
0 1 0.453223
0 0.980682 0.414481
0.122759 0.954482 0.377234
0.36376 0.925856 0.337316
0.552453 0.911543 0.312413
0.712718 0.904799 0.295598
0.885908 0.892836 0.273915
1 0.892622 0.265034
1 0.894865 0.259129
0 1 0.443687
0 1 0.405325
0.11667 1 0.366323
0.350103 1 0.323812
0.554635 1 0.28629
0.702571 1 0.261387
0.867399 1 0.229587
0.989685 0.996139 0.206821
1 0.993103 0.191684
0 1 0.434623
0 1 0.391302
0.100801 1 0.345647
0.322606 1 0.296986
0.538613 1 0.248417
0.683131 1 0.217639
0.839612 1 0.182071
0.973816 1 0.152102
1 1 0.133349
0 0 0.834241
0.227268 0 0.819577
0.473701 0 0.806271
0.649927 0 0.811933
0.839628 0 0.815534
1 0 0.825299
1 0 0.847501
1 0 0.871
1 0 0.893782
0 0.186252 0.788281
0.165209 0.168994 0.776745
0.424063 0.149432 0.762814
0.613535 0.14963 0.768612
0.79855 0.151095 0.775967
0.981659 0.1514 0.782025
1 0.163928 0.800458
1 0.174594 0.817258
1 0.181323 0.830045
0 0.401297 0.741543
0.100328 0.384833 0.730953
0.359197 0.364004 0.716472
0.564416 0.353918 0.71342
0.73518 0.347463 0.714809
0.916503 0.333867 0.708873
1 0.331609 0.714565
1 0.332418 0.723827
1 0.331731 0.731106
0 0.589837 0.733211
0.0572213 0.565881 0.707927
0.295415 0.536294 0.677958
0.50573 0.511009 0.652628
0.659251 0.499123 0.641062
0.831708 0.481224 0.624643
0.964614 0.474006 0.619226
1 0.47541 0.623804
1 0.477089 0.629648
0 0.734173 0.709621
0.00624094 0.702068 0.678187
0.235477 0.668711 0.645411
0.461952 0.636362 0.613596
0.618189 0.623987 0.601785
0.78706 0.609064 0.587289
0.936324 0.600076 0.578775
1 0.60441 0.583566
1 0.610086 0.589136
0 0.869596 0.659052
0 0.837827 0.62948
0.163455 0.806302 0.600885
0.403479 0.773342 0.570779
0.575158 0.75993 0.560021
0.741985 0.748608 0.551446
0.909911 0.738415 0.543359
1 0.743206 0.549905
1 0.749676 0.557549
0 1 0.636728
0 0.974823 0.606149
0.112932 0.948241 0.576974
0.353063 0.919234 0.545541
0.544198 0.903609 0.527672
0.703273 0.896056 0.517937
0.875959 0.882948 0.502708
0.995285 0.881086 0.498665
1 0.882002 0.497353
0 1 0.653483
0 1 0.622248
0.103914 1 0.590341
0.336126 1 0.553658
0.541558 1 0.52076
0.688548 1 0.500237
0.852445 0.993225 0.471244
0.975677 0.982071 0.450965
1 0.978485 0.437278
0 1 0.666087
0 1 0.627787
0.0846571 1 0.585809
0.305043 1 0.540612
0.522408 1 0.493477
0.66717 1 0.46334
0.822492 1 0.428779
0.958526 1 0.397528
1 1 0.378042
0 0 0.981109
0.226993 0 0.972076
0.474952 0 0.963699
0.651606 0 0.974517
0.840406 0 0.98291
1 0 0.996353
1 0 1
1 0 1
1 0 1
0 0.185306 0.953307
0.164599 0.167987 0.946288
0.423453 0.148287 0.936049
0.615183 0.147646 0.944564
0.798795 0.149004 0.954131
0.982574 0.148608 0.961028
1 0.15964 0.979232
1 0.169345 0.994904
1 0.175006 1
0 0.399985 0.918822
0.0988937 0.383154 0.910155
0.356802 0.361227 0.896452
0.563684 0.349157 0.892592
0.732937 0.342336 0.892912
0.913863 0.327535 0.885252
1 0.324254 0.888884
1 0.324941 0.895552
1 0.324178 0.900862
0 0.586511 0.909804
0.0504158 0.561257 0.88336
0.287205 0.531289 0.85185
0.500114 0.505028 0.824125
0.653498 0.492805 0.810803
0.825727 0.475013 0.792187
0.961089 0.467491 0.78471
1 0.469139 0.787366
1 0.471153 0.791104
0 0.728435 0.880995
0 0.6963 0.847349
0.227405 0.663264 0.812543
0.45568 0.630808 0.778241
0.613001 0.618616 0.763958
0.781643 0.604273 0.747646
0.933165 0.595239 0.736568
1 0.599908 0.739391
1 0.605951 0.743587
0 0.864393 0.82359
0 0.832853 0.792401
0.156924 0.801892 0.761547
0.398001 0.769177 0.729351
0.57232 0.755566 0.716731
0.738445 0.745007 0.706676
0.907835 0.734676 0.697292
1 0.739223 0.702892
1 0.745663 0.709972
0 0.999283 0.793317
0 0.971801 0.761196
0.106737 0.945571 0.730968
0.347021 0.916808 0.698909
0.540719 0.90045 0.679927
0.699031 0.892561 0.670115
0.8719 0.878676 0.655085
0.992065 0.875669 0.651804
1 0.875578 0.652186
0 1 0.805524
0 1 0.773953
0.0965591 1 0.741588
0.327382 1 0.705653
0.534798 1 0.673228
0.680964 1 0.654521
0.843824 0.986877 0.629175
0.9682 0.974334 0.612558
1 0.96994 0.604013
0 1 0.818296
0 1 0.780987
0.0746624 1 0.741756
0.294133 1 0.699962
0.512062 1 0.657176
0.65713 1 0.632761
0.811032 1 0.604639
0.947875 1 0.580591
1 1 0.568582
0 0 1
0.230915 0 1
0.480293 0 1
0.658076 0 1
0.846189 0 1
1 0 1
1 0 1
1 0 1
1 0 1
0 0.189227 1
0.168856 0.171878 1
0.428168 0.151873 1
0.621256 0.150637 1
0.803677 0.151598 1
0.987793 0.149706 1
1 0.159167 1
1 0.167529 1
1 0.171893 1
0 0.403296 1
0.102327 0.38587 1
0.358679 0.362768 1
0.566506 0.348302 1
0.733761 0.340124 1
0.914199 0.324025 1
1 0.319539 1
1 0.319448 1
1 0.318044 1
0 0.586908 1
0.0469368 0.560082 1
0.282261 0.528954 0.987045
0.496452 0.501244 0.964111
0.649546 0.488319 0.956008
0.821424 0.469993 0.943358
0.958251 0.461769 0.940597
1 0.463081 0.948165
1 0.464866 0.95668
0 0.72488 1
0 0.69221 0.994842
0.220203 0.659052 0.965454
0.449989 0.625925 0.935622
0.60795 0.613321 0.925795
0.775738 0.599115 0.913542
0.929015 0.589609 0.90544
1 0.594308 0.910842
1 0.600443 0.916823
0 0.85951 0.983825
0 0.827939 0.95671
0.150347 0.797009 0.92987
0.391623 0.764035 0.900999
0.567849 0.750072 0.889738
0.733593 0.739864 0.881819
0.904295 0.729244 0.872938
1 0.733562 0.877714
1 0.740017 0.884413
0 0.994934 0.964141
0 0.967758 0.934524
0.0987716 0.941405 0.905547
0.339467 0.912612 0.874205
0.535531 0.895552 0.854368
0.692943 0.887282 0.843351
0.866194 0.872541 0.82652
0.987381 0.868803 0.820691
1 0.868101 0.818372
0 1 0.979889
0 1 0.947417
0.0877089 1 0.913649
0.317449 1 0.875593
0.526421 1 0.83975
0.672404 1 0.818601
0.834791 0.980011 0.790768
0.960708 0.966827 0.770916
1 0.962203 0.759991
0 1 0.987259
0 1 0.947448
0.0639658 1 0.905196
0.282918 1 0.860899
0.502068 1 0.815244
0.647929 1 0.787884
0.801266 1 0.757748
0.939803 1 0.731121
1 1 0.717006
0 0 1
0.235142 0 1
0.486015 0 1
0.66511 0 1
0.852644 0 1
1 0 1
1 0 1
1 0 1
1 0.00144961 1
0 0.193698 1
0.173922 0.176547 1
0.434028 0.157 1
0.628779 0.154864 1
0.810193 0.155718 1
0.994461 0.152789 1
1 0.160571 1
1 0.167941 1
1 0.17171 1
0 0.407965 1
0.107576 0.390036 1
0.362509 0.366125 1
0.571542 0.349859 1
0.737621 0.340444 1
0.917372 0.323583 1
1 0.318273 1
1 0.317784 1
1 0.31632 1
0 0.589502 1
0.0461738 0.561761 1
0.280476 0.529992 1
0.496559 0.501106 1
0.649836 0.487755 1
0.82118 0.469581 1
0.960327 0.46067 1
1 0.461723 1
1 0.463493 1
0 0.725216 1
0 0.692332 1
0.217945 0.659236 1
0.448585 0.62594 1
0.607828 0.612955 1
0.774792 0.598886 1
0.929549 0.588937 1
1 0.593408 1
1 0.599542 1
0 0.85948 1
0 0.827909 1
0.148592 0.797009 1
0.390158 0.763897 1
0.568307 0.749279 1
0.733242 0.739162 1
0.904631 0.728038 0.995499
1 0.731517 1
1 0.737133 1
0 0.995438 1
0 0.968185 1
0.0957198 0.941466 1
0.335409 0.912474 0.99852
0.533913 0.894118 0.983047
0.690318 0.88481 0.97763
0.86247 0.868833 0.965499
0.984344 0.863432 0.964172
1 0.861646 0.967239
0 1 1
0 1 1
0.0813458 1 1
0.309804 1 1
0.519692 1 0.98407
0.66479 0.995254 0.967529
0.826139 0.973571 0.944244
0.953246 0.959228 0.928252
1 0.953964 0.920851
0 1 1
0 1 1
0.0541695 1 1
0.271794 1 1
0.491722 1 0.974166
0.638285 1 0.950027
0.790387 1 0.923033
0.930282 1 0.897765
1 1 0.885115
0 0 1
0.239109 0 1
0.491676 0 1
0.67219 0 1
0.858885 0 1
1 0 1
1 0 1
1 0 1
1 0.0040589 1
0 0.198062 1
0.178958 0.181216 1
0.439094 0.161776 1
0.63621 0.158755 1
0.816281 0.159487 1
1 0.15552 1
1 0.161746 1
1 0.168017 1
1 0.171191 1
0 0.412299 1
0.111742 0.393713 1
0.365637 0.368841 1
0.576562 0.35079 1
0.740841 0.340719 1
0.920333 0.323018 1
1 0.316762 1
1 0.316228 1
1 0.314885 1
0 0.591516 1
0.0453193 0.562982 1
0.278508 0.530877 1
0.496651 0.500938 1
0.650187 0.487297 1
0.821424 0.469337 1
0.963104 0.459922 1
1 0.461326 1
1 0.463004 1
0 0.725658 1
0 0.692561 1
0.215793 0.659754 1
0.447868 0.626444 1
0.608469 0.613367 1
0.774945 0.599786 1
0.931853 0.589868 1
1 0.594247 1
1 0.600626 1
0 0.860044 1
0 0.828611 1
0.148089 0.798154 1
0.389853 0.765316 1
0.570794 0.75024 1
0.735012 0.740719 1
0.907256 0.729259 1
1 0.732265 1
1 0.737438 1
0 0.997452 1
0 0.970413 1
0.0948806 0.943786 1
0.334157 0.914794 1
0.535042 0.895338 1
0.69073 0.885588 1
0.862547 0.868727 1
0.985351 0.861906 1
1 0.859419 1
0 1 1
0 1 1
0.0786755 1 1
0.305379 1 1
0.517052 1 1
0.661707 0.993957 1
0.82182 0.971786 1
0.950591 0.956313 1
1 0.950484 1
0 1 1
0 1 1
0.0487678 1 1
0.26566 1 1
0.48603 1 1
0.63331 1 1
0.784421 1 1
0.925383 1 1
1 1 0.995514
