site/assets/luts/freshluts--0000996-behind-blue-eyes.cube
# LUTr-Schema-Version: 2
# LUTr-ID: freshluts--0000996-behind-blue-eyes
# LUTr-Title: Behind Blue Eyes
# LUTr-Collection: Fresh LUTs
# LUTr-Collection-ID: freshluts-community
# LUTr-Source: https://freshluts.com
# LUTr-Retrieved: 2026-07-27
# LUTr-Source-File: submissions-raw/freshluts/cubes/996__bbe3_cube_150.A042_05040056_C023.cube
# LUTr-Source-Format: CUBE
# LUTr-Source-SHA256: 61853baa55ab866a04aef4e72c4066140dc3fcdaf57ed868c9fb553d6c116e57
# LUTr-License: CC0-1.0
# LUTr-License-URL: https://freshluts.com/termsandconditions
# LUTr-License-Basis: site-terms
# LUTr-Transform-Class: creative-look
# LUTr-Tags: creative, freshluts, community, cube, bmd-film-4k, cool
# LUTr-Input-Color-Space: bmd-film-4k
# LUTr-Input-Gamut: bmd-film-gamut
# LUTr-Input-Transfer: bmd-film-4k
# LUTr-Output-Color-Space: srgb
# LUTr-Output-Gamut: rec709
# LUTr-Output-Transfer: srgb
# LUTr-Color-Space-Confidence: inferred-from-source-label
# LUTr-Domain-Normalized: true
# LUTr-Shaper: none
# LUTr-Original-Grid: 33x33x33
# LUTr-Conversion-Grid: 33x33x33
# LUTr-Conversion-Interpolation: none
# LUTr-Conversion-Method: Metadata normalization; numeric LUT samples preserved
# LUTr-Conversion-Tool: LUTr scripts/convert-all-to-cube.mjs 2.0.0
# LUTr-Conversion-Date: 2026-07-28
# LUTr-Asset-URL: https://freshluts.com/luts/996
# LUTr-Author: Le Salon des Inconnus
# LUTr-Author-URL: https://freshluts.com/users/102026
# LUTr-Attribution: Le Salon des Inconnus via Fresh LUTs
# LUTr-Source-Labels: gamma=Blackmagic BMD Film 4K; color=None; key=Neutral; style=Colorful
# LUTr-Note: Preserve this metadata and the upstream license notices when redistributing.
TITLE "Behind Blue Eyes"
LUT_3D_SIZE 33
DOMAIN_MIN 0 0 0
DOMAIN_MAX 1 1 1
0 0 0
0 0 0
0 0 0
0.00495918 0.00495918 0.00495918
0.0125582 0.0124208 0.0124514
0.0209964 0.0195926 0.0197452
0.032105 0.0263981 0.0268406
0.049546 0.0329442 0.0339208
0.0791791 0.0387579 0.0399634
0.123674 0.0399939 0.0405432
0.188907 0.0337987 0.0329595
0.272801 0.0217288 0.020676
0.376349 0.0043183 0.00399786
0.510124 0 0
0.679469 0 0
0.876524 0 0
1 0 0
1 0 0
1 0 0
1 0 0
1 0 0
1 0 0
1 0 0
1 0 0
1 0 0
1 0 0
1 0 0
1 0 0
1 0 0
1 0 0
1 0 0
1 0 0
1 0 0
0 0 0
0 0 0
0 0 0
0.00254826 0.00254826 0.00254826
0.0102541 0.0102083 0.0102083
0.0187381 0.0178531 0.0179294
0.0292668 0.024918 0.0252995
0.0456703 0.0316625 0.0325475
0.0746471 0.0383001 0.0394903
0.116472 0.0402838 0.0410315
0.181628 0.0347448 0.0338445
0.26389 0.0231785 0.022446
0.367941 0.00582895 0.00543221
0.497856 0 0
0.665614 0 0
0.865599 0 0
1 0 0
1 0 0
1 0 0
1 0 0
1 0 0
1 0 0
1 0 0
1 0 0
1 0 0
1 0 0
1 0 0
1 0 0
1 0 0
1 0 0
1 0 0
1 0 0
1 0 0
0 0 0
0 0 0
0 0 0
0.00112917 0.00112917 0.00112917
0.00793469 0.00791943 0.00791943
0.0165713 0.0159915 0.0160678
0.0269627 0.0235752 0.0238499
0.0420081 0.0304112 0.0311894
0.0693217 0.0374609 0.0386358
0.110399 0.0404059 0.0412909
0.173892 0.0358129 0.035172
0.2542 0.0246738 0.0234989
0.357214 0.00764477 0.00717174
0.485771 0 0
0.651896 0 0
0.851347 0 0
1 0 0
1 0 0
1 0 0
1 0 0
1 0 0
1 0 0
1 0 0
1 0 0
1 0 0
1 0 0
1 0 0
1 0 0
1 0 0
1 0 0
1 0 0
1 0 0
1 0 0
0.018967 0.0198978 0.0194095
0.0179446 0.0185855 0.0182193
0.0167544 0.0172427 0.0169985
0.0189212 0.0194858 0.0191196
0.0251011 0.0254673 0.0245365
0.0346838 0.0319371 0.0295872
0.0507973 0.0393988 0.0357061
0.0734875 0.0456703 0.0406806
0.109651 0.0484321 0.0416876
0.163256 0.0447089 0.0363622
0.217121 0.035584 0.0283055
0.255467 0.0251774 0.0235294
0.346716 0.00941482 0.00888075
0.473884 0 0
0.639384 0 0
0.83801 0 0
1 0 0
1 0 0
1 0 0
1 0 0
1 0 0
1 0 0
1 0 0
1 0 0
1 0 0
1 0 0
1 0 0
1 0 0
1 0 0
1 0 0
1 0 0
1 0 0
1 0 0
0.0262608 0.0451514 0.0345464
0.0263828 0.0433051 0.033875
0.026688 0.041825 0.0333562
0.0273289 0.0415808 0.0333867
0.0343175 0.0512093 0.0378271
0.0488899 0.0630503 0.040177
0.0883497 0.078706 0.0312963
0.171939 0.0816815 0
0.282658 0.0706951 0
0.390829 0.0536812 0
0.478004 0.0346685 0
0.56228 0.0122683 0
0.642527 0 0
0.713024 0 0
0.773373 0 0
0.826673 0 0
1 0 0
1 0 0
1 0 0
1 0 0
1 0 0
1 0 0
1 0 0
1 0 0
1 0 0
1 0 0
1 0 0
1 0 0
1 0 0
1 0 0
1 0 0
1 0 0
1 0 0
0 0.101015 0.0323491
0 0.0968948 0.0335699
0 0.0923171 0.0347753
0 0.0887465 0.0357671
0 0.105211 0.02916
0.0146334 0.128527 0.00817884
0.0909133 0.14374 0
0.197452 0.141787 0
0.333486 0.128176 0
0.477073 0.10576 0
0.590463 0.0854505 0
0.68574 0.0664836 0
0.765743 0.0468299 0
0.836957 0.0268711 0
0.912581 0.00354009 0
0.990463 0 0
1 0 0
1 0 0
1 0 0
1 0 0
1 0 0
1 0 0
1 0 0
1 0 0
1 0 0
1 0 0
1 0 0
1 0 0
1 0 0
1 0 0
1 0 0
1 0 0
1 0 0
0 0.214984 0
0 0.21059 0
0 0.206577 0
0 0.201236 0
0 0.203098 0
0 0.216251 0
0.0782788 0.213596 0
0.198138 0.207752 0
0.306249 0.20032 0
0.436225 0.187152 0
0.591836 0.164324 0
0.713924 0.143542 0
0.817105 0.125078 0
0.904646 0.108507 0
0.987381 0.0923171 0
1 0.082826 0
1 0.0754864 0
1 0.0608988 0
1 0.0397192 0
1 0.0155795 0
1 0 0
1 0 0
1 0 0
1 0 0
1 0 0
1 0 0
1 0 0
1 0 0
1 0 0
1 0 0
1 0 0
1 0 0
1 0 0
0 0.302159 0
0 0.29958 0
0 0.297124 0
0 0.294697 0
0 0.292226 0
0 0.287846 0
0.0659037 0.28249 0
0.191577 0.278584 0
0.300832 0.272618 0
0.405325 0.265415 0
0.52282 0.254231 0
0.682734 0.233249 0
0.81532 0.213382 0
0.930648 0.195315 0
1 0.180468 0
1 0.17557 0
1 0.166522 0
1 0.160204 0
1 0.152651 0
1 0.141527 0
1 0.126177 0
1 0.100862 0
1 0.0703593 0
1 0.0375372 0
1 0.00318914 0
1 0 0
1 0 0
1 0 0
1 0 0
1 0 0
1 0 0
1 0 0
1 0 0
0 0.373022 0
0 0.370718 0
0 0.368811 0
0 0.366827 0
0 0.364324 0
0 0.361257 0
0.0369268 0.357382 0
0.171649 0.353353 0
0.284169 0.349142 0
0.38967 0.343648 0
0.492058 0.337179 0
0.597665 0.329046 0
0.748119 0.311986 0
0.899809 0.290455 0
1 0.271855 0
1 0.264469 0
1 0.255528 0
1 0.248264 0
1 0.241566 0
1 0.235248 0
1 0.228733 0
1 0.218631 0
1 0.204501 0
1 0.18674 0
1 0.163027 0
1 0.138323 0
1 0.112032 0
1 0.0846113 0
1 0.0591897 0
1 0.0360418 0
1 0.0163119 0
1 0 0
1 0 0
0 0.449744 0
0 0.448142 0
0 0.446128 0
0 0.44387 0
0 0.441764 0
0 0.439658 0
0 0.436667 0
0.130083 0.432975 0
0.25214 0.429755 0
0.360906 0.424979 0
0.465476 0.419593 0
0.569055 0.412421 0
0.67248 0.404227 0
0.805859 0.390814 0
0.978225 0.366537 0
1 0.356146 0
1 0.344396 0
1 0.334981 0
1 0.327657 0
1 0.320974 0
1 0.315145 0
1 0.307118 0
1 0.298146 0
1 0.288441 0
1 0.274174 0
1 0.259037 0
1 0.244648 0
1 0.23032 0
1 0.216022 0
1 0.203265 0
1 0.190738 0
1 0.178775 0
1 0.168017 0
0 0.53109 0
0 0.529381 0
0 0.527687 0
0 0.525994 0
0 0.524086 0
0 0.521508 0
0 0.519066 0
0.0586557 0.515801 0
0.201266 0.511818 0
0.321035 0.507195 0
0.432364 0.501381 0
0.53933 0.494987 0
0.644755 0.486595 0
0.749004 0.47744 0
0.86746 0.465385 0
1 0.44538 0
1 0.435111 0
1 0.422278 0
1 0.411948 0
1 0.403983 0
1 0.396262 0
1 0.389593 0
1 0.38143 0
1 0.372152 0
1 0.360632 0
1 0.349416 0
1 0.338796 0
1 0.328405 0
1 0.319188 0
1 0.310857 0
1 0.30338 0
1 0.296071 0
1 0.289998 0
0 0.61323 0
0 0.611597 0
0 0.609903 0
0 0.608469 0
0 0.606714 0
0 0.604547 0
0 0.602396 0
0 0.599588 0
0.132677 0.595041 0
0.269474 0.589578 0
0.388769 0.5832 0
0.501717 0.576181 0
0.610224 0.567864 0
0.716503 0.557961 0
0.821546 0.547662 0
0.932799 0.534707 0
1 0.52462 0
1 0.509957 0
1 0.496788 0
1 0.485756 0
1 0.475944 0
1 0.467384 0
1 0.458946 0
1 0.449805 0
1 0.440665 0
1 0.431861 0
1 0.422965 0
1 0.415625 0
1 0.407797 0
1 0.401541 0
1 0.394903 0
1 0.389441 0
1 0.384558 0
0 0.694759 0
0 0.693355 0
0 0.691829 0
0 0.690593 0
0 0.689326 0
0 0.687343 0
0 0.685298 0
0 0.682612 0
0.0369573 0.678676 0
0.201236 0.671687 0
0.333822 0.664225 0
0.453529 0.655985 0
0.567147 0.647089 0
0.676402 0.636362 0
0.782666 0.625345 0
0.887648 0.613382 0
0.994003 0.599054 0
1 0.59379 0
1 0.581125 0
1 0.567224 0
1 0.554742 0
1 0.544015 0
1 0.534722 0
1 0.524437 0
1 0.515877 0
1 0.50837 0
1 0.501106 0
1 0.494301 0
1 0.488273 0
1 0.482399 0
1 0.477516 0
1 0.472969 0
1 0.468956 0
0 0.774121 0
0 0.773129 0
0 0.772015 0
0 0.770993 0
0 0.769574 0
0 0.768124 0
0 0.7664 0
0 0.76405 0
0 0.761563 0
0.110018 0.753079 0
0.263645 0.74377 0
0.394507 0.734264 0
0.513588 0.72401 0
0.62707 0.712474 0
0.736767 0.700328 0
0.842878 0.687617 0
0.950622 0.672801 0
1 0.663539 0
1 0.657801 0
1 0.647044 0
1 0.634119 0
1 0.621057 0
1 0.609522 0
1 0.598962 0
1 0.589578 0
1 0.583551 0
1 0.57673 0
1 0.570901 0
1 0.565866 0
1 0.560571 0
1 0.556268 0
1 0.55288 0
1 0.549081 0
0 0.850202 0
0 0.849058 0
0 0.848005 0
0 0.846937 0
0 0.846021 0
0 0.8448 0
0 0.843259 0
0 0.841596 0
0 0.839628 0
0 0.834592 0
0.174563 0.822385 0
0.321599 0.810513 0
0.449775 0.798871 0
0.569024 0.786389 0
0.682551 0.772946 0
0.790906 0.759609 0
0.897185 0.745434 0
0.998764 0.730175 0
1 0.725612 0
1 0.717586 0
1 0.708675 0
1 0.697566 0
1 0.685512 0
1 0.673854 0
1 0.662913 0
1 0.656992 0
1 0.651316 0
1 0.64625 0
1 0.641474 0
1 0.637156 0
1 0.633097 0
1 0.62977 0
1 0.62707 0
0 0.921386 0
0 0.920562 0
0 0.919615 0
0 0.918654 0
0 0.917693 0
0 0.916716 0
0 0.915358 0
0 0.914 0
0 0.912306 0
0 0.910109 0
0.0585336 0.899947 0
0.233433 0.885573 0
0.37528 0.871855 0
0.501625 0.857984 0
0.621225 0.8439 0
0.734081 0.829618 0
0.841245 0.81503 0
0.948348 0.798627 0
1 0.788495 0
1 0.782559 0
1 0.774914 0
1 0.766918 0
1 0.758221 0
1 0.747997 0
1 0.736706 0
1 0.730388 0
1 0.725277 0
1 0.720729 0
1 0.716533 0
1 0.712505 0
1 0.70927 0
1 0.706355 0
1 0.703304 0
0 0.985031 0
0 0.984497 0
0 0.983825 0
0 0.983276 0
0 0.982544 0
0 0.981598 0
0 0.980484 0
0 0.979141 0
0 0.977676 0
0 0.976272 0
0 0.974136 0
0.123232 0.960006 0
0.284916 0.944717 0
0.423148 0.929763 0
0.550317 0.913878 0
0.669367 0.898116 0
0.780957 0.882811 0
0.887098 0.866941 0
0.989197 0.850629 0
1 0.84535 0
1 0.837247 0
1 0.829435 0
1 0.822385 0
1 0.815305 0
1 0.80737 0
1 0.800824 0
1 0.796918 0
1 0.79292 0
1 0.788998 0
1 0.78555 0
1 0.782757 0
1 0.780224 0
1 0.77789 0
0 1 0
0 1 0
0 1 0
0 1 0
0 1 0
0 1 0
0 1 0
0 1 0
0 1 0
0 1 0
0 1 0
0.0071107 1 0
0.194965 1 0
0.342458 0.996368 0
0.474632 0.981308 0
0.598199 0.965942 0
0.713649 0.949477 0
0.823117 0.933379 0
0.92987 0.916197 0
1 0.903624 0
1 0.898344 0
1 0.890562 0
1 0.883055 0
1 0.876692 0
1 0.871168 0
1 0.867002 0
1 0.862867 0
1 0.859068 0
1 0.855817 0
1 0.85333 0
1 0.850507 0
1 0.848035 0
1 0.846082 0
0 1 0
0 1 0
0 1 0
0 1 0
0 1 0
0 1 0
0 1 0
0 1 0
0 1 0
0 1 0
0 1 0
0 1 0
0.115373 1 0
0.281193 1 0
0.417411 1 0
0.539818 1 0
0.65478 1 0
0.763561 0.995224 0
0.866758 0.979767 0
0.96611 0.962722 0
1 0.955871 0
1 0.947921 0
1 0.940581 0
1 0.935012 0
1 0.931182 0.049073
1 0.928542 0.103105
1 0.925399 0.0938582
1 0.922774 0.0801099
1 0.919707 0.0638285
1 0.917037 0.0507057
1 0.914778 0.038529
1 0.912825 0.0304417
1 0.911269 0.0234226
0 1 0
0 1 0
0 1 0
0 1 0
0 1 0
0 1 0
0 1 0
0 1 0
0 1 0
0 1 0
0 1 0
0 1 0
0 1 0
0.204395 1 0
0.358709 1 0
0.492805 1 0
0.616938 1 0
0.731319 1 0
0.832746 1 0
0.92166 1 0
0.990433 0.993042 0.004654
1 0.987991 0.103975
1 0.981537 0.204654
1 0.976974 0.304875
1 0.974563 0.398108
1 0.973312 0.478111
1 0.972259 0.505959
1 0.970611 0.482292
1 0.968887 0.459693
1 0.967514 0.444205
1 0.965942 0.425299
1 0.964828 0.411124
1 0.963851 0.399481
0 1 0
0 1 0
0 1 0
0 1 0
0 1 0
0 1 0
0 1 0
0 1 0
0 1 0
0 1 0
0 1 0
0 1 0
0 1 0
0.113527 1 0
0.290715 1 0
0.446662 1 0
0.593698 1 0
0.721645 1 0
0.827283 1 0.0767987
0.910185 1 0.205463
0.972259 1 0.344259
0.998581 1 0.48014
1 0.996139 0.60238
1 0.993637 0.707744
1 0.993164 0.796689
1 0.99411 0.86923
1 0.995743 0.92105
1 0.994934 0.905669
1 0.994079 0.889494
1 0.993286 0.874327
1 0.992844 0.865599
1 0.99237 0.855879
1 0.991867 0.845914
0 1 0
0 1 0
0 1 0
0 1 0
0 1 0
0 1 0
0 1 0
0 1 0
0 1 0
0 1 0
0 1 0
0 1 0
0 1 0
0 1 0
0.234379 1 0
0.440696 1 0
0.613565 1 0.0707408
0.752148 1 0.22443
0.857786 1 0.3991
0.929397 1 0.57142
0.971786 1 0.716838
0.993011 1 0.846128
0.998566 0.999207 0.93611
1 1 0.990112
1 1 0.998642
1 1 1
1 1 1
1 1 1
1 1 1
1 1 1
1 1 1
1 1 1
1 1 1
0 1 0
0 1 0
0 1 0
0 1 0
0 1 0
0 1 0
0 1 0
0 1 0
0 1 0
0 1 0
0 1 0
0 1 0
0 1 0
0 1 0
0.192691 1 0
0.474907 1 0.119692
0.679026 1 0.31986
0.827909 1 0.538064
0.920851 1 0.727016
0.973236 1 0.878767
0.996536 1 0.974929
1 1 0.999222
1 1 1
1 1 1
1 1 1
1 1 1
1 1 1
1 1 1
1 1 1
1 1 1
1 1 1
1 1 1
1 1 1
0.0687724 1 0.0134432
0.067216 1 0.0118105
0.0637064 1 0.00898756
0.0615702 1 0.00703441
0.0597696 1 0.00515755
0.0582742 1 0.00361639
0.0565347 1 0.00181582
0.0551614 1 0
0.0496376 1 0
0.0471199 1 0
0.0397955 1 0
0.0344854 1 0
0.03122 1 0
0.0267338 1 0
0.0962387 1 0.000396735
0.535882 1 0.305211
0.781643 1 0.587686
0.918013 1 0.807904
0.985718 1 0.957885
1 1 0.999466
1 1 1
1 1 1
1 1 1
1 1 1
1 1 1
1 1 1
1 1 1
1 1 1
1 1 1
1 1 1
1 1 1
1 1 1
1 1 1
0.256947 1 0.211429
0.256748 1 0.210559
0.255589 1 0.209018
0.254475 1 0.207507
0.250401 1 0.204089
0.248981 1 0.201816
0.244205 1 0.197192
0.238773 1 0.191745
0.233646 1 0.186374
0.227726 1 0.180148
0.222156 1 0.173663
0.212146 1 0.16405
0.206531 1 0.157351
0.198978 1 0.150042
0.189258 1 0.140291
0.598001 1 0.462699
0.881743 1 0.799237
0.989151 1 0.976699
1 1 1
1 1 1
1 1 1
1 1 1
1 1 1
1 1 1
1 1 1
1 1 1
1 1 1
1 1 1
1 1 1
1 1 1
1 1 1
1 1 1
1 1 1
0.360967 1 0.320439
0.360967 1 0.320439
0.360967 1 0.320439
0.360967 1 0.320439
0.360967 1 0.320439
0.360967 1 0.320439
0.360967 1 0.320439
0.360967 1 0.320439
0.360967 1 0.320439
0.360967 1 0.320439
0.360967 1 0.320439
0.360967 1 0.320439
0.360967 1 0.320439
0.360967 1 0.320439
0.360967 1 0.320439
0.59263 1 0.516396
0.945663 1 0.915969
1 1 1
1 1 1
1 1 1
1 1 1
1 1 1
1 1 1
1 1 1
1 1 1
1 1 1
1 1 1
1 1 1
1 1 1
1 1 1
1 1 1
1 1 1
1 1 1
0.360967 1 0.320439
0.360967 1 0.320439
0.360967 1 0.320439
0.360967 1 0.320439
0.360967 1 0.320439
0.360967 1 0.320439
0.360967 1 0.320439
0.360967 1 0.320439
0.360967 1 0.320439
0.360967 1 0.320439
0.360967 1 0.320439
0.360967 1 0.320439
0.360967 1 0.320439
0.360967 1 0.320439
0.360967 1 0.320439
0.360967 1 0.320439
0.87628 1 0.822889
1 1 0.997696
1 1 1
1 1 1
1 1 1
1 1 1
1 1 1
1 1 1
1 1 1
1 1 1
1 1 1
1 1 1
1 1 1
1 1 1
1 1 1
1 1 1
1 1 1
0.360967 1 0.320439
0.360967 1 0.320439
0.360967 1 0.320439
0.360967 1 0.320439
0.360967 1 0.320439
0.360967 1 0.320439
0.360967 1 0.320439
0.360967 1 0.320439
0.360967 1 0.320439
