site/assets/luts/freshluts--0000478-light-girl.cube
# LUTr-Schema-Version: 2
# LUTr-ID: freshluts--0000478-light-girl
# LUTr-Title: light girl
# LUTr-Collection: Fresh LUTs
# LUTr-Collection-ID: freshluts-community
# LUTr-Source: https://freshluts.com
# LUTr-Retrieved: 2026-07-27
# LUTr-Source-File: submissions-raw/freshluts/cubes/478__girl_1.nice-girl-at-sunshine-women-s-gray-and-beige-backless-dress-wallpaper-preview.cube
# LUTr-Source-Format: CUBE
# LUTr-Source-SHA256: e13f64e73b55bfc848be0f2a395e08ff5bad6da09965f848c5a0a57e5df6363e
# LUTr-License: CC0-1.0
# LUTr-License-URL: https://freshluts.com/termsandconditions
# LUTr-License-Basis: site-terms
# LUTr-Transform-Class: creative-look
# LUTr-Tags: creative, freshluts, community, cube, warm, high-key, rec709, assumed-input
# LUTr-Input-Color-Space: rec709
# LUTr-Input-Gamut: rec709
# LUTr-Input-Transfer: rec709
# LUTr-Output-Color-Space: srgb
# LUTr-Output-Gamut: rec709
# LUTr-Output-Transfer: srgb
# LUTr-Color-Space-Confidence: assumed-display-referred
# LUTr-Domain-Normalized: true
# LUTr-Shaper: none
# LUTr-Original-Grid: 33x33x33
# LUTr-Conversion-Grid: 33x33x33
# LUTr-Conversion-Interpolation: none
# LUTr-Conversion-Method: Metadata normalization; numeric LUT samples preserved
# LUTr-Conversion-Tool: LUTr scripts/convert-all-to-cube.mjs 2.0.0
# LUTr-Conversion-Date: 2026-07-28
# LUTr-Asset-URL: https://freshluts.com/luts/478
# LUTr-Author: Walden Creations
# LUTr-Author-URL: https://freshluts.com/users/33993
# LUTr-Attribution: Walden Creations via Fresh LUTs
# LUTr-Source-Labels: gamma=Other; color=Warm; key=High Key; style=Adventure; LUTr assumption=input Rec.709 per repository policy
# LUTr-Conversion-Warning: Input Rec.709 is a LUTr catalog assumption requested for this otherwise unspecified Fresh LUT; it is not verified by the upstream asset.
# LUTr-Note: Preserve this metadata and the upstream license notices when redistributing.
TITLE "light girl"
LUT_3D_SIZE 33
DOMAIN_MIN 0 0 0
DOMAIN_MAX 1 1 1
0 0 0
0 0 0
0 0 0
0.00366217 0 0
0.0214847 0 0
0.0419013 0 0
0.063859 0 0
0.0868544 0 0
0.110521 0 0
0.133623 0 0
0.158404 0 0
0.185031 0 0
0.213092 0 0
0.242283 0 0
0.272526 0 0
0.303639 0 0
0.335714 0 0
0.368765 0 0
0.403006 0 0
0.437385 0 0
0.471855 0 0
0.506783 0 0
0.541695 0 0
0.577249 0 0
0.61297 0 0
0.648264 0 0
0.682551 0 0
0.716152 0.00216678 0
0.749218 0.00627146 0
0.782513 0.0103761 0
0.815717 0.0148318 0
0.84918 0.0193027 0
0.882231 0.0240482 0
0 0 0
0 0 0
0 0 0
0.00567636 0 0
0.0235142 0 0
0.0436103 0 0
0.0650797 0 0
0.0872053 0 0
0.109316 0 0
0.134234 0 0
0.160616 0 0
0.188556 0 0
0.217914 0 0
0.248188 0 0
0.280034 0 0
0.311742 0 0
0.344152 0 0
0.376913 0 0
0.410208 0 0
0.444175 0 0
0.478401 0 0
0.513039 0.000488289 0
0.548241 0.00294499 0
0.583581 0.00561532 0
0.619089 0.00836194 0
0.654124 0.011429 0
0.688151 0.0149538 0
0.72166 0.0189364 0
0.75491 0.02327 0
0.787976 0.0276799 0
0.821454 0.0321202 0
0.8542 0.0365301 0
0.887556 0.0412451 0
0 0 0
0 0 0
0 0 0
0.007187 0 0
0.0249485 0 0
0.0446784 0 0
0.06421 0 0
0.086656 0 0
0.111543 0 0
0.137697 0 0
0.165881 0 0
0.19443 0 0
0.223926 0 0
0.254292 0 0
0.285023 0 0
0.31667 0.0000457771 0
0.348959 0.0019379 0
0.381643 0.00402838 0
0.414984 0.00619516 0
0.448814 0.00846876 0
0.483009 0.0108949 0
0.517815 0.0133516 0
0.552804 0.016022 0
0.587716 0.0185702 0
0.623377 0.0214694 0
0.658427 0.0247807 0
0.692515 0.0285039 0
0.725994 0.0327001 0
0.759075 0.0370336 0
0.792294 0.0413977 0
0.825269 0.0457465 0
0.858534 0.0504158 0
0.891508 0.055314 0.000717174
0 0 0
0 0 0
0 0 0
0.0100404 0.0015259 0
0.0268559 0.000595102 0
0.0467079 0.000885023 0
0.0688792 0.00196841 0
0.0926986 0.00297551 0
0.117769 0.00424201 0
0.144183 0.00576791 0
0.171908 0.00743114 0
0.200214 0.0091249 0
0.229572 0.0108949 0
0.259632 0.0127718 0
0.2907 0.0146944 0
0.322148 0.0168154 0
0.354452 0.0189364 0
0.387259 0.0212253 0
0.420615 0.0235752 0
0.454566 0.0260014 0
0.488746 0.0286107 0
0.523201 0.0313573 0
0.558389 0.0341039 0
0.593744 0.0370489 0
0.62948 0.0401007 0
0.664027 0.0434577 0
0.698085 0.047303 0
0.731517 0.0514839 0
0.764431 0.0559701 0
0.797772 0.0604257 0
0.830823 0.0651102 0
0.863722 0.0696269 0.0015259
0.896849 0.0745556 0.00610361
0 0.0118563 0
0 0.0114595 0
0 0.0116884 0
0.0116579 0.0134737 0
0.030045 0.0151675 0
0.0505531 0.0166781 0
0.0730449 0.0182498 0
0.097322 0.0198978 0
0.12285 0.0218814 0
0.149371 0.0237278 0
0.176928 0.0256352 0
0.205554 0.0276036 0
0.234867 0.0297246 0
0.265156 0.0318456 0
0.296178 0.0340581 0
0.327932 0.036347 0
0.360296 0.0386969 0
0.393072 0.0411994 0
0.426383 0.0437934 0
0.460395 0.0463874 0
0.494667 0.0491646 0
0.529549 0.0519722 0
0.564599 0.054963 0
0.599939 0.0581064 0
0.635538 0.0613413 0
0.670405 0.0650797 0
0.704067 0.0688029 0
0.73727 0.073167 0
0.770489 0.0776226 0
0.803464 0.0822919 0
0.836713 0.0870222 0.00299077
0.869612 0.091722 0.0074464
0.902495 0.0967117 0.0117952
0 0.0255131 0
0 0.0269017 0
0 0.0287938 0
0.0142519 0.031342 0
0.033051 0.0333867 0
0.0542 0.0353857 0
0.0772259 0.0377356 0
0.101717 0.0397498 0
0.127306 0.0418708 0
0.15407 0.0440375 0
0.182071 0.0461891 0
0.210727 0.0484779 0
0.24033 0.0508125 0
0.270695 0.053193 0
0.301885 0.0556191 0
0.333867 0.0582437 0
0.366064 0.0607614 0
0.398947 0.0634165 0
0.43267 0.0660868 0
0.466575 0.0689403 0
0.500999 0.07187 0
0.535698 0.0749371 0
0.57084 0.0781109 0
0.6065 0.0813153 0
0.642084 0.0848249 0
0.676493 0.088365 0
0.710185 0.0925307 0
0.743496 0.0969253 0
0.77641 0.101579 0.000549325
0.809583 0.10631 0.00462348
0.842664 0.111055 0.0091249
0.87541 0.115908 0.0132906
0.908721 0.120943 0.018204
0 0.0445106 0
0 0.0463569 0
0.000946059 0.0488899 0
0.0171054 0.051667 0
0.0364233 0.054078 0
0.0580148 0.0564431 0
0.0815137 0.0590219 0
0.106126 0.0614176 0
0.132174 0.0637522 0
0.159075 0.0662089 0
0.186969 0.0687266 0
0.216114 0.0711528 0
0.245823 0.0737163 0
0.27631 0.0763409 0
0.307607 0.0789807 0
0.339559 0.0816815 0
0.372183 0.0844282 0
0.405188 0.0872969 0
0.438697 0.0902571 0
0.472892 0.0932174 0
0.507332 0.0963607 0
0.542367 0.0995346 0
0.5776 0.102861 0
0.61294 0.106386 0
0.648417 0.109697 0
0.682795 0.113573 0
0.716442 0.117861 0
0.749554 0.122454 0.00225834
0.782681 0.127123 0.00660716
0.815473 0.131701 0.0106813
0.848661 0.136629 0.0151522
0.881743 0.141711 0.0198062
0.914885 0.146899 0.0245823
0 0.0658122 0
0 0.0683909 0
0.0034638 0.0714122 0
0.0202792 0.0740673 0
0.0400244 0.0767224 0
0.0619211 0.0793164 0
0.0857862 0.0821698 0
0.110613 0.0848249 0
0.136706 0.08748 0
0.164096 0.0900587 0
0.192309 0.0927596 0
0.221225 0.0955367 0
0.251392 0.0982071 0
0.281926 0.101061 0
0.313405 0.103883 0
0.34551 0.106752 0
0.378042 0.109758 0
0.411322 0.112749 0
0.444938 0.115877 0
0.47924 0.119036 0
0.513802 0.122347 0
0.548653 0.125658 0
0.584039 0.128969 0
0.619471 0.132433 0
0.655024 0.136065 0
0.689128 0.140215 0.00062562
0.72285 0.144594 0.00434882
0.755611 0.149187 0.00834669
0.788724 0.153811 0.0126345
0.821714 0.158785 0.016907
0.855009 0.163775 0.0216373
0.887892 0.168933 0.026154
0.920729 0.174029 0.0308232
0 0.0892042 0
0 0.0924849 0
0.00643931 0.095201 0
0.0239261 0.098146 0
0.0440223 0.100984 0
0.0660105 0.103853 0
0.0897231 0.106767 0
0.115419 0.109712 0
0.141726 0.112566 0
0.168978 0.11548 0
0.197498 0.118303 0
0.226795 0.121218 0
0.256916 0.124132 0
0.287816 0.127108 0
0.319234 0.130175 0
0.351461 0.133211 0
0.384329 0.136324 0
0.417746 0.139498 0
0.451423 0.142733 0
0.485481 0.145907 0
0.520317 0.149371 0
0.555291 0.15288 0
0.590631 0.156405 0
0.626062 0.160052 0
0.661463 0.163806 0.00308232
0.695384 0.167803 0.00613413
0.728801 0.172335 0.0103151
0.761883 0.177157 0.0142824
0.794919 0.182055 0.0188907
0.828061 0.186984 0.0233463
0.860945 0.191928 0.0277562
0.894011 0.197177 0.032639
0.927153 0.202548 0.0375219
0 0.114366 0
0 0.11812 0
0.00958267 0.120638 0
0.0275883 0.123796 0
0.0480201 0.126787 0
0.0704814 0.129778 0
0.0944991 0.132769 0
0.11986 0.135775 0
0.146365 0.138811 0
0.174014 0.141833 0
0.202869 0.145129 0
0.232197 0.148196 0
0.262592 0.151141 0
0.293294 0.154208 0
0.325139 0.157488 0
0.357412 0.160601 0
0.390219 0.163958 0
0.423758 0.167285 0
0.457618 0.170764 0
0.492119 0.174289 0
0.526833 0.177813 0
0.561868 0.181415 0
0.597223 0.184863 0.00247196
0.632563 0.188449 0.00517281
0.667613 0.192416 0.00857557
0.70164 0.196796 0.0122988
0.735119 0.201465 0.0163729
0.767803 0.206104 0.0204623
0.801022 0.211078 0.0249027
0.834073 0.216205 0.0295415
0.867262 0.221378 0.0345159
0.900145 0.226673 0.0390936
0.93312 0.231907 0.0441596
0 0.140841 0
0.000640879 0.144991 0
0.0133364 0.147494 0
0.0314183 0.150469 0
0.0523842 0.153841 0
0.0748913 0.157061 0
0.0991989 0.160174 0
0.124697 0.163363 0
0.151385 0.166567 0
0.179355 0.169696 0
0.208103 0.172915 0
0.237629 0.176181 0
0.268147 0.1794 0
0.299229 0.182742 0
0.331212 0.186038 0
0.363546 0.189502 0
0.396597 0.19295 0
0.430228 0.196506 0
0.464057 0.199878 0
0.498512 0.203342 0
0.533089 0.207019 0.00205997
0.568307 0.21062 0.00511177
0.603662 0.214389 0.00784314
0.639338 0.218143 0.0111696
0.674052 0.22211 0.014435
0.707866 0.226505 0.018265
0.741146 0.231312 0.0224918
0.774166 0.236301 0.0268864
0.807248 0.241352 0.0314794
0.839994 0.246357 0.0358282
0.873259 0.251606 0.0407416
0.906142 0.257069 0.0457771
0.93933 0.262531 0.0508125
0 0.169039 0
0.00407416 0.172885 0
0.0173037 0.175586 0
0.0355077 0.178714 0
0.0564584 0.181949 0
0.0794232 0.185168 0
0.103914 0.188449 0
0.12961 0.191791 0
0.156725 0.195102 0
0.184894 0.198688 0
0.213565 0.20209 0
0.243427 0.205295 0
0.273671 0.208637 0
0.305211 0.2121 0
0.337041 0.215579 0
0.369528 0.219181 0
0.402991 0.222736 0
0.436484 0.226368 0
0.470665 0.229969 0.00190738
0.505028 0.233661 0.00469978
0.539971 0.237308 0.00776684
0.574792 0.240818 0.0102846
0.61001 0.244694 0.0135195
0.64564 0.248585 0.0166934
0.680339 0.252857 0.020325
0.714214 0.25745 0.024506
0.747066 0.262119 0.0284428
0.780255 0.26714 0.0331884
0.813184 0.272374 0.037644
0.84651 0.277546 0.0426032
0.879149 0.28275 0.0470436
0.912215 0.288212 0.0523384
0.945388 0.293782 0.0572976
0 0.198291 0
0.00799573 0.202106 0
0.0212558 0.204578 0
0.0397192 0.207767 0
0.0611582 0.211337 0
0.0843214 0.21471 0
0.108827 0.218158 0
0.134905 0.221546 0
0.161959 0.225025 0
0.190066 0.228519 0
0.219318 0.231952 0
0.249058 0.235554 0
0.280018 0.239063 0
0.311284 0.24271 0
0.343389 0.246433 0
0.376242 0.250019 0
0.409049 0.253468 0.00125124
0.442802 0.257099 0.00418097
0.476814 0.260838 0.00704967
0.511452 0.264546 0.00994888
0.546227 0.26836 0.0130159
0.581552 0.272145 0.0163729
0.616815 0.275914 0.0192111
0.651911 0.279881 0.0225528
0.686641 0.284245 0.0262913
0.720272 0.288991 0.0304875
0.753475 0.293965 0.035172
0.786145 0.298894 0.0393072
0.819348 0.304082 0.0442664
0.852399 0.309468 0.0488899
0.885252 0.314672 0.0538949
0.918257 0.320195 0.0587015
0.951446 0.32578 0.0641184
0 0.228733 0
0.011902 0.23212 0
0.0254978 0.234699 0
0.0443885 0.238117 0
0.0657816 0.24152 0
0.0889296 0.24506 0
0.113909 0.248524 0
0.140093 0.252064 0
0.167254 0.25568 0
0.195575 0.259281 0
0.224826 0.262943 0
0.255116 0.266529 0
0.285817 0.270314 0
0.317632 0.273976 0
0.349645 0.277729 0.00112917
0.382254 0.281514 0.00363165
0.415564 0.285191 0.00666819
0.449165 0.28896 0.00949111
0.483192 0.29247 0.0123293
0.517647 0.296315 0.0154269
0.552697 0.300145 0.0185702
0.587854 0.304097 0.0218357
0.623484 0.308019 0.0253452
0.658595 0.311955 0.0284733
0.692851 0.316442 0.0324559
0.726406 0.321309 0.0366827
0.759533 0.32639 0.0413062
0.792248 0.33138 0.0458076
0.825422 0.336629 0.0505684
0.858442 0.342031 0.0556497
0.891615 0.347524 0.0605783
0.924285 0.352895 0.0655833
0.957321 0.358618 0.0706188
0.000228885 0.259709 0
0.0160525 0.263127 0
0.030045 0.265888 0
0.0490578 0.269154 0
0.070573 0.272663 0
0.0941024 0.276234 0
0.119081 0.279973 0
0.14551 0.283619 0
0.172869 0.287297 0
0.201648 0.291157 0
0.230701 0.294835 0
0.260929 0.298604 0
0.291875 0.302358 0.000396735
0.323537 0.306127 0.00283818
0.35581 0.309865 0.00590524
0.388495 0.31368 0.00885023
0.421881 0.317479 0.0115816
0.455756 0.321279 0.0148623
0.489845 0.325154 0.0179141
0.52433 0.328756 0.0209354
0.559197 0.332723 0.0242466
0.594568 0.33669 0.0275731
0.629801 0.34081 0.0310826
0.665171 0.344991 0.0349584
0.699062 0.349386 0.038529
0.732479 0.35433 0.0431983
0.76553 0.359533 0.0476081
0.798627 0.364767 0.0526131
0.831403 0.369894 0.0569772
0.864485 0.375341 0.062211
0.897505 0.380926 0.0670787
0.930297 0.386282 0.0722515
0.9635 0.392004 0.0775311
0.00407416 0.291707 0
0.0208133 0.295277 0
0.0346075 0.297826 0
0.0537575 0.301183 0
0.075761 0.304799 0
0.0995346 0.308644 0
0.124636 0.312459 0
0.15108 0.316243 0
0.17879 0.320012 0
0.207431 0.323934 0
0.23711 0.327688 0
0.267201 0.331579 0.0021973
0.298146 0.335119 0.00494392
0.329671 0.338918 0.00794995
0.361868 0.342809 0.0107424
0.394949 0.346578 0.0139925
0.428199 0.350484 0.0171664
0.462135 0.35436 0.020325
0.4963 0.358312 0.0236057
0.530846 0.36202 0.0267338
0.565713 0.366018 0.0300298
0.601129 0.370016 0.0336919
0.636545 0.374182 0.0370031
0.671504 0.378546 0.041062
0.705257 0.383032 0.0448463
0.738567 0.388098 0.0493019
0.771572 0.393317 0.0542763
0.804623 0.398672 0.0588846
0.837446 0.403769 0.0637675
0.870573 0.409293 0.0686656
0.903487 0.414923 0.0740063
0.936324 0.420325 0.0789349
0.969512 0.426062 0.0842756
0.00886549 0.324712 0
0.0253758 0.328099 0
0.0394293 0.330648 0
0.0590066 0.33431 0
0.0810407 0.337987 0
0.104921 0.341711 0
0.13019 0.345571 0
0.156939 0.349493 0
0.184695 0.353323 0
0.213321 0.357244 0.00108339
0.242954 0.361074 0.0040589
0.273274 0.36495 0.00721752
0.304341 0.368841 0.0100862
0.335866 0.372442 0.013077
0.368277 0.376318 0.0162051
0.401282 0.380224 0.0193942
0.434577 0.384192 0.0226596
0.468452 0.388159 0.0260777
0.5028 0.392157 0.0293278
0.537285 0.396094 0.0326543
0.572259 0.399954 0.0360723
0.607523 0.404105 0.0394751
0.643091 0.408225 0.0433356
0.677836 0.412757 0.0470436
0.711452 0.417304 0.0513466
0.744686 0.422461 0.0557107
0.77763 0.427726 0.0607614
0.810468 0.432944 0.0652171
0.843626 0.438254 0.0703441
0.876478 0.443854 0.0755016
0.909468 0.449516 0.080705
0.942245 0.454978 0.0857404
0.975509 0.4607 0.0910658
0.0135195 0.358373 0
0.0302129 0.361776 0
0.0446632 0.364279 0
0.0644388 0.367971 0
0.0864424 0.371771 0
0.110719 0.37557 0
0.136126 0.379446 0
0.162768 0.383383 0
0.190723 0.387228 0.00294499
0.21944 0.39115 0.00601205
0.24889 0.395132 0.00907912
0.279561 0.398993 0.0122377
0.310536 0.402975 0.0154726
0.342458 0.406683 0.0185397
0.374624 0.410574 0.0216678
0.40766 0.414511 0.0251926
0.441032 0.418555 0.0283207
0.474937 0.422583 0.0317235
0.509438 0.426566 0.0353857
0.543923 0.430579 0.0385443
0.578866 0.434501 0.0421759
0.61416 0.438712 0.0455634
0.649683 0.442908 0.0495003
0.684215 0.447486 0.0534371
0.717662 0.452186 0.0577401
0.750774 0.457389 0.0624552
0.783886 0.462684 0.0672618
0.816434 0.467872 0.0720073
0.849699 0.47332 0.076997
0.882475 0.478965 0.0822156
0.915373 0.484398 0.0872358
0.948226 0.490135 0.092546
0.981506 0.495872 0.0978866
0.0184787 0.392782 0
0.0355535 0.396155 0
0.0499428 0.398795 0
0.0699474 0.402533 0
0.0922103 0.406256 0
0.116335 0.410071 0
0.141863 0.413962 0.00164797
0.168597 0.417914 0.00476081
0.196628 0.42179 0.0080415
0.225498 0.425772 0.0110781
0.255131 0.429755 0.0143282
0.28574 0.433692 0.0177462
0.31693 0.437568 0.020737
0.348775 0.441459 0.0242313
0.381033 0.445426 0.0272831
0.41413 0.449409 0.0309148
0.447761 0.453422 0.0343175
0.481651 0.457542 0.037583
0.516136 0.461585 0.0413214
0.55053 0.465461 0.0445869
0.585733 0.469581 0.0482338
0.620798 0.473869 0.0519875
0.656275 0.478157 0.0557717
0.690379 0.482612 0.0597391
0.724056 0.487556 0.0641794
0.756878 0.492866 0.0690318
0.78996 0.498177 0.0741436
0.822507 0.50341 0.0786908
0.855726 0.508873 0.0839857
0.888487 0.51458 0.0890059
0.921324 0.519936 0.0942397
0.954253 0.52575 0.0994278
0.987518 0.531502 0.105013
0.0238193 0.427939 0
0.0409094 0.431296 0
0.0554208 0.43386 0
0.0754711 0.437613 0
0.0978714 0.441321 0.000350958
0.122133 0.445136 0.00367742
0.147723 0.449088 0.00675975
0.174624 0.45304 0.00985733
0.202701 0.456977 0.0133364
0.231632 0.460975 0.0166171
0.261494 0.464988 0.0197757
0.292042 0.468986 0.0233463
0.323156 0.47277 0.0263218
0.355123 0.476753 0.0298619
0.387686 0.480797 0.0332952
0.42089 0.48481 0.036759
0.454353 0.48893 0.0402838
0.488411 0.493019 0.044007
0.522576 0.496941 0.0471962
0.557321 0.501045 0.0509041
0.592447 0.505241 0.0544594
0.627802 0.509468 0.05832
0.662791 0.51371 0.0620737
0.696803 0.518395 0.0663005
0.730236 0.523461 0.0710307
0.763134 0.528801 0.0756542
0.795804 0.533898 0.0806134
0.828824 0.539376 0.0854353
0.861769 0.544915 0.0907912
0.894453 0.550301 0.0956893
0.927321 0.556008 0.101106
0.960388 0.561761 0.106477
0.993393 0.567254 0.111604
0.0291142 0.46363 0
0.0464332 0.466926 0
0.0611276 0.469459 0
0.0813306 0.473198 0.00254826
0.103655 0.476997 0.00541695
0.128099 0.480781 0.00881972
0.153903 0.484718 0.0121004
0.18085 0.488731 0.0153658
0.209079 0.492683 0.0187686
0.237873 0.496757 0.0222171
0.267857 0.500618 0.0256046
0.298512 0.504646 0.0288853
0.329671 0.508583 0.0323491
0.361639 0.512657 0.0359045
0.394324 0.516732 0.0392462
0.427512 0.52079 0.0430152
0.461036 0.524956 0.0463722
0.494896 0.528771 0.049958
0.529259 0.532967 0.0534829
0.564172 0.537102 0.0572824
0.599207 0.54136 0.0610666
0.634653 0.545602 0.0648356
0.669291 0.549828 0.0686046
0.703227 0.554696 0.0730144
0.736461 0.559838 0.0777447
0.769253 0.564843 0.082475
0.801938 0.570321 0.0874037
0.835111 0.575738 0.0926833
0.867704 0.581231 0.0975357
0.900603 0.586694 0.102892
0.933303 0.592462 0.108019
0.966125 0.597879 0.113359
0.999207 0.603494 0.118364
0.034699 0.499718 0
0.0523384 0.503059 0.00247196
0.0668193 0.505669 0.00468452
0.0868544 0.509133 0.00759899
0.109865 0.513069 0.0112154
0.134249 0.516976 0.0142977
0.160021 0.520958 0.0176547
0.187182 0.524834 0.02121
0.215381 0.528954 0.0245823
0.244297 0.53283 0.0277714
0.274144 0.536782 0.0314183
0.304906 0.540856 0.0348974
0.33637 0.544915 0.038468
0.36849 0.548989 0.0420081
0.401205 0.553094 0.0455634
0.434256 0.557244 0.0492103
0.467613 0.561181 0.0527047
0.501701 0.56527 0.05626
0.53608 0.569482 0.0599985
0.571008 0.573663 0.0637064
0.605966 0.577844 0.0674449
0.641169 0.581918 0.0713359
0.675883 0.586511 0.0752575
0.709789 0.591363 0.079942
0.742458 0.596353 0.0842756
0.775448 0.601633 0.0894331
0.808118 0.607141 0.0942855
0.841031 0.612314 0.0993668
0.873762 0.617823 0.104326
0.906493 0.623362 0.109712
0.938979 0.628656 0.114748
0.971633 0.634012 0.119738
1 0.639139 0.124605
0.0403296 0.536202 0.00515755
0.0580911 0.539773 0.00827039
0.072694 0.542367 0.0104677
0.092958 0.545785 0.0133669
0.115755 0.549493 0.0166171
0.140139 0.553414 0.0200046
0.166094 0.557382 0.02327
0.193332 0.561379 0.0268711
0.221546 0.565423 0.030396
0.250904 0.569421 0.0340734
0.280903 0.573526 0.0374456
0.311742 0.577585 0.0412604
0.343099 0.581765 0.0446479
0.375341 0.585809 0.0483406
0.40795 0.589899 0.052079
0.440818 0.593866 0.0552987
0.474693 0.59794 0.0591745
0.508812 0.602136 0.0626535
0.543389 0.606287 0.0666209
0.578042 0.610483 0.0704051
0.612894 0.614542 0.0740368
0.648051 0.618891 0.0779889
0.682704 0.623484 0.0822003
0.715984 0.628199 0.0865339
0.748989 0.633402 0.0914015
0.781735 0.638743 0.0964218
0.814557 0.64387 0.101335
0.847074 0.64918 0.106264
0.87982 0.654429 0.111498
0.911803 0.65948 0.11603
0.944045 0.664424 0.12105
0.976471 0.669398 0.125612
1 0.673823 0.13022
0.0461738 0.573434 0.0109712
0.0637675 0.576699 0.0138399
0.0791028 0.579431 0.016495
0.0993515 0.582879 0.0195163
0.121996 0.586679 0.0225681
0.146532 0.590585 0.0260471
0.172778 0.594476 0.0296483
0.199832 0.598566 0.0330816
0.228321 0.602564 0.0367437
0.257557 0.606638 0.0403449
0.287816 0.610697 0.0438392
0.318517 0.614816 0.0475624
0.350072 0.618891 0.0511788
0.382147 0.622843 0.0546731
0.414664 0.626917 0.0583352
0.448157 0.630991 0.0620432
0.481834 0.635172 0.0657664
0.51606 0.639292 0.0697795
0.550256 0.643259 0.0731212
0.585214 0.64744 0.0771954
0.620295 0.651713 0.0809033
0.65539 0.656062 0.0852064
0.689387 0.660456 0.0893263
0.722988 0.665324 0.0940414
0.755871 0.67042 0.0990005
0.788327 0.675319 0.103777
0.82089 0.680278 0.108675
0.85333 0.68513 0.11342
0.885359 0.689754 0.118029
0.917479 0.694499 0.122744
0.949554 0.699123 0.127413
0.981613 0.703441 0.131823
1 0.707958 0.136492
0.05243 0.611002 0.017319
0.0703441 0.614206 0.0200961
0.0852979 0.616999 0.0225986
0.105699 0.620493 0.0256962
0.128588 0.624186 0.029221
0.153445 0.628046 0.0324254
0.179507 0.632029 0.035996
0.206989 0.635981 0.0397803
0.235294 0.640085 0.0431983
0.264652 0.644129 0.0470588
0.294881 0.648188 0.050782
0.325444 0.652064 0.0540017
0.357259 0.656092 0.0579385
0.38941 0.660227 0.0616465
0.422538 0.66424 0.0655375
0.455817 0.66836 0.0694591
0.489509 0.67219 0.0730755
0.523705 0.676326 0.0770733
0.55845 0.68043 0.0811933
0.593362 0.684627 0.085069
0.628641 0.68867 0.0892653
0.663447 0.692729 0.0930037
0.697444 0.697292 0.0977646
0.730632 0.701976 0.102266
0.763027 0.706294 0.106905
0.795193 0.711025 0.111543
0.827695 0.715541 0.11632
0.859419 0.719799 0.120623
0.891585 0.724224 0.125277
0.923354 0.72871 0.129915
0.95523 0.732754 0.134203
0.987228 0.737087 0.138766
1 0.741268 0.143236
0.0589456 0.648692 0.0239414
0.0770123 0.652079 0.0270695
0.0918898 0.654643 0.0292515
0.112581 0.657969 0.0324865
0.135714 0.661646 0.0359197
0.16051 0.665522 0.0395514
0.186908 0.669367 0.0431525
0.214466 0.673442 0.0469673
0.243107 0.677287 0.0508431
0.27245 0.681376 0.0544747
0.302846 0.685389 0.0583963
0.334112 0.689387 0.0622263
0.365774 0.693462 0.0660868
0.398306 0.697459 0.0702525
0.431312 0.701473 0.0739452
0.464668 0.705257 0.0779583
0.498543 0.709346 0.0820478
0.532998 0.713375 0.0860609
0.56759 0.717403 0.090135
0.602441 0.721126 0.0938888
0.637491 0.725093 0.0979629
0.67219 0.728954 0.1019
0.705425 0.732845 0.105974
0.738064 0.737118 0.110674
0.77023 0.741421 0.114916
0.802213 0.745525 0.119478
0.834089 0.749691 0.123629
0.866148 0.753826 0.128252
0.897566 0.7579 0.132342
0.929458 0.76202 0.137011
0.961196 0.766247 0.141314
0.993057 0.770108 0.145769
1 0.774319 0.150088
0.0667887 0.686427 0.0319677
0.0849928 0.689509 0.0351568
0.100481 0.692241 0.0377966
0.120958 0.695644 0.0408637
0.144411 0.699199 0.0445106
0.169329 0.702998 0.0482338
0.195727 0.706905 0.051957
0.223545 0.710781 0.0558328
0.252232 0.714733 0.0597238
0.282078 0.718654 0.0636149
0.312383 0.722713 0.0676127
0.343664 0.72668 0.0716106
0.375341 0.730404 0.0753338
0.407965 0.734371 0.0793927
0.441077 0.738323 0.0836805
0.47451 0.742321 0.0875105
0.508537 0.746212 0.0917678
0.542504 0.749874 0.0953078
0.57702 0.753521 0.0993362
0.611566 0.757076 0.102876
0.646296 0.760479 0.106676
0.68014 0.763928 0.110369
0.713237 0.767666 0.114321
0.745312 0.77171 0.118654
0.777111 0.775479 0.122667
0.808896 0.779461 0.126955
0.840757 0.78349 0.131258
0.872251 0.787305 0.135409
0.903883 0.791363 0.139773
0.9355 0.795407 0.144198
0.967163 0.799344 0.148592
0.999115 0.803464 0.153002
1 0.80734 0.157336
0.076112 0.724117 0.0415045
0.0942855 0.727214 0.0445869
0.109773 0.729564 0.0471656
0.130541 0.732967 0.0505531
0.15404 0.736782 0.0540932
0.179248 0.740475 0.0580453
0.205737 0.74432 0.0619059
0.233433 0.74818 0.0655375
0.26244 0.752056 0.0697032
