site/assets/luts/freshluts--0000934-picturefx-faux-infrared-yp-set-strength-or-opacity-to-taste-.cube
# LUTr-Schema-Version: 2
# LUTr-ID: freshluts--0000934-picturefx-faux-infrared-yp-set-strength-or-opacity-to-taste-
# LUTr-Title: PictureFX Faux Infrared YP - set strength or opacity to taste - sample set @ 80%
# LUTr-Collection: Fresh LUTs
# LUTr-Collection-ID: freshluts-community
# LUTr-Source: https://freshluts.com
# LUTr-Retrieved: 2026-07-27
# LUTr-Source-File: submissions-raw/freshluts/cubes/934__PictureFX-Faux-Infrared-YP-N125.cube
# LUTr-Source-Format: CUBE
# LUTr-Source-SHA256: 194abb93ca02bc006254fe89d176086f9e326092369fbd0982e3a8de3b00872d
# LUTr-License: CC0-1.0
# LUTr-License-URL: https://freshluts.com/termsandconditions
# LUTr-License-Basis: site-terms
# LUTr-Transform-Class: creative-look
# LUTr-Tags: creative, freshluts, community, cube, film-emulation
# LUTr-Input-Color-Space:
# LUTr-Input-Gamut: unspecified
# LUTr-Input-Transfer: unspecified
# LUTr-Output-Color-Space: srgb
# LUTr-Output-Gamut: rec709
# LUTr-Output-Transfer: srgb
# LUTr-Color-Space-Confidence: camera-profile-input-required
# LUTr-Domain-Normalized: true
# LUTr-Shaper: none
# LUTr-Original-Grid: 25x25x25
# LUTr-Conversion-Grid: 25x25x25
# LUTr-Conversion-Interpolation: none
# LUTr-Conversion-Method: Metadata normalization; numeric LUT samples preserved
# LUTr-Conversion-Tool: LUTr scripts/convert-all-to-cube.mjs 2.0.0
# LUTr-Conversion-Date: 2026-07-28
# LUTr-Asset-URL: https://freshluts.com/luts/934
# LUTr-Author: MarcR.
# LUTr-Author-URL: https://freshluts.com/users/86490
# LUTr-Attribution: MarcR. via Fresh LUTs
# LUTr-Source-Labels: gamma=Other; color=None; key=Neutral; style=Film emulation
# LUTr-Note: Preserve this metadata and the upstream license notices when redistributing.
# LUTr-Upstream-Comment: Generated with IWLTBAP LUT Generator
# LUTr-Upstream-Comment: Website: http://luts.iwltbap.com
# LUTr-Upstream-Comment: LUT size
# LUTr-Upstream-Comment: LUT data points
TITLE "PictureFX Faux Infrared YP - set strength or opacity to taste - sample set @ 80%"
LUT_3D_SIZE 9
DOMAIN_MIN 0 0 0
DOMAIN_MAX 1 1 1
0 0 0
0.368627 0.270588 0.070588
0.678431 0.494118 0.105882
0.968627 0.713725 0.12549
1 0.894118 0.176471
1 0.929412 0.317647
1 0.941176 0.431373
1 0.945098 0.466667
1 0.945098 0.466667
0.207843 0.027451 0.098039
0.443137 0.168627 0.152941
0.717647 0.454902 0.160784
0.988235 0.694118 0.168627
1 0.882353 0.2
1 0.921569 0.32549
1 0.937255 0.435294
1 0.945098 0.466667
1 0.945098 0.466667
0.380392 0.070588 0.172549
0.541176 0.109804 0.215686
0.796078 0.337255 0.25098
1 0.635294 0.247059
1 0.85098 0.258824
1 0.905882 0.352941
1 0.933333 0.447059
1 0.941176 0.47451
1 0.941176 0.47451
0.552941 0.109804 0.243137
0.662745 0.137255 0.270588
0.890196 0.192157 0.329412
1 0.501961 0.34902
1 0.784314 0.337255
1 0.878431 0.388235
1 0.92549 0.462745
1 0.937255 0.490196
1 0.937255 0.490196
0.72549 0.152941 0.313725
0.807843 0.172549 0.333333
0.984314 0.215686 0.380392
1 0.266667 0.447059
1 0.654902 0.427451
1 0.843137 0.435294
1 0.921569 0.486275
1 0.937255 0.505882
1 0.937255 0.505882
0.894118 0.192157 0.384314
0.956863 0.207843 0.396078
1 0.239216 0.435294
1 0.282353 0.490196
1 0.309804 0.513725
1 0.780392 0.466667
1 0.921569 0.505882
1 0.941176 0.521569
1 0.941176 0.521569
1 0.231373 0.45098
1 0.239216 0.462745
1 0.266667 0.494118
1 0.298039 0.537255
1 0.301961 0.52549
1 0.482353 0.498039
1 0.890196 0.505882
1 0.956863 0.537255
1 0.956863 0.537255
1 0.262745 0.517647
1 0.270588 0.52549
1 0.286275 0.54902
1 0.298039 0.552941
1 0.301961 0.537255
1 0.301961 0.521569
1 0.647059 0.494118
1 0.803922 0.498039
1 0.803922 0.498039
1 0.290196 0.580392
1 0.294118 0.584314
1 0.298039 0.576471
1 0.298039 0.560784
1 0.298039 0.545098
1 0.301961 0.529412
1 0.301961 0.517647
1 0.301961 0.513725
1 0.301961 0.513725
0 0.137255 0.094118
0.239216 0.309804 0.109804
0.619608 0.505882 0.113725
0.937255 0.717647 0.129412
1 0.898039 0.184314
1 0.933333 0.321569
1 0.941176 0.435294
1 0.94902 0.466667
1 0.94902 0.466667
0.058824 0.078431 0.160784
0.313725 0.2 0.160784
0.654902 0.466667 0.164706
0.956863 0.698039 0.172549
1 0.886275 0.207843
1 0.92549 0.329412
1 0.941176 0.439216
1 0.945098 0.470588
1 0.945098 0.470588
0.247059 0.094118 0.207843
0.454902 0.086275 0.231373
0.745098 0.352941 0.254902
1 0.643137 0.25098
1 0.854902 0.262745
1 0.909804 0.352941
1 0.937255 0.45098
1 0.945098 0.478431
1 0.945098 0.478431
0.470588 0.090196 0.262745
0.6 0.121569 0.282353
0.85098 0.184314 0.341176
1 0.509804 0.352941
1 0.792157 0.341176
1 0.886275 0.392157
1 0.929412 0.466667
1 0.941176 0.490196
1 0.941176 0.490196
0.670588 0.137255 0.32549
0.760784 0.160784 0.341176
0.952941 0.207843 0.388235
1 0.262745 0.454902
1 0.662745 0.431373
1 0.85098 0.435294
1 0.921569 0.486275
1 0.937255 0.505882
1 0.937255 0.505882
0.858824 0.184314 0.392157
0.921569 0.2 0.403922
1 0.235294 0.443137
1 0.278431 0.498039
1 0.329412 0.521569
1 0.784314 0.466667
1 0.921569 0.509804
1 0.945098 0.52549
1 0.945098 0.52549
1 0.223529 0.458824
1 0.235294 0.470588
1 0.258824 0.498039
1 0.294118 0.541176
1 0.301961 0.533333
1 0.494118 0.501961
1 0.894118 0.509804
1 0.956863 0.537255
1 0.956863 0.537255
1 0.258824 0.52549
1 0.266667 0.533333
1 0.286275 0.552941
1 0.298039 0.560784
1 0.298039 0.541176
1 0.301961 0.52549
1 0.654902 0.498039
1 0.807843 0.501961
1 0.807843 0.501961
1 0.286275 0.584314
1 0.290196 0.588235
1 0.298039 0.588235
1 0.298039 0.568627
1 0.298039 0.54902
1 0.301961 0.533333
1 0.301961 0.521569
1 0.301961 0.517647
1 0.301961 0.517647
0 0.25098 0.156863
0 0.376471 0.164706
0.498039 0.556863 0.164706
0.87451 0.737255 0.160784
1 0.901961 0.2
1 0.945098 0.32549
1 0.94902 0.439216
1 0.94902 0.47451
1 0.94902 0.47451
0.117647 0.133333 0.227451
0 0.301961 0.207843
0.521569 0.505882 0.192157
0.886275 0.709804 0.188235
1 0.890196 0.223529
1 0.941176 0.337255
1 0.945098 0.443137
1 0.94902 0.478431
1 0.94902 0.478431
0.152941 0.156863 0.266667
0.215686 0.172549 0.294118
0.611765 0.380392 0.266667
0.937255 0.654902 0.258824
1 0.862745 0.270588
1 0.921569 0.360784
1 0.941176 0.454902
1 0.945098 0.486275
1 0.945098 0.486275
0.266667 0.188235 0.317647
0.454902 0.152941 0.32549
0.752941 0.156863 0.360784
1 0.529412 0.356863
1 0.8 0.345098
1 0.894118 0.396078
1 0.933333 0.470588
1 0.945098 0.498039
1 0.945098 0.498039
0.545098 0.164706 0.356863
0.643137 0.129412 0.368627
0.878431 0.188235 0.407843
1 0.25098 0.466667
1 0.678431 0.439216
1 0.858824 0.439216
1 0.929412 0.490196
1 0.945098 0.513725
1 0.945098 0.513725
0.760784 0.156863 0.411765
0.839216 0.176471 0.423529
1 0.219608 0.458824
1 0.266667 0.509804
1 0.372549 0.533333
1 0.796078 0.47451
1 0.929412 0.513725
1 0.94902 0.529412
1 0.94902 0.529412
0.956863 0.203922 0.47451
1 0.219608 0.486275
1 0.247059 0.509804
1 0.286275 0.552941
1 0.298039 0.552941
1 0.517647 0.509804
1 0.898039 0.513725
1 0.956863 0.537255
1 0.956863 0.537255
1 0.247059 0.537255
1 0.254902 0.545098
1 0.27451 0.564706
1 0.298039 0.584314
1 0.298039 0.556863
1 0.301961 0.537255
1 0.670588 0.501961
1 0.819608 0.501961
1 0.819608 0.501961
1 0.278431 0.592157
1 0.282353 0.6
1 0.298039 0.607843
1 0.298039 0.584314
1 0.298039 0.564706
1 0.298039 0.545098
1 0.301961 0.529412
1 0.333333 0.52549
1 0.333333 0.52549
0 0.360784 0.215686
0 0.45098 0.219608
0 0.627451 0.227451
0.752941 0.784314 0.223529
1 0.92549 0.243137
1 0.964706 0.341176
1 0.956863 0.45098
1 0.956863 0.482353
1 0.956863 0.482353
0.090196 0.301961 0.258824
0 0.392157 0.25098
0.07451 0.584314 0.25098
0.768627 0.756863 0.239216
1 0.909804 0.254902
1 0.960784 0.345098
1 0.952941 0.454902
1 0.952941 0.486275
1 0.952941 0.486275
0.207843 0.203922 0.329412
0.219608 0.235294 0.345098
0.32549 0.470588 0.305882
0.803922 0.686275 0.282353
1 0.87451 0.286275
1 0.945098 0.368627
1 0.94902 0.466667
1 0.952941 0.494118
1 0.952941 0.494118
0.243137 0.235294 0.372549
0.258824 0.247059 0.388235
0.568627 0.215686 0.415686
0.901961 0.560784 0.368627
1 0.815686 0.356863
1 0.913725 0.403922
1 0.941176 0.482353
1 0.94902 0.505882
1 0.94902 0.505882
0.290196 0.27451 0.423529
0.443137 0.258824 0.431373
0.721569 0.2 0.447059
1 0.258824 0.486275
1 0.701961 0.447059
1 0.878431 0.45098
1 0.937255 0.501961
1 0.94902 0.521569
1 0.94902 0.521569
0.6 0.258824 0.462745
0.690196 0.239216 0.470588
0.882353 0.184314 0.486275
1 0.247059 0.529412
1 0.427451 0.560784
1 0.815686 0.482353
1 0.937255 0.517647
1 0.956863 0.533333
1 0.956863 0.533333
0.835294 0.231373 0.509804
0.894118 0.207843 0.513725
1 0.223529 0.533333
1 0.270588 0.568627
1 0.298039 0.584314
1 0.560784 0.521569
1 0.913725 0.517647
1 0.956863 0.537255
1 0.956863 0.537255
1 0.219608 0.556863
1 0.231373 0.564706
1 0.258824 0.580392
1 0.290196 0.611765
1 0.298039 0.584314
1 0.298039 0.556863
1 0.698039 0.509804
1 0.835294 0.509804
1 0.835294 0.509804
1 0.262745 0.607843
1 0.270588 0.615686
1 0.286275 0.627451
1 0.294118 0.615686
1 0.298039 0.588235
1 0.298039 0.560784
1 0.298039 0.541176
1 0.4 0.533333
1 0.4 0.533333
0 0.470588 0.27451
0 0.537255 0.27451
0 0.686275 0.278431
0.482353 0.843137 0.290196
0.984314 0.960784 0.294118
1 0.968627 0.380392
1 0.960784 0.470588
1 0.960784 0.501961
1 0.960784 0.501961
0.043137 0.431373 0.305882
0 0.494118 0.298039
0 0.654902 0.298039
0.509804 0.823529 0.301961
0.992157 0.94902 0.305882
1 0.968627 0.380392
1 0.960784 0.47451
1 0.960784 0.501961
1 0.960784 0.501961
0.247059 0.301961 0.384314
0.203922 0.396078 0.372549
0 0.564706 0.352941
0.568627 0.760784 0.337255
1 0.913725 0.329412
1 0.964706 0.388235
1 0.960784 0.478431
1 0.956863 0.509804
1 0.956863 0.509804
0.298039 0.278431 0.431373
0.313725 0.290196 0.447059
0.301961 0.407843 0.454902
0.678431 0.631373 0.396078
1 0.835294 0.372549
1 0.945098 0.411765
1 0.952941 0.494118
1 0.956863 0.517647
1 0.956863 0.517647
0.337255 0.313725 0.47451
0.34902 0.321569 0.490196
0.45098 0.337255 0.517647
0.862745 0.388235 0.505882
1 0.729412 0.458824
1 0.901961 0.458824
1 0.945098 0.513725
1 0.956863 0.533333
1 0.956863 0.533333
0.384314 0.34902 0.52549
0.392157 0.356863 0.537255
0.698039 0.317647 0.545098
0.996078 0.223529 0.560784
1 0.490196 0.568627
1 0.839216 0.494118
1 0.94902 0.529412
1 0.956863 0.537255
1 0.956863 0.537255
0.635294 0.34902 0.564706
0.717647 0.337255 0.568627
0.898039 0.290196 0.576471
1 0.243137 0.596078
1 0.294118 0.635294
1 0.611765 0.541176
1 0.929412 0.52549
1 0.956863 0.537255
1 0.956863 0.537255
0.898039 0.317647 0.6
0.94902 0.301961 0.603922
1 0.258824 0.611765
1 0.270588 0.635294
1 0.294118 0.631373
1 0.298039 0.588235
1 0.733333 0.517647
1 0.858824 0.517647
1 0.858824 0.517647
1 0.282353 0.639216
1 0.266667 0.639216
1 0.262745 0.65098
1 0.294118 0.666667
1 0.294118 0.623529
1 0.298039 0.588235
1 0.298039 0.564706
1 0.478431 0.545098
1 0.478431 0.545098
0 0.580392 0.333333
0 0.635294 0.333333
0 0.752941 0.337255
0 0.901961 0.34902
0.780392 1 0.356863
1 0.976471 0.423529
1 0.960784 0.498039
1 0.960784 0.521569
1 0.960784 0.521569
0 0.54902 0.356863
0 0.6 0.352941
0 0.72549 0.352941
0 0.886275 0.360784
0.796078 0.996078 0.364706
1 0.976471 0.423529
1 0.960784 0.501961
1 0.960784 0.52549
1 0.960784 0.52549
0.239216 0.466667 0.419608
0.192157 0.52549 0.411765
0 0.654902 0.392157
0 0.839216 0.392157
0.827451 0.964706 0.384314
1 0.972549 0.431373
1 0.960784 0.505882
1 0.960784 0.529412
1 0.960784 0.529412
0.356863 0.329412 0.498039
0.368627 0.341176 0.509804
0.294118 0.533333 0.482353
0 0.741176 0.45098
0.882353 0.898039 0.419608
1 0.968627 0.443137
1 0.960784 0.513725
1 0.956863 0.537255
1 0.956863 0.537255
0.388235 0.356863 0.533333
0.4 0.364706 0.545098
0.423529 0.384314 0.572549
0.54902 0.568627 0.54902
0.964706 0.776471 0.47451
1 0.945098 0.466667
1 0.956863 0.529412
1 0.956863 0.537255
1 0.956863 0.537255
0.427451 0.388235 0.576471
0.435294 0.392157 0.584314
0.454902 0.411765 0.607843
0.796078 0.372549 0.623529
1 0.564706 0.576471
1 0.870588 0.513725
1 0.956863 0.537255
1 0.956863 0.537255
1 0.956863 0.537255
0.466667 0.419608 0.619608
0.47451 0.427451 0.627451
0.643137 0.415686 0.639216
0.968627 0.345098 0.643137
1 0.266667 0.662745
1 0.67451 0.568627
1 0.94902 0.533333
1 0.956863 0.537255
1 0.956863 0.537255
0.639216 0.435294 0.658824
0.721569 0.419608 0.658824
0.901961 0.384314 0.662745
1 0.317647 0.670588
1 0.290196 0.690196
1 0.294118 0.635294
1 0.776471 0.529412
1 0.890196 0.52549
1 0.890196 0.52549
0.941176 0.396078 0.682353
0.988235 0.384314 0.682353
1 0.34902 0.686275
1 0.286275 0.698039
1 0.290196 0.678431
1 0.294118 0.631373
1 0.298039 0.592157
1 0.560784 0.556863
1 0.560784 0.556863
0 0.690196 0.388235
0 0.729412 0.388235
0 0.823529 0.392157
0 0.94902 0.4
0.047059 1 0.407843
1 0.988235 0.435294
1 0.960784 0.52549
1 0.956863 0.537255
1 0.956863 0.537255
0 0.666667 0.407843
0 0.701961 0.403922
0 0.803922 0.403922
0 0.933333 0.411765
0.105882 1 0.419608
1 0.988235 0.439216
1 0.960784 0.529412
1 0.956863 0.537255
1 0.956863 0.537255
0.219608 0.603922 0.458824
0.164706 0.647059 0.45098
0 0.745098 0.435294
0 0.894118 0.435294
0.321569 1 0.443137
1 0.984314 0.45098
1 0.960784 0.533333
1 0.956863 0.537255
1 0.956863 0.537255
0.380392 0.462745 0.541176
0.356863 0.521569 0.529412
0.27451 0.65098 0.509804
0 0.815686 0.482353
0.482353 0.976471 0.470588
1 0.980392 0.466667
1 0.956863 0.537255
1 0.956863 0.537255
1 0.956863 0.537255
0.443137 0.4 0.592157
0.45098 0.407843 0.603922
0.462745 0.447059 0.619608
0.345098 0.694118 0.572549
0.658824 0.87451 0.517647
1 0.972549 0.494118
1 0.956863 0.537255
1 0.956863 0.537255
1 0.956863 0.537255
0.47451 0.427451 0.627451
0.478431 0.431373 0.635294
0.498039 0.447059 0.654902
0.52549 0.470588 0.686275
0.890196 0.709804 0.607843
1 0.901961 0.537255
1 0.956863 0.537255
1 0.956863 0.537255
1 0.956863 0.537255
0.505882 0.454902 0.662745
0.509804 0.458824 0.670588
0.52549 0.470588 0.686275
0.662745 0.47451 0.709804
1 0.380392 0.709804
1 0.737255 0.615686
1 0.956863 0.537255
1 0.956863 0.537255
1 0.956863 0.537255
0.541176 0.482353 0.705882
0.545098 0.486275 0.709804
0.556863 0.498039 0.721569
0.913725 0.443137 0.721569
1 0.352941 0.72549
1 0.290196 0.698039
1 0.827451 0.545098
1 0.921569 0.533333
1 0.921569 0.533333
0.607843 0.509804 0.741176
0.698039 0.498039 0.741176
0.882353 0.466667 0.737255
1 0.403922 0.737255
1 0.321569 0.733333
1 0.290196 0.686275
1 0.352941 0.627451
1 0.647059 0.572549
1 0.647059 0.572549
0 0.792157 0.443137
0 0.823529 0.443137
0 0.898039 0.443137
0 1 0.45098
0 1 0.435294
0.686275 1 0.411765
1 0.960784 0.533333
1 0.956863 0.537255
1 0.956863 0.537255
0 0.772549 0.458824
0 0.8 0.454902
0 0.878431 0.454902
0 0.988235 0.458824
0 1 0.443137
0.705882 1 0.419608
1 0.960784 0.533333
1 0.956863 0.537255
1 0.956863 0.537255
0.180392 0.72549 0.494118
0.113725 0.756863 0.490196
0 0.835294 0.478431
0 0.952941 0.478431
0 1 0.470588
0.745098 1 0.435294
1 0.956863 0.537255
1 0.956863 0.537255
1 0.956863 0.537255
0.364706 0.623529 0.560784
0.337255 0.666667 0.552941
0.239216 0.760784 0.537255
0 0.890196 0.517647
0 1 0.513725
0.811765 1 0.462745
1 0.956863 0.537255
1 0.956863 0.537255
1 0.956863 0.537255
0.494118 0.447059 0.65098
0.494118 0.466667 0.654902
0.443137 0.611765 0.627451
0.317647 0.792157 0.588235
0 0.960784 0.556863
0.894118 1 0.505882
1 0.956863 0.537255
1 0.956863 0.537255
1 0.956863 0.537255
0.517647 0.466667 0.678431
0.52549 0.470588 0.686275
0.537255 0.482353 0.701961
0.52549 0.588235 0.698039
0.364706 0.847059 0.639216
0.992157 0.968627 0.564706
1 0.956863 0.537255
1 0.956863 0.537255
1 0.956863 0.537255
0.545098 0.490196 0.709804
0.552941 0.494118 0.713725
0.564706 0.501961 0.729412
0.584314 0.521569 0.752941
0.768627 0.572549 0.752941
1 0.831373 0.615686
1 0.956863 0.537255
1 0.956863 0.537255
1 0.956863 0.537255
0.576471 0.513725 0.741176
0.580392 0.517647 0.745098
0.588235 0.52549 0.756863
0.607843 0.541176 0.776471
0.976471 0.470588 0.764706
1 0.47451 0.717647
1 0.87451 0.560784
1 0.956863 0.537255
1 0.956863 0.537255
0.603922 0.537255 0.776471
0.607843 0.541176 0.776471
0.615686 0.54902 0.788235
0.8 0.517647 0.780392
1 0.427451 0.752941
1 0.329412 0.733333
1 0.521569 0.654902
1 0.733333 0.588235
1 0.733333 0.588235
0 0.882353 0.490196
0 0.905882 0.490196
0 0.964706 0.490196
0 1 0.494118
0 1 0.454902
0 1 0.419608
0.988235 0.992157 0.458824
1 0.968627 0.509804
1 0.968627 0.509804
0 0.870588 0.501961
0 0.890196 0.501961
0 0.952941 0.498039
0 1 0.501961
0 1 0.466667
0 1 0.427451
0.996078 0.992157 0.462745
1 0.964706 0.513725
1 0.964706 0.513725
0.129412 0.835294 0.533333
0.023529 0.858824 0.529412
0 0.917647 0.517647
0 1 0.517647
0 1 0.486275
0 1 0.443137
1 0.988235 0.47451
1 0.964706 0.521569
1 0.964706 0.521569
0.329412 0.760784 0.584314
0.301961 0.788235 0.580392
0.2 0.858824 0.564706
0 0.960784 0.54902
0 1 0.529412
0 1 0.478431
1 0.984314 0.486275
1 0.960784 0.529412
1 0.960784 0.529412
0.490196 0.607843 0.670588
0.470588 0.647059 0.658824
0.411765 0.74902 0.639216
0.278431 0.882353 0.607843
0 1 0.580392
0 1 0.529412
1 0.976471 0.505882
1 0.956863 0.537255
1 0.956863 0.537255
0.564706 0.501961 0.729412
0.568627 0.505882 0.733333
0.580392 0.517647 0.745098
0.494118 0.729412 0.698039
0.32549 0.921569 0.647059
0.482353 1 0.584314
1 0.964706 0.52549
1 0.956863 0.537255
1 0.956863 0.537255
0.584314 0.521569 0.752941
0.588235 0.52549 0.756863
0.6 0.533333 0.768627
0.615686 0.545098 0.788235
0.541176 0.713725 0.737255
0.811765 0.890196 0.627451
1 0.956863 0.537255
1 0.956863 0.537255
1 0.956863 0.537255
0.607843 0.541176 0.780392
0.611765 0.545098 0.784314
0.619608 0.54902 0.792157
0.619608 0.54902 0.792157
0.619608 0.54902 0.792157
0.992157 0.67451 0.698039
1 0.929412 0.552941
1 0.956863 0.537255
1 0.956863 0.537255
0.619608 0.54902 0.792157
0.619608 0.54902 0.792157
0.619608 0.54902 0.792157
0.619608 0.54902 0.792157
0.756863 0.52549 0.784314
1 0.427451 0.752941
1 0.666667 0.658824
1 0.811765 0.603922
1 0.811765 0.603922
