site/assets/luts/freshluts--0000680-gdlut.cube
# LUTr-Schema-Version: 2
# LUTr-ID: freshluts--0000680-gdlut
# LUTr-Title: GD.lut
# LUTr-Collection: Fresh LUTs
# LUTr-Collection-ID: freshluts-community
# LUTr-Source: https://freshluts.com
# LUTr-Retrieved: 2026-07-27
# LUTr-Source-File: submissions-raw/freshluts/cubes/680__15.12.20_1.A011_10160117_C115.cube
# LUTr-Source-Format: CUBE
# LUTr-Source-SHA256: ff7c0e2de3a834f9486794bb49d8fc8ff2d441e970da0eebca932747f24d6b5a
# LUTr-License: CC0-1.0
# LUTr-License-URL: https://freshluts.com/termsandconditions
# LUTr-License-Basis: site-terms
# LUTr-Transform-Class: creative-look
# LUTr-Tags: creative, freshluts, community, cube, yellow, high-key, rec709
# LUTr-Input-Color-Space: rec709
# LUTr-Input-Gamut: rec709
# LUTr-Input-Transfer: rec709
# LUTr-Output-Color-Space: srgb
# LUTr-Output-Gamut: rec709
# LUTr-Output-Transfer: srgb
# LUTr-Color-Space-Confidence: declared-by-source
# LUTr-Domain-Normalized: true
# LUTr-Shaper: none
# LUTr-Original-Grid: 33x33x33
# LUTr-Conversion-Grid: 33x33x33
# LUTr-Conversion-Interpolation: none
# LUTr-Conversion-Method: Metadata normalization; numeric LUT samples preserved
# LUTr-Conversion-Tool: LUTr scripts/convert-all-to-cube.mjs 2.0.0
# LUTr-Conversion-Date: 2026-07-28
# LUTr-Asset-URL: https://freshluts.com/luts/680
# LUTr-Author: lvannoeun@gmail.com
# LUTr-Author-URL: https://freshluts.com/users/57563
# LUTr-Attribution: lvannoeun@gmail.com via Fresh LUTs
# LUTr-Source-Labels: gamma=Rec 709; color=Yellow; key=High Key; style=Colorful
# LUTr-Note: Preserve this metadata and the upstream license notices when redistributing.
TITLE "GD.lut"
LUT_3D_SIZE 33
DOMAIN_MIN 0 0 0
DOMAIN_MAX 1 1 1
0 0.00807202 0
0.027451 0.00720226 0
0.0716716 0.0024567 0
0.110018 0 0
0.147051 0 0
0.184207 0 0
0.218906 0 0
0.25095 0 0
0.281178 0 0
0.310689 0 0
0.33991 0 0
0.368978 0 0
0.397742 0 0
0.426169 0.0000457771 0
0.453712 0.00120546 0
0.480262 0.00257877 0
0.505592 0.00424201 0
0.529656 0.00621042 0
0.552132 0.00856031 0
0.573159 0.0112764 0
0.59292 0.0143282 0
0.611841 0.0175784 0
0.629908 0.0210575 0
0.647456 0.0246738 0
0.664775 0.0283665 0
0.681773 0.0321355 0
0.698604 0.0359503 0
0.715434 0.039765 0
0.732067 0.0436408 0
0.748623 0.0475319 0
0.765393 0.0513619 0
0.789654 0.053254 0
0.813672 0.0551919 0.00189212
0 0.0378424 0
0.0315404 0.0368963 0
0.0654765 0.0362402 0
0.110033 0.0314794 0
0.151934 0.0274357 0
0.189166 0.0252842 0
0.225437 0.0233768 0
0.260685 0.0217136 0
0.29456 0.0205386 0
0.326833 0.0200809 0
0.357473 0.020325 0
0.386725 0.0211643 0
0.414847 0.0224308 0
0.442008 0.0240177 0
0.468528 0.025742 0
0.494118 0.0276646 0
0.518669 0.0297856 0
0.542107 0.0321355 0
0.56434 0.0347448 0
0.585229 0.0376593 0
0.604929 0.0408331 0
0.623621 0.0442512 0
0.641749 0.0477913 0
0.65922 0.0514687 0
0.676356 0.0552529 0
0.693355 0.0590524 0
0.71014 0.0628977 0
0.726802 0.0667887 0
0.743496 0.0706493 0
0.760037 0.0745708 0.00135805
0.776608 0.0784619 0.00595102
0.797742 0.0811933 0.0087129
0.821591 0.0832074 0.0104982
0 0.0682841 0
0.0339666 0.0673075 0
0.0675975 0.0667582 0
0.101152 0.0662547 0
0.145739 0.061677 0
0.18938 0.0570993 0
0.229206 0.0537118 0
0.2645 0.0520333 0
0.298909 0.0505989 0
0.332876 0.0492714 0
0.366491 0.0480354 0
0.398749 0.0473335 0
0.429557 0.0472114 0
0.458839 0.0476997 0
0.486549 0.0487831 0
0.512825 0.0504158 0
0.537423 0.0525673 0
0.560494 0.0551766 0
0.582162 0.0581369 0
0.602518 0.0614176 0
0.621546 0.0650034 0
0.639612 0.0687877 0
0.657145 0.0726635 0
0.674083 0.0766613 0
0.69073 0.080705 0
0.707271 0.0847334 0
0.723674 0.0887922 0.000991836
0.740001 0.0928359 0.00477607
0.75642 0.096849 0.00874342
0.772717 0.100877 0.0128176
0.788968 0.104921 0.016968
0.806882 0.108522 0.0205844
0.830442 0.110689 0.0218509
0 0.0992905 0
0.0356146 0.0980545 0
0.0694133 0.0974289 0
0.102922 0.0969711 0
0.136584 0.0965133 0
0.178882 0.0928511 0
0.223941 0.0877241 0
0.265614 0.0835126 0
0.302403 0.0810712 0
0.336416 0.0797131 0
0.370047 0.0784772 0
0.403204 0.0773632 0
0.435676 0.0764477 0
0.467369 0.0757458 0
0.497688 0.0755322 0.00302129
0.526452 0.0758984 0.00672923
0.553429 0.0769055 0.00944533
0.578424 0.0785687 0.0113375
0.60148 0.0808881 0.0125124
0.622736 0.0837873 0.0132448
0.642191 0.0872206 0.0138705
0.660258 0.0910658 0.0145724
0.677287 0.0952316 0.0152438
0.693812 0.0994736 0.0166629
0.709789 0.103853 0.0182193
0.725567 0.108263 0.0200961
0.74136 0.112642 0.0222477
0.757046 0.117006 0.0247807
0.772824 0.121324 0.0275425
0.788586 0.125628 0.0305486
0.804379 0.1299 0.0337682
0.820294 0.134112 0.0371405
0.841978 0.136843 0.0382086
0 0.130739 0
0.0362402 0.129244 0
0.0705119 0.12845 0
0.104219 0.127916 0
0.137774 0.127459 0
0.171374 0.126986 0
0.2103 0.124468 0
0.256825 0.118791 0
0.297963 0.114809 0
0.338033 0.111009 0
0.373327 0.109041 0
0.406714 0.107851 0
0.439307 0.106889 0
0.47126 0.106096 0
0.502434 0.105501 0.00175479
0.532677 0.105165 0.00813306
0.561929 0.105089 0.0147097
0.589242 0.105653 0.020737
0.614649 0.106844 0.0261387
0.638086 0.10869 0.0308843
0.659602 0.111162 0.0350195
0.679301 0.114229 0.0385901
0.697551 0.1178 0.0416266
0.714824 0.121706 0.0441138
0.731167 0.125917 0.0462806
0.746975 0.130312 0.0482032
0.762539 0.134798 0.0499733
0.777707 0.139422 0.0515145
0.793042 0.143938 0.0535439
0.808301 0.148501 0.0554818
0.823514 0.153048 0.0576333
0.838849 0.157549 0.0599069
0.85716 0.161273 0.0611429
0 0.162539 0
0.0358282 0.160845 0
0.0707408 0.159838 0
0.104829 0.159136 0
0.138491 0.158587 0
0.171984 0.158083 0
0.20528 0.157595 0
0.241443 0.156008 0
0.287114 0.150683 0
0.329809 0.146151 0
0.369879 0.142397 0
0.408469 0.139071 0
0.442618 0.137453 0
0.474769 0.136584 0
0.506142 0.135927 0
0.53666 0.135485 0.00555428
0.566354 0.135256 0.0123751
0.594659 0.135409 0.0196078
0.621622 0.135912 0.0272374
0.647028 0.136843 0.0351873
0.67068 0.138338 0.042771
0.692424 0.140459 0.049836
0.712551 0.143099 0.0563058
0.731548 0.146166 0.0620737
0.749371 0.149645 0.067155
0.766369 0.153445 0.0715038
0.782864 0.157458 0.075227
0.798764 0.1617 0.0783551
0.814343 0.166079 0.0810712
0.82977 0.17055 0.0834058
0.844968 0.175113 0.0855268
0.860075 0.179706 0.0874952
0.875349 0.184298 0.0891432
0 0.194293 0
0.0350195 0.192538 0
0.0704509 0.191379 0
0.104906 0.190524 0
0.138781 0.189868 0
0.172244 0.189319 0
0.205447 0.18883 0
0.238361 0.188388 0
0.272557 0.187442 0
0.315587 0.183139 0
0.360311 0.177905 0
0.400275 0.174243 0
0.439857 0.170535 0
0.476631 0.167758 0
0.509483 0.166476 0
0.540352 0.165911 0.00288396
0.570336 0.165591 0.00981155
0.599008 0.165606 0.0171664
0.626444 0.165957 0.0249638
0.65243 0.16669 0.0332647
0.677134 0.167742 0.0419776
0.700313 0.169238 0.0510109
0.722194 0.171099 0.0601968
0.742885 0.173358 0.068864
0.76231 0.176074 0.0768749
0.780835 0.17911 0.0841993
0.798749 0.182406 0.0907759
0.815946 0.186007 0.0965896
0.83267 0.189807 0.101747
0.849042 0.193774 0.106142
0.865034 0.197925 0.110018
0.880781 0.202182 0.113405
0.896056 0.206638 0.116411
0 0.225803 0
0.0344244 0.224094 0
0.0700694 0.222889 0
0.104662 0.221988 0
0.138613 0.221271 0
0.172198 0.220645 0
0.205447 0.220111 0
0.238376 0.219654 0
0.270985 0.219257 0
0.304021 0.218692 0
0.343618 0.215656 0
0.388952 0.210254 0
0.430716 0.205936 0
0.469062 0.202716 0
0.507179 0.199359 0
0.542214 0.197086 0
0.573724 0.196124 0.00691234
0.60293 0.195956 0.0146334
0.630777 0.196155 0.0226749
0.657282 0.196704 0.0311589
0.682521 0.197589 0.040116
0.706249 0.198886 0.049424
0.728725 0.200519 0.0589914
0.750286 0.202426 0.0687419
0.770916 0.204593 0.0784772
0.790829 0.207004 0.0880751
0.810101 0.209644 0.0971084
0.828611 0.212604 0.105409
0.846571 0.215778 0.113008
0.864179 0.219135 0.119905
0.881254 0.222721 0.126101
0.898024 0.226459 0.131731
0.914244 0.230426 0.136797
0 0.257115 0
0.0341497 0.255482 0
0.0696574 0.254337 0
0.104417 0.253376 0
0.138537 0.252598 0
0.172168 0.251942 0
0.205417 0.251377 0
0.238346 0.250919 0
0.27097 0.250523 0
0.303288 0.250202 0
0.335531 0.249866 0
0.372229 0.247868 0
0.416312 0.242985 0
0.45951 0.238117 0
0.498192 0.23476 0
0.535424 0.231739 0
0.572076 0.228733 0
0.605051 0.227008 0.0102388
0.634455 0.226581 0.0199893
0.66157 0.226902 0.0289311
0.687343 0.227604 0.0381781
0.71165 0.228687 0.0478218
0.734661 0.230137 0.0576944
0.75671 0.231861 0.0677653
0.777859 0.233845 0.0778363
0.798245 0.236072 0.0878462
0.818219 0.238422 0.0977798
0.837659 0.24094 0.107546
0.856748 0.243595 0.117037
0.875486 0.246418 0.125978
0.89366 0.24947 0.134279
0.911467 0.252689 0.142
0.928695 0.256123 0.149157
0 0.288365 0
0.0339208 0.286839 0
0.0695659 0.285634 0
0.104326 0.284672 0
0.138445 0.283894 0
0.172076 0.283223 0
0.205325 0.282673 0
0.238254 0.2822 0
0.270863 0.281804 0
0.303197 0.281468 0
0.335241 0.281209 0
0.366979 0.280995 0
0.401617 0.279713 0
0.442649 0.275944 0
0.486458 0.270863 0
0.526558 0.266926 0
0.563165 0.264118 0
0.599039 0.261357 0
0.633356 0.258961 0.0120241
0.664012 0.257832 0.024918
0.691447 0.257862 0.0359655
0.716442 0.258686 0.046128
0.740001 0.259937 0.0563363
0.762631 0.261448 0.066804
0.784268 0.263264 0.0771954
0.805112 0.265309 0.087541
0.825513 0.267491 0.0978256
0.845335 0.269871 0.107897
0.864805 0.272374 0.117769
0.884077 0.274968 0.127413
0.902983 0.277684 0.136889
0.921736 0.280461 0.146227
0.939895 0.283452 0.155093
0 0.319615 0
0.0339513 0.318074 0
0.0695354 0.316899 0
0.10425 0.315953 0
0.138338 0.315175 0
0.171969 0.314519 0
0.205203 0.313954 0
0.238117 0.313481 0
0.270726 0.313085 0
0.303044 0.312749 0
0.335073 0.312474 0
0.366812 0.312261 0
0.398413 0.312062 0
0.431067 0.311421 0
0.469062 0.308721 0
0.511849 0.304021 0
0.553353 0.299519 0
0.590524 0.296422 0
0.624949 0.294148 0
0.658778 0.291844 0.0129702
0.690883 0.289998 0.0287175
0.719249 0.289464 0.0426184
0.744564 0.289998 0.0546883
0.767971 0.291218 0.0657969
0.790097 0.292836 0.076524
0.81149 0.294682 0.0872816
0.832349 0.296712 0.0978866
0.852567 0.298939 0.108263
0.872404 0.301305 0.118456
0.892012 0.303761 0.128405
0.911238 0.30634 0.13817
0.930282 0.30901 0.147784
0.948913 0.311803 0.157183
0 0.350713 0
0.0341802 0.349218 0
0.0696117 0.348104 0
0.10425 0.347189 0
0.138293 0.346426 0
0.171893 0.345785 0
0.205097 0.345235 0
0.23798 0.344762 0
0.270573 0.34435 0
0.302892 0.344015 0
0.33492 0.34374 0
0.366659 0.343511 0
0.39826 0.343297 0
0.429297 0.343221 0
0.460639 0.342962 0
0.495918 0.341176 0
0.536599 0.33724 0
0.578271 0.332631 0
0.616373 0.329091 0
0.650584 0.326787 0.000564584
0.683192 0.324895 0.0153353
0.7149 0.323095 0.0317693
0.744518 0.32192 0.0481727
0.77116 0.321813 0.0628061
0.795071 0.322728 0.0754559
0.817288 0.324239 0.0869612
0.838651 0.326085 0.0979324
0.859342 0.32813 0.10869
0.879576 0.330358 0.119173
0.89955 0.332662 0.129412
0.919097 0.335134 0.139437
0.93846 0.337667 0.14934
0.957351 0.340368 0.158984
0 0.381659 0
0.0346838 0.380255 0
0.0699168 0.379217 0
0.104417 0.378347 0
0.138369 0.377615 0
0.171893 0.376989 0
0.205051 0.376455 0
0.237903 0.375982 0
0.270466 0.375586 0
0.302754 0.37525 0
0.334768 0.374975 0
0.366522 0.374731 0
0.398093 0.374517 0
0.429145 0.374426 0
0.459785 0.374395 0
0.490181 0.37438 0
0.523384 0.373266 0
0.561028 0.370352 0
0.601633 0.366079 0
0.640421 0.362203 0
0.675547 0.359457 0.00495918
0.707195 0.357839 0.0198825
0.737713 0.356451 0.0358282
0.767697 0.355077 0.0531014
0.795605 0.354391 0.0697337
0.820829 0.354696 0.0844739
0.843961 0.35581 0.0973831
0.865553 0.357504 0.10901
0.88629 0.359533 0.119921
0.906691 0.361685 0.13051
0.926589 0.364019 0.140764
0.946273 0.36643 0.150927
0.965454 0.369024 0.160784
0 0.41239 0
0.0356146 0.411109 0
0.0705425 0.410178 0
0.104845 0.409384 0
0.138659 0.408698 0
0.172076 0.408118 0
0.205158 0.407599 0
0.237949 0.407156 0
0.270451 0.40676 0
0.302693 0.406424 0
0.334676 0.406149 0
0.36643 0.405905 0
0.397971 0.405692 0
0.429007 0.40557 0
0.459663 0.405524 0
0.48986 0.40557 0
0.519753 0.405631 0
0.550866 0.405142 0
0.585657 0.403159 0
0.62417 0.399603 0
0.663188 0.395575 0
0.698817 0.392554 0.0101625
0.730907 0.390677 0.026276
0.760708 0.389532 0.0419623
0.789792 0.38851 0.0584878
0.818173 0.38761 0.0757763
0.845014 0.387243 0.0923629
0.869398 0.387823 0.106996
0.891875 0.389136 0.119814
0.913237 0.390906 0.13138
0.933684 0.393027 0.142153
0.953765 0.3953 0.152575
0.97322 0.397787 0.162661
0.00122072 0.442847 0
0.0370947 0.441733 0
0.0716259 0.44094 0
0.105669 0.440238 0
0.139269 0.439628 0
0.172503 0.439109 0
0.205402 0.438651 0
0.238056 0.438254 0
0.270466 0.437888 0
0.302647 0.437568 0
0.334585 0.437293 0
0.366369 0.437018 0
0.397833 0.43682 0
0.428901 0.436683 0
0.459586 0.436606 0
0.48983 0.436606 0
0.519738 0.436652 0
0.548867 0.436851 0
0.578378 0.436805 0
0.610651 0.43563 0
0.64683 0.432853 0
0.684611 0.429221 0
0.72076 0.425971 0.0162509
0.753826 0.423667 0.0335699
0.783749 0.422446 0.0496376
0.811978 0.421744 0.0654307
0.840116 0.420981 0.0821698
0.867445 0.420432 0.0991531
0.893324 0.420401 0.115358
0.917327 0.421103 0.129778
0.939452 0.422538 0.142382
0.960616 0.424369 0.153933
0.980652 0.426627 0.164614
0.00401312 0.472953 0
0.0393225 0.472038 0
0.0733501 0.471427 0
0.106966 0.470878 0
0.140215 0.470405 0
0.17319 0.469963 0
0.205966 0.469551 0
0.238499 0.469184 0
0.270817 0.468849 0
0.302907 0.468544 0
0.334752 0.468299 0
0.366506 0.468025 0
0.397848 0.467842 0
0.428855 0.467704 0
0.45948 0.467628 0
0.489738 0.467613 0
0.519722 0.467613 0
0.548959 0.467765 0
0.577539 0.468025 0
0.605859 0.468284 0
0.63624 0.467689 0
0.669535 0.465858 0
0.705592 0.462837 0.00521859
0.74197 0.459495 0.02327
0.775616 0.456962 0.0411841
0.806317 0.455436 0.0580453
0.834821 0.454643 0.0739147
0.862135 0.454231 0.089662
0.889296 0.453788 0.106111
0.915999 0.453452 0.122744
0.941268 0.453635 0.138476
0.964874 0.45449 0.152605
0.986557 0.456077 0.165057
0.00787366 0.502617 0
0.0424353 0.501976 0
0.0757763 0.501595 0
0.108888 0.501228 0
0.141833 0.500862 0
0.174548 0.500526 0
0.20708 0.500191 0
0.239414 0.499886 0
0.271565 0.499596 0
0.303502 0.499336 0
0.335241 0.499107 0
0.366949 0.498848 0
0.398184 0.49868 0
0.429114 0.498558 0
0.459709 0.498482 0
0.489906 0.498466 0
0.519844 0.498466 0
0.54905 0.498604 0
0.577722 0.498833 0
0.605844 0.499138 0
0.633356 0.49958 0
0.661875 0.499535 0
0.692882 0.498482 0
0.727031 0.496132 0.0137942
0.762387 0.493156 0.0311437
0.796582 0.490455 0.0492866
0.828412 0.488518 0.066804
0.857466 0.487526 0.0830854
0.884688 0.487175 0.098436
0.911467 0.486931 0.114031
0.937987 0.486717 0.130114
0.96405 0.486625 0.146212
0.988602 0.487083 0.161486
0.0129854 0.531762 0
0.0465858 0.531456 0
0.0792248 0.53135 0
0.111833 0.531167 0
0.144289 0.530968 0
0.176593 0.530755 0
0.208804 0.530541 0
0.240864 0.530327 0
0.272786 0.530114 0
0.30454 0.5299 0
0.336156 0.529702 0
0.367681 0.529488 0
0.398825 0.529351 0
0.429664 0.529229 0
0.460182 0.529168 0
0.490379 0.529137 0
0.520241 0.529137 0
0.549462 0.529259 0
0.578134 0.529473 0
0.606348 0.529763 0
0.633799 0.530205 0
0.660578 0.5308 0
0.687831 0.531121 0.000183108
0.717067 0.530678 0.0106203
0.748837 0.529168 0.0239109
0.782818 0.526726 0.0400549
0.817243 0.52398 0.0579232
0.849653 0.521859 0.075639
0.879728 0.5205 0.0924239
0.907637 0.519921 0.10808
0.934005 0.51986 0.123003
0.96025 0.519814 0.138262
0.985916 0.519905 0.153765
0.0195621 0.560311 0
0.0520638 0.560403 0
0.0839094 0.560571 0
0.115816 0.560632 0
0.147692 0.560632 0
0.179507 0.560601 0
0.211276 0.560525 0
0.243 0.560433 0
0.274617 0.560311 0
0.306127 0.560189 0
0.337621 0.560037 0
0.368887 0.559884 0
0.399847 0.559792 0
0.430564 0.559701 0
0.46099 0.55964 0
0.491188 0.559594 0
0.520928 0.559625 0
0.550134 0.559731 0
0.578805 0.559945 0
0.607095 0.560204 0
0.634607 0.560632 0
0.661463 0.561212 0
0.687846 0.561883 0.00505074
0.714 0.562554 0.0133974
0.74165 0.562615 0.0233158
0.771481 0.561822 0.0353857
0.803967 0.55996 0.0502022
0.837583 0.557549 0.0670939
0.870588 0.555245 0.0847486
0.901427 0.553658 0.101778
0.930083 0.552804 0.1178
0.957137 0.552529 0.132921
0.982544 0.552819 0.147234
0.0274357 0.588342 0
0.0590066 0.588754 0
0.0899977 0.589212 0
0.12105 0.589563 0
0.152193 0.589822 0
0.183413 0.590005 0
0.214679 0.590112 0
0.24596 0.590158 0
0.277226 0.590173 0
0.308415 0.590143 0
0.339696 0.590051 0
0.370657 0.58999 0
0.401419 0.589944 0
0.431952 0.589899 0
0.462226 0.589883 0
0.492378 0.589837 0
0.52195 0.589914 0
0.55111 0.590036 0
0.579767 0.590234 0
0.608087 0.590494 0
0.63566 0.590906 0
0.662638 0.591455 0.00384527
0.689189 0.592096 0.0114137
0.714961 0.59292 0.0193027
0.740307 0.593851 0.0275273
0.766766 0.594324 0.0368963
0.795117 0.594064 0.0480049
0.82562 0.592935 0.061326
0.858274 0.590936 0.0770428
0.891051 0.588769 0.0940566
0.92256 0.586969 0.111162
0.952255 0.585763 0.127565
0.979553 0.585412 0.142794
0.0366827 0.615808 0
0.0672618 0.616556 0
0.0974136 0.617304 0
0.127535 0.61796 0
0.157931 0.618479 0
0.188479 0.618891 0
0.219165 0.619196 0
0.249928 0.619425 0
0.280735 0.619593 0
0.311589 0.619684 0
0.342458 0.619715 0
0.373098 0.61976 0
0.403601 0.619791 0
0.433906 0.619806 0
0.463996 0.619852 0
0.493965 0.619852 0
0.523415 0.619959 0
0.552468 0.620111 0
0.581079 0.62034 0
0.6094 0.6206 0
0.636988 0.621012 0.00408942
0.664057 0.621561 0.0110628
0.69073 0.622171 0.0184939
0.716655 0.622965 0.0261997
0.742031 0.623911 0.0341497
0.76701 0.624949 0.042298
0.79237 0.625818 0.0511482
0.819287 0.626062 0.061387
0.848341 0.625498 0.0735027
0.879332 0.62414 0.0877699
0.911696 0.622171 0.10399
0.943526 0.62031 0.12076
0.973449 0.619043 0.137118
0.047013 0.642847 0
0.0767071 0.64387 0
0.10602 0.644892 0
0.135256 0.645853 0
0.164889 0.646632 0
0.194736 0.647272 0
0.22475 0.647807 0
0.254932 0.648234 0
0.285206 0.648585 0
0.315694 0.648798 0
0.346044 0.648997 0
0.376333 0.649149 0
0.4065 0.649287 0
0.43653 0.649393 0
0.466361 0.649516 0
0.496117 0.649592 0
0.525383 0.649744 0
0.554284 0.649943 0
0.582864 0.650202 0
0.611078 0.650507 0.00575265
0.638666 0.65095 0.0121462
0.665766 0.651499 0.0189975
0.692515 0.65211 0.0262303
0.718578 0.652888 0.0337377
0.744091 0.653803 0.0414893
0.769268 0.65481 0.049424
0.793774 0.656001 0.0574655
0.81828 0.65716 0.0658732
0.84419 0.657786 0.0754101
0.871656 0.657801 0.0864424
0.901244 0.656992 0.0994125
0.932494 0.655482 0.114366
0.963729 0.653864 0.130434
0.0580453 0.669596 0.00633249
0.0869917 0.670848 0.000717174
0.115587 0.672084 0
0.144121 0.673274 0
0.172946 0.674311 0
0.202075 0.675196 0
0.231418 0.675959 0
0.260975 0.6766 0
0.290745 0.677104 0
0.320668 0.677516 0
0.3505 0.677867 0
0.380362 0.678172 0
0.410147 0.678431 0
0.439841 0.67866 0
0.469459 0.678843 0
0.498863 0.679042 0
0.527901 0.679271 0
0.556634 0.679545 0.0039826
0.585153 0.679835 0.00915541
0.613153 0.680217 0.0148928
0.640711 0.68069 0.0210575
0.667826 0.681254 0.0276493
0.694606 0.681895 0.0346075
0.720729 0.682673 0.041886
0.746365 0.683589 0.0493935
0.771695 0.684565 0.0570993
0.796368 0.685725 0.0649424
0.8206 0.687022 0.0728923
0.844648 0.688334 0.0809796
0.869459 0.689357 0.0898909
0.895872 0.689769 0.100084
0.923903 0.68954 0.111849
0.95346 0.68867 0.125444
0.069688 0.696132 0.0188754
0.0979324 0.697566 0.0134585
0.125841 0.699016 0.00892653
0.153826 0.700374 0.00503548
0.181903 0.70164 0.00183108
0.210376 0.702739 0
0.239078 0.7037 0
0.26804 0.704524 0
0.297261 0.705226 0
0.326513 0.705837 0
0.35584 0.706371 0
0.385214 0.706828 0
0.414572 0.70724 0
0.44387 0.707591 0
0.473228 0.707881 0.0024567
0.50222 0.708202 0.00579843
0.530999 0.708553 0.00970474
0.559503 0.708919 0.0142061
0.587884 0.709255 0.0192111
0.615732 0.709712 0.0247196
0.643183 0.710246 0.0306706
0.670344 0.710826 0.0369726
0.697017 0.711513 0.0436255
0.723201 0.712306 0.0506142
0.748913 0.713222 0.0578622
0.774334 0.714199 0.0653239
0.799161 0.715343 0.0729381
0.82359 0.716594 0.0806744
0.847639 0.717937 0.0885023
0.871183 0.719432 0.096376
0.895308 0.720714 0.104784
0.920531 0.721553 0.114229
0.946975 0.721904 0.124926
0.0816968 0.722515 0.031693
0.109331 0.724102 0.0265354
0.136706 0.725704 0.0220645
0.164111 0.72723 0.0182193
0.191669 0.728664 0.0149691
0.21944 0.729961 0.0122988
0.247547 0.731121 0.0101472
0.275929 0.732128 0.00856031
0.304463 0.733043 0.00756847
0.333135 0.733837 0.007187
0.361944 0.734554 0.00738537
0.390814 0.73518 0.00817884
0.419715 0.735729 0.00958267
0.448585 0.736248 0.0115663
0.477546 0.73666 0.0140993
0.506203 0.737118 0.017258
0.534691 0.73756 0.0209659
0.562936 0.738033 0.0252079
0.591104 0.738476 0.0299382
0.618769 0.73901 0.035172
0.646097 0.739605 0.0408331
0.673228 0.740215 0.046891
0.699809 0.740963 0.0532692
0.725994 0.741787 0.0599222
0.751766 0.742718 0.066865
0.777218 0.743709 0.074052
0.802136 0.744854 0.0814221
0.82678 0.746059 0.0889296
0.850889 0.747417 0.0965286
0.874571 0.748898 0.104219
0.898039 0.750423 0.111971
0.921324 0.75198 0.119966
0.945449 0.753216 0.12874
0.0938277 0.748837 0.0447852
0.121035 0.75053 0.0397803
0.147936 0.75227 0.035462
0.174838 0.753933 0.0317388
0.201892 0.755505 0.0285344
0.229145 0.75697 0.0258488
0.256626 0.758297 0.023682
0.284337 0.759518 0.0220493
0.312276 0.760616 0.0209659
0.340398 0.761593 0.0204623
0.368673 0.762478 0.0205081
0.39704 0.763272 0.021149
0.425483 0.763973 0.0223697
0.454032 0.764599 0.0241398
0.482506 0.765194 0.0264897
0.510811 0.765774 0.0294041
0.538949 0.766354 0.0328527
0.566979 0.766903 0.03682
0.594827 0.767468 0.0412757
0.622293 0.768093 0.0462043
0.64947 0.768765 0.0515602
0.676493 0.769451 0.0572976
0.702983 0.770245 0.063386
0.729107 0.77113 0.0697795
0.755001 0.772045 0.0764019
0.780392 0.773098 0.0832837
0.805356 0.774243 0.0903639
0.830106 0.775448 0.0976272
0.854307 0.776791 0.105013
0.878141 0.778241 0.11249
0.901732 0.779751 0.120119
0.924834 0.781415 0.127672
0.94786 0.78323 0.133913
0.106096 0.775113 0.057969
0.132937 0.776898 0.0531319
0.159426 0.778729 0.049012
0.18587 0.780529 0.0454261
0.21239 0.782238 0.0423133
0.239124 0.783856 0.0396735
0.266102 0.785336 0.0375525
0.293309 0.786709 0.0359197
0.320714 0.787961 0.0348058
0.348318 0.789105 0.0341955
0.376059 0.790158 0.0341344
0.403937 0.791104 0.0346227
0.431861 0.791989 0.0356603
0.460014 0.792752 0.0372015
0.487984 0.793515 0.0393378
0.515908 0.794232 0.0420233
0.54374 0.794919 0.0452277
0.571603 0.79556 0.0489204
0.599069 0.796262 0.0531014
0.626322 0.796994 0.0577096
0.6533 0.797742 0.0627604
0.680156 0.798505 0.0681773
0.706554 0.799374 0.0739605
0.732616 0.80029 0.0800488
0.75848 0.801251 0.0864271
0.783856 0.802335 0.0930037
0.80885 0.80351 0.0997787
0.833646 0.804715 0.106783
0.857923 0.806073 0.113924
0.88188 0.807507 0.121187
0.905562 0.809018 0.128573
0.928801 0.810651 0.135973
0.952667 0.812573 0.138674
0.118471 0.801358 0.0711223
0.144976 0.80322 0.0665141
0.171069 0.805158 0.0625925
0.19707 0.807065 0.059144
0.223194 0.808881 0.056199
0.2495 0.810605 0.0536965
0.27602 0.812222 0.0516365
0.302739 0.813733 0.0500191
0.329656 0.815137 0.0488899
