site/assets/luts/freshluts--0000211-monochrome-1.cube
# LUTr-Schema-Version: 2
# LUTr-ID: freshluts--0000211-monochrome-1
# LUTr-Title: MONOCHROME 1
# LUTr-Collection: Fresh LUTs
# LUTr-Collection-ID: freshluts-community
# LUTr-Source: https://freshluts.com
# LUTr-Retrieved: 2026-07-27
# LUTr-Source-File: submissions-raw/freshluts/cubes/211__MONOCHROME_1.cube
# LUTr-Source-Format: CUBE
# LUTr-Source-SHA256: a9865ae1746479443d75e9f176f6a94c4fd444774a9828a0124813ee1e6759cc
# LUTr-License: CC0-1.0
# LUTr-License-URL: https://freshluts.com/termsandconditions
# LUTr-License-Basis: site-terms
# LUTr-Transform-Class: creative-look
# LUTr-Tags: creative, freshluts, community, cube, noir, cinematic, black-and-white, rec709
# LUTr-Input-Color-Space: rec709
# LUTr-Input-Gamut: rec709
# LUTr-Input-Transfer: rec709
# LUTr-Output-Color-Space: srgb
# LUTr-Output-Gamut: rec709
# LUTr-Output-Transfer: srgb
# LUTr-Color-Space-Confidence: declared-by-source
# LUTr-Domain-Normalized: true
# LUTr-Shaper: none
# LUTr-Original-Grid: 16x16x16
# LUTr-Conversion-Grid: 16x16x16
# LUTr-Conversion-Interpolation: none
# LUTr-Conversion-Method: Metadata normalization; numeric LUT samples preserved
# LUTr-Conversion-Tool: LUTr scripts/convert-all-to-cube.mjs 2.0.0
# LUTr-Conversion-Date: 2026-07-28
# LUTr-Asset-URL: https://freshluts.com/luts/211
# LUTr-Author: Andy
# LUTr-Author-URL: https://freshluts.com/users/1003
# LUTr-Attribution: Andy via Fresh LUTs
# LUTr-Source-Labels: gamma=Rec 709; color=Black and white; key=Neutral; style=Noir
# LUTr-Duplicate-Assets: 214:https://freshluts.com/luts/214
# LUTr-Note: Preserve this metadata and the upstream license notices when redistributing.
TITLE "MONOCHROME 1"
LUT_3D_SIZE 6
DOMAIN_MIN 0 0 0
DOMAIN_MAX 1 1 1
0.008758 0.008758 0.008758
0.041338 0.041338 0.041338
0.110871 0.110871 0.110871
0.170478 0.170478 0.170478
0.210586 0.210586 0.210586
0.230636 0.230636 0.230636
0.054796 0.054796 0.054796
0.068694 0.068694 0.068694
0.132308 0.132308 0.132308
0.250324 0.250324 0.250324
0.32743 0.32743 0.32743
0.37501 0.37501 0.37501
0.125094 0.125094 0.125094
0.140111 0.140111 0.140111
0.191027 0.191027 0.191027
0.342747 0.342747 0.342747
0.457032 0.457032 0.457032
0.512144 0.512144 0.512144
0.230422 0.230422 0.230422
0.2353 0.2353 0.2353
0.311752 0.311752 0.311752
0.424254 0.424254 0.424254
0.557744 0.557744 0.557744
0.61788 0.61788 0.61788
0.323523 0.323523 0.323523
0.331919 0.331919 0.331919
0.403075 0.403075 0.403075
0.535123 0.535123 0.535123
0.62585 0.62585 0.62585
0.698713 0.698713 0.698713
0.389605 0.389605 0.389605
0.403358 0.403358 0.403358
0.449307 0.449307 0.449307
0.616657 0.616657 0.616657
0.699742 0.699742 0.699742
0.759983 0.759983 0.759983
0.025886 0.025886 0.025886
0.08314 0.08314 0.08314
0.134521 0.134521 0.134521
0.191102 0.191102 0.191102
0.223795 0.223795 0.223795
0.241834 0.241834 0.241834
0.065275 0.065275 0.065275
0.083835 0.083835 0.083835
0.145234 0.145234 0.145234
0.237621 0.237621 0.237621
0.282485 0.282485 0.282485
0.317581 0.317581 0.317581
0.144945 0.144945 0.144945
0.145179 0.145179 0.145179
0.209213 0.209213 0.209213
0.348202 0.348202 0.348202
0.447411 0.447411 0.447411
0.501045 0.501045 0.501045
0.265374 0.265374 0.265374
0.254566 0.254566 0.254566
0.327564 0.327564 0.327564
0.442511 0.442511 0.442511
0.564641 0.564641 0.564641
0.619991 0.619991 0.619991
0.360234 0.360234 0.360234
0.35239 0.35239 0.35239
0.407674 0.407674 0.407674
0.560128 0.560128 0.560128
0.641212 0.641212 0.641212
0.707276 0.707276 0.707276
0.422361 0.422361 0.422361
0.416558 0.416558 0.416558
0.44752 0.44752 0.44752
0.636246 0.636246 0.636246
0.730474 0.730474 0.730474
0.783436 0.783436 0.783436
0.079283 0.079283 0.079283
0.184796 0.184796 0.184796
0.18333 0.18333 0.18333
0.228085 0.228085 0.228085
0.258624 0.258624 0.258624
0.277741 0.277741 0.277741
0.09678 0.09678 0.09678
0.115933 0.115933 0.115933
0.184916 0.184916 0.184916
0.273885 0.273885 0.273885
0.312693 0.312693 0.312693
0.347424 0.347424 0.347424
0.168525 0.168525 0.168525
0.174356 0.174356 0.174356
0.24809 0.24809 0.24809
0.362431 0.362431 0.362431
0.430708 0.430708 0.430708
0.468902 0.468902 0.468902
0.300223 0.300223 0.300223
0.302717 0.302717 0.302717
0.330157 0.330157 0.330157
0.490091 0.490091 0.490091
0.599578 0.599578 0.599578
0.643394 0.643394 0.643394
0.405225 0.405225 0.405225
0.407747 0.407747 0.407747
0.405685 0.405685 0.405685
0.594276 0.594276 0.594276
0.694361 0.694361 0.694361
0.750895 0.750895 0.750895
0.465407 0.465407 0.465407
0.471034 0.471034 0.471034
0.469497 0.469497 0.469497
0.652773 0.652773 0.652773
0.764657 0.764657 0.764657
0.82553 0.82553 0.82553
0.20373 0.20373 0.20373
0.255041 0.255041 0.255041
0.268412 0.268412 0.268412
0.263161 0.263161 0.263161
0.286586 0.286585 0.286585
0.305566 0.305566 0.305566
0.145156 0.145156 0.145156
0.162998 0.162998 0.162998
0.241348 0.241348 0.241348
0.283046 0.283046 0.283046
0.310139 0.310139 0.310139
0.349199 0.349199 0.349199
0.23247 0.23247 0.23247
0.240025 0.240025 0.240025
0.308943 0.308943 0.308943
0.409429 0.409429 0.409429
0.471792 0.471792 0.471792
0.509754 0.509754 0.509754
0.332319 0.332319 0.332319
0.3394 0.3394 0.3394
0.395567 0.395567 0.395567
0.547238 0.547238 0.547238
0.636418 0.636418 0.636418
0.677212 0.677212 0.677212
0.441341 0.441341 0.441341
0.448376 0.448376 0.448376
0.462917 0.462917 0.462917
0.638687 0.638687 0.638687
0.752109 0.752109 0.752109
0.798896 0.798896 0.798896
0.50565 0.50565 0.50565
0.512917 0.512917 0.512917
0.527288 0.527288 0.527288
0.687205 0.687205 0.687205
0.815429 0.815429 0.815429
0.876237 0.876237 0.876237
0.277177 0.277177 0.277177
0.296365 0.296365 0.296365
0.31133 0.31133 0.31133
0.300871 0.300871 0.300871
0.307722 0.307722 0.307722
0.322713 0.322713 0.322713
0.210487 0.210487 0.210487
0.199178 0.199178 0.199178
0.258921 0.258921 0.258921
0.290476 0.290476 0.290476
0.315439 0.315439 0.315439
0.339851 0.339851 0.339851
0.289752 0.289752 0.289752
0.335585 0.335585 0.335585
0.364327 0.364327 0.364327
0.445427 0.445427 0.445427
0.484563 0.484563 0.484563
0.519157 0.519157 0.519157
0.39304 0.39304 0.39304
0.399403 0.399403 0.399403
0.498897 0.498897 0.498897
0.596755 0.596755 0.596755
0.668343 0.668343 0.668343
0.708793 0.708793 0.708793
0.472761 0.472761 0.472761
0.482397 0.482397 0.482397
0.531671 0.531671 0.531671
0.693977 0.693977 0.693977
0.792473 0.792473 0.792473
0.834418 0.834418 0.834418
0.540096 0.540096 0.540096
0.550451 0.550451 0.550451
0.571839 0.571839 0.571839
0.747991 0.747991 0.747991
0.865838 0.865838 0.865838
0.915992 0.915992 0.915992
0.309796 0.309796 0.309796
0.319619 0.319619 0.319619
0.324652 0.324652 0.324652
0.328301 0.328301 0.328301
0.322106 0.322106 0.322106
0.331512 0.331512 0.331512
0.255515 0.255515 0.255515
0.253324 0.253324 0.253324
0.283934 0.283934 0.283934
0.310806 0.310806 0.310806
0.327112 0.327112 0.327112
0.343121 0.343121 0.343121
0.400016 0.400016 0.400016
0.418072 0.418072 0.418072
0.390968 0.390968 0.390968
0.444709 0.444709 0.444709
0.482517 0.482517 0.482517
0.512833 0.512833 0.512833
0.465088 0.465088 0.465088
0.519526 0.519526 0.519526
0.570684 0.570684 0.570684
0.634695 0.634695 0.634695
0.684882 0.684882 0.684882
0.720644 0.720644 0.720644
0.516787 0.516787 0.516787
0.53961 0.53961 0.53961
0.649562 0.649562 0.649562
0.740008 0.740008 0.740008
0.814335 0.814335 0.814335
0.856371 0.856371 0.856371
0.574324 0.574324 0.574324
0.584825 0.584825 0.584825
0.681543 0.681543 0.681543
0.798152 0.798152 0.798152
0.89567 0.89567 0.89567
0.9407 0.9407 0.9407
