site/assets/luts/freshluts--0000985-night-shift.cube
# LUTr-Schema-Version: 2
# LUTr-ID: freshluts--0000985-night-shift
# LUTr-Title: Night Shift
# LUTr-Collection: Fresh LUTs
# LUTr-Collection-ID: freshluts-community
# LUTr-Source: https://freshluts.com
# LUTr-Retrieved: 2026-07-27
# LUTr-Source-File: submissions-raw/freshluts/cubes/985__Night_Shift.cube
# LUTr-Source-Format: CUBE
# LUTr-Source-SHA256: 1e03f8a8cab47819b52040200311b9463520c71527185f35eee79dd2b84da8ec
# LUTr-License: CC0-1.0
# LUTr-License-URL: https://freshluts.com/termsandconditions
# LUTr-License-Basis: site-terms
# LUTr-Transform-Class: creative-look
# LUTr-Tags: creative, freshluts, community, cube, high-contrast, high-key, rec709
# LUTr-Input-Color-Space: rec709
# LUTr-Input-Gamut: rec709
# LUTr-Input-Transfer: rec709
# LUTr-Output-Color-Space: srgb
# LUTr-Output-Gamut: rec709
# LUTr-Output-Transfer: srgb
# LUTr-Color-Space-Confidence: declared-by-source
# LUTr-Domain-Normalized: true
# LUTr-Shaper: none
# LUTr-Original-Grid: 32x32x32
# LUTr-Conversion-Grid: 32x32x32
# LUTr-Conversion-Interpolation: none
# LUTr-Conversion-Method: Metadata normalization; numeric LUT samples preserved
# LUTr-Conversion-Tool: LUTr scripts/convert-all-to-cube.mjs 2.0.0
# LUTr-Conversion-Date: 2026-07-28
# LUTr-Asset-URL: https://freshluts.com/luts/985
# LUTr-Author: ButterflyBD
# LUTr-Author-URL: https://freshluts.com/users/53416
# LUTr-Attribution: ButterflyBD via Fresh LUTs
# LUTr-Source-Labels: gamma=Rec 709; color=None; key=High Key; style=High contrast
# LUTr-Note: Preserve this metadata and the upstream license notices when redistributing.
# LUTr-Upstream-Comment: Created by: Adobe Photoshop Export Color Lookup Plugin
# LUTr-Upstream-Comment: LUT size
# LUTr-Upstream-Comment: data domain
# LUTr-Upstream-Comment: LUT data points
TITLE "Night Shift"
LUT_3D_SIZE 8
DOMAIN_MIN 0.000000 0.000000 0.000000
DOMAIN_MAX 0.903226 0.903226 0.903226
0.017639 0.019226 0.018311
0.13623 0.00293 0.018311
0.280762 0.007019 0.029572
0.421082 0.012054 0.04248
0.558441 0.022156 0.056335
0.692261 0.034607 0.072113
0.817963 0.046936 0.091003
0.928528 0.070953 0.115112
0.018127 0.162231 0.005188
0.136871 0.152435 0.002838
0.282043 0.124115 0.00528
0.422058 0.11496 0.010712
0.559296 0.120514 0.028442
0.693024 0.126709 0.047394
0.818634 0.133545 0.068237
0.92865 0.15274 0.096588
0.029694 0.31073 0.013916
0.136566 0.311615 0.00824
0.278381 0.292419 0.010376
0.424316 0.279449 0.015228
0.56134 0.269348 0.021423
0.694977 0.261932 0.029999
0.820221 0.256439 0.039948
0.928925 0.272491 0.070465
0.04303 0.442047 0.026794
0.139771 0.443451 0.017883
0.29245 0.444275 0.019958
0.418243 0.4151 0.023712
0.56485 0.40918 0.031891
0.698059 0.398773 0.039673
0.822784 0.391266 0.048401
0.929321 0.39563 0.072571
0.059448 0.567139 0.043152
0.14682 0.569519 0.032623
0.292725 0.570099 0.034515
0.443787 0.568604 0.037903
0.554749 0.532684 0.042633
0.701996 0.531982 0.051758
0.826141 0.522156 0.059204
0.929932 0.521942 0.084656
0.077515 0.691742 0.059753
0.156769 0.695282 0.049377
0.296448 0.69577 0.050812
0.446198 0.696564 0.053406
0.580353 0.684479 0.057129
0.688538 0.649841 0.062073
0.83017 0.654053 0.071747
0.930756 0.647614 0.098938
0.103302 0.818542 0.076447
0.169464 0.822113 0.066284
0.303009 0.822479 0.067444
0.448181 0.82312 0.069458
0.593781 0.824188 0.072449
0.713562 0.801544 0.076508
0.814972 0.768188 0.081604
0.931915 0.772705 0.11496
0.13678 0.928406 0.111176
0.189697 0.928436 0.104614
0.311035 0.928497 0.105743
0.443939 0.92865 0.107819
0.579681 0.928833 0.110901
0.713989 0.929199 0.115143
0.81485 0.903229 0.120422
0.910431 0.876892 0.126923
0.002106 0.019318 0.157013
0.113495 0.00061 0.153503
0.280518 0.002197 0.15802
0.420624 0.005066 0.158325
0.557526 0.00946 0.162689
0.69104 0.016754 0.168732
0.816925 0.028839 0.175537
0.928528 0.052521 0.185486
0.001312 0.15921 0.141907
0.115631 0.148163 0.142242
0.30542 0.096191 0.121521
0.445374 0.08902 0.118286
0.581512 0.091034 0.12323
0.713928 0.096191 0.131866
0.838074 0.102936 0.142578
0.936829 0.13446 0.16391
0.004974 0.31073 0.120728
0.082733 0.332184 0.083221
0.306885 0.313263 0.079651
0.447021 0.262024 0.081726
0.582886 0.240662 0.079651
0.715149 0.232605 0.084625
0.839111 0.236359 0.099335
0.937134 0.264465 0.133026
0.012512 0.442047 0.114563
0.091125 0.460693 0.086273
0.284119 0.464355 0.078613
0.442383 0.430969 0.080688
0.585236 0.403717 0.084381
0.717163 0.385132 0.086182
0.839813 0.373657 0.090393
0.937531 0.384644 0.118988
0.033356 0.567139 0.12265
0.104614 0.584747 0.094421
0.256195 0.588287 0.083496
0.453827 0.589111 0.085419
0.57666 0.546234 0.088257
0.719879 0.531128 0.092468
0.840637 0.516022 0.099213
0.938171 0.516815 0.12735
0.054535 0.691742 0.131897
0.121094 0.709656 0.10495
0.255829 0.713043 0.091492
0.443939 0.713684 0.09314
0.595764 0.704468 0.095703
0.708618 0.66275 0.099152
0.841614 0.655914 0.109314
0.939026 0.647156 0.138031
0.082367 0.818542 0.142242
0.140167 0.8349 0.118073
0.259918 0.834961 0.10611
0.438385 0.835175 0.107971
0.593506 0.835449 0.110748
0.722778 0.814392 0.114624
0.826202 0.778259 0.119568
0.940094 0.776184 0.149841
0.120789 0.928406 0.171143
0.170746 0.937073 0.156494
0.270264 0.937164 0.143158
0.432495 0.937286 0.144806
0.574951 0.937531 0.147278
0.714752 0.937805 0.150665
0.82196 0.914276 0.154999
0.921295 0.887207 0.160339
0.004242 0.028198 0.298004
0.096191 0.000702 0.298401
0.252625 0.002197 0.290253
0.420624 0.005066 0.309448
0.557526 0.00946 0.308167
0.69104 0.016754 0.309509
0.816925 0.028839 0.312042
0.928528 0.052521 0.314423
0.001251 0.160645 0.298798
0.063232 0.115845 0.320862
0.270477 0.078094 0.318268
0.444427 0.077698 0.308167
0.58075 0.076843 0.292328
0.713287 0.078674 0.270294
0.837402 0.082489 0.270386
0.936798 0.111145 0.2742
0.004639 0.302338 0.275269
0.061462 0.327118 0.290314
0.261353 0.295837 0.282196
0.446594 0.247009 0.261169
0.608063 0.205994 0.223267
0.736328 0.199799 0.218933
0.839447 0.217346 0.22995
0.936279 0.243469 0.244904
0.011444 0.442047 0.26767
0.060669 0.460693 0.251617
0.186768 0.481476 0.18634
0.460297 0.445557 0.181061
0.611816 0.37854 0.189392
0.737701 0.350128 0.169464
0.840027 0.35022 0.183716
0.936707 0.371735 0.212585
0.021149 0.567139 0.259521
0.065826 0.584747 0.234497
0.191223 0.606415 0.17215
0.441498 0.609436 0.164093
0.601532 0.560913 0.165649
0.739258 0.520416 0.1698
0.840759 0.503784 0.188385
0.937347 0.50473 0.209137
0.032166 0.691742 0.253845
0.075867 0.709656 0.227051
0.19455 0.728363 0.183167
0.417389 0.731262 0.163513
0.609955 0.732117 0.164978
0.729431 0.674622 0.166992
0.84198 0.650543 0.188782
0.938232 0.640076 0.21524
0.04895 0.818542 0.248962
0.099304 0.8349 0.234619
0.210724 0.835388 0.212769
0.404846 0.835571 0.185638
0.575287 0.835846 0.187378
0.722107 0.822083 0.189728
0.829559 0.782379 0.192871
0.939392 0.772491 0.217468
0.093018 0.928406 0.273895
0.141357 0.937073 0.267212
0.234406 0.936401 0.246613
0.402985 0.936554 0.214203
0.557404 0.936798 0.215759
0.704865 0.937134 0.217987
0.821838 0.91922 0.234619
0.923523 0.89093 0.241089
0.006378 0.035614 0.416656
0.09201 0.004456 0.416962
0.249054 0.002411 0.417633
0.389221 0.005066 0.410614
0.553284 0.00946 0.433502
0.69104 0.016754 0.4375
0.816925 0.028839 0.438965
0.928528 0.052521 0.43692
0.00116 0.158722 0.417206
0.061401 0.113068 0.437866
0.229401 0.070587 0.439026
0.408142 0.073425 0.434814
0.580566 0.075745 0.446869
0.713226 0.078278 0.437439
0.837402 0.082336 0.433105
0.936798 0.111084 0.425049
0.004486 0.318085 0.41861
0.054565 0.315186 0.437012
0.165985 0.229553 0.45459
0.425629 0.187073 0.452728
0.606323 0.176147 0.44101
0.735718 0.170837 0.418671
0.839417 0.185059 0.405151
0.936249 0.206604 0.400177
0.010681 0.429504 0.38504
0.060242 0.451508 0.397949
0.159546 0.474976 0.409973
0.407227 0.426697 0.398834
0.585938 0.378204 0.377594
0.741547 0.343719 0.362549
0.840302 0.35553 0.368286
0.936096 0.371277 0.376221
0.021149 0.567139 0.384125
0.065826 0.584747 0.37854
0.147156 0.606415 0.352936
0.356842 0.599945 0.328857
0.594849 0.566162 0.32486
0.742554 0.502289 0.320831
0.841095 0.486481 0.329559
0.936737 0.491394 0.343872
0.032166 0.691742 0.375671
0.073975 0.709656 0.362579
0.146667 0.728363 0.326355
0.340118 0.737335 0.303589
0.575287 0.737701 0.29599
0.737671 0.685364 0.29776
0.842529 0.644531 0.324829
0.937622 0.632996 0.345978
0.04895 0.818542 0.368683
0.085449 0.8349 0.352448
0.167328 0.835388 0.329346
0.349152 0.836609 0.32373
0.536804 0.836884 0.312347
0.718811 0.837341 0.313995
0.833344 0.790588 0.316101
0.938934 0.769989 0.337952
0.08374 0.928406 0.377045
0.122009 0.937073 0.367401
0.204254 0.936401 0.356262
0.363678 0.936157 0.347961
0.522675 0.936401 0.333038
0.684784 0.936798 0.334595
0.820038 0.927063 0.336609
0.926056 0.89624 0.339081
0.008484 0.042908 0.53418
0.095398 0.013916 0.534424
0.240967 0.002502 0.535004
0.387726 0.005554 0.536102
0.521454 0.00946 0.52829
0.680084 0.016754 0.550964
0.816925 0.028839 0.561981
0.928528 0.052521 0.556213
0.001129 0.159332 0.534607
0.063049 0.115784 0.555908
0.210236 0.067566 0.556458
0.383331 0.070312 0.557495
0.54071 0.073944 0.552338
0.707336 0.077698 0.569885
0.837341 0.082092 0.567719
0.936798 0.110992 0.550201
0.004333 0.313873 0.535797
0.051483 0.294952 0.55426
0.150024 0.218109 0.580292
0.356598 0.162964 0.581085
0.562164 0.165588 0.578735
0.735107 0.167175 0.580841
0.839447 0.183105 0.5513
0.936249 0.205658 0.533966
0.010437 0.446777 0.526825
0.057037 0.46048 0.549896
0.1427 0.461517 0.579651
0.328827 0.380249 0.567047
0.572601 0.344788 0.571136
0.742126 0.327515 0.548584
0.840393 0.339722 0.519714
0.936066 0.353241 0.507751
0.019714 0.550629 0.49649
0.064911 0.571625 0.509491
0.146851 0.596954 0.5224
0.320038 0.593201 0.52652
0.5466 0.54834 0.515472
0.718872 0.500824 0.49173
0.840485 0.490875 0.489624
0.936035 0.501251 0.495026
0.032166 0.691742 0.501862
0.073975 0.709656 0.50061
0.146667 0.728363 0.487915
0.287262 0.737335 0.458588
0.504852 0.722473 0.44931
0.727081 0.686768 0.44342
0.841522 0.636719 0.463318
0.936859 0.62558 0.47052
0.04895 0.818542 0.493927
0.085449 0.8349 0.486908
0.165955 0.835388 0.473053
0.302887 0.836609 0.44751
0.490417 0.837341 0.443939
0.693451 0.837799 0.434204
0.836975 0.798096 0.435791
0.938293 0.767395 0.46109
0.08374 0.928406 0.496582
0.122009 0.937073 0.491669
0.194458 0.936401 0.478271
0.330139 0.936157 0.463226
0.493042 0.936066 0.460144
0.659088 0.936401 0.445801
0.8172 0.936615 0.447235
0.928864 0.902344 0.449127
0.01059 0.050598 0.657593
0.098694 0.022949 0.657837
0.234375 0.002563 0.658447
0.378448 0.005676 0.659454
0.522034 0.010254 0.660919
0.648193 0.016754 0.650513
0.797821 0.028839 0.672913
0.928528 0.052521 0.682495
0.001007 0.161194 0.657959
0.065704 0.120056 0.679993
0.201355 0.068604 0.680542
0.364258 0.06839 0.681458
0.523621 0.072266 0.6828
0.666565 0.076782 0.674713
0.82077 0.081757 0.692291
0.936798 0.110748 0.681763
0.004181 0.311768 0.659088
0.0495 0.274231 0.678162
0.14859 0.217194 0.702393
0.323578 0.15683 0.703003
0.513611 0.1586 0.703918
0.684326 0.16153 0.698547
0.831909 0.180359 0.69397
0.936249 0.204376 0.671051
0.010162 0.454529 0.661163
0.054932 0.454926 0.680145
0.136536 0.434113 0.701233
0.286499 0.356934 0.717773
0.48288 0.30014 0.718262
0.702057 0.30835 0.710602
0.840637 0.331879 0.683044
0.936066 0.349274 0.652557
0.019348 0.567932 0.643616
0.062714 0.583527 0.66449
0.140625 0.599426 0.693115
0.277191 0.585114 0.718811
0.469666 0.505341 0.689453
0.705841 0.473663 0.695404
0.841064 0.476318 0.659576
0.936066 0.487366 0.635162
0.030334 0.670929 0.614777
0.072571 0.692169 0.628662
0.146027 0.71463 0.640381
0.284943 0.729279 0.651581
0.461456 0.713074 0.650421
0.678955 0.668884 0.639648
0.838837 0.625031 0.616394
0.935669 0.636627 0.627441
0.04895 0.818542 0.626282
0.085449 0.8349 0.628235
0.165955 0.835388 0.622528
0.302887 0.836609 0.613739
0.444672 0.837341 0.594513
0.650513 0.836151 0.585968
0.838928 0.805023 0.581573
0.936737 0.768829 0.611969
0.08374 0.928406 0.62323
0.122009 0.937073 0.623016
0.194458 0.936401 0.614716
0.3237 0.936157 0.603516
0.455566 0.936066 0.58609
0.638702 0.935669 0.592804
0.80188 0.936157 0.583099
0.931519 0.909668 0.584625
0.012726 0.058472 0.785217
0.102142 0.031586 0.785461
0.228851 0.002686 0.786011
0.371094 0.005798 0.786957
0.512634 0.010468 0.78833
0.650665 0.01886 0.79068
0.765747 0.028839 0.77652
0.903442 0.052521 0.788605
0.000977 0.16394 0.785522
0.068512 0.125366 0.808289
0.203247 0.078308 0.808746
0.350769 0.066895 0.809631
0.505646 0.070923 0.810883
0.655487 0.07605 0.812561
0.78241 0.081329 0.800079
0.915314 0.110504 0.796387
0.003998 0.310303 0.78653
0.047821 0.272095 0.806244
0.158966 0.222992 0.818634
0.314331 0.163544 0.818909
0.487732 0.165833 0.819244
0.651276 0.169037 0.819672
0.789124 0.176514 0.805573
0.920746 0.202606 0.796539
0.009918 0.453735 0.788422
0.053223 0.448364 0.808075
0.140625 0.418213 0.819092
0.302002 0.359375 0.820251
0.458008 0.310944 0.820618
0.643311 0.312958 0.821045
0.799561 0.320068 0.809998
0.931122 0.343781 0.795685
0.019012 0.585083 0.791443
0.060913 0.591278 0.810791
0.14563 0.579834 0.819824
0.287292 0.541107 0.820953
0.444214 0.488159 0.821716
0.624573 0.449158 0.822205
0.809998 0.455841 0.814545
0.936157 0.477753 0.788971
0.029968 0.689484 0.766235
0.07077 0.706665 0.786224
0.152374 0.712067 0.799316
0.292175 0.709229 0.816681
0.436127 0.686066 0.822784
0.611542 0.631989 0.814056
0.822296 0.604706 0.817719
0.936005 0.623352 0.777039
0.045471 0.793976 0.738586
0.082184 0.814545 0.752594
0.161591 0.821106 0.758423
0.299713 0.825256 0.767303
0.442566 0.829315 0.775146
0.606171 0.830963 0.77832
0.80246 0.792542 0.769073
0.934845 0.769501 0.762115
0.08374 0.928406 0.753418
0.122009 0.937073 0.757446
0.194458 0.936401 0.753845
0.3237 0.936157 0.751129
0.455566 0.936066 0.745697
0.607819 0.935669 0.737946
0.785461 0.934387 0.743927
0.933655 0.916809 0.739868
0.014832 0.066254 0.912537
0.105347 0.039917 0.91275
0.226562 0.005432 0.9133
0.364685 0.00592 0.914215
0.50528 0.011749 0.914551
0.641754 0.022461 0.914886
0.770752 0.037903 0.915375
0.875824 0.052521 0.891602
0.000885 0.166779 0.91275
0.084839 0.1362 0.922852
0.219482 0.098511 0.922974
0.352905 0.081177 0.923126
0.500366 0.086212 0.923401
0.642365 0.092682 0.923767
0.775452 0.100555 0.924225
0.886993 0.110229 0.903259
0.003876 0.295959 0.913727
0.057526 0.271576 0.923004
0.183044 0.235352 0.922333
0.335358 0.192535 0.922485
0.485626 0.186584 0.922791
0.63501 0.189636 0.923157
0.773163 0.193604 0.923615
0.891052 0.200256 0.905853
0.010651 0.453583 0.914551
0.064056 0.440002 0.92334
0.160156 0.408173 0.922638
0.321655 0.36673 0.922363
0.461884 0.327423 0.922638
0.623718 0.327667 0.923004
0.771393 0.330292 0.923553
0.898651 0.336395 0.908875
0.02182 0.581726 0.9151
0.073761 0.575378 0.92395
0.1651 0.556915 0.923218
0.301788 0.522339 0.922882
0.456055 0.489136 0.92276
0.605377 0.456482 0.923157
0.766754 0.458099 0.923676
0.906372 0.463867 0.912354
0.035461 0.703125 0.910126
0.085968 0.706665 0.923462
0.171692 0.696777 0.924072
0.30658 0.67569 0.923767
0.44281 0.648346 0.923584
0.607544 0.623352 0.923218
0.759766 0.599426 0.923737
0.914978 0.604675 0.916138
0.054443 0.804169 0.883759
0.10022 0.811523 0.896118
0.180023 0.811432 0.901062
0.312622 0.809723 0.911102
0.447021 0.807007 0.922668
0.600983 0.791321 0.924438
0.761963 0.769531 0.923126
0.924255 0.755585 0.919617
0.076111 0.904785 0.858765
0.11618 0.916046 0.870209
0.190155 0.918518 0.873505
0.320068 0.921295 0.880646
0.452393 0.924408 0.887878
0.605713 0.927643 0.895844
0.761993 0.930298 0.901794
0.921204 0.915863 0.899078
