site/assets/luts/freshluts--0000266-dusty-orange.cube
# LUTr-Schema-Version: 2
# LUTr-ID: freshluts--0000266-dusty-orange
# LUTr-Title: Dusty Orange
# LUTr-Collection: Fresh LUTs
# LUTr-Collection-ID: freshluts-community
# LUTr-Source: https://freshluts.com
# LUTr-Retrieved: 2026-07-27
# LUTr-Source-File: submissions-raw/freshluts/cubes/266__Dusty_Orange.cube
# LUTr-Source-Format: CUBE
# LUTr-Source-SHA256: ab706ea8b873a4d0e6a009420ffd93ef627fa44b290cb0f70e467b2be2829604
# LUTr-License: CC0-1.0
# LUTr-License-URL: https://freshluts.com/termsandconditions
# LUTr-License-Basis: site-terms
# LUTr-Transform-Class: creative-look
# LUTr-Tags: creative, freshluts, community, cube, orange, low-key, rec709, warm
# LUTr-Input-Color-Space: rec709
# LUTr-Input-Gamut: rec709
# LUTr-Input-Transfer: rec709
# LUTr-Output-Color-Space: srgb
# LUTr-Output-Gamut: rec709
# LUTr-Output-Transfer: srgb
# LUTr-Color-Space-Confidence: declared-by-source
# LUTr-Domain-Normalized: true
# LUTr-Shaper: none
# LUTr-Original-Grid: 16x16x16
# LUTr-Conversion-Grid: 16x16x16
# LUTr-Conversion-Interpolation: none
# LUTr-Conversion-Method: Metadata normalization; numeric LUT samples preserved
# LUTr-Conversion-Tool: LUTr scripts/convert-all-to-cube.mjs 2.0.0
# LUTr-Conversion-Date: 2026-07-28
# LUTr-Asset-URL: https://freshluts.com/luts/266
# LUTr-Author: FinnYoutube
# LUTr-Author-URL: https://freshluts.com/users/5419
# LUTr-Attribution: FinnYoutube via Fresh LUTs
# LUTr-Source-Labels: gamma=Rec 709; color=Orange; key=Low Key; style=Dusty Light
# LUTr-Note: Preserve this metadata and the upstream license notices when redistributing.
TITLE "Dusty Orange"
LUT_3D_SIZE 6
DOMAIN_MIN 0 0 0
DOMAIN_MAX 1 1 1
0 0 0
0.140164 -0.00064 -0.00064
0.357518 -0.001476 -0.001476
0.565849 -0.002339 -0.002339
0.81165 -0.003408 -0.003408
1.113062 -0.00464 -0.00464
0.06432 0.100729 0.06432
0.140163 0.110221 -0.001037
0.357518 0.133196 -0.001702
0.565848 0.142772 -0.002487
0.81165 0.159117 -0.003509
1.113062 0.17646 -0.004729
0.188749 0.274651 0.188749
0.177475 0.292897 0.071145
0.357517 0.295189 -0.002397
0.565848 0.312662 -0.003011
0.811649 0.342588 -0.003938
1.113062 0.374419 -0.005082
0.312525 0.441314 0.312525
0.3569 0.437599 0.344754
0.378078 0.47212 -0.003479
0.565848 0.47212 -0.003788
0.811649 0.514962 -0.004654
1.113061 0.56055 -0.005718
0.458082 0.637747 0.458082
0.495334 0.633978 0.485117
0.434608 0.675964 0.205512
0.616253 0.68083 -0.005152
0.811648 0.680829 -0.005528
1.113061 0.739829 -0.006559
0.620652 0.857394 0.620652
0.65141 0.854127 0.642745
0.71376 0.85537 0.678006
0.670054 0.914089 -0.006797
0.881165 0.914088 -0.007133
1.11306 0.914088 -0.007541
-0.000311 -0.000311 0.097386
0.140164 -0.000683 0.097386
0.357518 -0.001496 0.117894
0.565849 -0.002354 0.12674
0.81165 -0.003425 0.141802
1.113062 -0.004662 0.157835
-0.000918 0.110221 0.097386
0.147816 0.107849 0.089529
0.378161 0.080107 0.058861
0.579925 0.067356 0.044407
0.820464 0.062409 0.038558
1.113062 0.110201 0.097349
0.142537 0.284356 0.174668
0.224349 0.276175 0.216399
0.361703 0.294582 0.044897
0.573032 0.301582 0.040385
0.817704 0.324358 0.037772
1.113062 0.357654 0.097353
0.29085 0.446731 0.303162
0.333167 0.441687 0.3282
0.367465 0.473278 0.038614
0.567997 0.471853 0.03792
0.814884 0.509583 0.037535
1.113061 0.553542 0.097345
0.443675 0.641575 0.451331
0.470216 0.637958 0.467149
0.459937 0.667089 0.335262
0.611169 0.681196 0.037915
0.812906 0.680689 0.038419
1.113061 0.736964 0.097326
0.609775 0.860258 0.615395
0.628365 0.857368 0.626415
0.71644 0.852299 0.687987
0.660247 0.914562 0.040986
0.87803 0.91427 0.041861
1.11306 0.914087 0.097313
-0.000717 -0.000717 0.267247
0.16725 -0.000977 0.267247
0.357518 -0.001582 0.267247
0.565848 -0.002404 0.283393
0.81165 -0.003459 0.310912
1.113062 -0.004684 0.340257
-0.001187 0.133197 0.267247
0.141566 0.099014 0.297985
0.379316 0.06949 0.27719
0.582208 0.052515 0.273231
0.822288 0.044635 0.290963
1.113062 0.110201 0.324835
-0.002115 0.29519 0.267246
0.086137 0.299902 0.266708
0.373426 0.290132 0.249567
0.608862 0.260329 0.213497
0.855205 0.227753 0.174685
1.113062 0.295181 0.267237
0.04764 0.471462 0.285743
0.170858 0.46979 0.286593
0.332831 0.479374 0.188835
0.579853 0.469612 0.174988
0.835079 0.488332 0.152955
1.113062 0.53036 0.267234
0.361964 0.658044 0.428759
0.397408 0.654993 0.439653
0.532599 0.640931 0.51598
0.59406 0.684275 0.142326
0.820398 0.679499 0.136082
1.113061 0.728595 0.267228
0.556584 0.872638 0.596143
0.575515 0.870607 0.603027
0.673627 0.858501 0.661233
0.620236 0.91777 0.123765
0.867477 0.915788 0.121483
1.11306 0.914088 0.267219
-0.001138 -0.001138 0.430196
0.178456 -0.001312 0.430196
0.292849 0.183873 0.32041
0.565848 -0.0025 0.430195
0.81165 -0.003526 0.46961
1.113062 -0.004751 0.511629
-0.001484 0.142775 0.430196
0.128097 0.082133 0.474548
0.336016 0.167091 0.383568
0.580393 0.051296 0.437617
0.821644 0.044352 0.466466
1.113062 0.1102 0.505147
-0.002346 0.312663 0.430195
0.080364 0.307893 0.447499
0.369409 0.284301 0.461307
0.611165 0.249865 0.443581
0.86143 0.20624 0.446782
1.113062 0.29518 0.483796
-0.003357 0.47212 0.430194
0.062716 0.475185 0.430416
0.314016 0.480399 0.423284
0.589771 0.464544 0.403642
0.868848 0.432822 0.366312
1.113062 0.472116 0.43019
-0.0048 0.68083 0.469608
0.055197 0.682941 0.46044
0.357631 0.680803 0.456305
0.540722 0.690239 0.329233
0.834693 0.676325 0.309585
1.113061 0.709119 0.430187
0.334767 0.902753 0.55988
0.380155 0.900437 0.564714
0.556089 0.887646 0.61066
0.735849 0.869748 0.702558
0.840325 0.919076 0.263701
1.11306 0.914088 0.430183
-0.001659 -0.001659 0.622238
0.197623 -0.00179 0.622238
0.41333 -0.002247 0.622238
0.474656 0.30805 0.477667
0.811649 -0.003639 0.622237
1.113062 -0.004836 0.676515
-0.001934 0.159124 0.622238
0.113304 0.06552 0.66267
0.409354 0.055408 0.646001
0.480958 0.315048 0.486506
0.820651 0.043966 0.626991
1.113062 0.110198 0.674032
-0.002742 0.34259 0.622238
0.071989 0.329194 0.645101
0.36043 0.270944 0.686696
0.512023 0.373095 0.525255
0.857468 0.201945 0.643093
1.113062 0.29518 0.666261
-0.003769 0.514963 0.622237
0.059523 0.512911 0.62905
0.294583 0.504918 0.658322
0.585412 0.458243 0.657424
0.867527 0.426063 0.63434
1.113062 0.472116 0.648296
-0.004886 0.68083 0.622236
0.055035 0.682606 0.622443
0.241997 0.690712 0.621107
0.52674 0.689947 0.609491
0.84503 0.670178 0.585207
1.113061 0.680828 0.622234
-0.006578 0.914089 0.676513
0.054566 0.915362 0.671527
0.200867 0.922983 0.645395
0.586708 0.910324 0.661307
0.790034 0.924915 0.49977
1.11306 0.914087 0.622232
-0.002255 -0.002255 0.836909
0.217998 -0.002368 0.836909
0.450811 -0.002777 0.836909
0.670059 -0.00341 0.836908
0.796824 0.322156 0.761156
1.113062 -0.004947 0.836907
-0.002488 0.176475 0.836909
0.103418 0.054018 0.868303
0.436087 0.049208 0.858127
0.669534 0.045015 0.848992
0.789705 0.342082 0.757258
1.113062 0.110195 0.836907
-0.003237 0.374427 0.836908
0.064809 0.353501 0.859778
0.348076 0.263279 0.899818
0.66719 0.21733 0.897303
0.779955 0.417969 0.756262
1.113062 0.295179 0.836907
-0.004284 0.560552 0.836908
0.056937 0.554214 0.846306
0.2772 0.529 0.893956
0.57416 0.453392 0.893998
0.730176 0.559769 0.725672
1.113062 0.472116 0.836906
-0.005436 0.739832 0.836906
0.054345 0.738297 0.840053
0.227228 0.735498 0.858296
0.510107 0.714208 0.877844
0.766817 0.704566 0.779861
1.113061 0.680828 0.836905
-0.006662 0.914089 0.836905
0.054649 0.915204 0.837092
0.199335 0.9217 0.837159
0.432201 0.929657 0.832765
0.795489 0.918887 0.8264
1.11306 0.914087 0.836903
