site/assets/luts/freshluts--0000683-canon-footage-correction.cube
# LUTr-Schema-Version: 2
# LUTr-ID: freshluts--0000683-canon-footage-correction
# LUTr-Title: Canon footage( Correction)
# LUTr-Collection: Fresh LUTs
# LUTr-Collection-ID: freshluts-community
# LUTr-Source: https://freshluts.com
# LUTr-Retrieved: 2026-07-27
# LUTr-Source-File: submissions-raw/freshluts/cubes/683__corr-canon_9.C2AIAEP200081.cube
# LUTr-Source-Format: CUBE
# LUTr-Source-SHA256: d596fc445eac3b657829fdf08ea3be3c36ac3d6af12bbe72fe7a64659ef2f648
# LUTr-License: CC0-1.0
# LUTr-License-URL: https://freshluts.com/termsandconditions
# LUTr-License-Basis: site-terms
# LUTr-Transform-Class: creative-look
# LUTr-Tags: creative, freshluts, community, cube, high-key, rec709, correction
# LUTr-Input-Color-Space: rec709
# LUTr-Input-Gamut: rec709
# LUTr-Input-Transfer: rec709
# LUTr-Output-Color-Space: srgb
# LUTr-Output-Gamut: rec709
# LUTr-Output-Transfer: srgb
# LUTr-Color-Space-Confidence: declared-by-source
# LUTr-Domain-Normalized: true
# LUTr-Shaper: none
# LUTr-Original-Grid: 33x33x33
# LUTr-Conversion-Grid: 33x33x33
# LUTr-Conversion-Interpolation: none
# LUTr-Conversion-Method: Metadata normalization; numeric LUT samples preserved
# LUTr-Conversion-Tool: LUTr scripts/convert-all-to-cube.mjs 2.0.0
# LUTr-Conversion-Date: 2026-07-28
# LUTr-Asset-URL: https://freshluts.com/luts/683
# LUTr-Author: lvannoeun@gmail.com
# LUTr-Author-URL: https://freshluts.com/users/57563
# LUTr-Attribution: lvannoeun@gmail.com via Fresh LUTs
# LUTr-Source-Labels: gamma=Rec 709; color=None; key=High Key; style=Colorful
# LUTr-Note: Preserve this metadata and the upstream license notices when redistributing.
TITLE "Canon footage( Correction)"
LUT_3D_SIZE 9
DOMAIN_MIN 0 0 0
DOMAIN_MAX 1 1 1
0 0 0
0 0 0
0.0998856 0 0
0.298589 0 0
0.527764 0 0
0.711788 0 0
0.847974 0 0
0.951659 0 0
1 0 0
0 0.00915541 0
0.047013 0.0391699 0
0.195331 0.0464485 0
0.385519 0.0392767 0
0.579461 0.0324407 0
0.75964 0.0329747 0
0.900099 0.048661 0
1 0.0766155 0
1 0.109697 0.00868238
0 0.176684 0
0.0887312 0.191455 0
0.232837 0.204837 0
0.432227 0.206363 0
0.636774 0.211032 0
0.823133 0.223239 0
0.966842 0.247242 0.0182803
1 0.27808 0.0466926
1 0.308949 0.0731975
0 0.360571 0
0.118318 0.386023 0.0138247
0.254734 0.415976 0
0.457801 0.424155 0.000640879
0.661265 0.429328 0.00517281
0.842115 0.437827 0.0129397
0.980041 0.457145 0.0302586
1 0.483955 0.0532235
1 0.511498 0.0766461
0.0164187 0.57644 0.0256657
0.148821 0.600366 0.041062
0.285359 0.621637 0.0460212
0.461784 0.635691 0.00128176
0.661326 0.636942 0.00239567
0.839124 0.642145 0.007187
0.9729 0.656672 0.0200351
1 0.676692 0.0378119
1 0.695964 0.0541238
0.0461891 0.775601 0.051606
0.17554 0.795697 0.0647288
0.312703 0.811612 0.0729839
0.474769 0.822339 0.0296941
0.657481 0.822354 0
0.827863 0.819104 0
0.954238 0.824094 0
1 0.834058 0.00761425
1 0.843641 0.0166476
0.0988327 0.945418 0.0970932
0.220569 0.958007 0.103822
0.350072 0.965042 0.104814
0.506539 0.963394 0.0734264
0.662211 0.962463 0.000976577
0.822858 0.950912 0
0.941741 0.947662 0
1 0.95021 0
1 0.953201 0
0.154757 1 0.139116
0.26273 1 0.138262
0.383352 1 0.131121
0.532372 1 0.0996414
0.673381 1 0.0204318
0.822232 1 0
0.936172 1 0
1 1 0
1 1 0
0.184466 1 0.162615
0.28481 1 0.155779
0.399176 1 0.143023
0.544228 1 0.111131
0.679805 1 0.0389715
0.817243 1 0
0.928954 1 0
1 1 0
1 1 0
0 0 0
0 0 0
0.106081 0 0
0.321065 0 0
0.535378 0 0
0.716381 0 0
0.852171 0 0
0.956359 0 0.0155337
1 0 0.0372168
0 0.0255589 0.024155
0.0535134 0.0448157 0.0422522
0.200198 0.0507057 0.0478676
0.390265 0.0436561 0.041001
0.585138 0.037644 0.0352178
0.766079 0.0394141 0.0370642
0.907301 0.0565194 0.0536355
1 0.0856031 0.0817884
1 0.119188 0.114549
0 0.181781 0.0719463
0.0991989 0.196002 0.0830854
0.240162 0.211658 0.0818036
0.440864 0.214466 0.0843214
0.645991 0.220111 0.0897841
0.831922 0.232761 0.101564
0.974945 0.256596 0.123919
1 0.286717 0.151705
1 0.316747 0.179263
0 0.369177 0.0915084
0.130434 0.395346 0.110414
0.270161 0.422263 0.117357
0.466667 0.433082 0.10515
0.669093 0.437522 0.1093
0.848997 0.445762 0.116793
0.986481 0.465019 0.134066
1 0.491386 0.157671
1 0.518196 0.181933
0.0291905 0.584833 0.120134
0.159991 0.608103 0.136019
0.298436 0.627939 0.147509
0.469627 0.642863 0.106371
0.668162 0.643992 0.105669
0.844862 0.648676 0.109972
0.977661 0.662425 0.122393
1 0.681498 0.13959
1 0.699763 0.156008
0.0579538 0.782559 0.145357
0.186282 0.802197 0.159075
0.322148 0.817487 0.167773
0.488045 0.823896 0.144137
0.662058 0.826612 0.0973831
0.831159 0.822522 0.0933394
0.956466 0.826566 0.0971847
1 0.835676 0.105989
1 0.844465 0.114519
0.108553 0.949828 0.18967
0.228534 0.961639 0.196658
0.356435 0.967849 0.197177
0.515068 0.963272 0.175357
0.665293 0.962676 0.104341
0.823423 0.951476 0.0834363
0.941741 0.94757 0.0794537
1 0.949523 0.0814221
1 0.952026 0.084123
0.160647 1 0.231922
0.267491 1 0.231144
0.386511 1 0.223072
0.53782 1 0.197253
0.677913 1 0.129183
0.821118 1 0.0793927
0.934813 1 0.0706035
1 1 0.0683604
1 1 0.0677348
0.187671 1 0.255268
0.287236 1 0.248157
0.400427 1 0.234333
0.547616 1 0.206256
0.685206 1 0.147158
0.815808 1 0.0741588
0.926848 1 0.0607156
1 1 0.0564889
1 1 0.0547341
0 0 0.0721294
0 0 0.0797742
0.112291 0 0.0860609
0.3355 0 0.110002
0.540368 0 0.112078
0.719661 0 0.109239
0.855329 0 0.116838
0.960021 0 0.13521
1 0 0.159564
0 0.0360723 0.151766
0.0575418 0.0481727 0.163821
0.20322 0.0533455 0.169024
0.393774 0.0466773 0.162081
0.589609 0.0416724 0.157153
0.77142 0.0447089 0.160204
0.913542 0.0631266 0.178759
1 0.093019 0.209567
1 0.126726 0.244648
0 0.188876 0.181003
0.103227 0.201877 0.19379
0.246189 0.217105 0.207568
0.448157 0.221103 0.211505
0.65333 0.227588 0.217792
0.838926 0.24036 0.230503
0.981292 0.263645 0.253651
1 0.292927 0.282551
1 0.322316 0.311864
0.00489815 0.377432 0.202533
0.142168 0.402869 0.226459
0.283787 0.427756 0.245975
0.473426 0.439796 0.23331
0.674876 0.443534 0.236789
0.854154 0.451667 0.244709
0.99118 0.470649 0.262959
1 0.496422 0.287861
1 0.522499 0.313268
0.038819 0.591806 0.233433
0.170535 0.61355 0.252949
0.307713 0.633417 0.266819
0.478706 0.646143 0.243778
0.673045 0.648936 0.231952
0.84863 0.653025 0.235966
0.980499 0.665904 0.248264
1 0.68394 0.265949
1 0.70106 0.283024
0.0674449 0.787808 0.260166
0.196017 0.806271 0.276707
0.330449 0.820844 0.286427
0.499046 0.823865 0.276402
0.664515 0.828748 0.220768
0.832471 0.823804 0.215351
0.956817 0.826902 0.218479
1 0.835126 0.227085
1 0.843122 0.235523
0.115892 0.952117 0.30547
0.235294 0.962646 0.314031
0.361501 0.967987 0.314641
0.521172 0.961288 0.298482
0.669581 0.958968 0.238804
0.822217 0.950057 0.202121
0.939986 0.945541 0.197223
1 0.946883 0.198642
1 0.94902 0.200885
0.164569 1 0.348074
0.27097 1 0.347951
0.388693 1 0.339742
0.539986 1 0.315877
0.683833 1 0.266636
0.818326 1 0.196567
0.931685 1 0.186175
1 1 0.183673
1 1 0.182818
0.189288 1 0.37084
0.288441 1 0.364096
0.40087 1 0.349981
0.547387 1 0.321721
0.689754 1 0.277821
0.813535 1 0.195514
0.922927 1 0.174823
1 1 0.170718
1 1 0.168826
0 0 0.248386
0 0 0.258625
0.11606 0 0.270878
0.339757 0 0.297383
0.539117 0 0.293721
0.717739 0 0.289509
0.853803 0 0.298039
0.959319 0 0.319188
1 0 0.347051
0 0.0364385 0.339635
0.0553445 0.0460365 0.349752
0.200839 0.0508736 0.354894
0.392111 0.044892 0.347982
0.58912 0.0409705 0.34374
0.772122 0.0451972 0.348241
0.915099 0.0647898 0.369512
1 0.0951705 0.403189
1 0.128832 0.440391
0 0.191806 0.371099
0.0940414 0.203861 0.384985
0.247242 0.2177 0.399771
0.450019 0.222843 0.40499
0.655879 0.229679 0.412253
0.840986 0.242405 0.425284
0.982406 0.265064 0.448966
1 0.293431 0.478141
1 0.32256 0.508049
0 0.386343 0.37409
0.135332 0.410101 0.398169
0.285176 0.431876 0.420233
0.474739 0.440879 0.427359
0.675517 0.443946 0.43035
0.854658 0.452003 0.43859
0.991302 0.470649 0.457252
1 0.495827 0.482567
1 0.521157 0.507973
0.039292 0.595453 0.401389
0.173953 0.615564 0.422827
0.314366 0.633799 0.441352
0.489555 0.642023 0.445029
0.67274 0.648249 0.424216
0.847486 0.651621 0.427527
0.978622 0.663554 0.439597
1 0.680598 0.457221
1 0.696712 0.473793
0.0700999 0.789166 0.429099
0.199847 0.80621 0.447486
0.335973 0.818814 0.460533
0.503136 0.820493 0.455955
0.664439 0.823316 0.42005
0.828534 0.819409 0.402319
0.952148 0.821561 0.404654
1 0.828931 0.412985
1 0.836255 0.421012
0.116426 0.950515 0.473655
0.236835 0.959289 0.483482
0.363912 0.962798 0.486427
0.520928 0.955581 0.471397
0.675517 0.947005 0.444999
0.815763 0.943236 0.384817
0.933318 0.938048 0.378912
1 0.938918 0.379828
1 0.940551 0.381888
0.162387 1 0.514244
0.269993 1 0.515511
0.388556 1 0.5093
0.53724 1 0.486275
0.685954 1 0.457221
0.812009 1 0.384649
0.923888 1 0.365515
1 1 0.362295
1 1 0.361135
0.185092 1 0.535409
0.285924 1 0.530144
0.398871 1 0.518044
0.543526 1 0.490745
0.689479 1 0.460304
0.811994 1 0.397375
0.914382 1 0.352499
0.997238 1 0.34786
1 1 0.345708
0 0 0.452903
0 0 0.465843
0.129381 0 0.494835
0.338567 0 0.50692
0.535225 0 0.500359
0.713939 0 0.495613
0.850584 0 0.504967
0.957214 0 0.527535
1 0 0.557015
0 0.0337224 0.548043
0.0510567 0.0420233 0.556893
0.196963 0.0468299 0.561959
0.388983 0.0417029 0.556069
0.587213 0.03888 0.552972
0.771496 0.0443427 0.558785
0.915526 0.0650187 0.581353
1 0.0959182 0.615488
1 0.129503 0.652445
0 0.189227 0.580972
0.0926223 0.202167 0.594858
0.246952 0.217319 0.611017
0.450767 0.223285 0.61709
0.656886 0.230396 0.624628
0.841596 0.242878 0.637293
0.982345 0.26479 0.660075
1 0.2925 0.68835
1 0.321599 0.717754
0 0.393591 0.588052
0.117433 0.416159 0.612726
0.27274 0.435737 0.633982
0.47451 0.440314 0.638422
0.674876 0.442985 0.640986
0.85391 0.450889 0.649012
0.990219 0.469169 0.66717
1 0.493797 0.691691
1 0.518395 0.715908
0.0165103 0.603296 0.591867
0.155215 0.622217 0.611093
0.300801 0.638788 0.627817
0.487221 0.642985 0.632303
0.670695 0.645991 0.633463
0.844984 0.648478 0.635904
0.975311 0.659525 0.647105
1 0.675608 0.66363
1 0.690776 0.67892
0.0619059 0.792081 0.611276
0.195193 0.807202 0.628885
0.334478 0.817746 0.641688
0.505745 0.816556 0.64097
0.670298 0.814115 0.63415
0.822904 0.813199 0.607523
0.945815 0.814481 0.608774
1 0.821027 0.615961
1 0.82768 0.623484
0.111482 0.948959 0.65275
0.233387 0.956024 0.661936
0.361257 0.957992 0.664851
0.520943 0.948425 0.653971
0.675242 0.938003 0.636576
0.809277 0.933455 0.593423
0.924773 0.928817 0.580301
1 0.929107 0.580667
1 0.930419 0.582162
0.155886 1 0.689754
0.264561 1 0.690959
0.383932 1 0.685222
0.535225 1 0.666499
0.682582 1 0.642222
0.812848 1 0.609949
0.914092 1 0.565362
0.997864 1 0.561822
1 1 0.560433
0.177493 1 0.708721
0.27895 1 0.703578
0.393545 1 0.692973
0.540658 1 0.6701
0.684688 1 0.642451
0.813809 1 0.612955
0.905592 1 0.557778
0.987228 1 0.54696
1 1 0.544808
0 0 0.651865
0 0 0.667887
0.136507 0 0.703822
0.336614 0 0.706737
0.531975 0 0.698878
0.710674 0 0.694392
0.848295 0 0.704372
0.9561 0 0.727306
1 0 0.756802
0 0.0311437 0.745174
0.0476081 0.0387427 0.753246
0.193973 0.0439307 0.758389
0.387091 0.0397192 0.753948
0.586557 0.0380255 0.752178
0.772122 0.0447852 0.75906
0.917189 0.0664073 0.781659
1 0.0977951 0.814084
1 0.131289 0.848463
0 0.187701 0.778073
0.0926833 0.201907 0.792493
0.24828 0.218341 0.808972
0.452796 0.22501 0.815381
0.658839 0.232273 0.822599
0.843366 0.244251 0.834363
0.983291 0.265583 0.854841
1 0.292988 0.880781
1 0.322133 0.907958
0 0.396536 0.791897
0.117433 0.418204 0.813214
0.274022 0.436896 0.830808
0.474983 0.440726 0.834257
0.67538 0.443198 0.836484
0.854215 0.450919 0.843885
0.990204 0.468849 0.860487
1 0.492958 0.882628
1 0.516884 0.904219
0 0.610925 0.790906
0.13193 0.629129 0.809766
0.279286 0.644755 0.826337
0.473381 0.646067 0.829664
0.669657 0.644602 0.828
0.84329 0.646235 0.82948
0.972885 0.656413 0.839048
1 0.671702 0.853162
1 0.685878 0.866423
0.0363928 0.799969 0.792691
0.170596 0.814084 0.807126
0.310796 0.823499 0.816617
0.489113 0.819303 0.812345
0.664424 0.812375 0.805188
0.817975 0.807752 0.799313
0.940368 0.808133 0.799664
1 0.813947 0.805692
1 0.820081 0.811765
0.0932479 0.951949 0.821851
0.21709 0.957351 0.828367
0.348455 0.957244 0.82919
0.514138 0.9449 0.817472
0.674067 0.931411 0.804395
0.811124 0.922011 0.79144
0.916915 0.920287 0.770397
1 0.920119 0.770199
1 0.92108 0.771206
0.140246 1 0.851316
0.251545 1 0.85098
0.374121 1 0.844999
0.529442 1 0.827405
0.680415 1 0.808454
0.811612 1 0.789731
0.906966 1 0.761715
0.988785 1 0.751369
1 1 0.749905
0.164004 1 0.866224
0.268101 1 0.86096
0.385107 1 0.850813
0.534752 1 0.83006
0.682063 1 0.808148
0.810437 1 0.786389
0.906065 1 0.768215
0.977676 1 0.736919
1 1 0.734508
0 0 0.803738
0 0 0.823987
0.143389 0 0.85861
0.338125 0 0.856687
0.532555 0 0.848554
0.71162 0 0.844724
0.850172 0 0.855238
0.95903 0 0.878248
1 0 0.907591
0 0.0320134 0.89276
0.0485695 0.0393683 0.900145
0.19559 0.0451972 0.905837
0.389792 0.0420081 0.902632
0.590433 0.0415656 0.902144
0.776822 0.0496681 0.910094
0.922393 0.0721294 0.932509
1 0.103639 0.963989
1 0.136736 0.996872
0 0.190448 0.926284
0.0972152 0.205997 0.941268
0.253941 0.223575 0.958038
0.458869 0.230716 0.964904
0.66453 0.237995 0.971633
0.848051 0.2495 0.982605
0.98735 0.270054 1
1 0.297292 1
1 0.326329 1
0 0.402426 0.942916
0.123156 0.423667 0.962524
0.279042 0.441672 0.978744
0.479469 0.444816 0.981613
0.679484 0.447318 0.983795
0.857816 0.454826 0.990585
0.993286 0.472297 1
1 0.495766 1
1 0.518853 1
0 0.61738 0.94345
0.129427 0.634684 0.96112
0.279774 0.649088 0.97586
0.476539 0.649119 0.976165
0.672053 0.646891 0.973999
0.844617 0.647745 0.974533
0.97351 0.656977 0.982864
1 0.671305 0.995621
1 0.684535 1
0.016846 0.809323 0.94023
0.151385 0.822309 0.953826
0.290562 0.830823 0.963073
0.470481 0.824857 0.958755
0.651713 0.814862 0.950988
0.816464 0.805951 0.942428
0.938186 0.805508 0.941939
1 0.810712 0.946807
1 0.816144 0.952148
0.0717021 0.959014 0.957229
0.194461 0.963577 0.962005
0.324697 0.962798 0.961166
0.492302 0.949081 0.946944
0.658015 0.933257 0.930648
0.805203 0.920073 0.917205
0.913176 0.915312 0.912337
0.998688 0.914946 0.911254
1 0.915602 0.911711
0.120027 1 0.977935
0.231159 1 0.976059
0.355123 1 0.968612
0.514809 1 0.949035
0.672892 1 0.929229
0.810376 1 0.913787
0.908827 0.995514 0.905562
0.983505 0.995834 0.892622
1 0.994018 0.890501
0.145739 1 0.987945
0.250797 1 0.98175
0.370275 1 0.970642
0.525277 1 0.949401
0.677546 1 0.928283
0.809339 1 0.910628
0.905638 1 0.900236
0.976776 1 0.890654
1 1 0.8766
0 0 0.912688
0 0 0.947036
0.150729 0 0.968368
0.342733 0 0.963928
0.536751 0 0.955627
0.716197 0 0.952575
0.855528 0 0.964111
0.965454 0 0.988144
1 0 1
0 0.0359503 0.999344
0.0533608 0.0432441 1
0.200946 0.0499886 1
0.396399 0.0478981 1
0.598123 0.0487373 1
0.785092 0.0581064 1
0.930938 0.0810712 1
1 0.112566 1
1 0.145068 1
0 0.196887 1
0.105455 0.213687 1
0.26302 0.232151 1
0.468101 0.239597 1
0.673167 0.246647 1
0.855375 0.257557 1
0.99379 0.277516 1
1 0.304768 1
1 0.33344 1
0 0.411276 1
0.131624 0.432135 1
0.286717 0.449348 1
0.486656 0.45211 1
0.68632 0.454505 1
0.863859 0.461784 1
0.998581 0.478691 1
1 0.501381 1
1 0.523583 1
0 0.625254 1
0.13489 0.642008 1
0.285939 0.655741 1
0.482383 0.655085 1
0.677073 0.652064 1
0.848585 0.652079 1
0.976181 0.660487 1
1 0.673686 1
1 0.68603 1
0.0121614 0.817761 1
0.146868 0.829648 1
0.286687 0.836759 1
0.469368 0.828809 1
0.653422 0.816922 1
0.817411 0.807111 1
0.938567 0.805875 1
1 0.810437 1
1 0.815244 1
0.0584421 0.966461 1
0.179858 0.970169 1
0.308537 0.968719 1
0.47602 0.954009 1
0.643381 0.936797 1
0.795712 0.921324 1
0.911421 0.913832 1
0.996826 0.912978 1
1 0.913268 1
0.10338 1 1
0.213458 1 1
0.336217 1 1
0.496208 1 1
0.656001 1 1
0.798627 1 1
0.903792 0.994827 0.994797
0.981872 0.992813 0.992676
1 0.991119 0.990707
0.129213 1 1
0.233906 1 1
0.353506 1 1
0.510552 1 1
0.667079 1 1
0.805127 1 0.997284
0.905562 1 0.988632
0.978485 1 0.986618
1 1 0.976852
0 0 1
0 0 1
0.157794 0 1
0.348501 0 1
0.542306 0 1
0.722454 0 1
0.862333 0 1
0.973449 0 1
1 0 1
0 0.0408484 1
0.0595712 0.0483558 1
0.207828 0.0561685 1
0.404578 0.0552224 1
0.607355 0.0574044 1
0.794598 0.0678264 1
0.940276 0.0911879 1
1 0.122408 1
1 0.154192 1
0 0.204715 1
0.115145 0.222721 1
0.273274 0.241886 1
0.478264 0.249439 1
0.682506 0.256138 1
0.863371 0.266438 1
1 0.286061 1
1 0.313191 1
1 0.341512 1
0 0.421012 1
0.14078 0.441352 1
0.295232 0.45774 1
0.494743 0.460441 1
0.69398 0.462669 1
0.870542 0.469612 1
1 0.485939 1
1 0.507805 1
1 0.529107 1
0 0.6336 1
0.142306 0.649989 1
0.293492 0.663081 1
0.489097 0.661768 1
0.68275 0.657984 1
0.852872 0.657221 1
0.979751 0.664607 1
1 0.67689 1
1 0.688334 1
0.0129702 0.825635 1
0.147875 0.836271 1
0.288396 0.842023 1
0.472313 0.832547 1
0.656443 0.819532 1
0.819471 0.808972 1
0.939559 0.807141 1
1 0.810895 1
1 0.815183 1
0.0507668 0.972869 1
0.171328 0.975631 1
0.299687 0.97322 1
0.468849 0.957107 1
0.639536 0.938155 1
0.795148 0.921172 1
0.910872 0.913161 1
0.995956 0.91194 1
1 0.911955 1
0.0902724 1 1
0.199069 1 1
0.320592 1 1
0.480537 1 1
0.64123 1 1
0.786526 1 1
0.896208 0.994934 1
0.97937 0.991394 1
1 0.989303 1
0.113741 1 1
0.217594 1 1
0.336248 1 1
0.493568 1 1
0.650828 1 1
0.791562 1 1
0.89575 1 1
0.973404 1 1
1 1 1
