site/assets/luts/freshluts--0000674-cool-green-tint-first-correct-your-footages-after-apply-this.cube
# LUTr-Schema-Version: 2
# LUTr-ID: freshluts--0000674-cool-green-tint-first-correct-your-footages-after-apply-this
# LUTr-Title: Cool. Green-tint. First correct your footages after apply this LUT.
# LUTr-Collection: Fresh LUTs
# LUTr-Collection-ID: freshluts-community
# LUTr-Source: https://freshluts.com
# LUTr-Retrieved: 2026-07-27
# LUTr-Source-File: submissions-raw/freshluts/cubes/674__THINK-HOPE_33.00018.cube
# LUTr-Source-Format: CUBE
# LUTr-Source-SHA256: 9a44bfa00e947fb084f2c810eaea901144f32d817c0091ca0c10c725231a822d
# LUTr-License: CC0-1.0
# LUTr-License-URL: https://freshluts.com/termsandconditions
# LUTr-License-Basis: site-terms
# LUTr-Transform-Class: creative-look
# LUTr-Tags: creative, freshluts, community, cube, green, high-key, canon-cinestyle, cool, correction
# LUTr-Input-Color-Space:
# LUTr-Input-Gamut: rec709
# LUTr-Input-Transfer: canon-cinestyle
# LUTr-Output-Color-Space: srgb
# LUTr-Output-Gamut: rec709
# LUTr-Output-Transfer: srgb
# LUTr-Color-Space-Confidence: camera-profile-input-required
# LUTr-Domain-Normalized: true
# LUTr-Shaper: none
# LUTr-Original-Grid: 33x33x33
# LUTr-Conversion-Grid: 33x33x33
# LUTr-Conversion-Interpolation: none
# LUTr-Conversion-Method: Metadata normalization; numeric LUT samples preserved
# LUTr-Conversion-Tool: LUTr scripts/convert-all-to-cube.mjs 2.0.0
# LUTr-Conversion-Date: 2026-07-28
# LUTr-Asset-URL: https://freshluts.com/luts/674
# LUTr-Author: lvannoeun@gmail.com
# LUTr-Author-URL: https://freshluts.com/users/57563
# LUTr-Attribution: lvannoeun@gmail.com via Fresh LUTs
# LUTr-Source-Labels: gamma=Canon Cinestyle; color=Green; key=High Key; style=Drama
# LUTr-Note: Preserve this metadata and the upstream license notices when redistributing.
TITLE "Cool. Green-tint. First correct your footages after apply this LUT."
LUT_3D_SIZE 5
DOMAIN_MIN 0 0 0
DOMAIN_MAX 1 1 1
0.0479591 0 0.054902
0.179278 0 0.035996
0.445716 0 0.0309758
0.686458 0 0.0330816
0.914611 0 0.0393378
0.020264 0.239307 0.0834669
0.185336 0.219745 0.064622
0.451041 0.216571 0.0610056
0.691539 0.220417 0.0641184
0.919249 0.228077 0.0708934
0 0.51075 0.0958724
0.170123 0.490089 0.076173
0.435447 0.487434 0.0730602
0.676036 0.492195 0.0769665
0.903822 0.500313 0.0840772
0 0.786145 0.101457
0.147845 0.765316 0.0816205
0.412894 0.763012 0.0788434
0.653544 0.767926 0.0828565
0.88101 0.77615 0.0899825
0 1 0.10309
0.122728 1 0.0826886
0.387076 1 0.0798199
0.627482 1 0.0833906
0.855512 1 0.0905318
0.0482185 0 0.276051
0.182483 0 0.257633
0.448722 0 0.252888
0.689265 0 0.255314
0.917342 0 0.261265
0.0201114 0.244053 0.305226
0.188327 0.22443 0.286732
0.453635 0.221134 0.283055
0.694347 0.22533 0.286473
0.921965 0.233112 0.293278
0 0.515435 0.317876
0.173327 0.494987 0.298558
0.438224 0.492485 0.295644
0.678874 0.497276 0.29955
0.906447 0.505486 0.306676
0 0.791196 0.323827
0.151064 0.770306 0.304036
0.415641 0.768154 0.301381
0.655955 0.772808 0.305119
0.883757 0.781277 0.312413
0 1 0.325521
0.125811 1 0.305043
0.39028 1 0.302449
0.630533 1 0.305974
0.858366 1 0.313054
0.0485695 0 0.499992
0.185367 0 0.481651
0.451179 0 0.476982
0.692149 0 0.47953
0.920089 0 0.485588
0.0201724 0.248402 0.529259
0.191348 0.228992 0.510918
0.456443 0.225818 0.507362
0.697124 0.230121 0.510857
0.924681 0.237964 0.517693
0 0.520272 0.542199
0.176425 0.499748 0.522896
0.441077 0.497368 0.520119
0.681437 0.50193 0.523796
0.909148 0.51046 0.531197
0 0.796094 0.548226
0.153918 0.774884 0.528267
0.418479 0.773083 0.525933
0.658686 0.777752 0.529671
0.886198 0.786297 0.536995
0 1 0.550011
0.129137 1 0.52958
0.393271 1 0.527031
0.633448 1 0.530541
0.860365 1 0.537316
0.0489815 0 0.724956
0.188388 0 0.706844
0.454047 0 0.702113
0.695003 0 0.704784
0.922942 0 0.711101
0.0202792 0.252995 0.754482
0.194125 0.233555 0.736141
0.45922 0.230472 0.732677
0.699458 0.234623 0.736019
0.927352 0.242771 0.74316
0 0.525032 0.767788
0.179019 0.50425 0.748272
0.4439 0.502174 0.745785
0.684031 0.506828 0.749554
0.911818 0.515358 0.756924
0 0.800931 0.773739
0.156756 0.779736 0.753918
0.421286 0.777935 0.751659
0.661372 0.78262 0.755398
0.888609 0.790845 0.762448
0 1 0.775692
0.132174 1 0.755306
0.39585 1 0.752529
0.636103 1 0.756283
0.861311 1 0.763012
0.0494545 0 0.95108
0.191363 0 0.932952
0.456901 0 0.928389
0.697414 0 0.930922
0.925795 0 0.937392
0.0204013 0.257527 0.980819
0.196796 0.237751 0.962173
0.461769 0.235126 0.959136
0.702113 0.239307 0.962524
0.929839 0.247547 0.969711
0 0.529656 0.98526
0.182055 0.508919 0.974472
0.446494 0.506996 0.972137
0.686702 0.51165 0.975906
0.914076 0.519966 0.983047
0 0.805524 0.982376
0.159762 0.784466 0.977005
0.423758 0.782498 0.977005
0.66389 0.787472 0.979309
0.891173 0.795605 0.982712
0 1 0.978469
0.135348 1 0.972503
0.398764 1 0.972168
0.638865 1 0.974365
0.862257 1 0.977691
