site/assets/luts/freshluts--0001240-rd-natural.cube
# LUTr-Schema-Version: 2
# LUTr-ID: freshluts--0001240-rd-natural
# LUTr-Title: RD NATURAL
# LUTr-Collection: Fresh LUTs
# LUTr-Collection-ID: freshluts-community
# LUTr-Source: https://freshluts.com
# LUTr-Retrieved: 2026-07-27
# LUTr-Source-File: submissions-raw/freshluts/cubes/1240__RD_NATURAL.cube
# LUTr-Source-Format: CUBE
# LUTr-Source-SHA256: 74632e52a9a7b5708e25252feaf878499d254d517e9f8b7d27618c6ff274d32d
# LUTr-License: CC0-1.0
# LUTr-License-URL: https://freshluts.com/termsandconditions
# LUTr-License-Basis: site-terms
# LUTr-Transform-Class: creative-look
# LUTr-Tags: creative, freshluts, community, cube, orange, sony-s-log3
# LUTr-Input-Color-Space: sony-slog3-sgamut3
# LUTr-Input-Gamut: sony-s-gamut3
# LUTr-Input-Transfer: sony-s-log3
# LUTr-Output-Color-Space: srgb
# LUTr-Output-Gamut: rec709
# LUTr-Output-Transfer: srgb
# LUTr-Color-Space-Confidence: inferred-from-source-label
# LUTr-Domain-Normalized: true
# LUTr-Shaper: none
# LUTr-Original-Grid: 33x33x33
# LUTr-Conversion-Grid: 33x33x33
# LUTr-Conversion-Interpolation: none
# LUTr-Conversion-Method: Metadata normalization; numeric LUT samples preserved
# LUTr-Conversion-Tool: LUTr scripts/convert-all-to-cube.mjs 2.0.0
# LUTr-Conversion-Date: 2026-07-28
# LUTr-Asset-URL: https://freshluts.com/luts/1240
# LUTr-Author: Antony Eliezer
# LUTr-Author-URL: https://freshluts.com/users/32961
# LUTr-Attribution: Antony Eliezer via Fresh LUTs
# LUTr-Source-Labels: gamma=Sony S-Log 3; color=Orange; key=Neutral; style=Teal - Orange
# LUTr-Note: Preserve this metadata and the upstream license notices when redistributing.
# LUTr-Upstream-Comment: VEGAS Pro LUT
TITLE "RD NATURAL"
LUT_3D_SIZE 5
DOMAIN_MIN 0 0 0
DOMAIN_MAX 1 1 1
0.01659718 0.0229658 0.01535054
0.06691234 0.01968047 0.01272573
0.18302885 0.02777676 0.01183815
0.49845758 0.05791224 -0.00285079
0.67844206 0.0858741 -0.00358984
0.00514336 0.11340273 0.03119867
0.0738585 0.10880901 0.02427534
0.30803394 0.1108494 -0.00768564
0.5332076 0.11711469 -0.0006108
0.69493353 0.15787168 -0.00607745
0.00126113 0.26103964 0.06593966
0.06791127 0.27386054 0.04533217
0.45081109 0.30745122 -0.01284143
0.63796616 0.29210287 -0.00532964
0.74016988 0.27527046 -0.00993263
0.01221749 0.47465369 0.11559115
0.06323621 0.47477257 0.11072297
0.45962268 0.60675746 -0.00601196
0.75578725 0.64030159 -0.00293016
0.80229414 0.45908165 0.0078802
0.11891239 0.77398032 0.18094912
0.43136126 0.81714219 0.12844224
0.65090495 0.84997326 0.08991674
0.84054214 0.87466085 0.03602651
0.99277878 0.88319403 0.11616556
0.00484337 0.02746264 0.10832187
0.05897339 0.02639608 0.11016282
0.22626604 0.03601852 0.08345994
0.51241058 0.06003786 0.05747932
0.67858177 0.08764639 0.05533999
0.01086214 0.13833758 0.14465924
0.06815746 0.14009383 0.14013533
0.34613028 0.12644181 0.06295814
0.54325134 0.11862072 0.05231253
0.69925535 0.16318586 0.0504732
-0.0011354 0.29352617 0.16328864
0.06726193 0.29053035 0.14677963
0.47057652 0.341203 0.04776746
0.64700496 0.30531579 0.05293009
0.74710679 0.28405008 0.04692383
0.00286622 0.48674762 0.18443474
0.07226205 0.4849239 0.17788935
0.4595626 0.61925411 0.05423639
0.77000308 0.65985727 0.05695841
0.82043695 0.47810683 0.06469116
0.12546441 0.79660666 0.35184509
0.42745945 0.84076369 0.32919371
0.65593231 0.87413841 0.30662182
0.85002625 0.89712173 0.27635142
0.99656975 0.90219069 0.30059969
-0.00620877 0.05446031 0.26523182
0.04430282 0.05784917 0.26853231
0.25850192 0.02489284 0.32036877
0.60235 -0.01574863 0.24721043
0.74324238 -0.0042444 0.15865217
-0.00518391 0.16421011 0.3092086
0.04605588 0.16585048 0.31200859
0.38353804 0.1611841 0.37276128
0.63896054 0.04253776 0.2610476
0.79376584 0.05403461 0.14112154
0.00523916 0.37338829 0.40756929
0.0581469 0.36785713 0.39602059
0.50943089 0.42541331 0.41734302
0.76676524 0.32678834 0.2857165
0.84568715 0.26778424 0.13036774
-0.00037138 0.56029326 0.42120373
0.06328429 0.55699688 0.40744889
0.43961489 0.72127295 0.37119359
0.88026816 0.75519514 0.29685843
0.92215562 0.51172 0.11377602
0.11023388 0.82271582 0.51560843
0.42371297 0.86597204 0.50431663
0.65871519 0.89733833 0.49393234
0.85248935 0.91903281 0.4806608
0.9965741 0.9230566 0.47920915
-0.01602293 0.12119902 0.42683503
0.03501057 0.12223969 0.43044201
0.18070456 -0.00066218 0.55302972
0.64249229 -0.01020722 0.59051484
0.77428019 0.00159678 0.45067686
-0.01299977 0.2017519 0.46411934
0.03884471 0.20077789 0.46820131
0.27132341 0.07339497 0.61717433
0.68264061 0.04557895 0.61863077
0.83533078 0.10738935 0.47172639
-0.00629908 0.38078457 0.5718199
0.04881126 0.38103816 0.57215214
0.33000341 0.39993617 0.72828698
0.78747445 0.38877848 0.72419143
0.88338554 0.34116262 0.49988821
0.01375943 0.64012951 0.68505311
0.07601824 0.63903195 0.68105829
0.32018399 0.79375148 0.80169022
0.86710358 0.83597732 0.79718149
0.94928002 0.60460788 0.542831
0.0881188 0.86514378 0.71221113
0.43293285 0.89980149 0.71315384
0.66755337 0.92893779 0.71337855
0.85454398 0.94896185 0.70579135
0.9965741 0.95327151 0.69983792
0.03233181 0.46419227 0.83345735
0.35370037 0.49221849 0.91934574
0.62423009 0.5063495 0.93339723
0.79727376 0.50810516 0.94012314
0.94686586 0.53307784 0.9489193
0.0354908 0.58783847 0.86324489
0.31933668 0.6294952 0.93801254
0.62672049 0.652421 0.95314902
0.80853677 0.65851742 0.95989019
0.96422124 0.67034513 0.96672845
0.053697 0.70445102 0.89607996
0.2917296 0.75480092 0.95363778
0.63346368 0.78217679 0.96829027
0.81816554 0.79410511 0.97471464
0.97964144 0.79744554 0.97849995
0.05717893 0.81065989 0.9312796
0.37387255 0.85496813 0.96541613
0.64899844 0.88002253 0.97666591
0.82749701 0.89461756 0.98261106
0.99026316 0.89773643 0.98737568
0.51712519 0.95563489 0.97774708
0.66117728 0.96963471 0.98331684
0.78918535 0.98069066 0.98703861
0.8959896 0.98871797 0.9905678
0.99427778 0.9943437 0.99150681
