site/assets/luts/freshluts--0000203-helios.cube
# LUTr-Schema-Version: 2
# LUTr-ID: freshluts--0000203-helios
# LUTr-Title: Helios
# LUTr-Collection: Fresh LUTs
# LUTr-Collection-ID: freshluts-community
# LUTr-Source: https://freshluts.com
# LUTr-Retrieved: 2026-07-27
# LUTr-Source-File: submissions-raw/freshluts/cubes/203__Helios.cube
# LUTr-Source-Format: CUBE
# LUTr-Source-SHA256: c3f93ae18447de83962cdd3c2de4afe9ce12d5787b5331207c483b9c5f5ec1e6
# LUTr-License: CC0-1.0
# LUTr-License-URL: https://freshluts.com/termsandconditions
# LUTr-License-Basis: site-terms
# LUTr-Transform-Class: creative-look
# LUTr-Tags: creative, freshluts, community, cube, cinematic, blockbuster, warm, bmd-film-4k
# LUTr-Input-Color-Space:
# LUTr-Input-Gamut: bmd-film-gamut
# LUTr-Input-Transfer: bmd-film-4k
# LUTr-Output-Color-Space: srgb
# LUTr-Output-Gamut: rec709
# LUTr-Output-Transfer: srgb
# LUTr-Color-Space-Confidence: camera-profile-input-required
# LUTr-Domain-Normalized: true
# LUTr-Shaper: none
# LUTr-Original-Grid: 33x33x33
# LUTr-Conversion-Grid: 33x33x33
# LUTr-Conversion-Interpolation: none
# LUTr-Conversion-Method: Metadata normalization; numeric LUT samples preserved
# LUTr-Conversion-Tool: LUTr scripts/convert-all-to-cube.mjs 2.0.0
# LUTr-Conversion-Date: 2026-07-28
# LUTr-Asset-URL: https://freshluts.com/luts/203
# LUTr-Author: Cube Frames
# LUTr-Author-URL: https://freshluts.com/users/1308
# LUTr-Attribution: Cube Frames via Fresh LUTs
# LUTr-Source-Labels: gamma=Blackmagic BMD Film 4K; color=Warm; key=Neutral; style=Blockbuster
# LUTr-Note: Preserve this metadata and the upstream license notices when redistributing.
TITLE "Helios"
LUT_3D_SIZE 5
DOMAIN_MIN 0 0 0
DOMAIN_MAX 1 1 1
0.0185702 0.0221256 0.0233158
0.0634165 0.0367895 0.0396582
0.277684 0.0115053 0.01355
0.633066 0 0
0.969299 0 0
0.0212558 0.145693 0.0549172
0.171176 0.183856 0.0293584
0.70779 0.161837 0
1 0.199969 0
1 0.266072 0.0390173
0 0.59559 0
0.191257 0.634592 0
0.690852 0.626642 0
1 0.661738 0
1 0.707088 0
0 0.997574 0
0.14992 1 0
0.687541 0.99086 0
0.986404 0.963668 0
1 0.963027 0
0 1 0
0.186435 1 0
0.692744 1 0
0.968795 1 0
1 1 0
0.0218814 0.0266117 0.0513771
0.0704662 0.0392157 0.0858167
0.337469 0 0.0979019
0.720516 0 0.098497
1 0 0.115434
0.0148623 0.156878 0.173907
0.193774 0.196063 0.206149
0.736355 0.177584 0.15964
1 0.217304 0.198352
1 0.263218 0.261707
0 0.607111 0.088304
0.206577 0.653315 0.133074
0.703685 0.650309 0.0733043
1 0.671321 0.0837873
1 0.710338 0.126223
0 1 0.13048
0.149645 1 0.116472
0.682948 0.988449 0.0348821
0.97998 0.957031 0.00407416
1 0.953964 0.0031281
0 1 0.163546
0.175219 1 0.131395
0.680659 1 0.0243381
0.95819 1 0
1 1 0
0.0217136 0.0273136 0.111177
0.075288 0.0334325 0.211124
0.409949 0 0.402075
0.802625 0 0.527352
1 0 0.597986
0 0.153613 0.517906
0.205875 0.188312 0.674662
0.733013 0.172595 0.664256
1 0.211749 0.699763
1 0.23476 0.852049
0 0.597803 0.587167
0.202548 0.648676 0.638605
0.687083 0.637232 0.658137
1 0.650645 0.672236
1 0.683803 0.706065
0 1 0.693767
0.1205 1 0.695277
0.647517 0.957183 0.606546
0.945068 0.921904 0.568826
1 0.916625 0.566903
0 1 0.730922
0.136202 1 0.696925
0.640131 1 0.587564
0.919844 1 0.538857
1 1 0.530404
0.0235142 0.0302434 0.158801
0.0876478 0.0283818 0.336812
0.470665 0 0.640604
0.857649 0 0.811948
1 0 0.889876
0 0.162615 0.767254
0.231373 0.198779 0.957214
0.742519 0.185718 0.95935
1 0.201312 1
1 0.241184 1
0 0.608545 0.885832
0.205631 0.66157 0.951537
0.690944 0.640406 1
1 0.647593 1
1 0.674876 1
0 1 1
0.11165 1 1
0.63241 0.942443 0.952178
0.927596 0.904189 0.914183
1 0.897215 0.907469
0 1 1
0.117052 1 1
0.618845 1 0.928512
0.899351 1 0.882155
1 1 0.872892
0.025742 0.0337072 0.216342
0.102647 0.0253605 0.459419
0.523156 0 0.808454
0.899153 0 0.97293
1 0 1
0 0.179599 0.953948
0.263127 0.2206 1
0.764614 0.209689 1
1 0.200473 1
1 0.262333 1
0 0.631601 1
0.173754 0.69221 1
0.708202 0.657008 1
1 0.658381 1
1 0.679805 1
0 1 1
0.117479 1 1
0.635416 0.941222 1
0.925078 0.901457 1
1 0.893126 1
0 1 1
0.114351 1 1
0.6159 1 1
0.895644 1 1
1 1 1
