site/assets/luts/freshluts--0000198-paladin.cube
# LUTr-Schema-Version: 2
# LUTr-ID: freshluts--0000198-paladin
# LUTr-Title: Paladin
# LUTr-Collection: Fresh LUTs
# LUTr-Collection-ID: freshluts-community
# LUTr-Source: https://freshluts.com
# LUTr-Retrieved: 2026-07-27
# LUTr-Source-File: submissions-raw/freshluts/cubes/198__Paladin.cube
# LUTr-Source-Format: CUBE
# LUTr-Source-SHA256: 0449eb1638ef7e62a2132c7e518a3c15a4a6cdb93156c71e2f4298123f032589
# LUTr-License: CC0-1.0
# LUTr-License-URL: https://freshluts.com/termsandconditions
# LUTr-License-Basis: site-terms
# LUTr-Transform-Class: creative-look
# LUTr-Tags: creative, freshluts, community, cube, cinematic, blockbuster, teal
# LUTr-Input-Color-Space:
# LUTr-Input-Gamut: unspecified
# LUTr-Input-Transfer: unspecified
# LUTr-Output-Color-Space: srgb
# LUTr-Output-Gamut: rec709
# LUTr-Output-Transfer: srgb
# LUTr-Color-Space-Confidence: camera-profile-input-required
# LUTr-Domain-Normalized: true
# LUTr-Shaper: none
# LUTr-Original-Grid: 33x33x33
# LUTr-Conversion-Grid: 33x33x33
# LUTr-Conversion-Interpolation: none
# LUTr-Conversion-Method: Metadata normalization; numeric LUT samples preserved
# LUTr-Conversion-Tool: LUTr scripts/convert-all-to-cube.mjs 2.0.0
# LUTr-Conversion-Date: 2026-07-28
# LUTr-Asset-URL: https://freshluts.com/luts/198
# LUTr-Author: Cube Frames
# LUTr-Author-URL: https://freshluts.com/users/1308
# LUTr-Attribution: Cube Frames via Fresh LUTs
# LUTr-Source-Labels: gamma=Other; color=Teal; key=Neutral; style=Blockbuster
# LUTr-Note: Preserve this metadata and the upstream license notices when redistributing.
TITLE "Paladin"
LUT_3D_SIZE 33
DOMAIN_MIN 0 0 0
DOMAIN_MAX 1 1 1
0 0 0
0 0 0
0 0 0
0 0 0
0 0 0
0 0 0
0 0 0
0.00572213 0 0
0.0126192 0 0
0.0205692 0 0
0.0298466 0 0
0.0409552 0 0
0.0530404 0.000137331 0.00123598
0.0690623 0.00390631 0.00682078
0.0904707 0.00695811 0.0121309
0.117113 0.00868238 0.0164187
0.160739 0.0101167 0.0216373
0.265782 0.00981155 0.0288243
0.350637 0.00480659 0.0279393
0.434943 0 0.0249332
0.52459 0 0.0206455
0.614237 0 0.0155184
0.696864 0 0.0102388
0.770428 0 0.00527962
0.835187 0 0.000854505
0.891768 0 0
0.941039 0 0
0.983825 0 0
1 0 0
1 0 0
1 0 0
1 0 0
1 0 0
0 0 0
0 0 0
0 0 0
0 0 0
0 0 0
0 0 0
0.00234989 0 0
0.00872816 0 0
0.0158846 0 0
0.0240787 0 0
0.0336309 0 0
0.0439155 0.00280766 0.000244144
0.0563058 0.00672923 0.00543221
0.0734722 0.0102846 0.0106508
0.0964828 0.0130312 0.0154421
0.124895 0.0143893 0.0190585
0.166522 0.0150301 0.0226596
0.272297 0.0144045 0.028336
0.357458 0.00927749 0.026688
0.441489 0.00271611 0.0230869
0.530358 0 0.0183108
0.619303 0 0.0128023
0.701198 0 0.00726329
0.774075 0 0.00215152
0.838254 0 0
0.894362 0 0
0.943267 0 0
0.985779 0 0
1 0 0
1 0 0
1 0 0
1 0 0
1 0 0
0 0 0
0 0 0
0 0 0
0 0 0
0 0 0
0 0 0
0.00578317 0 0
0.0123445 0 0
0.0195315 0 0
0.0277867 0.00181582 0
0.0364385 0.00535592 0
0.0459907 0.00933852 0.00410468
0.0591287 0.0131838 0.00907912
0.0776989 0.0168002 0.0141756
0.10248 0.0193027 0.0184482
0.132815 0.0202945 0.0213779
0.172915 0.020264 0.0236057
0.279683 0.0193027 0.0277562
0.365194 0.0140688 0.0253605
0.449195 0.00749218 0.0211795
0.537621 0 0.0159457
0.626047 0 0.0100862
0.707408 0 0.00433356
0.779782 0 0
0.843473 0 0
0.899214 0 0
0.947799 0 0
0.990082 0 0
1 0 0
1 0 0
1 0 0
1 0 0
1 0 0
0 0 0
0 0 0
0 0 0
0 0 0
0 0 0
0.00291447 0 0
0.00891127 0 0
0.0154269 0.00199893 0
0.0227054 0.00486763 0
0.0302129 0.00816358 0
0.0375677 0.0121309 0.00303655
0.0475471 0.016144 0.00776684
0.0616617 0.0201877 0.0126192
0.0814221 0.0234531 0.0170443
0.108324 0.0259556 0.0209812
0.140764 0.0266575 0.023209
0.179034 0.0260319 0.024155
0.287037 0.0248264 0.0268101
0.373175 0.019501 0.0236667
0.457328 0.0129397 0.0189364
0.54551 0.00546273 0.0132296
0.633585 0 0.00706493
0.714519 0 0.00112917
0.78645 0 0
0.849744 0 0
0.905119 0 0
0.953399 0 0
0.995422 0 0
1 0 0
1 0 0
1 0 0
1 0 0
1 0 0
0 0 0
0 0 0
0 0 0
0 0 0
0.000289921 0.000289921 0
0.00608835 0.00289921 0
0.0121767 0.00556954 0
0.0188144 0.0083772 0
0.0251621 0.0115969 0
0.030869 0.0155184 0.00277714
0.0384985 0.0196078 0.00723278
0.049134 0.0237125 0.011841
0.0643168 0.0274968 0.0162814
0.085771 0.0306554 0.0202945
0.114885 0.0329747 0.0235142
0.149752 0.0333867 0.0250401
0.189609 0.0325628 0.0252384
0.298177 0.0308537 0.0261387
0.384344 0.025452 0.0222171
0.468818 0.0188907 0.0169528
0.55726 0.0115206 0.0108339
0.645151 0.00395209 0.0043946
0.725704 0 0
0.797208 0 0
0.860059 0 0
0.915007 0 0
0.962936 0 0
1 0 0
1 0 0
1 0 0
1 0 0
1 0 0
1 0 0
0 0 0
0 0 0
0 0.00132753 0
0 0.00396735 0
0.00340276 0.00663767 0
0.00933852 0.00933852 0
0.0155795 0.0121157 0
0.0206912 0.0154879 0
0.0251774 0.01944 0.00300603
0.0310063 0.0235752 0.00724804
0.0390784 0.0278477 0.0116732
0.05066 0.0320592 0.0160983
0.0672618 0.035874 0.0202487
0.090837 0.0389105 0.0237583
0.12253 0.0407874 0.026215
0.16025 0.0408942 0.0269627
0.202991 0.0396582 0.0263066
0.312428 0.0377203 0.025452
0.398276 0.0322423 0.0207828
0.483162 0.0257267 0.0150149
0.572168 0.0185092 0.00851453
0.659861 0.0112459 0.00187686
0.740063 0.00469978 0
0.811139 0 0
0.873549 0 0
0.928023 0 0
0.975052 0 0
1 0 0
1 0 0
1 0 0
1 0 0
1 0 0
1 0 0
0 0.00257877 0
0 0.00509651 0
0 0.00779736 0
0.000488289 0.0104982 0
0.0065156 0.0132906 0
0.0126497 0.016144 0
0.0163272 0.0198672 0
0.0198978 0.0239261 0.00349432
0.0243687 0.0281987 0.00759899
0.030457 0.032639 0.0118868
0.0392462 0.0371405 0.0162203
0.0519112 0.0415198 0.0204623
0.0702831 0.0453803 0.0242008
0.0964218 0.0483406 0.0271153
0.131441 0.0500038 0.0287785
0.172564 0.0498054 0.0286412
0.218845 0.048188 0.0271
0.327062 0.0454108 0.0245212
0.413794 0.0399176 0.0192111
0.499825 0.0339361 0.0128634
0.589639 0.026978 0.00605783
0.677256 0.0201572 0
0.757046 0.0141909 0
0.827512 0.00943008 0
0.889158 0.00590524 0
0.942733 0.00360113 0
0.988769 0.0024567 0
1 0.00233463 0
1 0.0030518 0
1 0.00425727 0
1 0.00585946 0
1 0.00746166 0
1 0.00962844 0
0 0.00907912 0
0 0.0118868 0
0 0.0146029 0
0.00335698 0.0174868 0
0.00914015 0.0206302 0
0.0116579 0.0247654 0.0000457771
0.0144503 0.0290684 0.0039826
0.0178836 0.0335699 0.00805676
0.0224308 0.0382544 0.0122683
0.0290227 0.0430457 0.0165255
0.0385748 0.0478828 0.0207675
0.0526741 0.052491 0.0246891
0.0731975 0.0564431 0.027924
0.102434 0.0593423 0.0300908
0.141268 0.0607919 0.0307927
0.186358 0.0603037 0.0296483
0.236835 0.0584421 0.0271611
0.344182 0.0552834 0.0229648
0.43209 0.049897 0.0170291
0.518166 0.0437629 0.0104524
0.608804 0.0372168 0.0034638
0.696086 0.0310216 0
0.775387 0.0260777 0
0.844755 0.0222477 0
0.905119 0.019791 0
0.957153 0.018677 0
1 0.0188144 0
1 0.0197604 0
1 0.0213016 0
1 0.0233463 0
1 0.0258488 0
1 0.0284428 0
1 0.031632 0
0 0.0160525 0
0 0.0190738 0
0 0.022034 0
0.00428779 0.0256809 0
0.00630198 0.0302434 0.000183108
0.00839246 0.0349432 0.00422675
0.0108949 0.0397955 0.00834669
0.0142977 0.0448157 0.0125429
0.0190738 0.0500191 0.0167697
0.0261082 0.055314 0.0209812
0.0367132 0.0605631 0.024979
0.0525673 0.0654612 0.0284733
0.0757305 0.0695659 0.0310369
0.108675 0.0724956 0.0322881
0.152041 0.0737926 0.0318761
0.201831 0.073106 0.029633
0.257099 0.0710918 0.0261082
0.363088 0.0677195 0.0205234
0.451896 0.0625772 0.014023
0.538445 0.0568856 0.00720226
0.629374 0.0509957 0.000213626
0.715679 0.0457008 0
0.793225 0.0416419 0
0.860777 0.0390784 0
0.918929 0.038056 0
0.969329 0.0383001 0
1 0.0394141 0
1 0.0412909 0
1 0.0438239 0
1 0.0469215 0
1 0.0505226 0
1 0.0545205 0
1 0.0588083 0
0 0.023743 0
0 0.0270542 0
0 0.0315251 0
0 0.0363317 0
0.00117494 0.0415961 0.00386053
0.00276188 0.0469825 0.00807202
0.005066 0.0525063 0.0122988
0.00833143 0.0582437 0.0165408
0.0133059 0.0641031 0.0207218
0.0210117 0.0700542 0.0247501
0.0329442 0.0758831 0.028397
0.0509804 0.0812543 0.0312963
0.0773785 0.0856489 0.0330053
0.114778 0.0886549 0.0331121
0.163317 0.0898756 0.0313726
0.218479 0.0890669 0.0278782
0.278874 0.0869917 0.0232548
0.382284 0.0836652 0.0166171
0.471565 0.078996 0.00976577
0.558297 0.073991 0.00292973
0.648692 0.0690776 0
0.73315 0.0650492 0
0.808209 0.0624857 0
0.872953 0.0616007 0
0.930098 0.0618753 0
0.980972 0.0631266 0
1 0.0652781 0
1 0.0682536 0
1 0.0718853 0
1 0.0760967 0
1 0.0807965 0
1 0.0858625 0
1 0.0912032 0
0 0.0323949 0
0 0.037705 0
0 0.0434272 0
0 0.0492256 0.00256352
0 0.0552377 0.00680552
0 0.0614939 0.0111086
0 0.0679789 0.0153811
0 0.0746624 0.0195926
0.00410468 0.0814984 0.023621
0.0126497 0.0883192 0.0272984
0.0262303 0.0949111 0.0303502
0.0469215 0.100862 0.0323949
0.0771801 0.105623 0.0329442
0.119722 0.108797 0.0316167
0.17409 0.109987 0.028336
0.235157 0.109209 0.0235294
0.300816 0.107271 0.0178683
0.400061 0.104295 0.0107118
0.489235 0.100404 0.00387579
0.575494 0.096437 0
0.664179 0.0929274 0
0.745617 0.0906233 0
0.818036 0.0897841 0
0.882521 0.0900435 0
0.939879 0.091371 0
0.990555 0.0937057 0
1 0.0969406 0
1 0.100999 0
1 0.105699 0
1 0.110964 0
1 0.116686 0
1 0.122744 0
1 0.12903 0.000015259
0 0.0445258 0
0 0.0510719 0
0 0.0579232 0.000015259
0 0.0651102 0.00450141
0 0.0720684 0.00865187
0 0.0796216 0.0129549
0 0.0873579 0.0171206
0 0.0952926 0.021088
0 0.103288 0.0246891
0 0.111192 0.0277104
0.0152285 0.1187 0.0298466
0.0391394 0.125353 0.0306706
0.0739605 0.130587 0.0297551
0.122347 0.133989 0.0267796
0.183185 0.135302 0.021912
0.250507 0.134752 0.0158999
0.321386 0.133227 0.00955215
0.414893 0.131014 0.00263981
0.503136 0.128283 0
0.587869 0.12578 0
0.673381 0.124117 0
0.752895 0.123278 0
0.825086 0.123445 0
0.889281 0.124727 0
0.946288 0.127077 0
0.996567 0.130419 0
1 0.134676 0
1 0.139742 0
1 0.145418 0
1 0.151629 0
1 0.158221 0
1 0.165087 0
1 0.172107 0
0 0.0597848 0
0 0.0678416 0
0 0.076173 0.000366217
0 0.084947 0.00476081
0 0.0938735 0.00895705
0 0.102586 0.0127871
0 0.111879 0.0165408
0 0.121294 0.0198978
0 0.130694 0.0227054
0 0.139849 0.0247044
0 0.148425 0.0255589
0.0260777 0.155932 0.0248722
0.0662547 0.161746 0.0222629
0.121141 0.165499 0.0176242
0.189136 0.167132 0.0113985
0.262928 0.167071 0.00469978
0.338628 0.166354 0
0.424949 0.16527 0
0.510872 0.164019 0
0.593194 0.163043 0
0.677546 0.162478 0
0.756344 0.162585 0
0.82771 0.163668 0
0.891096 0.165866 0
0.94728 0.169116 0
0.996704 0.173342 0
1 0.178454 0
1 0.184375 0
1 0.190921 0
1 0.198032 0
1 0.205539 0
1 0.213275 0
1 0.221042 0
0 0.0793011 0
0 0.089189 0
0 0.0995193 0
0 0.110262 0.00291447
0 0.121141 0.00657664
0 0.132021 0.00984207
0 0.143023 0.0126955
0 0.154314 0.0150454
0 0.165469 0.0166629
0 0.17615 0.0172427
0 0.185977 0.016495
0.00694286 0.194385 0.0141146
0.053666 0.200793 0.0099031
0.116014 0.204883 0.0039826
0.191745 0.206821 0
0.271672 0.207279 0
0.351034 0.207477 0
0.429282 0.207553 0
0.513512 0.207416 0
0.594873 0.207324 0
0.678019 0.207614 0
0.755535 0.20856 0
0.825574 0.210513 0
0.887648 0.213596 0
0.942535 0.217746 0
0.991028 0.222858 0
1 0.22884 0
1 0.235554 0
1 0.242832 0
1 0.250568 0
1 0.258625 0
1 0.266835 0
1 0.275166 0
0 0.105409 0
0 0.117861 0
0 0.130678 0
0 0.143862 0
0 0.157107 0.00123598
0 0.170428 0.00337224
0 0.183581 0.00497444
0 0.196643 0.00588998
0 0.209537 0.00596628
0 0.221683 0.00494392
0 0.232578 0.00260929
0 0.241611 0
0.0383001 0.248219 0
0.108995 0.252247 0
0.192493 0.254215 0
0.277684 0.255161 0
0.360174 0.256291 0
0.432654 0.257221 0
0.515465 0.257893 0
0.595209 0.258534 0
0.67657 0.259495 0
0.752239 0.261128 0
0.820508 0.263722 0
0.880842 0.26746 0
0.934066 0.272236 0
0.980941 0.277974 0
1 0.28455 0
1 0.291829 0
1 0.299626 0
1 0.308049 0
1 0.317113 0
1 0.32668 0
1 0.336629 0
0 0.140475 0
0 0.155901 0
0 0.171633 0
0 0.187594 0
0 0.203479 0
0 0.219287 0
0 0.234653 0
0 0.249729 0
0 0.263844 0
0 0.276814 0
0 0.287984 0
0 0.296818 0
0.0242618 0.302861 0
0.10396 0.306249 0
0.19411 0.308278 0
0.283528 0.309957 0
0.369177 0.311879 0
0.437491 0.313481 0
0.518227 0.314717 0
0.595865 0.315862 0
0.674907 0.317281 0
0.748302 0.319326 0
0.814328 0.322332 0
0.872541 0.326482 0
0.923735 0.33167 0
0.968734 0.337911 0
1 0.345342 0
1 0.354009 0
1 0.363653 0
1 0.374029 0
1 0.385092 0
1 0.39675 0
1 0.408682 0
0 0.18793 0
0 0.206592 0
0 0.22533 0
0 0.243961 0
0 0.262165 0
0 0.279881 0
0 0.296742 0
0 0.312886 0
0 0.327642 0
0 0.340581 0
0 0.351125 0
0 0.358846 0
0.0177157 0.363989 0
0.103243 0.367697 0
0.197726 0.370459 0
0.291081 0.372763 0
0.379416 0.375235 0
0.446342 0.377279 0
0.52314 0.37879 0
0.598245 0.380133 0
0.674495 0.381659 0
0.745129 0.38378 0
0.808728 0.387152 0
0.865049 0.392126 0
0.914824 0.398627 0
0.95877 0.406516 0
0.997604 0.415686 0
1 0.425956 0
1 0.437095 0
1 0.448951 0
1 0.461357 0
1 0.474159 0
1 0.487144 0
0 0.250584 0
0 0.272496 0
0 0.293858 0
0 0.314427 0
0 0.334051 0
0 0.35259 0
0 0.369772 0
0 0.385519 0
0 0.399176 0
0 0.41033 0
0 0.419379 0
0 0.427024 0
0.0115206 0.432975 0
0.100954 0.437247 0
0.199466 0.440406 0
0.296376 0.442954 0
0.387076 0.445579 0
0.454582 0.447654 0
0.527016 0.449042 0
0.599588 0.450507 0
0.673548 0.452522 0
0.742351 0.455543 0
0.804395 0.460014 0
0.859236 0.466117 0
0.907622 0.473732 0
0.950256 0.482765 0
0.987854 0.493065 0
1 0.504448 0
1 0.516655 0
1 0.529519 0
1 0.542733 0
1 0.555032 0
1 0.567071 0
0 0.330297 0
0 0.354421 0
0 0.380087 0
0 0.403189 0
0 0.424094 0
0 0.442618 0
0 0.458457 0
0 0.471992 0
0 0.484443 0
0 0.495491 0
0 0.504799 0
0 0.512047 0
0.0009308 0.51693 0
0.0936904 0.519707 0
0.19588 0.521096 0
0.296086 0.521935 0
0.389776 0.52343 0
0.45951 0.52488 0
0.530587 0.526146 0
0.601434 0.527703 0
0.673442 0.529976 0
0.740276 0.533349 0
0.800443 0.538201 0
0.853513 0.544579 0
0.900252 0.552316 0
0.941344 0.561166 0
0.977493 0.570901 0
1 0.581308 0
1 0.592096 0
1 0.603067 0
1 0.614054 0
1 0.624903 0
1 0.635462 0
0 0.446189 0
0 0.467704 0
0 0.486625 0
0 0.502663 0
0 0.516762 0
0 0.530465 0
0 0.543648 0
0 0.556054 0
0 0.567391 0
0 0.577218 0
0 0.585214 0
0 0.591104 0
0 0.594903 0
0.0829328 0.597009 0
0.189853 0.598138 0
0.294865 0.599008 0
0.392386 0.600381 0
0.464744 0.601663 0
0.536355 0.602686 0
0.60531 0.603876 0
0.675059 0.605707 0
0.739605 0.608499 0
0.797604 0.612634 0
0.848692 0.618173 0
0.893568 0.624903 0
0.932967 0.632639 0
0.967544 0.641184 0
0.998154 0.650294 0
1 0.659709 0
1 0.669276 0
1 0.678828 0
1 0.688228 0
1 0.697307 0
0 0.545541 0
0 0.559396 0
0 0.572641 0
0 0.585397 0
0 0.598093 0
0 0.610437 0
0 0.622156 0
0 0.633051 0
0 0.642832 0
0 0.651484 0
0 0.658732 0
0 0.664302 0
0 0.667964 0
0.0747234 0.669902 0
0.186526 0.670832 0
0.296132 0.671427 0
0.396231 0.672404 0
0.471275 0.673228 0
0.544854 0.673732 0
0.611856 0.674357 0
0.679042 0.675502 0
0.741085 0.677516 0
0.796735 0.680781 0
0.84564 0.685328 0
0.888548 0.69099 0
0.926116 0.697536 0
0.959014 0.704799 0
0.988083 0.712566 0
1 0.720577 0
1 0.728679 0
1 0.736736 0
1 0.74461 0
1 0.752148 0
0 0.624903 0
0 0.637049 0
0 0.648966 0
0 0.660288 0
0 0.671473 0
0 0.682429 0
0 0.693111 0
0 0.703304 0
0 0.712734 0
0 0.721035 0
0 0.727886 0
0 0.733043 0
0 0.736278 0
0.0715801 0.737789 0
0.187884 0.738262 0
0.301656 0.738323 0
0.402747 0.738674 0
0.480186 0.738842 0
0.556512 0.738659 0
0.621637 0.738521 0
0.685985 0.738827 0
0.745312 0.739925 0
0.798428 0.742168 0
0.845029 0.745602 0
0.885817 0.750057 0
0.921477 0.755306 0
0.952605 0.761212 0
0.980041 0.767559 0
1 0.774105 0
1 0.780713 0
1 0.787243 0
1 0.793561 0
1 0.799558 0
0 0.695949 0
0 0.706645 0
0 0.717296 0
0 0.727703 0
0 0.738323 0
0 0.748882 0
0 0.759106 0
0 0.768765 0
0 0.777584 0
0 0.78526 0
0 0.791455 0
0 0.795956 0
0 0.79855 0
0.075761 0.79942 0
0.196002 0.799222 0
0.313283 0.798596 0
0.413474 0.798154 0
0.492668 0.797528 0
0.571267 0.796521 0
0.634852 0.795483 0
0.696117 0.794858 0
0.75259 0.794949 0
0.803052 0.796078 0
0.847257 0.798321 0
0.885847 0.801495 0
0.919478 0.805432 0
0.948791 0.809934 0
0.974533 0.814847 0
0.997528 0.819928 0
1 0.82504 0
1 0.830121 0
1 0.835019 0
1 0.839658 0
0 0.759793 0
0 0.770047 0
0 0.780301 0
0 0.790234 0
0 0.800259 0
0 0.810162 0
0 0.819654 0
0 0.828519 0
0 0.83653 0
0 0.843336 0
0 0.848676 0
0 0.852338 0
0 0.854124 0
0.087953 0.8542 0
0.211444 0.853223 0
0.331273 0.851774 0
0.428367 0.850446 0
0.508782 0.848936 0
0.589075 0.847013 0
0.650614 0.845029 0
0.708751 0.843397 0
0.76228 0.842405 0
0.810025 0.842405 0
0.851743 0.843427 0
0.88809 0.845319 0
0.919676 0.847913 0
0.947143 0.851057 0
0.971222 0.854612 0
0.992721 0.858381 0
1 0.862242 0
1 0.866087 0
1 0.86981 0
1 0.873335 0
0 0.819135 0
0 0.828794 0
0 0.838376 0
0 0.847562 0
0 0.856779 0
0 0.865797 0
0 0.874357 0
0 0.882231 0
0 0.889235 0
0 0.895048 0
0 0.899397 0
0 0.902098 0
0 0.902968 0
0.106935 0.902174 0
0.232853 0.900328 0
0.354345 0.897993 0
0.446311 0.89572 0
0.527214 0.893263 0
0.609155 0.890394 0
0.667445 0.887419 0
0.722438 0.884749 0
0.772992 0.882673 0
0.818021 0.881514 0
0.857313 0.881361 0
0.891493 0.882063 0
0.921187 0.883497 0
0.94696 0.885496 0
0.969543 0.887938 0
0.989685 0.890608 0
1 0.8934 0
1 0.896223 0
1 0.898985 0
1 0.901564 0
0 0.873549 0
0 0.882399 0
0 0.891081 0
0 0.899336 0
0 0.907546 0
0 0.915511 0
0 0.922988 0
0 0.929763 0
0 0.935637 0
0 0.940368 0
0 0.943648 0
0 0.945327 0
0.0103609 0.945235 0
0.13138 0.943542 0
0.258427 0.940795 0
0.379644 0.93753 0
0.46598 0.934279 0
0.546838 0.930846 0
0.629084 0.927001 0
0.684062 0.923049 0
0.735973 0.919387 0
0.783734 0.916335 0
0.826276 0.914214 0
0.863371 0.913069 0
0.895613 0.91281 0
0.923583 0.913252 0
0.94786 0.914321 0
0.969085 0.915816 0
0.988037 0.917586 0
1 0.919509 0
1 0.921477 0
1 0.923415 0
1 0.925231 0
0 0.922683 0
0 0.930526 0
0 0.93817 0
0 0.945342 0
0 0.952422 0
0 0.959228 0
0 0.96553 0
0 0.97113 0
0 0.97586 0
0 0.979446 0
0 0.981643 0
0 0.982315 0
0.0355688 0.981231 0
0.159091 0.978622 0
0.286046 0.97496 0
0.402228 0.970718 0
0.485893 0.966537 0
0.566644 0.962203 0
0.647822 0.957519 0
0.699779 0.952743 0
0.748943 0.948272 0
0.794186 0.944427 0
0.834485 0.941512 0
0.869612 0.939574 0
0.900114 0.938506 0
0.926558 0.93817 0
0.949493 0.93843 0
0.969528 0.939162 0
0.987411 0.940185 0
1 0.941375 0
1 0.942657 0
1 0.943923 0
1 0.945098 0
0 0.966369 0
0 0.973083 0
0 0.979599 0
0 0.985611 0
0 0.991485 0
0 0.996765 0
0 1 0
0 1 0
0 1 0
