site/assets/luts/freshluts--0001219-lut-1-favorito.cube
# LUTr-Schema-Version: 2
# LUTr-ID: freshluts--0001219-lut-1-favorito
# LUTr-Title: Lut 1 Favorito
# LUTr-Collection: Fresh LUTs
# LUTr-Collection-ID: freshluts-community
# LUTr-Source: https://freshluts.com
# LUTr-Retrieved: 2026-07-27
# LUTr-Source-File: submissions-raw/freshluts/cubes/1219__Favoritord1.cube
# LUTr-Source-Format: CUBE
# LUTr-Source-SHA256: 3a23f7902754e55599e9718f6560673595da94728f8791041cdbeafa96501c4a
# LUTr-License: CC0-1.0
# LUTr-License-URL: https://freshluts.com/termsandconditions
# LUTr-License-Basis: site-terms
# LUTr-Transform-Class: creative-look
# LUTr-Tags: creative, freshluts, community, cube, orange, sony-s-log2
# LUTr-Input-Color-Space:
# LUTr-Input-Gamut: sony-s-gamut
# LUTr-Input-Transfer: sony-s-log2
# LUTr-Output-Color-Space: srgb
# LUTr-Output-Gamut: rec709
# LUTr-Output-Transfer: srgb
# LUTr-Color-Space-Confidence: camera-profile-input-required
# LUTr-Domain-Normalized: true
# LUTr-Shaper: none
# LUTr-Original-Grid: 33x33x33
# LUTr-Conversion-Grid: 33x33x33
# LUTr-Conversion-Interpolation: none
# LUTr-Conversion-Method: Metadata normalization; numeric LUT samples preserved
# LUTr-Conversion-Tool: LUTr scripts/convert-all-to-cube.mjs 2.0.0
# LUTr-Conversion-Date: 2026-07-28
# LUTr-Asset-URL: https://freshluts.com/luts/1219
# LUTr-Author: Antony Eliezer
# LUTr-Author-URL: https://freshluts.com/users/32961
# LUTr-Attribution: Antony Eliezer via Fresh LUTs
# LUTr-Source-Labels: gamma=Sony S-Log 2; color=Orange; key=Neutral; style=Colorful
# LUTr-Note: Preserve this metadata and the upstream license notices when redistributing.
# LUTr-Upstream-Comment: VEGAS Pro LUT
TITLE "Lut 1 Favorito"
LUT_3D_SIZE 5
DOMAIN_MIN 0 0 0
DOMAIN_MAX 1 1 1
0 0 0.02607617
0.41802901 0 0
1 0 0
1 0 0
1 0 0
0 0.30515936 0
0.21827354 0.2047814 0
0.69718486 0.15550074 0
1 0.12337175 0
1 0.09968551 0
0 0.7502616 0
0.1284436 0.57379252 0
0.50061709 0.4845072 0
0.95305651 0.41802901 0
1 0.37053895 0
0 1 0
0.0674692 0.98421425 0
0.34796983 0.86287868 0
0.72345549 0.77071881 0
1 0.70370251 0
0 1 0
0.03053626 1 0
0.24302945 1 0
0.56217694 1 0
0.93768424 1 0
0 0 0.70370251
0.37053895 0 0.4845072
0.97637314 0 0.35690385
1 0 0.26541832
1 0 0.19821247
0 0.26541832 0.27312306
0.18542707 0.170102 0.1111818
0.63383758 0.1284436 0.06048179
1 0.09746885 0.0379597
1 0.07679787 0.02607617
0 0.67783219 0.09968551
0.09968551 0.51151818 0.03291224
0.42790604 0.42790604 0.01919115
0.84832716 0.37053895 0.01394336
1 0.32191294 0.00958606
0 1 0.03928365
0.04628017 0.89985412 0.01568627
0.28889698 0.78452516 0.00958606
0.62768507 0.69718486 0.0043573
1 0.63383758 0
0 1 0.02010404
0.01568627 1 0.00784314
0.19176117 1 0.00087146
0.4792017 1 0
0.8411026 0.98421425 0
0 0 1
0.34354958 0 1
0.93768424 0 0.97637314
1 0 0.81254297
1 0 0.6842497
0 0.24302945 0.82675499
0.170102 0.15266678 0.50605142
0.5974164 0.11356405 0.38915727
1 0.0847417 0.3304747
1 0.06568293 0.29696694
0 0.64002323 0.4792017
0.0847417 0.4792017 0.31767839
0.39389029 0.39865497 0.27312306
0.78452516 0.33916023 0.2503719
1 0.29696694 0.235807
0 1 0.33480203
0.03413703 0.85558599 0.25783476
0.25783476 0.73679155 0.23224068
0.57964945 0.65877837 0.21146829
0.96856642 0.5974164 0.19176117
0 1 0.27312306
0.0087146 1 0.22519752
0.16712405 1 0.19821247
0.44295958 1 0.17310889
0.78452516 0.93004972 0.14986145
0 0 1
0.3304747 0 1
0.90735149 0 1
1 0 1
1 0 1
0 0.22519752 1
0.15550074 0.14161684 1
0.56796855 0.10192963 0.86287868
1 0.07679787 0.777605
1 0.0588004 0.73010683
0 0.60942513 0.98421425
0.07298665 0.45315456 0.75704712
0.36141768 0.37514642 0.69070071
0.74350995 0.31767839 0.65877837
1 0.27702096 0.62768507
0 1 0.78452516
0.02715495 0.81963199 0.67144763
0.23224068 0.71025336 0.62768507
0.54499835 0.62768507 0.5914613
0.92244929 0.56796855 0.5506919
0 1 0.69718486
0.00261438 1 0.61547893
0.14986145 1 0.56217694
0.413138 0.97637314 0.51151818
0.7502616 0.89985412 0.46868676
0 0 1
0.31347457 0 1
0.88496149 0 1
1 0 1
1 0 1
0 0.21146829 1
0.14708473 0.13102171 1
0.5393371 0.09311758 1
1 0.06928186 1
1 0.05233442 1
0 0.5914613 1
0.06392299 0.43289202 1
0.33916023 0.35690385 1
0.71025336 0.30515936 1
1 0.26161149 1
0 1 1
0.02200009 0.79147881 1
0.2148561 0.6842497 1
0.51701707 0.6034044 1
0.88496149 0.54499835 1
0 1 1
0 1 1
0.13626264 1 1
0.38915727 0.94535333 0.95305651
0.71683782 0.87020558 0.89239067
