site/assets/luts/freshluts--0000709-louetta.cube
# LUTr-Schema-Version: 2
# LUTr-ID: freshluts--0000709-louetta
# LUTr-Title: Louetta
# LUTr-Collection: Fresh LUTs
# LUTr-Collection-ID: freshluts-community
# LUTr-Source: https://freshluts.com
# LUTr-Retrieved: 2026-07-27
# LUTr-Source-File: submissions-raw/freshluts/cubes/709__Louetta.cube
# LUTr-Source-Format: CUBE
# LUTr-Source-SHA256: ecddc042b8c42f1a98728d9fcb3ced5b442dd5a89b861991eff0eab62ff593f0
# LUTr-License: CC0-1.0
# LUTr-License-URL: https://freshluts.com/termsandconditions
# LUTr-License-Basis: site-terms
# LUTr-Transform-Class: creative-look
# LUTr-Tags: creative, freshluts, community, cube, brown, low-key, arri-logc3-ei800
# LUTr-Input-Color-Space:
# LUTr-Input-Gamut: arri-wide-gamut-3
# LUTr-Input-Transfer: arri-logc3-ei800
# LUTr-Output-Color-Space: srgb
# LUTr-Output-Gamut: rec709
# LUTr-Output-Transfer: srgb
# LUTr-Color-Space-Confidence: camera-profile-input-required
# LUTr-Domain-Normalized: true
# LUTr-Shaper: none
# LUTr-Original-Grid: 16x16x16
# LUTr-Conversion-Grid: 16x16x16
# LUTr-Conversion-Interpolation: none
# LUTr-Conversion-Method: Metadata normalization; numeric LUT samples preserved
# LUTr-Conversion-Tool: LUTr scripts/convert-all-to-cube.mjs 2.0.0
# LUTr-Conversion-Date: 2026-07-28
# LUTr-Asset-URL: https://freshluts.com/luts/709
# LUTr-Author: InAvision
# LUTr-Author-URL: https://freshluts.com/users/64078
# LUTr-Attribution: InAvision via Fresh LUTs
# LUTr-Source-Labels: gamma=Arri log c; color=Brown; key=Low Key; style=Warm shadows
# LUTr-Note: Preserve this metadata and the upstream license notices when redistributing.
TITLE "Louetta"
LUT_3D_SIZE 16
DOMAIN_MIN 0 0 0
DOMAIN_MAX 1 1 1
-0.024575 -0.024916 0.009756
0.056271 -0.024554 0.004447
0.123225 -0.023982 0.004168
0.221848 -0.024277 0.005799
0.338081 -0.032155 -0.003348
0.421573 -0.038111 -0.00221
0.51211 -0.039658 -0.002081
0.565849 -0.038201 -0.002294
0.603665 -0.036009 -0.002449
0.644281 -0.034315 -0.002614
0.684499 -0.033289 -0.002778
0.712581 -0.033085 -0.002892
0.731113 -0.034584 -0.002968
0.751699 -0.037874 -0.003051
0.772731 -0.042079 -0.003135
0.796176 -0.045038 -0.00323
-0.02031 0.054436 0.013336
0.017536 0.047929 0.007706
0.049661 0.056159 0.007759
0.091926 0.066428 0.006562
0.180756 0.078827 0.006849
0.303073 0.087261 -0.002631
0.403943 0.087365 -0.001745
0.499339 0.079466 -0.002063
0.580812 0.069178 -0.00238
0.626001 0.063446 -0.002558
0.668801 0.058996 -0.002728
0.712768 0.055445 -0.002905
0.748529 0.059393 -0.003051
0.768886 0.071782 -0.003139
0.789782 0.084215 -0.00323
0.813587 0.09847 -0.003335
-0.015257 0.094543 0.02238
0.03078 0.086741 -0.006071
0.065815 0.093294 0.008098
0.111377 0.10307 0.007398
0.176231 0.115638 0.007423
0.276865 0.130057 -0.002805
0.390267 0.140495 -0.001832
0.474273 0.143407 -0.002072
0.566789 0.143948 -0.002419
0.632143 0.143381 -0.002668
0.672325 0.143851 -0.002824
0.714528 0.144943 -0.00299
0.758231 0.146564 -0.003163
0.786726 0.151734 -0.003281
0.806468 0.159063 -0.003368
0.829928 0.168812 -0.003473
-0.0116 0.142555 0.034141
-0.015414 0.137682 -0.013587
0.060192 0.14143 0.006361
0.110949 0.150187 0.008106
0.172357 0.161863 0.007711
0.258114 0.177162 -0.003875
0.382269 0.194542 -0.00201
0.465274 0.201444 -0.002208
0.551479 0.207465 -0.002517
0.647057 0.21208 -0.002867
0.683777 0.214321 -0.003006
0.725221 0.217818 -0.003165
0.767653 0.222046 -0.003331
0.807483 0.227549 -0.003491
0.83165 0.234629 -0.003596
0.855518 0.244075 -0.003705
-0.006335 0.195508 0.047066
-0.020722 0.192094 0.033421
0.025557 0.19675 -0.008715
0.101042 0.206382 0.010213
0.167715 0.21921 0.010905
0.24987 0.235679 -0.004429
0.363407 0.255556 -0.002333
0.467295 0.269009 -0.002477
0.549486 0.277648 -0.002753
0.641713 0.286034 -0.003073
0.704438 0.290741 -0.003295
0.743588 0.294085 -0.003438
0.784756 0.298138 -0.00359
0.826898 0.302768 -0.00375
0.858968 0.30764 -0.003876
0.881066 0.313722 -0.00397
-0.002646 0.253889 0.060302
-0.012261 0.253966 0.044703
-0.038732 0.258905 0.033365
0.076385 0.269774 0.008502
0.157416 0.283595 0.013613
0.241764 0.300901 -0.005346
0.350032 0.321381 -0.002831
0.469538 0.339859 -0.002817
0.550688 0.349234 -0.003065
0.637983 0.358981 -0.003346
0.720102 0.366834 -0.00362
0.76211 0.370236 -0.003761
0.802159 0.374088 -0.0039
0.842871 0.378617 -0.004047
0.883015 0.383645 -0.004194
0.908731 0.388701 -0.004296
-0.002085 0.308537 0.07269
-0.00383 0.309192 0.057064
-0.026963 0.314377 0.048932
-0.037531 0.325963 -0.013678
0.13891 0.34015 0.013914
0.229369 0.358043 -0.005908
0.336292 0.380199 -0.003543
0.460461 0.402758 -0.00313
0.550489 0.415903 -0.003392
0.634942 0.427234 -0.00365
0.723387 0.437492 -0.003928
0.778627 0.442778 -0.004105
0.817288 0.446101 -0.004229
0.857249 0.449965 -0.004362
0.897612 0.454029 -0.004499
0.932909 0.458161 -0.004623
-0.002438 0.361555 0.085015
-0.002445 0.362645 0.068806
-0.013653 0.368593 0.058886
-0.054066 0.380095 0.046797
0.105065 0.394462 0.007913
0.212473 0.411834 -0.004271
0.321824 0.433658 -0.004976
0.448298 0.45736 -0.003418
0.54708 0.472657 -0.003687
0.629947 0.483825 -0.003922
0.720374 0.495127 -0.004192
0.788321 0.502214 -0.004398
0.826661 0.50492 -0.004512
0.866004 0.508303 -0.004634
0.905051 0.511851 -0.004759
0.948838 0.516188 -0.004903
-0.002737 0.405725 0.102144
-0.002752 0.408147 0.084963
-0.004143 0.415426 0.073153
-0.038545 0.42761 0.05859
0.008491 0.443129 -0.020977
0.19174 0.46154 -0.003637
0.306653 0.484713 -0.00765
0.436604 0.511043 -0.003719
0.543807 0.529917 -0.004002
0.62656 0.542419 -0.004228
0.714403 0.553971 -0.004476
0.79331 0.563023 -0.004704
0.836508 0.565979 -0.004824
0.875213 0.568801 -0.004935
0.914133 0.571984 -0.005051
0.957143 0.575815 -0.005184
-0.003022 0.447867 0.123762
-0.003035 0.450038 0.107273
-0.003087 0.457923 0.095364
-0.021505 0.469424 0.080708
-0.077562 0.485005 0.047409
0.164119 0.50336 -0.013866
0.290326 0.526341 -0.013228
0.422888 0.553637 -0.006793
0.536802 0.575114 -0.004255
0.620262 0.588329 -0.004473
0.706087 0.601454 -0.004711
0.795215 0.614019 -0.004968
0.843255 0.618709 -0.005102
0.881375 0.622097 -0.005209
0.920689 0.62578 -0.005322
0.963926 0.630023 -0.005452
-0.003322 0.492066 0.150192
-0.003336 0.494308 0.134722
-0.003393 0.503051 0.123181
-0.009083 0.514088 0.109151
-0.057503 0.528873 0.091303
0.10255 0.547283 -0.025789
0.270804 0.569303 0.021256
0.405781 0.596247 -0.012804
0.526633 0.618743 -0.006065
0.613447 0.632286 -0.004714
0.697947 0.645025 -0.004937
0.790195 0.658395 -0.005193
0.84748 0.664638 -0.005349
0.884805 0.667398 -0.005446
0.923768 0.670746 -0.005553
0.967107 0.674703 -0.005676
-0.003573 0.528899 0.179635
-0.003611 0.534701 0.16535
-0.003679 0.545067 0.154485
-0.006092 0.557646 0.141131
-0.037241 0.574176 0.125194
-0.10658 0.594636 -0.03398
0.24282 0.615502 0.01607
0.388416 0.641153 -0.006304
0.516234 0.664537 -0.012041
0.606396 0.678376 -0.005655
0.690705 0.690884 -0.005186
0.780571 0.703992 -0.005424
0.851966 0.712578 -0.005613
0.888215 0.714791 -0.005702
0.927224 0.717886 -0.005803
0.970409 0.721356 -0.005918
-0.003756 0.555329 0.21126
-0.003817 0.56481 0.198137
-0.003883 0.5749 0.188234
-0.003989 0.587808 0.176129
-0.017963 0.604753 0.161489
-0.091128 0.625442 0.13479
0.200288 0.651753 0.026397
0.368577 0.680115 0.032423
0.505023 0.708216 -0.021332
0.598692 0.726139 -0.015013
0.683996 0.739991 -0.008792
0.772041 0.752542 -0.005834
0.856495 0.763509 -0.005902
0.89152 0.764797 -0.005979
0.930593 0.767285 -0.006072
0.973898 0.770452 -0.006181
-0.003951 0.583534 0.246397
-0.004022 0.594464 0.234268
-0.004084 0.603922 0.224843
-0.004165 0.616348 0.213564
-0.012845 0.632489 0.199563
-0.072256 0.651625 0.188115
0.125699 0.679467 0.055483
0.342916 0.705867 0.05941
0.491351 0.732945 0.03744
0.587885 0.750082 0.019001
0.673083 0.765545 -0.020686
0.759825 0.780545 -0.013597
0.854014 0.796294 -0.008102
0.890648 0.800201 -0.006172
0.929973 0.804824 -0.006275
0.973995 0.809948 -0.006392
-0.004162 0.613963 0.281564
-0.00423 0.624501 0.273091
-0.004292 0.633939 0.264684
-0.004369 0.64577 0.253655
-0.00789 0.661243 0.240264
-0.053554 0.679813 0.229415
-0.099124 0.707606 0.140997
0.308988 0.734495 0.090368
0.473801 0.760981 0.073261
0.575751 0.777579 0.052833
0.662478 0.791805 0.035593
0.748271 0.806328 -0.012846
0.842808 0.821965 -0.021377
0.887415 0.827041 -0.01277
0.926256 0.830883 -0.007084
0.9702 0.835764 -0.006525
-0.032098 0.68118 0.329892
-0.06171 0.691811 0.323369
-0.096642 0.702373 0.317803
-0.134086 0.715543 0.311267
-0.170825 0.732328 0.302704
-0.207254 0.751977 0.29144
-0.244525 0.77843 0.252863
0.137808 0.81 0.151361
0.416834 0.83695 0.129876
0.541955 0.85405 0.106896
0.641988 0.868716 0.085675
0.738542 0.882907 0.065985
0.838653 0.89824 0.049407
0.898275 0.905499 0.00935
0.939026 0.909708 -0.008048
0.984148 0.914237 -0.006988
-0.038542 -0.283459 -0.126652
0.137498 -0.286656 -0.129322
0.216911 -0.291336 -0.128334
0.326632 -0.297074 -0.126129
0.413916 -0.304167 -0.122863
0.503332 -0.312925 -0.115848
0.583697 -0.323666 -0.099247
0.616889 -0.335387 -0.07415
0.64835 -0.345703 -0.053967
0.680752 -0.35354 -0.044121
0.71029 -0.359901 -0.035459
0.722377 -0.365957 -0.027617
0.732183 -0.371326 -0.020022
0.745804 -0.374951 -0.011795
0.762126 -0.377216 -0.004072
0.783187 -0.378672 -0.002199
-0.033792 0.053219 0.07366
-0.051968 0.052576 0.056224
-0.041329 0.059861 0.051795
0.097011 0.06586 0.037428
0.214507 0.075061 0.020326
0.33778 0.081158 0.01299
0.433992 0.078329 0.012627
0.530814 0.063809 0.004299
0.600053 0.048144 -0.003532
0.64361 0.03651 -0.002725
0.686845 0.022384 -0.002791
0.729915 -0.015981 -0.002965
0.759143 0.023186 -0.003085
0.779379 0.045148 -0.003171
0.800512 0.06249 -0.003262
0.824313 0.080905 -0.003367
-0.012692 0.095175 0.084244
-0.022773 0.093358 0.064724
0.064869 0.099026 0.057646
0.120813 0.106394 0.045815
0.197935 0.116448 0.031124
0.309394 0.128911 0.018549
0.412653 0.1364 0.013716
0.499949 0.137544 0.010547
0.592661 0.13547 -0.004072
0.646695 0.133854 -0.003036
0.688012 0.13357 -0.00287
0.730734 0.133821 -0.003039
0.772908 0.135011 -0.003206
0.796753 0.1409 -0.003307
0.816979 0.148548 -0.003396
0.840622 0.158738 -0.003501
-0.006989 0.145539 0.095711
-0.022611 0.141977 0.078818
0.028846 0.148183 0.060539
0.110804 0.155422 0.049818
0.183915 0.165367 0.037605
0.281564 0.179086 0.024609
0.404002 0.193224 0.015782
0.48489 0.198413 0.015223
0.575279 0.20271 -0.003577
0.658831 0.205007 -0.003414
0.697132 0.206804 -0.003037
0.739481 0.209757 -0.0032
0.782459 0.213566 -0.003369
0.820785 0.218768 -0.003523
0.841027 0.226125 -0.003614
0.864321 0.235526 -0.00372
-0.003372 0.198563 0.107923
-0.014279 0.196716 0.091672
-0.038073 0.202466 0.080437
0.087234 0.213076 0.050687
0.172013 0.224393 0.041708
0.265457 0.239936 0.028559
0.388578 0.258915 0.01809
0.482659 0.269445 0.016026
0.567812 0.277217 -0.004394
0.664323 0.284513 -0.003652
0.715318 0.287726 -0.003322
0.755592 0.290833 -0.003468
0.797503 0.294558 -0.003624
0.838346 0.298832 -0.003779
0.867457 0.303541 -0.003894
0.889198 0.309622 -0.003988
-0.002088 0.26055 0.120534
-0.007226 0.259826 0.10326
-0.028486 0.265102 0.097846
-0.044298 0.277863 0.044815
0.153786 0.289408 0.041818
0.251137 0.304606 0.031202
0.368092 0.324043 0.020291
0.481465 0.339634 0.01305
0.563811 0.348416 -0.005387
0.654042 0.357526 -0.003739
0.732123 0.364146 -0.003645
0.770626 0.366937 -0.003775
0.811533 0.370687 -0.003918
0.85267 0.37511 -0.004066
0.890946 0.379844 -0.004207
0.91438 0.384842 -0.004301
-0.002146 0.316907 0.133796
-0.003495 0.316571 0.116295
-0.016247 0.322233 0.108423
-0.0571 0.333202 0.093066
0.124097 0.348383 0.037988
0.234495 0.365172 0.033852
0.350267 0.38662 0.022263
0.476892 0.407937 0.012438
0.561649 0.418975 -0.006941
0.648394 0.429856 -0.004048
0.736225 0.439289 -0.003971
0.78624 0.44353 -0.004129
0.825857 0.446816 -0.004257
0.866035 0.450474 -0.00439
0.906858 0.454479 -0.004529
0.938771 0.458179 -0.004641
-0.002519 0.372246 0.149703
-0.002517 0.372401 0.132374
-0.006751 0.378545 0.122756
-0.043769 0.388544 0.114621
0.024102 0.404282 0.029396
0.211222 0.420029 0.034564
0.332155 0.440658 0.025116
0.46117 0.463067 0.018144
0.556108 0.476546 -0.00709
0.640644 0.487261 -0.004939
0.731605 0.497957 -0.004233
0.795121 0.503996 -0.004424
0.833414 0.506498 -0.004537
0.873254 0.509654 -0.00466
0.912705 0.51318 -0.004786
0.954863 0.51716 -0.004924
-0.002835 0.418945 0.168169
-0.002844 0.420766 0.151512
-0.00299 0.428623 0.141378
-0.024621 0.439533 0.131102
-0.081165 0.454688 0.104874
0.175792 0.473631 0.034309
0.312494 0.495023 0.031097
0.446516 0.519713 0.023414
0.550947 0.536365 0.00409
0.634918 0.547161 -0.007249
0.724976 0.558222 -0.004626
0.800579 0.56607 -0.004736
0.842026 0.568532 -0.00485
0.881403 0.571243 -0.004962
0.920351 0.574217 -0.005078
0.963938 0.577964 -0.005212
-0.003122 0.46128 0.189577
-0.003131 0.463067 0.173797
-0.003188 0.471741 0.163617
-0.011354 0.483024 0.152192
-0.062417 0.497738 0.139997
0.11396 0.518323 0.039512
0.288504 0.539669 0.042528
0.430389 0.565411 0.026204
0.542941 0.5848 0.018519
0.62714 0.597151 -0.010501
0.714807 0.609722 -0.006477
0.801553 0.621059 -0.005059
0.848558 0.625029 -0.005146
0.887446 0.628141 -0.005253
0.926755 0.63153 -0.005366
0.97035 0.635496 -0.005494
-0.003419 0.50492 0.21357
-0.003436 0.507928 0.198885
-0.003494 0.516825 0.189031
-0.007165 0.527581 0.17753
-0.041295 0.541774 0.166298
-0.102795 0.562243 0.093996
0.256808 0.583805 0.054126
0.4106 0.608977 0.038863
0.53198 0.629601 0.028267
0.618315 0.642181 0.01461
0.704512 0.654584 -0.011045
0.798147 0.667352 -0.006601
0.85153 0.67231 -0.005417
0.889592 0.674819 -0.005495
0.92919 0.677984 -0.005602
0.972517 0.681531 -0.005723
-0.003679 0.542986 0.24073
-0.003726 0.550377 0.22683
-0.003789 0.560085 0.216851
-0.004514 0.572469 0.205282
-0.022697 0.588255 0.192454
-0.094171 0.606603 0.16706
0.210892 0.630577 0.066923
0.386841 0.654565 0.059309
0.51915 0.67555 0.037147
0.609739 0.688276 0.030651
0.695399 0.700533 0.01066
0.787606 0.713338 -0.012041
0.854981 0.720796 -0.007076
0.89206 0.722959 -0.005753
0.931416 0.725807 -0.005853
0.974948 0.729093 -0.005969
-0.003862 0.569412 0.268802
-0.003934 0.580577 0.257854
-0.003998 0.590531 0.248999
-0.004081 0.603139 0.237708
-0.014793 0.619671 0.224318
-0.075846 0.639636 0.212239
0.132525 0.66939 0.088351
0.358091 0.696542 0.082879
0.504 0.722015 0.059396
0.600411 0.738019 0.039237
0.687197 0.749458 0.031928
0.777121 0.761842 0.004311
0.858064 0.771608 -0.01577
0.89392 0.772807 -0.010254
0.933576 0.775098 -0.00709
0.977477 0.77797 -0.006355
-0.004057 0.597637 0.297021
-0.004128 0.608574 0.287883
-0.004191 0.618347 0.280526
-0.004274 0.631004 0.271615
-0.008817 0.647059 0.259887
-0.058593 0.666034 0.250571
-0.081847 0.695101 0.164598
0.323154 0.722386 0.114158
0.484631 0.747499 0.093832
0.585956 0.763357 0.072241
0.674786 0.777645 0.050379
0.763973 0.792175 0.036196
0.85648 0.807141 0.025876
0.892319 0.810465 -0.015766
0.932445 0.81484 -0.017029
0.976823 0.819741 -0.013925
-0.004245 0.624981 0.321226
-0.004314 0.6356 0.314281
-0.00438 0.645654 0.308836
-0.004463 0.658325 0.302004
-0.004811 0.674358 0.293043
-0.041825 0.693624 0.285459
-0.095034 0.720268 0.244269
0.278509 0.751051 0.150735
0.462827 0.775818 0.13386
0.570097 0.791103 0.110597
0.661232 0.8047 0.088627
0.750662 0.818102 0.067122
0.847142 0.833085 0.045603
0.888364 0.836849 0.04001
0.927834 0.840878 0.036577
0.972214 0.845439 -0.006026
-0.050637 0.692145 0.369423
-0.091271 0.702875 0.362928
-0.125476 0.713265 0.357457
-0.155047 0.726192 0.350888
-0.187148 0.742895 0.342956
-0.22017 0.763258 0.335097
-0.252694 0.789738 0.315557
-0.137121 0.825282 0.212071
0.394499 0.851448 0.191982
0.528761 0.867993 0.167809
0.634932 0.882093 0.145455
0.736341 0.895997 0.123518
0.840669 0.910444 0.101608
0.897547 0.916491 0.085478
0.93913 0.920106 0.072179
0.984768 0.924315 0.059814
-0.053665 -0.288155 -0.105427
0.219182 -0.291322 -0.121934
0.315439 -0.296008 -0.130974
0.37543 -0.301636 -0.133907
0.453752 -0.308611 -0.133843
0.542587 -0.317408 -0.131659
0.60319 -0.328661 -0.120011
0.637637 -0.341074 -0.097406
0.669539 -0.35161 -0.078471
0.701251 -0.359215 -0.06878
0.727022 -0.365408 -0.059578
0.735961 -0.371218 -0.050577
0.745713 -0.376217 -0.042198
0.758963 -0.379466 -0.035198
0.774862 -0.381457 -0.029596
0.794968 -0.382773 -0.025661
-0.051725 0.055443 0.122695
-0.084661 0.056823 0.10462
-0.084297 0.063717 0.098484
0.094166 0.070042 0.091004
0.244939 0.062561 0.066003
0.365522 0.058987 0.038711
0.458921 0.057406 0.025962
0.553488 0.044181 0.018693
0.614025 0.030455 0.017217
0.65685 -0.005335 0.018063
0.700832 -0.032322 0.008308
0.741671 -0.037931 -0.004708
0.768405 -0.032009 -0.003269
0.788468 0.019422 -0.003204
0.809598 0.046194 -0.003294
0.83304 0.068795 -0.003397
-0.013106 0.098863 0.135293
-0.030168 0.097818 0.115781
0.069905 0.103677 0.109058
0.126777 0.110942 0.101645
0.216603 0.118386 0.085241
0.337781 0.123876 0.056115
0.433625 0.128958 0.037804
0.52071 0.13097 0.026103
0.608608 0.13037 0.019244
0.657484 0.12933 0.018377
0.699416 0.128426 0.013162
0.742836 0.127899 -0.004212
0.783799 0.128916 -0.003607
0.804406 0.135111 -0.003331
0.824596 0.142695 -0.003419
0.848109 0.15294 -0.003524
-0.006154 0.150014 0.149432
-0.024513 0.146419 0.128718
0.020111 0.153105 0.119503
0.11592 0.159391 0.111973
0.195288 0.169056 0.094719
0.304963 0.179584 0.069231
0.421468 0.189576 0.04635
0.502374 0.194636 0.032754
0.593308 0.199493 0.022772
0.666949 0.201538 0.019573
0.706249 0.203039 0.015545
0.748831 0.205443 -0.004168
0.792213 0.208759 -0.003794
0.828054 0.21375 -0.00354
0.847191 0.22097 -0.003627
0.870726 0.2304 -0.003734
-0.002747 0.205164 0.163882
-0.014091 0.203078 0.144243
-0.03964 0.20903 0.135698
0.076037 0.220049 0.115668
0.175318 0.230887 0.099417
0.281036 0.2447 0.076972
0.411578 0.261107 0.052644
0.497419 0.269398 0.037101
0.582838 0.277296 0.026023
0.67911 0.284291 0.021329
0.72329 0.286738 0.014587
0.764356 0.289468 -0.00676
0.806194 0.292892 -0.003857
0.847065 0.296969 -0.003804
0.873812 0.301566 -0.003911
0.895339 0.307601 -0.004004
-0.001994 0.269207 0.179443
-0.006185 0.268172 0.160333
-0.027248 0.273704 0.152879
-0.048719 0.284213 0.133808
0.14277 0.297172 0.101576
0.258329 0.310993 0.082898
0.385985 0.328404 0.059422
0.492934 0.340832 0.040267
0.575758 0.349348 0.028659
0.667557 0.358153 0.023745
0.739127 0.363628 0.012804
0.777708 0.366097 -0.006779
0.81906 0.369613 -0.004005
0.860522 0.373847 -0.004088
0.896848 0.378361 -0.004222
0.919615 0.383369 -0.004314
-0.002229 0.327049 0.195047
-0.002987 0.326507 0.176389
-0.014011 0.333073 0.167741
-0.050667 0.342702 0.160545
0.071183 0.360735 0.101801
0.231938 0.376061 0.08777
0.36226 0.395671 0.066289
0.489417 0.414191 0.043535
0.571905 0.42399 0.030703
0.660164 0.434406 0.026194
0.747339 0.443205 0.00965
0.793069 0.446471 -0.007904
0.833304 0.449542 -0.004333
0.873665 0.452944 -0.004423
0.915354 0.456895 -0.004564
0.944241 0.460217 -0.004665
-0.002611 0.383793 0.212232
-0.002604 0.383465 0.194251
-0.005131 0.39024 0.18481
-0.033127 0.399529 0.176605
-0.072856 0.414792 0.14565
0.193661 0.432845 0.093079
0.336932 0.451925 0.076315
0.472605 0.471961 0.052119
0.564317 0.483229 0.036343
0.650097 0.493502 0.029356
0.741161 0.503582 0.020547
0.801209 0.508494 -0.010379
0.839985 0.510713 -0.004726
0.880214 0.513671 -0.004697
0.920249 0.516963 -0.004824
0.960657 0.520591 -0.004955
-0.002938 0.432176 0.230703
-0.002942 0.433498 0.213813
-0.002996 0.441996 0.204235
-0.017703 0.452451 0.19423
-0.06972 0.466492 0.183268
0.12847 0.488806 0.098803
0.309174 0.508875 0.086767
0.453813 0.531182 0.062244
0.557082 0.544563 0.043279
0.64237 0.554647 0.032345
0.734261 0.565253 0.030242
0.806965 0.572043 -0.013333
0.847447 0.573912 -0.006677
0.887241 0.576324 -0.005001
0.926858 0.579078 -0.005118
0.970585 0.582578 -0.005251
-0.003223 0.4741 0.251697
-0.003237 0.476872 0.235631
-0.003294 0.485755 0.225831
-0.010044 0.49654 0.215064
-0.046261 0.510687 0.206088
-0.07606 0.533081 0.139357
0.275269 0.554898 0.099494
0.432541 0.578522 0.078127
0.54692 0.595415 0.056067
0.633199 0.60708 0.03933
0.72268 0.619158 0.033056
0.807052 0.629506 0.014398
0.853188 0.63302 -0.012632
0.892753 0.635894 -0.007074
0.932544 0.639109 -0.005455
0.976256 0.642723 -0.005544
-0.003515 0.517179 0.272929
-0.003547 0.522487 0.260529
-0.0036 0.530793 0.251208
-0.00641 0.541223 0.240099
-0.031412 0.554999 0.229018
-0.096068 0.574121 0.202098
0.229264 0.59947 0.115186
0.408618 0.623188 0.098337
0.534291 0.641259 0.074661
0.622491 0.652372 0.055339
0.710711 0.664168 0.039821
0.803662 0.6762 0.035276
0.854902 0.68038 0.015757
0.893715 0.682869 -0.014581
0.933335 0.685743 -0.009239
0.977473 0.689085 -0.006044
-0.003773 0.555109 0.293908
-0.003837 0.565163 0.283742
-0.003901 0.574997 0.276333
-0.004004 0.58765 0.267246
-0.018986 0.602195 0.255892
-0.081117 0.619093 0.242149
0.15248 0.646615 0.134098
0.378355 0.669397 0.120725
0.51779 0.688086 0.096876
0.611222 0.699476 0.076533
0.69986 0.710786 0.056037
0.794201 0.723128 0.041259
0.857237 0.729313 0.038608
0.89474 0.731296 0.029228
0.934821 0.733784 -0.016785
0.978815 0.736944 -0.013429
-0.003958 0.582112 0.314896
-0.004034 0.593847 0.307133
-0.004101 0.604196 0.300747
-0.004187 0.617336 0.292506
-0.011561 0.634333 0.282967
-0.064585 0.654573 0.277563
-0.026 0.685626 0.197334
0.340264 0.714016 0.146014
0.49784 0.737531 0.122568
0.598244 0.749909 0.100429
0.688946 0.76049 0.079601
0.782096 0.772091 0.058533
0.859478 0.780171 0.042549
0.896061 0.781276 0.041668
0.936076 0.783356 0.040599
0.979956 0.786033 0.004506
-0.004144 0.609071 0.337538
-0.004214 0.619967 0.330017
-0.00428 0.63014 0.324227
-0.004364 0.642987 0.317618
-0.006259 0.659474 0.309425
-0.049864 0.679174 0.302784
-0.081254 0.707762 0.259089
0.297618 0.739244 0.180452
0.474822 0.762682 0.160353
0.580863 0.777494 0.136721
0.674152 0.791122 0.113511
0.767254 0.804939 0.091189
0.8581 0.818073 0.069876
0.894495 0.821133 0.056259
0.934613 0.825313 0.047679
0.979628 0.829879 0.042599
-0.00433 0.636099 0.361709
-0.004398 0.646622 0.354662
-0.004463 0.65661 0.349142
-0.004545 0.669117 0.342621
-0.004649 0.685124 0.334946
-0.037977 0.704809 0.328299
-0.090912 0.731136 0.30486
0.235836 0.76583 0.166321
0.45164 0.789291 0.195841
0.562972 0.804484 0.174049
0.658229 0.817533 0.151932
0.7515 0.83075 0.130673
0.85068 0.845074 0.109236
0.889895 0.8478 0.094436
0.930292 0.851157 0.080006
0.974768 0.855244 0.064934
-0.07365 0.703457 0.408232
-0.126057 0.714138 0.40206
-0.161969 0.724535 0.397154
-0.182608 0.737328 0.391448
-0.206377 0.753727 0.384079
-0.233904 0.77436 0.376453
-0.261635 0.800069 0.363084
-0.185827 0.836827 0.271036
0.376116 0.862951 0.244843
0.517263 0.879342 0.223247
0.628363 0.893509 0.20257
0.733846 0.907475 0.18169
0.842027 0.92194 0.160169
0.896445 0.927264 0.145222
0.939678 0.93102 0.132301
0.986234 0.935225 0.119492
-0.015491 -0.292867 0.120011
0.309915 -0.296057 0.095736
0.431116 -0.300706 -0.043401
0.439059 -0.306239 -0.107827
0.504147 -0.313106 -0.116804
0.578907 -0.321793 -0.121016
0.624049 -0.332975 -0.113157
0.658374 -0.345594 -0.091943
0.690332 -0.356267 -0.074909
0.721912 -0.363904 -0.071109
0.740822 -0.370099 -0.06723
0.749426 -0.375925 -0.061704
0.75917 -0.380847 -0.056175
0.771991 -0.383914 -0.052002
0.78737 -0.385819 -0.049144
0.807225 -0.38714 -0.047639
-0.074578 0.056952 0.184103
-0.119586 0.059746 0.168255
-0.125592 0.066479 0.159422
0.093675 0.069852 0.152869
0.267989 0.058439 0.137885
0.388237 0.037889 0.119601
0.484625 -0.020265 0.105885
0.577767 -0.038957 0.096905
0.629706 -0.042305 0.087955
0.671572 -0.045253 0.078672
0.715637 -0.047968 0.067986
0.75452 -0.050274 0.055211
0.778992 -0.052937 0.036511
0.799216 -0.045795 0.021608
0.819593 0.007898 0.022269
0.84258 0.056515 0.02203
-0.014749 0.103459 0.198926
-0.035585 0.103854 0.17999
0.074476 0.109532 0.172674
0.136735 0.116094 0.163862
0.233029 0.124456 0.153658
0.362654 0.122099 0.133117
0.461543 0.11001 0.102949
0.551978 0.102108 0.076501
0.632532 0.099934 0.056851
0.676621 0.103058 0.045836
0.71688 0.107494 0.037339
0.758606 0.112252 0.031195
0.796809 0.118516 0.027666
0.814191 0.127994 0.026304
