site/assets/luts/freshluts--0000693-rec-709-to-sony-s-log-3-conversion.cube
# LUTr-Schema-Version: 2
# LUTr-ID: freshluts--0000693-rec-709-to-sony-s-log-3-conversion
# LUTr-Title: REC 709 to Sony S-Log 3 (conversion)
# LUTr-Collection: Fresh LUTs
# LUTr-Collection-ID: freshluts-community
# LUTr-Source: https://freshluts.com
# LUTr-Retrieved: 2026-07-27
# LUTr-Source-File: submissions-raw/freshluts/cubes/693__REC709_to_Sony_S-Log_3.cube
# LUTr-Source-Format: CUBE
# LUTr-Source-SHA256: 4eb03521ccc9e52dab5bc4ea1db80b1444c678f23c1f26395e9eda181d84af7d
# LUTr-License: CC0-1.0
# LUTr-License-URL: https://freshluts.com/termsandconditions
# LUTr-License-Basis: site-terms
# LUTr-Transform-Class: creative-look
# LUTr-Tags: creative, freshluts, community, cube, rec709
# LUTr-Input-Color-Space: rec709
# LUTr-Input-Gamut: rec709
# LUTr-Input-Transfer: rec709
# LUTr-Output-Color-Space: srgb
# LUTr-Output-Gamut: rec709
# LUTr-Output-Transfer: srgb
# LUTr-Color-Space-Confidence: inferred-from-source-label
# LUTr-Domain-Normalized: true
# LUTr-Shaper: none
# LUTr-Original-Grid: 33x33x33
# LUTr-Conversion-Grid: 33x33x33
# LUTr-Conversion-Interpolation: none
# LUTr-Conversion-Method: Metadata normalization; numeric LUT samples preserved
# LUTr-Conversion-Tool: LUTr scripts/convert-all-to-cube.mjs 2.0.0
# LUTr-Conversion-Date: 2026-07-28
# LUTr-Asset-URL: https://freshluts.com/luts/693
# LUTr-Author: François Bélanger
# LUTr-Author-URL: https://freshluts.com/users/7358
# LUTr-Attribution: François Bélanger via Fresh LUTs
# LUTr-Source-Labels: gamma=Rec 709; color=None; key=Neutral; style=Correction
# LUTr-Note: Preserve this metadata and the upstream license notices when redistributing.
# LUTr-Upstream-Comment: INPUTGAMMA Rec709
# LUTr-Upstream-Comment: IMAGEPROFILE sRGB
# LUTr-Upstream-Comment: OUTPUTGAMMA SLog3
# LUTr-Upstream-Comment: 64BLOB
# LUTr-Upstream-Comment: TFVUQwAAAAAzAAAAAAAAAEN0clYsAgAAigAAAAAAwP8AAAA/AAAAPwAAAD8A
# LUTr-Upstream-Comment: AAA/AAAAP+Q4jj8AAIA/AACAPwAAAAAAAAA/AAAAAAAAAAAAAAAAAAAAAAAA
# LUTr-Upstream-Comment: AAAAAAAAAACAPwAAAD8AAAA/sPgKPwAAAAAAAAA/AAAAP7D4Cj++914/AACA
# LUTr-Upstream-Comment: PwAAAAAAAAAAAAAAPwAAAD8AAAAAAACAPwAAAAAAAAAAAAAAPwghhD4AAAAA
# LUTr-Upstream-Comment: AAAAAAAAAAAAAAAAAAAAAAAAAAAAAAAAAADA/wAAAAAAAEA/AAAAAAAAAAAA
# LUTr-Upstream-Comment: AEA/AABAPwAAQD8AAAAAAAAAPwAAAAAAAAA/AAAAPwAAgD8AAAAAAAAAPwAA
# LUTr-Upstream-Comment: QD8AAMD/AACAPwAAgD8AAIA/AAAAAAAAAAAAAAA/AAAAPwAAAD8AAAAAAACA
# LUTr-Upstream-Comment: PwAAAABrrbU+AABAPwAAgD8AAAAAAADA/wAAAAAAAAAAAACAPwAAgD8AAIA/
# LUTr-Upstream-Comment: AACAPwAAwP8AAMD/AADA/wAAwP8AAMD/AADA/wAAAD8AAAAAAAAAPwAAAD8A
# LUTr-Upstream-Comment: AAA/AAAAPwAAAD8AAAA/AAAAPwAAAD8AAAA/AAAAAAAAAD8AAIA/AAAAPwAA
# LUTr-Upstream-Comment: AAAAAAA/AAAAAAAAgD8AAMD/AADA/wAAwP8AAMD/AADA/wAAwP8AAAAAAADA
# LUTr-Upstream-Comment: /wAAwP8AAMD/AADA/wAAwP8AAMD/AADA/wAAwP8AAMD/AADA/wAAwP8AAMD/
# LUTr-Upstream-Comment: AADA/wAAwP8AAMD/AADA/wAAwP8AAMD/AADA/wAAwP8AAMD/AAAAAERHUkQC
# LUTr-Upstream-Comment: EAICBhVmYmJvaXNjbGFpckBnbWFpbC5jb20JA277A277A5IEA5IEAggCCAIy
# LUTr-Upstream-Comment: AAAAAAAAAAAAAAAAAAAAAAAAAAAAAAAAAAAAAAAAAAABAAABAAAAAAAAAAAA
# LUTr-Upstream-Comment: AAAAAAAAAAAAAAAAAAAAAAAAAAAAAAAAAAAAAAAAAAAAAAAAAAEAAAElSRI+
# LUTr-Upstream-Comment: AAAAAAAAAAAAAAAAAAAAAAAAAAAAAAAAAAAAAAAAAAAAAAAAAAAAAAAAAQAA
# LUTr-Upstream-Comment: ASVJkj4AAAAAAAAAAAAAAAAAAAAAAAAAAAAAAAAAAAAAAAAAAAAAAAAAAAAA
# LUTr-Upstream-Comment: AAABAAABt23bPgAAAAAAAAAAAAAAAAAAAAAAAAAAAAAAAAAAAAAAAAAAAAAA
# LUTr-Upstream-Comment: AAAAAAAAAAEAAAElSRI/AAAAAAAAAAAAAAAAAAAAAAAAAAAAAAAAAAAAAAAA
# LUTr-Upstream-Comment: AAAAAAAAAAAAAAAAAQAAAW7bNj8AAAAAAAAAAAAAAAAAAAAAAAAAAAAAAAAA
# LUTr-Upstream-Comment: AAAAAAAAAAAAAAAAAAAAAAABAAABt21bPwAAAAAAAAAAAAAAAAAAAAAAAAAA
# LUTr-Upstream-Comment: AAAAAAAAAAAAAAAAAAAAAAAAAAAAAAEAAAEAAIA/AAAAAAAAAAAAAAAAAACn
# LUTr-Upstream-Comment: AAAAAAAAAAAAAAAAAAAAAAAAAAAAAAAAAAAAAAAAAQAAAAAlSRI+AAAAAAAA
# LUTr-Upstream-Comment: dgAAAHYAAAAAAAAAAAAAAAAAAAAAAAAAAAAAAAAAAAAAAAABJUkSPiVJEj4A
# LUTr-Upstream-Comment: AAAAAACnAAAAAAAAAAAAAAAAAAAAAAAAAAAAAAAAAAAAAAAAAAAAAAElSZI+
TITLE "REC 709 to Sony S-Log 3 (conversion)"
LUT_3D_SIZE 5
DOMAIN_MIN 0 0 0
DOMAIN_MAX 1 1 1
0.093011 0.093011 0.093011
0.325577 0.093011 0.093011
0.449409 0.093011 0.093011
0.533348 0.093011 0.093011
0.596058 0.093011 0.093011
0.093011 0.325465 0.093011
0.325465 0.325465 0.093011
0.449484 0.325465 0.093011
0.533226 0.325465 0.093011
0.595952 0.325465 0.093011
0.093011 0.449409 0.093011
0.325465 0.449409 0.093011
0.449484 0.449484 0.093011
0.533165 0.449484 0.093011
0.595952 0.449409 0.093011
0.093011 0.533165 0.093011
0.325465 0.533165 0.093011
0.449484 0.533226 0.093011
0.533165 0.533165 0.093011
0.596005 0.533165 0.093011
0.093011 0.596005 0.093011
0.325465 0.596005 0.093011
0.449484 0.596005 0.093011
0.533226 0.596005 0.093011
0.596005 0.596005 0.093011
0.09259 0.09259 0.325241
0.325353 0.09259 0.325353
0.449484 0.093011 0.325465
0.533165 0.093011 0.325353
0.596111 0.093011 0.325465
0.093011 0.325465 0.325465
0.325465 0.325465 0.325465
0.449409 0.325353 0.325353
0.533226 0.325465 0.325465
0.596005 0.325465 0.325465
0.093011 0.449484 0.325465
0.325465 0.449484 0.325465
0.449484 0.449484 0.325465
0.533226 0.449484 0.325465
0.596005 0.449484 0.325465
0.093011 0.533226 0.325465
0.325465 0.533226 0.325465
0.449484 0.533226 0.325465
0.533226 0.533226 0.325465
0.596005 0.533226 0.325465
0.093011 0.596005 0.325465
0.325465 0.596005 0.325465
0.449409 0.595952 0.325465
0.533226 0.596005 0.325465
0.596005 0.596005 0.325465
0.09259 0.09259 0.449258
0.325353 0.09259 0.449334
0.449484 0.093011 0.449484
0.533165 0.093011 0.449409
0.596111 0.093011 0.44956
0.093011 0.325465 0.449484
0.325465 0.325465 0.449484
0.449484 0.325465 0.449484
0.533226 0.325465 0.449484
0.596005 0.325465 0.449484
0.093011 0.449484 0.449484
0.325465 0.449484 0.449484
0.449484 0.449484 0.449484
0.533226 0.449484 0.449484
0.596005 0.449484 0.449484
0.093011 0.533226 0.449484
0.325465 0.533226 0.449484
0.449484 0.533226 0.449484
0.533226 0.533226 0.449484
0.596005 0.533165 0.449484
0.093011 0.596005 0.449484
0.325465 0.596005 0.449484
0.449484 0.596058 0.449484
0.533226 0.596005 0.449484
0.596005 0.596005 0.449484
0.093011 0.093011 0.533165
0.325465 0.093011 0.533165
0.449484 0.093011 0.533226
0.533165 0.093011 0.533165
0.595952 0.093011 0.533165
0.093011 0.325465 0.533287
0.325465 0.325465 0.533287
0.449409 0.325465 0.533165
0.533165 0.325353 0.533165
0.596058 0.325465 0.533226
0.093011 0.449484 0.533226
0.325465 0.449484 0.533226
0.449409 0.449409 0.533165
0.533226 0.449484 0.533226
0.596005 0.449484 0.533226
0.093011 0.533226 0.533226
0.325465 0.533226 0.533226
0.449409 0.533165 0.533165
0.533226 0.533226 0.533226
0.596005 0.533226 0.533226
0.093011 0.596058 0.533226
0.325465 0.596058 0.533226
0.449484 0.596005 0.533165
0.533226 0.596058 0.533226
0.596005 0.596005 0.533226
0.09259 0.09259 0.595847
0.325353 0.093011 0.5959
0.449484 0.093011 0.596005
0.533165 0.093011 0.595952
0.596058 0.093011 0.596058
0.093011 0.325465 0.596058
0.325465 0.325465 0.596058
0.449409 0.325353 0.595952
0.533226 0.325465 0.596058
0.596005 0.325465 0.596005
0.093011 0.449484 0.596005
0.325465 0.449484 0.596005
0.449484 0.449484 0.596058
0.533226 0.449484 0.596005
0.596005 0.449484 0.596005
0.093011 0.533226 0.596005
0.325465 0.533226 0.596005
0.449484 0.533226 0.596058
0.533226 0.533226 0.596005
0.596005 0.533165 0.596005
0.093011 0.596005 0.596005
0.325465 0.596005 0.596005
0.449484 0.596058 0.596058
0.533226 0.596005 0.596005
0.596005 0.596005 0.596005
