site/assets/luts/freshluts--0001335-warm-lut-use-on-footages-rec709.cube
# LUTr-Schema-Version: 2
# LUTr-ID: freshluts--0001335-warm-lut-use-on-footages-rec709
# LUTr-Title: warm lut use on footages rec.709
# LUTr-Collection: Fresh LUTs
# LUTr-Collection-ID: freshluts-community
# LUTr-Source: https://freshluts.com
# LUTr-Retrieved: 2026-07-27
# LUTr-Source-File: submissions-raw/freshluts/cubes/1335__lut._warm._lunar_cny.cube
# LUTr-Source-Format: CUBE
# LUTr-Source-SHA256: 8f966bb71d449baa0947586d2f76f06e57046e3c03153be3ba676bc1c4911f6c
# LUTr-License: CC0-1.0
# LUTr-License-URL: https://freshluts.com/termsandconditions
# LUTr-License-Basis: site-terms
# LUTr-Transform-Class: creative-look
# LUTr-Tags: creative, freshluts, community, cube, rec709, warm
# LUTr-Input-Color-Space: rec709
# LUTr-Input-Gamut: rec709
# LUTr-Input-Transfer: rec709
# LUTr-Output-Color-Space: srgb
# LUTr-Output-Gamut: rec709
# LUTr-Output-Transfer: srgb
# LUTr-Color-Space-Confidence: declared-by-source
# LUTr-Domain-Normalized: true
# LUTr-Shaper: none
# LUTr-Original-Grid: 16x16x16
# LUTr-Conversion-Grid: 16x16x16
# LUTr-Conversion-Interpolation: none
# LUTr-Conversion-Method: Metadata normalization; numeric LUT samples preserved
# LUTr-Conversion-Tool: LUTr scripts/convert-all-to-cube.mjs 2.0.0
# LUTr-Conversion-Date: 2026-07-28
# LUTr-Asset-URL: https://freshluts.com/luts/1335
# LUTr-Author: lvannoeun@gmail.com
# LUTr-Author-URL: https://freshluts.com/users/57563
# LUTr-Attribution: lvannoeun@gmail.com via Fresh LUTs
# LUTr-Source-Labels: gamma=Rec 709; color=None; key=Neutral; style=Fresh look
# LUTr-Note: Preserve this metadata and the upstream license notices when redistributing.
TITLE "warm lut use on footages rec.709"
LUT_3D_SIZE 16
DOMAIN_MIN 0 0 0
DOMAIN_MAX 1 1 1
0 0 0
0.0299 -0.00022 -0.00022
0.08145 -0.000451 -0.000451
0.144417 -0.000701 -0.000701
0.218707 -0.000969 -0.000969
0.299457 -0.001254 -0.001254
0.380314 -0.00155 -0.00155
0.458697 -0.001854 -0.001854
0.534081 -0.002163 -0.002163
0.605568 -0.00247 -0.00247
0.673227 -0.002774 -0.002774
0.737325 -0.003072 -0.003072
0.798214 -0.003363 -0.003363
0.856185 -0.003645 -0.003645
0.910548 -0.003913 -0.003913
0.95836 -0.004153 -0.004153
-0.000355 0.044427 -0.000355
0.029899 0.044457 -0.000398
0.08145 0.047684 -0.000548
0.144417 0.052949 -0.000763
0.218707 0.058692 -0.001014
0.299457 0.063615 -0.001288
0.380314 0.067059 -0.001577
0.458697 0.069244 -0.001877
0.534081 0.070561 -0.002182
0.605568 0.071194 -0.002487
0.673227 0.071324 -0.002788
0.737325 0.07114 -0.003084
0.798214 0.070717 -0.003374
0.856185 0.070124 -0.003655
0.910548 0.069382 -0.003922
0.95836 0.068422 -0.004161
-0.000728 0.092613 -0.000728
0.033215 0.092613 -0.000746
0.081449 0.092876 -0.000817
0.144417 0.103145 -0.000972
0.218706 0.114302 -0.001179
0.299457 0.12391 -0.001421
0.380314 0.130617 -0.001687
0.458697 0.134891 -0.00197
0.534081 0.137471 -0.002262
0.605568 0.138685 -0.002556
0.673227 0.138957 -0.002849
0.737325 0.138599 -0.003138
0.798214 0.13778 -0.003422
0.856185 0.136645 -0.003698
0.910548 0.135184 -0.003961
0.95836 0.133333 -0.004196
-0.001132 0.151579 -0.001132
0.0387 0.151579 -0.001142
0.09178 0.151579 -0.001186
0.144417 0.152343 -0.001269
0.218706 0.168839 -0.00144
0.299456 0.183025 -0.001648
0.380313 0.192944 -0.001885
0.458697 0.199243 -0.002142
0.53408 0.203057 -0.002413
0.605568 0.204838 -0.00269
0.673227 0.205255 -0.002967
0.737325 0.204704 -0.003244
0.798214 0.203511 -0.003517
0.856185 0.201799 -0.003783
0.910548 0.199701 -0.004038
0.95836 0.19693 -0.004266
-0.001566 0.221451 -0.001566
0.044756 0.221451 -0.001573
0.103506 0.221451 -0.001604
0.160877 0.221451 -0.001665
0.218705 0.222671 -0.001756
0.299456 0.241389 -0.00194
0.380313 0.254453 -0.002151
0.458696 0.262755 -0.002382
0.53408 0.267765 -0.00263
0.605568 0.270172 -0.002885
0.673227 0.270698 -0.003144
0.737324 0.269994 -0.003404
0.798213 0.268411 -0.003661
0.856185 0.266161 -0.003915
0.910548 0.263361 -0.004157
0.95836 0.259736 -0.004374
-0.002025 0.297958 -0.002025
0.050075 0.297958 -0.002031
0.113796 0.297958 -0.002055
0.176015 0.297957 -0.002102
0.23743 0.297957 -0.002174
0.299455 0.299127 -0.002271
0.380311 0.315351 -0.002464
0.458696 0.32568 -0.002675
0.534079 0.331898 -0.002902
0.605568 0.334858 -0.003135
0.673227 0.33551 -0.003373
0.737324 0.334618 -0.003614
0.798213 0.332649 -0.003854
0.856185 0.329905 -0.004091
0.910548 0.326408 -0.004319
0.958359 0.321954 -0.004522
-0.002504 0.375034 -0.002504
0.053865 0.375034 -0.002508
0.121143 0.375034 -0.002527
0.186902 0.375034 -0.002565
0.251725 0.375033 -0.002625
0.315872 0.375033 -0.002706
0.38031 0.375884 -0.002808
0.458695 0.388129 -0.003004
0.534079 0.395502 -0.003213
0.605568 0.39898 -0.003428
0.673226 0.399801 -0.003646
0.737323 0.398729 -0.003868
0.798213 0.396438 -0.004089
0.856184 0.393128 -0.004309
0.910547 0.38899 -0.004521
0.958359 0.383598 -0.004707
-0.002995 0.449905 -0.002995
0.056297 0.449905 -0.002999
0.125873 0.449905 -0.003015
0.193854 0.449905 -0.003046
0.26088 0.449905 -0.003096
0.327231 0.449905 -0.003165
0.39301 0.449905 -0.003252
0.458695 0.450105 -0.003358
0.534078 0.458727 -0.003555
0.605567 0.462798 -0.003754
0.673226 0.463722 -0.003955
0.737322 0.462493 -0.004159
0.798213 0.459781 -0.004362
0.856184 0.455963 -0.004564
0.910547 0.451164 -0.004758
0.958359 0.444941 -0.004928
-0.003495 0.521903 -0.003495
0.057776 0.521903 -0.003498
0.128747 0.521903 -0.003511
0.198111 0.521903 -0.003538
0.266499 0.521903 -0.00358
0.3342 0.521903 -0.003639
0.401362 0.521902 -0.003715
0.46806 0.521902 -0.003809
0.534077 0.521588 -0.003918
0.605567 0.526261 -0.004105
0.673226 0.527326 -0.004292
0.737321 0.525933 -0.004479
0.798212 0.522869 -0.004666
0.856183 0.518521 -0.004851
0.910546 0.513046 -0.005029
0.958359 0.505982 -0.00518
-0.003991 0.590274 -0.003991
0.058506 0.590274 -0.003994
0.130173 0.590274 -0.004006
0.200194 0.590274 -0.004029
0.269283 0.590274 -0.004066
0.337636 0.590274 -0.004117
0.405425 0.590274 -0.004184
0.472788 0.590274 -0.004266
0.539746 0.590274 -0.004363
0.605567 0.589436 -0.004476
0.673225 0.590608 -0.004651
0.73732 0.589068 -0.004824
0.798212 0.58559 -0.004996
0.856183 0.580755 -0.005165
0.910546 0.574613 -0.005326
0.958358 0.5667 -0.00546
-0.004481 0.654837 -0.004481
0.058689 0.654837 -0.004484
0.130544 0.654837 -0.004494
0.20077 0.654837 -0.004514
0.270003 0.654837 -0.004546
0.338525 0.654837 -0.004592
0.406457 0.654837 -0.00465
0.474035 0.654837 -0.004723
0.541171 0.654837 -0.00481
0.608028 0.654837 -0.004911
0.673225 0.65361 -0.005025
0.737318 0.651895 -0.005187
0.798211 0.647997 -0.005346
0.856182 0.642649 -0.0055
0.910545 0.635859 -0.005646
0.958358 0.627173 -0.005762
-0.004963 0.716059 -0.004963
0.058508 0.716059 -0.004965
0.130219 0.716059 -0.004974
0.200268 0.716059 -0.004992
0.269369 0.716058 -0.005021
0.337729 0.716058 -0.00506
0.405508 0.716058 -0.005113
0.472967 0.716057 -0.005177
0.539979 0.716057 -0.005256
0.606649 0.716056 -0.005346
0.67301 0.716056 -0.005449
0.737316 0.714383 -0.005565
0.798211 0.710298 -0.005712
0.856182 0.704454 -0.005854
0.910544 0.696952 -0.005985
0.958358 0.687373 -0.006086
-0.005433 0.774228 -0.005433
0.058074 0.774228 -0.005435
0.129389 0.774228 -0.005442
0.199049 0.774228 -0.005458
0.26777 0.774228 -0.005484
0.335783 0.774228 -0.005519
0.403187 0.774228 -0.005566
0.4702 0.774228 -0.005625
0.536856 0.774228 -0.005694
0.603167 0.774228 -0.005776
0.669157 0.774228 -0.00587
0.734943 0.774227 -0.005975
0.79821 0.77231 -0.006092
0.856181 0.765779 -0.006222
0.910543 0.757821 -0.00634
0.958357 0.747271 -0.006426
-0.005889 0.82957 -0.005889
0.057442 0.82957 -0.00589
0.128196 0.82957 -0.005898
0.197293 0.82957 -0.005912
0.265442 0.829569 -0.005934
0.332892 0.829569 -0.005966
0.399816 0.829569 -0.006009
0.466228 0.829569 -0.006061
0.532341 0.829569 -0.006124
0.598099 0.829569 -0.006199
0.663618 0.829569 -0.006283
0.728732 0.829569 -0.006379
0.793782 0.829568 -0.006485
0.85618 0.827234 -0.006603
0.910542 0.818429 -0.00671
0.958357 0.807251 -0.006781
-0.006322 0.881349 -0.006322
0.056635 0.881349 -0.006324
0.126652 0.881349 -0.00633
0.194997 0.881349 -0.006343
0.262449 0.881349 -0.006363
0.329172 0.881349 -0.006392
0.39538 0.881349 -0.00643
0.461123 0.881348 -0.006477
0.526535 0.881348 -0.006535
0.591593 0.881348 -0.006602
0.656383 0.881348 -0.006679
0.720968 0.881348 -0.006767
0.785163 0.881347 -0.006865
0.849359 0.881347 -0.006972
0.910541 0.878828 -0.007089
0.958356 0.866761 -0.007147
-0.00671 0.92714 -0.00671
0.055463 0.92714 -0.006711
0.124423 0.92714 -0.006717
0.19176 0.92714 -0.006728
0.25812 0.92714 -0.006746
0.323824 0.92714 -0.006773
0.389012 0.92714 -0.006807
0.453699 0.92714 -0.00685
0.518129 0.927139 -0.006902
0.582189 0.927139 -0.006962
0.645989 0.927139 -0.007033
0.709495 0.927139 -0.007112
0.772768 0.927138 -0.007202
0.835955 0.927138 -0.0073
0.898733 0.927138 -0.007407
0.958356 0.926358 -0.007523
-0.000133 -0.000133 0.028554
0.0299 -0.000245 0.028623
0.08145 -0.000461 0.031848
0.144417 -0.000707 0.037101
0.218707 -0.000974 0.042812
0.299457 -0.001257 0.047717
0.380314 -0.001552 0.051147
0.458697 -0.001856 0.053318
0.534081 -0.002165 0.054627
0.605568 -0.002472 0.055241
0.673227 -0.002775 0.055388
0.737325 -0.003073 0.055199
0.798214 -0.003364 0.054775
0.856185 -0.003646 0.054187
0.910548 -0.003914 0.053451
0.95836 -0.004154 0.052498
-0.000368 0.044427 0.028587
0.030082 0.044397 0.028294
0.086798 0.040724 0.024144
0.152123 0.034876 0.017279
0.225678 0.03092 0.012192
0.304885 0.028846 0.00918
0.384427 0.027817 0.007562
0.461711 0.027332 0.006842
0.536425 0.027201 0.006714
0.607401 0.027297 0.006965
0.674669 0.02757 0.007475
0.738519 0.027967 0.008154
0.799221 0.028461 0.008934
0.857121 0.029047 0.009796
0.911347 0.029683 0.010714
0.95836 0.045078 0.028515
-0.000734 0.092613 0.031717
0.020582 0.093955 0.017525
0.082 0.093124 0.015735
0.147993 0.101177 0.012776
0.22309 0.109927 0.010117
0.303464 0.117518 0.008291
0.383623 0.122836 0.007225
0.461271 0.126206 0.006754
0.536143 0.128244 0.006748
0.607226 0.129144 0.007069
0.674628 0.129301 0.007587
0.738396 0.128896 0.008303
0.799172 0.128154 0.009075
0.857021 0.127129 0.00994
0.911298 0.125865 0.01084
0.958359 0.126585 0.028512
-0.001135 0.151579 0.036841
0.015348 0.152773 0.010461
0.088221 0.152392 0.009987
0.144835 0.152557 0.009262
0.220615 0.167936 0.008158
0.301798 0.180904 0.007328
0.382614 0.189836 0.006831
0.460673 0.195382 0.006707
0.535758 0.198712 0.006869
0.606997 0.200197 0.007296
0.674353 0.200457 0.007854
0.73841 0.199821 0.008575
0.799142 0.198598 0.009385
0.856956 0.196921 0.010231
0.911238 0.194825 0.011109
0.95836 0.193293 0.028509
-0.001568 0.221451 0.042497
0.014102 0.222359 0.00755
0.097411 0.222203 0.007451
0.159191 0.221945 0.007268
0.218998 0.222827 0.007041
0.300532 0.240804 0.006771
0.381716 0.253189 0.006708
0.459999 0.260889 0.006842
0.535301 0.265488 0.007192
0.606621 0.267547 0.007669
0.673988 0.267895 0.008315
0.738363 0.267035 0.009022
0.798987 0.265421 0.009819
0.856851 0.263166 0.010688
0.911168 0.260363 0.011551
0.95836 0.257418 0.028509
-0.002027 0.297958 0.047455
0.014326 0.298591 0.006718
0.106089 0.29852 0.006713
0.172981 0.298402 0.006705
0.236419 0.298233 0.006715
0.299676 0.299274 0.006756
0.381041 0.314991 0.006943
0.459479 0.324771 0.007275
0.534894 0.330621 0.00771
0.606336 0.33331 0.008296
0.673939 0.333782 0.008935
0.737968 0.33271 0.00968
0.798841 0.330724 0.010479
0.85673 0.327888 0.011299
0.911117 0.324404 0.012134
0.958359 0.320314 0.028507
-0.002505 0.375034 0.050993
0.014916 0.375572 0.007006
0.112443 0.375548 0.007033
0.182972 0.375443 0.007092
0.249891 0.375339 0.007191
0.315323 0.375354 0.007333
0.38047 0.375923 0.007523
0.459109 0.387816 0.007947
0.534561 0.394837 0.008503
0.606075 0.3981 0.009102
0.673649 0.398723 0.009779
0.737838 0.397514 0.010527
0.798681 0.395131 0.011294
0.856614 0.391806 0.012097
0.911093 0.38753 0.012916
0.958359 0.382361 0.028495
-0.002996 0.449905 0.053265
0.015659 0.450208 0.007937
0.116546 0.450198 0.007972
0.189343 0.450148 0.008058
0.258488 0.450103 0.008198
0.326036 0.450066 0.008383
0.392632 0.450017 0.008608
0.458801 0.450154 0.008903
0.534332 0.458449 0.009513
0.605906 0.462355 0.010135
0.67348 0.463059 0.010831
0.737682 0.461699 0.011561
0.798604 0.458857 0.012297
0.856623 0.455047 0.013071
0.910909 0.450143 0.013853
0.958359 0.44407 0.028491
-0.003495 0.521903 0.054653
0.016531 0.522174 0.009335
0.119111 0.522142 0.009378
0.193304 0.522147 0.009459
0.263779 0.522152 0.009591
0.332607 0.522125 0.009762
0.400441 0.522049 0.010015
0.46778 0.522055 0.010338
0.534186 0.521654 0.010711
0.605726 0.526041 0.011366
0.673358 0.526904 0.012044
0.737617 0.525385 0.012765
0.798532 0.522278 0.013484
0.856508 0.51781 0.014214
0.91086 0.512357 0.014951
0.958359 0.505261 0.028481
-0.003992 0.590274 0.055327
0.017547 0.590432 0.010959
0.120431 0.590444 0.011003
0.195245 0.590435 0.011085
0.26631 0.590413 0.011214
0.3358 0.590396 0.011409
0.404296 0.590374 0.01166
0.472171 0.590349 0.011952
0.539537 0.590323 0.012315
0.605626 0.58945 0.012757
0.673288 0.590436 0.013419
0.737541 0.588706 0.014112
0.798355 0.585175 0.014817
0.856423 0.580259 0.015503
0.910717 0.574076 0.016184
0.958358 0.566171 0.028476
-0.004482 0.654837 0.055501
0.018711 0.655046 0.012788
0.120845 0.655042 0.012826
0.195784 0.655034 0.012898
0.266957 0.655023 0.013013
0.336512 0.65497 0.01319
0.405129 0.655002 0.013419
0.473206 0.654978 0.013722
0.540725 0.654988 0.014062
0.607867 0.654961 0.014467
0.673238 0.653615 0.014946
0.73744 0.651701 0.015604
0.798355 0.647786 0.016268
0.856383 0.64233 0.016935
0.910672 0.635459 0.017546
0.958358 0.626767 0.028461
-0.004964 0.716059 0.055325
0.020005 0.716161 0.014693
0.120679 0.716147 0.01473
0.195287 0.71612 0.014806
0.266241 0.716076 0.014923
0.335682 0.716092 0.015086
0.404192 0.716076 0.015292
0.471982 0.716035 0.015559
0.539311 0.716161 0.0159
0.606281 0.716058 0.01627
0.672849 0.716084 0.016715
0.737463 0.71442 0.01721
0.798314 0.710071 0.017848
0.856238 0.704179 0.018456
0.910683 0.696666 0.019041
0.958358 0.687061 0.028446
-0.005433 0.774228 0.054914
0.021406 0.774357 0.016647
0.120112 0.774355 0.016683
0.194175 0.77435 0.016752
0.26471 0.774342 0.016866
0.333694 0.774332 0.017017
0.401729 0.774358 0.017213
0.469201 0.774342 0.017455
0.536125 0.774325 0.017767
0.602708 0.774306 0.01813
0.668917 0.774287 0.018527
0.734911 0.774267 0.019001
0.798255 0.772322 0.019509
0.856235 0.765756 0.020097
0.910547 0.757596 0.020615
0.958357 0.747156 0.028435
-0.005889 0.82957 0.054328
0.022873 0.82969 0.018616
0.11924 0.829688 0.018644
0.192571 0.829683 0.018704
0.262461 0.829677 0.018812
0.330825 0.829668 0.01896
0.39837 0.829657 0.019149
0.465177 0.829644 0.01938
0.531572 0.829629 0.019649
0.5976 0.829613 0.019994
0.663185 0.829596 0.020372
0.728675 0.829579 0.020793
0.793639 0.829562 0.021289
0.85616 0.827241 0.021811
0.910636 0.818353 0.022304
0.958357 0.807164 0.028413
-0.006323 0.881349 0.053576
0.024394 0.88135 0.020545
0.118097 0.881348 0.02057
0.190472 0.881344 0.020625
0.259569 0.881339 0.020717
0.327197 0.881332 0.020853
0.393908 0.881322 0.021031
0.460062 0.881311 0.021249
0.525732 0.881298 0.021503
0.591022 0.881311 0.021807
0.656024 0.881368 0.022165
0.720626 0.881352 0.022564
0.785026 0.881337 0.023005
0.849391 0.881323 0.023514
0.910571 0.878829 0.024042
0.958356 0.866744 0.028392
-0.00671 0.92714 0.052486
0.025814 0.92725 0.02231
0.116348 0.927248 0.022339
0.187445 0.927245 0.02239
0.255381 0.927241 0.022474
0.321907 0.927234 0.022587
0.387601 0.927226 0.022736
0.45267 0.927243 0.022935
0.517306 0.927231 0.023184
0.58161 0.92722 0.02347
0.645534 0.927203 0.023779
0.709314 0.92719 0.024154
0.772577 0.927177 0.024574
0.835819 0.927165 0.025016
0.898684 0.927154 0.025534
0.958356 0.926355 0.02837
-0.000273 -0.000273 0.076246
0.033077 -0.000335 0.076246
0.08145 -0.000503 0.076762
0.144417 -0.000733 0.086909
0.218707 -0.000992 0.097968
0.299457 -0.001271 0.107473
0.380314 -0.001564 0.114113
0.458697 -0.001865 0.118326
0.534081 -0.002173 0.120876
0.605568 -0.002479 0.122078
0.673227 -0.002781 0.122352
0.737325 -0.003078 0.121997
0.798214 -0.003368 0.121182
0.856185 -0.00365 0.120047
0.910548 -0.003917 0.118616
0.95836 -0.004157 0.11679
-0.000431 0.04742 0.076246
0.029134 0.043282 0.081843
0.086332 0.039333 0.080887
0.151884 0.033077 0.087151
0.225695 0.028263 0.09428
0.305037 0.025319 0.101
0.384569 0.023709 0.105897
0.461866 0.022943 0.109095
0.536589 0.022759 0.111047
0.607495 0.022938 0.111942
0.674764 0.023378 0.112075
0.738647 0.023982 0.111697
0.799241 0.024719 0.110949
0.857159 0.025517 0.109968
0.911362 0.026349 0.1087
0.95836 0.044382 0.109801
-0.000757 0.092613 0.076506
0.018532 0.093672 0.077236
0.081886 0.092558 0.075678
0.152066 0.089744 0.072086
0.232648 0.084105 0.065262
0.31588 0.07693 0.056769
0.395773 0.070544 0.049243
0.471963 0.065574 0.04337
0.545262 0.061886 0.03902
0.614992 0.059223 0.035922
0.681191 0.057304 0.033743
0.744192 0.055938 0.032239
0.804216 0.05496 0.031237
0.861505 0.054286 0.030612
0.91535 0.053848 0.030259
0.95836 0.093505 0.076232
-0.001149 0.151579 0.086411
0.010997 0.152788 0.082149
0.072198 0.154019 0.063993
0.145667 0.152682 0.060782
0.226558 0.162494 0.055479
0.3103 0.170044 0.049859
0.391504 0.174449 0.044758
0.468998 0.176722 0.040545
0.543347 0.177754 0.037251
0.613612 0.177692 0.034815
0.680135 0.176906 0.033051
0.743477 0.175698 0.031822
0.803742 0.174173 0.030993
0.861112 0.172382 0.030476
0.915078 0.170353 0.030189
0.95836 0.178358 0.07623
-0.001578 0.221451 0.09735
0.007641 0.222432 0.090285
0.061683 0.224792 0.050558
0.15116 0.223631 0.048984
0.220022 0.223223 0.046835
0.304828 0.237876 0.043445
0.387247 0.247104 0.040259
0.465884 0.252319 0.037483
0.540961 0.255037 0.035231
0.611947 0.255784 0.033492
0.678973 0.255149 0.032204
0.742598 0.253675 0.031286
0.803075 0.251643 0.030684
0.860655 0.249142 0.030305
0.914696 0.246228 0.030121
0.95836 0.248174 0.076229
-0.002034 0.297958 0.106975
0.006506 0.298684 0.09822
0.055466 0.300895 0.041491
0.158159 0.300319 0.040773
0.231911 0.29945 0.039745
0.300535 0.299609 0.038487
0.383668 0.313034 0.036539
0.463131 0.320872 0.034817
0.538885 0.325129 0.033356
0.610294 0.326613 0.03222
0.677848 0.326176 0.031365
0.741598 0.324499 0.030767
0.80226 0.322019 0.030374
0.85997 0.318894 0.030154
0.914239 0.315207 0.030085
0.958359 0.313908 0.076227
-0.002511 0.375034 0.113845
0.006594 0.375657 0.104122
0.052 0.377387 0.035952
0.163661 0.37708 0.03561
0.2414 0.37666 0.035129
0.312443 0.376177 0.034512
0.381124 0.376233 0.033821
0.460911 0.386385 0.03277
0.537046 0.392127 0.031891
0.608841 0.394287 0.031191
0.676523 0.394044 0.030704
0.74069 0.392198 0.030356
0.801568 0.389313 0.030156
0.859407 0.3857 0.030087
0.913592 0.381198 0.030115
0.958359 0.377781 0.076229
-0.003001 0.449905 0.11824
0.007369 0.450263 0.107954
0.049946 0.451683 0.03272
0.167234 0.451529 0.032564
0.247382 0.451234 0.032328
0.320553 0.450953 0.03204
0.390655 0.450585 0.031719
0.459294 0.45038 0.031356
0.535622 0.45745 0.030867
0.607669 0.460349 0.030502
0.67556 0.460291 0.030253
0.739922 0.458317 0.030123
0.800828 0.455053 0.030086
0.858799 0.4508 0.030129
0.913114 0.445686 0.03025
0.958359 0.440559 0.076211
-0.003499 0.521903 0.120935
0.008684 0.522213 0.110398
0.048679 0.523396 0.030972
0.169373 0.52322 0.030905
0.250956 0.523146 0.030818
0.325369 0.522943 0.030688
0.396787 0.522729 0.030551
0.46639 0.522475 0.030415
0.53454 0.521753 0.030283
0.606638 0.525248 0.030141
0.674746 0.525446 0.030093
0.739017 0.523306 0.030101
0.80017 0.51967 0.030181
0.858198 0.514908 0.030327
0.912594 0.509126 0.030517
0.958359 0.502618 0.076212
-0.003996 0.590274 0.122276
0.010272 0.590457 0.111681
0.047921 0.591399 0.030202
0.170233 0.591335 0.030188
0.252383 0.591224 0.030165
0.32735 0.591131 0.030137
0.399245 0.590996 0.030107
0.469433 0.590829 0.030095
0.538544 0.590627 0.030087
0.605954 0.589567 0.030103
0.673988 0.589828 0.030177
0.738448 0.587553 0.030304
0.799666 0.583613 0.030486
0.857712 0.578308 0.030692
0.912196 0.571859 0.030922
0.958358 0.564134 0.076206
-0.004485 0.654837 0.122613
0.012039 0.655075 0.112141
0.047518 0.655799 0.03011
0.170116 0.6558 0.030119
0.252338 0.655756 0.030128
0.327322 0.655658 0.030147
0.399317 0.655609 0.030176
0.469562 0.655457 0.030229
0.538654 0.655307 0.030299
0.607169 0.65526 0.030396
0.673449 0.653697 0.030525
0.737843 0.651159 0.030732
0.799189 0.646901 0.030963
0.857238 0.64108 0.031208
0.911826 0.633956 0.031478
0.958358 0.625183 0.076196
-0.004967 0.716059 0.122307
0.01391 0.716243 0.112009
0.047371 0.717029 0.030456
0.169376 0.716906 0.030482
0.251232 0.716962 0.030518
0.325946 0.716747 0.030565
0.397602 0.716733 0.03063
0.467588 0.716676 0.030722
0.5366 0.7166 0.030832
0.604833 0.716602 0.030971
0.672222 0.716411 0.031131
0.737585 0.714502 0.031336
0.798738 0.709807 0.031622
0.856929 0.703597 0.031908
0.911508 0.695615 0.032178
0.958358 0.685965 0.076194
-0.005435 0.774228 0.121521
0.015878 0.774393 0.111542
0.04744 0.774966 0.031117
0.168171 0.77493 0.031144
0.249452 0.774873 0.031187
0.323614 0.774863 0.031244
0.394796 0.774863 0.031336
0.464379 0.774818 0.031443
0.532828 0.77483 0.031583
0.60059 0.774692 0.031753
0.667691 0.774565 0.031943
0.734447 0.774466 0.032163
0.798402 0.772357 0.032437
0.856642 0.765414 0.032743
0.911245 0.757001 0.033028
0.958357 0.746322 0.076194
-0.005892 0.82957 0.120413
0.017851 0.829652 0.11079
0.04768 0.830128 0.031995
0.166666 0.830168 0.032025
0.247112 0.830155 0.032074
0.320563 0.830084 0.032138
0.391139 0.830054 0.032233
0.459997 0.830017 0.03235
0.527884 0.829962 0.032505
0.595006 0.829869 0.032682
0.661536 0.829845 0.032893
0.727668 0.829848 0.033128
0.793371 0.829758 0.033397
0.856394 0.827242 0.033724
0.910945 0.818227 0.034003
0.958357 0.806584 0.076195
-0.006324 0.881349 0.118972
0.019778 0.881345 0.109761
0.048073 0.881877 0.033002
0.164809 0.881847 0.033033
0.244257 0.881882 0.033085
0.316858 0.881816 0.033155
0.386569 0.881793 0.033249
0.45469 0.881838 0.033369
0.521801 0.881709 0.033526
0.588146 0.881641 0.033709
0.653995 0.881634 0.033919
0.719463 0.88164 0.034167
0.784275 0.881466 0.034434
0.849106 0.881479 0.034752
0.910687 0.87895 0.035098
0.958356 0.866474 0.076183
-0.006712 0.92714 0.11688
0.021536 0.927299 0.108164
0.048547 0.927635 0.034024
0.162219 0.927607 0.034054
0.240263 0.927809 0.034105
0.311614 0.927745 0.034175
0.380179 0.927664 0.034271
0.447212 0.927565 0.034394
0.513216 0.927604 0.034544
0.578477 0.927568 0.034718
0.64324 0.927527 0.034933
0.70771 0.927615 0.035167
0.771585 0.927437 0.035432
0.83522 0.927402 0.035743
0.898584 0.927384 0.036087
0.958356 0.926343 0.07618
-0.000424 -0.000424 0.134062
0.038423 -0.000464 0.134062
0.091235 -0.000596 0.134062
0.144417 -0.000782 0.13556
0.218707 -0.001028 0.151847
0.299457 -0.001298 0.165869
0.380314 -0.001586 0.175661
0.458697 -0.001884 0.18186
0.534081 -0.002188 0.185605
0.605568 -0.002492 0.187399
0.673227 -0.002793 0.187798
0.737325 -0.003089 0.187294
0.798214 -0.003378 0.186066
0.856185 -0.003658 0.184409
0.910548 -0.003925 0.182307
0.95836 -0.004164 0.179593
-0.000536 0.052428 0.134062
0.026789 0.04057 0.145457
0.09459 0.036695 0.143465
0.150827 0.031965 0.141207
0.225112 0.027791 0.153886
0.304681 0.025105 0.16507
0.384408 0.023628 0.173076
0.461729 0.02292 0.178131
0.536461 0.022757 0.181202
0.607462 0.022954 0.182605
0.674692 0.023402 0.182756
0.738683 0.024004 0.182095
0.799218 0.024744 0.180873
0.857136 0.025542 0.179245
0.911394 0.026374 0.177189
0.95836 0.044381 0.175826
-0.000828 0.102124 0.134062
0.016772 0.101806 0.139669
0.081378 0.091533 0.141769
0.151491 0.088086 0.140805
0.23224 0.081471 0.149251
0.315807 0.073223 0.154881
0.395801 0.065787 0.157565
0.472285 0.059891 0.158719
0.545682 0.055465 0.159074
0.615381 0.052276 0.158654
0.681563 0.050004 0.157704
0.744615 0.048429 0.156384
0.804505 0.047358 0.15479
0.86179 0.046655 0.152978
0.915718 0.046235 0.150961
0.95836 0.092592 0.160488
-0.001175 0.151579 0.13482
0.010643 0.152514 0.135531
0.069613 0.153462 0.135758
0.145157 0.1515 0.13306
0.228252 0.148475 0.12912
0.315699 0.14303 0.122671
