site/assets/luts/freshluts--0001350-cool-fix-over-exsposure.cube
# LUTr-Schema-Version: 2
# LUTr-ID: freshluts--0001350-cool-fix-over-exsposure
# LUTr-Title: cool fix over exsposure
# LUTr-Collection: Fresh LUTs
# LUTr-Collection-ID: freshluts-community
# LUTr-Source: https://freshluts.com
# LUTr-Retrieved: 2026-07-27
# LUTr-Source-File: submissions-raw/freshluts/cubes/1350__cool_fix_over_exsposure.cube
# LUTr-Source-Format: CUBE
# LUTr-Source-SHA256: 40d0248eb1dbeaf8c65430c88e3c727cc196cb9a24a0d708b8ae9711f9fe1e37
# LUTr-License: CC0-1.0
# LUTr-License-URL: https://freshluts.com/termsandconditions
# LUTr-License-Basis: site-terms
# LUTr-Transform-Class: creative-look
# LUTr-Tags: creative, freshluts, community, cube, magenta, low-key, rec709, cool
# LUTr-Input-Color-Space: rec709
# LUTr-Input-Gamut: rec709
# LUTr-Input-Transfer: rec709
# LUTr-Output-Color-Space: srgb
# LUTr-Output-Gamut: rec709
# LUTr-Output-Transfer: srgb
# LUTr-Color-Space-Confidence: declared-by-source
# LUTr-Domain-Normalized: true
# LUTr-Shaper: none
# LUTr-Original-Grid: 16x16x16
# LUTr-Conversion-Grid: 16x16x16
# LUTr-Conversion-Interpolation: none
# LUTr-Conversion-Method: Metadata normalization; numeric LUT samples preserved
# LUTr-Conversion-Tool: LUTr scripts/convert-all-to-cube.mjs 2.0.0
# LUTr-Conversion-Date: 2026-07-28
# LUTr-Asset-URL: https://freshluts.com/luts/1350
# LUTr-Author: lvannoeun@gmail.com
# LUTr-Author-URL: https://freshluts.com/users/57563
# LUTr-Attribution: lvannoeun@gmail.com via Fresh LUTs
# LUTr-Source-Labels: gamma=Rec 709; color=Magenta; key=Low Key; style=NEUTRAL
# LUTr-Note: Preserve this metadata and the upstream license notices when redistributing.
TITLE "cool fix over exsposure"
LUT_3D_SIZE 6
DOMAIN_MIN 0 0 0
DOMAIN_MAX 1 1 1
0.033237 0 0.00809
0.157596 -0.000666 0.008082
0.376846 -0.001333 0.008046
0.551316 -0.001999 0.007972
0.691195 -0.002665 0.00785
0.807432 -0.003329 0.007672
0.033234 0.130753 0.008058
0.16409 0.130753 0.00805
0.376846 0.171676 0.008013
0.551315 0.172521 0.007939
0.691195 0.164343 0.007815
0.807432 0.154689 0.007641
0.033212 0.345697 0.007916
0.206223 0.345697 0.007908
0.379205 0.345696 0.00787
0.551314 0.345039 0.007791
0.691194 0.328705 0.007666
0.807432 0.309425 0.007504
0.033173 0.514159 0.00762
0.204765 0.514159 0.007612
0.376273 0.514158 0.007576
0.547845 0.514158 0.007503
0.691193 0.493048 0.007381
0.807431 0.46414 0.0072
0.033108 0.648318 0.007139
0.195426 0.648318 0.007129
0.35767 0.648318 0.007086
0.519907 0.648318 0.006998
0.682078 0.648317 0.006849
0.80743 0.61877 0.006644
0.033016 0.76024 0.006343
0.185397 0.76024 0.006332
0.337554 0.76024 0.006283
0.489771 0.760239 0.00618
0.641933 0.760239 0.006006
0.794078 0.760239 0.00574
0.033236 -0.000477 0.161012
0.170097 -0.000777 0.161012
0.376846 -0.001379 0.200045
0.551316 -0.002026 0.200981
0.691195 -0.002683 0.191856
0.807432 -0.003342 0.181102
0.033233 0.136758 0.161011
0.154578 0.131734 0.164643
0.398749 0.111771 0.150592
0.575448 0.079261 0.123184
0.709802 0.052595 0.102038
0.821199 0.034648 0.089087
0.033212 0.345697 0.201372
0.090218 0.351062 0.132747
0.375991 0.347718 0.091697
0.562551 0.333458 0.076957
0.70361 0.309982 0.061856
0.818438 0.287592 0.049226
0.033173 0.514159 0.199722
0.054749 0.517398 0.118483
0.351513 0.517262 0.053958
0.546201 0.515408 0.049208
0.695822 0.489068 0.043445
0.813527 0.45682 0.037787
0.033107 0.648318 0.189341
0.040145 0.650254 0.109986
0.327523 0.650438 0.035337
0.509721 0.649853 0.033779
0.68115 0.649076 0.031729
0.809673 0.617089 0.029548
0.033015 0.76024 0.178091
0.035121 0.761507 0.103049
0.306707 0.761748 0.027011
0.476607 0.761524 0.026554
0.636594 0.761108 0.025949
0.793422 0.760656 0.025252
0.033235 -0.000953 0.396445
0.207005 -0.001104 0.396445
0.380762 -0.001555 0.396444
0.551315 -0.002134 0.393887
0.691195 -0.002757 0.375642
0.807432 -0.003397 0.354148
0.033231 0.173603 0.396444
0.144635 0.126863 0.425312
0.394604 0.10305 0.420044
0.573173 0.074234 0.396662
0.708707 0.050185 0.365541
0.820572 0.033476 0.338434
0.03321 0.347248 0.39644
0.086332 0.349553 0.402908
0.371956 0.345955 0.402012
0.570172 0.334849 0.38857
0.719236 0.315194 0.365813
0.838874 0.288537 0.336728
0.03317 0.514158 0.391378
0.053797 0.517099 0.379299
0.317634 0.521359 0.353743
0.544122 0.517014 0.346919
0.706491 0.488191 0.330183
0.829442 0.45486 0.310172
0.033106 0.648318 0.370593
0.039917 0.650187 0.353403
0.262332 0.655149 0.302045
0.489707 0.654342 0.293344
0.679252 0.650973 0.28336
0.816992 0.615386 0.271345
0.033013 0.76024 0.348164
0.035069 0.761457 0.32985
0.223164 0.765717 0.264641
0.443615 0.766069 0.250708
0.623693 0.764353 0.245222
0.791956 0.762338 0.238249
0.033231 -0.00143 0.57835
0.203347 -0.001521 0.57835
0.373492 -0.001846 0.578349
0.543584 -0.002332 0.578349
0.691195 -0.0029 0.559501
0.807432 -0.003505 0.52715
0.033225 0.16995 0.578349
0.124419 0.109844 0.613498
0.37079 0.08811 0.609245
0.558201 0.065658 0.599376
0.706547 0.045831 0.567434
0.81959 0.031295 0.526779
0.033206 0.339901 0.578349
0.079615 0.332681 0.594626
0.365804 0.33688 0.605855
0.559013 0.329578 0.601661
0.717805 0.309537 0.574508
0.837465 0.283853 0.533737
0.033164 0.509922 0.578348
0.052015 0.511346 0.581975
0.312219 0.513623 0.588327
0.545353 0.513927 0.584916
0.706579 0.506845 0.574135
0.833199 0.494971 0.558405
0.0331 0.648318 0.551851
0.039446 0.649861 0.547791
0.259544 0.654305 0.536751
0.504844 0.655055 0.5449
0.682988 0.650957 0.546883
0.821557 0.629416 0.534806
0.033008 0.76024 0.518163
0.034964 0.761359 0.511074
0.221808 0.765352 0.489232
0.454809 0.768763 0.494437
0.635745 0.767286 0.502524
0.794451 0.763563 0.492634
0.033222 -0.001907 0.722261
0.193021 -0.001969 0.722261
0.352791 -0.002209 0.722261
0.512613 -0.002608 0.72226
0.672305 -0.00311 0.722259
0.807432 -0.003668 0.700108
0.033218 0.159664 0.722261
0.101475 0.091017 0.754043
0.341499 0.070887 0.751604
0.517128 0.055188 0.744081
0.682755 0.040123 0.736902
0.81819 0.028289 0.707545
0.033199 0.319294 0.72226
0.07134 0.307609 0.739898
0.355792 0.324331 0.758576
0.528975 0.320726 0.756309
0.695233 0.300901 0.751856
0.835327 0.276876 0.72129
0.033158 0.478987 0.722256
0.049566 0.476607 0.729733
0.304095 0.477825 0.746415
0.54096 0.504979 0.747638
0.694924 0.503155 0.744085
0.831927 0.491015 0.724843
0.033093 0.638582 0.722331
0.038688 0.639285 0.724222
0.255335 0.641848 0.730407
0.500107 0.645932 0.732925
0.684807 0.647762 0.729299
0.820189 0.642948 0.721267
0.033 0.760239 0.688273
0.034817 0.761214 0.686566
0.219692 0.764725 0.681655
0.451485 0.767711 0.684837
0.65383 0.766613 0.698177
0.800095 0.762952 0.700865
0.033212 -0.002382 0.843419
0.182758 -0.002427 0.843419
0.332239 -0.002612 0.843419
0.481771 -0.002938 0.843419
0.631226 -0.003374 0.843419
0.780786 -0.003884 0.843418
0.033208 0.149375 0.843419
0.082054 0.076536 0.870561
0.316418 0.055054 0.86994
0.480984 0.044724 0.86445
0.636471 0.033962 0.858829
0.788422 0.024777 0.854026
0.033188 0.298746 0.843419
0.062952 0.285149 0.860461
0.354719 0.319555 0.871594
0.504261 0.322063 0.871188
0.650328 0.30738 0.870492
0.801979 0.282342 0.869389
0.033147 0.448138 0.843418
0.046742 0.443899 0.852208
0.309637 0.450238 0.86997
0.539768 0.499274 0.869385
0.673365 0.502455 0.868653
0.808077 0.49259 0.867231
0.033082 0.597477 0.843417
0.037929 0.596466 0.847387
0.249943 0.596839 0.860328
0.504557 0.617454 0.865678
0.683084 0.641154 0.864385
0.810316 0.64114 0.862466
0.032989 0.746861 0.843415
0.034622 0.747404 0.844842
0.216752 0.749472 0.849558
0.446829 0.75436 0.85467
0.650431 0.758654 0.854701
0.800641 0.759899 0.851247
