site/assets/luts/freshluts--0000170-industrial.cube
# LUTr-Schema-Version: 2
# LUTr-ID: freshluts--0000170-industrial
# LUTr-Title: INDUSTRIAL
# LUTr-Collection: Fresh LUTs
# LUTr-Collection-ID: freshluts-community
# LUTr-Source: https://freshluts.com
# LUTr-Retrieved: 2026-07-27
# LUTr-Source-File: submissions-raw/freshluts/cubes/170__INDUSTRIAL_33.DJI_0018.cube
# LUTr-Source-Format: CUBE
# LUTr-Source-SHA256: cd777ea7a1e479b0400b4dab8ad0de9db8a9671d2bbde95e61dcb5c998e85a12
# LUTr-License: CC0-1.0
# LUTr-License-URL: https://freshluts.com/termsandconditions
# LUTr-License-Basis: site-terms
# LUTr-Transform-Class: creative-look
# LUTr-Tags: creative, freshluts, community, cube, film-emulation, orange, low-key, dji-d-log
# LUTr-Input-Color-Space: dji-dlog-dgamut
# LUTr-Input-Gamut: dji-d-gamut
# LUTr-Input-Transfer: dji-d-log
# LUTr-Output-Color-Space: srgb
# LUTr-Output-Gamut: rec709
# LUTr-Output-Transfer: srgb
# LUTr-Color-Space-Confidence: inferred-from-source-label
# LUTr-Domain-Normalized: true
# LUTr-Shaper: none
# LUTr-Original-Grid: 33x33x33
# LUTr-Conversion-Grid: 33x33x33
# LUTr-Conversion-Interpolation: none
# LUTr-Conversion-Method: Metadata normalization; numeric LUT samples preserved
# LUTr-Conversion-Tool: LUTr scripts/convert-all-to-cube.mjs 2.0.0
# LUTr-Conversion-Date: 2026-07-28
# LUTr-Asset-URL: https://freshluts.com/luts/170
# LUTr-Author: Shamoon Abbasi
# LUTr-Author-URL: https://freshluts.com/users/1258
# LUTr-Attribution: Shamoon Abbasi via Fresh LUTs
# LUTr-Source-Labels: gamma=DJI D-log; color=Orange; key=Low Key; style=Film emulation
# LUTr-Note: Preserve this metadata and the upstream license notices when redistributing.
TITLE "INDUSTRIAL"
LUT_3D_SIZE 33
DOMAIN_MIN 0 0 0
DOMAIN_MAX 1 1 1
0.00830091 0.0140383 0.0139467
0.00830091 0.0140383 0.0139467
0.0122988 0.0136873 0.0133669
0.0184024 0.0135348 0.0126192
0.0268864 0.0139773 0.0121157
0.0374914 0.0148318 0.0116884
0.0521553 0.0161898 0.0109712
0.0778973 0.0194705 0.00961318
0.114046 0.0257267 0.00906386
0.155825 0.0356603 0.00827039
0.202045 0.0496071 0.00798047
0.25066 0.0661326 0.00779736
0.299519 0.0821393 0.0075227
0.344381 0.0975509 0.00733959
0.387442 0.111955 0.00732433
0.420935 0.122911 0.00741588
0.453513 0.133852 0.00747692
0.480797 0.142779 0.00759899
0.506096 0.150942 0.00772107
0.526818 0.157717 0.0078584
0.544823 0.163394 0.00794995
0.560693 0.168505 0.00798047
0.575204 0.173327 0.00810254
0.588449 0.177737 0.00831617
0.601114 0.18172 0.00846876
0.612863 0.185367 0.00851453
0.624201 0.188968 0.00854505
0.634684 0.192386 0.00854505
0.644373 0.195636 0.00868238
0.65185 0.198032 0.00881971
0.659373 0.200275 0.00891127
0.659419 0.20029 0.00891127
0.659419 0.20029 0.00891127
0.00830091 0.0140383 0.0139467
0.00830091 0.0140383 0.0139467
0.0109255 0.0138094 0.0135653
0.0177005 0.0135195 0.0126955
0.0262455 0.0139315 0.0121614
0.0370336 0.014786 0.0117037
0.0525673 0.0162203 0.0109407
0.0794995 0.0196841 0.00952163
0.116594 0.0263218 0.00900282
0.157733 0.0361639 0.00823987
0.202197 0.0496681 0.00798047
0.249989 0.0659037 0.00779736
0.298344 0.0817578 0.0075227
0.343008 0.0970779 0.00733959
0.38587 0.111437 0.00732433
0.419486 0.122423 0.00741588
0.452232 0.13344 0.00746166
0.479423 0.142336 0.00759899
0.504921 0.150561 0.00772107
0.525689 0.157351 0.00784314
0.543862 0.163088 0.00794995
0.559731 0.168185 0.00798047
0.574273 0.173022 0.00808728
0.587594 0.177447 0.00830091
0.600259 0.18146 0.0084535
0.612055 0.185107 0.00849927
0.623346 0.188708 0.00854505
0.633906 0.192142 0.00854505
0.64361 0.195392 0.00866712
0.65127 0.197848 0.00880446
0.658763 0.200092 0.00889601
0.659419 0.20029 0.00891127
0.659419 0.20029 0.00891127
0.00865187 0.0157931 0.0154116
0.00859083 0.0154879 0.0151522
0.00903334 0.0147555 0.0144961
0.0170291 0.014023 0.0131075
0.0255741 0.0142061 0.0123598
0.0362554 0.0149386 0.011841
0.051194 0.0163119 0.0111391
0.0765545 0.0194705 0.00972
0.11223 0.0255283 0.00914015
0.152697 0.0350347 0.00833143
0.196704 0.0479286 0.00801099
0.243687 0.0640116 0.00788891
0.292058 0.0798505 0.00758373
0.337026 0.0952316 0.00741588
0.379797 0.109575 0.00737011
0.414359 0.120943 0.0074464
0.447593 0.132067 0.00749218
0.475227 0.141192 0.00762951
0.501335 0.149599 0.00776684
0.522484 0.156542 0.00787366
0.541024 0.162463 0.00801099
0.557107 0.167575 0.00802625
0.571756 0.172427 0.00810254
0.585306 0.176959 0.00831617
0.598001 0.181048 0.00849927
0.610025 0.184787 0.00856031
0.621378 0.188373 0.00857557
0.632013 0.191821 0.00859083
0.64184 0.195102 0.00868238
0.649805 0.197726 0.00880446
0.657282 0.200015 0.00891127
0.65893 0.200534 0.00894179
0.658915 0.200549 0.00894179
0.0106966 0.0259403 0.0239109
0.0106813 0.0258335 0.0238041
0.0105745 0.0253147 0.0233768
0.0174868 0.0236667 0.0205539
0.0268254 0.0226749 0.0169985
0.035935 0.0228733 0.016022
0.0474556 0.0238956 0.0154574
0.066804 0.0251774 0.0131228
0.0968795 0.0289158 0.010956
0.133577 0.0348974 0.00949111
0.175692 0.0458991 0.0091249
0.220859 0.0594186 0.00862135
0.269169 0.0748913 0.00820935
0.314839 0.0903182 0.00810254
0.357549 0.104295 0.00796521
0.3953 0.116777 0.00788891
0.429297 0.127718 0.00791943
0.460517 0.13814 0.00801099
0.489067 0.147219 0.00813306
0.512398 0.154757 0.00817884
0.53257 0.161364 0.00834669
0.549523 0.166659 0.00834669
0.564797 0.171496 0.00834669
0.579156 0.176242 0.0084535
0.592447 0.180606 0.00869764
0.60502 0.184497 0.00875868
0.61677 0.188128 0.0087892
0.627802 0.191608 0.00877394
0.637934 0.194934 0.0087892
0.646525 0.197833 0.00888075
0.653986 0.200229 0.0089723
0.657404 0.201282 0.00900282
0.657389 0.201297 0.00900282
0.0124971 0.0369421 0.0327001
0.0124514 0.0366979 0.032517
0.0123751 0.0361334 0.0320592
0.0169528 0.0341802 0.0295109
0.0259098 0.0324712 0.0251469
0.0368811 0.0313573 0.0205844
0.0479744 0.0323339 0.0195926
0.0634318 0.0335393 0.018204
0.0893416 0.0353246 0.0137331
0.12221 0.0395972 0.0111391
0.160433 0.0472725 0.0103304
0.203647 0.058381 0.00939956
0.251606 0.0731975 0.00892653
0.297444 0.0873884 0.00869764
0.340536 0.101076 0.0084535
0.379202 0.113649 0.00833143
0.414298 0.12488 0.00831617
0.446723 0.135348 0.0083772
0.477317 0.14522 0.0084535
0.503059 0.153353 0.00849927
0.525246 0.160586 0.00860609
0.54345 0.166339 0.00862135
0.559258 0.171298 0.00857557
0.574212 0.176043 0.00859083
0.588098 0.180621 0.0087892
0.601389 0.184771 0.00889601
0.613779 0.188571 0.00889601
0.62536 0.192172 0.00886549
0.636027 0.195575 0.00880446
0.645136 0.198627 0.00885023
0.652735 0.20116 0.00888075
0.657237 0.202564 0.00888075
0.657237 0.202579 0.00888075
0.0141604 0.0485237 0.0417487
0.0141146 0.0482185 0.0415198
0.0140383 0.0475776 0.0410163
0.0172122 0.0454871 0.0384527
0.0239872 0.0435798 0.0349737
0.0350652 0.0416876 0.0293584
0.0490425 0.0416724 0.024445
0.063447 0.0431525 0.0229801
0.0863508 0.0447395 0.0187991
0.115709 0.0475624 0.0138399
0.150103 0.0526589 0.0115663
0.190433 0.0613565 0.0104219
0.23595 0.073579 0.00984207
0.281834 0.086305 0.00921645
0.325643 0.0994736 0.00892653
0.365179 0.111727 0.00877394
0.400702 0.122805 0.00866712
0.433997 0.133288 0.00869764
0.465476 0.143328 0.00872816
0.492958 0.15201 0.00875868
0.517647 0.159808 0.00875868
0.537011 0.166049 0.00881971
0.554269 0.171481 0.00868238
0.569787 0.176349 0.00860609
0.58436 0.180987 0.00863661
0.59823 0.185443 0.00874342
0.611627 0.189578 0.00869764
0.624033 0.193408 0.00862135
0.635416 0.196979 0.00849927
0.645136 0.200122 0.00852979
0.652842 0.20267 0.00857557
0.658274 0.204364 0.00857557
0.658289 0.204379 0.00857557
0.0157626 0.0617075 0.0520027
0.0157168 0.0613413 0.0517281
0.0156405 0.0607156 0.0512245
0.0176242 0.0582589 0.048188
0.0229038 0.0557412 0.044892
0.0330358 0.0530861 0.0395972
0.0459754 0.0519265 0.0335851
0.0632334 0.0527199 0.0282902
0.0872053 0.0552834 0.0243534
0.114046 0.0570993 0.017258
0.145998 0.0611124 0.0130922
0.181888 0.0674754 0.0119478
0.225635 0.0778668 0.0107881
0.270466 0.0890669 0.00987259
0.313909 0.100816 0.00944533
0.354543 0.112383 0.00920119
0.3906 0.122789 0.00891127
0.424826 0.133135 0.00883497
0.457099 0.143038 0.00880446
0.48571 0.151995 0.00874342
0.511681 0.160174 0.00865187
0.532723 0.166812 0.00865187
0.550652 0.172457 0.00849927
0.567132 0.1776 0.00834669
0.582177 0.182284 0.00828565
0.596368 0.186709 0.00836194
0.610254 0.190982 0.00831617
0.623331 0.195056 0.00827039
0.635096 0.198749 0.00820935
0.645487 0.20209 0.00828565
0.653407 0.204623 0.00842298
0.659525 0.206485 0.00840772
0.659541 0.206516 0.00840772
0.0168307 0.0764782 0.0634012
0.0168154 0.0760662 0.0630961
0.0168002 0.0752575 0.0624857
0.0183413 0.0725872 0.0592508
0.0223697 0.069688 0.0556649
0.0315709 0.0660258 0.05066
0.0437781 0.0637827 0.0440833
0.058854 0.0631876 0.0379034
0.0862287 0.0653086 0.0306706
0.114504 0.0683909 0.0243992
0.144717 0.0713817 0.0168917
0.178607 0.0769665 0.0145876
0.219883 0.0854505 0.0124971
0.263249 0.095079 0.0109407
0.306218 0.106142 0.0102846
0.347295 0.116548 0.00946059
0.384009 0.125734 0.0089723
0.418952 0.135439 0.00872816
0.452003 0.144854 0.00854505
0.48127 0.153552 0.00848402
0.507698 0.161685 0.00843824
0.529397 0.168414 0.0084535
0.548028 0.174182 0.00836194
0.564782 0.179446 0.00825513
0.580316 0.184283 0.00816358
0.594476 0.188632 0.00823987
0.608804 0.192859 0.00823987
0.622324 0.19704 0.00823987
0.634516 0.200793 0.00817884
0.645472 0.204242 0.00825513
0.653803 0.206836 0.0083772
0.660929 0.208865 0.00833143
0.660945 0.208896 0.00833143
0.0172274 0.094789 0.0774395
0.0172122 0.094255 0.0770275
0.0171969 0.0933852 0.0763561
0.0184176 0.0905928 0.0731518
0.0218814 0.0876631 0.0694591
0.0306096 0.0841688 0.0653086
0.0411841 0.0804608 0.0585489
0.0545205 0.0785077 0.0517128
0.0798505 0.0795911 0.0436103
0.111604 0.0830243 0.0361181
0.146029 0.0873579 0.02533
0.180468 0.0924086 0.0171817
0.220493 0.0988327 0.0139162
0.262196 0.107469 0.0117494
0.303441 0.116808 0.0111543
0.343725 0.12549 0.0099794
0.379858 0.133547 0.00936904
0.414816 0.141482 0.00903334
0.447547 0.149477 0.00875868
0.477729 0.157275 0.00863661
0.504585 0.164721 0.00856031
0.526894 0.171084 0.00854505
0.545495 0.176379 0.00848402
0.562844 0.181659 0.00833143
0.578653 0.186572 0.00825513
0.593378 0.191089 0.00830091
0.607828 0.195117 0.00827039
0.621897 0.199359 0.00823987
0.634485 0.203204 0.00817884
0.646067 0.20679 0.00825513
0.654826 0.209461 0.00839246
0.662898 0.211704 0.00833143
0.662913 0.211719 0.00833143
0.0187228 0.116197 0.0949111
0.0186618 0.115496 0.0943313
0.0185702 0.114565 0.0935378
0.0194705 0.111513 0.0902266
0.0220493 0.108476 0.0864729
0.0302586 0.105272 0.0830701
0.0392004 0.101717 0.0776226
0.049958 0.0979171 0.0701457
0.0715496 0.0973983 0.0620432
0.102724 0.099855 0.0540475
0.142809 0.105272 0.0420996
0.182773 0.111162 0.0256199
0.224338 0.117479 0.01561
0.266072 0.124514 0.012726
0.305318 0.131594 0.0119326
0.344884 0.13933 0.0105592
0.379522 0.145434 0.00982681
0.413809 0.151858 0.0093843
0.445747 0.157931 0.00901808
0.475715 0.164157 0.00888075
0.502815 0.170031 0.00877394
0.525689 0.175509 0.0087129
0.544289 0.179904 0.00863661
0.56141 0.18439 0.00849927
0.577585 0.189197 0.00836194
0.592477 0.193698 0.00839246
0.607538 0.19794 0.0083772
0.62179 0.201984 0.00831617
0.634913 0.205921 0.00822461
0.646937 0.209644 0.00827039
0.656275 0.212436 0.00839246
0.665354 0.214939 0.00833143
0.66537 0.214969 0.00833143
0.0199435 0.141146 0.114687
0.0199283 0.140414 0.114122
0.0198825 0.139239 0.113191
0.0207828 0.135805 0.109758
0.0229191 0.13228 0.105714
0.0303197 0.128923 0.102342
0.0389868 0.12549 0.0979934
0.0478218 0.121721 0.0916915
0.0634012 0.118578 0.0835737
0.0908217 0.119051 0.0750286
0.132204 0.123476 0.0622873
0.178927 0.13077 0.0443885
0.22829 0.139712 0.0222629
0.273014 0.146883 0.0138247
0.312306 0.153475 0.0127413
0.351156 0.159548 0.0112459
0.385458 0.164721 0.00999466
0.419013 0.169741 0.0093843
0.450294 0.173983 0.00883497
0.479271 0.177951 0.00875868
0.505409 0.181613 0.00869764
0.528328 0.185046 0.00865187
0.546761 0.187808 0.00859083
0.563241 0.190555 0.00849927
0.578805 0.193988 0.00843824
0.593606 0.197971 0.0084535
0.608515 0.201892 0.00840772
0.623133 0.205875 0.00834669
0.636484 0.20972 0.00823987
0.648829 0.213504 0.00830091
0.658763 0.216403 0.00834669
0.668482 0.219074 0.00828565
0.668864 0.219196 0.00828565
0.019791 0.170367 0.137575
0.0198062 0.169512 0.136904
0.0198215 0.168139 0.135836
0.0210422 0.164492 0.132403
0.0234989 0.16022 0.127916
0.0305486 0.156466 0.124178
0.0393225 0.152804 0.120287
0.0476997 0.149096 0.114733
0.0607614 0.145373 0.10695
0.080827 0.142794 0.0981765
0.115969 0.144884 0.0870222
0.166613 0.151568 0.071931
0.225498 0.162341 0.0450904
0.279301 0.17293 0.0186313
0.321233 0.179583 0.0134737
0.360464 0.184604 0.0110018
0.394873 0.189242 0.00981155
0.427878 0.193713 0.00924697
0.458991 0.197314 0.00866712
0.488121 0.200473 0.00834669
0.513787 0.202014 0.00805676
0.536248 0.203128 0.00802625
0.554055 0.202823 0.00798047
0.569833 0.203082 0.00802625
0.584131 0.2038 0.00814832
0.598077 0.205676 0.00820935
0.61239 0.208453 0.00817884
0.626627 0.211643 0.0081178
0.640116 0.215213 0.00796521
0.652537 0.21883 0.00807202
0.662959 0.221744 0.00801099
0.67303 0.224537 0.00791943
0.674006 0.224826 0.00790417
0.0253605 0.205798 0.166186
0.0251926 0.204608 0.16524
0.0249485 0.203067 0.164004
0.0255131 0.198932 0.160266
0.0275578 0.194339 0.155688
0.0335851 0.190448 0.151675
0.0419776 0.186618 0.147875
0.0505531 0.182864 0.143175
0.0609293 0.17911 0.136034
0.076112 0.175692 0.127565
0.102144 0.173632 0.11754
0.146532 0.17705 0.105989
0.210773 0.18706 0.0866865
0.275807 0.199573 0.0488289
0.330678 0.21091 0.018143
0.373327 0.216251 0.0102235
0.407263 0.218723 0.0091249
0.440238 0.222889 0.00863661
0.470527 0.225208 0.00833143
0.499336 0.227726 0.00794995
0.524132 0.227939 0.00750744
0.546258 0.227665 0.00753796
0.564218 0.226047 0.00743114
0.580041 0.223987 0.00733959
0.594217 0.222431 0.00741588
0.607202 0.221149 0.00753796
0.620356 0.221088 0.00750744
0.633707 0.222416 0.0074464
0.64622 0.224033 0.00735485
0.658457 0.226871 0.00740063
0.669017 0.229435 0.00732433
0.679225 0.232136 0.00721752
0.680827 0.232578 0.00720226
0.0308232 0.24239 0.195041
0.0305486 0.241291 0.194156
0.0301823 0.239826 0.192966
0.0306096 0.23595 0.189517
0.0325017 0.231159 0.185061
0.0377356 0.226841 0.180941
0.0453651 0.222736 0.17702
0.0551308 0.218585 0.172961
0.0638132 0.215015 0.167239
0.0760662 0.211612 0.159335
0.0963455 0.208835 0.149264
0.129305 0.207462 0.138766
0.185428 0.213748 0.126818
0.260014 0.226108 0.10132
0.327733 0.239902 0.049897
0.386053 0.252277 0.0155184
0.423346 0.25478 0.00791943
0.455009 0.256733 0.00723278
0.485084 0.258076 0.00666819
0.513405 0.259861 0.00656138
0.537881 0.25951 0.00642405
0.559823 0.258549 0.00636301
0.577813 0.255863 0.00634775
0.593423 0.252552 0.00642405
0.607217 0.248844 0.0065919
0.619852 0.245335 0.00680552
0.631937 0.2421 0.00680552
0.643839 0.239994 0.0068513
0.654322 0.238331 0.00720226
0.665309 0.238468 0.00735485
0.675563 0.239872 0.00726329
0.685573 0.241962 0.00712596
0.687678 0.242435 0.00709544
0.0400854 0.275822 0.222171
0.0396429 0.274739 0.221302
0.0390631 0.273304 0.220142
0.0387427 0.269825 0.217151
0.0398718 0.265431 0.213123
0.0424659 0.261585 0.209506
0.0490425 0.257542 0.205707
0.0592508 0.253635 0.202045
0.069276 0.249973 0.197498
0.0785687 0.246891 0.191501
0.0952163 0.244572 0.182559
0.12282 0.242466 0.169665
0.162509 0.242115 0.15967
0.228168 0.25008 0.147326
0.309972 0.264775 0.110063
0.385077 0.281376 0.0486152
0.439948 0.292927 0.0120394
0.470466 0.293507 0.00701915
0.500984 0.294392 0.00424201
0.529778 0.295399 0.00386053
0.553536 0.294865 0.00462348
0.575311 0.293431 0.00526436
0.592889 0.290379 0.00556954
0.608301 0.286641 0.00569161
0.622599 0.282353 0.00555428
0.635523 0.277226 0.00541695
0.647257 0.272007 0.00544747
0.657526 0.266468 0.00578317
0.666606 0.261234 0.00636301
0.676326 0.257816 0.00657664
0.685618 0.256001 0.00653086
0.695033 0.256535 0.00642405
0.697627 0.256931 0.00639353
0.052369 0.308659 0.248692
0.0520485 0.307561 0.247807
0.0516518 0.306218 0.246708
0.051545 0.302754 0.243702
0.0524453 0.298756 0.24007
0.0542 0.295155 0.236698
0.0572061 0.2916 0.233417
0.0645609 0.288167 0.230198
0.0748302 0.284566 0.22652
0.0830701 0.281666 0.221698
0.0961624 0.279728 0.215228
0.120241 0.278386 0.203922
0.152407 0.27657 0.189914
0.198856 0.276738 0.181399
0.275456 0.287221 0.166476
0.365957 0.304768 0.116594
0.438514 0.321721 0.049134
0.490593 0.33312 0.0125734
0.517906 0.332586 0.00354009
0.546227 0.332738 0.00180056
0.570336 0.332631 0.00215152
0.59234 0.331334 0.0028687
0.610254 0.328603 0.00314336
0.625971 0.325093 0.00341802
0.640452 0.320653 0.00384527
0.653239 0.315282 0.00393683
0.664103 0.308812 0.00434882
0.67393 0.301793 0.00479133
0.682795 0.293782 0.00495918
0.691798 0.28661 0.00497444
0.699443 0.280995 0.0053254
0.707118 0.277668 0.00555428
0.709804 0.276982 0.00556954
0.0630503 0.341924 0.275807
0.062623 0.340825 0.274922
0.0620737 0.339376 0.273747
0.0615549 0.33608 0.270924
0.0618906 0.332235 0.267475
0.0623941 0.329137 0.264683
0.0641489 0.325841 0.261646
0.069398 0.322744 0.258686
0.080415 0.319265 0.25536
0.0900435 0.316381 0.251347
0.0999466 0.314488 0.246525
0.120836 0.313756 0.237888
0.148699 0.312367 0.224903
0.18616 0.31043 0.210742
0.242039 0.311101 0.204486
0.327901 0.322774 0.180255
0.416373 0.342107 0.12314
0.490578 0.3608 0.0452125
0.535561 0.371344 0.0148928
0.562264 0.37052 0.00234989
0.585 0.369635 0.000961318
0.607248 0.368414 0.000534066
0.62565 0.366247 0.000595102
0.641901 0.362829 0.000854505
0.657252 0.358557 0.00190738
0.67071 0.353445 0.00283818
0.681941 0.34757 0.00315862
0.691966 0.340719 0.00344854
0.701183 0.333059 0.0034638
0.709209 0.324315 0.00350958
0.71577 0.315938 0.00399786
0.722316 0.309545 0.00436408
0.724895 0.307317 0.0043946
0.0745861 0.374563 0.302419
0.0742657 0.373495 0.301549
0.0738231 0.372061 0.300359
0.0735027 0.368826 0.297597
0.0739757 0.365118 0.294255
0.0745098 0.36202 0.291447
0.0756695 0.359258 0.28893
0.0791028 0.356466 0.286244
0.0863966 0.353445 0.283375
0.0966354 0.350668 0.280186
0.106279 0.349035 0.276081
0.122805 0.348592 0.270115
0.146944 0.347616 0.259434
0.180911 0.346044 0.243137
0.225757 0.344244 0.231785
0.291218 0.344823 0.225483
0.378088 0.358389 0.19469
0.466575 0.379614 0.125673
0.536095 0.398703 0.0523079
0.583688 0.410681 0.0135348
0.601267 0.407233 0.00329595
0.620783 0.404517 0
0.639582 0.402396 0
0.656336 0.399496 0.0000457771
0.672358 0.395743 0.000381476
0.687037 0.391546 0.000885023
0.699611 0.386709 0.0010071
0.710643 0.38088 0.0011902
0.720394 0.374578 0.00123598
0.728832 0.3673 0.0018616
0.735592 0.358755 0.00260929
0.741756 0.350607 0.00270085
0.744381 0.347265 0.00268559
0.0849012 0.406744 0.328862
0.084535 0.405661 0.327977
0.0840467 0.404227 0.326802
0.0836957 0.401251 0.324224
0.0839399 0.397604 0.320943
0.0842145 0.394919 0.318532
0.0846571 0.392386 0.316258
0.0863508 0.389914 0.313924
0.0921187 0.38764 0.31165
0.103838 0.385199 0.309133
0.113573 0.383856 0.305913
0.127504 0.383795 0.301442
0.148119 0.383459 0.293431
0.179507 0.382559 0.278187
0.218845 0.380911 0.261997
0.272877 0.378637 0.253574
0.340642 0.378866 0.244144
0.4271 0.39321 0.206378
0.509453 0.413687 0.13933
0.578958 0.433524 0.0544137
0.619013 0.444236 0.0231174
0.637018 0.440742 0.00621042
0.651652 0.436545 0.0000915541
0.668681 0.433814 0.0000610361
0.684779 0.430549 0
0.700359 0.427192 0
0.713726 0.422904 0.000030518
0.725948 0.417899 0.000137331
0.737621 0.412818 0.000228885
0.747356 0.407172 0.000503548
0.755489 0.400534 0.00114443
0.761746 0.392416 0.00146487
0.764141 0.387808 0.00146487
0.0938277 0.437232 0.354086
0.0936141 0.436271 0.353292
0.0933242 0.435004 0.352224
0.0937514 0.432288 0.349767
0.094789 0.428885 0.346578
0.0952773 0.426505 0.344381
0.0958114 0.424384 0.342458
0.0970474 0.422293 0.340475
0.101091 0.420508 0.338643
0.109834 0.419013 0.336934
0.120409 0.418067 0.334859
0.133196 0.418524 0.331609
0.150729 0.418753 0.32607
0.179324 0.41854 0.314427
0.216342 0.417502 0.296788
0.26276 0.415625 0.281605
0.319051 0.412818 0.2757
0.388403 0.412543 0.261402
0.469886 0.426062 0.220661
0.549722 0.446479 0.146136
0.613703 0.465599 0.0704967
0.657771 0.478096 0.0250553
0.669001 0.47248 0.00958267
0.679423 0.466453 0.0000762951
0.695918 0.463523 0
0.712627 0.460838 0
0.726818 0.457237 0
0.739315 0.453071 0.000015259
0.751598 0.448737 0.0000610361
0.762783 0.444312 0.0000610361
0.772519 0.439185 0.000183108
0.780377 0.432944 0.000335698
0.783917 0.429129 0.000350958
0.0997024 0.465095 0.377432
0.0995193 0.464179 0.376654
0.0992752 0.462943 0.375616
0.100633 0.460288 0.373083
0.103502 0.45687 0.369589
0.104295 0.454749 0.367559
0.104646 0.452827 0.365805
0.105333 0.45095 0.364065
0.10779 0.449531 0.3626
0.114427 0.448478 0.361303
0.126757 0.448051 0.360174
0.137713 0.449149 0.358358
0.154391 0.45037 0.354162
0.180301 0.45127 0.345739
0.214923 0.450904 0.330678
0.257984 0.449851 0.312322
0.306752 0.447944 0.301366
0.367254 0.444831 0.296544
0.432364 0.442924 0.276005
0.510353 0.456214 0.231876
0.584085 0.474617 0.159014
0.647334 0.494163 0.0749065
0.686229 0.505989 0.0364538
0.695384 0.499855 0.0205081
0.705928 0.493431 0.00205997
0.722499 0.490761 0.000030518
0.73785 0.488029 0.000030518
0.750713 0.484138 0
0.763561 0.480476 0
0.776059 0.476646 0
0.787106 0.472465 0
0.79646 0.468101 0
0.801221 0.464881 0
0.102876 0.49131 0.399756
0.102815 0.490455 0.399008
0.102754 0.489311 0.398032
0.104952 0.486809 0.395514
0.110353 0.483406 0.391669
0.112886 0.48127 0.389364
0.113634 0.479545 0.387701
0.114397 0.477928 0.38613
0.116228 0.476646 0.384833
0.120729 0.47599 0.383886
0.131716 0.475792 0.383276
0.143023 0.477699 0.382834
0.157168 0.479698 0.380453
0.181643 0.48188 0.374426
0.213977 0.482734 0.36231
0.255009 0.482521 0.343328
0.299214 0.481483 0.328496
0.352743 0.479438 0.321935
0.410864 0.474571 0.316014
0.472419 0.471763 0.289952
0.545113 0.483131 0.243778
0.616144 0.500847 0.163821
0.673136 0.519356 0.0931411
0.713085 0.532082 0.0483558
0.722988 0.52604 0.024445
0.732372 0.51928 0.00521859
0.74612 0.515755 0.000030518
0.760067 0.512871 0
0.773831 0.509468 0
0.787305 0.506188 0
0.79939 0.502663 0
0.810056 0.499306 0
0.816175 0.496727 0
0.103716 0.515938 0.420996
0.1037 0.515114 0.420294
0.103685 0.514015 0.419348
0.106493 0.51165 0.416861
0.113924 0.508095 0.412604
0.119005 0.505837 0.409827
0.120974 0.504097 0.407965
0.122377 0.502586 0.406378
0.123629 0.501198 0.405005
0.126818 0.50045 0.404074
0.135317 0.500664 0.40383
0.147707 0.502312 0.403952
0.160632 0.505348 0.403006
0.182559 0.508263 0.398993
0.213153 0.51017 0.389258
0.251972 0.510506 0.371862
0.293812 0.510231 0.353765
0.341909 0.508904 0.343786
0.395361 0.505226 0.339101
0.450584 0.499321 0.331746
0.507057 0.495476 0.29955
0.576837 0.506416 0.251469
0.642786 0.523674 0.175616
0.6972 0.542 0.105913
0.739239 0.556039 0.0568093
0.748821 0.55021 0.0328527
0.75668 0.543282 0.0120546
0.767926 0.53872 0.000030518
0.782559 0.535958 0.000015259
0.796674 0.532464 0
0.809628 0.52932 0
0.821149 0.526574 0
0.828565 0.524453 0
0.102312 0.540795 0.442756
0.102403 0.539849 0.441917
0.102525 0.538705 0.440909
0.106218 0.536324 0.438315
0.11603 0.532525 0.433524
0.122255 0.530068 0.430396
0.126329 0.52813 0.428107
0.128771 0.526558 0.426307
0.130617 0.525154 0.424765
0.132845 0.524224 0.423651
0.139345 0.524224 0.423255
0.151995 0.525673 0.423651
0.163165 0.528649 0.423453
0.183658 0.53254 0.42118
0.212085 0.535348 0.413901
0.247654 0.536217 0.399878
0.289357 0.53637 0.379751
0.334127 0.535515 0.365118
0.382193 0.532662 0.359411
0.433356 0.527718 0.355184
0.485374 0.520989 0.345571
0.538384 0.516732 0.307668
0.603998 0.527657 0.260548
0.667231 0.544793 0.185214
0.721096 0.563897 0.11812
0.764782 0.579141 0.0708324
0.773709 0.573602 0.0475166
0.780362 0.566354 0.0188602
0.789944 0.560403 0.000030518
0.804959 0.557153 0.000015259
0.818524 0.553765 0
0.830488 0.550896 0
0.838849 0.548974 0
0.0958877 0.566506 0.46569
0.0961776 0.565621 0.464881
0.0965591 0.564431 0.463813
