site/assets/luts/freshluts--0000687-thats-one-lut.cube
# LUTr-Schema-Version: 2
# LUTr-ID: freshluts--0000687-thats-one-lut
# LUTr-Title: That's one LUT.
# LUTr-Collection: Fresh LUTs
# LUTr-Collection-ID: freshluts-community
# LUTr-Source: https://freshluts.com
# LUTr-Retrieved: 2026-07-27
# LUTr-Source-File: submissions-raw/freshluts/cubes/687__lut_4.00018.cube
# LUTr-Source-Format: CUBE
# LUTr-Source-SHA256: 4e31d8f6678af7db0df278ddda368a4ee1f80a22d529a54b6b260190bc02766c
# LUTr-License: CC0-1.0
# LUTr-License-URL: https://freshluts.com/termsandconditions
# LUTr-License-Basis: site-terms
# LUTr-Transform-Class: creative-look
# LUTr-Tags: creative, freshluts, community, cube, canon-cinestyle
# LUTr-Input-Color-Space:
# LUTr-Input-Gamut: rec709
# LUTr-Input-Transfer: canon-cinestyle
# LUTr-Output-Color-Space: srgb
# LUTr-Output-Gamut: rec709
# LUTr-Output-Transfer: srgb
# LUTr-Color-Space-Confidence: camera-profile-input-required
# LUTr-Domain-Normalized: true
# LUTr-Shaper: none
# LUTr-Original-Grid: 33x33x33
# LUTr-Conversion-Grid: 33x33x33
# LUTr-Conversion-Interpolation: none
# LUTr-Conversion-Method: Metadata normalization; numeric LUT samples preserved
# LUTr-Conversion-Tool: LUTr scripts/convert-all-to-cube.mjs 2.0.0
# LUTr-Conversion-Date: 2026-07-28
# LUTr-Asset-URL: https://freshluts.com/luts/687
# LUTr-Author: lvannoeun@gmail.com
# LUTr-Author-URL: https://freshluts.com/users/57563
# LUTr-Attribution: lvannoeun@gmail.com via Fresh LUTs
# LUTr-Source-Labels: gamma=Canon Cinestyle; color=None; key=Neutral; style=FRESH
# LUTr-Note: Preserve this metadata and the upstream license notices when redistributing.
TITLE "That's one LUT."
LUT_3D_SIZE 9
DOMAIN_MIN 0 0 0
DOMAIN_MAX 1 1 1
0.000137331 0.0112154 0.0514382
0.0159762 0.0166171 0.0578775
0.137484 0.0207828 0.0625925
0.263447 0.0244297 0.066804
0.385183 0.0274815 0.070573
0.498726 0.0303807 0.0740826
0.612726 0.0329747 0.0772259
0.727932 0.0352789 0.0801862
0.843809 0.0373999 0.0829786
0.00234989 0.133883 0.0545968
0.0616312 0.128389 0.0623331
0.2056 0.124941 0.0869459
0.316884 0.134798 0.0661021
0.438865 0.137407 0.0614176
0.552392 0.139864 0.0666667
0.66212 0.143252 0.0737621
0.772168 0.146822 0.0799878
0.88368 0.14995 0.084947
0 0.2589 0.0547951
0.0431983 0.258701 0.0530251
0.238315 0.242374 0.0757916
0.384741 0.235737 0.107866
0.495827 0.239536 0.110033
0.592813 0.250568 0.0838178
0.709072 0.254231 0.0704356
0.830167 0.256107 0.063386
0.950271 0.257282 0.0641642
0 0.383413 0.0556497
0.035523 0.385077 0.0552377
0.225879 0.372839 0.0552224
0.407843 0.355993 0.0894484
0.545769 0.347921 0.12311
0.673793 0.344289 0.145922
0.770336 0.354543 0.127016
0.868162 0.365682 0.0989853
0.98436 0.369589 0.0845808
0 0.508293 0.0563973
0.0325933 0.510674 0.0570687
0.203128 0.503944 0.0505684
0.404562 0.484596 0.0654917
0.566476 0.468833 0.103243
0.706264 0.460487 0.137148
0.837659 0.455344 0.163027
0.961288 0.454093 0.176349
1 0.469871 0.140673
0 0.633204 0.0570077
0.0306554 0.636042 0.0583047
0.190249 0.632334 0.0517739
0.383352 0.617258 0.0510109
0.568368 0.596399 0.078706
0.726574 0.581796 0.117021
0.86775 0.572915 0.15108
0.99765 0.566629 0.1794
1 0.563165 0.200961
0 0.758221 0.0573587
0.0291447 0.761257 0.0594034
0.182895 0.758938 0.0534676
0.36202 0.748867 0.0479896
0.552575 0.728252 0.0580911
0.732097 0.707958 0.092546
0.887999 0.694209 0.130953
1 0.685069 0.164996
1 0.678767 0.195789
0 0.883284 0.0577249
0.0278019 0.886656 0.0600595
0.177874 0.884962 0.0551308
0.347143 0.877897 0.0476539
0.529915 0.861265 0.0466011
0.721843 0.838544 0.0693065
0.895903 0.819654 0.106706
1 0.806485 0.144945
1 0.798001 0.17998
0 1 0.0580301
0.026154 1 0.0606851
0.173861 0.999237 0.0565499
0.336568 0.997696 0.0482032
0.509499 0.992813 0.045655
0.701381 0.971725 0.0518654
0.890486 0.94902 0.0822614
1 0.931258 0.121126
1 0.919478 0.160037
0.000015259 0.011017 0.171237
0.0265812 0.0131533 0.174166
0.166583 0.013611 0.175082
0.307424 0.0134585 0.175357
0.439887 0.0126955 0.175097
0.56791 0.0115511 0.174517
0.697246 0.0102388 0.173678
0.827756 0.00840772 0.17258
0.956039 0.00750744 0.171649
0.0222324 0.129213 0.160159
0.0449989 0.133242 0.164782
0.160555 0.139437 0.178134
0.281178 0.144167 0.182528
0.400793 0.147509 0.185916
0.513848 0.150454 0.188952
0.62771 0.153216 0.19173
0.742763 0.155673 0.194354
0.858488 0.157809 0.196704
0.0434119 0.245274 0.179721
0.0641947 0.250401 0.183368
0.191775 0.255894 0.179248
0.343145 0.249393 0.205798
0.446967 0.258549 0.185534
0.565011 0.260761 0.181735
0.678691 0.263325 0.187015
0.788968 0.266804 0.193591
0.899825 0.269978 0.199084
0.0158999 0.377859 0.181811
0.0374914 0.383124 0.182742
0.174792 0.38526 0.17641
0.369223 0.368521 0.191989
0.508965 0.360616 0.223835
0.621027 0.36376 0.226368
0.719768 0.374411 0.201083
0.837278 0.377737 0.188052
0.959014 0.379263 0.182147
0.00318914 0.506828 0.178119
0.0285496 0.510887 0.180255
0.170443 0.510964 0.178408
0.352728 0.500099 0.174777
0.529625 0.481285 0.20531
0.670207 0.472602 0.238407
0.799954 0.468711 0.261143
0.896269 0.479118 0.24094
0.995178 0.489281 0.214862
0.000167849 0.632929 0.177142
0.0267185 0.636255 0.180423
0.168399 0.636576 0.179721
0.333486 0.63061 0.172503
0.523583 0.610895 0.182971
0.690211 0.594247 0.218708
0.831922 0.585184 0.252232
0.964538 0.579782 0.27808
1 0.578988 0.291005
0 0.757885 0.177401
0.0259709 0.761471 0.180957
0.166918 0.761791 0.180682
0.323354 0.758083 0.173953
0.501595 0.743801 0.17084
0.690349 0.721828 0.195178
0.851743 0.706676 0.232273
0.993103 0.697337 0.266148
1 0.691417 0.295109
0 0.882948 0.177783
0.0250858 0.886732 0.181399
0.165438 0.887053 0.18143
0.317433 0.884489 0.175662
0.482475 0.874678 0.167987
0.67303 0.854002 0.17644
0.856168 0.832929 0.208515
1 0.818753 0.246052
1 0.81004 0.280873
0 1 0.178073
0.0237278 1 0.181796
0.163729 0.99913 0.182147
0.312871 0.997681 0.177127
0.469627 0.996201 0.168566
0.650172 0.986984 0.166567
0.844984 0.963729 0.186496
1 0.944167 0.222354
1 0.931472 0.260822
0.000015259 0.0111696 0.289067
0.0259098 0.0131991 0.291936
0.165911 0.0136721 0.292821
0.306783 0.0135195 0.292958
0.439307 0.0126345 0.29279
0.567346 0.0116121 0.292195
0.696666 0.010193 0.291325
0.827054 0.00834669 0.290211
0.958343 0.00648508 0.28893
0.00935378 0.133028 0.277302
0.0330053 0.13666 0.283955
0.166903 0.137728 0.295003
0.307729 0.137453 0.295125
0.440177 0.136828 0.294957
0.568093 0.135683 0.294347
0.697429 0.134371 0.293492
0.827832 0.132631 0.292485
0.959152 0.130831 0.291127
0.0468452 0.246769 0.272908
0.0699931 0.250904 0.277226
0.181979 0.258686 0.28632
0.307744 0.262074 0.296605
0.424704 0.265583 0.298863
0.53167 0.270176 0.302785
0.6439 0.273457 0.305882
0.75816 0.275944 0.308614
0.87361 0.27834 0.311177
0.0724498 0.361532 0.293935
0.0947433 0.366186 0.298344
0.195117 0.377722 0.303624
0.320851 0.383169 0.295964
0.469688 0.374334 0.322835
0.572671 0.382574 0.302617
0.691661 0.384482 0.300099
0.804822 0.387243 0.305943
0.915541 0.390555 0.312184
0.0602579 0.48864 0.308354
0.0776379 0.494881 0.310765
0.171038 0.510185 0.300725
0.310216 0.510994 0.296696
0.490883 0.494652 0.307271
0.633127 0.485512 0.340551
0.745892 0.48896 0.342168
0.847028 0.498329 0.317159
0.96582 0.501549 0.304051
0.0287022 0.623285 0.305669
0.0479591 0.629084 0.306981
0.16585 0.636835 0.29926
0.307881 0.636484 0.298207
0.472755 0.626795 0.292378
0.652735 0.607004 0.320958
0.795697 0.597711 0.355444
0.92639 0.593286 0.379324
0.999771 0.604318 0.355657
0.0116274 0.753902 0.300832
0.0334325 0.758755 0.302846
0.164767 0.762127 0.299794
0.306294 0.761822 0.299168
0.457267 0.75639 0.291585
0.644099 0.73695 0.298833
0.814862 0.719295 0.334874
0.958282 0.709743 0.369802
1 0.70454 0.397559
0.00396735 0.88159 0.297856
0.0268101 0.885634 0.300587
0.163745 0.887373 0.300343
0.304875 0.887098 0.299931
0.449393 0.883528 0.293217
0.621683 0.869871 0.288258
0.813825 0.847166 0.310842
0.976898 0.831128 0.348943
1 0.822324 0.385092
0.000915541 0.999664 0.296544
0.0234073 0.999878 0.299931
0.16202 0.999329 0.300755
0.303059 0.997955 0.300557
0.444373 0.996612 0.294911
0.603464 0.995178 0.286366
0.795407 0.97969 0.292683
0.980026 0.957885 0.324514
1 0.94374 0.363943
0 0.01149 0.411276
0.0254215 0.0133059 0.414313
0.165438 0.014023 0.415244
0.306325 0.013611 0.415488
0.43888 0.0127413 0.415183
0.566812 0.0117189 0.414633
0.696254 0.0104067 0.413703
0.826642 0.00868238 0.412497
0.957946 0.00677501 0.411124
0.00415045 0.13434 0.40412
0.0290837 0.137285 0.410086
0.16643 0.138079 0.417609
0.307149 0.137804 0.417838
0.439643 0.136934 0.417639
0.567681 0.135897 0.416983
0.697017 0.134478 0.416052
0.82742 0.132738 0.414862
0.958602 0.130831 0.413596
0.0328985 0.252094 0.384421
0.0555123 0.256168 0.390555
0.170779 0.261906 0.411154
0.307286 0.262181 0.41944
0.439765 0.261433 0.419242
0.567681 0.260288 0.41857
0.696895 0.258854 0.417655
0.827298 0.257359 0.416556
0.958618 0.255314 0.415091
0.0708171 0.364889 0.390036
0.0933394 0.369192 0.394614
0.205829 0.376959 0.40296
0.318914 0.384024 0.411856
0.439414 0.386267 0.420478
0.565942 0.385382 0.42005
0.671031 0.390692 0.423331
0.778668 0.395056 0.427207
0.891325 0.398337 0.430411
0.0982986 0.479438 0.411078
0.119966 0.48394 0.415778
0.229755 0.492866 0.424002
0.328328 0.504784 0.427344
0.444282 0.509712 0.419455
0.593866 0.499489 0.44567
0.699519 0.507042 0.42443
0.818708 0.508675 0.423774
0.931044 0.511513 0.430426
0.102449 0.601251 0.431464
0.121386 0.606653 0.435599
0.210101 0.622477 0.434745
0.30811 0.636011 0.423789
0.439338 0.636072 0.42121
0.612802 0.62063 0.428382
0.758663 0.610468 0.464302
0.870695 0.614221 0.463813
0.974731 0.622858 0.438712
0.0758373 0.733516 0.438575
0.0922255 0.739696 0.441032
0.182086 0.75613 0.430457
0.304707 0.762188 0.423133
0.437797 0.761181 0.42237
0.593164 0.752865 0.414923
0.777188 0.73228 0.443137
0.92195 0.72224 0.479789
1 0.717891 0.504326
0.0439612 0.86836 0.434699
0.0612192 0.87425 0.436698
0.169177 0.885237 0.42652
0.303716 0.887327 0.423728
0.43653 0.886564 0.423072
0.579751 0.881727 0.415061
0.766644 0.862638 0.419944
0.940719 0.844114 0.458
1 0.834577 0.495171
0.0246128 0.991592 0.429648
0.0434424 0.992844 0.432242
0.163302 0.999054 0.424964
0.302052 0.998306 0.424277
0.434882 0.997055 0.423743
0.572747 0.995804 0.416876
0.744137 0.994369 0.409918
0.938537 0.972351 0.432441
1 0.956222 0.473396
0 0.0119173 0.538903
0.0250553 0.0135195 0.541924
0.16492 0.0142214 0.542855
0.305837 0.0138247 0.543069
0.438453 0.013077 0.542763
0.566506 0.0120546 0.542092
0.695811 0.0106203 0.541146
0.8262 0.00877394 0.540047
0.957504 0.00697337 0.538552
0.00228885 0.134798 0.534325
0.0278935 0.137636 0.539559
0.166079 0.138293 0.54522
0.306798 0.137774 0.545434
0.439338 0.137377 0.545113
0.567254 0.13611 0.544549
0.696574 0.134691 0.543618
0.826993 0.132952 0.542412
0.958282 0.130907 0.541039
0.0194553 0.25597 0.515053
0.0429999 0.259724 0.522011
0.16788 0.262425 0.541817
0.30695 0.262516 0.547036
0.439323 0.261646 0.546822
0.567254 0.260624 0.546151
0.696574 0.259068 0.54522
0.826993 0.25745 0.544015
0.95819 0.255528 0.542641
0.0576181 0.370642 0.501427
0.0794537 0.375036 0.506706
0.190707 0.382437 0.521889
0.309178 0.386801 0.542489
0.438987 0.386358 0.548074
0.566888 0.385214 0.547402
0.696239 0.38378 0.546471
0.826535 0.382162 0.545388
0.957717 0.380118 0.544015
0.0944228 0.483543 0.51136
0.116075 0.488197 0.515953
0.228931 0.495857 0.524147
0.342458 0.503014 0.532021
0.448417 0.509071 0.540536
0.566323 0.51017 0.548424
0.695537 0.50898 0.547494
0.817014 0.509728 0.54757
0.920775 0.515282 0.551171
0.123064 0.598047 0.532021
0.143969 0.60267 0.536751
0.256001 0.610681 0.545007
0.366506 0.618723 0.552514
0.459251 0.62945 0.555306
0.56733 0.634897 0.548135
0.718898 0.624521 0.570581
0.827115 0.631495 0.55021
0.945617 0.633173 0.552041
0.137133 0.716686 0.554253
0.15639 0.721675 0.558862
0.257145 0.733364 0.564736
0.345922 0.748837 0.562661
0.439048 0.760876 0.551675
0.565072 0.760601 0.549523
0.7364 0.746349 0.55346
0.88481 0.735302 0.589609
0.992096 0.739712 0.585977
0.125704 0.843519 0.569497
0.142336 0.849195 0.573434
0.227329 0.866499 0.569711
0.318868 0.882338 0.558068
0.435859 0.8869 0.55111
0.563806 0.885863 0.550332
0.716136 0.878141 0.542367
0.902647 0.857176 0.568215
1 0.846998 0.605097
0.0965133 0.968627 0.573037
0.112627 0.970535 0.576135
0.199039 0.987289 0.565896
0.3075 0.996735 0.554879
0.434333 0.997513 0.551675
0.562173 0.996368 0.551003
0.704097 0.995148 0.543206
0.890745 0.987915 0.545785
1 0.968902 0.583474
0 0.0124208 0.665614
0.0246281 0.0139315 0.668711
0.164645 0.0143893 0.669596
0.30544 0.0141146 0.669825
0.438102 0.0133669 0.669505
0.566155 0.0124666 0.66894
0.69546 0.0109255 0.668009
0.825864 0.00918593 0.666789
0.957153 0.00726329 0.665415
0.00149538 0.135164 0.662593
0.0273594 0.137972 0.667353
0.165652 0.13846 0.671962
0.306401 0.138064 0.67216
0.438972 0.137545 0.671946
0.566903 0.136416 0.671275
0.696239 0.135103 0.670359
0.826642 0.133364 0.669154
0.957961 0.131563 0.667796
0.0119783 0.257939 0.647089
0.036408 0.261357 0.653819
0.166735 0.262806 0.669917
0.306554 0.262684 0.673747
0.438987 0.262058 0.673548
0.566903 0.260914 0.672877
0.696223 0.259358 0.671946
0.826642 0.25774 0.670848
0.957839 0.255818 0.66949
0.0420844 0.37583 0.625193
0.0635233 0.37995 0.63154
0.179065 0.385733 0.653086
0.30724 0.387335 0.671427
0.438636 0.38677 0.674784
0.566552 0.385626 0.674235
0.695888 0.384192 0.673289
0.826185 0.382452 0.672099
0.957382 0.380529 0.670741
0.0822919 0.489281 0.619608
0.103349 0.493736 0.624628
0.215 0.501656 0.636332
0.327352 0.508507 0.651759
0.440162 0.511391 0.67097
0.565972 0.510582 0.675135
0.695186 0.509026 0.674311
0.825605 0.507515 0.673121
0.956802 0.505455 0.671763
0.118196 0.602487 0.631876
0.13901 0.607065 0.636545
0.251789 0.61471 0.644648
0.365377 0.621836 0.652293
0.472282 0.628336 0.659373
0.574502 0.63389 0.667674
0.694453 0.634501 0.675151
0.82475 0.632883 0.673961
0.955322 0.631067 0.672709
0.147662 0.716747 0.652201
0.167758 0.721279 0.656901
0.279789 0.729335 0.665217
0.392615 0.736919 0.672862
0.496727 0.743923 0.679591
0.586664 0.753719 0.682124
0.693797 0.759457 0.675517
0.844144 0.749889 0.693629
0.955322 0.75555 0.675486
0.166537 0.833829 0.6748
0.185489 0.838895 0.679637
0.291875 0.848508 0.687236
0.392828 0.859648 0.692226
0.47599 0.873976 0.689494
0.565545 0.885466 0.678462
0.692546 0.88484 0.676326
0.861234 0.87129 0.678035
1 0.859937 0.71371
0.167102 0.948333 0.69308
0.184176 0.949767 0.697108
0.279484 0.962463 0.700633
0.365988 0.978225 0.69691
0.451041 0.992264 0.685527
0.561715 0.996902 0.677806
0.690929 0.995819 0.67686
0.840665 0.994629 0.669062
1 0.981964 0.692561
0 0.0130007 0.791562
0.0242771 0.0142824 0.794644
0.164309 0.0148775 0.795514
0.305119 0.0144808 0.795727
0.437797 0.0137179 0.795407
0.565866 0.0125734 0.794842
0.695186 0.0112764 0.793912
0.825574 0.00941482 0.792706
0.956878 0.00762951 0.791333
0.00106813 0.135409 0.789487
0.0271458 0.138338 0.793942
0.165316 0.138811 0.797879
0.306081 0.138537 0.798077
0.438697 0.137911 0.797864
0.566613 0.136645 0.797177
0.695933 0.13521 0.796246
0.826352 0.133608 0.795163
0.957671 0.131792 0.793698
0.0080415 0.259037 0.777096
0.0329747 0.262287 0.783276
0.166079 0.263188 0.796597
0.306233 0.262928 0.799664
0.438682 0.262287 0.799435
0.566598 0.261265 0.798779
0.695949 0.259709 0.797833
0.826368 0.258091 0.79675
0.957549 0.256046 0.795407
0.0295262 0.37937 0.755184
0.051545 0.383337 0.761975
0.173297 0.386999 0.783688
0.306615 0.38761 0.798321
0.438331 0.386892 0.800687
0.566262 0.385977 0.800015
0.695613 0.384558 0.799191
0.825895 0.382925 0.798001
0.957076 0.380758 0.796643
0.0670329 0.494972 0.73753
0.0877241 0.499382 0.743328
0.199603 0.506584 0.761212
0.316793 0.511284 0.782559
0.438712 0.512154 0.798703
0.565682 0.51107 0.801022
0.694896 0.509377 0.800214
0.82533 0.507881 0.799008
0.956527 0.505943 0.797665
0.106889 0.608194 0.737942
0.127306 0.612787 0.742809
0.23917 0.620615 0.752956
0.351614 0.627863 0.764462
0.457267 0.633555 0.779232
0.566766 0.636088 0.797421
0.694148 0.63473 0.801038
0.824445 0.633112 0.799847
0.955657 0.631296 0.798611
0.142 0.721309 0.751614
0.161975 0.726055 0.756405
0.274739 0.733898 0.764477
0.388464 0.741131 0.772045
0.495445 0.74728 0.77879
0.598352 0.752941 0.785199
0.701442 0.758267 0.793835
0.823438 0.758206 0.800656
0.95465 0.756268 0.799298
0.172076 0.835447 0.771679
0.191287 0.840238 0.776501
0.303365 0.848234 0.784695
0.416373 0.855436 0.79234
0.522591 0.861921 0.799176
0.622934 0.868467 0.805203
0.713985 0.878035 0.807675
0.822431 0.883452 0.801236
0.968856 0.87541 0.814359
0.192325 0.943481 0.792584
0.210193 0.944732 0.796872
0.319265 0.952712 0.804974
0.427527 0.961486 0.812284
0.524254 0.970459 0.816922
0.606241 0.982986 0.815534
0.693675 0.995361 0.804395
0.820859 0.995392 0.801785
0.984543 0.994186 0.801785
0 0.0136416 0.917037
0.0242313 0.0144656 0.920104
0.164034 0.0151675 0.920974
0.30486 0.0148928 0.921172
0.437568 0.0141299 0.920836
0.565637 0.0131075 0.920165
0.694942 0.0115663 0.919234
0.825345 0.00994888 0.918135
0.956649 0.00802625 0.916671
0.000823987 0.135805 0.91548
0.0268864 0.13875 0.919738
0.165026 0.139101 0.923339
0.305837 0.139071 0.923522
0.438453 0.138308 0.923186
0.566384 0.137163 0.922621
0.695705 0.135744 0.921691
0.826108 0.134005 0.920501
0.957305 0.132082 0.919142
0.00579843 0.259678 0.905364
0.0307469 0.262852 0.91107
0.165637 0.263706 0.922515
0.305989 0.263462 0.925109
0.438437 0.262592 0.92488
0.566369 0.261555 0.924208
0.69572 0.260243 0.923278
0.826001 0.258503 0.922194
0.957321 0.25658 0.920836
0.021088 0.38172 0.885969
0.0436713 0.385473 0.89276
0.170474 0.387991 0.912352
0.306172 0.388266 0.924285
0.438102 0.387549 0.926116
0.566033 0.386404 0.925444
0.695247 0.384833 0.924529
0.825666 0.38323 0.923445
0.956863 0.381292 0.922087
0.0521096 0.499763 0.863157
0.0729229 0.504158 0.869734
0.188296 0.509834 0.89131
0.31194 0.512764 0.912276
0.438132 0.512581 0.924956
0.565454 0.511345 0.926467
0.694667 0.509911 0.925643
0.824964 0.508278 0.924453
0.956161 0.506355 0.923095
0.0923018 0.613947 0.851804
0.11252 0.61854 0.857252
0.223682 0.626139 0.871794
0.336507 0.632578 0.889723
0.447364 0.636225 0.909575
0.565454 0.636393 0.924514
0.693919 0.635142 0.926482
0.824216 0.633402 0.925399
0.955428 0.631708 0.924041
0.131319 0.72697 0.856168
0.151003 0.731853 0.861097
0.263127 0.739559 0.870558
0.375784 0.74696 0.880217
0.481468 0.753002 0.890837
0.583307 0.75816 0.905043
0.694484 0.760296 0.923095
0.823209 0.758602 0.925994
0.954421 0.756802 0.924636
0.165911 0.840314 0.870832
0.184909 0.844984 0.875608
0.297734 0.852949 0.883757
0.411353 0.859937 0.891249
0.518502 0.866407 0.897932
0.621454 0.871931 0.904097
0.725383 0.877272 0.910185
0.829389 0.882475 0.919036
0.953292 0.881941 0.925322
0.194385 0.9458 0.889113
0.212345 0.947082 0.893431
0.323583 0.954269 0.901427
0.436912 0.961639 0.909041
0.543557 0.967971 0.915526
0.64593 0.973663 0.921157
0.748501 0.979767 0.926955
0.843748 0.988678 0.930755
0.951736 0.995087 0.92488
0 0.0137179 0.934447
0.0233921 0.014435 0.932662
0.162631 0.0148775 0.931044
0.303517 0.0147097 0.929625
0.436347 0.0139467 0.928313
0.564401 0.0128023 0.927092
0.693721 0.011368 0.925948
0.824109 0.00976577 0.924849
0.955291 0.00784314 0.923812
0.000793469 0.135531 0.932113
0.0257725 0.138598 0.931426
0.163622 0.138933 0.932433
0.304494 0.138766 0.930999
0.437217 0.138003 0.929686
0.565148 0.136965 0.928466
0.694469 0.135531 0.927321
0.824887 0.133806 0.926238
0.956085 0.131884 0.925216
0.0055848 0.259556 0.92137
0.0293584 0.262821 0.921859
0.164233 0.263523 0.930617
0.304631 0.263142 0.931609
0.437201 0.262501 0.930312
0.565133 0.261357 0.929091
0.694331 0.259922 0.927932
0.824765 0.258289 0.926863
0.955962 0.256367 0.925826
0.020264 0.381735 0.901457
0.0419776 0.385367 0.902647
0.169024 0.387823 0.919524
0.304677 0.387945 0.929778
0.436835 0.387106 0.930571
0.564782 0.386069 0.929351
0.693996 0.384634 0.928206
0.824414 0.383017 0.927123
0.955612 0.381079 0.926101
0.0504311 0.499916 0.877607
0.0708171 0.504067 0.878645
0.186557 0.50959 0.897719
0.310491 0.512322 0.916854
0.436744 0.512245 0.928389
0.564202 0.511131 0.929397
0.693416 0.509697 0.928252
0.823713 0.507942 0.927169
0.95491 0.506142 0.926131
0.0907149 0.614328 0.864103
0.110369 0.618631 0.864607
0.221851 0.6262 0.87689
0.334936 0.632425 0.893248
0.446097 0.636133 0.912123
0.564095 0.636286 0.92639
0.692531 0.634913 0.928115
0.82295 0.633173 0.927031
0.95404 0.631235 0.926009
0.130022 0.727352 0.866712
0.149111 0.731701 0.867079
0.261418 0.739498 0.874281
0.374197 0.746593 0.882582
0.480171 0.752804 0.892287
0.582101 0.757916 0.905913
0.693248 0.759945 0.923659
0.821942 0.758373 0.926757
0.95314 0.756451 0.925734
0.165042 0.840482 0.879973
0.183398 0.844984 0.880507
0.296223 0.85272 0.886458
0.409949 0.859831 0.892576
0.517311 0.866041 0.89836
0.620356 0.871656 0.904021
0.724285 0.876997 0.910094
0.828199 0.882185 0.918898
0.95201 0.881697 0.925322
0.194049 0.946136 0.897292
0.211444 0.947204 0.897444
0.322484 0.954284 0.903304
0.435782 0.961578 0.909575
0.542535 0.967926 0.915465
0.644907 0.973602 0.921096
0.747509 0.97969 0.926894
0.842954 0.988556 0.93077
0.950454 0.995102 0.924895
