site/assets/luts/freshluts--0000163-shadow-king.cube
# LUTr-Schema-Version: 2
# LUTr-ID: freshluts--0000163-shadow-king
# LUTr-Title: SHADOW KING
# LUTr-Collection: Fresh LUTs
# LUTr-Collection-ID: freshluts-community
# LUTr-Source: https://freshluts.com
# LUTr-Retrieved: 2026-07-27
# LUTr-Source-File: submissions-raw/freshluts/cubes/163__SHADOW_KING__39.C0065.cube
# LUTr-Source-Format: CUBE
# LUTr-Source-SHA256: d1aafd808000761934fd73a484ac403340a53dbd3fdeb628eec5abd8a100bce3
# LUTr-License: CC0-1.0
# LUTr-License-URL: https://freshluts.com/termsandconditions
# LUTr-License-Basis: site-terms
# LUTr-Transform-Class: creative-look
# LUTr-Tags: creative, freshluts, community, cube, cinematic, blockbuster, blue, low-key, rec709
# LUTr-Input-Color-Space: rec709
# LUTr-Input-Gamut: rec709
# LUTr-Input-Transfer: rec709
# LUTr-Output-Color-Space: srgb
# LUTr-Output-Gamut: rec709
# LUTr-Output-Transfer: srgb
# LUTr-Color-Space-Confidence: inferred-from-source-label
# LUTr-Domain-Normalized: true
# LUTr-Shaper: none
# LUTr-Original-Grid: 33x33x33
# LUTr-Conversion-Grid: 33x33x33
# LUTr-Conversion-Interpolation: none
# LUTr-Conversion-Method: Metadata normalization; numeric LUT samples preserved
# LUTr-Conversion-Tool: LUTr scripts/convert-all-to-cube.mjs 2.0.0
# LUTr-Conversion-Date: 2026-07-28
# LUTr-Asset-URL: https://freshluts.com/luts/163
# LUTr-Author: Shamoon Abbasi
# LUTr-Author-URL: https://freshluts.com/users/1258
# LUTr-Attribution: Shamoon Abbasi via Fresh LUTs
# LUTr-Source-Labels: gamma=Rec 709; color=Blue; key=Low Key; style=Blockbuster
# LUTr-Note: Preserve this metadata and the upstream license notices when redistributing.
TITLE "SHADOW KING"
LUT_3D_SIZE 5
DOMAIN_MIN 0 0 0
DOMAIN_MAX 1 1 1
0.0213626 0.0213626 0.0213626
0.0388495 0.0308537 0.0313268
0.124041 0.0329442 0.0335851
0.290867 0.0313268 0.0320745
0.53637 0.0277867 0.0286564
0.0625925 0.0778668 0.0667887
0.0986343 0.102266 0.0867628
0.1879 0.124971 0.0754559
0.372274 0.135515 0.0675059
0.616297 0.140993 0.06215
0.0772412 0.236408 0.0853742
0.171984 0.264958 0.120302
0.289952 0.30454 0.127504
0.47541 0.336141 0.115892
0.699031 0.35996 0.10602
0.0887617 0.505074 0.103136
0.217853 0.53817 0.139666
0.388128 0.572503 0.160494
0.583108 0.605798 0.162097
0.778881 0.633204 0.153689
0.106142 0.786587 0.125368
0.257145 0.806622 0.15903
0.459739 0.825772 0.18175
0.664164 0.847745 0.193225
0.844999 0.867948 0.192355
0.0242008 0.0243076 0.0325322
0.0437781 0.034226 0.0459144
0.118425 0.03682 0.0729534
0.278462 0.0349737 0.0862593
0.523522 0.0314336 0.0926375
0.06804 0.0847486 0.0897536
0.107515 0.111772 0.1187
0.161563 0.142199 0.151415
0.344228 0.150347 0.160235
0.595773 0.153948 0.16437
0.0927596 0.241779 0.17319
0.216129 0.260044 0.242893
0.296147 0.311147 0.293233
0.450843 0.35436 0.266606
0.675196 0.378607 0.251606
0.107393 0.510887 0.228641
0.256825 0.53576 0.296513
0.426139 0.569894 0.359762
0.587945 0.611139 0.371328
0.767926 0.644297 0.353613
0.123903 0.789715 0.28101
0.29305 0.805142 0.341299
0.500252 0.822736 0.396521
0.686412 0.847013 0.428183
0.8486 0.871473 0.430396
0.0247807 0.0248875 0.108766
0.0616159 0.0324865 0.114687
0.136187 0.0368811 0.148608
0.286305 0.0364233 0.184436
0.522316 0.0335241 0.210513
0.054078 0.0973831 0.171191
0.116701 0.121508 0.155154
0.172396 0.153277 0.190921
0.334127 0.162631 0.259358
0.582361 0.165316 0.304723
0.0868849 0.256825 0.277363
0.229435 0.276997 0.299611
0.313726 0.328969 0.35491
0.407279 0.382895 0.411719
0.645212 0.400809 0.430396
0.112886 0.522728 0.38999
0.289036 0.541985 0.451423
0.492821 0.562249 0.554253
0.593729 0.616831 0.61149
0.745449 0.659739 0.583291
0.134051 0.794614 0.479866
0.323827 0.806485 0.544396
0.551263 0.818845 0.615228
0.722744 0.843687 0.678325
0.851789 0.874464 0.689723
0.0239109 0.0241398 0.275547
0.0705425 0.030045 0.276997
0.159838 0.034226 0.302541
0.31133 0.0349737 0.345708
0.536767 0.033463 0.390173
0.0448005 0.10251 0.349752
0.118425 0.123507 0.335958
0.213962 0.147539 0.347356
0.366674 0.164508 0.408957
0.591867 0.171191 0.477348
0.0734874 0.272801 0.456443
0.197696 0.302907 0.445563
0.330449 0.34699 0.418189
0.425406 0.401556 0.47715
0.634455 0.420417 0.57789
0.104891 0.540581 0.57734
0.278645 0.562249 0.598856
0.512688 0.58143 0.617548
0.610956 0.634455 0.672801
0.704143 0.688258 0.729488
0.133379 0.803815 0.67686
0.333013 0.814649 0.71545
0.586465 0.822461 0.764279
0.779324 0.838056 0.8421
0.855573 0.878904 0.884245
0.0220951 0.0223545 0.534966
0.0740215 0.0273289 0.533761
0.177066 0.030808 0.546593
0.340734 0.0320745 0.573617
0.561883 0.0321355 0.610788
0.0385901 0.104265 0.601526
0.117769 0.123232 0.593729
0.238773 0.142733 0.596521
0.410803 0.159564 0.625025
0.621637 0.171328 0.676478
0.0634012 0.28484 0.682002
0.179202 0.316838 0.671885
0.335042 0.352132 0.655512
0.491463 0.394095 0.667842
0.668208 0.425223 0.73077
0.0915084 0.557412 0.772671
0.250965 0.583856 0.773938
0.465934 0.609537 0.760479
0.628397 0.652567 0.735866
0.721462 0.706325 0.784512
0.1243 0.814649 0.852842
0.318502 0.827802 0.864958
0.574731 0.838209 0.874861
0.793866 0.852705 0.888304
0.868482 0.891081 0.92369
