site/assets/luts/freshluts--0000549-red-window-film-4k-green-shadow.cube
# LUTr-Schema-Version: 2
# LUTr-ID: freshluts--0000549-red-window-film-4k-green-shadow
# LUTr-Title: Red Window Film 4K Green Shadow
# LUTr-Collection: Fresh LUTs
# LUTr-Collection-ID: freshluts-community
# LUTr-Source: https://freshluts.com
# LUTr-Retrieved: 2026-07-27
# LUTr-Source-File: submissions-raw/freshluts/cubes/549__Green_Shadow_1.000_1209__2841_29.cube
# LUTr-Source-Format: CUBE
# LUTr-Source-SHA256: 2ad94e672c7f190ef9b5c1a536c2b53a2acfb6176c0545deb48151583aadac0f
# LUTr-License: CC0-1.0
# LUTr-License-URL: https://freshluts.com/termsandconditions
# LUTr-License-Basis: site-terms
# LUTr-Transform-Class: creative-look
# LUTr-Tags: creative, freshluts, community, cube, green, low-key, sony-s-log2, cinematic
# LUTr-Input-Color-Space: sony-slog2-sgamut
# LUTr-Input-Gamut: sony-s-gamut
# LUTr-Input-Transfer: sony-s-log2
# LUTr-Output-Color-Space: srgb
# LUTr-Output-Gamut: rec709
# LUTr-Output-Transfer: srgb
# LUTr-Color-Space-Confidence: inferred-from-source-label
# LUTr-Domain-Normalized: true
# LUTr-Shaper: none
# LUTr-Original-Grid: 33x33x33
# LUTr-Conversion-Grid: 33x33x33
# LUTr-Conversion-Interpolation: none
# LUTr-Conversion-Method: Metadata normalization; numeric LUT samples preserved
# LUTr-Conversion-Tool: LUTr scripts/convert-all-to-cube.mjs 2.0.0
# LUTr-Conversion-Date: 2026-07-28
# LUTr-Asset-URL: https://freshluts.com/luts/549
# LUTr-Author: Hussain Khan
# LUTr-Author-URL: https://freshluts.com/users/46536
# LUTr-Attribution: Hussain Khan via Fresh LUTs
# LUTr-Source-Labels: gamma=Sony S-Log 2; color=Green; key=Low Key; style=Cinematic/Dark
# LUTr-Note: Preserve this metadata and the upstream license notices when redistributing.
TITLE "Red Window Film 4K Green Shadow"
LUT_3D_SIZE 33
DOMAIN_MIN 0 0 0
DOMAIN_MAX 1 1 1
0 0 0
0 0 0
0 0 0
0 0 0
0.0429236 0 0
0.119844 0 0
0.205737 0 0
0.287022 0 0
0.371954 0 0
0.4486 0 0
0.52343 0 0
0.596155 0 0
0.662242 0 0
0.725216 0 0
0.794064 0 0
0.846601 0 0
0.914061 0 0
0.973617 0 0
1 0 0
1 0 0
1 0 0
1 0 0
1 0 0
1 0 0
1 0 0
1 0 0
1 0 0
1 0 0
1 0 0
1 0 0
1 0 0
1 0 0
1 0 0
0 0 0
0 0 0
0 0 0
0 0 0
0.0551461 0 0
0.145876 0 0
0.239536 0 0
0.334081 0 0
0.422538 0 0
0.503243 0 0
0.581384 0 0
0.656001 0 0
0.722835 0 0
0.786053 0 0
0.847562 0 0
0.90808 0 0
0.968307 0 0
1 0 0
1 0 0
1 0 0
1 0 0
1 0 0
1 0 0
1 0 0
1 0 0
1 0 0
1 0 0
1 0 0
1 0 0
1 0 0
1 0 0
1 0 0
1 0 0
0 0.0235142 0
0 0.0178683 0
0 0.0150454 0
0 0.0122683 0
0.0173953 0.00462348 0
0.118334 0 0
0.223865 0 0
0.330419 0 0
0.428626 0 0
0.51664 0 0
0.600824 0 0
0.680232 0 0
0.75079 0 0
0.816968 0 0
0.881193 0 0
0.944366 0 0
1 0 0
1 0 0
1 0 0
1 0 0
1 0 0
1 0 0
1 0 0
1 0 0
1 0 0
1 0 0
1 0 0
1 0 0
1 0 0
1 0 0
1 0 0
1 0 0
1 0 0
0 0.0523232 0
0 0.0498512 0
0 0.0497444 0
0 0.050782 0
0 0.050248 0
0.0677195 0.0474098 0
0.181399 0.0475929 0
0.298817 0.0476692 0
0.407462 0.0453346 0
0.500603 0.0394751 0
0.590311 0.033402 0
0.675654 0.0277562 0
0.751995 0.0225071 0
0.823285 0.0179904 0
0.892058 0.0141299 0
0.959289 0.0106813 0
1 0.00746166 0
1 0.00436408 0
1 0.00144961 0
1 0 0
1 0 0
1 0 0
1 0 0
1 0 0
1 0 0
1 0 0
1 0 0
1 0 0
1 0 0
1 0 0
1 0 0
1 0 0
1 0 0
0 0.0838483 0
0 0.0846265 0
0 0.0860761 0
0 0.0870069 0
0 0.0878004 0
0.0209659 0.0876173 0
0.119829 0.0900587 0
0.244312 0.0975967 0
0.368307 0.102113 0
0.470924 0.0995193 0
0.565744 0.0943313 0
0.655543 0.0890516 0
0.735821 0.0840009 0
0.811063 0.07953 0
0.883757 0.0757153 0
0.955245 0.072221 0
1 0.068925 0
1 0.0657054 0
1 0.0626383 0
1 0.0597391 0
1 0.0570077 0
1 0.0543984 0
1 0.0519265 0
1 0.0495613 0
1 0.047303 0
1 0.0451209 0
1 0.0429999 0
1 0.0408942 0
1 0.0388952 0
1 0.0369116 0
1 0.0349737 0
1 0.0330205 0
1 0.0311437 0
0 0.118135 0
0 0.120653 0
0 0.122835 0
0 0.12372 0
0 0.123949 0
0.00756847 0.124529 0
0.0766003 0.125383 0
0.176669 0.13312 0
0.305943 0.147295 0
0.426215 0.155093 0
0.528313 0.153582 0
0.624567 0.150134 0
0.710369 0.145937 0
0.790097 0.142016 0
0.866331 0.138598 0
0.940429 0.1355 0
1 0.132509 0
1 0.129427 0
1 0.12639 0
1 0.1234 0
1 0.1205 0
1 0.117708 0
1 0.114977 0
1 0.112306 0
1 0.109697 0
1 0.107195 0
1 0.104662 0
1 0.102098 0
1 0.0996872 0
1 0.0973526 0
1 0.0951095 0
1 0.0929122 0
1 0.0907912 0
0 0.154055 0
0 0.157504 0
0 0.15993 0
0 0.160647 0
0 0.160952 0
0.00585946 0.160906 0
0.0640726 0.161624 0
0.135134 0.16463 0
0.238285 0.177584 0
0.363638 0.196536 0
0.476722 0.206134 0
0.580056 0.207614 0
0.672892 0.206104 0
0.758785 0.203754 0
0.839948 0.201389 0
0.917739 0.199054 0
0.993835 0.196582 0
1 0.193973 0
1 0.19115 0
1 0.188296 0
1 0.185367 0
1 0.182437 0
1 0.179477 0
1 0.176486 0
1 0.173541 0
1 0.170703 0
1 0.167941 0
1 0.165164 0
1 0.162509 0
1 0.159945 0
1 0.157458 0
1 0.154986 0
1 0.152529 0
0 0.191196 0
0 0.195071 0
0 0.197452 0
0 0.198032 0
0 0.198428 0
0.00474556 0.198428 0
0.0617227 0.198535 0
0.121416 0.199557 0
0.197147 0.206165 0
0.299184 0.223453 0
0.416342 0.24535 0
0.52372 0.256657 0
0.622614 0.260609 0
0.715251 0.261784 0
0.802625 0.261723 0
0.885237 0.261051 0
0.96492 0.259831 0
1 0.258076 0
1 0.255787 0
1 0.253223 0
1 0.250462 0
1 0.247562 0
1 0.244633 0
1 0.241688 0
1 0.238743 0
1 0.235782 0
1 0.232822 0
1 0.229816 0
1 0.226917 0
1 0.224125 0
1 0.221302 0
1 0.218509 0
1 0.215732 0
0 0.229313 0
0 0.23331 0
0 0.235447 0
0 0.236011 0
0 0.236561 0
0.00321965 0.236683 0
0.0603037 0.236713 0
0.118349 0.237034 0
0.181048 0.23946 0
0.259236 0.249943 0
0.358663 0.270726 0
0.464454 0.293263 0
0.563149 0.305364 0
0.660517 0.312444 0
0.753994 0.31664 0
0.842313 0.319036 0
0.926406 0.320104 0
1 0.319982 0
1 0.318975 0
1 0.317281 0
1 0.31519 0
1 0.31284 0
1 0.310292 0
1 0.307591 0
1 0.304784 0
1 0.3019 0
1 0.29897 0
1 0.295903 0
1 0.292836 0
1 0.289738 0
1 0.286595 0
1 0.283421 0
1 0.280247 0
0 0.268605 0
0 0.272496 0
0 0.274281 0
0 0.274998 0
0 0.275624 0
0.00137331 0.275959 0
0.0585184 0.276036 0
0.116701 0.276188 0
0.175998 0.276616 0
0.24094 0.281743 0
0.319997 0.295827 0
0.413428 0.318532 0
0.505089 0.338598 0
0.600198 0.352834 0
0.696788 0.363134 0
0.790204 0.370123 0
0.878874 0.374914 0
0.96437 0.377844 0
1 0.379248 0
1 0.379339 0
1 0.378592 0
1 0.377218 0
1 0.375372 0
1 0.37319 0
1 0.370748 0
1 0.368078 0
1 0.36524 0
1 0.362203 0
1 0.359106 0
1 0.355917 0
1 0.352621 0
1 0.349218 0
1 0.345739 0
0 0.308812 0
0 0.312428 0
0 0.313893 0
0 0.314778 0
0 0.315557 0
0 0.31603 0
0.0566415 0.316136 0
0.114824 0.316274 0
0.174212 0.316411 0
0.233677 0.317845 0
0.299916 0.325978 0
0.378164 0.342779 0
0.458015 0.364065 0
0.544121 0.383215 0
0.637125 0.399496 0
0.731884 0.412375 0
0.824628 0.422324 0
0.913985 0.429526 0
1 0.434531 0
1 0.437507 0
1 0.438911 0
1 0.43917 0
1 0.438575 0
1 0.437308 0
1 0.435538 0
1 0.433356 0
1 0.430823 0
1 0.427985 0
1 0.424964 0
1 0.421729 0
1 0.418341 0
1 0.414771 0
1 0.411093 0
0 0.349935 0
0 0.353124 0
0 0.354376 0
0 0.355413 0
0 0.356329 0
0 0.356939 0
0.0549935 0.357092 0
0.11313 0.357183 0
0.172488 0.357305 0
0.230915 0.357321 0
0.290486 0.3608 0
0.356939 0.371572 0
0.425162 0.388464 0
0.499657 0.408194 0
0.583566 0.427695 0
0.674144 0.445457 0
0.766629 0.460594 0
0.858167 0.473182 0
0.947829 0.482887 0
1 0.489754 0
1 0.494285 0
1 0.496986 0
1 0.498253 0
1 0.498436 0
1 0.497734 0
1 0.496361 0
1 0.494408 0
1 0.491936 0
1 0.489143 0
1 0.486076 0
1 0.482734 0
1 0.479179 0
1 0.475441 0
0 0.391989 0
0 0.394705 0
0 0.395895 0
0 0.39707 0
0 0.398123 0
0 0.39884 0
0.0537575 0.399023 0
0.111788 0.399008 0
0.171008 0.399039 0
0.229404 0.398993 0
0.286213 0.399405 0
0.345739 0.405188 0
0.405005 0.41677 0
0.46865 0.433417 0
0.541405 0.452171 0
0.623102 0.471992 0
0.710933 0.491051 0
0.801068 0.508278 0
0.891081 0.523049 0
0.980697 0.534844 0
1 0.543404 0
1 0.549477 0
1 0.553414 0
1 0.555688 0
1 0.556603 0
1 0.556435 0
1 0.555444 0
1 0.553674 0
1 0.551431 0
1 0.548714 0
1 0.545632 0
1 0.542229 0
1 0.538582 0
0 0.434669 0
0 0.436927 0
0 0.438224 0
0 0.43946 0
0 0.440543 0
0 0.441291 0
0.0530861 0.441489 0
0.110994 0.441367 0
0.170016 0.441215 0
0.228244 0.441077 0
0.28452 0.440833 0
0.340124 0.442496 0
0.393729 0.449393 0
0.448539 0.461448 0
0.511543 0.477592 0
0.583307 0.496437 0
0.662699 0.516487 0
0.747738 0.536583 0
0.835248 0.555291 0
0.92369 0.57171 0
1 0.585077 0
1 0.595376 0
1 0.602548 0
1 0.60766 0
1 0.610834 0
1 0.612482 0
1 0.612909 0
1 0.612253 0
1 0.610895 0
1 0.608865 0
1 0.606302 0
1 0.603281 0
1 0.599939 0
0 0.477668 0
0 0.479606 0
0 0.480995 0
0 0.482292 0
0 0.483375 0
0 0.484108 0
0.0526436 0.484276 0
0.11043 0.484031 0
0.169177 0.483665 0
0.227207 0.48333 0
0.28336 0.482994 0
0.337224 0.48275 0
0.387137 0.485664 0
0.436362 0.493385 0
0.49163 0.505806 0
0.554498 0.521935 0
0.625132 0.540764 0
0.702373 0.561013 0
0.784436 0.581781 0
0.869398 0.60148 0
0.956237 0.618997 0
1 0.6336 0
1 0.644984 0
1 0.653574 0
1 0.659388 0
1 0.663508 0
1 0.665904 0
1 0.66685 0
1 0.666758 0
1 0.665766 0
1 0.664073 0
1 0.661799 0
1 0.659037 0
0 0.520882 0
0 0.522591 0
0 0.524056 0
0 0.525399 0
0 0.526497 0
0 0.527184 0
0.0523232 0.527306 0
0.109957 0.526925 0
0.16846 0.526329 0
0.226215 0.525765 0
0.28217 0.525246 0
0.335836 0.524788 0
0.383429 0.525063 0
0.429374 0.529076 0
0.479164 0.537652 0
0.534951 0.550271 0
0.597528 0.566384 0
0.666804 0.585138 0
0.741665 0.605417 0
0.821027 0.626474 0
0.903593 0.646708 0
0.988968 0.664836 0
1 0.680156 0
1 0.692439 0
1 0.701976 0
1 0.708797 0
1 0.71371 0
1 0.716747 0
1 0.718441 0
1 0.718944 0
1 0.718517 0
1 0.717311 0
1 0.715465 0
0 0.564126 0
0 0.565728 0
0 0.567193 0
0 0.568521 0
0 0.569604 0
0 0.570306 0
0.0521859 0.570397 0
0.109728 0.56994 0
0.167971 0.569146 0
0.225513 0.568399 0
0.281376 0.567773 0
0.335012 0.567285 0
0.382101 0.567025 0
0.425727 0.568032 0
0.471839 0.572976 0
0.522408 0.581964 0
0.578424 0.59472 0
0.640406 0.610742 0
0.708171 0.629343 0
0.780697 0.649454 0
0.857466 0.670512 0
0.937942 0.690837 0
1 0.709407 0
1 0.724926 0
1 0.737896 0
1 0.748226 0
1 0.75613 0
1 0.761517 0
1 0.765499 0
1 0.767987 0
1 0.769223 0
1 0.769467 0
1 0.768902 0
0 0.607263 0
0 0.608804 0
0 0.610239 0
0 0.611505 0
0 0.612512 0
0 0.613169 0
0.0522469 0.613321 0
0.109834 0.612955 0
0.168093 0.612177 0
0.225498 0.611337 0
0.281224 0.61059 0
0.334752 0.609995 0
0.38172 0.609628 0
0.424323 0.609476 0
0.467918 0.611276 0
0.514809 0.6168 0
0.565881 0.626108 0
0.62182 0.638911 0
0.682994 0.654795 0
0.749065 0.673152 0
0.819364 0.692897 0
0.893812 0.713649 0
0.972488 0.73373 0
1 0.752087 0
1 0.768063 0
1 0.781552 0
1 0.792554 0
1 0.801144 0
1 0.807858 0
1 0.812421 0
1 0.815839 0
1 0.817945 0
1 0.819013 0
0 0.650126 0
0 0.651591 0
0 0.652949 0
0 0.654185 0
0 0.655238 0
0 0.65597 0
0.052903 0.656199 0
0.110552 0.655924 0
0.168795 0.655161 0
0.226078 0.654246 0
0.281621 0.653361 0
0.334951 0.652628 0
0.381811 0.652125 0
0.424308 0.651835 0
0.4663 0.651896 0
0.510674 0.654353 0
0.558114 0.660349 0
0.609384 0.669856 0
0.665003 0.682643 0
0.725078 0.698314 0
0.789471 0.716304 0
0.857862 0.735821 0
0.930159 0.755795 0
1 0.775433 0
1 0.793637 0
1 0.809735 0
1 0.823651 0
1 0.835187 0
1 0.84477 0
1 0.852415 0
1 0.858091 0
1 0.862394 0
1 0.865553 0
0 0.692622 0
0 0.694087 0
0 0.695491 0
0 0.696757 0
0 0.697841 0
0 0.698619 0
0.0542763 0.698924 0
0.111925 0.69868 0
0.170123 0.697948 0
0.227283 0.696956 0
0.282612 0.695933 0
0.335744 0.695048 0
0.382437 0.694392 0
0.424765 0.693965 0
0.466453 0.693706 0
0.508873 0.694011 0
0.553796 0.697017 0
0.601556 0.70338 0
0.65275 0.713039 0
0.707713 0.725734 0
0.766522 0.741115 0
0.82919 0.758648 0
0.895827 0.777615 0
0.966674 0.796933 0
1 0.816129 0
1 0.833982 0
1 0.850233 0
1 0.864439 0
1 0.876829 0
1 0.887312 0
1 0.895964 0
1 0.902983 0
1 0.908217 0
0 0.734966 0
0 0.736461 0
0 0.737865 0
0 0.739147 0
0 0.74023 0
0 0.741024 0
0.0563211 0.74136 0
0.113954 0.741146 0
0.172091 0.740414 0
0.229084 0.73933 0
0.284215 0.738186 0
0.337102 0.737118 0
0.383551 0.736324 0
0.425696 0.735729 0
0.467231 0.735302 0
0.50898 0.734966 0
0.551827 0.735622 0
0.597055 0.739101 0
0.644831 0.745754 0
0.695613 0.755444 0
0.749676 0.768002 0
0.807202 0.783062 0
0.868345 0.800122 0
0.933562 0.818479 0
1 0.837064 0
1 0.855756 0
1 0.873472 0
1 0.889723 0
1 0.90457 0
1 0.917708 0
1 0.929122 0
1 0.938872 0
1 0.946578 0
0 0.777157 0
0 0.778653 0
0 0.780026 0
0 0.781277 0
0 0.78233 0
0.00148013 0.783108 0
0.0589151 0.783444 0
0.116548 0.783246 0
0.174578 0.782467 0
0.231434 0.781323 0
0.286275 0.780041 0
0.338903 0.77879 0
0.385138 0.777813 0
0.426993 0.777035 0
0.46833 0.77644 0
0.509911 0.775906 0
0.551675 0.775479 0
0.594827 0.776547 0
0.64007 0.780438 0
0.687587 0.787305 0
0.737728 0.79704 0
0.790829 0.80943 0
0.847135 0.82417 0
0.907027 0.840726 0
0.971038 0.858442 0
1 0.876478 0
1 0.894713 0
1 0.9122 0
1 0.928862 0
1 0.944427 0
1 0.958175 0
1 0.970123 0
1 0.980896 0
0 0.819089 0
0 0.820554 0
0 0.821881 0
0 0.823087 0
0 0.824079 0
0.00460822 0.824796 0
0.0619669 0.825101 0
0.119524 0.824887 0
0.177462 0.824048 0
0.234134 0.822828 0
0.288731 0.821393 0
0.34107 0.819959 0
0.387045 0.818784 0
0.428595 0.817823 0
0.469718 0.817029 0
0.511101 0.816297 0
0.552605 0.815625 0
0.594293 0.815244 0
0.637537 0.816739 0
0.682597 0.820981 0
0.72961 0.828046 0
0.779019 0.837812 0
0.831113 0.850065 0
0.88632 0.864454 0
0.945159 0.880507 0
1 0.897688 0
1 0.915236 0
1 0.933043 0
1 0.950759 0
1 0.967758 0
1 0.983749 0
1 0.997406 0
1 1 0
0 0.860777 0
0 0.862165 0
0 0.863432 0
0 0.864546 0
0 0.865446 0
0.00796521 0.866087 0
0.0652171 0.8663 0
0.122683 0.866041 0
0.180529 0.865171 0
0.236988 0.863813 0
0.291279 0.862196 0
0.343343 0.860578 0
0.389044 0.859205 0
0.430289 0.858045 0
0.471214 0.857038 0
0.512383 0.856107 0
0.553689 0.855253 0
0.594965 0.85449 0
0.636576 0.854307 0
0.679698 0.856229 0
0.724285 0.860807 0
0.770687 0.868055 0
0.819287 0.877852 0
0.870481 0.889952 0
0.924819 0.904051 0
0.983001 0.919722 0
1 0.936553 0
1 0.953658 0
1 0.971405 0
1 0.989273 0
1 1 0
1 1 0
1 1 0
0 0.902174 0
0 0.903471 0
0 0.904631 0
0 0.905638 0
0 0.906416 0
0.0112917 0.90695 0
0.0684062 0.907057 0
0.12575 0.906691 0
0.183444 0.90573 0
0.239704 0.904234 0
0.293736 0.90248 0
0.345525 0.900664 0
0.390967 0.899123 0
0.431907 0.897749 0
0.472633 0.896544 0
0.513588 0.89543 0
0.554696 0.894377 0
0.595804 0.893431 0
0.636744 0.892592 0
0.678172 0.892744 0
0.720928 0.895094 0
0.764965 0.900008 0
0.810712 0.907439 0
0.858549 0.917281 0
0.909056 0.929274 0
0.96286 0.94316 0
1 0.958511 0
1 0.974914 0
1 0.992233 0
1 1 0
1 1 0
1 1 0
1 1 0
0 0.943282 0
0 0.944457 0
0 0.94548 0
0 0.946334 0
0 0.946975 0
0.014313 0.947341 0
0.0712749 0.947326 0
0.128466 0.946838 0
0.186023 0.945769 0
0.24213 0.944198 0
0.295903 0.942275 0
0.347433 0.940276 0
0.392645 0.938552 0
0.43331 0.936996 0
0.473854 0.935607 0
0.514595 0.934295 0
0.55552 0.933043 0
0.596429 0.931914 0
0.637186 0.930907 0
0.677623 0.930098 0
0.718791 0.930663 0
0.761059 0.933455 0
0.804562 0.93872 0
0.849668 0.94638 0
0.896971 0.956313 0
0.947066 0.968277 0
1 0.981994 0
1 0.996597 0
1 1 0
1 1 0
1 1 0
1 1 0
1 1 0
0 0.98407 0
0 0.985092 0
0 0.985931 0
0 0.986618 0
0 0.987091 0
0.0168154 0.98732 0
0.0736095 0.987152 0
0.130663 0.986557 0
0.188083 0.985367 0
0.244022 0.983688 0
0.297597 0.981628 0
0.348898 0.979477 0
0.393912 0.977569 0
0.434363 0.975845 0
0.474693 0.974273 0
0.515251 0.972763 0
0.555962 0.971344 0
0.596719 0.970031 0
0.637308 0.968856 0
0.677562 0.967865 0
0.717525 0.967254 0
0.758312 0.968261 0
0.800122 0.971542 0
0.843107 0.977188 0
0.887755 0.985092 0
0.934752 0.994659 0
0.985 1 0
1 1 0
1 1 0
1 1 0
1 1 0
1 1 0
1 1 0
0 1 0
0 1 0
0 1 0
0 1 0
0 1 0
0.019028 1 0
0.0756695 1 0
0.13257 1 0
0.189853 1 0
