site/assets/luts/freshluts--0000689-correction-styleft-cn.cube
# LUTr-Schema-Version: 2
# LUTr-ID: freshluts--0000689-correction-styleft-cn
# LUTr-Title: Correction style(ft-cn)
# LUTr-Collection: Fresh LUTs
# LUTr-Collection-ID: freshluts-community
# LUTr-Source: https://freshluts.com
# LUTr-Retrieved: 2026-07-27
# LUTr-Source-File: submissions-raw/freshluts/cubes/689__1q_7.00033.cube
# LUTr-Source-Format: CUBE
# LUTr-Source-SHA256: db4cc90060a85077ef904422ceb873120da7868365e9327beee46c87e02738f0
# LUTr-License: CC0-1.0
# LUTr-License-URL: https://freshluts.com/termsandconditions
# LUTr-License-Basis: site-terms
# LUTr-Transform-Class: creative-look
# LUTr-Tags: creative, freshluts, community, cube, rec709, correction
# LUTr-Input-Color-Space: rec709
# LUTr-Input-Gamut: rec709
# LUTr-Input-Transfer: rec709
# LUTr-Output-Color-Space: srgb
# LUTr-Output-Gamut: rec709
# LUTr-Output-Transfer: srgb
# LUTr-Color-Space-Confidence: declared-by-source
# LUTr-Domain-Normalized: true
# LUTr-Shaper: none
# LUTr-Original-Grid: 33x33x33
# LUTr-Conversion-Grid: 33x33x33
# LUTr-Conversion-Interpolation: none
# LUTr-Conversion-Method: Metadata normalization; numeric LUT samples preserved
# LUTr-Conversion-Tool: LUTr scripts/convert-all-to-cube.mjs 2.0.0
# LUTr-Conversion-Date: 2026-07-28
# LUTr-Asset-URL: https://freshluts.com/luts/689
# LUTr-Author: lvannoeun@gmail.com
# LUTr-Author-URL: https://freshluts.com/users/57563
# LUTr-Attribution: lvannoeun@gmail.com via Fresh LUTs
# LUTr-Source-Labels: gamma=Rec 709; color=None; key=Neutral; style=Correction
# LUTr-Note: Preserve this metadata and the upstream license notices when redistributing.
TITLE "Correction style(ft-cn)"
LUT_3D_SIZE 9
DOMAIN_MIN 0 0 0
DOMAIN_MAX 1 1 1
0 0 0
0.0119478 0 0
0.170855 0 0
0.362554 0 0
0.530236 0 0
0.683314 0 0
0.814252 0 0
0.923033 0 0
1 0 0
0 0.0638437 0
0.0348211 0.0526284 0
0.237888 0.0336461 0
0.450217 0.014374 0
0.616449 0.00706493 0
0.759441 0.00474556 0
0.879499 0.00894179 0
0.980117 0.0189212 0
1 0.0312352 0
0 0.226169 0
0 0.212711 0
0.179965 0.194934 0
0.410544 0.170245 0
0.629328 0.145541 0
0.819883 0.131258 0
0.971695 0.130068 0
1 0.138018 0
1 0.149187 0
0 0.392554 0
0 0.380484 0
0.105699 0.366323 0
0.34023 0.343175 0
0.554025 0.322408 0
0.750561 0.305562 0
0.923537 0.293233 0
1 0.287724 0
1 0.288197 0
0 0.558816 0
0 0.547189 0
0.0452735 0.532845 0
0.275364 0.50956 0
0.489754 0.486854 0
0.685023 0.466468 0
0.849989 0.453773 0
0.98291 0.448997 0
1 0.447532 0
0 0.717281 0
0 0.70277 0
0.00737011 0.686122 0
0.215015 0.660899 0
0.427726 0.63682 0
0.62237 0.61529 0
0.787015 0.600992 0
0.921584 0.594568 0
1 0.591058 0
0 0.856168 0
0 0.83978 0
0 0.821866 0
0.176059 0.795865 0
0.386633 0.771054 0
0.578836 0.74818 0
0.742107 0.732158 0
0.875135 0.723445 0
0.989441 0.717311 0
0 0.979507 0
0 0.961807 0
0 0.942199 0
0.157519 0.914351 0
0.364721 0.887785 0
0.553689 0.862898 0
0.714382 0.844572 0
0.844816 0.833036 0
0.9617 0.824155 0
0 1 0
0 1 0
0 1 0
0.141207 1 0
0.345006 0.991012 0
0.530541 0.963882 0
0.687831 0.942763 0
0.815732 0.928771 0
0.930922 0.917327 0
0 0 0.0724956
0.0336156 0 0.0677806
0.244999 0 0.0793011
0.469657 0 0.0690776
0.673045 0 0.0560769
0.860578 0 0.0439765
1 0 0.038468
1 0 0.040177
1 0 0.0457008
0 0.0599527 0.0743572
0.0266575 0.0495003 0.0641337
0.175463 0.0450141 0.0593118
0.352697 0.0355535 0.0504921
0.515297 0.0280461 0.0442206
0.665568 0.0246738 0.0373236
0.796353 0.0267491 0.0395209
0.90631 0.0349737 0.0478523
1 0.0448005 0.0643931
0 0.220554 0.0306859
0 0.207492 0.0179446
0.166323 0.19147 0.00807202
0.401297 0.165133 0.0087129
0.5944 0.151095 0
0.750835 0.148638 0
0.875807 0.153353 0
0.97702 0.163577 0.00288396
1 0.176074 0.0165255
0 0.386908 0
0 0.375372 0
0.0945907 0.362402 0
0.326986 0.339849 0
0.540825 0.319158 0
0.742351 0.299489 0
0.91162 0.288228 0
1 0.288472 0
1 0.292897 0
0 0.553475 0
0 0.541772 0
0.0384375 0.527794 0
0.261936 0.505394 0
0.4757 0.482338 0
0.670741 0.46183 0
0.835233 0.449058 0
0.970245 0.444129 0
1 0.439277 0
0 0.711086 0
0 0.696254 0
0.000869764 0.679774 0
0.202197 0.655253 0
0.413413 0.6318 0
0.607538 0.609979 0
0.772244 0.595743 0
0.906462 0.58912 0
1 0.585367 0
0 0.849226 0
0 0.832639 0
0 0.814908 0
0.163714 0.789334 0
0.372305 0.765118 0
0.563653 0.742367 0
0.726665 0.726116 0
0.859373 0.717144 0
0.978363 0.710765 0
0 0.972168 0
0 0.954131 0
0 0.934447 0
0.145006 0.906905 0
0.350179 0.880705 0
0.537804 0.856031 0
0.697948 0.837552 0
0.828092 0.825696 0
0.945327 0.816541 0
0 1 0
0 1 0
0 1 0
0.128222 1 0
0.330022 0.982742 0
0.514061 0.955886 0
0.670695 0.934905 0
0.798367 0.920745 0
0.913329 0.909087 0
0 0 0.280491
0.0324102 0 0.279805
0.241932 0 0.289754
0.464424 0 0.276951
0.666667 0 0.262562
0.853971 0 0.25008
1 0 0.244083
1 0 0.245792
1 0 0.251041
0 0.0552377 0.281682
0.0219577 0.043946 0.270527
0.203754 0.0298161 0.256443
0.420752 0.00953689 0.235904
0.620203 0 0.218479
0.806821 0 0.20528
0.966781 0 0.200153
1 0 0.203189
1 0 0.209766
0 0.214389 0.236316
0 0.201572 0.22356
0.153903 0.187427 0.209613
0.339132 0.177081 0.197147
0.500099 0.171984 0.191852
0.652399 0.16965 0.189578
0.784039 0.172778 0.192981
0.894301 0.181186 0.201816
0.991745 0.191516 0.212604
0 0.381384 0.169284
0 0.369985 0.15816
0.0865492 0.357336 0.145769
0.31371 0.336507 0.127962
0.529305 0.314855 0.127932
0.719982 0.299031 0.126635
0.860517 0.298955 0.109712
0.969131 0.305135 0.111223
1 0.313222 0.121279
0 0.548012 0.115938
0 0.535927 0.104112
0.033051 0.522011 0.0903792
0.249638 0.500435 0.0687266
0.461631 0.477806 0.0530861
0.656168 0.457099 0.0482338
0.820905 0.443915 0.0519417
0.964233 0.435172 0.0706645
1 0.433478 0.0812543
0 0.704448 0.0692302
0 0.689479 0.0543832
0 0.672923 0.0379187
0.190845 0.648936 0.0142061
0.398978 0.626245 0
0.592645 0.6047 0
0.757046 0.590219 0
0.890837 0.583459 0
1 0.579507 0
0 0.84213 0.0386969
0 0.825376 0.0220951
0 0.807553 0.00761425
0.15259 0.782177 0
0.358343 0.758587 0
0.548119 0.736248 0
0.710781 0.719829 0
0.843198 0.710582 0
0.962234 0.704005 0
0 0.964584 0.0284428
0 0.946212 0.01178
0 0.926284 0
0.133455 0.898802 0
0.336309 0.87303 0
0.521996 0.84889 0
0.681163 0.830198 0
0.810971 0.818128 0
0.927947 0.808667 0
0 1 0.0217899
0 1 0.0049897
0 1 0
0.115999 1 0
0.315984 0.974029 0
0.497826 0.947372 0
0.653117 0.926543 0
0.780377 0.912276 0
0.895109 0.900359 0
0 0 0.521218
0.0337072 0 0.530755
0.235523 0 0.531289
0.456428 0 0.516091
0.657816 0 0.500359
0.844755 0 0.487098
1 0 0.480781
1 0 0.482658
1 0 0.488136
0 0.0478828 0.520562
0.0154574 0.0360418 0.508522
0.193942 0.0216068 0.493721
0.411246 0.00137331 0.47248
0.611032 0 0.454749
0.797818 0 0.441306
0.957885 0 0.436118
1 0 0.439155
1 0 0.44622
0 0.206134 0.473152
0 0.193439 0.460212
0.144366 0.179492 0.446006
0.364248 0.159854 0.425757
0.565835 0.144091 0.409567
0.75378 0.132189 0.397498
0.914244 0.127153 0.392782
1 0.129458 0.395865
1 0.134157 0.401404
0 0.373602 0.404776
0 0.362371 0.3935
0.0771344 0.349523 0.380514
0.299062 0.33048 0.361166
0.494209 0.316304 0.3458
0.628565 0.316899 0.34342
0.754116 0.318975 0.345251
0.860151 0.324834 0.35137
0.957031 0.331914 0.358846
0 0.540169 0.350271
0 0.527764 0.337896
0.0262913 0.513726 0.323888
0.237934 0.492042 0.302037
0.444251 0.471122 0.28307
0.639536 0.449729 0.280461
0.801053 0.437522 0.283253
0.917266 0.439704 0.272465
1 0.445335 0.271214
0 0.695598 0.302052
0 0.680278 0.286702
0 0.663661 0.270008
0.179232 0.639735 0.245869
0.383474 0.618341 0.224125
0.574823 0.597467 0.20911
0.738857 0.582864 0.207202
0.871946 0.575921 0.212314
0.992569 0.569131 0.226551
0 0.832441 0.270436
0 0.815793 0.253697
0 0.797803 0.235599
0.140642 0.772412 0.21001
0.343786 0.749386 0.186648
0.530068 0.728038 0.166644
0.691981 0.711635 0.157687
0.824125 0.702083 0.157809
0.942916 0.695399 0.161151
0 0.954513 0.259693
0 0.935958 0.240955
0 0.915846 0.22063
0.120745 0.888243 0.192737
0.32163 0.862654 0.166751
0.504295 0.83946 0.143633
0.661463 0.82092 0.129
0.791165 0.808865 0.123934
0.907637 0.798886 0.122393
0 1 0.252049
0 1 0.230564
0 1 0.207584
0.102327 0.990738 0.176623
0.300786 0.96257 0.147799
0.480125 0.936416 0.121309
0.633051 0.916121 0.102831
0.759503 0.901854 0.0932326
0.873991 0.889738 0.0877546
0 0 0.751476
0.0324712 0 0.764706
0.229358 0 0.760082
0.449165 0 0.743328
0.649958 0 0.726909
0.836591 0 0.713344
0.992813 0 0.70692
1 0 0.70898
1 0 0.714656
0 0.0413214 0.747387
0.00956741 0.0290532 0.734874
0.18529 0.0145571 0.719951
0.403082 0 0.698695
0.60296 0 0.681147
0.789944 0 0.667887
0.950011 0 0.662638
1 0 0.666056
1 0 0.673075
0 0.199054 0.699443
0 0.186419 0.686641
0.136065 0.172641 0.672633
0.356283 0.153262 0.652567
0.558221 0.137545 0.636515
0.74609 0.125536 0.624308
0.906508 0.120485 0.619516
1 0.122591 0.622354
1 0.126986 0.627604
0 0.366934 0.631617
0 0.355779 0.620386
0.0691386 0.342885 0.607309
0.29099 0.323766 0.58761
0.493782 0.306935 0.570306
0.680064 0.293248 0.556298
0.838468 0.285924 0.549096
0.968261 0.284718 0.548318
1 0.286213 0.550454
0 0.533318 0.576486
0 0.520668 0.563684
0.0201114 0.506371 0.549126
0.228641 0.484154 0.526116
0.430991 0.464393 0.505623
0.614588 0.447776 0.488518
0.745602 0.445274 0.48307
0.838773 0.452491 0.488502
0.928588 0.459617 0.495262
0 0.687724 0.526223
0 0.67216 0.510231
0 0.655451 0.493034
0.16936 0.631388 0.468101
0.372763 0.610025 0.445945
0.558312 0.591028 0.427741
0.721828 0.576242 0.426429
0.856046 0.568338 0.435691
0.962814 0.569375 0.427893
0 0.824033 0.493278
0 0.807218 0.475975
0 0.789059 0.457237
0.130205 0.763531 0.430686
0.332815 0.740353 0.406668
0.515084 0.719982 0.38555
0.674525 0.704204 0.373754
0.806302 0.694423 0.373678
0.924315 0.687495 0.37731
0 0.945495 0.481621
0 0.926696 0.462181
0 0.90634 0.441077
0.109529 0.878447 0.412039
0.309911 0.852659 0.385275
0.490013 0.829908 0.361593
0.643519 0.812268 0.344747
0.772519 0.800153 0.33814
0.888792 0.790051 0.336355
0 1 0.472801
0 1 0.450462
0 1 0.426505
0.090074 0.979995 0.394385
0.288121 0.951568 0.364843
0.465965 0.925933 0.338338
0.615595 0.906279 0.318502
0.740353 0.892302 0.307103
0.854353 0.880034 0.300526
0 0 0.967407
0.0301518 0 0.978759
0.224063 0 0.971633
0.442939 0 0.953552
0.643381 0 0.936721
0.82977 0 0.922896
0.986603 0 0.916457
1 0 0.918624
1 0 0.924483
0 0.0358892 0.957366
0.00450141 0.023209 0.944411
0.178088 0.00869764 0.929503
0.396216 0 0.908339
0.596292 0 0.890883
0.783413 0 0.877775
0.943618 0 0.872709
1 0 0.876265
1 0 0.883314
0 0.193271 0.909117
0 0.18085 0.896483
0.129 0.166979 0.882353
0.349783 0.147906 0.862684
0.551934 0.132326 0.846708
0.739574 0.120058 0.834333
0.900084 0.115038 0.829572
1 0.116747 0.831907
1 0.121065 0.83711
0 0.361685 0.841825
0 0.3505 0.830594
0.0623636 0.33756 0.817472
0.284245 0.318242 0.797604
0.487053 0.301183 0.780056
0.67306 0.287221 0.765789
0.830915 0.279347 0.758007
0.960555 0.277958 0.757046
1 0.279332 0.75903
0 0.527459 0.78613
0 0.514809 0.773312
0.0148928 0.500267 0.758495
0.220783 0.477699 0.735149
0.423209 0.457603 0.714412
0.60676 0.440925 0.6972
0.762905 0.431205 0.687434
0.891112 0.428244 0.684794
0.999481 0.428077 0.68513
0 0.681025 0.735042
0 0.665324 0.718944
0 0.648493 0.701671
0.160784 0.62417 0.676432
0.364401 0.602838 0.654276
0.54699 0.584604 0.635493
0.701549 0.573205 0.623926
0.828199 0.568597 0.619471
0.928023 0.570489 0.619684
0 0.816876 0.701686
0 0.799908 0.684199
0 0.781582 0.665278
0.121187 0.755825 0.638544
0.323735 0.732509 0.614267
0.505257 0.712108 0.593088
0.658915 0.697841 0.57882
0.789929 0.687907 0.578637
0.907866 0.680262 0.58471
0 0.937697 0.689326
0 0.918654 0.669627
0 0.898039 0.648249
0.0996109 0.869947 0.618967
0.299901 0.843885 0.591806
0.479561 0.820813 0.567727
0.629328 0.803952 0.550164
0.755611 0.792523 0.540948
0.871656 0.782254 0.538964
0 1 0.679576
0 1 0.656977
0 1 0.632609
0.0793622 0.970764 0.600473
0.277058 0.941726 0.570077
0.454734 0.915908 0.543069
0.602075 0.896712 0.522881
0.723476 0.883558 0.509728
0.836591 0.871473 0.501427
0 0 1
0.02916 0 1
0.220722 0 1
0.438941 0 1
0.639048 0 1
0.825391 0 1
0.982895 0 1
1 0 1
1 0 1
0 0.0327611 1
0.00141909 0.0198672 1
0.173434 0.00526436 1
0.391974 0 1
0.592294 0 1
0.779522 0 1
0.939864 0 1
1 0 1
1 0 1
0 0.190066 1
0 0.177813 1
0.124941 0.164126 1
0.346044 0.145266 1
0.548302 0.129656 1
0.735897 0.117357 1
0.896254 0.112215 0.99794
1 0.113603 0.999359
1 0.117693 1
0 0.359075 1
0 0.347631 0.999603
0.0585031 0.33489 0.990097
0.280247 0.315282 0.97351
0.482979 0.298024 0.955779
0.668666 0.283772 0.941192
0.826169 0.275425 0.932967
0.955612 0.273899 0.931777
1 0.275151 0.933639
0 0.524468 0.962081
0 0.511574 0.948943
0.0114137 0.496468 0.933577
0.215717 0.473671 0.909972
0.418219 0.453468 0.889113
0.601663 0.436683 0.871809
0.757565 0.426703 0.861723
0.88574 0.423713 0.859052
0.995254 0.423392 0.85922
0 0.676921 0.909789
0 0.661143 0.893599
0 0.644205 0.876173
0.155291 0.61973 0.850797
0.358831 0.598199 0.828504
0.541375 0.579828 0.809522
0.69575 0.568246 0.797681
0.822156 0.563394 0.792996
0.936568 0.56083 0.790784
0 0.812406 0.87599
0 0.795239 0.858351
0 0.776699 0.8392
0.115038 0.750774 0.812253
0.317449 0.727138 0.787701
0.498833 0.706477 0.766262
0.650874 0.692393 0.751766
0.774899 0.685008 0.744366
0.886702 0.679728 0.739178
0 0.932525 0.862898
0 0.913237 0.842954
0 0.892363 0.821286
0.092546 0.863996 0.79176
0.29279 0.837781 0.764401
0.472206 0.814237 0.739879
0.621592 0.797436 0.722454
0.742962 0.786892 0.711666
0.858289 0.776516 0.709499
0 1 0.852186
0 1 0.829419
0 0.993881 0.804593
0.0712444 0.963851 0.772183
0.268788 0.934508 0.741543
0.44654 0.908461 0.714275
0.593439 0.888975 0.694011
0.712459 0.87628 0.680797
0.822446 0.864988 0.670466
0 0 1
0.0295872 0 1
0.219944 0 1
0.437613 0 1
0.637507 0 1
0.823713 0 1
0.981598 0 1
1 0 1
1 0 1
0 0.032166 1
0.000335698 0.0191958 1
0.171725 0.00459297 1
0.390448 0 1
0.591012 0 1
0.778164 0 1
0.938857 0 1
1 0 1
1 0 1
0 0.189563 1
0 0.177325 1
0.123766 0.163912 1
0.345022 0.14519 1
0.547143 0.129412 1
0.734768 0.117159 1
0.894957 0.111833 1
1 0.112947 1
1 0.116716 1
0 0.358968 1
0 0.347509 1
0.0572976 0.334646 1
0.278706 0.314687 1
0.481392 0.297322 1
0.666758 0.282689 1
0.823911 0.274067 1
0.953216 0.272312 1
1 0.273503 1
0 0.523949 1
0 0.510765 1
0.00993362 0.495323 1
0.213336 0.472236 1
0.4159 0.451972 1
0.599237 0.43505 1
0.755077 0.424994 0.995377
0.883116 0.42182 0.993225
0.993103 0.421317 0.993103
0 0.675425 1
0 0.659586 1
0 0.642374 1
0.152636 0.61796 0.987915
0.356115 0.596277 0.968414
0.538506 0.577707 0.949218
0.692653 0.56585 0.937148
0.81886 0.560754 0.932204
0.933028 0.557977 0.929702
0 0.810513 1
0 0.793194 0.993378
0 0.774472 0.978775
0.111742 0.748409 0.951629
0.313985 0.724483 0.926818
0.495216 0.703517 0.905074
0.646952 0.689204 0.890272
0.770764 0.681559 0.882628
0.882185 0.675929 0.877012
0 0.929946 0.996216
0 0.91043 0.981567
0 0.889296 0.95996
0.0883345 0.860655 0.930129
0.288396 0.834195 0.902525
0.467597 0.810285 0.877653
0.616724 0.79321 0.859907
0.73756 0.782452 0.848875
0.846586 0.774258 0.840543
0 1 0.987701
0 1 0.96733
0 0.989853 0.942184
0.066041 0.959487 0.909499
0.26363 0.930129 0.878828
0.441138 0.903655 0.851133
0.587793 0.883955 0.83061
0.706447 0.870924 0.81709
0.813519 0.860609 0.80647
0 0 1
0.0304875 0 1
0.220081 0 1
0.437324 0 1
0.637079 0 1
0.823285 0 1
0.981353 0 1
1 0 1
1 0 1
0 0.0326085 1
0.00015259 0.0198062 1
0.171374 0.00511177 1
0.390204 0 1
0.59089 0 1
0.77821 0 1
0.93904 0 1
1 0 1
1 0 1
0 0.190173 1
0 0.178012 1
0.123888 0.164889 1
0.34519 0.146258 1
0.547204 0.130358 1
0.734798 0.118074 1
0.894499 0.112245 1
1 0.113344 1
1 0.116747 1
0 0.359945 1
0 0.34847 1
0.0572061 0.33547 1
0.27837 0.315236 1
0.480812 0.297597 1
0.665629 0.282368 1
0.822675 0.273655 1
0.951873 0.271794 1
1 0.272831 1
0 0.524422 1
0 0.510903 1
0.00921645 0.495109 1
0.212009 0.471778 1
0.414542 0.451408 1
0.597726 0.434348 1
0.753323 0.424033 1
0.881285 0.420829 1
0.991684 0.420111 1
0 0.674922 1
0 0.658976 1
0 0.64155 1
0.150896 0.61709 1
0.354223 0.595224 1
0.536538 0.576486 1
0.690486 0.564431 1
0.816464 0.559091 1
0.930388 0.556054 1
0 0.809552 1
0 0.792081 1
0 0.773114 1
0.109331 0.746838 1
0.311421 0.722728 1
0.492515 0.701534 1
0.643992 0.686885 1
0.767559 0.678996 0.998718
0.878691 0.673014 0.994324
0 0.928237 1
0 0.908492 1
0 0.887114 1
0.0850385 0.858213 1
0.284932 0.831449 1
0.463996 0.80734 0.994995
0.612909 0.789944 0.981796
0.73373 0.779217 0.972015
0.842496 0.770718 0.963363
0 1 1
0 1 1
0 0.986969 1
0.061799 0.95613 1
0.259266 0.926558 0.995514
0.436881 0.899931 0.9738
0.583322 0.880034 0.953017
0.701839 0.866865 0.939361
0.808454 0.856138 0.928298
