site/assets/luts/freshluts--0001943-rec709-drone-shot.cube
# LUTr-Schema-Version: 2
# LUTr-ID: freshluts--0001943-rec709-drone-shot
# LUTr-Title: Rec709 drone shot
# LUTr-Collection: Fresh LUTs
# LUTr-Collection-ID: freshluts-community
# LUTr-Source: https://freshluts.com
# LUTr-Retrieved: 2026-07-27
# LUTr-Source-File: submissions-raw/freshluts/cubes/1943__rec709_drone_shot_547.DJI_0023.cube
# LUTr-Source-Format: CUBE
# LUTr-Source-SHA256: 817602e854f3b8dae5c949ddc3262c9c38ba27299e625222e2fa6dd8b314ec52
# LUTr-License: CC0-1.0
# LUTr-License-URL: https://freshluts.com/termsandconditions
# LUTr-License-Basis: site-terms
# LUTr-Transform-Class: creative-look
# LUTr-Tags: creative, freshluts, community, cube, dji-d-log
# LUTr-Input-Color-Space: dji-dlog-dgamut
# LUTr-Input-Gamut: dji-d-gamut
# LUTr-Input-Transfer: dji-d-log
# LUTr-Output-Color-Space: srgb
# LUTr-Output-Gamut: rec709
# LUTr-Output-Transfer: srgb
# LUTr-Color-Space-Confidence: inferred-from-source-label
# LUTr-Domain-Normalized: true
# LUTr-Shaper: none
# LUTr-Original-Grid: 33x33x33
# LUTr-Conversion-Grid: 33x33x33
# LUTr-Conversion-Interpolation: none
# LUTr-Conversion-Method: Metadata normalization; numeric LUT samples preserved
# LUTr-Conversion-Tool: LUTr scripts/convert-all-to-cube.mjs 2.0.0
# LUTr-Conversion-Date: 2026-07-28
# LUTr-Asset-URL: https://freshluts.com/luts/1943
# LUTr-Author: lvannoeun@gmail.com
# LUTr-Author-URL: https://freshluts.com/users/57563
# LUTr-Attribution: lvannoeun@gmail.com via Fresh LUTs
# LUTr-Source-Labels: gamma=DJI D-log; color=None; key=Neutral; style=Correction
# LUTr-Note: Preserve this metadata and the upstream license notices when redistributing.
TITLE "Rec709 drone shot"
LUT_3D_SIZE 33
DOMAIN_MIN 0 0 0
DOMAIN_MAX 1 1 1
0 0 0
0 0 0
0 0 0
0.0108644 0.000946059 0
0.0414282 0.0024567 0
0.104295 0.00485237 0
0.17145 0.00787366 0
0.235966 0.0113832 0
0.294881 0.0151827 0
0.346868 0.0190585 0
0.395438 0.0231632 0.00308232
0.442084 0.0275425 0.007187
0.489174 0.0324407 0.0118868
0.537209 0.0379644 0.0172427
0.590524 0.0437934 0.0263218
0.652827 0.0520638 0.036347
0.714733 0.0618601 0.0457923
0.776699 0.0728618 0.0556497
0.826886 0.0825818 0.0645304
0.86244 0.0892653 0.071458
0.897887 0.0959793 0.078706
0.932723 0.102571 0.086305
0.96698 0.109071 0.0935225
1 0.11548 0.100557
1 0.121782 0.107454
1 0.128008 0.114214
1 0.134127 0.120836
1 0.140169 0.127321
1 0.14612 0.133684
1 0.151965 0.13994
1 0.157733 0.146059
1 0.163394 0.152056
1 0.168948 0.157916
0 0 0
0 0 0
0 0 0
0.0021973 0.00047303 0
0.0260624 0.00357061 0
0.0774243 0.00689708 0
0.146685 0.0106203 0
0.21413 0.0145876 0
0.276188 0.0187076 0
0.331456 0.0228733 0
0.381918 0.0271611 0
0.430518 0.0317388 0
0.478584 0.0367437 0
0.527001 0.042298 0.00259403
0.578836 0.0479896 0.0109102
0.641199 0.0561837 0.0205386
0.703609 0.0658274 0.0300298
0.766033 0.0767987 0.0396582
0.820035 0.087129 0.0489204
0.855634 0.0936141 0.0557107
0.890867 0.100069 0.0627756
0.925826 0.106493 0.0701152
0.960052 0.112825 0.0775921
0.993698 0.119051 0.0854658
1 0.125216 0.0929427
1 0.131304 0.100206
1 0.137331 0.107317
1 0.143282 0.11426
1 0.149142 0.121019
1 0.154894 0.127611
1 0.160586 0.134096
1 0.166171 0.140383
1 0.171633 0.146502
0 0 0
0 0 0
0 0 0
0 0 0
0.0145266 0.0037232 0
0.0503548 0.00794995 0
0.118578 0.0127718 0
0.189441 0.0175021 0
0.256397 0.0222171 0
0.315435 0.0267796 0
0.368017 0.0312963 0
0.417792 0.0360113 0
0.466743 0.0411231 0
0.516136 0.0467689 0
0.567346 0.0525063 0
0.629007 0.0604562 0.00421149
0.691554 0.0698711 0.0136721
0.75378 0.0806897 0.0229191
0.812253 0.0915847 0.0325933
0.848005 0.0978866 0.039292
0.883299 0.104143 0.0462196
0.918105 0.110369 0.0533913
0.952377 0.116518 0.0607614
0.986145 0.122621 0.0683146
1 0.128679 0.0760662
1 0.134661 0.0841993
1 0.140581 0.0919051
1 0.146441 0.0993973
1 0.152209 0.106661
1 0.157885 0.113695
1 0.16347 0.120546
1 0.168963 0.127199
1 0.17438 0.133684
0 0 0
0 0 0
0 0 0
0 0 0
0.00633249 0.00288396 0
0.029099 0.00801099 0
0.0903487 0.0143893 0
0.164157 0.0201572 0
0.234699 0.0255741 0
0.297841 0.0307012 0
0.353246 0.0355688 0
0.404593 0.0404974 0
0.4542 0.0456855 0
0.503502 0.0513008 0
0.55378 0.0570382 0
0.61471 0.0647135 0
0.677745 0.0739147 0
0.740414 0.0848859 0.00538643
0.803021 0.0959182 0.0153658
0.83946 0.102129 0.0220188
0.874907 0.108217 0.0288853
0.90988 0.11426 0.0359808
0.94432 0.120272 0.0432898
0.978271 0.126253 0.0507668
1 0.132189 0.0584115
1 0.138079 0.0662242
1 0.143893 0.0741894
1 0.149645 0.0825208
1 0.155322 0.090486
1 0.160922 0.098146
1 0.1664 0.105501
1 0.171817 0.112673
1 0.177157 0.119631
0.00128176 0.0113832 0
0.00239567 0.00863661 0
0.00273136 0.00582895 0
0.00202945 0.00288396 0
0.000366217 0.000335698 0
0.0151827 0.00730907 0
0.0597696 0.0151827 0
0.135409 0.0224613 0
0.209918 0.0289158 0
0.277913 0.0347601 0
0.33579 0.0399939 0
0.388632 0.0450904 0
0.43917 0.05037 0
0.489143 0.0560311 0
0.539315 0.0619364 0
0.598245 0.0691081 0
0.66247 0.0782483 0
0.725475 0.0888991 0
0.788327 0.0995346 0
0.830182 0.106523 0.00363165
0.865736 0.112428 0.0103456
0.900816 0.118318 0.0173037
0.935454 0.124208 0.0244755
0.969589 0.130053 0.0318456
1 0.135866 0.0393988
1 0.141634 0.0471199
1 0.147356 0.0550393
1 0.153002 0.0631113
1 0.158556 0.0713054
1 0.164034 0.07953
1 0.169467 0.0879988
1 0.174807 0.0958877
1 0.180056 0.103487
0.00360113 0.045243 0
0.00788891 0.0394141 0
0.011429 0.0336004 0
0.013901 0.0272679 0
0.0149996 0.0204929 0
0.01738 0.0166629 0
0.0356909 0.0211643 0
0.0981155 0.0280003 0
0.17705 0.0335088 0
0.250492 0.0383154 0
0.313878 0.0442512 0
0.369619 0.0496681 0
0.421729 0.0551003 0
0.47274 0.060853 0
0.52369 0.0670481 0
0.58027 0.0737011 0
0.644694 0.0828412 0
0.708522 0.0928511 0
0.772015 0.103182 0
0.820035 0.110979 0
0.855772 0.116716 0
0.891081 0.122469 0
0.925948 0.128206 0.00469978
0.960327 0.133944 0.0119783
0.994141 0.139635 0.01944
1 0.145296 0.0270542
1 0.150912 0.0348363
1 0.15642 0.0427253
1 0.161883 0.0507362
1 0.167285 0.0588846
1 0.172625 0.0671855
1 0.177874 0.0756237
1 0.183032 0.0843519
0.00608835 0.0962081 0
0.0131228 0.0895399 0
0.019852 0.0818036 0
0.0261692 0.0729381 0
0.0317998 0.0628824 0
0.0357366 0.0483864 0
0.042359 0.0434272 0
0.0707561 0.0485084 0
0.139544 0.053315 0
0.214923 0.0559701 0
0.285344 0.0576028 0
0.346578 0.0606241 0
0.401297 0.0630503 0
0.45304 0.0658122 0
0.505013 0.0721141 0
0.559716 0.0784924 0
0.624826 0.0873884 0
0.689433 0.0968185 0
0.753155 0.106752 0
0.808606 0.115511 0
0.844785 0.121111 0
0.880415 0.126711 0
0.915557 0.132326 0
0.950179 0.137942 0
0.984176 0.143511 0
1 0.149035 0.00567636
1 0.154513 0.0133364
1 0.159945 0.0211337
1 0.165301 0.0290532
1 0.170611 0.0371099
1 0.175845 0.0452888
1 0.181003 0.0535592
1 0.186099 0.0619364
0.0102998 0.146838 0.00222782
0.0189059 0.140337 0
0.0274662 0.132677 0
0.0358434 0.124193 0
0.0442206 0.114366 0
0.0520943 0.101457 0
0.0598611 0.0837568 0
0.0762341 0.0819409 0
0.116167 0.087892 0
0.182757 0.0911116 0
0.255634 0.0916152 0
0.322316 0.0913405 0
0.382498 0.0926528 0
0.437095 0.0924239 0
0.48925 0.0942092 0
0.541268 0.0984512 0
0.601602 0.0996872 0
0.66688 0.100969 0
0.731075 0.110399 0
0.795148 0.120195 0
0.831952 0.125597 0
0.868101 0.131044 0
0.903593 0.136522 0
0.938521 0.141985 0
0.972854 0.147448 0
1 0.15288 0
1 0.158251 0
1 0.163561 0
1 0.168826 0.00593576
1 0.174044 0.013901
1 0.179171 0.0219577
1 0.184207 0.0300908
1 0.189197 0.0383764
0.0161135 0.197406 0.00726329
0.0259251 0.191226 0.00369268
0.0358587 0.183932 0
0.0457771 0.175998 0
0.0561227 0.166812 0
0.0663615 0.155703 0
0.0762188 0.135744 0
0.0885328 0.123445 0
0.117632 0.123095 0
0.161166 0.127291 0
0.225315 0.129595 0
0.294789 0.129747 0
0.360098 0.129793 0
0.420233 0.130785 0
0.475975 0.13228 0
0.529335 0.133989 0
0.582315 0.135988 0
0.645502 0.138293 0
0.70959 0.141268 0
0.773983 0.144701 0
0.81857 0.144549 0
0.854963 0.143252 0
0.890608 0.144183 0
0.925444 0.147372 0
0.959762 0.151583 0
0.993652 0.156878 0
1 0.162097 0
1 0.167285 0
1 0.172427 0
1 0.177508 0
1 0.182544 0
1 0.187488 0.00483711
1 0.19234 0.0129549
0.0234226 0.247807 0.0141299
0.0341344 0.242023 0.0101167
0.0451362 0.235355 0.00585946
0.0562753 0.228168 0.00151064
0.0680858 0.219837 0
0.0800641 0.21001 0
0.0925765 0.196216 0
0.102754 0.173724 0
0.12755 0.16643 0
0.161074 0.165682 0.00384527
0.207462 0.168292 0
0.268452 0.169467 0
0.333715 0.16878 0
0.398016 0.168032 0
0.458564 0.168048 0
0.515892 0.168231 0
0.570642 0.169192 0
0.62739 0.171069 0
0.691478 0.173388 0
0.755093 0.176471 0
0.806653 0.178134 0
0.842145 0.177493 0
0.877287 0.177111 0
0.911894 0.177157 0
0.94609 0.177462 0
0.98024 0.177966 0
1 0.178897 0
1 0.180163 0
1 0.181567 0
1 0.184176 0
1 0.188006 0
1 0.191913 0
1 0.195834 0
0.0321965 0.297963 0.0226596
0.0436255 0.292744 0.0183719
0.055436 0.286717 0.0137942
0.0674907 0.280125 0.00903334
0.0802014 0.27248 0.00387579
0.0933394 0.263828 0
0.105776 0.252781 0
0.117479 0.23209 0
0.134234 0.215991 0
0.167376 0.210483 0.000274662
0.205768 0.209445 0.0102998
0.254154 0.210864 0
0.311727 0.210803 0
0.374487 0.210056 0
0.437629 0.208759 0
0.49836 0.207965 0
0.556649 0.207828 0
0.612329 0.208347 0
0.67364 0.209705 0
0.737362 0.21146 0
0.797391 0.213184 0
0.832639 0.211139 0
0.86746 0.209751 0
0.901671 0.208896 0
0.93547 0.208728 0
0.968673 0.20911 0
1 0.209918 0
1 0.211353 0
1 0.212802 0
1 0.214557 0
1 0.216526 0
1 0.218692 0
1 0.221057 0
0.0421759 0.346517 0.0325475
0.0542153 0.342107 0.0281376
0.0666819 0.336858 0.0233616
0.0795148 0.331273 0.0184176
0.0928511 0.324712 0.0130159
0.105531 0.316838 0.00709545
0.117922 0.307561 0.00062562
0.130617 0.294438 0
0.142641 0.271885 0
0.171023 0.260243 0
0.209491 0.255543 0.00813306
0.251713 0.254307 0.0188907
0.300801 0.254994 0
0.356725 0.25449 0
0.417365 0.253498 0
0.479149 0.252461 0
0.53959 0.251759 0
0.597818 0.251637 0
0.655009 0.251881 0
0.71841 0.252506 0
0.781765 0.253758 0
0.822889 0.251637 0
0.857694 0.249058 0
0.891997 0.247227 0
0.925643 0.245777 0
0.958755 0.244923 0
0.991211 0.244495 0
1 0.244541 0
1 0.244862 0
1 0.24564 0
1 0.246769 0
1 0.248249 0
1 0.249851 0
0.0532387 0.393393 0.043595
0.0656443 0.389303 0.0390173
0.078584 0.384665 0.0341192
0.0918593 0.379812 0.0290532
0.10454 0.37406 0.0234989
0.11693 0.367285 0.0174258
0.129168 0.359426 0.0107881
0.141848 0.349248 0.00300603
0.153948 0.331304 0
0.173571 0.314565 0
0.210636 0.305821 0.00854505
0.253574 0.301732 0.0183413
0.298558 0.300313 0.029633
0.347601 0.300267 0.00491341
0.40264 0.299748 0
0.461723 0.298863 0
0.521843 0.2981 0
0.581292 0.297749 0
0.639002 0.297612 0
0.699123 0.297719 0
0.762081 0.29836 0
0.812451 0.297337 0
0.847272 0.294072 0
0.881529 0.29131 0
0.915114 0.28893 0
0.948226 0.287266 0
0.980636 0.285908 0
1 0.285039 0
1 0.284566 0
1 0.284413 0
1 0.284657 0
1 0.285176 0
1 0.28571 0
0.0657816 0.440253 0.0561685
0.0785687 0.436667 0.0515297
0.0917525 0.432456 0.0465095
0.104128 0.427924 0.0412757
0.11632 0.422843 0.0356146
0.128283 0.416907 0.0294499
0.140185 0.409705 0.0225834
0.152132 0.401007 0.0149081
0.164843 0.389441 0.0056611
0.177295 0.370581 0.00408942
0.209903 0.358251 0.0111086
0.252918 0.35137 0.0205234
0.299123 0.348257 0.0308537
0.345312 0.346716 0.0424048
0.395163 0.346563 0.0192874
0.449744 0.34609 0.00189212
0.506889 0.345632 0
0.565179 0.345312 0
0.623072 0.345113 0
0.68014 0.345129 0
0.742 0.345449 0
0.801465 0.345602 0
0.836149 0.341955 0
0.870207 0.338674 0
0.903731 0.335897 0
0.936706 0.333608 0
0.96907 0.331731 0
1 0.330312 0
1 0.329015 0
1 0.328374 0
1 0.327977 0
1 0.327825 0
1 0.327611 0
0.0747234 0.48806 0.0728923
0.0883803 0.48484 0.0680095
0.101289 0.481193 0.0628061
0.113787 0.477012 0.0571908
0.12604 0.472328 0.0511635
0.138155 0.466896 0.0445869
0.150164 0.460502 0.0373693
0.162173 0.452644 0.0293126
0.175067 0.441764 0.0193332
0.186191 0.427375 0.0130617
0.210132 0.412772 0.0169375
0.25069 0.402884 0.0250858
0.297108 0.39736 0.0347906
0.344747 0.394232 0.0453498
0.391821 0.392538 0.057084
0.442481 0.39237 0.0352483
0.49633 0.392218 0.0198978
0.552117 0.392096 0.00933852
0.60856 0.392203 0.00276188
0.664439 0.392447 0
0.723156 0.392935 0
0.783627 0.393484 0
0.825345 0.391119 0
0.859037 0.387717 0
0.892302 0.384802 0
0.925032 0.382101 0
0.957168 0.379812 0
0.988617 0.377829 0
1 0.376257 0
1 0.375097 0
1 0.374182 0.000885023
1 0.373358 0.0041352
1 0.372747 0.00782788
0.0891432 0.536385 0.0976883
0.0968032 0.534264 0.0879225
0.109438 0.530983 0.0827649
0.121752 0.527291 0.0768444
0.133837 0.523033 0.0706951
0.145785 0.517876 0.0638895
0.157702 0.511894 0.0564126
0.169741 0.504891 0.0481575
0.182223 0.495903 0.0384833
0.195254 0.484352 0.0271
0.212268 0.468574 0.0269322
0.248402 0.456641 0.0327459
0.294255 0.448722 0.0415656
0.342733 0.443748 0.0514229
0.390723 0.441093 0.0621042
0.438849 0.439399 0.0741283
0.489769 0.439139 0.0539712
0.543008 0.438972 0.0401007
0.596902 0.438773 0.0307317
0.651347 0.439109 0.0251774
0.706889 0.439658 0.021622
0.765148 0.440253 0.018555
0.815564 0.439307 0.0165103
0.848905 0.435843 0.0141909
0.881834 0.432746 0.0127413
0.914229 0.429999 0.0120546
0.945907 0.427451 0.0119326
0.977142 0.425406 0.012604
1 0.423743 0.013962
1 0.422385 0.0158694
1 0.42121 0.0182498
1 0.420096 0.0208743
1 0.419257 0.0240482
0.105043 0.58558 0.122423
0.106996 0.583871 0.108858
0.118166 0.58117 0.103182
0.130205 0.57792 0.098146
0.142046 0.57406 0.0924697
0.15378 0.569345 0.085893
0.165484 0.563684 0.0780499
0.17731 0.557168 0.0696269
0.189441 0.549172 0.0600137
0.202792 0.537789 0.0477913
0.215595 0.52462 0.0410925
0.248264 0.51194 0.0445258
0.291371 0.501991 0.051545
0.340276 0.495293 0.0606851
0.389395 0.49102 0.0706035
0.437629 0.488258 0.0815442
0.486381 0.486686 0.0932784
0.536843 0.486259 0.0750439
0.588632 0.486122 0.0626841
0.641138 0.486381 0.0548104
0.694072 0.48687 0.049897
0.749569 0.487358 0.0453193
0.805768 0.487861 0.0425422
0.840604 0.484504 0.0393988
0.873106 0.481132 0.0370184
0.905028 0.478096 0.0354467
0.936309 0.475242 0.0344854
0.967163 0.472953 0.0344701
0.997467 0.470924 0.03505
1 0.469184 0.0362402
1 0.467506 0.0377203
1 0.466285 0.0399634
1 0.465064 0.0424964
0.121401 0.635477 0.145312
0.123217 0.633997 0.133501
0.128084 0.631891 0.12311
0.139422 0.62884 0.118639
0.150805 0.625299 0.113603
0.162264 0.620981 0.107805
0.173739 0.615793 0.101122
0.185306 0.609659 0.0933547
0.197101 0.602335 0.084184
0.209735 0.592508 0.0722057
0.222354 0.581277 0.059556
0.25066 0.567285 0.0601816
0.289448 0.556268 0.0649882
0.337575 0.547982 0.0729839
0.387793 0.542351 0.0825513
0.436454 0.538399 0.0919051
0.484932 0.535531 0.101625
0.53373 0.533944 0.112047
0.583566 0.533593 0.0977493
0.634119 0.533608 0.0876326
0.68513 0.534066 0.0808118
0.737621 0.534432 0.0749065
0.79118 0.535088 0.071046
0.834485 0.533471 0.067689
0.866423 0.529854 0.0643778
0.897734 0.526406 0.0617838
0.928664 0.523461 0.0601816
0.959106 0.520867 0.0593729
0.989044 0.518547 0.0592203
1 0.516228 0.0594034
1 0.514458 0.0604715
1 0.512871 0.0619974
1 0.511315 0.0638895
0.139544 0.687587 0.162402
0.141238 0.686244 0.151492
0.145174 0.684276 0.141466
0.155581 0.681285 0.137362
0.166033 0.677729 0.132753
0.176349 0.67332 0.127489
0.18674 0.668315 0.121584
0.197208 0.662364 0.114809
0.207889 0.655421 0.106981
0.21886 0.646448 0.097322
0.231037 0.634882 0.084535
0.254856 0.622339 0.0793164
0.289464 0.61062 0.0822003
0.335363 0.601175 0.0884108
0.385657 0.594156 0.0962387
0.435096 0.588907 0.104143
0.483757 0.585229 0.112398
0.53257 0.582773 0.121279
0.580987 0.581323 0.130617
0.629755 0.580911 0.11928
0.678706 0.580713 0.111315
0.72903 0.581064 0.105135
0.780163 0.581628 0.100649
0.830503 0.581949 0.0975357
0.861799 0.578012 0.0935225
0.892821 0.574609 0.0905318
0.923293 0.57142 0.0882124
0.953262 0.568551 0.086656
0.982849 0.565972 0.0858015
1 0.563424 0.0852979
1 0.561318 0.0856336
1 0.559457 0.0864881
1 0.557549 0.0876478
0.15819 0.741604 0.17908
0.159777 0.740414 0.168872
0.163729 0.738659 0.159854
0.173388 0.735927 0.156115
0.183001 0.732448 0.151827
0.192752 0.728298 0.14699
0.202518 0.723507 0.141588
0.212375 0.717754 0.135393
0.222339 0.710781 0.128176
0.232593 0.702327 0.119631
0.243854 0.690303 0.108064
0.258335 0.678813 0.100404
0.291234 0.664729 0.101061
0.333974 0.654322 0.104952
0.383413 0.645899 0.110933
0.433906 0.639658 0.117754
0.482612 0.635004 0.124697
0.53138 0.631678 0.13225
0.579736 0.629389 0.140276
0.627085 0.627741 0.148592
0.674846 0.62742 0.139559
0.723339 0.627543 0.132647
0.77229 0.627832 0.12755
0.821698 0.628244 0.12398
0.859083 0.62565 0.120302
0.88954 0.621973 0.116915
0.919753 0.61886 0.114488
0.94931 0.615717 0.112444
0.978363 0.612757 0.110933
1 0.610071 0.110033
1 0.607752 0.109743
1 0.6056 0.109911
1 0.603433 0.110384
0.176547 0.795117 0.195712
0.178119 0.794247 0.186206
0.18201 0.792523 0.178027
0.190997 0.789914 0.174533
0.200031 0.78677 0.170626
0.209171 0.782895 0.166171
0.218357 0.778225 0.161135
0.227634 0.772702 0.155428
0.236988 0.765866 0.14876
0.246601 0.757778 0.141024
0.256809 0.747158 0.131243
0.267918 0.735317 0.121202
0.294347 0.719524 0.119829
0.33344 0.706935 0.122072
0.381567 0.697551 0.126467
0.432532 0.690181 0.132143
0.481529 0.68452 0.137972
0.530221 0.680262 0.14435
0.578256 0.676936 0.151141
0.625757 0.674769 0.15845
0.672419 0.673518 0.166064
0.719432 0.673335 0.15845
0.76669 0.67335 0.152575
0.814008 0.673304 0.148241
0.857969 0.672587 0.144945
0.887953 0.668742 0.141268
0.917494 0.665125 0.138231
0.946792 0.661952 0.135943
0.975448 0.658824 0.134051
1 0.655955 0.132708
1 0.653376 0.131914
1 0.651026 0.131563
1 0.648554 0.131441
0.194614 0.848035 0.212268
0.196033 0.847074 0.20325
0.199954 0.845609 0.195865
0.208377 0.843214 0.192645
0.216876 0.840299 0.189029
0.225422 0.836622 0.184909
0.234104 0.832029 0.180163
0.242786 0.826459 0.174762
0.251652 0.820005 0.168627
0.260746 0.812299 0.161547
0.270191 0.802655 0.152987
0.280385 0.789883 0.141955
0.298726 0.776547 0.138415
0.333288 0.760616 0.138857
0.379995 0.748547 0.142245
0.430655 0.740246 0.146883
0.480415 0.733532 0.151827
0.528862 0.728115 0.157076
0.576974 0.724117 0.162951
0.624369 0.721279 0.169268
0.670893 0.719448 0.17586
0.716716 0.718364 0.182818
0.762432 0.717876 0.176364
0.808347 0.717678 0.171283
0.854551 0.717739 0.167727
0.887465 0.714534 0.164004
0.916609 0.710735 0.160632
0.945373 0.70721 0.157839
0.973678 0.703914 0.155596
1 0.700786 0.153796
1 0.698054 0.152605
1 0.695491 0.151812
1 0.692775 0.151202
0.212436 0.900435 0.228748
0.213687 0.899321 0.220157
0.217517 0.897795 0.213367
0.225513 0.895735 0.210422
0.233509 0.892973 0.20705
0.241535 0.889357 0.203159
0.249653 0.884794 0.198657
0.257877 0.879332 0.193561
0.266255 0.872999 0.187808
0.27483 0.865522 0.181216
0.28368 0.856428 0.173434
0.2934 0.843641 0.163027
0.304677 0.83331 0.157565
0.334524 0.815244 0.155962
0.377539 0.801236 0.157671
0.427771 0.790265 0.161288
0.478752 0.782208 0.165759
0.527245 0.775692 0.170184
0.575402 0.770901 0.175158
0.622736 0.767346 0.18056
0.669184 0.764828 0.186343
0.714748 0.763058 0.192477
0.759365 0.7617 0.198901
0.804059 0.761196 0.193561
0.848783 0.760937 0.189181
0.8878 0.759289 0.18555
0.916487 0.755261 0.181811
0.944823 0.751522 0.178653
0.972778 0.748058 0.176043
1 0.744701 0.173861
1 0.74168 0.172198
1 0.738888 0.170977
1 0.736049 0.170016
0.226154 0.941466 0.241611
0.227573 0.941039 0.233585
0.231525 0.940154 0.22742
0.239307 0.938689 0.224796
0.247227 0.936919 0.221897
0.255283 0.93463 0.218631
0.263554 0.932021 0.21503
0.272068 0.928771 0.210941
0.280766 0.925017 0.206409
0.288869 0.917708 0.200198
0.297185 0.908888 0.192966
0.306218 0.896712 0.183474
0.316655 0.885298 0.176547
0.337758 0.869398 0.173342
0.376059 0.853529 0.173388
0.424521 0.840894 0.175784
0.475593 0.831006 0.179309
0.524651 0.823255 0.183078
0.5729 0.817395 0.187381
0.620462 0.81294 0.192142
0.667048 0.809567 0.197253
0.712551 0.80705 0.202686
0.757015 0.805158 0.208423
0.800702 0.803876 0.214481
0.844266 0.803235 0.21004
0.887938 0.802823 0.206165
0.91696 0.79881 0.202136
0.9449 0.794888 0.198627
0.972442 0.79118 0.195636
0.999664 0.787732 0.193149
1 0.784482 0.191089
1 0.78146 0.189471
1 0.778256 0.188006
0.235264 0.969482 0.250278
0.236622 0.969055 0.242512
0.240421 0.968154 0.236484
0.247944 0.96669 0.233921
0.255573 0.964813 0.231067
0.263371 0.962539 0.227893
0.271382 0.959899 0.224384
0.279622 0.956771 0.220478
0.288106 0.953048 0.216068
0.296788 0.948699 0.211124
0.30576 0.943435 0.205463
0.315389 0.937087 0.198779
0.326574 0.92958 0.192126
0.342229 0.921569 0.190143
0.376059 0.905425 0.18938
0.421637 0.891173 0.190494
0.472114 0.879698 0.193072
0.521828 0.870451 0.196155
0.570108 0.863279 0.199725
0.6177 0.857725 0.203815
0.664363 0.853544 0.208347
0.709987 0.850416 0.213245
0.754482 0.84799 0.218402
0.798047 0.846189 0.223865
0.840558 0.844663 0.229511
0.883055 0.843931 0.225849
0.917906 0.841413 0.22182
0.945403 0.837247 0.217929
0.97258 0.833326 0.214572
0.99942 0.829664 0.211719
1 0.82623 0.209308
1 0.822965 0.207294
1 0.819623 0.205524
0.244266 0.997101 0.258869
0.245579 0.996658 0.251331
0.24921 0.995712 0.245426
0.256489 0.994247 0.242939
0.263859 0.992309 0.240131
0.271427 0.990082 0.237049
0.279179 0.987396 0.233616
0.287129 0.984207 0.229786
0.295354 0.980453 0.225498
0.303792 0.976165 0.220722
0.31249 0.971023 0.215274
0.321675 0.96492 0.208988
0.331899 0.956924 0.201068
0.34374 0.951125 0.198505
0.371664 0.936889 0.197421
0.414252 0.925704 0.199207
0.464561 0.917205 0.202686
0.516213 0.910872 0.206867
0.566033 0.906493 0.211322
0.61474 0.902205 0.215702
0.661463 0.897002 0.219638
0.707088 0.89308 0.223987
0.751553 0.889952 0.228595
0.794965 0.887602 0.233509
0.837507 0.885817 0.238682
0.879271 0.884413 0.244099
0.919203 0.88307 0.24097
0.946334 0.878752 0.236759
0.973022 0.874525 0.23299
0.999512 0.870649 0.229786
1 0.866987 0.227008
1 0.863569 0.224674
1 0.860014 0.222522
0.253132 1 0.267369
0.254383 1 0.260029
0.257877 1 0.254231
0.264897 1 0.251774
0.272053 1 0.249042
0.279393 1 0.246036
0.286915 1 0.242679
0.294621 1 0.238941
0.302541 1 0.23476
0.310735 1 0.23006
0.319158 0.99794 0.224796
0.328023 0.992081 0.21883
0.337972 0.9841 0.211154
0.34876 0.977584 0.206775
0.368872 0.96585 0.204852
0.406394 0.95346 0.2056
0.454109 0.943954 0.208377
0.505165 0.936904 0.212222
0.554513 0.931762 0.216297
0.603265 0.928222 0.220813
0.651377 0.925933 0.225711
0.698466 0.924636 0.230884
0.744472 0.924193 0.236301
0.789425 0.924376 0.241901
0.833478 0.924971 0.247684
0.875746 0.924422 0.253056
0.916625 0.922927 0.258198
0.94754 0.919417 0.255192
0.973953 0.915099 0.251133
1 0.910994 0.247562
1 0.907149 0.244465
1 0.903532 0.241779
1 0.899825 0.239322
0.261845 1 0.275715
0.26305 1 0.268589
0.266392 1 0.262882
0.273182 1 0.260471
0.280125 1 0.257801
0.287236 1 0.254841
0.29453 1 0.251545
0.302007 1 0.247883
0.309697 1 0.243809
