site/assets/luts/freshluts--0000774-glut012.cube
# LUTr-Schema-Version: 2
# LUTr-ID: freshluts--0000774-glut012
# LUTr-Title: gLut012
# LUTr-Collection: Fresh LUTs
# LUTr-Collection-ID: freshluts-community
# LUTr-Source: https://freshluts.com
# LUTr-Retrieved: 2026-07-27
# LUTr-Source-File: submissions-raw/freshluts/cubes/774__Untitled_10.0S7A6011.cube
# LUTr-Source-Format: CUBE
# LUTr-Source-SHA256: a896c7b7ba3cb8871489a1ad22cd62f1a147928223c24f0b01cee6540a28a319
# LUTr-License: CC0-1.0
# LUTr-License-URL: https://freshluts.com/termsandconditions
# LUTr-License-Basis: site-terms
# LUTr-Transform-Class: creative-look
# LUTr-Tags: creative, freshluts, community, cube, warm, canon-cinestyle
# LUTr-Input-Color-Space: canon-cinestyle
# LUTr-Input-Gamut: rec709
# LUTr-Input-Transfer: canon-cinestyle
# LUTr-Output-Color-Space: srgb
# LUTr-Output-Gamut: rec709
# LUTr-Output-Transfer: srgb
# LUTr-Color-Space-Confidence: inferred-from-source-label
# LUTr-Domain-Normalized: true
# LUTr-Shaper: none
# LUTr-Original-Grid: 33x33x33
# LUTr-Conversion-Grid: 33x33x33
# LUTr-Conversion-Interpolation: none
# LUTr-Conversion-Method: Metadata normalization; numeric LUT samples preserved
# LUTr-Conversion-Tool: LUTr scripts/convert-all-to-cube.mjs 2.0.0
# LUTr-Conversion-Date: 2026-07-28
# LUTr-Asset-URL: https://freshluts.com/luts/774
# LUTr-Author: directorgodfrey_M
# LUTr-Author-URL: https://freshluts.com/users/1455
# LUTr-Attribution: directorgodfrey_M via Fresh LUTs
# LUTr-Source-Labels: gamma=Canon Cinestyle; color=Warm; key=Neutral; style=Wedding
# LUTr-Note: Preserve this metadata and the upstream license notices when redistributing.
TITLE "gLut012"
LUT_3D_SIZE 33
DOMAIN_MIN 0 0 0
DOMAIN_MAX 1 1 1
0 0 0.00335698
0 0 0.000137331
0.0162814 0 0
0.0585336 0 0
0.0988632 0 0
0.13872 0 0
0.17789 0 0
0.216068 0 0
0.255009 0 0
0.294072 0 0
0.333471 0 0
0.372656 0 0
0.411994 0 0
0.450645 0 0
0.488716 0 0
0.526574 0 0
0.564172 0 0
0.603906 0 0
0.646601 0 0
0.690257 0 0
0.736217 0 0
0.784131 0 0
0.835111 0 0
0.889921 0 0
0.950545 0 0
1 0 0
1 0 0
1 0 0
1 0 0
1 0 0
1 0 0
1 0 0
1 0 0
0 0.0223392 0
0 0.0186465 0
0.00543221 0.0158999 0
0.0480812 0.0125582 0
0.0893568 0.00953689 0
0.129458 0.0062562 0
0.168734 0.00329595 0
0.207691 0.000427253 0
0.245365 0 0
0.284535 0 0
0.323644 0 0
0.363302 0 0
0.402258 0 0
0.440909 0 0
0.479454 0 0
0.517311 0 0
0.554711 0 0
0.593439 0 0
0.635538 0 0
0.679377 0 0
0.724437 0 0
0.77203 0 0
0.821958 0 0
0.875593 0 0
0.934234 0 0
0.994003 0 0
1 0 0
1 0 0
1 0 0
1 0 0
1 0 0
1 0 0
1 0 0
0 0.0568093 0
0 0.0538338 0
0 0.0508583 0
0.0374151 0.0478523 0
0.0788586 0.0445258 0
0.119249 0.0415808 0
0.158846 0.0386053 0
0.197559 0.0355688 0
0.23566 0.0326238 0
0.274617 0.0294652 0
0.314076 0.0268864 0
0.353338 0.0236973 0
0.392706 0.0205234 0
0.431601 0.0176852 0
0.470146 0.0143282 0
0.508034 0.0112154 0
0.545419 0.00769055 0
0.583856 0.00450141 0
0.624979 0.000991836 0
0.667979 0 0
0.712703 0 0
0.759411 0 0
0.808789 0 0
0.861341 0 0
0.918639 0 0
0.979782 0 0
1 0 0
1 0 0
1 0 0
1 0 0
1 0 0
1 0 0
1 0 0
0 0.0911116 0
0 0.0880293 0
0 0.0850996 0
0.0267185 0.0819562 0
0.0684672 0.0789502 0
0.109209 0.0759289 0
0.148836 0.0729992 0
0.187594 0.0698863 0
0.22565 0.066865 0
0.26453 0.0642557 0
0.303777 0.0611276 0
0.34313 0.0582132 0
0.382391 0.0551156 0
0.421363 0.0521859 0
0.459739 0.0491493 0
0.497963 0.0457771 0
0.535393 0.0428016 0
0.573373 0.0393072 0
0.613794 0.0358129 0
0.656489 0.0321965 0
0.700938 0.0282902 0
0.747036 0.0245975 0
0.795895 0.0205081 0
0.847562 0.0162356 0
0.903471 0.0118563 0
0.965469 0.0069276 0
1 0.0030518 0
1 0 0
1 0 0
1 0 0
1 0 0
1 0 0
1 0 0
0 0.124605 0
0 0.121538 0
0 0.118395 0
0.0161593 0.115755 0
0.05832 0.112505 0
0.0991531 0.109499 0
0.138674 0.106416 0
0.177752 0.103365 0
0.216144 0.100694 0
0.254612 0.0976425 0
0.293568 0.0948196 0
0.333043 0.0919203 0
0.372229 0.0889601 0
0.411185 0.0859846 0
0.449622 0.0828107 0
0.487785 0.0798657 0
0.525612 0.0766308 0
0.562936 0.0734112 0
0.602548 0.06981 0
0.645029 0.0661631 0
0.688914 0.0628519 0
0.734783 0.0588693 0
0.782376 0.0550698 0
0.833326 0.0508125 0
0.888106 0.0463874 0
0.948562 0.0419165 0
1 0.0375067 0
1 0.0332799 0
1 0.0287327 0
1 0.0243839 0
1 0.019913 0
1 0.0153201 0
1 0.0110323 0
0 0.157229 0
0 0.154498 0
0 0.151553 0
0.00547799 0.148501 0
0.0476539 0.14548 0
0.0889296 0.142214 0
0.128939 0.139376 0
0.168154 0.136477 0
0.206699 0.133394 0
0.244434 0.130632 0
0.283711 0.127779 0
0.32282 0.125017 0
0.36199 0.122011 0
0.400931 0.118883 0
0.439796 0.116182 0
0.478141 0.112932 0
0.515831 0.109834 0
0.553063 0.106493 0
0.591821 0.103334 0
0.633829 0.0998093 0
0.677302 0.0961013 0
0.722194 0.0925002 0
0.76965 0.0884565 0
0.81944 0.0843977 0
0.872999 0.0802167 0
0.931624 0.0756695 0
0.991333 0.0715801 0
1 0.0672465 0
1 0.0628977 0
1 0.0582895 0
1 0.0538491 0
1 0.0495766 0
1 0.0450599 0
0 0.189837 0
0 0.18674 0
0 0.183795 0
0 0.180804 0
0.0375982 0.17789 0
0.0787518 0.174899 0
0.119127 0.17171 0
0.158145 0.168719 0
0.196857 0.165805 0
0.235096 0.163012 0
0.273594 0.160281 0
0.312795 0.157244 0
0.351919 0.154421 0
0.391394 0.151614 0
0.429831 0.148455 0
0.468071 0.145556 0
0.506218 0.142367 0
0.543526 0.139345 0
0.581659 0.135927 0
0.622522 0.132372 0
0.665492 0.129 0
0.710353 0.125216 0
0.756985 0.121645 0
0.80618 0.117662 0
0.858671 0.11339 0
0.915709 0.108949 0
0.976684 0.104463 0
1 0.100526 0
1 0.0961471 0
1 0.0918593 0
1 0.0874952 0
1 0.0831311 0
1 0.0786755 0
0 0.221378 0
0 0.218585 0
0 0.215747 0
0 0.212634 0
0.0271305 0.209735 0
0.0686046 0.206592 0
0.108934 0.203647 0
0.148669 0.200824 0
0.187213 0.197772 0
0.225284 0.194965 0
0.263676 0.19202 0
0.302983 0.189441 0
0.342336 0.186404 0
0.38117 0.183551 0
0.419989 0.180529 0
0.458381 0.17763 0
0.496406 0.174655 0
0.533867 0.171313 0
0.571344 0.168063 0
0.611826 0.164797 0
0.654536 0.161242 0
0.698558 0.157809 0
0.744701 0.153887 0
0.793149 0.150118 0
0.844755 0.145968 0
0.900435 0.141619 0
0.962234 0.137301 0
1 0.133227 0
1 0.128893 0
1 0.124559 0
1 0.12018 0
1 0.116091 0
1 0.111711 0
0 0.253666 0
0 0.250462 0
0 0.247425 0
0 0.244358 0
0.0163882 0.241291 0
0.0585184 0.238346 0
0.0993362 0.235096 0
0.138857 0.232044 0
0.177615 0.229175 0
0.215869 0.226322 0
0.254139 0.223621 0
0.293034 0.22063 0
0.332174 0.217868 0
0.371466 0.215167 0
0.410193 0.212116 0
0.448707 0.209216 0
0.486488 0.206104 0
0.524254 0.203159 0
0.561639 0.2 0
0.600961 0.196536 0
0.643473 0.193149 0
0.686915 0.189517 0
0.73254 0.185931 0
0.780392 0.182208 0
0.830961 0.178286 0
0.885649 0.173846 0
0.945785 0.16936 0
1 0.165606 0
1 0.161257 0
1 0.157137 0
1 0.152865 0
1 0.148394 0
1 0.144274 0
0 0.285939 0
0 0.282918 0
0 0.279957 0
0 0.276753 0
0.00585946 0.273823 0
0.0479133 0.270451 0
0.0890669 0.267308 0
0.129091 0.264164 0
0.168078 0.261158 0
0.206516 0.258244 0
0.244175 0.255192 0
0.283207 0.25243 0
0.322301 0.249485 0
0.361379 0.246601 0
0.400305 0.243549 0
0.438987 0.24062 0
0.477272 0.237644 0
0.51487 0.234348 0
0.552224 0.231128 0
0.590417 0.227893 0
0.632502 0.224582 0
0.675898 0.221225 0
0.720684 0.217517 0
0.768109 0.213825 0
0.817716 0.209903 0
0.871168 0.205798 0
0.930083 0.201526 0
0.989334 0.197391 0
1 0.193286 0
1 0.189044 0
1 0.184787 0
1 0.180697 0
1 0.176501 0
0 0.318761 0
0 0.31548 0
0 0.312367 0
0 0.309224 0
0 0.305943 0
0.037705 0.303166 0
0.0788891 0.299763 0
0.119188 0.296666 0
0.158129 0.293492 0
0.196735 0.290303 0
0.234821 0.287663 0
0.273304 0.284596 0
0.312428 0.281697 0
0.351537 0.278645 0
0.39086 0.2757 0
0.429252 0.272709 0
0.467414 0.26952 0
0.505501 0.266529 0
0.542779 0.263249 0
0.580804 0.2598 0
0.621653 0.256428 0
0.664454 0.252827 0
0.709285 0.249195 0
0.755764 0.245396 0
0.804822 0.241596 0
0.857114 0.237293 0
0.91426 0.232929 0
0.975326 0.228855 0
1 0.224857 0
1 0.220829 0
1 0.216709 0
1 0.21239 0
1 0.208377 0
0 0.351049 0
0 0.347997 0
0 0.344869 0
0 0.341741 0
0 0.338674 0
0.0270542 0.335409 0
0.0687266 0.332189 0
0.108904 0.328878 0
0.148531 0.326131 0
0.187076 0.322927 0
0.22504 0.319783 0
0.263508 0.316915 0
0.302754 0.314 0
0.341924 0.311055 0
0.380758 0.308003 0
0.419562 0.30486 0
0.457801 0.302098 0
0.495872 0.298772 0
0.533364 0.295598 0
0.570748 0.292165 0
0.611215 0.288808 0
0.653742 0.285374 0
0.697795 0.281621 0
0.744045 0.277882 0
0.792233 0.273884 0
0.843885 0.269734 0
0.899504 0.265538 0
0.961288 0.261006 0
1 0.257191 0
1 0.252674 0
1 0.248447 0
1 0.244343 0
1 0.240146 0
0 0.383703 0
0 0.380423 0
0 0.377279 0
0 0.374121 0
0 0.370825 0
0.0162661 0.368109 0
0.058381 0.36463 0
0.0991836 0.361486 0
0.138552 0.358251 0
0.177462 0.355108 0
0.215717 0.352331 0
0.253834 0.349248 0
0.292805 0.346365 0
0.331792 0.343236 0
0.371099 0.340444 0
0.409796 0.337453 0
0.448127 0.334279 0
0.486061 0.331197 0
0.52398 0.328069 0
0.561288 0.324895 0
0.600488 0.321309 0
0.642893 0.317662 0
0.686488 0.314137 0
0.732143 0.310384 0
0.779843 0.306676 0
0.830533 0.302617 0
0.885267 0.298161 0
0.945174 0.293736 0
1 0.289723 0
1 0.285603 0
1 0.281346 0
1 0.277043 0
1 0.272969 0
0 0.415396 0
0 0.412375 0
0 0.409384 0
0 0.406226 0
0 0.403189 0
0.00538643 0.400076 0
0.0475013 0.396887 0
0.0888075 0.393683 0
0.128725 0.390768 0
0.167651 0.387564 0
0.206088 0.384375 0
0.243702 0.381552 0
0.282918 0.378683 0
0.32195 0.375769 0
0.360922 0.372747 0
0.4 0.369589 0
0.438483 0.366903 0
0.476875 0.363592 0
0.514504 0.360479 0
0.551766 0.357122 0
0.590433 0.353964 0
0.632136 0.3505 0
0.675578 0.346792 0
0.720439 0.343206 0
0.767788 0.339223 0
0.817456 0.335241 0
0.871061 0.331106 0
0.929732 0.32668 0
0.989395 0.322744 0
1 0.318364 0
1 0.314275 0
1 0.309987 0
1 0.30576 0
0 0.447196 0
0 0.443961 0
0 0.44097 0
0 0.437812 0
0 0.434638 0
0 0.431846 0
0.0370184 0.428611 0
0.0781567 0.425513 0
0.118288 0.422324 0
0.157534 0.419211 0
0.196307 0.41648 0
0.234073 0.413474 0
0.272663 0.410636 0
0.311818 0.407584 0
0.35111 0.404852 0
0.390326 0.401923 0
0.428702 0.398871 0
0.466972 0.395911 0
0.505241 0.392874 0
0.54226 0.389822 0
0.580499 0.386343 0
0.621363 0.382773 0
0.664225 0.379431 0
0.709224 0.375738 0
0.755764 0.372229 0
0.804868 0.368261 0
0.857328 0.36405 0
0.914153 0.359762 0
0.97557 0.355352 0
1 0.351568 0
1 0.347372 0
1 0.343267 0
1 0.339132 0
0 0.478187 0
0 0.475227 0
0 0.47219 0
0 0.469398 0
0 0.466209 0
0 0.46302 0
0.0258793 0.46009 0
0.067689 0.456764 0
0.107897 0.454093 0
0.147509 0.450935 0
0.18613 0.447807 0
0.224018 0.445045 0
0.262943 0.442222 0
0.301915 0.439414 0
0.340993 0.436454 0
0.380026 0.433402 0
0.419028 0.430838 0
0.457252 0.427741 0
0.495384 0.424765 0
0.532784 0.421561 0
0.570504 0.418418 0
0.610925 0.415198 0
0.653437 0.411704 0
0.697658 0.408301 0
0.744076 0.404486 0
0.792203 0.400763 0
0.843976 0.396826 0
0.899504 0.392706 0
0.961578 0.388479 0
1 0.384634 0
1 0.380682 0
1 0.376272 0
1 0.372122 0
0 0.509163 0
0 0.506142 0
0 0.503227 0
0 0.50016 0
0 0.497139 0
0 0.494209 0
0.0146487 0.491264 0
0.0567941 0.488167 0
0.0975967 0.484977 0
0.137133 0.481987 0
0.176318 0.479179 0
0.214298 0.476326 0
0.252613 0.473564 0
0.291707 0.470588 0
0.33077 0.468116 0
0.370123 0.465171 0
0.408896 0.462165 0
0.447333 0.459373 0
0.485649 0.456474 0
0.523262 0.453574 0
0.560876 0.450278 0
0.600107 0.446891 0
0.642496 0.443671 0
0.686519 0.44033 0
0.732189 0.436896 0
0.779965 0.433158 0
0.830655 0.429221 0
0.885466 0.425361 0
0.945586 0.42092 0
1 0.417319 0
1 0.413291 0
1 0.409384 0
1 0.405386 0
0 0.539239 0
0 0.536446 0
0 0.533379 0
0 0.530632 0
0 0.527733 0
0 0.524666 0
0.00326543 0.521935 0
0.0454108 0.51873 0
0.086717 0.515816 0
0.126864 0.513008 0
0.165881 0.510002 0
0.204288 0.507317 0
0.242115 0.504402 0
0.281407 0.50193 0
0.320455 0.499077 0
0.359609 0.496315 0
0.399008 0.493523 0
0.437537 0.490654 0
0.475959 0.487816 0
0.513634 0.484718 0
0.551247 0.481819 0
0.590097 0.478737 0
0.63154 0.475456 0
0.675258 0.472175 0
0.720348 0.468589 0
0.76759 0.465187 0
0.817624 0.461372 0
0.87129 0.457389 0
0.930037 0.453529 0
0.990127 0.449638 0
1 0.446067 0
1 0.441871 0
1 0.437858 0
0 0.569802 0
0 0.566964 0
0 0.564065 0
0 0.560937 0
0 0.558053 0
0 0.555032 0
0 0.552193 0
0.0345006 0.549325 0
0.0756695 0.546212 0
0.115923 0.543313 0
0.155413 0.540429 0
0.194202 0.537728 0
0.232074 0.535134 0
0.270741 0.53228 0
0.310002 0.529656 0
0.349538 0.527047 0
0.3888 0.524208 0
0.427436 0.521553 0
0.465782 0.518608 0
0.504219 0.51603 0
0.54139 0.513008 0
0.579736 0.509819 0
0.620645 0.506844 0
0.663874 0.503624 0
0.708995 0.500481 0
0.755367 0.496971 0
0.804837 0.493462 0
0.85742 0.489647 0
0.914717 0.485695 0
0.97612 0.481697 0
1 0.478111 0
1 0.474418 0
1 0.470573 0
0 0.601831 0
0 0.598749 0
0 0.595514 0
0 0.592477 0
0 0.589395 0
0 0.586328 0
0 0.583352 0
0.0226902 0.580224 0
0.0646372 0.577157 0
0.10515 0.574182 0
0.144778 0.571252 0
0.183642 0.568475 0
0.221668 0.565576 0
0.260563 0.563043 0
0.299672 0.56025 0
0.338918 0.557641 0
0.378119 0.554803 0
0.417243 0.552056 0
0.455817 0.549477 0
0.494026 0.546502 0
0.531624 0.543694 0
0.569512 0.54078 0
0.609995 0.537697 0
0.652689 0.534707 0
0.697063 0.53138 0
0.743603 0.528145 0
0.791959 0.524651 0
0.843885 0.521035 0
0.89958 0.517464 0
0.961898 0.513497 0
1 0.510277 0
1 0.506569 0
1 0.502663 0
0 0.635874 0
0 0.632425 0
0 0.629236 0
0 0.626139 0
0 0.622904 0
0 0.619638 0
0 0.616266 0
0.0109255 0.613169 0
0.053193 0.609964 0
0.0942397 0.606806 0
0.133867 0.603601 0
0.173083 0.600412 0
0.211566 0.597742 0
0.249775 0.594812 0
0.288991 0.592035 0
0.328176 0.589075 0
0.367773 0.58645 0
0.406806 0.583642 0
0.445426 0.580682 0
0.483818 0.577829 0
0.521981 0.574975 0
0.559564 0.571939 0
0.598901 0.568917 0
0.641443 0.565698 0
0.685405 0.562539 0
0.731502 0.559365 0
0.779538 0.556146 0
0.830411 0.552514 0
0.88539 0.548791 0
0.945617 0.544961 0
1 0.541543 0
1 0.538109 0
1 0.534478 0
0 0.670466 0
0 0.667262 0
0 0.663996 0
0 0.660792 0
0 0.657404 0
0 0.654002 0
0 0.651072 0
0 0.647776 0
0.0414893 0.644511 0
0.0826734 0.641093 0
0.122988 0.637964 0
0.162264 0.634989 0
0.201022 0.631769 0
0.238941 0.628855 0
0.277974 0.625772 0
0.317662 0.623102 0
0.356802 0.620066 0
0.396384 0.616876 0
0.435218 0.614008 0
0.473884 0.611032 0
0.511894 0.607996 0
0.549462 0.604746 0
0.58854 0.601495 0
0.630426 0.598459 0
0.674067 0.595041 0
0.719432 0.591699 0
0.766934 0.588113 0
0.817182 0.584543 0
0.871 0.580865 0
0.929885 0.57702 0
0.990463 0.573571 0
1 0.570031 0
1 0.566201 0
0 0.70631 0
0 0.702922 0
0 0.699748 0
0 0.696208 0
0 0.692897 0
0 0.689555 0
0 0.686305 0
0 0.683162 0
0.0296788 0.679652 0
0.0710307 0.676402 0
0.111681 0.673213 0
0.151446 0.670008 0
0.18999 0.666941 0
0.22826 0.663706 0
0.267185 0.661067 0
0.306538 0.657954 0
0.346303 0.654826 0
0.385489 0.651896 0
0.424842 0.648936 0
0.463432 0.64596 0
0.501717 0.642725 0
0.539406 0.639704 0
0.577874 0.6365 0
0.619196 0.63299 0
0.662425 0.629694 0
0.707424 0.626078 0
0.754208 0.622583 0
0.8038 0.618753 0
0.856748 0.614939 0
0.914336 0.610925 0
0.976059 0.607004 0
1 0.603571 0
1 0.599771 0
0 0.743236 0
0 0.740032 0
0 0.736416 0
0 0.733043 0
0 0.729503 0
0 0.726238 0
0 0.722972 0
0 0.719432 0
0.0174258 0.716167 0
0.059556 0.712718 0
0.100343 0.70959 0
0.140002 0.706249 0
0.179202 0.702876 0
0.217441 0.69984 0
0.256413 0.696834 0
0.295613 0.693858 0
0.335073 0.690745 0
0.374899 0.68777 0
0.413931 0.684855 0
0.452873 0.681575 0
0.491386 0.678614 0
0.529412 0.675441 0
0.567346 0.672129 0
0.607645 0.668772 0
0.650843 0.665141 0
0.695506 0.662058 0
0.742199 0.65832 0
0.790921 0.654612 0
0.842893 0.650858 0
0.899001 0.646799 0
0.961379 0.64271 0
1 0.639063 0
1 0.63534 0
0 0.781796 0
0 0.778347 0
0 0.774853 0
0 0.771176 0
0 0.767727 0
0 0.764324 0
0 0.760693 0
0 0.757351 0
0.00495918 0.753857 0
0.0473335 0.750378 0
0.0887007 0.747051 0
0.128725 0.743633 0
0.168078 0.740353 0
0.206867 0.737163 0
0.245212 0.734127 0
0.284428 0.730892 0
0.323934 0.727764 0
0.363684 0.72491 0
0.403052 0.721614 0
0.442206 0.718517 0
0.48101 0.715389 0
0.519234 0.712261 0
0.556954 0.708873 0
0.596384 0.705303 0
0.639292 0.70219 0
0.683558 0.698512 0
0.729595 0.695018 0
0.777966 0.691218 0
0.829114 0.687236 0
0.884108 0.683528 0
0.944884 0.679316 0
1 0.675898 0
1 0.671824 0
0 0.822217 0
0 0.81857 0
0 0.814893 0
0 0.811368 0
0 0.807492 0
0 0.804013 0
0 0.800458 0
0 0.796735 0
0 0.793378 0
0.0351263 0.789548 0
0.0767224 0.786374 0
0.117296 0.782696 0
0.156588 0.779171 0
0.195743 0.776059 0
0.233845 0.772778 0
0.273075 0.769619 0
0.312596 0.766262 0
0.352468 0.763134 0
0.392386 0.759991 0
0.431189 0.756664 0
0.470436 0.75375 0
0.508659 0.750301 0
0.546624 0.746914 0
0.585611 0.743435 0
0.627741 0.739986 0
0.671733 0.736522 0
0.717128 0.732723 0
0.76495 0.728969 0
0.815457 0.72517 0
0.869459 0.721065 0
0.928725 0.717159 0
0.989578 0.713252 0
1 0.709651 0
0 0.865217 0
0 0.861143 0
0 0.857389 0
0 0.85362 0
0 0.849882 0
0 0.845838 0
0 0.8421 0
0 0.838483 0
0 0.834653 0
0.022797 0.831006 0
0.064332 0.827176 0
0.105409 0.823758 0
0.14519 0.820203 0
0.184207 0.81651 0
0.222797 0.813519 0
0.261616 0.809934 0
0.301167 0.806714 0
0.341329 0.803342 0
0.380865 0.799954 0
0.42034 0.796719 0
0.459403 0.793393 0
0.498146 0.790204 0
0.536095 0.786526 0
0.574563 0.782895 0
0.61622 0.779614 0
0.659632 0.775814 0
0.704921 0.772198 0
0.751766 0.768292 0
0.801862 0.764172 0
0.855024 0.760357 0
0.912673 0.756146 0
0.974975 0.7523 0
1 0.748501 0
0 0.911223 0
0 0.907057 0
0 0.902922 0
0 0.899001 0
0 0.894728 0
0 0.891051 0
0 0.886839 0
0 0.882612 0
0 0.878935 0
