site/assets/luts/freshluts--0000292-redmood.cube
# LUTr-Schema-Version: 2
# LUTr-ID: freshluts--0000292-redmood
# LUTr-Title: RedMood
# LUTr-Collection: Fresh LUTs
# LUTr-Collection-ID: freshluts-community
# LUTr-Source: https://freshluts.com
# LUTr-Retrieved: 2026-07-27
# LUTr-Source-File: submissions-raw/freshluts/cubes/292__redmood_49.cube
# LUTr-Source-Format: CUBE
# LUTr-Source-SHA256: 86a711489df6b65eab14f3b161ebc2cc1d60ca73bb434fdd4a514d12e3c75c02
# LUTr-License: CC0-1.0
# LUTr-License-URL: https://freshluts.com/termsandconditions
# LUTr-License-Basis: site-terms
# LUTr-Transform-Class: creative-look
# LUTr-Tags: creative, freshluts, community, cube, blue, rec709
# LUTr-Input-Color-Space: rec709
# LUTr-Input-Gamut: rec709
# LUTr-Input-Transfer: rec709
# LUTr-Output-Color-Space: srgb
# LUTr-Output-Gamut: rec709
# LUTr-Output-Transfer: srgb
# LUTr-Color-Space-Confidence: inferred-from-source-label
# LUTr-Domain-Normalized: true
# LUTr-Shaper: none
# LUTr-Original-Grid: 33x33x33
# LUTr-Conversion-Grid: 33x33x33
# LUTr-Conversion-Interpolation: none
# LUTr-Conversion-Method: Metadata normalization; numeric LUT samples preserved
# LUTr-Conversion-Tool: LUTr scripts/convert-all-to-cube.mjs 2.0.0
# LUTr-Conversion-Date: 2026-07-28
# LUTr-Asset-URL: https://freshluts.com/luts/292
# LUTr-Author: Emanouil Koutsios
# LUTr-Author-URL: https://freshluts.com/users/10778
# LUTr-Attribution: Emanouil Koutsios via Fresh LUTs
# LUTr-Source-Labels: gamma=Rec 709; color=Blue; key=Neutral; style=Drama
# LUTr-Note: Preserve this metadata and the upstream license notices when redistributing.
TITLE "RedMood"
LUT_3D_SIZE 5
DOMAIN_MIN 0 0 0
DOMAIN_MAX 1 1 1
0.00357061 0.0131991 0.0136568
0.174273 0.0358434 0.0290227
0.350332 0.0558328 0.0333867
0.52343 0.0692454 0.0449226
0.644434 0.0834211 0.0585946
0.019913 0.206729 0.227695
0.168872 0.23537 0.262425
0.416556 0.272053 0.28333
0.618875 0.300557 0.304326
0.724636 0.325093 0.328283
0.059266 0.43563 0.482261
0.21091 0.490196 0.544167
0.45243 0.525444 0.574807
0.705242 0.577829 0.603937
0.787655 0.60061 0.624048
0.107362 0.655039 0.720607
0.254398 0.70013 0.768017
0.436942 0.744427 0.806806
0.745953 0.790539 0.830976
0.827985 0.806561 0.840513
0.127962 0.775662 0.84979
0.272175 0.809613 0.88423
0.399115 0.851408 0.921324
0.710674 0.887114 0.939345
0.834333 0.901564 0.946197
0.00248722 0.0535744 0.056672
0.17908 0.0772106 0.0753796
0.362036 0.0985428 0.0816968
0.538308 0.111009 0.0856336
0.658869 0.125124 0.0997482
0.024506 0.256214 0.284047
0.175525 0.296254 0.331716
0.433524 0.33315 0.353933
0.639628 0.368643 0.381613
0.742321 0.393698 0.40589
0.0696574 0.49369 0.54583
0.221195 0.549508 0.608255
0.443061 0.58851 0.642649
0.722057 0.641077 0.669215
0.800198 0.661387 0.687007
0.118853 0.70631 0.775769
0.26479 0.748135 0.819074
0.437705 0.79498 0.860105
0.747921 0.838315 0.884001
0.833997 0.853498 0.892561
0.137957 0.821241 0.899153
0.280324 0.850034 0.928267
0.404242 0.892256 0.965301
0.694347 0.927916 0.985473
0.831632 0.941665 0.99115
0.00457771 0.0890211 0.0964981
0.181369 0.113924 0.117876
0.370596 0.135424 0.124941
0.553445 0.151293 0.123186
0.674067 0.167422 0.140124
0.0298772 0.305791 0.339223
0.182681 0.353353 0.394766
0.446769 0.386099 0.413947
0.656275 0.428611 0.448142
0.756725 0.457664 0.474998
0.0797436 0.546349 0.602884
0.230869 0.601114 0.663081
0.431983 0.64242 0.699474
0.731746 0.694133 0.725383
0.811154 0.714549 0.742672
0.129473 0.7523 0.824826
0.273976 0.791104 0.864332
0.430182 0.837812 0.905364
0.748196 0.879927 0.92871
0.834394 0.893141 0.936629
0.146624 0.861112 0.941588
0.286549 0.886046 0.96643
0.406561 0.927398 1
0.675044 0.959518 1
0.826596 0.975219 1
0.00570687 0.125978 0.137789
0.181292 0.151476 0.162325
0.37966 0.17789 0.173953
0.570291 0.196872 0.181064
0.690501 0.214649 0.196704
0.0356756 0.358709 0.397391
0.190051 0.412116 0.459251
0.442664 0.443793 0.483635
0.672389 0.494453 0.518105
0.770993 0.522316 0.543328
0.0889448 0.598306 0.659724
0.239933 0.649699 0.71426
0.431006 0.69337 0.754116
0.738445 0.744595 0.77998
0.820813 0.764202 0.794659
0.138216 0.794491 0.869963
0.28191 0.829923 0.905943
0.42359 0.877119 0.94786
0.741375 0.918013 0.971725
0.832441 0.928038 0.976715
0.153811 0.901198 0.982956
0.291051 0.924224 1
0.40737 0.959396 1
0.655665 0.990234 1
0.825116 1 1
0.00619516 0.162982 0.17882
0.160372 0.188647 0.207538
0.388754 0.218402 0.221622
0.583993 0.240009 0.233417
0.705943 0.262196 0.254353
0.0410925 0.406104 0.44976
0.196399 0.460761 0.512016
0.429603 0.492668 0.540612
0.683574 0.543496 0.569345
0.781033 0.569604 0.59202
0.0955062 0.637095 0.701167
0.246098 0.683543 0.750225
0.422827 0.727459 0.789731
0.741238 0.77641 0.815091
0.825559 0.794034 0.827146
0.142885 0.822812 0.900877
0.286122 0.854154 0.932708
0.416724 0.900832 0.97351
0.736614 0.940566 0.995514
0.831479 0.948669 0.998154
0.151232 0.900755 0.982528
0.287938 0.924605 1
0.403464 0.961471 1
0.643977 0.995682 1
0.825589 1 1
