site/assets/luts/freshluts--0001223-rosa-natural.cube
# LUTr-Schema-Version: 2
# LUTr-ID: freshluts--0001223-rosa-natural
# LUTr-Title: ROSA NATURAL
# LUTr-Collection: Fresh LUTs
# LUTr-Collection-ID: freshluts-community
# LUTr-Source: https://freshluts.com
# LUTr-Retrieved: 2026-07-27
# LUTr-Source-File: submissions-raw/freshluts/cubes/1223__ROSA_NATURAL.cube
# LUTr-Source-Format: CUBE
# LUTr-Source-SHA256: f48eab5e311356cad8e8a69f8a5d637d8f031d8d037001d7b0976411a5929c26
# LUTr-License: CC0-1.0
# LUTr-License-URL: https://freshluts.com/termsandconditions
# LUTr-License-Basis: site-terms
# LUTr-Transform-Class: creative-look
# LUTr-Tags: creative, freshluts, community, cube, orange, sony-s-log2
# LUTr-Input-Color-Space:
# LUTr-Input-Gamut: sony-s-gamut
# LUTr-Input-Transfer: sony-s-log2
# LUTr-Output-Color-Space: srgb
# LUTr-Output-Gamut: rec709
# LUTr-Output-Transfer: srgb
# LUTr-Color-Space-Confidence: camera-profile-input-required
# LUTr-Domain-Normalized: true
# LUTr-Shaper: none
# LUTr-Original-Grid: 33x33x33
# LUTr-Conversion-Grid: 33x33x33
# LUTr-Conversion-Interpolation: none
# LUTr-Conversion-Method: Metadata normalization; numeric LUT samples preserved
# LUTr-Conversion-Tool: LUTr scripts/convert-all-to-cube.mjs 2.0.0
# LUTr-Conversion-Date: 2026-07-28
# LUTr-Asset-URL: https://freshluts.com/luts/1223
# LUTr-Author: Antony Eliezer
# LUTr-Author-URL: https://freshluts.com/users/32961
# LUTr-Attribution: Antony Eliezer via Fresh LUTs
# LUTr-Source-Labels: gamma=Sony S-Log 2; color=Orange; key=Neutral; style=Colorful
# LUTr-Note: Preserve this metadata and the upstream license notices when redistributing.
# LUTr-Upstream-Comment: VEGAS Pro LUT
TITLE "ROSA NATURAL"
LUT_3D_SIZE 5
DOMAIN_MIN 0 0 0
DOMAIN_MAX 1 1 1
0.02413614 0.02413614 0.02413614
0.13971291 0.04400085 0.03811063
0.42381474 0.05605164 0.03319442
0.69369531 0.02712954 0.01062799
0.78771335 0.01972798 0.01356806
0.05727133 0.15078244 0.04950422
0.14757043 0.14552225 0.0538093
0.43020403 0.12791838 0.03357752
0.69245654 0.09237085 0.0108484
0.78773081 0.0847009 0.01353097
0.00985003 0.44807842 0.00382542
0.07618301 0.44509578 0.00462444
0.49552742 0.44470721 0.0392119
0.76433516 0.33680609 0.02582248
0.79013318 0.15055519 0.01569409
0.06290675 0.68375069 -0.01325977
0.12756835 0.6832059 -0.01325977
0.29428998 0.6868915 0.00066825
0.80386299 0.72171545 0.17731011
0.88854986 0.63542932 0.15950613
0.07052583 0.78930616 0.03668821
0.13584645 0.78910428 0.03414374
0.21912327 0.7874434 0.03066345
0.72462934 0.8449071 0.19484527
0.88912171 0.84784484 0.22971782
0.03060409 0.03642347 0.11605266
0.13358855 0.04705802 0.12272726
0.42141205 0.05745324 0.10743932
0.69339204 0.02704802 0.07568527
0.78784174 0.01939812 0.07249503
0.05264753 0.14445139 0.13384598
0.13935511 0.14029697 0.13426936
0.42509219 0.12771797 0.10815838
0.69214672 0.09235625 0.0758802
0.78784174 0.08437105 0.07256741
0.00901026 0.44631797 0.06967027
0.07531096 0.44338048 0.07041586
0.49100661 0.44295633 0.11187475
0.76417917 0.33706266 0.09197975
0.79065108 0.15037841 0.073617
0.06185811 0.68309391 0.05171315
0.12660407 0.68254906 0.05171315
0.29107741 0.68555838 0.06508154
0.80349278 0.72114223 0.24221957
0.88861793 0.63514745 0.22417317
0.06394143 0.79367775 0.16988279
0.12911732 0.79343885 0.16674806
0.21983536 0.79085493 0.15612006
0.71132785 0.84563702 0.29329836
0.88912171 0.84795427 0.29596561
0.03245453 0.07173365 0.34173796
0.10345912 0.07192399 0.35020036
0.40161321 0.05958628 0.3624078
0.67466003 0.03243852 0.28356153
0.78722906 0.01983183 0.15983526
0.03273601 0.13994522 0.34200782
0.10069792 0.13898174 0.34588516
0.39776817 0.12527978 0.36130756
0.67315394 0.09777878 0.28332481
0.7869606 0.08483963 0.15984687
0.00454947 0.45546362 0.40547431
0.07019001 0.45210814 0.40397435
0.41971466 0.42899334 0.41629413
0.71036708 0.30812281 0.32319742
0.78916413 0.15079437 0.16327713
0.04742438 0.69814163 0.37177253
0.11192705 0.69750589 0.36946222
0.25371006 0.68935907 0.35315022
0.76853341 0.73009181 0.47088757
0.88345259 0.63616306 0.34097582
0.07416525 0.8074218 0.41866738
0.13888177 0.80722547 0.41703945
0.22330554 0.8049975 0.41078842
0.67716604 0.84294057 0.49105456
0.88912171 0.85904884 0.47167706
0.03202356 0.08901106 0.57104504
0.09699647 0.08901106 0.57174402
0.36246261 0.05843874 0.66722018
0.66636902 0.02137129 0.62067026
0.77866781 0.01678887 0.57765359
0.03209049 0.15390395 0.56985354
0.09704596 0.15390395 0.57006925
0.35503599 0.12458456 0.6658802
0.66457671 0.08675954 0.61961335
0.77912498 0.08176179 0.57522953
0.00082977 0.41039747 0.66899198
0.06705996 0.40487054 0.66739255
0.30206931 0.35097048 0.71333343
0.67057556 0.21598791 0.63147402
0.78113151 0.14680193 0.5718382
0.07138113 0.71929747 0.66059029
0.1358718 0.71852136 0.66012549
0.2616086 0.71580553 0.66550112
0.72351354 0.72742051 0.71722138
0.82856643 0.64038169 0.65318674
0.10702271 0.83580989 0.65173072
0.17186069 0.83562696 0.65106404
0.24507055 0.83510613 0.65107989
0.68821847 0.85710973 0.70965886
0.88834876 0.87930769 0.75151682
0.03098734 0.09020367 0.68237609
0.09596025 0.09020367 0.68242836
0.28597236 0.06630589 0.80741978
0.63850474 0.02087628 0.77098787
0.7686404 0.0153562 0.76968282
0.03098734 0.15517659 0.68228406
0.09596025 0.15517659 0.68231893
0.26935324 0.13409418 0.8039276
0.63507801 0.086338 0.77111191
0.76977217 0.08027419 0.76950032
0.01397913 0.33290872 0.77914393
0.07986376 0.32762724 0.77693665
0.20874117 0.28875872 0.83912885
0.63084441 0.16986129 0.78679204
0.77309823 0.14511177 0.76827604
0.0410306 0.69607866 0.78906971
0.10523394 0.6951865 0.78890532
0.19738881 0.69218844 0.79104847
0.68246871 0.70441484 0.83961332
0.79828209 0.58899641 0.79012305
0.1138181 0.84977007 0.79797274
0.17879102 0.84975153 0.79808259
0.2461727 0.84956753 0.79849571
0.68404484 0.86885422 0.85408819
0.8823328 0.88255244 0.88089693
