site/assets/luts/freshluts--0000188-glut004.cube
# LUTr-Schema-Version: 2
# LUTr-ID: freshluts--0000188-glut004
# LUTr-Title: gLUT004
# LUTr-Collection: Fresh LUTs
# LUTr-Collection-ID: freshluts-community
# LUTr-Source: https://freshluts.com
# LUTr-Retrieved: 2026-07-27
# LUTr-Source-File: submissions-raw/freshluts/cubes/188__KILABUNI_1.P2640032.cube
# LUTr-Source-Format: CUBE
# LUTr-Source-SHA256: 39a33e1f83920ad1e6e4ab6908fbab8751b3008c9dd1ed239f1107f2e4d7bc28
# LUTr-License: CC0-1.0
# LUTr-License-URL: https://freshluts.com/termsandconditions
# LUTr-License-Basis: site-terms
# LUTr-Transform-Class: creative-look
# LUTr-Tags: creative, freshluts, community, cube, green, rec709
# LUTr-Input-Color-Space: rec709
# LUTr-Input-Gamut: rec709
# LUTr-Input-Transfer: rec709
# LUTr-Output-Color-Space: srgb
# LUTr-Output-Gamut: rec709
# LUTr-Output-Transfer: srgb
# LUTr-Color-Space-Confidence: declared-by-source
# LUTr-Domain-Normalized: true
# LUTr-Shaper: none
# LUTr-Original-Grid: 33x33x33
# LUTr-Conversion-Grid: 33x33x33
# LUTr-Conversion-Interpolation: none
# LUTr-Conversion-Method: Metadata normalization; numeric LUT samples preserved
# LUTr-Conversion-Tool: LUTr scripts/convert-all-to-cube.mjs 2.0.0
# LUTr-Conversion-Date: 2026-07-28
# LUTr-Asset-URL: https://freshluts.com/luts/188
# LUTr-Author: directorgodfrey_M
# LUTr-Author-URL: https://freshluts.com/users/1455
# LUTr-Attribution: directorgodfrey_M via Fresh LUTs
# LUTr-Source-Labels: gamma=Rec 709; color=Green; key=Neutral; style=Protect highlights
# LUTr-Note: Preserve this metadata and the upstream license notices when redistributing.
TITLE "gLUT004"
LUT_3D_SIZE 9
DOMAIN_MIN 0 0 0
DOMAIN_MAX 1 1 1
0.073518 0.0877852 0.0824292
0.158206 0.0391546 0.0298009
0.213428 0.00318914 0.0244602
0.269688 0 0.0230259
0.32604 0 0.0213626
0.354665 0 0.0202182
0.393103 0 0.0327459
0.455787 0 0.103975
0.485573 0 0.128939
0 0.147631 0.142702
0.0955215 0.140063 0.0700084
0.210605 0.0913252 0.0246128
0.274647 0.035523 0.0229191
0.328405 0 0.0212253
0.3552 0 0.0202029
0.394903 0 0.0352178
0.458183 0 0.106279
0.485573 0 0.128939
0 0.202197 0.167041
0 0.21265 0.148241
0.142809 0.221546 0.0699321
0.295857 0.216129 0.0222019
0.405203 0.136385 0.0185702
0.438315 0 0.0176699
0.397299 0 0.0383307
0.460838 0 0.108583
0.485573 0 0.128939
0 0.24123 0.193072
0 0.247135 0.177584
0.000488289 0.27985 0.162661
0.263416 0.317617 0.0558022
0.421134 0.304234 0.0181277
0.611414 0.213062 0.0121462
0.628 0.104433 0.0144045
0.461616 0 0.109255
0.485573 0 0.128939
0 0.314321 0.225757
0 0.328771 0.222965
0 0.366537 0.228702
0.0947127 0.427283 0.219242
0.490852 0.486763 0.0200046
0.737011 0.504662 0.0153353
0.843793 0.482383 0.192721
0.849928 0.453849 0.336858
0.485573 0 0.128939
0 0.569589 0.423255
0 0.576471 0.426993
0.0153201 0.610498 0.438727
0.30663 0.672648 0.463127
0.612284 0.717723 0.447562
0.777417 0.713558 0.272511
0.91603 0.695338 0.44625
0.90808 0.69192 0.53991
0.915145 0.690211 0.615381
0.5729 0.79733 0.636576
0.573495 0.797406 0.636652
0.589837 0.799237 0.638834
0.649058 0.806928 0.648554
0.77641 0.829633 0.654826
0.870802 0.85034 0.667033
0.928603 0.82739 0.572534
0.940475 0.832456 0.707424
0.943832 0.83714 0.758434
0.756786 0.825376 0.654566
0.754894 0.824933 0.654429
0.754452 0.824826 0.654398
0.762249 0.826627 0.654856
0.805859 0.836255 0.655238
0.86717 0.852659 0.674037
0.929305 0.8607 0.684993
0.950317 0.867674 0.74966
0.952239 0.883864 0.813062
0.857206 0.850233 0.66833
0.856031 0.849943 0.667659
0.855055 0.849714 0.667124
0.854795 0.849638 0.666972
0.859739 0.850858 0.669764
0.878767 0.855283 0.679774
0.918532 0.861158 0.690089
0.947875 0.857481 0.666529
0.949355 0.872969 0.784161
0.0688487 0.0619059 0.131823
0.162432 0.0302434 0.0671702
0.225162 0.00277714 0.0275425
0.284779 0 0.0226291
0.326177 0 0.0213626
0.354726 0 0.0202182
0.393362 0 0.0331121
0.456107 0 0.104295
0.485573 0 0.128939
0 0.138293 0.177996
0.108644 0.123812 0.104952
0.224384 0.0750439 0.0287327
0.289952 0.0243687 0.0224765
0.331685 0 0.021088
0.355367 0 0.0202029
0.395239 0 0.0356603
0.458625 0 0.106706
0.485573 0 0.128939
0 0.206912 0.194812
0 0.210925 0.173983
0.168505 0.224506 0.0919509
0.305028 0.214252 0.0219272
0.406439 0.138796 0.0185245
0.440192 0 0.0176242
0.397665 0 0.038819
0.461204 0 0.108904
0.485573 0 0.128939
0 0.239063 0.191562
0 0.244419 0.177264
0.0000762951 0.274907 0.16054
0.2551 0.312016 0.0572061
0.421775 0.304677 0.0181125
0.612863 0.213931 0.0120851
0.629267 0.105974 0.0147097
0.461799 0 0.109392
0.485573 0 0.128939
0 0.305638 0.221942
0 0.316884 0.217792
0 0.354726 0.221164
0.0771649 0.411765 0.211154
0.483497 0.479988 0.0199435
0.737499 0.505119 0.0155642
0.843793 0.482383 0.192645
0.849699 0.453254 0.336141
0.485573 0 0.128939
0 0.544045 0.401572
0 0.550484 0.405127
0.00697337 0.582101 0.417472
0.245441 0.648432 0.440009
0.578607 0.698787 0.42768
0.776913 0.713054 0.271153
0.915908 0.694835 0.445243
0.907912 0.691234 0.538827
0.914946 0.689555 0.614542
0.572702 0.797314 0.636545
0.57319 0.797375 0.636622
0.589212 0.799161 0.638743
0.648432 0.806821 0.648432
0.775891 0.829526 0.654841
0.870329 0.850065 0.666346
0.928206 0.8271 0.571633
0.940414 0.832059 0.706706
0.943694 0.836713 0.757748
0.756405 0.825284 0.654536
0.754452 0.824826 0.654398
0.753964 0.824704 0.654353
0.761715 0.826505 0.654856
0.805432 0.836133 0.655207
0.867002 0.852613 0.67393
0.929061 0.860731 0.685161
0.950317 0.867643 0.749538
0.952224 0.883818 0.81297
0.856931 0.850172 0.668177
0.855756 0.849882 0.667521
0.854871 0.849668 0.667018
0.854551 0.849577 0.666835
0.859617 0.850828 0.669688
0.878645 0.855253 0.679728
0.91841 0.861158 0.690135
0.947875 0.857481 0.666529
0.949355 0.872969 0.784146
0.0844282 0.0231785 0.177554
0.182055 0.0122988 0.132143
0.26125 0.000274662 0.0976577
0.310002 0 0.0364538
0.352834 0 0.0202945
0.354818 0 0.0202182
0.393637 0 0.0335088
0.456489 0 0.104646
0.485573 0 0.128939
0 0.113252 0.229252
0.119219 0.103182 0.174792
0.258412 0.0709392 0.118563
0.330449 0.0180667 0.0560922
0.362524 0 0.0199435
0.355535 0 0.0201877
0.39556 0 0.0360723
0.459037 0 0.107057
0.485573 0 0.128939
0 0.230869 0.27924
0 0.233738 0.259922
0.228336 0.243336 0.196918
0.39057 0.226139 0.137163
0.463462 0.118914 0.0175784
0.447105 0 0.0174411
0.398047 0 0.0393072
0.461479 0 0.109133
0.485573 0 0.128939
0 0.298894 0.302861
0 0.304417 0.28777
0.0416724 0.332723 0.273304
0.370901 0.36527 0.201053
0.536095 0.338415 0.0476234
0.615366 0.216464 0.0119936
0.631983 0.110124 0.0156252
0.461814 0 0.109407
0.485573 0 0.128939
0 0.377584 0.324407
0 0.38854 0.324071
0 0.408713 0.31931
0.205814 0.465095 0.309438
0.561715 0.526955 0.219928
0.742626 0.508598 0.0213626
0.843839 0.482551 0.192721
0.8495 0.452811 0.335409
0.485573 0 0.128939
0 0.562844 0.434958
0 0.567605 0.436439
0.00831617 0.591348 0.44036
0.228077 0.63154 0.432319
0.544121 0.678477 0.405982
0.768154 0.70634 0.255818
0.915755 0.694255 0.444099
0.907774 0.690623 0.537835
0.914778 0.68893 0.613779
0.530846 0.792615 0.631327
0.531426 0.792691 0.631388
0.548455 0.794583 0.633433
0.627359 0.803738 0.644297
0.746929 0.819699 0.643336
0.850217 0.838437 0.638071
0.927764 0.826764 0.570611
0.940337 0.831632 0.705928
0.943557 0.836316 0.757076
0.756008 0.825193 0.654505
0.754025 0.82472 0.654353
0.753475 0.824598 0.654322
0.761181 0.826398 0.654841
0.805035 0.836042 0.655177
0.866819 0.852567 0.673823
0.928893 0.860746 0.685267
0.950301 0.867613 0.749416
0.952209 0.883787 0.812894
0.856703 0.850111 0.66804
0.855528 0.849821 0.667384
0.854551 0.849577 0.666835
0.854383 0.849546 0.666743
0.85951 0.850797 0.669627
0.878492 0.855222 0.679667
0.918349 0.861158 0.69015
0.947875 0.857481 0.666529
0.949355 0.872953 0.784131
0.150042 0.0102388 0.194766
0.204959 0.00483711 0.180621
0.298161 0.000579843 0.167254
0.365209 0 0.125841
0.389166 0 0.0276493
0.395621 0 0.0361639
0.396551 0 0.0373541
0.456794 0 0.104952
0.485573 0 0.128939
0.0751354 0.0934768 0.244816
0.167575 0.0931563 0.222995
0.286992 0.0779583 0.201541
0.387045 0.018616 0.161318
0.405966 0 0.0455024
0.397436 0 0.038529
0.398535 0 0.0399481
0.459358 0 0.107332
0.485573 0 0.128939
0 0.229633 0.312016
0.00500496 0.239155 0.314076
0.250629 0.249317 0.279377
0.429068 0.239765 0.242481
0.515877 0.116564 0.142016
0.500175 0 0.0362249
0.400992 0 0.043061
0.461662 0 0.109285
0.485573 0 0.128939
0 0.32987 0.36199
0 0.339254 0.358236
0.0482185 0.369574 0.363485
0.419303 0.405753 0.322255
0.611765 0.362768 0.243977
0.680156 0.191272 0.0205234
0.645228 0.12578 0.0227359
0.461875 0 0.109468
0.485573 0 0.128939
0 0.436347 0.409857
0 0.448615 0.413275
0 0.494591 0.439246
0.313954 0.544991 0.433051
0.635431 0.588861 0.402975
0.811276 0.557549 0.324849
0.846098 0.484962 0.208865
0.850202 0.454963 0.336507
0.485573 0 0.128939
0.072282 0.692241 0.597192
0.0996872 0.694835 0.594339
0.240116 0.709056 0.581872
0.446311 0.710933 0.57908
0.665003 0.729824 0.560998
0.831739 0.740307 0.539162
0.915862 0.695354 0.453941
0.907652 0.690105 0.536858
0.914611 0.68838 0.613031
0.636606 0.81059 0.699748
0.63566 0.810285 0.699138
0.640482 0.810071 0.698024
0.673594 0.811093 0.695872
0.758633 0.822095 0.684535
0.854414 0.838148 0.678569
0.933562 0.837781 0.683146
0.940276 0.831189 0.705104
0.943374 0.835782 0.756191
0.728191 0.815732 0.663417
0.726055 0.815167 0.662425
0.725277 0.814893 0.661295
0.732998 0.816663 0.660441
0.777127 0.826902 0.660487
0.852842 0.847822 0.670542
0.91632 0.859693 0.695399
0.950301 0.867582 0.749264
0.952193 0.883726 0.812741
0.856413 0.850034 0.667887
0.855253 0.84976 0.667231
0.854292 0.849515 0.666682
0.85417 0.849485 0.666621
0.859373 0.850767 0.669551
0.878309 0.855192 0.679576
0.918257 0.861158 0.690181
0.947875 0.857481 0.666529
0.949355 0.872953 0.784085
0.231937 0.0149538 0.250782
0.250111 0.0129549 0.250889
0.315587 0.0103609 0.253483
0.419852 0 0.243458
0.479255 0 0.156268
0.466529 0 0.113283
0.467552 0 0.114153
0.463508 0 0.110796
0.485573 0 0.128939
0.222324 0.0836805 0.273091
0.242832 0.0822003 0.272908
0.314778 0.0692454 0.272557
0.433036 0.0172885 0.267826
0.509209 0 0.190555
0.454994 0 0.0991073
0.469886 0 0.116213
0.465705 0 0.112581
0.485573 0 0.128939
0.162371 0.212345 0.338582
0.195178 0.214832 0.338415
0.293965 0.221576 0.337819
0.446586 0.218448 0.330373
0.576928 0.094728 0.272358
0.573144 0 0.165331
0.442252 0 0.0871901
0.467994 0 0.114534
0.485573 0 0.128939
0 0.347173 0.417151
0.00224308 0.354299 0.422827
0.161501 0.37261 0.412573
0.445106 0.403403 0.418982
0.649042 0.390768 0.387717
0.732464 0.195483 0.253437
0.699123 0.102098 0.205203
0.536522 0 0.140658
0.485573 0 0.128939
0 0.496345 0.49366
0 0.504479 0.499825
0.000015259 0.536812 0.526604
0.33402 0.591241 0.534493
0.674525 0.634516 0.52253
0.829267 0.591928 0.488289
0.868101 0.512703 0.397391
0.856733 0.471382 0.362036
0.485573 0 0.128939
0.222385 0.729747 0.663279
0.246647 0.730877 0.661814
0.338521 0.735653 0.657221
0.520272 0.742748 0.653529
0.697917 0.756924 0.636957
0.835447 0.754284 0.619379
0.912169 0.709514 0.566735
0.907805 0.692821 0.550652
0.914687 0.689387 0.613657
0.701244 0.833219 0.751064
0.700038 0.832761 0.75024
0.702678 0.832105 0.748852
0.733745 0.833555 0.74902
0.789273 0.841321 0.738689
0.861967 0.84921 0.729854
0.932219 0.844724 0.731609
0.9402 0.83241 0.711727
0.943328 0.835721 0.756008
0.789059 0.846784 0.748302
0.787442 0.846174 0.747555
0.785992 0.845563 0.74667
0.788998 0.845808 0.745113
0.816526 0.851591 0.743923
0.868833 0.86154 0.74725
0.923659 0.867216 0.7664
0.949142 0.871305 0.776776
0.952193 0.883726 0.812741
0.854887 0.855665 0.724758
0.853544 0.855253 0.72372
0.85211 0.854765 0.722866
0.851789 0.854505 0.722026
0.857008 0.855314 0.722835
0.876066 0.858091 0.730449
0.915984 0.863584 0.745571
0.949966 0.869871 0.76144
0.949355 0.872953 0.784085
0.355398 0.0850538 0.323308
0.362448 0.0846418 0.324727
0.393942 0.0793469 0.329
0.48867 0.0281376 0.334966
0.610636 0 0.311437
0.594446 0 0.216983
0.485573 0 0.128939
0.485573 0 0.128939
0.485573 0 0.128939
0.357519 0.106783 0.33051
0.364324 0.105898 0.331853
0.395697 0.100114 0.336233
0.493706 0.0385748 0.34287
0.622141 0 0.321447
0.60824 0 0.224842
0.485573 0 0.128939
0.485573 0 0.128939
0.485573 0 0.128939
0.344945 0.167483 0.358068
0.353429 0.168444 0.359518
0.391516 0.168231 0.364187
0.504143 0.127108 0.373739
0.649989 0.0370489 0.358892
0.656779 0 0.249683
0.59649 0 0.215808
0.485573 0 0.128939
0.485573 0 0.128939
0.256931 0.335576 0.456001
0.270771 0.337881 0.457893
0.323461 0.343496 0.463462
0.483711 0.364736 0.476555
0.691066 0.363241 0.468528
0.785504 0.176974 0.369558
0.760357 0.0394141 0.31516
0.628931 0 0.227176
0.485573 0 0.128939
0.0263523 0.564065 0.608148
0.0307012 0.567452 0.610986
0.0942245 0.575692 0.613443
0.418372 0.598367 0.6065
0.695521 0.628168 0.603082
0.845594 0.615305 0.583932
0.892363 0.539391 0.517983
0.88072 0.495003 0.482063
0.755764 0.0715648 0.302129
0.395193 0.748577 0.713848
0.399863 0.748379 0.713207
0.435126 0.74963 0.711192
0.549187 0.756344 0.707744
0.708644 0.768307 0.702892
0.851133 0.781064 0.702846
0.927687 0.746426 0.674617
0.92285 0.726848 0.65214
0.917556 0.69868 0.625803
0.742031 0.846525 0.788708
0.738827 0.845212 0.786923
0.739986 0.84419 0.78526
0.763149 0.846372 0.785412
0.815259 0.861936 0.791119
0.877943 0.87393 0.787594
0.938231 0.861631 0.789731
0.947723 0.85066 0.777157
0.944961 0.838773 0.763577
0.824475 0.869184 0.797024
0.823102 0.868467 0.796033
0.822629 0.868132 0.795331
0.826078 0.869307 0.795575
0.843885 0.876112 0.799725
0.880491 0.88542 0.800656
0.929091 0.886809 0.812009
0.953567 0.886625 0.819608
0.953887 0.887266 0.821027
0.867124 0.880369 0.794446
0.865446 0.879652 0.793469
0.864134 0.879072 0.792599
0.863645 0.878599 0.791623
0.867842 0.878813 0.790387
0.887007 0.881209 0.791074
0.920195 0.882277 0.80116
0.951965 0.883162 0.811292
0.952377 0.884138 0.813733
0.541161 0.226688 0.419486
0.543893 0.227878 0.420478
0.552987 0.22768 0.421607
0.590524 0.213474 0.422797
0.690196 0.170642 0.415778
0.742718 0.0015259 0.324987
0.700725 0 0.280247
0.485573 0 0.128939
0.485573 0 0.128939
0.54583 0.236103 0.42504
0.548089 0.236759 0.42565
0.557473 0.237079 0.426932
0.595956 0.225162 0.428168
0.697658 0.18883 0.421805
0.752071 0.00277714 0.331029
0.711666 0 0.288045
0.485573 0 0.128939
0.485573 0 0.128939
0.551904 0.268055 0.443091
0.555383 0.270191 0.444648
0.565652 0.271458 0.446448
0.607065 0.26685 0.44799
0.713664 0.243381 0.442847
0.778332 0.0141604 0.355474
0.744335 0.000228885 0.31284
0.531044 0 0.174853
0.485573 0 0.128939
0.550835 0.38735 0.514565
0.555505 0.390478 0.516579
0.568475 0.393027 0.518288
0.620783 0.394705 0.518364
0.737835 0.392935 0.517693
0.846555 0.293736 0.462089
0.837507 0.140429 0.400595
0.757702 0.00144961 0.323537
0.485573 0 0.128939
0.538445 0.592706 0.63743
0.541466 0.593957 0.638285
0.551583 0.595743 0.639612
0.607889 0.603189 0.642115
0.741161 0.61146 0.649042
0.875044 0.626444 0.65243
0.928634 0.553384 0.598321
0.921004 0.507073 0.566964
0.837919 0.141939 0.401129
0.649546 0.754986 0.749676
0.648569 0.75404 0.74902
0.652155 0.752941 0.748104
0.687419 0.754955 0.747478
0.778698 0.774975 0.755947
0.888655 0.795926 0.777646
0.954482 0.792081 0.775738
0.950134 0.768627 0.749981
0.942535 0.731136 0.712902
0.809186 0.868696 0.837949
0.805814 0.867033 0.836027
0.804242 0.865629 0.834211
0.813291 0.866712 0.83415
0.849317 0.877852 0.841856
0.907576 0.895476 0.852628
0.956939 0.897612 0.867277
0.963027 0.889174 0.856535
0.961212 0.87689 0.840604
0.85359 0.887236 0.84651
0.851637 0.886381 0.845411
0.850538 0.885893 0.844602
0.852537 0.886748 0.844663
0.869947 0.893446 0.848768
0.910552 0.907576 0.859876
0.951003 0.915511 0.875746
0.967453 0.915129 0.88043
0.967163 0.913985 0.878294
0.897093 0.902098 0.848203
0.895735 0.901579 0.847166
0.894667 0.901167 0.846418
0.894286 0.900954 0.845655
0.898695 0.902205 0.84625
0.915755 0.907622 0.85211
0.943114 0.910231 0.863279
0.96582 0.910842 0.872389
0.965591 0.910369 0.871473
0.749325 0.49015 0.570947
0.750713 0.492058 0.572061
0.753323 0.493843 0.573098
0.761639 0.493904 0.573175
0.801038 0.496559 0.575189
0.875898 0.465675 0.55053
0.895247 0.364523 0.490562
0.8701 0.267094 0.446021
0.485573 0 0.128939
0.753033 0.497383 0.575128
0.754269 0.499016 0.576074
0.757076 0.501244 0.577371
0.7664 0.502907 0.578408
0.806043 0.506691 0.581109
0.879896 0.476127 0.556405
0.900069 0.38584 0.501152
0.876661 0.291096 0.456458
0.485573 0 0.128939
0.758495 0.512764 0.584222
0.760433 0.515511 0.585885
0.76379 0.51841 0.587564
0.773785 0.521355 0.589105
0.811887 0.525658 0.59202
0.885267 0.497139 0.568261
0.906218 0.414816 0.516335
0.88571 0.3252 0.471839
0.485573 0 0.128939
0.762875 0.552605 0.609354
0.764889 0.555444 0.610956
0.767758 0.55729 0.611826
0.776928 0.559213 0.61207
0.813199 0.564889 0.61442
0.888106 0.549355 0.60061
0.916609 0.472541 0.547875
0.904097 0.404181 0.510506
0.585901 0 0.211887
0.774319 0.653651 0.676448
0.775051 0.654276 0.676844
0.776287 0.654322 0.676875
0.782376 0.653559 0.676173
0.81387 0.656703 0.675288
0.887831 0.666575 0.680171
0.935836 0.615106 0.639994
0.932052 0.58471 0.618616
0.911254 0.440574 0.530434
0.819944 0.794156 0.771786
0.818189 0.792493 0.770428
0.817121 0.790799 0.769024
0.820188 0.789532 0.768185
0.845121 0.793927 0.77496
0.904387 0.804181 0.791119
0.958968 0.806332 0.79707
0.956527 0.788785 0.781262
0.953826 0.756176 0.752636
0.884901 0.895796 0.870161
0.882414 0.894301 0.868666
0.880308 0.892958 0.867323
0.880171 0.892149 0.866377
0.893675 0.89601 0.869444
0.92932 0.905669 0.880201
0.965591 0.911788 0.895506
0.969268 0.907317 0.892134
0.968414 0.898878 0.884092
0.905913 0.91191 0.885939
0.904921 0.911421 0.885512
0.904311 0.911116 0.885252
0.904723 0.911315 0.885435
0.911757 0.914687 0.888243
0.936736 0.922972 0.897063
0.963714 0.930724 0.910918
0.971923 0.933165 0.917601
0.97174 0.932448 0.916518
0.927764 0.919203 0.889464
0.926711 0.918807 0.888792
0.925902 0.918486 0.888243
0.925475 0.918288 0.887846
0.928038 0.919066 0.888701
0.93933 0.922927 0.894194
0.95906 0.927764 0.903716
0.970855 0.929564 0.911391
0.970535 0.928573 0.909453
0.894652 0.715785 0.718868
0.89543 0.717083 0.719844
0.896101 0.717952 0.7205
0.897337 0.718715 0.721111
0.904189 0.722011 0.723735
0.924666 0.720623 0.721904
0.946654 0.701991 0.708354
0.944945 0.686366 0.695277
0.938659 0.634775 0.654612
0.897063 0.720256 0.72221
0.897826 0.72163 0.723247
0.898833 0.72311 0.724361
0.900877 0.72491 0.725765
0.908202 0.729122 0.72903
0.928115 0.727001 0.727031
0.947768 0.712077 0.716823
0.94609 0.696803 0.70399
0.940017 0.644999 0.662394
0.901305 0.728222 0.728283
0.902678 0.730404 0.730068
0.903883 0.732097 0.731441
0.905653 0.733806 0.73283
0.912825 0.737942 0.736355
0.93164 0.733776 0.732631
0.948928 0.721019 0.723629
0.947021 0.705318 0.711147
0.940948 0.652232 0.667933
0.905303 0.738964 0.73695
0.906386 0.740764 0.73843
0.907347 0.742153 0.739605
0.908629 0.743084 0.740414
0.914565 0.745632 0.742794
0.932708 0.741115 0.738552
0.949783 0.727291 0.728313
0.947524 0.709926 0.715023
0.941421 0.655848 0.67071
0.91284 0.771572 0.764492
0.912993 0.771817 0.764706
0.913039 0.771649 0.764569
0.9131 0.770367 0.763516
0.917525 0.770871 0.764233
0.934737 0.769879 0.764309
0.953719 0.755367 0.751904
0.951324 0.738689 0.737224
0.945998 0.695933 0.703258
0.927413 0.842878 0.827192
0.926467 0.841382 0.825757
0.925551 0.83978 0.824216
0.924666 0.837354 0.821942
0.927306 0.836561 0.821469
0.941619 0.840558 0.826413
0.964508 0.83798 0.826398
0.962386 0.825345 0.814633
0.958312 0.802731 0.793774
0.941894 0.912947 0.888792
0.940993 0.911971 0.887785
0.940093 0.910933 0.886732
0.939132 0.909606 0.885435
0.940169 0.90901 0.885145
0.950164 0.910353 0.888365
0.9682 0.912947 0.897307
0.96936 0.908446 0.893202
0.968688 0.900633 0.885756
0.9467 0.926314 0.902708
0.946075 0.926131 0.902358
0.945556 0.925963 0.902068
0.945174 0.925841 0.901839
0.946487 0.926253 0.902586
0.953552 0.928069 0.90602
0.966079 0.931304 0.912627
0.971923 0.933165 0.917601
0.971923 0.933165 0.917601
0.949325 0.927092 0.904158
0.948821 0.92697 0.903929
0.94844 0.926848 0.903716
0.948074 0.926741 0.903487
0.948959 0.927001 0.904005
0.953597 0.928084 0.90605
0.963485 0.930663 0.91075
0.971923 0.933165 0.917601
0.971923 0.933165 0.917601
