site/assets/luts/freshluts--0000936-picturefx-infrared-colorbw-3dl-white-trees-and-blue-sky-at-3.cube
# LUTr-Schema-Version: 2
# LUTr-ID: freshluts--0000936-picturefx-infrared-colorbw-3dl-white-trees-and-blue-sky-at-3
# LUTr-Title: PictureFX Infrared Color/B&W 3DL - white trees and blue sky at 30% up to 70/75%
# LUTr-Collection: Fresh LUTs
# LUTr-Collection-ID: freshluts-community
# LUTr-Source: https://freshluts.com
# LUTr-Retrieved: 2026-07-27
# LUTr-Source-File: submissions-raw/freshluts/cubes/936__PictureFX-Faux-Infrared-Color-B_W-3DL25.cube
# LUTr-Source-Format: CUBE
# LUTr-Source-SHA256: 0637c7935070bfc79bad2bcc3def7293672554450d665f163fd73ec02674ff9d
# LUTr-License: CC0-1.0
# LUTr-License-URL: https://freshluts.com/termsandconditions
# LUTr-License-Basis: site-terms
# LUTr-Transform-Class: creative-look
# LUTr-Tags: creative, freshluts, community, cube, film-emulation, black-and-white, cool, rec709, assumed-input
# LUTr-Input-Color-Space: rec709
# LUTr-Input-Gamut: rec709
# LUTr-Input-Transfer: rec709
# LUTr-Output-Color-Space: srgb
# LUTr-Output-Gamut: rec709
# LUTr-Output-Transfer: srgb
# LUTr-Color-Space-Confidence: assumed-display-referred
# LUTr-Domain-Normalized: true
# LUTr-Shaper: none
# LUTr-Original-Grid: 25x25x25
# LUTr-Conversion-Grid: 25x25x25
# LUTr-Conversion-Interpolation: none
# LUTr-Conversion-Method: Metadata normalization; numeric LUT samples preserved
# LUTr-Conversion-Tool: LUTr scripts/convert-all-to-cube.mjs 2.0.0
# LUTr-Conversion-Date: 2026-07-28
# LUTr-Asset-URL: https://freshluts.com/luts/936
# LUTr-Author: MarcR.
# LUTr-Author-URL: https://freshluts.com/users/86490
# LUTr-Attribution: MarcR. via Fresh LUTs
# LUTr-Source-Labels: gamma=Other; color=None; key=Neutral; style=Film emulation; LUTr assumption=input Rec.709 per repository policy
# LUTr-Duplicate-Assets: 937:https://freshluts.com/luts/937
# LUTr-Conversion-Warning: Input Rec.709 is a LUTr catalog assumption requested for this otherwise unspecified Fresh LUT; it is not verified by the upstream asset.
# LUTr-Note: Preserve this metadata and the upstream license notices when redistributing.
# LUTr-Upstream-Comment: Generated with IWLTBAP LUT Generator
# LUTr-Upstream-Comment: Website: http://luts.iwltbap.com
# LUTr-Upstream-Comment: LUT size
# LUTr-Upstream-Comment: LUT data points
TITLE "PictureFX Infrared Color/B&W 3DL - white trees and blue sky at 30% up to 70/75%"
LUT_3D_SIZE 25
DOMAIN_MIN 0 0 0
DOMAIN_MAX 1 1 1
0 0 0
0.094118 0.094118 0.094118
0.168627 0.168627 0.168627
0.243137 0.243137 0.243137
0.317647 0.317647 0.317647
0.392157 0.392157 0.392157
0.466667 0.466667 0.466667
0.541176 0.541176 0.541176
0.615686 0.615686 0.615686
0.690196 0.690196 0.690196
0.764706 0.764706 0.764706
0.839216 0.839216 0.839216
0.913725 0.913725 0.913725
0.952941 0.952941 0.952941
0.956863 0.956863 0.956863
0.960784 0.960784 0.960784
0.968627 0.968627 0.968627
0.972549 0.972549 0.972549
0.976471 0.976471 0.976471
0.984314 0.984314 0.984314
0.984314 0.984314 0.984314
0.984314 0.984314 0.984314
0.984314 0.984314 0.984314
0.984314 0.984314 0.984314
0.984314 0.984314 0.984314
0.023529 0.023529 0.023529
0.164706 0.164706 0.164706
0.156863 0.156863 0.156863
0.231373 0.231373 0.231373
0.309804 0.309804 0.309804
0.384314 0.384314 0.384314
0.462745 0.462745 0.462745
0.537255 0.537255 0.537255
0.611765 0.611765 0.611765
0.686275 0.686275 0.686275
0.760784 0.760784 0.760784
0.835294 0.835294 0.835294
0.909804 0.909804 0.909804
0.94902 0.94902 0.94902
0.956863 0.956863 0.956863
0.960784 0.960784 0.960784
0.964706 0.964706 0.964706
0.972549 0.972549 0.972549
0.976471 0.976471 0.976471
0.984314 0.984314 0.984314
0.984314 0.984314 0.984314
0.984314 0.984314 0.984314
0.984314 0.984314 0.984314
0.984314 0.984314 0.984314
0.984314 0.984314 0.984314
0.07451 0.07451 0.07451
0.207843 0.207843 0.207843
0.364706 0.364706 0.364706
0.415686 0.415686 0.415686
0.298039 0.298039 0.298039
0.376471 0.376471 0.376471
0.454902 0.454902 0.454902
0.529412 0.529412 0.529412
0.607843 0.607843 0.607843
0.682353 0.682353 0.682353
0.756863 0.756863 0.756863
0.831373 0.831373 0.831373
0.905882 0.905882 0.905882
0.945098 0.945098 0.945098
0.952941 0.952941 0.952941
0.956863 0.956863 0.956863
0.964706 0.964706 0.964706
0.968627 0.968627 0.968627
0.976471 0.976471 0.976471
0.984314 0.984314 0.984314
0.984314 0.984314 0.984314
0.984314 0.984314 0.984314
0.984314 0.984314 0.984314
0.984314 0.984314 0.984314
0.984314 0.984314 0.984314
0.14902 0.14902 0.14902
0.282353 0.282353 0.282353
0.435294 0.435294 0.435294
0.501961 0.501961 0.501961
0.521569 0.521569 0.521569
0.360784 0.360784 0.360784
0.443137 0.443137 0.443137
0.521569 0.521569 0.521569
0.6 0.6 0.6
0.67451 0.67451 0.67451
0.752941 0.752941 0.752941
0.827451 0.827451 0.827451
0.901961 0.901961 0.901961
0.941176 0.941176 0.941176
0.94902 0.94902 0.94902
0.952941 0.952941 0.952941
0.960784 0.960784 0.960784
0.968627 0.968627 0.968627
0.976471 0.976471 0.976471
0.980392 0.980392 0.980392
0.984314 0.984314 0.984314
0.984314 0.984314 0.984314
0.984314 0.984314 0.984314
0.984314 0.984314 0.984314
0.984314 0.984314 0.984314
0.254902 0.254902 0.254902
0.364706 0.364706 0.364706
0.486275 0.486275 0.486275
0.607843 0.607843 0.607843
0.603922 0.603922 0.603922
0.607843 0.607843 0.607843
0.427451 0.427451 0.427451
0.509804 0.509804 0.509804
0.588235 0.588235 0.588235
0.666667 0.666667 0.666667
0.745098 0.745098 0.745098
0.819608 0.819608 0.819608
0.898039 0.898039 0.898039
0.933333 0.933333 0.933333
0.941176 0.941176 0.941176
0.94902 0.94902 0.94902
0.956863 0.956863 0.956863
0.964706 0.964706 0.964706
0.972549 0.972549 0.972549
0.980392 0.980392 0.980392
0.980392 0.980392 0.980392
0.980392 0.980392 0.980392
0.980392 0.980392 0.980392
0.980392 0.980392 0.980392
0.980392 0.980392 0.980392
0.360784 0.360784 0.360784
0.443137 0.443137 0.443137
0.541176 0.541176 0.541176
0.647059 0.647059 0.647059
0.745098 0.745098 0.745098
0.686275 0.686275 0.686275
0.690196 0.690196 0.690196
0.509804 0.509804 0.509804
0.572549 0.572549 0.572549
0.654902 0.654902 0.654902
0.733333 0.733333 0.733333
0.811765 0.811765 0.811765
0.886275 0.886275 0.886275
0.921569 0.921569 0.921569
0.933333 0.933333 0.933333
0.945098 0.945098 0.945098
0.952941 0.952941 0.952941
0.964706 0.964706 0.964706
0.972549 0.972549 0.972549
0.980392 0.980392 0.980392
0.980392 0.980392 0.980392
0.980392 0.980392 0.980392
0.980392 0.980392 0.980392
0.980392 0.980392 0.980392
0.980392 0.980392 0.980392
0.458824 0.458824 0.458824
0.517647 0.517647 0.517647
0.596078 0.596078 0.596078
0.682353 0.682353 0.682353
0.772549 0.772549 0.772549
0.827451 0.827451 0.827451
0.756863 0.756863 0.756863
0.760784 0.760784 0.760784
0.788235 0.788235 0.788235
0.639216 0.639216 0.639216
0.717647 0.717647 0.717647
0.8 0.8 0.8
0.878431 0.878431 0.878431
0.909804 0.909804 0.909804
0.92549 0.92549 0.92549
0.937255 0.937255 0.937255
0.94902 0.94902 0.94902
0.960784 0.960784 0.960784
0.968627 0.968627 0.968627
0.980392 0.980392 0.980392
0.980392 0.980392 0.980392
0.980392 0.980392 0.980392
0.980392 0.980392 0.980392
0.980392 0.980392 0.980392
0.980392 0.980392 0.980392
0.541176 0.541176 0.541176
0.584314 0.584314 0.584314
0.647059 0.647059 0.647059
0.721569 0.721569 0.721569
0.8 0.8 0.8
0.87451 0.87451 0.87451
0.878431 0.878431 0.878431
0.819608 0.819608 0.819608
0.819608 0.819608 0.819608
0.843137 0.843137 0.843137
0.701961 0.701961 0.701961
0.784314 0.784314 0.784314
0.866667 0.866667 0.866667
0.894118 0.894118 0.894118
0.913725 0.913725 0.913725
0.929412 0.929412 0.929412
0.941176 0.941176 0.941176
0.956863 0.956863 0.956863
0.968627 0.968627 0.968627
0.976471 0.976471 0.976471
0.976471 0.976471 0.976471
0.976471 0.976471 0.976471
0.976471 0.976471 0.976471
0.976471 0.976471 0.976471
0.976471 0.976471 0.976471
0.611765 0.611765 0.611765
0.647059 0.647059 0.647059
0.698039 0.698039 0.698039
0.760784 0.760784 0.760784
0.827451 0.827451 0.827451
0.898039 0.898039 0.898039
0.960784 0.960784 0.960784
0.92549 0.92549 0.92549
0.87451 0.87451 0.87451
0.870588 0.870588 0.870588
0.890196 0.890196 0.890196
0.768627 0.768627 0.768627
0.847059 0.847059 0.847059
0.878431 0.878431 0.878431
0.901961 0.901961 0.901961
0.921569 0.921569 0.921569
0.937255 0.937255 0.937255
0.94902 0.94902 0.94902
0.964706 0.964706 0.964706
0.976471 0.976471 0.976471
0.976471 0.976471 0.976471
0.976471 0.976471 0.976471
0.976471 0.976471 0.976471
0.976471 0.976471 0.976471
0.976471 0.976471 0.976471
0.67451 0.67451 0.67451
0.705882 0.705882 0.705882
0.745098 0.745098 0.745098
0.796078 0.796078 0.796078
0.858824 0.858824 0.858824
0.921569 0.921569 0.921569
0.976471 0.976471 0.976471
0.992157 0.992157 0.992157
0.960784 0.960784 0.960784
0.917647 0.917647 0.917647
0.913725 0.913725 0.913725
0.92549 0.92549 0.92549
0.843137 0.843137 0.843137
0.858824 0.858824 0.858824
0.886275 0.886275 0.886275
0.909804 0.909804 0.909804
0.929412 0.929412 0.929412
0.945098 0.945098 0.945098
0.960784 0.960784 0.960784
0.976471 0.976471 0.976471
0.976471 0.976471 0.976471
0.976471 0.976471 0.976471
0.976471 0.976471 0.976471
0.976471 0.976471 0.976471
0.976471 0.976471 0.976471
0.733333 0.733333 0.733333
0.756863 0.756863 0.756863
0.788235 0.788235 0.788235
0.835294 0.835294 0.835294
0.886275 0.886275 0.886275
0.941176 0.941176 0.941176
0.992157 0.992157 0.992157
0.992157 0.992157 0.992157
0.992157 0.992157 0.992157
0.992157 0.992157 0.992157
0.952941 0.952941 0.952941
0.945098 0.945098 0.945098
0.94902 0.94902 0.94902
0.937255 0.937255 0.937255
0.87451 0.87451 0.87451
0.898039 0.898039 0.898039
0.921569 0.921569 0.921569
0.941176 0.941176 0.941176
0.956863 0.956863 0.956863
0.972549 0.972549 0.972549
0.976471 0.976471 0.976471
0.976471 0.976471 0.976471
0.976471 0.976471 0.976471
0.976471 0.976471 0.976471
0.976471 0.976471 0.976471
0.784314 0.784314 0.784314
0.803922 0.803922 0.803922
0.831373 0.831373 0.831373
0.870588 0.870588 0.870588
0.913725 0.913725 0.913725
0.964706 0.964706 0.964706
0.992157 0.992157 0.992157
0.992157 0.992157 0.992157
0.992157 0.992157 0.992157
0.992157 0.992157 0.992157
0.992157 0.992157 0.992157
0.980392 0.980392 0.980392
0.956863 0.956863 0.956863
0.937255 0.937255 0.937255
0.933333 0.933333 0.933333
0.937255 0.937255 0.937255
0.913725 0.913725 0.913725
0.937255 0.937255 0.937255
0.956863 0.956863 0.956863
0.972549 0.972549 0.972549
0.976471 0.976471 0.976471
0.976471 0.976471 0.976471
0.976471 0.976471 0.976471
0.976471 0.976471 0.976471
0.976471 0.976471 0.976471
0.831373 0.831373 0.831373
0.847059 0.847059 0.847059
0.870588 0.870588 0.870588
0.901961 0.901961 0.901961
0.945098 0.945098 0.945098
0.988235 0.988235 0.988235
0.992157 0.992157 0.992157
0.992157 0.992157 0.992157
0.992157 0.992157 0.992157
0.992157 0.992157 0.992157
0.992157 0.992157 0.992157
0.992157 0.992157 0.992157
0.976471 0.976471 0.976471
0.937255 0.937255 0.937255
0.929412 0.929412 0.929412
0.933333 0.933333 0.933333
0.941176 0.941176 0.941176
0.933333 0.933333 0.933333
0.952941 0.952941 0.952941
0.972549 0.972549 0.972549
0.976471 0.976471 0.976471
0.976471 0.976471 0.976471
0.976471 0.976471 0.976471
0.976471 0.976471 0.976471
0.976471 0.976471 0.976471
0.87451 0.87451 0.87451
0.886275 0.886275 0.886275
0.905882 0.905882 0.905882
0.937255 0.937255 0.937255
0.972549 0.972549 0.972549
0.992157 0.992157 0.992157
0.992157 0.992157 0.992157
0.992157 0.992157 0.992157
0.992157 0.992157 0.992157
0.992157 0.992157 0.992157
0.992157 0.992157 0.992157
0.992157 0.992157 0.992157
0.992157 0.992157 0.992157
0.952941 0.952941 0.952941
0.929412 0.929412 0.929412
0.929412 0.929412 0.929412
0.937255 0.937255 0.937255
0.94902 0.94902 0.94902
0.960784 0.960784 0.960784
0.976471 0.976471 0.976471
0.976471 0.976471 0.976471
0.976471 0.976471 0.976471
0.976471 0.976471 0.976471
0.976471 0.976471 0.976471
0.976471 0.976471 0.976471
0.913725 0.913725 0.913725
0.92549 0.92549 0.92549
0.941176 0.941176 0.941176
0.964706 0.964706 0.964706
0.992157 0.992157 0.992157
0.992157 0.992157 0.992157
0.992157 0.992157 0.992157
0.992157 0.992157 0.992157
0.992157 0.992157 0.992157
0.992157 0.992157 0.992157
0.992157 0.992157 0.992157
0.992157 0.992157 0.992157
0.992157 0.992157 0.992157
0.984314 0.984314 0.984314
0.937255 0.937255 0.937255
0.92549 0.92549 0.92549
0.933333 0.933333 0.933333
0.945098 0.945098 0.945098
0.960784 0.960784 0.960784
0.980392 0.980392 0.980392
0.980392 0.980392 0.980392
0.980392 0.980392 0.980392
0.980392 0.980392 0.980392
0.980392 0.980392 0.980392
0.980392 0.980392 0.980392
0.94902 0.94902 0.94902
0.960784 0.960784 0.960784
0.972549 0.972549 0.972549
0.992157 0.992157 0.992157
0.992157 0.992157 0.992157
0.992157 0.992157 0.992157
0.992157 0.992157 0.992157
0.992157 0.992157 0.992157
0.992157 0.992157 0.992157
0.992157 0.992157 0.992157
0.992157 0.992157 0.992157
0.992157 0.992157 0.992157
0.992157 0.992157 0.992157
0.992157 0.992157 0.992157
0.960784 0.960784 0.960784
0.92549 0.92549 0.92549
0.933333 0.933333 0.933333
0.945098 0.945098 0.945098
0.960784 0.960784 0.960784
0.980392 0.980392 0.980392
0.984314 0.984314 0.984314
0.984314 0.984314 0.984314
0.984314 0.984314 0.984314
0.984314 0.984314 0.984314
0.984314 0.984314 0.984314
0.984314 0.984314 0.984314
0.992157 0.992157 0.992157
0.992157 0.992157 0.992157
0.992157 0.992157 0.992157
0.992157 0.992157 0.992157
0.992157 0.992157 0.992157
0.992157 0.992157 0.992157
0.992157 0.992157 0.992157
0.992157 0.992157 0.992157
0.992157 0.992157 0.992157
0.992157 0.992157 0.992157
0.992157 0.992157 0.992157
0.992157 0.992157 0.992157
0.992157 0.992157 0.992157
0.992157 0.992157 0.992157
0.945098 0.945098 0.945098
0.92549 0.92549 0.92549
0.945098 0.945098 0.945098
0.964706 0.964706 0.964706
0.984314 0.984314 0.984314
0.988235 0.988235 0.988235
0.988235 0.988235 0.988235
0.988235 0.988235 0.988235
0.988235 0.988235 0.988235
0.988235 0.988235 0.988235
0.992157 0.992157 0.992157
0.992157 0.992157 0.992157
0.992157 0.992157 0.992157
0.992157 0.992157 0.992157
0.992157 0.992157 0.992157
0.992157 0.992157 0.992157
0.992157 0.992157 0.992157
0.992157 0.992157 0.992157
0.992157 0.992157 0.992157
0.992157 0.992157 0.992157
0.992157 0.992157 0.992157
0.992157 0.992157 0.992157
0.992157 0.992157 0.992157
0.992157 0.992157 0.992157
0.992157 0.992157 0.992157
0.984314 0.984314 0.984314
0.929412 0.929412 0.929412
0.929412 0.929412 0.929412
0.968627 0.968627 0.968627
0.992157 0.992157 0.992157
0.992157 0.992157 0.992157
0.992157 0.992157 0.992157
0.992157 0.992157 0.992157
0.992157 0.992157 0.992157
0.992157 0.992157 0.992157
0.992157 0.992157 0.992157
0.992157 0.992157 0.992157
0.992157 0.992157 0.992157
0.992157 0.992157 0.992157
0.992157 0.992157 0.992157
0.992157 0.992157 0.992157
0.992157 0.992157 0.992157
0.992157 0.992157 0.992157
0.992157 0.992157 0.992157
0.992157 0.992157 0.992157
0.992157 0.992157 0.992157
0.992157 0.992157 0.992157
0.992157 0.992157 0.992157
0.992157 0.992157 0.992157
0.992157 0.992157 0.992157
0.992157 0.992157 0.992157
0.960784 0.960784 0.960784
0.92549 0.92549 0.92549
0.941176 0.941176 0.941176
0.996078 0.996078 0.996078
1 1 1
1 1 1
1 1 1
1 1 1
1 1 1
0.992157 0.992157 0.992157
0.992157 0.992157 0.992157
0.992157 0.992157 0.992157
0.992157 0.992157 0.992157
0.992157 0.992157 0.992157
0.992157 0.992157 0.992157
0.992157 0.992157 0.992157
0.992157 0.992157 0.992157
0.992157 0.992157 0.992157
0.992157 0.992157 0.992157
0.992157 0.992157 0.992157
0.992157 0.992157 0.992157
0.992157 0.992157 0.992157
0.992157 0.992157 0.992157
0.992157 0.992157 0.992157
0.992157 0.992157 0.992157
0.992157 0.992157 0.992157
0.941176 0.941176 0.941176
0.92549 0.92549 0.92549
0.960784 0.960784 0.960784
0.964706 0.964706 0.964706
0.964706 0.964706 0.964706
0.964706 0.964706 0.964706
0.964706 0.964706 0.964706
0.964706 0.964706 0.964706
0.992157 0.992157 0.992157
0.992157 0.992157 0.992157
0.992157 0.992157 0.992157
0.992157 0.992157 0.992157
0.992157 0.992157 0.992157
0.992157 0.992157 0.992157
0.992157 0.992157 0.992157
0.992157 0.992157 0.992157
0.992157 0.992157 0.992157
0.992157 0.992157 0.992157
0.992157 0.992157 0.992157
0.992157 0.992157 0.992157
0.992157 0.992157 0.992157
0.992157 0.992157 0.992157
0.992157 0.992157 0.992157
0.992157 0.992157 0.992157
0.992157 0.992157 0.992157
0.992157 0.992157 0.992157
0.929412 0.929412 0.929412
0.933333 0.933333 0.933333
0.937255 0.937255 0.937255
0.937255 0.937255 0.937255
0.937255 0.937255 0.937255
0.937255 0.937255 0.937255
0.937255 0.937255 0.937255
0.992157 0.992157 0.992157
0.992157 0.992157 0.992157
0.992157 0.992157 0.992157
0.992157 0.992157 0.992157
0.992157 0.992157 0.992157
0.992157 0.992157 0.992157
0.992157 0.992157 0.992157
0.992157 0.992157 0.992157
0.992157 0.992157 0.992157
0.992157 0.992157 0.992157
0.992157 0.992157 0.992157
0.992157 0.992157 0.992157
0.992157 0.992157 0.992157
0.992157 0.992157 0.992157
0.992157 0.992157 0.992157
0.992157 0.992157 0.992157
0.992157 0.992157 0.992157
0.992157 0.992157 0.992157
0.968627 0.968627 0.968627
0.921569 0.921569 0.921569
0.921569 0.921569 0.921569
0.921569 0.921569 0.921569
0.921569 0.921569 0.921569
0.921569 0.921569 0.921569
0.921569 0.921569 0.921569
0.992157 0.992157 0.992157
0.992157 0.992157 0.992157
0.992157 0.992157 0.992157
0.992157 0.992157 0.992157
0.992157 0.992157 0.992157
0.992157 0.992157 0.992157
0.992157 0.992157 0.992157
0.992157 0.992157 0.992157
0.992157 0.992157 0.992157
0.992157 0.992157 0.992157
0.992157 0.992157 0.992157
0.992157 0.992157 0.992157
0.992157 0.992157 0.992157
0.992157 0.992157 0.992157
0.992157 0.992157 0.992157
0.992157 0.992157 0.992157
0.992157 0.992157 0.992157
0.992157 0.992157 0.992157
0.992157 0.992157 0.992157
0.94902 0.94902 0.94902
0.941176 0.941176 0.941176
0.941176 0.941176 0.941176
0.941176 0.941176 0.941176
0.941176 0.941176 0.941176
0.941176 0.941176 0.941176
0.992157 0.992157 0.992157
0.992157 0.992157 0.992157
0.992157 0.992157 0.992157
0.992157 0.992157 0.992157
0.992157 0.992157 0.992157
0.992157 0.992157 0.992157
0.992157 0.992157 0.992157
0.992157 0.992157 0.992157
0.992157 0.992157 0.992157
0.992157 0.992157 0.992157
0.992157 0.992157 0.992157
0.992157 0.992157 0.992157
0.992157 0.992157 0.992157
0.992157 0.992157 0.992157
0.992157 0.992157 0.992157
0.992157 0.992157 0.992157
0.992157 0.992157 0.992157
0.992157 0.992157 0.992157
0.992157 0.992157 0.992157
0.992157 0.992157 0.992157
0.992157 0.992157 0.992157
0.992157 0.992157 0.992157
0.992157 0.992157 0.992157
0.992157 0.992157 0.992157
0.992157 0.992157 0.992157
0.992157 0.992157 0.992157
0.992157 0.992157 0.992157
0.992157 0.992157 0.992157
0.992157 0.992157 0.992157
0.992157 0.992157 0.992157
0.992157 0.992157 0.992157
0.992157 0.992157 0.992157
0.992157 0.992157 0.992157
0.992157 0.992157 0.992157
0.992157 0.992157 0.992157
0.992157 0.992157 0.992157
0.992157 0.992157 0.992157
0.992157 0.992157 0.992157
0.992157 0.992157 0.992157
0.992157 0.992157 0.992157
0.992157 0.992157 0.992157
0.992157 0.992157 0.992157
0.992157 0.992157 0.992157
0.992157 0.992157 0.992157
0.992157 0.992157 0.992157
0.992157 0.992157 0.992157
0.992157 0.992157 0.992157
0.992157 0.992157 0.992157
0.992157 0.992157 0.992157
0.992157 0.992157 0.992157
0.023529 0.023529 0.023529
0.094118 0.094118 0.094118
0.168627 0.168627 0.168627
0.243137 0.243137 0.243137
0.317647 0.317647 0.317647
0.392157 0.392157 0.392157
0.466667 0.466667 0.466667
0.541176 0.541176 0.541176
0.615686 0.615686 0.615686
0.690196 0.690196 0.690196
0.764706 0.764706 0.764706
0.839216 0.839216 0.839216
0.913725 0.913725 0.913725
0.956863 0.956863 0.956863
0.960784 0.960784 0.960784
0.964706 0.964706 0.964706
0.968627 0.968627 0.968627
0.972549 0.972549 0.972549
0.980392 0.980392 0.980392
0.984314 0.984314 0.984314
0.984314 0.984314 0.984314
0.984314 0.984314 0.984314
0.984314 0.984314 0.984314
0.984314 0.984314 0.984314
0.984314 0.984314 0.984314
0 0 0
0.058824 0.058824 0.058824
0.14902 0.14902 0.14902
0.231373 0.231373 0.231373
0.309804 0.309804 0.309804
0.384314 0.384314 0.384314
0.458824 0.458824 0.458824
0.537255 0.537255 0.537255
0.611765 0.611765 0.611765
0.686275 0.686275 0.686275
0.760784 0.760784 0.760784
0.835294 0.835294 0.835294
0.909804 0.909804 0.909804
0.952941 0.952941 0.952941
0.956863 0.956863 0.956863
0.960784 0.960784 0.960784
0.968627 0.968627 0.968627
0.972549 0.972549 0.972549
0.976471 0.976471 0.976471
0.984314 0.984314 0.984314
0.984314 0.984314 0.984314
0.984314 0.984314 0.984314
0.984314 0.984314 0.984314
0.984314 0.984314 0.984314
0.984314 0.984314 0.984314
0 0 0
0.086275 0.086275 0.086275
0.278431 0.278431 0.278431
0.352941 0.352941 0.352941
0.298039 0.298039 0.298039
0.376471 0.376471 0.376471
0.454902 0.454902 0.454902
0.529412 0.529412 0.529412
0.607843 0.607843 0.607843
0.682353 0.682353 0.682353
0.756863 0.756863 0.756863
0.831373 0.831373 0.831373
0.905882 0.905882 0.905882
0.94902 0.94902 0.94902
0.952941 0.952941 0.952941
0.960784 0.960784 0.960784
0.964706 0.964706 0.964706
0.972549 0.972549 0.972549
0.976471 0.976471 0.976471
0.984314 0.984314 0.984314
0.984314 0.984314 0.984314
0.984314 0.984314 0.984314
0.984314 0.984314 0.984314
0.984314 0.984314 0.984314
0.984314 0.984314 0.984314
0.027451 0.027451 0.027451
0.164706 0.164706 0.164706
0.352941 0.352941 0.352941
0.443137 0.443137 0.443137
0.478431 0.478431 0.478431
0.360784 0.360784 0.360784
0.443137 0.443137 0.443137
0.521569 0.521569 0.521569
0.6 0.6 0.6
0.67451 0.67451 0.67451
0.752941 0.752941 0.752941
0.827451 0.827451 0.827451
0.901961 0.901961 0.901961
0.941176 0.941176 0.941176
0.94902 0.94902 0.94902
0.956863 0.956863 0.956863
0.960784 0.960784 0.960784
0.968627 0.968627 0.968627
0.976471 0.976471 0.976471
0.984314 0.984314 0.984314
0.984314 0.984314 0.984314
0.984314 0.984314 0.984314
0.984314 0.984314 0.984314
0.984314 0.984314 0.984314
0.984314 0.984314 0.984314
0.129412 0.129412 0.129412
0.262745 0.262745 0.262745
0.419608 0.419608 0.419608
0.568627 0.568627 0.568627
0.560784 0.560784 0.560784
0.580392 0.580392 0.580392
0.427451 0.427451 0.427451
0.509804 0.509804 0.509804
0.588235 0.588235 0.588235
0.666667 0.666667 0.666667
0.745098 0.745098 0.745098
0.819608 0.819608 0.819608
0.898039 0.898039 0.898039
0.933333 0.933333 0.933333
0.945098 0.945098 0.945098
0.952941 0.952941 0.952941
0.960784 0.960784 0.960784
0.968627 0.968627 0.968627
0.972549 0.972549 0.972549
0.980392 0.980392 0.980392
0.980392 0.980392 0.980392
0.980392 0.980392 0.980392
0.980392 0.980392 0.980392
0.980392 0.980392 0.980392
0.980392 0.980392 0.980392
0.258824 0.258824 0.258824
0.364706 0.364706 0.364706
0.486275 0.486275 0.486275
0.607843 0.607843 0.607843
0.72549 0.72549 0.72549
0.658824 0.658824 0.658824
0.670588 0.670588 0.670588
0.509804 0.509804 0.509804
0.572549 0.572549 0.572549
0.654902 0.654902 0.654902
0.733333 0.733333 0.733333
0.811765 0.811765 0.811765
0.886275 0.886275 0.886275
0.92549 0.92549 0.92549
0.937255 0.937255 0.937255
0.945098 0.945098 0.945098
0.956863 0.956863 0.956863
0.964706 0.964706 0.964706
0.972549 0.972549 0.972549
0.980392 0.980392 0.980392
0.980392 0.980392 0.980392
0.980392 0.980392 0.980392
0.980392 0.980392 0.980392
0.980392 0.980392 0.980392
0.980392 0.980392 0.980392
0.384314 0.384314 0.384314
0.458824 0.458824 0.458824
0.54902 0.54902 0.54902
0.65098 0.65098 0.65098
0.74902 0.74902 0.74902
0.8 0.8 0.8
0.737255 0.737255 0.737255
0.745098 0.745098 0.745098
0.780392 0.780392 0.780392
0.639216 0.639216 0.639216
0.717647 0.717647 0.717647
0.8 0.8 0.8
0.878431 0.878431 0.878431
0.913725 0.913725 0.913725
0.92549 0.92549 0.92549
0.937255 0.937255 0.937255
0.94902 0.94902 0.94902
0.960784 0.960784 0.960784
0.968627 0.968627 0.968627
0.980392 0.980392 0.980392
0.980392 0.980392 0.980392
0.980392 0.980392 0.980392
0.980392 0.980392 0.980392
0.980392 0.980392 0.980392
0.980392 0.980392 0.980392
0.482353 0.482353 0.482353
0.537255 0.537255 0.537255
0.607843 0.607843 0.607843
0.694118 0.694118 0.694118
0.780392 0.780392 0.780392
0.862745 0.862745 0.862745
0.858824 0.858824 0.858824
0.803922 0.803922 0.803922
0.807843 0.807843 0.807843
0.835294 0.835294 0.835294
0.701961 0.701961 0.701961
0.784314 0.784314 0.784314
0.866667 0.866667 0.866667
0.898039 0.898039 0.898039
0.913725 0.913725 0.913725
