site/assets/luts/freshluts--0001222-color-vegas.cube
# LUTr-Schema-Version: 2
# LUTr-ID: freshluts--0001222-color-vegas
# LUTr-Title: COLOR VEGAS
# LUTr-Collection: Fresh LUTs
# LUTr-Collection-ID: freshluts-community
# LUTr-Source: https://freshluts.com
# LUTr-Retrieved: 2026-07-27
# LUTr-Source-File: submissions-raw/freshluts/cubes/1222__VEGAS_COLOR.cube
# LUTr-Source-Format: CUBE
# LUTr-Source-SHA256: 31931c4f9bed71a513d0dd7e1697e2f393ed3e3045df4ff1365cf7ea9d78497a
# LUTr-License: CC0-1.0
# LUTr-License-URL: https://freshluts.com/termsandconditions
# LUTr-License-Basis: site-terms
# LUTr-Transform-Class: creative-look
# LUTr-Tags: creative, freshluts, community, cube, film-emulation, blue, sony-s-log3
# LUTr-Input-Color-Space:
# LUTr-Input-Gamut: sony-s-gamut3
# LUTr-Input-Transfer: sony-s-log3
# LUTr-Output-Color-Space: srgb
# LUTr-Output-Gamut: rec709
# LUTr-Output-Transfer: srgb
# LUTr-Color-Space-Confidence: camera-profile-input-required
# LUTr-Domain-Normalized: true
# LUTr-Shaper: none
# LUTr-Original-Grid: 33x33x33
# LUTr-Conversion-Grid: 33x33x33
# LUTr-Conversion-Interpolation: none
# LUTr-Conversion-Method: Metadata normalization; numeric LUT samples preserved
# LUTr-Conversion-Tool: LUTr scripts/convert-all-to-cube.mjs 2.0.0
# LUTr-Conversion-Date: 2026-07-28
# LUTr-Asset-URL: https://freshluts.com/luts/1222
# LUTr-Author: Antony Eliezer
# LUTr-Author-URL: https://freshluts.com/users/32961
# LUTr-Attribution: Antony Eliezer via Fresh LUTs
# LUTr-Source-Labels: gamma=Sony S-Log 3; color=Blue; key=Neutral; style=Film emulation
# LUTr-Note: Preserve this metadata and the upstream license notices when redistributing.
# LUTr-Upstream-Comment: VEGAS Pro LUT
TITLE "COLOR VEGAS"
LUT_3D_SIZE 9
DOMAIN_MIN 0 0 0
DOMAIN_MAX 1 1 1
0.02464357 0.02746977 0.03134248
0.04052653 0.03300491 0.03728237
0.07495502 0.04282978 0.0442568
0.15532032 0.06132401 0.04541821
0.27254611 0.07431548 0.02855692
0.39502344 0.07709876 0.01647307
0.51984954 0.0644046 0.01911147
0.61110175 0.0388405 0.02476014
0.68590903 0.04396218 0.0324143
0.02674443 0.04366336 0.04040964
0.04763647 0.05225897 0.04593781
0.10615921 0.07121655 0.05226227
0.21313353 0.09216415 0.04662572
0.33619067 0.10357507 0.01792835
0.46926987 0.1079661 0.01953799
0.58475351 0.10108545 0.02272443
0.66563833 0.09760015 0.02754508
0.7326299 0.12253429 0.03655721
0.02737997 0.0674172 0.05324177
0.04616481 0.07468541 0.05600505
0.13063319 0.10928235 0.06136328
0.28971723 0.15179859 0.04236756
0.43433166 0.16851901 0.02138988
0.56389308 0.17770305 0.02358515
0.66547638 0.18295838 0.02639082
0.73273712 0.19470502 0.03040918
0.79087734 0.22429346 0.04059057
0.01464345 0.10388165 0.07392067
0.03518368 0.11706477 0.07726333
0.14058305 0.16469891 0.08099178
0.35473803 0.2383372 0.03265856
0.5331552 0.2815139 0.02671912
0.66766793 0.30511323 0.02853644
0.7547887 0.31489161 0.03053648
0.80801713 0.32592997 0.03290937
0.86169988 0.35811001 0.04472965
0.01980158 0.1634329 0.1076913
0.03658525 0.18803479 0.11338396
0.0870637 0.2375088 0.11065267
0.40735716 0.35371178 0.03785476
0.61604226 0.41818315 0.03370413
0.74769342 0.45763329 0.03323387
0.83736199 0.48118475 0.03445772
0.88957655 0.49710694 0.0405223
0.93243957 0.52315503 0.04924546
0.02798435 0.24569291 0.15647897
0.04613806 0.28393891 0.17439307
0.07098544 0.35127693 0.17961626
0.35233286 0.44668612 0.12902708
0.68681258 0.57412237 0.04560287
0.81983876 0.6164149 0.03990505
0.90424961 0.64923596 0.03909109
0.95367944 0.670277 0.04912165
0.98484892 0.69022512 0.05833694
0.03776988 0.34813437 0.2224424
0.05562256 0.4002035 0.24688552
0.08781894 0.4821322 0.265118
0.3248049 0.56160057 0.254536
0.68837345 0.67529988 0.12378003
0.8650074 0.74698901 0.06044786
0.9488197 0.77461195 0.04665478
0.97645158 0.79174548 0.05618391
0.99204433 0.80156291 0.0644609
0.05030482 0.47084793 0.30082214
0.07419799 0.56303924 0.34618306
0.22786209 0.64249545 0.36018345
0.41474429 0.69216484 0.35343027
0.68771851 0.76652157 0.31537616
0.85805327 0.81280375 0.24126731
0.94908649 0.84083235 0.10267413
0.98005652 0.85055935 0.07240742
0.99361986 0.85716844 0.0780736
0.07089201 0.6235438 0.40185261
0.1185132 0.69834727 0.42526194
0.45070869 0.77062243 0.44333717
0.60900736 0.80870503 0.44003075
0.73501325 0.83930051 0.42644849
0.86231548 0.86975664 0.40492579
0.94388074 0.89029497 0.37483042
0.98219228 0.89805084 0.33999959
0.99490219 0.89760947 0.31801292
0.02438778 0.02933241 0.0417714
0.0395006 0.03424705 0.04832098
0.07640341 0.0470463 0.05684893
0.17200629 0.07023638 0.06036635
0.29056892 0.08247478 0.04994673
0.41745779 0.08031005 0.02872199
0.53740281 0.05849935 0.0322643
0.62487191 0.04495192 0.03715008
0.69599825 0.05290034 0.04708939
0.0266371 0.04621424 0.05247383
0.04510661 0.05439819 0.05940837
0.10335529 0.07566553 0.06917001
0.23090491 0.10219043 0.06832168
0.35659099 0.11228389 0.04612505
0.49222681 0.11539835 0.0337084
0.60094446 0.1168213 0.03684036
0.6798569 0.11270922 0.04186496
0.74032056 0.12526631 0.05120755
0.02739718 0.07089621 0.06937682
0.04376011 0.07752109 0.07355936
0.12513894 0.11417356 0.0845283
0.30259278 0.16552888 0.07696056
0.45303261 0.18120706 0.04045236
0.58104497 0.19318919 0.03983521
0.67989272 0.20001683 0.04228156
0.74438697 0.20998661 0.04554817
0.79381812 0.23116042 0.06269015
0.01441254 0.11271446 0.0947771
0.02926312 0.1229419 0.09760023
0.12557812 0.16657563 0.10844674
0.36023605 0.25348264 0.07337838
0.54266113 0.30053464 0.04577328
0.68052322 0.32517919 0.04608442
0.76570684 0.33237436 0.04746634
0.81850427 0.34392381 0.04953584
0.85907066 0.36321297 0.06817483
0.0209704 0.17629483 0.14289948
0.03522174 0.19517051 0.14870313
0.06094185 0.23573825 0.15405081
0.39999446 0.36576283 0.10970508
0.61860353 0.4351379 0.05052334
0.75323582 0.47273606 0.05030073
0.84297091 0.49732429 0.0517965
0.89052361 0.51135784 0.05751363
0.92585695 0.53155917 0.07067821
0.02818976 0.25961185 0.19842763
0.04342803 0.28998896 0.21681917
0.06308834 0.3436403 0.22929864
0.32443458 0.46115574 0.23498009
0.6718508 0.57877797 0.10537513
0.8157714 0.62502772 0.05662661
0.90276963 0.65680599 0.05549747
0.94498736 0.67415243 0.06541792
0.97618067 0.6967628 0.1060641
0.03602113 0.3569327 0.26887855
0.0520739 0.40178779 0.29557866
0.07086572 0.47174188 0.32314062
0.23544927 0.55649179 0.33777031
0.6793341 0.69206268 0.30230594
0.84621662 0.74868852 0.18111226
0.94182903 0.77865207 0.06244233
0.97113979 0.79019177 0.07894704
0.99221462 0.80281842 0.16291822
0.04878442 0.47882855 0.35352665
0.06947313 0.55250543 0.39417225
0.16893496 0.64255446 0.42430738
0.39077103 0.70038784 0.43253383
0.66836351 0.77688283 0.41935086
0.85024893 0.82736164 0.39084125
0.93766749 0.8496021 0.32517636
0.97679877 0.85419768 0.25224113
0.99388111 0.86448532 0.28330779
0.06632569 0.61564749 0.44731718
0.08459065 0.68333346 0.47414908
0.37014255 0.76273954 0.50315934
0.58342385 0.81466031 0.5162729
0.71954077 0.84903681 0.51260233
0.85206354 0.88067847 0.50208455
0.93818098 0.90389413 0.48938638
0.97959298 0.91339368 0.47130471
0.99502486 0.91285193 0.44720677
0.02286026 0.03208274 0.0556417
0.03767723 0.03681857 0.06327488
0.06646636 0.04656285 0.07169204
0.16898561 0.07420556 0.07797859
0.30419022 0.09075837 0.06967959
0.43385926 0.0846459 0.04497644
0.54930484 0.06137992 0.0471454
0.63417399 0.05073103 0.06181712
0.7011587 0.05282162 0.10280694
0.02655149 0.05117928 0.06880191
0.04196687 0.0571081 0.07504896
0.07797582 0.07261442 0.0844246
0.22252879 0.10849532 0.09331098
0.37478182 0.12903777 0.07915229
0.50734049 0.13165584 0.0586311
0.61460084 0.124876 0.06367563
0.68772817 0.11847252 0.07305484
0.74592477 0.13525487 0.12707369
0.02475955 0.07519364 0.08581727
0.04489773 0.08453025 0.09457633
0.10123386 0.11124349 0.10884371
0.29156587 0.17497061 0.13335888
0.4663935 0.19856881 0.10787237
0.59805948 0.20789708 0.09374993
0.69000399 0.21431851 0.09083154
0.74920726 0.22376429 0.09858602
0.8011381 0.25794336 0.16746698
0.0162376 0.12145271 0.12677096
0.0281271 0.13426815 0.13803741
0.07067857 0.16102925 0.14886415
0.34366649 0.27151105 0.18063712
0.54428309 0.31706211 0.14851928
0.68619412 0.33822116 0.12013725
0.7681157 0.34837812 0.11082498
0.81886017 0.35636419 0.11660676
0.86400771 0.38759202 0.20787315
0.0236687 0.19420746 0.19111755
0.03586556 0.21494986 0.20298675
0.05138073 0.24252261 0.20878488
0.35357976 0.37896374 0.24707922
0.6109032 0.45848277 0.22040384
0.74946761 0.48776796 0.11723934
0.83770353 0.50816697 0.10102555
0.88683993 0.52887565 0.17150734
0.9252699 0.55219495 0.25473371
0.03012034 0.28280514 0.26141635
0.04310679 0.31030864 0.28158334
0.05889748 0.34851995 0.29600838
0.240905 0.45753998 0.32621631
0.65035278 0.6021713 0.32347938
0.80148339 0.64240861 0.26197848
0.89036822 0.65719563 0.08521708
0.93528944 0.68179792 0.20646933
0.97169507 0.71011448 0.31712943
0.03664776 0.37991536 0.3359834
0.05578169 0.4344143 0.36893496
0.0810736 0.51261485 0.40364736
0.26264289 0.58174896 0.41688538
0.65462399 0.70430565 0.42535156
0.83412176 0.76727986 0.39933702
0.92026043 0.78791696 0.3181152
0.96231735 0.79897696 0.28671774
0.99171507 0.81875676 0.36827338
0.0487285 0.4923377 0.41120932
0.06624237 0.55248898 0.44504273
0.10886446 0.63569772 0.47934175
0.39769542 0.7135272 0.50136065
0.64294249 0.78547233 0.50991565
0.83616376 0.83994931 0.50502455
0.92858994 0.86606216 0.47748169
0.97369015 0.87053019 0.41527754
0.99368799 0.88113201 0.43234977
0.06183002 0.60788608 0.48792893
0.07825676 0.66844255 0.51837552
0.21845552 0.74615145 0.54839891
0.54872549 0.81665552 0.58366394
0.69972515 0.85554439 0.58951592
0.83566219 0.88893384 0.59116501
0.93084824 0.91440988 0.58705324
0.97530913 0.92470372 0.5649904
0.99501479 0.9265402 0.55374891
0.02353503 0.0381674 0.07411309
0.03447025 0.04128915 0.07950112
0.06107062 0.05027399 0.09034569
0.13524066 0.06857458 0.10141275
0.29198256 0.09735408 0.1137196
0.44218624 0.0894532 0.09577376
0.55666643 0.06103743 0.10234799
0.64195782 0.05812137 0.12530835
0.7085703 0.06883252 0.17293514
0.02480092 0.05815744 0.08873139
0.03740024 0.06231315 0.09451912
0.06667748 0.07507522 0.11121283
0.16352414 0.10078652 0.12918778
0.35261589 0.14443985 0.15274572
0.51644224 0.14853674 0.13692543
0.62458247 0.14703359 0.14102472
0.69737011 0.14447425 0.15553217
0.75718248 0.17909814 0.21914992
0.01333878 0.08364064 0.11509623
0.02869366 0.09112176 0.12609735
0.06161102 0.11133865 0.14474252
0.21342754 0.16535413 0.18121126
0.43852764 0.22390643 0.21650176
0.60420376 0.24235535 0.20739768
0.7037099 0.24892914 0.18676451
0.76283425 0.26242802 0.20070176
0.81048042 0.292851 0.2636444
0.01812755 0.13124 0.16537963
0.02950157 0.14439379 0.18106954
0.06343397 0.17780146 0.20720036
0.27576116 0.26834378 0.26020783
0.52547443 0.35871992 0.31417459
0.69336611 0.39024162 0.31352511
0.78067571 0.38084972 0.23456539
0.82914978 0.3922874 0.25817335
0.87112802 0.42190546 0.32478496
0.02595902 0.207073 0.24221507
0.0379272 0.23421504 0.26775333
0.05977862 0.2852844 0.30216518
0.27288294 0.37065661 0.33572295
0.57739079 0.48524654 0.38190266
0.75150156 0.54728341 0.39214301
0.84517407 0.55351347 0.34841958
0.89069521 0.55982637 0.3317025
0.92786962 0.58013231 0.38489848
0.03663182 0.31170169 0.33774772
0.05125574 0.34921673 0.36439651
0.06999601 0.40813401 0.39316568
0.2227025 0.47847757 0.41212067
0.61047673 0.61535162 0.45570314
0.7897101 0.67639029 0.45542201
0.8881169 0.70466799 0.43287882
0.93442887 0.70419544 0.39023146
0.96968013 0.73090386 0.45110372
0.04544612 0.42433155 0.42006266
0.0604131 0.46886611 0.44472802
0.07813586 0.52830517 0.46924216
0.2802439 0.60275614 0.49079674
0.60912287 0.70875967 0.52440691
0.81947273 0.78418207 0.52769339
0.91210675 0.81492817 0.50592393
0.9595474 0.81873065 0.44393477
0.98946744 0.83752775 0.49725378
0.05157046 0.51746821 0.47976729
0.06607983 0.56533325 0.50270903
0.08441813 0.63200986 0.53234178
0.3802186 0.71917421 0.56672406
0.60479182 0.78589827 0.58657724
0.8146795 0.84864873 0.60127014
0.91991568 0.8801918 0.59332597
0.96782666 0.88792133 0.5520851
0.99345046 0.89739954 0.55643034
0.05806584 0.60208929 0.52981508
0.07291406 0.65682679 0.56012899
0.10139159 0.72471076 0.58986104
0.47299528 0.80664307 0.63288647
0.67195374 0.85721636 0.65577084
0.81020755 0.89289826 0.66646755
0.92054272 0.92335862 0.6789844
0.97054964 0.9349944 0.65835238
0.99300206 0.93812788 0.65009934
0.02237574 0.04567165 0.0998655
0.03270501 0.04847817 0.1083902
0.05259717 0.05496996 0.12094527
0.11592624 0.07351162 0.14512147
0.25372219 0.09612659 0.15908626
0.42791018 0.12515751 0.2014903
0.57407635 0.11228194 0.20812741
0.64829457 0.08240635 0.18702072
0.71671736 0.1019937 0.24116696
0.01289958 0.06632765 0.12285127
0.02282213 0.07137931 0.13199659
0.04978079 0.07884452 0.14597078
0.1345724 0.10541231 0.17634508
0.3058897 0.14652453 0.20689754
0.5043934 0.19228527 0.26519635
0.6460585 0.20181386 0.27395386
0.70992923 0.18575968 0.23702063
0.76650828 0.21753947 0.29964358
0.01239644 0.09330022 0.15493658
0.02273653 0.10307644 0.16911174
0.03887364 0.11969757 0.19071589
0.15774465 0.1647675 0.23425269
0.36463174 0.22956091 0.2871896
0.58224648 0.29554027 0.34275579
0.72168577 0.32250664 0.35721797
0.77274424 0.2995562 0.29556918
0.81963372 0.33278537 0.35940817
0.0195079 0.14219008 0.21143857
0.03058666 0.15777196 0.23402256
0.0498969 0.19048335 0.26932749
0.17842488 0.25734586 0.31693554
0.44252652 0.362414 0.3912456
0.66710496 0.43268833 0.43759996
0.79202884 0.46256137 0.4494679
0.8362596 0.43340185 0.38101247
0.87313873 0.45502448 0.42073247
0.02778907 0.21988827 0.2972073
0.03987379 0.25007531 0.32820743
0.06308436 0.3112008 0.37535766
0.2023887 0.38094118 0.41208696
0.51651335 0.49301037 0.47281873
0.73022771 0.57987279 0.51644909
0.84774882 0.61572152 0.53063041
0.89305383 0.60003948 0.48014989
0.92617756 0.60618651 0.49087557
0.04388501 0.34127089 0.40973738
0.05809586 0.38595247 0.43799436
0.0753827 0.44417104 0.4706606
0.2377124 0.50785166 0.49107331
0.5398773 0.60712123 0.53470659
0.76827663 0.69154346 0.56933868
0.88261539 0.73784614 0.58668274
0.93280381 0.74306285 0.5632785
0.96569479 0.74827737 0.562181
0.05260111 0.46163821 0.49460682
0.06583614 0.50431234 0.51841408
0.08137233 0.55500156 0.53968835
0.2647832 0.6192922 0.55907744
0.53504592 0.69655663 0.58998024
0.78629225 0.78710598 0.62270439
0.90164441 0.82987618 0.62894303
0.95251268 0.84586865 0.62009114
0.98508751 0.85157043 0.60871953
0.0548112 0.54234034 0.54762346
0.06750921 0.58360368 0.56670845
0.08303078 0.6374951 0.58660209
0.26685774 0.70923799 0.61207551
0.57331175 0.78602767 0.64815503
0.77529883 0.84863114 0.67793435
0.90707314 0.88894153 0.69295633
0.96091604 0.90265244 0.67682195
0.99013668 0.90946931 0.65505409
0.05110522 0.59269226 0.5741201
0.06731129 0.64562595 0.60079205
0.08525535 0.70819825 0.62588137
0.32520932 0.78288573 0.66137969
0.64615828 0.85856622 0.71212059
0.78466886 0.89552337 0.73161936
0.90746081 0.92892694 0.75310427
0.96417212 0.9446277 0.7500205
0.9895519 0.94643039 0.73065335
0.012619 0.05367643 0.13523762
0.02052991 0.05779375 0.14409207
0.03470491 0.06048585 0.15192729
0.08296547 0.07811875 0.18639851
0.22134422 0.10490239 0.22925033
0.39519471 0.1322715 0.26510984
0.57906073 0.16787395 0.33116767
0.69225538 0.1782344 0.36434373
0.7330786 0.14727496 0.32659158
0.0083516 0.07387175 0.16122106
0.0175079 0.07880665 0.17300689
0.02927415 0.08268543 0.18365954
0.09429533 0.10998146 0.22470956
0.2589258 0.15594803 0.28126985
0.46361724 0.20053525 0.33335069
0.64123476 0.25550327 0.39606947
0.74796754 0.28909692 0.42932269
0.78191626 0.26643121 0.39034989
0.0131902 0.10336906 0.20103592
0.02331917 0.11386285 0.22008568
0.03737129 0.13012752 0.24999917
0.09676556 0.17053655 0.29568863
0.31291345 0.23804331 0.35861343
0.53647327 0.30871159 0.41603023
0.71222836 0.37815696 0.47869423
0.80052823 0.4043875 0.49872437
0.83107466 0.38263983 0.45862892
0.02050816 0.15054178 0.26411957
0.03153777 0.16998021 0.29169622
0.0500534 0.2085215 0.33602789
0.09734678 0.27227789 0.3875373
0.3679142 0.35463503 0.44505268
0.60088605 0.43703583 0.50301397
0.77251315 0.50570786 0.5524826
0.84655315 0.53431302 0.56862652
0.8771047 0.50566822 0.5246948
0.02908208 0.23355021 0.35134712
0.04528513 0.277834 0.39807054
0.06469589 0.33602205 0.44466963
0.15953313 0.3980087 0.47881091
0.42217746 0.47681087 0.52391267
0.67261916 0.58117056 0.58558077
0.82783842 0.64309752 0.62482196
0.88706261 0.65989339 0.63174587
0.91968954 0.63175976 0.58367789
0.04531687 0.36261567 0.46964949
0.05966949 0.40679309 0.500745
0.07610002 0.46651754 0.53488058
0.20590152 0.52662975 0.55573577
0.47486806 0.60024959 0.59077001
0.72215307 0.69401962 0.64459574
0.86717689 0.75591457 0.68389797
0.9217611 0.77187949 0.68785316
0.95776677 0.76109159 0.65540403
0.05571438 0.48229283 0.55541921
0.06825757 0.52509052 0.57642227
0.08327609 0.57678205 0.59796691
0.26376548 0.63783246 0.62087715
0.51923043 0.7037009 0.65119869
0.73072624 0.77920258 0.68589723
0.88129646 0.83817661 0.72433537
0.94482845 0.86182302 0.73588389
0.97942823 0.86293435 0.71027327
0.0607513 0.57554567 0.6149053
0.07291671 0.61778474 0.63354874
0.08731808 0.66355616 0.64691037
0.23581955 0.71994829 0.66485476
0.5368374 0.78478026 0.69836205
0.72692966 0.84212017 0.72912836
0.88568985 0.89084744 0.76523376
0.95273715 0.91283649 0.77707499
0.98517591 0.92103833 0.76010513
0.05632638 0.62208617 0.63739353
0.06812618 0.65876812 0.65267122
0.08109826 0.70279276 0.6696189
0.13758254 0.76683807 0.69443864
0.55686146 0.84098864 0.74178696
0.77243394 0.89801425 0.7862407
0.88762075 0.92985547 0.80912477
0.95905125 0.95086306 0.82421625
0.98575234 0.95239246 0.79904425
0.00649648 0.05988273 0.17392443
0.01519438 0.06315213 0.18768007
0.02433627 0.06697382 0.19833803
0.05254155 0.08044873 0.2318036
0.16953178 0.11720929 0.29477537
0.37300998 0.15395312 0.35215285
0.56546539 0.18023624 0.40254647
0.7058199 0.22843692 0.46950084
0.77444386 0.25949714 0.50189942
0.00924967 0.0771694 0.20661509
0.0181512 0.08242372 0.22368154
0.02858337 0.08990547 0.24332681
0.05856078 0.11810704 0.2842817
0.20153902 0.17309693 0.35227191
0.42988056 0.22507131 0.41952655
0.62266886 0.27190468 0.46940115
0.75902963 0.33865148 0.53224683
0.81699407 0.37150654 0.56349814
0.01381812 0.10915723 0.25449675
0.0239677 0.12158466 0.27757525
0.04086784 0.14736067 0.3211312
0.06032725 0.18519628 0.3614814
0.25272483 0.25947082 0.43059608
0.49061981 0.32825693 0.49143091
0.6857183 0.39277163 0.546978
0.80615133 0.45187607 0.59763843
0.8539778 0.48035917 0.6194064
0.02132726 0.16130072 0.31953382
0.03225647 0.18290477 0.35053301
0.05317811 0.24059381 0.4138082
0.08392639 0.3034226 0.46605617
0.31374791 0.37059328 0.51362902
0.55574697 0.44591025 0.56779242
0.74139774 0.51826793 0.615291
0.84607249 0.579153 0.66017514
0.88765138 0.60041749 0.67456549
0.03393833 0.26207238 0.42501748
0.04845665 0.30582663 0.46820495
0.0645689 0.35669431 0.50863975
0.12555331 0.41937336 0.54363686
0.37323493 0.49008766 0.58602661
0.60688019 0.56853652 0.62949508
0.78373331 0.64335048 0.67705464
0.8785513 0.69118208 0.71608651
0.91597956 0.70331514 0.72366643
0.04734059 0.38350645 0.53057402
0.0613573 0.43392178 0.56453627
0.07575635 0.48838672 0.59301567
0.15808672 0.54371661 0.61280358
0.43035132 0.60681748 0.64511722
0.65078956 0.67564058 0.68405986
0.82797182 0.75333738 0.73663765
0.90330029 0.78997368 0.7651456
0.94256955 0.79771942 0.76764107
0.05694887 0.50136876 0.60720623
0.06972696 0.54618728 0.63299042
0.0832376 0.59364927 0.65209591
0.2215004 0.64866018 0.67061204
0.48640943 0.70633459 0.69874901
0.68467003 0.76990658 0.73320091
0.85277051 0.83752578 0.78170365
0.92866337 0.87045825 0.81149101
0.96821946 0.87777251 0.81203735
0.06161138 0.5895645 0.66292644
0.07404567 0.63099748 0.68017507
0.08730105 0.67535561 0.69567239
0.20946927 0.72792125 0.7106446
0.52276057 0.78975743 0.74519092
0.70803082 0.84305894 0.77946037
0.85134226 0.88532764 0.8096022
0.94269806 0.91838998 0.84195471
0.97999847 0.93081355 0.84725046
0.05836054 0.63982266 0.69013113
0.07069078 0.67908442 0.70723826
0.08448783 0.72304392 0.72144866
0.15497641 0.77653599 0.74040347
0.52633542 0.83971667 0.77821261
0.72387189 0.88956243 0.81402385
0.874134 0.93009382 0.84900576
0.95336568 0.95320386 0.87110502
0.98286372 0.95859909 0.86748552
0.01066271 0.05954731 0.23350309
0.02001219 0.06304345 0.25160366
0.02987572 0.0704671 0.26963326
0.04661389 0.08265948 0.29496104
0.1370962 0.12961766 0.35334253
0.34084716 0.18185738 0.43887973
0.55879933 0.21171048 0.49703196
0.70733768 0.24846463 0.54281777
0.78651631 0.30620176 0.59146774
0.01412065 0.07754689 0.27385274
0.02462523 0.09076552 0.29795265
0.03577925 0.10648713 0.32321668
0.05020947 0.13209246 0.35427749
0.14852773 0.18912868 0.4200508
0.38654909 0.25872746 0.50234783
0.61369413 0.30990243 0.55849123
0.75744653 0.36057886 0.6067012
0.82640469 0.41444215 0.64946115
0.01981627 0.12516069 0.32963309
0.03208657 0.14353675 0.36477306
0.046142 0.17487745 0.4078899
0.06022761 0.21272859 0.4425987
0.18798026 0.28000045 0.50031251
0.44899741 0.36255291 0.57349652
0.67010951 0.42136106 0.6241352
0.79981124 0.47338074 0.66509658
0.85980284 0.52769655 0.70352858
0.02763669 0.18959942 0.40585265
0.04055498 0.22545838 0.44922185
0.05669402 0.2788035 0.4987407
0.07927439 0.33741266 0.54397702
0.26395103 0.39399004 0.58062619
0.51629329 0.47072813 0.636639
0.71523297 0.53765392 0.6818701
0.8343994 0.5919742 0.71714103
0.88922596 0.64127648 0.75273067
0.03718365 0.29112399 0.50006551
0.05085023 0.33597755 0.54060674
0.06573173 0.38620144 0.57751775
0.10780089 0.45040715 0.61214232
0.33561376 0.51467735 0.64847124
0.57001728 0.58483404 0.69147354
0.75623077 0.64946103 0.73327929
0.8636331 0.69891846 0.76629227
0.91249436 0.73857367 0.79276025
0.04817468 0.41118252 0.59351301
0.06201857 0.46196613 0.6268329
0.07622841 0.51552361 0.65465873
0.12505564 0.56585419 0.67287934
0.38455954 0.61993837 0.69822359
0.60860121 0.68219495 0.73682266
0.78511769 0.74136591 0.77245831
0.88659078 0.79233354 0.80523366
0.93292344 0.82341301 0.82962149
0.05732777 0.52294743 0.66506755
0.06980009 0.56854284 0.6897518
0.08287583 0.61194408 0.70648283
0.1507836 0.66181314 0.72185379
0.44981503 0.71762908 0.74851978
0.63962829 0.76797509 0.77444881
0.80071968 0.82014328 0.805857
0.9078756 0.86796987 0.84374332
0.95231766 0.88709915 0.86240625
0.06340479 0.61034071 0.71490449
0.07476258 0.64774495 0.73036927
0.08739386 0.69193399 0.74496722
0.17871235 0.73880571 0.75805628
0.47851032 0.79038262 0.78193599
0.67795604 0.8403756 0.81154054
0.83097655 0.88209844 0.84200662
0.93049037 0.91950572 0.87780154
0.97322649 0.93547714 0.89408344
0.06134006 0.6592536 0.73864692
0.07302646 0.69546992 0.75509131
0.0857306 0.73697704 0.76828045
0.14350083 0.78461641 0.78148365
0.48653653 0.83761436 0.80916142
0.70781559 0.88937294 0.84341121
0.86924714 0.93044633 0.87920034
0.945189 0.95370775 0.9017356
0.98083574 0.96320868 0.91149288
0.01660364 0.04815872 0.31185868
0.025373 0.05511549 0.33108157
0.03519075 0.06986818 0.3536132
0.0477616 0.08978725 0.37670845
0.10509853 0.14689672 0.42951369
0.31077263 0.20882125 0.51651746
0.56396091 0.26550201 0.5967899
0.7115593 0.30166182 0.63778371
0.7919625 0.34258395 0.66914225
0.02026762 0.08450756 0.36349511
0.0308163 0.10642362 0.38901907
0.04156281 0.12528937 0.41844648
0.05404891 0.16027738 0.45097879
0.10706039 0.21558192 0.50191718
0.35609812 0.294781 0.57969582
0.61533117 0.36569846 0.65384221
0.75561064 0.40567157 0.69149786
0.82676917 0.44521564 0.71911633
0.02646541 0.14683387 0.42820871
0.03811341 0.17563921 0.46491495
0.05119196 0.22004025 0.50699806
0.06473934 0.26251921 0.54169762
0.15175053 0.32155022 0.58350086
0.42070422 0.39568526 0.64528805
0.66607279 0.46816891 0.70782077
0.79433399 0.51306123 0.73945272
0.85783243 0.55777621 0.76297361
0.03461762 0.24144356 0.51239818
0.04705062 0.28407082 0.55311161
0.0620863 0.33587602 0.59664202
0.08144713 0.3896043 0.63122904
0.22975813 0.4325746 0.6557014
0.48268947 0.50164819 0.70269954
0.70795494 0.57995903 0.7538448
0.82590437 0.62211984 0.78065765
0.88325858 0.65862316 0.80035895
0.0417699 0.34447092 0.59502769
0.05490127 0.38874906 0.62875021
0.07016523 0.4468466 0.66626596
0.10378766 0.50700951 0.69326878
0.33601516 0.56336397 0.72215986
0.54207253 0.61297613 0.75199056
0.73944336 0.67469603 0.78964162
0.85248995 0.71502697 0.81530535
0.90528917 0.74878877 0.83200657
0.05186293 0.45884687 0.66944659
0.06470874 0.50747931 0.6985237
0.07809114 0.5564577 0.72309864
0.11573023 0.60455924 0.73949981
0.37576261 0.65762949 0.76380843
0.60007864 0.71153516 0.79413521
0.76095486 0.75929302 0.82170337
0.87465692 0.80080038 0.84539181
0.92546391 0.8308816 0.86297274
0.059935 0.55418003 0.7229194
0.0717423 0.59816742 0.74432063
0.08467551 0.64222431 0.76062477
0.12004169 0.68976682 0.77395701
0.42846555 0.74109137 0.79683065
0.6198765 0.78754199 0.82190734
0.77946913 0.83191788 0.84805751
0.89544076 0.86806673 0.87431365
0.94535071 0.89088875 0.8901422
0.06482065 0.62994421 0.75921619
0.07567517 0.66507924 0.77187181
0.08801243 0.70872182 0.78532195
0.17203467 0.75432056 0.79737139
0.46590564 0.80190653 0.82084751
0.66204989 0.8476032 0.84771693
0.80838585 0.88579577 0.87396204
0.91173941 0.91442555 0.89762294
0.96641862 0.93627131 0.91564232
0.06360258 0.67147547 0.77437454
0.07479043 0.70660883 0.78794074
0.08744284 0.74709517 0.8000437
0.15155159 0.79333138 0.81304222
0.49317691 0.84305805 0.83853966
0.69675916 0.88936478 0.8676157
0.85467255 0.92793143 0.89723617
0.94187444 0.95311421 0.92076415
0.98002714 0.96467423 0.93182397
