site/assets/luts/freshluts--0000106-bozen.cube
# LUTr-Schema-Version: 2
# LUTr-ID: freshluts--0000106-bozen
# LUTr-Title: Bozen
# LUTr-Collection: Fresh LUTs
# LUTr-Collection-ID: freshluts-community
# LUTr-Source: https://freshluts.com
# LUTr-Retrieved: 2026-07-27
# LUTr-Source-File: submissions-raw/freshluts/cubes/106__bozen.cube
# LUTr-Source-Format: CUBE
# LUTr-Source-SHA256: 4dc21f540cf0467194d91f7c4cbb03f8cfa88c130983cc79c1c50a2dfc7ec688
# LUTr-License: CC0-1.0
# LUTr-License-URL: https://freshluts.com/termsandconditions
# LUTr-License-Basis: site-terms
# LUTr-Transform-Class: creative-look
# LUTr-Tags: creative, freshluts, community, cube, high-contrast, blue, rec709
# LUTr-Input-Color-Space: rec709
# LUTr-Input-Gamut: rec709
# LUTr-Input-Transfer: rec709
# LUTr-Output-Color-Space: srgb
# LUTr-Output-Gamut: rec709
# LUTr-Output-Transfer: srgb
# LUTr-Color-Space-Confidence: inferred-from-source-label
# LUTr-Domain-Normalized: true
# LUTr-Shaper: none
# LUTr-Original-Grid: 32x32x32
# LUTr-Conversion-Grid: 32x32x32
# LUTr-Conversion-Interpolation: none
# LUTr-Conversion-Method: Metadata normalization; numeric LUT samples preserved
# LUTr-Conversion-Tool: LUTr scripts/convert-all-to-cube.mjs 2.0.0
# LUTr-Conversion-Date: 2026-07-28
# LUTr-Asset-URL: https://freshluts.com/luts/106
# LUTr-Author: Mattias Horvath
# LUTr-Author-URL: https://freshluts.com/users/84
# LUTr-Attribution: Mattias Horvath via Fresh LUTs
# LUTr-Source-Labels: gamma=Rec 709; color=Blue; key=Neutral; style=High contrast
# LUTr-Note: Preserve this metadata and the upstream license notices when redistributing.
# LUTr-Upstream-Comment: Created by: Adobe Photoshop Export Color Lookup Plugin
# LUTr-Upstream-Comment: LUT size
# LUTr-Upstream-Comment: data domain
# LUTr-Upstream-Comment: LUT data points
TITLE "Bozen"
LUT_3D_SIZE 32
DOMAIN_MIN 0 0 0
DOMAIN_MAX 1 1 1
0.090057 0.102478 0.124329
0.096191 0.107788 0.129639
0.103699 0.114136 0.136047
0.112091 0.120758 0.142487
0.121216 0.127411 0.148834
0.131958 0.134399 0.155121
0.144409 0.141602 0.161438
0.158295 0.14798 0.165558
0.174377 0.155914 0.170166
0.206146 0.163818 0.183105
0.249237 0.169922 0.193024
0.296936 0.178406 0.202087
0.345215 0.190948 0.213409
0.395203 0.204926 0.225861
0.445953 0.220428 0.23938
0.496857 0.237579 0.254364
0.544434 0.257843 0.271545
0.58844 0.280151 0.29071
0.628662 0.304779 0.312103
0.6651 0.331665 0.335602
0.696716 0.361542 0.362183
0.724731 0.393707 0.390808
0.749878 0.427399 0.421204
0.771912 0.462921 0.453461
0.791016 0.500549 0.487244
0.814301 0.52301 0.515198
0.833527 0.539764 0.537781
0.841644 0.559784 0.557098
0.866302 0.625397 0.620941
0.884521 0.694763 0.690521
0.896301 0.759033 0.755676
0.90387 0.80603 0.802948
0.09259 0.105621 0.126709
0.097809 0.110077 0.130493
0.10498 0.115906 0.136963
0.113007 0.122101 0.143188
0.122162 0.128571 0.149292
0.13266 0.135468 0.155518
0.145203 0.142609 0.161835
0.159058 0.148956 0.165833
0.175293 0.157013 0.170624
0.207733 0.164764 0.183624
0.251251 0.170776 0.193298
0.298187 0.179596 0.202484
0.346619 0.1922 0.213776
0.396576 0.206207 0.226257
0.447357 0.221771 0.239868
0.497925 0.238953 0.254791
0.545349 0.259247 0.272064
0.589203 0.281677 0.29129
0.629333 0.306274 0.312683
0.665558 0.333038 0.336151
0.697174 0.363129 0.362762
0.72522 0.395111 0.391327
0.750153 0.428741 0.421722
0.772156 0.464111 0.453949
0.791168 0.501617 0.487701
0.814484 0.5242 0.515717
0.833679 0.540924 0.538269
0.841827 0.560974 0.557556
0.866333 0.626129 0.621155
0.884521 0.695404 0.690643
0.896301 0.759613 0.755768
0.90387 0.80658 0.80304
0.094574 0.108398 0.128906
0.099091 0.112549 0.132172
0.106232 0.118591 0.137177
0.114532 0.124603 0.144043
0.123657 0.13089 0.150146
0.134369 0.137573 0.156372
0.147247 0.144775 0.16272
0.161285 0.151337 0.166504
0.178467 0.15979 0.172455
0.212311 0.166656 0.184998
0.25592 0.172821 0.194061
0.302094 0.182556 0.203552
0.350281 0.195374 0.214996
0.400146 0.209412 0.227478
0.450714 0.225037 0.24118
0.501129 0.242554 0.256165
0.548065 0.262878 0.273468
0.591522 0.285492 0.292908
0.631378 0.309998 0.314301
0.667206 0.33667 0.337769
0.698456 0.366516 0.364227
0.726135 0.398254 0.392883
0.750946 0.431885 0.423187
0.772888 0.46698 0.455322
0.791779 0.504425 0.489014
0.815063 0.527191 0.517151
0.834106 0.543762 0.539673
0.842346 0.563721 0.558899
0.866425 0.627686 0.621643
0.884521 0.696533 0.690979
0.896301 0.760437 0.756012
0.9039 0.807251 0.803192
0.096313 0.111328 0.130829
0.100372 0.11496 0.133575
0.106873 0.120911 0.138092
0.115601 0.127533 0.143616
0.125641 0.134033 0.151184
0.136627 0.140778 0.157379
0.150055 0.148071 0.164001
0.164368 0.154785 0.167694
0.18399 0.163452 0.175415
0.219421 0.169769 0.18689
0.262817 0.176239 0.195251
0.308136 0.187408 0.205353
0.356323 0.200378 0.216888
0.406006 0.214691 0.229523
0.456085 0.230682 0.243347
0.506226 0.248291 0.258453
0.552582 0.268951 0.275909
0.595459 0.291656 0.295441
0.634674 0.316223 0.317047
0.670074 0.342804 0.340515
0.700531 0.372192 0.36673
0.727814 0.403687 0.395386
0.752319 0.436829 0.425781
0.774017 0.471832 0.457794
0.792786 0.508942 0.491394
0.815948 0.531921 0.519653
0.834869 0.548645 0.542297
0.843018 0.568054 0.561188
0.866699 0.630646 0.622833
0.884583 0.698486 0.691559
0.896362 0.761688 0.75647
0.903931 0.808136 0.803528
0.098572 0.114655 0.133087
0.101929 0.117706 0.135315
0.107727 0.123444 0.13913
0.115692 0.13031 0.14386
0.125885 0.137329 0.149597
0.138489 0.144745 0.158051
0.153076 0.152527 0.165283
0.168121 0.159576 0.16925
0.191193 0.168091 0.178864
0.228577 0.174133 0.18869
0.270782 0.182739 0.197388
0.316162 0.194641 0.207886
0.364349 0.207947 0.219574
0.41394 0.222778 0.232422
0.463928 0.239105 0.24646
0.513397 0.257355 0.261871
0.559052 0.278351 0.279541
0.601013 0.301056 0.299286
0.639282 0.325531 0.320862
0.673706 0.351898 0.34433
0.703705 0.380951 0.370728
0.73056 0.412048 0.399353
0.754639 0.444946 0.429688
0.775818 0.479279 0.46167
0.794373 0.516022 0.495178
0.817322 0.539093 0.52356
0.836212 0.55603 0.546356
0.844086 0.574982 0.564941
0.867096 0.63501 0.624634
0.884674 0.701263 0.692535
0.896423 0.763794 0.757172
0.903961 0.809357 0.803986
0.100891 0.118378 0.13559
0.103424 0.120605 0.137238
0.108521 0.126007 0.140411
0.115631 0.133087 0.144348
0.125183 0.140625 0.148956
0.13797 0.148682 0.155731
0.154236 0.15744 0.165222
0.1716 0.16571 0.171326
0.198608 0.173737 0.181519
0.236267 0.181213 0.189972
0.277802 0.1922 0.199738
0.324432 0.204803 0.210724
0.373016 0.218964 0.22287
0.422852 0.234436 0.236084
0.472778 0.251434 0.250488
0.521667 0.270111 0.266083
0.566315 0.291138 0.283997
0.607208 0.313629 0.303955
0.644684 0.338135 0.325806
0.678467 0.364502 0.349579
0.707764 0.393311 0.376251
0.734009 0.423676 0.404999
0.75766 0.456146 0.435333
0.778412 0.48999 0.467194
0.796387 0.525665 0.500458
0.819275 0.549377 0.529358
0.838104 0.56662 0.552277
0.845703 0.584869 0.570343
0.867523 0.640625 0.626892
0.884827 0.705109 0.693909
0.896484 0.766388 0.758301
0.904022 0.811035 0.804718
0.103119 0.122101 0.137848
0.105499 0.124146 0.13916
0.109589 0.128845 0.141785
0.115845 0.135834 0.145233
0.12442 0.14386 0.149048
0.136566 0.152618 0.154205
0.152954 0.162231 0.162567
0.174011 0.172913 0.17337
0.203735 0.181671 0.182281
0.240479 0.1922 0.191498
0.283325 0.204132 0.201843
0.331024 0.217468 0.213287
0.380615 0.232422 0.225769
0.430939 0.248596 0.23938
0.480804 0.266205 0.254089
0.529358 0.285126 0.270081
0.573547 0.306366 0.288635
0.613861 0.329346 0.309204
0.650513 0.353607 0.331604
0.683807 0.380005 0.355804
0.712433 0.408325 0.382812
0.738037 0.438202 0.411835
0.761078 0.469818 0.442108
0.781433 0.503082 0.473877
0.799072 0.537964 0.507141
0.821747 0.562225 0.536621
0.840332 0.579376 0.55957
0.847778 0.596802 0.577057
0.868347 0.648468 0.630371
0.884979 0.709686 0.69577
0.896545 0.769501 0.759705
0.904114 0.813232 0.805725
0.105103 0.125977 0.140137
0.107208 0.127777 0.141052
0.11084 0.132111 0.143341
0.116333 0.138794 0.146362
0.124054 0.147125 0.149963
0.135162 0.156708 0.154022
0.152435 0.168335 0.161652
0.174835 0.180023 0.173096
0.201569 0.192505 0.183258
0.241333 0.204376 0.191772
0.285767 0.217194 0.202545
0.3349 0.231628 0.214478
0.385803 0.24762 0.227631
0.437164 0.264893 0.241943
0.487885 0.283447 0.257477
0.53656 0.303009 0.274231
0.580566 0.324677 0.29361
0.620514 0.347626 0.31488
0.656677 0.372162 0.337982
0.689209 0.398071 0.362793
0.717407 0.426025 0.39032
0.742554 0.455444 0.419586
0.764923 0.486115 0.450043
0.784668 0.518555 0.481659
0.802063 0.552521 0.514954
0.824341 0.576874 0.544739
0.843048 0.594604 0.568329
0.850006 0.610718 0.584991
0.869415 0.658264 0.634979
0.885284 0.715973 0.698151
0.896667 0.773407 0.761505
0.904266 0.815704 0.806976
0.106781 0.130035 0.14209
0.108826 0.131592 0.142822
0.112122 0.135651 0.144714
0.116943 0.14212 0.14743
0.123993 0.150543 0.150665
0.13504 0.161682 0.155579
0.152588 0.17453 0.16275
0.176147 0.188354 0.174713
0.197296 0.199646 0.18457
0.232971 0.217499 0.196747
0.281799 0.234009 0.205963
0.335327 0.24942 0.216064
0.38858 0.266266 0.229034
0.441254 0.284515 0.24411
0.493103 0.303802 0.260468
0.542542 0.32428 0.278259
0.586792 0.346313 0.29892
0.626678 0.369415 0.321106
0.662598 0.393738 0.345001
0.694763 0.419342 0.370667
0.722626 0.446503 0.398895
0.747223 0.475342 0.428467
0.769104 0.505402 0.459137
0.788452 0.536713 0.490814
0.80545 0.569122 0.524048
0.826904 0.594025 0.554169
0.845123 0.612427 0.578094
0.852905 0.627136 0.594452
0.870544 0.668915 0.639801
0.88562 0.723145 0.70108
0.89682 0.778259 0.763794
0.90448 0.818634 0.808441
0.108551 0.13443 0.143951
0.11026 0.135864 0.144592
0.113281 0.139648 0.146149
0.117889 0.145935 0.14856
0.12442 0.154572 0.151703
0.135742 0.167236 0.157471
0.153259 0.181061 0.165283
0.176758 0.197083 0.177368
0.199402 0.211761 0.187592
0.224823 0.224762 0.198425
0.269318 0.248566 0.21402
0.324432 0.270325 0.225006
0.381409 0.290131 0.237183
0.438446 0.309052 0.250397
0.494476 0.328217 0.264893
0.546417 0.348846 0.282532
0.591736 0.370972 0.304138
0.632019 0.394135 0.327728
0.667969 0.418121 0.352631
0.700134 0.443359 0.379211
0.727692 0.470032 0.408264
0.751801 0.497894 0.438385
0.773346 0.52713 0.46933
0.792389 0.557373 0.50119
0.808929 0.587891 0.534332
0.82843 0.613098 0.564575
0.84668 0.631622 0.588867
0.855865 0.645386 0.605377
0.871552 0.680237 0.644775
0.885986 0.730865 0.704529
0.897034 0.783569 0.76651
0.904694 0.821808 0.810211
0.110077 0.139282 0.145782
0.111816 0.140625 0.14621
0.114685 0.144135 0.147491
0.118835 0.150299 0.149689
0.125702 0.15979 0.153412
0.137268 0.173187 0.159637
0.154785 0.187897 0.168152
0.177948 0.205627 0.180969
0.201782 0.224518 0.192749
0.227356 0.239685 0.202393
0.259521 0.256592 0.216431
0.309479 0.284546 0.235138
0.368286 0.310822 0.248108
0.427368 0.334351 0.262482
0.485535 0.356293 0.27774
0.539703 0.378052 0.295319
0.588776 0.400116 0.315796
0.632202 0.422516 0.338287
0.670624 0.445465 0.362518
0.704132 0.469757 0.388794
0.732513 0.495483 0.417938
0.756409 0.5224 0.44873
0.777649 0.550262 0.480164
0.796326 0.579193 0.512329
0.812805 0.608093 0.545532
0.830566 0.633179 0.576019
0.848328 0.651917 0.600494
0.859131 0.664764 0.616974
0.87326 0.694519 0.652008
0.886444 0.739471 0.708496
0.897247 0.789429 0.769562
0.904938 0.825684 0.812347
0.111755 0.144562 0.147552
0.113312 0.145813 0.147858
0.115997 0.149109 0.148926
0.120087 0.155334 0.151001
0.127747 0.166046 0.155762
0.139709 0.179413 0.161987
0.157104 0.195251 0.171417
0.179932 0.214691 0.184998
0.205322 0.237457 0.19928
0.230408 0.255402 0.208862
0.261353 0.27298 0.220001
0.299591 0.293732 0.23764
0.352295 0.324402 0.259399
0.412811 0.354248 0.275055
0.473083 0.381042 0.291809
0.529327 0.405487 0.309875
0.580353 0.429321 0.330902
0.625427 0.452881 0.354401
0.665253 0.476379 0.379578
0.69986 0.50061 0.406464
0.729523 0.525757 0.435394
0.755676 0.550934 0.464569
0.77771 0.577026 0.495728
0.797485 0.603485 0.527039
0.814209 0.630646 0.559814
0.832458 0.654236 0.589233
0.850067 0.672729 0.613037
0.862488 0.684662 0.629364
0.875092 0.709778 0.660034
0.887146 0.750122 0.713287
0.897552 0.795929 0.773163
0.905273 0.829956 0.814819
0.113251 0.150513 0.149109
0.11496 0.151672 0.149475
0.117493 0.155029 0.150513
0.122681 0.162354 0.153656
0.13031 0.173187 0.158417
0.143036 0.186615 0.16507
0.160278 0.203888 0.175354
0.182953 0.224854 0.189636
0.209045 0.250488 0.205719
0.234741 0.271423 0.216888
0.26535 0.291656 0.227936
0.300537 0.311127 0.240479
0.342987 0.334991 0.261627
0.395844 0.366974 0.287964
0.458038 0.399994 0.305573
0.516693 0.429169 0.325378
0.56958 0.456024 0.347504
0.616211 0.481384 0.371643
0.657654 0.506256 0.397491
0.694305 0.530823 0.424988
0.724945 0.555511 0.454468
0.751465 0.580139 0.48407
0.774658 0.604828 0.514679
0.794952 0.629669 0.546112
0.812805 0.654266 0.577606
0.83017 0.677399 0.607239
0.847717 0.695587 0.630615
0.863983 0.70636 0.645203
0.875946 0.725708 0.669403
0.887909 0.761292 0.718781
0.897919 0.803314 0.777618
0.90564 0.834381 0.817566
0.115509 0.158051 0.151489
0.117432 0.159698 0.152008
0.120758 0.163696 0.153748
0.125977 0.171234 0.157043
0.134644 0.181488 0.161713
0.14743 0.195679 0.169189
0.164886 0.214264 0.180359
0.187347 0.236938 0.195343
0.213531 0.264648 0.212524
0.240051 0.288605 0.22583
0.270752 0.311066 0.237885
0.305847 0.332733 0.250275
0.343781 0.353241 0.264343
0.389404 0.379669 0.288849
0.441284 0.412079 0.319946
0.502563 0.447357 0.34082
0.557617 0.478668 0.364655
0.606262 0.506744 0.38974
0.649475 0.533142 0.416199
0.6875 0.558685 0.444305
0.719788 0.583069 0.47403
0.747681 0.606873 0.503662
0.771667 0.630585 0.534088
0.792908 0.654144 0.565094
0.811768 0.676666 0.595581
0.828278 0.699066 0.625641
0.846222 0.717133 0.648987
0.863892 0.727875 0.662781
0.873383 0.74176 0.680939
0.886932 0.772583 0.726471
0.898407 0.810669 0.782349
0.906097 0.839142 0.820557
0.119293 0.168396 0.155487
0.121429 0.170135 0.156067
0.124695 0.174164 0.157745
0.131042 0.181061 0.160889
0.139954 0.191589 0.166107
0.152924 0.206421 0.174347
0.170624 0.226105 0.186249
0.192688 0.250153 0.20166
0.21875 0.279236 0.219391
0.24646 0.306274 0.235016
0.277069 0.330719 0.248413
0.312286 0.354279 0.261688
0.350433 0.376923 0.275574
0.390106 0.398376 0.291443
0.437958 0.426971 0.31955
0.489594 0.460266 0.353638
0.544647 0.495453 0.381195
0.595886 0.527222 0.407532
0.640503 0.555939 0.435211
0.680023 0.582794 0.463898
0.714264 0.607819 0.493469
0.7435 0.631409 0.523438
0.768677 0.654388 0.553741
0.790955 0.67691 0.584167
0.810394 0.698334 0.614258
0.827911 0.718842 0.642914
0.845459 0.737091 0.666962
0.864349 0.748108 0.680359
0.871765 0.759521 0.695953
0.885315 0.784363 0.735657
0.898712 0.818512 0.787872
0.906647 0.844482 0.824097
0.124847 0.18042 0.160126
0.126923 0.181824 0.160614
0.131165 0.185547 0.162384
0.13736 0.192688 0.165924
0.146729 0.203583 0.171814
0.159912 0.219452 0.180847
0.177612 0.239716 0.193329
0.199341 0.265259 0.209106
0.225403 0.295258 0.227264
0.254089 0.324677 0.244629
0.284668 0.350922 0.259369
0.319763 0.376129 0.273926
0.358124 0.400604 0.288757
0.398254 0.42392 0.304413
0.438965 0.446045 0.322388
0.487701 0.476349 0.354187
0.536713 0.509521 0.391815
0.584015 0.542328 0.425873
0.631348 0.574249 0.454346
0.673401 0.60318 0.482788
0.708191 0.62915 0.513306
0.739075 0.65329 0.543182
0.765869 0.675995 0.573181
0.789215 0.697723 0.60321
0.809906 0.718384 0.632263
0.827759 0.737701 0.660309
0.845428 0.755005 0.683655
0.864502 0.76712 0.698212
0.871887 0.7771 0.712677
0.883545 0.798065 0.747467
0.898071 0.826965 0.795074
0.907562 0.850098 0.828033
0.13266 0.194 0.166046
0.134705 0.195435 0.166626
0.139038 0.199402 0.168701
0.145386 0.206909 0.17276
0.155029 0.218567 0.17926
0.168365 0.234833 0.188751
0.186249 0.255768 0.201874
0.207458 0.282532 0.217743
0.233582 0.313202 0.236298
0.26297 0.344177 0.254944
0.293488 0.37149 0.270599
0.328735 0.398804 0.286865
0.36734 0.424896 0.303253
0.407745 0.449738 0.319672
0.448853 0.47348 0.337372
0.489532 0.495605 0.357697
0.536316 0.526001 0.393677
0.582306 0.55835 0.433136
0.623993 0.588837 0.471283
0.666199 0.619476 0.502289
0.703339 0.647156 0.532227
0.735107 0.672089 0.562531
0.763489 0.69516 0.592346
0.787872 0.716705 0.622192
0.809082 0.736572 0.650635
0.828033 0.755341 0.67746
0.845734 0.771667 0.700317
0.864044 0.784515 0.715546
0.871948 0.794586 0.732025
0.883759 0.813324 0.764343
0.897522 0.836182 0.803528
0.907562 0.856201 0.833099
0.142914 0.212494 0.174805
0.145294 0.213806 0.175415
0.149567 0.218079 0.177856
0.156158 0.225647 0.18222
0.165924 0.237549 0.189178
0.17926 0.254303 0.199127
0.196808 0.275909 0.212494
0.217804 0.303314 0.228455
0.244019 0.33429 0.247314
0.273987 0.366058 0.267029
0.30481 0.394531 0.283722
0.340118 0.422974 0.301392
0.378784 0.450317 0.31955
0.419312 0.476257 0.337708
0.460815 0.500946 0.35675
0.50238 0.524475 0.378082
0.54007 0.545319 0.399536
0.584076 0.574951 0.437408
0.626953 0.605865 0.478058
0.665253 0.634796 0.517212
0.699677 0.661682 0.551483
0.732941 0.687897 0.581757
0.761932 0.711487 0.611664
0.787598 0.733246 0.640778
0.809326 0.752686 0.668396
0.828583 0.770569 0.694244
0.846375 0.786743 0.717224
0.863831 0.799866 0.734344
0.874023 0.810425 0.752258
0.884705 0.825317 0.778473
0.897766 0.844543 0.811584
0.907806 0.862091 0.838104
0.155762 0.234772 0.186066
0.158051 0.236389 0.186859
0.162323 0.240601 0.189392
0.169067 0.248474 0.194092
0.178802 0.260406 0.201324
0.192383 0.277161 0.2117
0.209137 0.299805 0.224884
0.230225 0.326935 0.241028
0.256653 0.357849 0.260223
0.28717 0.390228 0.280731
0.318329 0.419342 0.298401
0.353729 0.448242 0.3172
0.392242 0.476349 0.337158
0.432892 0.503021 0.357239
0.474274 0.527985 0.377228
0.515808 0.551819 0.398651
0.554291 0.573853 0.422607
0.589203 0.593628 0.445251
0.630096 0.622009 0.484131
0.669464 0.651215 0.525269
0.703369 0.677917 0.564514
0.732391 0.701904 0.599884
0.761322 0.725769 0.630707
0.787537 0.747803 0.659332
0.810333 0.767151 0.685852
0.83017 0.784363 0.710388
0.848389 0.800568 0.733948
0.865143 0.81427 0.753662
0.876068 0.824768 0.771454
0.886353 0.836761 0.792267
0.898163 0.852722 0.819916
0.908081 0.868439 0.843964
0.171112 0.26181 0.200287
0.173248 0.263275 0.201019
0.177734 0.267365 0.203735
0.184326 0.275391 0.208588
0.194305 0.287048 0.216125
0.207123 0.304626 0.226349
0.223694 0.327179 0.239441
0.245117 0.353973 0.255798
0.272003 0.384705 0.275482
0.302704 0.41684 0.296478
0.334106 0.446045 0.315002
0.36969 0.475037 0.334839
0.408142 0.503143 0.356171
0.448425 0.53006 0.378113
0.489777 0.55542 0.400024
0.531006 0.579163 0.421661
0.56958 0.601379 0.44635
0.604675 0.621674 0.470856
0.636566 0.640381 0.494263
0.674011 0.667084 0.533142
0.708649 0.693817 0.574188
0.738708 0.718079 0.612579
0.764679 0.739868 0.646576
0.788757 0.760742 0.677368
0.811859 0.780151 0.703217
0.832153 0.797089 0.726532
0.850311 0.813141 0.750763
0.867371 0.827637 0.772858
0.879181 0.838104 0.789734
0.88858 0.848358 0.807281
0.898895 0.860748 0.828583
0.908722 0.874756 0.850037
0.189484 0.293121 0.217621
0.19165 0.294464 0.218445
0.195648 0.298981 0.221069
0.202454 0.306519 0.226013
0.211609 0.31897 0.233246
0.224152 0.336304 0.243347
0.240936 0.358215 0.256561
0.262787 0.384552 0.273132
0.290009 0.414734 0.293152
0.321136 0.446289 0.314697
0.352631 0.474884 0.333893
0.388123 0.503357 0.354706
0.426392 0.531128 0.377228
0.466461 0.55777 0.400604
0.507324 0.583008 0.424194
0.548187 0.606567 0.447449
0.586487 0.628632 0.472137
0.621368 0.648865 0.497284
0.652985 0.667511 0.521942
0.681732 0.684967 0.545746
0.714081 0.708832 0.583771
0.74472 0.733093 0.623444
0.771576 0.755066 0.660126
0.794495 0.774475 0.691772
0.814423 0.791901 0.71994
0.834808 0.808838 0.742981
0.853607 0.824768 0.766174
0.870636 0.840027 0.791168
0.882568 0.850372 0.807343
0.891571 0.859253 0.821899
0.900055 0.868958 0.837799
0.909821 0.881012 0.856354
0.210571 0.329834 0.238312
0.212524 0.331665 0.239014
0.216248 0.335968 0.241455
0.222595 0.343903 0.246216
0.231781 0.355774 0.253357
0.244629 0.372345 0.26358
0.261749 0.393677 0.276947
0.28418 0.419403 0.293945
0.312012 0.448792 0.314423
0.342957 0.478821 0.335938
0.374664 0.506195 0.35611
0.410034 0.53363 0.378021
0.447968 0.560455 0.401489
0.487549 0.586243 0.425751
0.527802 0.610779 0.450531
0.567627 0.633911 0.47522
0.604736 0.654968 0.499512
0.639252 0.675049 0.525238
0.670502 0.693481 0.550751
0.698547 0.710358 0.575073
0.723267 0.726166 0.599457
0.751129 0.747101 0.634796
0.777985 0.768585 0.671722
0.801514 0.787964 0.705353
0.821045 0.804413 0.733154
0.838837 0.820099 0.759674
0.857666 0.836212 0.783112
0.874634 0.851593 0.808777
0.88678 0.861542 0.822998
0.894928 0.869232 0.834961
0.902039 0.876892 0.847046
0.911102 0.886963 0.862488
0.234436 0.372498 0.262329
0.236115 0.374207 0.262787
0.240051 0.378418 0.26532
0.24646 0.385895 0.270111
0.25589 0.397339 0.277374
0.269226 0.41333 0.287781
0.286987 0.433502 0.301514
0.31012 0.457947 0.318939
0.338226 0.48584 0.339783
0.368805 0.513824 0.361328
0.400482 0.539612 0.382172
0.435486 0.56546 0.404999
0.472839 0.590759 0.429077
0.511658 0.615356 0.45401
0.550995 0.639008 0.479431
0.589691 0.661285 0.504974
0.625214 0.681366 0.529694
0.658691 0.700592 0.555206
0.689178 0.718475 0.580902
0.7164 0.734589 0.605591
0.739777 0.749359 0.629333
0.760986 0.763336 0.652466
0.784973 0.781555 0.684235
0.808105 0.800232 0.717285
0.827942 0.816498 0.746155
0.846375 0.832886 0.776398
0.863434 0.848175 0.802429
0.879089 0.862152 0.824707
0.890533 0.871399 0.836945
0.898163 0.878174 0.846588
0.904419 0.884521 0.856323
0.912842 0.892975 0.869019
0.262573 0.419434 0.29068
0.264191 0.420959 0.291016
0.268341 0.425049 0.29361
0.275024 0.432007 0.298462
0.28476 0.442749 0.305939
0.298584 0.457703 0.316528
0.317108 0.476715 0.330719
0.340576 0.499207 0.348572
0.368774 0.524963 0.369629
0.398926 0.550598 0.391083
0.430328 0.574585 0.412384
0.46463 0.598541 0.435516
0.501007 0.621887 0.459991
0.538574 0.644958 0.485138
0.576599 0.667236 0.510712
0.613678 0.688293 0.536285
0.647461 0.707245 0.561615
0.679077 0.725098 0.586029
0.708496 0.742096 0.611633
0.734802 0.75769 0.636627
0.756805 0.771332 0.659363
0.776489 0.784149 0.681
0.794891 0.796722 0.702423
0.815186 0.812225 0.72998
0.834381 0.827637 0.757538
0.853912 0.84491 0.791809
0.870117 0.85965 0.819794
0.884186 0.872192 0.839417
0.894531 0.880463 0.849579
0.901886 0.886627 0.857697
0.907532 0.891998 0.865448
0.915161 0.899048 0.875641
0.295685 0.469208 0.323914
0.297241 0.470734 0.324097
0.301422 0.474365 0.32663
0.308563 0.480865 0.331757
0.318726 0.490692 0.339355
0.332977 0.504456 0.350189
0.351929 0.521912 0.364685
0.37561 0.542511 0.38266
0.403595 0.565674 0.403809
0.432953 0.588593 0.425079
0.463898 0.610565 0.446472
0.497192 0.632446 0.469604
0.53241 0.6539 0.493896
0.568298 0.674927 0.518829
0.604431 0.695435 0.54422
0.639679 0.715118 0.569611
0.671539 0.732788 0.594788
0.70108 0.749298 0.618988
0.728485 0.764954 0.642883
0.753693 0.779907 0.667847
0.774231 0.792542 0.689331
0.792389 0.80423 0.709381
0.809204 0.81543 0.728729
0.825104 0.826477 0.748535
0.842865 0.840332 0.77417
0.861115 0.855896 0.804901
0.877747 0.87085 0.834839
0.889587 0.881531 0.852905
0.899078 0.889099 0.861633
0.905975 0.894775 0.868439
0.911133 0.899353 0.874481
0.917908 0.904938 0.882355
0.334137 0.520294 0.362335
0.335663 0.521759 0.362427
0.339905 0.525055 0.364868
0.34729 0.530975 0.370148
0.357819 0.539734 0.37793
0.372498 0.552155 0.388977
0.391663 0.567932 0.403534
0.415161 0.586578 0.421448
0.442688 0.607422 0.442291
0.471039 0.627319 0.463013
0.500763 0.646851 0.484192
0.53302 0.666687 0.506927
0.566681 0.686035 0.53067
0.600555 0.704987 0.555023
0.634277 0.723511 0.579773
0.667114 0.741302 0.604736
0.696869 0.757538 0.629059
0.724335 0.772919 0.652588
0.749634 0.787415 0.675629
0.772827 0.801147 0.69873
0.791687 0.812683 0.718628
0.808716 0.823578 0.737823
0.825165 0.834595 0.75827
0.839569 0.84436 0.775848
0.854889 0.855865 0.798645
0.870514 0.868622 0.823395
0.885345 0.881348 0.848389
0.895905 0.890656 0.864441
0.904175 0.897339 0.87265
0.910675 0.902588 0.878662
