site/assets/luts/freshluts--0001168-mini-3-pro-d-cinelike-to-rec709.cube
# LUTr-Schema-Version: 2
# LUTr-ID: freshluts--0001168-mini-3-pro-d-cinelike-to-rec709
# LUTr-Title: Mini 3 pro d-cinelike to rec709
# LUTr-Collection: Fresh LUTs
# LUTr-Collection-ID: freshluts-community
# LUTr-Source: https://freshluts.com
# LUTr-Retrieved: 2026-07-27
# LUTr-Source-File: submissions-raw/freshluts/cubes/1168__jem454_d-cinelike_to_rec709_1.DJI_0022.cube
# LUTr-Source-Format: CUBE
# LUTr-Source-SHA256: e2dc26ae90b9366bf9f4562db9bc4435abfd569b28cb97803e30b1088e96f09d
# LUTr-License: CC0-1.0
# LUTr-License-URL: https://freshluts.com/termsandconditions
# LUTr-License-Basis: site-terms
# LUTr-Transform-Class: creative-look
# LUTr-Tags: creative, freshluts, community, cube, rec709, assumed-input
# LUTr-Input-Color-Space: rec709
# LUTr-Input-Gamut: rec709
# LUTr-Input-Transfer: rec709
# LUTr-Output-Color-Space: srgb
# LUTr-Output-Gamut: rec709
# LUTr-Output-Transfer: srgb
# LUTr-Color-Space-Confidence: assumed-display-referred
# LUTr-Domain-Normalized: true
# LUTr-Shaper: none
# LUTr-Original-Grid: 33x33x33
# LUTr-Conversion-Grid: 33x33x33
# LUTr-Conversion-Interpolation: none
# LUTr-Conversion-Method: Metadata normalization; numeric LUT samples preserved
# LUTr-Conversion-Tool: LUTr scripts/convert-all-to-cube.mjs 2.0.0
# LUTr-Conversion-Date: 2026-07-28
# LUTr-Asset-URL: https://freshluts.com/luts/1168
# LUTr-Author: jon
# LUTr-Author-URL: https://freshluts.com/users/124075
# LUTr-Attribution: jon via Fresh LUTs
# LUTr-Source-Labels: gamma=Other; color=None; key=Neutral; style=NEUTRAL; LUTr assumption=input Rec.709 per repository policy
# LUTr-Conversion-Warning: Input Rec.709 is a LUTr catalog assumption requested for this otherwise unspecified Fresh LUT; it is not verified by the upstream asset.
# LUTr-Note: Preserve this metadata and the upstream license notices when redistributing.
TITLE "Mini 3 pro d-cinelike to rec709"
LUT_3D_SIZE 9
DOMAIN_MIN 0 0 0
DOMAIN_MAX 1 1 1
0 0 0
0.101137 0.0252689 0.0252689
0.239704 0.0599069 0.0599069
0.381537 0.0953689 0.0953689
0.521553 0.130358 0.130358
0.644709 0.161135 0.161135
0.748623 0.187106 0.187106
0.800046 0.199954 0.199954
0.800046 0.199954 0.199954
0.000228885 0.0650339 0.000228885
0.0603799 0.0605325 0
0.197238 0.0645914 0.0142824
0.362097 0.0986496 0.0658274
0.515114 0.132036 0.118349
0.641718 0.161074 0.158175
0.746807 0.18674 0.186358
0.800046 0.199954 0.199954
0.800046 0.199954 0.199954
0.000610361 0.173846 0.000610361
0.0348821 0.171725 0
0.165835 0.165835 0
0.321111 0.154238 0.000106813
0.50135 0.159716 0.0311589
0.656565 0.188663 0.0919051
0.776776 0.212497 0.138277
0.837751 0.224659 0.162249
0.839673 0.22594 0.160327
0.00106813 0.299763 0.00106813
0.00553903 0.300649 0.000885023
0.130648 0.297505 0
0.290852 0.290837 0
0.477577 0.278706 0
0.672786 0.265721 0.0000610361
0.838376 0.273136 0.038819
0.922927 0.285527 0.0770733
0.927047 0.288624 0.0729534
0.00158694 0.447517 0.00158694
0.00161746 0.454078 0.00161746
0.0903487 0.456321 0
0.25391 0.452567 0
0.442939 0.442908 0
0.640024 0.431586 0
0.836255 0.420951 0
0.976486 0.41825 0.0235142
0.974365 0.425544 0.0256352
0.00218204 0.612207 0.00218204
0.00221256 0.62118 0.00221256
0.0513313 0.625498 0.000015259
0.216358 0.623468 0
0.406485 0.615167 0
0.604532 0.604761 0
0.801511 0.594385 0
0.919112 0.576822 0.064271
0.921721 0.580575 0.0782788
0.00277714 0.782086 0.00277714
0.00280766 0.791852 0.00280766
0.0218357 0.797726 0.0009308
0.182757 0.796719 0
0.373175 0.788479 0
0.571099 0.777981 0
0.753826 0.753567 0.0247807
0.851591 0.703944 0.108339
0.868009 0.696498 0.131991
0.0967269 0.863798 0.0967269
0.104173 0.864912 0.104173
0.112062 0.866026 0.106416
0.224002 0.878096 0.0919814
0.374823 0.882597 0.0788739
0.540459 0.86836 0.084596
0.687755 0.83241 0.115953
0.789425 0.789395 0.159442
0.819623 0.773953 0.180377
0.131029 0.868971 0.131029
0.131029 0.868971 0.131029
0.145815 0.870939 0.129061
0.258244 0.882536 0.117464
0.400809 0.886946 0.113054
0.54905 0.876081 0.123919
0.677623 0.848753 0.151247
0.768933 0.814939 0.185061
0.799725 0.799725 0.200275
0.0263676 0.0263676 0.105318
0.0885176 0.0140688 0.0885786
0.228611 0.0454566 0.104372
0.376822 0.0854963 0.125032
0.520333 0.12578 0.144457
0.644038 0.160113 0.163806
0.748104 0.18677 0.18764
0.800046 0.199954 0.199954
0.800046 0.199954 0.199954
0.000259403 0.0631113 0.0629435
0.0585641 0.0585641 0.0585641
0.199176 0.0682536 0.0679179
0.363149 0.103395 0.103166
0.514397 0.132647 0.132433
0.641382 0.160525 0.160784
0.746593 0.186557 0.186755
0.800046 0.199954 0.199954
0.800046 0.199954 0.199954
0 0.172152 0.0353246
0.0340581 0.170886 0.0340581
0.165133 0.165301 0.0281224
0.320699 0.153857 0.0167544
0.501396 0.160357 0.036759
0.657038 0.189319 0.0937362
0.778073 0.213092 0.137835
0.838453 0.225132 0.161547
0.840528 0.226535 0.159472
0.000885023 0.299413 0.00526436
0.00544747 0.300832 0.00544747
0.131533 0.298375 0.0043946
0.292287 0.292058 0.00328069
0.479347 0.280873 0.0011902
0.674815 0.267781 0.0000762951
0.841337 0.274708 0.037705
0.924361 0.28661 0.0756237
0.928847 0.289998 0.0711528
0.00158694 0.449119 0.00158694
0.00161746 0.455955 0.00161746
0.0925002 0.458259 0
0.256352 0.455009 0
0.445441 0.445426 0
0.64268 0.434256 0
0.839033 0.423758 0
0.975662 0.421118 0.0243381
0.973526 0.428412 0.0264744
0.00218204 0.614816 0.00218204
0.00221256 0.623316 0.00221256
0.054078 0.628 0
0.21915 0.626261 0
0.409415 0.617838 0
0.607538 0.607523 0
0.804456 0.597345 0
0.918715 0.579187 0.0669566
0.92076 0.582986 0.0792401
0.0027924 0.784848 0.0027924
0.00282292 0.79469 0.00282292
0.0237888 0.800793 0.000946059
0.185626 0.799603 0
0.375998 0.791074 0
0.573831 0.780667 0
0.754864 0.754589 0.0274052
0.851743 0.70489 0.11043
0.867201 0.697963 0.132799
0.098909 0.864118 0.098909
0.106004 0.865202 0.106004
0.115038 0.866468 0.107988
0.227115 0.878462 0.0934615
0.377722 0.882872 0.081178
0.542382 0.868574 0.0869306
0.688685 0.832639 0.117784
0.789731 0.789715 0.160616
0.819303 0.774411 0.180697
0.131029 0.868971 0.131029
0.131029 0.868971 0.131029
0.146944 0.871077 0.128923
0.259922 0.882673 0.117327
0.40209 0.886931 0.113069
0.549645 0.876005 0.123995
0.67747 0.848798 0.151202
0.768353 0.815198 0.184802
0.799725 0.799725 0.200275
0.0630655 0.0630655 0.251789
0.103105 0.036347 0.229862
0.217288 0.0333257 0.217395
0.366857 0.0639048 0.221439
0.518563 0.104234 0.229511
0.64947 0.141558 0.238102
0.757076 0.1729 0.246448
0.810666 0.189334 0.248295
0.810285 0.189715 0.246509
0.0267033 0.0825971 0.211841
0.0707866 0.0709697 0.202533
0.187259 0.0519112 0.187381
0.352972 0.0789044 0.202457
0.512978 0.111559 0.221073
0.646464 0.143511 0.234394
0.755611 0.173022 0.244877
0.810666 0.189334 0.248295
0.810666 0.189334 0.248295
0 0.169451 0.169451
0.0313573 0.168505 0.168353
0.162631 0.162661 0.162631
0.318898 0.15227 0.152392
0.499779 0.177691 0.177127
0.645792 0.209277 0.208759
0.760464 0.23061 0.230274
0.852872 0.21326 0.213092
0.856214 0.21413 0.213825
0 0.296757 0.1299
0.00448615 0.29897 0.132097
0.130831 0.297673 0.130831
0.292058 0.291829 0.125002
0.479332 0.280674 0.113603
0.67454 0.268482 0.101732
0.82948 0.283284 0.133379
0.948318 0.275349 0.125185
0.955245 0.277638 0.125383
0 0.449042 0.0830854
0 0.455985 0.0902419
0.0928664 0.458381 0.0928664
0.256764 0.455421 0.0897078
0.446067 0.446082 0.0803235
0.643488 0.435035 0.0693065
0.84004 0.424521 0.0589914
0.985321 0.420447 0.066041
0.98468 0.427756 0.0737926
0.000106813 0.615686 0.0416419
0.000015259 0.624582 0.0506447
0.0548257 0.628809 0.0548257
0.219989 0.627039 0.0529183
0.4103 0.618738 0.0445563
0.608454 0.608698 0.0343633
0.805432 0.598611 0.0254978
0.918349 0.579767 0.0866865
0.925628 0.584558 0.0969253
0.000946059 0.786877 0.0144045
0.000946059 0.796979 0.0210575
0.0238041 0.801968 0.023621
0.186648 0.800641 0.0222782
0.376959 0.792233 0.0166781
0.574716 0.781552 0.00955215
0.754955 0.754696 0.0312505
0.851652 0.705074 0.111742
0.867491 0.698512 0.134554
0.0997024 0.864256 0.0999924
0.106706 0.865339 0.111849
0.117998 0.864607 0.117876
0.229923 0.876051 0.103029
0.378805 0.88246 0.0840314
0.542977 0.868574 0.0874647
0.688792 0.832715 0.118181
0.7897 0.789654 0.160449
0.819654 0.773922 0.180346
0.130953 0.869047 0.14258
0.130938 0.869062 0.147143
0.14699 0.871305 0.146868
0.259464 0.883619 0.133333
0.401297 0.888228 0.122576
0.548638 0.876524 0.125582
0.676005 0.849241 0.150759
0.766812 0.8159 0.1841
0.799725 0.799725 0.200275
0.100435 0.100435 0.401083
0.13164 0.0765087 0.38883
0.221195 0.0492561 0.371588
0.358618 0.0543832 0.358709
0.514611 0.0849165 0.350011
0.653864 0.120958 0.34551
0.768597 0.153674 0.343664
0.828122 0.171878 0.340459
0.827787 0.172213 0.338537
0.0706951 0.116136 0.376806
0.111086 0.111131 0.373114
0.197559 0.0688945 0.354376
0.345144 0.0650339 0.345266
0.509468 0.0886854 0.343389
0.651331 0.12224 0.342245
0.767544 0.153613 0.342535
0.828229 0.171771 0.341131
0.82829 0.17171 0.341466
0.0179904 0.176791 0.337209
0.0366064 0.171008 0.333867
0.158343 0.15816 0.32517
0.314168 0.147265 0.314168
0.496223 0.149172 0.307897
0.653803 0.185443 0.321813
0.775753 0.210849 0.331701
0.877012 0.192096 0.317678
0.881025 0.192844 0.319646
0 0.292821 0.292821
0.00386053 0.295323 0.295537
0.128008 0.294881 0.295064
0.289662 0.289448 0.289662
0.47718 0.278294 0.278508
0.660212 0.283436 0.282979
0.847944 0.268528 0.268437
0.990463 0.252232 0.25214
0.996628 0.255665 0.255604
0 0.446586 0.247883
0 0.453925 0.255268
0.0909285 0.456657 0.258015
0.254994 0.453681 0.254994
0.44448 0.44448 0.245808
0.641993 0.433555 0.234882
0.838651 0.423331 0.224674
1 0.417212 0.218509
1 0.424399 0.225971
0 0.614069 0.206973
0 0.62324 0.216114
0.0533455 0.627512 0.220417
0.218647 0.625757 0.218647
0.409064 0.617502 0.210391
0.607141 0.607156 0.200031
0.803311 0.596872 0.190906
0.94844 0.584237 0.206958
0.958907 0.589837 0.216648
0 0.78613 0.172152
0 0.796094 0.182132
0.0226444 0.800885 0.186923
0.19855 0.786053 0.198413
0.375845 0.790204 0.177478
0.572549 0.777707 0.168582
0.731823 0.732052 0.202441
0.858396 0.708247 0.221118
0.895323 0.712489 0.227756
0.100023 0.862913 0.221515
0.107271 0.863798 0.234226
0.118898 0.862119 0.240925
0.23418 0.867689 0.234089
0.378958 0.877165 0.214801
0.541558 0.866575 0.206897
0.685008 0.827436 0.222095
0.779889 0.779858 0.25037
0.838407 0.787549 0.244862
0.13254 0.86746 0.26128
0.132769 0.867231 0.268284
0.147463 0.869886 0.269245
0.2551 0.887556 0.255024
0.395621 0.900725 0.236393
0.548043 0.897246 0.224796
0.683146 0.870893 0.228168
0.777508 0.833127 0.243275
0.813199 0.813199 0.254063
0.137011 0.137011 0.547097
0.161517 0.119127 0.54403
0.23653 0.0856794 0.539132
0.355489 0.0674754 0.527138
0.508064 0.0769818 0.508217
0.654521 0.103975 0.489647
0.777935 0.134508 0.474739
0.846235 0.153765 0.464179
0.845975 0.154025 0.462074
0.115679 0.14992 0.535805
0.148135 0.14818 0.533242
0.222354 0.10663 0.530358
0.345251 0.0766918 0.520577
0.503548 0.0787213 0.503731
0.652384 0.104463 0.487205
0.777401 0.134447 0.474174
0.846433 0.153567 0.465751
0.84654 0.15346 0.46659
0.0647593 0.201755 0.519295
0.07953 0.199771 0.51873
0.188785 0.188907 0.514275
0.308888 0.14316 0.506035
0.4907 0.133623 0.490883
0.659846 0.159335 0.478294
0.791302 0.186801 0.470069
0.900816 0.169055 0.461784
0.905379 0.16965 0.465614
0.0116884 0.291417 0.485161
0.0132143 0.294453 0.488304
0.12282 0.289921 0.488533
0.284962 0.284718 0.483604
0.472709 0.273838 0.472709
0.668574 0.261906 0.460426
0.863981 0.250431 0.448966
1 0.242969 0.441855
1 0.249851 0.448737
0 0.441947 0.441962
0 0.449531 0.449531
0.0867475 0.452491 0.452476
0.250996 0.449668 0.449653
0.440528 0.440528 0.440543
0.638148 0.429709 0.429709
0.834791 0.419501 0.419501
1 0.413428 0.413443
1 0.420859 0.420874
0 0.610285 0.401602
0 0.619394 0.410956
0.0496071 0.623758 0.415335
0.214954 0.622065 0.413626
0.405402 0.613611 0.405402
0.60354 0.60354 0.395102
0.800381 0.5935 0.385061
0.978729 0.586923 0.379141
0.995911 0.59324 0.386923
0 0.782483 0.367163
0 0.792279 0.377203
0.0206912 0.796933 0.382055
0.197223 0.780407 0.386191
0.371969 0.786709 0.371923
0.56936 0.775982 0.360922
0.742138 0.741634 0.36405
0.897704 0.729686 0.361227
0.936141 0.73109 0.369543
0.106538 0.854093 0.379416
0.114 0.854871 0.389151
0.122744 0.853941 0.393515
0.233249 0.862135 0.388876
0.372885 0.88307 0.372671
0.541115 0.89012 0.357092
0.702403 0.861097 0.353597
0.807691 0.80763 0.364172
0.872648 0.811795 0.362448
0.140658 0.859342 0.4065
0.141192 0.858808 0.413275
0.153368 0.861448 0.414923
0.253651 0.883864 0.406012
0.389181 0.907607 0.389029
0.545022 0.91957 0.370291
0.693324 0.904189 0.358114
0.798352 0.86566 0.357366
0.840238 0.840238 0.362051
0.168856 0.168856 0.674281
0.187762 0.156313 0.676371
0.254185 0.124498 0.685054
0.35787 0.0964218 0.686244
0.500725 0.0862898 0.673121
0.649989 0.0981613 0.65008
0.781689 0.121431 0.625315
0.860426 0.139574 0.60705
0.860273 0.139727 0.604959
0.154376 0.178836 0.670237
0.178439 0.178378 0.667369
0.245487 0.141863 0.678141
0.350835 0.103365 0.682063
0.496986 0.0876631 0.670161
0.648219 0.0980392 0.64831
0.78175 0.121431 0.625376
0.860624 0.139376 0.609705
0.860731 0.139269 0.6112
0.109911 0.226276 0.673762
0.118975 0.226047 0.673213
0.226993 0.227207 0.666209
0.324575 0.1776 0.68217
0.485252 0.143984 0.679957
0.657465 0.14818 0.657618
0.799466 0.168887 0.632654
0.917723 0.150591 0.629801
0.922621 0.15111 0.635904
0.0558633 0.304341 0.665461
0.056611 0.307637 0.669459
0.143496 0.299367 0.67776
0.293248 0.293324 0.674968
0.467506 0.268894 0.675944
0.663798 0.256703 0.663798
0.859327 0.24535 0.652506
1 0.238422 0.645533
1 0.245487 0.652583
0.00326543 0.437201 0.643961
0.00292973 0.444953 0.65185
0.0818647 0.447578 0.656016
0.246235 0.444892 0.653346
0.43592 0.43592 0.644343
0.6336 0.425208 0.633616
0.83035 0.415045 0.623499
1 0.408942 0.61738
1 0.416388 0.624842
0 0.605615 0.605386
0 0.614816 0.614816
0.0450904 0.619471 0.619257
0.210513 0.617624 0.617639
0.400931 0.609354 0.609384
0.599023 0.599222 0.599039
0.79585 0.588983 0.588968
0.975875 0.582818 0.582589
1 0.589532 0.589532
0.0010071 0.777447 0.570947
0.00767529 0.783276 0.579873
0.0301213 0.784512 0.583627
0.207065 0.762951 0.576501
0.369207 0.778759 0.574701
0.564721 0.771359 0.564721
0.760861 0.760876 0.553994
0.938796 0.751705 0.547021
0.981888 0.750515 0.551812
0.121614 0.837156 0.538338
0.128634 0.837995 0.544747
0.134157 0.837842 0.547295
0.239673 0.845289 0.546883
0.370764 0.87393 0.544305
0.538186 0.901061 0.538033
0.72163 0.899153 0.526848
0.843015 0.842954 0.514199
0.916136 0.841947 0.513512
0.155627 0.844373 0.550713
0.156405 0.843595 0.556817
0.165866 0.845777 0.559075
0.258076 0.870161 0.559228
0.385443 0.901396 0.552483
0.539544 0.930312 0.539452
0.701732 0.937484 0.520943
0.823774 0.906172 0.503151
0.87364 0.874266 0.49691
0.195392 0.195392 0.780209
0.209537 0.186801 0.784268
0.2701 0.158465 0.803189
0.36257 0.128664 0.818158
0.494072 0.107408 0.819852
0.641077 0.104784 0.804517
0.778454 0.117586 0.778592
0.867918 0.132082 0.755673
0.867872 0.132128 0.753704
0.18584 0.202518 0.77908
0.202289 0.202335 0.776257
0.264332 0.170825 0.79646
0.357702 0.132418 0.814221
0.491096 0.108461 0.817624
0.639872 0.104631 0.803403
0.779187 0.117693 0.779324
0.868025 0.131975 0.759503
0.86807 0.13193 0.761456
0.147723 0.24715 0.796887
0.152743 0.247471 0.796292
0.237629 0.237659 0.801205
0.33254 0.197086 0.831174
0.480934 0.162142 0.843397
0.648753 0.152285 0.827863
0.797879 0.161593 0.798093
0.924575 0.140764 0.803296
0.929381 0.141375 0.811536
0.0986191 0.317861 0.810132
0.0985885 0.321431 0.814557
0.177661 0.316487 0.826017
0.275532 0.275303 0.886671
0.462547 0.263874 0.877867
0.659007 0.251911 0.865873
0.85478 0.240589 0.85478
1 0.233936 0.847913
1 0.240986 0.854963
0.0395209 0.437247 0.818906
0.0386358 0.444526 0.826932
0.0919661 0.445106 0.845243
0.241672 0.440314 0.85565
0.431464 0.431479 0.846784
0.629282 0.420829 0.836133
0.826078 0.410529 0.826078
0.999756 0.404685 0.819959
1 0.411902 0.82742
0 0.600626 0.807736
0 0.610208 0.817319
0.0408026 0.614984 0.82182
0.206241 0.613367 0.820218
0.396658 0.605097 0.811963
0.594781 0.594827 0.801633
0.79147 0.584817 0.79147
0.971969 0.578424 0.785031
1 0.585 0.791852
0.0299992 0.756115 0.757153
0.0402228 0.759701 0.760678
0.0615091 0.759304 0.760266
0.233997 0.732158 0.732799
0.376181 0.751003 0.752499
0.560082 0.766979 0.766949
0.756237 0.756497 0.756252
0.937667 0.74966 0.749477
1 0.755184 0.755413
0.143343 0.814603 0.680385
0.149599 0.815686 0.683848
0.152453 0.816175 0.685237
0.252964 0.820096 0.686809
0.37435 0.849226 0.700801
0.532586 0.885512 0.717128
0.727871 0.914565 0.727764
0.891676 0.891615 0.710292
0.967163 0.876539 0.701305
0.175326 0.824674 0.679072
0.176257 0.823758 0.68426
0.183246 0.82533 0.686549
0.26775 0.848692 0.695583
0.385672 0.881559 0.702129
0.531853 0.919997 0.705287
0.701656 0.954299 0.701488
0.851698 0.950927 0.682078
0.914473 0.91516 0.661799
0.200275 0.200275 0.799725
0.211704 0.1944 0.8056
0.271534 0.168215 0.831785
0.361654 0.140658 0.859342
0.488899 0.119387 0.880613
0.632914 0.112871 0.887129
0.771756 0.119951 0.880049
0.868971 0.131029 0.868971
0.868971 0.131029 0.868971
0.194995 0.206821 0.805005
0.202457 0.202472 0.808164
0.264485 0.17293 0.834165
0.357336 0.142519 0.860853
0.48658 0.119814 0.881209
0.632364 0.112871 0.887129
0.773342 0.120104 0.879896
0.868971 0.131029 0.868971
0.868971 0.131029 0.868971
0.161898 0.252979 0.838102
0.163714 0.251896 0.839582
0.220279 0.220172 0.878599
0.32018 0.178378 0.925261
0.475746 0.139513 0.960357
0.655985 0.122881 0.964843
0.82153 0.128145 0.944503
0.923064 0.139193 0.923064
0.927657 0.139879 0.927657
0.120928 0.324407 0.879072
0.119448 0.327382 0.88069
0.159899 0.304662 0.933822
0.270634 0.270634 0.999985
0.459083 0.260212 1
0.655711 0.2486 1
0.851575 0.237613 1
0.997284 0.232197 0.997284
0.997299 0.239414 0.997299
0.0709697 0.438361 0.92903
0.0684062 0.445075 0.931594
0.0885176 0.441855 0.983398
0.238529 0.437217 1
0.428458 0.428443 1
0.626322 0.417899 1
0.823133 0.407843 1
0.996506 0.402121 0.996551
0.997909 0.409537 0.997909
0.0179446 0.594202 0.971496
0.0166476 0.604257 0.980926
0.0403449 0.611704 0.996567
0.203326 0.610437 0.998947
0.39379 0.602228 0.993088
0.591821 0.59202 0.983978
0.788495 0.581872 0.975067
0.969253 0.575128 0.969329
0.999817 0.581796 0.975082
0.0771038 0.728176 0.888167
0.0862745 0.731579 0.88751
0.102342 0.732052 0.885328
0.210925 0.747478 0.912749
0.363241 0.767788 0.951888
0.556924 0.763607 0.952026
0.753079 0.753307 0.941314
0.93434 0.746303 0.93434
1 0.751781 0.939788
0.166934 0.791714 0.791882
0.172366 0.793088 0.79324
0.174685 0.793652 0.79382
0.267018 0.796872 0.797131
0.380957 0.821424 0.821591
0.526925 0.853193 0.853391
0.716091 0.896147 0.896269
0.899382 0.899428 0.899382
0.999557 0.896559 0.896422
0.195575 0.804425 0.780636
0.196445 0.803555 0.784588
0.201648 0.804685 0.78648
0.279927 0.825467 0.801831
0.389029 0.855802 0.818204
0.5243 0.893889 0.835294
0.688258 0.939025 0.85304
0.867201 0.97763 0.867155
0.960281 0.961013 0.848981
0.200275 0.200275 0.799725
0.210437 0.195041 0.804959
0.270069 0.168765 0.831235
0.360082 0.141039 0.858961
0.487327 0.119539 0.880461
0.631495 0.112871 0.887129
0.77055 0.119844 0.880156
0.868971 0.131029 0.868971
0.868971 0.131029 0.868971
0.195621 0.206073 0.804379
0.202258 0.202182 0.807111
0.264042 0.172778 0.833127
0.356283 0.142733 0.860441
0.485588 0.11989 0.88098
0.631632 0.112871 0.887129
0.773068 0.120073 0.879927
0.868971 0.131029 0.868971
0.868971 0.131029 0.868971
0.162341 0.252293 0.837659
0.164019 0.251347 0.839139
0.220066 0.220096 0.87808
0.320134 0.178439 0.925399
0.476219 0.139605 0.961074
0.657099 0.122988 0.965713
0.823072 0.128328 0.945296
0.923934 0.139315 0.923934
0.929046 0.140093 0.929046
0.120897 0.324483 0.879103
0.119203 0.327916 0.881041
0.160067 0.304997 0.934844
0.271763 0.271763 1
0.460395 0.261494 1
0.657313 0.250217 1
0.853346 0.239368 1
0.997284 0.234241 0.997284
0.997299 0.24155 0.997299
0.070573 0.439414 0.929427
0.0679789 0.446265 0.932036
0.0889143 0.443198 0.984771
0.240284 0.438743 1
0.430274 0.430274 1
0.628229 0.419791 1
0.825086 0.409567 1
0.997284 0.40412 0.997971
0.997909 0.41149 0.997909
0.0194247 0.595819 0.980575
0.0166018 0.605997 0.983398
0.0416571 0.613474 0.998032
0.205234 0.612329 1
0.395636 0.604089 1
0.593698 0.593698 1
0.790341 0.583459 1
0.970657 0.576852 0.999817
0.99852 0.583261 0.99852
0.0890059 0.723354 0.910994
0.0953231 0.728038 0.904677
0.106294 0.731701 0.904875
0.209522 0.751736 0.942702
0.364157 0.771176 0.990662
0.558648 0.765515 1
0.754879 0.75465 1
0.935775 0.747768 1
0.999115 0.751842 0.999115
0.176287 0.784726 0.823713
0.180148 0.787259 0.819852
0.181857 0.788373 0.818158
0.260945 0.807202 0.840711
0.377707 0.833585 0.878126
0.528435 0.866499 0.928527
0.72047 0.904418 0.990539
0.898299 0.898299 0.999863
0.999207 0.894224 0.999222
0.199954 0.800046 0.800046
0.199954 0.800046 0.800046
0.20502 0.801312 0.801312
0.28278 0.820752 0.820752
0.390524 0.847669 0.847669
0.52166 0.880446 0.880446
0.677241 0.919341 0.919341
0.853712 0.962844 0.96202
0.98761 0.988296 0.987396
