site/assets/luts/freshluts--0001225-yatna-color.cube
# LUTr-Schema-Version: 2
# LUTr-ID: freshluts--0001225-yatna-color
# LUTr-Title: YATNA COLOR
# LUTr-Collection: Fresh LUTs
# LUTr-Collection-ID: freshluts-community
# LUTr-Source: https://freshluts.com
# LUTr-Retrieved: 2026-07-27
# LUTr-Source-File: submissions-raw/freshluts/cubes/1225__Yatna_COLOR.cube
# LUTr-Source-Format: CUBE
# LUTr-Source-SHA256: 7199fecb90a682da24f3f5f2460329a620a375b2c92ae8949d94aed508d7ba55
# LUTr-License: CC0-1.0
# LUTr-License-URL: https://freshluts.com/termsandconditions
# LUTr-License-Basis: site-terms
# LUTr-Transform-Class: creative-look
# LUTr-Tags: creative, freshluts, community, cube, orange, sony-s-log2
# LUTr-Input-Color-Space: sony-slog2-sgamut
# LUTr-Input-Gamut: sony-s-gamut
# LUTr-Input-Transfer: sony-s-log2
# LUTr-Output-Color-Space: srgb
# LUTr-Output-Gamut: rec709
# LUTr-Output-Transfer: srgb
# LUTr-Color-Space-Confidence: inferred-from-source-label
# LUTr-Domain-Normalized: true
# LUTr-Shaper: none
# LUTr-Original-Grid: 33x33x33
# LUTr-Conversion-Grid: 33x33x33
# LUTr-Conversion-Interpolation: none
# LUTr-Conversion-Method: Metadata normalization; numeric LUT samples preserved
# LUTr-Conversion-Tool: LUTr scripts/convert-all-to-cube.mjs 2.0.0
# LUTr-Conversion-Date: 2026-07-28
# LUTr-Asset-URL: https://freshluts.com/luts/1225
# LUTr-Author: Antony Eliezer
# LUTr-Author-URL: https://freshluts.com/users/32961
# LUTr-Attribution: Antony Eliezer via Fresh LUTs
# LUTr-Source-Labels: gamma=Sony S-Log 2; color=Orange; key=Neutral; style=Teal - Orange
# LUTr-Note: Preserve this metadata and the upstream license notices when redistributing.
# LUTr-Upstream-Comment: VEGAS Pro LUT
TITLE "YATNA COLOR"
LUT_3D_SIZE 33
DOMAIN_MIN 0 0 0
DOMAIN_MAX 1 1 1
0.02690452 0.03932709 0.05487014
0.02775626 0.03934963 0.05489448
0.02860768 0.03937227 0.05491913
0.02945875 0.03941975 0.05494408
0.0321953 0.04317447 0.05501922
0.03614885 0.04331221 0.05512147
0.04578486 0.04355746 0.05529459
0.05718082 0.04510388 0.05634686
0.07158451 0.04915904 0.05638349
0.09175844 0.05377416 0.05558329
0.11918049 0.05993746 0.05570837
0.15704313 0.06905566 0.05356183
0.20970851 0.07951003 0.05072037
0.28740418 0.08848678 0.04394617
0.37758347 0.09361099 0.03439333
0.46173862 0.10181084 0.02233448
0.52961797 0.11443761 0.00678304
0.58940846 0.12599169 0.00099082
0.63828611 0.13308519 0.00113178
0.68071938 0.14139315 0.00130004
0.71824384 0.15544352 0.00158243
0.74790156 0.17845477 0.00192028
0.77424759 0.20494652 0.00234018
0.79568654 0.22503684 0.00281729
0.81137079 0.2459259 0.00332445
0.82520515 0.25862598 0.00371241
0.83447516 0.26790398 0.00403721
0.8441031 0.27148199 0.00408606
0.85110873 0.28005669 0.00413612
0.8596372 0.28493878 0.00418729
0.86932361 0.29092494 0.00423949
0.87806457 0.29829204 0.00429257
0.88820314 0.31970492 0.00434642
0.02694353 0.04020315 0.05491821
0.02779462 0.04022589 0.05494316
0.02864533 0.04024876 0.05496848
0.02949561 0.04043614 0.05499422
0.03251848 0.04405634 0.05507348
0.03652563 0.04419424 0.05517665
0.04562045 0.04515631 0.05583838
0.05685207 0.04657702 0.05684094
0.07058126 0.05064392 0.05776963
0.09011719 0.05511131 0.05707642
0.115254 0.06191412 0.05577045
0.15301828 0.07176528 0.05338616
0.20627971 0.08300141 0.05022534
0.28365082 0.09435669 0.04327722
0.37302044 0.10211565 0.0333802
0.45727965 0.11135412 0.02106296
0.52556413 0.12392201 0.00509958
0.59052086 0.12708725 0.0010654
0.63931489 0.13414958 0.00120981
0.68130994 0.14304763 0.00138227
0.71792054 0.16357306 0.00166668
0.74813753 0.18807442 0.00200777
0.77427471 0.21325386 0.00242934
0.79575515 0.23537843 0.00290841
0.81073791 0.25439566 0.00341694
0.82234234 0.26657975 0.00380646
0.83818042 0.25364369 0.00413426
0.84868789 0.25549299 0.00418539
0.85656929 0.25980082 0.00423755
0.86632538 0.26429665 0.00429061
0.8772189 0.26847911 0.00434443
0.88756841 0.27140293 0.00439886
0.8753469 0.30885941 0.04609016
0.0402471 0.04107963 0.05496754
0.04162013 0.04110263 0.05499327
0.04299591 0.04112577 0.05501946
0.04288838 0.04144634 0.05504621
0.03760474 0.04493854 0.05512963
0.04011025 0.04516435 0.05527807
0.04817183 0.0493844 0.05634476
0.05668558 0.05060529 0.05735672
0.06913181 0.05509569 0.05833517
0.08632635 0.05939635 0.05754443
0.10923796 0.06388641 0.05583574
0.14561267 0.0756483 0.05437246
0.1966826 0.08933681 0.04978744
0.27809471 0.1024612 0.04157508
0.36761215 0.11112387 0.03237559
0.45224029 0.12114786 0.01982373
0.52701294 0.12480659 0.00499172
0.59134465 0.12812874 0.00114477
0.63910741 0.13721898 0.00129244
0.68168402 0.15113977 0.00146848
0.71539855 0.17224792 0.00175492
0.74823385 0.19698757 0.00209853
0.77430081 0.22382177 0.0025217
0.79572397 0.24632308 0.00300219
0.80982852 0.25452569 0.00351198
0.83906925 0.20506375 0.00390353
0.85763389 0.18888043 0.00423561
0.86737943 0.19637458 0.00428864
0.87446475 0.20811188 0.00434244
0.88154191 0.21883193 0.00439685
0.89111269 0.22994998 0.00445171
0.9013043 0.23767471 0.00450683
0.89080906 0.27591801 0.04581429
0.05095778 0.04195663 0.0550185
0.05189535 0.04197991 0.05504521
0.05283301 0.04200336 0.05507251
0.05123781 0.04244918 0.05510046
0.03891519 0.04582111 0.05518809
0.04027801 0.04929717 0.05583937
0.04756727 0.05050121 0.05687458
0.05596103 0.05474946 0.05821327
0.06754027 0.0575018 0.05889127
0.08369534 0.06188613 0.05825127
0.10068692 0.06695171 0.05590468
0.13635457 0.08004339 0.05601804
0.18591993 0.09661157 0.04932008
0.26886913 0.11251041 0.04048157
0.36013621 0.12440176 0.02870429
0.45184001 0.12802491 0.01772044
0.52753735 0.13027136 0.00358335
0.59048641 0.13389403 0.00122917
0.63849968 0.14491743 0.00137979
0.67860359 0.1601633 0.00155852
0.71533716 0.18014359 0.0018468
0.74816936 0.2078937 0.00219188
0.77416718 0.23462828 0.00261648
0.79229116 0.25388515 0.0030986
0.83306539 0.16541283 0.00360947
0.8471036 0.17993647 0.00400309
0.85750127 0.19639464 0.00434045
0.8672753 0.20427939 0.00439484
0.87435037 0.21555327 0.00444969
0.8814193 0.22530364 0.00450481
0.89092743 0.23737223 0.00455999
0.90111369 0.2436302 0.00461503
0.89149964 0.2808629 0.0452343
0.05019271 0.04735725 0.05639944
0.05030192 0.04784158 0.05673354
0.05039532 0.04833347 0.05707452
0.05005977 0.04883358 0.05742298
0.03756554 0.05173787 0.05879656
0.03880548 0.05282902 0.06016275
0.04541699 0.05691163 0.06136289
0.05252181 0.05783444 0.0626623
0.06610214 0.06144281 0.06164322
0.08025838 0.06589567 0.0606617
0.09423665 0.07024889 0.0585236
0.12420085 0.08382245 0.05609383
0.17367969 0.10215749 0.05076353
0.26062325 0.11966839 0.03995392
0.35825101 0.13224615 0.02778914
0.44996747 0.13716076 0.01430675
0.52656484 0.13890268 0.00124611
0.58784467 0.14393549 0.00131872
0.63567859 0.15297754 0.00147193
0.67816716 0.16942555 0.00165273
0.71514964 0.19100046 0.00194189
0.74796319 0.21867409 0.00228754
0.77165383 0.24325511 0.00271281
0.81399828 0.16956013 0.0031956
0.8364293 0.17245032 0.00370901
0.84696412 0.1887354 0.00410489
0.85885847 0.20388754 0.00444766
0.86715293 0.2121724 0.00450278
0.87422204 0.22201221 0.00455796
0.88128728 0.23204124 0.00461301
0.89073533 0.24436042 0.00466771
0.90092385 0.25024959 0.00472181
0.89149785 0.2846342 0.04394976
0.04502136 0.05657288 0.06170267
0.04508417 0.05725919 0.06222843
0.04512829 0.05795819 0.06276383
0.04396601 0.05867083 0.0633096
0.03473058 0.05927096 0.06423508
0.03850744 0.05998362 0.06428462
0.04218145 0.06165386 0.06483616
0.04949686 0.06473082 0.06419741
0.06213493 0.06869207 0.06470985
0.07456143 0.07285237 0.06467851
0.08820219 0.08026098 0.06071492
0.10805777 0.08833935 0.05618574
0.16448247 0.10690124 0.05247414
0.24923199 0.1258188 0.04086928
0.35381192 0.14052676 0.02501861
0.44758943 0.14687917 0.01044598
0.52337736 0.15011485 0.0013172
0.58489454 0.15487678 0.00141557
0.63408333 0.16391855 0.00156828
0.67536563 0.17868119 0.0017501
0.71477294 0.20212494 0.00204015
0.7451939 0.22930704 0.002384
0.78415787 0.19257636 0.00280901
0.819664 0.15549368 0.00329074
0.83608013 0.1826272 0.00380465
0.8467353 0.19914582 0.00420728
0.85821748 0.21296646 0.00455593
0.86702091 0.22077452 0.00461099
0.87408882 0.2305223 0.00466571
0.88115549 0.24025793 0.00471984
0.89042342 0.24989088 0.00477315
0.90074944 0.25599039 0.0048254
0.89152259 0.29095978 0.04229802
0.0419817 0.06863218 0.067371
0.04300154 0.06885117 0.06741439
0.04402224 0.06907229 0.06745888
0.04181936 0.06994066 0.06814952
0.03051304 0.06993519 0.06759721
0.03590219 0.06775524 0.06689498
0.04024113 0.07218999 0.06852069
0.04422493 0.07782585 0.06965153
0.05435859 0.08300608 0.07317305
0.06981812 0.08920018 0.07397896
0.08433538 0.09669698 0.06700335
0.10427434 0.09985392 0.06016141
0.1455837 0.11507314 0.05318191
0.23190185 0.1339542 0.0439229
0.33596659 0.15215759 0.02610309
0.44409734 0.15896831 0.00590487
0.5179413 0.16056694 0.00142614
0.58164287 0.16367687 0.00151895
0.63077706 0.17537519 0.00167185
0.67385489 0.19129182 0.00185053
0.71219182 0.21525568 0.00214121
0.74350584 0.23982595 0.00248323
0.79871881 0.13708413 0.00290658
0.81935585 0.16482179 0.00338598
0.83564001 0.19026928 0.00389962
0.84649366 0.20681511 0.00430498
0.85752481 0.22095154 0.0046637
0.86684012 0.22841205 0.00471786
0.87396085 0.2381123 0.0047712
0.88103426 0.24775022 0.0048235
0.8881138 0.25739494 0.0048745
0.89870828 0.26359683 0.00492397
0.89199507 0.29766399 0.04114896
0.03625837 0.07078462 0.0741259
0.03649189 0.07063444 0.07458276
0.03671803 0.07048267 0.07504521
0.03710281 0.0704124 0.07551344
0.03844101 0.07102113 0.0756186
0.04000218 0.07182848 0.07570815
0.04671433 0.07568374 0.07741032
0.05706584 0.07773663 0.07853735
0.0714163 0.08429238 0.07408075
0.10291398 0.09085418 0.06850043
0.1498373 0.0985655 0.06723717
0.20819604 0.10343766 0.06394903
0.2804656 0.10498293 0.06080382
0.36841792 0.09805541 0.05518267
0.35867721 0.13139576 0.03828136
0.39861608 0.18538058 0.00661181
0.500323 0.19523564 0.00166701
0.57243001 0.20232682 0.00175662
0.62805951 0.20408127 0.00184655
0.6726647 0.21716814 0.00201057
0.71041435 0.23116603 0.00224895
0.77622801 0.11371677 0.00258641
0.80026352 0.14731005 0.00300355
0.81903839 0.17521134 0.00348151
0.83523989 0.20016016 0.00399518
0.84629184 0.21694146 0.00440425
0.8569178 0.22982575 0.00476926
0.8667137 0.23856579 0.0048216
0.87384892 0.24566744 0.00487265
0.8809346 0.25550765 0.00492218
0.88802916 0.26535085 0.00496995
0.8985247 0.27011031 0.00501573
0.89225674 0.30317548 0.04088585
0.07930975 0.07803153 0.06045093
0.08055615 0.07850331 0.06071053
0.08180918 0.07898038 0.06097386
0.06789951 0.08072682 0.07008989
0.042856 0.08187807 0.0871326
0.04714267 0.08485722 0.08437327
0.0527021 0.08867989 0.08458943
0.06137862 0.09054666 0.08798384
0.07407617 0.09741732 0.08528046
0.09175722 0.10277947 0.07921617
0.13593803 0.11543146 0.0723076
0.2024636 0.12669255 0.06818359
0.28267866 0.13484935 0.06108037
0.36727506 0.13304886 0.05619247
0.45129547 0.12632217 0.04990498
0.52898729 0.10945791 0.04118364
0.59236634 0.09904338 0.0329643
0.64453304 0.09046238 0.02561209
0.68342912 0.0890476 0.01922664
0.71989989 0.09533657 0.01328076
0.75059497 0.11223793 0.00495088
0.77573836 0.13222849 0.002714
0.80126643 0.16323292 0.00312123
0.8193332 0.18616277 0.00357415
0.83565539 0.21122755 0.00408701
0.84611076 0.22600746 0.00450066
0.85636061 0.23910353 0.0048708
0.86637449 0.24708727 0.00492039
0.87335008 0.25620076 0.00496823
0.88027972 0.26560867 0.00501409
0.88798189 0.27394241 0.00505774
0.89925438 0.27806363 0.005099
0.89421982 0.30980811 0.04417554
0.09027383 0.09256148 0.06227225
0.09179029 0.09311847 0.06255364
0.09335842 0.09368196 0.06284244
0.06957508 0.09664419 0.08037199
0.04596162 0.10064383 0.10052215
0.05513254 0.10661962 0.09760924
0.05923716 0.10673599 0.09837348
0.06404258 0.11027807 0.10020859
0.07715382 0.11752063 0.10456664
0.09527934 0.12602407 0.10065392
0.12310556 0.13585058 0.08636851
0.18315564 0.15123817 0.07665938
0.26533806 0.16546598 0.06867581
0.36111209 0.17211016 0.05648619
0.4462291 0.16878423 0.04854832
0.52248907 0.16269483 0.0419296
0.58489549 0.15336154 0.03380929
0.63908184 0.14880574 0.02526644
0.68168843 0.14828117 0.01588137
0.71609354 0.15168022 0.00983667
0.74976969 0.15698513 0.00341914
0.7778936 0.17074685 0.00296586
0.80154401 0.18671861 0.00328013
0.81894886 0.20624544 0.00370443
0.83536458 0.22253761 0.00417695
0.84548497 0.23542005 0.00458925
0.85566497 0.2479187 0.0049665
0.86428875 0.2545318 0.00501244
0.87135255 0.26204798 0.00505618
0.87836546 0.2691572 0.00509753
0.88761127 0.2742101 0.00513629
0.8951351 0.28007808 0.0051723
0.90373951 0.28694859 0.00520541
0.10554997 0.11137693 0.06639874
0.10692534 0.1122686 0.06646577
0.10854357 0.11293993 0.06676868
0.07359443 0.12155319 0.09601102
0.05219664 0.12887976 0.11543423
0.06064 0.13436408 0.11631621
0.06425691 0.13541423 0.11753389
0.06949037 0.13808344 0.11635146
0.08116309 0.14489432 0.12212527
0.10689563 0.16160139 0.13105744
0.13976385 0.17944445 0.12246274
0.17824847 0.18707323 0.09790577
0.25265095 0.2029195 0.0784621
0.35453859 0.216783 0.06600823
0.45455062 0.22353205 0.04849701
0.539271 0.22413865 0.02996836
0.60053527 0.21857679 0.02212702
0.64937156 0.21290906 0.01259387
0.68970543 0.21295518 0.00616825
0.72432375 0.21252322 0.00307215
0.75404751 0.21386376 0.00319787
0.77992684 0.21763259 0.00335525
0.80212957 0.22799103 0.00361033
0.81931347 0.23365685 0.0039374
0.83546907 0.24717213 0.00435947
0.84578353 0.2510874 0.00470451
0.85893202 0.26582596 0.00506646
0.86674523 0.26815352 0.00509626
0.8741405 0.27697814 0.00513491
0.8815152 0.28399161 0.00517103
0.89338708 0.276622 0.00520424
0.89921081 0.29393044 0.00523444
0.88861322 0.33348706 0.05087871
0.11440455 0.14845021 0.08512715
0.12245078 0.14708456 0.08058394
0.13082585 0.14594761 0.07598796
0.08791758 0.17033288 0.12369291
0.06090342 0.1788726 0.1541492
0.06601339 0.18219306 0.15822512
0.08288419 0.1974663 0.1571506
0.09096705 0.20134676 0.15660588
0.09707107 0.20556895 0.15905927
0.11957876 0.2156741 0.16466634
0.17051749 0.23134266 0.17812961
0.20419115 0.24216613 0.14649957
0.24208713 0.24208118 0.11064548
0.32437816 0.2530219 0.08416028
0.4256461 0.26659191 0.0647066
0.51592153 0.27028763 0.0467533
0.58899719 0.27357149 0.01979278
0.6418438 0.26936719 0.00955274
0.68309522 0.26727259 0.00455773
0.71837729 0.26652896 0.00357835
0.75146437 0.26757547 0.00369928
0.7795217 0.27335021 0.00383881
0.80327678 0.27667037 0.00403972
0.82396191 0.28024253 0.0042911
0.83824855 0.2832343 0.00462545
0.84926528 0.28378096 0.00490204
0.86221617 0.2863825 0.00519798
0.87020522 0.28601068 0.00518453
0.87744921 0.29290864 0.00520498
0.88463235 0.30101618 0.00523338
0.89685184 0.29177687 0.00526058
0.90326107 0.30165011 0.00528458
0.88989449 0.35231814 0.0551889
0.16332106 0.18944493 0.09026004
0.16543642 0.19113055 0.09128064
0.16756544 0.19283563 0.09231687
0.10158975 0.22463025 0.15961298
0.07407226 0.23022956 0.19032262
0.08515806 0.23503755 0.19474013
0.11012169 0.25501391 0.1961794
0.11626855 0.25904432 0.19483922
0.12401804 0.26446193 0.19719015
0.13780423 0.27019271 0.20082599
0.17629883 0.28235725 0.20938949
0.24356358 0.29973513 0.21391682
0.27632543 0.30803093 0.17177854
0.31678575 0.30054003 0.12861043
0.38894251 0.30438301 0.0907444
0.48602277 0.31466237 0.06823169
0.56211662 0.31705406 0.04918533
0.62469703 0.31718481 0.02407425
0.67398036 0.32018444 0.00518244
0.71115208 0.31677985 0.0041247
0.7475661 0.31781569 0.00425662
0.77505541 0.31920949 0.00438844
0.80083883 0.32193896 0.00455199
0.8223691 0.3243497 0.00476451
0.83784306 0.32501218 0.00501284
0.84905428 0.3187784 0.00521433
0.86079425 0.31479096 0.00542003
0.87013566 0.30623078 0.00531442
0.87756288 0.30763543 0.00527918
0.88477868 0.31133115 0.00528688
0.89744067 0.30250278 0.00530463
0.90476453 0.31353748 0.00532226
0.88849723 0.36587009 0.05936036
0.2167726 0.25487947 0.11781696
0.21955535 0.25691652 0.11950889
0.22236107 0.25897855 0.12122542
0.12558559 0.28112668 0.19928847
0.09206267 0.28398195 0.22962511
0.11425413 0.29418111 0.23500465
0.14727694 0.31863481 0.23942013
0.15607306 0.32355499 0.23950925
0.16286065 0.32492417 0.24002288
0.17390338 0.33051291 0.24233903
0.19486663 0.33658454 0.24776548
0.25980493 0.35327742 0.25950542
0.32630435 0.36760652 0.24868472
0.36716864 0.37629354 0.19977206
0.40505341 0.37015715 0.15442003
0.4666248 0.36782888 0.10996074
0.55004656 0.37647521 0.08459361
0.61186492 0.3791326 0.06426791
0.66113311 0.37732974 0.03930941
0.70619142 0.37655115 0.01421312
0.74315041 0.37504208 0.00481317
0.7741434 0.37003544 0.00494994
0.7973277 0.36933571 0.00510856
0.82028788 0.36895201 0.00527878
0.83488786 0.36437371 0.00549712
0.84620667 0.35727885 0.00561994
0.85928631 0.34995678 0.00575675
0.86788321 0.334387 0.0055221
0.87569553 0.32648355 0.005399
0.88319033 0.32444939 0.00533419
0.89788562 0.31404126 0.00533779
0.90470153 0.32736146 0.00534747
0.88681155 0.37859127 0.06759964
0.28998291 0.32839391 0.16317262
0.29326764 0.33057597 0.16535848
0.26065737 0.34175965 0.19650444
0.17159048 0.36963123 0.28083602
0.2022025 0.37951365 0.28976771
0.18361962 0.3802588 0.28937671
0.20256275 0.39053217 0.29559925
0.21862942 0.39596024 0.2974245
0.22735925 0.40001264 0.29776606
0.23864482 0.40176785 0.29959959
0.25407851 0.40715569 0.30010018
0.3032153 0.41696739 0.3098717
0.38552123 0.43642253 0.33116695
0.41855821 0.44117317 0.29792026
0.44864848 0.44106197 0.24243018
0.47654483 0.42868966 0.18786797
0.51862943 0.41533899 0.13584667
0.58903033 0.42008322 0.10840659
0.63888496 0.41719639 0.08922686
0.68442822 0.41803753 0.07131508
0.72748423 0.41498542 0.04327945
0.76426041 0.41564193 0.01127314
0.792916 0.41446972 0.00827089
0.81746137 0.41101766 0.00587467
0.83584863 0.40926656 0.00600858
0.84839737 0.40019834 0.00610705
0.86307883 0.39200705 0.00615344
0.86383402 0.36660966 0.00585111
0.87444508 0.35217172 0.00558485
0.88219243 0.34489876 0.00543464
0.89780247 0.32576266 0.00536324
0.90290993 0.33843127 0.00536144
0.88190275 0.391516 0.07548635
0.35950044 0.39860862 0.22680914
0.36274186 0.40079397 0.22969396
0.24412702 0.42113566 0.31562966
0.25245523 0.43082002 0.33267289
0.2473966 0.43652254 0.33702275
0.25545287 0.44350511 0.3409887
0.27685493 0.44910243 0.34617206
0.28714427 0.45154551 0.34855318
0.29504436 0.45464042 0.35002065
0.30230406 0.45822155 0.34914747
0.31414956 0.4622497 0.35050228
0.33692017 0.46644518 0.3547833
0.39742538 0.48116198 0.36870825
0.47230646 0.49653187 0.38893917
0.48408726 0.49208727 0.34033996
0.50559121 0.48755935 0.28371617
0.52669185 0.47245216 0.21963821
0.55856985 0.45605019 0.16127649
0.61985183 0.45738694 0.13321435
0.66837829 0.45715073 0.11900494
0.71020347 0.45291528 0.10116957
0.74855626 0.45397079 0.08254874
0.78505069 0.45315191 0.05232906
0.81137824 0.45064321 0.0354231
0.83439589 0.44607657 0.02456742
0.84824103 0.43786493 0.01391194
0.85951722 0.42914823 0.00664041
0.8693651 0.41103429 0.00622259
0.87585241 0.38818511 0.00588855
0.88192677 0.36899656 0.00557266
0.89760172 0.34214383 0.00543469
0.9029566 0.35023576 0.00536462
0.8789624 0.4071146 0.08468816
0.3735536 0.46386871 0.32781708
0.29243395 0.47335592 0.37093672
0.30703631 0.47967151 0.37672514
0.29536209 0.48182565 0.38078353
0.31279179 0.48868063 0.3845776
0.31752226 0.49031988 0.38566571
0.32204053 0.49319187 0.38754541
0.32786182 0.49528462 0.38972396
0.33396846 0.49778157 0.38912547
0.34011686 0.50138503 0.3898595
0.35135284 0.50408643 0.39118811
0.37781295 0.5117265 0.39890885
0.42032591 0.52274799 0.4094826
0.48472428 0.53393382 0.42516991
0.52927071 0.54475892 0.42685515
0.54324484 0.54161394 0.38025618
0.56748801 0.53982705 0.32398483
0.58393657 0.52330077 0.2592161
0.60822916 0.50322503 0.1856727
0.66124862 0.50136971 0.15833986
0.70266557 0.49620724 0.13602106
0.73981279 0.49242255 0.1185453
0.77200735 0.48777753 0.10608963
0.80160564 0.48544201 0.09069882
0.82620507 0.48251444 0.06994834
0.84373701 0.47431052 0.05248704
0.85903764 0.46511641 0.02829011
0.86742973 0.44567084 0.00670439
0.87498093 0.42799738 0.00623313
0.88600707 0.40125075 0.00585674
0.89159602 0.37321249 0.0055423
0.9030093 0.36613372 0.00541072
0.87628287 0.42870218 0.09655517
0.36410466 0.52531195 0.4181501
0.36378244 0.52929515 0.4211573
0.36896178 0.53202993 0.4243978
0.37490758 0.53379554 0.42718524
0.38084146 0.53729683 0.42915329
0.38487577 0.53863037 0.43042243
0.38923892 0.53976661 0.43233085
0.39783126 0.54323512 0.43586493
0.40567115 0.54525906 0.43657681
0.41713852 0.54757643 0.44001538
0.42634922 0.55065995 0.44146803
0.43823558 0.55589569 0.44269019
0.46077272 0.56226653 0.45262986
0.5025515 0.57429898 0.4645386
0.55698812 0.58721519 0.48287761
0.57868487 0.5882827 0.46683884
0.58407491 0.57943887 0.42072129
0.60204113 0.57243949 0.36764652
0.61495513 0.55689561 0.29734108
0.63505781 0.53415984 0.22006813
0.68388581 0.53095675 0.18862909
0.72393525 0.52706242 0.16906828
0.75853628 0.5228141 0.14910355
0.79435498 0.52039427 0.13075525
0.82497346 0.5182668 0.10361214
0.8461557 0.51077414 0.07362193
0.85565335 0.49808672 0.06745167
0.8633796 0.48101649 0.04127987
0.87537962 0.46256909 0.00959107
0.88506114 0.43934548 0.00617794
0.89383787 0.41786787 0.00580046
0.89939088 0.39313072 0.00549807
0.88268489 0.43436936 0.08456381
0.41912094 0.56726658 0.46177363
0.42344746 0.56853366 0.46474075
0.42683178 0.56961519 0.46640041
0.43002295 0.57084757 0.4685981
0.43530777 0.57280344 0.46976721
0.43939087 0.57498521 0.47132859
0.44233951 0.57624316 0.47335219
0.44780248 0.57959753 0.47425297
0.45446149 0.58066761 0.47546613
0.46505159 0.58316761 0.48005301
0.47454002 0.58538049 0.4815039
0.48526409 0.59018886 0.48330492
0.49601862 0.59532684 0.48835692
0.52490574 0.60284549 0.49780971
0.56023419 0.61149931 0.50955582
0.59864646 0.62288249 0.52461386
0.60727948 0.61664081 0.49657419
0.61542022 0.61046106 0.45474002
0.62800157 0.60231179 0.40355152
0.64224327 0.58536237 0.33482832
0.66254359 0.5629189 0.25600556
0.70691305 0.56079829 0.22467776
0.74420428 0.55669987 0.20534833
0.77939653 0.55086821 0.18412277
0.81090575 0.5488956 0.16478573
0.83632725 0.54379779 0.1365591
0.85628235 0.53487515 0.1021437
0.867854 0.5191415 0.06871321
0.87171912 0.49802765 0.05327819
0.88323611 0.47542635 0.01775495
0.89094478 0.45343736 0.00814939
0.90143287 0.43727371 0.00578585
0.86975276 0.49648553 0.14153451
0.46327251 0.5976848 0.49883896
0.46341068 0.59811342 0.49962795
0.46355146 0.59937936 0.50041652
0.46678218 0.59992707 0.50237954
0.47025931 0.60083818 0.50335354
0.47416773 0.60271746 0.50603878
0.48076001 0.60573649 0.50690579
0.48727563 0.60841328 0.51056099
0.49416739 0.61096567 0.51254797
0.50275391 0.61471176 0.51556057
0.51500195 0.616404 0.51916862
0.5267449 0.62311363 0.52373278
0.5404675 0.6271593 0.52809668
0.55942822 0.63510823 0.53589147
0.5862518 0.64499718 0.5456025
0.61647505 0.65337569 0.55868292
0.6384539 0.65797132 0.56338429
0.63775504 0.64698857 0.52477682
0.64631486 0.63989043 0.48635796
0.66122043 0.63374794 0.43902922
0.67448366 0.61659253 0.36977556
0.69455707 0.5975033 0.28881437
0.73269373 0.58958435 0.25847009
0.7641573 0.58391821 0.23967518
0.79619443 0.57836986 0.21956953
0.82272428 0.5722422 0.19372261
0.84582478 0.56449854 0.16129014
0.86371183 0.55338067 0.12014084
0.8753832 0.53588027 0.08218548
0.88317794 0.51862144 0.05311625
0.89002389 0.48746783 0.02395902
0.89861679 0.47560427 0.03176632
0.86355215 0.53682882 0.1836489
0.49873111 0.62649268 0.53211588
0.50272101 0.62857312 0.5344103
0.50528902 0.63158196 0.53546822
0.51041496 0.63289738 0.53978032
0.51555091 0.63403785 0.5411253
0.52068013 0.63731778 0.54450494
0.52586669 0.63882238 0.54623657
0.53196448 0.64201772 0.54828614
0.53734332 0.64555764 0.5507192
0.54767925 0.64713484 0.55415511
0.5569846 0.65149236 0.55830026
0.56605166 0.65409863 0.56204093
0.57583815 0.65969306 0.56420958
0.58831197 0.66454291 0.56834167
0.60186869 0.67138308 0.57474279
0.62527943 0.6771996 0.58397949
0.65087926 0.68724394 0.5941478
0.66714597 0.6889888 0.59274489
0.66805458 0.67901015 0.55863053
0.67498201 0.6694597 0.52135354
0.68352568 0.65983921 0.47123528
0.69660336 0.64155984 0.40337744
