site/assets/luts/freshluts--0000504-dark-green.cube
# LUTr-Schema-Version: 2
# LUTr-ID: freshluts--0000504-dark-green
# LUTr-Title: dark green
# LUTr-Collection: Fresh LUTs
# LUTr-Collection-ID: freshluts-community
# LUTr-Source: https://freshluts.com
# LUTr-Retrieved: 2026-07-27
# LUTr-Source-File: submissions-raw/freshluts/cubes/504__dark_green_33pt_7.A008_04210712_C007.cube
# LUTr-Source-Format: CUBE
# LUTr-Source-SHA256: b9047ca899bae1d4efae35d65c9a4cb2995699a18d7f37aecd6d8566b141982a
# LUTr-License: CC0-1.0
# LUTr-License-URL: https://freshluts.com/termsandconditions
# LUTr-License-Basis: site-terms
# LUTr-Transform-Class: creative-look
# LUTr-Tags: creative, freshluts, community, cube, green, bmd-film-4k
# LUTr-Input-Color-Space: bmd-film-4k
# LUTr-Input-Gamut: bmd-film-gamut
# LUTr-Input-Transfer: bmd-film-4k
# LUTr-Output-Color-Space: srgb
# LUTr-Output-Gamut: rec709
# LUTr-Output-Transfer: srgb
# LUTr-Color-Space-Confidence: inferred-from-source-label
# LUTr-Domain-Normalized: true
# LUTr-Shaper: none
# LUTr-Original-Grid: 33x33x33
# LUTr-Conversion-Grid: 33x33x33
# LUTr-Conversion-Interpolation: none
# LUTr-Conversion-Method: Metadata normalization; numeric LUT samples preserved
# LUTr-Conversion-Tool: LUTr scripts/convert-all-to-cube.mjs 2.0.0
# LUTr-Conversion-Date: 2026-07-28
# LUTr-Asset-URL: https://freshluts.com/luts/504
# LUTr-Author: sswyft
# LUTr-Author-URL: https://freshluts.com/users/10877
# LUTr-Attribution: sswyft via Fresh LUTs
# LUTr-Source-Labels: gamma=Blackmagic BMD Film 4K; color=Green; key=Neutral; style=Cinematic/Dark
# LUTr-Note: Preserve this metadata and the upstream license notices when redistributing.
TITLE "dark green"
LUT_3D_SIZE 9
DOMAIN_MIN 0 0 0
DOMAIN_MAX 1 1 1
0 0 0
0.0624094 0 0
0.112718 0.00277714 0
0.178531 0.00271611 0
0.248936 0.00231937 0
0.319265 0.00329595 0
0.382528 0.00996414 0
0.438041 0.0225834 0.00622568
0.492515 0.0389868 0.0226596
0 0.0615549 0.00631724
0.0384375 0.069398 0.0149996
0.143008 0.0620737 0.0166323
0.214466 0.067628 0.0221866
0.293095 0.0754253 0.0300298
0.372732 0.0856336 0.0402838
0.444831 0.101015 0.0557259
0.508232 0.121431 0.0762188
0.570321 0.145296 0.10016
0.0164034 0.136248 0.0265812
0.0671397 0.152834 0.0431678
0.13576 0.167437 0.0577707
0.267369 0.166354 0.0750896
0.353521 0.181628 0.0904097
0.440772 0.199344 0.108217
0.519707 0.221439 0.130434
0.588739 0.247333 0.156435
0.654688 0.274937 0.184176
0.0490272 0.246494 0.0592203
0.107347 0.27068 0.0833753
0.183047 0.292393 0.105074
0.278828 0.310506 0.123201
0.420462 0.314519 0.157473
0.51104 0.335409 0.178439
0.591134 0.358511 0.201709
0.660365 0.384482 0.227863
0.726497 0.412085 0.255665
0.100832 0.381643 0.111009
0.16318 0.409918 0.139223
0.241428 0.434272 0.163516
0.337774 0.452995 0.182223
0.438636 0.470298 0.199573
0.562387 0.477592 0.25687
0.659632 0.49781 0.270191
0.729534 0.52433 0.296956
0.795483 0.551629 0.324529
0.160952 0.523262 0.171099
0.223362 0.551766 0.199435
0.301762 0.576425 0.223941
0.398596 0.595804 0.243214
0.500298 0.613733 0.262043
0.599878 0.630137 0.292729
0.693095 0.645426 0.338003
0.780819 0.661418 0.375891
0.850263 0.682658 0.394705
0.233768 0.66244 0.2439
0.295857 0.690776 0.271992
0.373739 0.714046 0.29633
0.475044 0.728008 0.326513
0.578515 0.737957 0.368277
0.670466 0.747814 0.419821
0.740017 0.761364 0.477821
0.79295 0.778058 0.531304
0.829816 0.796353 0.592569
0.318349 0.790982 0.328328
0.388785 0.81059 0.366217
0.476432 0.821958 0.408087
0.577707 0.826352 0.455451
0.671489 0.829831 0.508843
0.749371 0.835203 0.566217
0.805844 0.84477 0.623728
0.845747 0.857755 0.678737
0.876707 0.872419 0.731456
0.434302 0.884108 0.442969
0.507652 0.893568 0.48893
0.591623 0.897627 0.537423
0.681712 0.897215 0.589197
0.760967 0.897734 0.643656
0.825055 0.901549 0.700008
0.870909 0.909804 0.753811
0.904311 0.92192 0.804501
0.930709 0.935851 0.851728
0 0.00682078 0.018677
0.0202487 0.0202487 0.0202487
0.116243 0.00630198 0.0188754
0.182055 0.00622568 0.0187839
0.252842 0.00619516 0.0187381
0.324086 0.00802625 0.0205692
0.388312 0.0155642 0.0280766
0.445014 0.0293126 0.0418097
0.500191 0.0463264 0.0588083
0 0.0647288 0.0434577
0.0687114 0.0687114 0.0687114
0.148135 0.067216 0.050782
0.220691 0.0738384 0.0574044
0.300023 0.0823072 0.0658732
0.380591 0.0933852 0.0769818
0.453529 0.109529 0.0931411
0.5178 0.13077 0.114397
0.580499 0.155215 0.138872
0.0224002 0.14226 0.0667735
0.0740215 0.159655 0.0841993
0.143435 0.17496 0.0998398
0.275975 0.174945 0.112673
0.36318 0.191241 0.129
0.45098 0.209476 0.14728
0.530236 0.231815 0.169696
0.599771 0.258167 0.196109
0.665843 0.285832 0.223865
0.0576944 0.255177 0.102052
0.11667 0.280018 0.126864
0.192996 0.302358 0.149187
0.289143 0.320821 0.167666
0.43122 0.325185 0.197024
0.521767 0.346059 0.21799
0.601923 0.369177 0.24123
0.671336 0.395254 0.267445
0.737469 0.422812 0.295155
0.110933 0.391821 0.155261
0.173632 0.420432 0.18381
0.251591 0.44448 0.207797
0.347738 0.463004 0.226307
0.449119 0.480781 0.244114
0.580209 0.486809 0.295247
0.670497 0.508583 0.309789
0.740581 0.535225 0.336599
0.806363 0.56228 0.363867
0.171191 0.533669 0.215442
0.233555 0.562081 0.243717
0.312032 0.586816 0.268284
0.409079 0.606394 0.287739
0.510842 0.62356 0.307942
0.609857 0.639506 0.340871
0.705821 0.653834 0.382971
0.795529 0.669596 0.410315
0.843244 0.693721 0.457755
0.243839 0.67277 0.287999
0.305959 0.701152 0.316121
0.385382 0.723308 0.342184
0.48806 0.736034 0.374426
0.59086 0.745388 0.41619
0.680903 0.755108 0.466011
0.748547 0.768826 0.52137
0.801526 0.785489 0.568032
0.833295 0.80415 0.633005
0.331167 0.798627 0.374151
0.403738 0.817014 0.413123
0.491859 0.827451 0.454566
0.592203 0.831525 0.500374
0.683864 0.834958 0.55082
0.759701 0.840787 0.605097
0.814282 0.850675 0.65893
0.852857 0.863966 0.710353
0.882933 0.879026 0.759823
0.451301 0.88806 0.487968
0.524849 0.897093 0.532525
0.607721 0.900938 0.578546
0.695964 0.900786 0.627344
0.773144 0.901839 0.678523
0.835218 0.906325 0.73135
0.879561 0.915175 0.781765
0.912001 0.927825 0.829297
0.938018 0.942473 0.874266
0 0.00926223 0.0758068
0.026978 0.026978 0.026978
0.0409552 0.0409552 0.0409552
0.140169 0.0248569 0.0631418
0.256123 0.00941482 0.0677806
0.328496 0.0123293 0.070634
0.393866 0.0209201 0.0791485
0.451438 0.0354467 0.0936141
0.507332 0.0530709 0.111162
0.00134279 0.0671855 0.0996872
0.0447242 0.0760052 0.108095
0.0951095 0.0951095 0.0951095
0.226352 0.0794995 0.108888
0.3066 0.088838 0.118227
0.387915 0.100618 0.129976
0.461631 0.117464 0.146792
0.526864 0.139544 0.168841
0.590265 0.164584 0.193835
0.0276799 0.147539 0.126055
0.0800793 0.165682 0.144213
0.17731 0.17731 0.17731
0.284306 0.183276 0.166842
0.37203 0.200061 0.183627
0.460548 0.218936 0.202518
0.540383 0.241779 0.225376
0.610117 0.268238 0.251835
0.67602 0.295644 0.279271
0.0655985 0.263096 0.163943
0.125231 0.288579 0.189425
0.202045 0.311406 0.212238
0.298222 0.3299 0.230762
0.441413 0.335348 0.252995
0.531884 0.356115 0.273793
0.611704 0.378805 0.296559
0.681483 0.405188 0.323003
0.748012 0.433036 0.350927
0.120302 0.401221 0.218585
0.182757 0.429618 0.246906
0.260731 0.453666 0.270924
0.357015 0.472313 0.28954
0.458488 0.490166 0.307408
0.599756 0.494911 0.34168
0.680827 0.518791 0.365637
0.750713 0.545174 0.392126
0.816098 0.571771 0.418845
0.180209 0.542824 0.278355
0.242969 0.571649 0.307057
0.321401 0.596323 0.331579
0.418204 0.615625 0.350759
0.521004 0.632303 0.373404
0.619211 0.648051 0.40676
0.722911 0.66038 0.440269
0.812177 0.676875 0.454765
0.820645 0.706035 0.555398
0.253025 0.682246 0.350988
0.314809 0.710185 0.378775
0.396933 0.730678 0.406867
0.500786 0.742397 0.439277
0.603067 0.75169 0.479316
0.691142 0.761654 0.525292
0.75671 0.775769 0.575753
0.808576 0.792676 0.616388
0.838499 0.811734 0.6766
0.345022 0.804715 0.438758
0.418982 0.821607 0.476646
0.507973 0.831571 0.516335
0.607233 0.835599 0.558556
0.697032 0.839567 0.604562
0.770275 0.84593 0.653132
0.822889 0.856428 0.701549
0.860151 0.870237 0.747906
0.889281 0.885801 0.792569
0.469261 0.890486 0.547662
0.542931 0.899229 0.589212
0.625101 0.903304 0.63154
0.711223 0.903639 0.67541
0.78616 0.905562 0.721477
0.846082 0.910994 0.76907
0.889006 0.920821 0.814878
0.920287 0.934051 0.857877
0.945678 0.949371 0.89926
0 0.0102235 0.154559
0.0255589 0.0240635 0.111254
0.0485237 0.0485237 0.0485237
0.0629892 0.0629892 0.0629892
0.0801556 0.0778668 0.0790265
0.288411 0.0310521 0.132097
0.398718 0.0256046 0.149645
0.457221 0.0409552 0.164874
0.513924 0.0592966 0.183047
0.00259403 0.068452 0.178622
0.0463874 0.0780652 0.188251
0.104875 0.104875 0.104875
0.127535 0.127535 0.127535
0.187716 0.139651 0.160693
0.392203 0.107958 0.202152
0.468956 0.12462 0.219776
0.534936 0.147356 0.24242
0.598993 0.17293 0.267887
0.0319677 0.151812 0.207996
0.0850385 0.170718 0.226917
0.155978 0.187625 0.243748
0.220295 0.220295 0.220295
0.366171 0.213321 0.257298
0.469429 0.227756 0.277211
0.549371 0.250614 0.300038
0.619318 0.27718 0.326574
0.685435 0.304692 0.354025
0.0722362 0.269718 0.248234
0.132464 0.295811 0.274327
0.209689 0.319051 0.297566
0.333532 0.333532 0.333532
0.450538 0.344457 0.328008
0.540719 0.364874 0.34844
0.62089 0.387854 0.371435
0.690929 0.414405 0.398001
0.757336 0.442039 0.425635
0.128206 0.40914 0.304097
0.19086 0.437736 0.332677
0.268605 0.46157 0.356466
0.364843 0.480156 0.375036
0.466575 0.498253 0.393149
0.609125 0.504234 0.416831
0.689921 0.527764 0.440391
0.759731 0.554009 0.466682
0.825025 0.580423 0.493156
0.188312 0.551034 0.364019
0.251011 0.579797 0.392691
0.329397 0.604425 0.417197
0.426627 0.623636 0.43679
0.530587 0.639612 0.460334
0.627543 0.655344 0.490913
0.748363 0.663417 0.511147
0.807736 0.686259 0.545083
0.787289 0.722011 0.663432
0.260685 0.69012 0.436103
0.323873 0.717388 0.464576
0.4094 0.736416 0.493233
0.514214 0.747463 0.523171
0.615076 0.756664 0.557794
0.70132 0.767514 0.597452
0.764752 0.782391 0.640467
0.809674 0.800443 0.683742
0.843595 0.819547 0.726406
0.360128 0.808759 0.523827
0.435874 0.824628 0.558907
0.525246 0.834257 0.59411
0.623026 0.83856 0.629953
0.710628 0.843397 0.668788
0.781399 0.850813 0.709682
0.831983 0.862257 0.750729
0.867948 0.876875 0.790509
0.896086 0.89308 0.829114
0.489372 0.891478 0.623316
0.562844 0.90013 0.659648
0.643931 0.904631 0.695949
0.727947 0.905943 0.732952
0.800671 0.909224 0.772107
0.857969 0.915816 0.812192
0.899397 0.926833 0.851972
0.929549 0.940841 0.889647
0.954238 0.956954 0.926665
0 0.0106661 0.238483
0.0234379 0.0213321 0.214145
0.0566873 0.0550393 0.0616922
0.0712902 0.0712902 0.0712902
0.0877546 0.0877546 0.0877546
0.107118 0.107118 0.107118
0.175448 0.113329 0.145769
0.320348 0.0964675 0.201144
0.454398 0.0883497 0.244877
0.00358587 0.0693828 0.263066
0.0484474 0.0801251 0.273854
0.113787 0.104402 0.185962
0.138842 0.138842 0.138842
0.16463 0.16463 0.16463
0.192676 0.192676 0.192676
0.308568 0.192203 0.24831
0.466575 0.18204 0.303792
0.589273 0.187762 0.343862
0.0362249 0.156008 0.295735
0.0900282 0.175692 0.31545
0.161456 0.193133 0.332937
0.234195 0.234195 0.234195
0.267018 0.267018 0.267018
0.303441 0.300465 0.301946
0.497383 0.280797 0.368017
0.624781 0.287358 0.405921
0.694163 0.313207 0.433371
0.0790875 0.276493 0.338582
0.139834 0.303136 0.365255
0.217395 0.326741 0.388861
0.313954 0.345617 0.407721
0.384085 0.384085 0.384085
0.522622 0.382956 0.426261
0.629618 0.396506 0.451026
0.69984 0.423178 0.477668
0.766598 0.451102 0.505547
0.136141 0.416968 0.395499
0.198383 0.445212 0.423728
0.27599 0.468925 0.44744
0.372686 0.487999 0.466499
0.501701 0.501701 0.501701
0.61796 0.513039 0.496605
0.698894 0.53669 0.520256
0.768521 0.562692 0.546258
0.833509 0.588724 0.57229
0.196033 0.558663 0.455131
0.2589 0.587655 0.484062
0.337316 0.612345 0.508675
0.435584 0.630671 0.528237
0.540322 0.646342 0.549813
0.63621 0.66276 0.575799
0.762051 0.669627 0.583398
0.790845 0.699123 0.641001
0.765133 0.739879 0.727443
0.268345 0.69778 0.527092
0.334997 0.723583 0.55584
0.423316 0.741466 0.582483
0.528588 0.752194 0.607721
0.628046 0.761852 0.635569
0.711955 0.773602 0.667185
0.77319 0.789364 0.701915
0.816281 0.808133 0.73756
0.83798 0.828229 0.802838
0.376867 0.811887 0.611017
0.454292 0.827176 0.641855
0.543633 0.836728 0.671122
0.639582 0.841566 0.699443
0.72488 0.847486 0.730251
0.793027 0.856046 0.76289
0.841657 0.868467 0.796658
0.876448 0.884077 0.830457
0.903288 0.900832 0.862684
0.510826 0.892195 0.698207
0.583932 0.900984 0.728573
0.663661 0.906096 0.758083
0.745373 0.908553 0.787594
0.815656 0.913237 0.819211
0.870634 0.92105 0.852155
0.910491 0.933135 0.886
0.940032 0.948043 0.920348
0.96347 0.964813 0.95349
0 0.0111543 0.320699
0.0225528 0.0202487 0.308324
0.068986 0.0486305 0.160403
0.0796216 0.0796216 0.0796216
0.0972 0.0972 0.0972
0.117662 0.117662 0.117662
0.1411 0.1411 0.1411
0.166888 0.166888 0.166888
0.199008 0.193439 0.196674
0.00503548 0.0707561 0.346288
0.0508431 0.082475 0.358114
0.11841 0.102831 0.295552
0.150454 0.150454 0.150454
0.176989 0.176989 0.176989
0.2056 0.2056 0.2056
0.236851 0.236851 0.236851
0.269902 0.269902 0.269902
0.333547 0.293507 0.315618
0.0408942 0.16054 0.382239
0.0953994 0.181003 0.402792
0.16759 0.199252 0.421149
0.250019 0.243076 0.276555
0.281758 0.281758 0.281758
0.316518 0.316518 0.316518
0.351812 0.351812 0.351812
0.388586 0.386877 0.387823
0.508186 0.391959 0.449866
0.0863203 0.283543 0.427695
0.147356 0.310536 0.454765
0.224994 0.33431 0.478614
0.321859 0.353536 0.497917
0.3991 0.3991 0.3991
0.43386 0.43386 0.43386
0.469291 0.469291 0.469291
0.582177 0.477699 0.52462
0.730495 0.475532 0.575875
0.143969 0.424582 0.485222
0.206256 0.452918 0.513603
0.283833 0.476692 0.537423
0.380407 0.495705 0.556466
0.482322 0.513985 0.574701
0.552651 0.552651 0.552651
0.654917 0.56408 0.593957
0.776928 0.571054 0.624414
0.836393 0.598337 0.650202
0.204257 0.566613 0.54519
0.266835 0.595407 0.573968
0.345113 0.620005 0.598535
0.446082 0.637827 0.616968
0.551156 0.653559 0.634241
0.667124 0.667124 0.667124
0.76466 0.678584 0.663279
0.772869 0.715724 0.708827
0.757305 0.757 0.75697
0.277287 0.704723 0.616419
0.347906 0.729076 0.643549
0.438392 0.746181 0.666239
0.543954 0.757153 0.685542
0.641688 0.767452 0.70576
0.723705 0.77995 0.729488
0.782361 0.796445 0.756848
0.816419 0.816266 0.815549
0.839277 0.839277 0.839277
0.395361 0.814847 0.692668
0.47396 0.829816 0.718273
0.562799 0.839506 0.740887
0.657115 0.845212 0.76173
0.739559 0.852125 0.784222
0.805524 0.861631 0.809323
0.852338 0.874907 0.836789
0.885634 0.891096 0.866896
0.910277 0.908812 0.894499
0.53315 0.893217 0.76611
0.606073 0.902419 0.79057
0.683803 0.908095 0.813062
0.763088 0.911742 0.835264
0.830793 0.917769 0.859617
0.884062 0.926726 0.886275
0.923964 0.939055 0.917266
0.951553 0.955245 0.94638
0.973114 0.973571 0.970855
0 0.0123903 0.388602
0.0230869 0.0207065 0.382666
0.0757 0.0449531 0.250584
0.0877699 0.0877699 0.0877699
0.10634 0.10634 0.10634
0.127886 0.127886 0.127886
0.152209 0.152209 0.152209
0.178698 0.178698 0.178698
0.207645 0.207645 0.207645
0.00775158 0.0733654 0.415702
0.0543221 0.0859083 0.428458
0.122789 0.104662 0.383719
0.162661 0.160143 0.168811
0.18909 0.18909 0.18909
0.218479 0.218479 0.218479
0.250248 0.250248 0.250248
0.283894 0.283894 0.283894
0.318822 0.318822 0.318822
0.0466468 0.166125 0.45481
0.1019 0.187366 0.476249
0.174823 0.206455 0.495537
0.264836 0.245243 0.368612
0.296117 0.296117 0.296117
0.330907 0.330907 0.330907
0.366506 0.366506 0.366506
0.402075 0.402075 0.402075
0.436896 0.436896 0.436896
0.0943313 0.291295 0.502602
0.15584 0.318853 0.530312
0.233768 0.342977 0.55462
0.330327 0.36199 0.573785
0.413596 0.412619 0.416632
0.448463 0.448463 0.448463
0.484031 0.484031 0.484031
0.519829 0.519829 0.519829
0.555856 0.555856 0.555856
0.152911 0.433188 0.56109
0.214832 0.461265 0.589273
0.292332 0.485069 0.613199
0.389227 0.504494 0.632731
0.491325 0.522835 0.650462
0.567132 0.567132 0.567132
0.602457 0.602457 0.602457
0.636988 0.636988 0.636988
0.715755 0.65391 0.681849
0.213107 0.575113 0.620981
0.275868 0.60415 0.650065
0.355032 0.628382 0.674113
0.458076 0.645579 0.689281
0.562799 0.661433 0.701289
0.65568 0.679225 0.713451
0.711727 0.711727 0.711727
0.756771 0.735134 0.741634
0.768887 0.768887 0.768887
0.289448 0.712062 0.690974
0.363272 0.735317 0.71516
0.455131 0.751888 0.733272
0.559625 0.762753 0.746273
0.655756 0.773907 0.759915
0.735546 0.787198 0.776013
0.802945 0.802945 0.802945
0.826825 0.826825 0.826825
0.849271 0.849271 0.849271
0.415137 0.818708 0.757656
0.494148 0.833371 0.778149
0.581735 0.843091 0.79472
0.674128 0.849607 0.809155
0.754116 0.857542 0.825147
0.817914 0.867826 0.843656
0.866926 0.880369 0.868574
0.895979 0.898131 0.893187
0.917632 0.917632 0.917632
0.555154 0.895247 0.818662
0.627131 0.904723 0.837888
0.703227 0.91104 0.854871
0.780209 0.915785 0.87129
0.845365 0.922896 0.88983
0.89752 0.932937 0.911513
0.937209 0.94551 0.937865
0.961868 0.963287 0.96112
0.982589 0.982696 0.982269
0 0.0144503 0.441077
0.0249027 0.0224918 0.438895
0.0806439 0.0442512 0.320806
0.0965896 0.094377 0.101472
0.11516 0.11516 0.11516
0.137819 0.137819 0.137819
0.162799 0.162799 0.162799
0.190219 0.190219 0.190219
0.21973 0.21973 0.21973
0.0116884 0.0771801 0.470085
0.0591135 0.0906386 0.483864
0.128176 0.108888 0.45037
0.179568 0.162493 0.229953
0.200885 0.200885 0.200885
0.231083 0.231083 0.231083
0.263539 0.263539 0.263539
0.297673 0.297673 0.297673
0.332631 0.332631 0.332631
0.0535592 0.172839 0.512276
0.10927 0.194629 0.534356
0.182895 0.214496 0.554559
0.276371 0.250095 0.444907
0.309743 0.309743 0.309743
0.345022 0.345022 0.345022
0.380606 0.380606 0.380606
0.415808 0.415808 0.415808
0.450919 0.450919 0.450919
0.103655 0.300328 0.562615
0.165438 0.328252 0.590753
0.243168 0.35227 0.615076
0.339879 0.371511 0.634592
0.430762 0.417777 0.483635
0.462287 0.462287 0.462287
0.498054 0.498054 0.498054
0.534096 0.534096 0.534096
0.569772 0.569772 0.569772
0.162417 0.442329 0.621332
0.224201 0.470359 0.649546
0.302022 0.494606 0.674006
0.398856 0.514061 0.693675
0.501244 0.532418 0.709331
0.581262 0.581262 0.581262
0.616327 0.616327 0.616327
0.650339 0.650339 0.650339
0.683299 0.683299 0.683299
0.223163 0.584726 0.681758
0.28571 0.613672 0.710826
0.366751 0.63711 0.732921
0.471397 0.654139 0.74435
0.575616 0.670405 0.751553
0.666102 0.688838 0.758816
0.723644 0.723644 0.723644
0.752621 0.752621 0.752621
0.779889 0.779889 0.779889
0.303883 0.71986 0.748821
0.380102 0.74226 0.769635
0.472633 0.758389 0.783398
0.576028 0.76939 0.791272
0.669947 0.781064 0.799435
0.746532 0.795087 0.809766
0.804334 0.812482 0.820188
0.836515 0.836515 0.836515
0.858564 0.858564 0.858564
0.43534 0.823407 0.806119
0.514244 0.837842 0.822324
0.600626 0.847715 0.834241
0.690654 0.854749 0.84361
0.768017 0.863447 0.854643
0.829328 0.874525 0.868086
0.877775 0.887968 0.885344
0.906493 0.906493 0.906493
0.926238 0.926238 0.926238
0.576318 0.898238 0.857099
0.647166 0.907912 0.872297
0.721538 0.914778 0.885145
0.79649 0.920546 0.897444
0.859022 0.92845 0.91165
0.910384 0.939055 0.929213
0.947875 0.953017 0.950332
0.970947 0.971481 0.971023
0.991348 0.991363 0.991348
0 0.0169985 0.488304
0.0272984 0.0248722 0.488746
0.0849317 0.0447242 0.382895
0.110704 0.0953536 0.149767
0.124331 0.124331 0.124331
0.147738 0.147738 0.147738
0.173602 0.173602 0.173602
0.201801 0.201801 0.201801
0.232136 0.232136 0.232136
0.0161746 0.081529 0.51928
0.0646525 0.0961318 0.53431
0.134127 0.114122 0.509316
0.194034 0.165469 0.291524
0.212497 0.212497 0.212497
0.243687 0.243687 0.243687
0.276585 0.276585 0.276585
0.311101 0.311101 0.311101
0.346548 0.346548 0.346548
0.0610666 0.180117 0.56463
0.11751 0.202716 0.58761
0.191791 0.223331 0.608728
0.287251 0.256641 0.514275
0.323507 0.323491 0.323522
0.358724 0.358724 0.358724
0.394324 0.394324 0.394324
0.429496 0.429496 0.429496
0.464622 0.464622 0.464622
0.113191 0.309545 0.617136
0.175189 0.337758 0.645685
0.253162 0.362142 0.670497
0.349416 0.381033 0.689799
0.444755 0.42327 0.551263
0.476249 0.476249 0.476249
0.512123 0.512123 0.512123
0.54789 0.54789 0.54789
0.583703 0.583703 0.583703
0.172442 0.451942 0.676432
0.234211 0.480049 0.704814
0.311864 0.504234 0.729335
0.408774 0.523873 0.749264
0.512001 0.542672 0.761334
0.596078 0.591424 0.612222
0.629618 0.629618 0.629618
0.663386 0.663386 0.663386
0.695735 0.695735 0.695735
0.23328 0.594354 0.736996
0.295949 0.623224 0.765927
0.380102 0.646204 0.784985
0.48571 0.663096 0.791989
0.588922 0.679713 0.794125
0.67718 0.698695 0.796124
0.735424 0.735424 0.735424
0.763806 0.763806 0.763806
0.790494 0.790494 0.790494
0.319539 0.727413 0.799374
0.397528 0.749081 0.816449
0.490517 0.765042 0.825925
0.592615 0.776318 0.829007
0.684184 0.78851 0.832212
0.757626 0.803021 0.837797
0.81088 0.821424 0.846738
0.845869 0.845869 0.845869
0.867536 0.867536 0.867536
0.45594 0.828367 0.847318
0.534112 0.842481 0.859358
0.619364 0.852644 0.86717
0.706996 0.860227 0.872114
0.781674 0.869581 0.878843
0.840391 0.881453 0.888151
0.885878 0.896162 0.899199
0.913527 0.914397 0.915068
0.934524 0.934524 0.934524
0.597681 0.901778 0.889403
0.666835 0.911513 0.900877
0.739437 0.918898 0.91014
0.812024 0.925475 0.918761
0.872282 0.934264 0.929488
0.922042 0.945708 0.943114
0.95729 0.960967 0.960357
0.979507 0.979751 0.97969
0.999054 0.999054 0.999054
