site/assets/luts/freshluts--0001092-arri-crosstalk-custom-look-2-by-tjtop.cube
# LUTr-Schema-Version: 2
# LUTr-ID: freshluts--0001092-arri-crosstalk-custom-look-2-by-tjtop
# LUTr-Title: Arri_Crosstalk_Custom_Look_2_by_TJTOP
# LUTr-Collection: Fresh LUTs
# LUTr-Collection-ID: freshluts-community
# LUTr-Source: https://freshluts.com
# LUTr-Retrieved: 2026-07-27
# LUTr-Source-File: submissions-raw/freshluts/cubes/1092__LogC_CCL_2_33.cube
# LUTr-Source-Format: CUBE
# LUTr-Source-SHA256: b80ddfcf881eea0cba929fb3a9715c81d8d17c1fd84122e8e155204fae276774
# LUTr-License: CC0-1.0
# LUTr-License-URL: https://freshluts.com/termsandconditions
# LUTr-License-Basis: site-terms
# LUTr-Transform-Class: creative-look
# LUTr-Tags: creative, freshluts, community, cube, film-emulation, teal, arri-logc3-ei800
# LUTr-Input-Color-Space:
# LUTr-Input-Gamut: arri-wide-gamut-3
# LUTr-Input-Transfer: arri-logc3-ei800
# LUTr-Output-Color-Space: srgb
# LUTr-Output-Gamut: rec709
# LUTr-Output-Transfer: srgb
# LUTr-Color-Space-Confidence: camera-profile-input-required
# LUTr-Domain-Normalized: true
# LUTr-Shaper: none
# LUTr-Original-Grid: 33x33x33
# LUTr-Conversion-Grid: 33x33x33
# LUTr-Conversion-Interpolation: none
# LUTr-Conversion-Method: Metadata normalization; numeric LUT samples preserved
# LUTr-Conversion-Tool: LUTr scripts/convert-all-to-cube.mjs 2.0.0
# LUTr-Conversion-Date: 2026-07-28
# LUTr-Asset-URL: https://freshluts.com/luts/1092
# LUTr-Author: tjtop
# LUTr-Author-URL: https://freshluts.com/users/10151
# LUTr-Attribution: tjtop via Fresh LUTs
# LUTr-Source-Labels: gamma=Arri log c; color=Teal; key=Neutral; style=Film emulation
# LUTr-Note: Preserve this metadata and the upstream license notices when redistributing.
TITLE "Arri_Crosstalk_Custom_Look_2_by_TJTOP"
LUT_3D_SIZE 9
DOMAIN_MIN 0 0 0
DOMAIN_MAX 1 1 1
0.054757 0.031285 0.027843
0.176191 0.031285 0.027843
0.2696 0.031285 0.027843
0.38151 0.031285 0.027843
0.502075 0.031285 0.027843
0.625652 0.031285 0.027843
0.750204 0.031285 0.027843
0.875064 0.031285 0.027843
1.00002 0.031285 0.027843
-0.025058 0.083953 0.009064
0.099942 0.083953 0.009064
0.239679 0.083953 0.009064
0.371884 0.083953 0.009064
0.499037 0.083953 0.009064
0.6247 0.083953 0.009064
0.749907 0.083953 0.009064
0.874971 0.083953 0.009064
0.999991 0.083953 0.009064
-0.138513 0.169794 -0.020781
-0.013513 0.169794 -0.020781
0.174142 0.169794 -0.020781
0.356519 0.169794 -0.020781
0.494566 0.169794 -0.020781
0.623333 0.169794 -0.020781
0.749483 0.169794 -0.020781
0.874839 0.169794 -0.020781
0.99995 0.169794 -0.020781
-0.417275 0.310293 -0.123063
-0.292275 0.310293 -0.123063
-0.101603 0.310293 -0.123063
0.305535 0.310293 -0.123063
0.482717 0.310293 -0.123063
0.619898 0.310293 -0.123063
0.748434 0.310293 -0.123063
0.874514 0.310293 -0.123063
0.999848 0.310293 -0.123063
-0.642555 0.474143 -0.393748
-0.517555 0.474143 -0.393748
-0.326883 0.474143 -0.393748
0.232984 0.474143 -0.393748
0.472084 0.474143 -0.393748
0.61704 0.474143 -0.393748
0.747578 0.474143 -0.393748
0.87425 0.474143 -0.393748
0.999766 0.474143 -0.393748
0.3991 0.636467 0.438289
0.410692 0.636467 0.438289
0.426266 0.636467 0.438289
0.464415 0.636467 0.438289
0.536561 0.636467 0.438289
0.637801 0.636467 0.438289
0.754162 0.636467 0.438289
0.876316 0.636467 0.438289
1.000413 0.636467 0.438289
0.604634 0.772631 0.641619
0.606423 0.772631 0.641619
0.609096 0.772631 0.641619
0.61713 0.772631 0.641619
0.639444 0.772631 0.641619
0.689987 0.772631 0.641619
0.774781 0.772631 0.641619
0.883365 0.772631 0.641619
1.002682 0.772631 0.641619
0.746002 0.90089 0.782705
0.746484 0.90089 0.782705
0.747216 0.90089 0.782705
0.749496 0.90089 0.782705
0.756491 0.90089 0.782705
0.776251 0.90089 0.782705
0.822511 0.90089 0.782705
0.903262 0.90089 0.782705
1.009644 0.90089 0.782705
0.875638 1.026887 0.912269
0.875783 1.026887 0.912269
0.876003 1.026887 0.912269
0.876695 1.026887 0.912269
0.878883 1.026887 0.912269
0.885606 1.026887 0.912269
0.904686 1.026887 0.912269
0.949756 1.026887 0.912269
1.029325 1.026887 0.912269
0.061023 0.056228 0.134136
0.180976 0.056228 0.134136
0.271631 0.056228 0.134136
0.382231 0.056228 0.134136
0.50231 0.056228 0.134136
0.625726 0.056228 0.134136
0.750227 0.056228 0.134136
0.875071 0.056228 0.134136
1.000022 0.056228 0.134136
-0.018792 0.108895 0.115357
0.106208 0.108895 0.115357
0.242354 0.108895 0.115357
0.372672 0.108895 0.115357
0.499279 0.108895 0.115357
0.624775 0.108895 0.115357
0.74993 0.108895 0.115357
0.874978 0.108895 0.115357
0.999993 0.108895 0.115357
-0.132247 0.188703 0.085513
-0.007247 0.188703 0.085513
0.179018 0.188703 0.085513
0.357428 0.188703 0.085513
0.494818 0.188703 0.085513
0.623409 0.188703 0.085513
0.749506 0.188703 0.085513
0.874846 0.188703 0.085513
0.999952 0.188703 0.085513
-0.411009 0.315738 -0.016769
-0.286009 0.315738 -0.016769
-0.095337 0.315738 -0.016769
0.306992 0.315738 -0.016769
0.482998 0.315738 -0.016769
0.619977 0.315738 -0.016769
0.748457 0.315738 -0.016769
0.874521 0.315738 -0.016769
0.999851 0.315738 -0.016769
-0.636289 0.47535 -0.287455
-0.511289 0.47535 -0.287455
-0.320617 0.47535 -0.287455
0.235829 0.47535 -0.287455
0.472394 0.47535 -0.287455
0.61712 0.47535 -0.287455
0.747602 0.47535 -0.287455
0.874257 0.47535 -0.287455
0.999769 0.47535 -0.287455
0.399712 0.636734 0.445282
0.411241 0.636734 0.445282
0.426741 0.636734 0.445282
0.464749 0.636734 0.445282
0.536732 0.636734 0.445282
0.637867 0.636734 0.445282
0.754184 0.636734 0.445282
0.876323 0.636734 0.445282
1.000415 0.636734 0.445282
0.604724 0.772706 0.6427
0.606512 0.772706 0.6427
0.609183 0.772706 0.6427
0.617211 0.772706 0.6427
0.639509 0.772706 0.6427
0.690028 0.772706 0.6427
0.774799 0.772706 0.6427
0.883372 0.772706 0.6427
1.002684 0.772706 0.6427
0.746026 0.900913 0.782996
0.746508 0.900913 0.782996
0.74724 0.900913 0.782996
0.749519 0.900913 0.782996
0.756513 0.900913 0.782996
0.77627 0.900913 0.782996
0.822523 0.900913 0.782996
0.903267 0.900913 0.782996
1.009647 0.900913 0.782996
0.875646 1.026894 0.912356
0.87579 1.026894 0.912356
0.87601 1.026894 0.912356
0.876702 1.026894 0.912356
0.87889 1.026894 0.912356
0.885612 1.026894 0.912356
0.904691 1.026894 0.912356
0.949759 1.026894 0.912356
1.029327 1.026894 0.912356
0.071242 0.091692 0.242917
0.18835 0.091692 0.242917
0.274863 0.091692 0.242917
0.383395 0.091692 0.242917
0.502691 0.091692 0.242917
0.625847 0.091692 0.242917
0.750265 0.091692 0.242917
0.875083 0.091692 0.242917
1.000026 0.091692 0.242917
-0.008573 0.14436 0.234735
0.116427 0.14436 0.234735
0.24658 0.14436 0.234735
0.373944 0.14436 0.234735
0.499672 0.14436 0.234735
0.624898 0.14436 0.234735
0.749968 0.14436 0.234735
0.87499 0.14436 0.234735
0.999997 0.14436 0.234735
-0.122028 0.210894 0.220295
0.002973 0.210894 0.220295
0.186523 0.210894 0.220295
0.358893 0.210894 0.220295
0.495227 0.210894 0.220295
0.623533 0.210894 0.220295
0.749544 0.210894 0.220295
0.874858 0.210894 0.220295
0.999956 0.210894 0.220295
-0.40079 0.323034 0.147312
-0.27579 0.323034 0.147312
-0.085118 0.323034 0.147312
0.309326 0.323034 0.147312
0.483455 0.323034 0.147312
0.620104 0.323034 0.147312
0.748496 0.323034 0.147312
0.874533 0.323034 0.147312
0.999854 0.323034 0.147312
-0.62607 0.477044 -0.123374
-0.501069 0.477044 -0.123374
-0.310398 0.477044 -0.123374
0.240313 0.477044 -0.123374
0.472899 0.477044 -0.123374
0.617251 0.477044 -0.123374
0.747641 0.477044 -0.123374
0.874269 0.477044 -0.123374
0.999772 0.477044 -0.123374
0.400703 0.637113 0.455254
0.412131 0.637113 0.455254
0.427512 0.637113 0.455254
0.46529 0.637113 0.455254
0.537009 0.637113 0.455254
0.637975 0.637113 0.455254
0.754221 0.637113 0.455254
0.876335 0.637113 0.455254
1.000419 0.637113 0.455254
0.604871 0.772813 0.644349
0.606657 0.772813 0.644349
0.609324 0.772813 0.644349
0.617342 0.772813 0.644349
0.639616 0.772813 0.644349
0.690094 0.772813 0.644349
0.77483 0.772813 0.644349
0.883383 0.772813 0.644349
1.002687 0.772813 0.644349
0.746065 0.900945 0.783445
0.746548 0.900945 0.783445
0.747279 0.900945 0.783445
0.749557 0.900945 0.783445
0.756548 0.900945 0.783445
0.7763 0.900945 0.783445
0.822543 0.900945 0.783445
0.903276 0.900945 0.783445
1.00965 0.900945 0.783445
0.875657 1.026904 0.912491
0.875802 1.026904 0.912491
0.876022 1.026904 0.912491
0.876714 1.026904 0.912491
0.878901 1.026904 0.912491
0.885623 1.026904 0.912491
0.9047 1.026904 0.912491
0.949765 1.026904 0.912491
1.02933 1.026904 0.912491
0.108081 0.175542 0.36434
0.211383 0.175542 0.36434
0.285766 0.175542 0.36434
0.387492 0.175542 0.36434
0.504057 0.175542 0.36434
0.626283 0.175542 0.36434
0.750402 0.175542 0.36434
0.875126 0.175542 0.36434
1.000039 0.175542 0.36434
0.028266 0.210545 0.361768
0.153206 0.210545 0.361768
0.260563 0.210545 0.361768
0.37841 0.210545 0.361768
0.501076 0.210545 0.361768
0.625337 0.210545 0.361768
0.750105 0.210545 0.361768
0.875033 0.210545 0.361768
1.00001 0.210545 0.361768
-0.085189 0.251474 0.357548
0.039811 0.251474 0.357548
0.209911 0.251474 0.357548
0.364015 0.251474 0.357548
0.496691 0.251474 0.357548
0.623978 0.251474 0.357548
0.749682 0.251474 0.357548
0.874901 0.251474 0.357548
0.999969 0.251474 0.357548
-0.363951 0.339117 0.341681
-0.238951 0.339117 0.341681
-0.048279 0.339117 0.341681
0.317344 0.339117 0.341681
0.485087 0.339117 0.341681
0.620564 0.339117 0.341681
0.748635 0.339117 0.341681
0.874576 0.339117 0.341681
0.999868 0.339117 0.341681
-0.589231 0.481099 0.28292
-0.464231 0.481099 0.28292
-0.273559 0.481099 0.28292
0.255082 0.481099 0.28292
0.474698 0.481099 0.28292
0.617723 0.481099 0.28292
0.747781 0.481099 0.28292
0.874312 0.481099 0.28292
0.999786 0.481099 0.28292
0.404199 0.63804 0.482624
0.41528 0.63804 0.482624
0.430245 0.63804 0.482624
0.46722 0.63804 0.482624
0.538003 0.63804 0.482624
0.638365 0.63804 0.482624
0.754353 0.63804 0.482624
0.876378 0.63804 0.482624
1.000432 0.63804 0.482624
0.605401 0.773075 0.649576
0.607177 0.773075 0.649576
0.609832 0.773075 0.649576
0.617813 0.773075 0.649576
0.639999 0.773075 0.649576
0.690334 0.773075 0.649576
0.774938 0.773075 0.649576
0.883423 0.773075 0.649576
1.0027 0.773075 0.649576
0.746208 0.901025 0.784901
0.746689 0.901025 0.784901
0.74742 0.901025 0.784901
0.749695 0.901025 0.784901
0.756678 0.901025 0.784901
0.776407 0.901025 0.784901
0.822612 0.901025 0.784901
0.903309 0.901025 0.784901
1.009662 0.901025 0.784901
0.8757 1.026929 0.912931
0.875844 1.026929 0.912931
0.876064 1.026929 0.912931
0.876756 1.026929 0.912931
0.878942 1.026929 0.912931
0.885662 1.026929 0.912931
0.904733 1.026929 0.912931
0.949787 1.026929 0.912931
1.02934 1.026929 0.912931
0.191673 0.220764 0.494683
0.254012 0.220764 0.494683
0.309188 0.220764 0.494683
0.397187 0.220764 0.494683
0.507429 0.220764 0.494683
0.627375 0.220764 0.494683
0.750747 0.220764 0.494683
0.875234 0.220764 0.494683
1.000073 0.220764 0.494683
0.121266 0.244974 0.493926
0.218558 0.244974 0.493926
0.289414 0.244974 0.493926
0.388921 0.244974 0.493926
0.504542 0.244974 0.493926
0.626438 0.244974 0.493926
0.750451 0.244974 0.493926
0.875141 0.244974 0.493926
1.000044 0.244974 0.493926
0.007811 0.276134 0.492711
0.132811 0.276134 0.492711
0.253024 0.276134 0.492711
0.375953 0.276134 0.492711
0.500298 0.276134 0.492711
0.625093 0.276134 0.492711
0.750029 0.276134 0.492711
0.875009 0.276134 0.492711
1.000003 0.276134 0.492711
-0.270952 0.350721 0.488439
-0.145952 0.350721 0.488439
0.04472 0.350721 0.488439
0.335265 0.350721 0.488439
0.489099 0.350721 0.488439
0.621715 0.350721 0.488439
0.748985 0.350721 0.488439
0.874684 0.350721 0.488439
0.999902 0.350721 0.488439
-0.496231 0.484316 0.476238
-0.371231 0.484316 0.476238
-0.180559 0.484316 0.476238
0.28525 0.484316 0.476238
0.479109 0.484316 0.476238
0.618905 0.484316 0.476238
0.748135 0.484316 0.476238
0.874421 0.484316 0.476238
0.99982 0.484316 0.476238
0.41255 0.638794 0.544924
0.42284 0.638794 0.544924
0.436852 0.638794 0.544924
0.471943 0.638794 0.544924
0.540471 0.638794 0.544924
0.639341 0.638794 0.544924
0.754685 0.638794 0.544924
0.876484 0.638794 0.544924
1.000465 0.638794 0.544924
0.606725 0.77329 0.666072
0.60848 0.77329 0.666072
0.611103 0.77329 0.666072
0.618994 0.77329 0.666072
0.64096 0.77329 0.666072
0.690936 0.77329 0.666072
0.775213 0.77329 0.666072
0.883523 0.77329 0.666072
1.002733 0.77329 0.666072
0.746566 0.90109 0.789841
0.747046 0.90109 0.789841
0.747774 0.90109 0.789841
0.750042 0.90109 0.789841
0.757003 0.90109 0.789841
0.776678 0.90109 0.789841
0.822788 0.90109 0.789841
0.903392 0.90109 0.789841
1.009693 0.90109 0.789841
0.875807 1.026949 0.914454
0.875952 1.026949 0.914454
0.876171 1.026949 0.914454
0.876862 1.026949 0.914454
0.879047 1.026949 0.914454
0.88576 1.026949 0.914454
0.904815 1.026949 0.914454
0.949841 1.026949 0.914454
1.029366 1.026949 0.914454
-0.954991 -0.299458 0.628314
-0.829991 -0.299458 0.628314
-0.639319 -0.299458 0.628314
-0.036836 -0.299458 0.628314
0.455341 -0.299458 0.628314
0.612945 -0.299458 0.628314
0.746381 -0.299458 0.628314
0.873883 -0.299458 0.628314
0.999653 -0.299458 0.628314
-1.034806 -0.24679 0.628096
-0.909806 -0.24679 0.628096
-0.719134 -0.24679 0.628096
-0.116651 -0.24679 0.628096
0.45061 -0.24679 0.628096
0.611873 -0.24679 0.628096
0.746073 -0.24679 0.628096
0.87379 -0.24679 0.628096
0.999624 -0.24679 0.628096
-1.148261 -0.158937 0.62775
-1.023261 -0.158937 0.62775
-0.832589 -0.158937 0.62775
-0.230106 -0.158937 0.62775
0.443504 -0.158937 0.62775
0.610331 -0.158937 0.62775
0.745633 -0.158937 0.62775
0.873656 -0.158937 0.62775
0.999582 -0.158937 0.62775
-1.427024 0.184572 0.626552
-1.302024 0.184572 0.626552
-1.111352 0.184572 0.626552
-0.508868 0.184572 0.626552
0.423741 0.184572 0.626552
0.606446 0.184572 0.626552
0.744546 0.184572 0.626552
0.873327 0.184572 0.626552
0.999481 0.184572 0.626552
-1.652303 0.456701 0.623319
-1.527303 0.456701 0.623319
-1.336631 0.456701 0.623319
-0.734148 0.456701 0.623319
0.404595 0.456701 0.623319
0.6032 0.456701 0.623319
0.743659 0.456701 0.623319
0.873061 0.456701 0.623319
0.999398 0.456701 0.623319
0.128852 0.632858 0.645341
0.222478 0.632858 0.645341
0.291458 0.632858 0.645341
0.389734 0.632858 0.645341
0.50482 0.632858 0.645341
0.626528 0.632858 0.645341
0.750479 0.632858 0.645341
0.87515 0.632858 0.645341
1.000047 0.632858 0.645341
0.588969 0.771628 0.709662
0.591037 0.771628 0.709662
0.594116 0.771628 0.709662
0.603303 0.771628 0.709662
0.628351 0.771628 0.709662
0.683195 0.771628 0.709662
0.771751 0.771628 0.709662
0.882273 0.771628 0.709662
1.002324 0.771628 0.709662
0.742023 0.900587 0.805601
0.742524 0.900587 0.805601
0.743283 0.900587 0.805601
0.745647 0.900587 0.805601
0.752889 0.900587 0.805601
0.773263 0.900587 0.805601
0.820579 0.900587 0.805601
0.902355 0.900587 0.805601
1.009309 0.900587 0.805601
0.874464 1.026794 0.919644
0.87461 1.026794 0.919644
0.874833 1.026794 0.919644
0.875532 1.026794 0.919644
0.877744 1.026794 0.919644
0.884537 1.026794 0.919644
0.903791 1.026794 0.919644
0.949169 1.026794 0.919644
1.029046 1.026794 0.919644
-5.908772 -2.258919 0.756395
-5.783772 -2.258919 0.756395
-5.593101 -2.258919 0.756395
-4.990617 -2.258919 0.756395
-3.060299 -2.258919 0.756395
0.510066 -2.258919 0.756395
0.725355 -2.258919 0.756395
0.867897 -2.258919 0.756395
0.997833 -2.258919 0.756395
-5.988588 -2.206252 0.756329
-5.863587 -2.206252 0.756329
-5.672916 -2.206252 0.756329
-5.070432 -2.206252 0.756329
-3.140114 -2.206252 0.756329
0.507249 -2.206252 0.756329
0.72498 -2.206252 0.756329
0.867798 -2.206252 0.756329
0.997803 -2.206252 0.756329
-6.102043 -2.118398 0.756224
-5.977042 -2.118398 0.756224
-5.786371 -2.118398 0.756224
-5.183887 -2.118398 0.756224
-3.253569 -2.118398 0.756224
0.503113 -2.118398 0.756224
0.724445 -2.118398 0.756224
0.867657 -2.118398 0.756224
0.997761 -2.118398 0.756224
-6.380805 -1.768543 0.755863
-6.255805 -1.768543 0.755863
-6.065133 -1.768543 0.755863
-5.462649 -1.768543 0.755863
-3.532331 -1.768543 0.755863
0.492219 -1.768543 0.755863
0.723119 -1.768543 0.755863
0.867309 -1.768543 0.755863
0.997658 -1.768543 0.755863
-6.606084 -0.042384 0.754904
-6.481084 -0.042384 0.754904
-6.290412 -0.042384 0.754904
-5.687929 -0.042384 0.754904
-3.757611 -0.042384 0.754904
0.482529 -0.042384 0.754904
0.722035 -0.042384 0.754904
0.867027 -0.042384 0.754904
0.997574 -0.042384 0.754904
-4.824929 0.608559 0.76185
-4.699929 0.608559 0.76185
-4.509257 0.608559 0.76185
-3.906774 0.608559 0.76185
-1.976456 0.608559 0.76185
0.542415 0.608559 0.76185
0.73032 0.608559 0.76185
0.869236 0.608559 0.76185
0.998234 0.608559 0.76185
0.430853 0.765485 0.788116
0.439594 0.765485 0.788116
0.45169 0.765485 0.788116
0.482846 0.765485 0.788116
0.546368 0.765485 0.788116
0.641727 0.765485 0.788116
0.755506 0.765485 0.788116
0.876749 0.765485 0.788116
1.000549 0.765485 0.788116
0.720031 0.898776 0.844788
0.720645 0.898776 0.844788
0.721575 0.898776 0.844788
0.724462 0.898776 0.844788
0.73322 0.898776 0.844788
0.757263 0.898776 0.844788
0.810559 0.898776 0.844788
0.897794 0.898776 0.844788
1.007647 0.898776 0.844788
0.868511 1.026238 0.93486
0.868666 1.026238 0.93486
0.868901 1.026238 0.93486
0.86964 1.026238 0.93486
0.871975 1.026238 0.93486
0.87913 1.026238 0.93486
0.899292 1.026238 0.93486
0.946242 1.026238 0.93486
1.027665 1.026238 0.93486
-21.780367 -8.536907 0.882338
-21.655369 -8.536907 0.882338
-21.464697 -8.536907 0.882338
-20.862213 -8.536907 0.882338
-18.931894 -8.536907 0.882338
-12.747276 -8.536907 0.882338
0.598522 -8.536907 0.882338
0.846103 -8.536907 0.882338
0.991786 -8.536907 0.882338
-21.860182 -8.48424 0.882318
-21.735182 -8.48424 0.882318
-21.544512 -8.48424 0.882318
-20.942028 -8.48424 0.882318
-19.011709 -8.48424 0.882318
-12.827092 -8.48424 0.882318
0.597295 -8.48424 0.882318
0.845981 -8.48424 0.882318
0.991755 -8.48424 0.882318
-21.973637 -8.396386 0.882286
-21.848639 -8.396386 0.882286
-21.657967 -8.396386 0.882286
-21.055483 -8.396386 0.882286
-19.125164 -8.396386 0.882286
-12.940547 -8.396386 0.882286
0.595527 -8.396386 0.882286
0.845808 -8.396386 0.882286
0.991711 -8.396386 0.882286
-22.252399 -8.046532 0.882174
-22.127399 -8.046532 0.882174
-21.936729 -8.046532 0.882174
-21.334246 -8.046532 0.882174
-19.403927 -8.046532 0.882174
-13.219309 -8.046532 0.882174
0.591055 -8.046532 0.882174
0.845382 -8.046532 0.882174
0.991601 -8.046532 0.882174
-22.477678 -6.320372 0.881879
-22.35268 -6.320372 0.881879
-22.162008 -6.320372 0.881879
-21.559525 -6.320372 0.881879
-19.629206 -6.320372 0.881879
-13.444589 -6.320372 0.881879
0.5873 -6.320372 0.881879
0.845036 -6.320372 0.881879
0.991513 -6.320372 0.881879
-20.696526 0.428086 0.884056
-20.571524 0.428086 0.884056
-20.380854 0.428086 0.884056
-19.77837 0.428086 0.884056
-17.848051 0.428086 0.884056
-11.663434 0.428086 0.884056
0.613923 0.428086 0.884056
0.84774 0.428086 0.884056
0.99221 0.428086 0.884056
-14.355685 0.74304 0.893189
-14.230685 0.74304 0.893189
-14.040013 0.74304 0.893189
-13.437531 0.74304 0.893189
-11.507212 0.74304 0.893189
-5.322593 0.74304 0.893189
0.67594 0.74304 0.893189
0.85685 0.74304 0.893189
0.994657 0.74304 0.893189
0.580098 0.892759 0.918111
0.582342 0.892759 0.918111
0.585678 0.892759 0.918111
0.595582 0.892759 0.918111
0.622283 0.892759 0.918111
0.679596 0.892759 0.918111
0.770188 0.892759 0.918111
0.881718 0.892759 0.918111
1.002142 0.892759 0.918111
0.846855 1.024438 0.972762
0.847044 1.024438 0.972762
0.847331 1.024438 0.972762
0.848234 1.024438 0.972762
0.851077 1.024438 0.972762
0.85971 1.024438 0.972762
0.883456 1.024438 0.972762
0.936287 1.024438 0.972762
1.023117 1.024438 0.972762
-72.631935 -28.651175 1.007631
-72.506935 -28.651175 1.007631
-72.316261 -28.651175 1.007631
-71.713776 -28.651175 1.007631
-69.783463 -28.651175 1.007631
-63.598843 -28.651175 1.007631
-43.783718 -28.651175 1.007631
0.708994 -28.651175 1.007631
0.96974 -28.651175 1.007631
-72.711754 -28.598505 1.007625
-72.586746 -28.598505 1.007625
-72.39608 -28.598505 1.007625
-71.793594 -28.598505 1.007625
-69.863274 -28.598505 1.007625
-63.678658 -28.598505 1.007625
-43.863533 -28.598505 1.007625
0.708557 -28.598505 1.007625
0.969702 -28.598505 1.007625
-72.825203 -28.510653 1.007615
-72.700203 -28.510653 1.007615
-72.509529 -28.510653 1.007615
-71.907051 -28.510653 1.007615
-69.97673 -28.510653 1.007615
-63.792114 -28.510653 1.007615
-43.97699 -28.510653 1.007615
0.707933 -28.510653 1.007615
0.969647 -28.510653 1.007615
-73.103966 -28.160797 1.00758
-72.978966 -28.160797 1.00758
-72.788292 -28.160797 1.00758
-72.185806 -28.160797 1.00758
-70.255493 -28.160797 1.00758
-64.070869 -28.160797 1.00758
-44.255749 -28.160797 1.00758
0.706385 -28.160797 1.00758
0.969513 -28.160797 1.00758
-73.329247 -26.434639 1.007489
-73.204247 -26.434639 1.007489
-73.013573 -26.434639 1.007489
-72.411095 -26.434639 1.007489
-70.480766 -26.434639 1.007489
-64.29615 -26.434639 1.007489
-44.481033 -26.434639 1.007489
0.705117 -26.434639 1.007489
0.969404 -26.434639 1.007489
-71.548088 -18.635849 1.008169
-71.423088 -18.635849 1.008169
-71.232414 -18.635849 1.008169
-70.629936 -18.635849 1.008169
-68.699615 -18.635849 1.008169
-62.515003 -18.635849 1.008169
-42.699875 -18.635849 1.008169
0.714754 -18.635849 1.008169
0.970261 -18.635849 1.008169
-65.207245 0.596327 1.011128
-65.082245 0.596327 1.011128
-64.891579 0.596327 1.011128
-64.289093 0.596327 1.011128
-62.358784 0.596327 1.011128
-56.17416 0.596327 1.011128
-36.359035 0.596327 1.011128
0.743387 0.596327 1.011128
0.973255 0.596327 1.011128
-44.891609 0.870836 1.020093
-44.766609 0.870836 1.020093
-44.575939 0.870836 1.020093
-43.973457 0.870836 1.020093
-42.043137 0.870836 1.020093
-35.858517 0.870836 1.020093
-16.04339 0.870836 1.020093
0.803468 0.870836 1.020093
0.982324 0.870836 1.020093
0.711667 1.018459 1.044623
0.712331 1.018459 1.044623
0.713335 1.018459 1.044623
0.716449 1.018459 1.044623
0.725857 1.018459 1.044623
0.751419 1.018459 1.044623
0.80704 1.018459 1.044623
0.896246 1.018459 1.044623
1.007093 1.018459 1.044623
