site/assets/luts/freshluts--0000828-orange-look.cube
# LUTr-Schema-Version: 2
# LUTr-ID: freshluts--0000828-orange-look
# LUTr-Title: Orange Look
# LUTr-Collection: Fresh LUTs
# LUTr-Collection-ID: freshluts-community
# LUTr-Source: https://freshluts.com
# LUTr-Retrieved: 2026-07-27
# LUTr-Source-File: submissions-raw/freshluts/cubes/828__Teal_look_1.mixkit-man-and-woman-taking-selfies-during-a-road-trip-40038.cube
# LUTr-Source-Format: CUBE
# LUTr-Source-SHA256: a39f7af4e4d847121d9da212c7e97b6723c403a92ebe03bfca752e538d525fd1
# LUTr-License: CC0-1.0
# LUTr-License-URL: https://freshluts.com/termsandconditions
# LUTr-License-Basis: site-terms
# LUTr-Transform-Class: creative-look
# LUTr-Tags: creative, freshluts, community, cube, cross-process, warm, high-key, canon-cinestyle
# LUTr-Input-Color-Space:
# LUTr-Input-Gamut: rec709
# LUTr-Input-Transfer: canon-cinestyle
# LUTr-Output-Color-Space: srgb
# LUTr-Output-Gamut: rec709
# LUTr-Output-Transfer: srgb
# LUTr-Color-Space-Confidence: camera-profile-input-required
# LUTr-Domain-Normalized: true
# LUTr-Shaper: none
# LUTr-Original-Grid: 33x33x33
# LUTr-Conversion-Grid: 33x33x33
# LUTr-Conversion-Interpolation: none
# LUTr-Conversion-Method: Metadata normalization; numeric LUT samples preserved
# LUTr-Conversion-Tool: LUTr scripts/convert-all-to-cube.mjs 2.0.0
# LUTr-Conversion-Date: 2026-07-28
# LUTr-Asset-URL: https://freshluts.com/luts/828
# LUTr-Author: gabriel s
# LUTr-Author-URL: https://freshluts.com/users/3294
# LUTr-Attribution: gabriel s via Fresh LUTs
# LUTr-Source-Labels: gamma=Canon Cinestyle; color=Warm; key=High Key; style=Cross Process
# LUTr-Note: Preserve this metadata and the upstream license notices when redistributing.
TITLE "Orange Look"
LUT_3D_SIZE 33
DOMAIN_MIN 0 0 0
DOMAIN_MAX 1 1 1
0 0 0
0 0 0
0 0 0
0.0631723 0 0
0.130144 0 0
0.192721 0 0
0.25301 0 0
0.311391 0 0
0.367788 0 0
0.42295 0 0
0.477226 0 0
0.530953 0 0
0.584756 0 0
0.63711 0 0
0.688685 0 0
0.738659 0 0
0.787167 0 0
0.833539 0 0
0.877852 0 0
0.920501 0 0
0.961898 0 0
1 0 0
1 0 0
1 0 0
1 0 0
1 0 0
1 0 0
1 0 0
1 0 0
1 0 0
1 0 0
1 0 0
1 0 0
0 0 0
0 0 0
0.000961318 0 0
0.0720073 0 0
0.137407 0 0
0.195163 0 0
0.252903 0 0
0.31107 0 0
0.366888 0 0
0.421363 0 0
0.475578 0 0
0.529534 0 0
0.583261 0 0
0.636149 0 0
0.687678 0 0
0.737667 0 0
0.785931 0 0
0.832288 0 0
0.876707 0 0
0.919631 0 0
0.957992 0 0
0.997894 0 0
1 0 0
1 0 0
1 0 0
1 0 0
1 0 0
1 0 0
1 0 0
1 0 0
1 0.000885023 0
1 0.00425727 0
1 0.00793469 0
0 0 0
0 0 0
0 0 0
0.062562 0 0
0.130495 0 0
0.190829 0 0
0.247791 0 0
0.305455 0 0
0.360265 0 0
0.41471 0 0
0.468574 0 0
0.521828 0 0
0.576028 0 0
0.628428 0 0
0.679713 0 0
0.729854 0 0
0.777798 0 0
0.824109 0 0
0.868482 0 0
0.907683 0 0
0.944762 0.00137331 0
0.982254 0.00355535 0
1 0.00611887 0
1 0.00920119 0
1 0.0122225 0
1 0.0153964 0
1 0.0187991 0
1 0.0224155 0
1 0.0264591 0
1 0.0307774 0
1 0.0349737 0
1 0.0393225 0
1 0.0434882 0
0 0.0336156 0
0 0.0332647 0
0 0.0321813 0
0.0452277 0.0278782 0
0.106264 0.0266728 0
0.166308 0.0262303 0
0.224918 0.0257572 0
0.282155 0.0254063 0
0.337987 0.0253758 0
0.392416 0.0255741 0
0.446632 0.0261234 0
0.500511 0.0263676 0
0.554192 0.0265812 0
0.606867 0.0269627 0
0.658274 0.0275425 0
0.707973 0.0283513 0
0.756848 0.0297246 0
0.803052 0.0311437 0
0.84741 0.0328832 0
0.889967 0.0349889 0
0.930755 0.0373541 0
0.969284 0.040116 0
1 0.0431678 0
1 0.0462501 0
1 0.0494698 0
1 0.0527962 0
1 0.0562142 0
1 0.0600443 0
1 0.0641947 0
1 0.0683604 0
1 0.0725261 0
1 0.0767681 0
1 0.0809949 0
0 0.0791485 0
0 0.0785992 0
0 0.0770428 0
0.0424964 0.0710155 0
0.102174 0.0692607 0
0.160876 0.06804 0
0.218509 0.0671855 0
0.275303 0.0666056 0
0.330831 0.066331 0
0.385351 0.0666361 0
0.439048 0.0667582 0
0.492699 0.0667887 0
0.546151 0.0668193 0
0.598413 0.0670481 0
0.649363 0.0674754 0
0.699901 0.068452 0
0.748409 0.0695354 0
0.79443 0.0708019 0
0.839124 0.0723583 0
0.880858 0.0743877 0
0.921675 0.0767071 0
0.960494 0.0796063 0
0.998871 0.0823072 0
1 0.0852674 0
1 0.0883803 0
1 0.0917372 0
1 0.0953536 0
1 0.0989395 0
1 0.102785 0
1 0.106874 0
1 0.111116 0
1 0.115511 0
1 0.120012 0
0 0.124422 0
0 0.123796 0
0 0.122179 0
0.0408484 0.114595 0
0.0994125 0.112398 0
0.157519 0.110796 0
0.214527 0.109621 0
0.270832 0.108873 0
0.326314 0.108736 0
0.380179 0.108537 0
0.433478 0.108415 0
0.4869 0.108263 0
0.540139 0.108125 0
0.592538 0.108431 0
0.643687 0.108675 0
0.692958 0.109163 0
0.741482 0.110094 0
0.787854 0.111162 0
0.831601 0.112612 0
0.873945 0.114717 0
0.914092 0.116823 0
0.952941 0.119448 0
0.990265 0.122072 0
1 0.124804 0
1 0.127718 0
1 0.131075 0
1 0.134447 0
1 0.138003 0
1 0.141863 0
1 0.145983 0
1 0.150393 0
1 0.15491 0
1 0.159182 0
0 0.169512 0
0 0.169085 0
0 0.166949 0
0.0400397 0.15816 0
0.0976272 0.15552 0
0.155093 0.15375 0
0.211933 0.152438 0
0.267979 0.151629 0
0.322713 0.150958 0
0.375875 0.150515 0
0.42916 0.150149 0
0.482048 0.149859 0
0.535317 0.149752 0
0.587472 0.14963 0
0.638025 0.14966 0
0.687434 0.149935 0
0.735332 0.150607 0
0.781125 0.151476 0
0.82533 0.153048 0
0.867613 0.154879 0
0.907561 0.156786 0
0.946014 0.158953 0
0.982712 0.161456 0
1 0.164279 0
1 0.167483 0
1 0.17055 0
1 0.173754 0
1 0.177554 0
1 0.181399 0
1 0.18584 0
1 0.190158 0
1 0.194461 0
1 0.199023 0
0 0.21416 0
0 0.213245 0
0 0.210941 0
0.0412451 0.201038 0
0.0989242 0.19762 0
0.158221 0.194675 0
0.213931 0.193668 0
0.267079 0.193042 0
0.320943 0.192309 0
0.373434 0.191928 0
0.42565 0.191577 0
0.47863 0.191394 0
0.531563 0.191012 0
0.583001 0.19057 0
0.633219 0.190387 0
0.682277 0.190433 0
0.730358 0.191211 0
0.775814 0.191959 0
0.819852 0.192905 0
0.861662 0.194614 0
0.901411 0.196429 0
0.939467 0.198642 0
0.977035 0.201404 0
1 0.204257 0
1 0.207172 0
1 0.210163 0
1 0.213657 0
1 0.217151 0
1 0.221393 0
1 0.225528 0
1 0.23003 0
1 0.234272 0
1 0.238529 0
0 0.258564 0
0 0.257298 0
0 0.254948 0
0.0407568 0.24448 0
0.0975814 0.241154 0
0.153964 0.238788 0
0.210773 0.236469 0
0.264942 0.235386 0
0.318593 0.234318 0
0.371267 0.233631 0
0.423621 0.233127 0
0.475929 0.232364 0
0.528069 0.231571 0
0.579004 0.230961 0
0.62945 0.230594 0
0.678401 0.230777 0
0.725734 0.231052 0
0.771511 0.23154 0
0.815396 0.232807 0
0.856992 0.234226 0
0.896406 0.236088 0
0.935393 0.238834 0
0.972564 0.241276 0
1 0.243854 0
1 0.247013 0
1 0.249973 0
1 0.253178 0
1 0.257267 0
1 0.261067 0
1 0.265141 0
1 0.269444 0
1 0.273808 0
1 0.278202 0
0 0.30193 0
0 0.300801 0
0 0.297887 0
0.0417182 0.287312 0
0.0972915 0.283619 0
0.152926 0.280858 0
0.208301 0.278767 0
0.26276 0.276722 0
0.31632 0.275486 0
0.368841 0.274617 0
0.420737 0.273564 0
0.472877 0.272526 0
0.525185 0.271687 0
0.576135 0.270893 0
0.626673 0.270649 0
0.675822 0.270649 0
0.722988 0.270848 0
0.768246 0.271397 0
0.811704 0.272526 0
0.853819 0.274281 0
0.894209 0.276112 0
0.932784 0.278523 0
0.969467 0.281025 0
1 0.283589 0
1 0.286503 0
1 0.28983 0
1 0.293019 0
1 0.296666 0
1 0.30042 0
1 0.304295 0
1 0.308537 0
1 0.313085 0
1 0.317037 0
0 0.345083 0
0 0.34403 0
0 0.340734 0
0.0421912 0.328984 0
0.0973678 0.325124 0
0.152438 0.322179 0
0.207538 0.319844 0
0.261784 0.317845 0
0.314855 0.316182 0
0.366934 0.314855 0
0.418875 0.313634 0
0.470558 0.312795 0
0.522774 0.311925 0
0.574151 0.311299 0
0.624033 0.310719 0
0.673167 0.31075 0
0.720195 0.310842 0
0.765408 0.31136 0
0.809216 0.312734 0
0.851438 0.314229 0
0.891234 0.315938 0
0.929732 0.318334 0
0.966323 0.320684 0
1 0.32311 0
1 0.32636 0
1 0.32929 0
1 0.332265 0
1 0.335775 0
1 0.339391 0
1 0.343404 0
1 0.347707 0
1 0.351598 0
1 0.355596 0
0 0.3879 0
0 0.386282 0
0 0.382742 0
0.0421302 0.370611 0
0.0966659 0.366186 0
0.151308 0.362951 0
0.206378 0.360723 0
0.260273 0.358633 0
0.313146 0.356603 0
0.364935 0.355245 0
0.416876 0.354192 0
0.468711 0.353307 0
0.52076 0.352438 0
0.571908 0.351492 0
0.621546 0.350896 0
0.670619 0.350896 0
0.717586 0.350942 0
0.763149 0.351736 0
0.807095 0.352819 0
0.848142 0.354101 0
0.888395 0.355825 0
0.926497 0.357977 0
0.963134 0.360357 0
1 0.363149 0
1 0.365637 0
1 0.368368 0
1 0.371542 0
1 0.37464 0
1 0.3785 0
1 0.382239 0
1 0.385931 0
1 0.38999 0
1 0.393576 0
0 0.42977 0
0 0.428016 0
0 0.424125 0
0.0413825 0.411551 0
0.0959182 0.40737 0
0.15079 0.404288 0
0.204959 0.401389 0
0.258717 0.399252 0
0.311604 0.397498 0
0.363424 0.396094 0
0.415381 0.395163 0
0.46717 0.393896 0
0.518898 0.392691 0
0.570031 0.392096 0
0.619562 0.391409 0
0.668101 0.391012 0
0.715282 0.391241 0
0.760708 0.391897 0
0.804059 0.392584 0
0.845365 0.394095 0
0.884825 0.395544 0
0.922606 0.397498 0
0.960143 0.400061 0
0.995209 0.402335 0
1 0.404852 0
1 0.407385 0
1 0.410086 0
1 0.413443 0
1 0.41677 0
1 0.420478 0
1 0.423911 0
1 0.427649 0
1 0.43122 0
0 0.47129 0
0 0.469429 0
0 0.465537 0
0.0422675 0.452842 0
0.0966659 0.448066 0
0.151461 0.444389 0
0.205905 0.441733 0
0.259464 0.43917 0
0.312245 0.437232 0
0.364111 0.436194 0
0.415274 0.435126 0
0.466773 0.434104 0
0.51809 0.432883 0
0.568383 0.431922 0
0.617731 0.43122 0
0.666667 0.431327 0
0.713252 0.431098 0
0.758022 0.43122 0
0.801877 0.432074 0
0.842634 0.433066 0
0.88278 0.435004 0
0.92018 0.436652 0
0.956405 0.438682 0
0.991592 0.440986 0
1 0.44303 0
1 0.445686 0
1 0.448249 0
1 0.451301 0
1 0.454292 0
1 0.457786 0
1 0.461021 0
1 0.464607 0
1 0.468009 0
0 0.512627 0
0 0.510369 0
0 0.506508 0
0.0430915 0.493431 0
0.0972 0.488945 0
0.151598 0.485313 0
0.205646 0.482139 0
0.259434 0.480125 0
0.312184 0.478187 0
0.363653 0.4766 0
0.414694 0.475212 0
0.465965 0.473777 0
0.517494 0.472709 0
0.568139 0.471885 0
0.617487 0.470878 0
0.665293 0.470192 0
0.712169 0.470192 0
0.756924 0.4701 0
0.800076 0.470848 0
0.841123 0.471901 0
0.879774 0.47306 0
0.917464 0.474876 0
0.95314 0.476509 0
0.988464 0.478676 0
1 0.480507 0
1 0.483116 0
1 0.485283 0
1 0.488075 0
1 0.490745 0
1 0.494087 0
1 0.497139 0
1 0.500557 0
1 0.503456 0
0 0.553307 0
0 0.551522 0
0 0.547066 0
0.0454414 0.533593 0
0.09897 0.528801 0
0.152865 0.525216 0
0.207111 0.522515 0
0.260365 0.520226 0
0.312673 0.518181 0
0.363943 0.516396 0
0.414878 0.514763 0
0.466056 0.5131 0
0.517571 0.511772 0
0.567941 0.510658 0
0.617227 0.509499 0
0.664652 0.508598 0
0.711269 0.5084 0
0.755947 0.50811 0
0.798505 0.508583 0
0.83946 0.509453 0
0.877897 0.510292 0
0.915038 0.51194 0
0.950851 0.513313 0
0.986114 0.515587 0
1 0.517098 0
1 0.519265 0
1 0.521065 0
1 0.523659 0
1 0.526146 0
1 0.529366 0
1 0.532052 0
1 0.535058 0
1 0.537652 0
0 0.593881 0
0 0.591791 0
0 0.586358 0
0.0487221 0.573159 0
0.102098 0.568353 0
0.156222 0.564797 0
0.209689 0.561852 0
0.262577 0.559304 0
0.314565 0.557107 0
0.365591 0.555184 0
0.416815 0.553491 0
0.467765 0.551659 0
0.518578 0.549798 0
0.568704 0.548531 0
0.617411 0.547265 0
0.664515 0.546151 0
0.711086 0.545968 0
0.755428 0.545403 0
0.797757 0.545708 0
0.83798 0.546029 0
0.876341 0.546609 0
0.913283 0.547845 0
0.949096 0.549157 0
0.983612 0.550942 0
1 0.552224 0
1 0.554101 0
1 0.555962 0
1 0.558007 0
1 0.560784 0
1 0.563073 0
1 0.565835 0
1 0.568154 0
1 0.57084 0
0 0.633539 0
0 0.631128 0
0.00172427 0.620951 0
0.0532082 0.61178 0
0.106661 0.607263 0
0.160021 0.603311 0
0.213291 0.600214 0
0.265873 0.597421 0
0.317617 0.594797 0
0.368627 0.592935 0
0.41944 0.590951 0
0.469734 0.588952 0
0.519951 0.586923 0
0.569955 0.585321 0
0.61828 0.583734 0
0.665751 0.582574 0
0.711727 0.581933 0
0.755673 0.581048 0
0.797665 0.581109 0
0.837461 0.581094 0
0.876036 0.581842 0
0.912459 0.582773 0
0.947723 0.583993 0
0.981186 0.585 0
1 0.586404 0
1 0.58761 0
1 0.589487 0
1 0.590982 0
1 0.59321 0
1 0.595407 0
1 0.597803 0
1 0.600305 0
1 0.60238 0
0 0.672358 0
0 0.669398 0
0.0074464 0.657053 0
0.0590982 0.649561 0
0.111818 0.644877 0
0.164813 0.640665 0
0.217838 0.637324 0
0.270298 0.634287 0
0.322133 0.631907 0
0.37232 0.629557 0
0.422309 0.627268 0
0.472541 0.624918 0
0.522774 0.622675 0
0.572732 0.620966 0
0.620706 0.619104 0
0.667613 0.617746 0
0.712749 0.616587 0
0.756283 0.615488 0
0.798001 0.615259 0
0.837766 0.615213 0
0.875853 0.615579 0
0.911849 0.616129 0
0.946548 0.616968 0
0.980362 0.618036 0
1 0.618524 0
1 0.620096 0
1 0.621103 0
1 0.622812 0
1 0.624567 0
1 0.626383 0
1 0.628626 0
1 0.630625 0
1 0.632654 0
0 0.709926 0
0 0.706966 0
0.014374 0.693049 0
0.065568 0.686122 0
0.118212 0.681132 0
0.170871 0.676753 0
0.223713 0.673167 0
0.276188 0.670008 0
0.32752 0.667018 0
0.37763 0.664363 0
0.427222 0.661799 0
0.476814 0.659205 0
0.526986 0.657282 0
0.575708 0.6551 0
0.623423 0.652857 0
0.670176 0.651301 0
0.714809 0.649561 0
0.758175 0.648692 0
0.799649 0.647898 0
0.839292 0.647776 0
0.876463 0.64741 0
0.912276 0.647822 0
0.946273 0.648112 0
0.979553 0.648966 0
1 0.649958 0
1 0.650446 0
1 0.65153 0
1 0.652689 0
1 0.654185 0
1 0.656321 0
1 0.657786 0
1 0.659724 0
1 0.661616 0
0 0.746548 0
0 0.743221 0
0.0217288 0.727993 0
0.0725719 0.721462 0
0.124849 0.716243 0
0.177401 0.71165 0
0.229938 0.708064 0
0.281483 0.704555 0
0.332311 0.701213 0
0.382025 0.698299 0
0.431586 0.695384 0
0.481498 0.693324 0
0.530724 0.69041 0
0.578912 0.687678 0
0.62678 0.685603 0
0.67277 0.68333 0
0.717678 0.68191 0
0.760204 0.680323 0
0.80145 0.679408 0
0.84007 0.678462 0
0.877379 0.678355 0
0.912688 0.678401 0
0.946548 0.678492 0
0.979599 0.679088 0
1 0.679088 0
1 0.67985 0
1 0.680491 0
1 0.6813 0
1 0.682948 0
1 0.684169 0
1 0.685954 0
1 0.687678 0
1 0.688838 0
0 0.781598 0
0 0.777493 0
0.0296941 0.762051 0
0.0802777 0.755474 0
0.132433 0.750347 0
0.184436 0.745373 0
0.236255 0.741344 0
0.287358 0.737682 0
0.337697 0.734112 0
0.386984 0.731075 0
0.436606 0.728389 0
0.485557 0.725277 0
0.534432 0.722148 0
0.582986 0.719387 0
0.629953 0.716381 0
0.676173 0.714321 0
0.720302 0.712154 0
0.762844 0.710674 0
0.803143 0.708919 0
0.841428 0.708186 0
0.878218 0.707774 0
0.913008 0.707362 0
0.947066 0.70753 0
0.978988 0.707301 0
1 0.707439 0
1 0.707927 0
1 0.708064 0
1 0.709133 0
1 0.710338 0
1 0.711284 0
1 0.712871 0
1 0.714458 0
1 0.715648 0
0 0.815763 0
0 0.810925 0
0.0375677 0.794354 0
0.0883497 0.78854 0
0.139712 0.783001 0
0.191562 0.77818 0
0.242924 0.773816 0
0.293675 0.769833 0
0.343633 0.766094 0
0.39295 0.762707 0
0.441581 0.759075 0
0.490257 0.75613 0
0.538811 0.75256 0
0.586664 0.749096 0
0.633692 0.746685 0
0.678798 0.743633 0
0.722988 0.74139 0
0.76463 0.739406 0
0.804959 0.737743 0
0.84303 0.736843 0
0.879255 0.735714 0
0.914031 0.735302 0
0.947326 0.734615 0
0.979599 0.734707 0
1 0.734676 0
1 0.73463 0
1 0.735058 0
1 0.735805 0
1 0.736355 0
1 0.737621 0
1 0.738994 0
1 0.740047 0
1 0.74136 0
0 0.848692 0
0 0.841886 0
0.0458228 0.826261 0
0.0957046 0.820111 0
0.146868 0.814511 0
0.198276 0.809277 0
0.248997 0.804761 0
0.29984 0.800427 0
0.349325 0.796216 0
0.398001 0.792554 0
0.446082 0.789227 0
0.494408 0.785229 0
0.543023 0.78175 0
0.590356 0.778256 0
0.637095 0.775219 0
0.681605 0.772091 0
0.72546 0.769558 0
0.766827 0.766918 0
0.807111 0.765255 0
0.84448 0.763714 0
0.880812 0.762768 0
0.915312 0.762158 0
0.948287 0.761166 0
0.980301 0.761044 0
1 0.760967 0
1 0.760678 0
1 0.760876 0
1 0.761395 0
1 0.761791 0
1 0.762951 0
1 0.764385 0
1 0.765103 0
1 0.766262 0
0 0.880537 0
0.00505074 0.867414 0
0.0532692 0.857466 0
0.102861 0.850538 0
0.153521 0.844785 0
0.204379 0.839612 0
0.255451 0.834836 0
0.305425 0.830106 0
0.354559 0.825528 0
0.402335 0.821378 0
0.450507 0.817624 0
0.498466 0.813581 0
0.546838 0.809491 0
0.593622 0.806165 0
0.63949 0.802274 0
0.684474 0.799268 0
0.727337 0.796109 0
0.769528 0.793942 0
0.808896 0.792081 0
0.845838 0.790127 0
0.881956 0.788998 0
0.916075 0.788098 0
0.949081 0.787137 0
0.981033 0.786969 0
1 0.786206 0
1 0.785992 0
1 0.786084 0
1 0.786206 0
1 0.786755 0
1 0.787839 0
1 0.788983 0
1 0.789578 0
1 0.790631 0
0 0.910994 0
0.0119173 0.89572 0
0.0600748 0.886931 0
0.109468 0.880079 0
0.159655 0.874006 0
0.210224 0.868376 0
0.260471 0.862959 0
0.310094 0.857954 0
0.359243 0.853712 0
0.407126 0.849088 0
0.454948 0.844755 0
0.502678 0.84094 0
0.550042 0.836561 0
0.597101 0.832715 0
0.64271 0.828733 0
0.687251 0.825513 0
0.729702 0.822461 0
0.771328 0.819913 0
0.8103 0.817609 0
0.847608 0.815625 0
0.883436 0.814267 0
0.916945 0.812818 0
0.950347 0.812222 0
0.981918 0.811765 0
1 0.810666 0
1 0.810437 0
1 0.810391 0
1 0.810727 0
1 0.810941 0
1 0.811795 0
1 0.812787 0
1 0.81326 0
1 0.814221 0
0 0.940871 0
0.0185092 0.923964 0
0.0663615 0.914977 0
0.115282 0.908293 0
0.165393 0.902174 0
0.215686 0.896193 0
0.265415 0.890654 0
0.314611 0.885267 0
0.363272 0.880079 0
0.41091 0.876326 0
0.458198 0.871626 0
0.505684 0.866773 0
0.553231 0.862593 0
0.599603 0.858457 0
0.645197 0.854475 0
0.689891 0.851286 0
0.732158 0.847669 0
0.773342 0.844938 0
0.811994 0.842145 0
0.849042 0.840467 0
0.884947 0.83917 0
0.918196 0.837507 0
0.951019 0.836561 0
0.982544 0.835966 0
1 0.834882 0
1 0.834424 0
1 0.834409 0
1 0.834424 0
1 0.834516 0
1 0.835309 0
1 0.836179 0
1 0.836622 0
1 0.837598 0
0 0.968353 0
0.0251926 0.950759 0
0.0731212 0.942794 0
0.121614 0.935454 0
0.17113 0.929137 0
0.22118 0.922881 0
0.270802 0.916991 0
0.31989 0.911635 0
0.368032 0.906386 0
