site/assets/luts/freshluts--0000173-victory.cube
# LUTr-Schema-Version: 2
# LUTr-ID: freshluts--0000173-victory
# LUTr-Title: Victory
# LUTr-Collection: Fresh LUTs
# LUTr-Collection-ID: freshluts-community
# LUTr-Source: https://freshluts.com
# LUTr-Retrieved: 2026-07-27
# LUTr-Source-File: submissions-raw/freshluts/cubes/173__Victory.cube
# LUTr-Source-Format: CUBE
# LUTr-Source-SHA256: 5cbac9ba055f6285d3546aaeb3e3533dc99324757ba064ca878f4b0497c711cb
# LUTr-License: CC0-1.0
# LUTr-License-URL: https://freshluts.com/termsandconditions
# LUTr-License-Basis: site-terms
# LUTr-Transform-Class: creative-look
# LUTr-Tags: creative, freshluts, community, cube, vintage
# LUTr-Input-Color-Space:
# LUTr-Input-Gamut: unspecified
# LUTr-Input-Transfer: unspecified
# LUTr-Output-Color-Space: srgb
# LUTr-Output-Gamut: rec709
# LUTr-Output-Transfer: srgb
# LUTr-Color-Space-Confidence: camera-profile-input-required
# LUTr-Domain-Normalized: true
# LUTr-Shaper: none
# LUTr-Original-Grid: 33x33x33
# LUTr-Conversion-Grid: 33x33x33
# LUTr-Conversion-Interpolation: none
# LUTr-Conversion-Method: Metadata normalization; numeric LUT samples preserved
# LUTr-Conversion-Tool: LUTr scripts/convert-all-to-cube.mjs 2.0.0
# LUTr-Conversion-Date: 2026-07-28
# LUTr-Asset-URL: https://freshluts.com/luts/173
# LUTr-Author: Cube Frames
# LUTr-Author-URL: https://freshluts.com/users/1308
# LUTr-Attribution: Cube Frames via Fresh LUTs
# LUTr-Source-Labels: gamma=Other; color=None; key=Neutral; style=Vintage
# LUTr-Note: Preserve this metadata and the upstream license notices when redistributing.
TITLE "Victory"
LUT_3D_SIZE 5
DOMAIN_MIN 0 0 0
DOMAIN_MAX 1 1 1
0.0654765 0.0899977 0.0981003
0.247181 0.125704 0.0857557
0.832654 0.224994 0.166354
0.843595 0.227848 0.166918
0.843595 0.227848 0.166918
0.0132753 0.190829 0.0545663
0.114031 0.161212 0.133318
0.772595 0.228214 0.14197
0.843595 0.227848 0.166918
0.843595 0.227848 0.166918
0 0.555001 0
0 0.546517 0
0.738628 0.636118 0.353338
0.942077 0.553689 0.106859
0.947631 0.520333 0.0126345
0 0.955978 0
0 0.955978 0
0.383749 0.911528 0
0.947051 0.926497 0.673671
0.947051 0.926497 0.673671
0 0.955978 0
0 0.955978 0
0 0.955978 0
0.947051 0.926497 0.673671
0.947051 0.926497 0.673671
0.0563973 0.282719 0.345113
0.294453 0.199832 0.245182
0.852506 0.231113 0.166445
0.85066 0.220569 0.181827
0.851087 0.225742 0.17293
0.0619669 0.180163 0.199023
0.0991836 0.180972 0.203632
0.783581 0.217014 0.157687
0.846632 0.228412 0.167422
0.843595 0.227848 0.166918
0 0.553948 0
0 0.543053 0
0.729793 0.626566 0.347631
0.944121 0.54522 0.0808423
0.949096 0.512596 0
0 0.955978 0
0 0.955978 0
0.346624 0.913481 0
0.947051 0.926497 0.673671
0.947051 0.926497 0.673671
0 0.955978 0
0 0.955978 0
0 0.955978 0
0.947051 0.926497 0.673671
0.947051 0.926497 0.673671
0.0554818 0.403326 0.501091
0.178195 0.395712 0.456947
0.878691 0.409369 0.485084
0.902373 0.384085 0.418585
0.902388 0.357794 0.363882
0.0582437 0.41265 0.529259
0.0576333 0.414267 0.528389
0.84741 0.379217 0.413733
0.901427 0.341863 0.335698
0.901656 0.337224 0.325383
0.0193484 0.613153 0.654795
0.0195468 0.591379 0.623484
0.680415 0.653315 0.64416
0.961624 0.589853 0.459663
0.965911 0.539147 0.367102
0 1 0.273899
0 1 0.0959182
0.0849622 1 0
0.947066 0.926848 0.678279
0.947051 0.926497 0.673671
0 0.994507 0
0 0.965209 0
0 0.955978 0
0.947036 0.926268 0.67068
0.947051 0.926497 0.673671
0.0554818 0.403326 0.501091
0.107698 0.397375 0.467948
0.847974 0.42443 0.521981
0.928862 0.438163 0.592126
0.928862 0.438163 0.592126
0.0577249 0.410529 0.523369
0.056611 0.409598 0.516014
0.798917 0.421302 0.508385
0.928862 0.438163 0.592126
0.928862 0.438163 0.592126
0.0424353 0.606409 0.747265
0.0442512 0.588937 0.729839
0.445701 0.607431 0.793194
0.971115 0.598856 0.860578
0.972137 0.571878 0.847898
0.0160525 0.790188 0.884779
0.0160525 0.790188 0.884779
0.0138705 0.802319 0.89163
0.948211 0.94757 0.915389
0.948211 0.94757 0.915389
0.0160525 0.790188 0.884779
0.0160525 0.790188 0.884779
0.0144961 0.796506 0.88658
0.950484 0.945693 0.888991
0.950576 0.945769 0.888731
0.0554818 0.403326 0.501091
0.0697948 0.398505 0.473899
0.832441 0.422049 0.512047
0.928862 0.438163 0.592126
0.928862 0.438163 0.592126
0.0572366 0.408896 0.518349
0.0562295 0.407614 0.511223
0.789166 0.416419 0.490501
0.928862 0.438163 0.592126
0.928862 0.438163 0.592126
0.0434577 0.59678 0.737713
0.0451667 0.580285 0.721065
0.413306 0.598627 0.788312
0.971679 0.588525 0.856199
0.972122 0.562478 0.841611
0.0160525 0.790188 0.884779
0.0160525 0.790188 0.884779
0.0144045 0.799344 0.889937
0.948211 0.94757 0.915389
0.948211 0.94757 0.915389
0.0160525 0.790188 0.884779
0.0160525 0.790188 0.884779
0.0160525 0.790188 0.884779
0.936767 0.942428 0.911269
0.948211 0.94757 0.915389
