site/assets/luts/freshluts--0000197-glut007.cube
# LUTr-Schema-Version: 2
# LUTr-ID: freshluts--0000197-glut007
# LUTr-Title: gLUT007
# LUTr-Collection: Fresh LUTs
# LUTr-Collection-ID: freshluts-community
# LUTr-Source: https://freshluts.com
# LUTr-Retrieved: 2026-07-27
# LUTr-Source-File: submissions-raw/freshluts/cubes/197__town.cube
# LUTr-Source-Format: CUBE
# LUTr-Source-SHA256: a69d53786227eb8bd240e35707551aa2ca1febeb705edfcdcc89d70637dcc473
# LUTr-License: CC0-1.0
# LUTr-License-URL: https://freshluts.com/termsandconditions
# LUTr-License-Basis: site-terms
# LUTr-Transform-Class: creative-look
# LUTr-Tags: creative, freshluts, community, cube, brown, low-key, red-logfilm
# LUTr-Input-Color-Space: red-logfilm-rwg
# LUTr-Input-Gamut: red-wide-gamut-rgb
# LUTr-Input-Transfer: red-logfilm
# LUTr-Output-Color-Space: srgb
# LUTr-Output-Gamut: rec709
# LUTr-Output-Transfer: srgb
# LUTr-Color-Space-Confidence: inferred-from-source-label
# LUTr-Domain-Normalized: true
# LUTr-Shaper: none
# LUTr-Original-Grid: 33x33x33
# LUTr-Conversion-Grid: 33x33x33
# LUTr-Conversion-Interpolation: none
# LUTr-Conversion-Method: Metadata normalization; numeric LUT samples preserved
# LUTr-Conversion-Tool: LUTr scripts/convert-all-to-cube.mjs 2.0.0
# LUTr-Conversion-Date: 2026-07-28
# LUTr-Asset-URL: https://freshluts.com/luts/197
# LUTr-Author: directorgodfrey_M
# LUTr-Author-URL: https://freshluts.com/users/1455
# LUTr-Attribution: directorgodfrey_M via Fresh LUTs
# LUTr-Source-Labels: gamma=RED Log Film; color=Brown; key=Low Key; style=Hipster
# LUTr-Note: Preserve this metadata and the upstream license notices when redistributing.
TITLE "gLUT007"
LUT_3D_SIZE 33
DOMAIN_MIN 0 0 0
DOMAIN_MAX 1 1 1
0.00482185 0.00965896 0.0257877
0.0316625 0.0104372 0.016907
0.0706645 0.014313 0.0132448
0.113619 0.0220798 0.0133211
0.156909 0.0330816 0.0127718
0.208835 0.0466773 0.00758373
0.272892 0.0626535 0.00762951
0.347173 0.082414 0.00784314
0.426703 0.102693 0.00512703
0.506386 0.122713 0.00271611
0.574639 0.137972 0.00595102
0.629694 0.152117 0.00982681
0.674617 0.163928 0.0193027
0.717754 0.167376 0.021088
0.758648 0.170871 0.0213321
0.793667 0.168292 0.0215915
0.825803 0.163958 0.0216983
0.858793 0.156893 0.021561
0.891676 0.14789 0.0208743
0.934035 0.167834 0.0213016
0.907179 0.29601 0.0360571
0.92549 0.352636 0.0533608
0.93138 0.354498 0.0668803
0.934936 0.356817 0.0778973
0.937102 0.35819 0.0849165
0.938689 0.359182 0.0897841
0.940063 0.359701 0.0923171
0.941314 0.359747 0.0924849
0.942107 0.359701 0.0926223
0.942596 0.359747 0.0926986
0.942946 0.359686 0.0928054
0.944396 0.357824 0.0932784
0.946288 0.355886 0.0938735
0 0.0375677 0.0446326
0.0191196 0.0378271 0.036759
0.0646372 0.0361791 0.0289616
0.117784 0.0413062 0.0229191
0.167254 0.0504463 0.0195773
0.213001 0.0630808 0.0160983
0.260365 0.0771038 0.0152285
0.321981 0.0934768 0.0147402
0.39823 0.111589 0.0170901
0.490211 0.125795 0.00730907
0.570367 0.138231 0.00628672
0.626642 0.152392 0.00820935
0.672175 0.164691 0.0167849
0.714488 0.168719 0.0210727
0.755962 0.172595 0.0212406
0.792187 0.170047 0.0213474
0.824659 0.165423 0.021561
0.857832 0.158297 0.0213016
0.890898 0.148959 0.0201724
0.93312 0.167437 0.0211032
0.907118 0.294682 0.0345159
0.924224 0.352148 0.0507057
0.930587 0.354376 0.0650034
0.934234 0.356283 0.0758068
0.936584 0.357855 0.0831922
0.93817 0.358846 0.0881666
0.939269 0.359518 0.0915999
0.940444 0.359609 0.0923781
0.94107 0.35964 0.0924849
0.941497 0.359701 0.0925307
0.942031 0.359731 0.0925917
0.943404 0.357763 0.0931716
0.945159 0.355871 0.0937972
0 0.0708629 0.0679942
0.000366217 0.069276 0.0619669
0.041062 0.0676432 0.0482795
0.0887007 0.06804 0.0383764
0.142931 0.0737316 0.0330816
0.205142 0.0823072 0.0256352
0.282429 0.0969406 0.0211185
0.368368 0.113375 0.0206455
0.447684 0.12697 0.0141604
0.499443 0.139879 0.0106508
0.541665 0.152926 0.0126955
0.613748 0.158938 0.00877394
0.669703 0.165316 0.014847
0.710979 0.170443 0.0210269
0.752605 0.174151 0.0209049
0.790433 0.171969 0.0209812
0.823255 0.167224 0.0214084
0.856916 0.159976 0.0210117
0.89099 0.149844 0.0195621
0.933089 0.166598 0.0208133
0.907149 0.293019 0.0331426
0.922881 0.351644 0.0478065
0.929656 0.354177 0.0629129
0.933516 0.355749 0.07364
0.935958 0.357504 0.0810559
0.937514 0.358373 0.0864118
0.938689 0.359182 0.0897841
0.939376 0.359533 0.0919966
0.940185 0.35967 0.0923171
0.940505 0.359609 0.0923934
0.940917 0.35967 0.0924392
0.942229 0.357885 0.0929885
0.944045 0.355978 0.0935836
0 0.103227 0.0894484
0 0.102358 0.088304
0.0239261 0.0951247 0.0700694
0.0645914 0.0936751 0.0572519
0.116823 0.0971389 0.0478828
0.177386 0.103731 0.0386664
0.251179 0.114916 0.0316777
0.337392 0.128847 0.024033
0.42678 0.143664 0.0225223
0.512291 0.154894 0.0148013
0.583719 0.163561 0.0142367
0.609003 0.172549 0.0115053
0.646464 0.17763 0.0130159
0.707774 0.172152 0.0186007
0.74873 0.175982 0.0205386
0.788235 0.173877 0.0205844
0.821683 0.168887 0.0213321
0.855573 0.16173 0.020737
0.889891 0.151308 0.0191653
0.932479 0.165728 0.0198978
0.908873 0.288869 0.0307164
0.923049 0.349279 0.0440223
0.929946 0.352239 0.0591287
0.934234 0.353429 0.0695506
0.936889 0.355108 0.0781567
0.938415 0.355917 0.0837262
0.939452 0.356603 0.087068
0.940124 0.35697 0.0892958
0.940597 0.357305 0.0907149
0.940841 0.357473 0.0914626
0.94107 0.357626 0.092134
0.941283 0.357794 0.0926986
0.942992 0.355901 0.0930343
0 0.134066 0.10341
0 0.134218 0.10399
0.0124361 0.127169 0.0913863
0.053193 0.122728 0.0783856
0.0947738 0.124895 0.0679789
0.151339 0.128939 0.0572366
0.220905 0.137591 0.0450752
0.306172 0.149355 0.0357824
0.396857 0.162783 0.0266575
0.485176 0.174594 0.021973
0.566415 0.185061 0.0217288
0.629023 0.185824 0.0157015
0.661585 0.189807 0.0199741
0.677272 0.1953 0.0132601
0.743572 0.178714 0.0204166
0.785336 0.176547 0.0191501
0.82005 0.17116 0.0209049
0.853819 0.16379 0.0205081
0.888319 0.153567 0.0186313
0.930205 0.165148 0.0187533
0.908644 0.285832 0.0281224
0.921324 0.348333 0.0432288
0.928237 0.351965 0.0556649
0.933089 0.353094 0.0666209
0.935851 0.354559 0.0751812
0.93756 0.355566 0.0810559
0.938704 0.356252 0.0849165
0.9393 0.356619 0.0868849
0.939788 0.356954 0.0883803
0.940032 0.357107 0.0890516
0.940169 0.357137 0.089662
0.940551 0.35729 0.0905318
0.942382 0.355428 0.0911879
0 0.167498 0.120119
0 0.167773 0.12076
0 0.165026 0.116274
0.0364691 0.153628 0.0998398
0.082536 0.152316 0.0904402
0.130007 0.157275 0.0765698
0.194278 0.163348 0.0641184
0.272877 0.171435 0.0495155
0.365286 0.185428 0.0406806
0.459129 0.197375 0.0301213
0.54258 0.208072 0.0271305
0.610803 0.211826 0.010544
0.661997 0.210269 0.0159762
0.700343 0.206699 0.0289464
0.706172 0.210559 0.00733959
0.765133 0.194339 0.0124514
0.816495 0.17464 0.019089
0.851362 0.166629 0.0194858
0.886046 0.156222 0.0176699
0.927184 0.164462 0.01738
0.907973 0.282765 0.0247654
0.918914 0.34757 0.0424811
0.925597 0.351629 0.0516213
0.931029 0.353277 0.0632639
0.934051 0.354299 0.0712902
0.936126 0.355566 0.0780804
0.937163 0.356268 0.0813764
0.937881 0.356634 0.0839246
0.938369 0.356939 0.08542
0.938537 0.356985 0.0861524
0.938781 0.357137 0.0867018
0.939498 0.356603 0.0872663
0.941497 0.354955 0.0878614
0 0.206424 0.141711
0 0.207019 0.142336
0 0.206714 0.142184
0.020676 0.198047 0.129702
0.0716411 0.188128 0.115877
0.112032 0.186572 0.102327
0.171054 0.195453 0.0828412
0.246693 0.202655 0.069688
0.335927 0.213046 0.0564279
0.432486 0.227329 0.0442664
0.522454 0.239139 0.0403601
0.595178 0.245701 0.0305486
0.651057 0.244266 0.00411994
0.692012 0.239307 0.0107576
0.729427 0.229648 0.0216526
0.752255 0.225971 0.00306706
0.779324 0.219989 0.00131228
0.84686 0.171237 0.0173953
0.882979 0.160891 0.0162356
0.922484 0.162493 0.0152743
0.909255 0.276005 0.0222782
0.916899 0.34403 0.0404822
0.922042 0.350683 0.0451514
0.927749 0.353124 0.0575418
0.93138 0.35404 0.0656901
0.933593 0.355001 0.072221
0.934981 0.355932 0.0766613
0.935836 0.356619 0.0790875
0.936294 0.356954 0.0805219
0.936507 0.357 0.0814527
0.936736 0.357137 0.082002
0.938064 0.355749 0.0825513
0.940063 0.354208 0.0827039
0.00447089 0.248432 0.163638
0.0037995 0.249104 0.164172
0.00314336 0.249836 0.164721
0.00306706 0.249561 0.164569
0.0463722 0.236866 0.148699
0.103517 0.226184 0.13344
0.146258 0.231449 0.110597
0.223239 0.239872 0.0876783
0.310262 0.248692 0.0770275
0.404227 0.260471 0.0646677
0.501076 0.273793 0.0517433
0.578393 0.282338 0.0466468
0.637125 0.283894 0.0314488
0.683772 0.278706 0.00660716
0.721553 0.267903 0
0.755062 0.259052 0.016495
0.794568 0.246281 0.0175479
0.802945 0.247318 0.00183108
0.844343 0.210803 0
0.917647 0.156695 0.0087892
0.910048 0.266453 0.0235294
0.911254 0.339879 0.0377508
0.917128 0.347906 0.0423133
0.92253 0.351675 0.0475319
0.927321 0.353429 0.057557
0.930282 0.354192 0.0641031
0.931975 0.354696 0.0681468
0.932784 0.355138 0.0709239
0.933318 0.355444 0.072755
0.9337 0.355734 0.0738231
0.933989 0.355917 0.0746166
0.935729 0.354406 0.074464
0.937835 0.352972 0.0749218
0.0115358 0.296361 0.191577
0.0107729 0.29723 0.191913
0.0100404 0.298146 0.192279
0.0100404 0.297887 0.192142
0.0100404 0.297612 0.191959
0.0714733 0.280156 0.170306
0.135546 0.269764 0.148821
0.190845 0.280797 0.110826
0.286992 0.288243 0.0950179
0.382208 0.300053 0.08542
0.478477 0.311849 0.0720531
0.563561 0.321294 0.0608072
0.628107 0.325216 0.0495766
0.67776 0.322896 0.0321355
0.718151 0.315145 0.00842298
0.752712 0.304601 0
0.786297 0.290227 0
0.819852 0.272129 0.0158999
0.847715 0.247532 0.0120851
0.86096 0.248356 0
0.903853 0.210498 0
0.919524 0.245792 0.011368
0.910491 0.341314 0.0381781
0.915831 0.347509 0.0419623
0.92018 0.350668 0.0436561
0.923674 0.352209 0.0501259
0.926131 0.353201 0.0551308
0.927642 0.353613 0.0584726
0.928481 0.353857 0.0603037
0.929 0.354025 0.0614176
0.929335 0.354101 0.062089
0.931167 0.35256 0.0619821
0.933318 0.351202 0.0623636
0.0139773 0.351659 0.230869
0.0132143 0.352651 0.231205
0.0124514 0.353628 0.231525
0.0124361 0.353597 0.231495
0.0124514 0.353338 0.231296
0.0124514 0.353094 0.231128
0.0974289 0.331899 0.194949
0.168078 0.321172 0.162051
0.25362 0.33344 0.118196
0.36318 0.345937 0.10605
0.460792 0.357992 0.094377
0.545464 0.367849 0.0830243
0.616464 0.373556 0.071046
0.671382 0.373327 0.0543374
0.714595 0.364584 0.0357977
0.750668 0.35256 0.0112764
0.784436 0.336187 0
0.821775 0.325933 0
0.852079 0.294011 0
0.88333 0.261357 0
0.913466 0.237995 0
0.915404 0.242802 0
0.904921 0.246906 0
0.903914 0.239948 0
0.906981 0.229404 0
0.911727 0.219471 0
0.916121 0.210498 0
0.920012 0.203037 0
0.922789 0.197757 0
0.924529 0.194705 0
0.926009 0.192096 0
0.930465 0.188266 0
0.934386 0.183841 0
0.0156863 0.406699 0.274128
0.015671 0.406577 0.273991
0.0148928 0.407538 0.274174
0.0148775 0.407492 0.274083
0.0148775 0.407385 0.274022
0.0148775 0.407202 0.273793
0.0148775 0.406958 0.273594
0.112306 0.388006 0.229343
0.197436 0.383383 0.167941
0.328969 0.395911 0.129809
0.443076 0.408133 0.117372
0.531304 0.417685 0.104814
0.604776 0.424125 0.0941939
0.665232 0.426078 0.0786145
0.713771 0.419272 0.0578622
0.752682 0.404685 0.041413
0.786191 0.390646 0.0153658
0.823606 0.374624 0
0.859937 0.352636 0
0.888823 0.317327 0
0.911391 0.282567 0
0.919432 0.26598 0
0.920058 0.258503 0
0.921019 0.253666 0
0.920836 0.251316 0
0.920119 0.251225 0
0.919448 0.251011 0
0.9187 0.251331 0
0.918151 0.251942 0
0.917815 0.252445 0
0.917601 0.252567 0
0.919051 0.251957 0
0.918471 0.252567 0
0.00688182 0.455772 0.320134
0.00680552 0.455848 0.32015
0.00572213 0.456641 0.32015
0.00575265 0.456535 0.320027
0.00578317 0.456519 0.320027
0.00579843 0.456504 0.320012
0.00584421 0.456321 0.319844
0.00588998 0.456184 0.319707
0.11931 0.438605 0.268528
0.250721 0.44567 0.166583
0.416953 0.457877 0.142077
0.517433 0.468879 0.127474
0.592554 0.474174 0.113329
0.655253 0.47715 0.0983597
0.711101 0.475502 0.0752117
0.755917 0.463508 0.0504921
0.792462 0.443992 0.0250401
0.825162 0.423392 0.0154421
0.864424 0.408789 0.00560006
0.888121 0.374701 0
0.899992 0.348165 0
0.902022 0.335439 0
0.901656 0.330144 0
0.902724 0.322347 0
0.904265 0.316274 0
0.905486 0.311498 0
0.906264 0.308324 0
0.906798 0.306081 0
0.907149 0.304891 0
0.907347 0.304219 0
0.907546 0.303792 0
0.90927 0.302098 0
0.910048 0.300664 0
0 0.496025 0.363134
0 0.496162 0.362982
0 0.496788 0.362905
0 0.496727 0.362799
0 0.496666 0.362753
0 0.496605 0.362646
0 0.496544 0.362615
0 0.496422 0.362448
0 0.496269 0.362295
0.160143 0.476112 0.279149
0.354238 0.500984 0.171206
0.496986 0.514473 0.149294
0.58175 0.52221 0.136675
0.647364 0.526757 0.121965
0.707286 0.526497 0.104265
0.76112 0.519097 0.063386
0.798215 0.500603 0.037995
0.832959 0.478035 0.0167086
0.86421 0.458824 0.00363165
0.882643 0.435554 0.017258
0.889632 0.411688 0.0146944
0.891539 0.398398 0.0140841
0.890517 0.395636 0.0133822
0.890532 0.392874 0.0124666
0.890806 0.390616 0.0116732
0.891112 0.388815 0.011017
0.891279 0.387518 0.0105745
0.891417 0.386694 0.0102693
0.891478 0.386221 0.0101015
0.891539 0.385885 0.0099794
0.891569 0.385595 0.00988785
0.893126 0.384131 0.00909438
0.894362 0.382818 0.00840772
0 0.528923 0.401343
0 0.529366 0.401266
0 0.529992 0.401236
0 0.529961 0.401129
0 0.529961 0.401129
0 0.529946 0.401129
0 0.529885 0.401083
0 0.529778 0.400946
0 0.529671 0.400809
0 0.529488 0.40061
0.227481 0.518151 0.251423
0.450324 0.553887 0.177981
0.563394 0.566293 0.157717
0.636439 0.571969 0.145602
0.698192 0.574151 0.131563
0.754543 0.571878 0.109209
0.803082 0.557565 0.0751354
0.836957 0.535119 0.0337377
0.85977 0.515053 0.0248722
0.878233 0.496422 0.0198672
0.889754 0.481407 0.0221408
0.895796 0.461357 0.0228428
0.894438 0.459648 0.0229191
0.893584 0.457816 0.0229496
0.893156 0.45594 0.0229953
0.892866 0.454459 0.0230106
0.892622 0.453346 0.0230716
0.89247 0.452644 0.0230716
0.892424 0.452247 0.0230716
0.892393 0.452064 0.0230716
0.892378 0.451865 0.0230716
0.893538 0.450324 0.0229038
0.894682 0.448798 0.0227207
0 0.559106 0.436088
0 0.559731 0.436103
0 0.560372 0.436118
0 0.560388 0.436118
0 0.560327 0.436027
0 0.560327 0.436027
0 0.560281 0.435981
0 0.560174 0.435843
0 0.560098 0.435782
0 0.559945 0.435538
0 0.559731 0.435309
0.323735 0.579797 0.209949
0.522042 0.601862 0.187732
0.614298 0.6121 0.170626
0.684001 0.618311 0.157656
0.744778 0.620401 0.148211
0.79443 0.614389 0.138262
0.834104 0.599756 0.114977
0.860533 0.580819 0.0678111
0.876646 0.560693 0.0446326
0.892821 0.542016 0.0473793
0.916381 0.523644 0.0248722
0.916472 0.520211 0.0242771
0.915175 0.518807 0.0242924
0.914061 0.51812 0.0244297
0.913558 0.516899 0.0242771
0.913268 0.516167 0.0241703
0.913054 0.515618 0.0241093
0.912917 0.515282 0.0240787
0.91284 0.515114 0.0240482
0.912825 0.514946 0.024033
0.91397 0.513787 0.0234836
0.914946 0.512306 0.0229953
0 0.5888 0.471595
0 0.589563 0.471763
0 0.590204 0.471778
0 0.590188 0.471763
0 0.590188 0.471763
0 0.590143 0.471733
0 0.590143 0.471733
0 0.590066 0.471611
0 0.590036 0.471595
0 0.589929 0.471473
0 0.589746 0.471244
0.0722515 0.55317 0.366537
0.425635 0.629831 0.223117
0.571725 0.651698 0.207919
0.66067 0.662791 0.20763
0.726726 0.668101 0.213092
0.778714 0.66772 0.216724
0.824475 0.662104 0.200427
0.859846 0.649927 0.167132
0.88809 0.633204 0.110445
0.914076 0.61326 0.0644083
0.935103 0.593454 0.0562753
0.938674 0.585229 0.0508583
0.938003 0.583276 0.0498207
0.937499 0.581842 0.0490578
0.937118 0.580743 0.0485237
0.93695 0.580194 0.0482643
0.936782 0.57966 0.0480049
0.936736 0.579446 0.0478828
0.936614 0.57911 0.0477302
0.936645 0.57908 0.0476997
0.937652 0.577722 0.0465858
0.93872 0.576486 0.0455024
0 0.618738 0.509026
0 0.619547 0.509285
0 0.619547 0.509285
0 0.619547 0.509285
0 0.619501 0.509239
0 0.619501 0.509239
0 0.619455 0.509148
0 0.61941 0.509117
0 0.619303 0.508965
0 0.619196 0.508843
0 0.619013 0.508644
0 0.618799 0.508431
0.215412 0.617121 0.333577
0.470756 0.68098 0.245258
0.607446 0.698924 0.250126
0.708034 0.715297 0.312703
0.766888 0.720882 0.330068
0.81677 0.722576 0.322698
0.86891 0.719036 0.263935
0.91281 0.705791 0.17322
0.939147 0.687236 0.114122
0.958267 0.668727 0.0898299
0.96524 0.657084 0.0849622
0.964446 0.655329 0.0842908
0.964111 0.654185 0.0838483
0.963882 0.653346 0.0835431
0.963668 0.652674 0.0832837
0.963485 0.652171 0.0831006
0.963333 0.651728 0.0829175
0.963317 0.651682 0.0829023
0.963287 0.65153 0.0828107
0.96405 0.650401 0.0820172
0.964782 0.649165 0.0812085
0 0.648722 0.545174
0 0.649699 0.545678
0 0.649729 0.545678
0 0.649729 0.545678
0 0.649699 0.545663
0 0.649699 0.545663
0 0.649653 0.545632
0 0.649607 0.545541
0 0.649561 0.54551
0 0.649454 0.545388
0 0.649317 0.545235
0 0.649119 0.545037
0 0.648722 0.544533
0.2365 0.676661 0.357519
0.483284 0.733257 0.279057
0.639216 0.750103 0.285481
0.771771 0.784924 0.427298
0.819181 0.783932 0.427695
0.867216 0.782925 0.392325
0.917052 0.776913 0.321767
0.960204 0.760922 0.221027
0.979675 0.74435 0.177859
0.995239 0.731899 0.134722
0.994629 0.730755 0.133883
0.994156 0.729686 0.133028
0.993759 0.72874 0.132204
0.993545 0.728206 0.131716
0.993393 0.727794 0.131334
0.993317 0.72755 0.131136
0.993255 0.727428 0.131029
0.99324 0.727306 0.130922
0.993729 0.726421 0.129473
0.994186 0.725414 0.127871
0 0.689097 0.59826
0 0.690562 0.59942
0 0.691035 0.599802
0 0.690959 0.59968
0 0.690959 0.59968
0 0.690959 0.59968
0 0.690867 0.599573
0 0.690791 0.599435
0 0.6907 0.599313
0 0.690593 0.599161
0 0.690394 0.598901
0 0.69012 0.598505
0 0.689677 0.597879
0.00492866 0.614832 0.461646
0.216403 0.713802 0.436316
0.459998 0.78024 0.372763
0.660334 0.806821 0.338582
0.816693 0.844739 0.510506
0.869444 0.842695 0.497017
0.904784 0.836728 0.488441
0.946181 0.828885 0.439826
0.979782 0.816175 0.379049
1 0.802487 0.325399
1 0.800519 0.3178
1 0.799527 0.314656
1 0.798779 0.312139
1 0.798352 0.310826
1 0.798032 0.309789
1 0.797803 0.309041
1 0.797696 0.308751
1 0.797574 0.308278
1 0.796674 0.303105
1 0.795621 0.297261
0 0.73843 0.665934
0 0.740505 0.667643
0 0.742016 0.66894
0 0.742077 0.669001
0 0.742077 0.669001
0 0.741985 0.668879
0 0.741985 0.668879
0 0.741894 0.668772
0 0.741817 0.668666
0 0.741787 0.668635
0 0.741558 0.668345
0 0.741207 0.667948
0 0.740871 0.667567
0 0.740215 0.666804
0.00932326 0.651072 0.512261
0.168307 0.735897 0.530144
0.387228 0.818586 0.497322
0.666072 0.856214 0.453803
0.821347 0.867948 0.400488
0.903532 0.892561 0.596445
0.934981 0.885603 0.594446
0.967605 0.879881 0.563622
0.992752 0.871122 0.528038
1 0.865599 0.509773
1 0.86479 0.507607
1 0.864179 0.506035
1 0.863645 0.504555
1 0.863432 0.503929
1 0.863249 0.503471
1 0.863157 0.503243
1 0.863035 0.502846
1 0.862058 0.497917
1 0.861097 0.492973
0 0.781781 0.717342
0 0.783078 0.718318
0 0.784268 0.719203
0 0.784283 0.719219
0 0.784283 0.719219
0 0.784253 0.719188
0 0.784253 0.719188
0 0.784207 0.719142
0 0.784161 0.719112
0 0.784131 0.719081
0 0.783993 0.718959
0 0.783856 0.718837
0 0.783627 0.718639
0 0.783352 0.718395
0 0.727489 0.637003
0 0.702312 0.589075
0.100633 0.760204 0.615167
0.267521 0.851179 0.621546
0.673014 0.904585 0.578958
0.849729 0.914931 0.525032
0.928222 0.936217 0.697154
0.956054 0.93312 0.702235
0.97995 0.927901 0.685283
0.999115 0.923735 0.66772
0.999207 0.92285 0.665766
0.999252 0.922316 0.664561
0.999283 0.921843 0.663569
0.999298 0.921614 0.663081
0.999313 0.921447 0.662699
0.999329 0.921279 0.662318
0.999329 0.921248 0.662196
0.999878 0.920333 0.658244
1 0.91931 0.653895
0 0.80322 0.736507
0 0.804501 0.737484
0 0.805768 0.73843
0 0.805783 0.738445
0 0.805737 0.738384
0 0.805737 0.738384
0 0.805737 0.738384
0 0.805676 0.738338
0 0.805631 0.738308
0 0.805585 0.738247
0 0.805478 0.73817
0 0.805325 0.738018
0 0.805081 0.737804
0 0.804822 0.737575
0 0.804471 0.737255
0 0.766476 0.678599
0 0.764981 0.66952
0.0393988 0.784955 0.671626
0.218204 0.892729 0.713008
0.710857 0.946975 0.673655
0.881392 0.952972 0.622644
0.948425 0.969329 0.777493
0.972061 0.965957 0.775357
0.989944 0.964202 0.767712
0.996033 0.963088 0.764294
0.996063 0.962768 0.763546
0.996078 0.962524 0.762936
0.996078 0.962402 0.762631
0.996078 0.962341 0.762463
0.996063 0.962295 0.762341
0.996063 0.962203 0.762127
0.996399 0.961852 0.758846
0.996704 0.961364 0.755154
0 0.81944 0.751019
0 0.820706 0.75198
0 0.821958 0.752926
0 0.821988 0.752956
0 0.821988 0.752956
0 0.821988 0.752956
0 0.821988 0.752956
0 0.821988 0.752956
0 0.821988 0.752956
0 0.821988 0.752956
0 0.821988 0.752956
0 0.821988 0.752956
0 0.821988 0.752956
0 0.821988 0.752956
0 0.821988 0.752956
0 0.795026 0.721172
0 0.79469 0.713878
0 0.794842 0.706569
0.00611887 0.790417 0.688792
0.360235 0.938186 0.766918
0.785519 0.981094 0.730877
0.909133 0.983673 0.694301
0.964385 0.994644 0.825666
0.983551 0.992782 0.825711
0.995102 0.991135 0.823331
0.995117 0.990845 0.822705
0.995117 0.990646 0.822278
0.995117 0.990509 0.822003
0.995117 0.990433 0.82179
0.995117 0.990372 0.821698
0.995117 0.990372 0.821668
0.99527 0.990204 0.819272
0.995438 0.98996 0.816739
0 0.81944 0.751019
0 0.820706 0.75198
0 0.821958 0.752926
0 0.821988 0.752956
0 0.821988 0.752956
0 0.821988 0.752956
0 0.821988 0.752956
0 0.821988 0.752956
0 0.821988 0.752956
0 0.821988 0.752956
0 0.821988 0.752956
0 0.821988 0.752956
0 0.821988 0.752956
0 0.821988 0.752956
0 0.821988 0.752956
0 0.804089 0.736919
0 0.794125 0.714519
0 0.795544 0.709209
0 0.792569 0.694133
0.144793 0.914824 0.768124
0.736202 0.979309 0.744686
0.89102 0.988342 0.711788
0.957153 0.997238 0.834089
0.978637 0.997574 0.832685
0.992935 0.9953 0.832013
0.995285 0.995254 0.831632
0.995285 0.995254 0.831632
0.995285 0.995254 0.831632
0.995285 0.995254 0.831632
0.995285 0.995254 0.831632
0.995285 0.995239 0.831571
0.995407 0.995041 0.829374
0.995529 0.994995 0.827176
0 0.81944 0.751019
0 0.820706 0.75198
0 0.821958 0.752926
0 0.821988 0.752956
0 0.821988 0.752956
0 0.821988 0.752956
0 0.821988 0.752956
0 0.821988 0.752956
0 0.821988 0.752956
0 0.821988 0.752956
0 0.821988 0.752956
0 0.821988 0.752956
0 0.821988 0.752956
0 0.821988 0.752956
0 0.821988 0.752956
0 0.821988 0.752956
0 0.793698 0.715007
0 0.795453 0.710536
0 0.7935 0.696513
0.118059 0.89604 0.760555
0.700603 0.976532 0.750896
0.87509 0.987884 0.717739
0.952178 0.997238 0.836011
0.974701 0.997909 0.833066
0.989044 0.995453 0.832395
0.995285 0.995254 0.831632
0.995285 0.995254 0.831632
0.995285 0.995254 0.831632
0.995285 0.995254 0.831632
0.995285 0.995254 0.831632
0.995285 0.995239 0.831571
0.995407 0.995041 0.829374
0.995529 0.994995 0.827176
0 0.81944 0.751019
0 0.820706 0.75198
0 0.821958 0.752926
0 0.821988 0.752956
0 0.821988 0.752956
0 0.821988 0.752956
0 0.821988 0.752956
0 0.821988 0.752956
0 0.821988 0.752956
0 0.821988 0.752956
0 0.821988 0.752956
0 0.821988 0.752956
0 0.821988 0.752956
0 0.821988 0.752956
0 0.821988 0.752956
0 0.821988 0.752956
0 0.793637 0.715831
0 0.795468 0.711681
0 0.794049 0.698741
0.107073 0.880644 0.751385
0.664958 0.973098 0.753368
0.860914 0.987198 0.71957
0.935958 0.986847 0.690608
0.971588 0.997879 0.831083
0.986175 0.996063 0.832456
0.995285 0.995254 0.831632
0.995285 0.995254 0.831632
0.995285 0.995254 0.831632
0.995285 0.995254 0.831632
0.995285 0.995254 0.831632
0.995285 0.995239 0.831571
0.995407 0.995041 0.829374
0.995529 0.994995 0.827176
0 0.81944 0.751019
0 0.820706 0.75198
0 0.821958 0.752926
0 0.821988 0.752956
0 0.821988 0.752956
0 0.821988 0.752956
0 0.821988 0.752956
0 0.821988 0.752956
0 0.821988 0.752956
0 0.821988 0.752956
0 0.821988 0.752956
0 0.821988 0.752956
0 0.821988 0.752956
0 0.821988 0.752956
0 0.821988 0.752956
0 0.821988 0.752956
0 0.793606 0.716503
0 0.795377 0.712276
0 0.794247 0.699962
0.104631 0.870558 0.7449
0.639933 0.970199 0.755367
0.851453 0.986618 0.719707
0.932052 0.987305 0.692393
0.969268 0.997894 0.831159
0.984207 0.99646 0.832486
0.994553 0.9953 0.8318
0.995285 0.995254 0.831632
0.995285 0.995254 0.831632
0.995285 0.995254 0.831632
0.995285 0.995254 0.831632
0.995285 0.995239 0.831571
0.995407 0.995041 0.829374
0.995529 0.994995 0.827176
0 0.81944 0.751019
0 0.820706 0.75198
0 0.821958 0.752926
0 0.821988 0.752956
0 0.821988 0.752956
0 0.821988 0.752956
0 0.821988 0.752956
0 0.821988 0.752956
