site/assets/luts/freshluts--0002447-gara-cinelut3.cube
# LUTr-Schema-Version: 2
# LUTr-ID: freshluts--0002447-gara-cinelut3
# LUTr-Title: Gara CineLut3
# LUTr-Collection: Fresh LUTs
# LUTr-Collection-ID: freshluts-community
# LUTr-Source: https://freshluts.com
# LUTr-Retrieved: 2026-07-27
# LUTr-Source-File: submissions-raw/freshluts/cubes/2447__00_Gara_CineLut03.cube
# LUTr-Source-Format: CUBE
# LUTr-Source-SHA256: ae49c086bf60283b752066141e2edb30ecf4f4108ef65830299763b6b02da6c9
# LUTr-License: CC0-1.0
# LUTr-License-URL: https://freshluts.com/termsandconditions
# LUTr-License-Basis: site-terms
# LUTr-Transform-Class: creative-look
# LUTr-Tags: creative, freshluts, community, cube, film-emulation, cool, sony-s-log3
# LUTr-Input-Color-Space: sony-slog3-sgamut3
# LUTr-Input-Gamut: sony-s-gamut3
# LUTr-Input-Transfer: sony-s-log3
# LUTr-Output-Color-Space: srgb
# LUTr-Output-Gamut: rec709
# LUTr-Output-Transfer: srgb
# LUTr-Color-Space-Confidence: inferred-from-source-label
# LUTr-Domain-Normalized: true
# LUTr-Shaper: none
# LUTr-Original-Grid: 16x16x16
# LUTr-Conversion-Grid: 16x16x16
# LUTr-Conversion-Interpolation: none
# LUTr-Conversion-Method: Metadata normalization; numeric LUT samples preserved
# LUTr-Conversion-Tool: LUTr scripts/convert-all-to-cube.mjs 2.0.0
# LUTr-Conversion-Date: 2026-07-28
# LUTr-Asset-URL: https://freshluts.com/luts/2447
# LUTr-Author: Gara
# LUTr-Author-URL: https://freshluts.com/users/426496
# LUTr-Attribution: Gara via Fresh LUTs
# LUTr-Source-Labels: gamma=Sony S-Log 3; color=Cool; key=Neutral; style=Film emulation
# LUTr-Note: Preserve this metadata and the upstream license notices when redistributing.
TITLE "Gara CineLut3"
LUT_3D_SIZE 16
DOMAIN_MIN 0 0 0
DOMAIN_MAX 1 1 1
0.02648 0.050409 0.123924
0.038555 0.048662 0.122011
0.07283 0.044887 0.116135
0.13707 0.041956 0.103188
0.237994 0.03473 0.080439
0.40678 -0.003459 0.077575
0.50835 -0.024038 0.058692
0.57956 -0.033806 0.042431
0.63801 -0.041837 0.025609
0.697617 -0.048981 -0.026685
0.748184 -0.056015 -0.043515
0.796751 -0.062827 -0.056076
0.854244 -0.070427 -0.068088
0.904362 -0.078367 -0.079221
0.930293 -0.083783 -0.086538
0.964774 -0.090326 -0.095071
0.023687 0.065648 0.117424
0.036615 0.06468 0.116009
0.070022 0.059411 0.111354
0.135129 0.058243 0.097971
0.230269 0.057016 0.079334
0.344881 0.048585 0.070346
0.451659 0.026368 0.056189
0.579256 -0.016151 0.041354
0.637643 -0.03137 0.023802
0.697335 -0.041211 -0.028179
0.748089 -0.049752 -0.044303
0.797324 -0.05775 -0.056741
0.854244 -0.065893 -0.068525
0.904361 -0.074503 -0.07959
0.930239 -0.080305 -0.086828
0.964693 -0.087216 -0.095339
0.017633 0.107211 0.100024
0.028442 0.106448 0.097169
0.06679 0.105146 0.086353
0.129579 0.103646 0.083379
0.226372 0.109439 0.076594
0.330479 0.11102 0.066169
0.442016 0.107161 0.050955
0.542391 0.093158 0.034981
0.630992 0.074419 0.012194
0.693292 0.051637 -0.033472
0.750725 0.035564 -0.04753
0.796929 -0.00885 -0.058836
0.854244 -0.037479 -0.070323
0.904136 -0.052032 -0.081117
0.930035 -0.06206 -0.088115
0.964833 -0.071558 -0.096481
0.00473 0.161245 0.083376
0.018214 0.16032 0.083263
0.055144 0.15972 0.081495
0.125134 0.160531 0.077055
0.221104 0.168193 0.069924
0.325694 0.17572 0.057556
0.441137 0.181019 0.040661
0.541855 0.179598 0.021412
0.646016 0.1781 -0.02689
0.706156 0.166624 -0.041584
0.765023 0.153561 -0.052974
0.823192 0.138592 -0.062732
0.885666 0.121765 -0.073769
0.931751 0.102044 -0.084043
0.952648 0.074344 -0.090663
0.980525 0.040766 -0.098728
-0.030899 0.224458 0.07007
0.004872 0.224127 0.069777
0.041743 0.223333 0.067791
0.116833 0.224449 0.06167
0.217083 0.231516 0.054558
0.324769 0.243491 0.035739
0.445281 0.256905 0.013376
0.551063 0.26438 -0.029251
0.647968 0.2627 -0.041685
0.719749 0.256172 -0.051239
0.778847 0.248266 -0.059957
0.83844 0.240011 -0.069313
0.906606 0.23597 -0.078851
0.955926 0.229572 -0.088476
0.978395 0.21335 -0.094543
1.010056 0.19899 -0.10218
-0.046323 0.292222 0.035034
-0.035447 0.292227 0.034156
0.032894 0.291131 0.031208
0.103378 0.293126 0.019537
0.220833 0.305077 -0.01712
0.329122 0.315854 -0.028183
0.446608 0.330716 -0.038623
0.551278 0.33812 -0.047185
0.647363 0.340227 -0.054749
0.731155 0.337808 -0.061679
0.791699 0.33216 -0.068928
0.853469 0.329486 -0.076642
0.922232 0.329333 -0.085353
0.977079 0.327217 -0.094255
1.000409 0.315308 -0.099679
1.033616 0.307207 -0.10683
-0.059769 0.355807 -0.041268
-0.052608 0.355751 -0.041529
0.021284 0.355758 -0.04291
0.07611 0.357456 -0.04527
0.212904 0.370824 -0.047719
0.326398 0.38493 -0.051637
0.441414 0.398384 -0.055967
0.550749 0.409439 -0.061731
0.646713 0.414018 -0.067219
0.735809 0.414378 -0.072511
0.801506 0.412613 -0.078589
0.864916 0.409756 -0.085149
0.933926 0.412357 -0.093028
0.992202 0.414009 -0.10125
1.016688 0.402825 -0.105971
1.050683 0.396881 -0.112579
-0.072415 0.417485 -0.062291
-0.067036 0.417444 -0.062447
-0.0289 0.416647 -0.063047
0.061043 0.419253 -0.064214
0.194822 0.43269 -0.065913
0.318534 0.448553 -0.068362
0.437025 0.463159 -0.071484
0.547734 0.474346 -0.07509
0.644027 0.481008 -0.079403
0.736857 0.484062 -0.08359
0.809105 0.483888 -0.088396
0.873011 0.484381 -0.094264
0.943031 0.488516 -0.101616
1.002342 0.492718 -0.109186
1.027218 0.482595 -0.113218
1.061674 0.478316 -0.119302
-0.084331 0.47168 -0.078246
-0.08005 0.471654 -0.078358
-0.056641 0.47168 -0.0788
0.048265 0.47578 -0.07967
0.169365 0.492128 -0.080982
0.30697 0.508621 -0.082739
0.427477 0.524902 -0.085215
0.544 0.538537 -0.088081
0.640351 0.54537 -0.091423
0.733875 0.549423 -0.094857
0.814004 0.550834 -0.098765
0.879778 0.553344 -0.10419
0.949138 0.558728 -0.110887
1.009812 0.564416 -0.117918
1.034687 0.553722 -0.12133
1.069479 0.550571 -0.126851
-0.095607 0.523617 -0.092221
-0.092091 0.523556 -0.092321
-0.073835 0.523617 -0.092665
0.027337 0.52585 -0.093354
0.126219 0.543659 -0.094431
0.287555 0.561541 -0.095923
0.413081 0.579627 -0.097889
0.534193 0.596192 -0.100277
0.633285 0.60521 -0.103082
0.729352 0.61252 -0.106285
0.816031 0.616391 -0.109615
0.883165 0.619571 -0.114413
0.954584 0.627241 -0.120668
1.016098 0.634278 -0.127251
1.041132 0.62303 -0.130056
1.076058 0.620332 -0.135092
-0.107058 0.576581 -0.105693
-0.104068 0.576649 -0.105734
-0.08968 0.576581 -0.106023
-0.038816 0.576649 -0.106622
0.090114 0.59442 -0.107487
0.26302 0.613747 -0.10877
0.397732 0.632487 -0.11041
0.522878 0.650234 -0.112412
0.62544 0.661111 -0.114804
0.722007 0.669799 -0.117564
0.815467 0.676983 -0.120845
0.884875 0.681202 -0.124895
0.957531 0.690312 -0.130866
1.020035 0.697792 -0.137056
1.045591 0.687412 -0.139298
1.080787 0.68534 -0.143895
-0.119112 0.633156 -0.119253
-0.116535 0.633192 -0.119315
-0.104314 0.633156 -0.119572
-0.07051 0.633192 -0.120036
0.062991 0.64984 -0.121065
0.234874 0.669804 -0.12212
0.383722 0.689966 -0.123545
0.514476 0.708611 -0.125316
0.621065 0.720601 -0.127397
0.718916 0.729546 -0.129827
0.815974 0.73754 -0.132566
0.885733 0.739245 -0.135638
0.95869 0.749762 -0.141391
1.022421 0.757512 -0.147155
1.048261 0.747658 -0.149004
1.08365 0.746026 -0.153198
-0.132262 0.691759 -0.127917
-0.129969 0.69175 -0.127988
-0.119266 0.691759 -0.12819
-0.092108 0.691751 -0.128623
0.038898 0.704365 -0.135243
0.207084 0.730533 -0.136605
0.371103 0.753323 -0.137848
0.509923 0.773576 -0.1394
0.620964 0.786371 -0.141246
0.721514 0.795942 -0.143433
0.821254 0.804377 -0.145903
0.894118 0.807367 -0.148694
0.958922 0.808848 -0.152083
1.024643 0.818439 -0.157636
1.050525 0.807676 -0.159039
1.086056 0.806099 -0.162854
-0.145853 0.753302 -0.12565
-0.143766 0.753196 -0.125732
-0.13423 0.753302 -0.125881
-0.11171 0.753196 -0.126282
-0.043547 0.752365 -0.127176
0.153103 0.783763 -0.150614
0.355725 0.80807 -0.152519
0.50345 0.831871 -0.153912
0.619315 0.847977 -0.155594
0.723013 0.859723 -0.157538
0.825961 0.87047 -0.159785
0.902547 0.875538 -0.162358
0.966952 0.878275 -0.165259
1.026203 0.877877 -0.168366
1.052376 0.867367 -0.169334
1.088118 0.866238 -0.172867
-0.155367 0.791542 -0.122548
-0.153522 0.791519 -0.122596
-0.14526 0.791552 -0.122776
-0.126101 0.791472 -0.123156
-0.082276 0.791242 -0.123707
0.089227 0.812663 -0.14425
0.319563 0.838238 -0.162614
0.475026 0.862099 -0.163855
0.597891 0.879595 -0.165378
0.70191 0.892109 -0.167112
0.803784 0.903924 -0.169119
0.890415 0.91146 -0.171401
0.954234 0.914326 -0.173931
1.016826 0.916532 -0.176771
1.052258 0.915928 -0.179729
1.088293 0.914779 -0.182993
-0.166701 0.826636 -0.131611
-0.165042 0.826627 -0.131638
-0.157614 0.82666 -0.131785
-0.140841 0.826579 -0.132133
-0.106199 0.826473 -0.132597
0.048682 0.839011 -0.143731
0.279948 0.867512 -0.173369
0.449013 0.892578 -0.175829
0.582239 0.912441 -0.177186
0.68896 0.925559 -0.178808
0.791932 0.937482 -0.180617
0.884321 0.946559 -0.182765
0.948942 0.949768 -0.185083
1.012639 0.95277 -0.187657
1.050096 0.952909 -0.190418
1.086383 0.952206 -0.193367
0.025427 0.050343 0.141513
0.037669 0.048523 0.140934
0.071964 0.045259 0.133701
0.139572 0.042401 0.128194
0.238289 0.034978 0.117072
0.406462 -0.004223 0.086675
0.508089 -0.024095 0.069454
0.580288 -0.033845 0.049676
0.639522 -0.041865 0.035418
0.697083 -0.048985 0.003348
0.748252 -0.056034 -0.037213
0.796738 -0.062842 -0.05174
0.854244 -0.070443 -0.064816
0.904362 -0.078386 -0.076604
0.93029 -0.083799 -0.08422
0.964772 -0.090349 -0.093057
0.022222 0.066105 0.138394
0.035292 0.06513 0.137735
0.071245 0.062134 0.13304
0.142477 0.057584 0.122251
0.240976 0.051017 0.100396
0.360874 0.034497 0.074045
0.516331 -0.012461 0.061536
0.584048 -0.02914 0.044066
0.641841 -0.038936 0.02802
0.700288 -0.046918 -0.024477
0.750348 -0.054261 -0.042553
0.799599 -0.062029 -0.055848
0.855581 -0.069386 -0.067604
0.904849 -0.077556 -0.078823
0.930235 -0.080262 -0.084515
0.96469 -0.087188 -0.093322
0.014598 0.108684 0.128417
0.024316 0.108921 0.126314
0.064 0.106642 0.120745
0.133398 0.104771 0.106171
0.23174 0.108418 0.08074
0.340755 0.107932 0.069806
0.448241 0.100903 0.054041
0.548652 0.083283 0.03779
0.630968 0.059483 0.019263
0.694667 0.042695 -0.030785
0.749609 0.025376 -0.046146
0.798359 -0.029666 -0.057953
0.855581 -0.044675 -0.069674
0.904361 -0.057374 -0.08045
0.930068 -0.062014 -0.085851
0.96483 -0.071521 -0.094475
0.00422 0.161511 0.090021
0.013595 0.161878 0.087423
0.052941 0.160779 0.085654
0.125148 0.16183 0.080881
0.222989 0.168584 0.07364
0.331997 0.17554 0.060442
0.445561 0.179239 0.04405
0.545801 0.176582 0.026047
0.649291 0.174171 -0.023008
0.70806 0.16178 -0.039747
0.765552 0.148351 -0.051471
0.82565 0.132084 -0.06229
0.885369 0.113243 -0.072978
0.930566 0.093452 -0.083212
0.952695 0.07448 -0.088507
0.980309 0.040831 -0.096799
-0.030941 0.224846 0.078785
-0.022511 0.22547 0.073573
0.038353 0.224262 0.071757
0.110663 0.224222 0.065742
0.217 0.231038 0.057613
0.326205 0.243529 0.040906
0.446053 0.254513 0.019939
0.554108 0.263379 -0.025935
0.651034 0.261111 -0.039869
0.721173 0.253942 -0.049955
0.780572 0.246563 -0.059355
0.83876 0.237773 -0.068136
0.907528 0.233625 -0.078189
0.955342 0.22497 -0.087936
0.978411 0.213421 -0.092486
1.010072 0.199033 -0.100344
-0.046356 0.292389 0.052336
-0.042984 0.292949 0.041358
0.028245 0.291027 0.039133
0.093998 0.291424 0.027808
0.220859 0.306135 -0.01082
0.326881 0.316288 -0.025028
0.448088 0.330877 -0.036619
0.553038 0.337949 -0.045748
0.649441 0.339593 -0.053623
0.732385 0.336759 -0.060767
0.791373 0.331548 -0.068096
0.853832 0.328396 -0.075837
0.923396 0.327209 -0.084622
0.977148 0.325192 -0.093632
1.000419 0.315362 -0.097778
1.03362 0.307257 -0.10511
-0.059785 0.355811 -0.034737
-0.057832 0.356246 -0.039766
0.014724 0.355774 -0.040615
0.066982 0.35717 -0.043691
0.208581 0.37135 -0.046467
0.32596 0.384 -0.050086
0.441592 0.398448 -0.054931
0.551531 0.409477 -0.060847
0.647963 0.413774 -0.066457
0.736937 0.413882 -0.071834
0.802167 0.411256 -0.077864
0.865626 0.409214 -0.084602
0.934475 0.411297 -0.092345
0.992897 0.412944 -0.100571
1.016692 0.402863 -0.104217
1.050687 0.396936 -0.110979
-0.072432 0.417449 -0.058723
-0.071132 0.417869 -0.061556
-0.039807 0.416649 -0.062163
0.058585 0.420335 -0.063128
0.19242 0.433351 -0.065136
0.317394 0.448518 -0.067857
0.436281 0.463208 -0.070796
0.547924 0.474507 -0.074469
0.644538 0.481023 -0.078844
0.737702 0.483809 -0.08309
0.808535 0.483088 -0.087456
0.873417 0.483226 -0.093551
0.943918 0.487735 -0.100911
1.003071 0.491678 -0.108432
1.027202 0.482398 -0.111671
1.061672 0.478299 -0.11781
-0.084352 0.471675 -0.075686
-0.08342 0.471934 -0.077772
-0.061442 0.472375 -0.078394
0.043902 0.474501 -0.079203
0.162309 0.492471 -0.080227
0.302034 0.508081 -0.082351
0.426135 0.524877 -0.084744
0.543616 0.538615 -0.087646
0.640449 0.54544 -0.091001
0.734308 0.549429 -0.094462
0.814924 0.551897 -0.098524
0.878255 0.55244 -0.103639
0.950786 0.558768 -0.110156
1.009714 0.56345 -0.117251
1.034687 0.553743 -0.119863
1.069476 0.550547 -0.125499
-0.095622 0.523609 -0.090232
-0.094897 0.52389 -0.091889
-0.077725 0.52437 -0.092407
0.022383 0.524887 -0.093014
0.121832 0.543464 -0.093839
0.283682 0.561059 -0.095321
0.411148 0.579542 -0.097455
0.533389 0.596187 -0.099855
0.633067 0.605362 -0.102658
0.729407 0.612516 -0.105894
0.816931 0.616559 -0.109555
0.882901 0.618727 -0.113759
0.955223 0.627213 -0.120247
1.015897 0.632414 -0.126421
1.04113 0.623019 -0.12875
1.076055 0.620315 -0.133856
-0.107068 0.57656 -0.104044
-0.10633 0.576896 -0.105346
-0.091819 0.57656 -0.10541
-0.04556 0.576896 -0.106285
0.08586 0.593742 -0.107005
0.261653 0.613172 -0.108205
0.39549 0.632296 -0.110007
0.521731 0.650339 -0.111999
0.624886 0.66109 -0.114389
0.721745 0.669776 -0.117182
0.818643 0.678167 -0.120907
0.885715 0.680485 -0.124653
0.957541 0.69045 -0.130251
1.01999 0.697112 -0.136452
1.04562 0.68742 -0.138132
1.080799 0.685492 -0.142775
-0.119129 0.633149 -0.117874
-0.118387 0.633224 -0.11889
-0.106265 0.633758 -0.1192
-0.073743 0.633224 -0.11969
0.060275 0.649917 -0.120564
0.231532 0.670424 -0.121759
0.381336 0.689509 -0.123131
0.513053 0.708587 -0.124879
0.620279 0.720491 -0.126982
0.71858 0.729578 -0.129422
0.816578 0.737714 -0.132376
0.885472 0.739249 -0.135399
0.95858 0.749039 -0.140766
1.022419 0.757466 -0.146418
1.04826 0.747663 -0.14793
1.083645 0.745899 -0.152157
-0.132266 0.691774 -0.126702
-0.131482 0.691809 -0.12755
-0.120734 0.691774 -0.127537
-0.094498 0.691199 -0.128358
0.034266 0.703161 -0.134645
0.200571 0.730707 -0.136117
0.368718 0.753205 -0.137416
0.508334 0.773515 -0.138991
0.620173 0.786399 -0.140825
0.720967 0.79587 -0.143012
0.820425 0.804621 -0.145194
0.893075 0.806695 -0.147943
0.958919 0.808841 -0.151403
1.024644 0.818471 -0.157025
1.050523 0.807674 -0.158033
1.086057 0.806146 -0.161878
-0.145857 0.753286 -0.124564
-0.145006 0.753375 -0.125228
-0.135107 0.753286 -0.125152
-0.113463 0.753375 -0.125789
-0.048739 0.753033 -0.126499
0.145928 0.783098 -0.150039
0.353126 0.807826 -0.152052
0.501974 0.831701 -0.153439
0.618419 0.847875 -0.155142
0.722297 0.85991 -0.157104
0.823793 0.871045 -0.159381
0.901329 0.875043 -0.161938
0.966942 0.878243 -0.164726
1.026228 0.877903 -0.167934
1.052373 0.867342 -0.168439
1.088119 0.866126 -0.171996
-0.155379 0.791539 -0.121593
-0.153507 0.791514 -0.121634
-0.145269 0.791549 -0.121775
-0.126392 0.791472 -0.122165
-0.082247 0.791227 -0.12277
0.092178 0.813098 -0.143801
0.319577 0.838243 -0.161665
0.475076 0.862101 -0.162934
0.597893 0.87959 -0.164428
0.701885 0.892101 -0.166186
0.803666 0.903787 -0.168211
0.890427 0.911453 -0.170505
0.954234 0.914322 -0.173087
1.016826 0.916527 -0.175917
1.052257 0.915921 -0.178924
1.088292 0.914746 -0.182207
-0.166712 0.826634 -0.130764
-0.165026 0.826625 -0.130779
-0.157613 0.826659 -0.130891
-0.141099 0.826579 -0.131231
-0.106212 0.826472 -0.131696
0.048686 0.839012 -0.142876
0.279956 0.867512 -0.172523
0.448999 0.892573 -0.174976
0.582307 0.912456 -0.176363
0.688975 0.925553 -0.177968
0.793174 0.937701 -0.179835
0.884395 0.946564 -0.181892
0.948942 0.949766 -0.184249
1.012639 0.952768 -0.186882
1.050078 0.952908 -0.189649
1.086382 0.952204 -0.19261
0.0227 0.048375 0.179302
0.03288 0.047077 0.178388
0.072089 0.044289 0.175515
0.139854 0.04126 0.171669
0.240534 0.033995 0.171531
0.403515 -0.006325 0.18171
0.505877 -0.024343 0.167487
0.584919 -0.034005 0.145101
0.64464 -0.041988 0.104813
0.698441 -0.049104 0.056433
0.751527 -0.056119 0.038901
0.796705 -0.062917 -0.014566
0.854244 -0.070507 -0.045073
0.904361 -0.078444 -0.061548
0.930278 -0.083853 -0.072169
0.96476 -0.090386 -0.082828
0.019999 0.062283 0.176287
0.032624 0.065016 0.178019
0.070966 0.061438 0.175796
0.141707 0.05767 0.171638
0.243197 0.051084 0.168433
0.360334 0.033658 0.161121
0.514048 -0.013196 0.160408
0.588672 -0.029356 0.133273
0.64599 -0.039079 0.068444
0.700611 -0.047031 0.048489
0.751929 -0.054805 0.031258
0.799558 -0.062098 -0.028674
0.855581 -0.069463 -0.050094
0.904849 -0.077612 -0.064846
0.930223 -0.080323 -0.072527
0.964676 -0.087244 -0.083129
0.011234 0.110875 0.175056
0.020101 0.111014 0.175629
0.05759 0.107014 0.17167
0.135275 0.105463 0.166989
0.24101 0.102924 0.156778
0.358336 0.093134 0.13978
0.468618 0.071045 0.103545
0.573151 0.04152 0.057013
0.643083 0.019049 0.039925
0.708257 -0.030381 0.019913
0.759486 -0.044104 -0.035641
0.805465 -0.054472 -0.051611
0.861527 -0.064605 -0.065352
0.908157 -0.073593 -0.077089
0.930069 -0.066287 -0.076513
0.964866 -0.075075 -0.086462
0.002603 0.166148 0.168538
0.011472 0.166486 0.166507
0.041106 0.166837 0.159675
0.117963 0.165482 0.151968
0.228967 0.169332 0.136998
0.343601 0.17193 0.105399
0.462104 0.172127 0.065492
0.562797 0.164146 0.043144
0.652886 0.150538 0.028266
0.716216 0.140659 -0.024709
0.77245 0.1211 -0.043847
0.829632 0.09551 -0.057152
0.883202 0.072177 -0.069338
0.922995 0.039469 -0.080556
0.950291 0.059931 -0.079598
0.9755 0.030514 -0.089078
-0.031143 0.230055 0.156762
-0.022872 0.23041 0.15086
0.02651 0.22809 0.111664
0.09706 0.22654 0.088944
0.217752 0.234044 0.079397
0.333757 0.244678 0.063771
0.456308 0.252382 0.043549
0.55971 0.253148 0.02552
0.662845 0.25485 -0.025243
0.728758 0.245175 -0.041546
0.785678 0.23427 -0.05319
0.845364 0.225373 -0.064042
0.909779 0.216212 -0.074874
0.95439 0.204708 -0.085237
0.977014 0.207696 -0.084198
1.008769 0.192781 -0.093057
-0.046473 0.293705 0.096058
-0.043123 0.294151 0.090941
0.00843 0.294691 0.068024
0.067561 0.293931 0.059535
0.206964 0.304439 0.046952
0.321999 0.31183 0.028839
0.454846 0.331631 -0.017772
0.56153 0.337611 -0.03567
0.659468 0.338045 -0.046554
0.738841 0.333221 -0.055323
0.798283 0.325343 -0.063452
0.859096 0.320734 -0.072496
0.926803 0.317893 -0.082126
0.977416 0.314646 -0.091373
0.999807 0.312266 -0.090193
1.032972 0.303982 -0.098323
-0.059871 0.35616 0.065446
-0.057921 0.356261 0.0557
-0.043733 0.358182 -0.028012
0.057562 0.35998 -0.032847
0.19881 0.372564 -0.037287
0.320677 0.385263 -0.042085
0.442601 0.39916 -0.048152
0.555807 0.410047 -0.055456
0.654216 0.413706 -0.062019
0.74285 0.412867 -0.068078
0.807228 0.407857 -0.074661
0.869713 0.404832 -0.081764
0.939263 0.407065 -0.090421
0.994416 0.407678 -0.098897
1.016384 0.400807 -0.097363
1.050265 0.394756 -0.104733
-0.072496 0.417463 -0.03535
-0.071213 0.417872 -0.04101
-0.063648 0.420623 -0.057233
0.044323 0.421342 -0.058626
0.17171 0.433141 -0.060692
0.310964 0.449012 -0.063381
0.43392 0.464052 -0.066869
0.548595 0.47506 -0.070922
0.647751 0.481528 -0.075754
0.742058 0.483973 -0.08033
0.812082 0.481532 -0.085369
0.87789 0.483181 -0.091983
0.946753 0.485371 -0.099316
1.003693 0.486571 -0.106657
1.027045 0.481246 -0.105452
1.061533 0.477017 -0.112109
-0.084395 0.471657 -0.061822
-0.083468 0.471915 -0.064767
-0.078261 0.474523 -0.075317
0.025243 0.474488 -0.07605
0.134457 0.490708 -0.077247
0.293163 0.508484 -0.07948
0.420917 0.525368 -0.082062
0.542197 0.539341 -0.085147
0.641078 0.545871 -0.088686
0.73684 0.549867 -0.092351
0.81595 0.550457 -0.096435
0.882041 0.551773 -0.101981
0.952157 0.556848 -0.108624
1.01061 0.560656 -0.115768
1.034588 0.552793 -0.11432
1.069404 0.549506 -0.120303
-0.095679 0.523609 -0.079983
-0.094977 0.523907 -0.08215
-0.091062 0.525762 -0.09016
-0.039602 0.524669 -0.090875
0.099354 0.540271 -0.091836
0.270802 0.55954 -0.093517
0.404096 0.579608 -0.095504
0.5299 0.596698 -0.097981
0.632029 0.605841 -0.100886
0.729875 0.613054 -0.104207
0.818028 0.616357 -0.107732
0.885019 0.619153 -0.112415
0.956608 0.625557 -0.118772
1.017149 0.631648 -0.125374
1.041079 0.622297 -0.123769
1.076018 0.619541 -0.129146
-0.107098 0.576661 -0.095903
-0.106391 0.576913 -0.097503
-0.102897 0.578122 -0.103694
-0.068337 0.578295 -0.104674
0.065796 0.590856 -0.105524
0.244849 0.611961 -0.106739
0.386139 0.631918 -0.108454
0.516408 0.650586 -0.110545
0.622625 0.661781 -0.113054
0.721159 0.670248 -0.115845
0.816399 0.677973 -0.119318
0.886843 0.68183 -0.123414
0.959062 0.689103 -0.129168
1.020449 0.69652 -0.135427
1.045566 0.686999 -0.133628
1.080755 0.684835 -0.138502
-0.119159 0.633196 -0.111073
-0.118392 0.633204 -0.112309
-0.115923 0.634539 -0.117819
-0.088188 0.633996 -0.118245
0.043351 0.644993 -0.119381
0.212393 0.668042 -0.120423
0.369883 0.688971 -0.121972
0.506361 0.708433 -0.123765
0.616895 0.721009 -0.125881
0.71684 0.730028 -0.128357
0.815671 0.73858 -0.131151
0.885918 0.739809 -0.134389
0.959429 0.749408 -0.139826
1.022909 0.757999 -0.145808
1.048244 0.747471 -0.143888
1.083605 0.745676 -0.148272
-0.132303 0.691698 -0.120829
-0.131523 0.691879 -0.121795
-0.129566 0.693083 -0.126451
-0.105931 0.692485 -0.126943
-0.01703 0.692869 -0.127831
0.156148 0.726948 -0.135238
0.35497 0.75193 -0.136485
0.500049 0.772926 -0.13805
0.615679 0.786586 -0.13994
0.718074 0.796116 -0.14214
0.819504 0.805101 -0.144773
0.893539 0.807308 -0.147103
0.959371 0.809515 -0.150961
1.025168 0.818348 -0.156451
1.050518 0.807486 -0.154388
1.086045 0.805814 -0.158375
-0.14587 0.753206 -0.119359
-0.145032 0.753294 -0.120121
-0.143591 0.753717 -0.124513
-0.123414 0.753931 -0.124952
-0.072745 0.75292 -0.125612
0.102543 0.77987 -0.148097
0.336859 0.805874 -0.151314
0.492078 0.830679 -0.152713
0.613033 0.847689 -0.154424
0.718773 0.859804 -0.156379
0.821986 0.86999 -0.158793
0.901426 0.876018 -0.161253
0.966892 0.878291 -0.164202
1.02626 0.878771 -0.167187
1.052342 0.867276 -0.165123
1.088104 0.866001 -0.168758
-0.155394 0.79152 -0.117031
-0.153525 0.791496 -0.117076
-0.147145 0.791557 -0.118299
-0.128301 0.791476 -0.118542
-0.085147 0.791228 -0.119165
0.084454 0.811904 -0.138933
0.315201 0.837516 -0.158139
0.472256 0.861755 -0.159416
0.596276 0.879483 -0.160985
0.700834 0.892111 -0.162804
0.803193 0.903851 -0.164871
0.889677 0.911347 -0.167284
0.954236 0.914367 -0.169918
1.01602 0.916469 -0.172804
1.052252 0.915902 -0.175897
1.088288 0.914693 -0.179206
-0.166746 0.826627 -0.126652
-0.165048 0.826692 -0.12668
-0.159288 0.826662 -0.127747
-0.142731 0.826581 -0.127979
-0.108254 0.826473 -0.128466
0.044354 0.837864 -0.138546
0.274673 0.86675 -0.168712
0.44606 0.892135 -0.171818
0.580671 0.912168 -0.173226
0.687888 0.925357 -0.174932
0.791604 0.937437 -0.17677
0.88269 0.946396 -0.178886
0.948942 0.949757 -0.181361
1.011932 0.952693 -0.183968
1.050065 0.9529 -0.186805
1.086377 0.952195 -0.189932
0.020303 0.045868 0.226228
0.030674 0.044917 0.225785
0.069452 0.041925 0.224698
0.142557 0.040984 0.224481
0.244344 0.031116 0.22879
0.399936 -0.005439 0.244802
0.503007 -0.024934 0.239025
0.587135 -0.034394 0.230233
0.649023 -0.042266 0.218131
0.705662 -0.049325 0.202736
0.761212 -0.05631 0.184163
0.813318 -0.063243 0.159991
0.867328 -0.070674 0.128023
0.91141 -0.078585 0.055178
0.93166 -0.08398 0.023649
0.964732 -0.090513 -0.044674
0.01731 0.061261 0.224764
0.029227 0.063163 0.230691
0.070101 0.05848 0.229259
0.145008 0.055574 0.227181
0.243551 0.049146 0.228385
0.360801 0.030103 0.228099
0.510877 -0.01477 0.238018
0.591293 -0.029875 0.227997
0.652321 -0.03942 0.214713
0.708326 -0.047277 0.197745
0.764031 -0.054307 0.179422
0.815032 -0.062065 0.152135
0.867187 -0.069796 0.109008
0.910824 -0.077755 0.046615
0.931221 -0.080445 0.021869
0.964725 -0.087351 -0.04536
0.010578 0.111214 0.226569
0.018599 0.112291 0.230687
0.053788 0.108918 0.23004
0.133514 0.105373 0.228761
0.241356 0.102901 0.229811
