site/assets/luts/freshluts--0000717-free-cotton-candy-sky.cube
# LUTr-Schema-Version: 2
# LUTr-ID: freshluts--0000717-free-cotton-candy-sky
# LUTr-Title: Free cotton candy sky
# LUTr-Collection: Fresh LUTs
# LUTr-Collection-ID: freshluts-community
# LUTr-Source: https://freshluts.com
# LUTr-Retrieved: 2026-07-27
# LUTr-Source-File: submissions-raw/freshluts/cubes/717__cotton_candy_sky_1.C0033.cube
# LUTr-Source-Format: CUBE
# LUTr-Source-SHA256: bec92f1bb0cfa8d069dd29cbd00f723006ec84036b6d098f883a4b8e1c24136d
# LUTr-License: CC0-1.0
# LUTr-License-URL: https://freshluts.com/termsandconditions
# LUTr-License-Basis: site-terms
# LUTr-Transform-Class: creative-look
# LUTr-Tags: creative, freshluts, community, cube, teal, sony-s-log2
# LUTr-Input-Color-Space:
# LUTr-Input-Gamut: sony-s-gamut
# LUTr-Input-Transfer: sony-s-log2
# LUTr-Output-Color-Space: srgb
# LUTr-Output-Gamut: rec709
# LUTr-Output-Transfer: srgb
# LUTr-Color-Space-Confidence: camera-profile-input-required
# LUTr-Domain-Normalized: true
# LUTr-Shaper: none
# LUTr-Original-Grid: 17x17x17
# LUTr-Conversion-Grid: 17x17x17
# LUTr-Conversion-Interpolation: none
# LUTr-Conversion-Method: Metadata normalization; numeric LUT samples preserved
# LUTr-Conversion-Tool: LUTr scripts/convert-all-to-cube.mjs 2.0.0
# LUTr-Conversion-Date: 2026-07-28
# LUTr-Asset-URL: https://freshluts.com/luts/717
# LUTr-Author: Nathanael Francisco
# LUTr-Author-URL: https://freshluts.com/users/66688
# LUTr-Attribution: Nathanael Francisco via Fresh LUTs
# LUTr-Source-Labels: gamma=Sony S-Log 2; color=Teal; key=Neutral; style=Adventure
# LUTr-Note: Preserve this metadata and the upstream license notices when redistributing.
TITLE "Free cotton candy sky"
LUT_3D_SIZE 5
DOMAIN_MIN 0 0 0
DOMAIN_MAX 1 1 1
0 0 0
0.00733959 0 0
0.0416876 0.0181735 0.0174563
0.0889601 0.0206607 0.0166323
0.509102 0 0
0.0472267 0.0623941 0.0453346
0.0849012 0.0794842 0.066743
0.147082 0.0855573 0.0638132
0.266117 0.0650492 0.024445
0.547906 0.0674449 0
0.060029 0.174792 0.00137331
0.155657 0.243107 0.00457771
0.40473 0.280018 0.0664378
0.848463 0.286793 0.00784314
1 0.308843 0
0 0.61268 0
0.179217 0.677668 0
0.559136 0.696483 0
1 0.696986 0.0678416
1 0.774609 0.166659
0.202945 1 0
0.452186 1 0
0.755154 1 0
1 0.99469 0.174517
1 1 0.247654
0 0 0
0.0111543 0 0.0119783
0.0523079 0.0263523 0.0335851
0.109621 0.0238804 0.0296483
0.182666 0.0202487 0.0268101
0.0469368 0.070985 0.0650187
0.0826429 0.0870832 0.0865797
0.148272 0.0883955 0.0865644
0.318105 0.0720226 0.0572671
0.643183 0.0690929 0.0324407
0.0412604 0.208392 0.0413825
0.133394 0.2813 0.062089
0.398642 0.310079 0.147753
0.861051 0.31722 0.0989395
1 0.345464 0.0721599
0 0.659403 0
0.151369 0.728038 0
0.538643 0.747906 0
1 0.742962 0.201114
1 0.818769 0.302251
0.188952 1 0
0.432471 1 0
0.72224 1 0.0715801
1 1 0.261891
1 1 0.347219
0 0 0.0326238
0.0120546 0.0178378 0.0279545
0.0569772 0.0308537 0.0705577
0.131151 0.0243534 0.0723583
0.202411 0.0202487 0.0717632
0.0196841 0.0821851 0.0888228
0.0457313 0.0984512 0.123293
0.13753 0.0881514 0.172595
0.385534 0.0733959 0.180377
0.743755 0.0625467 0.200793
0 0.230564 0.16553
0.0466926 0.300816 0.236469
0.319951 0.350942 0.346685
0.835431 0.33817 0.311711
1 0.361624 0.310262
0 0.7149 0
0.0321202 0.79205 0.0795758
0.424674 0.82739 0.209949
1 0.795285 0.450111
1 0.864942 0.522286
0.102586 1 0.0624857
0.337942 1 0.185122
0.617456 1 0.274311
1 1 0.443168
1 1 0.555535
0 0 0
0.000671397 0.0244755 0.045182
0.0295262 0.0393988 0.113283
0.123278 0.0233158 0.150683
0.206485 0.0144198 0.170077
0 0.0893721 0.13344
0 0.100679 0.176181
0.0296178 0.0938735 0.259953
0.374487 0.0593576 0.462928
0.795666 0.0386053 0.615961
0 0.215228 0.209689
0 0.261631 0.292668
0 0.242283 0.42771
0.743542 0.293141 0.863951
1 0.351965 0.905867
0 0.678859 0.371496
0 0.742382 0.473472
0.151614 0.774807 0.593164
0.833585 0.834363 0.828138
1 0.87744 0.844755
0 1 0.503349
0.125414 1 0.613352
0.391806 1 0.703182
0.938552 1 0.791836
1 1 0.910369
0 0 1
0.000640879 0 0.935363
0.210697 0 0.753597
0.407507 0 0.658045
0.612131 0 0.635599
0 0.0124361 0.933394
0 0.0146334 0.864057
0.133776 0.0339666 0.746441
0.483513 0.00843824 0.86627
1 0 1
0 0.262654 0.358984
0 0.311437 0.472801
0 0.295689 0.639673
0.48513 0.229572 1
1 0.330053 1
0 0.649851 0.543709
0 0.687816 0.600351
0 0.66775 0.618891
0.445289 0.635782 0.768368
1 0.835569 1
0 1 0.748196
0 1 0.795285
0.2009 1 0.848753
0.742962 1 1
1 1 1
