site/assets/luts/freshluts--0000203-helios.cube
# LUTr-Schema-Version: 2
# LUTr-ID: freshluts--0000203-helios
# LUTr-Title: Helios
# LUTr-Collection: Fresh LUTs
# LUTr-Collection-ID: freshluts-community
# LUTr-Source: https://freshluts.com
# LUTr-Retrieved: 2026-07-27
# LUTr-Source-File: submissions-raw/freshluts/cubes/203__Helios.cube
# LUTr-Source-Format: CUBE
# LUTr-Source-SHA256: c3f93ae18447de83962cdd3c2de4afe9ce12d5787b5331207c483b9c5f5ec1e6
# LUTr-License: CC0-1.0
# LUTr-License-URL: https://freshluts.com/termsandconditions
# LUTr-License-Basis: site-terms
# LUTr-Transform-Class: creative-look
# LUTr-Tags: creative, freshluts, community, cube, cinematic, blockbuster, warm, bmd-film-4k
# LUTr-Input-Color-Space:
# LUTr-Input-Gamut: bmd-film-gamut
# LUTr-Input-Transfer: bmd-film-4k
# LUTr-Output-Color-Space: srgb
# LUTr-Output-Gamut: rec709
# LUTr-Output-Transfer: srgb
# LUTr-Color-Space-Confidence: camera-profile-input-required
# LUTr-Domain-Normalized: true
# LUTr-Shaper: none
# LUTr-Original-Grid: 33x33x33
# LUTr-Conversion-Grid: 33x33x33
# LUTr-Conversion-Interpolation: none
# LUTr-Conversion-Method: Metadata normalization; numeric LUT samples preserved
# LUTr-Conversion-Tool: LUTr scripts/convert-all-to-cube.mjs 2.0.0
# LUTr-Conversion-Date: 2026-07-28
# LUTr-Asset-URL: https://freshluts.com/luts/203
# LUTr-Author: Cube Frames
# LUTr-Author-URL: https://freshluts.com/users/1308
# LUTr-Attribution: Cube Frames via Fresh LUTs
# LUTr-Source-Labels: gamma=Blackmagic BMD Film 4K; color=Warm; key=Neutral; style=Blockbuster
# LUTr-Note: Preserve this metadata and the upstream license notices when redistributing.
TITLE "Helios"
LUT_3D_SIZE 33
DOMAIN_MIN 0 0 0
DOMAIN_MAX 1 1 1
0.0185702 0.0221256 0.0233158
0.0218967 0.0246433 0.0260471
0.0252537 0.0268559 0.0284581
0.029221 0.0291905 0.0310063
0.0337987 0.0313573 0.033402
0.0389258 0.0331273 0.0353704
0.0454566 0.0348363 0.0372931
0.0533608 0.0360571 0.0387274
0.0634165 0.0367895 0.0396582
0.0765087 0.0369116 0.0399023
0.092134 0.0361639 0.0392309
0.111757 0.0347295 0.0378576
0.13489 0.0322271 0.0354009
0.163409 0.028748 0.0318303
0.197223 0.0240177 0.0268864
0.235142 0.018143 0.0206607
0.277684 0.0115053 0.01355
0.322286 0.00428779 0.00573739
0.368566 0 0
0.414221 0 0
0.459968 0 0
0.504295 0 0
0.547921 0 0
0.591012 0 0
0.633066 0 0
0.675059 0 0
0.71693 0 0
0.758618 0 0
0.800671 0 0
0.843534 0 0
0.88632 0 0
0.928145 0 0
0.969299 0 0
0.0246128 0.031754 0.0319524
0.0281834 0.0341192 0.0343328
0.0320134 0.0363317 0.0366522
0.0364385 0.0386053 0.0390021
0.041413 0.0405127 0.041001
0.0475166 0.0424506 0.0429694
0.0551003 0.0440833 0.0446479
0.064271 0.0450904 0.045655
0.0763714 0.0456703 0.0462959
0.0915541 0.0452583 0.0458228
0.111421 0.0440223 0.0444038
0.136233 0.0415351 0.0414588
0.165438 0.038056 0.0374914
0.199954 0.0334783 0.0321355
0.239673 0.0276341 0.0252689
0.284108 0.0208438 0.017258
0.33225 0.0133974 0.00839246
0.382177 0.0055848 0
0.433173 0 0
0.483055 0 0
0.532326 0 0
0.579812 0 0
0.625772 0 0
0.670893 0 0
0.714748 0 0
0.757458 0 0
0.799374 0 0
0.84065 0 0
0.881636 0 0
0.922805 0 0
0.963073 0 0
1 0 0
1 0 0
0.0298772 0.0418097 0.0398871
0.0336461 0.0440681 0.0419776
0.0380713 0.0464942 0.0442817
0.0428779 0.0486 0.0463111
0.0488136 0.050782 0.0483711
0.0559091 0.0527504 0.0501564
0.0644388 0.0541543 0.0514382
0.0755016 0.0552834 0.0523537
0.0894484 0.0554971 0.0523384
0.108415 0.0548257 0.0512093
0.133181 0.0525521 0.0482643
0.164294 0.0491493 0.0436866
0.199588 0.0446326 0.0377966
0.240909 0.0390784 0.0305028
0.287236 0.0322728 0.0216373
0.338521 0.0247501 0.01178
0.392325 0.0166934 0.00117494
0.447608 0.00863661 0
0.503212 0.00103761 0
0.556878 0 0
0.608774 0 0
0.658976 0 0
0.706371 0 0
0.751842 0 0
0.795361 0 0
0.837217 0 0
0.877577 0 0
0.916732 0 0
0.954818 0 0
0.992325 0 0
1 0 0
1 0 0
1 0 0
0.0341497 0.0525521 0.0470283
0.0385443 0.0551919 0.0492256
0.0432898 0.0575723 0.051194
0.0489357 0.0600748 0.0532998
0.0557412 0.0623941 0.0552377
0.0637369 0.0642557 0.0567178
0.0739605 0.0659342 0.0578775
0.0866255 0.0668345 0.0582895
0.103746 0.0670481 0.0577401
0.127062 0.0655985 0.0551003
0.158114 0.0627146 0.0504616
0.19556 0.0581979 0.0437934
0.238224 0.0528267 0.0359808
0.286397 0.0463722 0.0265354
0.339666 0.0389258 0.015671
0.397238 0.03093 0.00396735
0.457053 0.0227359 0
0.517281 0.0148165 0
0.576089 0.00770581 0
0.632609 0.00170901 0
0.686213 0 0
0.736461 0 0
0.783475 0 0
0.827787 0 0
0.869383 0 0
0.908553 0 0
0.945663 0 0
0.981003 0 0
1 0.00199893 0
1 0.0069276 0
1 0.0125887 0
1 0.0190585 0
1 0.0261692 0
0.0374914 0.0650187 0.0536202
0.0423438 0.0678111 0.0556497
0.0477607 0.0705425 0.0576028
0.0541695 0.0732891 0.059556
0.0616617 0.0756847 0.0611276
0.0710918 0.0778668 0.0624857
0.0827955 0.0795453 0.0633555
0.098024 0.0804608 0.0630655
0.119051 0.0804761 0.0612802
0.147692 0.0785992 0.0569314
0.185382 0.0750439 0.0501869
0.230213 0.0697795 0.0412909
0.279927 0.0637064 0.0311589
0.335561 0.0567636 0.0196994
0.395972 0.0489662 0.00704967
0.459098 0.0409857 0
0.523339 0.0332189 0
0.586969 0.0261082 0
0.647715 0.0202335 0
0.705104 0.0158541 0
0.758144 0.0129549 0
0.806928 0.0116121 0
0.851682 0.011841 0
0.892989 0.0135042 0
0.931121 0.016495 0
0.966369 0.020676 0
0.999115 0.0259098 0
1 0.0319982 0
1 0.0387274 0
1 0.0458991 0
1 0.0535592 0
1 0.061738 0
1 0.0701305 0
0.0390784 0.0793317 0.0587778
0.0445258 0.0826123 0.0607462
0.0505379 0.0856336 0.0624857
0.0577401 0.0888075 0.064271
0.0662699 0.0915389 0.0656748
0.0771954 0.0941787 0.066743
0.0911421 0.0960861 0.0667735
0.109651 0.097261 0.0653544
0.135195 0.0972152 0.0619821
0.169833 0.0950637 0.0556802
0.214389 0.0908522 0.0464485
0.267414 0.0852522 0.035172
0.324453 0.0788891 0.0230106
0.386328 0.0718547 0.00968948
0.452094 0.0643931 0
0.519554 0.0571145 0
0.586801 0.0504768 0
0.651926 0.0449226 0
0.712627 0.0409705 0
0.76846 0.0387732 0
0.819318 0.0383612 0
0.865232 0.0396887 0
0.90634 0.0426184 0
0.943526 0.0469978 0
0.977172 0.0525673 0
1 0.0591135 0
1 0.0664378 0
1 0.0743572 0
1 0.0826886 0
1 0.0910658 0
1 0.0995956 0
1 0.108293 0
1 0.117082 0
0.0380865 0.0968948 0.0619059
0.0440223 0.10045 0.0635233
0.0508278 0.104189 0.065156
0.0588388 0.107805 0.0665904
0.0685893 0.111238 0.0675059
0.0813001 0.114504 0.0675517
0.0979934 0.117037 0.0664378
0.120165 0.118593 0.0634623
0.150576 0.118593 0.0581674
0.191821 0.116579 0.0497597
0.243809 0.112276 0.0381476
0.303716 0.106432 0.0247959
0.367102 0.100328 0.0108949
0.434241 0.0939498 0
0.503944 0.0875563 0
0.573571 0.0817273 0
0.641489 0.076936 0
0.705959 0.0735332 0
0.764736 0.0719463 0
0.817838 0.072282 0
0.865187 0.0744182 0
0.906981 0.0781262 0
0.943847 0.0833143 0
0.976577 0.0896162 0
1 0.0968338 0
1 0.104784 0
1 0.113283 0
1 0.122026 0
1 0.130892 0
1 0.139635 0
1 0.148409 0.00137331
1 0.157259 0.0103304
1 0.166094 0.0192569
0.0329137 0.11841 0.0613565
0.0394293 0.122789 0.0626383
0.0468299 0.127291 0.0636454
0.0558022 0.132082 0.0642252
0.0670634 0.136568 0.0640116
0.0816663 0.140673 0.0626841
0.101335 0.144045 0.0599069
0.127794 0.146242 0.0551614
0.163348 0.146761 0.0478676
0.211093 0.145144 0.0374456
0.269947 0.14107 0.024094
0.336126 0.135637 0.00944533
0.404303 0.130373 0
0.474708 0.125338 0
0.546197 0.120668 0
0.616114 0.116869 0
0.682979 0.11426 0
0.745037 0.113054 0
0.80087 0.113649 0
0.850294 0.115938 0
0.893706 0.119738 0
0.931685 0.124941 0
0.964828 0.131319 0
0.994156 0.138643 0
1 0.14667 0
1 0.155154 0
1 0.163989 0
1 0.172961 0
1 0.181903 0
1 0.190646 0.00776684
1 0.199313 0.0165713
1 0.207965 0.02533
1 0.216449 0.0339513
0.0212558 0.145693 0.0549172
0.0281834 0.151675 0.0552682
0.0361944 0.157626 0.054902
0.0460822 0.163622 0.0539254
0.0588846 0.169421 0.0520943
0.0757916 0.174823 0.0491646
0.0990311 0.179309 0.0446632
0.130007 0.182544 0.0382849
0.171176 0.183856 0.0293584
0.224857 0.18265 0.0179599
0.289845 0.179339 0.00421149
0.361181 0.175036 0
0.432364 0.17116 0
0.504021 0.167819 0
0.575067 0.164965 0
0.643336 0.162875 0
0.70779 0.161837 0
0.767178 0.16199 0
0.819989 0.163653 0
0.866438 0.166842 0
0.906981 0.171405 0
0.942412 0.177264 0
0.974289 0.184146 0
1 0.191775 0
1 0.199969 0
1 0.208545 0
1 0.217319 0
1 0.226139 0
1 0.234836 0.00793469
1 0.243214 0.0164797
1 0.251408 0.0248417
1 0.259571 0.0331426
1 0.266072 0.0390173
0 0.18175 0.0393225
0.00714122 0.189166 0.0377813
0.0158083 0.196902 0.0356146
0.027039 0.204685 0.0328222
0.0420539 0.212177 0.0293736
0.0620584 0.219059 0.0249027
0.0892348 0.224903 0.0191806
0.125475 0.229191 0.0119783
0.172442 0.231296 0.00282292
0.232029 0.23093 0
0.301808 0.228534 0
0.375875 0.225162 0
0.448157 0.222553 0
0.51902 0.220401 0
0.588235 0.218479 0
0.654612 0.217166 0
0.717128 0.216571 0
0.774639 0.217014 0
0.825574 0.218952 0
0.870253 0.222431 0
0.909987 0.227253 0
0.945495 0.233265 0
0.977417 0.240192 0
1 0.247745 0
1 0.255756 0
1 0.264042 0
1 0.272419 0
1 0.280735 0.000564584
1 0.289021 0.00906386
1 0.297093 0.0171206
1 0.303105 0.0211795
1 0.307195 0.0215763
1 0.309987 0.0196841
0 0.227558 0.0117952
0 0.236957 0.00825513
0 0.246601 0.00448615
0 0.256214 0.000503548
0.0181735 0.265461 0
0.0426032 0.273823 0
0.0752117 0.280705 0
0.11751 0.285527 0
0.170626 0.288106 0
0.235203 0.287938 0
0.307759 0.285618 0
0.382757 0.282673 0
0.453971 0.280446 0
0.52311 0.278614 0
0.590646 0.276814 0
0.65565 0.275395 0
0.717113 0.274617 0
0.773465 0.274983 0
0.823758 0.276982 0
0.868391 0.280461 0
0.908049 0.285206 0
0.943343 0.29099 0
0.974945 0.297581 0
1 0.304738 0
1 0.31223 0
1 0.320211 0
1 0.328603 0
1 0.336721 0
1 0.342992 0
1 0.347524 0
1 0.351125 0
1 0.354543 0
1 0.358572 0
0 0.284184 0
0 0.295659 0
0 0.306691 0
0 0.317662 0
0 0.327718 0
0.0256199 0.336141 0
0.064683 0.342916 0
0.113161 0.347356 0
0.171405 0.349004 0
0.239185 0.348135 0
0.312612 0.345403 0
0.386343 0.342336 0
0.455543 0.340078 0
0.522545 0.338094 0
0.588434 0.336095 0
0.652216 0.334462 0
0.712978 0.333562 0
0.769116 0.333822 0
0.819165 0.335576 0
0.863447 0.338689 0
0.902632 0.342962 0
0.937453 0.348272 0
0.968887 0.354711 0
0.997864 0.361944 0
1 0.369848 0
1 0.377554 0
1 0.384024 0
1 0.389517 0
1 0.394324 0
1 0.39884 0
1 0.403906 0
1 0.410376 0
1 0.418326 0
0 0.349493 0
0 0.36141 0
0 0.3729 0
0 0.383444 0
0 0.392386 0
0.0207523 0.399893 0
0.0654154 0.405203 0
0.118166 0.408286 0
0.179095 0.408759 0
0.247379 0.407034 0
0.319127 0.403891 0
0.389929 0.400732 0
0.455985 0.398535 0
0.520348 0.396643 0
0.584573 0.394675 0
0.647807 0.392798 0
0.708171 0.391501 0
0.763806 0.391257 0
0.813474 0.39263 0
0.857664 0.395682 0
0.897047 0.400168 0
0.93228 0.405921 0
0.964065 0.412695 0
0.997803 0.419593 0
1 0.42591 0
1 0.431846 0
1 0.437598 0
1 0.443442 0
1 0.449699 0
1 0.456794 0
1 0.464683 0
1 0.472572 0
1 0.480354 0
0 0.41735 0
0 0.42826 0
0 0.438025 0
0 0.446815 0
0 0.454047 0
0.0301823 0.459876 0
0.0774395 0.463798 0
0.130846 0.465766 0
0.190753 0.465568 0
0.256489 0.463508 0
0.324559 0.460533 0
0.391241 0.45774 0
0.45388 0.45597 0
0.516701 0.453925 0
0.580423 0.451453 0
0.643381 0.449302 0
0.703777 0.44802 0
0.759747 0.448096 0
0.809812 0.449882 0
0.854322 0.453239 0
0.894041 0.45803 0
0.933913 0.463569 0
0.976181 0.469383 0
1 0.475273 0
1 0.481346 0
1 0.487724 0
1 0.494697 0
1 0.502434 0
1 0.510399 0
1 0.518059 0
1 0.525597 0
1 0.533059 0
1 0.540337 0
0 0.482444 0
0 0.491173 0
0 0.49897 0
0 0.505943 0
0.00239567 0.511818 0
0.0440681 0.51667 0
0.0896773 0.520027 0
0.140246 0.521782 0
0.196643 0.521614 0
0.25835 0.519829 0
0.322057 0.517388 0
0.385809 0.514885 0
0.447929 0.513024 0
0.510887 0.511116 0
0.575006 0.509026 0
0.638361 0.507271 0
0.699077 0.506294 0
0.755291 0.50663 0
0.805554 0.508614 0
0.853178 0.512245 0
0.901045 0.516945 0
0.948272 0.522271 0
0.993332 0.528099 0
1 0.53434 0
1 0.541131 0
1 0.548562 0
1 0.556237 0
1 0.563928 0
1 0.571435 0
1 0.578576 0
1 0.585534 0
1 0.592355 0
1 0.598947 0
0 0.541299 0
0 0.548394 0
0 0.555138 0
0 0.561471 0
0.0150454 0.567071 0
0.0534829 0.571725 0
0.0955825 0.575082 0
0.142367 0.576944 0
0.194934 0.577356 0
0.253391 0.576501 0
0.316228 0.574685 0
0.380362 0.572641 0
0.442817 0.57116 0
0.506065 0.569543 0
0.570413 0.567712 0
0.633921 0.566125 0
0.694743 0.56527 0
0.751797 0.566217 0
0.806439 0.56936 0
0.859266 0.573617 0
0.909331 0.578454 0
0.95494 0.58378 0
0.994293 0.589578 0
1 0.59585 0
1 0.602579 0
1 0.609628 0
1 0.616785 0
1 0.62388 0
1 0.630732 0
1 0.637156 0
1 0.64332 0
1 0.649302 0
1 0.654978 0
0 0.59559 0
0 0.60235 0
0 0.608927 0
0 0.615106 0
0.0214084 0.620676 0
0.0565957 0.625696 0
0.0957504 0.629938 0
0.139895 0.633143 0
0.191257 0.634592 0
0.249928 0.634165 0
0.313008 0.632639 0
0.37731 0.630838 0
0.439841 0.629511 0
0.503151 0.628016 0
0.567498 0.626215 0
0.63061 0.625071 0
0.690852 0.626642 0
0.749844 0.629602 0
0.806424 0.633188 0
0.859068 0.636896 0
0.905791 0.640696 0
0.94551 0.644846 0
0.980621 0.649912 0
1 0.655604 0
1 0.661738 0
1 0.668116 0
1 0.67454 0
1 0.680827 0
1 0.686824 0
1 0.692287 0
1 0.69749 0
1 0.702434 0
1 0.707088 0
0 0.647334 0
0 0.654078 0
0 0.661006 0
0 0.667948 0
0.0246891 0.674769 0
0.0576333 0.681178 0
0.095552 0.686397 0
0.139712 0.689982 0
0.191302 0.691646 0
0.25008 0.691341 0
0.313191 0.689906 0
0.377432 0.688136 0
0.439841 0.686793 0
0.502876 0.685267 0
0.562951 0.686305 0
0.622049 0.689281 0
0.682689 0.69221 0
0.743297 0.69427 0
0.800046 0.695567 0
0.850385 0.696635 0
0.89456 0.69894 0
0.933425 0.702403 0
0.967803 0.706798 0
0.998856 0.711742 0
1 0.717067 0
1 0.722545 0
1 0.728023 0
1 0.733318 0
1 0.738277 0
1 0.742748 0
1 0.746944 0
1 0.750957 0
1 0.754696 0
0 0.697902 0
0 0.705806 0
0 0.714 0
0 0.72221 0
0.02916 0.729824 0
0.0621195 0.736492 0
0.100175 0.741833 0
0.144411 0.745464 0
0.196002 0.747097 0
0.254734 0.746746 0
0.317647 0.745174 0
0.381598 0.743221 0
0.439017 0.744121 0
0.491798 0.748425 0
0.54757 0.752758 0
0.608606 0.755138 0
0.673289 0.754772 0
0.73669 0.75227 0
0.793164 0.750896 0
0.84268 0.751125 0
0.886 0.752667 0
0.923964 0.755322 0
0.957382 0.758801 0
0.987411 0.762783 0
1 0.767102 0
1 0.771572 0
1 0.776059 0
1 0.780392 0
1 0.784405 0
1 0.787945 0
1 0.791287 0
1 0.794415 0
1 0.797314 0
0 0.74963 0
0 0.758556 0
0 0.767285 0
0.00949111 0.775601 0
0.0388952 0.78323 0
0.0718547 0.789883 0
0.109819 0.795117 0
0.153933 0.798581 0
0.205325 0.799969 0
0.263752 0.799329 0
0.32256 0.799161 0
0.372045 0.80383 0
0.418433 0.810422 0
0.470802 0.815229 0
0.532784 0.815991 0
0.60238 0.81207 0
0.671229 0.806973 0
0.734264 0.803128 0
0.789807 0.800916 0
0.8383 0.800229 0
0.880552 0.800809 0
0.917418 0.802441 0
0.949752 0.804929 0
0.978759 0.80795 0
1 0.811307 0
1 0.814862 0
1 0.818433 0
1 0.821897 0
1 0.82504 0
1 0.827756 0
1 0.830274 0
1 0.832624 0
1 0.834745 0
0 0.801221 0
0 0.810132 0
0 0.818814 0
0.0236057 0.827008 0
0.052842 0.83447 0
0.0855879 0.840864 0
0.123278 0.845762 0
0.167071 0.848859 0
0.21532 0.85098 0
0.257481 0.856901 0
0.298268 0.864652 0
0.343557 0.871275 0
0.395972 0.874693 0
0.460487 0.872541 0
0.533135 0.866026 0
0.604578 0.859434 0
0.672374 0.853422 0
0.73431 0.848585 0
0.788724 0.84538 0
0.836118 0.843702 0
0.877317 0.84332 0
0.913176 0.844022 0
0.944533 0.845609 0
0.97258 0.84773 0
0.998047 0.850217 0
1 0.852934 0
1 0.85568 0
1 0.85832 0
1 0.8607 0
1 0.862638 0
1 0.864424 0
1 0.866056 0
1 0.867491 0
0 0.850935 0
0 0.859648 0
0.0143435 0.86807 0
0.0408484 0.875929 0
0.0697032 0.882979 0
0.102007 0.888884 0
0.135439 0.894835 0
0.162005 0.904356 0
0.188342 0.91519 0
0.221897 0.924514 0
0.26746 0.929808 0
0.326696 0.92929 0
0.395422 0.923583 0
0.46627 0.91664 0
0.537972 0.909041 0
0.608316 0.901457 0
0.675013 0.894453 0
0.735882 0.888685 0
0.789258 0.884565 0
0.83566 0.881987 0
0.875898 0.880735 0
0.910811 0.880598 0
0.941268 0.881331 0
0.968444 0.882643 0
0.993072 0.884352 0
1 0.88629 0
1 0.888289 0
1 0.890196 0
1 0.891875 0
1 0.893126 0
1 0.89427 0
1 0.895262 0
1 0.896071 0
0 0.898329 0
0.00949111 0.906645 0
0.0340276 0.91458 0
0.0599374 0.921935 0
0.0797894 0.931762 0
0.0923323 0.944823 0
0.103746 0.958953 0
0.120439 0.971862 0
0.149493 0.980926 0
0.19675 0.983551 0
0.262959 0.978469 0
0.33434 0.970855 0
0.40325 0.963531 0
0.473091 0.955596 0
0.543755 0.947051 0
0.613092 0.938552 0
0.678813 0.930678 0
0.738689 0.924041 0
0.791104 0.919081 0
0.836561 0.915694 0
0.875914 0.913634 0
0.909972 0.912718 0
0.93959 0.912688 0
0.965972 0.913268 0
0.989837 0.91426 0
1 0.915496 0
1 0.916823 0
1 0.91809 0
1 0.919127 0
1 0.919783 0
1 0.920317 0
1 0.92076 0
1 0.921065 0
0.00735485 0.942992 0
0.0271305 0.952056 0
0.0361639 0.965194 0
0.0390021 0.980758 0
0.040528 0.996963 0
0.0457313 1 0
0.0600595 1 0
0.0890822 1 0
0.138613 1 0
0.203525 1 0
0.273075 1 0
0.343435 1 0
0.411353 0.998856 0
0.480262 0.990021 0
0.550027 0.980621 0
0.618433 0.971283 0
0.683223 0.962585 0
0.742184 0.955169 0
0.793698 0.949447 0
0.838315 0.945312 0
0.87686 0.94255 0
0.910124 0.940917 0
0.938994 0.940215 0
0.964675 0.940124 0
0.987854 0.940475 0
1 0.9411 0
1 0.941817 0
1 0.942504 0
1 0.942992 0
1 0.943145 0
1 0.943236 0
1 0.943252 0
1 0.94316 0
0 0.997574 0
0 1 0
0 1 0
0 1 0
0 1 0
0.0134127 1 0
0.0466621 1 0
0.0939498 1 0
0.14992 1 0
0.213962 1 0
0.282597 1 0
0.352056 1 0
0.419059 1 0
0.487114 1 0
0.556039 1 0
0.623606 1 0
0.687541 0.99086 0
0.745663 0.982727 0
0.796384 0.976333 0
0.840223 0.971527 0
0.878019 0.968109 0
0.910582 0.965866 0
0.938796 0.964553 0
0.963836 0.963882 0
0.986404 0.963668 0
1 0.963745 0
1 0.963989 0
1 0.964233 0
1 0.964309 0
1 0.964065 0
1 0.96379 0
1 0.963455 0
1 0.963027 0
0 1 0
0 1 0
0 1 0
0 1 0
0 1 0
0.0192111 1 0
0.0584268 1 0
0.104952 1 0
0.160159 1 0
0.223438 1 0
0.291249 1 0
0.359854 1 0
0.426032 1 0
0.493309 1 0
0.561471 1 0
0.62826 1 0
0.691463 1 0
0.748837 1 0
0.79881 1 0
0.841932 0.994827 0
0.879072 0.990829 0
0.911009 0.988037 0
0.938659 0.986221 0
0.96318 0.985077 0
0.98529 0.984421 0
1 0.984115 0
1 0.983978 0
1 0.983856 0
1 0.983581 0
1 0.983017 0
1 0.982422 0
1 0.981796 0
1 0.981094 0
0 1 0
0 1 0
0 1 0
0 1 0
0 1 0
0.0302739 1 0
0.0687572 1 0
0.11458 1 0
0.1691 1 0
0.231662 1 0
0.298756 1 0
0.366583 1 0
0.432013 1 0
0.498619 1 0
0.566094 1 0
0.632212 1 0
0.694697 1 0
0.7514 1 0
0.800717 1 0
0.843259 1 0
0.879866 1 0
0.911315 1 0
0.938506 1 0
0.962615 1 0
0.984344 1 0
1 1 0
1 1 0
1 1 0
1 1 0
1 1 0
1 0.999557 0
1 0.998688 0
1 0.997772 0
0 1 0
0 1 0
0 1 0
0 1 0
0.00770581 1 0
0.0395056 1 0
0.0773327 1 0
0.122515 1 0
0.176425 1 0
