site/assets/luts/freshluts--0000765-correctionsony-footage.cube
# LUTr-Schema-Version: 2
# LUTr-ID: freshluts--0000765-correctionsony-footage
# LUTr-Title: correction(sony footage)
# LUTr-Collection: Fresh LUTs
# LUTr-Collection-ID: freshluts-community
# LUTr-Source: https://freshluts.com
# LUTr-Retrieved: 2026-07-27
# LUTr-Source-File: submissions-raw/freshluts/cubes/765__correct_4.D6_C03_S001_S001_T023.cube
# LUTr-Source-Format: CUBE
# LUTr-Source-SHA256: a56da937a58d432e4bc269b9f7a39d8c0f93cf817f2b471e9c3ecd417146c86b
# LUTr-License: CC0-1.0
# LUTr-License-URL: https://freshluts.com/termsandconditions
# LUTr-License-Basis: site-terms
# LUTr-Transform-Class: creative-look
# LUTr-Tags: creative, freshluts, community, cube, sony-s-log1, correction
# LUTr-Input-Color-Space:
# LUTr-Input-Gamut: sony-s-gamut
# LUTr-Input-Transfer: sony-s-log1
# LUTr-Output-Color-Space: srgb
# LUTr-Output-Gamut: rec709
# LUTr-Output-Transfer: srgb
# LUTr-Color-Space-Confidence: camera-profile-input-required
# LUTr-Domain-Normalized: true
# LUTr-Shaper: none
# LUTr-Original-Grid: 33x33x33
# LUTr-Conversion-Grid: 33x33x33
# LUTr-Conversion-Interpolation: none
# LUTr-Conversion-Method: Metadata normalization; numeric LUT samples preserved
# LUTr-Conversion-Tool: LUTr scripts/convert-all-to-cube.mjs 2.0.0
# LUTr-Conversion-Date: 2026-07-28
# LUTr-Asset-URL: https://freshluts.com/luts/765
# LUTr-Author: lvannoeun@gmail.com
# LUTr-Author-URL: https://freshluts.com/users/57563
# LUTr-Attribution: lvannoeun@gmail.com via Fresh LUTs
# LUTr-Source-Labels: gamma=Sony S-Log; color=None; key=Neutral; style=Correction
# LUTr-Note: Preserve this metadata and the upstream license notices when redistributing.
TITLE "correction(sony footage)"
LUT_3D_SIZE 5
DOMAIN_MIN 0 0 0
DOMAIN_MAX 1 1 1
0 0 0
0.222629 0 0
0.912337 0 0
1 0 0
1 0 0
0 0.24947 0
0.242176 0.250233 0
0.931136 0.183215 0
1 0.153796 0
1 0.153872 0
0 0.774868 0
0.0276493 0.757504 0
0.655283 0.674723 0
1 0.567559 0
1 0.527733 0
0 1 0
0 1 0
0.381888 1 0
0.923247 0.939071 0
1 0.878264 0
0 1 0
0 1 0
0.216907 1 0
0.747555 1 0
1 1 0
0 0 0.221973
0.238102 0 0.258442
0.90277 0 0.20737
1 0 0.164279
1 0 0.178012
0 0.244205 0.257298
0.236545 0.246693 0.261448
0.893812 0.192233 0.209628
1 0.146899 0.166659
1 0.141772 0.162997
0 0.76524 0.059678
0.0128328 0.744457 0.0412909
0.637675 0.659434 0
1 0.555596 0
1 0.529824 0
0 1 0
0 1 0
0.356252 1 0
0.895796 0.913878 0
1 0.848142 0
0 1 0
0 1 0
0.186496 1 0
0.71667 1 0
1 1 0
0 0 0.940993
0.212024 0 0.977554
0.869703 0 0.919219
1 0 0.876478
1 0 0.890394
0 0.216632 0.968185
0.207279 0.220478 0.972091
0.862898 0.164752 0.918425
1 0.114885 0.870466
1 0.106172 0.862593
0 0.731502 0.762722
0 0.708202 0.741146
0.595834 0.620783 0.656413
1 0.541741 0.579767
1 0.508827 0.548379
0 1 0.524254
0 1 0.479835
0.306477 0.966522 0.372412
0.844312 0.865629 0.274052
1 0.794812 0.266331
0 1 0.386145
0 1 0.325063
0.132586 1 0.204746
0.662593 1 0.096437
0.993393 1 0.0408789
0 0 1
0.191638 0 1
0.846326 0 1
1 0 1
1 0 1
0 0.198917 1
0.187472 0.203342 1
0.839994 0.144961 1
1 0.0903334 1
1 0.0788128 1
0 0.705531 1
0 0.680034 1
0.562539 0.590249 1
1 0.508644 1
1 0.473304 1
0 1 1
0 1 1
0.265538 0.928466 0.958877
0.80209 0.826001 0.858763
1 0.773022 0.807248
0 1 0.970336
0 1 0.908019
0.0880598 1 0.78703
0.618173 1 0.678355
0.949187 0.971893 0.622721
0 0 1
0.189548 0 1
0.843442 0 1
1 0 1
1 0 1
0 0.20148 1
0.187579 0.205249 1
0.835782 0.143069 1
1 0.0842145 1
1 0.0703899 1
0 0.69839 1
0 0.670604 1
0.548928 0.578561 1
1 0.494469 1
1 0.456657 1
0 1 1
0 1 1
0.244343 0.909331 1
0.779736 0.805371 1
1 0.751461 1
0 1 1
0 1 1
0.0632334 1 1
0.593912 1 1
0.925444 0.949783 0.984771
