site/assets/luts/freshluts--0002162-picturefx-vintage-kodachrome-1936-fg.cube
# LUTr-Schema-Version: 2
# LUTr-ID: freshluts--0002162-picturefx-vintage-kodachrome-1936-fg
# LUTr-Title: PictureFX Vintage Kodachrome 1936 FG
# LUTr-Collection: Fresh LUTs
# LUTr-Collection-ID: freshluts-community
# LUTr-Source: https://freshluts.com
# LUTr-Retrieved: 2026-07-27
# LUTr-Source-File: submissions-raw/freshluts/cubes/2162__PictureFX_Vintage_Kodachrome_1936_FG_125.cube
# LUTr-Source-Format: CUBE
# LUTr-Source-SHA256: f0a3073420b29566682744c6083b493112a20ca202ff01702b3ec93313bab49b
# LUTr-License: CC0-1.0
# LUTr-License-URL: https://freshluts.com/termsandconditions
# LUTr-License-Basis: site-terms
# LUTr-Transform-Class: creative-look
# LUTr-Tags: creative, freshluts, community, cube, film-emulation, warm, vintage, rec709, assumed-input
# LUTr-Input-Color-Space: rec709
# LUTr-Input-Gamut: rec709
# LUTr-Input-Transfer: rec709
# LUTr-Output-Color-Space: srgb
# LUTr-Output-Gamut: rec709
# LUTr-Output-Transfer: srgb
# LUTr-Color-Space-Confidence: assumed-display-referred
# LUTr-Domain-Normalized: true
# LUTr-Shaper: none
# LUTr-Original-Grid: 25x25x25
# LUTr-Conversion-Grid: 25x25x25
# LUTr-Conversion-Interpolation: none
# LUTr-Conversion-Method: Metadata normalization; numeric LUT samples preserved
# LUTr-Conversion-Tool: LUTr scripts/convert-all-to-cube.mjs 2.0.0
# LUTr-Conversion-Date: 2026-07-28
# LUTr-Asset-URL: https://freshluts.com/luts/2162
# LUTr-Author: MarcR.
# LUTr-Author-URL: https://freshluts.com/users/86490
# LUTr-Attribution: MarcR. via Fresh LUTs
# LUTr-Source-Labels: gamma=Other; color=Warm; key=Neutral; style=Film emulation; LUTr assumption=input Rec.709 per repository policy
# LUTr-Conversion-Warning: Input Rec.709 is a LUTr catalog assumption requested for this otherwise unspecified Fresh LUT; it is not verified by the upstream asset.
# LUTr-Note: Preserve this metadata and the upstream license notices when redistributing.
# LUTr-Upstream-Comment: Generated with IWLTBAP LUT Generator
# LUTr-Upstream-Comment: Website: http://luts.iwltbap.com
# LUTr-Upstream-Comment: LUT size
# LUTr-Upstream-Comment: LUT data points
TITLE "PictureFX Vintage Kodachrome 1936 FG"
LUT_3D_SIZE 9
DOMAIN_MIN 0 0 0
DOMAIN_MAX 1 1 1
0 0 0
0 0 0
0 0 0
0.066667 0 0
0.266667 0 0
0.584314 0 0
0.847059 0 0
1 0 0
1 0 0
0 0 0
0 0 0
0.003922 0 0
0.078431 0 0
0.286275 0 0
0.6 0 0
0.854902 0 0
1 0 0
1 0 0
0 0.015686 0
0 0.015686 0
0.015686 0.019608 0
0.101961 0.039216 0
0.32549 0.094118 0
0.623529 0.07451 0
0.866667 0 0
1 0 0
1 0 0
0 0.156863 0
0 0.160784 0
0.031373 0.168627 0
0.168627 0.180392 0
0.380392 0.247059 0
0.654902 0.290196 0
0.878431 0.262745 0
1 0.215686 0
1 0.172549 0
0 0.458824 0
0 0.462745 0
0 0.466667 0
0.211765 0.47451 0
0.443137 0.478431 0
0.670588 0.490196 0
0.882353 0.490196 0
1 0.482353 0
1 0.47451 0
0 0.705882 0
0 0.705882 0
0 0.705882 0
0 0.709804 0
0.411765 0.705882 0
0.662745 0.701961 0
0.870588 0.698039 0
1 0.690196 0
1 0.678431 0
0 0.894118 0
0 0.894118 0
0 0.894118 0
0 0.890196 0
0.360784 0.886275 0
0.639216 0.878431 0
0.847059 0.870588 0
1 0.862745 0
1 0.843137 0
0 1 0
0 1 0
0 1 0
0 1 0
0.345098 1 0
0.619608 1 0
0.819608 0.996078 0
0.980392 0.984314 0
1 0.964706 0
0 1 0
0 1 0
0 1 0
0 1 0
0.411765 1 0
0.623529 1 0
0.788235 1 0
0.92549 1 0
1 1 0
0 0 0
0 0 0
0.003922 0 0
0.07451 0 0
0.282353 0 0
0.6 0 0
0.858824 0 0
1 0 0
1 0 0
0 0 0
0 0 0
0.007843 0 0
0.086275 0 0
0.298039 0 0
0.611765 0 0
0.862745 0 0
1 0 0
1 0 0
0 0.015686 0
0 0.015686 0
0.015686 0.019608 0
0.109804 0.035294 0
0.337255 0.070588 0
0.635294 0 0
0.87451 0 0
1 0 0
1 0 0
0 0.160784 0
0 0.164706 0
0.007843 0.172549 0
0.168627 0.184314 0
0.392157 0.247059 0
0.662745 0.278431 0
0.886275 0.243137 0
1 0.188235 0
1 0.133333 0
0 0.462745 0
0 0.462745 0
0 0.470588 0
0.2 0.47451 0
0.447059 0.478431 0
0.678431 0.486275 0
0.886275 0.486275 0
1 0.47451 0
1 0.466667 0
0 0.709804 0
0 0.709804 0
0 0.709804 0
0 0.709804 0
0.407843 0.705882 0
0.666667 0.701961 0
0.87451 0.698039 0
1 0.686275 0
1 0.67451 0
0 0.894118 0
0 0.894118 0
0 0.894118 0
0 0.890196 0
0.356863 0.886275 0
0.639216 0.878431 0
0.85098 0.870588 0
1 0.858824 0
1 0.839216 0
0 1 0
0 1 0
0 1 0
0 1 0
0.345098 1 0
0.619608 1 0
0.819608 0.996078 0
0.980392 0.984314 0
1 0.964706 0
0 1 0
0 1 0
0 1 0
0 1 0
0.423529 1 0
0.631373 1 0
0.792157 1 0
0.929412 1 0
1 1 0
0 0 0.015686
0 0 0.015686
0.015686 0 0.015686
0.086275 0 0.035294
0.301961 0 0.090196
0.619608 0 0.090196
0.87451 0 0
1 0 0
1 0 0
0 0 0.019608
0 0 0.019608
0.015686 0 0.019608
0.101961 0 0.035294
0.32549 0 0.070588
0.639216 0 0
0.882353 0 0
1 0 0
1 0 0
0 0.019608 0.019608
0 0.019608 0.019608
0.015686 0.019608 0.019608
0.137255 0.007843 0.015686
0.376471 0 0
0.666667 0 0
0.894118 0 0
1 0 0
1 0 0
0 0.164706 0.023529
0 0.168627 0.003922
0 0.176471 0
0.176471 0.184314 0
0.423529 0.231373 0
0.686275 0.231373 0
0.905882 0.168627 0
1 0.047059 0
1 0 0
0 0.470588 0
0 0.47451 0
0 0.47451 0
0.14902 0.478431 0
0.454902 0.482353 0
0.694118 0.478431 0
0.901961 0.466667 0
1 0.454902 0
1 0.443137 0
0 0.713725 0
0 0.713725 0
0 0.713725 0
0 0.713725 0
0.4 0.709804 0
0.67451 0.701961 0
0.882353 0.694118 0
1 0.678431 0
1 0.666667 0
0 0.898039 0
0 0.898039 0
0 0.894118 0
0 0.894118 0
0.34902 0.886275 0
0.643137 0.878431 0
0.854902 0.870588 0
1 0.858824 0
1 0.835294 0
0 1 0
0 1 0
0 1 0
0 1 0
0.356863 1 0
0.631373 1 0
0.827451 0.996078 0
0.988235 0.984314 0
1 0.964706 0
0 1 0
0 1 0
0 1 0
0.047059 1 0
0.439216 1 0
0.635294 1 0
0.796078 1 0
0.929412 1 0
1 1 0
0 0 0.160784
0 0 0.160784
0.070588 0 0.164706
0.152941 0 0.168627
0.329412 0 0.231373
0.635294 0 0.317647
0.882353 0 0.309804
1 0 0.258824
1 0 0.152941
0 0 0.168627
0 0 0.168627
0.062745 0 0.168627
0.160784 0 0.172549
0.352941 0 0.239216
0.65098 0 0.309804
0.894118 0 0.290196
1 0 0.223529
1 0 0.109804
0 0.058824 0.180392
0 0.043137 0.184314
0 0.007843 0.184314
0.180392 0 0.188235
0.411765 0 0.247059
0.694118 0 0.266667
0.921569 0 0.219608
1 0 0.145098
1 0 0.090196
0 0.188235 0.203922
0 0.188235 0.203922
0 0.192157 0.207843
0.176471 0.188235 0.207843
0.47451 0.156863 0.196078
0.72549 0.054902 0.176471
0.933333 0 0.145098
1 0 0.098039
1 0 0.035294
0 0.47451 0.25098
0 0.478431 0.235294
0 0.486275 0.192157
0 0.490196 0.14902
0.462745 0.482353 0.121569
0.717647 0.462745 0.090196
0.921569 0.443137 0.039216
1 0.427451 0
1 0.419608 0
0 0.717647 0.054902
0 0.717647 0.039216
0 0.717647 0.027451
0 0.717647 0.007843
0.392157 0.709804 0
0.682353 0.701961 0
0.894118 0.690196 0
1 0.67451 0
1 0.662745 0
0 0.898039 0
0 0.898039 0
0 0.898039 0
0 0.894118 0
0.34902 0.886275 0
0.647059 0.878431 0
0.858824 0.870588 0
1 0.858824 0
1 0.835294 0
0 1 0.062745
0 1 0.062745
0 1 0.058824
0 1 0.058824
0.368627 1 0.058824
0.631373 1 0.058824
0.823529 0.992157 0.062745
0.980392 0.984314 0.07451
1 0.960784 0.145098
0 1 0.290196
0 1 0.290196
0 1 0.294118
0.145098 1 0.294118
0.45098 1 0.298039
0.635294 1 0.305882
0.788235 1 0.313725
0.917647 1 0.32549
1 1 0.341176
0 0 0.47451
0 0 0.47451
0.098039 0 0.478431
0.27451 0 0.486275
0.435294 0 0.494118
0.65098 0 0.52549
0.886275 0 0.545098
1 0 0.537255
1 0 0.509804
0 0 0.478431
0 0 0.478431
0.043137 0 0.482353
0.266667 0 0.490196
0.443137 0 0.501961
0.662745 0 0.529412
0.898039 0 0.541176
1 0 0.529412
1 0 0.505882
0 0.05098 0.490196
0 0.003922 0.490196
0 0 0.494118
0.247059 0 0.505882
0.462745 0 0.513725
0.698039 0 0.533333
0.921569 0 0.529412
1 0 0.517647
1 0 0.505882
0 0.262745 0.521569
0 0.254902 0.521569
0 0.223529 0.521569
0.101961 0.172549 0.529412
0.478431 0.117647 0.537255
0.72549 0 0.529412
0.929412 0 0.521569
1 0 0.521569
1 0 0.52549
0 0.486275 0.541176
0 0.490196 0.541176
0 0.490196 0.545098
0 0.490196 0.545098
0.45098 0.482353 0.545098
0.709804 0.462745 0.533333
0.909804 0.447059 0.529412
1 0.443137 0.52549
1 0.443137 0.52549
0 0.721569 0.529412
0 0.717647 0.529412
0 0.717647 0.529412
0 0.713725 0.533333
0.380392 0.709804 0.529412
0.670588 0.701961 0.529412
0.878431 0.690196 0.52549
1 0.678431 0.52549
1 0.670588 0.52549
0 0.898039 0.533333
0 0.898039 0.537255
0 0.894118 0.533333
0 0.890196 0.533333
0.333333 0.886275 0.533333
0.631373 0.878431 0.529412
0.843137 0.870588 0.529412
1 0.858824 0.529412
1 0.839216 0.537255
0 1 0.552941
0 1 0.552941
0 1 0.552941
0 1 0.552941
0.34902 1 0.552941
0.615686 1 0.552941
0.807843 0.992157 0.552941
0.964706 0.980392 0.556863
1 0.960784 0.568627
0 1 0.603922
0 1 0.603922
0 1 0.603922
0.196078 1 0.607843
0.458824 1 0.607843
0.635294 1 0.611765
0.780392 1 0.615686
0.901961 1 0.619608
1 1 0.627451
0 0 0.737255
0 0 0.737255
0 0 0.741176
0.247059 0 0.745098
0.458824 0 0.752941
0.670588 0 0.760784
0.886275 0 0.772549
1 0 0.776471
1 0 0.764706
0 0 0.737255
0 0 0.737255
0 0 0.741176
0.227451 0 0.74902
0.458824 0 0.756863
0.678431 0 0.764706
0.894118 0 0.776471
1 0 0.776471
1 0 0.764706
0 0 0.741176
0 0 0.741176
0 0 0.74902
0.172549 0 0.756863
0.458824 0 0.764706
0.694118 0 0.772549
0.913725 0 0.780392
1 0 0.776471
1 0 0.764706
0 0.239216 0.764706
0 0.227451 0.764706
0 0.188235 0.764706
0 0.160784 0.772549
0.439216 0.105882 0.780392
0.705882 0 0.784314
0.917647 0 0.784314
1 0 0.780392
1 0 0.776471
0 0.478431 0.784314
0 0.47451 0.784314
0 0.47451 0.788235
0 0.47451 0.788235
0.415686 0.470588 0.792157
0.690196 0.458824 0.792157
0.894118 0.447059 0.788235
1 0.439216 0.784314
1 0.45098 0.776471
0 0.717647 0.796078
0 0.717647 0.796078
0 0.713725 0.796078
0 0.713725 0.796078
0.337255 0.709804 0.796078
0.65098 0.701961 0.796078
0.862745 0.686275 0.784314
1 0.678431 0.780392
1 0.678431 0.780392
0 0.894118 0.792157
0 0.894118 0.792157
0 0.894118 0.792157
0 0.890196 0.788235
0.27451 0.886275 0.788235
0.607843 0.878431 0.784314
0.823529 0.870588 0.784314
0.988235 0.854902 0.784314
1 0.843137 0.788235
0 1 0.788235
0 1 0.788235
0 1 0.788235
0 1 0.792157
0.329412 1 0.792157
0.6 1 0.792157
0.792157 0.992157 0.796078
0.941176 0.980392 0.796078
1 0.956863 0.803922
0 1 0.807843
0 1 0.811765
0 1 0.819608
0.305882 1 0.823529
0.494118 1 0.823529
0.647059 1 0.827451
0.780392 1 0.831373
0.890196 1 0.831373
0.980392 1 0.839216
0 0 0.937255
0 0 0.937255
0 0 0.941176
0.141176 0 0.945098
0.443137 0 0.952941
0.67451 0 0.960784
0.882353 0 0.968627
1 0 0.976471
1 0 0.964706
0 0 0.921569
0 0 0.933333
0 0 0.941176
0.117647 0 0.945098
0.439216 0 0.952941
0.67451 0 0.960784
0.886275 0 0.972549
1 0 0.976471
1 0 0.964706
0 0 0.913725
0 0 0.92549
0 0 0.945098
0 0 0.952941
0.435294 0 0.960784
0.686275 0 0.968627
0.898039 0 0.976471
1 0 0.980392
1 0 0.968627
0 0.192157 0.952941
0 0.180392 0.952941
0 0.168627 0.956863
0 0.145098 0.964706
0.415686 0.082353 0.968627
0.686275 0 0.976471
0.894118 0 0.980392
1 0 0.984314
1 0 0.972549
0 0.466667 0.976471
0 0.466667 0.976471
0 0.470588 0.976471
0 0.47451 0.980392
0.4 0.466667 0.980392
0.670588 0.454902 0.984314
0.87451 0.447059 0.988235
1 0.443137 0.984314
1 0.458824 0.968627
0 0.705882 0.984314
0 0.705882 0.984314
0 0.705882 0.984314
0 0.701961 0.984314
0.321569 0.694118 0.988235
0.627451 0.690196 0.988235
0.843137 0.682353 0.988235
1 0.678431 0.980392
1 0.686275 0.968627
0 0.890196 0.988235
0 0.890196 0.988235
0 0.886275 0.988235
0 0.886275 0.988235
0.239216 0.878431 0.988235
0.588235 0.87451 0.988235
0.807843 0.866667 0.988235
0.964706 0.854902 0.980392
1 0.854902 0.976471
0 1 0.976471
0 1 0.976471
0 1 0.976471
0 1 0.976471
0.309804 1 0.976471
0.596078 0.996078 0.980392
0.780392 0.988235 0.980392
0.921569 0.980392 0.984314
1 0.960784 0.984314
0 1 0.960784
0 1 0.960784
0 1 0.964706
0.345098 1 0.968627
0.54902 1 0.980392
0.701961 1 0.996078
0.8 1 1
0.886275 1 1
0.956863 1 1
0 0 1
0 0 1
0 0 1
0.247059 0 1
0.447059 0 1
0.670588 0 1
0.858824 0 1
0.976471 0 1
1 0 1
0 0 0.964706
0 0 0.972549
0 0 0.996078
0.235294 0 1
0.447059 0 1
0.670588 0 1
0.866667 0 1
0.988235 0 1
1 0 1
0 0 0.960784
0 0 0.972549
0 0 1
0.196078 0 1
0.435294 0 1
0.678431 0 1
0.878431 0 1
1 0 1
1 0 1
0 0.156863 1
0 0.152941 1
0 0.145098 1
0 0.12549 1
0.419608 0.054902 1
0.67451 0 1
0.87451 0 1
1 0 1
1 0 1
0 0.466667 1
0 0.466667 1
0 0.470588 1
0 0.470588 1
0.411765 0.466667 1
0.658824 0.458824 1
0.85098 0.454902 1
1 0.454902 1
1 0.466667 1
0 0.694118 1
0 0.694118 1
0 0.694118 1
0 0.690196 1
0.360784 0.690196 1
0.623529 0.686275 1
0.819608 0.682353 1
0.976471 0.682353 1
1 0.690196 1
0 0.866667 1
0 0.866667 1
0 0.866667 1
0 0.862745 1
0.321569 0.862745 1
0.6 0.858824 1
0.788235 0.858824 1
0.937255 0.854902 1
1 0.862745 1
0 1 1
0 1 1
0 1 1
0 0.996078 1
0.34902 0.992157 1
0.603922 0.988235 1
0.784314 0.980392 1
0.905882 0.976471 1
0.960784 0.972549 1
0 1 1
0 1 1
0.109804 1 1
0.388235 1 1
0.572549 1 1
0.721569 1 1
0.843137 1 1
0.901961 1 1
0.941176 1 1
0 0 0.996078
0.086275 0 1
0.223529 0 1
0.360784 0 1
0.513725 0 1
0.670588 0 1
0.827451 0 1
0.941176 0 1
1 0 1
0 0 0.996078
0.054902 0 1
0.211765 0 1
0.356863 0 1
0.513725 0 1
0.670588 0 1
0.839216 0 1
0.952941 0 1
1 0 1
0 0 1
0 0 1
0.160784 0 1
0.337255 0 1
0.501961 0 1
0.662745 0 1
0.843137 0 1
0.996078 0 1
1 0 1
0 0.137255 1
0 0.137255 1
0 0.133333 1
0.14902 0.117647 1
0.45098 0.090196 1
0.662745 0.047059 1
0.835294 0.05098 1
0.984314 0.101961 1
1 0.172549 1
0 0.47451 1
0 0.47451 1
0 0.47451 1
0.141176 0.47451 1
0.458824 0.470588 1
0.654902 0.470588 1
0.819608 0.47451 1
0.956863 0.486275 1
1 0.501961 1
0 0.67451 1
0 0.67451 1
0 0.678431 1
0.156863 0.682353 1
0.462745 0.690196 1
0.643137 0.690196 1
0.796078 0.694118 1
0.92549 0.698039 1
1 0.709804 1
0 0.831373 1
0 0.831373 1
0 0.831373 1
0.2 0.835294 1
0.482353 0.839216 1
0.666667 0.85098 1
0.796078 0.858824 1
0.898039 0.862745 1
0.980392 0.870588 1
0 0.952941 1
0 0.952941 1
0 0.952941 1
0.333333 0.952941 1
0.537255 0.952941 1
0.694118 0.956863 1
0.823529 0.964706 1
0.901961 0.976471 1
0.945098 0.976471 1
0.184314 1 1
0.254902 1 1
0.372549 1 1
0.505882 1 1
0.639216 1 1
0.764706 1 1
0.858824 1 1
0.909804 1 1
0.937255 1 1
