site/assets/luts/freshluts--0000638-golden-time.cube
# LUTr-Schema-Version: 2
# LUTr-ID: freshluts--0000638-golden-time
# LUTr-Title: Golden Time
# LUTr-Collection: Fresh LUTs
# LUTr-Collection-ID: freshluts-community
# LUTr-Source: https://freshluts.com
# LUTr-Retrieved: 2026-07-27
# LUTr-Source-File: submissions-raw/freshluts/cubes/638__yangabuz_8.A040_02111302_S.cube
# LUTr-Source-Format: CUBE
# LUTr-Source-SHA256: 9d64783621633903aa35dd8d186a3f8698e2609f0cbe2de84484b682ab3f53e6
# LUTr-License: CC0-1.0
# LUTr-License-URL: https://freshluts.com/termsandconditions
# LUTr-License-Basis: site-terms
# LUTr-Transform-Class: creative-look
# LUTr-Tags: creative, freshluts, community, cube, vintage, warm, bmd-film-4k
# LUTr-Input-Color-Space:
# LUTr-Input-Gamut: bmd-film-gamut
# LUTr-Input-Transfer: bmd-film-4k
# LUTr-Output-Color-Space: srgb
# LUTr-Output-Gamut: rec709
# LUTr-Output-Transfer: srgb
# LUTr-Color-Space-Confidence: camera-profile-input-required
# LUTr-Domain-Normalized: true
# LUTr-Shaper: none
# LUTr-Original-Grid: 33x33x33
# LUTr-Conversion-Grid: 33x33x33
# LUTr-Conversion-Interpolation: none
# LUTr-Conversion-Method: Metadata normalization; numeric LUT samples preserved
# LUTr-Conversion-Tool: LUTr scripts/convert-all-to-cube.mjs 2.0.0
# LUTr-Conversion-Date: 2026-07-28
# LUTr-Asset-URL: https://freshluts.com/luts/638
# LUTr-Author: berat
# LUTr-Author-URL: https://freshluts.com/users/10185
# LUTr-Attribution: berat via Fresh LUTs
# LUTr-Source-Labels: gamma=Blackmagic BMD Film 4K; color=Warm; key=Neutral; style=Vintage
# LUTr-Note: Preserve this metadata and the upstream license notices when redistributing.
TITLE "Golden Time"
LUT_3D_SIZE 33
DOMAIN_MIN 0 0 0
DOMAIN_MAX 1 1 1
0 0 0
0.0103456 0 0
0.0205234 0 0
0.0306096 0.000244144 0.000244144
0.0408179 0.000335698 0.000335698
0.051545 0.000259403 0.000259403
0.0632639 0 0
0.0767376 0 0
0.0917983 0 0
0.107424 0 0
0.12314 0 0
0.138994 0 0
0.155077 0 0
0.171221 0 0
0.187518 0 0
0.203983 0 0
0.220523 0 0
0.237171 0 0
0.25391 0 0
0.270771 0 0
0.287938 0 0
0.305028 0 0
0.322179 0 0
0.339376 0 0
0.356664 0 0
0.374105 0 0
0.391623 0 0
0.409171 0 0
0.426764 0 0
0.444343 0 0
0.462058 0 0
0.479942 0 0
0.497765 0 0
0 0.0104524 0
0.0104524 0.0104524 0
0.0206455 0.0105898 0.000106813
0.0305333 0.0106508 0.000167849
0.0406043 0.010605 0.000137331
0.0512398 0.0104219 0
0.0628977 0.00994888 0
0.0764172 0.0090486 0
0.0914321 0.00762951 0
0.106966 0.00607309 0
0.122652 0.00447089 0
0.138506 0.00282292 0
0.154635 0.00115969 0
0.170901 0 0
0.187228 0 0
0.203677 0 0
0.220279 0 0
0.237034 0 0
0.253956 0 0
0.271015 0 0
0.288212 0 0
0.305425 0 0
0.322805 0 0
0.340291 0 0
0.35787 0 0
0.375509 0 0
0.393256 0 0
0.4112 0 0
0.429267 0 0
0.447257 0 0
0.465324 0 0
0.483406 0 0
0.501518 0 0
0.000213626 0.0207523 0.000213626
0.0105898 0.0206455 0.000106813
0.0206149 0.0206149 0.0000762951
0.030457 0.0206302 0.0000915541
0.0404974 0.0205692 0.000030518
0.0510872 0.0203403 0
0.0628061 0.019913 0
0.0762188 0.0189212 0
0.091249 0.0175174 0
0.106828 0.0159915 0
0.12256 0.014435 0
0.138476 0.0128634 0
0.154726 0.0113069 0
0.170993 0.00970474 0
0.187442 0.00813306 0
0.204044 0.00656138 0
0.220768 0.00497444 0
0.237675 0.00341802 0
0.254795 0.00199893 0
0.272053 0.000579843 0
0.289525 0 0
0.306966 0 0
0.324544 0 0
0.342443 0 0
0.360418 0 0
0.378485 0 0
0.396582 0 0
0.414771 0 0
0.433158 0 0
0.451575 0 0
0.469902 0 0
0.488182 0 0
0.506401 0 0
0.00030518 0.0306706 0.00030518
0.0106355 0.0305333 0.00015259
0.0206302 0.030457 0.0000915541
0.0304417 0.0304417 0.0000762951
0.0404822 0.0303655 0
0.0511788 0.0302434 0
0.0628519 0.0297856 0
0.0763256 0.0288548 0
0.0914015 0.0274968 0
0.107027 0.0260319 0
0.122942 0.0246433 0
0.138994 0.023209 0
0.155322 0.0217288 0
0.17171 0.0202335 0
0.188281 0.0187839 0
0.205066 0.0174105 0
0.222171 0.0161898 0
0.239307 0.0148928 0
0.25658 0.0135958 0
0.274052 0.0124208 0
0.29189 0.011368 0
0.309834 0.0104982 0
0.327947 0.00975052 0
0.346029 0.00892653 0
0.364248 0.00820935 0
0.382605 0.00762951 0
0.401068 0.00715648 0
0.419638 0.00675975 0
0.438239 0.00637827 0
0.456657 0.00598154 0
0.475029 0.00561532 0
0.493339 0.00526436 0
0.511666 0.00494392 0
0.0000762951 0.0405585 0.0000762951
0.0104219 0.0404212 0
0.0204471 0.0403906 0
0.0303655 0.0404669 0
0.0404822 0.0404822 0
0.051133 0.0403296 0
0.0628824 0.0399329 0
0.0764782 0.0391089 0
0.0917067 0.0379034 0
0.10753 0.0366522 0
0.123491 0.0353094 0
0.139696 0.0340124 0
0.156237 0.0327459 0
0.172915 0.0315557 0
0.189715 0.0303502 0
0.206821 0.0292668 0
0.224094 0.0282292 0
0.241642 0.0273289 0
0.259388 0.0265202 0
0.277256 0.0257267 0
0.295369 0.0249638 0
0.313649 0.0244297 0
0.332006 0.0239109 0
0.350454 0.0234531 0
0.368948 0.0230106 0
0.387442 0.0225681 0
0.406088 0.0222934 0
0.424643 0.0218814 0
0.443214 0.0214694 0
0.461646 0.021088 0
0.480049 0.020737 0
0.498451 0.0204776 0
0.517769 0.0202792 0
0 0.0507668 0
0.00985733 0.05066 0
0.0199741 0.050721 0
0.0299535 0.0508736 0
0.040177 0.0509957 0
0.0509804 0.0509804 0
0.0628519 0.0507057 0
0.0765545 0.0500038 0
0.0920577 0.0490578 0
0.108064 0.0479896 0
0.1243 0.0469215 0
0.140703 0.0458381 0
0.157458 0.0448005 0
0.174548 0.044007 0
0.191836 0.0432746 0
0.209293 0.0425574 0
0.226902 0.0418555 0
0.244694 0.0411994 0
0.262715 0.0406653 0
0.281071 0.0403601 0
0.299519 0.0399176 0
0.317906 0.0395056 0
0.33637 0.0390936 0
0.354864 0.0386664 0
0.373404 0.0382849 0
0.392065 0.0380102 0
0.410605 0.0376135 0
0.429175 0.0372168 0
0.447776 0.0368353 0
0.466255 0.0365148 0
0.484733 0.0362402 0
0.503853 0.0360418 0
0.523537 0.0357824 0
0 0.0615854 0
0.00874342 0.0616922 0
0.0189517 0.0618448 0
0.0290227 0.062089 0
0.0393683 0.0623178 0
0.0503853 0.0625162 0
0.0625772 0.0625772 0
0.076585 0.0621805 0
0.092195 0.0613413 0
0.108446 0.0605173 0
0.125048 0.0598154 0
0.141939 0.059205 0
0.159213 0.0586862 0
0.176532 0.0581216 0
0.194034 0.0576181 0
0.211795 0.0572061 0
0.22977 0.0568704 0
0.247868 0.0565194 0
0.266209 0.0563058 0
0.284504 0.0559243 0
0.302983 0.0555276 0
0.321416 0.0551614 0
0.33991 0.0547646 0
0.358434 0.0543832 0
0.377127 0.054139 0
0.395697 0.0537728 0
0.414267 0.0534218 0
0.432868 0.0530556 0
0.451484 0.0527047 0
0.470146 0.0525368 0
0.489021 0.0522469 0
0.508858 0.0520027 0
0.528862 0.0517586 0
0 0.0735332 0
0.00636301 0.0737316 0
0.0168307 0.0741283 0
0.0271611 0.0746471 0
0.0377508 0.0751202 0
0.049012 0.0755779 0
0.0614939 0.0759136 0
0.0758831 0.0758831 0
0.0919814 0.0755474 0
0.108598 0.0750896 0
0.12546 0.0746471 0
0.142733 0.0744335 0
0.16025 0.0741436 0
0.177905 0.0739147 0
0.195666 0.0736553 0
0.213565 0.0733806 0
0.231693 0.0731975 0
0.249866 0.0729381 0
0.268101 0.0726177 0
0.286427 0.0722667 0
0.304936 0.0719005 0
0.3234 0.0715496 0
0.342046 0.0713359 0
0.360616 0.070985 0
0.379202 0.070634 0
0.397803 0.0702983 0
0.416403 0.0699626 0
0.435035 0.0696422 0
0.453834 0.0694591 0
0.472526 0.0691691 0
0.493233 0.0689097 0
0.514412 0.0686961 0
0.535683 0.0684825 0
0 0.0867781 0
0.0033875 0.0871901 0
0.0140536 0.0878004 0
0.0247501 0.0886549 0
0.0358892 0.0896925 0
0.0475624 0.0905623 0
0.0603189 0.0911727 0
0.0749523 0.0913863 0
0.09131 0.09131 0
0.108354 0.0912642 0
0.125628 0.091249 0
0.142992 0.0911116 0
0.160601 0.0909285 0
0.178286 0.0907301 0
0.196094 0.0905165 0
0.214115 0.0903792 0
0.232227 0.0901656 0
0.250385 0.0898756 0
0.26865 0.089601 0
0.287022 0.0892958 0
0.305562 0.0889448 0
0.324163 0.0887465 0
0.342733 0.0884413 0
0.361318 0.0881208 0
0.379934 0.0878004 0
0.398856 0.0874952 0
0.418479 0.0871901 0
0.439124 0.0870222 0
0.460151 0.0867323 0
0.481865 0.0864881 0
0.504631 0.0863508 0
0.528893 0.0865187 0
0.555901 0.0871595 0
0 0.101122 0
0.00112917 0.102007 0
0.0122225 0.103059 0
0.0232853 0.104295 0
0.0345769 0.10547 0
0.0465705 0.106645 0
0.059678 0.107622 0
0.0746166 0.108141 0
0.0911879 0.108278 0
0.108324 0.108324 0
0.125566 0.108263 0
0.142962 0.108171 0
0.160601 0.108019 0
0.178317 0.107851 0
0.196292 0.107805 0
0.214267 0.107607 0
0.232349 0.107378 0
0.250538 0.107134 0
0.268833 0.106859 0
0.287312 0.106676 0
0.305943 0.106416 0
0.324468 0.106142 0
0.343175 0.105837 0
0.362829 0.105547 0
0.383062 0.105257 0
0.404288 0.105089 0
0.425818 0.104845 0
0.448814 0.10457 0
0.474739 0.104829 0
0.502556 0.105776 0
0.531792 0.107073 0
0.563058 0.108522 0
0.595865 0.10959 0
0 0.116793 0
0 0.118074 0
0.0113222 0.119448 0
0.0226291 0.120928 0
0.0341802 0.122362 0
0.0462806 0.123659 0
0.0594644 0.124681 0
0.0745556 0.125368 0
0.0911116 0.125505 0
0.108202 0.12549 0
0.12546 0.12546 0
0.142885 0.125399 0
0.160616 0.125322 0
0.178454 0.125277 0
0.196307 0.125124 0
0.214313 0.124941 0
0.232425 0.124743 0
0.25066 0.124529 0
0.269047 0.124376 0
0.287541 0.124193 0
0.306127 0.123903 0
0.326879 0.123644 0
0.347768 0.123384 0
0.370031 0.123125 0
0.3944 0.123262 0
0.420096 0.124147 0
0.448264 0.125536 0
0.478172 0.126925 0
0.50959 0.128206 0
0.542184 0.129381 0
0.577066 0.130663 0
0.61294 0.131731 0
0.645945 0.132708 0
0 0.133715 0
0 0.135073 0
0.0109102 0.136538 0
0.0222629 0.138048 0
0.0338445 0.139528 0
0.0459907 0.140856 0
0.0593118 0.142046 0
0.0743114 0.142626 0
0.0909133 0.142779 0
0.108034 0.142824 0
0.125322 0.142809 0
0.142809 0.142809 0
0.160616 0.142809 0
0.178393 0.142718 0
0.196292 0.142596 0
0.214328 0.142443 0
0.232456 0.142275 0
0.251041 0.142229 0
0.270207 0.142031 0
0.290883 0.141985 0
0.312947 0.141848 0
0.337224 0.14226 0
0.363928 0.14403 0
0.392676 0.14583 0
0.422782 0.147372 0
0.454322 0.148806 0
0.487205 0.150134 0
0.521218 0.151324 0
0.557046 0.152697 0
0.593591 0.154025 0
0.631098 0.155276 0
0.667323 0.156527 0
0.694133 0.158038 0
0 0.150958 0
0 0.152346 0
0.0104067 0.153841 0
0.0217899 0.155383 0
0.0335241 0.157015 0
0.045716 0.158373 0
0.0589456 0.159472 0
0.0739605 0.160082 0
0.0905776 0.160266 0
0.107729 0.160327 0
0.1252 0.160494 0
0.142687 0.160494 0
0.160418 0.160418 0
0.17821 0.160342 0
0.196155 0.16025 0
0.214221 0.160159 0
0.234226 0.160128 0
0.256001 0.161135 0
0.279942 0.162829 0
0.305715 0.164614 0
0.333684 0.166613 0
0.363622 0.168612 0
0.395514 0.170413 0
0.428412 0.171954 0
0.46273 0.173358 0
0.497917 0.174762 0
0.533623 0.176181 0
0.570428 0.177783 0
0.608026 0.179339 0
0.645151 0.181094 0
0.681987 0.182986 0
0.711452 0.184955 0
0.737118 0.186892 0
0 0.168307 0
0 0.169726 0
0.00996414 0.171252 0
0.0215 0.172961 0
0.0331426 0.174502 0
0.0453498 0.175891 0
0.0586099 0.177005 0
0.0736706 0.177646 0
0.0903182 0.177874 0
0.107637 0.178103 0
0.124971 0.178149 0
0.142489 0.178164 0
0.160266 0.178149 0
0.178897 0.179217 0
0.199298 0.180743 0
0.221881 0.183017 0
0.24622 0.185733 0
0.272389 0.188418 0
0.300603 0.190921 0
0.330922 0.193179 0
0.363973 0.195392 0
0.398032 0.197131 0
0.433356 0.198718 0
0.469352 0.200244 0
0.505852 0.201785 0
0.542672 0.203433 0
0.579324 0.205447 0
0.615763 0.207507 0
0.652155 0.209766 0
0.6878 0.21207 0
0.722438 0.214801 0
0.746929 0.217563 0
0.770733 0.220264 0
0 0.185809 0
0 0.187259 0
0.0096437 0.188952 0
0.021088 0.19057 0
0.0327459 0.192126 0
0.0449836 0.193545 0
0.0582589 0.19469 0
0.0734722 0.195468 0
0.0901808 0.195743 0
0.107378 0.196094 0
0.124865 0.197436 0
0.143435 0.200153 0
0.164141 0.203357 0
0.186694 0.20708 0
0.210666 0.210559 0
0.236439 0.213886 0
0.264134 0.217014 0
0.293843 0.219883 0
0.325841 0.222416 0
0.360403 0.224842 0
0.396262 0.226627 0
0.433036 0.228321 0
0.470207 0.229999 0
0.507286 0.231785 0
0.544106 0.233783 0
0.580468 0.236042 0
0.615885 0.238331 0
0.650385 0.241093 0
0.684184 0.244022 0
0.717388 0.247196 0
0.750271 0.250889 0
0.772488 0.254383 0
0.794415 0.257771 0
0 0.20354 0
0 0.205081 0
0.00917067 0.206668 0
0.0206455 0.208453 0
0.0323339 0.210422 0
0.0446021 0.212268 0
0.0580301 0.213947 0
0.0731823 0.216815 0
0.0901808 0.220386 0
0.108675 0.224216 0
0.128588 0.228244 0
0.149798 0.232456 0
0.172534 0.236988 0.000610361
0.196841 0.241215 0.000762951
0.223346 0.245106 0.000442512
0.252079 0.2486 0
0.282856 0.251774 0
0.315526 0.254612 0
0.350835 0.257343 0
0.387366 0.259358 0
0.425193 0.261128 0
0.463157 0.262882 0
0.500603 0.264744 0
0.537667 0.267124 0
0.573129 0.269398 0
0.607523 0.271977 0
0.641001 0.274846 0
0.673976 0.278294 0
0.705989 0.282338 0
0.737392 0.286885 0
0.767712 0.291341 0
0.788434 0.295262 0
0.809003 0.299168 0
0 0.222599 0
0 0.224979 0
0.0087129 0.228656 0
0.0202029 0.232486 0
0.0319219 0.236362 0
0.0443427 0.24097 0
0.0576944 0.24509 0
0.0734264 0.24947 0
0.0918746 0.254444 0
0.111559 0.259602 0.000381476
0.13254 0.264973 0.000686656
0.154833 0.270115 0.000579843
0.178912 0.274937 0.0000457771
0.205478 0.279316 0
0.234653 0.283192 0
0.266133 0.286595 0
0.299855 0.289967 0
0.334691 0.292607 0
0.371298 0.294835 0
0.409125 0.296727 0
0.447623 0.29839 0
0.485573 0.30016 0
0.523079 0.30248 0
0.558831 0.304967 0
0.593194 0.307881 0
0.626352 0.311223 0
0.658274 0.314977 0
0.689601 0.319341 0
0.720165 0.324346 0
0.74992 0.329137 0
0.779126 0.334035 0
0.799756 0.338079 0
0.820279 0.342092 0
0 0.25185 0
0 0.256275 0
0.00822461 0.260975 0
0.0198215 0.266438 0
0.0316472 0.271977 0
0.0439612 0.277241 0
0.0573129 0.282475 0
0.0730755 0.287877 0
0.091371 0.293812 0
0.11194 0.29987 0
0.133852 0.305684 0
0.157336 0.311101 0
0.183413 0.315984 0
0.212314 0.320195 0
0.24387 0.323781 0
0.277913 0.327169 0
0.313054 0.329885 0
0.349233 0.33225 0
0.386694 0.334188 0
0.425086 0.335973 0
0.463828 0.337804 0
0.50222 0.340291 0
0.538796 0.342809 0
0.5738 0.345861 0
0.607065 0.349355 0
0.6392 0.353307 0
0.670756 0.357977 0
0.701534 0.362631 0
0.731777 0.367391 0
0.761532 0.372381 0
0.790173 0.377371 0
0.810773 0.38146 0
0.831449 0.385824 0.000198367
0 0.287861 0
0 0.293477 0
0.00781262 0.299519 0
0.0194553 0.305913 0
0.03122 0.312337 0
0.0435645 0.318547 0
0.0569467 0.324453 0
0.0721599 0.330388 0
0.0895705 0.337224 0
0.110109 0.343236 0
0.133196 0.349065 0
0.158389 0.354299 0
0.186496 0.358831 0
0.217609 0.362875 0
0.251209 0.36611 0
0.28658 0.368719 0
0.322988 0.371084 0
0.360128 0.373404 0
0.398428 0.375494 0
0.437583 0.377905 0
0.476341 0.380118 0
0.513924 0.38262 0
0.549996 0.38555 0
0.584619 0.388907 0
0.617975 0.39266 0
0.650416 0.397116 0
0.681605 0.401526 0
0.712306 0.406271 0
0.742519 0.411215 0
0.772107 0.416175 0
0.800885 0.421134 0.000701915
0.821607 0.425467 0.00361639
0.841947 0.429358 0.0062562
0 0.328801 0
0 0.335576 0
0.0074464 0.34229 0
0.0190127 0.349111 0
0.030808 0.356069 0
0.0431678 0.362783 0
0.0566262 0.369238 0
0.071931 0.375586 0
0.0889448 0.381903 0
0.107927 0.387778 0
0.132479 0.393271 0
0.159594 0.397971 0
0.189654 0.402228 0
0.222538 0.405829 0
0.257771 0.408743 0
0.294667 0.411307 0
0.33225 0.413748 0
0.370123 0.41619 0
0.409033 0.418723 0
0.448051 0.421118 0
0.486763 0.423499 0
0.524361 0.426154 0
0.560555 0.429282 0
0.595163 0.4327 0
0.628809 0.436912 0
0.660853 0.441032 0
0.691905 0.445396 0
0.722377 0.450095 0
0.752316 0.454871 0.0000915541
0.781933 0.460075 0.00344854
0.810941 0.465019 0.00668345
0.831647 0.468818 0.00929274
0.85182 0.472404 0.0117494
0 0.373175 0
0 0.380041 0
0.00689708 0.38706 0
0.0184939 0.394202 0
0.0303197 0.401236 0
0.0427253 0.408118 0
0.05626 0.414694 0
0.0715038 0.4206 0
0.0884871 0.426459 0
0.10753 0.432044 0
0.13402 0.437064 0
0.16347 0.442008 0
0.195346 0.445853 0
0.229816 0.449149 0
0.266377 0.451926 0
0.304128 0.454475 0
0.342321 0.457237 0
0.380606 0.460014 0
0.419394 0.462455 0
0.458351 0.464836 0
0.497139 0.467277 0
0.534768 0.470054 0
0.571145 0.473426 0
0.605798 0.476982 0
0.638926 0.48072 0
0.670741 0.484718 0
0.701503 0.488945 0
0.73167 0.493477 0.00251774
0.761532 0.498344 0.00567636
0.790448 0.502907 0.00869764
0.818967 0.507469 0.0117342
0.840787 0.51104 0.0142061
0.860761 0.514244 0.0164187
0 0.418143 0
0 0.424994 0
0.00648508 0.431922 0
0.0180972 0.438895 0
0.0300908 0.446128 0
0.0424811 0.452613 0
0.0559396 0.45864 0
0.0711833 0.464576 0
0.0890822 0.470375 0
0.112673 0.475715 0
0.141543 0.480812 0
0.172213 0.485161 0
0.205142 0.48893 0
0.240208 0.492256 0
0.277119 0.495201 0
0.31519 0.498039 0
0.353536 0.500893 0
0.391623 0.503532 0
0.430396 0.505989 0
0.469352 0.50837 0
0.50808 0.510765 0
0.545769 0.513649 0
0.581842 0.516793 0
0.616144 0.520073 0.000900282
0.648951 0.523629 0.00228885
0.68043 0.527382 0.00367742
0.710796 0.531289 0.00523384
0.74081 0.53579 0.00816358
0.769863 0.540017 0.0109255
0.798184 0.544091 0.0136721
0.826078 0.548028 0.0163577
0.849088 0.551415 0.0186465
0.869032 0.554452 0.0207828
0 0.462165 0
0 0.468666 0
0.00610361 0.475273 0
0.0178683 0.482383 0
0.0297398 0.489067 0
0.0421607 0.495506 0
0.0556191 0.501488 0
0.0720684 0.507683 0
0.0954452 0.513252 0
0.123552 0.51873 0
0.152773 0.523598 0
0.183734 0.528038 0
0.21677 0.531899 0
0.251942 0.535332 0
0.289357 0.538674 0
0.327306 0.541344 0
0.365347 0.543923 0
0.403403 0.546502 0
0.442039 0.548821 0
0.480995 0.551202 0.00047303
0.519753 0.553674 0.00199893
0.556924 0.556085 0.00340276
0.592538 0.558801 0.00479133
0.626459 0.561761 0.0061799
0.658808 0.56492 0.00753796
0.690028 0.568505 0.00901808
0.719997 0.572183 0.0109865
0.749126 0.575845 0.0134127
0.777539 0.579385 0.0158083
0.805325 0.583124 0.0183261
0.832715 0.586679 0.0207523
0.85655 0.589899 0.0229953
0.876143 0.592203 0.0246128
0 0.504326 0
0 0.511025 0
0.00588998 0.517678 0
0.0175479 0.52433 0
0.0294194 0.530892 0
0.0418555 0.53727 0
0.0587015 0.543877 0
0.0815747 0.550515 0
0.108095 0.556069 0
0.13608 0.561334 0
0.165377 0.566201 0
0.196368 0.570642 0
0.229511 0.574563 0
0.265095 0.578286 0
0.301991 0.581155 0
0.339803 0.583688 0
0.377768 0.58616 0.00105287
0.415549 0.588434 0.00250248
0.454063 0.590646 0.00404364
0.492836 0.592813 0.00563058
0.530953 0.594659 0.00703441
0.567742 0.596689 0.00842298
0.602884 0.598993 0.00979629
0.636271 0.601465 0.0111086
0.668284 0.604364 0.0124971
0.69897 0.607477 0.0142672
0.728313 0.610513 0.0162966
0.756939 0.613733 0.0184634
0.784802 0.616876 0.0205997
0.812009 0.619974 0.0227512
0.839124 0.623377 0.0251011
0.862989 0.626062 0.0269322
0.882353 0.627909 0.0282292
0 0.545785 0
0 0.55227 0
0.00630198 0.558892 0
0.0184634 0.565515 0
0.0316472 0.572183 0
0.0490425 0.579156 0
0.0708782 0.58648 0
0.0949416 0.592737 0
0.121584 0.598352 0
0.149599 0.603494 0
0.179065 0.60853 0
0.210101 0.613031 0
0.24358 0.617212 0.00256352
0.278584 0.620386 0.00451667
0.315251 0.622934 0.00610361
0.352865 0.625208 0.00747692
0.390448 0.627268 0.00874342
0.428275 0.629496 0.010193
0.466239 0.631189 0.0112001
0.504158 0.632502 0.0120546
0.541741 0.63386 0.0128634
0.577966 0.635325 0.0137789
0.612634 0.63711 0.0149538
0.645838 0.63946 0.016495
0.677226 0.641749 0.0179904
0.707256 0.644205 0.0196536
0.736156 0.646937 0.0214542
0.764187 0.649516 0.02327
0.791714 0.652399 0.0252232
0.81857 0.655283 0.0272374
0.844999 0.657984 0.029099
0.868574 0.660166 0.0306249
0.887755 0.661585 0.0316472
0 0.586786 0
0 0.593271 0
0.0120241 0.599863 0
0.0252995 0.606546 0
0.0431373 0.614008 0
0.0634165 0.621439 0
0.0849622 0.628244 0
0.109209 0.634607 0
0.135973 0.640269 0
0.163989 0.645411 0.00285344
0.193683 0.650629 0.00610361
0.224537 0.654887 0.00880446
0.257328 0.658396 0.0111086
0.291981 0.661158 0.0129244
0.328298 0.66331 0.0143282
0.365438 0.665095 0.0154726
0.402975 0.66688 0.0167544
0.439902 0.66836 0.0176852
0.477348 0.669459 0.0183871
0.514763 0.670298 0.0189517
0.551888 0.671183 0.0194858
0.587686 0.67216 0.0201419
0.62211 0.673777 0.02121
0.654536 0.675303 0.0222324
0.68542 0.677104 0.0234379
0.714946 0.679057 0.0247807
0.743389 0.681376 0.0263066
0.771069 0.683696 0.0279393
0.798184 0.686137 0.0296483
0.824491 0.688426 0.0312505
0.850416 0.690761 0.0328679
0.873457 0.692485 0.0341192
0.8925 0.693568 0.0348974
0 0.627375 0
0.0055848 0.63386 0
0.0189975 0.640375 0
0.0382239 0.648066 0
0.0578164 0.655512 0
0.0782025 0.662959 0
0.0999313 0.669871 0.00117494
0.124056 0.67602 0.00523384
0.150561 0.681376 0.00874342
0.178653 0.686519 0.012192
0.20763 0.69099 0.0151522
0.238041 0.694759 0.0177157
0.270359 0.697749 0.0197604
0.304616 0.700099 0.0213321
0.340429 0.701671 0.0224613
0.377508 0.703151 0.0235294
0.414191 0.70428 0.0242618
0.45066 0.705226 0.0249027
0.487602 0.705745 0.0252537
0.524559 0.706096 0.0254826
0.561593 0.706844 0.0260014
0.596872 0.707301 0.0262913
0.630533 0.708171 0.0268559
0.662501 0.709255 0.0276036
0.692973 0.710689 0.0285496
0.722103 0.712337 0.0296941
0.750286 0.714244 0.0310674
0.777462 0.716121 0.0323796
0.803983 0.718029 0.0336919
0.829892 0.719936 0.0350347
0.855436 0.721782 0.0363622
0.877791 0.723293 0.0373999
0.896834 0.724224 0.038117
0 0.667506 0
0.0139925 0.674083 0
0.0339208 0.681849 0
0.0533913 0.689387 0
0.0729992 0.696803 0.000961318
0.0931258 0.703746 0.00590524
0.114504 0.710246 0.010544
0.138506 0.716289 0.0147555
0.164706 0.721248 0.018204
