site/assets/luts/freshluts--0002002-erdem-films-mini-2.cube
# LUTr-Schema-Version: 2
# LUTr-ID: freshluts--0002002-erdem-films-mini-2
# LUTr-Title: ERDEM FILMS MINI 2
# LUTr-Collection: Fresh LUTs
# LUTr-Collection-ID: freshluts-community
# LUTr-Source: https://freshluts.com
# LUTr-Retrieved: 2026-07-27
# LUTr-Source-File: submissions-raw/freshluts/cubes/2002__ERDEMFILMS__9.cube
# LUTr-Source-Format: CUBE
# LUTr-Source-SHA256: 44f1497c11d5f1eee8d719c6aaa9f8fd80b44a6d33e04c804990214d90f9760b
# LUTr-License: CC0-1.0
# LUTr-License-URL: https://freshluts.com/termsandconditions
# LUTr-License-Basis: site-terms
# LUTr-Transform-Class: creative-look
# LUTr-Tags: creative, freshluts, community, cube, cinematic, blockbuster, warm, low-key, dji-d-log
# LUTr-Input-Color-Space: dji-dlog-dgamut
# LUTr-Input-Gamut: dji-d-gamut
# LUTr-Input-Transfer: dji-d-log
# LUTr-Output-Color-Space: srgb
# LUTr-Output-Gamut: rec709
# LUTr-Output-Transfer: srgb
# LUTr-Color-Space-Confidence: inferred-from-source-label
# LUTr-Domain-Normalized: true
# LUTr-Shaper: none
# LUTr-Original-Grid: 33x33x33
# LUTr-Conversion-Grid: 33x33x33
# LUTr-Conversion-Interpolation: none
# LUTr-Conversion-Method: Metadata normalization; numeric LUT samples preserved
# LUTr-Conversion-Tool: LUTr scripts/convert-all-to-cube.mjs 2.0.0
# LUTr-Conversion-Date: 2026-07-28
# LUTr-Asset-URL: https://freshluts.com/luts/2002
# LUTr-Author: Erdem Films
# LUTr-Author-URL: https://freshluts.com/users/288176
# LUTr-Attribution: Erdem Films via Fresh LUTs
# LUTr-Source-Labels: gamma=DJI D-log; color=Warm; key=Low Key; style=Blockbuster
# LUTr-Note: Preserve this metadata and the upstream license notices when redistributing.
TITLE "ERDEM FILMS MINI 2"
LUT_3D_SIZE 5
DOMAIN_MIN 0 0 0
DOMAIN_MAX 1 1 1
0.0271763 0.0263981 0.0278935
0.124453 0.0264591 0.0277867
0.333272 0.00775158 0.00477607
0.587732 0 0
0.762798 0 0
0.0344701 0.122286 0.0280308
0.133928 0.12192 0.0282444
0.365591 0.104067 0.00453193
0.629053 0.0833753 0
0.832273 0.0819257 0
0 0.275364 0
0.116106 0.303914 0.0132601
0.423026 0.331609 0.0203555
0.710018 0.34931 0.033463
0.936065 0.353399 0.0265049
0.0157473 0.55404 0.0099031
0.130617 0.585565 0.0261387
0.461128 0.616678 0.0065156
0.749935 0.638865 0.0166018
0.991104 0.6327 0.00448615
0.0431678 0.773404 0.0324865
0.191638 0.815305 0.0528878
0.506127 0.832578 0.0100404
0.768399 0.843839 0.000595102
1 0.847074 0
0.0272831 0.0258183 0.116136
0.124834 0.0259709 0.11606
0.338323 0.00724804 0.0911269
0.592676 0 0.060502
0.766888 0 0.0451667
0.0345006 0.122332 0.115801
0.134844 0.122606 0.116197
0.375967 0.106493 0.0936904
0.641443 0.0864424 0.0832074
0.85098 0.0899672 0.0911269
0.000244144 0.286015 0.0849012
0.123339 0.318883 0.108705
0.443122 0.351308 0.117494
0.72462 0.364721 0.126513
0.954116 0.364935 0.117525
0.0212711 0.570748 0.103899
0.133669 0.600961 0.121248
0.492042 0.643473 0.119417
0.770245 0.655924 0.108553
1 0.644862 0.105074
0.0529488 0.794827 0.14696
0.179217 0.834302 0.16936
0.520363 0.847822 0.137346
0.782635 0.862135 0.132479
1 0.869413 0.142428
0.0200656 0.0144045 0.287022
0.119234 0.0156558 0.282643
0.337819 0.00108339 0.246174
0.597803 0 0.19321
0.773175 0 0.16875
0.0224155 0.117433 0.286488
0.124834 0.118364 0.285496
0.38233 0.105852 0.258534
0.652873 0.0867781 0.236286
0.86659 0.0888838 0.24976
0.00360113 0.300832 0.259358
0.127626 0.337713 0.298268
0.456077 0.369146 0.312947
0.730282 0.374456 0.314137
0.963485 0.376471 0.324559
0.0189822 0.588815 0.280552
0.136156 0.619898 0.326543
0.507073 0.664973 0.346853
0.776379 0.66807 0.338476
1 0.654841 0.34139
0.0548867 0.812436 0.346197
0.165423 0.846067 0.381628
0.518441 0.859037 0.359228
0.785641 0.880461 0.364813
1 0.890608 0.383871
0.00671397 0.00489815 0.53695
0.104891 0.00469978 0.534035
0.327688 0 0.506065
0.593011 0 0.461112
0.768688 0 0.442191
0.0129854 0.0969253 0.542672
0.114137 0.0985428 0.5449
0.376669 0.0803388 0.528161
0.656077 0.0784619 0.519387
0.875319 0.0889448 0.53962
0.00460822 0.304295 0.543282
0.130495 0.344137 0.583719
0.455924 0.376272 0.603037
0.726299 0.375357 0.602609
0.967895 0.385962 0.611826
0.0120851 0.598428 0.569284
0.140642 0.636805 0.615976
0.499458 0.673732 0.633997
0.770932 0.674952 0.629282
1 0.662562 0.621134
0.0498054 0.819196 0.615152
0.159258 0.849867 0.635264
0.509361 0.867384 0.620249
0.789456 0.899504 0.637629
1 0.907118 0.644678
0.000595102 0 0.722316
0.098146 0 0.721218
0.31368 0 0.704051
0.587274 0 0.675578
0.766934 0 0.664836
0.00758373 0.090547 0.729747
0.109453 0.0932784 0.734478
0.373648 0.079057 0.727398
0.662516 0.0803998 0.73341
0.886152 0.092256 0.75079
0.00892653 0.303151 0.742245
0.135714 0.347478 0.778714
0.456687 0.379263 0.797391
0.728908 0.378378 0.801328
0.975875 0.394018 0.812299
0.0133974 0.602258 0.76466
0.146563 0.643931 0.810636
0.495705 0.674876 0.828046
0.770047 0.676249 0.828916
1 0.664347 0.819577
0.0489357 0.818952 0.797696
0.158236 0.848524 0.816327
0.509178 0.87071 0.810193
0.796414 0.908309 0.837476
1 0.91078 0.83917
