site/assets/luts/freshluts--0000717-free-cotton-candy-sky.cube
# LUTr-Schema-Version: 2
# LUTr-ID: freshluts--0000717-free-cotton-candy-sky
# LUTr-Title: Free cotton candy sky
# LUTr-Collection: Fresh LUTs
# LUTr-Collection-ID: freshluts-community
# LUTr-Source: https://freshluts.com
# LUTr-Retrieved: 2026-07-27
# LUTr-Source-File: submissions-raw/freshluts/cubes/717__cotton_candy_sky_1.C0033.cube
# LUTr-Source-Format: CUBE
# LUTr-Source-SHA256: bec92f1bb0cfa8d069dd29cbd00f723006ec84036b6d098f883a4b8e1c24136d
# LUTr-License: CC0-1.0
# LUTr-License-URL: https://freshluts.com/termsandconditions
# LUTr-License-Basis: site-terms
# LUTr-Transform-Class: creative-look
# LUTr-Tags: creative, freshluts, community, cube, teal, sony-s-log2
# LUTr-Input-Color-Space:
# LUTr-Input-Gamut: sony-s-gamut
# LUTr-Input-Transfer: sony-s-log2
# LUTr-Output-Color-Space: srgb
# LUTr-Output-Gamut: rec709
# LUTr-Output-Transfer: srgb
# LUTr-Color-Space-Confidence: camera-profile-input-required
# LUTr-Domain-Normalized: true
# LUTr-Shaper: none
# LUTr-Original-Grid: 17x17x17
# LUTr-Conversion-Grid: 17x17x17
# LUTr-Conversion-Interpolation: none
# LUTr-Conversion-Method: Metadata normalization; numeric LUT samples preserved
# LUTr-Conversion-Tool: LUTr scripts/convert-all-to-cube.mjs 2.0.0
# LUTr-Conversion-Date: 2026-07-28
# LUTr-Asset-URL: https://freshluts.com/luts/717
# LUTr-Author: Nathanael Francisco
# LUTr-Author-URL: https://freshluts.com/users/66688
# LUTr-Attribution: Nathanael Francisco via Fresh LUTs
# LUTr-Source-Labels: gamma=Sony S-Log 2; color=Teal; key=Neutral; style=Adventure
# LUTr-Note: Preserve this metadata and the upstream license notices when redistributing.
TITLE "Free cotton candy sky"
LUT_3D_SIZE 9
DOMAIN_MIN 0 0 0
DOMAIN_MAX 1 1 1
0 0 0
0 0 0
0.00733959 0 0
0.140581 0 0
0.0416876 0.0181735 0.0174563
0.0548562 0.0202487 0.0184634
0.0889601 0.0206607 0.0166323
0.119646 0.0201724 0.0141604
0.509102 0 0
0 0 0
0 0 0
0.0454566 0.0413214 0.0381781
0.0637064 0.051606 0.0470283
0.0982376 0.054551 0.0447852
0.127718 0.049134 0.0361181
0.183246 0.0436866 0.0247044
0.225086 0.0387427 0.0154116
0.253635 0.0348974 0.00866712
0.0472267 0.0623941 0.0453346
0.0659495 0.0712749 0.0557412
0.0849012 0.0794842 0.066743
0.102571 0.0868391 0.0722362
0.147082 0.0855573 0.0638132
0.180743 0.0732586 0.0447242
0.266117 0.0650492 0.024445
0.390753 0.0651865 0.0071107
0.547906 0.0674449 0
0.0648508 0.105959 0.0513313
0.0862745 0.109239 0.0582589
0.106111 0.11252 0.0619364
0.144579 0.127596 0.0768444
0.238087 0.144656 0.0851759
0.372763 0.149493 0.0669566
0.59324 0.144244 0.0151217
0.799481 0.141283 0
0.995148 0.146334 0
0.060029 0.174792 0.00137331
0.102495 0.209567 0.00161746
0.155657 0.243107 0.00457771
0.22414 0.273976 0.0164187
0.40473 0.280018 0.0664378
0.586664 0.298817 0.0637675
0.848463 0.286793 0.00784314
1 0.291173 0
1 0.308843 0
0.0361334 0.348013 0
0.0988937 0.388098 0
0.171603 0.428763 0
0.259846 0.469993 0
0.499519 0.456687 0
0.72578 0.45832 0.0238956
0.981689 0.47303 0.039292
1 0.494865 0.0476844
1 0.530282 0.0744182
0 0.61268 0
0.0735485 0.645029 0
0.179217 0.677668 0
0.288869 0.71223 0
0.559136 0.696483 0
0.826123 0.677852 0
1 0.696986 0.0678416
1 0.738521 0.110796
1 0.774609 0.166659
0.0354467 0.829679 0
0.164096 0.865507 0
0.28838 0.903609 0
0.411093 0.940688 0
0.663966 0.925383 0
0.936645 0.898024 0.0165255
1 0.876402 0.155184
1 0.910201 0.211109
1 0.934951 0.240833
0.202945 1 0
0.334173 1 0
0.452186 1 0
0.558846 1 0
0.755154 1 0
1 1 0.0686809
1 0.99469 0.174517
1 0.997971 0.230915
1 1 0.247654
0 0 0
0 0 0
0.00759899 0 0
0.0450904 0 0
0.0458686 0.0236057 0.0263981
0.0627909 0.0226596 0.0245365
0.099321 0.0223697 0.0228733
0.130678 0.0216678 0.0209049
0.178393 0.0164645 0.0168917
0.0200656 0.0243992 0.0235447
0.0335699 0.0353246 0.0351415
0.048249 0.0458076 0.0464485
0.0664073 0.0552682 0.0556954
0.103807 0.0570993 0.0553292
0.134722 0.0509346 0.04654
0.191363 0.04448 0.0357214
0.233204 0.0385138 0.0264286
0.261143 0.0341955 0.0198672
0.047013 0.066743 0.0553902
0.0650339 0.0756542 0.0663005
0.0835431 0.0835889 0.0775158
0.100877 0.0913558 0.0850996
0.146304 0.0878614 0.0734112
0.185245 0.0751659 0.0560769
0.28957 0.0688029 0.0387427
0.429099 0.0681773 0.0232547
0.593988 0.0688487 0.00628672
0.060029 0.110262 0.0657511
0.0795605 0.112352 0.0715648
0.102144 0.117876 0.0788281
0.145846 0.13904 0.101061
0.246891 0.156283 0.109392
0.390097 0.16141 0.0888685
0.621683 0.153521 0.0413214
0.833341 0.149203 0.0075227
1 0.154284 0
0.0510109 0.191501 0.0195773
0.0919966 0.227314 0.0237736
0.145449 0.261845 0.0314488
0.215045 0.292851 0.0483864
0.401587 0.294987 0.107179
0.588708 0.314168 0.10724
0.854765 0.301793 0.0548104
1 0.307897 0.0302892
1 0.326802 0.0257725
0.0160983 0.371359 0
0.0803235 0.412299 0
0.154803 0.455222 0
0.245029 0.496864 0
0.488106 0.480247 0
0.723903 0.479683 0.0853437
0.978759 0.497185 0.101747
1 0.519173 0.108965
1 0.555108 0.137362
0 0.635676 0
0.0592966 0.668666 0
0.164538 0.702556 0
0.277089 0.738277 0
0.547951 0.722133 0
0.819272 0.701915 0.0178836
1 0.720302 0.138491
1 0.761532 0.188144
1 0.796841 0.23856
0.0230564 0.855375 0
0.153994 0.891783 0
0.279362 0.930159 0
0.403403 0.966674 0
0.652674 0.950317 0
0.929076 0.918868 0.0774395
1 0.894163 0.211948
1 0.925368 0.266041
1 0.947921 0.292226
0.194537 1 0
0.325704 1 0
0.44184 1 0
0.545281 1 0
0.738018 1 0.0217899
0.997909 1 0.115709
1 1 0.219394
1 1 0.278019
1 1 0.298405
0 0 0
0 0 0.00236515
0.0111543 0 0.0119783
0.0287938 0.0202182 0.0273136
0.0523079 0.0263523 0.0335851
0.070985 0.0249332 0.031342
0.109621 0.0238804 0.0296483
0.142412 0.0226902 0.0280461
0.182666 0.0202487 0.0268101
0.0215305 0.0289616 0.0283513
0.0346532 0.0398718 0.0406958
0.0502632 0.0497292 0.0548714
0.0703136 0.0583047 0.0666667
0.109728 0.0593423 0.0669108
0.141726 0.0525826 0.0576181
0.201541 0.0456092 0.0467231
0.240269 0.0384375 0.0366674
0.272312 0.0341955 0.0303044
0.0469368 0.070985 0.0650187
0.0650492 0.0796674 0.0765087
0.0826429 0.0870832 0.0865797
0.10103 0.0946975 0.0958877
0.148272 0.0883955 0.0865644
0.193225 0.0766613 0.0707103
0.318105 0.0720226 0.0572671
0.470787 0.0700389 0.0449226
0.643183 0.0690929 0.0324407
0.0563516 0.113222 0.0793774
0.0748608 0.115373 0.0859998
0.100923 0.126543 0.0986191
0.148425 0.1523 0.127184
0.255955 0.168322 0.135256
0.410437 0.172778 0.11371
0.652506 0.160983 0.0729534
0.866926 0.15584 0.0451667
1 0.161212 0.0319982
0.0412604 0.208392 0.0413825
0.0806592 0.245686 0.0504311
0.133394 0.2813 0.062089
0.204883 0.312215 0.0826276
0.398642 0.310079 0.147753
0.591394 0.328588 0.148653
0.861051 0.31722 0.0989395
1 0.325231 0.0737316
1 0.345464 0.0721599
0 0.394858 0
0.0612039 0.437049 0
0.137011 0.482216 0
0.23061 0.524147 0
0.477333 0.503807 0.0409705
0.723308 0.502068 0.142321
0.978058 0.521675 0.160113
1 0.54374 0.167346
1 0.579431 0.197101
0 0.659403 0
0.0434272 0.692683 0
0.151369 0.728038 0
0.266896 0.764965 0
0.538643 0.747906 0
0.815991 0.725353 0.0778058
1 0.742962 0.201114
1 0.784649 0.255039
1 0.818769 0.302251
0.0143282 0.88069 0
0.145083 0.917784 0
0.272389 0.956008 0
0.397574 0.992248 0
0.6439 0.974105 0.00978103
0.923583 0.938598 0.134783
1 0.910414 0.265126
1 0.9393 0.316442
1 0.960678 0.340795
0.188952 1 0
0.3187 1 0
0.432471 1 0
0.530678 1 0.0123903
0.72224 1 0.0715801
0.984222 1 0.160998
1 1 0.261891
1 1 0.323125
1 1 0.347219
0 0 0.0349889
0 0 0.0742504
0.0140078 0 0.039765
0.0304723 0.0249332 0.0383459
0.0584573 0.0286717 0.0476997
0.0792096 0.0266423 0.0439612
0.120348 0.0248569 0.042237
0.154269 0.0231785 0.0403906
0.190219 0.0221714 0.0390784
0.0201419 0.0341344 0.0352941
0.0317998 0.0451362 0.0500954
0.0461891 0.054963 0.0669718
0.0676738 0.0622873 0.0857252
0.115312 0.0607004 0.0892958
0.147967 0.0533761 0.0758221
0.21091 0.0459297 0.0636149
0.246098 0.0378119 0.0509499
0.286473 0.0340887 0.0446174
0.0396124 0.0769818 0.0742046
0.0551919 0.0860304 0.0865187
0.0724346 0.0929122 0.0988327
0.0936446 0.0980545 0.114916
0.151537 0.0880293 0.111696
0.207477 0.0793927 0.0975662
0.351019 0.0751659 0.0888228
0.513954 0.0715801 0.0801862
0.693446 0.0695048 0.0724498
0.0490578 0.115145 0.100587
0.0677348 0.119066 0.108782
0.0964523 0.136767 0.129915
0.143877 0.166461 0.163943
0.263508 0.178866 0.182986
0.432929 0.177676 0.171298
0.68336 0.16202 0.138109
0.900511 0.156725 0.118547
1 0.162966 0.112688
0.0247044 0.225376 0.0818036
0.0608225 0.264073 0.100862
0.107591 0.301854 0.12343
0.173587 0.33576 0.152224
0.377676 0.328099 0.217975
0.57615 0.341192 0.215351
0.852705 0.335637 0.163928
1 0.344106 0.139391
1 0.364309 0.144183
0 0.419333 0
0.0274205 0.464454 0
0.100847 0.512108 0.0116426
0.19324 0.555581 0.0454566
0.444511 0.532631 0.119158
0.70341 0.525399 0.230198
0.960937 0.548257 0.2477
1 0.567971 0.252567
1 0.603113 0.281788
0 0.685084 0
0.0126802 0.719524 0
0.12018 0.757046 0
0.236118 0.796323 0
0.508965 0.78024 0.0374151
0.792523 0.752621 0.164645
1 0.767681 0.292897
1 0.80975 0.347448
1 0.841749 0.38735
0 0.907835 0
0.124804 0.946197 0
0.249439 0.984771 0
0.372824 1 0.00273136
0.617044 1 0.0967269
0.899901 0.96173 0.214588
1 0.926665 0.341207
1 0.954391 0.393698
1 0.975296 0.41706
0.174136 1 0
0.300191 1 0
0.410559 1 0.0298009
0.504158 1 0.0839857
0.694102 1 0.138369
0.955001 1 0.225177
1 1 0.327535
1 1 0.394202
1 1 0.422141
0 0 0.0326238
0 0 0.0692607
0.0120546 0.0178378 0.0279545
0.0244755 0.0284123 0.0489052
0.0569772 0.0308537 0.0705577
0.0837415 0.0271916 0.0711528
0.131151 0.0243534 0.0723583
0.166979 0.0219577 0.0717784
0.202411 0.0202487 0.0717632
0.0130465 0.0381018 0.0447242
0.0217899 0.049424 0.0628672
0.032578 0.0596017 0.0825513
0.0489052 0.0675059 0.105501
0.106401 0.0621653 0.132937
0.150484 0.0521553 0.123644
0.218326 0.0431678 0.110903
0.253895 0.0345769 0.0953231
0.311635 0.0314336 0.0952621
0.0196841 0.0821851 0.0888228
0.031632 0.0910811 0.105394
0.0457313 0.0984512 0.123293
0.061799 0.102251 0.140658
0.13753 0.0881514 0.172595
0.221912 0.0796216 0.175051
0.385534 0.0733959 0.180377
0.558877 0.0669566 0.188754
0.743755 0.0625467 0.200793
0.0187839 0.118517 0.113497
0.0334478 0.125689 0.12668
0.0521096 0.149599 0.15845
0.08336 0.1794 0.205631
0.245563 0.180148 0.30753
0.454246 0.175784 0.32076
0.715541 0.158129 0.299657
0.933791 0.15172 0.292515
1 0.158068 0.294926
0 0.230564 0.16553
0.00701915 0.265721 0.199527
0.0466926 0.300816 0.236469
0.107866 0.335225 0.278752
0.319951 0.350942 0.346685
0.543481 0.349599 0.34464
0.835431 0.33817 0.311711
1 0.342535 0.30164
1 0.361624 0.310262
0 0.433875 0.124788
0 0.481147 0.157412
0.0199588 0.532647 0.191974
0.111116 0.581399 0.230884
0.355505 0.574319 0.280781
0.636057 0.547005 0.382025
0.901274 0.568414 0.391836
1 0.592645 0.395712
1 0.628611 0.411246
0 0.7149 0
0 0.751446 0.0237583
0.0321202 0.79205 0.0795758
0.150393 0.833722 0.137606
0.424674 0.82739 0.209949
0.719387 0.789395 0.312108
1 0.795285 0.450111
1 0.837079 0.498344
1 0.864942 0.522286
0 0.942473 0
0.0430762 0.981506 0.0314183
0.172045 1 0.10457
0.300145 1 0.174609
0.543877 1 0.248219
0.831861 0.992676 0.342992
1 0.944549 0.464759
1 0.971633 0.527535
1 0.99292 0.552026
0.102586 1 0.0624857
0.230274 1 0.126452
0.337942 1 0.185122
0.426566 1 0.232212
0.617456 1 0.274311
0.88278 1 0.343053
1 1 0.443168
1 1 0.520195
1 1 0.555535
0 0 0
0.00256352 0.00898756 0.0137179
0.00749218 0.0214389 0.0358282
0.0157778 0.0322576 0.0608682
0.0468147 0.0343938 0.0916609
0.0772412 0.0277562 0.0956283
0.12987 0.0228733 0.104707
0.169512 0.0195926 0.10808
0.206897 0.0172732 0.111971
0.00276188 0.0420691 0.056733
0.00758373 0.0535897 0.0780804
0.0138705 0.06392 0.100984
0.0243381 0.0720989 0.126268
0.0779583 0.0657206 0.165179
0.136049 0.052079 0.16878
0.211688 0.039292 0.164172
0.257527 0.0303807 0.152316
0.33872 0.0272831 0.168612
0 0.0865492 0.109453
0.00132753 0.093904 0.127901
0.0106508 0.100847 0.14847
0.0226139 0.10312 0.164935
0.0935378 0.0912337 0.213336
0.207446 0.0803998 0.25893
0.403296 0.0692454 0.298482
0.591348 0.0598459 0.324529
0.781979 0.0534829 0.356146
0 0.119539 0.132158
0 0.130709 0.154757
0 0.152819 0.198398
0 0.171725 0.251972
0.115023 0.165637 0.377829
0.397726 0.159991 0.5037
0.731548 0.150134 0.525505
0.961242 0.143328 0.524605
1 0.150271 0.539605
0 0.220264 0.186801
0 0.243961 0.210498
0 0.264164 0.234989
0 0.280919 0.265385
0.10454 0.304082 0.377737
0.484001 0.326299 0.580179
0.853254 0.333928 0.568643
1 0.338537 0.555154
1 0.358511 0.56875
0 0.412695 0.243107
0 0.450187 0.284031
0 0.49099 0.329152
0 0.528557 0.376883
0.229419 0.54847 0.460685
0.548684 0.576333 0.569055
0.844434 0.576501 0.557717
1 0.602411 0.570474
1 0.634928 0.593942
0 0.717494 0.165087
0 0.755566 0.219364
0 0.798337 0.283177
0.0616464 0.842969 0.357137
0.324727 0.86041 0.444129
0.617502 0.841566 0.511055
0.935821 0.815137 0.629602
1 0.859617 0.67422
1 0.878828 0.685618
0 0.958007 0.168536
0 0.999451 0.247288
0.0890669 1 0.334096
0.209766 1 0.412879
0.440269 1 0.480415
0.729046 1 0.540658
1 0.970214 0.626215
1 0.990539 0.701228
1 1 0.727581
0.0244144 1 0.284001
0.14287 1 0.354772
0.241886 1 0.411551
0.325338 1 0.456611
0.506828 1 0.491478
0.775357 1 0.531746
1 1 0.601984
1 1 0.681422
1 1 0.730175
0 0 0
0 0.011429 0.0194247
0.000671397 0.0244755 0.045182
0.00416571 0.0359197 0.0736706
0.0295262 0.0393988 0.113283
0.0649882 0.0310826 0.128008
0.123278 0.0233158 0.150683
0.166033 0.0180362 0.160662
0.206485 0.0144198 0.170077
0 0.0461433 0.0711681
0 0.0576791 0.0960098
0 0.0677348 0.122179
0 0.0755932 0.149859
0.0368353 0.070161 0.195895
0.102174 0.0544747 0.221027
0.189075 0.037171 0.232181
0.250278 0.0265965 0.232609
0.356359 0.0215763 0.280262
0 0.0893721 0.13344
0 0.0955978 0.154253
0 0.100679 0.176181
0 0.102129 0.193805
0.0296178 0.0938735 0.259953
0.143526 0.0769818 0.351537
0.374487 0.0593576 0.462928
0.590341 0.047364 0.542992
0.795666 0.0386053 0.615961
0 0.119448 0.160372
0 0.130968 0.194903
0 0.144945 0.245518
0 0.154482 0.304723
0 0.137499 0.437247
0.205768 0.112352 0.619104
0.64651 0.125536 0.788861
0.927459 0.127001 0.84892
1 0.135836 0.881056
0 0.215228 0.209689
0 0.23978 0.250919
0 0.261631 0.292668
0 0.277058 0.33518
0 0.242283 0.42771
0.156085 0.213718 0.623758
0.743542 0.293141 0.863951
1 0.325582 0.898421
1 0.351965 0.905867
0 0.389227 0.308782
0 0.413748 0.335973
0 0.440055 0.365225
0 0.461097 0.391867
0 0.407782 0.384604
0.202182 0.434897 0.529854
0.784405 0.544625 0.845258
1 0.599619 0.878767
1 0.634028 0.887785
0 0.678859 0.371496
0 0.707835 0.421317
0 0.742382 0.473472
0 0.777279 0.528084
0.151614 0.774807 0.593164
0.458427 0.79646 0.693904
0.833585 0.834363 0.828138
1 0.853864 0.830976
1 0.87744 0.844755
0 0.934508 0.404135
0 0.971313 0.471855
0 1 0.540276
0.087892 1 0.605554
0.315862 1 0.679347
0.606073 1 0.76463
0.899779 1 0.810315
1 0.992416 0.873686
1 1 0.888609
0 1 0.503349
0.0329595 1 0.56286
0.125414 1 0.613352
0.205875 1 0.655177
0.391806 1 0.703182
0.656687 1 0.761944
0.938552 1 0.791836
1 1 0.851377
1 1 0.910369
0.000137331 0.000137331 0.000137331
0 0.0147707 0.0267185
0 0.0279393 0.0546426
0 0.0399176 0.086183
0.0180056 0.0430304 0.128954
0.0531472 0.0344091 0.148409
0.11548 0.0242161 0.179004
0.157916 0.0178378 0.19379
0.199191 0.0133516 0.212131
0 0.0498512 0.0830701
0 0.0611582 0.110201
0 0.0707256 0.138308
0 0.0778973 0.167208
0.00782788 0.072221 0.215534
0.0692454 0.0564279 0.246998
0.164569 0.0357061 0.270741
0.242283 0.0247349 0.297856
0.362966 0.0168154 0.383246
0 0.0912184 0.150454
0 0.0969253 0.174228
0 0.0996414 0.194278
0 0.101274 0.215015
0 0.0937057 0.296651
0.0779431 0.0727703 0.40972
0.329931 0.0458839 0.568124
0.56321 0.0368811 0.696712
0.775616 0.0282597 0.810651
0 0.119051 0.182483
0 0.131014 0.228763
0 0.144869 0.294286
0 0.165911 0.37557
0 0.152743 0.52137
0.0916457 0.119142 0.716976
0.551766 0.10454 0.932967
0.857694 0.113893 1
1 0.126925 1
0 0.237476 0.268544
0 0.264942 0.320989
0 0.28809 0.37293
0 0.304189 0.426276
0 0.271061 0.535073
0.0242466 0.222354 0.714611
0.586221 0.24155 0.97496
0.932662 0.301228 1
1 0.340673 1
0 0.40557 0.332479
0 0.427161 0.364294
0 0.449226 0.396963
0 0.465644 0.424567
0 0.416266 0.449348
0 0.349462 0.523323
0.52163 0.406714 0.84651
0.958801 0.554314 1
1 0.623499 1
0 0.649516 0.469871
0 0.67068 0.508598
0 0.697536 0.548135
0 0.723278 0.587869
0 0.689662 0.604364
0.199298 0.629053 0.586572
0.637751 0.757839 0.822812
0.996826 0.84062 1
1 0.872267 1
0 0.898894 0.537926
0 0.927779 0.593454
0 0.956176 0.646677
0 0.982528 0.696757
0.187915 0.972061 0.746609
0.4448 0.946426 0.799359
0.805127 0.991623 0.931884
1 0.99968 0.99527
1 1 0.985779
0 1 0.632898
0 1 0.681712
0.0198978 1 0.719356
0.0995193 1 0.751476
0.280598 1 0.792447
0.542824 1 0.855772
0.858595 1 0.942504
1 1 0.977691
1 1 1
0 0 1
0 0 1
0.000640879 0 0.935363
0.109941 0 0.831403
0.210697 0 0.753597
0.315724 0 0.714641
0.407507 0 0.658045
0.481025 0 0.608408
0.612131 0 0.635599
0 0 0.828122
0 0 0.788983
0 0 0.747143
0.0578164 0 0.703853
0.154116 0 0.688045
0.267628 0 0.678401
0.37293 0 0.632578
0.456443 0 0.597467
0.627665 0 0.683742
0 0.0124361 0.933394
0 0.00520333 0.935241
0 0.0146334 0.864057
0.0472267 0.0284886 0.780377
0.133776 0.0339666 0.746441
0.256336 0.0250553 0.775464
0.483513 0.00843824 0.86627
0.740215 0 0.972335
1 0 1
0 0.134508 0.716121
0 0.139727 0.781796
0 0.151431 0.843717
0 0.164462 0.8766
0.038529 0.162707 0.84535
0.0962539 0.135027 0.849393
0.492271 0.100374 1
0.811978 0.108492 1
1 0.124666 1
0 0.262654 0.358984
0 0.289219 0.416403
0 0.311437 0.472801
0 0.326863 0.530083
0 0.295689 0.639673
0 0.245716 0.808103
0.48513 0.229572 1
0.853849 0.283513 1
1 0.330053 1
0 0.428824 0.409598
0 0.448157 0.444755
0 0.467201 0.475257
0 0.481193 0.502327
0 0.445747 0.579065
0.084535 0.413367 0.74406
0.411017 0.378027 0.893385
0.835035 0.493309 1
1 0.591073 1
0 0.649851 0.543709
0 0.66659 0.570916
0 0.687816 0.600351
0 0.707103 0.629145
0 0.66775 0.618891
0.0837568 0.58056 0.579995
0.445289 0.635782 0.768368
0.831952 0.738888 1
1 0.835569 1
0 0.881148 0.640208
0 0.902739 0.684688
0 0.924285 0.726314
0 0.942565 0.764401
0.105837 0.916182 0.789166
0.311818 0.848157 0.785916
0.625681 0.872129 0.861616
0.91252 0.968978 1
1 0.995819 1
0 1 0.748196
0 1 0.766201
0 1 0.795285
0.030869 1 0.820676
0.2009 1 0.848753
0.437873 1 0.889067
0.742962 1 1
0.949538 1 1
1 1 1
