site/assets/luts/freshluts--0000690-warm-redlutheart-broken.cube
# LUTr-Schema-Version: 2
# LUTr-ID: freshluts--0000690-warm-redlutheart-broken
# LUTr-Title: Warm-red/LUT(heart broken)
# LUTr-Collection: Fresh LUTs
# LUTr-Collection-ID: freshluts-community
# LUTr-Source: https://freshluts.com
# LUTr-Retrieved: 2026-07-27
# LUTr-Source-File: submissions-raw/freshluts/cubes/690__Untitled_70.A032_07220228_C115.cube
# LUTr-Source-Format: CUBE
# LUTr-Source-SHA256: 113c7c3dcee898dbd29ef40d5a1034fe44f36e4cc0141c630eb80d5e3cf981a5
# LUTr-License: CC0-1.0
# LUTr-License-URL: https://freshluts.com/termsandconditions
# LUTr-License-Basis: site-terms
# LUTr-Transform-Class: creative-look
# LUTr-Tags: creative, freshluts, community, cube, red, low-key, bmd-film, warm
# LUTr-Input-Color-Space:
# LUTr-Input-Gamut: bmd-film-gamut
# LUTr-Input-Transfer: bmd-film
# LUTr-Output-Color-Space: srgb
# LUTr-Output-Gamut: rec709
# LUTr-Output-Transfer: srgb
# LUTr-Color-Space-Confidence: camera-profile-input-required
# LUTr-Domain-Normalized: true
# LUTr-Shaper: none
# LUTr-Original-Grid: 33x33x33
# LUTr-Conversion-Grid: 33x33x33
# LUTr-Conversion-Interpolation: none
# LUTr-Conversion-Method: Metadata normalization; numeric LUT samples preserved
# LUTr-Conversion-Tool: LUTr scripts/convert-all-to-cube.mjs 2.0.0
# LUTr-Conversion-Date: 2026-07-28
# LUTr-Asset-URL: https://freshluts.com/luts/690
# LUTr-Author: lvannoeun@gmail.com
# LUTr-Author-URL: https://freshluts.com/users/57563
# LUTr-Attribution: lvannoeun@gmail.com via Fresh LUTs
# LUTr-Source-Labels: gamma=Blackmagic BMD Film; color=Red; key=Low Key; style=Cinematic/Dark
# LUTr-Note: Preserve this metadata and the upstream license notices when redistributing.
TITLE "Warm-red/LUT(heart broken)"
LUT_3D_SIZE 9
DOMAIN_MIN 0 0 0
DOMAIN_MAX 1 1 1
0 0 0
0.107134 0 0
0.267124 0 0.015259
0.425711 0 0.0335088
0.587381 0 0.0563821
0.738567 0 0.0869612
0.776791 0 0.123156
0.549874 0.0275425 0.140536
0.636561 0.0397345 0.170306
0.0104677 0.0747539 0
0.136355 0.0665141 0
0.290349 0.0547189 0.013962
0.445136 0.0450599 0.0328527
0.603693 0.0351263 0.0535592
0.755367 0.0267948 0.0824292
0.795346 0.050721 0.124743
0.621546 0.140398 0.19353
0.701228 0.154376 0.223728
0.0302434 0.212528 0
0.178042 0.198474 0
0.318425 0.189776 0
0.479774 0.17612 0.0234531
0.637537 0.165148 0.0471504
0.791028 0.155749 0.0801862
0.872312 0.166247 0.130877
0.917128 0.18851 0.186542
0.767575 0.266987 0.277455
0.0588693 0.345846 0
0.217639 0.329351 0
0.358694 0.319356 0
0.5028 0.311666 0
0.667674 0.29691 0.0292973
0.825193 0.284733 0.0651102
0.923003 0.288518 0.130816
0.976181 0.295933 0.180774
0.835584 0.376394 0.329244
0.0911879 0.475425 0
0.252918 0.457679 0
0.39826 0.445991 0
0.538933 0.438697 0
0.687022 0.429664 0.00205997
0.846799 0.415396 0.0347753
0.947768 0.415351 0.127031
1 0.411963 0.170352
0.904372 0.482628 0.376974
0.122377 0.603693 0
0.285634 0.585275 0
0.435554 0.571603 0
0.581949 0.561303 0
0.717479 0.555489 0
0.856764 0.546334 0.0189975
0.950439 0.543908 0.136049
1 0.540017 0.194324
0.971405 0.588388 0.4177
0.163516 0.725277 0
0.316686 0.711986 0
0.471153 0.696544 0
0.618021 0.685313 0
0.759426 0.675639 0
0.87451 0.671107 0.0389868
0.955657 0.668315 0.15848
0.952132 0.685252 0.409964
1 0.694972 0.449271
0.452003 0.717021 0.184665
0.536034 0.72697 0.221103
0.549355 0.789197 0
0.65922 0.799435 0
0.792309 0.789899 0.020264
0.89926 0.780713 0.115465
0.925795 0.783703 0.404669
1 0.793194 0.443244
1 0.803922 0.471626
0.52047 0.822446 0.217288
0.607095 0.830625 0.260822
0.68748 0.840513 0.303807
0.765545 0.850935 0.344213
0.844007 0.861662 0.382498
0.920241 0.873304 0.417319
0.985473 0.886641 0.446006
1 0.898711 0.473091
1 0.908721 0.503059
0 0 0
0.0908064 0 0.0722057
0.244495 0 0.0964218
0.396246 0 0.127794
0.554528 0 0.159503
0.713497 0 0.190478
0.816587 0 0.216938
0.54728 0.0367895 0.191806
0.626764 0.0511482 0.220615
0.000640879 0.0784924 0.0682841
0.0887312 0.0823377 0.0762493
0.244938 0.0716716 0.100404
0.40296 0.0608682 0.130388
0.56257 0.0505989 0.1608
0.721874 0.0400244 0.190814
0.845045 0.0404974 0.220203
0.848188 0.074403 0.24506
0.68954 0.165698 0.277134
0.00283818 0.226932 0.0210727
0.135592 0.212665 0.0331273
0.272389 0.20528 0.0817731
0.430823 0.192874 0.126284
0.586603 0.183291 0.158373
0.74345 0.173159 0.188113
0.893797 0.165057 0.218982
0.951949 0.176455 0.253788
0.759976 0.277119 0.328359
0.030396 0.361181 0
0.173709 0.343801 0.00462348
0.317571 0.332921 0.0488594
0.455833 0.326833 0.0908675
0.619272 0.31252 0.141726
0.775814 0.301503 0.18204
0.928817 0.292165 0.21532
1 0.290791 0.249836
1 0.313329 0.306264
0.0514839 0.491753 0
0.207645 0.472297 0
0.358373 0.458671 0.00852979
0.499306 0.450706 0.0616312
0.639719 0.444358 0.0998856
0.804761 0.429404 0.152544
0.961196 0.417517 0.199161
1 0.410712 0.236805
1 0.410498 0.274113
0.0721599 0.620645 0
0.238849 0.600183 0
0.395865 0.583978 0
0.540795 0.573587 0.0240024
0.677394 0.567391 0.0686046
0.822248 0.559457 0.107561
0.981231 0.545022 0.167651
1 0.5346 0.209705
1 0.531456 0.256901
0.103136 0.743694 0
0.268864 0.72697 0
0.429374 0.709392 0
0.577722 0.696941 0
0.721843 0.687037 0.0356451
0.851514 0.682597 0.0800183
0.982361 0.675044 0.14992
1 0.663233 0.181338
1 0.66836 0.293202
0.419913 0.734279 0.235447
0.322423 0.839536 0
0.464591 0.831189 0
0.613291 0.818189 0
0.754849 0.806363 0.0413825
0.88098 0.798306 0.113603
0.983719 0.796918 0.198398
1 0.787747 0.197574
1 0.814099 0.522866
0.492576 0.837629 0.274022
0.584558 0.844358 0.314275
0.667918 0.854063 0.349706
0.686915 0.910079 0.0916152
0.793164 0.91252 0.13402
0.909865 0.908064 0.200214
0.995346 0.907637 0.242191
1 0.909773 0.522576
1 0.919814 0.558679
0 0 0.0137331
0.0540475 0 0.111391
0.243229 0 0.223865
0.387686 0 0.231922
0.537621 0 0.25684
0.691005 0 0.287999
0.825467 0 0.31519
0.826719 0 0.309483
0.619684 0.0618753 0.269963
0.00816358 0.075288 0.144015
0.0950484 0.0908522 0.1066
0.230259 0.0790265 0.211093
0.379217 0.0719921 0.230457
0.533364 0.0631113 0.261585
0.69041 0.0531624 0.292531
0.842588 0.0450141 0.322057
0.882094 0.0710918 0.335515
0.686793 0.174868 0.327779
0 0.222553 0.204242
0.105119 0.219043 0.20383
0.224842 0.22092 0.213626
0.381231 0.210681 0.237339
0.542733 0.199145 0.26714
0.702007 0.18854 0.297047
0.861219 0.177874 0.326757
0.981949 0.176928 0.354986
1 0.17229 0.373892
0 0.368643 0.170855
0.0943923 0.366079 0.149477
0.269215 0.349737 0.168246
0.408377 0.342184 0.217502
0.569284 0.329244 0.261707
0.724697 0.319402 0.293309
0.881468 0.309194 0.322728
1 0.29987 0.351064
1 0.291188 0.369848
0.00891127 0.506539 0.0971389
0.129885 0.495781 0.0833295
0.305653 0.47689 0.122683
0.452415 0.465904 0.183398
0.592737 0.459266 0.224903
0.75613 0.444892 0.275929
0.912093 0.433799 0.315373
1 0.42414 0.343755
1 0.41622 0.363104
0.036408 0.637018 0.033051
0.168658 0.621454 0.0315251
0.341573 0.602274 0.0786297
0.491768 0.589426 0.141634
0.633265 0.581216 0.193744
0.775128 0.574136 0.232456
0.939757 0.558724 0.285008
1 0.547204 0.32311
1 0.538384 0.349386
0.0745251 0.759213 0.0110628
0.206119 0.745647 0.0125734
0.376394 0.726619 0.0334936
0.530144 0.712245 0.0973678
0.673777 0.702464 0.155184
0.809491 0.696345 0.198718
0.955566 0.687251 0.238087
1 0.674357 0.280415
1 0.66363 0.314351
0.179522 0.838666 0.0517739
0.275059 0.851728 0.015198
0.416159 0.845991 0.00875868
0.567163 0.834058 0.0540169
0.710842 0.823774 0.112169
0.852934 0.814481 0.165026
0.981247 0.809628 0.208698
1 0.801221 0.242817
1 0.790661 0.272679
0.46006 0.853483 0.337057
0.552605 0.861326 0.363455
0.490791 0.938933 0.101015
0.618341 0.940932 0.104967
0.749203 0.937911 0.126238
0.88426 0.93077 0.174807
0.985656 0.924865 0.241123
1 0.917632 0.256046
1 0.909072 0.271214
0 0 0.0407568
0.0378424 0 0.107561
0.209567 0 0.314275
0.388434 0 0.367559
0.536614 0 0.37174
0.684245 0 0.388174
0.822385 0 0.410117
0.857694 0 0.403891
0.61622 0.0715038 0.316945
0.0334478 0.0766003 0.168887
0.103502 0.0984817 0.138598
0.190051 0.101534 0.25182
0.379126 0.0728466 0.358007
0.526436 0.0681468 0.364675
0.675364 0.0617075 0.387732
0.827451 0.0534829 0.417441
0.909514 0.0675059 0.429435
0.940703 0.0987106 0.434546
0.00239567 0.216831 0.315435
0.137224 0.214374 0.28217
0.231373 0.229328 0.244022
0.365667 0.218082 0.345617
0.518746 0.210071 0.365316
0.672801 0.200961 0.395773
0.829816 0.190723 0.425956
0.980316 0.182208 0.453971
1 0.17554 0.471641
0 0.360311 0.338582
0.0977493 0.359548 0.338552
0.237934 0.356008 0.338293
0.359838 0.357031 0.348623
0.520256 0.346395 0.370611
0.681224 0.335103 0.399878
0.840162 0.324147 0.428931
0.998474 0.312886 0.45716
1 0.30399 0.475547
0 0.502235 0.318624
0.0805066 0.502068 0.307836
0.22594 0.498833 0.283513
0.402457 0.481956 0.301885
0.545327 0.474098 0.349432
0.706065 0.461143 0.393118
0.860883 0.450813 0.423575
1 0.440421 0.451255
1 0.431861 0.469123
0 0.643824 0.255772
0.0856641 0.640513 0.23064
0.259785 0.627039 0.216342
0.437751 0.607385 0.255329
0.586755 0.596063 0.315206
0.728038 0.588846 0.355642
0.890684 0.573831 0.405188
1 0.562722 0.441016
1 0.554498 0.461372
0.0132296 0.77882 0.176211
0.115145 0.76994 0.153582
0.297108 0.751232 0.162173
0.472648 0.731243 0.21004
0.624735 0.718349 0.273045
0.765408 0.709957 0.323247
0.908248 0.701579 0.361089
1 0.687419 0.406729
1 0.677256 0.437507
0.0828107 0.880766 0.163897
0.172976 0.885237 0.117189
0.333059 0.873716 0.112581
0.506539 0.85417 0.163577
0.661799 0.839841 0.227634
0.80499 0.829633 0.284596
0.93962 0.823178 0.326131
1 0.815381 0.360037
1 0.804517 0.394888
0.425254 0.868528 0.412955
0.30544 0.966278 0.180285
0.389853 0.967681 0.1196
0.542916 0.968307 0.131762
0.697719 0.960525 0.182818
0.840803 0.949844 0.240543
0.967788 0.940536 0.292241
1 0.933776 0.329519
1 0.923476 0.365026
0 0 0.0812543
0.0402838 0 0.132738
0.159716 0 0.309789
0.361807 0 0.472938
0.536904 0 0.504921
0.685206 0 0.507622
0.820386 0 0.513619
0.861692 0 0.489479
0.617166 0.0799878 0.363943
0.047715 0.0820935 0.200061
0.111818 0.105669 0.177081
0.17319 0.120989 0.246052
0.344793 0.0880446 0.444831
0.527138 0.0679332 0.495369
0.674891 0.0636759 0.499214
0.821973 0.0583505 0.514626
0.918807 0.0683604 0.520333
0.95964 0.0821241 0.523461
0.0380102 0.209369 0.367895
0.168231 0.215488 0.305196
0.23946 0.236957 0.275624
0.324254 0.240528 0.383978
0.518318 0.211032 0.486656
0.665614 0.206149 0.494209
0.814466 0.1991 0.517052
0.965621 0.19028 0.545785
1 0.183825 0.565423
0.0030518 0.355688 0.453483
0.123445 0.353735 0.445274
0.271199 0.351003 0.41352
0.366522 0.364828 0.378302
0.503166 0.354009 0.47425
0.657023 0.345586 0.494392
0.810834 0.335973 0.523812
0.96733 0.325383 0.552956
1 0.316304 0.572793
0 0.494331 0.466423
0.0987564 0.493355 0.466224
0.229526 0.492149 0.465797
0.37116 0.48777 0.465324
0.495186 0.488914 0.476677
0.658015 0.477485 0.497353
0.8177 0.465812 0.525628
0.97612 0.454673 0.553826
1 0.445319 0.573312
0 0.634333 0.452171
0.0790112 0.633738 0.44651
0.211124 0.632807 0.433738
0.357748 0.628794 0.4103
0.537743 0.611856 0.430152
0.680537 0.60354 0.474632
0.840787 0.589776 0.51722
0.995178 0.579187 0.54696
1 0.570367 0.565377
0 0.775769 0.404181
0.0656596 0.774731 0.386969
0.214633 0.769665 0.358328
0.389548 0.755627 0.344671
0.57171 0.735744 0.38439
0.719493 0.724056 0.441047
0.861082 0.716197 0.47921
1 0.701274 0.526284
1 0.691829 0.552377
0.0245518 0.894789 0.357778
0.0846571 0.905669 0.313924
0.242161 0.897749 0.281941
0.425528 0.878614 0.290547
0.605066 0.858366 0.338857
0.755886 0.845014 0.399664
0.895888 0.836515 0.446937
1 0.829068 0.48014
1 0.817899 0.513924
0.398718 0.879011 0.50779
0.171359 0.988037 0.292668
0.280995 0.994614 0.229557
0.457557 0.986221 0.241352
0.636805 0.975937 0.292638
0.791821 0.965591 0.35462
0.934966 0.9552 0.40972
1 0.948882 0.448112
1 0.938186 0.48307
0 0 0.12697
0.0466011 0.00392157 0.167758
0.134401 0.00444038 0.298314
0.308614 0 0.503288
0.515312 0 0.618814
0.685466 0 0.641703
0.813092 0 0.630045
0.82153 0 0.558801
0.621607 0.0867628 0.41532
0.0575265 0.0888838 0.237308
0.11957 0.112428 0.22092
0.175708 0.131319 0.26981
0.29456 0.117449 0.440803
0.500542 0.0785077 0.600107
0.675288 0.0630503 0.63183
0.821958 0.0592355 0.633402
0.91574 0.072282 0.618662
0.959533 0.0872053 0.609339
0.0768902 0.207752 0.393057
0.18262 0.221241 0.335439
0.247196 0.244221 0.312856
0.307347 0.259419 0.378058
0.483467 0.226062 0.572076
0.666148 0.205875 0.622782
0.81323 0.20087 0.626764
0.959976 0.195071 0.642359
1 0.190143 0.657969
0.0284123 0.347494 0.530755
0.171466 0.346487 0.495827
0.302693 0.351965 0.434714
0.374121 0.372488 0.407706
0.459693 0.376455 0.509194
0.655909 0.346624 0.613001
0.802716 0.34107 0.620951
0.951415 0.333654 0.643885
1 0.325704 0.664881
0.00456245 0.490288 0.58294
0.118059 0.488655 0.579446
0.255146 0.486229 0.570825
0.406287 0.482551 0.538033
0.500938 0.496681 0.508049
0.639826 0.484993 0.600534
0.792966 0.476051 0.62005
0.946609 0.466285 0.649088
1 0.457053 0.670329
0.0000610361 0.626917 0.591409
0.0985885 0.625696 0.590875
0.228717 0.62388 0.58996
0.360494 0.622324 0.588968
0.507317 0.617258 0.589197
0.628962 0.618357 0.600565
0.793057 0.605905 0.620691
0.952255 0.594034 0.648997
1 0.584009 0.669734
0 0.765362 0.579416
0.0777295 0.764187 0.575448
0.207706 0.762798 0.56791
0.341024 0.76144 0.554299
0.493202 0.756527 0.531899
0.67097 0.739422 0.552483
0.813489 0.730724 0.596139
0.973846 0.716731 0.638865
1 0.707408 0.660014
0.0623789 0.861662 0.558343
0.0640116 0.902098 0.530129
0.193713 0.90219 0.506416
0.344091 0.896681 0.478264
0.523384 0.882078 0.467308
0.704295 0.861769 0.506813
0.85098 0.850401 0.561868
0.992126 0.842115 0.599527
1 0.830594 0.632914
0.391623 0.882979 0.609842
0.120012 0.998047 0.490196
0.198978 1 0.431647
0.366232 1 0.406195
0.555123 0.990723 0.415457
0.735912 0.980179 0.462028
0.886519 0.970443 0.520531
0.992981 0.9626 0.565087
1 0.953017 0.599207
0.00216678 0 0.16875
0.0535134 0.00743114 0.206531
0.126268 0.0162814 0.305043
0.260471 0.00192264 0.489967
0.466545 0 0.675929
0.664149 0 0.757366
0.784115 0 0.735149
0.552544 0.0753338 0.458351
0.627497 0.0924086 0.472068
0.0659342 0.0958267 0.275898
0.126711 0.119234 0.266102
0.181781 0.139467 0.304051
0.2692 0.140047 0.429999
0.446784 0.105272 0.630961
0.653864 0.0711528 0.745647
0.815167 0.0610056 0.761273
0.89572 0.0808118 0.720485
0.946654 0.111254 0.679377
0.10248 0.210452 0.41622
0.192233 0.227924 0.371237
0.254231 0.25095 0.354482
0.309773 0.269627 0.400336
0.431937 0.255497 0.568139
0.639536 0.216419 0.727153
0.81355 0.200244 0.758495
0.959823 0.195926 0.760372
1 0.19321 0.763439
0.0771496 0.340795 0.57319
0.210239 0.344732 0.520226
0.316777 0.357321 0.462669
0.381735 0.379644 0.441672
0.442329 0.395041 0.503258
0.621057 0.361364 0.697902
0.80293 0.340764 0.748287
0.949905 0.335668 0.75285
1 0.330159 0.76257
0.0192264 0.482933 0.675547
0.160403 0.480385 0.656657
0.303319 0.478721 0.621103
0.438315 0.483604 0.55845
0.507973 0.504311 0.535958
0.594217 0.507362 0.633707
0.791089 0.477302 0.737255
0.937942 0.471489 0.745983
1 0.464683 0.762066
0.00621042 0.623026 0.709484
0.114717 0.621439 0.707408
0.247913 0.618967 0.703334
0.386801 0.61619 0.694392
0.542672 0.611887 0.660883
0.633768 0.625742 0.633936
0.77438 0.613214 0.724895
0.927108 0.604212 0.743923
1 0.595071 0.766125
0.00779736 0.75436 0.71162
0.0969558 0.756527 0.714168
0.226871 0.754513 0.713085
0.358221 0.752651 0.71191
0.493446 0.750698 0.710262
0.641428 0.744427 0.71104
0.761318 0.745769 0.721553
0.926116 0.732601 0.742473
1 0.721447 0.764691
0.351705 0.773312 0.667796
0.0818952 0.891402 0.701198
0.204852 0.891814 0.695705
0.335576 0.890196 0.687633
0.47306 0.888197 0.672755
0.627314 0.882033 0.652232
0.802548 0.865629 0.67364
0.944976 0.856519 0.716381
1 0.844083 0.750179
0.400198 0.883421 0.699825
0.188754 0.988159 0.677363
0.184131 1 0.650141
0.318593 1 0.627787
0.47277 1 0.598825
0.653941 0.994842 0.58912
0.835142 0.984482 0.628092
0.974929 0.975525 0.681224
1 0.967758 0.715404
0.0130312 0.00613413 0.0791333
0.051545 0.0308385 0.110491
0.117311 0.0356909 0.275441
0.224048 0.0247807 0.454047
0.393545 0 0.650706
0.538689 0 0.710826
0.468254 0.0684062 0.50219
0.551675 0.0827497 0.517906
0.633371 0.0975662 0.533593
0.100343 0.107652 0.180621
0.133883 0.12639 0.305989
0.188449 0.146975 0.341711
0.260914 0.155428 0.436347
0.397681 0.135058 0.618204
0.605554 0.09337 0.803128
0.785031 0.0724193 0.865538
0.86096 0.0950179 0.811276
0.691279 0.213107 0.585946
0.137896 0.214328 0.39881
0.200397 0.234867 0.408164
0.26096 0.257649 0.39765
0.315755 0.277592 0.432731
0.4056 0.277882 0.55726
0.585534 0.242832 0.757824
0.79205 0.208194 0.871992
0.954177 0.197345 0.888853
1 0.19675 0.880415
0.129595 0.336492 0.581201
0.235676 0.347356 0.543267
0.326177 0.363851 0.496849
0.388937 0.386389 0.480308
0.444907 0.404822 0.524712
0.569116 0.389899 0.693599
0.776303 0.351003 0.852186
0.950011 0.334966 0.88368
1 0.330098 0.882887
0.0862135 0.470527 0.717281
0.20882 0.473518 0.698817
0.342519 0.476875 0.64538
0.45272 0.489113 0.585946
0.515953 0.511269 0.567346
0.576059 0.525917 0.627604
0.756176 0.49163 0.821469
0.937758 0.47126 0.872084
1 0.465919 0.872541
0.10074 0.595026 0.749447
0.149157 0.613504 0.799695
0.290517 0.610544 0.780423
0.436683 0.608759 0.744732
0.573602 0.613138 0.680659
0.639506 0.633478 0.66276
0.727169 0.636378 0.756985
0.924392 0.60557 0.859953
1 0.599634 0.863706
0.320912 0.664149 0.683696
0.111498 0.75227 0.832135
0.242954 0.750118 0.829755
0.377874 0.747555 0.825544
0.519814 0.744106 0.815991
0.676448 0.73904 0.782361
0.765896 0.753002 0.757122
0.907607 0.739635 0.847791
1 0.731197 0.860777
0.370901 0.773281 0.731472
0.114626 0.880293 0.831769
0.223865 0.88397 0.835065
0.354788 0.881773 0.833661
0.489326 0.879286 0.83183
0.624781 0.877104 0.829404
0.774227 0.87013 0.831861
0.892866 0.871504 0.840391
1 0.858671 0.858366
0.413916 0.88394 0.774197
0.48278 0.89987 0.786984
0.203983 1 0.821271
0.330694 1 0.815641
0.464714 1 0.806928
0.603647 1 0.791577
0.75877 0.998047 0.772976
0.932357 0.989364 0.793667
1 0.982422 0.832471
0.0218204 0.0125277 0.103227
0.0604562 0.0394903 0.131334
0.102937 0.0628519 0.179477
0.159899 0.0784924 0.261051
0.240574 0.0837568 0.368856
0.344244 0.0820478 0.471153
0.452201 0.0829023 0.539391
0.551019 0.0901656 0.577417
0.638605 0.102632 0.597864
0.109178 0.116243 0.201938
0.149142 0.14374 0.21706
0.187076 0.169894 0.247166
0.251728 0.174746 0.407935
0.360098 0.163836 0.582223
0.533394 0.131426 0.778592
0.677699 0.121874 0.837903
0.60737 0.206439 0.629389
0.69044 0.220417 0.645106
0.188159 0.220111 0.314977
0.235538 0.246189 0.316365
0.267857 0.264668 0.435401
0.322469 0.284932 0.469017
0.396902 0.293004 0.563455
0.536126 0.272236 0.744747
0.743664 0.230274 0.929351
0.936629 0.202762 0.960174
1 0.202213 0.950393
0.247532 0.326757 0.439872
0.271153 0.350942 0.525628
0.334127 0.370626 0.533455
0.395865 0.39292 0.521599
0.451286 0.412406 0.556542
0.542565 0.411536 0.682506
0.72221 0.376989 0.882795
0.928222 0.342199 0.960327
1 0.328405 0.969543
0.284276 0.437507 0.561242
0.261234 0.469093 0.706645
0.36846 0.479332 0.668315
0.462196 0.49546 0.619715
0.523629 0.517723 0.603479
0.578515 0.535637 0.647929
0.704341 0.519951 0.817227
0.910948 0.480827 0.953033
1 0.464408 0.966171
0.310719 0.551461 0.660243
0.216266 0.600977 0.84126
0.339559 0.603738 0.822583
0.476875 0.60679 0.768872
0.587381 0.618402 0.707057
0.647211 0.640574 0.69189
0.707958 0.654948 0.750973
0.889311 0.619593 0.941176
1 0.598459 0.962539
0.341405 0.665034 0.73286
0.229267 0.72398 0.872007
0.277745 0.742336 0.922133
0.421683 0.738933 0.90248
0.569528 0.736507 0.866209
0.706142 0.740505 0.801434
0.770321 0.760723 0.78819
0.85832 0.762951 0.878798
1 0.73167 0.958984
0.382177 0.776074 0.788876
0.452262 0.791653 0.804913
0.238376 0.879606 0.947768
0.371176 0.877089 0.946746
0.50927 0.873991 0.9449
0.65127 0.870512 0.936233
0.808286 0.864836 0.903395
0.896895 0.878401 0.877607
1 0.865019 0.95697
0.427039 0.885634 0.837583
0.502007 0.899779 0.851148
0.237247 1 0.947723
0.349889 1 0.94905
0.484382 1 0.948333
0.619638 1 0.947265
0.755093 0.999283 0.945052
0.905379 0.992889 0.951675
1 0.996506 0.955642
