site/assets/luts/freshluts--0002164-til.cube
# LUTr-Schema-Version: 2
# LUTr-ID: freshluts--0002164-til
# LUTr-Title: Til
# LUTr-Collection: Fresh LUTs
# LUTr-Collection-ID: freshluts-community
# LUTr-Source: https://freshluts.com
# LUTr-Retrieved: 2026-07-27
# LUTr-Source-File: submissions-raw/freshluts/cubes/2164__Til_10.C0004.cube
# LUTr-Source-Format: CUBE
# LUTr-Source-SHA256: cc6b99e405fd5a0005cb18cbcfab74c9e443344aba17a478a91304c1a2eaa82b
# LUTr-License: CC0-1.0
# LUTr-License-URL: https://freshluts.com/termsandconditions
# LUTr-License-Basis: site-terms
# LUTr-Transform-Class: creative-look
# LUTr-Tags: creative, freshluts, community, cube, teal, sony-s-log1
# LUTr-Input-Color-Space:
# LUTr-Input-Gamut: sony-s-gamut
# LUTr-Input-Transfer: sony-s-log1
# LUTr-Output-Color-Space: srgb
# LUTr-Output-Gamut: rec709
# LUTr-Output-Transfer: srgb
# LUTr-Color-Space-Confidence: camera-profile-input-required
# LUTr-Domain-Normalized: true
# LUTr-Shaper: none
# LUTr-Original-Grid: 33x33x33
# LUTr-Conversion-Grid: 33x33x33
# LUTr-Conversion-Interpolation: none
# LUTr-Conversion-Method: Metadata normalization; numeric LUT samples preserved
# LUTr-Conversion-Tool: LUTr scripts/convert-all-to-cube.mjs 2.0.0
# LUTr-Conversion-Date: 2026-07-28
# LUTr-Asset-URL: https://freshluts.com/luts/2164
# LUTr-Author: lvannoeun@gmail.com
# LUTr-Author-URL: https://freshluts.com/users/57563
# LUTr-Attribution: lvannoeun@gmail.com via Fresh LUTs
# LUTr-Source-Labels: gamma=Sony S-Log; color=Teal; key=Neutral; style=Correction
# LUTr-Note: Preserve this metadata and the upstream license notices when redistributing.
TITLE "Til"
LUT_3D_SIZE 5
DOMAIN_MIN 0 0 0
DOMAIN_MAX 1 1 1
0.000274662 0.00355535 0.000747692
0.276585 0.0632792 0.068513
0.505333 0.241032 0.260365
0.749447 0.444389 0.460456
0.966369 0.635782 0.635523
0.136614 0.30602 0.145449
0.275669 0.295201 0.158007
0.477852 0.338445 0.257481
0.710048 0.448569 0.429114
0.957809 0.615106 0.603754
0.298497 0.526741 0.303929
0.348592 0.499779 0.289937
0.47895 0.498161 0.299687
0.679271 0.530434 0.414359
0.947631 0.630198 0.57969
0.480446 0.74847 0.452049
0.477928 0.711223 0.428931
0.52372 0.690303 0.41561
0.669062 0.689311 0.41352
0.944625 0.71899 0.564202
0.676219 0.983978 0.591211
0.668894 0.980575 0.581262
0.672923 0.978363 0.57406
0.721569 0.955398 0.559289
0.933593 0.956161 0.549935
0.0248417 0.0268254 0.337163
0.338094 0.109575 0.349264
0.593881 0.318471 0.422873
0.818921 0.491753 0.529061
0.972168 0.663233 0.673121
0.145113 0.312062 0.306737
0.262852 0.292332 0.294636
0.51281 0.313481 0.327642
0.715862 0.434028 0.450111
0.955734 0.611521 0.610315
0.281468 0.535348 0.382681
0.294987 0.507454 0.302235
0.476921 0.496239 0.309514
0.682383 0.519905 0.425055
0.948577 0.623026 0.582132
0.455161 0.761501 0.462852
0.459022 0.716121 0.434363
0.507225 0.687541 0.415717
0.664637 0.68452 0.413794
0.944869 0.712566 0.565805
0.669261 0.984939 0.595728
0.663417 0.981125 0.583688
0.664347 0.978241 0.574899
0.710369 0.945037 0.555108
0.92192 0.944259 0.54519
0.0747234 0.0762188 0.622522
0.314595 0.115999 0.596094
0.66865 0.385092 0.704128
0.954955 0.62034 0.74461
0.941451 0.827207 0.916991
0.157534 0.305058 0.537835
0.262181 0.288426 0.571756
0.567178 0.336858 0.594141
0.818143 0.498116 0.600076
0.968688 0.643732 0.681468
0.282628 0.533928 0.538094
0.2813 0.511849 0.515297
0.466789 0.487037 0.495262
0.693004 0.505074 0.514549
0.954421 0.607889 0.604974
0.454139 0.76553 0.549279
0.427558 0.727184 0.487984
0.460304 0.694804 0.449378
0.657725 0.676051 0.47657
0.949218 0.702129 0.577386
0.654994 0.986206 0.602136
0.656992 0.9823 0.588403
0.651743 0.978408 0.577813
0.695628 0.938155 0.55346
0.912459 0.935058 0.543618
0.110216 0.11043 0.791333
0.273884 0.139193 0.799878
0.617212 0.383185 0.890562
0.946456 0.627451 0.999908
0.935805 0.934661 0.947738
0.16492 0.257786 0.806867
0.242679 0.262882 0.83331
0.51371 0.359945 0.877623
0.914733 0.547158 0.965469
0.937804 0.800534 0.980575
0.276432 0.516991 0.813153
0.334646 0.493294 0.793774
0.460166 0.475761 0.830137
0.77348 0.499748 0.824292
0.962524 0.645609 0.792203
0.444602 0.744961 0.770321
0.42739 0.714061 0.73547
0.430243 0.684031 0.701976
0.644083 0.656397 0.66659
0.966018 0.678477 0.669627
0.631388 0.973053 0.701442
0.624125 0.975891 0.652323
0.613565 0.973754 0.631067
0.643412 0.946456 0.587289
0.898238 0.91696 0.607828
0.110216 0.11043 0.791333
0.110216 0.11043 0.791333
0.537469 0.19736 0.820981
0.943832 0.609583 0.996078
0.935805 0.934661 0.947738
0.110216 0.11043 0.791333
0.110216 0.11043 0.791333
0.441535 0.174411 0.812009
0.898909 0.535637 0.960204
0.936217 0.87953 0.961578
0.261295 0.477134 0.845884
0.249912 0.452445 0.840635
0.429725 0.445518 0.909575
0.708385 0.507134 0.943969
0.942123 0.701076 0.997604
0.44239 0.710887 0.923293
0.496269 0.678935 0.944396
0.496818 0.644984 0.943267
0.63003 0.622904 0.999878
0.944518 0.657465 0.999893
0.61622 0.931655 0.984726
0.61207 0.93022 0.983291
0.604364 0.927611 0.980713
0.60557 0.916472 0.963012
0.869734 0.871183 0.883421
