site/assets/luts/freshluts--0000769-breige.cube
# LUTr-Schema-Version: 2
# LUTr-ID: freshluts--0000769-breige
# LUTr-Title: Breige
# LUTr-Collection: Fresh LUTs
# LUTr-Collection-ID: freshluts-community
# LUTr-Source: https://freshluts.com
# LUTr-Retrieved: 2026-07-27
# LUTr-Source-File: submissions-raw/freshluts/cubes/769__Breige.cube
# LUTr-Source-Format: CUBE
# LUTr-Source-SHA256: d518eba38007bf6d7f3004da7db5fce4a519bc925225d1d9a50e0b98f6839313
# LUTr-License: CC0-1.0
# LUTr-License-URL: https://freshluts.com/termsandconditions
# LUTr-License-Basis: site-terms
# LUTr-Transform-Class: creative-look
# LUTr-Tags: creative, freshluts, community, cube, warm, low-key, red-logfilm
# LUTr-Input-Color-Space: red-logfilm-rwg
# LUTr-Input-Gamut: red-wide-gamut-rgb
# LUTr-Input-Transfer: red-logfilm
# LUTr-Output-Color-Space: srgb
# LUTr-Output-Gamut: rec709
# LUTr-Output-Transfer: srgb
# LUTr-Color-Space-Confidence: inferred-from-source-label
# LUTr-Domain-Normalized: true
# LUTr-Shaper: none
# LUTr-Original-Grid: 16x16x16
# LUTr-Conversion-Grid: 16x16x16
# LUTr-Conversion-Interpolation: none
# LUTr-Conversion-Method: Metadata normalization; numeric LUT samples preserved
# LUTr-Conversion-Tool: LUTr scripts/convert-all-to-cube.mjs 2.0.0
# LUTr-Conversion-Date: 2026-07-28
# LUTr-Asset-URL: https://freshluts.com/luts/769
# LUTr-Author: InAvision
# LUTr-Author-URL: https://freshluts.com/users/64078
# LUTr-Attribution: InAvision via Fresh LUTs
# LUTr-Source-Labels: gamma=RED Log Film; color=Warm; key=Low Key; style=Drama
# LUTr-Note: Preserve this metadata and the upstream license notices when redistributing.
TITLE "Breige"
LUT_3D_SIZE 16
DOMAIN_MIN 0 0 0
DOMAIN_MAX 1 1 1
-0.105784 -0.096173 -0.092407
-0.085647 -0.096173 -0.092407
0.096136 -0.096173 -0.092407
0.17857 -0.096173 -0.092408
0.252392 -0.096174 -0.092409
0.324332 -0.096175 -0.09241
0.395775 -0.096176 -0.092409
0.467206 -0.096178 -0.09241
0.538733 -0.09618 -0.092413
0.610069 -0.096183 -0.092405
0.680691 -0.096175 -0.092408
0.750845 -0.096179 -0.092412
0.819985 -0.096183 -0.092416
0.888698 -0.096187 -0.092421
0.955874 -0.096192 -0.092426
1.020935 -0.096197 -0.092431
-0.105784 -0.077868 -0.092407
-0.085647 -0.077868 -0.092407
0.096136 -0.080879 -0.092408
0.17857 -0.081737 -0.092408
0.252392 -0.081633 -0.092409
0.324332 -0.081381 -0.09241
0.395775 -0.081118 -0.092409
0.467206 -0.080864 -0.092411
0.538733 -0.080629 -0.092403
0.610069 -0.080445 -0.092406
0.680691 -0.080325 -0.092409
0.750845 -0.080253 -0.092412
0.819985 -0.080231 -0.092416
0.888698 -0.080251 -0.092421
0.955874 -0.080312 -0.092426
1.020934 -0.080472 -0.092431
-0.105784 0.087399 -0.092408
-0.088963 0.087399 -0.092408
0.096136 0.087399 -0.092408
0.17857 0.083171 -0.092409
0.252392 0.083707 -0.092409
0.324332 0.084972 -0.09241
0.395775 0.086272 -0.092409
0.467206 0.087503 -0.092411
0.538733 0.088589 -0.092404
0.610069 0.089453 -0.092406
0.68069 0.090008 -0.092409
0.750845 0.090342 -0.092413
0.819984 0.090441 -0.092417
0.888698 0.090366 -0.092421
0.955874 0.090092 -0.092426
1.020935 0.089387 -0.092431
-0.105785 0.162343 -0.092409
-0.089909 0.162343 -0.092409
0.091488 0.162343 -0.092409
0.17857 0.162343 -0.09241
0.252391 0.162899 -0.09241
0.324332 0.164208 -0.092409
0.395774 0.165605 -0.092411
0.467206 0.166916 -0.092412
0.538733 0.168089 -0.092405
0.610069 0.169027 -0.092407
0.68069 0.169608 -0.09241
0.750845 0.169985 -0.092414
0.819984 0.170091 -0.092418
0.888698 0.170018 -0.092423
0.955874 0.169723 -0.092428
1.020934 0.168958 -0.092433
-0.105786 0.229456 -0.092409
-0.089802 0.229456 -0.092409
0.092077 0.229456 -0.092409
0.179168 0.229456 -0.092409
0.252391 0.229456 -0.09241
0.324331 0.231102 -0.092411
0.395774 0.232796 -0.092413
0.467206 0.234441 -0.092404
0.538733 0.235878 -0.092407
0.610069 0.237041 -0.092409
0.68069 0.237787 -0.092412
0.750845 0.238249 -0.092416
0.819984 0.238371 -0.09242
0.888698 0.238299 -0.092425
0.955874 0.237916 -0.092429
1.020934 0.236976 -0.092427
-0.105788 0.29487 -0.092411
-0.089507 0.29487 -0.092411
0.093453 0.29487 -0.092412
0.180619 0.29487 -0.092412
0.254183 0.29487 -0.092403
0.324331 0.29487 -0.092404
0.395774 0.29693 -0.092405
0.467205 0.29889 -0.092407
0.538732 0.30069 -0.092409
0.610069 0.302103 -0.092412
0.68069 0.302991 -0.092415
0.750845 0.303546 -0.092419
0.819984 0.303706 -0.092423
0.888697 0.303611 -0.092428
0.955874 0.303159 -0.092432
1.020934 0.30201 -0.092429
-0.10579 0.359774 -0.092405
-0.089234 0.359774 -0.092405
0.094892 0.359774 -0.092405
0.182151 0.359774 -0.092406
0.25606 0.359774 -0.092406
0.326613 0.359774 -0.092408
0.395773 0.359774 -0.092409
0.467205 0.362143 -0.092411
0.538732 0.364253 -0.092413
0.610068 0.365902 -0.092416
0.68069 0.366974 -0.092419
0.750844 0.367634 -0.092423
0.819984 0.367867 -0.092427
0.888697 0.367739 -0.092431
0.955874 0.367197 -0.092428
1.020934 0.365784 -0.092433
-0.105793 0.424745 -0.09241
-0.088945 0.424745 -0.09241
0.096245 0.424745 -0.09241
0.183591 0.424745 -0.092411
0.257855 0.424745 -0.092411
0.32878 0.424745 -0.092412
0.398368 0.424744 -0.092414
0.467205 0.424744 -0.092416
0.538732 0.427203 -0.092418
0.610068 0.429104 -0.092421
0.68069 0.430361 -0.092424
0.750844 0.431131 -0.092428
0.819984 0.431332 -0.092432
0.888697 0.431218 -0.092428
0.955874 0.430568 -0.092433
1.020934 0.429016 -0.092438
-0.105797 0.489777 -0.092416
-0.088697 0.489777 -0.092416
0.097445 0.489777 -0.092416
0.184882 0.489777 -0.092417
0.25946 0.489777 -0.092417
0.330742 0.489776 -0.092418
0.400648 0.489776 -0.09242
0.469855 0.489776 -0.092421
0.538731 0.489776 -0.092424
0.610068 0.49197 -0.092427
0.68069 0.493401 -0.09243
0.750844 0.494283 -0.092433
0.819984 0.494521 -0.092429
0.888697 0.494378 -0.092434
0.955873 0.493653 -0.092439
1.020934 0.491856 -0.092443
-0.105801 0.554648 -0.092423
-0.088492 0.554648 -0.092423
0.098381 0.554648 -0.092423
0.185899 0.554648 -0.092424
0.260723 0.554648 -0.092425
0.332281 0.554648 -0.092426
0.402469 0.554648 -0.092427
0.472001 0.554648 -0.092429
0.541143 0.554648 -0.092431
0.610068 0.554647 -0.092433
0.680689 0.556214 -0.092429
0.750844 0.557214 -0.092432
0.819983 0.557449 -0.092436
0.888697 0.557307 -0.092441
0.955873 0.556525 -0.092445
1.020934 0.554479 -0.09245
-0.105806 0.618854 -0.092431
-0.088364 0.618854 -0.092431
0.098994 0.618854 -0.092432
0.18657 0.618854 -0.092432
0.261551 0.618854 -0.092433
0.333285 0.618854 -0.092426
0.40365 0.618854 -0.092427
0.473353 0.618854 -0.092429
0.54269 0.618854 -0.092431
0.611802 0.618854 -0.092434
0.680689 0.618854 -0.092437
0.750843 0.619911 -0.09244
0.819983 0.620215 -0.092444
0.888696 0.620033 -0.092449
0.955873 0.619157 -0.092453
1.020934 0.616888 -0.092458
-0.105809 0.682635 -0.092433
-0.088285 0.682635 -0.092433
0.099362 0.682635 -0.092433
0.186966 0.682635 -0.092433
0.262055 0.682635 -0.092434
0.333899 0.682635 -0.092435
0.4044 0.682635 -0.092437
0.474218 0.682635 -0.092438
0.543675 0.682634 -0.092441
0.612866 0.682634 -0.092443
0.681849 0.682634 -0.092446
0.750843 0.682634 -0.09245
0.819983 0.682969 -0.092454
0.888696 0.682745 -0.092458
0.955873 0.681787 -0.092455
1.020934 0.679355 -0.092459
-0.105807 0.745466 -0.092443
-0.088269 0.745466 -0.092443
0.099448 0.745466 -0.092444
0.187064 0.745466 -0.092444
0.262192 0.745466 -0.092445
0.33406 0.745466 -0.092446
0.404591 0.745466 -0.092447
0.474446 0.745466 -0.092449
0.54396 0.745466 -0.092451
0.613154 0.745465 -0.092454
0.682204 0.745465 -0.092457
0.751265 0.745465 -0.09246
0.820017 0.745465 -0.092456
0.888696 0.745282 -0.09246
0.955872 0.744248 -0.092465
1.020933 0.741598 -0.09247
-0.105815 0.80796 -0.092455
-0.088288 0.80796 -0.092455
0.099382 0.80796 -0.092455
0.187009 0.80796 -0.092456
0.262103 0.80796 -0.092457
0.333951 0.80796 -0.092458
0.40444 0.80796 -0.092459
0.474303 0.80796 -0.092453
0.54377 0.807959 -0.092455
0.612992 0.807959 -0.092458
0.681997 0.807959 -0.09246
0.75101 0.807959 -0.092464
0.819721 0.807959 -0.092468
0.888695 0.807959 -0.092473
0.955872 0.806797 -0.092477
1.020933 0.80392 -0.092482
-0.105823 0.869085 -0.09246
-0.088371 0.869085 -0.09246
0.099077 0.869085 -0.09246
0.186669 0.869085 -0.092461
0.261687 0.869085 -0.092461
0.333451 0.869085 -0.092463
0.403868 0.869085 -0.092464
0.473618 0.869085 -0.092466
0.542989 0.869085 -0.092468
0.612103 0.869084 -0.092471
0.681041 0.869084 -0.092474
0.749943 0.869084 -0.092477
0.818596 0.869084 -0.092481
0.887424 0.869084 -0.092485
0.955871 0.869084 -0.092482
1.020933 0.866 -0.092487
-0.105831 0.928182 -0.092474
-0.088552 0.928182 -0.092474
0.098289 0.928182 -0.092474
0.18584 0.928182 -0.092475
0.260647 0.928182 -0.092475
0.332183 0.928182 -0.092476
0.402381 0.928182 -0.092478
0.471889 0.928182 -0.09248
0.541001 0.928182 -0.092482
0.609911 0.928182 -0.092484
0.678546 0.928182 -0.092487
0.747224 0.928182 -0.092483
0.815626 0.928182 -0.092486
0.884211 0.928182 -0.092476
0.952479 0.928181 -0.092481
1.020932 0.928181 -0.092486
-0.105784 -0.096173 -0.074819
-0.085647 -0.096173 -0.074819
0.096136 -0.096173 -0.077715
0.17857 -0.096173 -0.078538
0.252392 -0.096174 -0.078437
0.324332 -0.096175 -0.078196
0.395775 -0.096176 -0.077942
0.467206 -0.096178 -0.077696
0.538733 -0.09618 -0.077472
0.610069 -0.096183 -0.077295
0.680691 -0.096175 -0.077181
0.750845 -0.096179 -0.077108
0.819985 -0.096183 -0.077092
0.888698 -0.096187 -0.077106
0.955874 -0.096192 -0.077174
1.020935 -0.096197 -0.077326
-0.105784 -0.077868 -0.074819
-0.085647 -0.077868 -0.074819
0.096136 -0.077869 -0.07482
0.17857 -0.077869 -0.07482
0.252392 -0.077869 -0.07482
0.324332 -0.07787 -0.074821
0.395775 -0.077871 -0.074822
0.467206 -0.077873 -0.074824
0.538733 -0.077874 -0.074825
0.610069 -0.077876 -0.074828
0.680691 -0.077879 -0.07483
0.750845 -0.077881 -0.074833
0.819984 -0.077885 -0.074836
0.888698 -0.077888 -0.074839
0.955874 -0.077892 -0.074846
1.020935 -0.077894 -0.07485
-0.105784 0.087399 -0.077716
-0.085647 0.087399 -0.07482
0.096135 0.087399 -0.07482
0.17857 0.085569 -0.07482
0.252392 0.086598 -0.074821
0.324332 0.087814 -0.074822
0.395775 0.088942 -0.074823
0.467206 0.089955 -0.074824
0.538733 0.090848 -0.074826
0.610069 0.091529 -0.074828
0.68069 0.091976 -0.07483
0.750845 0.092257 -0.074833
0.819984 0.092331 -0.074836
0.888698 0.092283 -0.07484
0.955874 0.092065 -0.074847
1.020935 0.091514 -0.074851
-0.105785 0.162343 -0.078539
-0.085648 0.162343 -0.074821
0.094129 0.162343 -0.074821
0.17857 0.162343 -0.074821
0.252391 0.163613 -0.074822
0.324332 0.16513 -0.074823
0.395774 0.166538 -0.074824
0.467206 0.167828 -0.074825
0.538733 0.168958 -0.074827
0.610069 0.169845 -0.074829
0.68069 0.170405 -0.074831
0.750845 0.170762 -0.074834
0.819984 0.170853 -0.074837
0.888698 0.170815 -0.074844
0.955874 0.17053 -0.074848
1.020935 0.169828 -0.074852
-0.105786 0.229456 -0.078439
-0.085649 0.229456 -0.074822
0.095241 0.229456 -0.074822
0.179965 0.229456 -0.074823
0.252391 0.229456 -0.074823
0.324331 0.231433 -0.074824
0.395774 0.233259 -0.074825
0.467206 0.234908 -0.074827
0.538733 0.236375 -0.074828
0.610069 0.237518 -0.074831
0.68069 0.238256 -0.074833
0.750845 0.238711 -0.074836
0.819984 0.238839 -0.074839
0.888698 0.238769 -0.074845
0.955874 0.23841 -0.074849
1.020934 0.237504 -0.074853
-0.105788 0.29487 -0.078199
-0.085651 0.29487 -0.074824
0.096592 0.29487 -0.074825
0.181638 0.29487 -0.074825
0.254552 0.29487 -0.074825
0.324331 0.29487 -0.074826
0.395774 0.297107 -0.074827
0.467205 0.299174 -0.074829
0.538732 0.300963 -0.074831
0.610069 0.302387 -0.074833
0.68069 0.303305 -0.074835
0.750844 0.303864 -0.074838
0.819984 0.304007 -0.074844
0.888698 0.30395 -0.074848
0.955874 0.303493 -0.074851
1.020934 0.302394 -0.074855
-0.10579 0.359774 -0.077947
-0.085654 0.359774 -0.074827
0.097823 0.359774 -0.074827
0.183203 0.359774 -0.074828
0.256562 0.359774 -0.074828
0.326813 0.359774 -0.074829
0.395773 0.359773 -0.07483
0.467205 0.362275 -0.074832
0.538732 0.364406 -0.074834
0.610068 0.366113 -0.074836
0.68069 0.367214 -0.074838
0.750844 0.367828 -0.074844
0.819984 0.368044 -0.074847
0.888697 0.367931 -0.074851
0.955874 0.36743 -0.074854
1.020934 0.366091 -0.074858
-0.105793 0.424745 -0.077702
-0.085657 0.424745 -0.074831
0.098943 0.424745 -0.074831
0.184603 0.424745 -0.074832
0.258382 0.424745 -0.074832
0.329064 0.424745 -0.074833
0.39844 0.424744 -0.074834
0.467205 0.424744 -0.074835
0.538732 0.427248 -0.074837
0.610068 0.42922 -0.074839
0.68069 0.430503 -0.074845
0.750844 0.431259 -0.074848
0.819984 0.431502 -0.074851
0.888697 0.431373 -0.074854
0.955873 0.430766 -0.074858
1.020934 0.429207 -0.074862
-0.105797 0.489777 -0.077482
-0.085667 0.489777 -0.074836
0.099917 0.489777 -0.074836
0.185851 0.489777 -0.074836
0.259988 0.489777 -0.074837
0.331062 0.489777 -0.074837
0.400808 0.489776 -0.074839
0.469949 0.489776 -0.07484
0.538731 0.489776 -0.074845
0.610068 0.492032 -0.074847
0.68069 0.493498 -0.074849
0.750844 0.49438 -0.074852
0.819984 0.494621 -0.074855
0.888697 0.494496 -0.074859
0.955873 0.493784 -0.074862
1.020934 0.492008 -0.074866
-0.105801 0.554648 -0.077307
-0.085672 0.554648 -0.074844
0.100681 0.554648 -0.074844
0.186813 0.554648 -0.074845
0.261251 0.554648 -0.074845
0.332611 0.554648 -0.074846
0.402713 0.554648 -0.074847
0.472121 0.554648 -0.074849
0.541216 0.554648 -0.07485
0.610068 0.554647 -0.074852
0.680689 0.556264 -0.074855
0.750844 0.557239 -0.074857
0.819983 0.557585 -0.074861
0.888697 0.557405 -0.074864
0.955873 0.556611 -0.074868
1.020934 0.554619 -0.074871
-0.105806 0.618854 -0.077201
-0.085675 0.618854 -0.074851
0.101163 0.618854 -0.074851
0.187436 0.618854 -0.074851
0.262054 0.618854 -0.074852
0.333594 0.618854 -0.074853
0.403891 0.618854 -0.074853
0.473502 0.618854 -0.074855
0.542758 0.618854 -0.074857
0.611842 0.618854 -0.074859
0.680689 0.618854 -0.074861
0.750843 0.619938 -0.074864
0.819983 0.620263 -0.074867
0.888696 0.620093 -0.07487
0.955873 0.619234 -0.074874
1.020934 0.617035 -0.074881
-0.105809 0.682635 -0.077135
-0.085682 0.682635 -0.074858
0.101453 0.682635 -0.074858
0.187808 0.682635 -0.074858
0.262554 0.682635 -0.074859
0.334228 0.682635 -0.07486
0.404641 0.682635 -0.074861
0.474385 0.682635 -0.074862
0.543773 0.682634 -0.074864
0.612912 0.682634 -0.074866
0.681883 0.682634 -0.074868
0.750843 0.682634 -0.074871
0.819983 0.682994 -0.074874
0.888696 0.682828 -0.074881
0.955872 0.681846 -0.074884
1.020934 0.679431 -0.074888
-0.105807 0.745466 -0.077126
-0.08569 0.745466 -0.074866
0.101536 0.745466 -0.074866
0.187937 0.745466 -0.074867
0.262707 0.745466 -0.074867
0.334399 0.745466 -0.074868
0.40481 0.745466 -0.074869
0.474616 0.745466 -0.07487
0.54408 0.745465 -0.074872
0.613292 0.745465 -0.074874
0.682224 0.745465 -0.074877
0.751293 0.745465 -0.074882
0.820016 0.745465 -0.074885
0.888696 0.745313 -0.074889
0.955872 0.744304 -0.074893
1.020933 0.741678 -0.074896
-0.105815 0.80796 -0.077145
-0.085694 0.80796 -0.074875
0.101485 0.80796 -0.074876
0.187862 0.80796 -0.074876
0.262634 0.80796 -0.074876
0.334319 0.80796 -0.07488
0.40476 0.80796 -0.074881
0.474488 0.80796 -0.074883
0.543929 0.807959 -0.074885
0.613093 0.807959 -0.074887
0.682016 0.807959 -0.074889
0.751059 0.807959 -0.074892
0.819745 0.807959 -0.074895
0.888695 0.807959 -0.074898
0.955872 0.806816 -0.074902
1.020933 0.803956 -0.074906
-0.105823 0.869085 -0.077215
-0.085703 0.869085 -0.074889
0.101243 0.869085 -0.074889
0.187552 0.869085 -0.074889
0.262224 0.869085 -0.07489
0.333834 0.869085 -0.074891
0.404128 0.869085 -0.074892
0.473799 0.869085 -0.074893
0.543124 0.869084 -0.074895
0.612218 0.869084 -0.074897
0.681134 0.869084 -0.074899
0.75001 0.869084 -0.074902
0.818641 0.869084 -0.074905
0.887446 0.869084 -0.074909
0.955871 0.869084 -0.074913
1.020933 0.866018 -0.074919
-0.105831 0.928182 -0.077373
-0.085724 0.928183 -0.0749
0.100631 0.928183 -0.0749
0.186789 0.928183 -0.0749
0.26123 0.928183 -0.074901
0.332594 0.928182 -0.074902
0.402683 0.928182 -0.074903
0.472096 0.928182 -0.074904
0.541186 0.928182 -0.074906
0.610043 0.928182 -0.074908
0.678658 0.928182 -0.07491
0.747355 0.928182 -0.074913
0.815658 0.928182 -0.074919
0.884254 0.928182 -0.074922
0.952501 0.928182 -0.074926
1.020932 0.928181 -0.07493
-0.105784 -0.096173 0.083979
-0.088962 -0.096173 0.083979
0.096136 -0.096173 0.083978
0.17857 -0.096173 0.079921
0.252392 -0.096174 0.080433
0.324332 -0.096175 0.081644
0.395775 -0.096176 0.082894
0.467206 -0.096178 0.084076
0.538733 -0.09618 0.085129
0.610069 -0.096183 0.085955
0.680691 -0.096175 0.086485
0.750845 -0.096179 0.086802
0.819985 -0.096183 0.08689
0.888698 -0.096187 0.086834
0.955874 -0.096192 0.08656
1.020935 -0.096197 0.085893
-0.105784 -0.080879 0.083979
-0.085647 -0.077868 0.083979
0.096136 -0.077869 0.083978
0.17857 -0.077869 0.082223
0.252392 -0.077869 0.083206
0.324332 -0.07787 0.08438
0.395775 -0.077871 0.085455
0.467206 -0.077873 0.08644
0.538733 -0.077874 0.087284
0.610069 -0.077876 0.087951
0.68069 -0.077879 0.088379
0.750845 -0.077881 0.08864
0.819984 -0.077885 0.088719
0.888698 -0.077888 0.088672
0.955874 -0.077892 0.088465
1.020935 -0.077894 0.087933
-0.105784 0.087399 0.083978
-0.085647 0.087399 0.083978
0.096697 0.087247 0.083517
0.182966 0.084044 0.080076
0.26097 0.075936 0.071213
0.333824 0.068164 0.062696
0.404647 0.062395 0.056261
0.475107 0.058362 0.051665
0.545653 0.055605 0.048446
0.616116 0.053748 0.046251
0.686091 0.052545 0.044816
0.755556 0.051797 0.043923
0.824233 0.0514 0.043443
0.892461 0.051245 0.043275
0.95933 0.051283 0.043346
1.020935 0.087377 0.083951
-0.105785 0.162343 0.07992
-0.085648 0.162343 0.082223
0.087384 0.163963 0.071195
0.180211 0.162366 0.06713
0.257457 0.161727 0.061925
0.330718 0.160813 0.057012
0.402405 0.160044 0.052894
0.473506 0.159608 0.049671
0.54455 0.159393 0.047274
0.615339 0.159294 0.045571
0.68548 0.15918 0.044434
0.755164 0.159053 0.043728
0.823896 0.158872 0.043365
0.892211 0.158643 0.043272
0.959212 0.158333 0.043396
1.020935 0.168148 0.08395
-0.105786 0.229456 0.080431
-0.085649 0.229456 0.083205
0.07772 0.231365 0.058313
0.177415 0.230566 0.056634
0.253832 0.229535 0.054455
0.327715 0.230339 0.051884
0.400031 0.230914 0.049516
0.47176 0.231425 0.047519
0.543236 0.231932 0.045932
0.614382 0.232308 0.044762
0.684755 0.232466 0.043974
0.754638 0.232478 0.043503
0.823462 0.232328 0.043296
0.891903 0.232036 0.043302
0.958954 0.231582 0.043487
1.020934 0.236483 0.083949
-0.105788 0.29487 0.081641
-0.085651 0.29487 0.084377
0.072521 0.296497 0.050901
0.175953 0.2961 0.050193
0.253411 0.295578 0.049219
0.32546 0.294932 0.048085
0.398088 0.29641 0.046804
0.47017 0.297701 0.045666
0.541976 0.29879 0.044729
0.613386 0.299586 0.044033
0.684017 0.300025 0.043571
0.754029 0.30021 0.043327
0.82301 0.300077 0.043276
0.891513 0.299751 0.043397
0.958594 0.299176 0.043657
1.020934 0.301675 0.083947
-0.10579 0.359774 0.082889
-0.085654 0.359774 0.085451
0.06978 0.361183 0.046752
0.17547 0.360939 0.046443
0.253602 0.360626 0.046008
0.326233 0.3603 0.045481
0.396656 0.359855 0.044929
0.46888 0.361766 0.044333
0.540875 0.363427 0.043854
0.612461 0.364655 0.04351
0.683211 0.365301 0.04332
0.753379 0.365637 0.043274
0.822519 0.365554 0.043367
0.891126 0.365242 0.043593
0.958294 0.364556 0.043924
1.020934 0.365548 0.083944
-0.105793 0.424745 0.084069
-0.085657 0.424745 0.086428
0.068348 0.425863 0.04452
0.175577 0.425763 0.044398
0.254188 0.42557 0.044217
0.3273 0.425357 0.044
0.398167 0.42507 0.043767
0.467907 0.424797 0.043557
0.540015 0.426906 0.043373
0.61167 0.428505 0.043279
0.682557 0.429419 0.043292
0.752811 0.429921 0.043401
0.821972 0.429902 0.043613
0.890618 0.429592 0.043922
0.957873 0.42882 0.044315
1.020934 0.428813 0.08394
-0.105797 0.489777 0.085119
-0.085667 0.489777 0.08728
0.067676 0.490731 0.043502
0.175896 0.490641 0.043461
0.254947 0.490532 0.043411
0.328408 0.49039 0.043349
0.399712 0.490213 0.043302
0.469829 0.490039 0.043274
0.539305 0.489826 0.043283
0.61104 0.491789 0.043359
0.681922 0.492937 0.04351
0.752291 0.493603 0.043733
0.821567 0.493635 0.044034
0.890265 0.493334 0.044405
0.957555 0.492483 0.044844
1.020934 0.491714 0.08394
-0.105801 0.554648 0.085947
-0.085672 0.554648 0.087938
0.067481 0.555432 0.043279
0.176297 0.55534 0.043284
0.255633 0.55527 0.0433
0.329377 0.555193 0.043328
0.40092 0.555089 0.043373
0.471352 0.554961 0.043452
0.541152 0.554789 0.043569
0.610552 0.554694 0.043734
0.681484 0.556075 0.043973
0.751897 0.556875 0.044275
0.821109 0.556963 0.04463
0.889919 0.556618 0.045053
0.957203 0.555699 0.045527
1.020934 0.554383 0.083935
-0.105806 0.618854 0.086463
-0.085675 0.618854 0.088363
0.067607 0.619504 0.043609
0.176607 0.619495 0.04364
0.256067 0.619418 0.043691
0.329969 0.619352 0.043761
0.401675 0.619293 0.043859
0.472283 0.619198 0.044
0.542267 0.619088 0.044175
0.611845 0.618976 0.044402
0.681113 0.618883 0.044672
0.751478 0.619807 0.045026
0.820802 0.619948 0.045421
0.889626 0.619653 0.045871
0.956968 0.618665 0.046355
1.020934 0.616832 0.083924
-0.105809 0.682635 0.086785
-0.085682 0.682635 0.08862
0.067963 0.683233 0.044332
0.176852 0.683209 0.044375
0.256354 0.683172 0.044439
0.330311 0.68308 0.04454
0.402078 0.683074 0.044667
0.472785 0.682998 0.044835
0.542858 0.682951 0.045042
0.612552 0.68286 0.045296
0.681921 0.682722 0.045609
0.751249 0.682662 0.045959
0.82052 0.682901 0.046384
0.889322 0.68261 0.046841
0.956698 0.681508 0.047337
1.020934 0.679287 0.083917
-0.105807 0.745466 0.086868
-0.08569 0.745466 0.088689
0.068497 0.745985 0.045339
0.176958 0.745958 0.045389
0.256409 0.745918 0.045465
0.33035 0.745958 0.04557
0.402094 0.745887 0.045715
0.472798 0.745798 0.045896
0.542886 0.745816 0.046118
0.61259 0.745806 0.046392
0.681989 0.745693 0.046712
0.751241 0.74562 0.047077
0.82031 0.745502 0.047499
0.8891 0.745232 0.047971
0.956494 0.74407 0.048463
1.020933 0.741525 0.083912
-0.105815 0.80796 0.086803
-0.085694 0.80796 0.088644
0.069175 0.808354 0.046567
0.177027 0.808341 0.046614
0.256332 0.808319 0.04669
0.330184 0.808318 0.046804
0.401892 0.80828 0.046954
0.472515 0.808235 0.047141
0.542557 0.808183 0.047374
0.612234 0.808208 0.047646
0.681589 0.808146 0.047971
0.750852 0.808117 0.048345
0.819823 0.80805 0.048754
0.888965 0.807982 0.049232
0.956322 0.806728 0.049719
1.020933 0.803887 0.083903
-0.105823 0.869085 0.086531
-0.085703 0.869085 0.088428
0.069964 0.869496 0.047938
0.176939 0.869485 0.047989
0.256008 0.869469 0.048068
0.329701 0.869445 0.048179
0.401244 0.869415 0.048329
0.471762 0.869378 0.048511
0.541687 0.869336 0.048746
0.611232 0.869288 0.049018
0.680462 0.869237 0.049337
0.749598 0.869236 0.049705
0.81849 0.869221 0.050117
0.887492 0.869163 0.050576
0.956106 0.869105 0.051078
1.020933 0.865983 0.083894
-0.105831 0.928182 0.085848
-0.085724 0.928183 0.087888
0.070819 0.928487 0.049395
0.176568 0.928478 0.049446
0.255213 0.928465 0.049524
0.328553 0.928551 0.04964
0.399821 0.928527 0.049783
0.470004 0.928497 0.049968
0.539645 0.928462 0.050188
0.60892 0.92842 0.050457
0.677925 0.928377 0.050763
0.746845 0.928331 0.051114
0.815451 0.928282 0.051516
0.884153 0.928302 0.051965
0.952607 0.928252 0.052457
1.020932 0.928181 0.083877
-0.105784 -0.096173 0.155996
-0.089908 -0.096173 0.155996
0.09149 -0.096173 0.155996
0.17857 -0.096173 0.155996
0.252392 -0.096174 0.15652
0.324332 -0.096175 0.157784
0.395775 -0.096176 0.159118
0.467206 -0.096178 0.160372
0.538733 -0.09618 0.161513
0.610069 -0.096183 0.162403
0.680691 -0.096175 0.162973
0.750845 -0.096179 0.16334
0.819984 -0.096183 0.163426
0.888698 -0.096187 0.163367
0.955874 -0.096192 0.163071
1.020934 -0.096197 0.162343
-0.105784 -0.081737 0.155996
-0.085647 -0.077869 0.155996
0.09413 -0.077869 0.155996
0.17857 -0.077869 0.155996
0.252392 -0.07787 0.157202
0.324332 -0.07787 0.158664
0.395775 -0.077871 0.160025
0.467206 -0.077873 0.161263
0.538733 -0.077874 0.162343
0.610069 -0.077876 0.163198
0.68069 -0.077879 0.163741
0.750845 -0.077882 0.164078
0.819984 -0.077885 0.164173
0.888698 -0.077888 0.164119
0.955874 -0.077892 0.163857
1.020935 -0.077895 0.163182
-0.105784 0.083172 0.155996
-0.085647 0.08557 0.155996
0.096087 0.086545 0.159711
0.18276 0.083193 0.158738
0.260787 0.074692 0.1581
0.333986 0.066204 0.155738
0.40504 0.05956 0.153733
0.475581 0.054678 0.152457
0.546172 0.051192 0.151734
