site/assets/luts/freshluts--0000198-paladin.cube
# LUTr-Schema-Version: 2
# LUTr-ID: freshluts--0000198-paladin
# LUTr-Title: Paladin
# LUTr-Collection: Fresh LUTs
# LUTr-Collection-ID: freshluts-community
# LUTr-Source: https://freshluts.com
# LUTr-Retrieved: 2026-07-27
# LUTr-Source-File: submissions-raw/freshluts/cubes/198__Paladin.cube
# LUTr-Source-Format: CUBE
# LUTr-Source-SHA256: 0449eb1638ef7e62a2132c7e518a3c15a4a6cdb93156c71e2f4298123f032589
# LUTr-License: CC0-1.0
# LUTr-License-URL: https://freshluts.com/termsandconditions
# LUTr-License-Basis: site-terms
# LUTr-Transform-Class: creative-look
# LUTr-Tags: creative, freshluts, community, cube, cinematic, blockbuster, teal
# LUTr-Input-Color-Space:
# LUTr-Input-Gamut: unspecified
# LUTr-Input-Transfer: unspecified
# LUTr-Output-Color-Space: srgb
# LUTr-Output-Gamut: rec709
# LUTr-Output-Transfer: srgb
# LUTr-Color-Space-Confidence: camera-profile-input-required
# LUTr-Domain-Normalized: true
# LUTr-Shaper: none
# LUTr-Original-Grid: 33x33x33
# LUTr-Conversion-Grid: 33x33x33
# LUTr-Conversion-Interpolation: none
# LUTr-Conversion-Method: Metadata normalization; numeric LUT samples preserved
# LUTr-Conversion-Tool: LUTr scripts/convert-all-to-cube.mjs 2.0.0
# LUTr-Conversion-Date: 2026-07-28
# LUTr-Asset-URL: https://freshluts.com/luts/198
# LUTr-Author: Cube Frames
# LUTr-Author-URL: https://freshluts.com/users/1308
# LUTr-Attribution: Cube Frames via Fresh LUTs
# LUTr-Source-Labels: gamma=Other; color=Teal; key=Neutral; style=Blockbuster
# LUTr-Note: Preserve this metadata and the upstream license notices when redistributing.
TITLE "Paladin"
LUT_3D_SIZE 9
DOMAIN_MIN 0 0 0
DOMAIN_MAX 1 1 1
0 0 0
0 0 0
0.0126192 0 0
0.0530404 0.000137331 0.00123598
0.160739 0.0101167 0.0216373
0.52459 0 0.0206455
0.835187 0 0.000854505
1 0 0
1 0 0
0 0 0
0.000289921 0.000289921 0
0.0251621 0.0115969 0
0.0643168 0.0274968 0.0162814
0.189609 0.0325628 0.0252384
0.55726 0.0115206 0.0108339
0.860059 0 0
1 0 0
1 0 0
0 0.0160525 0
0.00630198 0.0302434 0.000183108
0.0190738 0.0500191 0.0167697
0.0757305 0.0695659 0.0310369
0.257099 0.0710918 0.0261082
0.629374 0.0509957 0.000213626
0.918929 0.038056 0
1 0.0438239 0
1 0.0588083 0
0 0.0597848 0
0 0.0938735 0.00895705
0 0.130694 0.0227054
0.0662547 0.161746 0.0222629
0.338628 0.166354 0
0.677546 0.162478 0
0.94728 0.169116 0
1 0.190921 0
1 0.221042 0
0 0.18793 0
0 0.262165 0
0 0.327642 0
0.0177157 0.363989 0
0.379416 0.375235 0
0.674495 0.381659 0
0.914824 0.398627 0
1 0.437095 0
1 0.487144 0
0 0.545541 0
0 0.598093 0
0 0.642832 0
0 0.667964 0
0.396231 0.672404 0
0.679042 0.675502 0
0.888548 0.69099 0
1 0.720577 0
1 0.752148 0
0 0.819135 0
0 0.856779 0
0 0.889235 0
0 0.902968 0
0.446311 0.89572 0
0.722438 0.884749 0
0.891493 0.882063 0
0.989685 0.890608 0
1 0.901564 0
0 1 0
0 1 0
0 1 0
0.0876478 1 0
0.523033 1 0
0.771862 0.992752 0
0.908766 0.978271 0
0.987457 0.975326 0
1 0.976242 0
0 1 0
0 1 0
0 1 0
0.166155 1 0
0.574105 1 0
0.801587 1 0
0.919081 1 0
0.986679 1 0
1 1 0
0 0 0
0 0 0
0.0133059 0 0
0.0538949 0.000823987 0.0154879
0.161349 0.00972 0.0403449
0.524849 0 0.0476081
0.834516 0 0.0320439
1 0 0.0223697
1 0 0.0180056
0 0 0
0.000885023 0.000885023 0.000885023
0.0251011 0.0125124 0.0130007
0.0649882 0.0283055 0.034226
0.193591 0.0325628 0.0490578
0.560967 0.0105745 0.0421912
0.863554 0 0.024155
1 0 0.0172885
1 0 0.0189364
0 0.0170596 0.0016022
0.00529488 0.0322576 0.0165866
0.0180819 0.0525978 0.03682
0.0776837 0.0721447 0.0565805
0.267018 0.0726329 0.0585946
0.640314 0.0523384 0.0394751
0.926757 0.0411841 0.027451
1 0.0482948 0.0314031
1 0.0646983 0.0428626
0 0.0650492 0.0110323
0 0.100786 0.0336309
0 0.138933 0.0536202
0.0721141 0.169497 0.0603952
0.356085 0.173327 0.0442817
0.692531 0.170611 0.0319829
0.959991 0.178058 0.02916
1 0.200763 0.0395514
1 0.231113 0.0564736
0 0.206012 0.00891127
0 0.28127 0.0168307
0 0.34493 0.0187991
0.0335851 0.378698 0.0182956
0.396338 0.390051 0.00704967
0.688807 0.395804 0
0.926238 0.413748 0
1 0.453361 0
1 0.50425 0.0124971
0 0.563165 0
0 0.613779 0
0 0.657221 0
0 0.682399 0
0.411994 0.68661 0
0.693141 0.689204 0
0.898436 0.703639 0
1 0.731624 0
1 0.761273 0
0 0.831418 0
0 0.868177 0
0 0.899382 0
0.00668345 0.911894 0
0.460182 0.903517 0
0.731746 0.89131 0
0.896895 0.887312 0
0.992645 0.89456 0
1 0.904402 0
0 1 0
0 1 0
0 1 0
0.0986343 1 0
0.530205 1 0
0.776013 0.994247 0
0.910567 0.979248 0
0.987869 0.975738 0
1 0.976226 0
0 1 0
0 1 0
0 1 0
0.169314 1 0
0.576196 1 0
0.80293 1 0
0.919158 1 0
0.986053 1 0
1 1 0
0 0 0
0 0 0.00317388
0.013962 0 0.013962
0.0544594 0.00122072 0.031754
0.160525 0.00900282 0.061387
0.523781 0 0.0780194
0.832639 0 0.0674601
1 0 0.0606241
1 0 0.0582742
0 0 0.00560006
0.0012665 0.0012665 0.0160525
0.0248417 0.0132143 0.0295109
0.0654154 0.0288701 0.0551003
0.197223 0.0323033 0.0764782
0.563897 0.00936904 0.0779736
0.866423 0 0.0646525
1 0 0.0612345
1 0 0.0654459
0 0.0179294 0.0179294
0.00401312 0.0341802 0.0356756
0.0167849 0.0550851 0.0605325
0.07953 0.0746014 0.0872358
0.277012 0.0739605 0.0967422
0.650706 0.0536355 0.0849165
0.934279 0.0442969 0.077821
1 0.0527657 0.0855726
1 0.0704967 0.101411
0 0.0704662 0.0342718
0 0.108003 0.0636301
0 0.147219 0.0913405
0.0785382 0.177188 0.106676
0.372808 0.180362 0.0986954
0.706737 0.178637 0.0910658
0.971603 0.186755 0.0920424
1 0.210163 0.106065
1 0.240497 0.126238
0 0.224506 0.0471656
0 0.299916 0.0644388
0 0.361028 0.0754253
0.0488746 0.393271 0.0817273
0.41088 0.404273 0.0735637
0.702113 0.409567 0.0613413
0.936675 0.428519 0.058793
1 0.469078 0.0720531
1 0.520577 0.093843
0 0.579049 0.00604257
0 0.628 0.0224765
0 0.670802 0.0380255
0.00607309 0.695872 0.0421607
0.427192 0.699733 0.0290837
0.706035 0.701732 0.0131991
0.907134 0.715053 0.00740063
1 0.74139 0.0171664
1 0.769116 0.0326848
0 0.842695 0
0 0.878447 0.00843824
0 0.90837 0.0265354
0.0227054 0.919631 0.0292058
0.47245 0.910109 0.0089723
0.739727 0.896696 0
0.901198 0.891493 0
0.994675 0.897581 0
1 0.906386 0
0 1 0.0277104
0 1 0.0455634
0 1 0.0588998
0.107149 1 0.0515908
0.535775 1 0.0172122
0.779202 0.99498 0
0.911589 0.979492 0
0.98764 0.975494 0
1 0.975631 0
0 1 0.0746014
0 1 0.0830396
0 1 0.0863661
0.169986 1 0.0677958
0.576822 1 0.0222629
0.803601 1 0
0.918669 1 0
0.984924 1 0
1 1 0
0 0 0.0178531
0 0 0.0281987
0.0126192 0 0.039765
0.0529946 0 0.0598001
0.149981 0.00595102 0.0979171
0.511635 0 0.135988
0.819608 0 0.134997
1 0 0.133059
1 0 0.134386
0 0 0.0319066
0 0 0.0429847
0.0233463 0.0115816 0.0579995
0.0634165 0.0270848 0.0921798
0.195834 0.0297246 0.127962
0.556848 0.00569162 0.146929
0.859724 0 0.142947
1 0 0.144915
1 0 0.154025
0 0.0167086 0.0467842
0.00198367 0.0334936 0.0687114
0.0140078 0.0548104 0.10248
0.0779889 0.0742351 0.143572
0.281468 0.0723583 0.170321
0.652369 0.0517739 0.172457
0.934218 0.0438697 0.172961
1 0.0534676 0.187091
1 0.0721904 0.209583
0 0.0729076 0.0754559
0 0.111955 0.118349
0 0.151919 0.162219
0.0801099 0.181109 0.195514
0.382696 0.183703 0.200778
0.713222 0.182483 0.200092
0.975509 0.190906 0.207767
1 0.214359 0.228626
1 0.244648 0.255497
0 0.238025 0.122087
0 0.312749 0.158618
0 0.370825 0.184665
0.0557259 0.402121 0.19855
0.418982 0.412253 0.196338
0.708537 0.41738 0.190097
0.940429 0.436896 0.194446
1 0.477928 0.215396
1 0.529519 0.244511
0 0.587198 0.124498
0 0.634684 0.147036
0 0.677684 0.169329
0.0119478 0.70277 0.180041
0.435248 0.706477 0.173266
0.71252 0.708049 0.163256
0.909834 0.720424 0.162951
1 0.745296 0.178134
1 0.771313 0.198306
0 0.847578 0.129717
0 0.882536 0.154925
0 0.911391 0.17937
0.0260014 0.921614 0.187518
0.476158 0.911177 0.171313
0.742 0.896803 0.148089
0.900343 0.890669 0.133715
0.991943 0.895827 0.13518
1 0.903822 0.142138
0 1 0.188067
0 1 0.210803
0 1 0.228168
0.100999 1 0.223667
0.532418 1 0.19115
0.777569 0.991394 0.15285
0.908186 0.97557 0.125704
0.983291 0.971267 0.116701
1 0.97116 0.114885
0 1 0.249165
0 1 0.260777
0 1 0.266651
0.155138 1 0.249256
0.56817 1 0.203647
0.800031 1 0.154726
0.91426 1 0.119738
0.980102 1 0.105241
1 1 0.0994583
0 0 0.0791485
0 0 0.0883192
0.010544 0 0.0986954
0.0498207 0 0.113756
0.142535 0.00120546 0.157671
0.486381 0 0.226444
0.793042 0 0.242039
0.982528 0 0.248875
1 0 0.25658
0 0 0.0902113
0 0 0.100511
0.0203861 0.00851453 0.116045
0.0587778 0.0230411 0.156771
0.188403 0.0243076 0.209216
0.537713 0 0.256565
0.841474 0 0.268254
1 0 0.279332
1 0 0.295842
0 0.0137942 0.102144
0 0.0307622 0.1308
0.00863661 0.0521248 0.180987
0.0720073 0.0705425 0.242054
0.278782 0.0669261 0.2907
0.643549 0.0457313 0.314305
0.924773 0.0387427 0.326085
1 0.0490578 0.35198
1 0.0683299 0.390433
0 0.0715496 0.139986
0 0.111742 0.206806
0 0.152071 0.280156
0.0743267 0.180117 0.346044
0.384634 0.181979 0.369406
0.710292 0.180743 0.380514
0.970001 0.188891 0.402274
1 0.21181 0.440696
1 0.242084 0.49102
0 0.244938 0.246052
0 0.317998 0.314839
0 0.373114 0.364599
0.0512551 0.403632 0.393332
0.419059 0.412314 0.401617
0.706691 0.417502 0.406577
0.936141 0.437064 0.425544
1 0.477974 0.466453
1 0.529015 0.522255
0 0.586252 0.312993
0 0.633097 0.347051
0 0.676616 0.385428
0.00462348 0.7019 0.411933
0.434272 0.705699 0.415961
0.711543 0.707103 0.41529
0.905455 0.718776 0.42623
1 0.742443 0.456077
1 0.767056 0.493233
0 0.844907 0.355093
0 0.879271 0.39765
0 0.907317 0.441047
0.0128023 0.916762 0.462226
0.469169 0.905684 0.450401
0.737713 0.890684 0.428672
0.893385 0.883894 0.417548
0.983474 0.888395 0.425818
1 0.895811 0.440452
0 1 0.467475
0 1 0.509331
0 1 0.543236
0.0763104 1 0.543984
0.517983 1 0.503716
0.770291 0.982513 0.456336
0.899458 0.966537 0.42591
0.973877 0.962127 0.41883
1 0.961929 0.420584
0 1 0.583886
0 1 0.605844
0 1 0.618357
0.120195 1 0.599756
0.548226 1 0.539925
0.791485 1 0.474098
0.905074 1 0.431876
0.970642 1 0.416983
1 1 0.413245
0 0 0.220493
0 0 0.228748
0.0185245 0 0.246662
0.0515908 0.00254826 0.310719
0.154467 0 0.389609
0.485985 0 0.484413
0.782147 0 0.493309
0.967269 0 0.500282
1 0 0.514504
0 0 0.22707
0.00123598 0.00720226 0.247974
0.0114137 0.0186007 0.30457
0.0546883 0.0271153 0.388632
0.196124 0.0187228 0.473106
0.535851 0 0.535546
0.832288 0 0.543877
1 0 0.561669
1 0 0.593179
0 0.0256199 0.258381
0 0.0431373 0.330266
0 0.0608377 0.423896
0.0628214 0.0715496 0.536614
0.2851 0.0599069 0.619318
0.64007 0.0383001 0.640894
0.916457 0.0334478 0.646708
1 0.0443275 0.681193
1 0.0640116 0.727657
0 0.0873426 0.339559
0 0.124743 0.465339
0 0.159609 0.596613
0.0650339 0.180179 0.697871
0.38703 0.180346 0.711421
0.707729 0.178714 0.709026
0.964477 0.186282 0.723415
1 0.208453 0.756603
1 0.239155 0.79675
0 0.260456 0.492699
0 0.326436 0.612482
0 0.375051 0.679194
0.0453803 0.40473 0.706523
0.418875 0.412131 0.706874
0.704845 0.417288 0.706096
0.931563 0.436667 0.721172
1 0.477256 0.754192
1 0.52752 0.791379
0 0.584924 0.586267
0 0.631769 0.634943
0 0.675578 0.680247
0 0.700816 0.706355
0.43241 0.70457 0.710216
0.710079 0.705684 0.71136
0.900465 0.716564 0.722622
1 0.738918 0.745815
1 0.762188 0.769955
0 0.841962 0.650156
0 0.875608 0.693996
0 0.902724 0.730907
0 0.911315 0.747906
0.460548 0.899565 0.743236
0.732845 0.884001 0.73431
0.885908 0.876631 0.73312
0.974533 0.880507 0.742855
1 0.887373 0.755016
0 1 0.751202
0 1 0.777081
0 1 0.795972
0.049424 1 0.798093
0.502007 0.997497 0.782406
0.7626 0.97322 0.764309
0.890364 0.957137 0.754314
0.964126 0.952636 0.755657
1 0.952377 0.760861
0 1 0.81619
0 1 0.827359
0 1 0.834211
0.0840314 1 0.827726
0.527398 1 0.806592
0.782681 1 0.784558
0.895644 1 0.771313
0.960967 0.995621 0.769467
1 0.992905 0.77229
0 0 0.32871
0.00184634 0 0.350881
0.0116426 0.0016022 0.416098
0.0488136 0.00482185 0.512383
0.163653 0 0.62681
0.49398 0 0.760998
0.784619 0 0.786679
0.964034 0 0.797162
1 0 0.808423
0 0.00590524 0.349065
0 0.0158083 0.414908
0 0.0247654 0.499245
0.048188 0.0278019 0.615015
0.202991 0.0127108 0.733211
0.5411 0 0.819303
0.830839 0 0.833188
1 0 0.844999
1 0 0.871183
0 0.0359197 0.428885
0 0.0513771 0.533303
0 0.0656443 0.658015
0.0549783 0.0709697 0.803037
0.292561 0.0547646 0.905104
0.640421 0.0353094 0.919005
0.915434 0.031632 0.91841
1 0.0431678 0.945876
1 0.0633707 0.983749
0 0.101305 0.554177
0 0.134951 0.71751
0 0.16553 0.87361
0.0634928 0.182086 0.975631
0.393301 0.182223 0.974136
0.711192 0.180316 0.963134
0.964508 0.187457 0.967865
1 0.209323 0.991226
1 0.240787 1
0 0.27805 0.756146
0 0.336233 0.878691
0 0.38117 0.928817
0.0462806 0.410071 0.947417
0.423865 0.417044 0.939818
0.708507 0.422309 0.930022
0.932052 0.441627 0.935119
1 0.481987 0.957458
1 0.531548 0.983825
0 0.589044 0.822126
0 0.636118 0.862516
0 0.679744 0.89897
0 0.704601 0.915984
0.436042 0.707973 0.910292
0.712947 0.708476 0.901183
0.899474 0.718242 0.902281
1 0.739055 0.915694
1 0.760891 0.931105
0 0.843626 0.854459
0 0.876249 0.888228
0 0.902174 0.915084
0 0.909667 0.92285
0.457542 0.897063 0.909789
0.731579 0.880796 0.892927
0.881926 0.87274 0.884596
0.968948 0.875929 0.887892
1 0.882185 0.894392
0 1 0.920913
0 1 0.938231
0 1 0.949691
0.0326696 1 0.945754
0.492058 0.991882 0.924819
0.758251 0.967102 0.901717
0.884535 0.950866 0.887221
0.957519 0.946212 0.88452
1 0.945846 0.886076
0 1 0.959899
0 1 0.965713
0 1 0.968017
0.0594034 1 0.958022
0.513191 1 0.933715
0.777127 1 0.908461
0.889311 0.996139 0.892042
0.954284 0.988846 0.887297
0.998749 0.986267 0.887358
0 0 0.394385
0 0 0.459922
0.00491341 0.00509651 0.539879
0.0462043 0.00527962 0.654017
0.169955 0 0.78497
0.501045 0 0.931029
0.788495 0 0.958968
0.964294 0 0.967697
1 0 0.975998
0 0.0119326 0.45481
0 0.0209506 0.53959
0 0.0278935 0.637491
0.0443275 0.027924 0.770779
0.210147 0.00910964 0.903639
0.549416 0 0.992721
0.83473 0 1
1 0 1
1 0 1
0 0.042771 0.556466
0 0.0569314 0.680949
0 0.0694743 0.823941
0.0533455 0.0719768 0.982574
0.304952 0.0541543 1
0.649287 0.0376287 1
0.923659 0.0347753 1
1 0.0471962 1
1 0.0681163 1
0 0.112627 0.71519
0 0.144472 0.896315
0 0.173236 1
0.0732128 0.188647 1
0.405997 0.189288 1
0.722774 0.18735 1
0.972076 0.194247 1
1 0.216495 1
1 0.249012 1
0 0.296071 0.934646
0 0.349508 1
0 0.393576 1
0.0574502 0.42182 1
0.43624 0.429297 1
0.719478 0.434897 1
0.939284 0.454383 1
1 0.494682 1
1 0.543679 1
0 0.600916 0.961685
0 0.647837 0.996963
0 0.690852 1
0.00772107 0.7149 1
0.447669 0.717479 1
0.72166 0.71696 1
0.90396 0.725231 1
1 0.744259 1
1 0.764508 1
0 0.85156 0.974487
0 0.88275 1
0 0.907149 1
0 0.913252 1
0.462928 0.89958 1
0.735332 0.882475 0.984558
0.882795 0.873594 0.971984
0.968078 0.875944 0.97145
1 0.881468 0.974563
0 1 1
0 1 1
0 1 1
0.0305638 1 1
0.491188 0.990463 1
0.758541 0.965393 0.980697
0.883223 0.948943 0.963653
0.955322 0.94406 0.958587
1 0.943511 0.958022
0 1 1
0 1 1
0 1 1
0.050782 1 1
0.508537 1 1
0.776043 1 0.979507
0.887221 0.993317 0.961379
0.951736 0.986053 0.954986
0.995956 0.983536 0.95349
0 0 0.472511
0 0.00276188 0.54931
0 0.00730907 0.639429
0.0443427 0.0053254 0.764553
0.175784 0 0.904906
0.508553 0 1
0.793912 0 1
0.966949 0 1
1 0 1
0 0.0163424 0.541726
0 0.0244297 0.638956
0 0.0302281 0.747951
0.0423133 0.0281834 0.892775
0.218448 0.00689708 1
0.559731 0 1
0.841276 0 1
1 0 1
1 0 1
0 0.0483711 0.662531
0 0.0617533 0.802152
0 0.0732891 0.957382
0.0555276 0.0741131 1
0.320287 0.0561685 1
0.66273 0.042298 1
0.935882 0.0403601 1
1 0.0536965 1
1 0.0753643 1
0 0.123323 0.85124
0 0.154269 1
0 0.182239 1
0.0892653 0.19794 1
0.42153 0.198947 1
0.737453 0.196948 1
0.982483 0.203479 1
1 0.226673 1
1 0.260426 1
0 0.314336 1
0 0.364172 1
0 0.408713 1
0.0739605 0.436866 1
0.452049 0.445045 1
0.733318 0.451011 1
0.949111 0.470619 1
1 0.510826 1
1 0.559152 1
0 0.615991 1
0 0.662516 1
0 0.704631 1
0.0256657 0.727642 1
0.462593 0.729183 1
0.732433 0.727428 1
0.910353 0.734035 1
1 0.751247 1
1 0.769909 1
0 0.861814 1
0 0.891386 1
0 0.914092 1
0.00958267 0.918715 1
0.47158 0.903944 1
0.740902 0.885954 1
0.885512 0.876219 1
0.969055 0.877729 1
1 0.882521 1
0 1 1
0 1 1
0 1 1
0.0344396 1 1
0.493996 0.990845 1
0.760647 0.965499 1
0.883741 0.948821 1
0.95491 0.943664 1
1 0.942901 1
0 1 1
0 1 1
0 1 1
0.0488289 1 1
0.507912 1 1
0.776684 1 1
0.886931 0.992203 1
0.950942 0.984955 1
0.994873 0.982498 0.998489
