site/assets/luts/freshluts--0000226-flog-to-rec-709.cube
# LUTr-Schema-Version: 2
# LUTr-ID: freshluts--0000226-flog-to-rec-709
# LUTr-Title: Flog to Rec 709
# LUTr-Collection: Fresh LUTs
# LUTr-Collection-ID: freshluts-community
# LUTr-Source: https://freshluts.com
# LUTr-Retrieved: 2026-07-27
# LUTr-Source-File: submissions-raw/freshluts/cubes/226__Flog_to_Rec_709.cube
# LUTr-Source-Format: CUBE
# LUTr-Source-SHA256: a058232067ee13a61b5afe4f25aff97ff5eaf47a667d7d275dad7c7f0878bac0
# LUTr-License: CC0-1.0
# LUTr-License-URL: https://freshluts.com/termsandconditions
# LUTr-License-Basis: site-terms
# LUTr-Transform-Class: creative-look
# LUTr-Tags: creative, freshluts, community, cube, rec709
# LUTr-Input-Color-Space: rec709
# LUTr-Input-Gamut: rec709
# LUTr-Input-Transfer: rec709
# LUTr-Output-Color-Space: srgb
# LUTr-Output-Gamut: rec709
# LUTr-Output-Transfer: srgb
# LUTr-Color-Space-Confidence: declared-by-source
# LUTr-Domain-Normalized: true
# LUTr-Shaper: none
# LUTr-Original-Grid: 16x16x16
# LUTr-Conversion-Grid: 16x16x16
# LUTr-Conversion-Interpolation: none
# LUTr-Conversion-Method: Metadata normalization; numeric LUT samples preserved
# LUTr-Conversion-Tool: LUTr scripts/convert-all-to-cube.mjs 2.0.0
# LUTr-Conversion-Date: 2026-07-28
# LUTr-Asset-URL: https://freshluts.com/luts/226
# LUTr-Author: Andy
# LUTr-Author-URL: https://freshluts.com/users/1003
# LUTr-Attribution: Andy via Fresh LUTs
# LUTr-Source-Labels: gamma=Rec 709; color=None; key=Neutral; style=Correction
# LUTr-Note: Preserve this metadata and the upstream license notices when redistributing.
TITLE "Flog to Rec 709"
LUT_3D_SIZE 16
DOMAIN_MIN 0 0 0
DOMAIN_MAX 1 1 1
0 0 0
0 0 0
0.049478 -0.000201 -0.000201
0.142068 -0.000577 -0.000577
0.232671 -0.000945 -0.000945
0.324222 -0.001317 -0.001317
0.421988 -0.001714 -0.001714
0.530255 -0.002154 -0.002154
0.640519 -0.002603 -0.002603
0.741205 -0.003012 -0.003012
0.832887 -0.003384 -0.003384
0.916274 -0.003723 -0.003723
0.986587 -0.004009 -0.004009
1.000003 -0.004063 -0.004063
1.000003 -0.004063 -0.004063
1.000003 -0.004063 -0.004063
0 0 0
0 0 0
0.049478 -0.000201 -0.000201
0.142068 -0.000577 -0.000577
0.232671 -0.000945 -0.000945
0.324222 -0.001317 -0.001317
0.421988 -0.001714 -0.001714
0.530255 -0.002154 -0.002154
0.640519 -0.002603 -0.002603
0.741205 -0.003012 -0.003012
0.832887 -0.003384 -0.003384
0.916274 -0.003723 -0.003723
0.986587 -0.004009 -0.004009
1.000003 -0.004063 -0.004063
1.000003 -0.004063 -0.004063
1.000003 -0.004063 -0.004063
-0.000227 0.033758 -0.000227
-0.000227 0.033758 -0.000227
0.031969 0.030048 -0.000229
0.128694 0.023358 -0.000535
0.224208 0.011569 -0.000912
0.318428 0.001769 -0.001294
0.417912 -0.001698 -0.001698
0.527315 -0.002142 -0.002142
0.638218 -0.002593 -0.002593
0.739498 -0.003005 -0.003005
0.83128 -0.003378 -0.003378
0.915038 -0.003718 -0.003718
0.985787 -0.004005 -0.004005
1.000003 -0.004063 -0.004063
1.000003 -0.004063 -0.004063
1.000003 -0.004063 -0.004063
-0.0007 0.103934 -0.0007
-0.0007 0.103934 -0.0007
0.006704 0.100586 -0.000678
0.098539 0.093626 -0.000712
0.20596 0.079163 -0.000945
0.305918 0.05653 -0.001273
0.408826 0.026599 -0.001664
0.520489 0.003862 -0.002115
0.632969 -0.002572 -0.002572
0.735115 -0.002987 -0.002987
0.82762 -0.003363 -0.003363
0.911595 -0.003704 -0.003704
0.983661 -0.003996 -0.003996
1.000003 -0.004063 -0.004063
1.000003 -0.004063 -0.004063
1.000003 -0.004063 -0.004063
-0.001214 0.180227 -0.001214
-0.001214 0.180227 -0.001214
-0.001199 0.178031 -0.001199
0.040125 0.173473 -0.001173
0.1732 0.165928 -0.001258
0.284672 0.146919 -0.001438
0.39381 0.12011 -0.001723
0.509405 0.081073 -0.002105
0.624442 0.031387 -0.00254
0.728119 -0.002459 -0.002958
0.821702 -0.003338 -0.003338
0.906432 -0.003683 -0.003683
0.980199 -0.003982 -0.003982
1.000003 -0.004063 -0.004063
1.000003 -0.004063 -0.004063
1.000003 -0.004063 -0.004063
-0.001733 0.257313 -0.001733
-0.001733 0.257313 -0.001733
-0.001723 0.255817 -0.001723
-0.001572 0.252616 -0.001702
0.102348 0.247405 -0.001691
0.248302 0.239038 -0.001811
0.369537 0.215497 -0.001971
0.49222 0.185797 -0.002248
0.611357 0.148829 -0.002597
0.717754 0.104303 -0.002956
0.812884 0.049662 -0.003308
0.89893 0.006737 -0.003652
0.975262 -0.003962 -0.003962
1.000003 -0.004063 -0.004063
1.000003 -0.004063 -0.004063
1.000003 -0.004063 -0.004063
-0.002288 0.339647 -0.002288
-0.002288 0.339647 -0.002288
-0.00228 0.338604 -0.00228
-0.002265 0.336219 -0.002265
0.00815 0.332462 -0.002239
0.168637 0.326541 -0.002254
0.3281 0.317119 -0.0024
0.463881 0.28986 -0.002561
0.590582 0.259653 -0.002816
0.701191 0.227999 -0.003102
0.799081 0.193112 -0.003392
0.886956 0.152893 -0.003677
0.966728 0.10563 -0.003955
1.000003 0.055496 -0.004068
1.000003 0.024932 -0.004064
1.000003 -0.00054 -0.004063
-0.002902 0.430848 -0.002902
-0.002902 0.430848 -0.002902
-0.002896 0.430026 -0.002896
-0.002884 0.428245 -0.002884
-0.002865 0.425415 -0.002865
0.039233 0.421113 -0.002838
0.240233 0.41432 -0.002882
0.416531 0.403553 -0.003052
0.557134 0.374713 -0.003202
0.675363 0.346703 -0.003405
0.77786 0.31863 -0.003631
0.868673 0.289872 -0.003862
0.9511 0.260037 -0.004096
1.000003 0.228828 -0.004224
1.000003 0.195917 -0.004175
1.000003 0.160603 -0.004133
-0.003527 0.523637 -0.003527
-0.003527 0.523637 -0.003527
-0.003523 0.523016 -0.003523
-0.003514 0.521647 -0.003514
-0.003499 0.519449 -0.003499
-0.003476 0.516119 -0.003476
0.091669 0.51097 -0.003448
0.329675 0.502926 -0.003535
0.507689 0.491676 -0.003719
0.637057 0.467074 -0.003852
0.746254 0.442541 -0.004013
0.841871 0.418248 -0.00419
0.927667 0.394295 -0.004377
0.998827 0.370909 -0.004545
1.000003 0.348081 -0.004484
1.000003 0.32566 -0.004426
-0.004098 0.608422 -0.004098
-0.004098 0.608422 -0.004098
-0.004095 0.607955 -0.004095
-0.004087 0.606861 -0.004087
-0.004075 0.605014 -0.004075
-0.004057 0.60237 -0.004057
-0.003671 0.598171 -0.004029
0.215579 0.591782 -0.004029
0.434787 0.58266 -0.004156
0.591138 0.572281 -0.004329
0.708744 0.550368 -0.004444
0.809857 0.529243 -0.00458
0.899447 0.509012 -0.004731
0.979518 0.48976 -0.004887
1.000002 0.47146 -0.004882
1.000002 0.453734 -0.004818
-0.004617 0.685515 -0.004617
-0.004617 0.685515 -0.004617
-0.004614 0.685081 -0.004614
-0.004608 0.684152 -0.004608
-0.004598 0.682592 -0.004598
-0.004582 0.68031 -0.004582
-0.004559 0.676834 -0.004559
0.031886 0.671542 -0.004523
0.34526 0.663837 -0.004584
0.526275 0.655001 -0.004719
0.666152 0.64542 -0.004882
0.773845 0.626073 -0.004985
0.868131 0.607897 -0.005107
0.951533 0.59078 -0.005237
0.998821 0.574766 -0.005294
0.99999 0.559537 -0.005232
-0.005091 0.75586 -0.005091
-0.005091 0.75586 -0.005091
-0.005088 0.755447 -0.005088
-0.005083 0.754588 -0.005083
-0.005074 0.753258 -0.005074
-0.00506 0.75123 -0.00506
-0.005039 0.748244 -0.005039
-0.005009 0.743606 -0.005009
0.218967 0.736918 -0.004997
0.453647 0.729304 -0.005101
0.608982 0.72086 -0.005236
0.73459 0.712095 -0.005384
0.833993 0.695271 -0.005482
0.921252 0.679745 -0.005593
0.9914 0.66523 -0.00569
0.999916 0.651349 -0.005644
-0.005525 0.820388 -0.005525
-0.005525 0.820388 -0.005525
-0.005524 0.820208 -0.005524
-0.005518 0.819279 -0.005518
-0.005511 0.818197 -0.005511
-0.0055 0.816431 -0.0055
-0.005481 0.813704 -0.005481
-0.005453 0.809531 -0.005453
0.084725 0.803665 -0.005416
0.369924 0.796907 -0.005471
0.548301 0.789402 -0.005582
0.684485 0.781527 -0.005711
0.797858 0.773399 -0.005848
0.889423 0.759019 -0.005942
0.967753 0.745445 -0.006037
0.99968 0.732522 -0.006044
-0.005927 0.879997 -0.005927
-0.005927 0.879997 -0.005927
-0.005926 0.879825 -0.005926
-0.005921 0.879017 -0.005921
-0.005913 0.877985 -0.005913
-0.005903 0.876403 -0.005903
-0.005886 0.873848 -0.005886
-0.005861 0.870217 -0.005861
-0.005827 0.86498 -0.005827
0.266936 0.858719 -0.005827
0.482947 0.851928 -0.005916
0.632658 0.844678 -0.006027
0.753635 0.837455 -0.00615
0.856251 0.83006 -0.006277
0.938076 0.816998 -0.006358
0.994637 0.804976 -0.006408
-0.006284 0.933023 -0.006284
-0.006284 0.933023 -0.006284
-0.006283 0.932861 -0.006283
-0.006278 0.932148 -0.006278
-0.006272 0.931167 -0.006272
-0.006261 0.929644 -0.006261
-0.006248 0.927626 -0.006248
-0.006225 0.924336 -0.006225
-0.006193 0.919378 -0.006193
0.107426 0.913437 -0.006157
0.411957 0.907193 -0.006223
0.579558 0.900701 -0.00632
0.70907 0.893896 -0.006429
0.816757 0.887067 -0.006543
0.90793 0.88036 -0.006657
0.97896 0.869227 -0.006726
-0.006604 0.980506 -0.006604
-0.006604 0.980506 -0.006604
-0.006603 0.980312 -0.006603
-0.006598 0.979629 -0.006598
-0.006593 0.978755 -0.006593
-0.006583 0.977387 -0.006583
-0.00657 0.975346 -0.00657
-0.006549 0.972234 -0.006549
-0.006518 0.967691 -0.006518
0.015524 0.962515 -0.006483
0.332396 0.956554 -0.006505
0.523997 0.950279 -0.006587
0.664088 0.943962 -0.006684
0.777878 0.937511 -0.006789
0.873331 0.931309 -0.006895
0.954036 0.925319 -0.006996
0 0 0
0 0 0
0.049478 -0.000201 -0.000201
0.142068 -0.000577 -0.000577
0.232671 -0.000945 -0.000945
0.324222 -0.001317 -0.001317
0.421988 -0.001714 -0.001714
0.530255 -0.002154 -0.002154
0.640519 -0.002603 -0.002603
0.741205 -0.003012 -0.003012
0.832887 -0.003384 -0.003384
0.916274 -0.003723 -0.003723
0.986587 -0.004009 -0.004009
1.000003 -0.004063 -0.004063
1.000003 -0.004063 -0.004063
1.000003 -0.004063 -0.004063
0 0 0
0 0 0
0.049478 -0.000201 -0.000201
0.142068 -0.000577 -0.000577
0.232671 -0.000945 -0.000945
0.324222 -0.001317 -0.001317
0.421988 -0.001714 -0.001714
0.530256 -0.002154 -0.002154
0.640519 -0.002603 -0.002603
0.741205 -0.003012 -0.003012
0.832887 -0.003384 -0.003384
0.916274 -0.003723 -0.003723
0.986588 -0.004009 -0.004009
1.000003 -0.004063 -0.004063
1.000003 -0.004063 -0.004063
1.000003 -0.004063 -0.004063
-0.000227 0.033758 -0.000227
-0.000227 0.033758 -0.000227
0.031969 0.030048 -0.000229
0.129066 0.022415 -0.000535
0.224453 0.010728 -0.000913
0.318567 0.001606 -0.001294
0.417932 -0.001698 -0.001698
0.527283 -0.002142 -0.002142
0.638163 -0.002593 -0.002593
0.739351 -0.003004 -0.003004
0.831163 -0.003377 -0.003377
0.914988 -0.003717 -0.003717
0.985758 -0.004005 -0.004005
1.000003 -0.004063 -0.004063
1.000003 -0.004063 -0.004063
1.000003 -0.004063 -0.004063
-0.0007 0.103934 -0.0007
-0.0007 0.103934 -0.0007
0.006271 0.100681 -0.000678
0.098539 0.093626 -0.000712
0.206052 0.078666 -0.000944
0.305985 0.056089 -0.001273
0.408828 0.026447 -0.001664
0.520464 0.003928 -0.002115
0.632895 -0.002571 -0.002571
0.735082 -0.002987 -0.002987
0.827508 -0.003362 -0.003362
0.911593 -0.003704 -0.003704
0.983566 -0.003996 -0.003996
1.000003 -0.004063 -0.004063
1.000003 -0.004063 -0.004063
1.000003 -0.004063 -0.004063
-0.001214 0.180227 -0.001214
-0.001214 0.180227 -0.001214
-0.001199 0.178089 -0.001199
0.039429 0.17353 -0.001173
0.1732 0.165928 -0.001258
0.284716 0.146725 -0.001438
0.393798 0.12001 -0.001723
0.509383 0.081191 -0.002105
0.624373 0.031811 -0.002539
0.728017 -0.002136 -0.002958
0.82162 -0.003338 -0.003338
0.906365 -0.003683 -0.003683
0.980149 -0.003982 -0.003982
1.000003 -0.004063 -0.004063
1.000003 -0.004063 -0.004063
1.000003 -0.004063 -0.004063
-0.001733 0.257313 -0.001733
-0.001733 0.257313 -0.001733
-0.001723 0.25584 -0.001723
-0.001578 0.252638 -0.001702
0.101956 0.247431 -0.001691
0.248302 0.239038 -0.001811
0.369566 0.21545 -0.001971
0.492197 0.185831 -0.002248
0.611306 0.149068 -0.002598
0.717643 0.104765 -0.002956
0.812788 0.05022 -0.003308
0.898845 0.006878 -0.003652
0.975161 -0.003962 -0.003962
1.000003 -0.004063 -0.004063
1.000003 -0.004063 -0.004063
1.000003 -0.004063 -0.004063
-0.002288 0.339647 -0.002288
-0.002288 0.339647 -0.002288
-0.00228 0.338612 -0.00228
-0.002265 0.336244 -0.002265
0.008114 0.332466 -0.002239
0.168572 0.326544 -0.002254
0.3281 0.317119 -0.0024
0.463911 0.289819 -0.002561
0.590542 0.259818 -0.002816
0.701192 0.228272 -0.003103
0.798997 0.193607 -0.003393
0.8868 0.153675 -0.003677
0.966844 0.106651 -0.003956
1.000003 0.056849 -0.004069
1.000003 0.025719 -0.004064
1.000003 0.001705 -0.004063
-0.002902 0.430848 -0.002902
-0.002902 0.430848 -0.002902
-0.002896 0.430018 -0.002896
-0.002884 0.428239 -0.002884
-0.002865 0.42541 -0.002865
0.039309 0.421109 -0.002838
0.240198 0.414322 -0.002882
0.416531 0.403553 -0.003052
0.557126 0.374763 -0.003202
0.675239 0.346902 -0.003406
0.777786 0.318897 -0.003631
0.868569 0.290334 -0.003863
0.951067 0.260669 -0.004097
1.000003 0.22956 -0.004225
1.000003 0.19682 -0.004176
1.000003 0.161784 -0.004133
-0.003527 0.523637 -0.003527
-0.003527 0.523637 -0.003527
-0.003523 0.522996 -0.003523
-0.003514 0.521631 -0.003514
-0.003499 0.519471 -0.003499
-0.003476 0.51614 -0.003476
0.092051 0.510956 -0.003448
0.329802 0.502945 -0.003535
0.507689 0.491676 -0.003719
0.637041 0.467133 -0.003853
0.746251 0.44266 -0.004014
0.841815 0.418375 -0.004191
0.927645 0.394721 -0.004378
0.998774 0.371406 -0.004546
1.000003 0.348603 -0.004486
1.000003 0.326279 -0.004428
-0.004098 0.608422 -0.004098
-0.004098 0.608422 -0.004098
-0.004095 0.607936 -0.004095
-0.004087 0.606821 -0.004087
-0.004075 0.605 -0.004075
-0.004057 0.602357 -0.004057
-0.00359 0.598156 -0.004029
0.215952 0.591808 -0.00403
0.434867 0.582657 -0.004156
0.591138 0.572281 -0.004329
0.708804 0.550448 -0.004444
0.809765 0.529383 -0.004581
0.899422 0.509254 -0.004732
0.979365 0.489929 -0.004888
1.000002 0.471708 -0.004882
1.000002 0.454138 -0.004819
-0.004617 0.685515 -0.004617
-0.004617 0.685515 -0.004617
-0.004614 0.68505 -0.004614
-0.004608 0.684128 -0.004608
-0.004598 0.682651 -0.004598
-0.004583 0.680326 -0.004583
-0.004559 0.676812 -0.004559
0.032038 0.671523 -0.004523
0.345615 0.663821 -0.004585
0.526415 0.654989 -0.004719
0.666152 0.64542 -0.004882
0.774 0.626101 -0.004986
0.868063 0.607987 -0.005107
0.951672 0.590989 -0.005238
0.99878 0.575012 -0.005295
0.99999 0.559809 -0.005234
-0.005091 0.75586 -0.005091
-0.005091 0.75586 -0.005091
-0.005088 0.755413 -0.005088
-0.005083 0.754567 -0.005083
-0.005074 0.753236 -0.005074
-0.00506 0.751208 -0.00506
-0.00504 0.748193 -0.00504
-0.005009 0.743564 -0.005009
0.219785 0.736882 -0.004997
0.453919 0.729272 -0.005102
0.609036 0.720854 -0.005236
0.73459 0.712095 -0.005384
0.83396 0.695349 -0.005483
0.921483 0.67984 -0.005594
0.99131 0.665413 -0.005691
0.999915 0.651517 -0.005646
-0.005525 0.820388 -0.005525
-0.005525 0.820388 -0.005525
-0.005524 0.820178 -0.005524
-0.005518 0.819257 -0.005518
-0.005511 0.818173 -0.005511
-0.005499 0.816407 -0.005499
-0.005481 0.813678 -0.005481
-0.005453 0.809499 -0.005453
0.085654 0.803662 -0.005416
0.370417 0.796883 -0.005472
0.548425 0.789392 -0.005582
0.684542 0.78152 -0.005711
0.797859 0.773399 -0.005848
0.889434 0.759116 -0.005943
0.967726 0.745518 -0.006037
0.999679 0.732583 -0.006043
-0.005927 0.879997 -0.005927
-0.005927 0.879996 -0.005927
-0.005926 0.879784 -0.005926
-0.00592 0.878983 -0.00592
-0.005913 0.877949 -0.005913
-0.005903 0.876366 -0.005903
-0.005886 0.873871 -0.005886
-0.005861 0.870171 -0.005861
-0.005826 0.865005 -0.005826
0.267685 0.858748 -0.005827
0.483273 0.851907 -0.005917
0.63284 0.844639 -0.006027
0.753694 0.837445 -0.006151
0.856251 0.83006 -0.006277
0.938039 0.81706 -0.006358
0.994612 0.805097 -0.006409
-0.006284 0.933023 -0.006284
-0.006284 0.933023 -0.006284
-0.006283 0.932819 -0.006283
-0.006278 0.932114 -0.006278
-0.006272 0.93113 -0.006272
-0.006262 0.929607 -0.006262
-0.006247 0.927581 -0.006247
-0.006225 0.924286 -0.006225
-0.006193 0.919426 -0.006193
0.108708 0.913656 -0.006158
0.412433 0.907159 -0.006223
0.579946 0.900706 -0.00632
0.709078 0.89389 -0.006429
0.816812 0.887058 -0.006544
0.90793 0.88036 -0.006657
0.978939 0.869298 -0.006726
-0.006604 0.980506 -0.006604
-0.006604 0.980506 -0.006604
-0.006603 0.980266 -0.006603
-0.006598 0.979593 -0.006598
-0.006593 0.978718 -0.006593
-0.006583 0.977348 -0.006583
-0.00657 0.975309 -0.00657
-0.006549 0.97218 -0.006549
-0.006517 0.967638 -0.006517
0.016859 0.962493 -0.006483
0.333376 0.956513 -0.006506
0.524303 0.950258 -0.006587
0.664131 0.943945 -0.006684
0.778013 0.9375 -0.006789
0.873433 0.931302 -0.006895
0.954036 0.92532 -0.006996
-0.000086 -0.000086 0.033337
-0.000086 -0.000086 0.033337
0.047305 -0.000203 0.032796
0.140474 -0.000573 0.032883
0.231615 -0.000942 0.029721
0.323482 -0.001315 0.024831
0.421488 -0.001713 0.01879
0.529904 -0.002153 0.011527
0.640251 -0.002601 0.003742
0.74105 -0.003011 -0.002669
0.832631 -0.003383 -0.003365
0.915997 -0.003722 -0.003722
0.986461 -0.004008 -0.004008
1.000003 -0.004063 -0.004063
1.000003 -0.004063 -0.004063
1.000003 -0.004063 -0.004063
-0.000086 -0.000086 0.033337
-0.000086 -0.000086 0.033337
0.047305 -0.000203 0.032796
0.140509 -0.000573 0.031953
0.231653 -0.000942 0.028765
0.323497 -0.001315 0.024191
0.421494 -0.001713 0.018567
0.5299 -0.002153 0.011719
0.640244 -0.002601 0.004378
0.741032 -0.003011 -0.002218
0.832617 -0.003383 -0.00331
0.916027 -0.003722 -0.003722
0.986453 -0.004008 -0.004008
1.000003 -0.004063 -0.004063
1.000003 -0.004063 -0.004063
1.000003 -0.004063 -0.004063
-0.000233 0.033509 0.030338
-0.000233 0.033509 0.030338
0.029804 0.029804 0.029804
0.129699 0.011857 0.023527
0.223315 0.006966 0.025852
0.317152 0.002216 0.024419
0.416503 -0.001692 0.02093
0.525978 -0.002137 0.015989
0.637017 -0.002588 0.011301
0.738337 -0.003 0.007536
0.830134 -0.003373 0.002766
0.913925 -0.003713 -0.003682
0.984962 -0.004002 -0.004002
1.000003 -0.004063 -0.004063
1.000003 -0.004063 -0.004063
1.000003 -0.004063 -0.004063
-0.0007 0.103714 0.025161
-0.000699 0.103723 0.024232
0.004412 0.100495 0.02332
0.096763 0.093454 0.01121
0.205441 0.078323 0.010389
0.30515 0.057024 0.01046
0.407765 0.029099 0.011387
0.51929 0.006388 0.011995
0.631826 -0.002567 0.008606
0.733925 -0.002982 0.004734
0.826594 -0.003358 -0.00307
0.910649 -0.0037 -0.0037
0.982784 -0.003993 -0.003993
1.000003 -0.004063 -0.004063
1.000003 -0.004063 -0.004063
1.000003 -0.004063 -0.004063
-0.001213 0.180069 0.014108
-0.001213 0.180075 0.013147
-0.001198 0.17789 0.013738
0.03791 0.173383 0.008487
0.171903 0.165785 0.008665
0.283587 0.147491 0.009446
0.392664 0.122421 0.009648
0.508291 0.085815 0.007341
0.623276 0.038517 0.004028
0.727019 0.006541 -0.002726
0.820589 -0.003334 -0.003334
0.905531 -0.003679 -0.003679
0.97952 -0.00398 -0.00398
1.000003 -0.004063 -0.004063
1.000003 -0.004063 -0.004063
1.000003 -0.004063 -0.004063
-0.001732 0.257208 0.005032
-0.001732 0.25721 0.004704
-0.001721 0.255575 0.006045
-0.00159 0.252421 0.005472
0.101974 0.247232 0.004533
0.247343 0.23893 0.002942
0.368486 0.216487 0.001664
0.491076 0.188218 -0.001908
0.610283 0.153134 -0.002601
0.716657 0.110836 -0.002957
0.81188 0.057321 -0.003307
0.897998 0.008036 -0.003649
0.974447 -0.003959 -0.003959
1.000003 -0.004063 -0.004063
1.000003 -0.004063 -0.004063
1.000003 -0.004063 -0.004063
-0.002287 0.339617 -0.002287
-0.002287 0.339618 -0.002287
-0.002279 0.338303 -0.002279
-0.002263 0.335992 -0.002263
0.008732 0.33226 -0.002238
0.1693 0.326385 -0.002254
0.327332 0.317012 -0.002398
0.463012 0.290863 -0.002564
0.589512 0.262111 -0.002821
0.700141 0.231745 -0.003108
0.798183 0.198596 -0.003399
0.886069 0.160651 -0.003682
0.965931 0.1162 -0.003958
1.000003 0.067827 -0.004072
1.000003 0.031855 -0.004064
1.000003 0.0043 -0.004063
-0.002902 0.430763 -0.002902
-0.002902 0.430763 -0.002902
-0.002894 0.429719 -0.002894
-0.002882 0.427959 -0.002882
-0.002864 0.42524 -0.002864
0.041772 0.420924 -0.002836
0.241098 0.41408 -0.002881
0.415967 0.403451 -0.003051
0.556249 0.37589 -0.003205
0.674322 0.349112 -0.003412
0.776826 0.322025 -0.003638
0.867747 0.294457 -0.003871
0.950076 0.26586 -0.004104
1.000003 0.235941 -0.004236
1.000003 0.204451 -0.004186
1.000003 0.170868 -0.004143
-0.003527 0.523579 -0.003527
-0.003527 0.523577 -0.003527
-0.003521 0.522728 -0.003521
-0.003512 0.521408 -0.003512
-0.003497 0.519192 -0.003497
-0.003475 0.515891 -0.003475
0.09659 0.510721 -0.003448
0.330911 0.502744 -0.003535
0.507162 0.491644 -0.003718
0.636265 0.468036 -0.003855
0.745369 0.444446 -0.004019
0.840904 0.421046 -0.004198
0.926648 0.39803 -0.004386
0.998642 0.375459 -0.004557
1.000003 0.353415 -0.004499
1.000003 0.331705 -0.004441
-0.004098 0.608409 -0.004098
-0.004098 0.608408 -0.004098
-0.004093 0.607706 -0.004093
-0.004086 0.606605 -0.004086
-0.004074 0.604816 -0.004074
-0.004055 0.602104 -0.004055
-0.000719 0.59797 -0.004028
0.219327 0.591577 -0.00403
0.435672 0.582526 -0.004156
0.590716 0.572268 -0.004328
0.70817 0.551029 -0.004446
0.809172 0.530666 -0.004585
0.898439 0.511185 -0.004737
0.978692 0.492426 -0.004895
1.000002 0.474672 -0.004894
1.000002 0.457475 -0.004831
-0.004617 0.68551 -0.004617
-0.004617 0.685508 -0.004617
-0.004613 0.684854 -0.004613
-0.004607 0.684004 -0.004607
-0.004596 0.682371 -0.004596
-0.004581 0.680151 -0.004581
-0.004558 0.676611 -0.004558
0.031966 0.671333 -0.004522
0.348578 0.663656 -0.004586
0.526999 0.654826 -0.00472
0.665774 0.645392 -0.00488
0.773399 0.62666 -0.004988
0.867298 0.608995 -0.00511
0.950893 0.592434 -0.005242
0.998731 0.576834 -0.005303
0.999989 0.562033 -0.005243
-0.005091 0.755828 -0.005091
-0.005091 0.755826 -0.005091
-0.005087 0.755242 -0.005087
-0.005081 0.75443 -0.005081
-0.005072 0.753063 -0.005072
-0.005059 0.751049 -0.005059
-0.005038 0.748138 -0.005038
-0.005007 0.743423 -0.005007
0.226559 0.73681 -0.004999
0.455639 0.729066 -0.005102
0.609559 0.720728 -0.005236
0.734404 0.712108 -0.005384
0.833448 0.695743 -0.005484
0.920817 0.680683 -0.005596
0.991017 0.666497 -0.005695
0.999912 0.65291 -0.005653
-0.005525 0.820359 -0.005525
-0.005525 0.820357 -0.005525
-0.005522 0.819837 -0.005522
-0.005517 0.81913 -0.005517
-0.005509 0.817917 -0.005509
-0.005497 0.816236 -0.005497
-0.005479 0.813443 -0.005479
-0.005452 0.809477 -0.005452
0.093258 0.803546 -0.005416
0.373715 0.796725 -0.005472
0.549667 0.789207 -0.005582
0.684818 0.781386 -0.005712
0.797544 0.77348 -0.005848
0.889115 0.759269 -0.005943
0.967215 0.746114 -0.006039
0.999674 0.733484 -0.006048
-0.005926 0.879958 -0.005926
-0.005926 0.879955 -0.005926
-0.005923 0.879415 -0.005923
-0.00592 0.878855 -0.00592
-0.005912 0.877716 -0.005912
-0.005901 0.876101 -0.005901
-0.005884 0.873667 -0.005884
-0.00586 0.870045 -0.00586
-0.005825 0.86482 -0.005825
0.272757 0.858495 -0.005827
0.485321 0.851683 -0.005917
0.633663 0.844681 -0.006029
0.75369 0.837339 -0.00615
0.855924 0.830008 -0.006276
0.937445 0.817298 -0.006358
0.994586 0.805599 -0.006412
-0.006284 0.932988 -0.006284
-0.006284 0.932985 -0.006284
-0.006281 0.932591 -0.006281
-0.006278 0.932126 -0.006278
-0.006271 0.931083 -0.006271
-0.006262 0.929658 -0.006262
-0.006246 0.927273 -0.006246
-0.006224 0.923936 -0.006224
-0.00619 0.919087 -0.00619
0.118111 0.913378 -0.006158
0.415537 0.907173 -0.006225
0.581348 0.900565 -0.006321
0.709863 0.893691 -0.006429
0.816973 0.886995 -0.006543
0.907799 0.880566 -0.006658
0.978807 0.869394 -0.006727
-0.006604 0.980474 -0.006604
-0.006604 0.980472 -0.006604
-0.0066 0.979923 -0.0066
-0.006596 0.97933 -0.006596
-0.006591 0.978454 -0.006591
-0.006581 0.977078 -0.006581
-0.006567 0.975027 -0.006567
-0.006548 0.972175 -0.006548
-0.006516 0.967485 -0.006516
0.027122 0.96215 -0.006481
0.33793 0.956257 -0.006506
0.526597 0.950285 -0.006588
0.665389 0.943825 -0.006684
0.778524 0.937439 -0.006789
0.873644 0.931181 -0.006895
0.953963 0.925258 -0.006996
-0.000266 -0.000266 0.102803
-0.000266 -0.000266 0.102803
0.044506 -0.000305 0.102318
0.137184 -0.000594 0.101319
0.229513 -0.000949 0.09664
0.322004 -0.001317 0.089055
0.420428 -0.001713 0.080059
0.52908 -0.002152 0.070112
0.639645 -0.0026 0.059653
0.740504 -0.00301 0.049479
0.832192 -0.003381 0.039537
0.915733 -0.00372 0.030385
0.986183 -0.004007 0.021926
1.000003 -0.004063 0.014673
1.000003 -0.004063 0.008179
1.000003 -0.004063 -0.002454
-0.000266 -0.000266 0.102803
-0.000266 -0.000266 0.102803
0.043129 -0.000302 0.102336
0.137184 -0.000594 0.10132
0.229468 -0.000948 0.096174
0.322018 -0.001317 0.08862
0.420434 -0.001713 0.079904
0.529077 -0.002152 0.070256
0.63964 -0.0026 0.0601
0.740489 -0.003009 0.050184
0.832181 -0.003381 0.040398
0.915718 -0.00372 0.031261
0.986275 -0.004007 0.022804
1.000003 -0.004063 0.015388
1.000003 -0.004063 0.0087
1.000003 -0.004063 -0.00207
