site/assets/luts/freshluts--0000613-sea.cube
# LUTr-Schema-Version: 2
# LUTr-ID: freshluts--0000613-sea
# LUTr-Title: Sea
# LUTr-Collection: Fresh LUTs
# LUTr-Collection-ID: freshluts-community
# LUTr-Source: https://freshluts.com
# LUTr-Retrieved: 2026-07-27
# LUTr-Source-File: submissions-raw/freshluts/cubes/613__lut_1.sea-5499649_1920.cube
# LUTr-Source-Format: CUBE
# LUTr-Source-SHA256: befc175cbafdb727f8c4e361fe20f1aef9d2c2b74de09bd323dbada57103b698
# LUTr-License: CC0-1.0
# LUTr-License-URL: https://freshluts.com/termsandconditions
# LUTr-License-Basis: site-terms
# LUTr-Transform-Class: creative-look
# LUTr-Tags: creative, freshluts, community, cube, blue
# LUTr-Input-Color-Space:
# LUTr-Input-Gamut: unspecified
# LUTr-Input-Transfer: unspecified
# LUTr-Output-Color-Space: srgb
# LUTr-Output-Gamut: rec709
# LUTr-Output-Transfer: srgb
# LUTr-Color-Space-Confidence: camera-profile-input-required
# LUTr-Domain-Normalized: true
# LUTr-Shaper: none
# LUTr-Original-Grid: 33x33x33
# LUTr-Conversion-Grid: 33x33x33
# LUTr-Conversion-Interpolation: none
# LUTr-Conversion-Method: Metadata normalization; numeric LUT samples preserved
# LUTr-Conversion-Tool: LUTr scripts/convert-all-to-cube.mjs 2.0.0
# LUTr-Conversion-Date: 2026-07-28
# LUTr-Asset-URL: https://freshluts.com/luts/613
# LUTr-Author: Youssef
# LUTr-Author-URL: https://freshluts.com/users/52679
# LUTr-Attribution: Youssef via Fresh LUTs
# LUTr-Source-Labels: gamma=Other; color=Blue; key=Neutral; style=Colorful
# LUTr-Note: Preserve this metadata and the upstream license notices when redistributing.
TITLE "Sea"
LUT_3D_SIZE 5
DOMAIN_MIN 0 0 0
DOMAIN_MAX 1 1 1
0 0 0.0371405
0.390723 0 0.00433356
0.773159 0 0
1 0 0
1 0 0
0 0.319158 0
0.285847 0.287709 0
0.66833 0.260044 0
1 0.241321 0
1 0.224826 0
0 0.635767 0
0.189334 0.601129 0
0.56759 0.569238 0
0.906325 0.545403 0
1 0.52314 0
0 0.924025 0
0.109758 0.88397 0
0.482795 0.84686 0
0.817655 0.81915 0
1 0.793759 0
0 1 0
0.0274052 1 0
0.398413 1 0
0.732036 1 0
1 1 0
0 0 0.453513
0.376745 0 0.421241
0.75964 0 0.394003
1 0 0.376822
1 0 0.362966
0 0.305669 0.348318
0.27219 0.274052 0.316701
0.654444 0.246159 0.288808
0.997925 0.22707 0.269718
1 0.209796 0.252445
0 0.621302 0.254002
0.17438 0.586175 0.218891
0.551797 0.553445 0.18616
0.890181 0.529259 0.161975
1 0.506569 0.139284
0 0.907485 0.177783
0.0930343 0.867247 0.13753
0.465721 0.829786 0.100084
0.800366 0.801862 0.0721599
1 0.776303 0.0465858
0 1 0.0972152
0.0099031 1 0.0543984
0.38085 1 0.0152132
0.71426 1 0
1 1 0
0 0 0.846784
0.365148 0 0.814801
0.748119 0 0.78764
1 0 0.770504
1 0 0.756237
0 0.294041 0.741848
0.260517 0.262379 0.71017
0.642191 0.233906 0.681712
0.985504 0.214649 0.662455
1 0.196887 0.644694
0 0.608484 0.646342
0.161257 0.573053 0.61091
0.538033 0.539681 0.577554
0.875914 0.515007 0.55288
1 0.491875 0.529747
0 0.89305 0.56849
0.0781872 0.852399 0.52784
0.450599 0.814679 0.49012
0.784787 0.786282 0.461738
1 0.760815 0.436271
0 1 0.486961
0 1 0.443809
0.365301 1 0.404807
0.698741 1 0.375692
1 1 0.350118
0 0 1
0.357198 0 1
0.740047 0 1
1 0 1
1 0 1
0 0.285954 1
0.252354 0.254215 1
0.633677 0.225391 1
0.976501 0.205661 1
1 0.187381 0.9944
0 0.599329 0.996414
0.1514 0.563195 0.960281
0.527718 0.529381 0.926452
0.864836 0.503929 0.901015
1 0.480644 0.877729
0 0.882078 0.916732
0.0666361 0.840848 0.875502
0.438987 0.803052 0.83772
0.772992 0.774487 0.809155
1 0.74873 0.783383
0 1 0.834333
0 1 0.791104
0.353338 1 0.752071
0.686854 1 0.723018
1 1 0.697475
0 0 1
0.35024 0 1
0.733135 0 1
1 0 1
1 0 1
0 0.278889 1
0.244785 0.246647 1
0.625986 0.2177 1
0.968078 0.197238 1
1 0.178592 1
0 0.590921 1
0.142275 0.55407 1
0.518135 0.519783 1
0.85481 0.493904 1
1 0.470024 1
0 0.8719 1
0.0561227 0.830335 1
0.428153 0.792218 1
0.762081 0.763577 1
1 0.737682 1
0 1 1
0 1 1
0.342138 1 1
0.675959 1 1
0.998154 0.999802 1
