site/assets/luts/freshluts--0000632-yellowpurple.cube
# LUTr-Schema-Version: 2
# LUTr-ID: freshluts--0000632-yellowpurple
# LUTr-Title: YELLOW&PURPLE
# LUTr-Collection: Fresh LUTs
# LUTr-Collection-ID: freshluts-community
# LUTr-Source: https://freshluts.com
# LUTr-Retrieved: 2026-07-27
# LUTr-Source-File: submissions-raw/freshluts/cubes/632__33_9.A008_02281607_C037.cube
# LUTr-Source-Format: CUBE
# LUTr-Source-SHA256: 17af8f9f96be18338d31663027dfda26ba6fd5b759e9c93243ddad90e150c2ac
# LUTr-License: CC0-1.0
# LUTr-License-URL: https://freshluts.com/termsandconditions
# LUTr-License-Basis: site-terms
# LUTr-Transform-Class: creative-look
# LUTr-Tags: creative, freshluts, community, cube, purple, bmd-film
# LUTr-Input-Color-Space:
# LUTr-Input-Gamut: bmd-film-gamut
# LUTr-Input-Transfer: bmd-film
# LUTr-Output-Color-Space: srgb
# LUTr-Output-Gamut: rec709
# LUTr-Output-Transfer: srgb
# LUTr-Color-Space-Confidence: camera-profile-input-required
# LUTr-Domain-Normalized: true
# LUTr-Shaper: none
# LUTr-Original-Grid: 33x33x33
# LUTr-Conversion-Grid: 33x33x33
# LUTr-Conversion-Interpolation: none
# LUTr-Conversion-Method: Metadata normalization; numeric LUT samples preserved
# LUTr-Conversion-Tool: LUTr scripts/convert-all-to-cube.mjs 2.0.0
# LUTr-Conversion-Date: 2026-07-28
# LUTr-Asset-URL: https://freshluts.com/luts/632
# LUTr-Author: lvannoeun@gmail.com
# LUTr-Author-URL: https://freshluts.com/users/57563
# LUTr-Attribution: lvannoeun@gmail.com via Fresh LUTs
# LUTr-Source-Labels: gamma=Blackmagic BMD Film; color=Purple; key=Neutral; style=cine drama
# LUTr-Note: Preserve this metadata and the upstream license notices when redistributing.
TITLE "YELLOW&PURPLE"
LUT_3D_SIZE 9
DOMAIN_MIN 0 0 0
DOMAIN_MAX 1 1 1
0.0059205 0 0.0869612
0.161852 0 0.0818799
0.389929 0 0.0810407
0.5505 0 0.0727398
0.697002 0 0.067155
0.828733 0.00660716 0.0665904
0.934081 0.0168612 0.0666209
0.933577 0.0169375 0.0572519
0.93312 0.0169985 0.0487678
0.0155795 0.115816 0.079942
0.131533 0.101732 0.0696422
0.339101 0.0927596 0.0519112
0.51957 0.0786908 0.0361791
0.667674 0.0710765 0.031693
0.805646 0.0684215 0.0335851
0.931868 0.0689708 0.0414435
0.933745 0.0585031 0.0422827
0.933715 0.0483406 0.0428931
0 0.258701 0.0496071
0.102647 0.235325 0.0402838
0.298009 0.230793 0.0231937
0.47924 0.221759 0.000411994
0.626719 0.213413 0.000030518
0.774533 0.207904 0.0115206
0.906386 0.206485 0.030045
0.933364 0.198093 0.0344396
0.933471 0.1879 0.0350042
0 0.408377 0.000396735
0.0326696 0.383337 0
0.25417 0.370077 0
0.439078 0.362341 0
0.58529 0.354284 0
0.736141 0.347967 0.000015259
0.875776 0.344289 0.0183108
0.930678 0.337652 0.0274968
0.930938 0.327688 0.0278935
0 0.55317 0
0 0.528298 0
0.198947 0.514534 0
0.398596 0.504509 0
0.547784 0.496162 0
0.696147 0.489097 0
0.84062 0.48397 0.00936904
0.926558 0.478004 0.0239414
0.926863 0.46772 0.024033
0 0.691447 0
0 0.668101 0
0.150164 0.657038 0
0.354269 0.647715 0
0.513252 0.639582 0
0.657694 0.632517 0
0.80444 0.626795 0.00717174
0.922927 0.621744 0.0261845
0.923156 0.611627 0.0258183
0 0.823789 0
0 0.800977 0
0.116121 0.79173 0
0.314778 0.785367 0
0.482322 0.778164 0
0.623133 0.771328 0
0.770718 0.765408 0.013901
0.911894 0.760922 0.0339513
0.922072 0.751415 0.0346532
0 0.956954 0.0161135
0 0.93344 0.0137026
0.0948959 0.921843 0.00994888
0.287785 0.917556 0.00604257
0.459525 0.912413 0.00849927
0.596887 0.906691 0.0167544
0.742275 0.901579 0.0296941
0.884276 0.897215 0.0461738
0.925765 0.889296 0.0505989
0 0.971267 0.0176242
0 0.971267 0.0176242
0.0603342 0.972763 0.0189975
0.256977 0.980774 0.0204623
0.436713 0.988785 0.0246738
0.575601 0.995178 0.0332952
0.717296 1 0.0455024
0.859571 1 0.0607919
0.933654 1 0.0697948
0.00627146 0 0.233234
0.166049 0 0.211414
0.383932 0 0.221271
0.547539 0 0.216403
0.696925 0 0.208515
0.833585 0.00399786 0.202502
0.93991 0.0145418 0.198077
0.939513 0.0146944 0.187823
0.939132 0.014847 0.178027
0.00732433 0.116869 0.202167
0.130694 0.101488 0.176944
0.325139 0.0939956 0.183551
0.51281 0.0768444 0.17995
0.666255 0.0679332 0.173007
0.811109 0.0638895 0.168826
0.937255 0.0649424 0.167865
0.939849 0.0549935 0.158419
0.939223 0.0450446 0.149294
0 0.256062 0.182116
0.106889 0.231556 0.166903
0.287907 0.22974 0.166247
0.462898 0.221836 0.145769
0.623713 0.210681 0.129198
0.776135 0.204456 0.124392
0.91194 0.202594 0.125902
0.939437 0.194614 0.119692
0.938811 0.184665 0.110719
0 0.4038 0.139895
0.0390478 0.375998 0.123064
0.258396 0.362402 0.131914
0.431601 0.359228 0.109239
0.581933 0.351766 0.0860609
0.735317 0.345312 0.0798199
0.878645 0.341253 0.081529
0.934905 0.334829 0.0799725
0.934447 0.325063 0.0710613
0 0.550195 0.0968795
0 0.525322 0.0713664
0.197345 0.510536 0.061265
0.396216 0.501381 0.0520943
0.545647 0.49369 0.0415656
0.694682 0.486717 0.037644
0.840665 0.481605 0.0402838
0.928176 0.475837 0.0443885
0.92784 0.465675 0.0358129
0 0.690303 0.0641489
0 0.666621 0.0373693
0.146059 0.654932 0.0178531
0.351339 0.645518 0.00799573
0.51133 0.637537 0.00440986
0.656016 0.630579 0.00315862
0.802869 0.624842 0.0068513
0.922972 0.619837 0.0261234
0.923186 0.609644 0.025742
0 0.822675 0.0482338
0 0.799542 0.0201419
0.112596 0.790051 0
0.312505 0.783459 0
0.480674 0.776257 0
0.621424 0.769406 0
0.76907 0.76347 0.0134585
0.910277 0.758968 0.0335241
0.922057 0.749538 0.0344854
0 0.954955 0.0333867
0 0.931609 0.0135195
0.0925154 0.919921 0.00961318
0.285481 0.915694 0.00561532
0.457725 0.910613 0.00802625
0.595209 0.904814 0.0162509
0.74052 0.899687 0.0291752
0.882567 0.895308 0.0456855
0.925673 0.887449 0.0503395
0 0.971267 0.0176242
0 0.971267 0.0176242
0.0581521 0.972702 0.0189364
0.254948 0.980682 0.0204471
0.435019 0.988708 0.0245975
0.574121 0.995102 0.0331731
0.715648 1 0.0453346
0.857954 1 0.0606088
0.933654 1 0.0697948
0.00428779 0 0.418769
0.176898 0 0.384268
0.386786 0 0.377066
0.544259 0 0.36907
0.694102 0 0.359686
0.83473 0.00163272 0.349874
0.94432 0.0124208 0.341009
0.944121 0.0125734 0.329885
0.943908 0.0127108 0.319432
0 0.116548 0.365881
0.130556 0.0971389 0.322377
0.327123 0.090135 0.319524
0.507607 0.0740673 0.328298
0.663157 0.0643626 0.32314
0.811917 0.0594186 0.316152
0.941161 0.0600443 0.309712
0.945281 0.0503853 0.299397
0.944595 0.040528 0.289448
0 0.257542 0.32636
0.0975204 0.231815 0.292683
0.2822 0.230091 0.281926
0.446235 0.223239 0.285328
0.614557 0.208804 0.278859
0.774548 0.200534 0.271977
0.917403 0.197101 0.267781
0.947707 0.189212 0.259495
0.947158 0.179294 0.249775
0 0.400687 0.28957
0.0363317 0.37261 0.2663
0.264225 0.356878 0.270802
0.420569 0.357153 0.266133
0.565835 0.351034 0.245396
0.732113 0.341878 0.227573
0.881361 0.33666 0.222934
0.943374 0.329686 0.217166
0.943328 0.319875 0.20763
0 0.546563 0.247852
0 0.521614 0.222339
0.205386 0.501915 0.2224
0.398886 0.493156 0.227008
0.539467 0.489433 0.205814
0.691188 0.483345 0.185245
0.84181 0.477531 0.179736
0.936019 0.471336 0.176318
0.93611 0.461173 0.166674
0 0.688029 0.211566
0 0.664271 0.185031
0.140414 0.651423 0.168048
0.347646 0.641382 0.159915
0.507897 0.633844 0.15111
0.65301 0.627451 0.143282
0.803143 0.621881 0.139055
0.929259 0.616541 0.140169
0.929213 0.606394 0.130632
0 0.822187 0.18822
0 0.799207 0.160342
0.0998398 0.789685 0.135561
0.303548 0.781857 0.121004
0.47483 0.774334 0.112154
0.617365 0.767529 0.106416
0.767422 0.76173 0.104829
0.911284 0.756893 0.111192
0.924926 0.747417 0.103731
0 0.953109 0.173861
0 0.930266 0.145953
0.0812848 0.919646 0.122927
0.274174 0.915969 0.101793
0.449668 0.91046 0.0890364
0.589593 0.904265 0.0834821
0.737331 0.898558 0.0843671
0.880964 0.893767 0.0911727
0.926207 0.885756 0.0879225
0 0.970474 0.140246
0 0.970642 0.115816
0.0531319 0.97261 0.0990768
0.247776 0.981796 0.0826429
0.429404 0.989822 0.0725567
0.570199 0.995941 0.068574
0.71284 1 0.0700542
0.855924 1 0.076051
0.933669 1 0.0769207
0.00244144 0 0.589899
0.175937 0 0.565942
0.386343 0 0.551614
0.540597 0 0.539849
0.689387 0 0.528679
0.831281 0.000579843 0.515694
0.945113 0.0111238 0.502846
0.945205 0.0111696 0.49073
0.945266 0.0112154 0.479271
0 0.113237 0.54963
0.127184 0.0902113 0.521096
0.340932 0.0795758 0.502892
0.509331 0.0687266 0.498726
0.659632 0.0605631 0.490715
0.809262 0.0555123 0.481331
0.941772 0.0557107 0.470054
0.947753 0.0460975 0.457954
0.947158 0.0362554 0.446479
0 0.256718 0.50251
0.0760357 0.23238 0.466773
0.286397 0.225391 0.429404
0.447013 0.220233 0.429847
0.606989 0.206638 0.437171
0.771282 0.196704 0.43357
0.918013 0.192233 0.42649
0.952224 0.184024 0.415793
0.952056 0.174044 0.404303
0 0.398047 0.455268
0.0187991 0.372839 0.425528
0.259342 0.356405 0.398474
0.413046 0.357626 0.393896
0.548165 0.352483 0.393317
0.72134 0.340124 0.385046
0.879423 0.33257 0.377386
0.946319 0.325048 0.368795
0.946838 0.315068 0.358114
0 0.542519 0.409232
0 0.517617 0.380621
0.208865 0.496178 0.371496
0.404944 0.486397 0.379416
0.530068 0.485969 0.372778
0.675669 0.481788 0.351171
0.838346 0.473777 0.332158
0.937972 0.466941 0.324849
0.938567 0.456703 0.31429
0 0.684489 0.367285
0 0.660731 0.339467
0.135714 0.647272 0.323064
0.355047 0.632639 0.327077
0.510903 0.625864 0.327306
0.647639 0.622843 0.308141
0.79968 0.618036 0.289891
0.931441 0.612558 0.283894
0.931838 0.60235 0.273228
0 0.820142 0.336339
0 0.797299 0.307912
0.0911574 0.787152 0.285542
0.297627 0.778439 0.27274
0.471092 0.770443 0.264637
0.613428 0.763928 0.256703
0.764126 0.758343 0.249897
0.911528 0.753491 0.246235
0.928008 0.744183 0.236927
0 0.951751 0.316381
0 0.929061 0.2878
0.0688182 0.919066 0.263951
0.26128 0.915618 0.241886
0.44062 0.909346 0.22977
0.582498 0.902937 0.221546
0.731945 0.897185 0.216632
0.878935 0.892149 0.215579
0.927718 0.884108 0.210269
0 0.971176 0.281773
0 0.971069 0.257633
0.0426032 0.973938 0.239124
0.233951 0.984955 0.218753
0.416434 0.993057 0.203815
0.55938 0.998596 0.195712
0.704738 1 0.192874
0.851408 1 0.195758
0.933043 1 0.196399
0.00149538 0 0.734859
0.170169 0 0.722698
0.380926 0 0.712535
0.534966 0 0.701045
0.681544 0 0.688685
0.823041 0.00138857 0.674144
0.941573 0.0118868 0.660609
0.94197 0.0118105 0.649454
0.942321 0.0117342 0.638819
0 0.109667 0.708446
0.12282 0.086183 0.689342
0.340764 0.0737926 0.677409
0.507301 0.0644541 0.66714
0.655268 0.0571603 0.657542
0.803296 0.0528115 0.646342
0.937209 0.0528878 0.632578
0.94548 0.0433814 0.620829
0.945113 0.0334783 0.609796
0 0.252918 0.668238
0.0661173 0.229099 0.644907
0.287236 0.217365 0.624537
0.461769 0.209766 0.610819
0.610834 0.200412 0.609689
0.767636 0.192844 0.604807
0.915404 0.188266 0.596933
0.952529 0.17998 0.585855
0.952651 0.169924 0.574716
0 0.394125 0.62443
0.00994888 0.370336 0.599069
0.241947 0.356664 0.56817
0.418647 0.353567 0.54168
0.548623 0.350027 0.541924
0.711803 0.338689 0.551141
0.875959 0.328725 0.549584
0.946166 0.320974 0.540322
0.946914 0.310964 0.529015
0 0.538201 0.580697
0 0.513558 0.553429
0.191424 0.49691 0.534005
0.403922 0.485161 0.515023
0.523827 0.486137 0.511803
0.656931 0.483207 0.51191
0.824842 0.472633 0.503456
0.936553 0.463096 0.493431
0.937499 0.452781 0.481697
0 0.680034 0.538689
0 0.656443 0.510063
0.130358 0.643503 0.493233
0.362799 0.625437 0.490623
0.519478 0.617975 0.496376
0.640116 0.618326 0.491279
0.784115 0.616129 0.469886
0.928954 0.608881 0.448692
0.9299 0.598566 0.436408
0 0.816388 0.502464
0 0.793606 0.472221
0.0850538 0.783597 0.450843
0.293935 0.774029 0.438422
0.478294 0.761822 0.440894
0.616678 0.755611 0.44033
0.759243 0.753613 0.422141
0.907973 0.74963 0.404532
0.927153 0.740307 0.392599
0 0.949218 0.47425
0 0.926604 0.443244
0.0591287 0.917144 0.418784
0.252522 0.913039 0.398306
0.435355 0.905867 0.386847
0.578256 0.899153 0.378256
0.727596 0.893645 0.370672
0.87541 0.888853 0.364172
0.92723 0.880903 0.355138
0 0.971237 0.434791
0 0.971298 0.407218
0.0332341 0.974456 0.387152
0.221103 0.986587 0.365515
0.4065 0.994079 0.350622
0.551583 0.999191 0.341665
0.697612 1 0.335256
0.845869 1 0.330999
0.931334 1 0.326253
0.0018616 0 0.864042
0.16321 0 0.856275
0.371069 0 0.854292
0.524392 0 0.846174
0.669078 0 0.835065
0.811597 0.00392157 0.822263
0.935027 0.0135805 0.809979
0.935546 0.0134127 0.799496
0.936049 0.0132753 0.789395
0 0.106981 0.844648
0.119173 0.0838788 0.835248
0.335241 0.0711223 0.832715
0.501976 0.0619669 0.823896
0.647486 0.0552987 0.813016
0.793057 0.0519417 0.799451
0.928466 0.0517433 0.784665
0.939223 0.042237 0.773022
0.939116 0.0322423 0.762173
0 0.248829 0.816022
0.0634165 0.225452 0.80145
0.283482 0.212802 0.79411
0.464088 0.203357 0.784222
0.610162 0.195453 0.775555
0.763745 0.189273 0.767346
0.910262 0.185168 0.757992
0.949264 0.177157 0.746609
0.949371 0.167117 0.7355
0 0.38938 0.779675
0.00863661 0.366171 0.759457
0.229023 0.353704 0.74876
0.421393 0.3458 0.727886
0.562554 0.340291 0.715267
0.71722 0.332204 0.717144
0.872541 0.32491 0.714946
0.945006 0.317296 0.706096
0.9458 0.307225 0.695308
0 0.532738 0.739818
0 0.5084 0.715404
0.175738 0.495842 0.704021
0.389548 0.485206 0.672465
0.527977 0.482673 0.652491
0.656519 0.480903 0.653101
0.81387 0.471855 0.662379
0.932708 0.460105 0.660853
0.934203 0.449577 0.650217
0 0.674205 0.700465
0 0.650935 0.674281
0.125017 0.639735 0.661494
0.348837 0.625818 0.644984
0.519661 0.616602 0.632151
0.636011 0.617655 0.630518
0.766415 0.617288 0.63064
0.913222 0.608988 0.622324
0.915709 0.598199 0.61059
0 0.811215 0.665339
0 0.788403 0.637919
0.0812848 0.779324 0.621622
0.288975 0.770077 0.609812
0.488365 0.754284 0.610071
0.626719 0.747372 0.615412
0.753643 0.748348 0.613367
0.892073 0.747662 0.594263
0.915312 0.738216 0.578744
0 0.945449 0.637049
0 0.92282 0.60827
0.0547036 0.913405 0.587976
0.246433 0.909361 0.571588
0.433082 0.901305 0.561913
0.584817 0.891157 0.563088
0.731426 0.885222 0.565057
0.870893 0.883818 0.549279
0.924346 0.87689 0.532738
0 0.970321 0.599374
0 0.97055 0.57258
0.027512 0.973861 0.553323
0.212238 0.986587 0.534463
0.40032 0.993774 0.521492
0.54728 0.998306 0.512612
0.69369 1 0.50602
0.841581 1 0.498833
0.929397 1 0.489937
0.00198367 0 0.998657
0.158251 0 0.984421
0.361578 0 0.981094
0.513375 0 0.976059
0.656779 0 0.968734
0.800412 0.00733959 0.959579
0.929046 0.0158846 0.951003
0.929015 0.0158541 0.941039
0.929107 0.0157778 0.931517
0 0.104906 0.974502
0.117266 0.0828717 0.961074
0.327749 0.0713512 0.963058
0.492363 0.0627298 0.95906
0.635294 0.0565347 0.95053
0.780423 0.0530098 0.93962
0.91809 0.0518654 0.927687
0.931319 0.0423743 0.916747
0.931411 0.0323339 0.906447
0 0.245472 0.946548
0.0657054 0.222553 0.934783
0.279576 0.210285 0.941741
0.460243 0.200443 0.938262
0.605371 0.192676 0.93077
0.757473 0.18706 0.922148
0.901213 0.183948 0.910323
0.941726 0.176394 0.898344
0.941741 0.166369 0.887587
0 0.384588 0.917708
0.0120089 0.361639 0.901488
0.225574 0.35021 0.906325
0.419226 0.340856 0.899153
0.566644 0.333181 0.890379
0.718578 0.326726 0.882994
0.868971 0.321386 0.875929
0.943099 0.314092 0.866789
0.943801 0.304021 0.856153
0 0.526696 0.885405
0 0.502373 0.863233
0.172107 0.491798 0.864759
0.375402 0.482399 0.854368
0.529 0.475792 0.833661
0.668818 0.471946 0.820676
0.82089 0.464897 0.824689
0.932845 0.456062 0.823178
0.933944 0.445624 0.81268
0 0.667979 0.851667
0 0.644602 0.827176
0.122606 0.635508 0.823072
0.329122 0.6262 0.812253
0.50573 0.617151 0.783841
0.637064 0.615274 0.765347
0.765469 0.615564 0.765743
0.90425 0.608774 0.772961
0.905959 0.598016 0.763088
0 0.805554 0.819547
0 0.782574 0.793561
0.0818799 0.774136 0.783123
0.282445 0.766781 0.773754
0.476921 0.754299 0.759396
0.626276 0.745663 0.749157
0.751705 0.746868 0.749325
0.875975 0.74847 0.748882
0.898299 0.73962 0.738796
0 0.940887 0.791745
0 0.918105 0.764401
0.0559091 0.908171 0.748318
0.241947 0.905364 0.737057
0.42977 0.897353 0.72726
0.593866 0.883772 0.727138
0.741711 0.876875 0.734401
0.867308 0.878065 0.734066
0.915785 0.872999 0.721996
0 0.968429 0.755779
0 0.96878 0.730236
0.0269627 0.971862 0.713451
0.207553 0.98526 0.700374
0.395605 0.992523 0.689815
0.546929 0.996002 0.683299
0.701671 0.996963 0.687633
0.846265 1 0.690303
0.930068 1 0.678187
0.00192264 0 1
0.155169 0 1
0.357046 0 1
0.507759 0 1
0.64976 0.000579843 1
0.795071 0.00834669 1
0.928862 0.0157473 1
0.928862 0.0157473 1
0.928862 0.0157473 1
0 0.102174 1
0.11458 0.0806897 1
0.322591 0.0704662 1
0.485054 0.0627909 1
0.625605 0.0570382 1
0.769894 0.0536049 1
0.911192 0.0508888 1
0.927733 0.0412146 1
0.928161 0.0313268 1
0 0.242634 1
0.0662242 0.219959 1
0.2766 0.208988 1
0.454093 0.200076 1
0.596445 0.192874 1
0.745983 0.187732 1
0.888716 0.18497 1
0.931746 0.177356 1
0.931899 0.167285 1
0 0.381033 1
0.0170901 0.357916 1
0.226215 0.347494 1
0.41622 0.338186 1
0.563485 0.330343 1
0.714443 0.323964 1
0.863874 0.318944 1
0.939147 0.312215 1
0.939681 0.302251 1
0 0.521859 1
0 0.497429 0.996277
0.174334 0.487724 1
0.371847 0.47892 1
0.526864 0.470939 0.996963
0.673945 0.464302 0.994492
0.82475 0.458732 0.987716
0.933669 0.452171 0.980743
0.934371 0.441871 0.97055
0 0.662852 0.992447
0 0.639307 0.968307
0.127047 0.630533 0.970642
0.324132 0.622889 0.970077
0.491341 0.615198 0.959854
0.634974 0.609888 0.938979
0.775982 0.607767 0.924804
0.915236 0.601953 0.929152
0.916228 0.591363 0.919783
0 0.800885 0.964233
0 0.777401 0.938903
0.0887465 0.768139 0.933227
0.278965 0.763012 0.932464
0.457954 0.755047 0.922164
0.611322 0.7467 0.897749
0.750729 0.745525 0.879454
0.8748 0.747204 0.879393
0.897276 0.738766 0.872663
0 0.937728 0.940215
0 0.914122 0.913848
0.0607309 0.902525 0.900649
0.24036 0.900938 0.896971
0.423606 0.894453 0.888609
0.582605 0.883787 0.876326
0.74136 0.875181 0.867597
0.867552 0.875959 0.869032
0.909758 0.872816 0.864179
0 0.967834 0.906554
0 0.967819 0.882383
0.0296483 0.969436 0.86685
0.207935 0.982818 0.860838
0.391012 0.991485 0.852735
0.54377 0.995071 0.845273
0.708949 0.993484 0.846204
0.856504 0.99736 0.85478
0.936187 0.998627 0.85388
0.00192264 0 1
0.152148 0 1
0.35433 0 1
0.505653 0 1
0.647456 0.00047303 1
0.792782 0.00820935 1
0.928862 0.0157473 1
0.928862 0.0157473 1
0.928862 0.0157473 1
0 0.099443 1
0.111788 0.0778668 1
0.319905 0.067689 1
0.482918 0.060029 1
0.623285 0.0542763 1
0.76759 0.0508888 1
0.909056 0.0480354 1
0.92784 0.0385901 1
0.928252 0.028687 1
0 0.239933 1
0.0634012 0.217166 1
0.273869 0.206195 1
0.451896 0.197314 1
0.594156 0.190112 1
0.742779 0.185321 1
0.884672 0.182818 1
0.929274 0.175586 1
0.928786 0.165743 1
0 0.378363 1
0.0142367 0.355184 1
0.223697 0.344686 1
0.41387 0.335622 1
0.560723 0.327825 1
0.710811 0.321523 1
0.858915 0.316976 1
0.935378 0.31075 1
0.935149 0.300984 1
0 0.519112 1
0 0.49427 1
0.173922 0.484428 1
0.369467 0.475807 1
0.524529 0.467765 1
0.671122 0.46096 1
0.821805 0.455344 1
0.932494 0.449088 1
0.932982 0.438834 1
0 0.660029 1
0 0.635981 1
0.130175 0.626154 1
0.32221 0.61941 1
0.487984 0.611811 1
0.631357 0.605066 1
0.781689 0.599634 1
0.92462 0.5944 1
0.925338 0.583871 1
0 0.798169 1
0 0.77435 1
0.0946059 0.762966 1
0.279332 0.758755 1
0.452995 0.751995 1
0.595529 0.745327 1
0.746639 0.741146 1
0.883864 0.740353 1
0.909331 0.732097 1
0 0.935119 1
0 0.911543 1
0.0660105 0.897475 1
0.245045 0.895506 1
0.420417 0.891142 1
0.565927 0.884276 1
0.726192 0.87657 0.999985
0.864668 0.875624 0.993835
0.914015 0.871626 0.984604
0 0.96788 1
0 0.967926 1
0.028336 0.968765 1
0.21384 0.979706 1
0.388373 0.990433 0.999146
0.537179 0.995972 0.998917
0.696818 0.996628 0.990295
0.856245 0.998978 0.984649
0.942794 0.997024 0.982422
