site/assets/luts/freshluts--0000676-canon-footages-color-correction.cube
# LUTr-Schema-Version: 2
# LUTr-ID: freshluts--0000676-canon-footages-color-correction
# LUTr-Title: Canon-footages ,COLOR-Correction
# LUTr-Collection: Fresh LUTs
# LUTr-Collection-ID: freshluts-community
# LUTr-Source: https://freshluts.com
# LUTr-Retrieved: 2026-07-27
# LUTr-Source-File: submissions-raw/freshluts/cubes/676__canon-correction_16.00052.cube
# LUTr-Source-Format: CUBE
# LUTr-Source-SHA256: 072aec2eaf16c8efcf3b9e260831269558613cd630089531b277d90e2f44d570
# LUTr-License: CC0-1.0
# LUTr-License-URL: https://freshluts.com/termsandconditions
# LUTr-License-Basis: site-terms
# LUTr-Transform-Class: creative-look
# LUTr-Tags: creative, freshluts, community, cube, rec709, correction
# LUTr-Input-Color-Space: rec709
# LUTr-Input-Gamut: rec709
# LUTr-Input-Transfer: rec709
# LUTr-Output-Color-Space: srgb
# LUTr-Output-Gamut: rec709
# LUTr-Output-Transfer: srgb
# LUTr-Color-Space-Confidence: declared-by-source
# LUTr-Domain-Normalized: true
# LUTr-Shaper: none
# LUTr-Original-Grid: 33x33x33
# LUTr-Conversion-Grid: 33x33x33
# LUTr-Conversion-Interpolation: none
# LUTr-Conversion-Method: Metadata normalization; numeric LUT samples preserved
# LUTr-Conversion-Tool: LUTr scripts/convert-all-to-cube.mjs 2.0.0
# LUTr-Conversion-Date: 2026-07-28
# LUTr-Asset-URL: https://freshluts.com/luts/676
# LUTr-Author: lvannoeun@gmail.com
# LUTr-Author-URL: https://freshluts.com/users/57563
# LUTr-Attribution: lvannoeun@gmail.com via Fresh LUTs
# LUTr-Source-Labels: gamma=Rec 709; color=None; key=Neutral; style=Colorful
# LUTr-Note: Preserve this metadata and the upstream license notices when redistributing.
TITLE "Canon-footages ,COLOR-Correction"
LUT_3D_SIZE 5
DOMAIN_MIN 0 0 0
DOMAIN_MAX 1 1 1
0 0 0
0.0239109 0 0
0.41062 0 0
0.7664 0 0
1 0 0
0 0.116777 0
0.201144 0.189776 0
0.642527 0.217563 0
0.997726 0.261555 0
1 0.311604 0
0 0.643809 0
0.270314 0.659022 0
0.668864 0.65742 0
1 0.631128 0
1 0.637064 0.0491798
0 1 0
0.273625 0.995972 0
0.638956 0.961059 0
0.939513 0.934432 0
1 0.927153 0
0 1 0
0.261677 1 0
0.610803 1 0
0.902037 1 0
1 1 0
0 0 0.0400092
0.0178836 0 0.0282444
0.4112 0 0.0230259
0.814282 0 0.103746
1 0 0.228992
0 0.157275 0.17937
0.212711 0.202991 0.226459
0.643137 0.23331 0.25832
1 0.268315 0.29456
1 0.315068 0.342184
0 0.648768 0.273991
0.271138 0.661494 0.28809
0.666468 0.656657 0.284794
1 0.639979 0.331716
1 0.67158 0.302708
0 1 0.301976
0.262745 0.986801 0.283101
0.62536 0.949172 0.247059
0.924056 0.920501 0.219715
1 0.906035 0.222202
0 1 0.307683
0.244434 1 0.268589
0.592981 1 0.218479
0.884169 1 0.182406
1 1 0.16965
0 0 0.43714
0.0103456 0 0.429404
0.413138 0 0.433677
0.869154 0 0.567102
1 0 0.645975
0 0.17145 0.600443
0.220905 0.212985 0.643351
0.648661 0.24062 0.672496
1 0.270283 0.703395
1 0.314519 0.748486
0 0.649912 0.682002
0.267704 0.659846 0.693294
0.659648 0.651621 0.68658
0.982879 0.648569 0.684779
1 0.659617 0.696681
0 0.996963 0.698604
0.247669 0.973587 0.676631
0.607767 0.93344 0.638056
0.904921 0.903029 0.608957
1 0.87628 0.642161
0 1 0.696452
0.223743 1 0.656489
0.571847 1 0.605905
0.863127 1 0.569711
1 1 0.556497
0 0 0.757336
0.0116732 0 0.75465
0.430533 0 0.774868
0.889021 0 0.910475
1 0 0.984405
0 0.188663 0.939818
0.235431 0.229007 0.981445
0.659068 0.252522 1
1 0.277867 1
1 0.31931 1
0 0.65655 1
0.269856 0.663478 1
0.658259 0.651713 1
0.97792 0.644892 1
1 0.652827 1
0 0.992096 1
0.238392 0.965866 0.99025
0.596246 0.923476 0.949325
0.892073 0.891554 0.918639
1 0.881025 0.908904
0 1 1
0.209628 1 0.96492
0.557427 1 0.913954
0.848371 1 0.877134
1 1 0.863752
0 0 0.975998
0.0248722 0 0.980133
0.511864 0 1
0.913756 0 1
1 0 1
0 0.213489 1
0.257694 0.252369 1
0.676204 0.270741 1
1 0.292912 1
1 0.331319 1
0 0.670573 1
0.279545 0.674266 1
0.664286 0.658824 1
0.980529 0.648417 1
1 0.653422 1
0 0.994507 1
0.236942 0.965576 1
0.592844 0.921233 1
0.887572 0.888014 1
1 0.876738 1
0 1 1
0.204059 1 1
0.551675 1 1
0.842435 1 1
1 1 1
