site/assets/luts/freshluts--0001409-africa.cube
# LUTr-Schema-Version: 2
# LUTr-ID: freshluts--0001409-africa
# LUTr-Title: AFRICA
# LUTr-Collection: Fresh LUTs
# LUTr-Collection-ID: freshluts-community
# LUTr-Source: https://freshluts.com
# LUTr-Retrieved: 2026-07-27
# LUTr-Source-File: submissions-raw/freshluts/cubes/1409__AFRICA_.cube
# LUTr-Source-Format: CUBE
# LUTr-Source-SHA256: 7f834ba138cf138464fccfbebe5704c8839965d6c6148673f5bb4cba2defffcf
# LUTr-License: CC0-1.0
# LUTr-License-URL: https://freshluts.com/termsandconditions
# LUTr-License-Basis: site-terms
# LUTr-Transform-Class: creative-look
# LUTr-Tags: creative, freshluts, community, cube, film-emulation, warm, bmd-film-4k
# LUTr-Input-Color-Space:
# LUTr-Input-Gamut: bmd-film-gamut
# LUTr-Input-Transfer: bmd-film-4k
# LUTr-Output-Color-Space: srgb
# LUTr-Output-Gamut: rec709
# LUTr-Output-Transfer: srgb
# LUTr-Color-Space-Confidence: camera-profile-input-required
# LUTr-Domain-Normalized: true
# LUTr-Shaper: none
# LUTr-Original-Grid: 33x33x33
# LUTr-Conversion-Grid: 33x33x33
# LUTr-Conversion-Interpolation: none
# LUTr-Conversion-Method: Metadata normalization; numeric LUT samples preserved
# LUTr-Conversion-Tool: LUTr scripts/convert-all-to-cube.mjs 2.0.0
# LUTr-Conversion-Date: 2026-07-28
# LUTr-Asset-URL: https://freshluts.com/luts/1409
# LUTr-Author: lanre
# LUTr-Author-URL: https://freshluts.com/users/157411
# LUTr-Attribution: lanre via Fresh LUTs
# LUTr-Source-Labels: gamma=Blackmagic BMD Film 4K; color=Warm; key=Neutral; style=Film emulation
# LUTr-Note: Preserve this metadata and the upstream license notices when redistributing.
TITLE "AFRICA"
LUT_3D_SIZE 9
DOMAIN_MIN 0 0 0
DOMAIN_MAX 1 1 1
0.131701 0.135668 0.135012
0.320226 0.196262 0.172168
0.40473 0.221149 0.186999
0.404746 0.221149 0.186999
0.404746 0.221149 0.186999
0.404746 0.221149 0.186999
0.404746 0.221149 0.186999
0.404746 0.221149 0.186999
0.404746 0.221149 0.186999
0.131701 0.135668 0.135012
0.131701 0.135668 0.135012
0.242832 0.175265 0.161379
0.40412 0.220966 0.186892
0.404746 0.221149 0.186999
0.404852 0.22118 0.187015
0.40734 0.221881 0.187366
0.416861 0.224613 0.188769
0.4168 0.224598 0.188754
0.132097 0.139467 0.136248
0.131975 0.139116 0.136141
0.151034 0.149477 0.14435
0.454215 0.243473 0.200793
0.475227 0.244541 0.202258
0.479912 0.247608 0.204013
0.48014 0.247074 0.203983
0.494499 0.255009 0.209125
0.492851 0.254032 0.208438
0.152483 0.193973 0.164385
0.151186 0.189807 0.162387
0.152239 0.193301 0.164034
0.561318 0.489357 0.368292
0.658396 0.483818 0.347127
0.631342 0.431327 0.314839
0.624842 0.419272 0.307469
0.629313 0.427771 0.312551
0.63328 0.434592 0.317021
0.160876 0.223377 0.177829
0.160418 0.221622 0.17705
0.158877 0.215961 0.174533
0.277852 0.41384 0.266835
0.766506 0.6851 0.516793
0.796094 0.697978 0.529061
0.790478 0.690547 0.523781
0.796201 0.698421 0.530617
0.803342 0.708263 0.539132
0.163409 0.233005 0.182055
0.163409 0.233021 0.182055
0.163363 0.232822 0.181964
0.199466 0.355016 0.237263
0.705287 0.674968 0.506783
0.879011 0.807538 0.618265
0.8916 0.82414 0.634684
0.892683 0.825559 0.635798
0.894377 0.827741 0.637507
0.163409 0.233021 0.182055
0.163409 0.233021 0.182055
0.16492 0.238636 0.184543
0.203601 0.368246 0.243336
0.676539 0.661616 0.494896
0.889982 0.823209 0.629297
0.910796 0.848844 0.653635
0.911528 0.849867 0.654643
0.911528 0.849867 0.654643
0.163409 0.233021 0.182055
0.163409 0.233021 0.182055
0.172473 0.266987 0.197116
0.242023 0.420188 0.268727
0.710201 0.685267 0.514046
0.890852 0.824063 0.630106
0.910719 0.848753 0.653544
0.911528 0.849867 0.654643
0.911528 0.849867 0.654643
0.163409 0.233021 0.182055
0.164706 0.237888 0.184207
0.17995 0.293919 0.209293
0.300038 0.461707 0.288365
0.745541 0.71133 0.534447
0.892561 0.825757 0.631678
0.910521 0.848447 0.653254
0.911528 0.849867 0.654643
0.911528 0.849867 0.654643
0.146777 0.170733 0.214847
0.225605 0.178912 0.199771
0.403769 0.220829 0.186862
0.404746 0.221149 0.186999
0.404746 0.221149 0.186999
0.404746 0.221149 0.186999
0.404746 0.221149 0.186999
0.404746 0.221149 0.186999
0.404746 0.221149 0.186999
0.131701 0.135668 0.135012
0.131701 0.135668 0.135012
0.229435 0.171038 0.158785
0.402655 0.220523 0.186648
0.404746 0.221149 0.186999
0.404746 0.221149 0.186999
0.407187 0.221836 0.18735
0.414389 0.22388 0.188373
0.414267 0.22385 0.188357
0.131945 0.138994 0.136187
0.131807 0.138613 0.136019
0.149828 0.14789 0.143435
0.444846 0.238697 0.197696
0.471778 0.243442 0.201358
0.471138 0.242603 0.20087
0.477165 0.246067 0.203159
0.489509 0.252399 0.207279
0.486778 0.250706 0.206104
0.151583 0.191012 0.162982
0.149874 0.185687 0.160388
0.150866 0.188846 0.161913
0.541436 0.468132 0.352087
0.649027 0.469184 0.337087
0.62504 0.419776 0.307698
0.619883 0.410498 0.302098
0.625544 0.420798 0.308309
0.629191 0.427024 0.31223
0.160586 0.222278 0.177325
0.160067 0.22031 0.176455
0.158755 0.215534 0.174334
0.287587 0.412909 0.267674
0.761486 0.679286 0.512139
0.791272 0.691249 0.52314
0.786816 0.685496 0.519387
0.792859 0.693858 0.52668
0.800153 0.703929 0.535409
0.163394 0.232975 0.182025
0.163409 0.233021 0.182055
0.163378 0.232914 0.181994
0.199298 0.356527 0.237827
0.704723 0.673991 0.506249
0.877714 0.805875 0.616922
0.890181 0.822324 0.633219
0.891478 0.823987 0.634577
0.89337 0.826444 0.6365
0.163409 0.233021 0.182055
0.163409 0.233021 0.182055
0.165362 0.24033 0.18529
0.206378 0.37348 0.245914
0.675883 0.661402 0.494713
0.889525 0.822705 0.62884
0.91075 0.848783 0.653574
0.911528 0.849867 0.654643
0.911528 0.849867 0.654643
0.163409 0.233021 0.182055
0.163439 0.233112 0.182101
0.172824 0.268147 0.19765
0.241978 0.421225 0.269444
0.708141 0.684092 0.512993
0.890013 0.82324 0.629328
0.910536 0.848508 0.6533
0.911528 0.849867 0.654643
0.911528 0.849867 0.654643
0.163409 0.233021 0.182055
0.164446 0.236942 0.18378
0.179736 0.293248 0.208972
0.297841 0.459907 0.287327
0.740673 0.707713 0.531716
0.891859 0.824933 0.630915
0.910353 0.848249 0.653071
0.911528 0.849867 0.654643
0.911528 0.849867 0.654643
0.158267 0.21387 0.330037
0.184863 0.238117 0.390219
0.479103 0.288457 0.411307
0.458137 0.258732 0.30837
0.426734 0.229541 0.211292
0.418097 0.225193 0.191959
0.413687 0.223743 0.188968
0.410819 0.222904 0.188037
0.408667 0.222263 0.18764
0.148013 0.17409 0.223087
0.144137 0.163897 0.198367
0.22974 0.181003 0.203403
0.422995 0.22887 0.213931
0.421347 0.226612 0.197528
0.417136 0.224857 0.191135
0.415549 0.224308 0.189654
0.41767 0.224857 0.189181
0.416281 0.22443 0.188724
0.134157 0.143816 0.146075
0.133974 0.143374 0.145632
0.147753 0.147875 0.145205
0.436606 0.234791 0.195621
0.468605 0.241825 0.200244
0.466529 0.240757 0.199557
0.472862 0.2439 0.201633
0.480735 0.246708 0.203738
0.478004 0.244984 0.20267
0.150362 0.187396 0.161227
0.148409 0.181308 0.158282
0.147906 0.179965 0.157488
0.504601 0.429938 0.323583
0.6318 0.441917 0.318639
0.612421 0.396979 0.293889
0.609537 0.391882 0.290898
0.616434 0.40412 0.298161
0.620432 0.411246 0.302525
0.159915 0.219745 0.176211
0.159365 0.217716 0.175311
0.157855 0.212207 0.172854
0.282872 0.403555 0.26247
0.748455 0.665263 0.500893
0.781353 0.677363 0.510903
0.776669 0.671168 0.506813
0.784054 0.68159 0.515984
0.791074 0.691386 0.524498
0.163378 0.232883 0.181994
0.163363 0.232868 0.181979
0.163134 0.231968 0.181582
0.198047 0.35314 0.236194
0.697795 0.667994 0.501595
0.874113 0.801328 0.613153
0.887297 0.81857 0.630228
0.888655 0.82034 0.631678
0.890578 0.822843 0.633661
0.163409 0.233021 0.182055
0.163409 0.233021 0.182055
0.16556 0.241077 0.185611
0.204807 0.373037 0.245365
0.66479 0.652934 0.488243
0.887892 0.820996 0.627237
0.910613 0.848585 0.653391
0.911376 0.849668 0.65449
0.911528 0.849867 0.654643
0.163668 0.233967 0.182483
0.163882 0.234791 0.182849
0.172808 0.267887 0.197574
0.234867 0.41709 0.267185
0.698863 0.677562 0.507774
0.888197 0.821363 0.627588
0.910201 0.848035 0.652842
0.911528 0.849867 0.654643
0.911528 0.849867 0.654643
0.165393 0.240375 0.185504
0.165393 0.240467 0.185473
0.180026 0.294148 0.20943
0.28304 0.453086 0.283986
0.726223 0.69691 0.523354
0.889555 0.82266 0.628779
0.910048 0.847822 0.652613
0.911528 0.849867 0.654643
0.912184 0.850721 0.655314
0.158267 0.21387 0.330037
0.159716 0.220768 0.34699
0.483742 0.30309 0.463035
0.561608 0.322087 0.474617
0.519493 0.302312 0.433036
0.496025 0.287495 0.393912
0.478599 0.274907 0.357275
0.462501 0.262318 0.319051
0.450874 0.252079 0.288029
0.158389 0.214466 0.331472
0.158267 0.21387 0.330037
0.269322 0.256001 0.408591
0.513558 0.302419 0.438239
0.505913 0.294041 0.411673
0.490013 0.283345 0.382345
0.476585 0.273396 0.352819
0.467124 0.264866 0.325368
0.459586 0.257877 0.303273
0.164324 0.2439 0.381003
0.163241 0.2392 0.373556
0.168841 0.247425 0.389013
0.525399 0.312245 0.45185
0.54876 0.304158 0.406165
0.535698 0.293797 0.373861
0.531868 0.288518 0.352667
0.541161 0.289906 0.342702
0.536614 0.285557 0.329473
0.184741 0.342641 0.406806
0.181155 0.327001 0.389776
0.173892 0.294438 0.344503
0.46511 0.462455 0.428717
0.620829 0.413642 0.338277
0.606195 0.376165 0.306157
0.606073 0.377096 0.302174
0.614191 0.392782 0.310246
0.61796 0.400107 0.313466
0.180316 0.304448 0.275669
0.179522 0.301518 0.273213
0.175113 0.280568 0.244785
0.22945 0.409079 0.275547
0.74609 0.673381 0.50898
0.786435 0.68455 0.51693
0.782376 0.679332 0.51429
0.794156 0.695689 0.528405
0.805707 0.711589 0.542794
0.175723 0.279088 0.219928
0.176226 0.280903 0.222156
0.174075 0.272999 0.213993
0.200198 0.365438 0.244755
0.682673 0.664225 0.497307
0.876768 0.805203 0.615808
0.891661 0.824231 0.63476
0.896529 0.830549 0.639841
0.901427 0.836866 0.644739
0.177081 0.284077 0.225025
0.177752 0.287037 0.229862
0.177798 0.286534 0.224201
0.204273 0.382712 0.253605
0.641306 0.648432 0.479622
0.892668 0.828702 0.632456
0.917296 0.857221 0.659892
0.91986 0.8607 0.663111
0.92137 0.862669 0.664622
0.18262 0.309026 0.263691
0.182666 0.309178 0.263951
0.188434 0.327977 0.260807
0.217136 0.425528 0.281636
0.670161 0.674647 0.500832
0.896773 0.835142 0.63711
0.920211 0.860945 0.662577
0.922881 0.864622 0.666087
0.923858 0.865888 0.667018
0.186114 0.330983 0.30338
0.186023 0.328481 0.295872
0.196979 0.364721 0.297704
0.230426 0.462501 0.314687
0.706203 0.706035 0.525353
0.902342 0.842176 0.642695
0.922927 0.864439 0.665095
0.9252 0.867628 0.668315
0.925978 0.86865 0.669154
0.158267 0.21387 0.330037
0.158267 0.21387 0.330037
0.396277 0.28751 0.450004
0.556023 0.320607 0.473625
0.561624 0.322087 0.474632
0.561624 0.322087 0.474632
0.558831 0.320867 0.472251
0.541222 0.313024 0.456596
0.525185 0.305165 0.439414
0.159182 0.218402 0.34052
0.158282 0.213931 0.330159
0.220645 0.248844 0.405982
0.537484 0.315816 0.470573
0.561624 0.322087 0.474632
0.561502 0.322042 0.474525
0.554955 0.319173 0.468986
0.540932 0.312779 0.455863
0.530526 0.307576 0.444358
0.170001 0.267124 0.411582
0.168811 0.262104 0.406973
0.175174 0.282506 0.433265
0.573358 0.36202 0.551766
0.634867 0.363149 0.539376
0.611887 0.347097 0.515007
0.600183 0.339849 0.501396
0.605539 0.34168 0.501793
0.603296 0.340063 0.497124
0.199115 0.394827 0.49691
0.19646 0.383719 0.489357
0.192416 0.366354 0.47776
0.337057 0.478233 0.580423
0.681361 0.468559 0.590799
0.679744 0.429847 0.555917
0.675196 0.424491 0.54345
0.676844 0.431586 0.539925
0.679026 0.437736 0.540551
0.204776 0.42501 0.500481
0.203754 0.421149 0.496178
0.200504 0.408286 0.481788
0.22031 0.497108 0.523293
0.688838 0.693553 0.648875
0.753323 0.636133 0.557641
0.74284 0.616953 0.538796
0.751156 0.631632 0.550774
0.760357 0.647578 0.565164
0.20087 0.414542 0.466026
0.200595 0.413474 0.464469
0.198047 0.403464 0.449653
0.217624 0.479194 0.473075
0.442649 0.653391 0.531716
0.908583 0.860731 0.70576
0.91313 0.860334 0.703838
0.913863 0.862379 0.709224
0.915312 0.865675 0.716762
0.199435 0.409552 0.455207
0.199313 0.40911 0.454353
0.198062 0.404623 0.443442
0.221714 0.491081 0.473457
0.352972 0.63389 0.518502
0.896361 0.861769 0.699382
0.935714 0.887037 0.715846
0.935164 0.88748 0.719799
0.934478 0.887968 0.725353
0.201678 0.417899 0.469413
0.201129 0.415839 0.465904
0.203952 0.43006 0.466148
0.230152 0.522103 0.501534
0.38674 0.654139 0.545205
0.889464 0.859586 0.707835
0.935317 0.888243 0.72369
0.935103 0.888685 0.725597
0.934462 0.888548 0.728023
0.204028 0.426444 0.483635
0.203922 0.426612 0.48098
0.209766 0.454582 0.48809
0.236927 0.546761 0.526543
0.425727 0.672709 0.565682
0.884886 0.857481 0.715007
0.934066 0.888365 0.730129
0.934173 0.888823 0.730541
0.933486 0.888518 0.732341
0.158297 0.213962 0.330266
0.158267 0.21387 0.330037
0.249775 0.256138 0.41471
0.537499 0.315831 0.470588
0.561624 0.322087 0.474632
0.561624 0.322087 0.474632
0.561624 0.322087 0.474632
0.561624 0.322087 0.474632
0.561624 0.322087 0.474632
0.160174 0.223423 0.351476
0.159045 0.217807 0.339269
0.186572 0.239292 0.392981
0.521798 0.311879 0.468177
0.561624 0.322087 0.474632
0.561624 0.322087 0.474632
0.562799 0.322621 0.475578
0.565637 0.323949 0.478019
0.567346 0.324742 0.479377
0.172 0.275593 0.418875
0.170504 0.26923 0.413642
0.174655 0.284398 0.432517
0.554986 0.365606 0.55642
0.646021 0.373739 0.553079
0.643793 0.370291 0.548745
0.645808 0.372015 0.550881
0.651209 0.377386 0.557122
0.652857 0.37911 0.55903
0.199359 0.395468 0.498253
0.197467 0.387411 0.493187
0.194415 0.373648 0.485832
0.297658 0.493141 0.591913
0.692546 0.506966 0.63978
0.703395 0.467399 0.615564
0.700648 0.461158 0.611688
0.703288 0.466697 0.613809
0.706233 0.47361 0.616571
0.209857 0.440818 0.525933
0.209384 0.438804 0.524498
0.207584 0.431144 0.519432
0.229236 0.519127 0.579171
0.579644 0.668788 0.699474
0.779446 0.662104 0.695476
0.77319 0.642649 0.680507
0.776852 0.652186 0.684352
0.781582 0.663874 0.690394
0.212787 0.454688 0.531624
0.21265 0.45417 0.531136
0.211643 0.450416 0.527535
0.229511 0.52459 0.574411
0.332006 0.671931 0.672053
0.844846 0.841291 0.799023
0.875563 0.841566 0.783475
0.874647 0.840269 0.782162
0.878752 0.846494 0.789029
0.212985 0.456107 0.531228
0.212848 0.455711 0.530587
0.213596 0.459297 0.531899
0.232181 0.536629 0.578759
0.285756 0.652003 0.65008
0.741955 0.803738 0.740429
0.903059 0.877791 0.808911
0.903639 0.877867 0.807782
0.902998 0.877729 0.809857
0.213016 0.456199 0.531411
0.212879 0.455833 0.530724
0.217792 0.476799 0.543694
0.237888 0.557717 0.591546
0.303929 0.668864 0.665064
0.736355 0.803067 0.743816
0.902525 0.878019 0.809796
0.904128 0.878447 0.808087
0.903944 0.878386 0.808591
0.213275 0.457023 0.53254
0.213443 0.458015 0.532647
0.222156 0.494575 0.556085
0.243 0.574884 0.602899
0.334554 0.68159 0.674723
0.74342 0.805463 0.745068
0.902205 0.877928 0.810666
0.904051 0.878401 0.80827
0.904051 0.878431 0.808331
0.158297 0.213962 0.330266
0.158267 0.21387 0.330037
0.176623 0.235401 0.38616
0.514458 0.31014 0.467201
0.561624 0.322087 0.474632
0.561624 0.322087 0.474632
0.561624 0.322087 0.474632
0.561624 0.322087 0.474632
0.561624 0.322087 0.474632
0.16144 0.229801 0.364233
0.160327 0.224231 0.35317
0.170855 0.236835 0.387945
0.505135 0.308904 0.468833
0.561624 0.322087 0.474632
0.56286 0.322652 0.475624
0.566247 0.324208 0.478431
0.572305 0.327031 0.483375
0.576898 0.329122 0.487037
0.174197 0.285161 0.426825
0.172519 0.277821 0.420691
0.175082 0.287251 0.433524
0.533211 0.371435 0.560281
0.650523 0.380072 0.560296
0.6495 0.375463 0.55491
0.650767 0.376425 0.556451
0.65539 0.382025 0.562097
0.657649 0.384344 0.564752
0.199344 0.395392 0.498177
0.197513 0.387549 0.493263
0.194278 0.37319 0.485298
0.276616 0.492164 0.587854
0.686946 0.515755 0.645212
0.710018 0.482261 0.623682
0.709514 0.480308 0.622492
0.714046 0.490333 0.627314
0.717708 0.498772 0.631067
0.209842 0.440589 0.525887
0.209415 0.438804 0.524788
0.207919 0.432319 0.520851
0.230106 0.521126 0.58291
0.543923 0.665995 0.69836
0.788937 0.682338 0.717449
0.784787 0.662089 0.703853
0.788418 0.671138 0.70811
0.792111 0.680598 0.712169
0.214145 0.459297 0.537148
0.214038 0.458839 0.536904
0.213489 0.456504 0.535424
0.232975 0.53344 0.587976
0.310674 0.665309 0.674403
0.812146 0.831891 0.797742
0.872511 0.840803 0.803861
0.870832 0.837903 0.80032
0.874601 0.844114 0.80592
0.215015 0.462882 0.539544
0.215015 0.462882 0.539544
0.21622 0.467781 0.543008
0.236728 0.547646 0.596124
0.280583 0.6542 0.662379
0.705898 0.804837 0.773648
0.894224 0.8766 0.835264
0.897032 0.87747 0.834531
0.897078 0.877577 0.834806
0.215015 0.462882 0.539544
0.21503 0.462928 0.53959
0.221042 0.487511 0.556588
0.242283 0.567025 0.608026
0.293416 0.663035 0.668711
0.702724 0.804196 0.773114
0.891783 0.87541 0.834333
0.897246 0.877775 0.834623
0.897231 0.877775 0.834684
0.215015 0.462882 0.539544
0.216052 0.467124 0.542535
0.225269 0.504448 0.568078
0.246845 0.5823 0.617197
0.30988 0.675074 0.678325
0.709316 0.80592 0.774166
0.892683 0.875853 0.834379
0.897276 0.87776 0.834409
0.897276 0.877745 0.834379
0.158297 0.213962 0.330266
0.158267 0.21387 0.330037
0.166934 0.230625 0.37438
0.493492 0.305196 0.464332
0.561624 0.322087 0.474632
0.561624 0.322087 0.474632
0.561624 0.322087 0.474632
0.561624 0.322087 0.474632
0.561624 0.322087 0.474632
0.161334 0.229313 0.363363
0.160372 0.22443 0.353597
0.166186 0.236133 0.384085
0.494194 0.307881 0.471748
0.563561 0.322988 0.476204
0.570138 0.325994 0.48159
0.574258 0.327962 0.485039
0.584329 0.332662 0.493126
0.591806 0.336629 0.499596
0.175113 0.289174 0.42945
0.173083 0.280278 0.422675
0.174746 0.286 0.432013
0.51075 0.373602 0.558999
0.652705 0.385382 0.565896
0.655634 0.381674 0.561913
0.65597 0.382712 0.562661
0.66096 0.388418 0.568597
0.66334 0.391516 0.571252
0.199512 0.396124 0.498619
0.197681 0.388281 0.493721
0.194186 0.3729 0.48481
0.25835 0.49192 0.583703
0.679652 0.524392 0.649912
0.713726 0.491417 0.627787
0.713375 0.488853 0.626535
0.717968 0.499336 0.631342
0.722072 0.508797 0.635645
0.209857 0.440742 0.525948
0.209476 0.439094 0.524926
0.207996 0.432685 0.52105
0.230228 0.521553 0.583108
0.532662 0.66746 0.698268
0.791547 0.68986 0.721187
0.787442 0.66865 0.707012
0.790677 0.676921 0.710689
0.79443 0.686275 0.714931
0.214191 0.459449 0.53727
0.214069 0.458915 0.536919
0.213733 0.45745 0.53611
0.233722 0.536141 0.589792
0.31574 0.664836 0.673961
0.804044 0.829938 0.795834
0.874006 0.843473 0.807324
0.87303 0.841642 0.804868
0.876097 0.846677 0.809293
0.215015 0.462882 0.539544
0.215015 0.462882 0.539544
0.216953 0.470802 0.545144
0.237781 0.551156 0.598749
0.278676 0.653712 0.662562
0.698314 0.803174 0.773709
0.892393 0.875975 0.836805
0.896773 0.877729 0.836896
0.896803 0.877806 0.836973
0.215015 0.462882 0.539544
0.215091 0.463157 0.539742
0.221942 0.491096 0.559136
0.243595 0.571176 0.611048
0.294102 0.665797 0.671687
0.694881 0.80238 0.772885
0.890532 0.87509 0.836088
0.896849 0.877974 0.837232
0.896849 0.877974 0.837232
0.215015 0.462882 0.539544
0.216709 0.46981 0.544457
0.2262 0.508064 0.570565
0.2477 0.585 0.619181
0.30753 0.676661 0.680247
0.700374 0.803922 0.774075
0.888945 0.874266 0.83566
0.896849 0.877974 0.837232
0.896849 0.877974 0.837232
0.158297 0.213962 0.330266
0.158267 0.21387 0.330037
0.162951 0.22771 0.365774
0.478767 0.301778 0.462135
0.561624 0.322087 0.474632
0.561624 0.322087 0.474632
0.561624 0.322087 0.474632
0.561776 0.322164 0.474769
0.561624 0.322087 0.474632
0.161166 0.228473 0.361791
0.160266 0.22385 0.352438
0.164202 0.234195 0.378119
0.483284 0.305531 0.470359
0.562203 0.322362 0.475105
0.569207 0.325567 0.480842
0.575097 0.328359 0.48571
0.589776 0.335485 0.497795
0.602686 0.342412 0.509071
0.174228 0.285283 0.426627
0.17229 0.276905 0.419944
0.173358 0.280186 0.4271
0.489097 0.365713 0.550637
0.648783 0.382956 0.563699
0.654108 0.379812 0.560067
0.656413 0.38323 0.56318
0.662669 0.390631 0.570535
0.666117 0.39556 0.574548
0.198566 0.392111 0.496117
0.196597 0.383642 0.490806
0.192905 0.367407 0.481209
0.249348 0.486351 0.5794
0.673472 0.523888 0.649973
0.714595 0.493858 0.628901
0.715389 0.493431 0.628656
0.720348 0.50486 0.633799
0.725032 0.515602 0.638834
0.209796 0.440436 0.52578
0.209354 0.43856 0.524636
0.207965 0.432578 0.520989
0.230091 0.521111 0.582742
0.522759 0.667826 0.697734
0.793423 0.695399 0.72398
0.789654 0.674174 0.709545
0.79295 0.682567 0.713237
0.796475 0.69131 0.717266
0.214237 0.459632 0.537408
0.21413 0.459266 0.537133
0.214084 0.458885 0.537133
0.234363 0.53843 0.591272
0.317556 0.666484 0.675044
0.80322 0.830427 0.79617
0.875792 0.84654 0.809979
0.874357 0.843809 0.80676
0.877424 0.848936 0.811322
0.215015 0.462882 0.539544
0.215015 0.462882 0.539544
0.217563 0.47332 0.546883
0.23856 0.553887 0.600443
0.279713 0.652842 0.66154
0.700587 0.803922 0.773999
0.893339 0.876509 0.837171
0.896803 0.877791 0.836973
0.896834 0.877821 0.836988
0.215015 0.462882 0.539544
0.215335 0.46421 0.54049
0.222721 0.494209 0.561257
0.244358 0.573785 0.612589
0.294606 0.668605 0.674067
0.696406 0.802808 0.773205
0.890349 0.874983 0.836057
0.896849 0.877974 0.837232
0.896849 0.877974 0.837232
0.215015 0.462882 0.539544
0.216815 0.470222 0.544793
0.226658 0.509896 0.571756
0.248173 0.586526 0.620096
0.316548 0.678843 0.681666
0.702159 0.804471 0.774517
0.888212 0.873869 0.835447
0.896849 0.877974 0.837232
0.896849 0.877974 0.837232
