site/assets/luts/freshluts--0001943-rec709-drone-shot.cube
# LUTr-Schema-Version: 2
# LUTr-ID: freshluts--0001943-rec709-drone-shot
# LUTr-Title: Rec709 drone shot
# LUTr-Collection: Fresh LUTs
# LUTr-Collection-ID: freshluts-community
# LUTr-Source: https://freshluts.com
# LUTr-Retrieved: 2026-07-27
# LUTr-Source-File: submissions-raw/freshluts/cubes/1943__rec709_drone_shot_547.DJI_0023.cube
# LUTr-Source-Format: CUBE
# LUTr-Source-SHA256: 817602e854f3b8dae5c949ddc3262c9c38ba27299e625222e2fa6dd8b314ec52
# LUTr-License: CC0-1.0
# LUTr-License-URL: https://freshluts.com/termsandconditions
# LUTr-License-Basis: site-terms
# LUTr-Transform-Class: creative-look
# LUTr-Tags: creative, freshluts, community, cube, dji-d-log
# LUTr-Input-Color-Space: dji-dlog-dgamut
# LUTr-Input-Gamut: dji-d-gamut
# LUTr-Input-Transfer: dji-d-log
# LUTr-Output-Color-Space: srgb
# LUTr-Output-Gamut: rec709
# LUTr-Output-Transfer: srgb
# LUTr-Color-Space-Confidence: inferred-from-source-label
# LUTr-Domain-Normalized: true
# LUTr-Shaper: none
# LUTr-Original-Grid: 33x33x33
# LUTr-Conversion-Grid: 33x33x33
# LUTr-Conversion-Interpolation: none
# LUTr-Conversion-Method: Metadata normalization; numeric LUT samples preserved
# LUTr-Conversion-Tool: LUTr scripts/convert-all-to-cube.mjs 2.0.0
# LUTr-Conversion-Date: 2026-07-28
# LUTr-Asset-URL: https://freshluts.com/luts/1943
# LUTr-Author: lvannoeun@gmail.com
# LUTr-Author-URL: https://freshluts.com/users/57563
# LUTr-Attribution: lvannoeun@gmail.com via Fresh LUTs
# LUTr-Source-Labels: gamma=DJI D-log; color=None; key=Neutral; style=Correction
# LUTr-Note: Preserve this metadata and the upstream license notices when redistributing.
TITLE "Rec709 drone shot"
LUT_3D_SIZE 5
DOMAIN_MIN 0 0 0
DOMAIN_MAX 1 1 1
0 0 0
0.294881 0.0151827 0
0.714733 0.0618601 0.0457923
1 0.121782 0.107454
1 0.168948 0.157916
0.0161135 0.197406 0.00726329
0.117632 0.123095 0
0.582315 0.135988 0
0.959762 0.151583 0
1 0.19234 0.0129549
0.105043 0.58558 0.122423
0.189441 0.549172 0.0600137
0.486381 0.486686 0.0932784
0.873106 0.481132 0.0370184
1 0.465064 0.0424964
0.235264 0.969482 0.250278
0.288106 0.953048 0.216068
0.472114 0.879698 0.193072
0.840558 0.844663 0.229511
1 0.819623 0.205524
0.303014 1 0.315419
0.344091 1 0.286
0.419257 1 0.246509
0.761501 1 0.269337
1 1 0.300618
0 0.00337224 0.2374
0.304509 0.0110323 0.250965
0.717617 0.0509651 0.22417
1 0.109178 0.232822
1 0.156085 0.252537
0.00483711 0.184604 0.142046
0.090547 0.103212 0.0593423
0.589105 0.0814984 0.0380407
0.966995 0.114458 0.0901503
1 0.161334 0.143099
0.0889296 0.570825 0.214878
0.107759 0.543984 0.105669
0.473899 0.474098 0.10721
0.876249 0.461433 0.127428
1 0.443641 0.143038
0.226505 0.961913 0.317006
0.236957 0.949722 0.248402
0.434516 0.871077 0.213596
0.827237 0.831525 0.235157
1 0.80383 0.236973
0.295186 1 0.371023
0.30132 1 0.311559
0.378027 1 0.266285
0.739956 1 0.281682
1 1 0.305821
0.012192 0.0162051 0.616098
0.247318 0.0087892 0.704143
0.726864 0.0745098 0.685039
1 0.127352 0.656703
1 0.170871 0.641642
0 0.135378 0.553033
0.0732891 0.0837568 0.607385
0.618173 0.0598306 0.566049
0.99939 0.120912 0.532021
1 0.165667 0.521752
0.105058 0.576928 0.522667
0.112169 0.548745 0.484733
0.456504 0.454749 0.400824
0.969879 0.403647 0.323064
1 0.388205 0.315648
0.225071 0.969848 0.462226
0.233219 0.955108 0.41033
0.3252 0.864302 0.262806
0.801251 0.805997 0.256413
1 0.772183 0.294209
0.284993 1 0.445563
0.289937 1 0.393881
0.299275 1 0.294743
0.699962 1 0.302998
1 1 0.315526
0.0352331 0.0393988 0.977066
0.220645 0.0250401 1
0.709178 0.0805676 1
1 0.151614 1
1 0.190005 1
0 0.138079 0.906813
0.0758373 0.0896925 0.941344
0.582498 0.0779126 0.988983
1 0.143313 0.996887
1 0.18407 0.992264
0.032578 0.484627 0.853193
0.108629 0.476768 0.849577
0.429389 0.430014 0.958907
1 0.357717 0.971191
1 0.346044 0.915877
0.244434 0.972457 0.916869
0.245686 0.950347 0.889067
0.246616 0.875944 0.803113
0.780957 0.785748 0.727337
1 0.736095 0.653437
0.299001 1 0.809476
0.301701 1 0.767285
0.299031 1 0.658534
0.587884 1 0.512123
1 1 0.532479
0.054139 0.0582742 1
0.211704 0.0411536 1
0.67538 0.0902266 1
1 0.156664 1
1 0.204562 1
0 0.139284 1
0.0850538 0.0893111 1
0.552972 0.0924086 1
0.995102 0.154833 1
1 0.197162 1
0.034165 0.477638 1
0.117449 0.474571 1
0.417578 0.418875 1
0.965469 0.360632 1
1 0.332143 1
0.199313 0.911757 1
0.222827 0.876738 1
0.31667 0.821469 1
0.756802 0.766888 1
1 0.69749 1
0.310369 1 1
0.31107 1 1
0.305287 1 1
0.46186 1 1
0.990494 1 0.972641
