site/assets/luts/freshluts--0000766-correctionwarmsony-footage.cube
# LUTr-Schema-Version: 2
# LUTr-ID: freshluts--0000766-correctionwarmsony-footage
# LUTr-Title: correction.warm(sony footage)
# LUTr-Collection: Fresh LUTs
# LUTr-Collection-ID: freshluts-community
# LUTr-Source: https://freshluts.com
# LUTr-Retrieved: 2026-07-27
# LUTr-Source-File: submissions-raw/freshluts/cubes/766__warm-correction_4.D6_C03_S001_S001_T023.cube
# LUTr-Source-Format: CUBE
# LUTr-Source-SHA256: 463928d51629147411e0b0a7867b8ae8481289ab01c410e71e38ba4a7beb2bf7
# LUTr-License: CC0-1.0
# LUTr-License-URL: https://freshluts.com/termsandconditions
# LUTr-License-Basis: site-terms
# LUTr-Transform-Class: creative-look
# LUTr-Tags: creative, freshluts, community, cube, warm, sony-s-log1, correction
# LUTr-Input-Color-Space: sony-slog1-sgamut
# LUTr-Input-Gamut: sony-s-gamut
# LUTr-Input-Transfer: sony-s-log1
# LUTr-Output-Color-Space: srgb
# LUTr-Output-Gamut: rec709
# LUTr-Output-Transfer: srgb
# LUTr-Color-Space-Confidence: inferred-from-source-label
# LUTr-Domain-Normalized: true
# LUTr-Shaper: none
# LUTr-Original-Grid: 33x33x33
# LUTr-Conversion-Grid: 33x33x33
# LUTr-Conversion-Interpolation: none
# LUTr-Conversion-Method: Metadata normalization; numeric LUT samples preserved
# LUTr-Conversion-Tool: LUTr scripts/convert-all-to-cube.mjs 2.0.0
# LUTr-Conversion-Date: 2026-07-28
# LUTr-Asset-URL: https://freshluts.com/luts/766
# LUTr-Author: lvannoeun@gmail.com
# LUTr-Author-URL: https://freshluts.com/users/57563
# LUTr-Attribution: lvannoeun@gmail.com via Fresh LUTs
# LUTr-Source-Labels: gamma=Sony S-Log; color=Warm; key=Neutral; style=Correction
# LUTr-Note: Preserve this metadata and the upstream license notices when redistributing.
TITLE "correction.warm(sony footage)"
LUT_3D_SIZE 5
DOMAIN_MIN 0 0 0
DOMAIN_MAX 1 1 1
0 0 0
0.205814 0 0
0.947295 0 0
1 0 0
1 0 0
0 0.232425 0
0.227085 0.225574 0
0.959579 0.148058 0
1 0.112657 0
1 0.11075 0
0 0.768856 0
0 0.748699 0
0.667262 0.658183 0
1 0.542184 0
1 0.498421 0
0 1 0
0 1 0
0.376074 1 0
0.955779 0.930938 0
1 0.865324 0
0 1 0
0 1 0
0.200015 1 0
0.767224 1 0
1 1 0
0 0 0.128603
0.215961 0 0.224659
0.937087 0 0.180774
1 0 0.132403
1 0 0.138048
0 0.224964 0.222065
0.220127 0.219867 0.218326
0.919829 0.156847 0.161395
1 0.105211 0.11487
1 0.098146 0.109133
0 0.758862 0.00825513
0 0.7346 0
0.648966 0.641917 0
1 0.529702 0
1 0.500938 0
0 1 0
0 1 0
0.349401 1 0
0.927153 0.904723 0
1 0.833921 0
0 1 0
0 1 0
0.167926 1 0
0.734951 1 0
1 1 0
0 0 0.709957
0.195575 0 0.92932
0.901076 0 0.881025
1 0 0.832563
1 0 0.838712
0 0.184115 0.761303
0.198627 0.200565 0.797086
0.885847 0.127718 0.858717
1 0.0725872 0.809339
1 0.0611582 0.799008
0 0.723613 0.703288
0 0.696437 0.679103
0.605158 0.60145 0.592584
1 0.515633 0.514427
1 0.479515 0.481849
0 1 0.457938
0 1 0.412634
0.296788 0.962402 0.305028
0.873014 0.854475 0.206836
1 0.778378 0.198154
0 1 0.316365
0 1 0.254658
0.110826 1 0.134401
0.677638 1 0.0256809
1 1 0
0 0 1
0.1682 0 1
0.874571 0 1
1 0 1
1 0 1
0 0.172595 1
0.185748 0.189334 1
0.860822 0.107378 1
1 0.0476692 1
1 0.0327459 1
0 0.680751 1
0 0.649897 1
0.577981 0.577264 1
1 0.481651 1
1 0.442771 1
0 1 1
0 1 0.99588
0.25362 0.922652 0.886198
0.828428 0.812985 0.785885
1 0.755779 0.73373
0 1 0.895125
0 1 0.832471
0.0630961 1 0.710903
0.63032 1 0.601862
0.983536 0.961089 0.545022
0 0 1
0.164096 0 1
0.869917 0 1
1 0 1
1 0 1
0 0.179385 1
0.190646 0.194888 1
0.856214 0.106416 1
1 0.0414282 1
1 0.0239109 1
0 0.661128 1
0.0282902 0.638254 1
0.568978 0.569543 1
1 0.467018 1
1 0.425757 1
0 1 1
0 1 1
0.27361 0.893645 1
0.807324 0.795956 1
1 0.733318 1
0 1 1
0 1 1
0.0371252 1 1
0.604532 0.999893 0.959655
0.958099 0.93753 0.902708
