site/assets/luts/freshluts--0001568-film-4-rec709-apply-this-lutlast-node-or-layer.cube
# LUTr-Schema-Version: 2
# LUTr-ID: freshluts--0001568-film-4-rec709-apply-this-lutlast-node-or-layer
# LUTr-Title: FILM-4_Rec.709 (Apply this LUTlast node or layer)
# LUTr-Collection: Fresh LUTs
# LUTr-Collection-ID: freshluts-community
# LUTr-Source: https://freshluts.com
# LUTr-Retrieved: 2026-07-27
# LUTr-Source-File: submissions-raw/freshluts/cubes/1568__FIM_4_Rec.709.cube
# LUTr-Source-Format: CUBE
# LUTr-Source-SHA256: f514ee282828eaa8a2a20d0d23b1e4a2ca2611e7261e04a7f6907783effd5f77
# LUTr-License: CC0-1.0
# LUTr-License-URL: https://freshluts.com/termsandconditions
# LUTr-License-Basis: site-terms
# LUTr-Transform-Class: creative-look
# LUTr-Tags: creative, freshluts, community, cube, cool, rec709, cinematic
# LUTr-Input-Color-Space: rec709
# LUTr-Input-Gamut: rec709
# LUTr-Input-Transfer: rec709
# LUTr-Output-Color-Space: srgb
# LUTr-Output-Gamut: rec709
# LUTr-Output-Transfer: srgb
# LUTr-Color-Space-Confidence: inferred-from-source-label
# LUTr-Domain-Normalized: true
# LUTr-Shaper: none
# LUTr-Original-Grid: 33x33x33
# LUTr-Conversion-Grid: 33x33x33
# LUTr-Conversion-Interpolation: none
# LUTr-Conversion-Method: Metadata normalization; numeric LUT samples preserved
# LUTr-Conversion-Tool: LUTr scripts/convert-all-to-cube.mjs 2.0.0
# LUTr-Conversion-Date: 2026-07-28
# LUTr-Asset-URL: https://freshluts.com/luts/1568
# LUTr-Author: Ashikul Islam
# LUTr-Author-URL: https://freshluts.com/users/202252
# LUTr-Attribution: Ashikul Islam via Fresh LUTs
# LUTr-Source-Labels: gamma=Rec 709; color=Cool; key=Neutral; style=FRESH
# LUTr-Duplicate-Assets: 1569:https://freshluts.com/luts/1569
# LUTr-Note: Preserve this metadata and the upstream license notices when redistributing.
TITLE "FILM-4_Rec.709 (Apply this LUTlast node or layer)"
LUT_3D_SIZE 9
DOMAIN_MIN 0 0 0
DOMAIN_MAX 1 1 1
0 0 0
0.03505 0.000869764 0
0.126452 0.00708019 0
0.253513 0.0196078 0
0.416678 0.040528 0.0108034
0.60621 0.062501 0.0436255
0.794171 0.103105 0.0973831
0.955123 0.172808 0.176852
1 0.292149 0.293858
0.000274662 0.0425727 0.0394446
0.0546426 0.0631266 0.00518807
0.160494 0.0747692 0.00390631
0.296223 0.0895857 0.00984207
0.457969 0.108034 0.0288396
0.639719 0.132372 0.0626383
0.817945 0.16939 0.118379
0.966552 0.234775 0.19202
1 0.343236 0.307561
0.00503548 0.142123 0.100832
0.0222782 0.174914 0.0307317
0.200198 0.184115 0.0223392
0.343893 0.194232 0.032578
0.508782 0.208759 0.0514687
0.683345 0.229526 0.0891585
0.845014 0.265782 0.142565
0.978134 0.324819 0.21387
1 0.421317 0.32694
0.0206149 0.286748 0.196857
0.033463 0.30988 0.14905
0.191791 0.344076 0.0602731
0.390158 0.336736 0.0601816
0.557229 0.347631 0.0834974
0.724254 0.364508 0.118059
0.871855 0.394476 0.167681
0.988815 0.442435 0.239948
1 0.52192 0.353307
0.0476692 0.455848 0.314534
0.0630503 0.475868 0.276936
0.113039 0.496132 0.152804
0.418433 0.530571 0.121431
0.605066 0.508659 0.123369
0.759884 0.51986 0.152819
0.892409 0.539467 0.195865
0.994827 0.574746 0.270115
1 0.633539 0.397589
0.0894026 0.626291 0.442817
0.106218 0.641733 0.411521
0.13843 0.6533 0.322286
0.359792 0.674479 0.189776
0.647486 0.697032 0.187366
0.793683 0.672053 0.193805
0.908202 0.68275 0.234058
0.998306 0.702007 0.306371
1 0.739391 0.465995
0.133333 0.771649 0.568673
0.147662 0.780011 0.540887
0.176532 0.789899 0.475349
0.291768 0.806622 0.316823
0.605661 0.815549 0.250446
0.825559 0.830823 0.249027
0.921218 0.806912 0.27332
0.997055 0.81178 0.359808
1 0.827497 0.554726
0.170687 0.87689 0.680491
0.181704 0.881193 0.658595
0.205066 0.887236 0.611521
0.279744 0.90161 0.505196
0.551247 0.908156 0.405814
0.781994 0.916869 0.31284
0.930037 0.92401 0.337118
0.989364 0.898329 0.468345
1 0.895567 0.661341
0.225177 0.940505 0.766354
0.228855 0.944045 0.755154
0.23505 0.950027 0.734157
0.263218 0.959503 0.68011
0.444694 0.976959 0.600687
0.691691 0.979034 0.520317
0.874342 0.978424 0.512612
0.976669 0.974884 0.619303
1 0.949691 0.783795
0 0.00601205 0.0497444
0.0522011 0 0.0678416
0.152071 0.00265507 0.0648508
0.287663 0.00984207 0.0671244
0.456275 0.0248417 0.0802777
0.643229 0.0485695 0.114931
0.82118 0.0879225 0.155856
0.971176 0.17438 0.225666
1 0.306416 0.336614
0 0.0629129 0.0708324
0.0448157 0.0838636 0.143618
0.201877 0.0976425 0.126085
0.360769 0.0939345 0.0951553
0.523064 0.105684 0.0966354
0.694865 0.130816 0.122454
0.855375 0.172503 0.164614
0.987869 0.244602 0.231769
1 0.358877 0.339986
0.00781262 0.18265 0.188861
0.0237583 0.219242 0.223941
0.210163 0.228046 0.133013
0.385946 0.228702 0.105089
0.553155 0.234195 0.108705
0.722087 0.252918 0.138674
0.873533 0.284993 0.178378
0.993805 0.345281 0.246098
1 0.441184 0.354528
0.0332647 0.344747 0.343114
0.0449226 0.3673 0.314046
0.156252 0.388342 0.212345
0.409903 0.382513 0.110216
0.586114 0.383764 0.125948
0.749081 0.396109 0.157275
0.889982 0.420188 0.197757
0.999115 0.466072 0.265965
1 0.543359 0.379614
0.0648661 0.512474 0.455848
0.0783856 0.525856 0.417136
0.117678 0.541344 0.325216
0.39884 0.563577 0.204044
0.621637 0.543755 0.156039
0.774945 0.549325 0.181018
0.903517 0.565011 0.223575
1 0.595743 0.291478
1 0.652216 0.424826
0.105486 0.665339 0.553765
0.119509 0.675135 0.523049
0.150546 0.687129 0.452781
0.344701 0.704021 0.318517
0.640848 0.716686 0.22031
0.803326 0.695933 0.21532
0.914382 0.701961 0.254017
1 0.717815 0.322591
1 0.752575 0.488777
0.145174 0.79353 0.649027
0.157809 0.798047 0.622751
0.184985 0.805539 0.567056
0.311727 0.822904 0.450446
0.603693 0.827939 0.35668
0.823926 0.840726 0.269734
0.924605 0.81976 0.286275
0.996689 0.822385 0.384451
1 0.836133 0.571679
0.180484 0.885756 0.733333
0.189471 0.888838 0.714366
0.211887 0.892989 0.673609
0.290517 0.908339 0.587839
0.565805 0.912215 0.507698
0.782513 0.918822 0.41738
0.929625 0.930129 0.375311
0.98883 0.904372 0.48603
1 0.900618 0.674052
0.235142 0.942962 0.795773
0.238437 0.945968 0.784939
0.244816 0.95079 0.766323
0.279622 0.961837 0.725612
0.460899 0.976059 0.664118
0.69958 0.978653 0.591577
0.872419 0.98114 0.543984
0.975464 0.978073 0.625208
1 0.952621 0.792096
0 0.0151369 0.145739
0.0280919 0 0.229343
0.158099 0.00497444 0.162676
0.288411 0.0104067 0.14902
0.455558 0.0245365 0.158892
0.644739 0.0480354 0.182284
0.826123 0.0812543 0.213397
0.9738 0.160311 0.268971
1 0.297322 0.371649
0 0.0987411 0.190265
0.00373846 0.108217 0.285374
0.200259 0.0704051 0.264317
0.372045 0.0733196 0.232547
0.545342 0.0915999 0.216205
0.716289 0.109087 0.208362
0.873411 0.15613 0.232486
0.999741 0.235935 0.284474
1 0.361334 0.381247
0.0135805 0.207477 0.208957
0.0239109 0.245594 0.274815
0.195026 0.254994 0.334508
0.404807 0.27393 0.316487
0.605737 0.279103 0.286839
0.783581 0.27776 0.253361
0.911543 0.298772 0.255222
1 0.356054 0.299855
1 0.46186 0.404181
0.0363622 0.362707 0.351156
0.0519265 0.402289 0.40705
0.113161 0.429313 0.431601
0.415427 0.427573 0.319478
0.619959 0.435325 0.292287
0.7944 0.435874 0.258686
0.918502 0.448493 0.263767
1 0.486076 0.31194
1 0.567849 0.428595
0.0751659 0.541726 0.510643
0.0968643 0.571771 0.548791
0.127413 0.584314 0.512764
0.388693 0.594842 0.411109
0.639078 0.586999 0.300725
0.805447 0.589975 0.268101
0.923354 0.595209 0.277302
1 0.617456 0.328634
1 0.674006 0.466743
0.122896 0.704082 0.651957
0.138262 0.715694 0.651362
0.163592 0.718395 0.59649
0.35436 0.733318 0.504356
0.63621 0.735531 0.402899
0.818494 0.725231 0.289174
0.92752 0.728328 0.294636
1 0.736965 0.360204
1 0.769009 0.523491
0.161334 0.819959 0.739879
0.172656 0.821317 0.718074
0.196551 0.823651 0.673793
0.336339 0.838758 0.59678
0.610422 0.839429 0.513695
0.818998 0.847379 0.417472
0.9308 0.838102 0.321309
0.996002 0.836881 0.423072
1 0.846845 0.599069
0.195071 0.897383 0.795377
0.202792 0.898695 0.77969
0.222492 0.900542 0.747311
0.311788 0.914885 0.687236
0.586252 0.916609 0.626429
0.783795 0.920272 0.544915
0.92726 0.934478 0.46096
0.988128 0.91339 0.51339
1 0.907469 0.693797
0.250492 0.946395 0.830839
0.254337 0.948699 0.822431
0.269261 0.954589 0.809964
0.30544 0.966476 0.7823
0.485313 0.975006 0.739574
0.710948 0.977401 0.680964
0.869291 0.9832 0.59997
0.974411 0.983063 0.63946
1 0.956725 0.804913
0 0.024979 0.285023
0 0.0108339 0.397589
0.163272 0.00392157 0.373083
0.315526 0.0151522 0.290425
0.468071 0.026154 0.265766
0.650752 0.0486 0.277348
0.825269 0.080293 0.296727
0.971344 0.146365 0.334646
1 0.291432 0.423743
0 0.125628 0.323537
0 0.13228 0.416159
0.150866 0.115434 0.470695
0.370855 0.057084 0.381704
0.540764 0.0613718 0.338338
0.717556 0.0867781 0.326665
0.875517 0.130632 0.32958
1 0.214008 0.360983
1 0.348394 0.440803
0 0.275059 0.367697
0 0.298207 0.429297
0.114595 0.306462 0.505257
0.406348 0.254185 0.469322
0.615259 0.253422 0.438911
0.802197 0.26833 0.416892
0.940749 0.290211 0.395499
1 0.33257 0.390417
1 0.453498 0.465705
0.0434424 0.397711 0.378958
0.062211 0.431281 0.426749
0.119402 0.459098 0.48188
0.406271 0.460227 0.523873
0.627985 0.479011 0.505348
0.808942 0.490257 0.481315
0.943801 0.500557 0.451957
1 0.517449 0.428702
1 0.588434 0.499855
0.0819867 0.562829 0.521599
0.103273 0.590417 0.556146
0.137713 0.613443 0.591012
0.380865 0.629145 0.604486
0.641474 0.620752 0.505623
0.812146 0.629984 0.483238
0.936019 0.638941 0.454597
1 0.650309 0.434791
1 0.693858 0.528634
0.127611 0.716289 0.655924
0.145937 0.732341 0.676204
0.177508 0.747295 0.695537
0.365652 0.75906 0.668894
0.63563 0.754894 0.584863
0.81976 0.750408 0.491539
0.930343 0.756573 0.463905
1 0.764248 0.450919
1 0.785901 0.573068
0.168521 0.832044 0.762051
0.184482 0.838544 0.77055
0.212192 0.844022 0.77377
0.368078 0.852766 0.727535
0.626551 0.851911 0.664134
0.813382 0.853635 0.580591
0.928969 0.852354 0.482994
0.996567 0.855589 0.485496
1 0.859007 0.6374
0.208194 0.907866 0.836316
0.219821 0.910521 0.839963
0.236789 0.910246 0.81767
0.357992 0.920958 0.783841
0.608179 0.92076 0.737713
0.787854 0.922087 0.673686
0.919509 0.931563 0.595422
0.987991 0.925155 0.555322
1 0.915618 0.720638
0.301152 0.959442 0.87808
0.307958 0.961975 0.872343
0.320348 0.966522 0.862165
0.378271 0.970886 0.843961
0.51104 0.974975 0.814496
0.723217 0.976257 0.77203
0.867857 0.980575 0.705119
0.971908 0.988876 0.661112
1 0.96228 0.822721
0 0.0430457 0.437034
0 0.0378424 0.522332
0.0893721 0.0109102 0.563439
0.341192 0.0186007 0.514107
0.512032 0.0349432 0.437659
0.666163 0.0515602 0.399237
0.833112 0.0818341 0.405188
0.969039 0.130083 0.420813
1 0.284901 0.490013
0 0.167727 0.462547
0 0.178225 0.53196
0.0346838 0.180682 0.602106
0.360647 0.136645 0.58822
0.560861 0.062623 0.500572
0.722087 0.0688792 0.455344
0.874403 0.101625 0.444404
0.996872 0.196414 0.458976
1 0.338994 0.513085
0 0.318624 0.495308
0 0.343023 0.551156
0.035874 0.361227 0.615213
0.364935 0.34435 0.645426
0.617761 0.257664 0.583673
0.796506 0.239872 0.54342
0.936141 0.270115 0.524727
1 0.315358 0.512261
1 0.441413 0.547127
0.0127565 0.486137 0.537758
0.0302739 0.509148 0.576318
0.0966201 0.52163 0.617761
0.351827 0.529946 0.669215
0.633463 0.471855 0.632517
0.816617 0.472297 0.608347
0.949508 0.494285 0.591867
1 0.519066 0.570901
1 0.582879 0.582345
0.0933547 0.596674 0.548852
0.113985 0.620157 0.577783
0.147539 0.639536 0.605432
0.386954 0.656901 0.643778
0.639414 0.649271 0.667552
0.810178 0.66424 0.652857
0.932174 0.677668 0.635554
1 0.690898 0.61117
1 0.721736 0.620569
0.134981 0.733837 0.665324
0.153048 0.748028 0.682704
0.184466 0.761227 0.698497
0.383749 0.778851 0.726757
0.639185 0.776806 0.728954
0.817853 0.769696 0.652247
0.925978 0.779156 0.635996
1 0.788861 0.612085
1 0.807858 0.647166
0.173938 0.841703 0.76582
0.189609 0.847135 0.773129
0.218021 0.85301 0.779232
0.403326 0.866957 0.798581
0.64271 0.864485 0.77937
0.81091 0.86128 0.716197
0.924559 0.861448 0.640711
0.992111 0.868482 0.618006
1 0.874327 0.692973
0.212528 0.912947 0.837644
0.223911 0.915267 0.84097
0.248264 0.917952 0.843656
0.417624 0.929473 0.858015
0.632837 0.92639 0.826261
0.795651 0.92575 0.780209
0.912627 0.929732 0.715206
0.986496 0.933684 0.631403
1 0.925566 0.757702
0.331701 0.966751 0.886519
0.371527 0.968383 0.891478
0.440238 0.970535 0.899443
0.504479 0.972992 0.897597
0.567025 0.976104 0.877791
0.731228 0.976684 0.846296
0.868955 0.979568 0.799985
0.966293 0.989334 0.727291
1 0.968734 0.844923
0 0.116442 0.572961
0 0.122301 0.625025
0 0.133547 0.684459
0.304799 0.0994278 0.694408
0.545586 0.0498054 0.641337
0.717037 0.0662852 0.577127
0.84892 0.0856489 0.531655
0.970642 0.116426 0.526207
1 0.280934 0.56994
0 0.237095 0.588708
0 0.250721 0.633494
0 0.282963 0.700618
0.299611 0.261128 0.744976
0.578561 0.188663 0.697597
0.749859 0.0987716 0.615396
0.881224 0.100725 0.56997
0.994079 0.174166 0.562661
1 0.330861 0.595438
0 0.377554 0.61033
0 0.399039 0.650858
0 0.431205 0.706493
0.274586 0.43595 0.767483
0.596826 0.380392 0.738293
0.807065 0.279667 0.685389
0.931655 0.25452 0.636881
1 0.296193 0.622629
1 0.428641 0.632532
0 0.539696 0.6486
0 0.56022 0.678935
0.061677 0.576425 0.714427
0.269261 0.592142 0.772183
0.601617 0.566094 0.763821
0.816236 0.48925 0.721798
0.948775 0.471366 0.693462
1 0.499458 0.677058
1 0.569833 0.672129
0.113252 0.678157 0.684688
0.127169 0.692821 0.70515
0.157336 0.701152 0.726085
0.33872 0.712001 0.75848
0.610925 0.708156 0.775097
0.814633 0.66096 0.748837
0.935424 0.664652 0.731853
1 0.685939 0.717845
1 0.712093 0.70045
0.146319 0.760189 0.688457
0.163714 0.770993 0.700755
0.194507 0.780804 0.712245
0.403021 0.796826 0.737453
0.647578 0.796033 0.755993
0.81503 0.788342 0.771618
0.919493 0.799573 0.761273
0.992096 0.811048 0.746944
1 0.825269 0.733501
0.181338 0.854185 0.772641
0.196536 0.858351 0.777691
0.224735 0.863157 0.782223
0.421958 0.876829 0.801282
0.655863 0.875868 0.818036
0.812909 0.872892 0.818326
0.919921 0.870115 0.760388
0.985199 0.878019 0.745907
1 0.887694 0.754406
0.218967 0.919371 0.840009
0.228779 0.921889 0.843854
0.258473 0.925536 0.846983
0.428885 0.93579 0.860533
0.652613 0.933974 0.872435
0.803952 0.931716 0.86038
0.908202 0.931975 0.812634
0.981201 0.935912 0.746502
1 0.936126 0.801175
0.399924 0.971115 0.889937
0.433829 0.972351 0.894881
0.485039 0.974319 0.902159
0.562829 0.976379 0.912398
0.653162 0.978088 0.923781
0.743053 0.979248 0.906813
0.868818 0.980545 0.874525
0.959274 0.986831 0.817777
1 0.976226 0.872435
0 0.231678 0.688792
0 0.246311 0.719509
0 0.270451 0.761883
0.209598 0.282933 0.822416
0.529778 0.222263 0.804761
0.748241 0.141253 0.755261
0.885191 0.103105 0.697093
0.976242 0.118196 0.641184
1 0.274281 0.65861
0 0.330251 0.697276
0 0.344762 0.725597
0 0.373831 0.768048
0.187884 0.393973 0.825132
0.543236 0.354772 0.830365
0.781201 0.262242 0.797879
0.906538 0.164645 0.72398
0.994553 0.152422 0.670405
1 0.324987 0.683116
0 0.453086 0.713146
0 0.467033 0.736004
0 0.500542 0.777096
0.163027 0.522591 0.827344
0.541863 0.502983 0.842908
0.786465 0.432654 0.816403
0.945754 0.322652 0.774166
1 0.283207 0.723827
1 0.418875 0.719905
0 0.590814 0.737087
0 0.607095 0.758419
0.0252537 0.631785 0.790143
0.199451 0.645762 0.831373
0.541848 0.647517 0.852506
0.788098 0.599039 0.832441
0.943343 0.518441 0.79971
1 0.479561 0.76849
1 0.556146 0.754757
0.0761425 0.724071 0.773236
0.0970932 0.734859 0.787839
0.14287 0.742245 0.804471
0.259388 0.753155 0.836408
0.565972 0.756695 0.853193
0.789746 0.734295 0.844968
0.931029 0.67744 0.818051
1 0.664958 0.796658
1 0.694667 0.781552
0.170153 0.819348 0.798123
0.184512 0.824018 0.805463
0.208759 0.825971 0.811795
0.37792 0.836713 0.832074
0.625437 0.833082 0.842573
0.796536 0.827649 0.852537
0.920851 0.796094 0.833417
0.993851 0.799969 0.820142
1 0.816251 0.805005
0.191302 0.870604 0.788617
0.20618 0.873777 0.792279
0.240681 0.878614 0.795697
0.44332 0.889448 0.811536
0.664714 0.887953 0.825757
0.816342 0.884886 0.838819
0.915633 0.880095 0.850278
0.978698 0.88867 0.842496
1 0.898589 0.829572
0.227085 0.926818 0.842573
0.235096 0.929595 0.846784
0.270863 0.934585 0.850736
0.438437 0.943404 0.86392
0.657084 0.941405 0.875944
0.808362 0.93959 0.888273
0.906386 0.937881 0.889586
0.976181 0.938994 0.839658
1 0.945113 0.848249
0.478035 0.97615 0.894682
0.499702 0.976928 0.898619
0.545159 0.978515 0.905928
0.606851 0.980758 0.915999
0.687968 0.982315 0.927489
0.767559 0.983658 0.939437
0.866484 0.983627 0.933928
0.953216 0.98706 0.896956
1 0.984451 0.902419
0 0.354086 0.78613
0 0.369955 0.803388
0 0.390997 0.827924
0.0277256 0.411841 0.861936
0.460395 0.427451 0.912932
0.727626 0.347326 0.893614
0.909026 0.260655 0.860945
0.996307 0.154055 0.79939
1 0.256611 0.750668
0 0.433722 0.791409
0 0.447028 0.80679
0 0.465187 0.830137
0.031632 0.492348 0.865263
0.450507 0.509987 0.914885
0.731716 0.449378 0.899916
0.919646 0.362951 0.878325
1 0.247456 0.826688
1 0.304891 0.772274
0 0.537026 0.801785
0 0.547723 0.81529
0 0.561791 0.835233
0.0612802 0.594186 0.871656
0.434714 0.608759 0.916548
0.736004 0.574136 0.905882
0.915419 0.500572 0.887236
1 0.384543 0.858183
1 0.399496 0.80705
0 0.650996 0.818509
0 0.657496 0.828931
0.00598154 0.672999 0.847837
0.138277 0.694621 0.87776
0.430732 0.712474 0.917708
0.736568 0.693507 0.910338
0.907668 0.640787 0.894774
1 0.554452 0.871427
1 0.53489 0.835004
0.0591135 0.753552 0.838895
0.0793774 0.760815 0.848524
0.124331 0.773648 0.864164
0.205173 0.781567 0.88481
0.47953 0.797314 0.914549
0.741192 0.790631 0.914855
0.900114 0.758007 0.902022
1 0.698833 0.881575
1 0.670481 0.855787
0.16939 0.842908 0.863111
0.180133 0.847181 0.86949
0.203403 0.850385 0.877607
0.282246 0.859983 0.897612
0.560098 0.860807 0.908217
0.758953 0.858534 0.915923
0.897948 0.845075 0.910994
0.988769 0.805493 0.891417
1 0.793835 0.870817
0.220157 0.908171 0.879377
0.228824 0.909117 0.881621
0.260639 0.910536 0.885557
0.430259 0.916304 0.89691
0.640604 0.912337 0.902647
0.793744 0.908156 0.909575
0.898741 0.905196 0.917891
0.978119 0.883482 0.903136
1 0.886839 0.888579
0.241962 0.935714 0.852461
0.248936 0.938018 0.85565
0.285542 0.946349 0.864668
0.451514 0.952651 0.875212
0.658 0.95079 0.884993
0.807538 0.948608 0.895521
0.906035 0.9467 0.906691
0.970459 0.943511 0.918044
1 0.951995 0.908385
0.579904 0.982513 0.902449
0.595544 0.983078 0.905562
0.625956 0.9841 0.911543
0.672648 0.985428 0.920516
0.73402 0.987305 0.932006
0.798398 0.988952 0.944472
0.860945 0.990417 0.957321
0.945434 0.990478 0.961547
1 0.993698 0.934051
0 0.458198 0.871138
0 0.472175 0.880323
0 0.491844 0.892729
0 0.5037 0.907408
0.13698 0.504021 0.938079
0.599863 0.546212 0.977356
0.836393 0.479545 0.967636
0.993957 0.395636 0.955871
1 0.347036 0.923354
0 0.53051 0.876554
0 0.540444 0.884413
0 0.555245 0.895705
0 0.569589 0.911376
0.132967 0.56553 0.93753
0.588022 0.600137 0.976486
0.837781 0.556527 0.969039
0.989258 0.478752 0.958694
1 0.411337 0.933715
0 0.619242 0.88513
0 0.626169 0.891752
0 0.636103 0.901564
0 0.64651 0.916091
0.147478 0.647089 0.939895
0.583825 0.678538 0.976074
0.837308 0.652064 0.970321
0.980713 0.583047 0.961318
1 0.506249 0.942687
0 0.713863 0.897887
0 0.717876 0.903212
0 0.723674 0.911391
0.0183871 0.728237 0.923369
0.17937 0.734066 0.945022
0.573541 0.755413 0.975052
0.834943 0.746349 0.971481
0.968338 0.695201 0.9635
1 0.61767 0.949355
0.0321508 0.796063 0.913573
0.0496529 0.798169 0.917464
0.0850538 0.800015 0.923522
0.146777 0.801602 0.933639
0.270161 0.811414 0.95816
0.581018 0.826215 0.975357
0.833432 0.822965 0.973465
0.957198 0.79144 0.966888
1 0.725872 0.955352
0.164538 0.859937 0.928832
0.17409 0.860319 0.931456
0.193088 0.859968 0.935775
0.228702 0.859464 0.943374
0.384573 0.875166 0.968353
0.628824 0.880507 0.974701
0.82858 0.879622 0.976577
0.950683 0.865766 0.972595
1 0.819623 0.961303
0.244541 0.907134 0.940261
0.259251 0.90927 0.944289
0.288991 0.913634 0.952514
0.364935 0.919188 0.962798
0.527993 0.921843 0.968627
0.691691 0.923461 0.974243
0.835416 0.924498 0.979828
0.945953 0.919829 0.97998
1 0.888365 0.969406
0.470192 0.958999 0.958495
0.488823 0.958953 0.959869
0.521843 0.958831 0.961944
0.581277 0.959396 0.965743
0.659846 0.96025 0.970489
0.758602 0.960433 0.975723
0.856657 0.960235 0.981628
0.940352 0.960281 0.989487
1 0.94342 0.981155
0.772839 0.991165 0.94374
0.77998 0.991531 0.945434
0.791379 0.991989 0.948272
0.807645 0.992798 0.952178
0.830823 0.993851 0.957427
0.864454 0.995483 0.964645
0.901534 0.99765 0.973297
0.937606 0.999756 0.984512
1 1 1
