site/assets/luts/freshluts--0000163-shadow-king.cube
# LUTr-Schema-Version: 2
# LUTr-ID: freshluts--0000163-shadow-king
# LUTr-Title: SHADOW KING
# LUTr-Collection: Fresh LUTs
# LUTr-Collection-ID: freshluts-community
# LUTr-Source: https://freshluts.com
# LUTr-Retrieved: 2026-07-27
# LUTr-Source-File: submissions-raw/freshluts/cubes/163__SHADOW_KING__39.C0065.cube
# LUTr-Source-Format: CUBE
# LUTr-Source-SHA256: d1aafd808000761934fd73a484ac403340a53dbd3fdeb628eec5abd8a100bce3
# LUTr-License: CC0-1.0
# LUTr-License-URL: https://freshluts.com/termsandconditions
# LUTr-License-Basis: site-terms
# LUTr-Transform-Class: creative-look
# LUTr-Tags: creative, freshluts, community, cube, cinematic, blockbuster, blue, low-key, rec709
# LUTr-Input-Color-Space: rec709
# LUTr-Input-Gamut: rec709
# LUTr-Input-Transfer: rec709
# LUTr-Output-Color-Space: srgb
# LUTr-Output-Gamut: rec709
# LUTr-Output-Transfer: srgb
# LUTr-Color-Space-Confidence: inferred-from-source-label
# LUTr-Domain-Normalized: true
# LUTr-Shaper: none
# LUTr-Original-Grid: 33x33x33
# LUTr-Conversion-Grid: 33x33x33
# LUTr-Conversion-Interpolation: none
# LUTr-Conversion-Method: Metadata normalization; numeric LUT samples preserved
# LUTr-Conversion-Tool: LUTr scripts/convert-all-to-cube.mjs 2.0.0
# LUTr-Conversion-Date: 2026-07-28
# LUTr-Asset-URL: https://freshluts.com/luts/163
# LUTr-Author: Shamoon Abbasi
# LUTr-Author-URL: https://freshluts.com/users/1258
# LUTr-Attribution: Shamoon Abbasi via Fresh LUTs
# LUTr-Source-Labels: gamma=Rec 709; color=Blue; key=Low Key; style=Blockbuster
# LUTr-Note: Preserve this metadata and the upstream license notices when redistributing.
TITLE "SHADOW KING"
LUT_3D_SIZE 33
DOMAIN_MIN 0 0 0
DOMAIN_MAX 1 1 1
0.0213626 0.0213626 0.0213626
0.0223545 0.0224002 0.0224613
0.0237278 0.0237888 0.0239109
0.0251774 0.0252384 0.0254063
0.0265202 0.026688 0.0269169
0.0279088 0.0280766 0.0284276
0.0293584 0.0295872 0.029984
0.0333562 0.0303349 0.0306249
0.0388495 0.0308537 0.0313268
0.0464179 0.0312657 0.0317235
0.0542611 0.0317235 0.0322423
0.0625925 0.0320745 0.0325933
0.0714275 0.0323644 0.0328222
0.0808118 0.0326543 0.0331731
0.0940108 0.0327764 0.0333562
0.108522 0.0329442 0.0335241
0.124041 0.0329442 0.0335851
0.140993 0.0329442 0.0335851
0.158221 0.0328222 0.033463
0.17586 0.0326543 0.0332341
0.195392 0.0324865 0.0331121
0.215976 0.0321965 0.0328832
0.238941 0.0319524 0.0326543
0.262592 0.0316167 0.0323644
0.290867 0.0313268 0.0320745
0.319051 0.0308537 0.0316167
0.348272 0.030457 0.0312047
0.378058 0.030045 0.030808
0.408392 0.0295872 0.0302739
0.438895 0.0291752 0.0298772
0.470192 0.0287175 0.0294652
0.502861 0.0283055 0.0291142
0.53637 0.0277867 0.0286564
0.0255894 0.0257572 0.0259403
0.027039 0.0272068 0.0274968
0.0284276 0.0286564 0.0290074
0.0298772 0.0301671 0.030518
0.0312657 0.0315557 0.0320134
0.0327153 0.0330663 0.0335241
0.034165 0.0345006 0.0351415
0.0366522 0.0356603 0.0360723
0.0432746 0.0363622 0.0362402
0.0505074 0.0368811 0.0363622
0.0583352 0.0375677 0.0365301
0.0666972 0.0381628 0.0366522
0.0756237 0.0387579 0.0368811
0.0858778 0.0392767 0.0369421
0.099382 0.0395361 0.0369421
0.113893 0.0398718 0.0369421
0.129778 0.0399481 0.03682
0.146609 0.0400397 0.0367132
0.163973 0.0399481 0.0365301
0.182147 0.0398718 0.0364233
0.201862 0.0396124 0.0361944
0.222477 0.039353 0.0358434
0.245747 0.0390173 0.0355535
0.270802 0.0385901 0.0351415
0.298894 0.0382544 0.0348516
0.327138 0.0377356 0.0344549
0.356588 0.0373236 0.0341039
0.386816 0.0368811 0.0336919
0.416907 0.0365301 0.0332952
0.44741 0.0361334 0.0328222
0.479286 0.0357214 0.0323033
0.512291 0.0354314 0.0319524
0.545388 0.0350805 0.0315557
0.030396 0.0306249 0.0310369
0.0317845 0.0321355 0.0325933
0.0331731 0.0335241 0.0341039
0.0346838 0.0350805 0.0356146
0.0360723 0.0364843 0.037232
0.0377356 0.0383307 0.0394446
0.0397803 0.0405432 0.041825
0.0421607 0.0426795 0.0438697
0.0485542 0.0439612 0.0434424
0.0553597 0.0449836 0.0430152
0.0629435 0.0459907 0.0428473
0.0711681 0.0467689 0.0426795
0.0800031 0.0475319 0.0425879
0.0920119 0.0480354 0.0423438
0.105638 0.0485542 0.0422522
0.120165 0.0489815 0.0419928
0.136187 0.0490578 0.0417487
0.153017 0.0493172 0.0414893
0.170382 0.0493172 0.041062
0.188754 0.0493172 0.0407263
0.208637 0.0491493 0.0402075
0.230228 0.0490578 0.0397803
0.253178 0.0488899 0.0392767
0.279561 0.0485542 0.0387579
0.307836 0.0482948 0.0382544
0.336324 0.0478676 0.0375677
0.365545 0.0475319 0.0371099
0.39559 0.0471046 0.0366522
0.426139 0.0467689 0.0363012
0.457023 0.0462501 0.0358434
0.48896 0.0459144 0.0354925
0.522316 0.0455787 0.0350805
0.555184 0.0451514 0.0346227
0.0352026 0.0355535 0.0361944
0.0365911 0.0370642 0.0380865
0.0384222 0.0391089 0.0402991
0.0405432 0.0413977 0.0425879
0.0426795 0.043534 0.0449836
0.044892 0.0458228 0.0472725
0.047013 0.0480354 0.0496529
0.0493172 0.0503395 0.051957
0.0545052 0.051957 0.0512703
0.0609903 0.0531472 0.0503395
0.0684825 0.0544289 0.0499123
0.0763409 0.0553597 0.0493172
0.0862593 0.0562905 0.0488899
0.0987564 0.0569772 0.0483864
0.112398 0.0576638 0.0479591
0.127382 0.0580911 0.0475319
0.143267 0.0583352 0.0469368
0.15996 0.0586862 0.0466011
0.177066 0.058854 0.0459907
0.196109 0.0591135 0.0455787
0.215976 0.0591135 0.0450599
0.238468 0.0591135 0.0446326
0.261677 0.0589303 0.0439612
0.289036 0.0587625 0.0432746
0.316838 0.0585946 0.042771
0.345525 0.0583352 0.0420844
0.375433 0.0581674 0.0415656
0.405615 0.057908 0.0408942
0.43595 0.0577401 0.0404669
0.467094 0.0573129 0.0398718
0.499458 0.0570687 0.039353
0.532952 0.0568093 0.0387579
0.565042 0.0566415 0.0383307
0.0413977 0.0422522 0.0434424
0.0434424 0.0443732 0.0458228
0.0457465 0.0466011 0.048127
0.0478676 0.0488899 0.0504311
0.0500801 0.0510262 0.0528115
0.0522164 0.0534066 0.0551919
0.0543374 0.0556191 0.0576638
0.0566415 0.0579995 0.06009
0.0615244 0.0599069 0.0590219
0.0675975 0.0616922 0.057908
0.0746471 0.0631266 0.0568093
0.0822614 0.0643778 0.055787
0.0937514 0.0655375 0.055024
0.106264 0.0664378 0.0542611
0.120165 0.0672313 0.0537423
0.135119 0.0678569 0.0530556
0.151141 0.068574 0.0525521
0.167575 0.068925 0.0518654
0.184878 0.0691997 0.051194
0.204318 0.0694743 0.0506752
0.224216 0.0696422 0.0500038
0.247013 0.0698253 0.0494087
0.271534 0.0699168 0.0487221
0.29926 0.0700084 0.0482185
0.327321 0.0699168 0.0475319
0.356039 0.0698253 0.0469368
0.385702 0.0697337 0.0463417
0.41561 0.0694743 0.045655
0.446113 0.0694743 0.0451514
0.477928 0.0692912 0.0445563
0.510491 0.0692912 0.0441291
0.543984 0.0691081 0.0436103
0.575662 0.0691081 0.043183
0.0486305 0.0497444 0.0512703
0.0507668 0.0518654 0.0537423
0.0530556 0.0541695 0.0560464
0.0551919 0.0564736 0.0585031
0.057496 0.0587625 0.0610819
0.0597391 0.0612497 0.0635691
0.0622416 0.0636606 0.0661631
0.0647288 0.0662547 0.0684825
0.0691997 0.0683909 0.0668803
0.0748302 0.0704509 0.0653544
0.0813458 0.0721447 0.0639353
0.0913863 0.0737469 0.0626841
0.10251 0.0750896 0.0616159
0.114687 0.0761578 0.0606241
0.128847 0.0772412 0.0596475
0.143526 0.0780346 0.0586862
0.159289 0.0788434 0.057908
0.175738 0.0793774 0.057145
0.193652 0.0800031 0.0565499
0.212818 0.080354 0.055787
0.233707 0.0807202 0.055024
0.256352 0.0811627 0.0544289
0.282109 0.0812543 0.0537423
0.309865 0.081529 0.0531472
0.337804 0.081529 0.0523842
0.367041 0.0816968 0.0518654
0.396704 0.0816968 0.051194
0.426337 0.0817884 0.0505989
0.457023 0.0818799 0.0500038
0.48896 0.0817884 0.0494087
0.522316 0.0818799 0.0489815
0.555184 0.0817884 0.0483864
0.586084 0.082002 0.048127
0.0560464 0.0574044 0.0593729
0.0583352 0.0596475 0.0619669
0.0606241 0.06215 0.0645609
0.0629435 0.0645609 0.0670634
0.0654459 0.0670634 0.0697337
0.0678569 0.0695506 0.0723278
0.0702678 0.0720531 0.0749981
0.0732128 0.0747387 0.0753643
0.0773327 0.0772412 0.0738384
0.082887 0.0795605 0.0723278
0.0912642 0.081529 0.0708934
0.101015 0.0840009 0.0694743
0.111894 0.0859998 0.06804
0.124178 0.0878767 0.0667887
0.137926 0.0897536 0.0658122
0.152483 0.0911269 0.0646525
0.168383 0.0925154 0.0638437
0.184588 0.0936294 0.0628672
0.203021 0.0947585 0.0620584
0.222156 0.0956283 0.0610819
0.243534 0.0962539 0.0601816
0.267155 0.0970169 0.0596475
0.293599 0.0973831 0.0587625
0.320882 0.0981308 0.0581674
0.348821 0.0985122 0.0574044
0.378058 0.0990158 0.0568093
0.407477 0.0991379 0.0560464
0.43743 0.099382 0.0554513
0.468452 0.0995041 0.0547646
0.500053 0.0997635 0.0541695
0.533364 0.10013 0.0537423
0.565423 0.100267 0.0531472
0.596521 0.100633 0.0528115
0.0599069 0.0671397 0.0638437
0.0646525 0.0686656 0.0684825
0.068574 0.070634 0.0729534
0.0711681 0.0729534 0.0760815
0.0736706 0.0756237 0.0787518
0.0761578 0.0782177 0.0810712
0.0786603 0.0811627 0.081529
0.0816968 0.0848859 0.0809796
0.087129 0.0883803 0.0800946
0.0938888 0.0918898 0.0788434
0.102007 0.0948806 0.0773327
0.111391 0.0977646 0.0759899
0.122301 0.100267 0.0745556
0.134859 0.10277 0.0732128
0.148074 0.104768 0.0718853
0.162234 0.106386 0.070634
0.177737 0.108141 0.0696422
0.194385 0.109514 0.0684825
0.212528 0.110887 0.0675059
0.232609 0.112016 0.0666056
0.254292 0.113146 0.0658122
0.278828 0.114031 0.0649119
0.305089 0.114687 0.0640269
0.332464 0.115633 0.0633097
0.36051 0.116167 0.0624094
0.389807 0.116823 0.0617838
0.418753 0.117357 0.0609903
0.448524 0.118029 0.0603647
0.479866 0.118303 0.0596475
0.511894 0.1187 0.0589303
0.544991 0.119097 0.0583352
0.575479 0.119493 0.0577401
0.606332 0.120027 0.057496
0.0625925 0.0778668 0.0667887
0.0679484 0.0792859 0.0711681
0.0727703 0.0811627 0.0757153
0.0767071 0.0837568 0.079469
0.0802777 0.087129 0.082887
0.0837568 0.0907607 0.0857557
0.0881361 0.0946365 0.0872511
0.0927596 0.0985122 0.0873884
0.0986343 0.102266 0.0867628
0.105257 0.10602 0.0856336
0.113146 0.10927 0.0838788
0.122576 0.11252 0.082002
0.133516 0.115358 0.0806287
0.145663 0.118166 0.0792859
0.158495 0.120562 0.0778668
0.172656 0.122972 0.0767071
0.1879 0.124971 0.0754559
0.204883 0.126711 0.0742046
0.22327 0.128573 0.0732128
0.243534 0.130053 0.0721447
0.26569 0.131518 0.0711681
0.290867 0.132586 0.0700999
0.317205 0.133913 0.0691997
0.344411 0.134722 0.0684825
0.372274 0.135515 0.0675059
0.40119 0.136461 0.0666972
0.43003 0.137118 0.0658122
0.459937 0.137926 0.0651865
0.4907 0.13846 0.0643778
0.523522 0.139254 0.0638437
0.555734 0.139666 0.0631266
0.586465 0.140322 0.0625925
0.616297 0.140993 0.06215
0.0650034 0.0920119 0.0696422
0.0710765 0.0940108 0.0740215
0.0764324 0.0963912 0.0781262
0.0811627 0.0991379 0.0816968
0.0870069 0.102388 0.0863813
0.0925154 0.10576 0.0896315
0.0980087 0.109636 0.092134
0.103395 0.11339 0.0930037
0.109636 0.117494 0.0931411
0.116564 0.12137 0.0926375
0.124834 0.124971 0.0912642
0.134447 0.12871 0.0897536
0.145129 0.131914 0.0878767
0.156756 0.135256 0.0862593
0.169589 0.137789 0.0843824
0.183429 0.140597 0.0826276
0.19884 0.14287 0.0810712
0.215686 0.144869 0.0798199
0.234821 0.147005 0.0787518
0.254765 0.148608 0.0775006
0.278279 0.150469 0.076524
0.303441 0.151812 0.0754559
0.329717 0.153277 0.0745556
0.356405 0.154345 0.073579
0.384024 0.155428 0.0725109
0.41265 0.156497 0.0716106
0.441123 0.157427 0.0707103
0.471931 0.158358 0.0700999
0.502861 0.159167 0.0691997
0.535363 0.160235 0.0686656
0.566171 0.160906 0.0678569
0.596704 0.1617 0.0673228
0.625727 0.162509 0.0666972
0.0670634 0.108385 0.0720531
0.0736706 0.110643 0.0762493
0.0797436 0.112886 0.0802777
0.0866255 0.115755 0.085008
0.0937514 0.119097 0.0896315
0.100389 0.122438 0.0932631
0.106889 0.126314 0.0961318
0.113268 0.130053 0.0977646
0.120439 0.134325 0.0987564
0.128176 0.138186 0.0987564
0.136721 0.142336 0.0980087
0.146197 0.145937 0.0968795
0.156497 0.149401 0.0952621
0.168246 0.15288 0.0936294
0.180545 0.155688 0.0920119
0.195102 0.158755 0.0902571
0.210361 0.161303 0.0882582
0.227848 0.163836 0.0867628
0.246845 0.165972 0.085008
0.267338 0.167849 0.0831311
0.2916 0.169848 0.0817884
0.316106 0.17145 0.0805371
0.342031 0.17319 0.0795605
0.368719 0.174533 0.0784924
0.396521 0.175998 0.0776837
0.424659 0.177066 0.0767071
0.453361 0.178134 0.0757153
0.483726 0.179339 0.0749218
0.514702 0.18027 0.0740215
0.547204 0.181476 0.0733043
0.57734 0.182284 0.0726787
0.60705 0.183581 0.0722362
0.635874 0.184588 0.0717021
0.0691081 0.126574 0.0745556
0.0760815 0.128985 0.0786603
0.0831311 0.13138 0.0827497
0.0916304 0.134188 0.0877546
0.0997635 0.137392 0.0923781
0.107393 0.140734 0.0963912
0.114824 0.144472 0.0997635
0.122698 0.148211 0.102007
0.130709 0.152346 0.103517
0.138994 0.156222 0.104005
0.147936 0.160235 0.104005
0.157687 0.163973 0.103258
0.168246 0.167712 0.102007
0.179614 0.171191 0.100633
0.192508 0.174395 0.0991379
0.20705 0.1776 0.0975052
0.222477 0.18027 0.0957656
0.240208 0.183139 0.0940108
0.258885 0.185595 0.0920119
0.281743 0.18819 0.0907607
0.305089 0.190341 0.0890059
0.329534 0.192355 0.0872511
0.355108 0.194385 0.0857557
0.381598 0.196109 0.084123
0.40914 0.197833 0.0830091
0.436683 0.199268 0.0816052
0.465934 0.200855 0.0807202
0.49572 0.202152 0.0797436
0.527138 0.203449 0.0788434
0.558724 0.204883 0.0782177
0.588144 0.206043 0.077409
0.617365 0.207477 0.0768749
0.645945 0.208637 0.0762493
0.0708019 0.1458 0.0766155
0.0783093 0.148333 0.0805371
0.0866255 0.150881 0.0853742
0.0963912 0.153811 0.0907607
0.105394 0.156756 0.0952621
0.113893 0.160098 0.0995041
0.122835 0.163577 0.103014
0.13138 0.167178 0.105638
0.140322 0.171191 0.107515
0.149279 0.174929 0.108522
0.158755 0.17908 0.10901
0.16878 0.182864 0.108888
0.179477 0.18703 0.108263
0.191501 0.190784 0.107134
0.204608 0.194232 0.10576
0.218708 0.197971 0.104387
0.235294 0.201007 0.102632
0.252872 0.204318 0.101015
0.272984 0.20705 0.0992599
0.295781 0.209934 0.0977646
0.318685 0.212238 0.0958877
0.342763 0.214389 0.0940108
0.368536 0.216693 0.0926375
0.394842 0.21857 0.0908827
0.421897 0.22089 0.0897536
0.449287 0.222629 0.0881361
0.478889 0.224689 0.0870069
0.508888 0.226276 0.0856336
0.539773 0.228016 0.0843824
0.569711 0.229755 0.0832532
0.599039 0.231342 0.0822614
0.627512 0.233082 0.0816052
0.656245 0.234501 0.0809796
0.0725109 0.16611 0.0787518
0.080354 0.168658 0.082887
0.0902571 0.171054 0.0881361
0.100389 0.174136 0.0931411
0.11014 0.176928 0.0977646
0.120439 0.18027 0.102266
0.129915 0.183719 0.105882
0.139666 0.18761 0.108888
0.149401 0.191501 0.111269
0.158755 0.195529 0.112764
0.169055 0.199847 0.113771
0.179202 0.203876 0.113771
0.190784 0.208057 0.113771
0.203311 0.211948 0.113024
0.216846 0.215839 0.112139
0.231968 0.219471 0.110887
0.24828 0.223102 0.10927
0.266606 0.226902 0.107759
0.287587 0.229908 0.106142
0.309865 0.233234 0.104631
0.332647 0.23624 0.10277
0.357336 0.239094 0.101381
0.382162 0.241627 0.0995041
0.408209 0.243839 0.0978866
0.434836 0.246372 0.0963912
0.462638 0.248432 0.0948806
0.491661 0.250645 0.0935073
0.521721 0.252552 0.0920119
0.552575 0.254765 0.0908827
0.58143 0.256504 0.0896315
0.610071 0.258412 0.0890059
0.637827 0.260227 0.088014
0.666743 0.262226 0.0868849
0.0742046 0.187472 0.0808118
0.0825055 0.190051 0.0855116
0.0933852 0.192935 0.0906386
0.104387 0.195956 0.0956283
0.114961 0.19913 0.100389
0.12604 0.202579 0.104891
0.136584 0.206043 0.108385
0.147143 0.209781 0.111894
0.15729 0.213672 0.11429
0.167987 0.217563 0.116564
0.178546 0.222004 0.117891
0.189624 0.226429 0.118563
0.202152 0.231022 0.119097
0.214832 0.235294 0.118563
0.229114 0.239734 0.118029
0.244633 0.243687 0.116823
0.261311 0.247807 0.115496
0.281376 0.251438 0.114153
0.301808 0.254765 0.112642
0.324193 0.258412 0.111147
0.347173 0.261677 0.109514
0.371145 0.265324 0.107897
0.395956 0.268421 0.106142
0.421897 0.271717 0.104768
0.448142 0.274266 0.103258
0.47599 0.276997 0.101518
0.504875 0.279927 0.10013
0.534768 0.282292 0.0986343
0.564492 0.285023 0.0976425
0.592981 0.287221 0.0963912
0.62092 0.289769 0.0953841
0.648707 0.291951 0.094255
0.677775 0.294331 0.0932631
0.0757153 0.210941 0.0830091
0.0848859 0.213535 0.088014
0.0966354 0.216266 0.0931411
0.108019 0.219303 0.0981308
0.119371 0.222629 0.102632
0.131121 0.226429 0.107012
0.142733 0.229908 0.111009
0.153948 0.234348 0.114565
0.164904 0.2383 0.117494
0.176272 0.242573 0.120165
0.18761 0.247013 0.12163
0.199847 0.251286 0.122835
0.212665 0.255879 0.123507
0.226276 0.260227 0.123369
0.241474 0.265324 0.123369
0.257145 0.270069 0.122438
0.276097 0.274998 0.121767
0.295781 0.279194 0.120439
0.316289 0.283207 0.118837
0.338537 0.287587 0.117494
0.361257 0.291234 0.115755
0.385321 0.295247 0.11429
0.409689 0.298528 0.11252
0.435569 0.301991 0.111391
0.461677 0.304906 0.109636
0.489342 0.308019 0.108019
0.518303 0.310964 0.106508
0.548211 0.313542 0.105135
0.57641 0.316472 0.104265
0.604196 0.319051 0.10277
0.631601 0.321996 0.101762
0.659556 0.324193 0.100633
0.688624 0.326772 0.0997635
0.0772412 0.236408 0.0853742
0.0872511 0.239246 0.0902571
0.099382 0.242573 0.0955062
0.111269 0.245747 0.10013
0.123644 0.249073 0.105135
0.136187 0.252705 0.109514
0.148074 0.256352 0.113146
0.160372 0.26041 0.117098
0.171984 0.264958 0.120302
0.184009 0.270069 0.12311
0.196826 0.274632 0.125246
0.209644 0.279927 0.12697
0.223102 0.28484 0.127916
0.23798 0.289586 0.128313
0.253346 0.294881 0.12845
0.270619 0.299611 0.127916
0.289952 0.30454 0.127504
0.309865 0.308934 0.126177
0.330999 0.313726 0.125246
0.35288 0.317769 0.123766
0.375433 0.32163 0.122164
0.399313 0.325856 0.120699
0.42356 0.329152 0.119234
0.448905 0.333013 0.117769
0.47541 0.336141 0.115892
0.503258 0.339818 0.114565
0.532158 0.34258 0.113024
0.560586 0.345708 0.111772
0.588327 0.348638 0.110521
0.615045 0.3514 0.10901
0.642466 0.35436 0.108141
0.67042 0.35697 0.106889
0.699031 0.35996 0.10602
0.0784009 0.264057 0.0877546
0.08925 0.267521 0.0926375
0.102266 0.271168 0.0977646
0.114427 0.274815 0.102632
0.127504 0.278828 0.107134
0.140459 0.282658 0.111513
0.153277 0.286854 0.115755
0.16611 0.291417 0.119631
0.178408 0.295781 0.122835
0.191791 0.30071 0.126177
0.205173 0.305272 0.12845
0.21857 0.310597 0.130312
0.233555 0.315373 0.131655
0.249226 0.320333 0.132586
0.265324 0.32549 0.132845
0.284291 0.330083 0.132845
0.303807 0.335225 0.132586
0.323827 0.339635 0.131655
0.345159 0.344411 0.130983
0.367041 0.348638 0.129519
0.389807 0.353063 0.128573
0.413382 0.35697 0.127245
0.437232 0.360693 0.125505
0.462837 0.364797 0.124041
0.48954 0.36817 0.122576
0.517311 0.371893 0.121096
0.545602 0.375067 0.119493
0.573053 0.378607 0.118303
0.600275 0.381415 0.11696
0.626795 0.384573 0.115496
0.653681 0.387747 0.11429
0.681453 0.390555 0.112886
0.709606 0.39353 0.112139
0.0797436 0.295781 0.0898756
0.0913863 0.29926 0.0948806
0.104387 0.30309 0.0998856
0.117357 0.306737 0.104387
0.13138 0.31078 0.109392
0.144732 0.314641 0.113649
0.158221 0.318868 0.118029
0.17145 0.323278 0.121767
0.184878 0.327504 0.125505
0.19884 0.332464 0.12871
0.212818 0.337057 0.131243
0.227848 0.342031 0.133791
0.243534 0.346807 0.135393
0.259678 0.351949 0.136584
0.278096 0.356786 0.137118
0.297063 0.36144 0.137255
0.316838 0.366674 0.137255
0.337621 0.371145 0.136858
0.358831 0.376181 0.136461
0.38085 0.380468 0.135393
0.404135 0.384955 0.134585
0.42707 0.389059 0.13312
0.451026 0.392981 0.131518
0.47715 0.397086 0.130312
0.503258 0.400626 0.12871
0.531151 0.404517 0.127642
0.558526 0.408026 0.125902
0.585718 0.411536 0.124834
0.611841 0.414679 0.123232
0.63801 0.417823 0.121767
0.66508 0.421149 0.120439
0.692836 0.423926 0.119493
0.720729 0.426886 0.118425
0.0807202 0.328603 0.0920119
0.0935073 0.33228 0.0968795
0.106889 0.335958 0.102144
0.120439 0.339635 0.106767
0.134722 0.343679 0.111269
0.148745 0.347539 0.115633
0.162768 0.351766 0.120027
0.176806 0.355856 0.124178
0.190921 0.36051 0.127916
0.205753 0.365179 0.131121
0.220417 0.369467 0.134188
0.236713 0.374685 0.136584
0.252705 0.379355 0.138323
0.271168 0.38439 0.1402
0.289952 0.389242 0.140993
0.309865 0.394278 0.141802
0.330083 0.398947 0.142061
0.350668 0.403586 0.141665
0.372274 0.408576 0.14139
0.394659 0.41265 0.140597
0.417456 0.417456 0.139925
0.440375 0.421515 0.138598
0.465736 0.425772 0.137789
0.490883 0.429664 0.136324
0.517311 0.433356 0.134981
0.54519 0.437232 0.133791
0.571572 0.440757 0.132189
0.597971 0.44445 0.130983
0.62324 0.447776 0.129381
0.649439 0.451606 0.128313
0.676478 0.454704 0.127108
0.703777 0.458 0.125902
0.731319 0.46128 0.124575
0.082002 0.362188 0.0941329
0.0953841 0.365927 0.0992599
0.10901 0.369848 0.104005
0.123232 0.373571 0.108644
0.138186 0.377493 0.11339
0.152483 0.381415 0.117891
0.167315 0.385702 0.122438
0.181338 0.389807 0.126436
0.196689 0.394461 0.130312
0.212238 0.398566 0.133791
0.228016 0.403403 0.136721
0.244953 0.408026 0.139391
0.262043 0.412467 0.141665
0.281926 0.417456 0.143526
0.301259 0.422263 0.144472
0.321996 0.42707 0.145663
0.342214 0.431693 0.145937
0.363867 0.436683 0.146197
0.385519 0.441123 0.146075
0.407843 0.44538 0.145403
0.430579 0.450263 0.144869
0.453941 0.454322 0.144335
0.479286 0.458961 0.143404
0.504463 0.463035 0.142061
0.531746 0.467475 0.141131
0.55816 0.471351 0.139666
0.583856 0.475029 0.138186
0.609537 0.479088 0.136995
0.634806 0.482567 0.135927
0.661036 0.486442 0.134722
0.687526 0.489723 0.133257
0.714717 0.4934 0.132052
0.741329 0.4963 0.130709
0.0834974 0.396704 0.0962539
0.0973831 0.400809 0.101259
0.111391 0.404334 0.106264
0.126177 0.408209 0.110765
0.141268 0.411902 0.115496
0.156085 0.415793 0.119768
0.171191 0.42005 0.124437
0.186313 0.423926 0.128573
0.202441 0.428367 0.132723
0.218143 0.432609 0.136049
0.235767 0.437049 0.139528
0.252872 0.441489 0.142199
0.271717 0.44593 0.144198
0.291951 0.451026 0.146334
0.312428 0.45568 0.147936
0.333394 0.460899 0.149279
0.354177 0.465537 0.149813
0.376364 0.470573 0.150607
0.398199 0.475212 0.150469
0.420417 0.479667 0.150072
0.443717 0.484504 0.150072
0.467475 0.48896 0.149142
0.492622 0.493599 0.14847
0.518715 0.497658 0.147539
0.545602 0.502266 0.146609
0.571008 0.506279 0.145129
0.596338 0.510491 0.14406
0.621286 0.514504 0.14313
0.646128 0.518303 0.141665
0.672435 0.522316 0.140597
0.698665 0.525933 0.139132
0.725841 0.529549 0.138186
0.750668 0.532753 0.136721
0.0851301 0.43151 0.0986343
0.0995041 0.435386 0.103517
0.113512 0.439094 0.108019
0.128985 0.443153 0.112886
0.144335 0.44686 0.117357
0.159838 0.450645 0.122301
0.175463 0.454902 0.126574
0.191058 0.458961 0.130846
0.20763 0.463615 0.134859
0.224689 0.467674 0.13846
0.242573 0.472511 0.142061
0.26041 0.476951 0.144594
0.281559 0.481788 0.147402
0.302174 0.486442 0.149538
0.323095 0.491081 0.151141
0.344411 0.496117 0.152621
0.366293 0.500648 0.153414
0.388312 0.505867 0.154223
0.410422 0.510689 0.154482
0.433539 0.515709 0.154879
0.456443 0.520317 0.154482
0.480827 0.524727 0.153811
0.506477 0.529351 0.153552
0.532158 0.533761 0.152621
0.55816 0.538369 0.151949
0.583291 0.542382 0.150744
0.608469 0.546807 0.149935
0.63267 0.550713 0.148608
0.657725 0.554437 0.147402
0.684031 0.557977 0.146471
0.709972 0.561318 0.145006
0.736889 0.564675 0.14406
0.760159 0.567651 0.142596
0.0866255 0.467674 0.100511
0.101259 0.471733 0.105638
0.115892 0.475608 0.110384
0.131914 0.479667 0.115221
0.147539 0.483345 0.119768
0.163439 0.487602 0.124575
0.17908 0.491661 0.128847
0.195819 0.49572 0.133379
0.212955 0.500053 0.137255
0.230549 0.504265 0.140856
0.249226 0.509285 0.144198
0.269154 0.513497 0.147265
0.290501 0.518517 0.15021
0.311696 0.523125 0.152209
0.333577 0.527947 0.154345
0.355108 0.532753 0.155962
0.37731 0.537377 0.157031
0.399878 0.54258 0.158099
0.422629 0.547005 0.158633
0.44538 0.551827 0.15903
0.469032 0.556115 0.158892
0.494377 0.560388 0.15903
0.519722 0.564492 0.158358
0.545388 0.568399 0.157565
0.571008 0.572686 0.157031
0.59559 0.57641 0.156085
0.619852 0.580697 0.155291
0.643931 0.584222 0.154086
0.669673 0.588144 0.153277
0.695567 0.591485 0.152087
0.721279 0.594842 0.150744
0.746395 0.598321 0.149538
0.769665 0.600992 0.148333
0.0887617 0.505074 0.103136
0.103517 0.509285 0.107897
0.118303 0.513298 0.11252
0.134585 0.51751 0.117357
0.150607 0.521324 0.122164
0.167041 0.525734 0.12697
0.183139 0.529549 0.13138
0.200565 0.533959 0.135515
0.217853 0.53817 0.139666
0.236881 0.542184 0.143267
0.256031 0.547005 0.146868
0.276997 0.55108 0.149935
