site/assets/luts/freshluts--0000987-urban-square.cube
# LUTr-Schema-Version: 2
# LUTr-ID: freshluts--0000987-urban-square
# LUTr-Title: Urban Square
# LUTr-Collection: Fresh LUTs
# LUTr-Collection-ID: freshluts-community
# LUTr-Source: https://freshluts.com
# LUTr-Retrieved: 2026-07-27
# LUTr-Source-File: submissions-raw/freshluts/cubes/987__Urban_Square_-_2.cube
# LUTr-Source-Format: CUBE
# LUTr-Source-SHA256: d74f3362a4652cd30798a4b443c0b03d45fd84b103828037827782859787150f
# LUTr-License: CC0-1.0
# LUTr-License-URL: https://freshluts.com/termsandconditions
# LUTr-License-Basis: site-terms
# LUTr-Transform-Class: creative-look
# LUTr-Tags: creative, freshluts, community, cube, high-contrast, high-key, rec709, assumed-input
# LUTr-Input-Color-Space: rec709
# LUTr-Input-Gamut: rec709
# LUTr-Input-Transfer: rec709
# LUTr-Output-Color-Space: srgb
# LUTr-Output-Gamut: rec709
# LUTr-Output-Transfer: srgb
# LUTr-Color-Space-Confidence: assumed-display-referred
# LUTr-Domain-Normalized: true
# LUTr-Shaper: none
# LUTr-Original-Grid: 32x32x32
# LUTr-Conversion-Grid: 32x32x32
# LUTr-Conversion-Interpolation: none
# LUTr-Conversion-Method: Metadata normalization; numeric LUT samples preserved
# LUTr-Conversion-Tool: LUTr scripts/convert-all-to-cube.mjs 2.0.0
# LUTr-Conversion-Date: 2026-07-28
# LUTr-Asset-URL: https://freshluts.com/luts/987
# LUTr-Author: ButterflyBD
# LUTr-Author-URL: https://freshluts.com/users/53416
# LUTr-Attribution: ButterflyBD via Fresh LUTs
# LUTr-Source-Labels: gamma=Other; color=None; key=High Key; style=High contrast; LUTr assumption=input Rec.709 per repository policy
# LUTr-Conversion-Warning: Input Rec.709 is a LUTr catalog assumption requested for this otherwise unspecified Fresh LUT; it is not verified by the upstream asset.
# LUTr-Note: Preserve this metadata and the upstream license notices when redistributing.
# LUTr-Upstream-Comment: Created by: Adobe Photoshop Export Color Lookup Plugin
# LUTr-Upstream-Comment: LUT size
# LUTr-Upstream-Comment: data domain
# LUTr-Upstream-Comment: LUT data points
TITLE "Urban Square"
LUT_3D_SIZE 5
DOMAIN_MIN 0.000000 0.000000 0.000000
DOMAIN_MAX 0.903226 0.903226 0.903226
0 0 0
0.288422 0 0
0.567902 0 0
0.799866 0 0
0.975647 0 0
0 0.309387 0
0.288422 0.309387 0
0.567902 0.309387 0
0.799866 0.309387 0
0.975647 0.309387 0
0 0.518799 0
0.288422 0.518799 0
0.567902 0.518799 0
0.799866 0.518799 0
0.975647 0.518799 0
0 0.737091 0
0.288422 0.737091 0
0.567902 0.737091 0
0.799866 0.737091 0
0.975647 0.737091 0
0 0.942017 0
0.288422 0.942017 0
0.567902 0.942017 0
0.799866 0.942017 0
0.975647 0.942017 0
0 0 0.298401
0.288422 0 0.298401
0.567902 0 0.298401
0.799866 0 0.298401
0.975647 0 0.298401
0 0.309387 0.298401
0.288422 0.309387 0.298401
0.567902 0.309387 0.298401
0.799866 0.309387 0.298401
0.975647 0.309387 0.298401
0 0.518799 0.298401
0.288422 0.518799 0.298401
0.567902 0.518799 0.298401
0.799866 0.518799 0.298401
0.975647 0.518799 0.298401
0 0.737091 0.298401
0.288422 0.737091 0.298401
0.567902 0.737091 0.298401
0.799866 0.737091 0.298401
0.975647 0.737091 0.298401
0 0.942017 0.298401
0.288422 0.942017 0.298401
0.567902 0.942017 0.298401
0.799866 0.942017 0.298401
0.975647 0.942017 0.298401
0 0 0.522125
0.288422 0 0.522125
0.567902 0 0.522125
0.799866 0 0.522125
0.975647 0 0.522125
0 0.309387 0.522125
0.288422 0.309387 0.522125
0.567902 0.309387 0.522125
0.799866 0.309387 0.522125
0.975647 0.309387 0.522125
0 0.518799 0.522125
0.288422 0.518799 0.522125
0.567902 0.518799 0.522125
0.799866 0.518799 0.522125
0.975647 0.518799 0.522125
0 0.737091 0.522125
0.288422 0.737091 0.522125
0.567902 0.737091 0.522125
0.799866 0.737091 0.522125
0.975647 0.737091 0.522125
0 0.942017 0.522125
0.288422 0.942017 0.522125
0.567902 0.942017 0.522125
0.799866 0.942017 0.522125
0.975647 0.942017 0.522125
0 0 0.736755
0.288422 0 0.736755
0.567902 0 0.736755
0.799866 0 0.736755
0.975647 0 0.736755
0 0.309387 0.736755
0.288422 0.309387 0.736755
0.567902 0.309387 0.736755
0.799866 0.309387 0.736755
0.975647 0.309387 0.736755
0 0.518799 0.736755
0.288422 0.518799 0.736755
0.567902 0.518799 0.736755
0.799866 0.518799 0.736755
0.975647 0.518799 0.736755
0 0.737091 0.736755
0.288422 0.737091 0.736755
0.567902 0.737091 0.736755
0.799866 0.737091 0.736755
0.975647 0.737091 0.736755
0 0.942017 0.736755
0.288422 0.942017 0.736755
0.567902 0.942017 0.736755
0.799866 0.942017 0.736755
0.975647 0.942017 0.736755
0 0 0.941498
0.288422 0 0.941498
0.567902 0 0.941498
0.799866 0 0.941498
0.975647 0 0.941498
0 0.309387 0.941498
0.288422 0.309387 0.941498
0.567902 0.309387 0.941498
0.799866 0.309387 0.941498
0.975647 0.309387 0.941498
0 0.518799 0.941498
0.288422 0.518799 0.941498
0.567902 0.518799 0.941498
0.799866 0.518799 0.941498
0.975647 0.518799 0.941498
0 0.737091 0.941498
0.288422 0.737091 0.941498
0.567902 0.737091 0.941498
0.799866 0.737091 0.941498
0.975647 0.737091 0.941498
0 0.942017 0.941498
0.288422 0.942017 0.941498
0.567902 0.942017 0.941498
0.799866 0.942017 0.941498
0.975647 0.942017 0.941498
