site/assets/luts/freshluts--0000687-thats-one-lut.cube
# LUTr-Schema-Version: 2
# LUTr-ID: freshluts--0000687-thats-one-lut
# LUTr-Title: That's one LUT.
# LUTr-Collection: Fresh LUTs
# LUTr-Collection-ID: freshluts-community
# LUTr-Source: https://freshluts.com
# LUTr-Retrieved: 2026-07-27
# LUTr-Source-File: submissions-raw/freshluts/cubes/687__lut_4.00018.cube
# LUTr-Source-Format: CUBE
# LUTr-Source-SHA256: 4e31d8f6678af7db0df278ddda368a4ee1f80a22d529a54b6b260190bc02766c
# LUTr-License: CC0-1.0
# LUTr-License-URL: https://freshluts.com/termsandconditions
# LUTr-License-Basis: site-terms
# LUTr-Transform-Class: creative-look
# LUTr-Tags: creative, freshluts, community, cube, canon-cinestyle
# LUTr-Input-Color-Space:
# LUTr-Input-Gamut: rec709
# LUTr-Input-Transfer: canon-cinestyle
# LUTr-Output-Color-Space: srgb
# LUTr-Output-Gamut: rec709
# LUTr-Output-Transfer: srgb
# LUTr-Color-Space-Confidence: camera-profile-input-required
# LUTr-Domain-Normalized: true
# LUTr-Shaper: none
# LUTr-Original-Grid: 33x33x33
# LUTr-Conversion-Grid: 33x33x33
# LUTr-Conversion-Interpolation: none
# LUTr-Conversion-Method: Metadata normalization; numeric LUT samples preserved
# LUTr-Conversion-Tool: LUTr scripts/convert-all-to-cube.mjs 2.0.0
# LUTr-Conversion-Date: 2026-07-28
# LUTr-Asset-URL: https://freshluts.com/luts/687
# LUTr-Author: lvannoeun@gmail.com
# LUTr-Author-URL: https://freshluts.com/users/57563
# LUTr-Attribution: lvannoeun@gmail.com via Fresh LUTs
# LUTr-Source-Labels: gamma=Canon Cinestyle; color=None; key=Neutral; style=FRESH
# LUTr-Note: Preserve this metadata and the upstream license notices when redistributing.
TITLE "That's one LUT."
LUT_3D_SIZE 5
DOMAIN_MIN 0 0 0
DOMAIN_MAX 1 1 1
0.000137331 0.0112154 0.0514382
0.137484 0.0207828 0.0625925
0.385183 0.0274815 0.070573
0.612726 0.0329747 0.0772259
0.843809 0.0373999 0.0829786
0 0.2589 0.0547951
0.238315 0.242374 0.0757916
0.495827 0.239536 0.110033
0.709072 0.254231 0.0704356
0.950271 0.257282 0.0641642
0 0.508293 0.0563973
0.203128 0.503944 0.0505684
0.566476 0.468833 0.103243
0.837659 0.455344 0.163027
1 0.469871 0.140673
0 0.758221 0.0573587
0.182895 0.758938 0.0534676
0.552575 0.728252 0.0580911
0.887999 0.694209 0.130953
1 0.678767 0.195789
0 1 0.0580301
0.173861 0.999237 0.0565499
0.509499 0.992813 0.045655
0.890486 0.94902 0.0822614
1 0.919478 0.160037
0.000015259 0.0111696 0.289067
0.165911 0.0136721 0.292821
0.439307 0.0126345 0.29279
0.696666 0.010193 0.291325
0.958343 0.00648508 0.28893
0.0468452 0.246769 0.272908
0.181979 0.258686 0.28632
0.424704 0.265583 0.298863
0.6439 0.273457 0.305882
0.87361 0.27834 0.311177
0.0602579 0.48864 0.308354
0.171038 0.510185 0.300725
0.490883 0.494652 0.307271
0.745892 0.48896 0.342168
0.96582 0.501549 0.304051
0.0116274 0.753902 0.300832
0.164767 0.762127 0.299794
0.457267 0.75639 0.291585
0.814862 0.719295 0.334874
1 0.70454 0.397559
0.000915541 0.999664 0.296544
0.16202 0.999329 0.300755
0.444373 0.996612 0.294911
0.795407 0.97969 0.292683
1 0.94374 0.363943
0 0.0119173 0.538903
0.16492 0.0142214 0.542855
0.438453 0.013077 0.542763
0.695811 0.0106203 0.541146
0.957504 0.00697337 0.538552
0.0194553 0.25597 0.515053
0.16788 0.262425 0.541817
0.439323 0.261646 0.546822
0.696574 0.259068 0.54522
0.95819 0.255528 0.542641
0.0944228 0.483543 0.51136
0.228931 0.495857 0.524147
0.448417 0.509071 0.540536
0.695537 0.50898 0.547494
0.920775 0.515282 0.551171
0.137133 0.716686 0.554253
0.257145 0.733364 0.564736
0.439048 0.760876 0.551675
0.7364 0.746349 0.55346
0.992096 0.739712 0.585977
0.0965133 0.968627 0.573037
0.199039 0.987289 0.565896
0.434333 0.997513 0.551675
0.704097 0.995148 0.543206
1 0.968902 0.583474
0 0.0130007 0.791562
0.164309 0.0148775 0.795514
0.437797 0.0137179 0.795407
0.695186 0.0112764 0.793912
0.956878 0.00762951 0.791333
0.0080415 0.259037 0.777096
0.166079 0.263188 0.796597
0.438682 0.262287 0.799435
0.695949 0.259709 0.797833
0.957549 0.256046 0.795407
0.0670329 0.494972 0.73753
0.199603 0.506584 0.761212
0.438712 0.512154 0.798703
0.694896 0.509377 0.800214
0.956527 0.505943 0.797665
0.142 0.721309 0.751614
0.274739 0.733898 0.764477
0.495445 0.74728 0.77879
0.701442 0.758267 0.793835
0.95465 0.756268 0.799298
0.192325 0.943481 0.792584
0.319265 0.952712 0.804974
0.524254 0.970459 0.816922
0.693675 0.995361 0.804395
0.984543 0.994186 0.801785
0 0.0137179 0.934447
0.162631 0.0148775 0.931044
0.436347 0.0139467 0.928313
0.693721 0.011368 0.925948
0.955291 0.00784314 0.923812
0.0055848 0.259556 0.92137
0.164233 0.263523 0.930617
0.437201 0.262501 0.930312
0.694331 0.259922 0.927932
0.955962 0.256367 0.925826
0.0504311 0.499916 0.877607
0.186557 0.50959 0.897719
0.436744 0.512245 0.928389
0.693416 0.509697 0.928252
0.95491 0.506142 0.926131
0.130022 0.727352 0.866712
0.261418 0.739498 0.874281
0.480171 0.752804 0.892287
0.693248 0.759945 0.923659
0.95314 0.756451 0.925734
0.194049 0.946136 0.897292
0.322484 0.954284 0.903304
0.542535 0.967926 0.915465
0.747509 0.97969 0.926894
0.950454 0.995102 0.924895
