site/assets/luts/freshluts--0000687-thats-one-lut.cube
# LUTr-Schema-Version: 2
# LUTr-ID: freshluts--0000687-thats-one-lut
# LUTr-Title: That's one LUT.
# LUTr-Collection: Fresh LUTs
# LUTr-Collection-ID: freshluts-community
# LUTr-Source: https://freshluts.com
# LUTr-Retrieved: 2026-07-27
# LUTr-Source-File: submissions-raw/freshluts/cubes/687__lut_4.00018.cube
# LUTr-Source-Format: CUBE
# LUTr-Source-SHA256: 4e31d8f6678af7db0df278ddda368a4ee1f80a22d529a54b6b260190bc02766c
# LUTr-License: CC0-1.0
# LUTr-License-URL: https://freshluts.com/termsandconditions
# LUTr-License-Basis: site-terms
# LUTr-Transform-Class: creative-look
# LUTr-Tags: creative, freshluts, community, cube, canon-cinestyle
# LUTr-Input-Color-Space:
# LUTr-Input-Gamut: rec709
# LUTr-Input-Transfer: canon-cinestyle
# LUTr-Output-Color-Space: srgb
# LUTr-Output-Gamut: rec709
# LUTr-Output-Transfer: srgb
# LUTr-Color-Space-Confidence: camera-profile-input-required
# LUTr-Domain-Normalized: true
# LUTr-Shaper: none
# LUTr-Original-Grid: 33x33x33
# LUTr-Conversion-Grid: 33x33x33
# LUTr-Conversion-Interpolation: none
# LUTr-Conversion-Method: Metadata normalization; numeric LUT samples preserved
# LUTr-Conversion-Tool: LUTr scripts/convert-all-to-cube.mjs 2.0.0
# LUTr-Conversion-Date: 2026-07-28
# LUTr-Asset-URL: https://freshluts.com/luts/687
# LUTr-Author: lvannoeun@gmail.com
# LUTr-Author-URL: https://freshluts.com/users/57563
# LUTr-Attribution: lvannoeun@gmail.com via Fresh LUTs
# LUTr-Source-Labels: gamma=Canon Cinestyle; color=None; key=Neutral; style=FRESH
# LUTr-Note: Preserve this metadata and the upstream license notices when redistributing.
TITLE "That's one LUT."
LUT_3D_SIZE 33
DOMAIN_MIN 0 0 0
DOMAIN_MAX 1 1 1
0.000137331 0.0112154 0.0514382
0.000198367 0.0128023 0.0529793
0.000259403 0.0141146 0.0543984
0.00175479 0.0154879 0.055787
0.0159762 0.0166171 0.0578775
0.0440833 0.0177768 0.0590677
0.0750439 0.0187228 0.0602579
0.106096 0.0199283 0.0614786
0.137484 0.0207828 0.0625925
0.168963 0.0216526 0.0637064
0.200656 0.0226444 0.0647288
0.23212 0.0234226 0.0657664
0.263447 0.0244297 0.066804
0.294347 0.0252232 0.0677348
0.324987 0.0258793 0.0687877
0.35552 0.0266728 0.0696117
0.385183 0.0274815 0.070573
0.413581 0.0281682 0.071519
0.441962 0.0288548 0.0723735
0.470298 0.0294347 0.0733349
0.498726 0.0303807 0.0740826
0.527077 0.0310826 0.0749065
0.555642 0.0315404 0.0757458
0.5841 0.0322576 0.0764782
0.612726 0.0329747 0.0772259
0.641474 0.033463 0.0779583
0.670222 0.0339361 0.078706
0.699077 0.0345464 0.0794385
0.727932 0.0352789 0.0801862
0.756878 0.0357824 0.0809339
0.785824 0.0363928 0.08159
0.814755 0.0368963 0.0823377
0.843809 0.0373999 0.0829786
0.00704967 0.0399939 0.0484169
0.00691234 0.0399634 0.0493019
0.00560006 0.0391089 0.05626
0.0132601 0.0416571 0.0541695
0.0301061 0.0436255 0.0543221
0.0602731 0.0450904 0.0568551
0.0905776 0.0460517 0.0588235
0.120378 0.0473945 0.0609293
0.150271 0.0485237 0.0627146
0.180743 0.0497597 0.0643931
0.211521 0.050782 0.0657664
0.242237 0.051667 0.0670176
0.272831 0.0528267 0.0681621
0.303151 0.0536202 0.0693065
0.33341 0.0547646 0.0702525
0.363287 0.0554513 0.0713054
0.39266 0.05626 0.0722515
0.420676 0.0570687 0.0732128
0.448798 0.0578775 0.0740673
0.476982 0.0585794 0.0749065
0.505257 0.0591745 0.0757305
0.533486 0.0601205 0.0765698
0.561791 0.0607156 0.0773022
0.590249 0.0614328 0.0780346
0.618738 0.0620279 0.0787671
0.647364 0.0627451 0.0795148
0.675975 0.0632334 0.0802472
0.704707 0.0639658 0.0808881
0.733562 0.0645914 0.0816205
0.762387 0.065095 0.0822614
0.791196 0.0657054 0.0829175
0.820111 0.0660868 0.0835584
0.849042 0.0667124 0.0841993
0.0132296 0.0686961 0.0534066
0.0133822 0.0696117 0.0540627
0.0135653 0.0666819 0.0557565
0.0272679 0.0659495 0.0628672
0.0520943 0.0674754 0.0691997
0.0729686 0.0721141 0.064744
0.102983 0.073579 0.0614786
0.135149 0.0749218 0.0590829
0.167971 0.0757916 0.0583352
0.200504 0.0764172 0.0591287
0.232105 0.0770733 0.0607004
0.26244 0.0783398 0.0626078
0.292088 0.0792554 0.0645304
0.32137 0.0801709 0.066453
0.350362 0.0813458 0.0681773
0.378775 0.0823987 0.0697795
0.406516 0.0833295 0.0712902
0.433768 0.0843824 0.072694
0.461372 0.0854505 0.0739757
0.488914 0.0861677 0.0751507
0.51664 0.0869917 0.0761883
0.544472 0.087953 0.0772412
0.572519 0.0885481 0.0781872
0.60061 0.0893873 0.0791485
0.62887 0.0902419 0.0799878
0.657115 0.0908522 0.080827
0.685588 0.0915847 0.0816815
0.714046 0.0920729 0.0824292
0.742641 0.0928054 0.0832837
0.771344 0.093431 0.0840314
0.800031 0.0940414 0.0847944
0.828824 0.094789 0.0854353
0.857603 0.0951705 0.086183
0.00761425 0.101137 0.0555276
0.00794995 0.102251 0.056611
0.00773632 0.100893 0.0556649
0.0248417 0.0980697 0.0608072
0.0577859 0.097322 0.0680705
0.0936751 0.0965133 0.0753033
0.12697 0.0966049 0.079408
0.150179 0.100725 0.0715953
0.179065 0.103105 0.0670634
0.210727 0.104356 0.0640421
0.243061 0.105394 0.0614633
0.275624 0.10605 0.0600748
0.307744 0.106706 0.0600137
0.33901 0.107134 0.0608225
0.369253 0.107927 0.0621958
0.398077 0.108736 0.063798
0.425452 0.109667 0.0656291
0.452674 0.110613 0.0675822
0.479713 0.111574 0.0694285
0.506706 0.11252 0.0712596
0.533776 0.113481 0.0728923
0.560952 0.114321 0.0745251
0.588251 0.115282 0.0758984
0.615732 0.116258 0.0772869
0.643351 0.117113 0.0785687
0.671214 0.11809 0.0797436
0.699046 0.118593 0.0809033
0.727138 0.11957 0.0819867
0.755337 0.120302 0.0830549
0.78352 0.120928 0.0840314
0.811826 0.121675 0.0848859
0.84036 0.122179 0.0857404
0.869017 0.122927 0.0866102
0.00234989 0.133883 0.0545968
0.00254826 0.135317 0.0558022
0.00228885 0.13489 0.0546731
0.018143 0.132158 0.0547036
0.0616312 0.128389 0.0623331
0.101762 0.126085 0.0714885
0.138689 0.124804 0.0793622
0.173663 0.1243 0.0850996
0.2056 0.124941 0.0869459
0.22797 0.129442 0.0780041
0.255146 0.132097 0.072221
0.285878 0.133623 0.0691081
0.316884 0.134798 0.0661021
0.348287 0.135485 0.0633249
0.379416 0.136278 0.0616312
0.409461 0.136965 0.0611429
0.438865 0.137407 0.0614176
0.467842 0.137865 0.0622568
0.496513 0.13843 0.0634318
0.52459 0.138903 0.0649271
0.552392 0.139864 0.0666667
0.579828 0.140703 0.0684062
0.607279 0.141543 0.0702678
0.63476 0.142519 0.0720226
0.66212 0.143252 0.0737621
0.689448 0.144228 0.0754711
0.716899 0.145083 0.0770886
0.744472 0.14583 0.078584
0.772168 0.146822 0.0799878
0.799832 0.14757 0.0813764
0.827756 0.14844 0.0825666
0.85565 0.149187 0.0838636
0.88368 0.14995 0.084947
0.000549325 0.165606 0.0541695
0.000640879 0.166949 0.0554818
0.000534066 0.166995 0.0545357
0.0139773 0.16492 0.053254
0.0590677 0.160876 0.0569772
0.105516 0.156924 0.0656138
0.145815 0.154635 0.0747997
0.183398 0.15314 0.0829328
0.219242 0.152407 0.0895399
0.254017 0.151812 0.0947585
0.282734 0.153597 0.0936599
0.304051 0.158129 0.0838788
0.329625 0.161166 0.0772564
0.359274 0.162585 0.0739605
0.388647 0.16376 0.0707561
0.417594 0.164828 0.0676585
0.446998 0.16553 0.0648814
0.476616 0.166354 0.062974
0.506264 0.166812 0.0620584
0.535866 0.167269 0.0619211
0.565316 0.16762 0.0623331
0.594385 0.168093 0.0631876
0.623255 0.168566 0.0643778
0.651881 0.169162 0.0657816
0.680095 0.169894 0.0674144
0.708049 0.170626 0.0690623
0.735882 0.171359 0.0708171
0.763561 0.172107 0.0725719
0.791241 0.172976 0.0744182
0.818906 0.173846 0.0760204
0.846555 0.174716 0.0776379
0.874205 0.175357 0.0792554
0.901839 0.176242 0.0807813
0.000030518 0.19675 0.0542153
0.0000457771 0.198398 0.0554971
0.000030518 0.198428 0.0549477
0.011017 0.197177 0.0534218
0.0528725 0.193759 0.0539101
0.10396 0.189166 0.0597696
0.149691 0.185626 0.0690166
0.190204 0.183108 0.0782025
0.228077 0.181643 0.0863813
0.264118 0.180423 0.0936294
0.298344 0.179843 0.0993057
0.331533 0.17966 0.103487
0.357305 0.182193 0.0996414
0.377554 0.186862 0.0894331
0.401358 0.190143 0.0821851
0.428489 0.191455 0.0785229
0.456733 0.192767 0.0753948
0.485176 0.193851 0.0719768
0.514199 0.194812 0.0687877
0.543801 0.195529 0.0660105
0.57351 0.196246 0.0641184
0.603494 0.196597 0.0628977
0.633387 0.196948 0.0625467
0.663264 0.197192 0.0626383
0.692744 0.197665 0.0631723
0.722225 0.198154 0.0640269
0.751293 0.198535 0.0651255
0.780102 0.199023 0.0665446
0.80853 0.199649 0.0679789
0.836805 0.200275 0.0696269
0.864958 0.2009 0.0712902
0.892973 0.20177 0.0730297
0.920851 0.202411 0.0747539
0 0.227878 0.0545052
0 0.229313 0.0558938
0 0.229694 0.0554818
0.0087892 0.228931 0.0540017
0.0472267 0.226291 0.0529946
0.0986648 0.222065 0.0555886
0.148974 0.217502 0.0629129
0.194049 0.213993 0.0724041
0.234424 0.211627 0.0816358
0.271916 0.209918 0.0898299
0.30811 0.208591 0.0975204
0.342245 0.207904 0.103609
0.375296 0.207233 0.108797
0.405112 0.207675 0.111162
0.42742 0.210727 0.105074
0.446693 0.215503 0.0945907
0.469612 0.218814 0.0870222
0.496513 0.220508 0.0828412
0.52462 0.221714 0.0796063
0.553063 0.222675 0.0762646
0.581903 0.22388 0.0728923
0.611292 0.224857 0.0697032
0.641184 0.225223 0.0670634
0.671199 0.225834 0.0649577
0.701442 0.2262 0.0636301
0.731548 0.226688 0.0629587
0.761624 0.22681 0.0628367
0.791592 0.227298 0.0631571
0.821256 0.227436 0.0638132
0.850797 0.227939 0.0645914
0.880079 0.228321 0.0656901
0.908965 0.228702 0.0670176
0.937713 0.229343 0.068452
0 0.2589 0.0547951
0 0.260456 0.0562142
0 0.260853 0.0560006
0.00698863 0.260349 0.0546578
0.0431983 0.258701 0.0530251
0.0924544 0.2551 0.0533303
0.144717 0.250278 0.057908
0.194049 0.245762 0.0661631
0.238315 0.242374 0.0757916
0.278126 0.24004 0.0849622
0.315206 0.238346 0.0932784
0.351278 0.236789 0.101167
0.384741 0.235737 0.107866
0.41651 0.235065 0.113268
0.447684 0.234531 0.118044
0.474876 0.235737 0.117906
0.495827 0.239536 0.110033
0.515251 0.244205 0.0994125
0.538048 0.247517 0.0916457
0.564614 0.24947 0.0870375
0.592813 0.250568 0.0838178
0.621317 0.251667 0.0803845
0.650202 0.25275 0.0769513
0.679454 0.25362 0.0735027
0.709072 0.254231 0.0704356
0.739178 0.254978 0.067689
0.769528 0.255589 0.0655985
0.799863 0.25597 0.0641642
0.830167 0.256107 0.063386
0.860471 0.256489 0.0630655
0.890501 0.256748 0.0630655
0.920516 0.257008 0.0634928
0.950271 0.257282 0.0641642
0 0.290044 0.0550546
0 0.291615 0.0564889
0 0.292012 0.0563973
0.00546273 0.291768 0.0551614
0.0403143 0.290501 0.0535592
0.0869306 0.28777 0.0525826
0.138506 0.283452 0.054551
0.190784 0.278416 0.0606851
0.238865 0.274159 0.0695201
0.28191 0.27068 0.0792401
0.321157 0.26836 0.0883803
0.357961 0.26656 0.0968185
0.392706 0.265003 0.104814
0.425498 0.263722 0.111788
0.456901 0.263066 0.11751
0.488365 0.262409 0.122805
0.518746 0.262257 0.126345
0.54403 0.263966 0.123812
0.564172 0.268269 0.114702
0.58381 0.272938 0.104005
0.606744 0.276143 0.0960555
0.632975 0.277989 0.0911421
0.661357 0.279454 0.0878309
0.689967 0.280446 0.0843977
0.718822 0.281544 0.0808576
0.747906 0.282414 0.0773175
0.777493 0.283284 0.0740063
0.807462 0.284031 0.0708476
0.837781 0.284535 0.0682078
0.868193 0.28481 0.0661326
0.898619 0.28542 0.0645914
0.929152 0.285573 0.0635996
0.959533 0.285725 0.0630655
0 0.321187 0.055314
0 0.322789 0.0567483
0 0.323201 0.0567788
0.00392157 0.323079 0.0557717
0.0383001 0.322179 0.0540627
0.0827192 0.320089 0.0525673
0.132403 0.316396 0.0528115
0.185153 0.311467 0.0564279
0.236515 0.306584 0.0637064
0.282994 0.302464 0.0729992
0.325002 0.299275 0.082536
0.363668 0.296712 0.0916915
0.399054 0.294911 0.100237
0.432685 0.293263 0.108309
0.465721 0.291966 0.115694
0.497414 0.290944 0.121752
0.528893 0.290181 0.127169
0.560357 0.28954 0.132143
0.589181 0.289891 0.133776
0.613001 0.292607 0.129107
0.63267 0.297032 0.118944
0.652583 0.301595 0.108354
0.675654 0.304921 0.100374
0.701869 0.306783 0.09514
0.730083 0.308125 0.0915999
0.758785 0.309239 0.0881819
0.787625 0.310353 0.0846571
0.816815 0.31136 0.0810254
0.846235 0.312108 0.0774853
0.876036 0.312856 0.0741741
0.906203 0.313497 0.0711528
0.936736 0.314137 0.0685283
0.967254 0.314412 0.066453
0 0.352239 0.0555428
0 0.353857 0.0570077
0 0.354376 0.0571298
0.00250248 0.354513 0.0562448
0.0366979 0.353628 0.0546578
0.0793622 0.352026 0.0529641
0.126848 0.348959 0.0521248
0.178759 0.344778 0.0536812
0.231861 0.339651 0.058854
0.281376 0.334661 0.0669261
0.326329 0.330816 0.0764782
0.367559 0.327382 0.0859388
0.404364 0.325078 0.0951095
0.438712 0.323171 0.10367
0.47248 0.321279 0.111788
0.505791 0.319875 0.119402
0.537911 0.318975 0.125872
0.56936 0.317983 0.131395
0.601099 0.31722 0.136553
0.632258 0.316716 0.140673
0.65948 0.317952 0.140261
0.682017 0.321035 0.133715
0.701427 0.325841 0.123186
0.721553 0.330159 0.11249
0.744732 0.333486 0.104509
0.770916 0.335592 0.0990311
0.799084 0.336721 0.0953994
0.827787 0.337957 0.0918746
0.856703 0.338842 0.0883497
0.885863 0.339834 0.0847181
0.915145 0.340719 0.0810864
0.944915 0.341604 0.0775616
0.974929 0.342367 0.0742504
0 0.383413 0.0556497
0 0.385046 0.0572366
0 0.385687 0.0573587
0.00108339 0.38558 0.0565805
0.035523 0.385077 0.0552377
0.0768597 0.383856 0.0534371
0.122469 0.381415 0.0519722
0.172625 0.377737 0.0521248
0.225879 0.372839 0.0552224
0.27747 0.367605 0.0616312
0.325399 0.362875 0.0702678
0.3691 0.358923 0.0798657
0.407843 0.355993 0.0894484
0.443824 0.353353 0.0986343
0.478355 0.351568 0.107134
0.512154 0.349676 0.115282
0.545769 0.347921 0.12311
0.578241 0.346792 0.129885
0.610101 0.3458 0.135576
0.641764 0.344915 0.140856
0.673793 0.344289 0.145922
0.703777 0.344289 0.148501
0.729458 0.346151 0.146014
0.750835 0.349844 0.137926
0.770336 0.354543 0.127016
0.790585 0.358984 0.116426
0.813962 0.361959 0.108446
0.840116 0.364187 0.102892
0.868162 0.365682 0.0989853
0.896941 0.36669 0.0955673
0.925841 0.367819 0.0919356
0.954971 0.368704 0.0882124
0.98436 0.369589 0.0845808
0 0.414618 0.055848
0 0.416281 0.0574655
0 0.4168 0.0576944
0 0.416815 0.0570382
0.0347143 0.416312 0.0556954
0.0749523 0.415473 0.0540017
0.118929 0.413413 0.0522316
0.167193 0.410224 0.0515145
0.219471 0.405951 0.0528878
0.271992 0.400687 0.0573129
0.32224 0.39559 0.064622
0.368582 0.390875 0.0737316
0.409659 0.387198 0.0832532
0.447532 0.384039 0.0928511
0.483436 0.381628 0.102052
0.517983 0.379614 0.110613
0.551965 0.377737 0.118746
0.585718 0.376226 0.126589
0.618738 0.374853 0.133761
0.650889 0.373617 0.139773
0.682658 0.372747 0.145159
0.714656 0.372015 0.150332
0.746258 0.371405 0.154788
0.774823 0.372137 0.155398
0.799222 0.374502 0.151049
0.819699 0.37882 0.141817
0.839033 0.383276 0.130495
0.85977 0.38761 0.120256
0.883391 0.390707 0.112291
0.909392 0.392828 0.106508
0.937392 0.394202 0.10251
0.966278 0.395453 0.0990463
0.992554 0.396338 0.0954299
0 0.445747 0.0560464
0 0.447425 0.0576791
0 0.448066 0.0580148
0 0.447974 0.0573587
0.0339666 0.447837 0.0562295
0.0733043 0.446876 0.0545663
0.116121 0.445426 0.0526894
0.162631 0.442634 0.0513466
0.213306 0.438972 0.0514076
0.265797 0.433967 0.0542
0.317525 0.428473 0.0597391
0.36614 0.423621 0.0677348
0.409674 0.419059 0.0771649
0.449454 0.415503 0.0867475
0.487129 0.412467 0.0962539
0.523049 0.409827 0.105409
0.557778 0.407828 0.11397
0.591775 0.405936 0.122332
0.625834 0.404181 0.130159
0.659236 0.402701 0.137514
0.69163 0.40148 0.143847
0.723629 0.40061 0.14934
0.755596 0.399756 0.154635
0.787701 0.398901 0.15967
0.818387 0.398672 0.162753
0.845533 0.399802 0.161624
0.86865 0.402899 0.15555
0.888609 0.407477 0.145403
0.908049 0.412177 0.133989
0.929137 0.416144 0.123888
0.952865 0.419501 0.115923
0.978851 0.4215 0.11014
0.995804 0.422766 0.105943
0 0.477012 0.0562295
0 0.478721 0.0578775
0 0.479332 0.0582132
0.00015259 0.4795 0.0576791
0.0331273 0.47924 0.0566567
0.0720836 0.478538 0.0549935
0.113741 0.477211 0.0531319
0.158938 0.474922 0.0514687
0.207858 0.471504 0.050782
0.25951 0.467124 0.0520485
0.311696 0.461875 0.0559548
0.362188 0.456519 0.062501
0.407904 0.451575 0.0710765
0.449714 0.447272 0.0805371
0.489281 0.443854 0.0902419
0.526711 0.440574 0.0997482
0.562707 0.438193 0.108873
0.597589 0.436072 0.117433
0.631891 0.434195 0.125704
0.666056 0.432334 0.1337
0.699702 0.430732 0.141176
0.732464 0.429496 0.147814
0.764553 0.428519 0.153521
0.796658 0.427543 0.15877
0.828855 0.426825 0.163928
0.860792 0.425971 0.16846
0.890059 0.426123 0.169909
0.915801 0.428229 0.167041
0.937881 0.431708 0.159426
0.957565 0.436301 0.148684
0.977127 0.441001 0.137362
0.994354 0.445106 0.127398
0.999298 0.447974 0.119539
0 0.508293 0.0563973
0 0.510018 0.0580758
0 0.510506 0.0583963
0.000915541 0.510689 0.0579843
0.0325933 0.510674 0.0570687
0.0710002 0.510079 0.0555276
0.111772 0.508888 0.053666
0.155657 0.506966 0.0517891
0.203128 0.503944 0.0505684
0.25359 0.500053 0.0506447
0.305562 0.495171 0.0531167
0.356832 0.489693 0.0581521
0.404562 0.484596 0.0654917
0.448447 0.479667 0.0745098
0.489906 0.475502 0.0840162
0.529107 0.471977 0.0937362
0.566476 0.468833 0.103243
0.602502 0.466453 0.112322
0.637568 0.464332 0.120897
0.671977 0.462348 0.129168
0.706264 0.460487 0.137148
0.740139 0.45864 0.144823
0.773251 0.457298 0.151675
0.805585 0.456321 0.157671
0.837659 0.455344 0.163027
0.869841 0.454505 0.168185
0.902281 0.453666 0.173251
0.933303 0.453315 0.176547
0.961288 0.454093 0.176349
0.98587 0.45658 0.171832
0.996338 0.460441 0.163073
1 0.465141 0.151858
1 0.469871 0.140673
0 0.539467 0.0565805
0 0.541207 0.0582589
0 0.541817 0.0586862
0.00184634 0.542123 0.0582742
0.0320897 0.542107 0.0573587
0.0700542 0.541405 0.0559396
0.110246 0.540581 0.0541848
0.153109 0.538903 0.0522011
0.19913 0.53637 0.0505684
0.248249 0.53286 0.0500038
0.299351 0.528252 0.0510567
0.350927 0.523018 0.0546578
0.400015 0.517418 0.0606851
0.44564 0.512352 0.0686961
0.489006 0.507668 0.0778973
0.529976 0.503639 0.0874952
0.568978 0.500237 0.0972305
0.606394 0.497215 0.106691
0.642466 0.494484 0.115785
0.677653 0.4925 0.124361
0.712169 0.490517 0.132586
0.746563 0.488548 0.140688
0.780667 0.486702 0.148363
0.814023 0.485481 0.15552
0.846586 0.484138 0.161608
0.878767 0.483177 0.167178
0.91107 0.482338 0.172442
0.943481 0.481254 0.177508
0.975616 0.48043 0.182132
0.996399 0.480705 0.183993
1 0.482124 0.182193
1 0.485267 0.176196
1 0.489632 0.166659
0 0.570764 0.0567178
0 0.572396 0.0584268
0 0.573144 0.058854
0.00267033 0.573434 0.0585641
0.0315709 0.573434 0.0577554
0.0690929 0.572961 0.0564431
0.108843 0.57203 0.0547036
0.150835 0.570733 0.0527352
0.19585 0.56846 0.0508736
0.243595 0.565332 0.0496529
0.293507 0.561196 0.0498512
0.344747 0.556451 0.0520333
0.394705 0.550866 0.0566262
0.44181 0.545419 0.0634318
0.486702 0.540475 0.0719158
0.529442 0.535927 0.0812695
0.570092 0.531792 0.0909743
0.608896 0.528405 0.100725
0.646372 0.525536 0.110124
0.682536 0.522789 0.119234
0.717815 0.520684 0.127825
0.752331 0.5187 0.136126
0.786938 0.516609 0.144121
0.821164 0.5149 0.15201
0.854749 0.513313 0.159243
0.887678 0.511986 0.165637
0.919966 0.511025 0.171328
0.952255 0.510063 0.176593
0.984649 0.509102 0.18175
0.998489 0.508156 0.186786
1 0.507713 0.190417
1 0.508568 0.191028
1 0.51075 0.187732
0 0.602045 0.0568551
0 0.60383 0.0585794
0 0.604456 0.0590219
0.00340276 0.604868 0.0588388
0.0310369 0.604746 0.0580453
0.0684215 0.604395 0.0568246
0.107591 0.603708 0.0550851
0.148836 0.602304 0.0531319
0.192844 0.600397 0.0512703
0.239521 0.597757 0.0496223
0.288228 0.594018 0.049073
0.338781 0.58941 0.0501564
0.389029 0.584192 0.0534371
0.436942 0.578744 0.0589303
0.483253 0.573297 0.0664225
0.527626 0.568124 0.075349
0.569924 0.563851 0.0847334
0.610254 0.55996 0.0944686
0.649104 0.556451 0.104158
0.686427 0.553597 0.113573
0.722698 0.550988 0.122683
0.757961 0.54876 0.131243
0.792706 0.546792 0.139544
0.827314 0.544945 0.147662
0.861631 0.542992 0.155535
0.895567 0.541161 0.16286
0.92874 0.539834 0.169467
0.961135 0.538628 0.175357
0.99353 0.537804 0.180835
0.999664 0.536858 0.185977
1 0.535988 0.191211
1 0.535378 0.196048
1 0.535515 0.198428
0 0.633204 0.0570077
0 0.635019 0.0587472
0 0.635752 0.0591745
0.0040589 0.63592 0.0589914
0.0306554 0.636042 0.0583047
0.0677348 0.635706 0.0572061
0.106462 0.635142 0.0555734
0.147127 0.63386 0.0536202
0.190249 0.632334 0.0517739
0.236011 0.629816 0.0498054
0.283497 0.626566 0.0490425
0.332998 0.622339 0.0489357
0.383352 0.617258 0.0510109
0.431418 0.611933 0.0552987
0.478767 0.606363 0.0615702
0.524559 0.601068 0.0696269
0.568368 0.596399 0.078706
0.610452 0.591882 0.0881971
0.650706 0.588022 0.0980392
0.689265 0.584649 0.107713
0.726574 0.581796 0.117021
0.762829 0.579202 0.126131
0.798321 0.576974 0.134768
0.833051 0.574884 0.142977
0.86775 0.572915 0.15108
0.90219 0.570977 0.159045
0.93637 0.569146 0.166583
0.96965 0.567697 0.173404
0.99765 0.566629 0.1794
1 0.565591 0.184985
1 0.564858 0.190448
1 0.564019 0.195697
1 0.563165 0.200961
0 0.664485 0.0571298
0 0.6663 0.0588846
0 0.666926 0.0594339
0.00462348 0.667231 0.0592508
0.0302586 0.66746 0.0586709
0.0672007 0.667124 0.0574655
0.10547 0.666575 0.0559548
0.145708 0.665644 0.0541085
0.188098 0.664012 0.0520485
0.232883 0.661875 0.0500801
0.279179 0.659007 0.049012
0.327779 0.655146 0.0485847
0.377737 0.650553 0.0492256
0.425635 0.645228 0.0522011
0.47364 0.639658 0.0573739
0.520592 0.634119 0.0645457
0.565789 0.628946 0.0729381
0.609262 0.624186 0.0820478
0.651026 0.619928 0.091783
0.69099 0.61619 0.101518
0.729534 0.612711 0.111147
0.766827 0.610101 0.120577
0.803189 0.607385 0.129564
0.838666 0.605051 0.138186
0.873487 0.602975 0.146502
0.908171 0.6009 0.154604
0.94287 0.599191 0.162554
0.977142 0.597253 0.170199
0.998825 0.595819 0.177111
1 0.594461 0.18349
1 0.593622 0.189258
1 0.592905 0.194827
1 0.59205 0.200198
0 0.695766 0.0572519
0 0.697459 0.0590066
0 0.698238 0.0595712
0.00509651 0.698405 0.0594949
0.0298466 0.698772 0.0589151
0.0666361 0.698314 0.0578317
0.104631 0.697993 0.0564279
0.144411 0.697093 0.0545815
0.186069 0.695811 0.0525216
0.229984 0.693812 0.0504616
0.2757 0.691188 0.0489509
0.322972 0.687709 0.0485389
0.372045 0.683482 0.0480964
0.419959 0.678416 0.0499733
0.467979 0.672969 0.0538338
0.515724 0.667292 0.0597848
0.562188 0.661875 0.0674144
0.60705 0.656718 0.0762188
0.650202 0.652094 0.0855116
0.691676 0.647974 0.0952468
0.731502 0.644251 0.105043
0.769909 0.640894 0.114687
0.807157 0.638178 0.12401
0.843503 0.635477 0.133074
0.878965 0.633143 0.141604
0.913909 0.631067 0.14992
0.948699 0.628992 0.158099
0.98349 0.627054 0.166049
0.999573 0.625238 0.1738
1 0.623697 0.181064
1 0.622614 0.187655
1 0.621637 0.193637
1 0.620798 0.199207
0 0.72694 0.0573587
0 0.728756 0.0591135
0 0.729549 0.0597086
0.00550851 0.729839 0.0596323
0.029572 0.729946 0.0591592
0.0660868 0.729854 0.0581826
0.103914 0.729305 0.0567788
0.14313 0.728649 0.0550546
0.184344 0.727504 0.0529946
0.227527 0.725628 0.0509499
0.272343 0.723247 0.0489967
0.318715 0.72015 0.0484779
0.366903 0.716167 0.0480507
0.414405 0.711467 0.0481727
0.462196 0.706279 0.0510414
0.510338 0.700603 0.055787
0.557702 0.694942 0.0624247
0.603815 0.689647 0.0705119
0.648356 0.684642 0.0795605
0.691234 0.680018 0.0890669
0.732296 0.675898 0.0988327
0.771969 0.672312 0.108583
0.810224 0.668971 0.11812
0.847456 0.666133 0.127657
0.883925 0.663676 0.136492
0.919493 0.661219 0.145113
0.954406 0.659144 0.153429
0.989242 0.657084 0.161593
0.999939 0.655146 0.169558
1 0.653284 0.177493
1 0.65182 0.185031
1 0.650614 0.19173
1 0.649653 0.19791
0 0.758221 0.0573587
0 0.760037 0.0592203
0 0.760739 0.0598306
0.00581369 0.761151 0.0598611
0.0291447 0.761257 0.0594034
0.065507 0.761059 0.0584115
0.103059 0.760861 0.0571298
0.142123 0.760204 0.0554055
0.182895 0.758938 0.0534676
0.22536 0.757549 0.0514229
0.269352 0.755306 0.0493629
0.315007 0.752453 0.0484016
0.36202 0.748867 0.0479896
0.409216 0.744411 0.0475624
0.456519 0.739467 0.0487984
0.504692 0.733913 0.0525521
0.552575 0.728252 0.0580911
0.599817 0.722591 0.0654002
0.645487 0.717311 0.0738231
0.689632 0.712444 0.0829023
0.732097 0.707958 0.092546
0.773022 0.703975 0.102373
0.812421 0.700252 0.112108
0.850782 0.697169 0.12166
0.887999 0.694209 0.130953
0.924315 0.691646 0.139986
0.959991 0.689326 0.148623
0.994415 0.687251 0.156924
1 0.685069 0.164996
1 0.683238 0.173266
1 0.681544 0.181353
1 0.679973 0.188876
1 0.678767 0.195789
0 0.789517 0.0574502
0 0.791196 0.0593118
0 0.792172 0.0599527
0.00605783 0.79234 0.0599832
