site/assets/luts/freshluts--0000173-victory.cube
# LUTr-Schema-Version: 2
# LUTr-ID: freshluts--0000173-victory
# LUTr-Title: Victory
# LUTr-Collection: Fresh LUTs
# LUTr-Collection-ID: freshluts-community
# LUTr-Source: https://freshluts.com
# LUTr-Retrieved: 2026-07-27
# LUTr-Source-File: submissions-raw/freshluts/cubes/173__Victory.cube
# LUTr-Source-Format: CUBE
# LUTr-Source-SHA256: 5cbac9ba055f6285d3546aaeb3e3533dc99324757ba064ca878f4b0497c711cb
# LUTr-License: CC0-1.0
# LUTr-License-URL: https://freshluts.com/termsandconditions
# LUTr-License-Basis: site-terms
# LUTr-Transform-Class: creative-look
# LUTr-Tags: creative, freshluts, community, cube, vintage
# LUTr-Input-Color-Space:
# LUTr-Input-Gamut: unspecified
# LUTr-Input-Transfer: unspecified
# LUTr-Output-Color-Space: srgb
# LUTr-Output-Gamut: rec709
# LUTr-Output-Transfer: srgb
# LUTr-Color-Space-Confidence: camera-profile-input-required
# LUTr-Domain-Normalized: true
# LUTr-Shaper: none
# LUTr-Original-Grid: 33x33x33
# LUTr-Conversion-Grid: 33x33x33
# LUTr-Conversion-Interpolation: none
# LUTr-Conversion-Method: Metadata normalization; numeric LUT samples preserved
# LUTr-Conversion-Tool: LUTr scripts/convert-all-to-cube.mjs 2.0.0
# LUTr-Conversion-Date: 2026-07-28
# LUTr-Asset-URL: https://freshluts.com/luts/173
# LUTr-Author: Cube Frames
# LUTr-Author-URL: https://freshluts.com/users/1308
# LUTr-Attribution: Cube Frames via Fresh LUTs
# LUTr-Source-Labels: gamma=Other; color=None; key=Neutral; style=Vintage
# LUTr-Note: Preserve this metadata and the upstream license notices when redistributing.
TITLE "Victory"
LUT_3D_SIZE 9
DOMAIN_MIN 0 0 0
DOMAIN_MAX 1 1 1
0.0654765 0.0899977 0.0981003
0.0818341 0.0862287 0.0932631
0.247181 0.125704 0.0857557
0.592248 0.173342 0.134371
0.832654 0.224994 0.166354
0.843595 0.227848 0.166918
0.843595 0.227848 0.166918
0.843595 0.227848 0.166918
0.843595 0.227848 0.166918
0.0626535 0.0843519 0.0842451
0.0615702 0.0775464 0.0790112
0.174792 0.112016 0.0906691
0.524498 0.163241 0.118944
0.790249 0.214206 0.163592
0.843595 0.227848 0.166918
0.843595 0.227848 0.166918
0.843595 0.227848 0.166918
0.843595 0.227848 0.166918
0.0132753 0.190829 0.0545663
0.0195468 0.179507 0.0609751
0.114031 0.161212 0.133318
0.459236 0.181918 0.082414
0.772595 0.228214 0.14197
0.854948 0.235966 0.161654
0.843595 0.227848 0.166918
0.843595 0.227848 0.166918
0.843595 0.227848 0.166918
0 0.365103 0
0 0.357885 0
0 0.359319 0
0.418677 0.363119 0.223484
0.759564 0.348394 0.0301061
0.959472 0.419867 0.0255589
0.946166 0.385245 0.0560311
0.935576 0.357382 0.0783856
0.92401 0.328496 0.100191
0 0.555001 0
0 0.55555 0
0 0.546517 0
0.421332 0.52694 0.0892042
0.738628 0.636118 0.353338
0.933547 0.596429 0.216251
0.942077 0.553689 0.106859
0.94612 0.533593 0.0478065
0.947631 0.520333 0.0126345
0 0.955978 0
0 0.955978 0
0 0.955978 0
0 0.948104 0
0.677638 0.91577 0.0867323
0.947158 0.900481 0.621393
0.94905 0.871427 0.590417
0.949935 0.858961 0.579782
0.95053 0.848768 0.564294
0 0.955978 0
0 0.955978 0
0 0.955978 0
0 0.955978 0
0.383749 0.911528 0
0.946151 0.934188 0.645014
0.947051 0.926497 0.673671
0.947051 0.926497 0.673671
0.947051 0.926497 0.673671
0 0.955978 0
0 0.955978 0
0 0.955978 0
0 0.955978 0
0.120241 0.934249 0
0.921324 0.925872 0.611505
0.947051 0.926497 0.673671
0.947051 0.926497 0.673671
0.947051 0.926497 0.673671
0 0.955978 0
0 0.955978 0
0 0.955978 0
0 0.955978 0
0 0.955978 0
0.878584 0.916609 0.511925
0.947051 0.926497 0.673671
0.947051 0.926497 0.673671
0.947051 0.926497 0.673671
0.0677348 0.156603 0.184771
0.0890059 0.138598 0.161685
0.280873 0.127077 0.129335
0.591302 0.166232 0.147402
0.834775 0.222644 0.170474
0.846754 0.228412 0.167452
0.843595 0.227848 0.166918
0.843595 0.227848 0.166918
0.843595 0.227848 0.166918
0.0683909 0.11751 0.132845
0.0690471 0.109804 0.123262
0.189654 0.109392 0.11281
0.525719 0.162631 0.120089
0.790677 0.214221 0.163729
0.843595 0.227848 0.166918
0.843595 0.227848 0.166918
0.843595 0.227848 0.166918
0.843595 0.227848 0.166918
0.0311589 0.178378 0.103883
0.0321508 0.168795 0.09308
0.115084 0.158968 0.137896
0.455482 0.180346 0.0824598
0.772839 0.227207 0.142947
0.85362 0.234928 0.16228
0.843595 0.227848 0.166918
0.843595 0.227848 0.166918
0.843595 0.227848 0.166918
0 0.362814 0
0 0.356207 0
0 0.357321 0
0.415503 0.360952 0.222766
0.761852 0.347219 0.0310369
0.958724 0.417319 0.0280613
0.945098 0.381949 0.058854
0.933974 0.353552 0.0813458
0.922133 0.323674 0.103761
0 0.555444 0
0 0.555657 0
0 0.546456 0
0.412955 0.523995 0.0849775
0.737438 0.634699 0.352544
0.933852 0.59472 0.212268
0.942443 0.552193 0.102251
0.946334 0.531945 0.0434424
0.947799 0.518883 0.0087892
0 0.955978 0
0 0.955978 0
0 0.955978 0
0 0.949279 0
0.673259 0.916075 0.0771954
0.947158 0.900649 0.621759
0.949096 0.870787 0.589868
0.950011 0.857527 0.5776
0.950652 0.846525 0.560937
0 0.955978 0
0 0.955978 0
0 0.955978 0
0 0.955978 0
0.371649 0.911955 0
0.945785 0.934493 0.64419
0.947051 0.926497 0.673671
0.947051 0.926497 0.673671
0.947051 0.926497 0.673671
0 0.955978 0
0 0.955978 0
0 0.955978 0
0 0.955978 0
0.104067 0.935851 0
0.918807 0.92462 0.607095
0.947051 0.926497 0.673671
0.947051 0.926497 0.673671
0.947051 0.926497 0.673671
0 0.955978 0
0 0.955978 0
0 0.955978 0
0 0.955978 0
0 0.955978 0
0.871351 0.916457 0.496941
0.947051 0.926497 0.673671
0.947051 0.926497 0.673671
0.947051 0.926497 0.673671
0.0563973 0.282719 0.345113
0.0560159 0.265171 0.321492
0.294453 0.199832 0.245182
0.681254 0.201816 0.184192
0.852506 0.231113 0.166445
0.861448 0.226139 0.177081
0.85066 0.220569 0.181827
0.849867 0.222339 0.17792
0.851087 0.225742 0.17293
0.0580453 0.238453 0.290623
0.059205 0.225864 0.273854
0.207645 0.166918 0.219165
0.594995 0.17171 0.148333
0.802441 0.212177 0.172641
0.849119 0.219928 0.182284
0.850813 0.224643 0.174533
0.851057 0.227771 0.169955
0.848463 0.228504 0.168002
0.0619669 0.180163 0.199023
0.0634775 0.169482 0.186526
0.0991836 0.180972 0.203632
0.503594 0.156497 0.119051
0.783581 0.217014 0.157687
0.861662 0.233509 0.166934
0.846632 0.228412 0.167422
0.843671 0.227863 0.166934
0.843595 0.227848 0.166918
0 0.349386 0.095964
0 0.342947 0.0701152
0 0.336156 0.0345159
0.407568 0.364034 0.238743
0.76321 0.344427 0.0339666
0.95642 0.411933 0.0327916
0.942977 0.375647 0.0642405
0.930556 0.345388 0.0876173
0.91812 0.313481 0.11133
0 0.553948 0
0 0.553262 0
0 0.543053 0
0.393683 0.516869 0.0738384
0.729793 0.626566 0.347631
0.935164 0.587366 0.19527
0.944121 0.54522 0.0808423
0.947036 0.52575 0.0270085
0.949096 0.512596 0
0 0.955978 0
0 0.955978 0
0 0.955978 0
0 0.951141 0
0.66183 0.916899 0.0523384
0.947524 0.893584 0.610147
0.949508 0.864912 0.584955
0.950393 0.850919 0.567544
0.951186 0.839277 0.549203
0 0.955978 0
0 0.955978 0
0 0.955978 0
0 0.955978 0
0.346624 0.913481 0
0.944579 0.935439 0.641596
0.947051 0.926497 0.673671
0.947051 0.926497 0.673671
0.947051 0.926497 0.673671
0 0.955978 0
0 0.955978 0
0 0.955978 0
0 0.955978 0
0.07393 0.938933 0
0.913832 0.922408 0.596658
0.947051 0.926497 0.673671
0.947051 0.926497 0.673671
0.947051 0.926497 0.673671
0 0.955978 0
0 0.955978 0
0 0.955978 0
0 0.955978 0
0 0.955978 0
0.857893 0.916396 0.469017
0.947051 0.926497 0.673671
0.947051 0.926497 0.673671
0.947051 0.926497 0.673671
0.055436 0.403433 0.501076
0.0547189 0.403128 0.497414
0.213321 0.358953 0.414954
0.714748 0.280598 0.233112
0.878645 0.307973 0.260716
0.912978 0.308171 0.256413
0.918181 0.294163 0.235279
0.917693 0.278645 0.225147
0.918853 0.262776 0.20972
0.0555123 0.403983 0.502235
0.0555276 0.397894 0.493706
0.137362 0.344518 0.406043
0.646006 0.256199 0.233478
0.856062 0.285389 0.232258
0.918181 0.292638 0.234516
0.918135 0.26981 0.217044
0.9196 0.25391 0.198184
0.907469 0.245243 0.179965
0.0571145 0.334508 0.414328
0.0571908 0.326131 0.403693
0.0577707 0.324178 0.403998
0.576898 0.248615 0.247578
0.848112 0.274296 0.234836
0.923781 0.258366 0.20267
0.88101 0.242725 0.16347
0.87454 0.236027 0.168551
0.868177 0.230564 0.173159
0.0367742 0.371725 0.376211
0.0365301 0.366171 0.367651
0.0372015 0.348531 0.347265
0.34696 0.39266 0.395132
0.801801 0.365713 0.263081
0.970855 0.371649 0.157687
0.940215 0.328481 0.10486
0.928069 0.302846 0.123217
0.918456 0.285069 0.135576
0 0.575402 0.411429
0 0.568154 0.389868
0 0.546151 0.341207
0.176318 0.569558 0.0134127
0.714244 0.632654 0.427161
0.954559 0.59202 0.203861
0.957015 0.543236 0.0686503
0.953658 0.516777 0.0019379
0.953567 0.499458 0.000488289
0 0.995041 0
0 0.987152 0
0 0.973053 0
0 0.957565 0
0.638285 0.919219 0.000350958
0.948577 0.880079 0.584543
0.950286 0.852506 0.56994
0.951339 0.83743 0.54551
0.952499 0.824659 0.520058
0 0.955978 0
0 0.955978 0
0 0.955978 0
0 0.955978 0
0.301549 0.916411 0
0.939941 0.935012 0.635935
0.947051 0.926497 0.673671
0.947051 0.926497 0.673671
0.947051 0.926497 0.673671
0 0.955978 0
0 0.955978 0
0 0.955978 0
0 0.955978 0
0.0239414 0.94406 0
0.905226 0.9196 0.574411
0.947051 0.926497 0.673671
0.947051 0.926497 0.673671
0.947051 0.926497 0.673671
0 0.955978 0
0 0.955978 0
0 0.955978 0
0 0.955978 0
0 0.955978 0
0.832212 0.917082 0.41619
0.947051 0.926497 0.673671
0.947051 0.926497 0.673671
0.947051 0.926497 0.673671
0.0554818 0.403326 0.501091
0.0551461 0.40325 0.499687
0.178195 0.395712 0.456947
0.654276 0.412268 0.465003
0.878691 0.409369 0.485084
0.907195 0.407446 0.477378
0.902373 0.384085 0.418585
0.902235 0.369024 0.385946
0.902388 0.357794 0.363882
0.0554818 0.403326 0.501091
0.0554818 0.403326 0.501091
0.0776379 0.398108 0.471977
0.592233 0.400961 0.436698
0.858869 0.387304 0.427466
0.902953 0.391394 0.435767
0.902174 0.371267 0.390417
0.902388 0.361791 0.371572
0.902403 0.358068 0.36437
0.0582437 0.41265 0.529259
0.0583658 0.411963 0.528893
0.0576333 0.414267 0.528389
0.538567 0.402731 0.499245
0.84741 0.379217 0.413733
0.902342 0.363592 0.375143
0.901427 0.341863 0.335698
0.901564 0.338491 0.328298
0.901656 0.337224 0.325383
0.0540627 0.459678 0.578073
0.0542916 0.459236 0.578622
0.0549477 0.446189 0.561975
0.0822766 0.472877 0.635966
0.808331 0.434501 0.527886
0.915206 0.466758 0.532662
0.914366 0.425696 0.456489
0.917494 0.400687 0.412268
0.920607 0.372183 0.368277
0.0193484 0.613153 0.654795
0.0190738 0.610025 0.649104
0.0195468 0.591379 0.623484
0.0160525 0.60766 0.632959
0.680415 0.653315 0.64416
0.956664 0.642756 0.54023
0.961624 0.589853 0.459663
0.963699 0.559853 0.408484
0.965911 0.539147 0.367102
0 0.957153 0.658152
0 0.959258 0.632547
0 0.973861 0.58677
0 1 0.497917
0.28127 1 0
0.946868 0.89044 0.657603
0.948714 0.855802 0.630854
0.950912 0.836698 0.5841
0.95346 0.819135 0.545693
0 1 0.273899
0 1 0.224109
0 1 0.0959182
0 0.995605 0
0.0849622 1 0
0.932769 0.933776 0.649165
0.947066 0.926848 0.678279
0.947051 0.926497 0.673671
0.947051 0.926497 0.673671
0 0.995209 0
0 0.994995 0
0 0.998001 0
0 0.98468 0
0 0.953002 0
0.894041 0.917815 0.546197
0.947051 0.926497 0.673671
0.947051 0.926497 0.673671
0.947051 0.926497 0.673671
0 0.994507 0
0 0.984863 0
0 0.965209 0
0 0.955978 0
0 0.955978 0
0.800717 0.915679 0.35201
0.947036 0.926268 0.67068
0.947051 0.926497 0.673671
0.947051 0.926497 0.673671
0.0554818 0.403326 0.501091
0.0554818 0.403326 0.501091
0.140948 0.396597 0.463096
0.637079 0.424765 0.496941
0.861967 0.426673 0.531975
0.928862 0.438163 0.592126
0.928862 0.438163 0.592126
0.928862 0.438163 0.592126
0.928862 0.438163 0.592126
0.0554818 0.403326 0.501091
0.0554818 0.403326 0.501091
0.0563211 0.399161 0.477195
0.589731 0.426307 0.527169
0.83682 0.422705 0.514824
0.928862 0.438163 0.592126
0.928862 0.438163 0.592126
0.928862 0.438163 0.592126
0.928862 0.438163 0.592126
0.0582742 0.411414 0.527565
0.0579232 0.410834 0.524804
0.0569772 0.411414 0.520745
0.510842 0.411963 0.539651
0.815763 0.426246 0.529183
0.928862 0.438163 0.592126
0.928862 0.438163 0.592126
0.928862 0.438163 0.592126
0.928862 0.438163 0.592126
0.0544442 0.473625 0.601495
0.0546578 0.46949 0.596353
0.055375 0.457069 0.581033
0.0790875 0.470954 0.632044
0.809583 0.456245 0.749752
0.969223 0.519921 0.799725
0.96527 0.501945 0.768673
0.960388 0.488746 0.739025
0.954726 0.476753 0.708904
0.0411688 0.617212 0.75729
0.0415045 0.614389 0.754681
0.0431525 0.599725 0.740673
0.0423133 0.610895 0.753399
0.490303 0.625437 0.805066
0.96939 0.638682 0.872953
0.970672 0.60885 0.864363
0.971038 0.594034 0.855848
0.970947 0.583535 0.84715
0.0160372 0.790478 0.885069
0.0160372 0.790463 0.885069
0.0159915 0.790936 0.885496
0.0157931 0.79237 0.886549
0.00343328 0.848859 0.903639
0.927672 0.911025 0.863584
0.947646 0.885893 0.81178
0.94844 0.870115 0.788067
0.949691 0.856275 0.766827
0.00999466 0.808591 0.883619
0.00929274 0.810407 0.883162
0.0053254 0.820859 0.880461
0 0.845365 0.875975
0 0.901854 0.880049
0.870146 0.93991 0.703944
0.949905 0.942245 0.863859
0.949691 0.941665 0.850645
0.949538 0.941466 0.838117
0 0.837736 0.877363
0 0.845014 0.876036
0 0.866804 0.872328
0 0.909865 0.863722
0 0.947356 0.828092
0.759609 0.952621 0.471077
0.949172 0.940139 0.816144
0.948837 0.938369 0.798367
0.948562 0.93666 0.781903
0 0.887388 0.868971
0 0.903777 0.865568
0 0.932647 0.855817
0 0.950484 0.76585
0 0.959655 0.627924
0.602914 0.979446 0.190219
0.948074 0.933898 0.756481
0.947753 0.93283 0.746441
0.947509 0.931517 0.731579
0.0554818 0.403326 0.501091
0.0554818 0.403326 0.501091
0.107698 0.397375 0.467948
0.619928 0.426429 0.508614
0.847974 0.42443 0.521981
0.928862 0.438163 0.592126
0.928862 0.438163 0.592126
0.928862 0.438163 0.592126
0.928862 0.438163 0.592126
0.0554818 0.403326 0.501091
0.0554818 0.403326 0.501091
0.0522469 0.400107 0.48098
0.571038 0.423285 0.526909
0.82562 0.421012 0.507759
0.928862 0.438163 0.592126
0.928862 0.438163 0.592126
0.928862 0.438163 0.592126
0.928862 0.438163 0.592126
0.0577249 0.410529 0.523369
0.057435 0.409751 0.520623
0.056611 0.409598 0.516014
0.462486 0.409079 0.523934
0.798917 0.421302 0.508385
0.928862 0.438163 0.592126
0.928862 0.438163 0.592126
0.928862 0.438163 0.592126
0.928862 0.438163 0.592126
0.054963 0.464118 0.589639
0.0552071 0.459892 0.584482
0.0560006 0.446952 0.568719
0.0669413 0.462211 0.618524
0.796262 0.448325 0.731121
0.968475 0.514382 0.791653
0.962661 0.494575 0.752544
0.956741 0.480903 0.719402
0.950286 0.468727 0.686503
0.0424353 0.606409 0.747265
0.0427558 0.603571 0.744518
0.0442512 0.588937 0.729839
0.0438697 0.597101 0.740185
0.445701 0.607431 0.793194
0.969955 0.627848 0.870115
0.971115 0.598856 0.860578
0.971862 0.583429 0.853758
0.972137 0.571878 0.847898
0.0160525 0.790188 0.884779
0.0160525 0.790188 0.884779
0.0160525 0.790188 0.884779
0.0164797 0.788022 0.883711
0.0102541 0.822171 0.902419
0.917494 0.898222 0.895018
0.938903 0.871427 0.898283
0.941924 0.849302 0.895613
0.944869 0.830076 0.89398
0.0160525 0.790188 0.884779
0.0160525 0.790188 0.884779
0.0160525 0.790188 0.884779
0.0160525 0.790188 0.884779
0.0138705 0.802319 0.89163
0.798047 0.904128 0.905776
0.948211 0.94757 0.915389
0.948211 0.94757 0.915389
0.948211 0.94757 0.915389
0.0160525 0.790188 0.884779
0.0160525 0.790188 0.884779
0.0160525 0.790188 0.884779
0.0160525 0.790188 0.884779
0.0160525 0.790188 0.884779
0.646082 0.882994 0.906661
0.948211 0.94757 0.915389
0.948211 0.94757 0.915389
0.948333 0.94754 0.91458
0.0160525 0.790188 0.884779
0.0160525 0.790188 0.884779
0.0160525 0.790188 0.884779
0.016022 0.790677 0.885283
0.0144961 0.796506 0.88658
0.479164 0.908782 0.894423
0.950484 0.945693 0.888991
0.950301 0.946746 0.898146
0.950576 0.945769 0.888731
0.0554818 0.403326 0.501091
0.0554818 0.403326 0.501091
0.0831311 0.397971 0.471244
0.608499 0.426917 0.515984
0.839338 0.423102 0.516442
0.928862 0.438163 0.592126
0.928862 0.438163 0.592126
0.928862 0.438163 0.592126
0.928862 0.438163 0.592126
0.0554818 0.403326 0.501091
0.0554818 0.403326 0.501091
0.0525368 0.400717 0.483284
0.559258 0.421256 0.526131
0.820294 0.420249 0.504982
0.928862 0.438163 0.592126
0.928862 0.438163 0.592126
0.928862 0.438163 0.592126
0.928862 0.438163 0.592126
0.057435 0.409766 0.520684
0.0572061 0.408743 0.517968
0.0563668 0.408392 0.513024
0.430579 0.410574 0.505196
0.792584 0.418387 0.497704
0.928862 0.438163 0.592126
0.928862 0.438163 0.592126
0.928862 0.438163 0.592126
0.928862 0.438163 0.592126
0.0552987 0.458335 0.582589
0.0555734 0.454017 0.577325
0.05626 0.440833 0.560739
0.0685588 0.457328 0.610376
0.790539 0.443885 0.719936
0.967651 0.510277 0.784878
0.960754 0.489723 0.741268
0.954223 0.475715 0.706233
0.947173 0.463386 0.671183
0.0430152 0.600946 0.741894
0.0433051 0.598169 0.739101
0.044831 0.583474 0.724346
0.0445869 0.589853 0.732799
0.425895 0.602152 0.790448
0.97026 0.621546 0.868391
0.971435 0.593103 0.858137
0.972 0.577935 0.85098
0.972152 0.566567 0.844495
0.0160525 0.790188 0.884779
0.0160525 0.790188 0.884779
0.0160525 0.790188 0.884779
0.0166018 0.787472 0.883452
0.0106661 0.819699 0.900969
0.913695 0.892164 0.892638
0.939956 0.863279 0.897017
0.943374 0.840299 0.894865
0.946395 0.82034 0.893248
0.0160525 0.790188 0.884779
0.0160525 0.790188 0.884779
0.0160525 0.790188 0.884779
0.0160525 0.790188 0.884779
0.0141299 0.800824 0.8907
0.781048 0.900923 0.905638
0.948211 0.94757 0.915389
0.948211 0.94757 0.915389
0.948211 0.94757 0.915389
0.0160525 0.790188 0.884779
0.0160525 0.790188 0.884779
0.0160525 0.790188 0.884779
0.0160525 0.790188 0.884779
0.0160525 0.790188 0.884779
0.541466 0.869902 0.909468
0.948211 0.94757 0.915389
0.948211 0.94757 0.915389
0.948211 0.94757 0.915389
0.0160525 0.790188 0.884779
0.0160525 0.790188 0.884779
0.0160525 0.790188 0.884779
0.0160525 0.790188 0.884779
0.0160525 0.790188 0.884779
0.214054 0.845258 0.911528
0.943297 0.945266 0.913878
0.948211 0.94757 0.915389
0.948211 0.94757 0.915389
0.0554818 0.403326 0.501091
0.0554818 0.403326 0.501091
0.0697948 0.398505 0.473899
0.598581 0.426596 0.521904
0.832441 0.422049 0.512047
0.928862 0.438163 0.592126
0.928862 0.438163 0.592126
0.928862 0.438163 0.592126
0.928862 0.438163 0.592126
0.0554818 0.403326 0.501091
0.0554818 0.403326 0.501091
0.0528267 0.4009 0.484916
0.545937 0.419486 0.525292
0.817334 0.419821 0.503426
0.928862 0.438163 0.592126
0.928862 0.438163 0.592126
0.928862 0.438163 0.592126
0.928862 0.438163 0.592126
0.0572366 0.408896 0.518349
0.0570382 0.407965 0.515877
0.0562295 0.407614 0.511223
0.409293 0.410925 0.49337
0.789166 0.416419 0.490501
0.928862 0.438163 0.592126
0.928862 0.438163 0.592126
0.928862 0.438163 0.592126
0.928862 0.438163 0.592126
0.0555734 0.45388 0.577157
0.055848 0.449424 0.571725
0.0564584 0.435462 0.553628
0.0629587 0.453925 0.606104
0.786847 0.441382 0.710964
0.9664 0.505867 0.776303
0.958907 0.485451 0.730922
0.951675 0.471138 0.693431
0.944289 0.458762 0.657465
0.0434577 0.59678 0.737713
0.0437018 0.594491 0.735409
0.0451667 0.580285 0.721065
0.0451667 0.583871 0.726497
0.413306 0.598627 0.788312
0.970397 0.617044 0.866957
0.971679 0.588525 0.856199
0.972091 0.573495 0.848722
0.972122 0.562478 0.841611
0.0160525 0.790188 0.884779
0.0160525 0.790188 0.884779
0.0160525 0.790188 0.884779
0.0166629 0.787137 0.883314
0.0110018 0.817761 0.899825
0.91017 0.887007 0.890288
0.94078 0.85716 0.896361
0.944427 0.833127 0.89424
0.947738 0.812268 0.89276
0.0160525 0.790188 0.884779
0.0160525 0.790188 0.884779
0.0160525 0.790188 0.884779
0.0160525 0.790188 0.884779
0.0144045 0.799344 0.889937
0.76672 0.898299 0.905592
0.948211 0.94757 0.915389
0.948211 0.94757 0.915389
0.948211 0.94757 0.915389
0.0160525 0.790188 0.884779
0.0160525 0.790188 0.884779
0.0160525 0.790188 0.884779
0.0160525 0.790188 0.884779
0.0160525 0.790188 0.884779
0.509712 0.866896 0.91017
0.948211 0.94757 0.915389
0.948211 0.94757 0.915389
0.948211 0.94757 0.915389
0.0160525 0.790188 0.884779
0.0160525 0.790188 0.884779
0.0160525 0.790188 0.884779
0.0160525 0.790188 0.884779
0.0160525 0.790188 0.884779
0.161486 0.842985 0.911284
0.936767 0.942428 0.911269
0.948211 0.94757 0.915389
0.948211 0.94757 0.915389
