site/assets/luts/freshluts--0000869-at-market-asian-look-lut.cube
# LUTr-Schema-Version: 2
# LUTr-ID: freshluts--0000869-at-market-asian-look-lut
# LUTr-Title: at market Asian look-LUT
# LUTr-Collection: Fresh LUTs
# LUTr-Collection-ID: freshluts-community
# LUTr-Source: https://freshluts.com
# LUTr-Retrieved: 2026-07-27
# LUTr-Source-File: submissions-raw/freshluts/cubes/869__at_market_look-lut_7.A016C046_210805GJ.cube
# LUTr-Source-Format: CUBE
# LUTr-Source-SHA256: d9b111e2c91e0d1c57290488e9321ae646900c5dd8404150e8b12ed94d48fc1f
# LUTr-License: CC0-1.0
# LUTr-License-URL: https://freshluts.com/termsandconditions
# LUTr-License-Basis: site-terms
# LUTr-Transform-Class: creative-look
# LUTr-Tags: creative, freshluts, community, cube, high-contrast, warm, low-key, sony-s-log3
# LUTr-Input-Color-Space:
# LUTr-Input-Gamut: sony-s-gamut3
# LUTr-Input-Transfer: sony-s-log3
# LUTr-Output-Color-Space: srgb
# LUTr-Output-Gamut: rec709
# LUTr-Output-Transfer: srgb
# LUTr-Color-Space-Confidence: camera-profile-input-required
# LUTr-Domain-Normalized: true
# LUTr-Shaper: none
# LUTr-Original-Grid: 33x33x33
# LUTr-Conversion-Grid: 33x33x33
# LUTr-Conversion-Interpolation: none
# LUTr-Conversion-Method: Metadata normalization; numeric LUT samples preserved
# LUTr-Conversion-Tool: LUTr scripts/convert-all-to-cube.mjs 2.0.0
# LUTr-Conversion-Date: 2026-07-28
# LUTr-Asset-URL: https://freshluts.com/luts/869
# LUTr-Author: lvannoeun@gmail.com
# LUTr-Author-URL: https://freshluts.com/users/57563
# LUTr-Attribution: lvannoeun@gmail.com via Fresh LUTs
# LUTr-Source-Labels: gamma=Sony S-Log 3; color=Warm; key=Low Key; style=High contrast
# LUTr-Note: Preserve this metadata and the upstream license notices when redistributing.
TITLE "at market Asian look-LUT"
LUT_3D_SIZE 5
DOMAIN_MIN 0 0 0
DOMAIN_MAX 1 1 1
0 0.0129397 0
0.223651 0.0182956 0
0.438453 0.0299229 0
0.643641 0.0441291 0
0.84268 0.0600137 0
0.0915999 0.216098 0.00906386
0.266255 0.24683 0
0.479652 0.260288 0
0.68368 0.27483 0
0.881895 0.290944 0
0.193851 0.422705 0.0965744
0.330556 0.464134 0.0429541
0.517174 0.490013 0
0.721553 0.506371 0
0.919142 0.522652 0.0109712
0.290471 0.631174 0.182162
0.418769 0.672831 0.151446
0.56875 0.711803 0.0827649
0.75642 0.736355 0.0467689
0.954742 0.754757 0.0409094
0.384146 0.840558 0.267521
0.511604 0.880888 0.252613
0.63975 0.926055 0.186938
0.802808 0.959762 0.132342
0.988403 0.984573 0.0998856
0 0.018967 0.114305
0.228183 0.021912 0.118822
0.442786 0.0336004 0.132006
0.647883 0.0478523 0.147723
0.84686 0.0637522 0.165057
0.0749828 0.233295 0.149508
0.27126 0.250813 0.158587
0.483925 0.264012 0.162234
0.687877 0.278599 0.178027
0.886046 0.294743 0.195361
0.203754 0.431937 0.237919
0.35845 0.460868 0.256489
0.522011 0.494392 0.202243
0.725795 0.510185 0.206195
0.923308 0.526528 0.223621
0.304891 0.638895 0.325292
0.451987 0.669825 0.346426
0.580926 0.71342 0.294286
0.761196 0.740856 0.251331
0.959426 0.758755 0.250782
0.399863 0.847822 0.411215
0.543053 0.879835 0.433143
0.664942 0.923354 0.403067
0.810498 0.963424 0.336522
0.993255 0.989273 0.302205
0 0.0228428 0.321172
0.23328 0.0260929 0.325734
0.447669 0.0378424 0.33875
0.652659 0.0521553 0.354284
0.85156 0.068101 0.37145
0.0426642 0.249454 0.347646
0.276295 0.256031 0.355138
0.488746 0.268315 0.368551
0.692607 0.282948 0.384192
0.8907 0.299138 0.401373
0.103807 0.474372 0.373541
0.351354 0.475486 0.394491
0.52723 0.499275 0.40145
0.730526 0.51458 0.412039
0.927962 0.530953 0.429313
0.2421 0.672984 0.433707
0.464164 0.678645 0.485191
0.606287 0.711528 0.501549
0.766445 0.745846 0.44947
0.964111 0.763195 0.456107
0.371954 0.871183 0.5234
0.558267 0.887663 0.572869
0.696574 0.921279 0.593286
0.822095 0.965988 0.5402
0.998428 0.994324 0.499962
0 0.0269169 0.524514
0.238621 0.030518 0.529305
0.452796 0.0423438 0.542275
0.657649 0.0566873 0.557748
0.856474 0.0726787 0.574823
0.0487678 0.253681 0.550851
0.281544 0.260502 0.558572
0.493812 0.272862 0.571847
0.697551 0.287526 0.587411
0.895567 0.303746 0.604517
0.0943618 0.483238 0.576638
0.321874 0.491478 0.585718
0.532509 0.504417 0.598032
0.735439 0.519188 0.615076
0.932815 0.535576 0.632273
0.147036 0.710826 0.601007
0.376638 0.718181 0.612711
0.607935 0.723278 0.642252
0.771862 0.751049 0.64506
0.968963 0.767849 0.658915
0.259632 0.91902 0.641535
0.506661 0.918608 0.679332
0.711284 0.929213 0.733349
0.845441 0.964889 0.745602
1 0.999557 0.695338
0.00122072 0.0310369 0.725734
0.244129 0.0350958 0.730892
0.458061 0.0469978 0.743862
0.662791 0.061387 0.759289
0.861524 0.0773938 0.776318
0.0549935 0.258076 0.752102
0.286931 0.265126 0.759991
0.499001 0.277546 0.773251
0.702632 0.292256 0.788785
0.900572 0.308492 0.805844
0.100267 0.487724 0.777844
0.327214 0.496132 0.786999
0.537774 0.508965 0.800595
0.74049 0.523934 0.816312
0.937789 0.540352 0.833478
0.142687 0.718303 0.802838
0.366064 0.727672 0.812909
0.575296 0.740871 0.826825
0.776471 0.756573 0.839673
0.973922 0.772641 0.859983
0.192065 0.946929 0.826719
0.415335 0.956191 0.838071
0.631174 0.967163 0.854688
0.854963 0.9738 0.891264
1 1 0.889158
