site/assets/luts/freshluts--0000355-cine-series-candyman-90s.cube
# LUTr-Schema-Version: 2
# LUTr-ID: freshluts--0000355-cine-series-candyman-90s
# LUTr-Title: CINE SERIES_CANDYMAN 90S
# LUTr-Collection: Fresh LUTs
# LUTr-Collection-ID: freshluts-community
# LUTr-Source: https://freshluts.com
# LUTr-Retrieved: 2026-07-27
# LUTr-Source-File: submissions-raw/freshluts/cubes/355__Candyman.cube
# LUTr-Source-Format: CUBE
# LUTr-Source-SHA256: 709e7da68d336d5508ceb03d87619c400b44758c754f03c85a946f1fca6d7064
# LUTr-License: CC0-1.0
# LUTr-License-URL: https://freshluts.com/termsandconditions
# LUTr-License-Basis: site-terms
# LUTr-Transform-Class: creative-look
# LUTr-Tags: creative, freshluts, community, cube, green, cinematic
# LUTr-Input-Color-Space:
# LUTr-Input-Gamut: unspecified
# LUTr-Input-Transfer: unspecified
# LUTr-Output-Color-Space: srgb
# LUTr-Output-Gamut: rec709
# LUTr-Output-Transfer: srgb
# LUTr-Color-Space-Confidence: camera-profile-input-required
# LUTr-Domain-Normalized: true
# LUTr-Shaper: none
# LUTr-Original-Grid: 32x32x32
# LUTr-Conversion-Grid: 32x32x32
# LUTr-Conversion-Interpolation: none
# LUTr-Conversion-Method: Metadata normalization; numeric LUT samples preserved
# LUTr-Conversion-Tool: LUTr scripts/convert-all-to-cube.mjs 2.0.0
# LUTr-Conversion-Date: 2026-07-28
# LUTr-Asset-URL: https://freshluts.com/luts/355
# LUTr-Author: I WANT TO MAKE A FILM PODCAST
# LUTr-Author-URL: https://freshluts.com/users/15633
# LUTr-Attribution: I WANT TO MAKE A FILM PODCAST via Fresh LUTs
# LUTr-Source-Labels: gamma=Other; color=Green; key=Neutral; style=Horror / Dark
# LUTr-Note: Preserve this metadata and the upstream license notices when redistributing.
# LUTr-Upstream-Comment: Created by: Adobe Photoshop Export Color Lookup Plugin
# LUTr-Upstream-Comment: LUT size
# LUTr-Upstream-Comment: data domain
# LUTr-Upstream-Comment: LUT data points
TITLE "CINE SERIES_CANDYMAN 90S"
LUT_3D_SIZE 5
DOMAIN_MIN 0.000000 0.000000 0.000000
DOMAIN_MAX 0.903226 0.903226 0.903226
0.019623 0.019623 0.019623
0.106598 0.016174 0.028229
0.446686 0.002777 0.061951
0.836212 0 0.111481
0.994934 0 0.132629
0.019623 0.106201 0.019623
0.092346 0.101471 0.024353
0.446686 0.037231 0.002777
0.836212 0 0.02063
0.994934 0 0.042511
0.019623 0.436157 0.019623
0.10321 0.436157 0.019623
0.376862 0.413361 0.042389
0.808807 0.423248 0.027405
0.980896 0.383667 0.014008
0.019623 0.819763 0.019623
0.103241 0.819763 0.019623
0.395782 0.796326 0.04306
0.713898 0.776001 0.063385
0.923035 0.855286 0.071869
0.019623 0.975586 0.019623
0.10318 0.975586 0.019623
0.404541 0.956909 0.0383
0.710876 0.923309 0.071899
0.852234 0.923309 0.071899
0.000153 0.025391 0.110291
0.10318 0.019623 0.089722
0.446686 0.002777 0.137817
0.836212 0 0.184967
0.994934 0 0.205505
0.019623 0.106201 0.089722
0.101379 0.105286 0.090607
0.443817 0.075775 0.107056
0.846405 0.059906 0.146881
1 0.065033 0.172302
0.019623 0.436157 0.089691
0.10318 0.436157 0.089722
0.385956 0.417206 0.108673
0.815155 0.410004 0.091125
0.987396 0.367249 0.077606
0.019623 0.819763 0.089752
0.103271 0.819763 0.089722
0.405457 0.802643 0.106812
0.72287 0.779846 0.129639
0.92688 0.854095 0.138153
0.019623 0.975586 0.08963
0.103119 0.975586 0.089722
0.413422 0.961731 0.103546
0.719879 0.927124 0.138153
0.861237 0.927124 0.138153
0 0.098724 0.429565
0.061188 0.077454 0.428955
0.429871 0.019623 0.407043
0.83371 0.002502 0.461548
0.994934 0 0.490662
0 0.164673 0.428925
0.01004 0.129303 0.494171
0.429871 0.106201 0.407104
0.834625 0.088165 0.466125
1 0.081512 0.494568
0.019623 0.436157 0.407074
0.10318 0.436157 0.407043
0.426819 0.43457 0.408661
0.833374 0.390259 0.417847
0.998596 0.383759 0.434204
0.019623 0.819763 0.406982
0.10318 0.819763 0.407074
0.42984 0.819763 0.407074
0.763702 0.79718 0.429626
0.947571 0.843781 0.434814
0.019623 0.975586 0.407043
0.10318 0.975586 0.407104
0.42984 0.975586 0.407074
0.763519 0.946716 0.435944
0.9021 0.944489 0.438171
0 0.192841 0.835052
0.022308 0.172546 0.8349
0.319855 0.093231 0.834229
0.816589 0.019623 0.813873
0.975311 0.019623 0.813843
0 0.247131 0.8349
0 0.214294 0.917877
0.281494 0.115479 0.920471
0.816589 0.106201 0.813812
0.975311 0.106201 0.813843
0 0.488708 0.834198
0 0.493958 0.91748
0.133484 0.423737 0.920837
0.816589 0.436157 0.813812
0.976349 0.435089 0.819092
0.019623 0.819763 0.813904
0.10318 0.819763 0.813812
0.429871 0.819763 0.813751
0.816376 0.819611 0.813934
0.981934 0.80719 0.824036
0.019623 0.975586 0.813843
0.10318 0.975586 0.813721
0.429871 0.975586 0.813843
0.816589 0.975586 0.813812
0.954498 0.966736 0.822662
0 0.231171 0.999023
0.00766 0.210999 0.999023
0.268982 0.132355 0.999023
0.802155 0.056549 0.979431
0.975342 0.020538 0.979401
0 0.281403 0.999023
0.00708 0.279144 1
0.264679 0.207367 1
0.802124 0.139893 0.979431
0.975281 0.107056 0.979401
0 0.507751 0.999023
0.035614 0.506134 1
0.242859 0.494965 1
0.809418 0.440552 0.998505
0.97522 0.436707 0.979401
0.016479 0.826477 0.979431
0.0867 0.826477 0.979431
0.373962 0.830536 0.989075
0.776306 0.809235 1
0.97525 0.819946 0.979401
0.019562 0.975677 0.979401
0.102783 0.975586 0.979401
0.428833 0.975677 0.979401
0.816254 0.975616 0.979401
0.974121 0.97464 0.98053
