site/assets/luts/freshluts--0001568-film-4-rec709-apply-this-lutlast-node-or-layer.cube
# LUTr-Schema-Version: 2
# LUTr-ID: freshluts--0001568-film-4-rec709-apply-this-lutlast-node-or-layer
# LUTr-Title: FILM-4_Rec.709 (Apply this LUTlast node or layer)
# LUTr-Collection: Fresh LUTs
# LUTr-Collection-ID: freshluts-community
# LUTr-Source: https://freshluts.com
# LUTr-Retrieved: 2026-07-27
# LUTr-Source-File: submissions-raw/freshluts/cubes/1568__FIM_4_Rec.709.cube
# LUTr-Source-Format: CUBE
# LUTr-Source-SHA256: f514ee282828eaa8a2a20d0d23b1e4a2ca2611e7261e04a7f6907783effd5f77
# LUTr-License: CC0-1.0
# LUTr-License-URL: https://freshluts.com/termsandconditions
# LUTr-License-Basis: site-terms
# LUTr-Transform-Class: creative-look
# LUTr-Tags: creative, freshluts, community, cube, cool, rec709, cinematic
# LUTr-Input-Color-Space: rec709
# LUTr-Input-Gamut: rec709
# LUTr-Input-Transfer: rec709
# LUTr-Output-Color-Space: srgb
# LUTr-Output-Gamut: rec709
# LUTr-Output-Transfer: srgb
# LUTr-Color-Space-Confidence: inferred-from-source-label
# LUTr-Domain-Normalized: true
# LUTr-Shaper: none
# LUTr-Original-Grid: 33x33x33
# LUTr-Conversion-Grid: 33x33x33
# LUTr-Conversion-Interpolation: none
# LUTr-Conversion-Method: Metadata normalization; numeric LUT samples preserved
# LUTr-Conversion-Tool: LUTr scripts/convert-all-to-cube.mjs 2.0.0
# LUTr-Conversion-Date: 2026-07-28
# LUTr-Asset-URL: https://freshluts.com/luts/1568
# LUTr-Author: Ashikul Islam
# LUTr-Author-URL: https://freshluts.com/users/202252
# LUTr-Attribution: Ashikul Islam via Fresh LUTs
# LUTr-Source-Labels: gamma=Rec 709; color=Cool; key=Neutral; style=FRESH
# LUTr-Duplicate-Assets: 1569:https://freshluts.com/luts/1569
# LUTr-Note: Preserve this metadata and the upstream license notices when redistributing.
TITLE "FILM-4_Rec.709 (Apply this LUTlast node or layer)"
LUT_3D_SIZE 5
DOMAIN_MIN 0 0 0
DOMAIN_MAX 1 1 1
0 0 0
0.126452 0.00708019 0
0.416678 0.040528 0.0108034
0.794171 0.103105 0.0973831
1 0.292149 0.293858
0.00503548 0.142123 0.100832
0.200198 0.184115 0.0223392
0.508782 0.208759 0.0514687
0.845014 0.265782 0.142565
1 0.421317 0.32694
0.0476692 0.455848 0.314534
0.113039 0.496132 0.152804
0.605066 0.508659 0.123369
0.892409 0.539467 0.195865
1 0.633539 0.397589
0.133333 0.771649 0.568673
0.176532 0.789899 0.475349
0.605661 0.815549 0.250446
0.921218 0.806912 0.27332
1 0.827497 0.554726
0.225177 0.940505 0.766354
0.23505 0.950027 0.734157
0.444694 0.976959 0.600687
0.874342 0.978424 0.512612
1 0.949691 0.783795
0 0.0151369 0.145739
0.158099 0.00497444 0.162676
0.455558 0.0245365 0.158892
0.826123 0.0812543 0.213397
1 0.297322 0.371649
0.0135805 0.207477 0.208957
0.195026 0.254994 0.334508
0.605737 0.279103 0.286839
0.911543 0.298772 0.255222
1 0.46186 0.404181
0.0751659 0.541726 0.510643
0.127413 0.584314 0.512764
0.639078 0.586999 0.300725
0.923354 0.595209 0.277302
1 0.674006 0.466743
0.161334 0.819959 0.739879
0.196551 0.823651 0.673793
0.610422 0.839429 0.513695
0.9308 0.838102 0.321309
1 0.846845 0.599069
0.250492 0.946395 0.830839
0.269261 0.954589 0.809964
0.485313 0.975006 0.739574
0.869291 0.9832 0.59997
1 0.956725 0.804913
0 0.0430457 0.437034
0.0893721 0.0109102 0.563439
0.512032 0.0349432 0.437659
0.833112 0.0818341 0.405188
1 0.284901 0.490013
0 0.318624 0.495308
0.035874 0.361227 0.615213
0.617761 0.257664 0.583673
0.936141 0.270115 0.524727
1 0.441413 0.547127
0.0933547 0.596674 0.548852
0.147539 0.639536 0.605432
0.639414 0.649271 0.667552
0.932174 0.677668 0.635554
1 0.721736 0.620569
0.173938 0.841703 0.76582
0.218021 0.85301 0.779232
0.64271 0.864485 0.77937
0.924559 0.861448 0.640711
1 0.874327 0.692973
0.331701 0.966751 0.886519
0.440238 0.970535 0.899443
0.567025 0.976104 0.877791
0.868955 0.979568 0.799985
1 0.968734 0.844923
0 0.231678 0.688792
0 0.270451 0.761883
0.529778 0.222263 0.804761
0.885191 0.103105 0.697093
1 0.274281 0.65861
0 0.453086 0.713146
0 0.500542 0.777096
0.541863 0.502983 0.842908
0.945754 0.322652 0.774166
1 0.418875 0.719905
0.0761425 0.724071 0.773236
0.14287 0.742245 0.804471
0.565972 0.756695 0.853193
0.931029 0.67744 0.818051
1 0.694667 0.781552
0.191302 0.870604 0.788617
0.240681 0.878614 0.795697
0.664714 0.887953 0.825757
0.915633 0.880095 0.850278
1 0.898589 0.829572
0.478035 0.97615 0.894682
0.545159 0.978515 0.905928
0.687968 0.982315 0.927489
0.866484 0.983627 0.933928
1 0.984451 0.902419
0 0.458198 0.871138
0 0.491844 0.892729
0.13698 0.504021 0.938079
0.836393 0.479545 0.967636
1 0.347036 0.923354
0 0.619242 0.88513
0 0.636103 0.901564
0.147478 0.647089 0.939895
0.837308 0.652064 0.970321
1 0.506249 0.942687
0.0321508 0.796063 0.913573
0.0850538 0.800015 0.923522
0.270161 0.811414 0.95816
0.833432 0.822965 0.973465
1 0.725872 0.955352
0.244541 0.907134 0.940261
0.288991 0.913634 0.952514
0.527993 0.921843 0.968627
0.835416 0.924498 0.979828
1 0.888365 0.969406
0.772839 0.991165 0.94374
0.791379 0.991989 0.948272
0.830823 0.993851 0.957427
0.901534 0.99765 0.973297
1 1 1
