site/assets/luts/freshluts--0000127-softskn.cube
# LUTr-Schema-Version: 2
# LUTr-ID: freshluts--0000127-softskn
# LUTr-Title: softskn
# LUTr-Collection: Fresh LUTs
# LUTr-Collection-ID: freshluts-community
# LUTr-Source: https://freshluts.com
# LUTr-Retrieved: 2026-07-27
# LUTr-Source-File: submissions-raw/freshluts/cubes/127__softskn.cube
# LUTr-Source-Format: CUBE
# LUTr-Source-SHA256: dc23960f7f68cffab1e1cd85f353c92fa8c0b4cd9eebf6106fb12e8ea7c2115d
# LUTr-License: CC0-1.0
# LUTr-License-URL: https://freshluts.com/termsandconditions
# LUTr-License-Basis: site-terms
# LUTr-Transform-Class: creative-look
# LUTr-Tags: creative, freshluts, community, cube, yellow, arri-logc3-ei800
# LUTr-Input-Color-Space: arri-logc3-ei800-awg3
# LUTr-Input-Gamut: arri-wide-gamut-3
# LUTr-Input-Transfer: arri-logc3-ei800
# LUTr-Output-Color-Space: srgb
# LUTr-Output-Gamut: rec709
# LUTr-Output-Transfer: srgb
# LUTr-Color-Space-Confidence: inferred-from-source-label
# LUTr-Domain-Normalized: true
# LUTr-Shaper: none
# LUTr-Original-Grid: 33x33x33
# LUTr-Conversion-Grid: 33x33x33
# LUTr-Conversion-Interpolation: none
# LUTr-Conversion-Method: Metadata normalization; numeric LUT samples preserved
# LUTr-Conversion-Tool: LUTr scripts/convert-all-to-cube.mjs 2.0.0
# LUTr-Conversion-Date: 2026-07-28
# LUTr-Asset-URL: https://freshluts.com/luts/127
# LUTr-Author: Remzi Bayram
# LUTr-Author-URL: https://freshluts.com/users/326
# LUTr-Attribution: Remzi Bayram via Fresh LUTs
# LUTr-Source-Labels: gamma=Arri log c; color=Yellow; key=Neutral; style=Retro
# LUTr-Note: Preserve this metadata and the upstream license notices when redistributing.
TITLE "softskn"
LUT_3D_SIZE 9
DOMAIN_MIN 0 0 0
DOMAIN_MAX 1 1 1
0 0 0
0 0 0
0 0 0
0 0 0
0.207538 0 0
0.714885 0 0
1 0 0
1 0 0
1 0 0
0 0 0
0.0626078 0.0593576 0
0.281102 0.0792248 0
0.640772 0.0594339 0
1 0.0350958 0
1 0.0344549 0
1 0.0483253 0
1 0.0669261 0
1 0.0856641 0
0 0.321218 0
0.0793011 0.334295 0
0.356985 0.329961 0
0.667369 0.319112 0
0.974945 0.309087 0
1 0.310826 0
1 0.324437 0
1 0.342809 0
1 0.361181 0
0 0.609888 0
0.0438087 0.613016 0
0.321767 0.608774 0
0.62118 0.599237 0
0.904631 0.59498 0
1 0.600809 0
1 0.616266 0
1 0.636027 0
1 0.667231 0
0 0.895247 0
0 0.898024 0
0.270832 0.894118 0
0.570214 0.884565 0
0.847929 0.878111 0
1 0.882383 0
1 0.904845 0.158648
1 0.947662 0.541207
1 1 0.818998
0 1 0
0 1 0
0.344213 1 0
0.701839 1 0.259724
0.932937 1 0.668574
1 1 0.823346
1 1 0.873472
1 1 0.923552
1 1 0.973358
0.376165 1 0.376165
0.814984 1 0.776486
0.905562 1 0.823285
0.99942 1 0.86923
1 1 0.915465
1 1 0.96405
1 1 1
1 1 1
1 1 1
0.86923 1 0.86923
0.955596 1 0.917098
1 1 0.963897
1 1 1
1 1 1
1 1 1
1 1 1
1 1 1
1 1 1
1 1 1
1 1 1
1 1 1
1 1 1
1 1 1
1 1 1
1 1 1
1 1 1
1 1 1
0 0 0
0 0 0
0 0 0
0 0 0
0.319005 0 0.0526284
0.820478 0 0.0782025
1 0 0.0872511
1 0 0.0961776
1 0 0.112535
0.002121 0.0186465 0.0205539
0.07364 0.0693217 0.0807355
0.310918 0.0751659 0.0973831
0.667231 0.0496834 0.0780194
1 0.0274357 0.0581521
1 0.0290684 0.0598611
1 0.0430457 0.0738384
1 0.061738 0.092546
1 0.0800336 0.110842
0 0.323934 0.0946212
0.0760815 0.331258 0.0932174
0.354437 0.327382 0.0889754
0.677104 0.313329 0.0555734
0.98616 0.30161 0.0385443
1 0.30338 0.0390631
1 0.317189 0.0523995
1 0.33576 0.0707256
1 0.353948 0.0887465
0 0.607324 0.0552529
0.0408942 0.610101 0.0580301
0.319188 0.606195 0.0541238
0.618601 0.596658 0.04448
0.905013 0.591272 0.0241398
1 0.595804 0.0110628
1 0.609918 0.0151522
1 0.631006 0.0404517
1 0.669856 0.138567
0 0.892668 0.00430304
0 0.895445 0.00708019
0.268238 0.891539 0.00317388
0.567651 0.882002 0
0.844602 0.874083 0.0261387
1 0.881163 0.160189
1 0.910246 0.407614
1 0.961349 0.722103
1 1 0.872724
0 1 0
0.00363165 1 0.0192264
0.391791 1 0.200946
0.747646 1 0.496498
0.960067 1 0.817365
1 1 0.878111
1 1 0.928237
1 1 0.978088
1 1 1
0.509392 1 0.593957
0.828595 1 0.83125
0.919158 1 0.878035
1 1 0.923644
1 1 0.970214
1 1 1
1 1 1
1 1 1
1 1 1
0.882841 1 0.923995
0.969192 1 0.971862
1 1 1
1 1 1
1 1 1
1 1 1
1 1 1
1 1 1
1 1 1
1 1 1
1 1 1
1 1 1
1 1 1
1 1 1
1 1 1
1 1 1
1 1 1
1 1 1
0 0 0
0 0 0
0 0 0
0.044419 0.00047303 0.024033
0.427665 0 0.143236
0.915358 0 0.223972
1 0 0.272374
1 0 0.300816
1 0 0.320089
0 0.0384985 0.0743725
0.084535 0.079118 0.189258
0.317662 0.0816358 0.252903
0.677378 0.0512398 0.272251
1 0.0314641 0.266011
1 0.0331884 0.268666
1 0.0469215 0.28278
1 0.0654459 0.301534
1 0.0836042 0.31986
0 0.330877 0.27834
0.0800183 0.33521 0.281926
0.358923 0.331273 0.276722
0.688472 0.314031 0.254643
0.993484 0.302312 0.242863
1 0.304875 0.245396
1 0.318837 0.259373
1 0.33724 0.277775
1 0.35581 0.296345
0 0.610956 0.243641
0.044831 0.614038 0.246738
0.32314 0.610147 0.242847
0.622568 0.60061 0.233143
0.914611 0.594003 0.208408
1 0.596841 0.198672
1 0.610468 0.207706
1 0.634852 0.245106
1 0.683772 0.348547
0 0.896101 0.192493
0 0.899397 0.195789
0.272206 0.895506 0.191897
0.572457 0.885451 0.184894
0.848264 0.876707 0.228977
1 0.887007 0.362127
1 0.922515 0.587854
1 0.97937 0.842969
1 1 0.915953
0 1 0.138903
0.0519112 1 0.226123
0.454994 1 0.403555
0.799725 1 0.664607
0.977752 1 0.873381
1 1 0.921996
1 1 0.972107
1 1 1
1 1 1
0.644953 1 0.750027
0.843824 1 0.875135
0.934386 1 0.92192
1 1 0.967346
1 1 1
1 1 1
1 1 1
1 1 1
1 1 1
0.89807 1 0.96788
0.984421 1 1
1 1 1
1 1 1
1 1 1
1 1 1
1 1 1
1 1 1
1 1 1
1 1 1
1 1 1
1 1 1
1 1 1
1 1 1
1 1 1
1 1 1
1 1 1
1 1 1
0 0 0
0 0 0
0 0 0
0.120165 0 0.0882582
0.521096 0 0.261845
0.986038 0 0.383795
1 0 0.456886
1 0 0.492576
1 0 0.512993
0 0.05626 0.163958
0.0933547 0.0869154 0.324941
0.335653 0.084123 0.416175
0.665675 0.0611429 0.449378
0.989197 0.0420691 0.455512
1 0.0419013 0.462638
1 0.0545205 0.478309
1 0.0722515 0.497734
1 0.0900435 0.516686
0 0.336889 0.457313
0.0848554 0.340032 0.460746
0.363165 0.336141 0.456855
0.684779 0.319631 0.450828
0.993347 0.306661 0.440467
1 0.308995 0.443214
1 0.322866 0.457221
1 0.34107 0.475517
1 0.359716 0.494209
0 0.615656 0.422339
0.0496681 0.618875 0.425559
0.327977 0.614984 0.421668
0.627161 0.605188 0.411582
0.928634 0.596231 0.38584
1 0.598413 0.384558
1 0.612512 0.398306
1 0.643214 0.442969
1 0.70312 0.539483
0 0.900923 0.371313
0 0.904219 0.374609
0.277028 0.900328 0.370718
0.579446 0.888472 0.367849
0.853483 0.880537 0.416464
1 0.895262 0.539651
1 0.937209 0.732738
1 0.99649 0.90927
1 1 0.958114
0 1 0.326589
0.1122 1 0.414893
0.526802 1 0.578561
0.854261 1 0.798672
0.993194 1 0.915816
1 1 0.964431
1 1 1
1 1 1
1 1 1
0.763149 1 0.864149
0.859251 1 0.917556
0.949828 1 0.964355
1 1 1
1 1 1
1 1 1
1 1 1
1 1 1
1 1 1
0.913512 1 1
0.999863 1 1
1 1 1
1 1 1
1 1 1
1 1 1
1 1 1
1 1 1
1 1 1
1 1 1
1 1 1
1 1 1
1 1 1
1 1 1
1 1 1
1 1 1
1 1 1
1 1 1
0 0 0
0 0 0
0 0 0
0.198352 0 0.195941
0.597147 0 0.420966
1 0 0.578225
1 0 0.667903
1 0 0.704448
1 0 0.729168
0 0.0695201 0.297551
0.0983139 0.090959 0.507134
0.349371 0.0832227 0.621683
0.664012 0.0648508 0.654536
0.957183 0.0550088 0.658534
1 0.0547341 0.67422
1 0.0656138 0.695842
1 0.0813458 0.718608
1 0.0981765 0.740536
0 0.338994 0.665431
0.0870985 0.34229 0.668727
0.365408 0.338399 0.664836
0.664729 0.32874 0.655207
0.965774 0.316732 0.658793
1 0.315785 0.668818
1 0.328069 0.685161
1 0.345281 0.704402
1 0.363424 0.723812
0 0.617838 0.630259
0.0519112 0.621134 0.633539
0.33022 0.617227 0.629648
0.629725 0.606943 0.619837
0.936065 0.595392 0.609247
1 0.598001 0.611872
1 0.613947 0.627634
1 0.652781 0.665125
1 0.7252 0.734722
0 0.903181 0.579309
0.000976577 0.906477 0.582605
0.27924 0.902541 0.578668
0.586786 0.889021 0.577646
0.857618 0.883024 0.616678
1 0.903746 0.71075
1 0.953063 0.854902
1 1 0.956008
1 1 1
0 1 0.536309
0.180728 1 0.610178
0.600549 1 0.739086
0.903899 1 0.902159
1 1 0.962539
1 1 1
1 1 1
1 1 1
1 1 1
0.787701 1 0.916426
0.874052 1 0.964279
0.964096 1 1
1 1 1
1 1 1
1 1 1
1 1 1
1 1 1
1 1 1
0.928313 1 1
1 1 1
1 1 1
1 1 1
1 1 1
1 1 1
1 1 1
1 1 1
1 1 1
1 1 1
1 1 1
1 1 1
1 1 1
1 1 1
1 1 1
1 1 1
1 1 1
1 1 1
0 0 0
0 0 0
0.0152438 0.00154116 0.0297398
0.271458 0 0.361913
0.667185 0 0.64567
1 0 0.828885
1 0 0.922606
1 0 0.955169
1 0 0.983413
0 0.0777142 0.494499
0.0977188 0.0895857 0.75259
0.355184 0.0779889 0.886397
0.663035 0.0614328 0.914931
0.942351 0.0571908 0.91078
1 0.063035 0.923247
1 0.0769513 0.947707
1 0.0935378 0.975372
1 0.109819 1
0 0.336736 0.924575
0.0848402 0.340032 0.927886
0.363149 0.336141 0.923995
0.662013 0.326055 0.913909
0.941436 0.321859 0.90985
1 0.326619 0.923598
1 0.338399 0.947738
1 0.354421 0.974456
1 0.370535 0.999084
0 0.615564 0.889387
0.0496529 0.61886 0.892699
0.327962 0.614969 0.888808
0.626825 0.604898 0.878721
0.906401 0.600626 0.8748
1 0.602213 0.88986
1 0.61854 0.905547
1 0.665507 0.917525
1 0.750546 0.933501
0 0.900908 0.838453
0 0.904219 0.841749
0.277913 0.899855 0.837537
0.592554 0.885344 0.827176
0.859937 0.883421 0.835935
1 0.91104 0.877089
1 0.969406 0.955077
1 1 1
1 1 1
0 1 0.778958
0.254978 1 0.815015
0.67451 1 0.884031
0.930953 1 0.970016
1 1 1
1 1 1
1 1 1
1 1 1
1 1 1
0.801373 1 0.970657
0.887633 1 1
0.977783 1 1
1 1 1
1 1 1
1 1 1
1 1 1
1 1 1
1 1 1
0.942 1 1
1 1 1
1 1 1
1 1 1
1 1 1
1 1 1
1 1 1
1 1 1
1 1 1
1 1 1
1 1 1
1 1 1
1 1 1
1 1 1
1 1 1
1 1 1
1 1 1
1 1 1
0 0 0
0 0 0
0.05832 0 0.153292
0.337438 0 0.587366
0.728496 0 0.924269
1 0 1
1 0 1
1 0 1
1 0 1
0 0.0807965 0.747967
0.0931716 0.0843977 1
0.355703 0.0706035 1
0.658381 0.0567788 1
0.937697 0.0526284 1
1 0.0607919 1
1 0.078233 1
1 0.0988022 1
1 0.118242 1
0 0.332143 1
0.0802625 0.335439 1
0.358328 0.331319 1
0.657435 0.321477 1
0.936736 0.317311 1
1 0.325475 1
1 0.342626 1
1 0.362722 1
1 0.381216 1
0 0.610971 1
0.0450752 0.614282 1
0.32285 0.609857 1
0.622248 0.600305 1
0.901549 0.596155 1
1 0.604425 1
1 0.632074 1
1 0.68954 1
1 0.784985 1
0 0.89633 1
0 0.899626 1
0.277714 0.893874 1
0.599588 0.880247 1
0.863233 0.88455 1
1 0.923522 1
1 0.98761 1
1 1 1
1 1 1
0 1 1
0.336965 1 0.998413
0.748363 1 0.993606
0.94406 1 1
1 1 1
1 1 1
1 1 1
1 1 1
1 1 1
0.814481 1 1
0.900618 1 1
0.99089 1 1
1 1 1
1 1 1
1 1 1
1 1 1
1 1 1
1 1 1
0.955093 1 1
1 1 1
1 1 1
1 1 1
1 1 1
1 1 1
1 1 1
1 1 1
1 1 1
1 1 1
1 1 1
1 1 1
1 1 1
1 1 1
1 1 1
1 1 1
1 1 1
1 1 1
0 0 0
0 0 0
0.100999 0 0.343069
0.394507 0 0.865782
0.777401 0 1
1 0 1
1 0 1
1 0 1
1 0 1
0 0.0795148 1
0.0859236 0.0766155 1
0.352514 0.0624094 1
0.652567 0.0509651 1
0.931868 0.0467994 1
1 0.054963 1
1 0.0727855 1
1 0.0953536 1
1 0.117586 1
0 0.326329 1
0.0744335 0.329625 1
0.352361 0.325353 1
0.651606 0.315648 1
0.930907 0.311498 1
1 0.319478 1
1 0.337484 1
1 0.360037 1
1 0.382177 1
0 0.605158 1
0.0392462 0.608454 1
0.317021 0.604028 1
0.616419 0.594491 1
0.895735 0.590326 1
1 0.599329 1
1 0.636027 1
1 0.708721 1
1 0.81883 1
0 0.890501 1
0 0.893492 1
0.281254 0.886687 1
0.609705 0.875441 1
0.869108 0.888029 1
0.999466 0.937713 1
1 1 1
1 1 1
1 1 1
0 1 1
0.423163 1 1
0.818509 1 1
0.956863 1 1
1 1 1
1 1 1
1 1 1
1 1 1
1 1 1
0.827283 1 1
0.913115 1 1
1 1 1
1 1 1
1 1 1
1 1 1
1 1 1
1 1 1
1 1 1
0.967895 1 1
1 1 1
1 1 1
1 1 1
1 1 1
1 1 1
1 1 1
1 1 1
1 1 1
1 1 1
1 1 1
1 1 1
1 1 1
1 1 1
1 1 1
1 1 1
1 1 1
1 1 1
0 0 0
0 0 0
0.139925 0 0.59266
0.444511 0 1
0.816114 0 1
1 0 1
1 0 1
1 0 1
1 0 1
0 0.075349 1
0.0778668 0.0681163 1
0.347509 0.0550851 1
0.646998 0.0453956 1
0.926299 0.0412299 1
1 0.0493782 1
1 0.067216 1
1 0.0897841 1
1 0.112459 1
0 0.32076 1
0.068864 0.324056 1
0.346639 0.319631 1
0.646036 0.310079 1
0.925338 0.305913 1
1 0.313558 1
1 0.331914 1
1 0.354467 1
1 0.378683 1
0 0.599588 1
0.0335393 0.602747 1
0.311452 0.598459 1
0.610849 0.588922 1
0.89015 0.584756 1
1 0.596704 1
1 0.642878 1
1 0.729427 1
1 0.851911 1
0 0.884932 1
0 0.887755 1
0.29041 0.879896 1
0.624979 0.872877 1
0.878737 0.895109 1
1 0.9552 1
1 1 1
1 1 1
1 1 1
0.034165 1 1
0.519417 1 1
0.875837 1 1
0.969726 1 1
1 1 1
1 1 1
1 1 1
1 1 1
1 1 1
0.83978 1 1
0.925994 1 1
1 1 1
1 1 1
1 1 1
1 1 1
1 1 1
1 1 1
1 1 1
0.98024 1 1
1 1 1
1 1 1
1 1 1
1 1 1
1 1 1
1 1 1
1 1 1
1 1 1
1 1 1
1 1 1
1 1 1
1 1 1
1 1 1
1 1 1
1 1 1
1 1 1
1 1 1
