site/assets/luts/freshluts--0000128-softsknn.cube
# LUTr-Schema-Version: 2
# LUTr-ID: freshluts--0000128-softsknn
# LUTr-Title: softSKNN
# LUTr-Collection: Fresh LUTs
# LUTr-Collection-ID: freshluts-community
# LUTr-Source: https://freshluts.com
# LUTr-Retrieved: 2026-07-27
# LUTr-Source-File: submissions-raw/freshluts/cubes/128__softSKNN.cube
# LUTr-Source-Format: CUBE
# LUTr-Source-SHA256: 6508819253d737e1278dcfa3a581ff5e1102d51106865bf105097e4e241b8e46
# LUTr-License: CC0-1.0
# LUTr-License-URL: https://freshluts.com/termsandconditions
# LUTr-License-Basis: site-terms
# LUTr-Transform-Class: creative-look
# LUTr-Tags: creative, freshluts, community, cube, yellow, arri-logc3-ei800
# LUTr-Input-Color-Space:
# LUTr-Input-Gamut: arri-wide-gamut-3
# LUTr-Input-Transfer: arri-logc3-ei800
# LUTr-Output-Color-Space: srgb
# LUTr-Output-Gamut: rec709
# LUTr-Output-Transfer: srgb
# LUTr-Color-Space-Confidence: camera-profile-input-required
# LUTr-Domain-Normalized: true
# LUTr-Shaper: none
# LUTr-Original-Grid: 33x33x33
# LUTr-Conversion-Grid: 33x33x33
# LUTr-Conversion-Interpolation: none
# LUTr-Conversion-Method: Metadata normalization; numeric LUT samples preserved
# LUTr-Conversion-Tool: LUTr scripts/convert-all-to-cube.mjs 2.0.0
# LUTr-Conversion-Date: 2026-07-28
# LUTr-Asset-URL: https://freshluts.com/luts/128
# LUTr-Author: Remzi Bayram
# LUTr-Author-URL: https://freshluts.com/users/326
# LUTr-Attribution: Remzi Bayram via Fresh LUTs
# LUTr-Source-Labels: gamma=Arri log c; color=Yellow; key=Neutral; style=Retro
# LUTr-Note: Preserve this metadata and the upstream license notices when redistributing.
TITLE "softSKNN"
LUT_3D_SIZE 9
DOMAIN_MIN 0 0 0
DOMAIN_MAX 1 1 1
0 0 0
0 0 0
0 0 0
0 0 0
0.180652 0 0.0263523
0.870436 0 0.0557565
1 0 0.0580911
1 0 0.0673686
1 0 0.0824292
0 0 0
0.0910506 0.0569009 0.0327611
0.365789 0.0884718 0.0335546
0.703929 0.0931563 0.0251164
0.99028 0.090135 0.0208286
1 0.0783703 0.00906386
1 0.0650797 0
1 0.0584573 0
1 0.0603037 0
0 0.351354 0.0111238
0.169772 0.360464 0.0197757
0.391821 0.356741 0.0156252
0.636103 0.343587 0
0.896849 0.322591 0
1 0.300343 0
1 0.281331 0
1 0.272267 0
1 0.274342 0
0 0.577218 0
0.125231 0.569604 0
0.339132 0.557763 0
0.567391 0.542153 0
0.805676 0.52575 0
1 0.508476 0
1 0.494896 0
1 0.494667 0
1 0.513176 0
0 0.770794 0
0.0735485 0.762737 0
0.29041 0.753857 0
0.52491 0.744488 0
0.769146 0.739544 0
1 0.750195 0
1 0.802014 0.0505531
1 0.967376 0.78558
1 1 0.948211
0 0.975647 0
0.0493477 0.981735 0
0.3084 1 0
0.700557 1 0.281239
1 1 0.885206
1 1 0.991531
1 1 1
1 1 1
1 1 1
0.551568 1 0.57583
0.948043 1 0.924773
1 1 1
1 1 1
1 1 1
1 1 1
1 1 1
1 1 1
1 1 1
1 1 1
1 1 1
1 1 1
1 1 1
1 1 1
1 1 1
1 1 1
1 1 1
1 1 1
1 1 1
1 1 1
1 1 1
1 1 1
1 1 1
1 1 1
1 1 1
1 1 1
1 1 1
0 0 0
0 0 0
0 0 0
0 0 0
0.356847 0 0.0967575
1 0 0.187121
1 0 0.221561
1 0 0.235416
1 0 0.247074
0.00410468 0.00761425 0.0099794
0.121675 0.0758221 0.119463
0.403876 0.0986191 0.180026
0.717311 0.0993668 0.192065
0.99237 0.0939498 0.187091
1 0.0802014 0.173419
1 0.0657664 0.159014
1 0.058381 0.151644
1 0.0594644 0.152743
0 0.359625 0.164675
0.173053 0.36376 0.168811
0.393912 0.35874 0.163104
0.644846 0.342657 0.131426
0.904555 0.320516 0.104921
1 0.298222 0.081529
1 0.279377 0.0622873
1 0.270771 0.0535134
1 0.273396 0.0560616
0 0.578103 0.129488
0.12549 0.569863 0.121233
0.339513 0.558145 0.109529
0.56788 0.542641 0.093843
0.80885 0.525673 0.0627146
1 0.508019 0.0274662
1 0.495216 0.00579843
1 0.49749 0.00427253
1 0.523583 0.0285344
0 0.771435 0.0780041
0.0747082 0.763882 0.0704509
0.292348 0.755795 0.0623636
0.528237 0.747814 0.0543832
0.775143 0.745541 0.0519417
1 0.767849 0.070222
1 0.846372 0.338384
1 1 0.898863
1 1 1
0 0.980102 0.0434577
0.0582589 0.990646 0.0540017
0.347753 1 0.1299
0.817182 1 0.616053
1 1 0.944472
1 1 1
1 1 1
1 1 1
1 1 1
0.822828 1 0.858137
0.983459 1 0.982803
1 1 1
1 1 1
1 1 1
1 1 1
1 1 1
1 1 1
1 1 1
1 1 1
1 1 1
1 1 1
1 1 1
1 1 1
1 1 1
1 1 1
1 1 1
1 1 1
1 1 1
1 1 1
1 1 1
1 1 1
1 1 1
1 1 1
1 1 1
1 1 1
1 1 1
0 0 0
0 0 0
0 0 0
0.00814832 0.000671397 0.00515755
0.519036 0 0.209491
1 0 0.338552
1 0 0.38027
1 0 0.391608
1 0 0.401679
0.0136721 0.0349584 0.0732433
0.150423 0.0919203 0.239353
0.415061 0.114687 0.326802
0.712673 0.111055 0.350057
0.987198 0.0995346 0.343236
1 0.0834974 0.32871
1 0.0678111 0.31368
1 0.0597391 0.305913
1 0.0604257 0.306767
0 0.366705 0.30959
0.177081 0.367773 0.310658
0.397238 0.361074 0.302129
0.652216 0.341726 0.278141
0.908339 0.319249 0.255543
1 0.297444 0.233707
1 0.278859 0.215122
1 0.270466 0.206729
1 0.274083 0.21033
0 0.57937 0.268574
0.126543 0.570932 0.260136
0.34052 0.559167 0.248371
0.569177 0.543923 0.232883
0.815473 0.526345 0.198886
1 0.508125 0.169085
1 0.496513 0.153597
1 0.50132 0.156939
1 0.540795 0.197879
0 0.772427 0.216831
0.0767681 0.765957 0.210346
0.295613 0.75906 0.203449
0.533349 0.752926 0.197314
0.784375 0.754772 0.198962
1 0.788388 0.245686
1 0.905013 0.637766
1 1 0.95642
1 1 1
0 0.986252 0.187442
0.0731975 1 0.206775
0.419852 1 0.34081
0.930327 1 0.865461
1 1 1
1 1 1
1 1 1
1 1 1
1 1 1
0.879225 1 0.932708
1 1 1
1 1 1
1 1 1
1 1 1
1 1 1
1 1 1
1 1 1
1 1 1
1 1 1
1 1 1
1 1 1
1 1 1
1 1 1
1 1 1
1 1 1
1 1 1
1 1 1
1 1 1
1 1 1
1 1 1
1 1 1
1 1 1
1 1 1
1 1 1
1 1 1
1 1 1
0 0 0
0 0 0
0 0 0
0.118074 0 0.0908064
0.650248 0 0.359945
1 0 0.508095
1 0 0.545663
1 0 0.55436
1 0 0.563973
0.0174716 0.0597238 0.186694
0.174151 0.105287 0.39556
0.430655 0.12372 0.486198
0.693782 0.125139 0.502922
0.967239 0.108461 0.502754
1 0.0886854 0.491737
1 0.0707866 0.477638
1 0.0615549 0.470146
1 0.0618448 0.471336
0 0.370779 0.462562
0.179431 0.370138 0.461921
0.397528 0.362478 0.454276
0.64712 0.342458 0.442725
0.905028 0.318791 0.420691
1 0.296788 0.398962
1 0.278386 0.380667
1 0.270344 0.372671
1 0.274769 0.377111
0 0.579675 0.417792
0.126711 0.571084 0.409186
0.340658 0.559304 0.397406
0.569497 0.544198 0.381872
0.824674 0.52517 0.34847
1 0.507683 0.328161
1 0.4981 0.317937
1 0.507012 0.326635
1 0.565194 0.391424
0 0.773007 0.366308
0.0780652 0.767254 0.360555
0.298344 0.761791 0.355093
0.538308 0.7579 0.351202
0.798032 0.768414 0.361471
1 0.816007 0.447547
1 0.966125 0.87187
1 1 1
1 1 1
0 0.992355 0.342443
0.0982834 1 0.377737
0.544961 1 0.583719
0.982879 1 0.953841
1 1 1
1 1 1
1 1 1
1 1 1
1 1 1
0.915496 1 0.992065
1 1 1
1 1 1
1 1 1
1 1 1
1 1 1
1 1 1
1 1 1
1 1 1
1 1 1
1 1 1
1 1 1
1 1 1
1 1 1
1 1 1
1 1 1
1 1 1
1 1 1
1 1 1
1 1 1
1 1 1
1 1 1
1 1 1
1 1 1
1 1 1
1 1 1
1 1 1
0 0 0
0 0 0
0 0 0
0.241703 0 0.241215
0.749401 0 0.556466
1 0 0.704204
1 0 0.734707
1 0 0.744396
1 0 0.755901
0.016556 0.0784466 0.357595
0.191852 0.114977 0.601312
0.439948 0.127733 0.681178
0.68687 0.129381 0.685313
0.937148 0.117235 0.682307
1 0.0966201 0.678889
1 0.0757305 0.671061
1 0.0641031 0.666407
1 0.0636149 0.669535
0 0.370947 0.648295
0.178195 0.368902 0.64625
0.395422 0.360388 0.637736
0.624826 0.345922 0.62327
0.876249 0.322698 0.613428
1 0.297261 0.598718
1 0.277592 0.582727
1 0.26949 0.576028
1 0.274739 0.581949
0 0.576867 0.600549
0.123857 0.568246 0.591913
0.337926 0.556573 0.58024
0.566812 0.541588 0.56527
0.826658 0.520882 0.547265
1 0.505257 0.531655
1 0.49839 0.524804
1 0.51545 0.541863
1 0.60473 0.628229
0 0.770947 0.549813
0.0768139 0.766003 0.544869
0.298451 0.761898 0.540764
0.54136 0.760937 0.539803
0.812421 0.782986 0.563012
1 0.854353 0.685313
1 1 0.973144
1 1 1
1 1 1
0 0.998291 0.533959
0.14136 1 0.586831
0.712047 1 0.818036
1 1 1
1 1 1
1 1 1
1 1 1
1 1 1
1 1 1
0.950103 1 1
1 1 1
1 1 1
1 1 1
1 1 1
1 1 1
1 1 1
1 1 1
1 1 1
1 1 1
1 1 1
1 1 1
1 1 1
1 1 1
1 1 1
1 1 1
1 1 1
1 1 1
1 1 1
1 1 1
1 1 1
1 1 1
1 1 1
1 1 1
1 1 1
1 1 1
1 1 1
0 0 0
0 0 0
0 0 0
0.355398 0 0.472877
0.82919 0 0.829053
1 0 0.953643
1 0 0.971664
1 0 0.982406
1 0 0.996338
0.0107881 0.0902419 0.610208
0.199985 0.117769 0.872389
0.440513 0.126894 0.933379
0.681712 0.124239 0.930724
0.920882 0.114229 0.920714
1 0.0995193 0.912459
1 0.0814832 0.908904
1 0.0695506 0.910674
1 0.0678874 0.918837
0 0.365805 0.893706
0.171511 0.362219 0.89012
0.387823 0.352789 0.88069
0.616526 0.337621 0.865538
0.849042 0.320974 0.848875
1 0.301778 0.838804
1 0.280827 0.834134
1 0.271244 0.835492
1 0.276173 0.846357
0 0.568795 0.84303
0.11574 0.560113 0.834348
0.330068 0.548714 0.822934
0.559457 0.534234 0.808454
0.795575 0.521172 0.795407
1 0.506798 0.794049
1 0.499077 0.796826
1 0.527413 0.827314
1 0.67425 0.89839
0 0.763882 0.793301
0.0709697 0.760159 0.789578
0.294392 0.757839 0.787259
0.541695 0.761288 0.790707
0.822904 0.794461 0.822736
1 0.903136 0.918532
1 1 1
1 1 1
1 1 1
0 1 0.7906
0.22153 1 0.844419
0.875776 1 0.976791
1 1 1
1 1 1
1 1 1
1 1 1
1 1 1
1 1 1
0.983383 1 1
1 1 1
1 1 1
1 1 1
1 1 1
1 1 1
1 1 1
1 1 1
1 1 1
1 1 1
1 1 1
1 1 1
1 1 1
1 1 1
1 1 1
1 1 1
1 1 1
1 1 1
1 1 1
1 1 1
1 1 1
1 1 1
1 1 1
1 1 1
1 1 1
1 1 1
1 1 1
0 0 0
0 0 0
0.0652323 0 0.156115
0.449958 0 0.790646
0.882551 0 1
1 0 1
1 0 1
1 0 1
1 0 1
0.000534066 0.0944076 0.941115
0.198718 0.113375 1
0.434058 0.120455 1
0.672129 0.114656 1
0.909789 0.103136 1
1 0.0897536 1
1 0.0766308 1
1 0.0693675 1
1 0.0704509 1
0 0.355444 1
0.160113 0.35082 1
0.375555 0.34052 1
0.604028 0.325124 1
0.836484 0.308415 1
1 0.292973 1
1 0.280095 1
1 0.275471 1
1 0.282902 1
0 0.556283 1
0.103197 0.547585 1
0.317494 0.536126 1
0.547951 0.522728 1
0.78526 0.510857 1
1 0.504494 1
1 0.508507 1
1 0.555032 1
1 0.781048 1
0 0.752514 1
0.0610361 0.750225 1
0.286885 0.750332 1
0.542962 0.762554 1
0.836957 0.810742 1
1 0.960082 1
1 1 1
1 1 1
1 1 1
0 1 1
0.369329 1 1
0.940215 1 1
1 1 1
1 1 1
1 1 1
1 1 1
1 1 1
1 1 1
1 1 1
1 1 1
1 1 1
1 1 1
1 1 1
1 1 1
1 1 1
1 1 1
1 1 1
1 1 1
1 1 1
1 1 1
1 1 1
1 1 1
1 1 1
1 1 1
1 1 1
1 1 1
1 1 1
1 1 1
1 1 1
1 1 1
1 1 1
1 1 1
1 1 1
1 1 1
1 1 1
0 0 0
0 0 0
0.140398 0 0.445182
0.522896 0 1
0.908415 0 1
1 0 1
1 0 1
1 0 1
1 0 1
0 0.0926223 1
0.191669 0.104616 1
0.422705 0.109087 1
0.658991 0.101518 1
0.895567 0.0889143 1
1 0.074815 1
1 0.0619516 1
1 0.057557 1
1 0.0619516 1
0 0.341634 1
0.145449 0.336156 1
0.360357 0.325322 1
0.588663 0.309773 1
0.821103 0.293034 1
1 0.277775 1
1 0.266773 1
1 0.267094 1
1 0.280293 1
0 0.540902 1
0.0879377 0.532326 1
0.302541 0.521187 1
0.53373 0.508507 1
0.772473 0.498085 1
1 0.493996 1
1 0.508064 1
1 0.589441 1
1 0.891936 1
0 0.738766 1
0.0484169 0.737606 1
0.27744 0.740887 1
0.545968 0.764767 1
0.862593 0.840848 1
1 1 1
1 1 1
1 1 1
1 1 1
0 1 1
0.575311 1 1
0.972671 1 1
1 1 1
1 1 1
1 1 1
1 1 1
1 1 1
1 1 1
1 1 1
1 1 1
1 1 1
1 1 1
1 1 1
1 1 1
1 1 1
1 1 1
1 1 1
1 1 1
1 1 1
1 1 1
1 1 1
1 1 1
1 1 1
1 1 1
1 1 1
1 1 1
1 1 1
1 1 1
1 1 1
1 1 1
1 1 1
1 1 1
1 1 1
1 1 1
1 1 1
0 0 0
0 0 0
0.207874 0 0.832242
0.579309 0 1
0.919036 0 1
1 0 1
1 0 1
1 0 1
1 0 1
0 0.0875563 1
0.183932 0.0961166 1
0.410513 0.0968948 1
0.645441 0.0879683 1
0.881163 0.0745098 1
1 0.0599374 1
1 0.0468452 1
1 0.0424201 1
1 0.0476692 1
0 0.327916 1
0.130816 0.321523 1
0.34519 0.31017 1
0.573526 0.294621 1
0.806058 0.277989 1
1 0.262821 1
1 0.252766 1
1 0.254551 1
1 0.270985 1
0 0.525734 1
0.0729534 0.517342 1
0.288182 0.506813 1
0.520165 0.494942 1
0.760281 0.485893 1
1 0.484672 1
1 0.510719 1
1 0.650828 1
1 0.963668 1
0 0.725917 1
0.0373846 0.726574 1
0.270985 0.734447 1
0.556527 0.769787 1
0.902708 0.887724 1
1 1 1
1 1 1
1 1 1
1 1 1
0 1 1
0.795987 1 1
1 1 1
1 1 1
1 1 1
1 1 1
1 1 1
1 1 1
1 1 1
1 1 1
1 1 1
1 1 1
1 1 1
1 1 1
1 1 1
1 1 1
1 1 1
1 1 1
1 1 1
1 1 1
1 1 1
1 1 1
1 1 1
1 1 1
1 1 1
1 1 1
1 1 1
1 1 1
1 1 1
1 1 1
1 1 1
1 1 1
1 1 1
1 1 1
1 1 1
1 1 1
