site/assets/luts/freshluts--0000115-frostedbeachpicnic.cube
# LUTr-Schema-Version: 2
# LUTr-ID: freshluts--0000115-frostedbeachpicnic
# LUTr-Title: FrostedBeachPicnic
# LUTr-Collection: Fresh LUTs
# LUTr-Collection-ID: freshluts-community
# LUTr-Source: https://freshluts.com
# LUTr-Retrieved: 2026-07-27
# LUTr-Source-File: submissions-raw/freshluts/cubes/115__FrostedBeachPicnic.cube
# LUTr-Source-Format: CUBE
# LUTr-Source-SHA256: c0012b7b140d969c8d3c812b81c1d73c6acdcf81960c3a7519e9082d61c6599d
# LUTr-License: CC0-1.0
# LUTr-License-URL: https://freshluts.com/termsandconditions
# LUTr-License-Basis: site-terms
# LUTr-Transform-Class: creative-look
# LUTr-Tags: creative, freshluts, community, cube, faded, vintage, cool, canon-cinestyle
# LUTr-Input-Color-Space: canon-cinestyle
# LUTr-Input-Gamut: rec709
# LUTr-Input-Transfer: canon-cinestyle
# LUTr-Output-Color-Space: srgb
# LUTr-Output-Gamut: rec709
# LUTr-Output-Transfer: srgb
# LUTr-Color-Space-Confidence: inferred-from-source-label
# LUTr-Domain-Normalized: true
# LUTr-Shaper: none
# LUTr-Original-Grid: 33x33x33
# LUTr-Conversion-Grid: 33x33x33
# LUTr-Conversion-Interpolation: none
# LUTr-Conversion-Method: Metadata normalization; numeric LUT samples preserved
# LUTr-Conversion-Tool: LUTr scripts/convert-all-to-cube.mjs 2.0.0
# LUTr-Conversion-Date: 2026-07-28
# LUTr-Asset-URL: https://freshluts.com/luts/115
# LUTr-Author: J. T. Semple
# LUTr-Author-URL: https://freshluts.com/users/120
# LUTr-Attribution: J. T. Semple via Fresh LUTs
# LUTr-Source-Labels: gamma=Canon Cinestyle; color=Cool; key=Neutral; style=Faded
# LUTr-Note: Preserve this metadata and the upstream license notices when redistributing.
TITLE "FrostedBeachPicnic"
LUT_3D_SIZE 5
DOMAIN_MIN 0 0 0
DOMAIN_MAX 1 1 1
0 0 0
0.154086 0 0
0.461173 0 0
0.753689 0 0
0.971664 0 0
0 0.146487 0.00207523
0.204822 0.155993 0.0102388
0.533715 0.155215 0.00776684
0.836088 0.180377 0.0293736
1 0.235569 0.0793622
0 0.48188 0.0202945
0.27776 0.529641 0.0590982
0.65127 0.574914 0.0898756
0.952377 0.656855 0.15465
1 0.742473 0.227832
0.166903 0.949065 0.215152
0.54815 0.991135 0.272084
0.878523 1 0.332403
1 1 0.408377
1 1 0.480995
0.424048 1 0.485161
0.780041 1 0.524712
1 1 0.592157
1 1 0.660319
1 1 0.725231
0 0 0.13109
0.162493 0 0.140719
0.471031 0 0.127337
0.760998 0 0.118105
0.980087 0 0.133944
0 0.154009 0.176913
0.21532 0.166186 0.188846
0.549477 0.169772 0.192309
0.852277 0.199771 0.222187
1 0.259113 0.281285
0 0.503487 0.220157
0.300282 0.552758 0.267689
0.677775 0.604089 0.318105
0.97171 0.686778 0.404776
1 0.764324 0.491905
0.193317 0.972412 0.48217
0.575204 1 0.543603
0.891814 1 0.606104
1 1 0.675227
1 1 0.738949
0.446021 1 0.74226
0.796658 1 0.774746
1 1 0.827344
1 1 0.877272
1 1 0.923491
0 0 0.370306
0.165026 0 0.383963
0.474296 0 0.375051
0.762402 0 0.370855
0.983948 0 0.393759
0 0.155932 0.435767
0.220645 0.171054 0.452628
0.560693 0.179461 0.463767
0.864012 0.214771 0.500557
1 0.278111 0.56376
0.00755322 0.519738 0.503502
0.320272 0.573098 0.555108
0.700496 0.629694 0.610727
0.987091 0.711666 0.691646
1 0.78262 0.763622
0.217502 0.992294 0.764172
0.600351 1 0.806241
0.90631 1 0.8486
1 1 0.896971
1 1 0.942061
0.470451 1 0.947509
0.816587 1 0.967239
1 1 1
1 1 1
1 1 1
0 0 0.646021
0.165423 0 0.657511
0.475639 0 0.647257
0.763424 0 0.644709
0.988113 0 0.669078
0 0.15845 0.703334
0.227619 0.1776 0.721553
0.573022 0.190967 0.73489
0.876524 0.231449 0.771847
1 0.300664 0.831724
0.0204776 0.538293 0.768383
0.344854 0.597574 0.815457
0.725612 0.658106 0.858396
1 0.739162 0.917464
1 0.804685 0.965515
0.24567 1 0.976928
0.62887 1 0.998352
0.924681 1 1
1 1 1
1 1 1
0.49723 1 1
0.836683 1 1
1 1 1
1 1 1
1 1 1
0 0 0.867704
0.169818 0 0.874235
0.4813 0 0.859861
0.769894 0 0.857084
0.997787 0 0.881712
0 0.166918 0.907683
0.24123 0.190936 0.927275
0.591394 0.208881 0.940047
0.895018 0.25481 0.975433
1 0.331304 1
0.0402533 0.564065 0.965911
0.376394 0.628626 1
0.754772 0.690867 1
1 0.766354 1
1 0.826749 1
0.274647 1 1
0.655924 1 1
0.942794 1 1
1 1 1
1 1 1
0.523598 1 1
0.855741 1 1
1 1 1
1 1 1
1 1 1
