site/assets/luts/freshluts--0000887-at-museum-mood-red-look-vn-luts.cube
# LUTr-Schema-Version: 2
# LUTr-ID: freshluts--0000887-at-museum-mood-red-look-vn-luts
# LUTr-Title: At museum mood-red look-vn-LUTs
# LUTr-Collection: Fresh LUTs
# LUTr-Collection-ID: freshluts-community
# LUTr-Source: https://freshluts.com
# LUTr-Retrieved: 2026-07-27
# LUTr-Source-File: submissions-raw/freshluts/cubes/887__Red_look-VN-LUT.cube
# LUTr-Source-Format: CUBE
# LUTr-Source-SHA256: 9cc4bbfe67d17870049b743dc19bcddd0ca52c87e0555395665d60cb3aa73b3c
# LUTr-License: CC0-1.0
# LUTr-License-URL: https://freshluts.com/termsandconditions
# LUTr-License-Basis: site-terms
# LUTr-Transform-Class: creative-look
# LUTr-Tags: creative, freshluts, community, cube, red, low-key, arri-logc3-ei800
# LUTr-Input-Color-Space:
# LUTr-Input-Gamut: arri-wide-gamut-3
# LUTr-Input-Transfer: arri-logc3-ei800
# LUTr-Output-Color-Space: srgb
# LUTr-Output-Gamut: rec709
# LUTr-Output-Transfer: srgb
# LUTr-Color-Space-Confidence: camera-profile-input-required
# LUTr-Domain-Normalized: true
# LUTr-Shaper: none
# LUTr-Original-Grid: 33x33x33
# LUTr-Conversion-Grid: 33x33x33
# LUTr-Conversion-Interpolation: none
# LUTr-Conversion-Method: Metadata normalization; numeric LUT samples preserved
# LUTr-Conversion-Tool: LUTr scripts/convert-all-to-cube.mjs 2.0.0
# LUTr-Conversion-Date: 2026-07-28
# LUTr-Asset-URL: https://freshluts.com/luts/887
# LUTr-Author: lvannoeun@gmail.com
# LUTr-Author-URL: https://freshluts.com/users/57563
# LUTr-Attribution: lvannoeun@gmail.com via Fresh LUTs
# LUTr-Source-Labels: gamma=Arri log c; color=Red; key=Low Key; style=Cinematic/Dark
# LUTr-Note: Preserve this metadata and the upstream license notices when redistributing.
TITLE "At museum mood-red look-vn-LUTs"
LUT_3D_SIZE 5
DOMAIN_MIN 0 0 0
DOMAIN_MAX 1 1 1
0 0.00550851 0.00732433
0.129244 0.0292973 0.0371099
0.302739 0.0502327 0.0587167
0.443458 0.0798352 0.0879988
0.575525 0.113115 0.120897
0.137545 0.193088 0.113634
0.233799 0.236316 0.138506
0.41799 0.255085 0.1505
0.542824 0.291829 0.157809
0.676646 0.323842 0.199283
0.311284 0.378653 0.227909
0.425544 0.413062 0.287144
0.522271 0.461112 0.256931
0.71017 0.474723 0.31281
0.797665 0.523842 0.320378
0.48571 0.563546 0.340368
0.603723 0.59675 0.404639
0.689342 0.644083 0.415976
0.763546 0.697993 0.396826
0.919738 0.722759 0.432792
0.659236 0.748653 0.451209
0.765896 0.785122 0.51989
0.866423 0.826093 0.565072
0.913497 0.887724 0.563592
1 0.938704 0.553536
0 0.020676 0.103746
0.137728 0.044007 0.136919
0.308354 0.0658885 0.160922
0.452277 0.094667 0.189425
0.588052 0.12668 0.218341
0.113115 0.221317 0.176501
0.242069 0.252018 0.228916
0.414084 0.273793 0.24654
0.562982 0.301732 0.274937
0.694728 0.334554 0.308385
0.288197 0.407202 0.27895
0.417441 0.436927 0.343084
0.527077 0.477775 0.347784
0.678309 0.506432 0.36939
0.788876 0.546212 0.389563
0.46569 0.591989 0.38703
0.59176 0.62211 0.454765
0.707256 0.657221 0.503822
0.767895 0.71545 0.480354
0.939391 0.734768 0.526436
0.640604 0.776699 0.495674
0.757275 0.809827 0.56759
0.863355 0.847669 0.62887
0.933379 0.901289 0.643366
1 0.956451 0.628946
0 0.0359503 0.20763
0.14873 0.0577707 0.244724
0.318196 0.0794232 0.267674
0.461372 0.109071 0.296605
0.597345 0.141146 0.323125
0.0924392 0.244312 0.27686
0.244984 0.268788 0.330037
0.420356 0.288319 0.356771
0.567452 0.316991 0.386297
0.702876 0.348974 0.417655
0.256748 0.436286 0.352285
0.390341 0.466316 0.402701
0.533593 0.492958 0.451606
0.668193 0.526986 0.46479
0.802182 0.558389 0.502281
0.433875 0.622202 0.450492
0.56733 0.651164 0.504601
0.696971 0.680552 0.570382
0.769879 0.732448 0.575738
0.945342 0.750378 0.631479
0.610468 0.80676 0.552483
0.740536 0.837415 0.612833
0.85214 0.872877 0.683238
0.947967 0.915801 0.728054
1 0.973785 0.712337
0 0.0507973 0.314916
0.154391 0.072343 0.358587
0.329198 0.0926986 0.382788
0.469749 0.122911 0.409277
0.606714 0.15523 0.43505
0.0897993 0.261646 0.391012
0.249897 0.283574 0.442298
0.431235 0.301488 0.472724
0.576318 0.330175 0.501015
0.710399 0.36289 0.532036
0.224491 0.463233 0.455482
0.363363 0.4907 0.509255
0.528832 0.511528 0.557153
0.677012 0.539208 0.586938
0.806302 0.572442 0.619181
0.396704 0.65272 0.531624
0.529534 0.681758 0.578988
0.667063 0.710613 0.626917
0.770306 0.749294 0.674388
0.899611 0.784283 0.692683
0.574395 0.8374 0.624399
0.708721 0.867506 0.674083
0.830198 0.901549 0.732052
0.936614 0.939864 0.794598
1 0.990753 0.808881
0 0.0662547 0.41416
0.158587 0.0883497 0.461494
0.335103 0.107561 0.490959
0.476951 0.137423 0.517143
0.613794 0.169787 0.541085
0.0969558 0.276692 0.496513
0.255375 0.298589 0.549142
0.437842 0.315389 0.58352
0.587213 0.343145 0.611337
0.718288 0.376669 0.639384
0.21561 0.482307 0.565957
0.359579 0.507958 0.619333
0.533211 0.52604 0.662974
0.686442 0.552224 0.695994
0.81442 0.58526 0.726986
0.363333 0.679561 0.627085
0.494728 0.709041 0.676646
0.639963 0.734386 0.726726
0.770184 0.765972 0.776623
0.909499 0.796674 0.809842
0.538231 0.866682 0.703807
0.671061 0.897978 0.750805
0.797772 0.93109 0.801724
0.908858 0.969711 0.852827
1 1 0.909087
