site/assets/luts/freshluts--0001533-just-like-a-mango.cube
# LUTr-Schema-Version: 2
# LUTr-ID: freshluts--0001533-just-like-a-mango
# LUTr-Title: Just like a Mango
# LUTr-Collection: Fresh LUTs
# LUTr-Collection-ID: freshluts-community
# LUTr-Source: https://freshluts.com
# LUTr-Retrieved: 2026-07-27
# LUTr-Source-File: submissions-raw/freshluts/cubes/1533__mango.cube
# LUTr-Source-Format: CUBE
# LUTr-Source-SHA256: 02e19cef73084d0f1d00af7a785cd6ef3d4381150c78934534d8f0ccceff9a77
# LUTr-License: CC0-1.0
# LUTr-License-URL: https://freshluts.com/termsandconditions
# LUTr-License-Basis: site-terms
# LUTr-Transform-Class: creative-look
# LUTr-Tags: creative, freshluts, community, cube, warm, rec709, assumed-input
# LUTr-Input-Color-Space: rec709
# LUTr-Input-Gamut: rec709
# LUTr-Input-Transfer: rec709
# LUTr-Output-Color-Space: srgb
# LUTr-Output-Gamut: rec709
# LUTr-Output-Transfer: srgb
# LUTr-Color-Space-Confidence: assumed-display-referred
# LUTr-Domain-Normalized: true
# LUTr-Shaper: none
# LUTr-Original-Grid: 16x16x16
# LUTr-Conversion-Grid: 16x16x16
# LUTr-Conversion-Interpolation: none
# LUTr-Conversion-Method: Metadata normalization; numeric LUT samples preserved
# LUTr-Conversion-Tool: LUTr scripts/convert-all-to-cube.mjs 2.0.0
# LUTr-Conversion-Date: 2026-07-28
# LUTr-Asset-URL: https://freshluts.com/luts/1533
# LUTr-Author: Gina
# LUTr-Author-URL: https://freshluts.com/users/90727
# LUTr-Attribution: Gina via Fresh LUTs
# LUTr-Source-Labels: gamma=Other; color=Warm; key=Neutral; style=sun dwon; LUTr assumption=input Rec.709 per repository policy
# LUTr-Duplicate-Assets: 1534:https://freshluts.com/luts/1534
# LUTr-Conversion-Warning: Input Rec.709 is a LUTr catalog assumption requested for this otherwise unspecified Fresh LUT; it is not verified by the upstream asset.
# LUTr-Note: Preserve this metadata and the upstream license notices when redistributing.
TITLE "Just like a Mango"
LUT_3D_SIZE 6
DOMAIN_MIN 0 0 0
DOMAIN_MAX 1 1 1
0.027451 0.027451 0.035294
0.112941 0.029804 0.037647
0.290196 0.014117 0.043921
0.534118 0 0.04
0.756863 0.020392 0.018039
0.956745 0.172471 0.011765
0.029804 0.093333 0.072941
0.100235 0.10651 0.062902
0.326274 0.118431 0.051765
0.551216 0.126431 0.03153
0.765647 0.166431 0.003922
0.959843 0.251686 0
0.003138 0.270589 0.12549
0.028706 0.275608 0.126274
0.279216 0.318431 0.103843
0.568784 0.355138 0.001725
0.785569 0.343372 0.000314
0.971623 0.394471 0
0 0.479216 0.193725
0.002981 0.476863 0.197961
0.251294 0.496314 0.198431
0.509647 0.547765 0.168784
0.782588 0.6 0.079529
0.973255 0.592125 0.000777
0.098039 0.692549 0.347451
0.186196 0.692706 0.360314
0.324706 0.693333 0.374431
0.50698 0.723608 0.372549
0.716706 0.756863 0.365804
0.947349 0.829741 0.369451
0.50549 0.921334 0.631099
0.523616 0.923726 0.633545
0.581694 0.922189 0.643788
0.671075 0.936275 0.664808
0.787294 0.956706 0.664079
0.925255 0.980235 0.670274
0.027451 0.035294 0.123922
0.117333 0.032 0.12298
0.290824 0.012549 0.127686
0.550274 0.002824 0.145255
0.764863 0.081412 0.154823
0.959851 0.202196 0.163067
0.045333 0.116392 0.139608
0.140173 0.124329 0.1488
0.335655 0.136565 0.148047
0.563482 0.147294 0.148988
0.773114 0.189239 0.145412
0.962684 0.268312 0.1623
0.09349 0.302431 0.19702
0.133333 0.303718 0.191498
0.317866 0.332047 0.187514
0.586478 0.349333 0.140267
0.788455 0.351624 0.125113
0.972729 0.406683 0.142248
0.031059 0.495843 0.254745
0.137412 0.496032 0.256063
0.297819 0.506761 0.267765
0.532078 0.553475 0.250353
0.7888 0.599091 0.20411
0.978069 0.590565 0.1277
0.191372 0.696157 0.393569
0.249945 0.699075 0.398745
0.363922 0.698761 0.416439
0.525177 0.722259 0.423059
0.724831 0.760721 0.422808
0.95424 0.825561 0.430916
0.518071 0.926808 0.646832
0.535852 0.921384 0.647954
0.591085 0.924526 0.661247
0.673318 0.933619 0.674899
0.791215 0.956667 0.679733
0.926879 0.978635 0.682894
0.003138 0.047843 0.269804
0.123922 0.047373 0.283137
0.346039 0.015529 0.308392
0.530196 0.026667 0.301804
0.767372 0.002353 0.304314
0.968447 0.177051 0.337137
0.007686 0.145569 0.286432
0.142212 0.14353 0.300235
0.367216 0.155608 0.326369
0.559278 0.171639 0.319906
0.78149 0.163263 0.313067
0.962041 0.316099 0.369338
0.039373 0.32549 0.309961
0.187043 0.337914 0.326933
0.40069 0.370008 0.363827
0.604204 0.375216 0.355232
0.793067 0.393663 0.354291
0.96602 0.441362 0.374703
0.271373 0.526432 0.404236
0.331827 0.531294 0.417882
0.407247 0.53807 0.418447
0.5792 0.570573 0.426416
0.798243 0.590306 0.388204
0.980256 0.593659 0.360891
0.380549 0.70698 0.524706
0.394573 0.709459 0.516957
0.442761 0.714384 0.519435
0.56709 0.728722 0.532141
0.740988 0.767184 0.543373
0.958601 0.826014 0.531944
0.551075 0.926071 0.679866
0.560554 0.927329 0.680922
0.601704 0.928626 0.68628
0.694527 0.935622 0.710695
0.801059 0.9548 0.713176
0.94011 0.984817 0.723546
0.003138 0.078431 0.47451
0.091765 0.075765 0.488784
0.366431 0.069019 0.519216
0.606432 0.083922 0.556235
0.755765 0.160314 0.535686
0.940996 0.263428 0.566973
0.000314 0.162667 0.491765
0.11109 0.166965 0.501553
0.376784 0.183278 0.530949
0.611294 0.214839 0.564455
0.758369 0.257883 0.541867
0.943562 0.323385 0.569249
0.003138 0.340706 0.488627
0.128533 0.351122 0.50927
0.380706 0.364486 0.553632
0.627891 0.408188 0.590306
0.765365 0.427514 0.57782
0.955798 0.446108 0.581991
0.182432 0.538666 0.543843
0.268329 0.545098 0.554479
0.438275 0.564392 0.574149
0.639655 0.600534 0.622557
0.799686 0.604172 0.607435
0.970828 0.625966 0.608907
0.403608 0.724863 0.621804
0.447467 0.729506 0.623718
0.547451 0.736283 0.644016
0.625035 0.745255 0.647812
0.771702 0.780486 0.659608
0.973514 0.815314 0.646243
0.617757 0.930032 0.744988
0.631056 0.934414 0.75045
0.659079 0.942674 0.752262
0.710292 0.942099 0.745943
0.812595 0.958408 0.76376
0.952659 0.987969 0.780079
0.001569 0.144314 0.702745
0.147608 0.147294 0.708706
0.399372 0.15953 0.719529
0.645333 0.207686 0.742118
0.829334 0.280471 0.756863
0.942612 0.354361 0.744235
0 0.21851 0.702431
0.148392 0.223341 0.706855
0.4096 0.241757 0.726589
0.645773 0.292863 0.741459
0.831404 0.351216 0.757961
0.935755 0.406662 0.740074
0.004079 0.387922 0.704471
0.160753 0.375153 0.704408
0.394604 0.382181 0.720188
0.643388 0.434761 0.743655
0.830494 0.493804 0.763388
0.94077 0.519631 0.750566
0.000471 0.547137 0.692706
0.079781 0.546447 0.700079
0.328157 0.547482 0.703404
0.610792 0.57851 0.740518
0.823717 0.64411 0.774996
0.950326 0.656421 0.764377
0.301333 0.735843 0.726745
0.353851 0.737443 0.725867
0.476674 0.744 0.733208
0.641757 0.761224 0.753035
0.830745 0.807373 0.795263
0.98965 0.808609 0.780259
0.561341 0.944878 0.814
0.588159 0.946971 0.816949
0.648278 0.950704 0.826329
0.744047 0.957443 0.83518
0.835086 0.965296 0.846174
0.968485 0.991976 0.858722
0.37604 0.364432 0.925255
0.439702 0.368313 0.927616
0.575482 0.391059 0.928463
0.744173 0.429506 0.936212
0.903365 0.503239 0.942557
0.999922 0.548707 0.952628
0.374479 0.408306 0.926808
0.435483 0.415247 0.92827
0.570526 0.43453 0.93066
0.741617 0.47318 0.936258
0.8964 0.534078 0.939627
0.997693 0.578627 0.942642
0.332965 0.504894 0.929185
0.403801 0.507226 0.93526
0.550537 0.523097 0.935802
0.731282 0.557451 0.944094
0.892784 0.6088 0.946661
1 0.64062 0.951976
0.266871 0.664165 0.92833
0.340339 0.664134 0.931056
0.487955 0.652987 0.935305
0.670331 0.651602 0.951139
0.869109 0.699216 0.954326
0.99996 0.739568 0.959765
0.289836 0.832 0.944094
0.32697 0.833831 0.949326
0.420267 0.823362 0.950753
0.561762 0.804433 0.953129
0.814819 0.804634 0.967699
0.999859 0.86186 0.974659
0.501607 0.991961 0.976274
0.521216 0.99196 0.976235
0.58546 0.991875 0.980133
0.680541 0.995804 0.983232
0.814179 0.999694 0.987953
0.99596 0.999882 0.999764
