site/assets/luts/freshluts--0000883-picturefx-national-geographic.cube
# LUTr-Schema-Version: 2
# LUTr-ID: freshluts--0000883-picturefx-national-geographic
# LUTr-Title: PictureFX National Geographic
# LUTr-Collection: Fresh LUTs
# LUTr-Collection-ID: freshluts-community
# LUTr-Source: https://freshluts.com
# LUTr-Retrieved: 2026-07-27
# LUTr-Source-File: submissions-raw/freshluts/cubes/883__PictureFX_National_Geographic.cube
# LUTr-Source-Format: CUBE
# LUTr-Source-SHA256: 520ff068413ab407f00d589ad32e28fd1b501625b28c8b93302ec20117e444e8
# LUTr-License: CC0-1.0
# LUTr-License-URL: https://freshluts.com/termsandconditions
# LUTr-License-Basis: site-terms
# LUTr-Transform-Class: creative-look
# LUTr-Tags: creative, freshluts, community, cube, film-emulation, rec709, assumed-input
# LUTr-Input-Color-Space: rec709
# LUTr-Input-Gamut: rec709
# LUTr-Input-Transfer: rec709
# LUTr-Output-Color-Space: srgb
# LUTr-Output-Gamut: rec709
# LUTr-Output-Transfer: srgb
# LUTr-Color-Space-Confidence: assumed-display-referred
# LUTr-Domain-Normalized: true
# LUTr-Shaper: none
# LUTr-Original-Grid: 25x25x25
# LUTr-Conversion-Grid: 25x25x25
# LUTr-Conversion-Interpolation: none
# LUTr-Conversion-Method: Metadata normalization; numeric LUT samples preserved
# LUTr-Conversion-Tool: LUTr scripts/convert-all-to-cube.mjs 2.0.0
# LUTr-Conversion-Date: 2026-07-28
# LUTr-Asset-URL: https://freshluts.com/luts/883
# LUTr-Author: MarcR.
# LUTr-Author-URL: https://freshluts.com/users/86490
# LUTr-Attribution: MarcR. via Fresh LUTs
# LUTr-Source-Labels: gamma=Other; color=None; key=Neutral; style=Film emulation; LUTr assumption=input Rec.709 per repository policy
# LUTr-Conversion-Warning: Input Rec.709 is a LUTr catalog assumption requested for this otherwise unspecified Fresh LUT; it is not verified by the upstream asset.
# LUTr-Note: Preserve this metadata and the upstream license notices when redistributing.
# LUTr-Upstream-Comment: Generated with IWLTBAP LUT Generator
# LUTr-Upstream-Comment: Website: http://luts.iwltbap.com
# LUTr-Upstream-Comment: LUT size
# LUTr-Upstream-Comment: LUT data points
TITLE "PictureFX National Geographic"
LUT_3D_SIZE 5
DOMAIN_MIN 0 0 0
DOMAIN_MAX 1 1 1
0 0 0
0.109804 0 0
0.376471 0 0
0.729412 0 0
1 0 0
0.015686 0.14902 0
0.168627 0.156863 0
0.415686 0.160784 0
0.756863 0.07451 0
1 0 0
0 0.443137 0
0.168627 0.45098 0
0.470588 0.458824 0
0.8 0.458824 0
1 0.470588 0
0 0.784314 0
0.12549 0.784314 0
0.529412 0.780392 0
0.831373 0.780392 0
1 0.780392 0
0.368627 1 0
0.466667 1 0
0.666667 1 0
0.890196 0.996078 0
1 0.988235 0
0.003922 0 0.086275
0.133333 0 0.12549
0.392157 0 0.12549
0.741176 0 0.090196
1 0 0
0.023529 0.156863 0.129412
0.180392 0.160784 0.12549
0.431373 0.160784 0.109804
0.768627 0.066667 0.054902
1 0 0
0 0.447059 0
0.196078 0.45098 0
0.486275 0.458824 0
0.811765 0.458824 0
1 0.470588 0
0 0.784314 0
0.188235 0.784314 0
0.545098 0.780392 0
0.839216 0.776471 0
1 0.776471 0
0.396078 1 0
0.486275 1 0
0.682353 1 0
0.901961 0.996078 0
1 0.988235 0
0 0 0.364706
0.152941 0 0.372549
0.427451 0 0.372549
0.776471 0 0.356863
1 0 0.333333
0 0.164706 0.376471
0.2 0.164706 0.376471
0.462745 0.152941 0.372549
0.796078 0.019608 0.352941
1 0 0.32549
0.039216 0.45098 0.34902
0.247059 0.454902 0.34902
0.521569 0.458824 0.337255
0.835294 0.458824 0.309804
1 0.470588 0.27451
0.011765 0.784314 0.247059
0.294118 0.784314 0.243137
0.584314 0.780392 0.227451
0.858824 0.776471 0.2
1 0.776471 0.160784
0.454902 1 0.090196
0.533333 1 0.082353
0.709804 1 0.058824
0.917647 0.992157 0.015686
1 0.984314 0
0 0 0.694118
0.082353 0 0.694118
0.462745 0 0.682353
0.811765 0 0.662745
1 0 0.639216
0 0.164706 0.690196
0.184314 0.156863 0.686275
0.501961 0.12549 0.678431
0.831373 0 0.654902
1 0 0.627451
0.12549 0.458824 0.654902
0.298039 0.458824 0.65098
0.572549 0.458824 0.639216
0.862745 0.458824 0.619608
1 0.470588 0.592157
0.27451 0.780392 0.580392
0.4 0.780392 0.580392
0.639216 0.776471 0.568627
0.886275 0.772549 0.556863
1 0.776471 0.537255
0.529412 1 0.513725
0.592157 1 0.513725
0.74902 0.996078 0.509804
0.937255 0.988235 0.498039
1 0.984314 0.490196
0 0 0.933333
0.239216 0 0.929412
0.560784 0 0.909804
0.870588 0 0.882353
1 0 0.854902
0.137255 0.141176 0.917647
0.313725 0.129412 0.913725
0.596078 0.043137 0.898039
0.886275 0 0.870588
1 0 0.843137
0.321569 0.458824 0.870588
0.431373 0.458824 0.866667
0.658824 0.454902 0.85098
0.909804 0.458824 0.831373
1 0.47451 0.803922
0.454902 0.780392 0.792157
0.533333 0.776471 0.788235
0.713725 0.776471 0.780392
0.929412 0.772549 0.768627
1 0.776471 0.74902
0.631373 0.996078 0.72549
0.678431 0.996078 0.721569
0.807843 0.992157 0.717647
0.968627 0.984314 0.709804
1 0.980392 0.698039
