site/assets/luts/freshluts--0000168-coffee.cube
# LUTr-Schema-Version: 2
# LUTr-ID: freshluts--0000168-coffee
# LUTr-Title: COFFEE
# LUTr-Collection: Fresh LUTs
# LUTr-Collection-ID: freshluts-community
# LUTr-Source: https://freshluts.com
# LUTr-Retrieved: 2026-07-27
# LUTr-Source-File: submissions-raw/freshluts/cubes/168__COFFEE_44.C0014.cube
# LUTr-Source-Format: CUBE
# LUTr-Source-SHA256: 1f7f96a6843eae89bff97d421abae7c0b37b930666cf73a7a231711b8af3851e
# LUTr-License: CC0-1.0
# LUTr-License-URL: https://freshluts.com/termsandconditions
# LUTr-License-Basis: site-terms
# LUTr-Transform-Class: creative-look
# LUTr-Tags: creative, freshluts, community, cube, film-emulation, brown, low-key, rec709
# LUTr-Input-Color-Space: rec709
# LUTr-Input-Gamut: rec709
# LUTr-Input-Transfer: rec709
# LUTr-Output-Color-Space: srgb
# LUTr-Output-Gamut: rec709
# LUTr-Output-Transfer: srgb
# LUTr-Color-Space-Confidence: inferred-from-source-label
# LUTr-Domain-Normalized: true
# LUTr-Shaper: none
# LUTr-Original-Grid: 33x33x33
# LUTr-Conversion-Grid: 33x33x33
# LUTr-Conversion-Interpolation: none
# LUTr-Conversion-Method: Metadata normalization; numeric LUT samples preserved
# LUTr-Conversion-Tool: LUTr scripts/convert-all-to-cube.mjs 2.0.0
# LUTr-Conversion-Date: 2026-07-28
# LUTr-Asset-URL: https://freshluts.com/luts/168
# LUTr-Author: Shamoon Abbasi
# LUTr-Author-URL: https://freshluts.com/users/1258
# LUTr-Attribution: Shamoon Abbasi via Fresh LUTs
# LUTr-Source-Labels: gamma=Rec 709; color=Brown; key=Low Key; style=Film emulation
# LUTr-Note: Preserve this metadata and the upstream license notices when redistributing.
TITLE "COFFEE"
LUT_3D_SIZE 5
DOMAIN_MIN 0 0 0
DOMAIN_MAX 1 1 1
0.0105592 0.00836194 0.000350958
0.162295 0.00401312 0.000213626
0.482536 0.000213626 0.000213626
0.783108 0.000213626 0.000213626
0.923125 0.000213626 0.000213626
0.000213626 0.155474 0.000213626
0.206699 0.180529 0.0119936
0.542214 0.172732 0.000213626
0.813535 0.130831 0.000213626
0.923125 0.125856 0.000213626
0.000915541 0.420508 0.000213626
0.285618 0.502388 0.000213626
0.610864 0.553765 0.0488899
0.864271 0.545708 0.0241855
0.923125 0.513695 0.00848402
0.0327001 0.715221 0.000213626
0.358831 0.799268 0.000213626
0.625223 0.8215 0.0592813
0.848829 0.817227 0.121065
0.923125 0.79884 0.159289
0.036347 0.902373 0.000213626
0.378607 0.923125 0.0180819
0.617243 0.923125 0.0862745
0.810422 0.923125 0.166186
0.923125 0.923125 0.238773
0.00527962 0.000213626 0.109392
0.148486 0.000213626 0.143862
0.511528 0.000213626 0.108415
0.823331 0.000213626 0.0644083
0.923125 0.000213626 0.0420386
0.000213626 0.121721 0.0873884
0.170779 0.14609 0.115389
0.505928 0.147875 0.108217
0.814298 0.07776 0.0415656
0.923125 0.0545968 0.0148165
0.000213626 0.399649 0.111635
0.26891 0.478813 0.1402
0.587274 0.50869 0.156603
0.820005 0.42005 0.100938
0.923125 0.357397 0.0482643
0.0358587 0.725322 0.141909
0.381735 0.798856 0.169635
0.65536 0.806897 0.192782
0.845518 0.798688 0.218585
0.923125 0.772961 0.175372
0.0421912 0.914672 0.146029
0.406104 0.923125 0.178225
0.664759 0.923125 0.199695
0.831952 0.923125 0.32311
0.919722 0.923125 0.548028
0.000213626 0.000213626 0.361975
0.120424 0.000213626 0.493996
0.416739 0.000213626 0.511254
0.783047 0.000213626 0.394583
0.923125 0.000213626 0.275639
0.000213626 0.102525 0.378012
0.116548 0.117113 0.444099
0.434897 0.138155 0.526726
0.788952 0.0771344 0.405219
0.923125 0.021561 0.220218
0.000213626 0.332784 0.344472
0.176562 0.390311 0.366781
0.485771 0.438056 0.419303
0.77641 0.361959 0.387427
0.923033 0.20557 0.176684
0.000289921 0.693874 0.385473
0.260655 0.734462 0.413046
0.601892 0.77435 0.423758
0.824933 0.761837 0.452659
0.923125 0.682246 0.317678
0.0161135 0.910124 0.403449
0.306447 0.923125 0.422889
0.637156 0.923125 0.455283
0.858045 0.923125 0.498711
0.91548 0.923125 0.537697
0.000213626 0.000213626 0.644923
0.112444 0.000213626 0.713039
0.36437 0.000213626 0.838453
0.709163 0.000213626 0.819898
0.923125 0.000213626 0.750881
0.000213626 0.0708934 0.67953
0.0850996 0.0549783 0.692699
0.373236 0.133898 0.833341
0.715984 0.0968032 0.822507
0.923125 0.0466011 0.730007
0.000213626 0.280751 0.649653
0.0784161 0.271 0.663661
0.366323 0.353353 0.733684
0.725689 0.320607 0.788602
0.922591 0.227665 0.666865
0.000213626 0.583642 0.641611
0.16968 0.618479 0.65481
0.492683 0.69723 0.687877
0.776959 0.716548 0.721019
0.905928 0.547997 0.59939
0.000213626 0.855207 0.665171
0.24271 0.880049 0.674601
0.55639 0.923125 0.705882
0.825437 0.923125 0.722927
0.9131 0.917342 0.728634
0.000213626 0.000213626 0.844205
0.0977035 0.000213626 0.905318
0.366415 0.000213626 0.923125
0.660395 0.000213626 0.923125
0.893156 0.000213626 0.923125
0.000213626 0.0502785 0.893538
0.0614328 0.0298161 0.900877
0.357214 0.106554 0.923125
0.657938 0.103395 0.923125
0.895811 0.0526284 0.923125
0.000213626 0.248905 0.899168
0.0257115 0.22884 0.902434
0.267796 0.258595 0.91252
0.675425 0.322469 0.923125
0.89633 0.275578 0.923125
0.000213626 0.529976 0.873335
0.0726787 0.518776 0.878264
0.297887 0.53109 0.877226
0.683146 0.624643 0.908476
0.881422 0.557244 0.916793
0.000213626 0.802701 0.879133
0.158587 0.809232 0.879576
0.430167 0.848646 0.878157
0.759441 0.899321 0.889708
0.898619 0.897566 0.897337
