site/assets/luts/freshluts--0001409-africa.cube
# LUTr-Schema-Version: 2
# LUTr-ID: freshluts--0001409-africa
# LUTr-Title: AFRICA
# LUTr-Collection: Fresh LUTs
# LUTr-Collection-ID: freshluts-community
# LUTr-Source: https://freshluts.com
# LUTr-Retrieved: 2026-07-27
# LUTr-Source-File: submissions-raw/freshluts/cubes/1409__AFRICA_.cube
# LUTr-Source-Format: CUBE
# LUTr-Source-SHA256: 7f834ba138cf138464fccfbebe5704c8839965d6c6148673f5bb4cba2defffcf
# LUTr-License: CC0-1.0
# LUTr-License-URL: https://freshluts.com/termsandconditions
# LUTr-License-Basis: site-terms
# LUTr-Transform-Class: creative-look
# LUTr-Tags: creative, freshluts, community, cube, film-emulation, warm, bmd-film-4k
# LUTr-Input-Color-Space:
# LUTr-Input-Gamut: bmd-film-gamut
# LUTr-Input-Transfer: bmd-film-4k
# LUTr-Output-Color-Space: srgb
# LUTr-Output-Gamut: rec709
# LUTr-Output-Transfer: srgb
# LUTr-Color-Space-Confidence: camera-profile-input-required
# LUTr-Domain-Normalized: true
# LUTr-Shaper: none
# LUTr-Original-Grid: 33x33x33
# LUTr-Conversion-Grid: 33x33x33
# LUTr-Conversion-Interpolation: none
# LUTr-Conversion-Method: Metadata normalization; numeric LUT samples preserved
# LUTr-Conversion-Tool: LUTr scripts/convert-all-to-cube.mjs 2.0.0
# LUTr-Conversion-Date: 2026-07-28
# LUTr-Asset-URL: https://freshluts.com/luts/1409
# LUTr-Author: lanre
# LUTr-Author-URL: https://freshluts.com/users/157411
# LUTr-Attribution: lanre via Fresh LUTs
# LUTr-Source-Labels: gamma=Blackmagic BMD Film 4K; color=Warm; key=Neutral; style=Film emulation
# LUTr-Note: Preserve this metadata and the upstream license notices when redistributing.
TITLE "AFRICA"
LUT_3D_SIZE 33
DOMAIN_MIN 0 0 0
DOMAIN_MAX 1 1 1
0.131701 0.135668 0.135012
0.131701 0.135668 0.135012
0.132509 0.135912 0.135042
0.185046 0.155657 0.148516
0.320226 0.196262 0.172168
0.368399 0.210147 0.180331
0.391073 0.217075 0.184619
0.402502 0.220478 0.186618
0.40473 0.221149 0.186999
0.404746 0.221149 0.186999
0.404746 0.221149 0.186999
0.404746 0.221149 0.186999
0.404746 0.221149 0.186999
0.404746 0.221149 0.186999
0.404746 0.221149 0.186999
0.404746 0.221149 0.186999
0.404746 0.221149 0.186999
0.404746 0.221149 0.186999
0.404746 0.221149 0.186999
0.404746 0.221149 0.186999
0.404746 0.221149 0.186999
0.404746 0.221149 0.186999
0.404746 0.221149 0.186999
0.404746 0.221149 0.186999
0.404746 0.221149 0.186999
0.404746 0.221149 0.186999
0.404746 0.221149 0.186999
0.404746 0.221149 0.186999
0.404746 0.221149 0.186999
0.404746 0.221149 0.186999
0.404746 0.221149 0.186999
0.404746 0.221149 0.186999
0.404746 0.221149 0.186999
0.131701 0.135668 0.135012
0.131701 0.135668 0.135012
0.131701 0.135668 0.135012
0.13254 0.135927 0.135058
0.139818 0.138064 0.136095
0.186099 0.156054 0.148775
0.282277 0.186252 0.167224
0.347951 0.203998 0.176516
0.382681 0.214527 0.183093
0.40087 0.220005 0.186358
0.404685 0.221134 0.186984
0.404746 0.221149 0.186999
0.404746 0.221149 0.186999
0.404746 0.221149 0.186999
0.404746 0.221149 0.186999
0.404746 0.221149 0.186999
0.404746 0.221149 0.186999
0.404746 0.221149 0.186999
0.404746 0.221149 0.186999
0.404746 0.221149 0.186999
0.404746 0.221149 0.186999
0.404746 0.221149 0.186999
0.404746 0.221149 0.186999
0.404746 0.221149 0.186999
0.404746 0.221149 0.186999
0.404746 0.221149 0.186999
0.404746 0.221149 0.186999
0.404746 0.221149 0.186999
0.404746 0.221149 0.186999
0.404746 0.221149 0.186999
0.404746 0.221149 0.186999
0.404746 0.221149 0.186999
0.404746 0.221149 0.186999
0.131701 0.135668 0.135012
0.131701 0.135668 0.135012
0.131701 0.135668 0.135012
0.131701 0.135668 0.135012
0.132525 0.135927 0.135058
0.138521 0.13753 0.136019
0.175113 0.152102 0.146059
0.273198 0.183856 0.166033
0.344137 0.202899 0.175845
0.381735 0.214252 0.18291
0.400504 0.219898 0.186282
0.404715 0.221149 0.186999
0.404746 0.221149 0.186999
0.404746 0.221149 0.186999
0.404746 0.221149 0.186999
0.404746 0.221149 0.186999
0.404746 0.221149 0.186999
0.404746 0.221149 0.186999
0.404746 0.221149 0.186999
0.404746 0.221149 0.186999
0.404746 0.221149 0.186999
0.404746 0.221149 0.186999
0.404746 0.221149 0.186999
0.404746 0.221149 0.186999
0.404746 0.221149 0.186999
0.404746 0.221149 0.186999
0.404746 0.221149 0.186999
0.404746 0.221149 0.186999
0.404776 0.221149 0.186999
0.404746 0.221149 0.186999
0.404746 0.221149 0.186999
0.404746 0.221149 0.186999
0.404746 0.221149 0.186999
0.131701 0.135668 0.135012
0.131701 0.135668 0.135012
0.131701 0.135668 0.135012
0.131701 0.135668 0.135012
0.131762 0.135683 0.135012
0.133608 0.136217 0.135012
0.143786 0.139681 0.137163
0.203861 0.162417 0.153109
0.298161 0.190372 0.169177
0.359335 0.207309 0.178531
0.388281 0.216251 0.184131
0.402975 0.22063 0.186709
0.404746 0.221149 0.186999
0.404746 0.221149 0.186999
0.404746 0.221149 0.186999
0.404746 0.221149 0.186999
0.404746 0.221149 0.186999
0.404746 0.221149 0.186999
0.404746 0.221149 0.186999
0.404746 0.221149 0.186999
0.404746 0.221149 0.186999
0.404746 0.221149 0.186999
0.404746 0.221149 0.186999
0.404746 0.221149 0.186999
0.404746 0.221149 0.186999
0.404746 0.221149 0.186999
0.405325 0.221317 0.187091
0.406912 0.221759 0.18732
0.409125 0.222385 0.187655
0.409934 0.222614 0.187778
0.409827 0.222583 0.187762
0.40972 0.222553 0.187747
0.409659 0.222538 0.187732
0.131701 0.135668 0.135012
0.131701 0.135668 0.135012
0.131701 0.135668 0.135012
0.131701 0.135668 0.135012
0.131701 0.135668 0.135012
0.13225 0.135851 0.135042
0.136309 0.136751 0.135454
0.158953 0.14583 0.141527
0.242832 0.175265 0.161379
0.32285 0.196872 0.172396
0.368856 0.2103 0.180438
0.393042 0.217685 0.185
0.40412 0.220966 0.186892
0.404746 0.221149 0.186999
0.404746 0.221149 0.186999
0.404746 0.221149 0.186999
0.404746 0.221149 0.186999
0.404746 0.221149 0.186999
0.404746 0.221149 0.186999
0.404791 0.221164 0.186999
0.404852 0.22118 0.187015
0.404852 0.22118 0.187015
0.404791 0.221164 0.186999
0.404974 0.22121 0.18703
0.40734 0.221881 0.187366
0.409918 0.222614 0.187747
0.412192 0.223255 0.188098
0.414054 0.223804 0.188388
0.416861 0.224613 0.188769
0.417609 0.224826 0.188861
0.417304 0.22475 0.188815
0.417029 0.224659 0.188785
0.4168 0.224598 0.188754
0.131701 0.135805 0.135119
0.131701 0.135775 0.135088
0.131701 0.135744 0.135073
0.131701 0.135698 0.135042
0.131701 0.135698 0.135042
0.131807 0.135729 0.135042
0.133501 0.136202 0.135027
0.141756 0.138842 0.136584
0.186206 0.156161 0.148882
0.275639 0.184604 0.166506
0.340917 0.201953 0.175265
0.37908 0.213443 0.182406
0.398718 0.219379 0.185977
0.404669 0.221134 0.186984
0.404746 0.221149 0.186999
0.40502 0.221225 0.187045
0.405356 0.221332 0.187091
0.406378 0.221607 0.187243
0.406821 0.221744 0.18732
0.406622 0.221683 0.187274
0.408438 0.222187 0.187518
0.410605 0.222782 0.187823
0.413687 0.223651 0.188266
0.416388 0.224445 0.188693
0.418845 0.225193 0.189075
0.4215 0.225986 0.189471
0.424277 0.226795 0.189853
0.426795 0.227512 0.190173
0.429343 0.22826 0.190494
0.42977 0.228382 0.190555
0.429282 0.228229 0.190478
0.42887 0.228107 0.190417
0.42858 0.228016 0.190372
0.131716 0.136339 0.13547
0.131701 0.136324 0.135439
0.131716 0.136278 0.135409
0.131701 0.136217 0.135378
0.131701 0.136126 0.135332
0.131701 0.136034 0.135271
0.132555 0.136294 0.135302
0.136492 0.13724 0.135531
0.157473 0.145586 0.141268
0.241108 0.174685 0.1608
0.327016 0.198016 0.173022
0.376043 0.212497 0.181827
0.400061 0.219745 0.186175
0.41268 0.223392 0.188144
0.415686 0.224262 0.188602
0.416846 0.224613 0.1888
0.418296 0.225055 0.188952
0.419669 0.225406 0.189075
0.421561 0.22591 0.189334
0.423636 0.226505 0.189715
0.426017 0.227253 0.190173
0.428443 0.228031 0.190616
0.430762 0.228779 0.191028
0.433371 0.229557 0.191394
0.435706 0.23032 0.191882
0.437766 0.231006 0.19237
0.440131 0.231785 0.19292
0.442542 0.232578 0.193469
0.444862 0.233341 0.194003
0.445197 0.233448 0.19408
0.444511 0.233219 0.193912
0.443992 0.233036 0.193774
0.44358 0.232898 0.193683
0.131701 0.137331 0.135805
0.131685 0.13724 0.135805
0.131716 0.137148 0.135805
0.131716 0.137057 0.13576
0.131716 0.13698 0.135744
0.131731 0.136858 0.135714
0.131991 0.136904 0.135683
0.135332 0.138277 0.136263
0.153658 0.14548 0.141115
0.239231 0.175982 0.161044
0.337209 0.202121 0.174975
0.391287 0.217548 0.184741
0.420294 0.225605 0.189273
0.4365 0.230579 0.192081
0.443503 0.232914 0.193729
0.443839 0.233036 0.19382
0.444053 0.233097 0.193866
0.444617 0.23328 0.193973
0.445533 0.233524 0.19408
0.447074 0.234058 0.194507
0.448676 0.234607 0.194903
0.450233 0.235172 0.195346
0.452094 0.235813 0.19585
0.453834 0.236408 0.196292
0.455039 0.236805 0.196567
0.456718 0.237369 0.196979
0.458351 0.237934 0.197421
0.460243 0.23859 0.19791
0.462318 0.239307 0.198459
0.463127 0.239612 0.198688
0.462272 0.239307 0.198444
0.461646 0.239078 0.198291
0.461158 0.238911 0.198154
0.132097 0.139467 0.136248
0.132067 0.139406 0.136263
0.132097 0.139452 0.136339
0.132021 0.1393 0.136217
0.131975 0.139116 0.136141
0.131884 0.138811 0.13608
0.131823 0.138628 0.136034
0.133715 0.14052 0.136873
0.151034 0.149477 0.14435
0.230655 0.180041 0.163378
0.355871 0.216739 0.183337
0.420188 0.235218 0.194919
0.454215 0.243473 0.200793
0.472206 0.247501 0.203632
0.479866 0.248737 0.204685
0.477317 0.24509 0.20264
0.475227 0.244541 0.202258
0.477043 0.246113 0.203189
0.477623 0.246403 0.203357
0.479042 0.24715 0.2038
0.479912 0.247608 0.204013
0.479652 0.247211 0.203723
0.478401 0.245899 0.203052
0.477928 0.245472 0.202945
0.48014 0.247074 0.203983
0.482185 0.248264 0.204761
0.48629 0.25069 0.206317
0.490623 0.253056 0.207858
0.494499 0.255009 0.209125
0.496956 0.256123 0.209857
0.495247 0.255253 0.209262
0.493919 0.254582 0.208804
0.492851 0.254032 0.208438
0.135393 0.147768 0.140505
0.1355 0.148013 0.140642
0.135286 0.147524 0.140352
0.135134 0.147143 0.140154
0.134966 0.146685 0.139925
0.134539 0.145663 0.139376
0.133959 0.144289 0.138628
0.134646 0.145861 0.139452
0.146181 0.157977 0.146227
0.214466 0.193606 0.172824
0.353841 0.243153 0.197375
0.445899 0.271931 0.214725
0.495857 0.28365 0.223682
0.520821 0.287175 0.227634
0.530739 0.287373 0.229038
0.534005 0.284642 0.228367
0.532982 0.281636 0.226886
0.529137 0.278782 0.22501
0.526406 0.276738 0.223697
0.525017 0.27541 0.222889
0.524041 0.274495 0.222339
0.523354 0.274067 0.222004
0.523156 0.273472 0.221683
0.524407 0.27335 0.221698
0.524849 0.274586 0.222354
0.525811 0.275868 0.223133
0.527138 0.276982 0.223865
0.529 0.278645 0.224994
0.531365 0.280354 0.226169
0.534127 0.282429 0.227588
0.532662 0.281056 0.226719
0.531441 0.279927 0.226001
0.530449 0.279194 0.225498
0.141238 0.162051 0.148119
0.141283 0.162203 0.148211
0.140993 0.161517 0.147829
0.140673 0.160723 0.147402
0.140139 0.159365 0.146685
0.1393 0.157259 0.145556
0.13846 0.15523 0.144457
0.138796 0.156039 0.1449
0.145159 0.170596 0.152636
0.193805 0.214694 0.177584
0.338247 0.289143 0.230823
0.462043 0.335332 0.25005
0.528893 0.354391 0.261341
0.564828 0.35877 0.265812
0.575784 0.35227 0.264485
0.57583 0.341985 0.260441
0.572427 0.331121 0.255711
0.568505 0.323018 0.251774
0.565103 0.318135 0.249012
0.562539 0.314397 0.246891
0.560494 0.311498 0.245258
0.559457 0.309911 0.244373
0.558801 0.309514 0.244022
0.558556 0.308507 0.243595
0.558434 0.307698 0.243244
0.558877 0.309438 0.244022
0.559564 0.310399 0.244587
0.560678 0.311894 0.245457
0.56199 0.313588 0.246464
0.564141 0.316503 0.248127
0.564141 0.316609 0.248157
0.56321 0.315312 0.247425
0.562524 0.314382 0.246876
0.147448 0.178607 0.156786
0.147509 0.178882 0.156893
0.14699 0.177401 0.156115
0.146548 0.176089 0.155489
0.145892 0.174304 0.154574
0.145113 0.172198 0.153475
0.143954 0.169162 0.151827
0.143587 0.1682 0.151324
0.148974 0.18323 0.15906
0.174136 0.235798 0.183978
0.306218 0.311879 0.247288
0.464546 0.401053 0.305623
0.557168 0.437156 0.31751
0.603159 0.444495 0.318349
0.620829 0.437354 0.314351
0.620111 0.421637 0.305806
0.613413 0.403418 0.295964
0.60618 0.387213 0.287572
0.600275 0.375509 0.281315
0.596765 0.369329 0.27776
0.593881 0.364141 0.274815
0.591836 0.360403 0.272801
0.590845 0.358785 0.271839
0.589837 0.356878 0.270787
0.589075 0.355062 0.269856
0.589166 0.355444 0.269978
0.589746 0.356847 0.270695
0.591257 0.35964 0.272282
0.592721 0.362219 0.273762
0.59498 0.365957 0.275929
0.596338 0.368307 0.277256
0.595529 0.366934 0.276478
0.594934 0.365911 0.275898
0.152483 0.193973 0.164385
0.152529 0.19408 0.164446
0.152117 0.192752 0.163806
0.151736 0.191546 0.163226
0.151186 0.189807 0.162387
0.150271 0.186938 0.160998
0.149111 0.183307 0.159213
0.147845 0.179644 0.157366
0.152239 0.193301 0.164034
0.165316 0.235264 0.183246
0.2495 0.318013 0.224674
0.431556 0.413611 0.319524
0.561318 0.489357 0.368292
0.623255 0.510292 0.372915
0.653254 0.509529 0.3664
0.661906 0.499062 0.357427
0.658396 0.483818 0.347127
0.649241 0.465003 0.335607
0.640879 0.448768 0.325826
0.634836 0.437598 0.318944
0.631342 0.431327 0.314839
0.628641 0.426307 0.311788
0.626795 0.422904 0.309712
0.625559 0.420661 0.308278
0.624842 0.419272 0.307469
0.624994 0.419593 0.307652
0.625711 0.421103 0.308492
0.627161 0.423865 0.31014
0.629313 0.427771 0.312551
0.631922 0.432319 0.315496
0.634562 0.436912 0.318486
0.633753 0.435447 0.317571
0.63328 0.434592 0.317021
0.155947 0.205478 0.169787
0.155962 0.205554 0.169818
0.155612 0.204273 0.169238
0.155261 0.203037 0.168673
0.154772 0.20145 0.167926
0.154192 0.199527 0.167025
0.153384 0.196857 0.165774
0.152316 0.193362 0.164126
0.15462 0.201022 0.167712
0.164446 0.236545 0.183658
0.19704 0.309911 0.217762
0.359182 0.395453 0.288411
0.522667 0.489906 0.373068
0.621607 0.546181 0.409949
0.670893 0.563424 0.415381
0.692973 0.563104 0.410239
0.697246 0.55404 0.401328
0.693141 0.541207 0.391363
0.685267 0.52575 0.379965
0.677134 0.510933 0.369268
0.672557 0.502907 0.363302
0.669596 0.497719 0.359609
0.667643 0.494453 0.357382
0.666499 0.492653 0.35613
0.665873 0.49163 0.355428
0.666392 0.492515 0.3561
0.667262 0.494102 0.357214
0.66862 0.496391 0.358816
0.67071 0.499825 0.361227
0.673762 0.504967 0.36492
0.677317 0.510964 0.369375
0.677028 0.510475 0.368978
0.67686 0.51017 0.36875
0.15816 0.213306 0.173342
0.158175 0.213382 0.173373
0.1579 0.212406 0.17293
0.157671 0.211566 0.172564
0.157351 0.210391 0.172045
0.156847 0.208652 0.171252
0.156176 0.206226 0.170153
0.155337 0.203372 0.168841
0.155856 0.205142 0.16965
0.16434 0.236301 0.183551
0.180407 0.289082 0.20737
0.26363 0.376684 0.248875
0.457694 0.462638 0.347936
0.592493 0.549081 0.415732
0.673121 0.595376 0.446952
0.713603 0.610834 0.454032
0.729412 0.611917 0.452155
0.731044 0.605417 0.446097
0.726696 0.59588 0.438392
0.719829 0.584054 0.428779
0.714351 0.574853 0.421271
0.711437 0.569894 0.417197
0.709743 0.566949 0.414755
0.708507 0.564828 0.41297
0.707988 0.563958 0.412207
0.708232 0.564355 0.412543
0.709438 0.566384 0.414282
0.71133 0.569574 0.417014
0.713405 0.573068 0.42002
0.715984 0.577447 0.423789
0.719371 0.583047 0.428687
0.720424 0.584787 0.430198
0.720333 0.584649 0.430076
0.159686 0.218906 0.175845
0.159716 0.219043 0.175906
0.159533 0.218357 0.175601
0.159365 0.217762 0.175326
0.159121 0.2168 0.174914
0.158755 0.215488 0.174319
0.158251 0.213642 0.173495
0.157641 0.211475 0.172503
0.157397 0.210575 0.172122
0.163653 0.233707 0.182391
0.175631 0.278111 0.202182
0.214817 0.35314 0.237278
0.370565 0.436805 0.299428
0.538216 0.526009 0.396201
0.655589 0.603387 0.455299
0.722225 0.6421 0.483009
0.752377 0.654688 0.490379
0.763714 0.656992 0.491279
0.764569 0.654124 0.489357
0.76083 0.648005 0.484916
0.755856 0.640665 0.479271
0.752804 0.636179 0.475761
0.751003 0.633371 0.473365
0.749722 0.631388 0.47158
0.749477 0.631006 0.471244
0.750301 0.632258 0.472343
0.751369 0.633875 0.473793
0.753262 0.636698 0.47628
0.755276 0.639735 0.478965
0.757702 0.643381 0.4822
0.760937 0.648157 0.486473
0.762158 0.649973 0.488075
0.762341 0.650248 0.488319
0.160876 0.223377 0.177829
0.160906 0.223468 0.177874
0.160754 0.222919 0.17763
0.160616 0.222385 0.177386
0.160418 0.221622 0.17705
0.160159 0.22063 0.176608
0.159838 0.219501 0.176104
0.159411 0.217914 0.175387
0.158877 0.215961 0.174533
0.163287 0.23241 0.181811
0.173571 0.27039 0.198764
0.191287 0.326467 0.224292
0.277852 0.41384 0.266835
0.477378 0.499321 0.365881
0.614832 0.58764 0.442405
0.711849 0.65243 0.49218
0.766506 0.6851 0.516793
0.79028 0.697719 0.526177
0.797559 0.70135 0.52987
0.798123 0.700755 0.530434
0.796094 0.697978 0.529061
0.793622 0.694774 0.527062
0.791348 0.691768 0.524834
0.790356 0.690379 0.523644
0.790478 0.690547 0.523781
0.791409 0.691814 0.524865
0.792554 0.693416 0.526268
0.794202 0.695674 0.528237
0.796201 0.698421 0.530617
0.798123 0.701076 0.532921
0.800977 0.705028 0.536339
0.803006 0.70779 0.53872
0.803342 0.708263 0.539132
0.161852 0.22707 0.179446
0.161898 0.227192 0.179507
0.161746 0.226642 0.179263
0.161608 0.226139 0.179034
0.161471 0.225605 0.178805
0.161288 0.224964 0.178515
0.161089 0.224125 0.178149
0.160769 0.222965 0.177646
0.160555 0.222126 0.177264
0.163058 0.231434 0.181399
0.171893 0.264363 0.196033
0.184756 0.311299 0.217212
0.238087 0.391577 0.25507
0.401114 0.474266 0.31928
0.567483 0.563714 0.421225
0.685924 0.645212 0.485481
0.76437 0.698421 0.527749
0.804715 0.724086 0.548165
0.822675 0.736385 0.558923
0.828321 0.741436 0.564431
0.829541 0.74284 0.566812
0.829709 0.743328 0.568154
0.828931 0.742535 0.568139
0.827787 0.74107 0.567071
0.827893 0.741222 0.567193
0.828504 0.742016 0.567864
0.829358 0.74316 0.568826
0.831022 0.745373 0.570672
0.832746 0.747631 0.572564
0.83418 0.749554 0.574182
0.836164 0.752148 0.576364
0.837797 0.754299 0.578134
0.838239 0.754879 0.578607
0.162676 0.230228 0.180804
0.162676 0.230243 0.180819
0.16257 0.229847 0.180652
0.162539 0.229694 0.180591
0.162448 0.229328 0.180423
0.162325 0.228855 0.180224
0.162158 0.228183 0.179934
0.161868 0.2271 0.179461
0.161608 0.226108 0.179019
0.163546 0.233341 0.182239
0.171283 0.26215 0.195041
0.183124 0.305119 0.214405
0.208057 0.370062 0.244373
0.328679 0.454627 0.290684
0.521019 0.541421 0.397131
0.651637 0.628199 0.471366
0.751644 0.698772 0.526772
0.80972 0.738659 0.559518
0.836774 0.758144 0.576318
0.848707 0.768704 0.586404
0.854154 0.775036 0.593011
0.856489 0.778286 0.596719
0.857084 0.779309 0.598306
0.857298 0.779736 0.5991
0.85713 0.779553 0.598962
0.857633 0.780194 0.599496
0.858763 0.781659 0.600687
0.859892 0.783123 0.601892
0.860746 0.784237 0.602777
0.861662 0.785412 0.603754
0.862837 0.786938 0.604974
0.864332 0.788876 0.606561
0.864698 0.789349 0.606943
0.163317 0.232685 0.181903
0.163378 0.232929 0.18201
0.163378 0.232929 0.18201
0.163287 0.232563 0.181842
0.16318 0.232151 0.181659
0.163073 0.231754 0.181491
0.162951 0.231266 0.181277
0.162814 0.230762 0.181048
0.1626 0.229923 0.180697
0.16466 0.237629 0.1841
0.171283 0.262654 0.195178
0.182132 0.301732 0.212848
0.203586 0.358175 0.238926
0.286305 0.439261 0.277272
0.471015 0.522805 0.365316
0.616846 0.608499 0.454994
0.727794 0.68751 0.51693
0.803571 0.741619 0.560937
0.84361 0.770581 0.585657
0.861067 0.785657 0.599634
0.869307 0.794751 0.60853
0.874067 0.800961 0.614725
0.876585 0.804501 0.618433
0.877623 0.806012 0.620172
0.878019 0.806561 0.620783
0.878355 0.807004 0.621134
0.878798 0.807568 0.621576
0.879637 0.808652 0.622431
0.880079 0.809232 0.622904
0.880644 0.809964 0.623484
0.881514 0.811109 0.624384
0.882429 0.812268 0.625315
0.88275 0.812696 0.62565
0.163409 0.233005 0.182055
0.163409 0.233005 0.182055
0.163409 0.233005 0.18204
0.163409 0.233021 0.182055
0.163409 0.233021 0.182055
0.163409 0.233021 0.182055
0.163409 0.233021 0.182055
0.163378 0.232929 0.18201
0.163363 0.232822 0.181964
0.165316 0.240223 0.185245
0.171984 0.265309 0.196338
0.182422 0.3028 0.213336
0.199466 0.355016 0.237263
0.26302 0.428992 0.272938
0.432517 0.509178 0.340719
0.592889 0.597833 0.443015
0.705287 0.674968 0.506783
0.79411 0.739849 0.558343
0.842771 0.775189 0.588495
0.867262 0.795377 0.60676
0.879011 0.807538 0.618265
0.885161 0.81529 0.625742
0.888502 0.819852 0.63032
0.890562 0.822721 0.633265
0.8916 0.82414 0.634684
0.891722 0.824308 0.634821
0.892134 0.824857 0.635264
0.892576 0.825406 0.635691
0.892683 0.825559 0.635798
0.893126 0.826108 0.63624
0.893553 0.826688 0.636683
0.894072 0.827359 0.637201
0.894377 0.827741 0.637507
0.163409 0.233021 0.182055
0.163409 0.233021 0.182055
0.163409 0.233021 0.182055
0.163409 0.233021 0.182055
0.163409 0.233021 0.182055
0.163409 0.233021 0.182055
0.163409 0.233021 0.182055
0.163409 0.233021 0.182055
0.163638 0.233875 0.182422
0.166155 0.243351 0.186618
0.173083 0.26894 0.198047
0.183246 0.305806 0.214725
0.197086 0.352239 0.235813
0.249729 0.426719 0.272023
0.397452 0.502235 0.322286
0.571801 0.587152 0.431571
0.686732 0.665095 0.498543
0.781353 0.734081 0.55317
0.839918 0.777096 0.589075
0.87042 0.801465 0.610925
0.884962 0.815641 0.624231
0.892012 0.824079 0.632334
0.8963 0.829831 0.637903
0.899367 0.834043 0.642023
0.900603 0.835737 0.643687
0.900954 0.83621 0.644129
0.901183 0.836515 0.644343
0.901183 0.83653 0.644358
0.901366 0.836744 0.644541
0.901762 0.837278 0.644953
0.902037 0.837613 0.645212
0.902342 0.83801 0.645518
0.902556 0.838285 0.645731
0.163409 0.233021 0.182055
0.163409 0.233021 0.182055
0.163409 0.233021 0.182055
0.163409 0.233021 0.182055
0.163409 0.233021 0.182055
0.163409 0.233021 0.182055
0.163409 0.233021 0.182055
0.163409 0.233021 0.182055
0.163622 0.233829 0.182406
0.167056 0.246754 0.188113
0.174166 0.272938 0.199817
0.184192 0.3093 0.216297
0.198352 0.3561 0.237613
0.246998 0.42681 0.271382
0.383322 0.498634 0.316167
0.560922 0.583169 0.42591
0.676616 0.661173 0.494682
0.770901 0.729015 0.548775
0.837186 0.77792 0.589029
0.872831 0.805905 0.613916
0.889235 0.821393 0.628351
0.897276 0.830869 0.637369
0.902159 0.837324 0.643549
0.905028 0.841306 0.647456
0.906645 0.843519 0.649683
0.907042 0.844068 0.650202
0.907179 0.844251 0.650339
0.907347 0.84448 0.650523
0.907515 0.844694 0.65069
0.9075 0.844663 0.65066
0.907622 0.844831 0.650782
0.907958 0.845258 0.651118
0.908156 0.845502 0.651301
0.163409 0.233021 0.182055
0.163409 0.233021 0.182055
0.163409 0.233021 0.182055
0.163409 0.233021 0.182055
0.163409 0.233021 0.182055
0.163409 0.233021 0.182055
0.163409 0.233021 0.182055
0.163409 0.233036 0.182071
0.164599 0.237476 0.184024
0.168414 0.25182 0.190372
0.175784 0.278889 0.202502
0.185901 0.31545 0.219089
0.199893 0.362005 0.240177
0.253574 0.430732 0.274174
0.396948 0.502602 0.322698
0.561654 0.584604 0.426291
0.670451 0.656229 0.491112
0.76939 0.728878 0.548302
0.83595 0.778424 0.588952
0.872389 0.806989 0.614313
0.890608 0.823743 0.629862
0.89958 0.83386 0.63946
0.904753 0.840604 0.645899
0.90837 0.845579 0.65066
0.910918 0.849058 0.653941
0.911299 0.849561 0.654398
0.910887 0.849027 0.654002
0.910735 0.848844 0.65388
0.910765 0.848875 0.653895
0.910979 0.849149 0.654093
0.911269 0.849531 0.654383
0.911254 0.849515 0.654368
0.911131 0.849363 0.654261
0.163409 0.233021 0.182055
0.163409 0.233021 0.182055
0.163409 0.233021 0.182055
0.163409 0.233021 0.182055
0.163409 0.233021 0.182055
0.163409 0.233021 0.182055
0.163409 0.233021 0.182055
0.163607 0.233768 0.182376
0.16492 0.238636 0.184543
0.16968 0.256748 0.192508
0.177676 0.285649 0.205585
0.187686 0.322133 0.22208
0.203601 0.368246 0.243336
0.263752 0.440009 0.278035
0.402823 0.507958 0.325734
0.567163 0.586709 0.429755
0.676539 0.661616 0.494896
0.766949 0.727153 0.547219
0.833707 0.776837 0.58764
0.871351 0.80621 0.613565
0.889982 0.823209 0.629297
0.899458 0.833814 0.639261
0.905058 0.841016 0.646097
0.908736 0.846021 0.650904
0.910796 0.848844 0.653635
0.911528 0.849867 0.654643
0.911528 0.849867 0.654643
0.911528 0.849867 0.654643
0.911528 0.849867 0.654643
0.911528 0.849867 0.654643
0.911528 0.849867 0.654643
0.911528 0.849867 0.654643
0.911528 0.849867 0.654643
0.163409 0.233021 0.182055
0.163409 0.233021 0.182055
0.163409 0.233021 0.182055
0.163409 0.233021 0.182055
0.163409 0.233021 0.182055
0.163409 0.233021 0.182055
0.163409 0.233021 0.182055
0.163806 0.234455 0.182681
0.166476 0.244556 0.187152
0.171801 0.264424 0.195987
0.179843 0.293462 0.209125
