site/assets/luts/freshluts--0001172-fantasma.cube
# LUTr-Schema-Version: 2
# LUTr-ID: freshluts--0001172-fantasma
# LUTr-Title: Fantasma
# LUTr-Collection: Fresh LUTs
# LUTr-Collection-ID: freshluts-community
# LUTr-Source: https://freshluts.com
# LUTr-Retrieved: 2026-07-27
# LUTr-Source-File: submissions-raw/freshluts/cubes/1172__LEONORA_total_cyan.cube
# LUTr-Source-Format: CUBE
# LUTr-Source-SHA256: 0b75d9e7bc155a62d14f2582201d686ba07a29251d6fdfd5dbbd18aefea6982a
# LUTr-License: CC0-1.0
# LUTr-License-URL: https://freshluts.com/termsandconditions
# LUTr-License-Basis: site-terms
# LUTr-Transform-Class: creative-look
# LUTr-Tags: creative, freshluts, community, cube, yellow, low-key, sony-s-log2
# LUTr-Input-Color-Space:
# LUTr-Input-Gamut: sony-s-gamut
# LUTr-Input-Transfer: sony-s-log2
# LUTr-Output-Color-Space: srgb
# LUTr-Output-Gamut: rec709
# LUTr-Output-Transfer: srgb
# LUTr-Color-Space-Confidence: camera-profile-input-required
# LUTr-Domain-Normalized: true
# LUTr-Shaper: none
# LUTr-Original-Grid: 25x25x25
# LUTr-Conversion-Grid: 25x25x25
# LUTr-Conversion-Interpolation: none
# LUTr-Conversion-Method: Metadata normalization; numeric LUT samples preserved
# LUTr-Conversion-Tool: LUTr scripts/convert-all-to-cube.mjs 2.0.0
# LUTr-Conversion-Date: 2026-07-28
# LUTr-Asset-URL: https://freshluts.com/luts/1172
# LUTr-Author: Jesús Herrera Jaimes
# LUTr-Author-URL: https://freshluts.com/users/15209
# LUTr-Attribution: Jesús Herrera Jaimes via Fresh LUTs
# LUTr-Source-Labels: gamma=Sony S-Log 2; color=Yellow; key=Low Key; style=Cinematic/Dark
# LUTr-Note: Preserve this metadata and the upstream license notices when redistributing.
# LUTr-Upstream-Comment: Generated with IWLTBAP LUT Generator
# LUTr-Upstream-Comment: Website: http://luts.iwltbap.com
# LUTr-Upstream-Comment: LUT size
# LUTr-Upstream-Comment: LUT data points
TITLE "Fantasma"
LUT_3D_SIZE 5
DOMAIN_MIN 0 0 0
DOMAIN_MAX 1 1 1
0.180392 0 0
0.176471 0.019608 0.05098
0.066667 0.168627 0.164706
0 0.352941 0.32549
0 0.705882 0.639216
0.14902 0.101961 0.109804
0.070588 0.168627 0.156863
0 0.27451 0.243137
0.003922 0.423529 0.384314
0 0.760784 0.698039
0 0.290196 0.27451
0 0.396078 0.372549
0 0.486275 0.439216
0 0.635294 0.576471
0.007843 0.862745 0.796078
0.003922 0.65098 0.596078
0 0.737255 0.678431
0.003922 0.768627 0.705882
0 0.827451 0.760784
0 0.996078 0.92549
0 0.996078 1
0.003922 1 1
0 1 1
0 0.996078 0.996078
0 1 1
0.184314 0 0.023529
0.172549 0.05098 0.07451
0.011765 0.188235 0.176471
0 0.301961 0.278431
0 0.639216 0.576471
0.145098 0.109804 0.113725
0.027451 0.180392 0.168627
0 0.270588 0.25098
0 0.403922 0.368627
0.007843 0.721569 0.662745
0.003922 0.301961 0.286275
0 0.388235 0.34902
0 0.470588 0.431373
0.003922 0.615686 0.564706
0 0.839216 0.776471
0.007843 0.623529 0.580392
0 0.705882 0.647059
0 0.745098 0.686275
0 0.811765 0.741176
0.007843 0.980392 0.909804
0 1 0.984314
0.003922 1 0.992157
0 1 1
0 0.996078 1
0 1 1
0.152941 0.094118 0.105882
0.105882 0.141176 0.137255
0 0.215686 0.196078
0 0.333333 0.305882
0.011765 0.670588 0.603922
0.003922 0.196078 0.172549
0 0.243137 0.223529
0.003922 0.305882 0.282353
0 0.454902 0.419608
0 0.74902 0.698039
0 0.305882 0.286275
0 0.396078 0.372549
0 0.537255 0.498039
0.003922 0.65098 0.596078
0.007843 0.858824 0.784314
0 0.670588 0.607843
0 0.752941 0.694118
0 0.784314 0.721569
0 0.839216 0.768627
0.003922 0.996078 0.913725
0 1 0.976471
0 1 1
0 1 0.996078
0 0.996078 0.996078
0.003922 1 1
0 0.203922 0.188235
0 0.231373 0.215686
0.003922 0.290196 0.262745
0 0.4 0.364706
0.003922 0.670588 0.627451
0 0.27451 0.243137
0 0.321569 0.305882
0 0.392157 0.360784
0.007843 0.501961 0.458824
0.003922 0.752941 0.690196
0 0.415686 0.376471
0 0.505882 0.466667
0 0.596078 0.54902
0 0.654902 0.603922
0 0.862745 0.780392
0 0.572549 0.521569
0 0.65098 0.603922
0 0.72549 0.670588
0.003922 0.854902 0.780392
0 0.992157 0.909804
0 1 0.913725
0 1 0.937255
0 0.996078 0.988235
0 1 1
0 1 1
0 0.47451 0.439216
0.003922 0.501961 0.458824
0 0.568627 0.517647
0.003922 0.654902 0.607843
0 0.823529 0.74902
0 0.505882 0.466667
0.011765 0.584314 0.541176
0 0.635294 0.584314
0 0.721569 0.666667
0.003922 0.858824 0.792157
0 0.647059 0.584314
0 0.709804 0.65098
0 0.745098 0.686275
0 0.807843 0.737255
0.007843 0.917647 0.854902
0.003922 0.737255 0.670588
0 0.784314 0.721569
0.007843 0.835294 0.768627
0 0.92549 0.847059
0 0.996078 0.92549
0 0.901961 0.823529
0 0.945098 0.870588
0 0.984314 0.901961
0 1 0.956863
1 1 1
