site/assets/luts/freshluts--0002164-til.cube
# LUTr-Schema-Version: 2
# LUTr-ID: freshluts--0002164-til
# LUTr-Title: Til
# LUTr-Collection: Fresh LUTs
# LUTr-Collection-ID: freshluts-community
# LUTr-Source: https://freshluts.com
# LUTr-Retrieved: 2026-07-27
# LUTr-Source-File: submissions-raw/freshluts/cubes/2164__Til_10.C0004.cube
# LUTr-Source-Format: CUBE
# LUTr-Source-SHA256: cc6b99e405fd5a0005cb18cbcfab74c9e443344aba17a478a91304c1a2eaa82b
# LUTr-License: CC0-1.0
# LUTr-License-URL: https://freshluts.com/termsandconditions
# LUTr-License-Basis: site-terms
# LUTr-Transform-Class: creative-look
# LUTr-Tags: creative, freshluts, community, cube, teal, sony-s-log1
# LUTr-Input-Color-Space:
# LUTr-Input-Gamut: sony-s-gamut
# LUTr-Input-Transfer: sony-s-log1
# LUTr-Output-Color-Space: srgb
# LUTr-Output-Gamut: rec709
# LUTr-Output-Transfer: srgb
# LUTr-Color-Space-Confidence: camera-profile-input-required
# LUTr-Domain-Normalized: true
# LUTr-Shaper: none
# LUTr-Original-Grid: 33x33x33
# LUTr-Conversion-Grid: 33x33x33
# LUTr-Conversion-Interpolation: none
# LUTr-Conversion-Method: Metadata normalization; numeric LUT samples preserved
# LUTr-Conversion-Tool: LUTr scripts/convert-all-to-cube.mjs 2.0.0
# LUTr-Conversion-Date: 2026-07-28
# LUTr-Asset-URL: https://freshluts.com/luts/2164
# LUTr-Author: lvannoeun@gmail.com
# LUTr-Author-URL: https://freshluts.com/users/57563
# LUTr-Attribution: lvannoeun@gmail.com via Fresh LUTs
# LUTr-Source-Labels: gamma=Sony S-Log; color=Teal; key=Neutral; style=Correction
# LUTr-Note: Preserve this metadata and the upstream license notices when redistributing.
TITLE "Til"
LUT_3D_SIZE 33
DOMAIN_MIN 0 0 0
DOMAIN_MAX 1 1 1
0.000274662 0.00355535 0.000747692
0.00326543 0.00352483 0.000961318
0.0327001 0.00665293 0.00505074
0.0749371 0.0108034 0.0109407
0.125032 0.0167544 0.0179294
0.169116 0.0240024 0.0263523
0.208286 0.0333715 0.0365606
0.243671 0.0457771 0.0493935
0.276585 0.0632792 0.068513
0.30695 0.0838026 0.0921798
0.336156 0.103212 0.113558
0.364752 0.123919 0.135805
0.392905 0.145846 0.159518
0.420768 0.166888 0.184146
0.449027 0.191318 0.2094
0.477089 0.216434 0.234821
0.505333 0.241032 0.260365
0.533867 0.2663 0.285908
0.562722 0.291752 0.311589
0.591959 0.316945 0.337102
0.621622 0.342397 0.362661
0.652018 0.367926 0.388388
0.683299 0.393469 0.413016
0.715633 0.418647 0.436835
0.749447 0.444389 0.460456
0.785534 0.469917 0.483452
0.82475 0.49633 0.506752
0.871092 0.524208 0.530816
0.93051 0.554696 0.55639
0.940536 0.574807 0.575341
0.948882 0.595026 0.594903
0.957412 0.615167 0.614771
0.966369 0.635782 0.635523
0.00932326 0.0306554 0.0118257
0.00935378 0.0247349 0.00764477
0.0357061 0.0271458 0.0114748
0.0751812 0.0327916 0.0176242
0.122713 0.039765 0.0250553
0.164935 0.0496834 0.0337682
0.203189 0.0633402 0.0439612
0.237964 0.0791333 0.0565805
0.270832 0.0933547 0.0759136
0.302098 0.107637 0.095964
0.332189 0.124804 0.11548
0.361074 0.143526 0.136095
0.389441 0.161669 0.15845
0.418006 0.180819 0.181842
0.446357 0.202625 0.205905
0.474601 0.224582 0.230381
0.503182 0.246769 0.255238
0.531823 0.269963 0.280308
0.560647 0.293248 0.305303
0.58941 0.317479 0.331151
0.618601 0.34226 0.356863
0.648432 0.366796 0.382589
0.679393 0.391791 0.407645
0.711269 0.416648 0.431632
0.744396 0.441566 0.455253
0.779904 0.467094 0.478599
0.818372 0.492912 0.5019
0.862715 0.51986 0.525948
0.919036 0.549844 0.551156
0.939452 0.572045 0.571527
0.947662 0.591928 0.590951
0.95613 0.611978 0.610742
0.964858 0.632517 0.631205
0.022858 0.0785229 0.027985
0.0230564 0.0713512 0.0227512
0.0459907 0.0723583 0.0259861
0.0838941 0.0751965 0.0307927
0.123003 0.0808118 0.0370336
0.162631 0.0897688 0.04477
0.199313 0.0992905 0.0541848
0.233433 0.108995 0.0675669
0.266117 0.119738 0.0845502
0.297246 0.134127 0.10222
0.32726 0.148714 0.119783
0.356252 0.163714 0.139406
0.384787 0.179355 0.160327
0.413275 0.197192 0.182422
0.441566 0.216129 0.205386
0.469917 0.235599 0.229145
0.49836 0.255863 0.2533
0.527001 0.276783 0.277729
0.55581 0.298558 0.302602
0.585077 0.320775 0.327474
0.614633 0.343374 0.352422
0.644907 0.366766 0.377768
0.675822 0.390433 0.402304
0.707256 0.414878 0.426535
0.740047 0.439384 0.450431
0.774731 0.464363 0.473777
0.812284 0.489723 0.497215
0.855512 0.516472 0.521385
0.90869 0.545342 0.546181
0.938399 0.56936 0.56791
0.946548 0.589303 0.587274
0.954864 0.609186 0.606912
0.963561 0.629419 0.627176
0.0395209 0.127687 0.0445411
0.0399176 0.119051 0.0378882
0.065095 0.118791 0.0407721
0.0952773 0.12018 0.0449378
0.127123 0.123079 0.0504463
0.164218 0.127886 0.0583047
0.198718 0.134188 0.0688945
0.231785 0.142153 0.0813306
0.263615 0.151156 0.0950332
0.294026 0.161944 0.109895
0.323812 0.173083 0.126299
0.352529 0.18555 0.144213
0.380987 0.199496 0.163622
0.409155 0.214694 0.184085
0.437385 0.230991 0.206043
0.465583 0.248051 0.228656
0.49398 0.266117 0.252033
0.522637 0.285237 0.275959
0.551232 0.304936 0.30016
0.580316 0.325567 0.32459
0.609949 0.347051 0.349447
0.639887 0.368963 0.374228
0.670893 0.391485 0.39852
0.702754 0.41445 0.422339
0.735653 0.43769 0.445655
0.769894 0.461997 0.46894
0.806912 0.487175 0.492668
0.848569 0.513222 0.516579
0.899687 0.54139 0.541421
0.93756 0.567117 0.564279
0.945556 0.586557 0.583597
0.953796 0.60647 0.603128
0.962432 0.626368 0.623362
0.0588846 0.170245 0.0652323
0.0610819 0.161959 0.0557717
0.0861219 0.160388 0.0591592
0.109163 0.16054 0.0635691
0.139406 0.162264 0.0695354
0.170016 0.165118 0.0770275
0.20116 0.169329 0.0855726
0.232441 0.174929 0.0951858
0.262684 0.181903 0.106157
0.292622 0.189868 0.118837
0.321614 0.198749 0.134203
0.349752 0.209293 0.150378
0.377905 0.220691 0.168048
0.405722 0.233417 0.186999
0.433661 0.247105 0.207507
0.46183 0.261967 0.229129
0.489891 0.278019 0.251575
0.518242 0.294957 0.274571
0.546899 0.312963 0.298268
0.575952 0.331792 0.32224
0.605234 0.351614 0.346578
0.635157 0.372366 0.371237
0.66598 0.393698 0.395315
0.697566 0.415564 0.418784
0.730388 0.437858 0.442084
0.764813 0.461173 0.464836
0.801724 0.484855 0.487907
0.842557 0.510552 0.51191
0.891218 0.537865 0.536675
0.936751 0.565072 0.560555
0.94464 0.584421 0.579873
0.952758 0.603845 0.599512
0.961242 0.623682 0.619547
0.0797436 0.208179 0.088777
0.0849012 0.200366 0.0793011
0.10605 0.198184 0.0820325
0.12694 0.197253 0.085069
0.151202 0.197986 0.0894331
0.176303 0.199847 0.0945602
0.206088 0.202564 0.100862
0.235477 0.20647 0.108492
0.264088 0.211566 0.117739
0.292744 0.217502 0.129793
0.320607 0.224765 0.143145
0.348287 0.233112 0.157595
0.375525 0.242405 0.173419
0.402884 0.25301 0.190921
0.430716 0.264622 0.210163
0.458305 0.277211 0.230533
0.48603 0.291234 0.251804
0.514275 0.306157 0.274083
0.542763 0.322255 0.296895
0.571466 0.339361 0.320287
0.600855 0.357717 0.344213
0.630488 0.376883 0.368307
0.661143 0.396857 0.392142
0.692638 0.417792 0.415625
0.725063 0.439094 0.438697
0.759075 0.46128 0.461311
0.795758 0.484474 0.484306
0.835996 0.508553 0.507652
0.883513 0.534829 0.531838
0.936141 0.563363 0.557031
0.943832 0.582284 0.576196
0.951888 0.601617 0.595636
0.960174 0.621347 0.615625
0.0993362 0.242679 0.108629
0.108537 0.23537 0.100359
0.126802 0.232959 0.102007
0.143801 0.23151 0.104036
0.163104 0.23125 0.107042
0.186954 0.23238 0.110918
0.213275 0.234058 0.115236
0.239643 0.236515 0.122118
0.266743 0.240223 0.130938
0.293812 0.244816 0.141238
0.320851 0.250416 0.153033
0.347448 0.257069 0.165743
0.374182 0.264729 0.179706
0.401114 0.273381 0.195895
0.428107 0.282872 0.213642
0.455253 0.293782 0.232593
0.48278 0.305806 0.252888
0.510689 0.318715 0.274128
0.538781 0.333318 0.296117
0.567468 0.348623 0.318898
0.596338 0.365255 0.342229
0.62594 0.382742 0.365759
0.656565 0.401373 0.389303
0.687602 0.420905 0.412589
0.71986 0.44126 0.435172
0.75378 0.462455 0.457847
0.789593 0.484688 0.480659
0.829313 0.507881 0.504067
0.875471 0.532952 0.527886
0.93518 0.561822 0.553353
0.943175 0.580545 0.572396
0.951064 0.599634 0.591867
0.959319 0.619013 0.611734
0.118135 0.275151 0.127184
0.130938 0.268223 0.119539
0.14548 0.265614 0.120699
0.159258 0.263554 0.122301
0.176898 0.262562 0.124895
0.198596 0.262715 0.128435
0.221317 0.263874 0.132784
0.244755 0.265736 0.137392
0.270726 0.267918 0.144488
0.296529 0.271412 0.153307
0.322225 0.275685 0.163317
0.34786 0.280995 0.174319
0.373846 0.287022 0.187167
0.399847 0.29424 0.201694
0.4262 0.302235 0.217945
0.452964 0.311284 0.23566
0.480049 0.321523 0.254704
0.507454 0.332876 0.274922
0.535393 0.345296 0.296056
0.56347 0.358999 0.317968
0.592233 0.373831 0.340612
0.62182 0.390051 0.363622
0.65185 0.407156 0.386709
0.682933 0.425361 0.409552
0.715068 0.444312 0.432181
0.748348 0.464576 0.454414
0.783993 0.485695 0.477333
0.822736 0.507912 0.50042
0.867491 0.531914 0.523964
0.924498 0.559518 0.54931
0.942214 0.579248 0.568673
0.950469 0.597681 0.587945
0.95848 0.616861 0.608057
0.136614 0.30602 0.145449
0.150973 0.29958 0.140673
0.164019 0.296681 0.141558
0.17731 0.294301 0.142535
0.192889 0.292836 0.144259
0.210376 0.292424 0.146899
0.229191 0.292576 0.150286
0.251835 0.293645 0.153933
0.275669 0.295201 0.158007
0.299962 0.297566 0.165042
0.324651 0.300572 0.173587
0.349126 0.304814 0.183474
0.374166 0.30959 0.195071
0.399466 0.315419 0.208316
0.425101 0.322103 0.223255
0.451255 0.329656 0.239506
0.477852 0.338445 0.257481
0.504829 0.348043 0.276509
0.532052 0.358801 0.296605
0.559945 0.370855 0.317754
0.588449 0.384146 0.339666
0.617594 0.398688 0.361868
0.6477 0.414237 0.384497
0.678279 0.430838 0.407034
0.710048 0.448569 0.429114
0.743343 0.46772 0.45124
0.778302 0.487663 0.473777
0.816403 0.508812 0.496757
0.860166 0.532021 0.520302
0.914137 0.557977 0.545098
0.940887 0.579156 0.565789
0.949264 0.596872 0.584649
0.957809 0.615106 0.603754
0.155383 0.335286 0.16376
0.17055 0.329397 0.161166
0.183429 0.326452 0.161578
0.194736 0.323751 0.16199
0.206775 0.321981 0.16289
0.220829 0.320714 0.164691
0.238636 0.320333 0.167071
0.259571 0.320684 0.170001
0.281483 0.321447 0.173098
0.304234 0.323125 0.176669
0.327642 0.325353 0.184009
0.351263 0.328374 0.193179
0.375494 0.332158 0.203708
0.399878 0.336812 0.215656
0.424796 0.342245 0.229175
0.450172 0.348653 0.244312
0.476066 0.356069 0.260884
0.502449 0.364263 0.278813
0.529305 0.373602 0.297948
0.556832 0.383993 0.31812
0.584939 0.395651 0.339193
0.614008 0.408469 0.36083
0.643473 0.422644 0.382635
0.673686 0.437919 0.404562
0.705425 0.454337 0.426261
0.738094 0.472053 0.448112
0.772854 0.490761 0.470573
0.810376 0.510658 0.493309
0.852857 0.53254 0.516518
0.904814 0.557504 0.541207
0.939727 0.579522 0.562921
0.947921 0.596826 0.581567
0.956436 0.614679 0.600397
0.175036 0.363516 0.182681
0.190631 0.358511 0.180896
0.202075 0.355413 0.180835
0.211414 0.352514 0.180728
0.221149 0.34995 0.180911
0.234485 0.348409 0.181979
0.251255 0.347463 0.183642
0.269505 0.347112 0.18587
0.288746 0.347356 0.18851
0.309483 0.34844 0.191623
0.331502 0.349996 0.195209
0.354177 0.352193 0.203113
0.377401 0.35491 0.212528
0.400793 0.358709 0.223392
0.424994 0.363226 0.235813
0.449592 0.368536 0.249683
0.474769 0.374472 0.265049
0.500679 0.381399 0.281834
0.527108 0.389425 0.29984
0.55407 0.398413 0.319142
0.581903 0.408545 0.339345
0.610285 0.419989 0.360052
0.639429 0.432578 0.381262
0.669779 0.446159 0.402502
0.700862 0.461234 0.423636
0.73344 0.477485 0.445274
0.767544 0.494682 0.467521
0.804349 0.513756 0.489921
0.846128 0.534432 0.513085
0.895842 0.557687 0.53724
0.938537 0.580468 0.560174
0.9467 0.59733 0.578576
0.955047 0.614649 0.597238
0.194629 0.391012 0.201877
0.209857 0.386526 0.200839
0.22005 0.38323 0.20032
0.228779 0.380194 0.199725
0.238315 0.377386 0.199435
0.249928 0.375601 0.199786
0.26389 0.374075 0.200763
0.279271 0.373266 0.202426
0.296208 0.372915 0.204501
0.315602 0.373297 0.206958
0.336126 0.374441 0.209995
0.357626 0.375875 0.213245
0.379797 0.378073 0.221683
0.402426 0.380926 0.231586
0.425635 0.384283 0.242847
0.449592 0.388632 0.255802
0.47422 0.393698 0.269978
0.499443 0.39942 0.285512
0.525261 0.406165 0.30248
0.551843 0.413962 0.320821
0.579004 0.422568 0.340093
0.607202 0.432609 0.360006
0.635981 0.443641 0.380316
0.665843 0.455894 0.400519
0.696773 0.469444 0.421347
0.72871 0.484077 0.442542
0.762234 0.500038 0.464439
0.798886 0.517815 0.486702
0.839384 0.537224 0.509438
0.887388 0.559075 0.533532
0.937499 0.582544 0.557397
0.945373 0.598489 0.575631
0.953719 0.614969 0.594156
0.214267 0.41799 0.221149
0.229908 0.414054 0.220783
0.240528 0.410697 0.219974
0.248142 0.407599 0.219043
0.255558 0.404685 0.218219
0.26479 0.402243 0.217945
0.276036 0.400443 0.218357
0.288884 0.399054 0.21944
0.305043 0.398291 0.220706
0.322683 0.398199 0.222629
0.341634 0.398764 0.22501
0.361791 0.399558 0.227878
0.38291 0.401053 0.231006
0.40473 0.403296 0.239902
0.427192 0.405997 0.250385
0.450401 0.409171 0.262257
0.474144 0.413504 0.275303
0.498711 0.418204 0.289937
0.523888 0.42388 0.305852
0.549767 0.430549 0.323003
0.576715 0.437842 0.341466
0.604196 0.446555 0.360159
0.6327 0.456321 0.379187
0.662211 0.467018 0.399115
0.692592 0.479088 0.419287
0.724132 0.492164 0.440116
0.757427 0.506874 0.46183
0.793317 0.522957 0.48368
0.833143 0.54107 0.50631
0.879515 0.561349 0.530037
0.936431 0.585245 0.554879
0.944289 0.600305 0.572793
0.952331 0.616297 0.591089
0.235645 0.44509 0.241443
0.250385 0.441642 0.240955
0.259358 0.438132 0.239841
0.265629 0.434577 0.238346
0.271473 0.431342 0.237217
0.278599 0.428824 0.236423
0.287678 0.426657 0.236301
0.30042 0.424949 0.236652
0.314717 0.423789 0.237385
0.330724 0.423362 0.238743
0.348104 0.423178 0.240604
0.366781 0.423423 0.242863
0.386542 0.424582 0.245502
0.407492 0.425925 0.248447
0.42916 0.427863 0.258183
0.451484 0.430564 0.269062
0.474586 0.433967 0.281285
0.49839 0.43772 0.294865
0.522881 0.44239 0.309621
0.548409 0.44802 0.325872
0.574655 0.454231 0.342885
0.601785 0.461784 0.360357
0.629908 0.470054 0.378744
0.658854 0.479316 0.397925
0.68867 0.489876 0.417548
0.719966 0.501671 0.438102
0.752743 0.514702 0.459144
0.788205 0.529778 0.480797
0.827008 0.546319 0.502907
0.8719 0.565103 0.526497
0.930282 0.587762 0.551659
0.943053 0.60322 0.570047
0.95108 0.618158 0.588205
0.256443 0.472541 0.262333
0.268894 0.468772 0.261204
0.276402 0.465202 0.259785
0.281254 0.461509 0.25803
0.286564 0.458198 0.256428
0.293339 0.455192 0.255268
0.302113 0.452659 0.254505
0.312825 0.450568 0.254307
0.325338 0.448966 0.25452
0.33962 0.447959 0.255482
0.355245 0.447501 0.256596
0.372488 0.44744 0.25832
0.391119 0.447974 0.260471
0.410712 0.448875 0.262943
0.43154 0.450202 0.265827
0.453193 0.452186 0.276143
0.475578 0.454627 0.287388
0.498711 0.45774 0.300008
0.522713 0.461646 0.313756
0.547601 0.466285 0.328603
0.573419 0.471427 0.344533
0.600031 0.477836 0.36112
0.62739 0.485039 0.378622
0.655955 0.492821 0.397208
0.685283 0.502144 0.416297
0.715938 0.51252 0.436179
0.748455 0.524315 0.456855
0.7832 0.53753 0.47805
0.821134 0.552651 0.500008
0.865034 0.570138 0.523186
0.920348 0.590814 0.547845
0.942077 0.60705 0.567391
0.94992 0.621286 0.585153
0.276188 0.499611 0.28304
0.288212 0.495903 0.28159
0.296284 0.492073 0.279896
0.301335 0.48835 0.277852
0.30573 0.484825 0.275959
0.310643 0.481468 0.274311
0.317433 0.478798 0.273014
0.326223 0.47628 0.272328
0.336873 0.474525 0.272023
0.349279 0.472862 0.272389
0.363363 0.471992 0.273106
0.379248 0.471611 0.274281
0.396338 0.471595 0.275959
0.414786 0.472038 0.277928
0.434531 0.473075 0.280262
0.455238 0.474357 0.28307
0.477104 0.476188 0.293629
0.49958 0.478691 0.305241
0.52285 0.481819 0.317952
0.547311 0.485481 0.331823
0.572381 0.489723 0.346685
0.598321 0.494926 0.362295
0.625269 0.500877 0.37908
0.653071 0.507607 0.396857
0.681956 0.515602 0.415213
0.712383 0.524666 0.434546
0.744305 0.535027 0.454597
0.778485 0.546853 0.475624
0.815793 0.56051 0.497215
0.85832 0.576196 0.520073
0.911498 0.595361 0.54432
0.940978 0.611643 0.564706
0.948684 0.625086 0.582361
0.298497 0.526741 0.303929
0.309529 0.522744 0.302022
0.316197 0.518837 0.299855
0.320363 0.514916 0.297658
0.32369 0.511238 0.295369
0.327489 0.507668 0.293462
0.332769 0.504738 0.291814
0.339773 0.5019 0.2907
0.348592 0.499779 0.289937
0.359533 0.497993 0.289769
0.37232 0.496712 0.289967
0.386725 0.495781 0.290913
0.402579 0.495567 0.291798
0.419669 0.495583 0.293385
0.438117 0.496071 0.295186
0.457969 0.497017 0.297139
0.47895 0.498161 0.299687
0.500725 0.500069 0.310628
0.523552 0.502297 0.322545
0.547097 0.505302 0.335256
0.571603 0.508827 0.349126
0.597086 0.513024 0.363912
0.623331 0.517922 0.37969
0.650721 0.523568 0.396597
0.679271 0.530434 0.414359
0.709072 0.53814 0.433021
0.740597 0.547265 0.452689
0.774029 0.557534 0.47332
0.810452 0.569879 0.494377
0.852369 0.583871 0.517052
0.902983 0.601129 0.540841
0.940139 0.6177 0.562325
0.947631 0.630198 0.57969
0.320363 0.553857 0.324178
0.329442 0.549661 0.32195
0.335027 0.545602 0.319585
0.338338 0.541619 0.317342
0.340795 0.537713 0.314717
0.343496 0.534051 0.312581
0.347356 0.5308 0.310735
0.353414 0.527871 0.309209
0.361257 0.525338 0.30811
0.370718 0.523339 0.307485
0.38204 0.52166 0.307332
0.395041 0.520424 0.3075
0.409339 0.519677 0.308278
0.425162 0.519524 0.309224
0.442588 0.519448 0.310399
0.461112 0.520073 0.31191
0.481041 0.520897 0.313558
0.502388 0.521981 0.315969
0.524514 0.523796 0.326711
0.547585 0.525917 0.338598
0.571572 0.528527 0.351583
0.596307 0.531914 0.365423
0.622202 0.535897 0.38056
0.64892 0.540764 0.39675
0.676692 0.546502 0.413794
0.706081 0.552926 0.432044
0.736858 0.560708 0.451087
0.769757 0.569741 0.471138
0.805692 0.58027 0.492103
0.846326 0.593027 0.514168
0.895262 0.608469 0.537789
0.939437 0.62504 0.560204
0.946639 0.636378 0.577081
0.340169 0.580819 0.343938
0.34847 0.576623 0.341375
0.353902 0.572259 0.338888
0.356985 0.568383 0.336248
0.359075 0.56434 0.333715
0.361013 0.560662 0.331365
0.364233 0.557214 0.329244
0.368963 0.55404 0.327398
0.375235 0.551324 0.325978
0.383383 0.548913 0.324895
0.393256 0.546929 0.324208
0.404639 0.545434 0.323995
0.4177 0.544259 0.324086
0.432288 0.543542 0.324453
0.448264 0.54345 0.324987
0.465721 0.543374 0.325933
0.484581 0.54374 0.327077
0.504784 0.544427 0.328328
0.526146 0.545708 0.330205
0.548531 0.547356 0.341588
0.571817 0.549325 0.353841
0.596033 0.551888 0.367178
0.621164 0.555032 0.381628
0.647303 0.558724 0.397284
0.674769 0.563409 0.413718
0.703243 0.568887 0.431113
0.733547 0.575341 0.449897
0.765866 0.583062 0.469474
0.801068 0.592477 0.489647
0.841016 0.603555 0.511513
0.887938 0.61738 0.53463
0.93875 0.633463 0.558282
0.945922 0.643717 0.574685
0.36289 0.608011 0.362463
0.370123 0.603281 0.35993
0.374502 0.599161 0.357366
0.376898 0.59501 0.354772
0.378332 0.591058 0.352178
0.379599 0.587152 0.349645
0.38172 0.583535 0.347326
0.385138 0.580194 0.345281
0.390326 0.577081 0.343572
0.396933 0.574456 0.342168
0.405341 0.572244 0.341146
0.415305 0.570581 0.340368
0.426978 0.569024 0.339864
0.440269 0.56791 0.339803
0.454948 0.567239 0.339849
0.471153 0.566995 0.340246
0.488792 0.567041 0.340978
0.507729 0.567437 0.341711
0.52813 0.568429 0.342473
0.549767 0.569375 0.344457
0.572519 0.570764 0.356252
0.595926 0.572671 0.36907
0.620371 0.574914 0.382925
0.646159 0.57789 0.397894
0.672679 0.581689 0.413748
0.700908 0.585977 0.430686
0.730587 0.591485 0.448661
0.762387 0.598062 0.467521
0.797086 0.606119 0.487541
0.83566 0.61561 0.508904
0.881209 0.627741 0.531716
0.938354 0.643397 0.556634
0.945296 0.65272 0.572244
0.386297 0.634928 0.380346
0.39237 0.630426 0.377493
0.395865 0.626184 0.374731
0.397665 0.621866 0.372061
0.398306 0.617746 0.369436
0.398886 0.613703 0.367041
0.400015 0.610025 0.364675
0.40238 0.606317 0.362554
0.406165 0.603281 0.360693
0.41146 0.600275 0.359136
0.418433 0.597803 0.357733
0.42707 0.595682 0.35668
0.437247 0.593988 0.35584
0.448981 0.592721 0.355306
0.462348 0.59176 0.355016
0.477211 0.590829 0.355138
0.493706 0.59057 0.35523
0.51136 0.590829 0.355581
0.530632 0.590982 0.356176
0.551247 0.591653 0.356847
0.573281 0.592874 0.358495
0.596185 0.594308 0.37084
0.620295 0.595926 0.384161
0.645212 0.598016 0.398581
0.671504 0.60087 0.413794
0.69894 0.604517 0.430076
0.728099 0.608698 0.447532
0.759396 0.613993 0.466331
0.792966 0.620996 0.485573
0.83093 0.628977 0.506783
0.875029 0.639597 0.529152
0.931868 0.653742 0.553811
0.944686 0.662974 0.570153
0.4094 0.662196 0.398337
0.41416 0.657786 0.395377
0.416907 0.653117 0.392462
0.41828 0.648783 0.389715
0.418585 0.644526 0.386938
0.418463 0.640467 0.384329
0.418921 0.636591 0.381857
0.420386 0.632853 0.379629
0.423041 0.629664 0.377432
0.427161 0.626307 0.375631
0.432868 0.623667 0.373968
0.439918 0.621454 0.372641
0.448814 0.619348 0.371542
0.459083 0.617716 0.370687
0.471015 0.616236 0.370199
0.484611 0.615381 0.369787
0.499626 0.614771 0.369619
0.516106 0.614359 0.36965
0.534188 0.614557 0.369863
0.553567 0.614969 0.370169
0.574609 0.615381 0.370748
0.596918 0.616617 0.37229
0.620279 0.617624 0.38529
0.644862 0.619211 0.399115
0.670481 0.621241 0.413947
0.697292 0.623804 0.429755
0.725933 0.627314 0.44686
0.756405 0.631693 0.464851
0.789578 0.637263 0.484077
0.826383 0.644175 0.504524
0.869169 0.653086 0.526528
0.923766 0.665339 0.55079
0.944366 0.674632 0.568322
0.432746 0.690181 0.415961
0.436576 0.685496 0.412787
0.438453 0.680766 0.409949
0.439231 0.676219 0.407263
0.438972 0.671855 0.404486
0.438407 0.667597 0.401801
0.438102 0.663569 0.399268
0.438697 0.659602 0.396872
0.440467 0.65594 0.394659
0.443534 0.65304 0.392523
0.447929 0.650034 0.390677
0.453773 0.647334 0.389059
0.46125 0.644923 0.387793
0.470207 0.643168 0.386633
0.48072 0.641535 0.385702
0.492836 0.640223 0.385107
0.506569 0.639338 0.384604
0.52166 0.638758 0.384329
0.538338 0.638575 0.384192
0.556741 0.638392 0.384268
0.576516 0.638819 0.38439
0.597757 0.639551 0.384604
0.620691 0.640467 0.38613
0.644648 0.641215 0.39968
0.669596 0.642603 0.414099
0.69604 0.644587 0.429587
0.723918 0.647135 0.446113
0.753902 0.650462 0.463905
0.786313 0.654963 0.482444
0.822339 0.660578 0.502617
0.86424 0.668223 0.524239
0.91603 0.678721 0.54786
0.944213 0.687739 0.566781
0.456275 0.71873 0.433921
0.459037 0.713954 0.430655
0.460426 0.70901 0.427558
0.460533 0.70428 0.42472
0.459983 0.699657 0.421851
0.459052 0.695338 0.419089
0.458167 0.691035 0.41651
0.457938 0.687175 0.413962
0.458946 0.683268 0.411643
0.460792 0.679744 0.409476
0.464134 0.676661 0.407462
0.468742 0.673854 0.405661
0.474784 0.67129 0.404166
0.482322 0.669032 0.402899
0.491478 0.667201 0.40174
0.502144 0.665644 0.400748
0.514443 0.664378 0.400076
0.528252 0.663523 0.399405
0.54374 0.662913 0.399023
0.560693 0.662593 0.398825
0.579141 0.662623 0.398703
0.59942 0.662806 0.398596
0.621164 0.663661 0.398611
0.644633 0.664454 0.400015
0.66923 0.665278 0.413993
0.695109 0.666468 0.429175
0.722576 0.66833 0.445411
0.751842 0.670848 0.462531
0.78378 0.67425 0.480888
0.818952 0.678859 0.500648
0.859373 0.685008 0.521828
0.909468 0.693828 0.545373
0.944183 0.702586 0.565225
0.480446 0.74847 0.452049
0.482246 0.74316 0.448905
0.482811 0.73814 0.445716
0.482475 0.733181 0.442771
0.481361 0.72842 0.439826
0.479957 0.723766 0.436896
0.478721 0.719448 0.434089
0.477897 0.715221 0.43151
0.477928 0.711223 0.428931
0.479057 0.707271 0.426627
0.481315 0.70396 0.424445
0.484764 0.700877 0.422553
0.489601 0.698405 0.420661
0.495872 0.695811 0.419181
0.503624 0.693446 0.418006
0.512856 0.691691 0.416678
0.52372 0.690303 0.41561
0.536263 0.689158 0.414679
0.550317 0.688029 0.414145
0.565911 0.687465 0.413535
0.5832 0.687221 0.413169
0.601907 0.687404 0.412772
0.622644 0.687816 0.412573
0.644968 0.688197 0.412451
0.669062 0.689311 0.41352
0.694667 0.689769 0.428473
0.721477 0.690974 0.444389
0.750286 0.692607 0.461357
0.781415 0.695125 0.479301
0.815778 0.698528 0.498787
0.855344 0.703731 0.519738
0.903151 0.710567 0.542977
0.944625 0.71899 0.564202
0.505074 0.779843 0.470756
0.506172 0.774289 0.467247
0.506004 0.769009 0.46389
0.505119 0.763638 0.460761
0.503685 0.75848 0.457862
0.5019 0.753704 0.45481
0.499977 0.748806 0.452003
0.498665 0.744305 0.449302
0.498039 0.740093 0.446647
