site/assets/luts/freshluts--0000882-picturefx-cross-process-methode-2-rgb-curves.cube
# LUTr-Schema-Version: 2
# LUTr-ID: freshluts--0000882-picturefx-cross-process-methode-2-rgb-curves
# LUTr-Title: PictureFX Cross Process Methode 2 – RGB Curves
# LUTr-Collection: Fresh LUTs
# LUTr-Collection-ID: freshluts-community
# LUTr-Source: https://freshluts.com
# LUTr-Retrieved: 2026-07-27
# LUTr-Source-File: submissions-raw/freshluts/cubes/882__PictureFX-Cross-Process-Methode-2.cube
# LUTr-Source-Format: CUBE
# LUTr-Source-SHA256: 5fbb252695a1cb323d10c70c5a544ecd029eb4396b5bb5255463753e31b32653
# LUTr-License: CC0-1.0
# LUTr-License-URL: https://freshluts.com/termsandconditions
# LUTr-License-Basis: site-terms
# LUTr-Transform-Class: creative-look
# LUTr-Tags: creative, freshluts, community, cube, cross-process, rec709, assumed-input
# LUTr-Input-Color-Space: rec709
# LUTr-Input-Gamut: rec709
# LUTr-Input-Transfer: rec709
# LUTr-Output-Color-Space: srgb
# LUTr-Output-Gamut: rec709
# LUTr-Output-Transfer: srgb
# LUTr-Color-Space-Confidence: assumed-display-referred
# LUTr-Domain-Normalized: true
# LUTr-Shaper: none
# LUTr-Original-Grid: 25x25x25
# LUTr-Conversion-Grid: 25x25x25
# LUTr-Conversion-Interpolation: none
# LUTr-Conversion-Method: Metadata normalization; numeric LUT samples preserved
# LUTr-Conversion-Tool: LUTr scripts/convert-all-to-cube.mjs 2.0.0
# LUTr-Conversion-Date: 2026-07-28
# LUTr-Asset-URL: https://freshluts.com/luts/882
# LUTr-Author: MarcR.
# LUTr-Author-URL: https://freshluts.com/users/86490
# LUTr-Attribution: MarcR. via Fresh LUTs
# LUTr-Source-Labels: gamma=Other; color=None; key=Neutral; style=Cross Process; LUTr assumption=input Rec.709 per repository policy
# LUTr-Conversion-Warning: Input Rec.709 is a LUTr catalog assumption requested for this otherwise unspecified Fresh LUT; it is not verified by the upstream asset.
# LUTr-Note: Preserve this metadata and the upstream license notices when redistributing.
# LUTr-Upstream-Comment: Generated with IWLTBAP LUT Generator
# LUTr-Upstream-Comment: Website: http://luts.iwltbap.com
# LUTr-Upstream-Comment: LUT size
# LUTr-Upstream-Comment: LUT data points
TITLE "PictureFX Cross Process Methode 2 – RGB Curves"
LUT_3D_SIZE 25
DOMAIN_MIN 0 0 0
DOMAIN_MAX 1 1 1
0 0 0
0 0 0
0 0 0
0 0 0
0 0 0
0 0 0
0 0 0
0 0 0
0.027451 0 0
0.105882 0 0.003922
0.231373 0 0.023529
0.380392 0 0.058824
0.501961 0.027451 0.090196
0.6 0.070588 0.113725
0.686275 0.109804 0.133333
0.768627 0.14902 0.156863
0.839216 0.184314 0.176471
0.898039 0.215686 0.192157
0.952941 0.243137 0.211765
1 0.266667 0.231373
1 0.290196 0.254902
1 0.313725 0.27451
1 0.321569 0.278431
1 0.317647 0.278431
1 0.317647 0.27451
0 0 0
0 0 0
0 0 0
0 0 0
0 0 0
0 0 0
0 0 0
0 0 0
0.031373 0 0
0.109804 0 0.007843
0.239216 0 0.027451
0.384314 0 0.062745
0.505882 0.023529 0.090196
0.603922 0.066667 0.113725
0.690196 0.109804 0.137255
0.772549 0.14902 0.156863
0.843137 0.184314 0.176471
0.901961 0.215686 0.196078
0.952941 0.243137 0.211765
1 0.266667 0.231373
1 0.290196 0.254902
1 0.313725 0.27451
1 0.321569 0.278431
1 0.317647 0.278431
1 0.317647 0.27451
0 0 0
0 0 0
0 0 0
0 0 0
0 0 0
0 0 0
0 0 0
0.003922 0 0
0.043137 0 0
0.117647 0 0.007843
0.25098 0 0.035294
0.392157 0 0.066667
0.509804 0.011765 0.094118
0.607843 0.062745 0.117647
0.694118 0.105882 0.137255
0.776471 0.145098 0.156863
0.843137 0.184314 0.176471
0.901961 0.215686 0.196078
0.952941 0.243137 0.215686
1 0.266667 0.235294
1 0.294118 0.254902
1 0.313725 0.27451
1 0.317647 0.278431
1 0.317647 0.278431
1 0.317647 0.27451
0 0 0
0 0 0
0 0 0
0 0 0
0 0 0
0 0 0
0 0 0
0.011765 0 0
0.062745 0 0.003922
0.137255 0 0.015686
0.266667 0 0.043137
0.403922 0 0.07451
0.517647 0.003922 0.098039
0.611765 0.054902 0.121569
0.698039 0.105882 0.141176
0.780392 0.145098 0.160784
0.847059 0.184314 0.180392
0.905882 0.215686 0.2
0.956863 0.243137 0.215686
1 0.270588 0.235294
1 0.294118 0.254902
1 0.313725 0.27451
1 0.317647 0.278431
1 0.317647 0.27451
1 0.317647 0.270588
0 0 0
0 0 0
0 0 0
0 0 0
0 0 0
0 0 0
0.007843 0 0
0.039216 0.003922 0.003922
0.086275 0.007843 0.011765
0.172549 0.007843 0.027451
0.301961 0 0.05098
0.419608 0 0.078431
0.529412 0 0.101961
0.619608 0.05098 0.12549
0.705882 0.101961 0.145098
0.784314 0.145098 0.164706
0.85098 0.184314 0.184314
0.905882 0.215686 0.2
0.956863 0.243137 0.215686
1 0.270588 0.235294
1 0.294118 0.254902
1 0.313725 0.27451
1 0.317647 0.278431
1 0.317647 0.27451
1 0.317647 0.270588
0 0.003922 0
0 0.003922 0
0 0.003922 0
0 0.003922 0
0 0.007843 0.003922
0.003922 0.011765 0.003922
0.023529 0.019608 0.007843
0.062745 0.023529 0.015686
0.121569 0.039216 0.023529
0.223529 0.058824 0.039216
0.341176 0.07451 0.062745
0.45098 0.090196 0.086275
0.545098 0.098039 0.105882
0.631373 0.105882 0.12549
0.709804 0.117647 0.14902
0.788235 0.145098 0.168627
0.854902 0.184314 0.184314
0.909804 0.215686 0.2
0.960784 0.247059 0.219608
1 0.270588 0.235294
1 0.294118 0.254902
1 0.313725 0.270588
1 0.317647 0.27451
1 0.317647 0.270588
1 0.317647 0.266667
0 0.047059 0.015686
0 0.047059 0.015686
0 0.047059 0.015686
0 0.05098 0.015686
0 0.05098 0.015686
0.007843 0.058824 0.019608
0.043137 0.066667 0.023529
0.090196 0.078431 0.027451
0.164706 0.101961 0.035294
0.278431 0.137255 0.047059
0.380392 0.160784 0.066667
0.478431 0.176471 0.086275
0.564706 0.192157 0.109804
0.647059 0.2 0.129412
0.72549 0.211765 0.14902
0.796078 0.223529 0.168627
0.858824 0.231373 0.184314
0.913725 0.243137 0.2
0.964706 0.25098 0.219608
1 0.270588 0.235294
1 0.294118 0.25098
1 0.313725 0.270588
1 0.317647 0.270588
1 0.317647 0.266667
1 0.313725 0.262745
0 0.133333 0.031373
0 0.137255 0.031373
0 0.137255 0.031373
0 0.141176 0.031373
0 0.141176 0.031373
0 0.14902 0.031373
0.054902 0.160784 0.035294
0.141176 0.176471 0.035294
0.219608 0.196078 0.035294
0.321569 0.223529 0.047059
0.415686 0.247059 0.066667
0.505882 0.262745 0.086275
0.584314 0.27451 0.109804
0.662745 0.286275 0.129412
0.737255 0.294118 0.14902
0.803922 0.301961 0.168627
0.862745 0.309804 0.188235
0.913725 0.317647 0.203922
0.964706 0.321569 0.219608
1 0.329412 0.239216
1 0.333333 0.254902
1 0.341176 0.270588
1 0.337255 0.266667
1 0.329412 0.262745
1 0.32549 0.254902
0 0.27451 0.035294
0 0.27451 0.035294
0 0.278431 0.035294
0 0.278431 0.035294
0 0.282353 0.035294
0 0.282353 0.035294
0.039216 0.290196 0.035294
0.176471 0.301961 0.039216
0.266667 0.309804 0.039216
0.352941 0.321569 0.043137
0.443137 0.337255 0.062745
0.52549 0.34902 0.086275
0.6 0.356863 0.109804
0.67451 0.364706 0.129412
0.74902 0.372549 0.14902
0.811765 0.380392 0.172549
0.866667 0.384314 0.188235
0.917647 0.388235 0.207843
0.964706 0.392157 0.227451
1 0.396078 0.243137
1 0.396078 0.258824
1 0.4 0.27451
1 0.396078 0.270588
1 0.392157 0.266667
1 0.392157 0.258824
0 0.392157 0.047059
0 0.392157 0.047059
0 0.396078 0.047059
0 0.396078 0.047059
0 0.396078 0.047059
0 0.4 0.047059
0.011765 0.403922 0.047059
0.192157 0.407843 0.05098
0.294118 0.411765 0.054902
0.380392 0.419608 0.058824
0.462745 0.423529 0.062745
0.541176 0.431373 0.086275
0.615686 0.435294 0.109804
0.686275 0.443137 0.133333
0.752941 0.45098 0.156863
0.815686 0.45098 0.176471
0.866667 0.454902 0.196078
0.917647 0.454902 0.215686
0.964706 0.454902 0.235294
1 0.454902 0.25098
1 0.454902 0.266667
1 0.454902 0.278431
1 0.454902 0.278431
1 0.45098 0.270588
1 0.45098 0.262745
0 0.486275 0.070588
0 0.490196 0.070588
0 0.490196 0.070588
0 0.490196 0.070588
0 0.490196 0.070588
0 0.494118 0.070588
0 0.494118 0.070588
0.2 0.498039 0.07451
0.305882 0.501961 0.078431
0.392157 0.501961 0.082353
0.47451 0.505882 0.090196
0.552941 0.509804 0.098039
0.627451 0.517647 0.121569
0.698039 0.521569 0.145098
0.760784 0.521569 0.164706
0.815686 0.521569 0.188235
0.870588 0.521569 0.207843
0.917647 0.521569 0.223529
0.964706 0.517647 0.239216
1 0.513725 0.258824
1 0.513725 0.270588
1 0.509804 0.286275
1 0.509804 0.282353
1 0.509804 0.278431
1 0.509804 0.278431
0.113725 0.572549 0.113725
0.113725 0.572549 0.113725
0.113725 0.572549 0.113725
0.117647 0.572549 0.109804
0.117647 0.572549 0.109804
0.117647 0.576471 0.109804
0.121569 0.576471 0.109804
0.215686 0.576471 0.113725
0.321569 0.580392 0.117647
0.407843 0.584314 0.121569
0.486275 0.584314 0.12549
0.560784 0.588235 0.133333
0.635294 0.592157 0.137255
0.701961 0.592157 0.156863
0.760784 0.592157 0.176471
0.815686 0.588235 0.196078
0.870588 0.584314 0.215686
0.917647 0.580392 0.231373
0.964706 0.576471 0.247059
1 0.572549 0.262745
1 0.568627 0.282353
1 0.564706 0.301961
1 0.564706 0.301961
1 0.564706 0.301961
1 0.564706 0.301961
0.2 0.647059 0.14902
0.2 0.647059 0.14902
0.2 0.647059 0.14902
0.2 0.65098 0.14902
0.2 0.65098 0.14902
0.2 0.65098 0.14902
0.2 0.65098 0.14902
0.239216 0.65098 0.14902
0.337255 0.654902 0.14902
0.419608 0.654902 0.152941
0.498039 0.654902 0.156863
0.568627 0.654902 0.160784
0.635294 0.658824 0.164706
0.701961 0.658824 0.168627
0.764706 0.654902 0.184314
0.815686 0.65098 0.203922
0.866667 0.643137 0.223529
0.917647 0.639216 0.247059
0.960784 0.631373 0.266667
1 0.627451 0.286275
1 0.623529 0.305882
1 0.615686 0.32549
1 0.615686 0.32549
1 0.619608 0.32549
1 0.619608 0.329412
0.258824 0.709804 0.180392
0.258824 0.709804 0.180392
0.258824 0.709804 0.180392
0.258824 0.709804 0.180392
0.258824 0.709804 0.180392
0.262745 0.709804 0.180392
0.262745 0.713725 0.180392
0.266667 0.713725 0.176471
0.34902 0.713725 0.180392
0.427451 0.713725 0.184314
0.501961 0.713725 0.188235
0.568627 0.713725 0.196078
0.635294 0.713725 0.203922
0.698039 0.713725 0.211765
0.760784 0.713725 0.219608
0.815686 0.709804 0.239216
0.866667 0.701961 0.258824
0.913725 0.694118 0.278431
0.956863 0.686275 0.298039
0.996078 0.682353 0.317647
1 0.67451 0.333333
1 0.670588 0.34902
1 0.670588 0.352941
1 0.670588 0.352941
1 0.67451 0.352941
0.309804 0.764706 0.235294
0.309804 0.764706 0.235294
0.309804 0.764706 0.235294
0.309804 0.764706 0.235294
0.309804 0.764706 0.235294
0.309804 0.764706 0.235294
0.309804 0.764706 0.235294
0.309804 0.764706 0.235294
0.368627 0.764706 0.239216
0.439216 0.764706 0.243137
0.505882 0.764706 0.247059
0.568627 0.764706 0.254902
0.631373 0.764706 0.258824
0.690196 0.764706 0.266667
0.74902 0.764706 0.27451
0.807843 0.764706 0.278431
0.862745 0.756863 0.294118
0.905882 0.74902 0.309804
0.94902 0.741176 0.329412
0.992157 0.733333 0.345098
1 0.72549 0.360784
1 0.721569 0.372549
1 0.721569 0.376471
1 0.721569 0.376471
1 0.72549 0.376471
0.34902 0.811765 0.290196
0.34902 0.811765 0.290196
0.34902 0.811765 0.290196
0.352941 0.811765 0.290196
0.352941 0.811765 0.290196
0.352941 0.811765 0.290196
0.352941 0.811765 0.290196
0.352941 0.811765 0.290196
0.384314 0.811765 0.294118
0.447059 0.811765 0.294118
0.509804 0.811765 0.298039
0.568627 0.811765 0.301961
0.627451 0.811765 0.309804
0.682353 0.807843 0.313725
0.741176 0.807843 0.317647
0.796078 0.807843 0.32549
0.85098 0.807843 0.329412
0.901961 0.803922 0.341176
0.945098 0.792157 0.356863
0.984314 0.784314 0.368627
1 0.776471 0.384314
1 0.768627 0.396078
1 0.768627 0.4
1 0.772549 0.4
1 0.772549 0.4
0.384314 0.85098 0.333333
0.384314 0.85098 0.333333
0.384314 0.85098 0.333333
0.384314 0.854902 0.333333
0.384314 0.854902 0.337255
0.384314 0.854902 0.337255
0.384314 0.854902 0.337255
0.384314 0.854902 0.337255
0.403922 0.854902 0.337255
0.458824 0.854902 0.341176
0.513725 0.854902 0.341176
0.568627 0.85098 0.345098
0.623529 0.85098 0.34902
0.678431 0.85098 0.352941
0.733333 0.85098 0.356863
0.784314 0.85098 0.360784
0.839216 0.847059 0.364706
0.890196 0.847059 0.372549
0.941176 0.843137 0.380392
0.980392 0.831373 0.392157
1 0.823529 0.407843
1 0.815686 0.419608
1 0.815686 0.419608
1 0.815686 0.419608
1 0.819608 0.423529
0.411765 0.890196 0.372549
0.411765 0.890196 0.372549
0.411765 0.890196 0.372549
0.411765 0.890196 0.372549
0.411765 0.890196 0.376471
0.411765 0.890196 0.376471
0.411765 0.890196 0.376471
0.411765 0.890196 0.376471
0.419608 0.890196 0.376471
0.470588 0.890196 0.376471
0.521569 0.890196 0.380392
0.572549 0.890196 0.384314
0.623529 0.890196 0.384314
0.67451 0.890196 0.388235
0.72549 0.886275 0.392157
0.776471 0.886275 0.396078
0.827451 0.886275 0.4
0.878431 0.882353 0.403922
0.929412 0.882353 0.407843
0.972549 0.878431 0.415686
1 0.866667 0.427451
1 0.858824 0.439216
1 0.858824 0.439216
1 0.858824 0.443137
1 0.862745 0.443137
0.431373 0.92549 0.407843
0.431373 0.92549 0.407843
0.431373 0.92549 0.407843
0.431373 0.92549 0.407843
0.431373 0.92549 0.407843
0.431373 0.92549 0.407843
0.431373 0.92549 0.407843
0.431373 0.92549 0.407843
0.439216 0.92549 0.407843
0.486275 0.92549 0.411765
0.533333 0.92549 0.411765
0.580392 0.92549 0.415686
0.627451 0.92549 0.419608
0.67451 0.921569 0.419608
0.721569 0.921569 0.423529
0.772549 0.921569 0.427451
0.819608 0.917647 0.431373
0.866667 0.917647 0.435294
0.913725 0.913725 0.439216
0.960784 0.913725 0.443137
1 0.909804 0.447059
1 0.898039 0.458824
1 0.898039 0.458824
1 0.901961 0.458824
1 0.901961 0.462745
0.45098 0.956863 0.439216
0.45098 0.956863 0.439216
0.45098 0.956863 0.439216
0.45098 0.956863 0.439216
0.45098 0.956863 0.439216
0.45098 0.956863 0.439216
0.45098 0.956863 0.439216
0.45098 0.956863 0.439216
0.462745 0.956863 0.439216
0.505882 0.956863 0.443137
0.545098 0.952941 0.443137
0.588235 0.952941 0.447059
0.635294 0.952941 0.447059
0.678431 0.952941 0.45098
0.721569 0.94902 0.45098
0.768627 0.94902 0.454902
0.815686 0.94902 0.458824
0.858824 0.945098 0.462745
0.901961 0.945098 0.462745
0.94902 0.941176 0.466667
0.988235 0.941176 0.470588
1 0.937255 0.47451
1 0.933333 0.478431
1 0.937255 0.478431
1 0.937255 0.478431
0.470588 0.980392 0.466667
0.470588 0.980392 0.466667
0.470588 0.980392 0.466667
0.470588 0.980392 0.466667
0.470588 0.980392 0.466667
0.470588 0.980392 0.466667
0.470588 0.980392 0.466667
0.470588 0.980392 0.466667
0.494118 0.980392 0.466667
0.529412 0.980392 0.466667
0.564706 0.980392 0.470588
0.603922 0.976471 0.470588
0.647059 0.976471 0.47451
0.686275 0.976471 0.47451
0.729412 0.972549 0.478431
0.772549 0.972549 0.478431
0.815686 0.968627 0.482353
0.858824 0.968627 0.482353
0.898039 0.964706 0.486275
0.941176 0.964706 0.490196
0.980392 0.960784 0.490196
1 0.960784 0.494118
1 0.960784 0.494118
1 0.960784 0.494118
1 0.960784 0.494118
0.482353 1 0.490196
0.482353 1 0.490196
0.482353 1 0.490196
0.482353 1 0.490196
0.482353 1 0.486275
0.482353 1 0.486275
0.482353 1 0.486275
0.498039 1 0.486275
0.52549 1 0.490196
0.556863 1 0.490196
0.592157 0.996078 0.490196
0.627451 0.996078 0.490196
0.666667 0.996078 0.494118
0.705882 0.992157 0.494118
0.745098 0.992157 0.494118
0.784314 0.988235 0.498039
0.823529 0.988235 0.498039
0.862745 0.984314 0.501961
0.901961 0.984314 0.501961
0.941176 0.980392 0.505882
0.976471 0.980392 0.505882
1 0.976471 0.509804
1 0.976471 0.509804
1 0.976471 0.509804
1 0.976471 0.509804
0.490196 1 0.501961
0.490196 1 0.501961
0.490196 1 0.501961
0.490196 1 0.501961
0.490196 1 0.501961
0.494118 1 0.501961
0.517647 1 0.501961
0.541176 1 0.501961
0.564706 1 0.505882
0.596078 1 0.505882
0.623529 1 0.505882
0.658824 1 0.505882
0.690196 1 0.509804
0.72549 1 0.509804
0.764706 1 0.509804
0.8 1 0.509804
0.839216 1 0.513725
0.87451 1 0.513725
0.913725 0.996078 0.517647
0.94902 0.992157 0.517647
0.980392 0.992157 0.517647
1 0.988235 0.521569
1 0.988235 0.517647
1 0.988235 0.517647
1 0.988235 0.517647
0.494118 1 0.501961
0.498039 1 0.501961
0.501961 1 0.501961
0.513725 1 0.501961
0.52549 1 0.501961
0.541176 1 0.501961
0.560784 1 0.505882
0.580392 1 0.505882
0.603922 1 0.505882
0.631373 1 0.505882
0.658824 1 0.509804
0.690196 1 0.509804
0.721569 1 0.513725
0.756863 1 0.513725
0.788235 1 0.517647
0.823529 1 0.517647
0.858824 1 0.521569
0.894118 1 0.52549
0.92549 1 0.52549
0.956863 1 0.52549
0.984314 1 0.529412
0.996078 1 0.529412
0.996078 1 0.529412
0.996078 1 0.52549
0.996078 1 0.52549
0.54902 1 0.501961
0.552941 1 0.501961
0.556863 1 0.505882
0.564706 1 0.505882
0.576471 1 0.505882
0.588235 1 0.505882
0.607843 1 0.505882
0.627451 1 0.505882
0.647059 1 0.509804
0.67451 1 0.509804
0.698039 1 0.509804
0.72549 1 0.513725
0.756863 1 0.513725
0.788235 1 0.517647
0.819608 1 0.517647
0.85098 1 0.521569
0.882353 1 0.52549
0.913725 1 0.52549
0.945098 1 0.529412
0.968627 1 0.529412
0.992157 1 0.533333
0.992157 1 0.533333
0.992157 1 0.533333
0.992157 1 0.533333
0.992157 1 0.533333
0 0 0
0 0 0
0 0 0
0 0 0
0 0 0
0 0 0
0 0 0
0 0 0
0.035294 0 0.007843
0.109804 0 0.019608
0.243137 0 0.054902
0.388235 0 0.078431
0.505882 0 0.105882
0.603922 0.007843 0.129412
0.690196 0.07451 0.14902
0.772549 0.129412 0.172549
0.843137 0.172549 0.192157
0.901961 0.207843 0.207843
0.952941 0.239216 0.227451
1 0.270588 0.25098
1 0.294118 0.270588
1 0.317647 0.290196
1 0.321569 0.294118
1 0.321569 0.290196
1 0.321569 0.290196
0 0 0
0 0 0
0 0 0
0 0 0
0 0 0
0 0 0
0 0 0
0 0 0
0.039216 0 0.007843
0.117647 0 0.023529
0.25098 0 0.058824
0.396078 0 0.082353
0.513725 0 0.105882
0.607843 0.003922 0.129412
0.694118 0.07451 0.14902
0.776471 0.129412 0.172549
0.843137 0.172549 0.192157
0.901961 0.207843 0.211765
0.952941 0.239216 0.231373
1 0.270588 0.25098
1 0.294118 0.270588
1 0.317647 0.290196
1 0.321569 0.294118
1 0.321569 0.290196
1 0.321569 0.290196
0 0 0
0 0 0
0 0 0
0 0 0
0 0 0
0 0 0
0 0 0
0.003922 0 0
0.05098 0 0.007843
0.12549 0 0.027451
0.258824 0 0.062745
0.4 0 0.086275
0.517647 0 0.109804
0.611765 0.003922 0.133333
0.698039 0.07451 0.152941
0.776471 0.129412 0.172549
0.847059 0.172549 0.192157
0.901961 0.207843 0.211765
0.952941 0.243137 0.231373
1 0.270588 0.25098
1 0.294118 0.270588
1 0.317647 0.290196
1 0.321569 0.294118
1 0.321569 0.290196
1 0.321569 0.286275
0 0 0
0 0 0
0 0 0
0 0 0
0 0 0
0 0 0
0 0 0
0.019608 0 0.003922
0.066667 0 0.015686
0.141176 0 0.035294
0.27451 0 0.070588
0.411765 0 0.090196
0.52549 0 0.113725
0.615686 0.003922 0.133333
0.701961 0.07451 0.156863
0.780392 0.129412 0.176471
0.847059 0.172549 0.196078
0.905882 0.207843 0.211765
0.956863 0.243137 0.231373
1 0.270588 0.25098
1 0.298039 0.270588
1 0.317647 0.290196
1 0.321569 0.294118
1 0.321569 0.290196
1 0.321569 0.286275
0 0 0
0 0 0
0 0 0
0 0 0
0 0 0
0 0 0
0.007843 0 0.003922
0.043137 0.003922 0.011765
0.090196 0.007843 0.023529
0.176471 0 0.047059
0.309804 0 0.070588
0.427451 0 0.094118
0.533333 0 0.117647
0.623529 0 0.137255
0.705882 0.07451 0.156863
0.784314 0.129412 0.180392
0.85098 0.172549 0.196078
0.905882 0.211765 0.215686
0.956863 0.243137 0.231373
1 0.270588 0.25098
1 0.298039 0.270588
1 0.317647 0.286275
1 0.321569 0.290196
1 0.321569 0.286275
1 0.321569 0.282353
0 0.003922 0.003922
0 0.007843 0.007843
0 0.007843 0.007843
0 0.007843 0.007843
0 0.007843 0.007843
0 0.015686 0.011765
0.023529 0.019608 0.019608
0.062745 0.027451 0.027451
0.12549 0.035294 0.039216
0.231373 0.043137 0.054902
0.34902 0.05098 0.078431
0.454902 0.058824 0.098039
0.54902 0.066667 0.121569
0.635294 0.078431 0.141176
0.713725 0.094118 0.160784
0.788235 0.133333 0.180392
0.854902 0.176471 0.2
0.909804 0.211765 0.215686
0.960784 0.243137 0.235294
1 0.27451 0.25098
1 0.298039 0.270588
1 0.317647 0.286275
1 0.321569 0.290196
1 0.321569 0.286275
1 0.321569 0.278431
0 0.047059 0.027451
0 0.047059 0.027451
0 0.05098 0.027451
0 0.05098 0.027451
0 0.05098 0.027451
0.003922 0.058824 0.031373
0.039216 0.066667 0.035294
0.090196 0.078431 0.039216
0.172549 0.101961 0.05098
0.282353 0.129412 0.066667
0.388235 0.14902 0.082353
0.482353 0.168627 0.105882
0.568627 0.180392 0.12549
0.65098 0.192157 0.145098
0.72549 0.203922 0.164706
0.796078 0.215686 0.184314
0.858824 0.227451 0.2
0.913725 0.239216 0.215686
0.964706 0.25098 0.231373
1 0.27451 0.25098
1 0.298039 0.266667
1 0.317647 0.282353
1 0.321569 0.286275
1 0.321569 0.278431
1 0.317647 0.27451
0 0.137255 0.054902
0 0.137255 0.054902
0 0.141176 0.054902
0 0.141176 0.054902
0 0.145098 0.054902
0 0.152941 0.05098
0.039216 0.164706 0.05098
0.137255 0.180392 0.054902
0.223529 0.2 0.058824
0.32549 0.223529 0.070588
0.419608 0.243137 0.086275
0.505882 0.258824 0.105882
0.588235 0.270588 0.12549
0.662745 0.278431 0.145098
0.737255 0.290196 0.164706
0.803922 0.301961 0.184314
0.862745 0.309804 0.203922
0.913725 0.317647 0.219608
0.964706 0.32549 0.239216
1 0.329412 0.254902
1 0.337255 0.270588
1 0.345098 0.282353
1 0.337255 0.282353
1 0.333333 0.27451
1 0.329412 0.270588
0 0.278431 0.058824
0 0.278431 0.058824
0 0.278431 0.058824
0 0.282353 0.058824
0 0.282353 0.058824
0 0.286275 0.058824
0.007843 0.294118 0.062745
0.168627 0.301961 0.062745
0.266667 0.313725 0.066667
0.356863 0.321569 0.070588
0.443137 0.337255 0.090196
0.52549 0.345098 0.109804
0.603922 0.352941 0.129412
0.678431 0.364706 0.14902
0.74902 0.372549 0.168627
0.811765 0.380392 0.192157
0.866667 0.384314 0.207843
0.917647 0.388235 0.227451
0.964706 0.392157 0.243137
1 0.396078 0.258824
1 0.4 0.27451
1 0.4 0.286275
1 0.4 0.286275
1 0.396078 0.278431
1 0.392157 0.27451
0 0.396078 0.07451
0 0.396078 0.07451
0 0.396078 0.07451
0 0.396078 0.07451
0 0.4 0.07451
0 0.4 0.07451
0 0.403922 0.078431
0.184314 0.407843 0.078431
0.290196 0.415686 0.082353
0.380392 0.419608 0.086275
0.462745 0.423529 0.094118
0.541176 0.431373 0.113725
0.615686 0.435294 0.137255
0.690196 0.443137 0.156863
0.756863 0.45098 0.180392
0.815686 0.454902 0.2
0.866667 0.454902 0.215686
0.917647 0.454902 0.235294
0.964706 0.458824 0.25098
1 0.458824 0.266667
1 0.458824 0.278431
1 0.458824 0.294118
1 0.454902 0.290196
1 0.45098 0.282353
1 0.454902 0.278431
0 0.490196 0.101961
0 0.490196 0.101961
0 0.490196 0.101961
0 0.490196 0.101961
0 0.490196 0.101961
0 0.494118 0.101961
0 0.494118 0.101961
0.196078 0.498039 0.105882
0.305882 0.501961 0.113725
0.396078 0.505882 0.117647
0.47451 0.505882 0.12549
0.552941 0.509804 0.129412
0.627451 0.517647 0.14902
0.698039 0.521569 0.168627
0.760784 0.521569 0.188235
0.815686 0.521569 0.207843
0.870588 0.521569 0.223529
0.917647 0.521569 0.239216
0.964706 0.517647 0.254902
1 0.517647 0.270588
1 0.513725 0.286275
1 0.513725 0.298039
1 0.509804 0.294118
1 0.509804 0.286275
1 0.509804 0.282353
