site/assets/luts/freshluts--0001550-chemical-hot.cube
# LUTr-Schema-Version: 2
# LUTr-ID: freshluts--0001550-chemical-hot
# LUTr-Title: Chemical Hot
# LUTr-Collection: Fresh LUTs
# LUTr-Collection-ID: freshluts-community
# LUTr-Source: https://freshluts.com
# LUTr-Retrieved: 2026-07-27
# LUTr-Source-File: submissions-raw/freshluts/cubes/1550__Chemical_Hot.cube
# LUTr-Source-Format: CUBE
# LUTr-Source-SHA256: 7172a9fc4de689098f7df6465e6401bb71a1b0296f3dd9a0c8128208040fd8e0
# LUTr-License: CC0-1.0
# LUTr-License-URL: https://freshluts.com/termsandconditions
# LUTr-License-Basis: site-terms
# LUTr-Transform-Class: creative-look
# LUTr-Tags: creative, freshluts, community, cube, film-emulation, warm, rec709
# LUTr-Input-Color-Space: rec709
# LUTr-Input-Gamut: rec709
# LUTr-Input-Transfer: rec709
# LUTr-Output-Color-Space: srgb
# LUTr-Output-Gamut: rec709
# LUTr-Output-Transfer: srgb
# LUTr-Color-Space-Confidence: declared-by-source
# LUTr-Domain-Normalized: true
# LUTr-Shaper: none
# LUTr-Original-Grid: 33x33x33
# LUTr-Conversion-Grid: 33x33x33
# LUTr-Conversion-Interpolation: none
# LUTr-Conversion-Method: Metadata normalization; numeric LUT samples preserved
# LUTr-Conversion-Tool: LUTr scripts/convert-all-to-cube.mjs 2.0.0
# LUTr-Conversion-Date: 2026-07-28
# LUTr-Asset-URL: https://freshluts.com/luts/1550
# LUTr-Author: Suchithya
# LUTr-Author-URL: https://freshluts.com/users/192577
# LUTr-Attribution: Suchithya via Fresh LUTs
# LUTr-Source-Labels: gamma=Rec 709; color=Warm; key=Neutral; style=Film emulation
# LUTr-Note: Preserve this metadata and the upstream license notices when redistributing.
TITLE "Chemical Hot"
LUT_3D_SIZE 9
DOMAIN_MIN 0 0 0
DOMAIN_MAX 1 1 1
0.15312654 0.065854445 0.063987218
0.27433544 0.044505488 0.044620164
0.42480707 0.012250284 0.011390372
0.60420984 0 0
0.76592624 0 0
0.92636734 0 0
0.99860084 0 0
0.99860084 0 0
0.99860084 0 0
0.12536359 0.14412662 0.050806638
0.24817658 0.13308519 0.0336583
0.39577115 0.11585844 0.003820719
0.55961919 0.084688358 0
0.70321703 0.036047887 0
0.82850701 0.003748037 0
0.95184994 0 0
0.99860084 0 0
0.99860084 0 0
0.09465915 0.30056885 0
0.22873694 0.2887238 0
0.37867957 0.27364439 0
0.52944624 0.25496072 0
0.67742384 0.23296368 0
0.78747225 0.20825864 0
0.88680846 0.18585657 0
0.96968269 0.1607504 0
0.99860084 0.14931789 0
0.012765646 0.51673347 0
0.20052785 0.47642738 0
0.35515511 0.45248336 0
0.50323176 0.43219471 0
0.64621645 0.41497347 0
0.76830077 0.40114981 0
0.8598026 0.372455 0
0.93173093 0.34848052 0
0.99572205 0.3365013 0
0 0.76852643 0
0.1423918 0.67009968 0
0.33277959 0.62067401 0
0.48476529 0.58172405 0
0.62207973 0.56496787 0
0.73758328 0.54453891 0
0.84415758 0.53264505 0
0.91641962 0.5030871 0
0.97667658 0.48690328 0
0 0.89803922 0
0.013923883 0.89803922 0
0.2995128 0.77400911 0
0.46439844 0.71763486 0
0.60819739 0.68637359 0
0.71649385 0.6671825 0
0.82338822 0.65858442 0
0.90451688 0.64042389 0
0.96208048 0.61596757 0
0 0.89803922 0
0.013923883 0.89803922 0
0.26710916 0.89429164 0
0.44647634 0.81914896 0
0.59623879 0.77000266 0
0.7070266 0.74668211 0
0.81031966 0.73120534 0
0.8886534 0.72110045 0
0.95529973 0.70379782 0
0 0.89803922 0
0.013923883 0.89803922 0
0.26710916 0.89429164 0
0.4342258 0.89411765 0
0.58145416 0.8504799 0
0.69685912 0.81437427 0
0.80204558 0.79392326 0
0.8771863 0.78435254 0
0.94773078 0.77420992 0
0 0.89803922 0
0.013923883 0.89803922 0
0.26710916 0.89429164 0
0.4342258 0.89411765 0
0.5765754 0.89336568 0
0.69347358 0.86467361 0
0.79448074 0.8465572 0
0.87046278 0.83139384 0
0.93872327 0.82183939 0
0.15303755 0.06323415 0.16953529
0.27111697 0.04242219 0.15580755
0.42136252 0.010300278 0.1386945
0.60420984 0 0.10265306
0.76592624 0 0.037502263
0.92636734 0 0.000390042
0.99860084 0 0
0.99860084 0 0
0.99860084 0 0
0.12205589 0.14002195 0.14023468
0.251867 0.12333964 0.12125699
0.38061672 0.10079777 0.10359016
0.54601455 0.063098863 0.064678162
0.69891196 0.009535322 0.01833472
0.82473719 0 0
0.95184994 0 0
0.99860084 0 0
0.99860084 0 0
0.082716167 0.29658082 0.098303482
0.23139942 0.27430821 0.084411748
0.36981523 0.25356576 0.068238132
0.50975275 0.2389244 0.021845426
0.66064811 0.21750177 0.002639169
0.7807231 0.19378716 0
0.88302684 0.17196183 0
0.96725899 0.15009855 0
0.99860084 0.14201652 0
0.008432865 0.5106104 0.004837643
0.19881564 0.46674362 0.003224052
0.35316867 0.43744773 6.77e-7
0.4886905 0.41976285 0
0.63396591 0.4022083 0
0.76077342 0.38971633 0
0.85586595 0.35726345 0
0.93173093 0.34455895 0
0.99572218 0.3269901 0
0 0.76405704 0
0.13737303 0.66290623 0
0.32884675 0.60640109 0
0.47717881 0.57670242 0
0.618294 0.5579145 0
0.73381281 0.53807038 0
0.84041047 0.52627301 0
0.91668469 0.49646437 0
0.97421384 0.47767144 0
0 0.89803922 0
0.014268219 0.89395624 0
0.29541719 0.77400911 0
0.46021271 0.71763486 0
0.60387909 0.68660098 0
0.71923137 0.6671825 0
0.8201251 0.6475696 0
0.90451688 0.63674593 0
0.96208078 0.60475594 0
0 0.89803922 0
0.011502326 0.89803922 0
0.26233459 0.89803922 0
0.44480532 0.82061464 0
0.59167969 0.77000266 0
0.70780456 0.74668211 0
0.80617303 0.72995806 0
0.8886534 0.71965504 0
0.95578086 0.69438243 0
0 0.89803922 0
0.011502326 0.89803922 0
0.26233459 0.89803922 0
0.43401664 0.89411765 0
0.58145416 0.8504799 0
0.69685912 0.81437427 0
0.79787695 0.79392356 0
0.8771863 0.78435254 0
0.94773078 0.77420992 0
0 0.89803922 0
0.011502326 0.89803922 0
0.26257396 0.89803922 0
0.43401664 0.89411765 0
0.5765754 0.89336568 0
0.69347358 0.86467361 0
0.79448074 0.8465572 0
0.87046278 0.83139384 0
0.93914628 0.81528479 0
0.14835411 0.051965788 0.52245825
0.26719546 0.039802477 0.44385514
0.41126305 0.012630924 0.39595264
0.58206248 0 0.36164355
0.75368023 0 0.34111312
0.92635578 0 0.29492021
0.99860084 0 0.24895477
0.99860084 0 0.23316163
0.99860084 0 0.22328189
0.10873032 0.12802802 0.33790001
0.24909013 0.1132753 0.30200464
0.38404727 0.096287981 0.29144067
0.53334951 0.065786906 0.26944232
0.69025719 0.008581791 0.24694635
0.82473719 0 0.21630998
0.95184994 0 0.1740649
0.99860084 0 0.15041459
0.99860084 0 0.14404733
0.08285284 0.29126683 0.28885513
0.22769886 0.2694892 0.25997496
0.3711986 0.24884532 0.23325856
0.50779509 0.2227515 0.2032748
0.64569539 0.19249809 0.18280847
0.77398926 0.17074725 0.14972031
0.88302684 0.1474444 0.1034667
0.96725899 0.12234923 0.061095327
0.99860084 0.11006032 0.048670746
0.006746292 0.5106104 0.23630801
0.17927933 0.46207959 0.20127584
0.35187554 0.42907169 0.17911561
0.49310064 0.39864269 0.1619257
0.62537563 0.37140176 0.13645499
0.74149501 0.35813251 0.097688183
0.85184091 0.33667088 0.047145136
0.92905754 0.32875159 0.020039022
0.99572218 0.31844449 0.019549057
0 0.76405704 0.1275211
0.10333162 0.65961653 0.11557697
0.31968045 0.60149831 0.1073565
0.47837579 0.56435424 0.083580926
0.60736233 0.53790659 0.044393793
0.72225833 0.52540755 0.018337883
0.83284789 0.50955826 0.007873379
0.91346282 0.48606214 0.00598984
0.97421384 0.47443253 0.003991364
0 0.89803922 0.00127323
0.006997466 0.89407051 0
0.28524333 0.76927799 0
0.4528569 0.71140397 0
0.59571588 0.68070018 0.002715196
0.71227849 0.66035104 0.001447443
0.81644803 0.64052993 0
0.90121651 0.62941426 0
0.96208078 0.60471725 0
0 0.89803922 0
0.003029287 0.89803922 0
0.24738437 0.89803922 0
0.44121331 0.8141256 0
0.58379412 0.77066791 0
0.70514852 0.74843258 0
0.8068971 0.73068214 0
0.88501251 0.71978188 0
0.95578086 0.69438243 0
0 0.89803922 0
0.003029287 0.89803922 0
0.24738437 0.89803922 0
0.42668062 0.89411765 0
0.57533252 0.8504799 0
0.69328296 0.81816429 0
0.79756015 0.79402113 0
0.8771863 0.78435254 0
0.94773078 0.77420992 0
0 0.89803922 0
0.003029287 0.89803922 0
0.24738437 0.89803922 0
0.42668062 0.89411765 0
0.57058608 0.89411765 0
0.68806004 0.86731058 0
0.78987598 0.84655756 0
0.87046278 0.83139384 0
0.93914628 0.81528479 0
0.14623016 0.051965788 0.8392157
0.26255733 0.040339697 0.8392157
0.40396196 0.013410816 0.83529413
0.5686121 0 0.83529413
0.72837889 0 0.83137256
0.89611989 0 0.82745099
0.99349022 0 0.82387203
0.99349022 0 0.82387203
0.99349022 0 0.82387203
0.10659885 0.12064596 0.8392157
0.23850179 0.10907675 0.8392157
0.37766904 0.090901487 0.73543739
0.52922249 0.061327346 0.61158299
0.6737293 0.013936602 0.55768764
0.80946046 0 0.52646029
0.95184994 0 0.49215323
0.99860084 0 0.43013287
0.99860084 0 0.4084492
0.081982136 0.27005053 0.73543739
0.21332955 0.24474943 0.53790468
0.36440498 0.2279537 0.46250776
0.50858927 0.20931099 0.433667
0.64164066 0.18956748 0.40121859
0.76591045 0.16869226 0.37608844
0.88302684 0.13992473 0.3515051
0.96725899 0.11104229 0.31853855
0.99860084 0.099683911 0.30067518
0.006746292 0.48287833 0.57748765
0.17963874 0.45013011 0.46669039
0.34292906 0.42306966 0.40931457
0.49307203 0.39251956 0.36095071
0.62646186 0.36339536 0.3248401
0.7311247 0.34008336 0.31130725
0.84782982 0.32069811 0.28294885
0.92931491 0.30895636 0.25557256
0.99566317 0.29864997 0.23354322
0 0.76405704 0.49661285
0.10057348 0.66009283 0.40677732
0.30103201 0.60541987 0.34551135
0.47676277 0.55906373 0.30297059
0.61523759 0.524517 0.27299696
0.7217409 0.50347763 0.25985479
0.82266837 0.48082063 0.23226446
0.90690249 0.46641302 0.21068823
0.9741441 0.4598462 0.19444592
0 0.89803922 0.41226983
0.003571808 0.89407051 0.31527248
0.25822055 0.77127552 0.27082893
0.44894278 0.70709395 0.24999648
0.59619963 0.67542893 0.2272995
0.70906806 0.6475358 0.20498371
0.80899739 0.62636143 0.18558548
0.8944974 0.61414701 0.16468057
0.96202385 0.59287977 0.15143606
0 0.89803922 0.38578761
0 0.89803922 0.29666382
0.21402884 0.89803922 0.20219143
0.4285692 0.81647998 0.19349068
0.58245301 0.76679987 0.18282247
0.69984877 0.73515892 0.16105777
0.79938096 0.72368926 0.12414677
0.8830421 0.70441484 0.11315246
0.95407867 0.68358451 0.10385884
0 0.89803922 0.36906236
0 0.89803922 0.28798658
0.21536642 0.89803922 0.19042173
0.41293269 0.89657354 0.13008876
0.56889784 0.85129213 0.12183099
0.69233727 0.81143731 0.12355239
0.79404318 0.78748661 0.079325266
0.87394977 0.77501416 0.049029872
0.94595617 0.76350713 0.04142496
0 0.89803922 0.36077991
0 0.89803922 0.27932966
0.21536642 0.89803922 0.19042173
0.41372871 0.89657354 0.11708785
0.56238902 0.89397508 0.081226066
0.68496943 0.86721033 0.082151532
0.7883786 0.84020328 0.055527642
0.86554503 0.82299918 0.035123587
0.9368341 0.81312245 0.030730963
0.14623016 0.051965788 0.8392157
0.26255733 0.040339697 0.8392157
0.40396196 0.014089428 0.83529413
0.559605 0 0.83529413
0.71996885 0 0.83137256
0.87384123 0 0.82745099
0.99349022 0 0.82387203
0.99349022 0 0.82387203
0.99349022 0 0.82387203
0.10659885 0.12064596 0.8392157
0.23850179 0.10907675 0.8392157
0.37736011 0.092755072 0.83529413
0.52451766 0.064218618 0.83529413
0.66889441 0.015062273 0.8320809
0.79318452 0 0.82975256
0.9300949 0 0.82352942
0.99349022 0 0.82352942
0.99349022 0 0.82352942
0.083087742 0.26604343 0.83531243
0.20881116 0.23589969 0.8392157
0.35577381 0.21726698 0.83529413
0.49723232 0.20030448 0.81763273
0.63897598 0.18395197 0.71008211
0.75759149 0.16542804 0.65136695
0.86724067 0.14246152 0.62317049
0.96675324 0.11056805 0.58561629
0.99860084 0.099072769 0.52384222
0.006324649 0.46275976 0.8313536
0.17841947 0.42144641 0.83298481
0.3238886 0.38696974 0.72394711
0.49057108 0.36591271 0.5923667
0.62924337 0.35391077 0.52871627
0.73250938 0.33301717 0.51832348
0.83973014 0.3157526 0.49286845
0.92931491 0.30385837 0.46538615
0.99566317 0.29258257 0.43152225
0 0.71224308 0.82022953
0.11213577 0.62531173 0.82542563
0.3044796 0.58063233 0.63236225
0.47154391 0.55205101 0.53136808
0.61360234 0.5237596 0.48072019
0.72207654 0.49453545 0.44184488
0.81600177 0.47197762 0.43071219
0.90728408 0.46122193 0.40954036
0.97119921 0.45269987 0.38324818
0 0.88975012 0.80839574
0.014254034 0.88220137 0.79019868
0.25833249 0.77082157 0.57186306
0.43849927 0.70807153 0.47983199
0.59324241 0.66955131 0.43033746
0.71319818 0.64009821 0.40317434
0.81087947 0.61022562 0.38107672
0.88365287 0.59675652 0.36639962
0.95564353 0.58187622 0.34770682
0 0.88975012 0.80839574
0.004706442 0.89280981 0.687352
0.21151125 0.89803922 0.49667451
0.41496664 0.81804717 0.42779601
0.57678807 0.76699895 0.39107627
0.70102137 0.73532236 0.37269241
0.80101943 0.70845437 0.34837538
0.87698263 0.6878283 0.3356576
0.94854462 0.67387134 0.32201478
0 0.88975012 0.80839574
0.003209293 0.89447331 0.62926042
0.21151125 0.89803922 0.47627529
0.39694184 0.89803922 0.38706779
0.56070077 0.85203987 0.35978818
0.68988973 0.81141311 0.34377176
0.79731774 0.78043401 0.32297379
0.87465966 0.76076877 0.30360484
0.94198746 0.74864095 0.30257091
0 0.88975012 0.80839574
0.002605319 0.8951444 0.6065318
0.21151125 0.89803922 0.466142
0.39694184 0.89803922 0.37663418
0.55281711 0.89397967 0.33873242
0.68015563 0.86756414 0.32024872
0.78883565 0.84034813 0.29841977
0.86417824 0.8157357 0.28919569
0.93550271 0.80568218 0.28528303
0.14623016 0.051965788 0.8392157
0.26255733 0.040339697 0.8392157
0.400576 0.014870812 0.83529413
0.559605 0 0.83529413
0.71574056 0 0.83137256
0.8661859 0 0.82745099
0.99349022 0 0.82387203
0.99349022 0 0.82387203
0.99349022 0 0.82387203
0.10659885 0.12064596 0.8392157
0.23850179 0.10907675 0.8392157
0.38052094 0.092491671 0.83529413
0.52451766 0.064218618 0.83529413
0.66470408 0.016606092 0.83230144
0.78926748 0 0.82994842
0.91734755 0 0.82389957
0.99349022 0 0.82352942
0.99349022 0 0.82352942
0.083378315 0.26284763 0.835603
0.20881116 0.23589969 0.8392157
0.35606658 0.21433955 0.83529413
0.50063443 0.20005938 0.83529413
0.63535082 0.18230282 0.83363998
0.74927282 0.16585575 0.83137256
0.858428 0.14094497 0.82657772
0.95433623 0.11256188 0.82201123
0.99349022 0.097108297 0.81995046
0.008587658 0.457546 0.83162403
0.17951495 0.41596895 0.83325869
0.32490063 0.37723658 0.83529413
0.47463876 0.35492164 0.83529413
0.61739576 0.33795279 0.8000232
0.73432529 0.32384863 0.73735934
0.83523142 0.31519517 0.6960057
0.9219659 0.30194169 0.66587025
0.99430841 0.29047665 0.61733019
0 0.69065201 0.82166898
0.11869258 0.61068499 0.82593
0.30013746 0.55852765 0.83018792
0.45247829 0.52109301 0.8003428
0.60643256 0.50068665 0.68116313
0.72253192 0.48580971 0.62134534
0.81818652 0.46666294 0.59055006
0.9002651 0.45717046 0.57287443
0.97110206 0.45174327 0.53365022
0 0.88975012 0.80839574
0.016345382 0.84463209 0.81140363
0.2650125 0.73519522 0.8209393
0.43711787 0.68918777 0.73117852
0.5952518 0.65925217 0.62253368
0.71027541 0.63094008 0.56636548
0.81039542 0.60997486 0.52998531
0.88356417 0.5889442 0.51389295
0.95490897 0.58052587 0.4944185
0 0.88975012 0.80839574
0.007460177 0.88975012 0.80839574
0.21455061 0.8894738 0.80502677
0.41328698 0.80916882 0.68838251
0.57020676 0.75935322 0.59288973
0.69785869 0.72847319 0.53756458
0.80105478 0.70164007 0.50296933
0.87678283 0.67982858 0.4789947
0.9447028 0.6736902 0.46656507
0 0.88975012 0.80839574
0.007460177 0.88975012 0.80839574
0.21455061 0.8894738 0.80502677
0.39345282 0.89414722 0.62252933
0.55278122 0.85345882 0.53731
0.68777561 0.81339723 0.50397039
0.79691172 0.78042632 0.46988147
0.8744567 0.75290596 0.45477796
0.93884528 0.74069321 0.44748214
0 0.88975012 0.80839574
0.007460177 0.88975012 0.80839574
0.21445489 0.89001107 0.78525126
0.39329886 0.89480692 0.5977906
0.5447036 0.89626181 0.51536918
0.67707741 0.86839133 0.47911054
0.78844643 0.83276457 0.44865307
0.86473387 0.80801916 0.44311962
0.93527836 0.79776424 0.43377644
0.14623016 0.051965788 0.8392157
0.26255733 0.040339697 0.8392157
0.400576 0.014870812 0.83529413
0.559605 0 0.83529413
0.71149683 0 0.83137256
0.8623206 0 0.82745099
0.99349022 0 0.82387203
0.99349022 0 0.82387203
0.99349022 0 0.82387203
0.10659885 0.1187987 0.8392157
0.23878026 0.10753471 0.8392157
0.38052094 0.092491671 0.83529413
0.52451766 0.064218618 0.83529413
0.66470408 0.016606092 0.83230144
0.78926748 0 0.82994842
0.91389012 0 0.82405668
0.99349022 0 0.82352942
0.99349022 0 0.82352942
0.083378315 0.26284763 0.835603
0.20910317 0.23239547 0.8392157
0.35606658 0.21433955 0.83529413
0.50063443 0.20005938 0.83529413
0.63535082 0.18230282 0.83363998
0.74927282 0.16585575 0.83137256
0.858428 0.14476922 0.82657772
0.94658101 0.11582723 0.8224194
0.99349022 0.097108297 0.81995046
0.011026502 0.4522965 0.83189499
0.17951495 0.41596895 0.83325869
0.32490063 0.37723658 0.83529413
0.47463876 0.35492164 0.83529413
0.6157614 0.33704773 0.83137256
0.73158032 0.32364994 0.83137256
0.83475459 0.30879888 0.82766342
0.91734755 0.30335647 0.8210811
0.99110478 0.29262614 0.81615448
0 0.67607504 0.82264078
0.1219886 0.60333234 0.82618356
0.30143082 0.55102617 0.83070528
0.4505719 0.51198107 0.83137256
0.59512836 0.48873645 0.83137256
0.71517795 0.47442621 0.76961076
0.82096064 0.45660433 0.72730392
0.89607549 0.45225528 0.69636148
0.96983928 0.44636118 0.67669374
0 0.88975012 0.80839574
0.016345382 0.82029754 0.81302595
0.2682873 0.72069264 0.82140714
0.43147838 0.67149407 0.82284254
0.58473086 0.63627207 0.7912752
0.71076536 0.62506002 0.70138139
0.81021929 0.60840452 0.64892328
0.88298297 0.59577429 0.6214006
0.95438015 0.58015043 0.60401511
0 0.88975012 0.80839574
0.007460177 0.88975012 0.80839574
0.21912032 0.87659556 0.80668849
0.41521203 0.79119861 0.81770748
0.57450473 0.74754435 0.74324
0.69596386 0.72702497 0.66542917
0.79977483 0.70014888 0.61722523
0.87650543 0.67952049 0.57916266
0.94294274 0.67337215 0.57584631
0 0.88975012 0.80839574
0.007460177 0.88975012 0.80839574
0.21455061 0.8894738 0.80502677
0.39420253 0.8894738 0.80383742
0.55179185 0.84427244 0.71633124
0.68587327 0.80385917 0.63942784
0.79574174 0.779091 0.58846903
0.87418628 0.75242269 0.55816448
0.9372223 0.73951155 0.54487079
0 0.88975012 0.80839574
0.007460177 0.88975012 0.80839574
0.21455061 0.8894738 0.80502677
0.39420253 0.8894738 0.80383742
0.5425055 0.89195502 0.68016625
0.67429709 0.86680293 0.60241741
0.78726602 0.8320933 0.56459028
0.86827201 0.80698377 0.54697007
0.93212736 0.78917009 0.53506291
0.14623016 0.051965788 0.8392157
0.26255733 0.040339697 0.8392157
0.400576 0.014870812 0.83529413
0.559605 0 0.83529413
0.71149683 0 0.83137256
0.858428 0 0.82745099
0.99349022 0 0.82387203
0.99349022 0 0.82387203
0.99349022 0 0.82387203
0.10659885 0.1187987 0.8392157
0.23878026 0.10753471 0.8392157
0.38052094 0.092491671 0.83529413
0.52451766 0.064218618 0.83529413
0.66470408 0.0190796 0.83230144
0.78533101 0 0.83014524
0.91040194 0 0.82421523
0.99349022 0 0.82352942
0.99349022 0 0.82352942
0.083847284 0.25964773 0.83589387
0.20910317 0.23239547 0.8392157
0.35606658 0.21433955 0.83529413
0.50063443 0.20005938 0.83529413
0.63535082 0.18230282 0.83363998
0.74927282 0.16585575 0.83137256
0.85450792 0.14583902 0.82675588
0.94391805 0.11694849 0.82255954
0.99349022 0.097108297 0.81995046
0.011026502 0.4522965 0.83189499
0.17951495 0.41596895 0.83325869
0.32490063 0.37723658 0.83529413
0.47574949 0.34936792 0.83529413
0.6157614 0.33704773 0.83137256
0.73158032 0.32364994 0.83137256
0.83087444 0.30916843 0.8278482
0.91389012 0.30351362 0.8213954
0.98818934 0.2930865 0.8163079
0 0.67607504 0.82264078
0.1219886 0.60333234 0.82618356
0.30143082 0.55102617 0.83070528
0.4505719 0.51198107 0.83137256
0.59591973 0.48187813 0.83137256
0.71349692 0.46952435 0.82745099
0.82038307 0.45821515 0.81764048
0.89598972 0.44834861 0.78425312
0.9675231 0.4429757 0.76390606
0 0.88975012 0.80839574
0.016345382 0.81399745 0.81344593
0.2682873 0.72069264 0.82140714
0.43245226 0.6637029 0.82308602
0.58174455 0.63328552 0.82382309
0.70650274 0.60679805 0.80356616
0.80983198 0.60114753 0.73214543
0.88371175 0.59023863 0.7027092
0.95111591 0.57745004 0.68521404
0 0.88975012 0.80839574
0.007460177 0.88975012 0.80839574
0.22285146 0.86608046 0.80804527
0.41674775 0.78440118 0.81858456
0.57269168 0.73551035 0.81788576
0.69397974 0.71466833 0.77058428
0.79867792 0.69888014 0.70043969
0.8762778 0.67926776 0.66088796
0.94259691 0.67317206 0.64566016
0 0.88975012 0.80839574
0.007460177 0.88975012 0.80839574
0.21455061 0.8894738 0.80502677
0.39490026 0.88586867 0.80441886
0.55773103 0.83474356 0.80791199
0.68465769 0.80142123 0.73098314
0.79645204 0.77112907 0.68042064
0.87234581 0.75208741 0.63149846
0.93545669 0.73956227 0.61747277
0 0.88975012 0.80839574
0.007460177 0.88975012 0.80839574
0.21455061 0.8894738 0.80502677
0.39420253 0.8894738 0.80383742
0.5429225 0.88913423 0.7936632
0.6736629 0.86382335 0.70624745
0.78720713 0.83141929 0.65546638
0.86648452 0.80650252 0.62037122
0.93334156 0.78857887 0.59515774
0.14623016 0.051965788 0.8392157
0.26255733 0.040339697 0.8392157
0.400576 0.014870812 0.83529413
0.55508351 0 0.83529413
0.71149683 0 0.83137256
0.858428 0 0.82745099
0.99349022 0 0.82387203
0.99349022 0 0.82387203
0.99349022 0 0.82387203
0.10659885 0.1187987 0.8392157
0.23878026 0.10753471 0.8392157
0.38052094 0.092491671 0.83529413
0.52451766 0.064218618 0.83529413
0.66470408 0.0190796 0.83230144
0.78533101 0 0.83014524
0.91040194 0 0.82421523
0.99349022 0 0.82352942
0.99349022 0 0.82352942
0.083847284 0.25964773 0.83589387
0.20910317 0.23239547 0.8392157
0.35606658 0.21433955 0.83529413
0.50063443 0.20005938 0.83529413
0.63535082 0.18230282 0.83363998
0.74927282 0.16585575 0.83137256
0.85450792 0.14583902 0.82675588
0.94391805 0.11694849 0.82255954
0.99349022 0.097108297 0.81995046
0.011026502 0.4522965 0.83189499
0.18061256 0.41048083 0.83353305
0.32490063 0.37723658 0.83529413
0.47574949 0.34936792 0.83529413
0.6157614 0.33704773 0.83137256
0.73158032 0.32364994 0.83137256
0.83087444 0.30916843 0.8278482
0.91389012 0.30351362 0.8213954
0.98657656 0.29334113 0.81639278
0 0.66874045 0.82312971
0.12529522 0.59595603 0.82643789
0.30292731 0.54350328 0.83122408
0.4505719 0.51198107 0.83137256
0.59591973 0.48187813 0.83137256
0.71349692 0.46952435 0.82745099
0.82038307 0.45785519 0.82429933
0.89582586 0.44742093 0.8175686
0.96466112 0.44212154 0.80506462
0 0.88975012 0.80839574
0.016345382 0.80761403 0.8138715
0.26993942 0.71337616 0.82164317
0.43245226 0.6637029 0.82308602
0.58223998 0.62560618 0.82407081
0.7059716 0.60467267 0.82330906
0.81071806 0.5968051 0.78504193
0.8840698 0.58694422 0.75286907
0.950921 0.57542396 0.72164863
0 0.88975012 0.80839574
0.007460177 0.88975012 0.80839574
0.22483063 0.86050278 0.80876499
0.41829902 0.77753502 0.81947052
0.57269168 0.73551035 0.81788576
0.69287765 0.71000248 0.81053519
0.79855812 0.69605446 0.75227362
0.87506932 0.67761588 0.71096086
0.94241762 0.67306793 0.68114579
0 0.88975012 0.80839574
0.007460177 0.88975012 0.80839574
0.21455061 0.8894738 0.80502677
0.39575666 0.88144416 0.80513251
0.55893993 0.82829577 0.80871797
0.68434966 0.79257679 0.78932434
0.79544091 0.76993209 0.71928686
0.87135476 0.75121713 0.68055659
0.93528962 0.73971039 0.65362728
0 0.88975012 0.80839574
0.007460177 0.88975012 0.80839574
0.21455061 0.8894738 0.80502677
0.39420253 0.8894738 0.80383742
0.54274255 0.88895428 0.80086201
0.67459905 0.85679311 0.76396757
0.78668046 0.83101177 0.70948607
0.8654775 0.80625379 0.65873218
0.93311489 0.78950775 0.64489579
