site/assets/luts/freshluts--0002710-mahaicony.cube
# LUTr-Schema-Version: 2
# LUTr-ID: freshluts--0002710-mahaicony
# LUTr-Title: Mahaicony
# LUTr-Collection: Fresh LUTs
# LUTr-Collection-ID: freshluts-community
# LUTr-Source: https://freshluts.com
# LUTr-Retrieved: 2026-07-27
# LUTr-Source-File: submissions-raw/freshluts/cubes/2710__MAHAICONY.cube
# LUTr-Source-Format: CUBE
# LUTr-Source-SHA256: 3a47e505303a7f1f0971911bacf381ba05913c09ea1bc70c260f48c301911cb5
# LUTr-License: CC0-1.0
# LUTr-License-URL: https://freshluts.com/termsandconditions
# LUTr-License-Basis: site-terms
# LUTr-Transform-Class: creative-look
# LUTr-Tags: creative, freshluts, community, cube, teal, high-key, sony-s-log2
# LUTr-Input-Color-Space:
# LUTr-Input-Gamut: sony-s-gamut
# LUTr-Input-Transfer: sony-s-log2
# LUTr-Output-Color-Space: srgb
# LUTr-Output-Gamut: rec709
# LUTr-Output-Transfer: srgb
# LUTr-Color-Space-Confidence: camera-profile-input-required
# LUTr-Domain-Normalized: true
# LUTr-Shaper: none
# LUTr-Original-Grid: 33x33x33
# LUTr-Conversion-Grid: 33x33x33
# LUTr-Conversion-Interpolation: none
# LUTr-Conversion-Method: Metadata normalization; numeric LUT samples preserved
# LUTr-Conversion-Tool: LUTr scripts/convert-all-to-cube.mjs 2.0.0
# LUTr-Conversion-Date: 2026-07-28
# LUTr-Asset-URL: https://freshluts.com/luts/2710
# LUTr-Author: Daniel Fordyce
# LUTr-Author-URL: https://freshluts.com/users/30654
# LUTr-Attribution: Daniel Fordyce via Fresh LUTs
# LUTr-Source-Labels: gamma=Sony S-Log 2; color=Teal; key=High Key; style=Colorful
# LUTr-Note: Preserve this metadata and the upstream license notices when redistributing.
TITLE "Mahaicony"
LUT_3D_SIZE 33
DOMAIN_MIN 0 0 0
DOMAIN_MAX 1 1 1
0.0266423 0 0.0276341
0.0533608 0 0.021622
0.078996 0 0.015259
0.104479 0 0.00885023
0.131075 0 0.002533
0.159426 0 0
0.190646 0 0
0.226032 0 0
0.267277 0 0
0.312505 0 0
0.360815 0 0
0.413169 0 0
0.468238 0 0
0.524849 0 0
0.581903 0 0
0.638102 0 0
0.692485 0 0
0.745586 0 0
0.796887 0 0
0.844999 0 0
0.889281 0 0
0.931365 0 0
0.973098 0 0
1 0 0
1 0 0
1 0 0
1 0 0
1 0 0
1 0 0
1 0 0
1 0 0
1 0 0
1 0 0
0.0137789 0 0.02121
0.0422675 0 0.0138705
0.0678111 0 0.00915541
0.0928969 0 0.00282292
0.119036 0 0
0.147356 0 0
0.178439 0 0
0.213596 0 0
0.254978 0 0
0.300252 0 0
0.348577 0 0
0.401053 0 0
0.456413 0 0
0.513466 0 0
0.570993 0 0
0.627405 0 0
0.681743 0 0
0.735363 0 0
0.786862 0 0
0.835157 0 0
0.87982 0 0
0.922286 0 0
0.964355 0 0
1 0 0
1 0 0
1 0 0
1 0 0
1 0 0
1 0 0
1 0 0
1 0 0
1 0 0
1 0 0
0.00164797 0.0213626 0.0155032
0.0303044 0.0191958 0.00595102
0.0577554 0.0169985 0.0011902
0.0833448 0.015198 0
0.109316 0.0133669 0
0.137194 0.0111086 0
0.168261 0.00814832 0
0.20325 0.00386053 0
0.244465 0 0
0.289754 0 0
0.338308 0 0
0.39057 0 0
0.446067 0 0
0.503136 0 0
0.560678 0 0
0.617578 0 0
0.67219 0 0
0.725963 0 0
0.778073 0 0
0.826535 0 0
0.871473 0 0
0.914382 0 0
0.95729 0 0
0.999329 0 0
1 0 0
1 0 0
1 0 0
1 0 0
1 0 0
1 0 0
1 0 0
1 0 0
1 0 0
0 0.0449226 0.0100099
0.0173953 0.0429694 0.000122072
0.0464637 0.0403296 0
0.073167 0.0382544 0
0.0999008 0.0361944 0
0.128145 0.0337835 0
0.159319 0.0309453 0
0.194217 0.0268406 0
0.235233 0.0211032 0
0.280537 0.0142977 0
0.32932 0.00671397 0
0.381537 0 0
0.437018 0 0
0.494438 0 0
0.552148 0 0
0.609003 0 0
0.664103 0 0
0.718425 0 0
0.770535 0 0
0.819043 0 0
0.864256 0 0
0.907835 0 0
0.951629 0 0
0.994263 0 0
1 0 0
1 0 0
1 0 0
1 0 0
1 0 0
1 0 0
1 0 0
1 0 0
1 0 0
0 0.0685435 0.00347906
0.00415045 0.0669871 0
0.0332799 0.0646677 0
0.0616617 0.0622263 0
0.0892195 0.0601663 0
0.118151 0.0576333 0
0.14992 0.0544442 0
0.185611 0.0506447 0
0.226871 0.045182 0
0.272145 0.0387732 0
0.320607 0.0315251 0
0.373266 0.0236973 0
0.428885 0.015198 0
0.486412 0.0065156 0
0.544732 0 0
0.601831 0 0
0.656886 0 0
0.711498 0 0
0.763958 0 0
0.812757 0 0
0.858396 0 0
0.90251 0 0
0.946868 0 0
0.990097 0 0
1 0 0
1 0 0
1 0 0
1 0 0
1 0 0
1 0 0
1 0 0
1 0 0
1 0 0
0 0.0934615 0
0 0.0918593 0
0.0182956 0.0902266 0
0.0477455 0.087892 0
0.0766766 0.0856184 0
0.106416 0.0834821 0
0.138766 0.0805066 0
0.17499 0.0766003 0
0.217014 0.0712902 0
0.263005 0.0654002 0
0.311727 0.0587472 0
0.364904 0.0513619 0
0.420966 0.0436408 0
0.478798 0.0356298 0
0.537285 0.0276036 0
0.594705 0.0201114 0
0.650339 0.0131991 0
0.705516 0.00656138 0
0.757733 0.000289921 0
0.80621 0 0
0.852003 0 0
0.896773 0 0
0.94197 0 0
0.98526 0 0
1 0 0
1 0 0
1 0 0
1 0 0
1 0 0
1 0 0
1 0 0
1 0 0
1 0 0
0 0.120562 0
0 0.11931 0
0.00047303 0.118044 0
0.0303197 0.116411 0
0.0606241 0.114214 0
0.0914473 0.111955 0
0.12459 0.109529 0
0.1617 0.106188 0
0.204746 0.101305 0
0.25153 0.095491 0
0.301183 0.089128 0
0.355245 0.0825208 0
0.412085 0.0755627 0
0.470573 0.068513 0
0.529335 0.0614786 0
0.586862 0.0549935 0
0.642527 0.0487068 0
0.697505 0.0426337 0
0.749706 0.0371557 0
0.798001 0.0324102 0
0.844022 0.0282902 0
0.889555 0.0250095 0
0.934951 0.0219883 0
0.978363 0.0196841 0
1 0.0178836 0
1 0.0167391 0
1 0.0162509 0
1 0.0165408 0
1 0.0170443 0
1 0.0179751 0
1 0.0193332 0
1 0.0210574 0
1 0.0228733 0
0 0.150637 0
0 0.149966 0
0 0.149264 0
0.00886549 0.14815 0
0.0402533 0.14667 0
0.0727092 0.144915 0
0.106889 0.14258 0
0.144549 0.139635 0
0.188556 0.13547 0
0.236683 0.130648 0
0.287434 0.125139 0
0.342199 0.118975 0
0.399893 0.112398 0
0.459098 0.106126 0
0.518547 0.099794 0
0.576074 0.093843 0
0.631739 0.0881819 0
0.686473 0.0827192 0
0.738552 0.0777752 0
0.786755 0.0738537 0
0.832776 0.0704204 0
0.87834 0.0673686 0
0.923796 0.0647593 0
0.967239 0.0628977 0
1 0.0614786 0
1 0.0607004 0
1 0.0605631 0
1 0.0612192 0
1 0.0619974 0
1 0.0632792 0
1 0.0648966 0
1 0.0668498 0
1 0.0689403 0
0 0.184634 0
0 0.184466 0
0 0.184482 0
0 0.184329 0
0.0158846 0.183368 0
0.049424 0.182239 0
0.085359 0.180682 0
0.124971 0.178576 0
0.169345 0.175006 0
0.218067 0.170443 0
0.269734 0.165377 0
0.325505 0.159701 0
0.384558 0.153872 0
0.444389 0.147753 0
0.504112 0.141817 0
0.561791 0.13637 0
0.617761 0.131182 0
0.672557 0.126177 0
0.724514 0.12166 0
0.772625 0.118273 0
0.818647 0.115206 0
0.864485 0.112596 0
0.909987 0.110369 0
0.953414 0.108843 0
0.995468 0.107836 0
1 0.107469 0
1 0.107683 0
1 0.1084 0
1 0.109407 0
1 0.110903 0
1 0.112749 0
1 0.114855 0
1 0.117052 0
0 0.221973 0
0 0.222766 0
0 0.223789 0
0 0.224628 0
0 0.224704 0
0.0242161 0.224109 0
0.0612955 0.22327 0
0.102068 0.221286 0
0.147616 0.218204 0
0.19704 0.21416 0
0.249378 0.209461 0
0.306294 0.204364 0
0.36585 0.198566 0
0.426566 0.192737 0
0.487007 0.186984 0
0.545113 0.181781 0
0.601434 0.176928 0
0.656397 0.172366 0
0.708537 0.168475 0
0.756527 0.165103 0
0.802579 0.162341 0
0.848508 0.160067 0
0.894057 0.158175 0
0.937499 0.156939 0
0.979492 0.156176 0
1 0.156146 0
1 0.15668 0
1 0.157382 0
1 0.158526 0
1 0.160113 0
1 0.162036 0
1 0.164233 0
1 0.166476 0
0 0.263828 0
0 0.264958 0
0 0.266636 0
0 0.268177 0
0 0.26949 0
0 0.269657 0
0.0354314 0.269001 0
0.0770733 0.267353 0
0.123812 0.264439 0
0.174273 0.260716 0
0.227649 0.256596 0
0.284733 0.251499 0
0.344808 0.245975 0
0.406287 0.240284 0
0.467582 0.234806 0
0.526299 0.22974 0
0.583124 0.225025 0
0.638666 0.220844 0
0.690532 0.21709 0
0.738827 0.213886 0
0.78497 0.211353 0
0.831037 0.209247 0
0.876478 0.207584 0
0.91986 0.206577 0
0.961807 0.206012 0
1 0.206043 0
1 0.206729 0
1 0.207584 0
1 0.20885 0
1 0.210468 0
1 0.212436 0
1 0.214618 0
1 0.216831 0
0 0.308415 0
0 0.310185 0
0 0.312596 0
0 0.315053 0
0 0.316716 0
0 0.317662 0
0.0081178 0.31751 0
0.0504311 0.316243 0
0.0981918 0.313497 0
0.15024 0.310079 0
0.204211 0.305882 0
0.261494 0.301137 0
0.322072 0.295811 0
0.384146 0.290242 0
0.446082 0.284825 0
0.505577 0.279942 0
0.563165 0.275181 0
0.618982 0.270985 0
0.671092 0.26746 0
0.7196 0.264363 0
0.765911 0.261967 0
0.812085 0.259983 0
0.857511 0.258381 0
0.900816 0.25745 0
0.942626 0.256977 0
0.982712 0.257267 0
1 0.257725 0
1 0.258595 0
1 0.259831 0
1 0.261341 0
1 0.263233 0
1 0.265385 0
1 0.267948 0
0 0.355795 0
0 0.358236 0
0 0.361166 0
0 0.363912 0
0 0.36614 0
0 0.367575 0
0 0.367971 0
0.0229038 0.367102 0
0.0718242 0.364553 0
0.124681 0.361181 0
0.179553 0.357 0
0.237461 0.352346 0
0.298466 0.347219 0
0.361028 0.341772 0
0.423682 0.336309 0
0.483864 0.331319 0
0.541863 0.326833 0
0.598093 0.322728 0
0.650431 0.318975 0
0.699092 0.315847 0
0.745754 0.313344 0
0.792126 0.311299 0
0.837415 0.309728 0
0.880873 0.308644 0
0.92285 0.308339 0
0.962844 0.308232 0
1 0.308568 0
1 0.309346 0
1 0.310552 0
1 0.312047 0
1 0.313924 0
1 0.316213 0
1 0.318563 0
0 0.404868 0
0 0.40763 0
0 0.410681 0
0 0.413733 0
0 0.41648 0
0 0.418357 0
0 0.419181 0
0 0.418555 0
0.0453193 0.416571 0
0.0987716 0.413108 0
0.154711 0.408835 0
0.213504 0.404044 0
0.275196 0.398856 0
0.338201 0.393469 0
0.401099 0.388098 0
0.461494 0.383093 0
0.520104 0.378729 0
0.576562 0.374243 0
0.629328 0.370367 0
0.678203 0.367102 0
0.7252 0.364355 0
0.771725 0.362127 0
0.817014 0.360357 0
0.860716 0.359106 0
0.902815 0.358541 0
0.942702 0.358343 0
0.981064 0.358618 0
1 0.359213 0
1 0.360082 0
1 0.361273 0
1 0.362997 0
1 0.364767 0
1 0.366537 0
0 0.454704 0
0 0.457282 0
0 0.460395 0
0 0.463752 0
0 0.466697 0
0 0.468727 0
0 0.469551 0
0 0.469047 0
0.0200504 0.467063 0
0.0741436 0.463462 0
0.131029 0.459083 0
0.190539 0.454108 0
0.25301 0.448722 0
0.31635 0.443244 0
0.379522 0.437797 0
0.440314 0.432685 0
0.499168 0.428016 0
0.555962 0.423407 0
0.608972 0.419196 0
0.658198 0.415625 0
0.705425 0.412604 0
0.7523 0.410056 0
0.798016 0.408194 0
0.842069 0.40679 0
0.884062 0.405783 0
0.924269 0.405264 0
0.962829 0.405249 0
0.999832 0.405646 0
1 0.406439 0
1 0.407568 0
1 0.409155 0
1 0.410758 0
1 0.41236 0
0 0.5028 0
0 0.505241 0
0 0.508263 0
0 0.511452 0
0 0.514275 0
0 0.516442 0
0 0.517678 0
0 0.517479 0
0 0.515557 0
0.05037 0.511925 0
0.10779 0.507454 0
0.167819 0.502388 0
0.231037 0.496727 0
0.295125 0.490974 0
0.358618 0.48539 0
0.419867 0.480354 0
0.478614 0.475273 0
0.535576 0.470451 0
0.588952 0.466163 0
0.63856 0.462394 0
0.685985 0.459327 0
0.733181 0.456672 0
0.779171 0.454765 0
0.823438 0.453147 0
0.865461 0.452018 0
0.905898 0.451286 0
0.944564 0.451087 0
0.981567 0.451316 0
1 0.451957 0
1 0.453086 0
1 0.454154 0
1 0.455497 0
1 0.45687 0
0 0.549798 0
0 0.5523 0
0 0.555352 0
0 0.558587 0
0 0.561486 0
0 0.56376 0
0 0.565103 0
0 0.56524 0
0 0.563333 0
0.0264286 0.55967 0
0.0844282 0.554986 0
0.145083 0.549599 0
0.208621 0.543755 0
0.273396 0.537667 0
0.337713 0.531899 0
0.399237 0.526665 0
0.458244 0.521553 0
0.515511 0.51664 0
0.569375 0.51223 0
0.619181 0.508461 0
0.666804 0.505211 0
0.714458 0.502663 0
0.760525 0.500359 0
0.804913 0.498482 0
0.847074 0.497169 0
0.887678 0.496208 0
0.926345 0.49575 0
0.963424 0.49572 0
0.999084 0.496208 0
1 0.496986 0
1 0.497734 0
1 0.498772 0
1 0.49987 0
0 0.596033 0
0 0.598596 0
0 0.601526 0
0 0.604654 0
0 0.607569 0
0 0.609842 0
0 0.611185 0
0 0.611475 0
0 0.609659 0
0.00306706 0.606012 0
0.0612802 0.60119 0
0.122347 0.595666 0
0.186923 0.589548 0
0.252689 0.58352 0
0.31754 0.577554 0
0.37966 0.571954 0
0.439017 0.566735 0
0.496651 0.561715 0
0.550637 0.557122 0
0.600427 0.553246 0
0.64828 0.549889 0
0.696147 0.547082 0
0.742367 0.544518 0
0.786908 0.542336 0
0.829206 0.540749 0
0.869932 0.539513 0
0.908705 0.53875 0
0.945983 0.538628 0
0.981567 0.538674 0
1 0.53904 0
1 0.539544 0
1 0.540261 0
1 0.541085 0
0 0.641108 0
0 0.643442 0
0 0.646143 0
0 0.649104 0
0 0.651835 0
0 0.654185 0
0 0.655772 0
0 0.655894 0
0 0.654337 0
0 0.650843 0
0.0399176 0.646067 0
0.100923 0.640604 0
0.16614 0.634394 0
0.232914 0.628229 0
0.29868 0.621805 0
0.361501 0.615961 0
0.421286 0.610544 0
0.478874 0.605417 0
0.532845 0.600748 0
0.582818 0.596765 0
0.630915 0.593347 0
0.67866 0.590082 0
0.725048 0.587304 0
0.769635 0.584894 0
0.811948 0.583047 0
0.852628 0.581582 0
0.891585 0.580682 0
0.928817 0.580285 0
0.964263 0.580041 0
0.99826 0.580133 0
1 0.580438 0
1 0.581018 0
1 0.581964 0
0 0.684627 0
0 0.6869 0
0 0.68954 0
0 0.6925 0
0 0.695354 0
0 0.6981 0
0 0.69984 0
0 0.700404 0
0 0.69929 0
0 0.696071 0
0.0194553 0.691402 0
0.0810407 0.685817 0
0.146593 0.679774 0
0.213672 0.673075 0
0.280186 0.666438 0
0.343633 0.660243 0
0.403876 0.654475 0
0.46183 0.649073 0
0.515816 0.644236 0
0.565942 0.640223 0
0.613962 0.636393 0
0.661799 0.632944 0
0.708324 0.629862 0
0.752773 0.627329 0
0.795178 0.625269 0
0.835737 0.623941 0
0.874617 0.62269 0
0.911711 0.621912 0
0.947112 0.62153 0
0.980957 0.621485 0
1 0.621592 0
1 0.622278 0
1 0.622827 0
0 0.728054 0
0 0.730526 0
0 0.733364 0
0 0.736706 0
0 0.74023 0
0 0.74313 0
0 0.745266 0
0 0.746288 0
0 0.745434 0
0 0.742489 0
0 0.737987 0
0.0617533 0.732616 0
0.127672 0.725994 0
0.194812 0.719127 0
0.261967 0.712139 0
0.326009 0.705608 0
0.386725 0.699504 0
0.445075 0.693721 0
0.499428 0.688792 0
0.549294 0.684245 0
0.597345 0.68014 0
0.645197 0.676387 0
0.691829 0.672984 0
0.736095 0.670146 0
0.778775 0.667994 0
0.819059 0.666255 0
0.85771 0.664729 0
0.894591 0.66363 0
0.930022 0.662867 0
0.964065 0.662425 0
0.997223 0.662501 0
1 0.662562 0
1 0.662776 0
0 0.773022 0
0 0.775738 0
0 0.778607 0
0 0.782177 0
0 0.785382 0
0 0.788266 0
0 0.790433 0
0 0.791455 0
0 0.790845 0
0 0.788006 0
0 0.783612 0
0.0436713 0.778042 0
0.109575 0.771298 0
0.177432 0.764004 0
0.244572 0.756756 0
0.309117 0.749844 0
0.37023 0.743374 0
0.42916 0.737469 0
0.483452 0.731823 0
0.533486 0.726879 0
0.581582 0.722469 0
0.629465 0.718349 0
0.676173 0.714748 0
0.72047 0.711696 0
0.762966 0.708949 0
0.803128 0.706798 0
0.841779 0.704997 0
0.878676 0.703578 0
0.914199 0.702815 0
0.948013 0.702113 0
0.98088 0.701625 0
1 0.701396 0
1 0.701396 0
0 0.817334 0
0 0.819959 0
0 0.822934 0
0 0.826307 0
0 0.82945 0
0 0.832181 0
0 0.834333 0
0 0.835386 0
0 0.834928 0
0 0.832486 0
0 0.82797 0
0.0266423 0.82211 0
0.0924239 0.815213 0
0.16022 0.807706 0
0.228168 0.799985 0
0.292973 0.792706 0
0.354314 0.786114 0
0.41326 0.779492 0
0.467842 0.773465 0
0.518151 0.768063 0
0.566445 0.763195 0
0.614572 0.758846 0
0.661173 0.754971 0
0.705486 0.751461 0
0.747982 0.748302 0
0.788174 0.745815 0
0.826886 0.743832 0
0.86392 0.74226 0
0.899168 0.740932 0
0.932921 0.739925 0
0.965774 0.739086 0
0.997635 0.738796 0
1 0.738384 0
0 0.860716 0
0 0.863355 0
0 0.866133 0
0 0.869154 0
0 0.872145 0
0 0.87483 0
0 0.876905 0
0 0.877989 0
0 0.877546 0
0 0.875074 0
0 0.870497 0
0.0109102 0.864576 0
0.076585 0.857374 0
0.144488 0.849561 0
0.212436 0.841535 0
0.277882 0.834089 0
0.339559 0.826734 0
0.398627 0.819684 0
0.453132 0.813291 0
0.503746 0.807492 0
0.552651 0.802502 0
0.601114 0.79762 0
0.647242 0.793347 0
0.691417 0.789593 0
0.733837 0.786282 0
0.774136 0.783734 0
0.812711 0.781292 0
0.849531 0.779263 0
0.884749 0.777569 0
0.9187 0.776547 0
0.951507 0.775402 0
0.983047 0.774533 0
1 0.77377 0
0 0.902861 0
0 0.905577 0
0 0.908064 0
0 0.910826 0
0 0.913588 0
0 0.916136 0
0 0.91809 0
0 0.91931 0
0 0.918761 0
0 0.916106 0
0 0.911513 0
0 0.905409 0
0.0612955 0.898085 0
0.129412 0.890211 0
0.197452 0.881834 0
0.262669 0.873747 0
0.324681 0.866056 0
0.384176 0.85861 0
0.439292 0.851896 0
0.490227 0.845777 0
0.539345 0.840116 0
0.587808 0.834928 0
0.634028 0.83035 0
0.678325 0.826535 0
0.720684 0.822873 0
0.760708 0.819776 0
0.799207 0.817044 0
0.836301 0.814954 0
0.871565 0.81294 0
0.905348 0.811276 0
0.938109 0.809827 0
0.969833 0.808957 0
1 0.80795 0
0 0.944106 0
0 0.946517 0
0 0.948577 0
0 0.951095 0
0 0.953643 0
0 0.955825 0
0 0.957702 0
0 0.958648 0
0 0.958053 0
0 0.955352 0
0 0.950744 0
0 0.944488 0
0.0476844 0.93724 0
0.114809 0.92903 0
0.182986 0.920363 0
0.248447 0.911879 0
0.310353 0.903914 0
0.370336 0.896391 0
0.425559 0.889143 0
0.476753 0.882506 0
0.526223 0.876387 0
0.57528 0.871046 0
0.621683 0.866087 0
0.665904 0.861662 0
0.708247 0.857664 0
0.748653 0.85449 0
0.786999 0.851438 0
0.823713 0.848844 0
0.858839 0.846601 0
0.892683 0.844984 0
0.925383 0.843275 0
0.956802 0.841825 0
0.987716 0.840803 0
0 0.983703 0
0 0.98584 0
0 0.987564 0
0 0.9897 0
0 0.991943 0
0 0.994263 0
0 0.99585 0
0 0.99646 0
0 0.995697 0
0 0.993088 0
0 0.988724 0
0 0.982376 0
0.0338903 0.974823 0
0.10135 0.966232 0
0.169146 0.957397 0
0.235111 0.948867 0
0.297505 0.940414 0
0.357015 0.932342 0
0.412436 0.924712 0
0.464073 0.917845 0
0.514076 0.911437 0
0.56321 0.905425 0
0.609873 0.900053 0
0.654734 0.895476 0
0.696712 0.891295 0
0.73695 0.887556 0
0.775235 0.884611 0
0.811887 0.881712 0
0.846952 0.879194 0
0.880491 0.877058 0
0.913375 0.875364 0
0.944747 0.873671 0
0.975387 0.87216 0
0 1 0
0 1 0
0 1 0
0 1 0
0 1 0
0 1 0
0 1 0
0 1 0
0 1 0
