site/assets/luts/freshluts--0000203-helios.cube
# LUTr-Schema-Version: 2
# LUTr-ID: freshluts--0000203-helios
# LUTr-Title: Helios
# LUTr-Collection: Fresh LUTs
# LUTr-Collection-ID: freshluts-community
# LUTr-Source: https://freshluts.com
# LUTr-Retrieved: 2026-07-27
# LUTr-Source-File: submissions-raw/freshluts/cubes/203__Helios.cube
# LUTr-Source-Format: CUBE
# LUTr-Source-SHA256: c3f93ae18447de83962cdd3c2de4afe9ce12d5787b5331207c483b9c5f5ec1e6
# LUTr-License: CC0-1.0
# LUTr-License-URL: https://freshluts.com/termsandconditions
# LUTr-License-Basis: site-terms
# LUTr-Transform-Class: creative-look
# LUTr-Tags: creative, freshluts, community, cube, cinematic, blockbuster, warm, bmd-film-4k
# LUTr-Input-Color-Space:
# LUTr-Input-Gamut: bmd-film-gamut
# LUTr-Input-Transfer: bmd-film-4k
# LUTr-Output-Color-Space: srgb
# LUTr-Output-Gamut: rec709
# LUTr-Output-Transfer: srgb
# LUTr-Color-Space-Confidence: camera-profile-input-required
# LUTr-Domain-Normalized: true
# LUTr-Shaper: none
# LUTr-Original-Grid: 33x33x33
# LUTr-Conversion-Grid: 33x33x33
# LUTr-Conversion-Interpolation: none
# LUTr-Conversion-Method: Metadata normalization; numeric LUT samples preserved
# LUTr-Conversion-Tool: LUTr scripts/convert-all-to-cube.mjs 2.0.0
# LUTr-Conversion-Date: 2026-07-28
# LUTr-Asset-URL: https://freshluts.com/luts/203
# LUTr-Author: Cube Frames
# LUTr-Author-URL: https://freshluts.com/users/1308
# LUTr-Attribution: Cube Frames via Fresh LUTs
# LUTr-Source-Labels: gamma=Blackmagic BMD Film 4K; color=Warm; key=Neutral; style=Blockbuster
# LUTr-Note: Preserve this metadata and the upstream license notices when redistributing.
TITLE "Helios"
LUT_3D_SIZE 9
DOMAIN_MIN 0 0 0
DOMAIN_MAX 1 1 1
0.0185702 0.0221256 0.0233158
0.0337987 0.0313573 0.033402
0.0634165 0.0367895 0.0396582
0.13489 0.0322271 0.0354009
0.277684 0.0115053 0.01355
0.459968 0 0
0.633066 0 0
0.800671 0 0
0.969299 0 0
0.0374914 0.0650187 0.0536202
0.0616617 0.0756847 0.0611276
0.119051 0.0804761 0.0612802
0.279927 0.0637064 0.0311589
0.523339 0.0332189 0
0.758144 0.0129549 0
0.931121 0.016495 0
1 0.0387274 0
1 0.0701305 0
0.0212558 0.145693 0.0549172
0.0588846 0.169421 0.0520943
0.171176 0.183856 0.0293584
0.432364 0.17116 0
0.70779 0.161837 0
0.906981 0.171405 0
1 0.199969 0
1 0.234836 0.00793469
1 0.266072 0.0390173
0 0.349493 0
0 0.392386 0
0.179095 0.408759 0
0.455985 0.398535 0
0.708171 0.391501 0
0.897047 0.400168 0
1 0.42591 0
1 0.449699 0
1 0.480354 0
0 0.59559 0
0.0214084 0.620676 0
0.191257 0.634592 0
0.439841 0.629511 0
0.690852 0.626642 0
0.905791 0.640696 0
1 0.661738 0
1 0.686824 0
1 0.707088 0
0 0.801221 0
0.052842 0.83447 0
0.21532 0.85098 0
0.395972 0.874693 0
0.672374 0.853422 0
0.877317 0.84332 0
0.998047 0.850217 0
1 0.8607 0
1 0.867491 0
0 0.997574 0
0 1 0
0.14992 1 0
0.419059 1 0
0.687541 0.99086 0
0.878019 0.968109 0
0.986404 0.963668 0
1 0.964309 0
1 0.963027 0
0 1 0
0.0155184 1 0
0.181979 1 0
0.439994 1 0
0.698466 1 0
0.879942 1 0
0.98172 1 0
1 1 0
1 1 0
0 1 0
0.0252079 1 0
0.186435 1 0
0.439094 1 0
0.692744 1 0
0.869642 1 0
0.968795 1 0
1 1 0
1 1 0
0.0208438 0.0250706 0.0327611
0.0364233 0.0336919 0.0451667
0.0681773 0.0388342 0.0542
0.148638 0.0320287 0.0527504
0.305562 0.00732433 0.0374914
0.498161 0 0.0155337
0.675624 0 0
0.84242 0 0
1 0 0
0.0385748 0.068101 0.0733654
0.0639658 0.0788891 0.0852827
0.127626 0.082948 0.0898451
0.303273 0.0635386 0.0674449
0.557366 0.0318608 0.0286564
0.79147 0.0138552 0.00163272
0.956649 0.0218357 0.00181582
1 0.0479744 0.0234226
1 0.081178 0.0564889
0.0195315 0.152895 0.0907454
0.0601053 0.178256 0.0949416
0.183749 0.192508 0.0821088
0.454459 0.179889 0.0421454
0.725261 0.172168 0.0169985
0.919387 0.182452 0.0240482
1 0.211261 0.0535897
1 0.245594 0.0885176
1 0.269871 0.113405
0 0.364889 0
0.000396735 0.404944 0.00154116
0.198856 0.419379 0.0122988
0.468788 0.409644 0.00628672
0.719921 0.401892 0.000701915
0.909194 0.411124 0.0116121
1 0.433249 0.0110323
1 0.458732 0.0126497
1 0.489754 0.04477
0 0.604074 0
0.0351263 0.630304 0
0.201495 0.646357 0
0.450797 0.641337 0
0.700725 0.641505 0
0.916045 0.649973 0
1 0.669856 0
1 0.693416 0
1 0.712062 0
0 0.812757 0
0.0635691 0.845716 0
0.205905 0.869337 0
0.395468 0.886717 0
0.678233 0.859815 0
0.8822 0.84799 0
1 0.853437 0
1 0.862623 0
1 0.868284 0
0 1 0.00129702
0 1 0
0.153063 1 0
0.420844 1 0
0.688533 0.992737 0
0.878523 0.96878 0
0.986236 0.963394 0
1 0.963363 0
1 0.961532 0
0 1 0
0.016434 1 0.000259403
0.181338 1 0
0.438483 1 0
0.69662 1 0
0.878126 1 0
0.979767 1 0
1 1 0
1 1 0
0 1 0.00892653
0.0235904 1 0.00508125
0.183871 1 0
0.436103 1 0
0.689723 1 0
0.866987 1 0
0.966384 1 0
1 1 0
1 1 0
0.0218814 0.0266117 0.0513771
0.0377203 0.0348821 0.0707866
0.0704662 0.0392157 0.0858167
0.162936 0.0288243 0.0950179
0.337469 0 0.0979019
0.540993 0 0.0962997
0.720516 0 0.098497
0.882704 0 0.105486
1 0 0.115434
0.0380102 0.0692454 0.118105
0.0640421 0.0796826 0.141787
0.133837 0.0821851 0.161074
0.325475 0.0592203 0.157015
0.589212 0.0260166 0.13875
0.819852 0.0107424 0.128817
0.974594 0.0233921 0.139986
1 0.0530556 0.167727
1 0.0872663 0.201572
0.0148623 0.156878 0.173907
0.0593118 0.182605 0.199786
0.193774 0.196063 0.206149
0.47155 0.183841 0.178027
0.736355 0.177584 0.15964
0.926757 0.188434 0.169284
1 0.217304 0.198352
1 0.250904 0.232197
1 0.263218 0.261707
0 0.373617 0.123201
0.017258 0.410529 0.144533
0.21236 0.424689 0.155398
0.475319 0.415885 0.147829
0.727398 0.407233 0.142565
0.919463 0.416587 0.152972
1 0.433158 0.154772
1 0.462211 0.181003
1 0.492592 0.212345
0 0.607111 0.088304
0.0420691 0.635843 0.117205
0.206577 0.653315 0.133074
0.456199 0.648402 0.127535
0.703685 0.650309 0.0733043
0.919966 0.652705 0.0626841
1 0.671321 0.0837873
1 0.693233 0.107607
1 0.710338 0.126223
0 0.81915 0.10985
0.0691997 0.851743 0.141054
0.175021 0.887495 0.12105
0.395117 0.888609 0.0614176
0.677272 0.859815 0.0324559
0.880644 0.84625 0.0200809
0.998947 0.850233 0.0257725
1 0.858137 0.0353246
1 0.862715 0.0413062
0 1 0.13048
0 1 0.125246
0.149645 1 0.116472
0.415961 1 0.0777447
0.682948 0.988449 0.0348821
0.87274 0.963317 0.00967422
0.97998 0.957031 0.00407416
1 0.956344 0.00442512
1 0.953964 0.0031281
0 1 0.154177
0.0109712 1 0.156573
0.17438 1 0.135912
0.430671 1 0.0874037
0.688502 1 0.0365301
0.870253 1 0.00482185
0.971878 1 0
1 1 0
1 1 0
0 1 0.163546
0.0158236 1 0.158358
0.175219 1 0.131395
0.427024 1 0.0784161
0.680659 1 0.0243381
0.858427 1 0
0.95819 1 0
1 1 0
1 1 0
0.0216373 0.0267643 0.0836652
0.0369573 0.0339208 0.114611
0.071458 0.036759 0.147936
0.178576 0.0194705 0.193927
0.373907 0 0.239246
0.587213 0 0.273411
0.765011 0 0.303136
0.917327 0 0.329686
1 0 0.351339
0.0343481 0.0669566 0.198932
0.0607309 0.0761273 0.248768
0.136461 0.0755779 0.308431
0.342443 0.0470893 0.349783
0.61416 0.012192 0.362432
0.838361 0.000579843 0.366659
0.980026 0.0182803 0.382834
1 0.0505837 0.41355
1 0.0854505 0.447532
0.00366217 0.15404 0.352468
0.0540475 0.178317 0.415305
0.19852 0.190951 0.450767
0.476143 0.180423 0.429892
0.736599 0.175036 0.407965
0.92575 0.186313 0.417411
1 0.215 0.445121
1 0.240513 0.486366
1 0.2448 0.54789
0 0.370321 0.385031
0.0301976 0.405234 0.40441
0.217945 0.420493 0.408026
0.47274 0.413046 0.399435
0.727687 0.404028 0.390723
0.935836 0.40882 0.406699
1 0.423453 0.440482
1 0.455222 0.472587
1 0.484871 0.502556
0 0.601877 0.334386
0.040238 0.633585 0.364706
0.203952 0.651667 0.381109
0.445487 0.649439 0.372946
0.695552 0.645991 0.348928
0.913619 0.644541 0.351751
1 0.661845 0.37171
1 0.682155 0.393698
1 0.697795 0.410559
0 0.817136 0.355688
0.0582284 0.851789 0.385351
0.124544 0.896406 0.37911
0.383474 0.879515 0.348638
0.664744 0.849119 0.315938
0.868269 0.833692 0.301442
0.985611 0.83621 0.306325
1 0.842908 0.315084
1 0.846479 0.320195
0 1 0.397787
0 1 0.410513
0.135546 1 0.399969
0.400092 1 0.359106
0.666209 0.97351 0.313726
0.856153 0.947234 0.286381
0.96318 0.940124 0.279927
1 0.938781 0.280018
1 0.935912 0.278569
0 1 0.435737
0 1 0.436774
0.156878 1 0.414878
0.412161 1 0.365011
0.669581 1 0.312581
0.851713 1 0.279377
0.953506 1 0.267567
1 1 0.263478
1 0.99942 0.259403
0 1 0.441657
0 1 0.435645
0.156176 1 0.40795
0.407462 1 0.354131
0.661006 1 0.299092
0.839384 1 0.264408
0.93962 1 0.251621
1 1 0.247364
1 1 0.24361
0.0217136 0.0273136 0.111177
0.0371557 0.0338293 0.151141
0.075288 0.0334325 0.211124
0.197116 0.00842298 0.306065
0.409949 0 0.402075
0.630243 0 0.474388
0.802625 0 0.527352
0.943313 0 0.568307
1 0 0.597986
0.0314794 0.0661784 0.270298
0.0589456 0.0735943 0.352331
0.141756 0.0690776 0.454948
0.358999 0.0358587 0.546624
0.633707 0.000442512 0.593606
0.849424 0 0.612436
0.977844 0.0142824 0.634806
1 0.0478523 0.666865
1 0.0831006 0.700893
0 0.153613 0.517906
0.0521401 0.176745 0.613748
0.205875 0.188312 0.674662
0.476768 0.178912 0.674769
0.733013 0.172595 0.664256
0.923461 0.183734 0.673136
1 0.211749 0.699763
1 0.219593 0.785519
1 0.23476 0.852049
0 0.368063 0.62652
0.0424506 0.401022 0.649851
0.220584 0.416449 0.662867
0.4692 0.409232 0.659236
0.724758 0.400763 0.65124
0.952453 0.395361 0.707439
1 0.415763 0.744366
1 0.447135 0.774746
1 0.475914 0.802991
0 0.597803 0.587167
0.0384985 0.630671 0.62031
0.202548 0.648676 0.638605
0.419394 0.650752 0.655985
0.687083 0.637232 0.658137
0.906523 0.634409 0.65568
1 0.650645 0.672236
1 0.669505 0.691432
1 0.683803 0.706065
0 0.814237 0.609552
0.00677501 0.861158 0.652171
0.0944686 0.893446 0.677104
0.370825 0.868421 0.64979
0.649226 0.837003 0.61416
0.854337 0.819562 0.595666
0.971054 0.820584 0.599893
1 0.8262 0.607446
1 0.828855 0.611276
0 1 0.693767
0 1 0.706538
0.1205 1 0.695277
0.383017 1 0.65359
0.647517 0.957183 0.606546
0.837781 0.929854 0.576501
0.945068 0.921904 0.568826
1 0.919936 0.568643
1 0.916625 0.566903
0 1 0.727901
0 1 0.728298
0.13843 1 0.705959
0.392554 1 0.655665
0.64918 1 0.602396
0.831662 1 0.567742
0.933822 0.989868 0.554833
1 0.98497 0.550439
1 0.979736 0.546487
0 1 0.730922
0 1 0.724697
0.136202 1 0.696925
0.386862 1 0.642939
0.640131 1 0.587564
0.819043 1 0.552209
0.919844 1 0.538857
0.993973 1 0.534463
1 1 0.530404
0.0222324 0.0283207 0.135546
0.0383001 0.0340429 0.189349
0.0811017 0.0302739 0.278248
0.215885 0 0.411414
0.442588 0 0.542184
0.66601 0 0.63711
0.832609 0 0.703548
0.962402 0 0.752117
1 0 0.784405
0.0288396 0.0661784 0.340749
0.0583505 0.0720073 0.452735
0.149126 0.064683 0.588846
0.37586 0.0293431 0.709529
0.650004 0 0.772854
0.857359 0 0.798169
0.979599 0.0161593 0.822873
1 0.0504768 0.856367
1 0.0858167 0.890974
0 0.156252 0.660212
0.054902 0.179095 0.777478
0.216587 0.190555 0.849378
0.481117 0.182223 0.857969
0.734325 0.175921 0.852415
0.925689 0.186511 0.862699
1 0.205737 0.912551
1 0.205539 1
1 0.233845 1
0 0.371145 0.799023
0.0549325 0.402518 0.832502
0.224704 0.418555 0.851041
0.471626 0.411383 0.846174
0.72781 0.401144 0.858991
0.961532 0.390082 0.947814
1 0.41442 0.97229
1 0.445045 1
1 0.472709 1
0 0.599786 0.777401
0.0421759 0.632975 0.811505
0.20705 0.650706 0.830442
0.401053 0.65362 0.893736
0.684794 0.634592 0.889296
0.903181 0.630365 0.886732
1 0.644953 0.899886
1 0.662379 0.916579
1 0.675349 0.929305
0 0.817792 0.803708
0 0.874067 0.880034
0.0915847 0.889067 0.903456
0.366125 0.862196 0.876783
0.641398 0.829282 0.844083
0.845319 0.8103 0.82536
0.962249 0.81004 0.825376
1 0.814847 0.830396
1 0.816739 0.832517
0 1 0.916884
0 1 0.929168
0.111788 1 0.917861
0.372549 0.990555 0.876829
0.634791 0.945998 0.830976
0.824033 0.917922 0.800488
0.932311 0.909041 0.790951
1 0.906447 0.790158
1 0.9028 0.787594
0 1 0.947677
0 1 0.948043
0.126131 1 0.926162
0.379126 1 0.876692
0.634562 1 0.824384
0.8168 0.988022 0.78999
0.91931 0.975937 0.776455
0.993317 0.970825 0.771664
1 0.965545 0.767544
0 1 0.94905
0 1 0.943297
0.122271 1 0.916228
0.372259 1 0.863203
0.624994 1 0.80882
0.80415 1 0.774136
0.905409 1 0.761044
0.979797 1 0.756527
1 1 0.752239
0.0235142 0.0302434 0.158801
0.0402075 0.0346227 0.226825
0.0876478 0.0283818 0.336812
0.233845 0 0.493339
0.470665 0 0.640604
0.696071 0 0.743175
0.857649 0 0.811948
0.978622 0 0.859785
1 0 0.889876
0.0273747 0.0677043 0.403784
0.0599374 0.0727245 0.536431
0.158862 0.0640879 0.691417
0.394217 0.0289464 0.820325
0.6663 0 0.88275
0.866423 0 0.904372
0.988098 0.0249332 0.9299
1 0.0597696 0.964431
1 0.090074 1
0 0.162615 0.767254
0.0631113 0.186343 0.888792
0.231373 0.198779 0.957214
0.490517 0.191623 0.964248
0.742519 0.185718 0.95935
0.934051 0.195743 0.969955
1 0.201312 1
1 0.208759 1
1 0.241184 1
0 0.379812 0.902693
0.0690623 0.410803 0.939467
0.234501 0.427054 0.957732
0.480766 0.420249 0.952667
0.739406 0.405203 1
0.968277 0.39765 1
1 0.421439 1
1 0.451072 1
1 0.477424 1
0 0.608545 0.885832
0.0524147 0.641962 0.920272
0.205631 0.66157 0.951537
0.400366 0.661311 1
0.690944 0.640406 1
0.90605 0.635248 1
1 0.647593 1
1 0.663294 1
1 0.674876 1
0 0.834119 0.931456
0 0.887587 1
0.0969253 0.892409 1
0.370367 0.863706 1
0.644709 0.829099 0.967147
0.844633 0.809369 0.949508
0.96051 0.807858 0.94902
1 0.811627 0.952041
1 0.812802 0.95285
0 1 1
0 1 1
0.11165 1 1
0.371389 0.988022 0.997635
0.63241 0.942443 0.952178
0.819791 0.913741 0.923598
0.927596 0.904189 0.914183
1 0.901061 0.911177
1 0.897215 0.907469
0 1 1
0 1 1
0.12253 1 1
0.374792 1 0.995956
0.629267 1 0.944335
0.810636 0.982666 0.910857
0.912764 0.970428 0.897383
0.98764 0.965057 0.89189
1 0.959701 0.887724
0 1 1
0 1 1
0.117052 1 1
0.366613 1 0.982055
0.618845 1 0.928512
0.797894 1 0.894667
0.899351 1 0.882155
0.97377 1 0.877333
1 1 0.872892
0.0247044 0.0320439 0.184009
0.042649 0.0355077 0.267445
0.0950942 0.0271305 0.394812
0.252094 0 0.567056
0.497215 0 0.722362
0.723476 0 0.826078
0.879988 0 0.892622
0.992325 0 0.936065
1 0 0.964706
0.0265507 0.0700389 0.467323
0.0626993 0.0745098 0.615702
0.170092 0.0654612 0.781506
0.413016 0.0317998 0.909087
0.681865 0.0065156 0.963912
0.876326 0.00973526 0.979522
0.999313 0.0364843 1
1 0.0716564 1
1 0.0879683 1
0 0.170748 0.858656
0.0748608 0.196063 0.977005
0.247578 0.209567 1
0.501884 0.203433 1
0.753475 0.197787 1
0.946578 0.206088 1
1 0.199405 1
1 0.219364 1
1 0.251759 1
0 0.390631 0.979004
0.0824598 0.422004 1
0.246189 0.437812 1
0.492546 0.431739 1
0.753445 0.411109 1
0.977905 0.408423 1
1 0.43154 1
1 0.460075 1
1 0.484962 1
0 0.619989 0.962798
0.0650187 0.653529 0.997375
0.192218 0.676921 1
0.410971 0.670649 1
0.699794 0.64892 1
0.912276 0.642557 1
1 0.653208 1
1 0.667262 1
1 0.677424 1
0 0.854505 1
0 0.897902 1
0.10486 0.898451 1
0.377066 0.868101 1
0.649882 0.832135 1
0.847059 0.811597 1
0.960739 0.809247 1
1 0.811795 1
1 0.812161 1
0 1 1
0 1 1
0.114687 1 1
0.373693 0.988388 1
0.634073 0.941848 1
0.820478 0.912535 1
0.926268 0.902754 0.994492
1 0.899184 0.991226
1 0.895033 0.986236
0 1 1
0 1 1
0.122454 1 1
0.37435 1 1
0.628428 1 1
0.809079 0.980392 0.989502
0.91043 0.968063 0.977249
0.98529 0.962646 0.971893
1 0.957244 0.966583
0 1 1
0 1 1
0.115526 1 1
0.364935 1 1
0.616968 1 1
0.795789 1 0.973144
0.897139 1 0.961334
0.970916 1 0.956024
1 1 0.951003
0.025742 0.0337072 0.216342
0.0449226 0.035874 0.314122
0.102647 0.0253605 0.459419
0.27097 0 0.647745
0.523156 0 0.808454
0.748714 0 0.910674
0.899153 0 0.97293
1 0 1
1 0 1
0.0255894 0.0720836 0.539101
0.0659342 0.0763409 0.70309
0.181872 0.067216 0.876005
0.430701 0.035935 0.998672
0.695491 0.0151217 1
0.886778 0.0207523 1
1 0.0482643 1
1 0.0835279 1
1 0.0818799 1
0 0.179599 0.953948
0.088426 0.206348 1
0.263127 0.2206 1
0.513497 0.21532 1
0.764614 0.209689 1
0.969421 0.209964 1
1 0.200473 1
1 0.230121 1
1 0.262333 1
0 0.401389 1
0.0945296 0.433402 1
0.257954 0.448814 1
0.503624 0.443137 1
0.766293 0.417884 1
0.987732 0.419043 1
1 0.441413 1
1 0.468818 1
1 0.492119 1
0 0.631601 1
0.0775158 0.665125 1
0.173754 0.69221 1
0.421317 0.679774 1
0.708202 0.657008 1
0.918425 0.649226 1
1 0.658381 1
1 0.671016 1
1 0.679805 1
0 0.873686 1
0 0.905379 1
0.112184 0.904112 1
0.382971 0.872221 1
0.654139 0.835004 1
0.849195 0.81355 1
0.961181 0.810315 1
1 0.811978 1
1 0.811582 1
0 1 1
0 1 1
0.117479 1 1
0.375784 0.988571 1
0.635416 0.941222 1
0.820584 0.911467 1
0.925078 0.901457 1
1 0.897719 1
1 0.893126 1
0 1 1
0 1 1
0.12253 1 1
0.374228 1 1
0.628061 1 1
0.808118 0.978103 1
0.909224 0.965667 1
0.983139 0.960418 1
1 0.955154 1
0 1 1
0 1 1
0.114351 1 1
0.363821 1 1
0.6159 1 1
0.794537 1 1
0.895644 1 1
0.968902 1 1
1 1 1
