site/assets/luts/freshluts--0001245-cineliked-interior.cube
# LUTr-Schema-Version: 2
# LUTr-ID: freshluts--0001245-cineliked-interior
# LUTr-Title: CinelikeD_Interior
# LUTr-Collection: Fresh LUTs
# LUTr-Collection-ID: freshluts-community
# LUTr-Source: https://freshluts.com
# LUTr-Retrieved: 2026-07-27
# LUTr-Source-File: submissions-raw/freshluts/cubes/1245___GH5S__CinelikeD_Interior_Orange_Tone.cube
# LUTr-Source-Format: CUBE
# LUTr-Source-SHA256: 8f0f566e0b764435e429e3e9eee8d845c37070977eefb9a56be319e846d9b8d8
# LUTr-License: CC0-1.0
# LUTr-License-URL: https://freshluts.com/termsandconditions
# LUTr-License-Basis: site-terms
# LUTr-Transform-Class: creative-look
# LUTr-Tags: creative, freshluts, community, cube, orange, panasonic-cinelike-d
# LUTr-Input-Color-Space: panasonic-cinelike-d
# LUTr-Input-Gamut: rec709
# LUTr-Input-Transfer: panasonic-cinelike-d
# LUTr-Output-Color-Space: srgb
# LUTr-Output-Gamut: rec709
# LUTr-Output-Transfer: srgb
# LUTr-Color-Space-Confidence: inferred-from-source-label
# LUTr-Domain-Normalized: true
# LUTr-Shaper: none
# LUTr-Original-Grid: 33x33x33
# LUTr-Conversion-Grid: 33x33x33
# LUTr-Conversion-Interpolation: none
# LUTr-Conversion-Method: Metadata normalization; numeric LUT samples preserved
# LUTr-Conversion-Tool: LUTr scripts/convert-all-to-cube.mjs 2.0.0
# LUTr-Conversion-Date: 2026-07-28
# LUTr-Asset-URL: https://freshluts.com/luts/1245
# LUTr-Author: Son Triple
# LUTr-Author-URL: https://freshluts.com/users/127032
# LUTr-Attribution: Son Triple via Fresh LUTs
# LUTr-Source-Labels: gamma=Panasonic Cinelike-D; color=Orange; key=Neutral; style=Interior
# LUTr-Note: Preserve this metadata and the upstream license notices when redistributing.
TITLE "CinelikeD_Interior"
LUT_3D_SIZE 33
DOMAIN_MIN 0 0 0
DOMAIN_MAX 1 1 1
0.00267033 0.00347906 0
0.0209201 0.0103609 0
0.0432136 0.0166781 0
0.0629282 0.0213626 0
0.0849928 0.0263523 0.000015259
0.10811 0.0322576 0.000167849
0.133349 0.0392462 0.00030518
0.161593 0.0475776 0.000198367
0.194125 0.057435 0
0.231205 0.0688945 0
0.272175 0.0806439 0
0.317601 0.0930495 0
0.366873 0.105791 0
0.418952 0.119051 0
0.472251 0.132921 0
0.523735 0.147219 0
0.572885 0.162036 0.00216678
0.616724 0.176837 0.00666819
0.655741 0.191333 0.0114443
0.691356 0.205203 0.0167849
0.723507 0.217807 0.0216983
0.753933 0.229572 0.0261997
0.781186 0.240085 0.0307317
0.805447 0.249454 0.034699
0.827787 0.258122 0.0383764
0.846967 0.265339 0.0416876
0.864866 0.272221 0.0449226
0.881773 0.27866 0.0476234
0.898146 0.284779 0.0506142
0.913756 0.290364 0.0534066
0.928878 0.296101 0.0561074
0.943297 0.301457 0.0586557
0.958083 0.306722 0.0613718
0.00584421 0.0319524 0
0.0259251 0.0341039 0.00601205
0.0515755 0.0349432 0
0.0710613 0.0380102 0
0.0908064 0.0422827 0
0.112657 0.0478065 0.0000762951
0.137072 0.0547646 0.000274662
0.165713 0.0633249 0.000259403
0.198047 0.0736248 0
0.235142 0.084184 0
0.276204 0.095201 0
0.320256 0.106218 0
0.366629 0.117754 0
0.413779 0.129152 0
0.461158 0.141131 0
0.507362 0.153445 0
0.551797 0.166293 0.00242618
0.593515 0.178973 0.00581369
0.631052 0.191745 0.0099794
0.664469 0.204135 0.014313
0.696254 0.216419 0.0191806
0.725475 0.22739 0.0233921
0.752667 0.237644 0.0274205
0.777646 0.247028 0.0314946
0.80029 0.255268 0.0350958
0.82092 0.262852 0.0385748
0.840009 0.26978 0.0418402
0.858549 0.276677 0.0449836
0.876051 0.282918 0.0478676
0.892912 0.289021 0.0507668
0.908995 0.294759 0.0536202
0.92546 0.300496 0.0564279
0.942168 0.306432 0.0593118
0.0113985 0.0610666 0.014786
0.0326848 0.0616159 0.0205997
0.05066 0.0649729 0.0279545
0.0762036 0.063798 0.0142977
0.0996109 0.0624094 0
0.120623 0.0660563 0.00015259
0.144701 0.0717021 0.000366217
0.172335 0.0788281 0.000274662
0.203937 0.0873274 0
0.240177 0.0965744 0
0.279698 0.106188 0
0.321996 0.116304 0
0.366735 0.126955 0
0.412222 0.137652 0
0.458717 0.149218 0
0.503624 0.160845 0.000915541
0.547311 0.173205 0.00332647
0.588296 0.185443 0.00672923
0.625299 0.197635 0.0104982
0.658778 0.209689 0.0148928
0.690211 0.221424 0.0193942
0.71902 0.232395 0.0237125
0.746242 0.242206 0.0277104
0.771054 0.251118 0.0316777
0.79379 0.259403 0.0352178
0.814908 0.267048 0.0384985
0.834974 0.274159 0.0418555
0.853925 0.280842 0.0450599
0.87219 0.287343 0.0479896
0.889662 0.293568 0.0513008
0.906935 0.29955 0.0542458
0.924529 0.305623 0.0571756
0.941772 0.311467 0.0602274
0.0164187 0.0858473 0.0275883
0.038056 0.0858015 0.0326696
0.056672 0.0879835 0.0378271
0.0734264 0.0909285 0.0456703
0.100313 0.0898604 0.0298161
0.127367 0.0863203 0.00492866
0.1514 0.088304 0.000198367
0.178164 0.0927291 0.000335698
0.208728 0.0990768 0.000015259
0.243244 0.106676 0
0.28159 0.115068 0
0.322591 0.124132 0
0.36614 0.134051 0
0.411276 0.144518 0
0.456199 0.155215 0
0.500633 0.16669 0.00170901
0.543435 0.178454 0.00424201
0.583612 0.19028 0.00726329
0.620798 0.202335 0.0110628
0.654383 0.214191 0.0152438
0.685924 0.22594 0.0196841
0.715023 0.236591 0.0238956
0.741527 0.246342 0.0280766
0.767163 0.25568 0.0319982
0.790814 0.264073 0.0355077
0.813016 0.272007 0.0392157
0.83389 0.279271 0.04271
0.853056 0.286152 0.0457771
0.872114 0.292622 0.0489967
0.889647 0.298863 0.0521248
0.908019 0.305043 0.0552224
0.926177 0.311299 0.0582742
0.943816 0.317449 0.0613718
0.0217441 0.110491 0.0407568
0.0441291 0.110369 0.0466011
0.0636912 0.111803 0.051667
0.0799725 0.113924 0.0567636
0.0970474 0.116838 0.0664225
0.125948 0.115099 0.0460975
0.156161 0.110201 0.0163119
0.183948 0.109895 0.000518807
0.213535 0.113527 0.000335698
0.24712 0.11899 0
0.283619 0.12575 0
0.323445 0.133669 0
0.365728 0.142504 0
0.409323 0.152026 0
0.453666 0.162158 0.0009308
0.497276 0.17293 0.00270085
0.539178 0.183871 0.00485237
0.579812 0.195514 0.00788891
0.61648 0.206973 0.0113375
0.650401 0.21886 0.0158541
0.681529 0.230076 0.0201114
0.70985 0.240284 0.0239872
0.737697 0.250523 0.0284276
0.764141 0.259861 0.0323491
0.788647 0.268803 0.0361791
0.811963 0.277165 0.040116
0.832944 0.284611 0.0435187
0.853498 0.291783 0.046891
0.873304 0.298543 0.0502937
0.892424 0.305211 0.0534981
0.911467 0.311711 0.056611
0.929824 0.31812 0.0599222
0.948516 0.324437 0.0632639
0.0275273 0.136507 0.0561074
0.0503243 0.135943 0.0616465
0.0703441 0.136995 0.0677348
0.0860914 0.138308 0.0720531
0.102892 0.140352 0.0772259
0.121035 0.143282 0.0862287
0.152773 0.140383 0.0632792
0.186862 0.133944 0.0255436
0.218585 0.132067 0.000900282
0.251057 0.134447 0.000610361
0.286275 0.139269 0.000411994
0.324742 0.145632 0.00047303
0.365576 0.153094 0.000335698
0.407691 0.161517 0.000854505
0.450919 0.170794 0.00201419
0.493339 0.180819 0.00367742
0.535225 0.191379 0.00596628
0.575204 0.202304 0.00889601
0.611795 0.213214 0.0121157
0.645029 0.224216 0.016022
0.6766 0.235065 0.0204013
0.705974 0.245731 0.0247044
0.734142 0.255634 0.0287938
0.761364 0.265293 0.0330968
0.786725 0.274311 0.0368811
0.810285 0.282338 0.040589
0.832898 0.290211 0.0444038
0.854353 0.297673 0.0479286
0.874662 0.304921 0.0513771
0.895155 0.311849 0.0549172
0.914473 0.318486 0.0582132
0.934173 0.325109 0.0615702
0.953643 0.33164 0.065095
0.0335851 0.163531 0.0720989
0.0572061 0.162295 0.0782483
0.0764477 0.163363 0.0829633
0.0918746 0.164401 0.0868238
0.108186 0.165805 0.0908064
0.125887 0.167636 0.0952163
0.145953 0.170809 0.10486
0.181811 0.166781 0.0813306
0.219593 0.159289 0.0385748
0.254917 0.154681 0.00146487
0.289387 0.156634 0.00149538
0.325643 0.160403 0.00140383
0.365499 0.166506 0.00170901
0.406256 0.173495 0.00228885
0.448417 0.181903 0.00341802
0.48986 0.190829 0.00479133
0.530892 0.200504 0.00714122
0.569879 0.210407 0.00987259
0.606104 0.220737 0.0130007
0.639994 0.231357 0.0168154
0.671504 0.241886 0.0209506
0.701305 0.252338 0.0251164
0.730114 0.262425 0.0295109
0.757885 0.271992 0.0336614
0.783917 0.280812 0.037644
0.809461 0.28954 0.0418402
0.833249 0.297749 0.045655
0.855222 0.305241 0.049134
0.877256 0.312688 0.0529183
0.897963 0.319753 0.0564126
0.918624 0.326757 0.060029
0.938552 0.33373 0.0635386
0.958434 0.340276 0.0670939
0.0444648 0.190417 0.0898756
0.0687877 0.188067 0.0952621
0.0822309 0.191363 0.0962387
0.0968338 0.192294 0.100343
0.113039 0.193561 0.10454
0.130678 0.195209 0.109041
0.149996 0.196933 0.11368
0.172152 0.19968 0.123568
0.212467 0.194934 0.0986648
0.253407 0.186557 0.0561074
0.292287 0.178851 0.00282292
0.32781 0.180179 0.00285344
0.365637 0.183459 0.00321965
0.405142 0.188861 0.00407416
0.445457 0.195346 0.00508125
0.485725 0.203006 0.00643931
0.525154 0.211353 0.00843824
0.563272 0.220279 0.0110781
0.599939 0.23003 0.013901
0.634455 0.240192 0.0176242
0.666514 0.250553 0.0218967
0.696849 0.260761 0.0260166
0.725795 0.27039 0.0302281
0.754162 0.280003 0.0345006
0.781903 0.289174 0.0387427
0.808286 0.298177 0.043061
0.833158 0.306691 0.0470283
0.85684 0.314733 0.0511177
0.879454 0.322286 0.0546578
0.901106 0.329702 0.0583505
0.92256 0.336919 0.0621805
0.943282 0.344076 0.0657359
0.964157 0.350851 0.0691539
0.0636759 0.215564 0.110658
0.0802319 0.215808 0.112612
0.0879225 0.221118 0.110277
0.102296 0.222263 0.114534
0.117418 0.223178 0.118563
0.135073 0.224796 0.123171
0.154284 0.226307 0.127657
0.175921 0.228199 0.13254
0.200977 0.231174 0.143816
0.243992 0.225605 0.117647
0.287129 0.216129 0.0784009
0.329198 0.203815 0.00944533
0.365881 0.205142 0.00514229
0.403326 0.207767 0.00598154
0.442039 0.212039 0.00669871
0.480659 0.217685 0.00823987
0.519158 0.22475 0.010071
0.557214 0.232761 0.0123445
0.594278 0.241642 0.0152743
0.628779 0.251057 0.0188296
0.661341 0.260945 0.0229038
0.691524 0.27068 0.0271153
0.722148 0.28072 0.0317998
0.751232 0.290288 0.0357214
0.779751 0.299825 0.0402686
0.807233 0.308965 0.0444343
0.833509 0.317662 0.0487984
0.858183 0.32607 0.0530556
0.881987 0.334188 0.0568551
0.904692 0.341543 0.0606088
0.926665 0.349172 0.0645457
0.947997 0.356252 0.0682078
0.96965 0.36347 0.071809
0.0899977 0.239796 0.135592
0.0914931 0.245029 0.129549
0.0955825 0.251637 0.125872
0.107744 0.253635 0.128954
0.122652 0.255085 0.133577
0.139681 0.256626 0.138216
0.158419 0.257801 0.142824
0.1794 0.258732 0.146929
0.203601 0.260563 0.152224
0.229831 0.262776 0.163699
0.275502 0.25684 0.137087
0.320928 0.246677 0.0996567
0.36434 0.234089 0.0387579
0.401541 0.230945 0.0077821
0.438697 0.232517 0.00885023
0.476219 0.235935 0.0101472
0.514733 0.241428 0.0119936
0.55285 0.248493 0.0140383
0.588922 0.256001 0.016846
0.623331 0.264363 0.0201724
0.656458 0.273884 0.0242466
0.687388 0.283345 0.0284733
0.718868 0.293584 0.0331579
0.748638 0.303014 0.0374914
0.778149 0.312779 0.0422065
0.806577 0.321965 0.046479
0.833539 0.331029 0.0509041
0.859815 0.339803 0.0551614
0.884077 0.347814 0.0591745
0.907698 0.355749 0.063386
0.930999 0.363531 0.0672923
0.952987 0.370932 0.071107
0.975433 0.37818 0.0749371
0.063508 0.285389 0.130098
0.0830091 0.282994 0.134112
0.106523 0.282399 0.144167
0.113985 0.286259 0.144411
0.128267 0.287831 0.148608
0.144656 0.289158 0.153613
0.162829 0.290028 0.157961
0.182879 0.290425 0.162554
0.206073 0.29102 0.166354
0.231724 0.292058 0.171389
0.259419 0.294392 0.183764
0.306798 0.287449 0.15552
0.353704 0.277653 0.119051
0.398062 0.26482 0.0666056
0.437491 0.25803 0.0111391
0.475212 0.259205 0.0127108
0.512413 0.262196 0.0139925
0.549767 0.267338 0.0163272
0.585229 0.273442 0.0189364
0.620249 0.281086 0.0220951
0.65362 0.290135 0.0262455
0.685359 0.299474 0.0306554
0.716899 0.309163 0.0350805
0.748165 0.318791 0.0399023
0.777661 0.328313 0.0442054
0.80705 0.337972 0.0489052
0.835126 0.346929 0.0535134
0.862119 0.355703 0.0577859
0.887221 0.364096 0.0621653
0.91162 0.37229 0.0662699
0.934752 0.380011 0.070161
0.95758 0.387533 0.0740826
0.980346 0.394858 0.0778363
0.0733806 0.317296 0.145785
0.0902724 0.315328 0.148989
0.106508 0.317143 0.154543
0.119753 0.318822 0.159182
0.134295 0.320882 0.164492
0.149416 0.321736 0.168841
0.166735 0.322118 0.173205
0.186358 0.322515 0.177768
0.208499 0.322469 0.181415
0.233906 0.323247 0.186252
0.261097 0.324559 0.191302
0.290394 0.327062 0.204746
0.339117 0.319692 0.175479
0.387579 0.310018 0.139574
0.433036 0.297795 0.0933394
0.474968 0.285634 0.0148623
0.511437 0.287358 0.0166781
0.548257 0.290501 0.0188296
0.585092 0.295628 0.0215763
0.619806 0.301823 0.0246586
0.653727 0.310353 0.0289616
0.68571 0.318929 0.0331273
0.717632 0.328344 0.0379797
0.749035 0.337591 0.0424506
0.779583 0.347173 0.047303
0.809598 0.356466 0.0520485
0.837903 0.365484 0.0564126
0.865888 0.374655 0.0611887
0.89134 0.382803 0.0652171
0.916411 0.391165 0.0695964
0.940169 0.399176 0.07364
0.964157 0.406973 0.0776226
0.98674 0.414252 0.0816663
0.0836652 0.351385 0.163073
0.0979477 0.347677 0.164523
0.113237 0.34966 0.169802
0.126558 0.352132 0.174914
0.139986 0.353521 0.179553
0.154803 0.354742 0.184176
0.171695 0.355886 0.189425
0.19057 0.356161 0.193591
0.212329 0.356329 0.198215
0.236637 0.356344 0.202213
0.263249 0.356832 0.206653
0.291814 0.358129 0.212085
0.322362 0.360723 0.226764
0.372366 0.354025 0.197314
0.422431 0.344869 0.161624
0.469718 0.333272 0.119692
0.513375 0.320745 0.0543679
0.55079 0.319829 0.0221866
0.58793 0.323003 0.0249485
0.62237 0.327855 0.0280919
0.656504 0.334936 0.0322576
0.688807 0.342702 0.0367742
0.72108 0.3514 0.0413519
0.752789 0.360342 0.0459449
0.783307 0.369284 0.0507362
0.813886 0.378622 0.0555734
0.843015 0.387289 0.0602121
0.87129 0.39649 0.0648966
0.897383 0.404669 0.068986
0.922713 0.413092 0.0733349
0.946929 0.420996 0.0777752
0.971435 0.428824 0.0818036
0.994202 0.436164 0.0852979
0.0936446 0.383963 0.179614
0.106294 0.380819 0.180743
0.120394 0.382864 0.186206
0.133379 0.384787 0.191104
0.146685 0.387289 0.196323
0.161074 0.388876 0.201068
0.176822 0.390005 0.205753
0.195773 0.390829 0.210803
0.21651 0.390402 0.215137
0.240238 0.39028 0.219226
0.266377 0.39057 0.223682
0.294514 0.39144 0.228397
0.32488 0.393393 0.23447
0.356359 0.396201 0.250568
0.408621 0.390631 0.220951
0.459663 0.382071 0.185016
0.508293 0.372152 0.145647
0.553445 0.360815 0.0939651
0.592081 0.355688 0.0288701
0.627863 0.359045 0.0323033
0.661524 0.364172 0.0362097
0.694362 0.371084 0.0408331
0.726467 0.378729 0.0455482
0.758206 0.386648 0.0500954
0.789364 0.395148 0.054902
0.819745 0.403662 0.0597086
0.84947 0.412451 0.0642557
0.878294 0.421256 0.0691844
0.905028 0.429358 0.0733196
0.930648 0.437446 0.0780346
0.955337 0.44567 0.0819562
0.979706 0.453208 0.0858473
1 0.460883 0.0895399
0.103807 0.41709 0.197086
0.115236 0.414282 0.198108
0.12845 0.416068 0.203067
0.141329 0.41912 0.208484
0.153735 0.421363 0.21355
0.16791 0.423362 0.218418
0.183627 0.425101 0.223682
0.201678 0.426108 0.22887
0.222065 0.426856 0.233616
0.245975 0.427054 0.238636
0.271778 0.426871 0.242863
0.299687 0.427817 0.247684
0.329274 0.429023 0.252674
0.361242 0.431876 0.259815
0.393942 0.435325 0.276829
0.448051 0.430121 0.247181
0.499931 0.422477 0.211429
0.549493 0.414145 0.173617
0.594095 0.404959 0.131868
0.634745 0.395453 0.0640116
0.668101 0.398947 0.0411383
0.701076 0.403769 0.0454871
0.73373 0.409995 0.050248
0.765957 0.417426 0.0550851
0.797269 0.424582 0.059678
0.828275 0.432731 0.0645151
0.858305 0.441032 0.0693523
0.886687 0.448814 0.0736706
0.914549 0.457191 0.0786145
0.94049 0.464881 0.0827497
0.966125 0.472602 0.0866255
0.990097 0.480369 0.0902724
1 0.488075 0.0941939
0.114672 0.451591 0.216144
0.124819 0.448997 0.216876
0.137316 0.451804 0.221469
0.150011 0.454978 0.227543
0.162295 0.457603 0.232624
0.176196 0.460609 0.238331
0.19173 0.462547 0.243626
0.209125 0.464118 0.248966
0.229999 0.465354 0.254459
0.252689 0.465476 0.259083
0.278584 0.466194 0.264271
0.306111 0.466514 0.268711
0.336385 0.467781 0.274159
0.367834 0.469673 0.279759
0.400473 0.472541 0.28716
0.434669 0.476814 0.306004
0.488472 0.471717 0.276051
0.540993 0.465995 0.241901
0.589837 0.458564 0.204456
0.634852 0.451545 0.166506
0.674891 0.444053 0.119203
0.709575 0.441718 0.0509804
0.742657 0.446021 0.0558328
0.775189 0.451896 0.0603799
0.807187 0.458152 0.065095
0.83798 0.465095 0.0696269
0.868605 0.472709 0.074876
0.897139 0.47985 0.0790723
0.925307 0.487678 0.0835431
0.95172 0.495308 0.0876478
0.977279 0.50251 0.091249
1 0.509773 0.0950179
1 0.51696 0.0983291
0.12636 0.488045 0.236622
0.136065 0.48687 0.237858
0.147631 0.489555 0.242451
0.15967 0.492607 0.248035
0.172503 0.496513 0.254383
0.185992 0.499229 0.259876
0.201434 0.501671 0.265476
0.219028 0.504219 0.271458
0.238773 0.505272 0.276249
0.261921 0.506386 0.282124
0.287373 0.506493 0.287007
0.314748 0.506752 0.291737
0.344747 0.507958 0.297124
0.375937 0.50956 0.30277
0.40882 0.511986 0.308553
0.442313 0.515221 0.31667
0.476661 0.519417 0.336172
0.531518 0.51545 0.307042
0.582925 0.510491 0.273716
0.630579 0.505379 0.238911
0.67393 0.499763 0.202625
0.714137 0.494652 0.165942
0.752392 0.489296 0.116243
0.78497 0.490333 0.0660868
0.81767 0.495537 0.0712444
0.848783 0.501198 0.0756695
0.879576 0.50753 0.0803082
0.908675 0.514076 0.0844739
0.936965 0.521004 0.088777
0.964248 0.527947 0.0927443
0.989441 0.534463 0.0960555
1 0.541405 0.0993668
1 0.547875 0.102327
0.138811 0.52636 0.259251
0.148348 0.526238 0.261265
0.158953 0.529046 0.265049
0.171252 0.532998 0.271412
0.183719 0.536416 0.277501
0.197253 0.539559 0.283345
0.212512 0.543038 0.289631
0.229801 0.545068 0.294865
0.24979 0.546685 0.300679
0.272435 0.547921 0.306493
0.297246 0.548241 0.311421
0.324742 0.548638 0.316503
0.355001 0.549584 0.322011
0.385779 0.550607 0.326863
0.418433 0.552804 0.332738
0.451972 0.555489 0.339193
0.486397 0.559136 0.347967
0.520623 0.563577 0.368704
0.574289 0.560006 0.340078
0.624323 0.556695 0.308476
0.669917 0.552483 0.274952
0.712596 0.549264 0.24213
0.752773 0.545205 0.208545
0.791608 0.541283 0.173968
0.829038 0.537926 0.127779
0.860258 0.540002 0.0816815
0.891539 0.545617 0.0860761
0.921233 0.550942 0.0903487
0.94931 0.556497 0.0938125
0.976532 0.562356 0.0971542
1 0.568215 0.100267
1 0.574166 0.103136
1 0.580224 0.105608
0.152193 0.566781 0.283528
0.161227 0.566812 0.285496
0.171939 0.56997 0.290074
0.183886 0.573709 0.296376
0.196445 0.577371 0.302373
0.21001 0.581338 0.309071
0.225116 0.584588 0.314992
0.242161 0.586801 0.320821
0.26183 0.588861 0.326436
0.284337 0.590265 0.332113
0.308919 0.590646 0.337285
0.336583 0.591714 0.342763
0.366003 0.591974 0.347997
0.396933 0.592554 0.353185
0.429892 0.594263 0.35874
0.463157 0.596078 0.364492
0.497169 0.599405 0.371618
0.531518 0.603357 0.381018
0.564736 0.60734 0.402243
0.616678 0.605234 0.375494
0.664256 0.602731 0.345434
0.707408 0.600015 0.314229
0.749584 0.597452 0.283223
0.790051 0.5944 0.252247
0.829175 0.591745 0.222049
0.8663 0.589731 0.192142
0.901213 0.587503 0.155444
0.933028 0.588586 0.0948806
0.961715 0.593164 0.0981765
0.988296 0.598032 0.101122
1 0.602899 0.103655
1 0.608103 0.106569
1 0.613397 0.108965
0.167193 0.608072 0.310521
0.17554 0.60853 0.312276
0.186816 0.612299 0.31754
0.198123 0.615503 0.323079
0.210742 0.619516 0.329976
0.224384 0.623499 0.336416
0.239734 0.626459 0.342626
0.256489 0.629129 0.34844
0.276585 0.631586 0.354696
0.298116 0.632639 0.36022
0.322713 0.633021 0.364981
0.35024 0.633936 0.370825
0.379126 0.634134 0.375814
0.410239 0.634409 0.380896
0.442481 0.635569 0.386664
0.475776 0.636774 0.391608
0.509468 0.638926 0.397604
0.543648 0.642298 0.405325
0.576806 0.64593 0.414603
0.609308 0.650217 0.437415
0.657115 0.648234 0.410986
0.701198 0.646326 0.382849
0.744396 0.644755 0.35433
0.785748 0.642206 0.324926
0.825345 0.640162 0.296712
0.863722 0.63859 0.270115
0.900053 0.636988 0.244175
0.934432 0.636118 0.219333
0.967544 0.636011 0.196643
0.997879 0.636988 0.172976
1 0.638209 0.144976
1 0.643076 0.110536
1 0.647471 0.113298
0.183337 0.649927 0.339101
0.191516 0.650507 0.341207
0.202853 0.654169 0.347097
0.214176 0.657298 0.352483
0.226978 0.661189 0.35906
0.240284 0.665339 0.365911
0.255818 0.668544 0.372534
0.272343 0.671031 0.378286
0.292073 0.673548 0.384314
0.313405 0.674586 0.389746
0.337835 0.674784 0.394415
0.365255 0.675639 0.400412
0.394385 0.675639 0.405402
0.424704 0.675547 0.409827
0.456641 0.676036 0.415351
0.489036 0.676509 0.420066
0.52256 0.677791 0.424933
0.556481 0.680156 0.431937
0.588952 0.682795 0.438682
0.620111 0.686244 0.448112
0.649943 0.690608 0.470985
0.694682 0.689189 0.446738
0.738567 0.687938 0.42153
0.780652 0.686366 0.394507
0.821118 0.68455 0.36791
0.860304 0.683391 0.342748
0.89752 0.682368 0.318837
0.932845 0.681498 0.296941
0.966903 0.682094 0.27808
0.997757 0.682902 0.261784
1 0.684291 0.247379
1 0.686503 0.234836
1 0.689097 0.224002
0.200092 0.691112 0.368933
0.208759 0.692012 0.372
0.220478 0.695583 0.377661
0.231113 0.69865 0.383215
0.243565 0.702571 0.389456
0.257099 0.706737 0.396414
0.272099 0.709621 0.402609
0.289006 0.711925 0.408362
0.30808 0.714351 0.414466
0.329274 0.715236 0.419303
0.35346 0.715434 0.424155
0.380148 0.715358 0.429129
0.409155 0.714961 0.433814
0.438788 0.714595 0.438361
0.470344 0.714519 0.442924
0.502449 0.714549 0.447272
0.535592 0.715129 0.451911
0.568399 0.716609 0.457465
0.600198 0.718624 0.463447
0.63093 0.721599 0.470771
0.660212 0.726116 0.481056
0.68806 0.730159 0.503914
0.732052 0.729183 0.481895
0.775006 0.728313 0.458442
0.816358 0.727413 0.434516
0.855772 0.726406 0.411383
0.894133 0.72604 0.389319
0.930495 0.726055 0.369131
0.964935 0.726223 0.351171
0.996353 0.727413 0.336538
1 0.729397 0.324361
1 0.731395 0.313542
1 0.734188 0.304463
0.217136 0.731777 0.399084
0.226246 0.733074 0.403021
0.237018 0.736385 0.408148
0.247562 0.739528 0.413596
0.25951 0.742916 0.419532
0.272618 0.746487 0.425361
0.287648 0.749325 0.431724
0.303731 0.751461 0.437095
0.322438 0.752956 0.442298
0.34374 0.75433 0.447791
0.367742 0.754055 0.451743
0.393683 0.753506 0.45623
0.4224 0.752911 0.460273
0.452247 0.752148 0.464515
0.483116 0.75169 0.469123
0.51548 0.751614 0.473274
0.54789 0.751614 0.477699
0.579751 0.752468 0.482353
0.611643 0.754299 0.487724
0.641794 0.757183 0.49453
0.670863 0.761212 0.502678
0.699214 0.766064 0.512871
0.726406 0.770428 0.536416
0.769238 0.769818 0.515679
0.811337 0.769497 0.495674
0.851865 0.769055 0.474922
0.890181 0.768933 0.454765
0.926909 0.76939 0.436423
0.961654 0.769818 0.419516
0.993576 0.771008 0.405509
1 0.772671 0.393851
1 0.775555 0.384741
1 0.778164 0.375906
0.232731 0.771389 0.428351
0.24181 0.772961 0.432303
0.251575 0.775662 0.436912
0.262013 0.778698 0.441886
0.273304 0.781826 0.447333
0.285908 0.784695 0.45275
0.300771 0.787472 0.458427
0.317296 0.789837 0.464103
0.335805 0.790982 0.468818
0.35697 0.79176 0.47364
0.380606 0.791623 0.477684
0.406592 0.790829 0.481636
0.435157 0.790066 0.485908
0.464775 0.789242 0.48983
0.49546 0.788281 0.493828
0.527337 0.787762 0.497902
0.559487 0.787869 0.502297
0.591592 0.788495 0.506813
0.622858 0.790417 0.511894
0.653239 0.793454 0.518791
0.681758 0.797086 0.52604
0.709957 0.801129 0.534295
0.737911 0.8065 0.544472
0.764797 0.810788 0.566995
0.806745 0.810483 0.548882
0.847425 0.810666 0.53164
0.88603 0.81059 0.513848
0.92285 0.811002 0.496941
0.957763 0.811719 0.481636
0.990219 0.813382 0.469108
1 0.815457 0.458488
1 0.817731 0.448905
1 0.82005 0.440574
0.246616 0.809277 0.456046
0.255436 0.811215 0.459754
0.264973 0.813596 0.463859
0.274937 0.816342 0.468803
0.285908 0.819593 0.473686
0.29865 0.822263 0.479088
0.313497 0.825193 0.484413
0.329976 0.826993 0.489403
0.348653 0.828183 0.494667
0.369619 0.828702 0.498695
0.393347 0.828428 0.502678
0.419242 0.827619 0.506615
0.448112 0.82678 0.510475
0.47805 0.826032 0.514977
0.508476 0.825132 0.518425
0.540352 0.824308 0.522347
0.572793 0.824399 0.52697
0.604623 0.825284 0.531487
0.635309 0.82681 0.536629
0.664714 0.829297 0.542428
0.693767 0.833021 0.549203
0.721736 0.836606 0.556497
0.749569 0.841123 0.564569
0.777188 0.846479 0.57525
0.803586 0.850965 0.596704
0.843641 0.85098 0.58117
0.882185 0.851102 0.566033
0.919615 0.851621 0.551156
0.95465 0.852506 0.537438
0.986984 0.85417 0.526131
1 0.856046 0.515984
1 0.858442 0.507546
1 0.860594 0.499336
0.259495 0.846754 0.482734
0.267918 0.848585 0.486397
0.277592 0.851041 0.490196
0.287083 0.853498 0.494423
0.298756 0.856809 0.499702
0.311513 0.859678 0.50457
0.325597 0.862058 0.509728
