site/assets/luts/freshluts--0000698-vintage-mob.cube
# LUTr-Schema-Version: 2
# LUTr-ID: freshluts--0000698-vintage-mob
# LUTr-Title: Vintage Mob
# LUTr-Collection: Fresh LUTs
# LUTr-Collection-ID: freshluts-community
# LUTr-Source: https://freshluts.com
# LUTr-Retrieved: 2026-07-27
# LUTr-Source-File: submissions-raw/freshluts/cubes/698__Vintage_Mob.cube
# LUTr-Source-Format: CUBE
# LUTr-Source-SHA256: e782171b0dd554dfb404ae9ac5702caf1801107a52a4ef1f4460e7137423eb49
# LUTr-License: CC0-1.0
# LUTr-License-URL: https://freshluts.com/termsandconditions
# LUTr-License-Basis: site-terms
# LUTr-Transform-Class: creative-look
# LUTr-Tags: creative, freshluts, community, cube, vintage, warm, low-key, rec709
# LUTr-Input-Color-Space: rec709
# LUTr-Input-Gamut: rec709
# LUTr-Input-Transfer: rec709
# LUTr-Output-Color-Space: srgb
# LUTr-Output-Gamut: rec709
# LUTr-Output-Transfer: srgb
# LUTr-Color-Space-Confidence: inferred-from-source-label
# LUTr-Domain-Normalized: true
# LUTr-Shaper: none
# LUTr-Original-Grid: 16x16x16
# LUTr-Conversion-Grid: 16x16x16
# LUTr-Conversion-Interpolation: none
# LUTr-Conversion-Method: Metadata normalization; numeric LUT samples preserved
# LUTr-Conversion-Tool: LUTr scripts/convert-all-to-cube.mjs 2.0.0
# LUTr-Conversion-Date: 2026-07-28
# LUTr-Asset-URL: https://freshluts.com/luts/698
# LUTr-Author: InAvision
# LUTr-Author-URL: https://freshluts.com/users/64078
# LUTr-Attribution: InAvision via Fresh LUTs
# LUTr-Source-Labels: gamma=Rec 709; color=Warm; key=Low Key; style=Vintage
# LUTr-Note: Preserve this metadata and the upstream license notices when redistributing.
TITLE "Vintage Mob"
LUT_3D_SIZE 6
DOMAIN_MIN 0 0 0
DOMAIN_MAX 1 1 1
0.012473 0.008774 0.011725
0.348966 0.022116 0.000734
0.633135 0 0
0.759285 0 0
0.81166 0 0
0.838264 0.007239 0
0 0.213918 0.050722
0.181878 0.237615 0.017403
0.557677 0.286689 0
0.777259 0.285356 0
0.868996 0.275354 0
0.886616 0.256367 0
0 0.434366 0.104427
0.087578 0.467825 0.045896
0.547179 0.547308 0
0.819176 0.542174 0
0.91265 0.512506 0
0.947941 0.467078 0
0 0.583454 0.193016
0 0.618311 0.139434
0.455301 0.69399 0.008069
0.806152 0.732991 0
0.930067 0.693347 0
0.972678 0.636788 0
0 0.66322 0.291979
0 0.698636 0.252414
0.340445 0.766442 0.195074
0.718633 0.826552 0.021217
0.932775 0.835482 0
0.980387 0.776624 0
0 0.703132 0.336851
0 0.732845 0.315168
0.165547 0.784741 0.276977
0.595254 0.845524 0.211798
0.860743 0.881266 0.077834
0.974964 0.872225 0
0.146412 0.004178 0.275515
0.553095 0 0.203187
0.709379 0 0.149643
0.799895 0 0.10633
0.844547 0 0.067183
0.86502 0 0.020782
0 0.237967 0.31464
0.214934 0.266737 0.280714
0.615344 0.301039 0.234057
0.814328 0.299335 0.186899
0.901998 0.300844 0.152288
0.92608 0.305337 0.137361
0 0.482168 0.371762
0.011278 0.515679 0.342077
0.57709 0.58169 0.303377
0.842174 0.56797 0.237997
0.936463 0.537395 0.187211
0.970666 0.497177 0.15657
0 0.630667 0.415205
0 0.671744 0.394971
0.483236 0.741014 0.375058
0.824367 0.773724 0.323274
0.943193 0.731052 0.261498
0.989769 0.673069 0.205606
0 0.704187 0.45485
0 0.749443 0.448173
0.372702 0.813949 0.433249
0.727424 0.864002 0.399766
0.936535 0.877275 0.35395
0.988327 0.816916 0.296611
0 0.734567 0.464595
0 0.782181 0.479845
0.184673 0.830209 0.456693
0.615316 0.880498 0.454472
0.868467 0.913423 0.41534
0.977469 0.910426 0.38115
0.571687 0 0.521633
0.791596 0 0.470452
0.783552 0 0.426149
0.83409 0 0.39215
0.87457 0 0.346735
0.892427 0 0.287201
0.002566 0.241268 0.550378
0.323443 0.281488 0.551745
0.682324 0.304072 0.531342
0.841385 0.312466 0.480487
0.917684 0.328333 0.434827
0.94056 0.342175 0.388302
0 0.516661 0.617554
0.070348 0.556664 0.614209
0.619304 0.615241 0.606767
0.858361 0.631047 0.586768
0.955529 0.629291 0.562114
0.991786 0.628338 0.550151
0 0.68197 0.640387
0 0.720533 0.632003
0.549527 0.785058 0.639205
0.845025 0.813012 0.627208
0.951541 0.791039 0.604243
0.998679 0.758 0.582904
0 0.752168 0.639511
0 0.794139 0.633965
0.489071 0.869946 0.656385
0.771059 0.904983 0.660148
0.938782 0.920542 0.640827
0.99221 0.873299 0.617094
0 0.773568 0.616713
0 0.815648 0.618243
0.462715 0.896152 0.666353
0.697163 0.923122 0.679075
0.879387 0.946395 0.665192
0.979194 0.951535 0.649379
0.762407 0 0.613145
0.838746 0 0.590861
0.861987 0 0.567159
0.86217 0 0.562305
0.892525 0 0.529609
0.903042 0 0.476563
0.224445 0.227089 0.683099
0.478664 0.262484 0.70316
0.738428 0.268254 0.697247
0.86819 0.275254 0.660064
0.926957 0.300771 0.614546
0.948954 0.32571 0.560307
0 0.514087 0.751707
0.335764 0.561608 0.767461
0.686236 0.626124 0.772361
0.8781 0.641018 0.75133
0.969664 0.647653 0.716991
0.994844 0.650074 0.680804
0 0.709945 0.785771
0.023337 0.753367 0.797469
0.612189 0.807337 0.804613
0.864686 0.830422 0.795039
0.961582 0.832644 0.780469
1.004585 0.833794 0.773003
0 0.796832 0.78648
0 0.83841 0.790439
0.539877 0.897251 0.7995
0.841224 0.933713 0.816628
0.947069 0.942847 0.804264
0.997148 0.91553 0.790388
0 0.813243 0.758111
0 0.852433 0.754352
0.499034 0.917587 0.775797
0.823677 0.959687 0.825416
0.907433 0.968321 0.817602
0.98496 0.974131 0.807492
0.8288 0 0.657681
0.86572 0 0.643556
0.886026 0 0.629201
0.873467 0 0.610388
0.897373 0 0.62801
0.908053 0 0.60407
0.442107 0.175724 0.743823
0.592305 0.225306 0.75817
0.767738 0.22295 0.758635
0.874483 0.22671 0.734476
0.934812 0.251554 0.721305
0.955499 0.290496 0.687609
0.257742 0.501593 0.814576
0.52513 0.558744 0.826466
0.761288 0.624432 0.836717
0.887899 0.633032 0.826731
0.982278 0.641187 0.81284
0.998542 0.6484 0.783944
0 0.701764 0.847143
0.398573 0.747591 0.859025
0.699416 0.796413 0.864015
0.885161 0.833133 0.863992
0.97652 0.839039 0.8582
1.013557 0.842309 0.841174
0 0.83219 0.865634
0.20042 0.876851 0.875886
0.630116 0.914992 0.876894
0.866734 0.942493 0.880925
0.961036 0.95065 0.876396
1.002863 0.952255 0.873596
0 0.846798 0.835477
0 0.885782 0.839344
0.566494 0.933729 0.850052
0.850095 0.96785 0.870454
0.949588 0.978383 0.881597
0.995256 0.982422 0.879023
0.85522 0 0.664822
0.871623 0 0.659471
0.887038 0 0.65329
0.896572 0 0.647558
0.887217 0 0.641429
0.90856 0 0.654828
0.54068 0.073642 0.758227
0.660461 0.194844 0.783286
0.769268 0.191331 0.783478
0.857378 0.192405 0.765905
0.91574 0.209261 0.751802
0.960949 0.242742 0.743753
0.46035 0.461146 0.83455
0.59598 0.503956 0.843754
0.797898 0.62064 0.864318
0.880506 0.625273 0.858399
0.961027 0.631963 0.845031
1.00272 0.638122 0.83597
0.255655 0.6592 0.872438
0.523466 0.702798 0.880525
0.760775 0.772656 0.888262
0.898111 0.832968 0.892108
0.962426 0.836986 0.887047
1.020481 0.840864 0.882423
0 0.799827 0.891529
0.422568 0.83856 0.900318
0.703164 0.880019 0.904242
0.884638 0.916448 0.904777
0.970377 0.951304 0.904376
1.013133 0.953317 0.901766
0 0.881114 0.902644
0.33141 0.919207 0.90948
0.650738 0.948942 0.909981
0.868001 0.973448 0.912998
0.959049 0.981609 0.909568
1.000023 0.98475 0.907182
