site/assets/luts/freshluts--0000292-redmood.cube
# LUTr-Schema-Version: 2
# LUTr-ID: freshluts--0000292-redmood
# LUTr-Title: RedMood
# LUTr-Collection: Fresh LUTs
# LUTr-Collection-ID: freshluts-community
# LUTr-Source: https://freshluts.com
# LUTr-Retrieved: 2026-07-27
# LUTr-Source-File: submissions-raw/freshluts/cubes/292__redmood_49.cube
# LUTr-Source-Format: CUBE
# LUTr-Source-SHA256: 86a711489df6b65eab14f3b161ebc2cc1d60ca73bb434fdd4a514d12e3c75c02
# LUTr-License: CC0-1.0
# LUTr-License-URL: https://freshluts.com/termsandconditions
# LUTr-License-Basis: site-terms
# LUTr-Transform-Class: creative-look
# LUTr-Tags: creative, freshluts, community, cube, blue, rec709
# LUTr-Input-Color-Space: rec709
# LUTr-Input-Gamut: rec709
# LUTr-Input-Transfer: rec709
# LUTr-Output-Color-Space: srgb
# LUTr-Output-Gamut: rec709
# LUTr-Output-Transfer: srgb
# LUTr-Color-Space-Confidence: inferred-from-source-label
# LUTr-Domain-Normalized: true
# LUTr-Shaper: none
# LUTr-Original-Grid: 33x33x33
# LUTr-Conversion-Grid: 33x33x33
# LUTr-Conversion-Interpolation: none
# LUTr-Conversion-Method: Metadata normalization; numeric LUT samples preserved
# LUTr-Conversion-Tool: LUTr scripts/convert-all-to-cube.mjs 2.0.0
# LUTr-Conversion-Date: 2026-07-28
# LUTr-Asset-URL: https://freshluts.com/luts/292
# LUTr-Author: Emanouil Koutsios
# LUTr-Author-URL: https://freshluts.com/users/10778
# LUTr-Attribution: Emanouil Koutsios via Fresh LUTs
# LUTr-Source-Labels: gamma=Rec 709; color=Blue; key=Neutral; style=Drama
# LUTr-Note: Preserve this metadata and the upstream license notices when redistributing.
TITLE "RedMood"
LUT_3D_SIZE 33
DOMAIN_MIN 0 0 0
DOMAIN_MAX 1 1 1
0.00357061 0.0131991 0.0136568
0.0216068 0.0149691 0.0152285
0.0451362 0.0182956 0.0177157
0.0706493 0.0222171 0.0205234
0.0916762 0.0251926 0.0225528
0.113313 0.0281224 0.0244907
0.131548 0.030518 0.0259861
0.15314 0.033341 0.0276493
0.174273 0.0358434 0.0290227
0.195987 0.0386053 0.0305943
0.215976 0.0411688 0.0319524
0.235416 0.0439612 0.0330053
0.258427 0.0466773 0.0336614
0.282628 0.0491646 0.0338903
0.304143 0.0514229 0.033875
0.325856 0.0537118 0.0337835
0.350332 0.0558328 0.0333867
0.370687 0.057435 0.033051
0.392721 0.0592966 0.0342412
0.415106 0.0611582 0.0356756
0.440436 0.0632639 0.0378424
0.460548 0.0647746 0.0395514
0.482368 0.0663157 0.0413672
0.504204 0.0677958 0.0432136
0.52343 0.0692454 0.0449226
0.544961 0.0710613 0.047013
0.566598 0.0731975 0.049134
0.585031 0.0750896 0.0509194
0.605417 0.0771496 0.0528267
0.625925 0.0793011 0.0547799
0.641917 0.0813764 0.0565652
0.644068 0.0824903 0.0576486
0.644434 0.0834211 0.0585946
0.00317388 0.035172 0.0370336
0.0220493 0.0377813 0.0400702
0.0459907 0.0414893 0.0430304
0.0716411 0.0450141 0.0456397
0.093843 0.0481575 0.0481117
0.116091 0.0511482 0.0502327
0.13431 0.053666 0.0518959
0.156954 0.0567788 0.0537881
0.178485 0.0592203 0.0550393
0.200381 0.0618753 0.0563363
0.220188 0.0644694 0.0576333
0.240085 0.0671397 0.0588846
0.264332 0.0698405 0.0597848
0.289265 0.0725872 0.0603647
0.310842 0.0750286 0.0605783
0.332982 0.0773327 0.0605478
0.358053 0.0796979 0.0603342
0.377966 0.0816968 0.0603189
0.400992 0.0838941 0.0598611
0.424094 0.0861524 0.0605173
0.449653 0.0881514 0.0615702
0.469581 0.0898756 0.0634775
0.49192 0.0914168 0.0654765
0.513863 0.0927138 0.0674754
0.533196 0.0940108 0.0694591
0.555123 0.0958419 0.0717021
0.576989 0.0980697 0.0738079
0.595407 0.100328 0.0758221
0.616449 0.102617 0.0779278
0.637278 0.104845 0.0800946
0.65243 0.107103 0.0821088
0.652811 0.10811 0.0830854
0.653208 0.109163 0.084123
0.00448615 0.0610208 0.0649119
0.0229953 0.0637522 0.0682231
0.0440986 0.066865 0.0714427
0.0700542 0.0703136 0.0746471
0.0939193 0.0734569 0.0771344
0.116777 0.0767376 0.0793927
0.136553 0.0798047 0.0814069
0.159518 0.082948 0.083299
0.181918 0.0855879 0.0847944
0.204181 0.0884413 0.0864118
0.224598 0.0912947 0.0879225
0.245686 0.094316 0.089128
0.270634 0.097261 0.0899672
0.295048 0.099794 0.0904402
0.317327 0.101991 0.0908064
0.340825 0.104204 0.0909285
0.365927 0.106523 0.0908217
0.386694 0.108659 0.0907607
0.409995 0.111131 0.090135
0.433555 0.113024 0.0886244
0.458473 0.114794 0.0874495
0.479179 0.116411 0.0890669
0.502068 0.118013 0.0910506
0.52462 0.11986 0.0934462
0.544671 0.121309 0.0954147
0.566705 0.12314 0.0976883
0.588174 0.125078 0.0999008
0.607355 0.127352 0.102068
0.628656 0.129976 0.104463
0.649226 0.132692 0.106966
0.662776 0.134798 0.108904
0.662989 0.135668 0.109728
0.663355 0.136645 0.110658
0.00698863 0.0864881 0.0936141
0.0254978 0.0894789 0.0970321
0.0462501 0.0925154 0.100908
0.0673228 0.095552 0.103746
0.0897841 0.0987106 0.106706
0.115251 0.102541 0.109194
0.137652 0.10576 0.111162
0.161395 0.108949 0.1131
0.184665 0.111864 0.115267
0.207599 0.114961 0.117098
0.228931 0.11809 0.118822
0.251133 0.121035 0.120073
0.276555 0.123888 0.120592
0.301457 0.126543 0.121416
0.324468 0.128985 0.122225
0.348669 0.131579 0.122942
0.373434 0.134386 0.123354
0.395438 0.13698 0.123705
0.419196 0.139361 0.123476
0.443961 0.141421 0.122988
0.469032 0.143404 0.121767
0.490135 0.145251 0.119615
0.513664 0.147448 0.119875
0.535836 0.14931 0.120882
0.556664 0.15111 0.122972
0.579263 0.15314 0.125551
0.600534 0.155291 0.128115
0.620264 0.157763 0.130861
0.64184 0.160525 0.133516
0.661677 0.163317 0.135988
0.673365 0.165545 0.138079
0.673777 0.166644 0.139254
0.674144 0.167559 0.140307
0.00917067 0.111177 0.121187
0.0281224 0.114336 0.124743
0.049012 0.117433 0.128649
0.0696117 0.120394 0.131762
0.0881056 0.123461 0.134463
0.110338 0.126452 0.137301
0.13489 0.129671 0.139712
0.163012 0.133288 0.142031
0.187366 0.136675 0.144091
0.210452 0.140063 0.146487
0.232425 0.143206 0.148135
0.256092 0.146517 0.149432
0.282261 0.14992 0.150103
0.307317 0.152514 0.150988
0.330678 0.155016 0.151995
0.3561 0.157946 0.153109
0.38085 0.160586 0.153536
0.403296 0.162951 0.153964
0.427878 0.165469 0.154528
0.453758 0.167575 0.154772
0.478782 0.169772 0.153811
0.501274 0.172122 0.153658
0.52517 0.174243 0.154238
0.547158 0.17615 0.155459
0.568582 0.178012 0.156909
0.591501 0.180255 0.158968
0.612543 0.182879 0.161257
0.632486 0.185275 0.16318
0.654261 0.188052 0.165515
0.673518 0.190616 0.167742
0.683223 0.19237 0.169406
0.683619 0.193332 0.170565
0.684138 0.194644 0.172107
0.0116121 0.13373 0.146395
0.0307469 0.136919 0.150027
0.0520027 0.140291 0.154101
0.0721141 0.143587 0.158053
0.0907607 0.146212 0.160815
0.10724 0.148592 0.163638
0.130785 0.151644 0.166522
0.158801 0.155398 0.169039
0.188418 0.159792 0.17145
0.212909 0.163287 0.173312
0.235813 0.166506 0.17496
0.2607 0.170001 0.176684
0.287892 0.173892 0.178546
0.313146 0.177432 0.180026
0.33753 0.180392 0.181064
0.36405 0.183062 0.181704
0.388724 0.185733 0.182406
0.41239 0.188098 0.18291
0.437461 0.19057 0.183551
0.464439 0.19324 0.184604
0.489128 0.195895 0.185718
0.512413 0.19823 0.186664
0.53637 0.200488 0.187747
0.558602 0.202869 0.189364
0.580423 0.205112 0.191028
0.603647 0.207965 0.19321
0.623941 0.210864 0.195407
0.644434 0.213672 0.19791
0.666285 0.216724 0.200809
0.685267 0.21973 0.203326
0.692943 0.221668 0.205127
0.693523 0.223331 0.207095
0.69398 0.224613 0.208637
0.0141604 0.156497 0.171633
0.0336156 0.160555 0.176638
0.0552377 0.164584 0.181781
0.0749371 0.168124 0.186191
0.0935683 0.171298 0.189944
0.109743 0.173449 0.192721
0.12723 0.176379 0.195651
0.151568 0.180255 0.19852
0.180575 0.184268 0.200626
0.215656 0.188525 0.202213
0.239536 0.192142 0.204669
0.266529 0.19617 0.206989
0.294514 0.200687 0.209476
0.320058 0.204639 0.211246
0.345647 0.207782 0.212909
0.373358 0.211124 0.214511
0.398032 0.214176 0.215686
0.422477 0.217304 0.217044
0.44831 0.220554 0.218799
0.476295 0.223667 0.220462
0.500862 0.226444 0.222049
0.524926 0.229252 0.223835
0.549493 0.231998 0.225589
0.571267 0.23447 0.22742
0.593866 0.237385 0.229984
0.616709 0.240696 0.232975
0.636988 0.2439 0.23621
0.658228 0.247608 0.239429
0.680522 0.251545 0.242573
0.699077 0.255177 0.245899
0.704417 0.257008 0.247898
0.70457 0.257832 0.248936
0.70489 0.258991 0.25034
0.016968 0.182437 0.20087
0.0367742 0.186801 0.205905
0.058732 0.191058 0.211292
0.0779736 0.19472 0.215824
0.0967422 0.198062 0.21976
0.11249 0.200916 0.223117
0.130739 0.203494 0.226398
0.147967 0.206271 0.228672
0.174823 0.209689 0.231037
0.203662 0.213474 0.233356
0.239536 0.218036 0.234867
0.270665 0.222965 0.237568
0.300542 0.227573 0.239902
0.327153 0.231617 0.242191
0.353613 0.235004 0.244236
0.382803 0.23888 0.246586
0.407462 0.242603 0.249042
0.433448 0.246235 0.251286
0.459602 0.249195 0.252842
0.488121 0.252644 0.254673
0.511879 0.255634 0.256275
0.536873 0.258778 0.258122
0.561807 0.262211 0.260685
0.583688 0.265232 0.263127
0.606592 0.26862 0.266163
0.629343 0.272343 0.269551
0.649561 0.275883 0.273136
0.671458 0.279835 0.277226
0.693935 0.284382 0.281865
0.711315 0.287816 0.285283
0.714427 0.289281 0.2869
0.714778 0.29044 0.288289
0.714946 0.291432 0.289479
0.019913 0.206729 0.227695
0.0400549 0.211139 0.233082
0.062501 0.215579 0.238804
0.0813306 0.219638 0.243915
0.100252 0.223926 0.248829
0.115663 0.227344 0.252781
0.134417 0.230533 0.257267
0.151705 0.232837 0.260212
0.168872 0.23537 0.262425
0.194659 0.238727 0.264668
0.230091 0.243168 0.26743
0.271717 0.248966 0.269368
0.306477 0.254414 0.271794
0.334859 0.259174 0.274357
0.362234 0.263493 0.277607
0.392401 0.268238 0.280812
0.416556 0.272053 0.28333
0.443809 0.276204 0.285695
0.470695 0.2795 0.28748
0.500221 0.283177 0.289769
0.523323 0.286427 0.292134
0.549371 0.290135 0.295033
0.574395 0.293919 0.2981
0.595514 0.297246 0.301091
0.618875 0.300557 0.304326
0.641474 0.304128 0.308003
0.661295 0.30808 0.311879
0.684138 0.313191 0.316503
0.706798 0.317983 0.320851
0.722988 0.321553 0.324224
0.724102 0.322789 0.325628
0.724437 0.323919 0.326925
0.724636 0.325093 0.328283
0.0234226 0.231052 0.255497
0.0439155 0.235996 0.26154
0.0661784 0.24155 0.268208
0.0851606 0.24683 0.27451
0.103914 0.251865 0.280186
0.119417 0.255726 0.284947
0.138537 0.259846 0.290364
0.155764 0.26334 0.29485
0.173037 0.264652 0.296269
0.192248 0.267292 0.298344
0.219455 0.270695 0.300694
0.268315 0.275654 0.302861
0.309957 0.282612 0.305333
0.341924 0.287816 0.3084
0.372168 0.293278 0.312047
0.402228 0.298482 0.315587
0.426688 0.302419 0.318273
0.454292 0.306416 0.320897
0.481926 0.310216 0.323537
0.511757 0.314549 0.32665
0.535332 0.318334 0.329534
0.561257 0.322164 0.332341
0.586328 0.326177 0.335531
0.60766 0.329946 0.338949
0.631022 0.3337 0.342397
0.653651 0.337697 0.346044
0.673609 0.341543 0.349752
0.696574 0.346807 0.354574
0.718349 0.351598 0.359045
0.732845 0.355138 0.362295
0.733089 0.356054 0.363333
0.733471 0.357443 0.364889
0.733806 0.358679 0.366339
0.0271153 0.255131 0.282841
0.048249 0.261784 0.290547
0.0702373 0.268376 0.298222
0.0893263 0.273945 0.304601
0.107546 0.27924 0.310704
0.123857 0.283467 0.315969
0.142672 0.287663 0.321294
0.160418 0.291463 0.325902
0.177462 0.293767 0.328862
0.19321 0.294209 0.329946
0.220508 0.296941 0.331884
0.259922 0.302098 0.334783
0.308232 0.307805 0.337392
0.345815 0.313878 0.340154
0.379522 0.319631 0.343297
0.411368 0.325429 0.346639
0.436545 0.329824 0.349722
0.464591 0.334051 0.352697
0.492897 0.338613 0.356054
0.522194 0.343496 0.359701
0.546227 0.347478 0.362615
0.572213 0.352224 0.3664
0.596857 0.357046 0.370489
0.618738 0.361486 0.37435
0.641825 0.366293 0.378683
0.664179 0.370916 0.38323
0.685008 0.375326 0.387823
0.707622 0.380652 0.392859
0.72845 0.385595 0.397406
0.741192 0.389242 0.400916
0.74165 0.391028 0.402884
0.741939 0.392264 0.404273
0.742336 0.393713 0.405905
0.0316167 0.284367 0.315435
0.0531472 0.291966 0.324392
0.0746471 0.299275 0.332784
0.093843 0.305425 0.339605
0.111955 0.311345 0.34612
0.129076 0.316075 0.352422
0.148119 0.32166 0.359091
0.165774 0.326299 0.364599
0.182818 0.329244 0.368505
0.198703 0.329992 0.370748
0.21735 0.331899 0.372732
0.250446 0.336141 0.375799
0.291905 0.341482 0.37908
0.341299 0.347509 0.381903
0.382773 0.354238 0.38439
0.419028 0.360861 0.387594
0.448325 0.366476 0.390448
0.477195 0.371923 0.394293
0.506264 0.376608 0.39794
0.534493 0.381064 0.401602
0.559182 0.385199 0.405051
0.585 0.390143 0.40911
0.608774 0.394781 0.413184
0.631128 0.399374 0.417426
0.65388 0.403632 0.421546
0.675822 0.408103 0.425818
0.696818 0.413214 0.430106
0.719768 0.419059 0.435172
0.739254 0.424369 0.439948
0.749966 0.427649 0.442985
0.750195 0.428672 0.444083
0.750454 0.429709 0.445182
0.750744 0.430884 0.446464
0.036347 0.31429 0.348638
0.0582284 0.322286 0.357595
0.0797131 0.330404 0.366781
0.0989853 0.336553 0.373892
0.116762 0.341924 0.38024
0.134585 0.347219 0.386816
0.153246 0.352773 0.393637
0.171099 0.357839 0.399344
0.187839 0.361013 0.403464
0.203693 0.36318 0.406607
0.220783 0.364202 0.408713
0.242969 0.366293 0.410254
0.284932 0.370947 0.412879
0.331228 0.376318 0.415534
0.383185 0.382284 0.418097
0.42298 0.388952 0.420523
0.456184 0.39501 0.423758
0.487999 0.4009 0.427344
0.517678 0.406332 0.431952
0.544701 0.411536 0.435996
0.569451 0.416526 0.439948
0.595376 0.421958 0.444404
0.618921 0.427634 0.449363
0.641123 0.432837 0.453788
0.664286 0.438102 0.458274
0.686091 0.443061 0.462867
0.707729 0.448692 0.467979
0.730144 0.454582 0.473182
0.749142 0.46006 0.477913
0.757794 0.462837 0.480385
0.758022 0.46392 0.481544
0.758297 0.46508 0.48275
0.758572 0.4663 0.484062
0.0415656 0.34403 0.381201
0.0638743 0.352468 0.390707
0.0849012 0.36025 0.399725
0.10457 0.36733 0.407767
0.121965 0.372915 0.41442
0.140215 0.37879 0.421622
0.158831 0.385092 0.429175
0.176699 0.391333 0.436072
0.193378 0.395621 0.44126
0.209461 0.398703 0.44538
0.22678 0.400214 0.447959
0.245594 0.401068 0.44921
0.275074 0.403769 0.45069
0.320775 0.408484 0.453422
0.375799 0.414847 0.456809
0.422004 0.421225 0.460166
0.460548 0.427817 0.461967
0.496025 0.434104 0.464775
0.528344 0.440513 0.468986
0.555489 0.446052 0.473136
0.580453 0.451514 0.477531
0.605905 0.457221 0.482185
0.628687 0.462516 0.486534
0.651408 0.468391 0.491508
0.674952 0.473945 0.496468
0.696361 0.478676 0.500877
0.718502 0.484413 0.506035
0.740017 0.489967 0.510628
0.758251 0.494667 0.514458
0.765362 0.497093 0.516579
0.765606 0.49807 0.517586
0.76582 0.499001 0.518563
0.766125 0.500282 0.519875
0.046891 0.372869 0.413046
0.069688 0.381003 0.422339
0.0905928 0.388937 0.431403
0.110292 0.395987 0.439506
0.127199 0.401953 0.446494
0.146044 0.408362 0.454002
0.164416 0.414557 0.461219
0.182452 0.420386 0.468025
0.199039 0.425803 0.474174
0.215015 0.429023 0.478431
0.232441 0.431174 0.482109
0.250599 0.431571 0.48368
0.269917 0.432029 0.483604
0.316197 0.437812 0.487297
0.369421 0.444953 0.491997
0.416388 0.451225 0.49543
0.460121 0.457755 0.498573
0.49868 0.465003 0.50074
0.536065 0.472435 0.504067
0.564385 0.478965 0.508415
0.590509 0.484947 0.513054
0.616175 0.491249 0.518074
0.638941 0.497475 0.523201
0.661875 0.503471 0.528099
0.685176 0.508934 0.532906
0.706447 0.514275 0.53782
0.728069 0.519448 0.542321
0.749737 0.525032 0.546899
0.767498 0.529976 0.55108
0.773114 0.532082 0.553017
0.773388 0.533242 0.554192
0.773739 0.534707 0.555673
0.774029 0.535927 0.556924
0.0529335 0.403326 0.446799
0.0761273 0.412268 0.456794
0.0964675 0.42002 0.465568
0.116243 0.427634 0.47422
0.132738 0.4336 0.480751
0.152255 0.439826 0.488151
0.170596 0.445991 0.495598
0.188586 0.452567 0.502998
0.204974 0.458686 0.509896
0.221042 0.464012 0.516014
0.238911 0.468223 0.521355
0.256901 0.469627 0.523583
0.278553 0.471214 0.524987
0.305882 0.473884 0.526833
0.363119 0.479728 0.530648
0.408438 0.486397 0.535088
0.455634 0.493523 0.539269
0.499275 0.499962 0.542809
0.540871 0.508095 0.545922
0.570611 0.514748 0.549126
0.600092 0.521538 0.552728
0.627039 0.528389 0.557122
0.64918 0.534279 0.561547
0.672541 0.540383 0.566567
0.696101 0.54609 0.571405
0.716823 0.551049 0.575525
0.738384 0.556435 0.580072
0.759793 0.561822 0.584741
0.776623 0.566033 0.588495
0.780682 0.567956 0.590341
0.78088 0.568917 0.591318
0.781079 0.569741 0.592172
0.781262 0.570596 0.593057
0.059266 0.43563 0.482261
0.0827802 0.444175 0.491829
0.102647 0.451331 0.499947
0.12253 0.458427 0.507912
0.138613 0.464164 0.514366
0.158816 0.471458 0.522545
0.176883 0.477699 0.529809
0.194842 0.484123 0.537438
0.21091 0.490196 0.544167
0.227024 0.496117 0.550637
0.24506 0.501686 0.556649
0.263355 0.504585 0.55996
0.279576 0.505272 0.561395
0.307683 0.50724 0.563149
0.352697 0.511772 0.56614
0.402823 0.518227 0.570123
0.45243 0.525444 0.574807
0.497719 0.532677 0.578912
0.543572 0.540139 0.581949
0.575143 0.54641 0.584451
0.606546 0.553445 0.587381
0.635035 0.560281 0.590692
0.657832 0.565972 0.594659
0.681819 0.572061 0.599252
0.705242 0.577829 0.603937
0.725719 0.582498 0.607889
0.746914 0.587472 0.612146
0.768185 0.592844 0.6168
0.784802 0.597208 0.620676
0.787167 0.598428 0.62182
0.787305 0.599084 0.622492
0.787488 0.599802 0.623224
0.787655 0.60061 0.624048
0.0655375 0.4636 0.513008
0.088365 0.471305 0.521553
0.108263 0.47808 0.529198
0.127886 0.485039 0.536919
0.144488 0.491386 0.54374
0.164462 0.498589 0.551736
0.182391 0.505287 0.559625
0.200351 0.511742 0.567285
0.216403 0.518059 0.574258
0.232731 0.524178 0.580575
0.250935 0.530098 0.586801
0.269001 0.533959 0.591653
0.285145 0.535149 0.593622
0.307805 0.537224 0.595514
0.35024 0.541772 0.598627
0.395117 0.547356 0.602304
0.450233 0.555566 0.607111
0.497612 0.562509 0.610956
0.544778 0.56997 0.614298
0.579736 0.576226 0.616403
0.612116 0.583246 0.618662
0.641779 0.590066 0.622019
0.665278 0.595605 0.625269
0.690074 0.601526 0.629511
0.714107 0.60737 0.634211
0.733989 0.612192 0.638376
0.755154 0.617395 0.64303
0.776089 0.622431 0.64744
0.791867 0.626139 0.650599
0.792798 0.626871 0.651286
0.79292 0.62742 0.651865
0.793072 0.628031 0.652491
0.793286 0.628977 0.653452
0.071519 0.490455 0.542336
0.0942245 0.498314 0.551019
0.114061 0.505211 0.558618
0.133349 0.512352 0.566491
0.150332 0.518486 0.573022
0.170047 0.526238 0.581613
0.188144 0.533135 0.589685
0.205753 0.539651 0.597406
0.22211 0.54641 0.604913
0.238682 0.552819 0.610956
0.25684 0.558679 0.617227
0.274556 0.563088 0.622187
0.291096 0.566552 0.626001
0.30753 0.568643 0.628397
0.344976 0.572717 0.63154
0.38674 0.57792 0.634852
0.44831 0.585657 0.6392
0.49778 0.592905 0.643381
0.544976 0.600366 0.646708
0.580377 0.606851 0.649302
0.618555 0.614069 0.651774
0.647181 0.620737 0.65449
0.671794 0.626383 0.657496
0.697978 0.632166 0.661295
0.722652 0.637827 0.665751
0.742153 0.642557 0.669734
0.763088 0.647547 0.674128
0.783642 0.651957 0.678004
0.799084 0.65568 0.681147
0.799207 0.656291 0.681773
0.799344 0.656916 0.682399
0.799451 0.657588 0.683101
0.799496 0.658213 0.683772
0.078172 0.521523 0.576165
0.10071 0.529915 0.585229
0.120653 0.536843 0.592798
0.13933 0.543389 0.600092
0.156725 0.549401 0.606912
0.176211 0.556435 0.614542
0.194263 0.563104 0.622477
0.211963 0.570001 0.629969
0.228107 0.576242 0.636439
0.245014 0.582956 0.643137
0.263157 0.588861 0.649287
0.28069 0.593896 0.654414
0.29688 0.597589 0.658198
0.313985 0.600778 0.661585
0.331441 0.602533 0.663417
0.38471 0.608515 0.666865
0.442039 0.615625 0.670771
0.499092 0.623178 0.674662
0.546227 0.630518 0.678203
0.582742 0.636942 0.68101
0.619425 0.64358 0.683497
0.652705 0.650263 0.685939
0.677211 0.655344 0.688624
0.704082 0.660914 0.691844
0.729763 0.666697 0.695888
0.749249 0.671061 0.699397
0.770748 0.675898 0.703563
0.790906 0.680323 0.707469
0.804822 0.683574 0.710262
0.804929 0.684123 0.710826
0.805081 0.684779 0.711528
0.805173 0.685176 0.711925
0.805295 0.68574 0.71252
0.0842756 0.548821 0.605554
0.106401 0.557076 0.614633
0.12639 0.56405 0.622583
0.144854 0.570397 0.629755
0.16257 0.576593 0.636545
0.181949 0.583139 0.643671
0.200214 0.590143 0.651438
0.217609 0.596948 0.658839
0.233753 0.602838 0.664851
0.250629 0.608789 0.670817
0.268757 0.614923 0.676982
0.286381 0.621088 0.683162
0.302541 0.625116 0.687205
0.319448 0.628138 0.69041
0.343282 0.631327 0.693355
0.382971 0.636759 0.69659
0.440589 0.644068 0.700679
0.499001 0.651774 0.70486
0.547509 0.658869 0.708278
0.58349 0.664958 0.711055
0.620783 0.671473 0.714015
0.654032 0.677562 0.716701
0.682078 0.68336 0.719524
0.709285 0.689418 0.722805
0.73402 0.694957 0.726146
0.755383 0.699565 0.729732
0.777127 0.704402 0.733471
0.797345 0.708965 0.737331
0.810742 0.7122 0.740215
0.810773 0.712764 0.74081
0.810864 0.713176 0.741253
0.810925 0.713512 0.741604
0.811048 0.714076 0.742184
0.0905165 0.577417 0.636881
0.11223 0.585153 0.645441
0.13228 0.592126 0.65301
0.150378 0.598505 0.659815
0.168643 0.604623 0.666636
0.187854 0.610956 0.673396
0.205982 0.617243 0.679973
0.223224 0.623453 0.686854
0.239338 0.629236 0.692897
0.25626 0.635248 0.698894
0.274632 0.641871 0.705455
0.291905 0.647944 0.711254
0.308034 0.652888 0.715862
0.325093 0.656687 0.720088
0.348501 0.660975 0.723964
0.377234 0.665034 0.726864
0.443595 0.672007 0.730495
0.498466 0.679164 0.734081
0.546502 0.686122 0.737545
0.585153 0.692271 0.740536
0.622263 0.698756 0.743603
0.655344 0.704494 0.746502
0.684611 0.709895 0.749401
0.71397 0.716579 0.752483
0.738506 0.722042 0.755505
0.75996 0.726741 0.758144
0.782574 0.731273 0.761776
0.803449 0.736187 0.765652
0.816236 0.738842 0.767666
0.816266 0.739086 0.767926
0.816342 0.739498 0.768338
0.816419 0.739742 0.768597
0.816464 0.740124 0.768994
0.0964523 0.603738 0.665461
0.117861 0.611353 0.673564
0.137926 0.617914 0.680613
0.155734 0.623743 0.686885
0.174197 0.629313 0.692973
0.193271 0.635416 0.699321
0.211383 0.641566 0.705776
0.228382 0.647822 0.712291
0.244556 0.653742 0.718456
0.261936 0.660044 0.724987
0.280125 0.666499 0.731258
0.297108 0.672282 0.736782
0.313146 0.677455 0.741726
0.330343 0.682124 0.746761
0.348424 0.686152 0.750668
0.383322 0.690684 0.753918
0.442924 0.69659 0.756756
0.499672 0.703731 0.760143
0.547616 0.710933 0.763836
0.586618 0.717067 0.766964
0.624384 0.723934 0.770428
0.656657 0.729351 0.77319
0.686076 0.734524 0.775845
0.716243 0.740017 0.778576
0.742687 0.746685 0.781552
0.764935 0.751293 0.784085
0.787228 0.755856 0.787305
0.808042 0.759762 0.790433
0.820508 0.762341 0.792584
0.820554 0.76257 0.792859
0.820584 0.762798 0.793103
0.8206 0.762905 0.793225
0.820706 0.7635 0.793881
0.101976 0.629709 0.693278
0.123201 0.636637 0.700771
0.143343 0.642939 0.707622
0.160891 0.648112 0.713207
0.179583 0.653483 0.718959
0.198459 0.659266 0.724788
0.216541 0.665446 0.73109
0.233448 0.671382 0.737285
0.249653 0.677363 0.743542
0.266865 0.683604 0.750011
0.284977 0.69015 0.756405
0.301823 0.69604 0.761868
0.317906 0.701228 0.766751
0.33521 0.706279 0.77174
0.351415 0.710338 0.776181
0.389715 0.715251 0.779126
0.439261 0.72108 0.782025
0.501198 0.727779 0.785245
0.547646 0.734447 0.788815
0.586328 0.740887 0.792065
0.625208 0.747631 0.795316
0.658534 0.753445 0.798367
0.687388 0.758297 0.80087
0.71722 0.763516 0.80351
0.745769 0.768719 0.805997
0.768505 0.773587 0.809079
0.791699 0.778164 0.812085
0.811658 0.78201 0.814633
0.823697 0.784054 0.816342
0.823728 0.784253 0.816571
0.823804 0.784649 0.816983
0.823819 0.784772 0.817105
0.82388 0.785 0.817349
0.107362 0.655039 0.720607
0.128344 0.661128 0.727214
0.148348 0.666911 0.73341
0.165637 0.671946 0.738781
0.184405 0.677211 0.74435
0.203204 0.682506 0.749859
0.221256 0.68838 0.755505
0.238193 0.69424 0.762005
0.254398 0.70013 0.768017
0.271656 0.706386 0.774075
0.289586 0.712795 0.780545
0.306416 0.719173 0.785931
0.322667 0.724498 0.790921
0.339803 0.729274 0.795712
0.356847 0.733654 0.800137
0.388098 0.738521 0.80351
0.436942 0.744427 0.806806
0.49839 0.751263 0.810025
0.548501 0.758038 0.813489
0.586572 0.763867 0.816297
0.625254 0.770077 0.819425
0.659709 0.775891 0.822416
0.687861 0.780804 0.825147
0.718227 0.786053 0.82826
0.745953 0.790539 0.830976
0.769787 0.794583 0.833219
0.793988 0.799191 0.83563
0.81593 0.803891 0.838254
0.827863 0.805982 0.839887
0.827939 0.806332 0.840253
0.827955 0.806455 0.840391
0.827955 0.806455 0.840391
0.827985 0.806561 0.840513
0.112245 0.678508 0.745953
0.132967 0.684291 0.752194
0.153002 0.689982 0.758099
0.170184 0.694667 0.763027
