site/assets/luts/freshluts--0000774-glut012.cube
# LUTr-Schema-Version: 2
# LUTr-ID: freshluts--0000774-glut012
# LUTr-Title: gLut012
# LUTr-Collection: Fresh LUTs
# LUTr-Collection-ID: freshluts-community
# LUTr-Source: https://freshluts.com
# LUTr-Retrieved: 2026-07-27
# LUTr-Source-File: submissions-raw/freshluts/cubes/774__Untitled_10.0S7A6011.cube
# LUTr-Source-Format: CUBE
# LUTr-Source-SHA256: a896c7b7ba3cb8871489a1ad22cd62f1a147928223c24f0b01cee6540a28a319
# LUTr-License: CC0-1.0
# LUTr-License-URL: https://freshluts.com/termsandconditions
# LUTr-License-Basis: site-terms
# LUTr-Transform-Class: creative-look
# LUTr-Tags: creative, freshluts, community, cube, warm, canon-cinestyle
# LUTr-Input-Color-Space: canon-cinestyle
# LUTr-Input-Gamut: rec709
# LUTr-Input-Transfer: canon-cinestyle
# LUTr-Output-Color-Space: srgb
# LUTr-Output-Gamut: rec709
# LUTr-Output-Transfer: srgb
# LUTr-Color-Space-Confidence: inferred-from-source-label
# LUTr-Domain-Normalized: true
# LUTr-Shaper: none
# LUTr-Original-Grid: 33x33x33
# LUTr-Conversion-Grid: 33x33x33
# LUTr-Conversion-Interpolation: none
# LUTr-Conversion-Method: Metadata normalization; numeric LUT samples preserved
# LUTr-Conversion-Tool: LUTr scripts/convert-all-to-cube.mjs 2.0.0
# LUTr-Conversion-Date: 2026-07-28
# LUTr-Asset-URL: https://freshluts.com/luts/774
# LUTr-Author: directorgodfrey_M
# LUTr-Author-URL: https://freshluts.com/users/1455
# LUTr-Attribution: directorgodfrey_M via Fresh LUTs
# LUTr-Source-Labels: gamma=Canon Cinestyle; color=Warm; key=Neutral; style=Wedding
# LUTr-Note: Preserve this metadata and the upstream license notices when redistributing.
TITLE "gLut012"
LUT_3D_SIZE 9
DOMAIN_MIN 0 0 0
DOMAIN_MAX 1 1 1
0 0 0.00335698
0.0988632 0 0
0.255009 0 0
0.411994 0 0
0.564172 0 0
0.736217 0 0
0.950545 0 0
1 0 0
1 0 0
0 0.124605 0
0.05832 0.112505 0
0.216144 0.100694 0
0.372229 0.0889601 0
0.525612 0.0766308 0
0.688914 0.0628519 0
0.888106 0.0463874 0
1 0.0287327 0
1 0.0110323 0
0 0.253666 0
0.0163882 0.241291 0
0.177615 0.229175 0
0.332174 0.217868 0
0.486488 0.206104 0
0.643473 0.193149 0
0.830961 0.178286 0
1 0.161257 0
1 0.144274 0
0 0.383703 0
0 0.370825 0
0.138552 0.358251 0
0.292805 0.346365 0
0.448127 0.334279 0
0.600488 0.321309 0
0.779843 0.306676 0
1 0.289723 0
1 0.272969 0
0 0.509163 0
0 0.497139 0
0.0975967 0.484977 0
0.252613 0.473564 0
0.408896 0.462165 0
0.560876 0.450278 0
0.732189 0.436896 0
0.945586 0.42092 0
1 0.405386 0
0 0.635874 0
0 0.622904 0
0.053193 0.609964 0
0.211566 0.597742 0
0.367773 0.58645 0
0.521981 0.574975 0
0.685405 0.562539 0
0.88539 0.548791 0
1 0.534478 0
0 0.781796 0
0 0.767727 0
0.00495918 0.753857 0
0.168078 0.740353 0
0.323934 0.727764 0
0.48101 0.715389 0
0.639292 0.70219 0
0.829114 0.687236 0
1 0.671824 0
0 0.961501 0
0 0.944106 0
0 0.92665 0
0.12137 0.909972 0
0.278019 0.894697 0
0.437263 0.879698 0
0.592615 0.864698 0
0.775189 0.848692 0
1 0.831739 0
0 1 0
0 1 0
0 1 0
0.0769207 1 0
0.234836 1 0
0.394766 1 0
0.550881 1 0
0.724437 1 0
0.941878 1 0
0 0 0.165087
0.0943465 0 0.152911
0.250385 0 0.141863
0.407706 0 0.13106
0.559915 0 0.118807
0.73077 0 0.105257
0.943084 0 0.0888991
1 0 0.0720836
1 0 0.0544442
0 0.119631 0.125246
0.0533608 0.107668 0.113527
0.21178 0.0957961 0.10135
0.36759 0.0839246 0.0896162
0.521279 0.0716106 0.0772106
0.683711 0.0576028 0.0632334
0.881163 0.0413825 0.0471656
1 0.0237125 0.0292668
1 0.00564584 0.0113985
0 0.248554 0.085893
0.0113527 0.236561 0.0728771
0.1729 0.224353 0.0596017
0.327306 0.21294 0.0470893
0.482124 0.201282 0.0339971
0.638117 0.188357 0.0194553
0.825116 0.173434 0.00408942
1 0.156588 0
1 0.139361 0
0 0.378515 0.0446021
0 0.366171 0.03093
0.133852 0.353323 0.0171664
0.287785 0.341283 0.00453193
0.443503 0.32929 0
0.595666 0.316426 0
0.774121 0.301732 0
0.996216 0.285054 0
1 0.268238 0
0 0.504509 0.000991836
0 0.492363 0
0.0925765 0.480339 0
0.247929 0.468681 0
0.404456 0.457465 0
0.556283 0.445624 0
0.726757 0.43209 0
0.938521 0.416648 0
1 0.400961 0
0 0.63061 0
0 0.617685 0
0.0486305 0.60499 0
0.207202 0.592844 0
0.363333 0.581704 0
0.517861 0.570504 0
0.680613 0.558267 0
0.878904 0.544594 0
1 0.530404 0
0 0.776287 0
0 0.762112 0
0.000396735 0.748409 0
0.163912 0.735027 0
0.32015 0.722667 0
0.476875 0.710399 0
0.635142 0.696971 0
0.823575 0.682521 0
1 0.667323 0
0 0.954482 0
0 0.936904 0
0 0.919814 0
0.117494 0.903548 0
0.274495 0.888243 0
0.433524 0.873732 0
0.588785 0.858869 0
0.76997 0.842832 0
0.996246 0.826398 0
0 1 0
0 1 0
0 1 0
0.0730907 1 0
0.231617 1 0
0.39118 1 0
0.547265 1 0
0.72047 1 0
0.935561 1 0
0 0 0.318288
0.0901808 0 0.306188
0.246326 0 0.295354
0.403235 0 0.284382
0.555688 0 0.272663
0.725628 0 0.259571
0.935821 0 0.243488
1 0 0.227375
1 0 0.210758
0 0.115038 0.278843
0.0487373 0.103029 0.267155
0.207523 0.0908064 0.255421
0.363226 0.0790723 0.244495
0.516762 0.0666361 0.232517
0.678599 0.0525978 0.219989
0.874754 0.0364538 0.204913
1 0.0184939 0.188495
1 0.000549325 0.171756
0 0.243931 0.240558
0.00636301 0.232059 0.228824
0.168383 0.219486 0.216403
0.322591 0.208209 0.205066
0.477623 0.196597 0.193301
0.632975 0.183398 0.180301
0.818677 0.168688 0.165225
1 0.151659 0.148379
1 0.134844 0.131273
0 0.373693 0.202899
0 0.361242 0.190753
0.128908 0.34815 0.177859
0.283223 0.336202 0.166262
0.438651 0.324392 0.154009
0.590585 0.311299 0.14139
0.768338 0.296895 0.126879
0.989899 0.279988 0.109895
1 0.263493 0.0932631
0 0.499702 0.162737
0 0.487587 0.150378
0.0878157 0.475395 0.137881
0.243275 0.46389 0.125826
0.399588 0.452781 0.114168
0.552026 0.440635 0.101503
0.721035 0.427527 0.0877546
0.931334 0.4121 0.0716259
1 0.396231 0.0550698
0 0.625315 0.119112
0 0.612543 0.107073
0.0436103 0.599847 0.0951095
0.203006 0.588022 0.0830701
0.358862 0.577081 0.0717174
0.513527 0.56582 0.0596475
0.675929 0.553887 0.0467994
0.872694 0.540444 0.0315404
1 0.526055 0.0155337
0 0.770443 0.0715648
0 0.756649 0.06009
0 0.743267 0.0486763
0.159869 0.729534 0.0368048
0.315953 0.71754 0.0259861
0.473213 0.705196 0.0146944
0.63035 0.69218 0.00315862
0.818051 0.67776 0
1 0.662409 0
0 0.947311 0.0195315
0 0.929839 0.00865187
0 0.9131 0
0.114061 0.896986 0
0.270726 0.882048 0
0.42977 0.867735 0
0.58529 0.852979 0
0.765347 0.837293 0
0.991257 0.82063 0
0 1 0
0 1 0
0 1 0
0.0693828 1 0
0.228122 1 0
0.387808 1 0
0.544152 1 0
0.716121 1 0
0.929503 1 0
0 0 0.471672
0.085481 0 0.460273
0.242069 0 0.449241
0.399161 0 0.438758
0.551431 0 0.427222
0.720653 0 0.414145
0.928939 0 0.39852
1 0 0.381811
1 0 0.364797
0 0.11043 0.433127
0.0440833 0.0982071 0.421698
0.20325 0.0860914 0.410254
0.358709 0.0741741 0.399054
0.512825 0.061677 0.387442
0.673518 0.0478523 0.374289
0.868254 0.0314488 0.358572
1 0.0137789 0.341985
1 0 0.324651
0 0.239399 0.395285
0.00138857 0.227329 0.383352
0.164034 0.215244 0.37052
0.318425 0.203784 0.358968
0.473136 0.192035 0.346624
0.628138 0.179019 0.333379
0.812604 0.164004 0.318303
1 0.147112 0.300908
1 0.130343 0.283986
0 0.369009 0.356497
0 0.356374 0.343954
0.124468 0.343511 0.33135
0.278401 0.331563 0.319036
0.43444 0.319387 0.307271
0.586069 0.306645 0.294224
0.762509 0.292317 0.280034
0.98349 0.275395 0.263142
1 0.258991 0.246815
0 0.495186 0.316014
0 0.483146 0.303395
0.0830854 0.470878 0.291066
0.238758 0.459419 0.279133
0.395346 0.447959 0.26775
0.547601 0.436179 0.255619
0.716091 0.423011 0.242588
0.923827 0.407584 0.227054
1 0.391852 0.211994
0 0.620356 0.272587
0 0.607706 0.260884
0.0390936 0.595178 0.249424
0.198657 0.583444 0.23801
0.354665 0.572366 0.227634
0.509483 0.56144 0.216754
0.670893 0.549645 0.20499
0.866758 0.53608 0.191379
1 0.521965 0.176547
0 0.764874 0.227237
0 0.751263 0.216541
0 0.737636 0.206378
0.155947 0.724544 0.195895
0.311925 0.71223 0.186236
0.468956 0.700038 0.176272
0.626017 0.687236 0.165576
0.812863 0.672847 0.152895
1 0.657816 0.139437
0 0.94023 0.179049
0 0.922896 0.169619
0 0.906371 0.160479
0.110155 0.890608 0.15079
0.267277 0.875731 0.14197
0.426139 0.861524 0.132662
0.581369 0.847257 0.123323
0.760967 0.831815 0.112078
0.985458 0.815229 0.0991531
0 1 0.134615
0 1 0.125154
0 1 0.116472
0.0658579 1 0.107164
0.224765 1 0.0982223
0.384192 1 0.0899672
0.540673 1 0.0805829
0.711757 1 0.0702068
0.923201 1 0.0580606
0 0 0.62417
0.0808881 0 0.611811
0.237461 0 0.600122
0.394522 0 0.588617
0.547097 0 0.57702
0.715023 0 0.564034
0.921675 0 0.548974
1 0 0.533135
1 0 0.517327
0 0.10544 0.583337
0.0390784 0.0932784 0.571633
0.19884 0.0809186 0.559991
0.354147 0.0690776 0.549187
0.508293 0.0566415 0.538048
0.668482 0.0426032 0.525322
0.862303 0.0265354 0.511208
1 0.0087892 0.494774
1 0 0.478492
0 0.234363 0.54548
0 0.222568 0.533623
0.159442 0.210544 0.522042
0.313466 0.199023 0.510475
0.468833 0.187259 0.499199
0.622995 0.174258 0.486427
0.806775 0.159319 0.471809
1 0.142748 0.455299
1 0.125505 0.438773
0 0.363958 0.508461
0 0.351583 0.49633
0.120012 0.338888 0.484138
0.274144 0.326741 0.472465
0.430014 0.314885 0.460929
0.581704 0.301915 0.448218
0.757061 0.287526 0.434287
0.977462 0.271031 0.41796
1 0.254536 0.401709
0 0.49044 0.469215
0 0.478584 0.457374
0.0786755 0.466606 0.44538
0.234577 0.454597 0.433341
0.390967 0.443473 0.422263
0.543481 0.431678 0.410437
0.710811 0.418448 0.397086
0.917327 0.403281 0.381964
1 0.387579 0.365759
0 0.615656 0.427451
0 0.602747 0.415457
0.0346227 0.590616 0.404196
0.194644 0.578866 0.39295
0.350393 0.568032 0.382284
0.505592 0.557244 0.371191
0.66627 0.545342 0.359136
0.860624 0.532143 0.345022
1 0.518059 0.330144
0 0.759564 0.381857
0 0.7458 0.371099
0 0.73257 0.360372
0.152071 0.719371 0.349813
0.307973 0.707225 0.339864
0.465263 0.695262 0.329824
0.621744 0.682307 0.319036
0.807675 0.668498 0.30695
1 0.653407 0.293095
0 0.933364 0.332464
0 0.916197 0.323232
0 0.900191 0.313741
0.106645 0.884459 0.304433
0.263478 0.869688 0.295293
0.42295 0.856016 0.286976
0.577859 0.84152 0.277424
0.756146 0.826505 0.266636
0.980209 0.810269 0.254276
0 1 0.287556
0 1 0.278782
0 1 0.269841
0.0618906 1 0.261067
0.221424 1 0.252644
0.381003 1 0.244862
0.537285 1 0.236301
0.707729 1 0.227024
0.917601 1 0.21619
0 0 0.805264
0.0754711 0 0.79057
0.232425 0 0.776364
0.38938 0 0.762814
0.542031 0 0.748775
0.709255 0 0.732937
0.914244 0 0.715343
1 0 0.696986
1 0 0.678065
0 0.100175 0.75671
0.0337682 0.0876631 0.742092
0.193622 0.0753796 0.728267
0.349157 0.0635691 0.714702
0.503502 0.0510872 0.701244
0.662928 0.0370642 0.686595
0.855528 0.0212711 0.669779
1 0.00306706 0.651804
1 0 0.6336
0 0.229206 0.71014
0 0.217395 0.69633
0.154253 0.205264 0.681788
0.308553 0.19379 0.668757
0.463722 0.182162 0.655375
0.617868 0.169116 0.641077
0.800366 0.15436 0.625086
1 0.137606 0.607263
1 0.120653 0.589899
0 0.358724 0.665858
0 0.346303 0.652064
0.114595 0.333501 0.638392
0.269368 0.321538 0.625055
0.425177 0.309789 0.612467
0.57673 0.296986 0.599039
0.751385 0.282628 0.584314
0.970779 0.266133 0.568261
1 0.249729 0.552743
0 0.485542 0.621683
0 0.473732 0.608545
0.0739147 0.461509 0.595605
0.230167 0.450034 0.583429
0.386389 0.438834 0.572168
0.539147 0.427024 0.560311
0.705547 0.41384 0.547753
0.910216 0.398764 0.53315
1 0.383078 0.518471
0 0.610376 0.577325
0 0.59794 0.566003
0.0296635 0.585702 0.554528
0.190524 0.574105 0.543526
0.346059 0.563592 0.533288
0.501183 0.552712 0.522896
0.661433 0.541146 0.511269
0.854841 0.528038 0.498039
1 0.514046 0.483986
0 0.753826 0.533532
0 0.740414 0.523125
0 0.727123 0.513069
0.148104 0.714153 0.502922
0.303838 0.702205 0.493019
0.461479 0.69012 0.483665
0.61735 0.677623 0.473091
0.802319 0.663951 0.461067
1 0.648753 0.447974
0 0.926268 0.487037
0 0.909667 0.477806
0 0.893858 0.468559
0.102861 0.87805 0.458991
0.260304 0.864118 0.450599
0.419242 0.85037 0.441871
0.574121 0.836103 0.432532
0.751766 0.821286 0.421927
0.975219 0.804883 0.409735
0 1 0.443198
0 1 0.434211
0 1 0.425422
0.0583963 1 0.416617
0.218341 1 0.408469
0.3776 1 0.400504
0.53431 1 0.392325
0.703792 1 0.382559
0.91165 0.996399 0.371237
0 0 1
0.0696269 0 1
0.22678 0 0.996597
0.383536 0 0.979751
0.536645 0 0.960555
0.702724 0 0.940352
0.906218 0 0.918242
1 0 0.895613
1 0 0.873655
0 0.093843 0.971481
0.0275578 0.0814984 0.952682
0.188113 0.0691997 0.933791
0.343023 0.0571908 0.916304
0.498131 0.0447089 0.899031
0.656672 0.0309911 0.880659
0.848112 0.0148928 0.861143
1 0 0.84004
1 0 0.818616
0 0.223346 0.910414
0 0.21146 0.892256
0.148623 0.199435 0.874937
0.302693 0.188022 0.858122
0.458335 0.176181 0.842206
0.611765 0.16347 0.825284
0.793698 0.148623 0.806836
1 0.132143 0.787015
1 0.115236 0.766934
0 0.352789 0.854597
0 0.340246 0.838102
0.109148 0.327657 0.821515
0.263462 0.315801 0.806058
0.419898 0.303883 0.791043
0.571496 0.291447 0.775296
0.744854 0.277104 0.758572
0.96347 0.260761 0.739315
1 0.244633 0.721065
0 0.480095 0.801801
0 0.468132 0.786374
0.0680858 0.456214 0.771466
0.224964 0.444755 0.756497
0.381338 0.433417 0.742947
0.534218 0.421851 0.728969
0.699901 0.408804 0.713283
0.903258 0.393637 0.696605
1 0.378286 0.679622
0 0.604746 0.749981
0 0.592477 0.736171
0.024445 0.580514 0.721859
0.185458 0.569162 0.708644
0.341039 0.558541 0.696178
0.496818 0.547982 0.683436
0.656077 0.536645 0.670115
0.848646 0.523659 0.655085
1 0.509728 0.639292
0 0.747921 0.697597
0 0.734615 0.685054
0 0.721431 0.672984
0.143618 0.708736 0.660548
0.29958 0.69659 0.649683
0.457313 0.68513 0.638819
0.612863 0.672572 0.62652
0.797101 0.658808 0.613764
1 0.644327 0.599603
0 0.919051 0.644495
0 0.902892 0.633509
0 0.887068 0.623056
0.0988174 0.871992 0.61265
0.256229 0.858045 0.602579
0.415534 0.84416 0.593301
0.570214 0.830472 0.583429
0.74696 0.815595 0.572763
0.9691 0.799588 0.560739
0 1 0.596078
0 1 0.586694
0 1 0.577493
0.0547494 1 0.568582
0.214801 1 0.560006
0.373907 1 0.551949
0.530968 1 0.54377
0.699489 1 0.534691
0.90544 0.990509 0.523262
0 0 1
0.0636301 0 1
0.221103 0 1
0.377646 0 1
0.53109 0 1
0.695796 0 1
0.897673 0 1
1 0 1
1 0 1
0 0.0874952 1
0.0212863 0.0752575 1
0.182162 0.0627909 1
0.33727 0.0506752 1
0.491981 0.0382696 1
0.650355 0.0241703 1
0.840299 0.00810254 1
1 0 1
1 0 1
0 0.21709 1
0 0.20528 1
0.142153 0.19295 1
0.296254 0.181292 1
0.451942 0.169741 1
0.605005 0.156909 1
0.78616 0.142473 1
1 0.125963 1
1 0.109026 0.987732
0 0.346181 1
0 0.333715 1
0.102693 0.32105 1
0.257374 0.308949 1
0.413352 0.297414 1
0.56527 0.284825 0.995346
0.738033 0.270924 0.975158
0.954879 0.25478 0.952224
1 0.238682 0.928954
0 0.473899 1
0 0.462119 1
0.0617685 0.449973 0.990555
0.218982 0.438178 0.972
0.375067 0.427283 0.953399
0.528572 0.415808 0.934844
0.693416 0.402869 0.915602
0.895567 0.388098 0.894697
1 0.372854 0.874327
0 0.598154 0.963882
0 0.586297 0.944717
0.0183413 0.574823 0.926894
0.180179 0.563455 0.909072
0.33576 0.553155 0.893065
0.491569 0.542809 0.877195
0.65069 0.531334 0.860502
0.841627 0.518654 0.842908
1 0.50486 0.824674
0 0.741436 0.897169
0 0.728069 0.88127
0 0.715343 0.865507
0.138674 0.702602 0.850584
0.294759 0.690791 0.836637
0.452598 0.679408 0.822766
0.607843 0.667079 0.808865
0.791135 0.653605 0.793225
1 0.63917 0.777295
0 0.911437 0.833432
0 0.895323 0.819715
0 0.880171 0.806912
0.0944228 0.865339 0.79379
0.25185 0.851164 0.78175
0.411139 0.837919 0.770062
0.566537 0.824445 0.758114
0.741741 0.809674 0.744945
0.961868 0.794018 0.730495
0 1 0.776822
0 1 0.764706
0 1 0.753079
0.0501869 1 0.741741
0.211017 1 0.730556
0.370138 1 0.720592
0.527092 1 0.710155
0.694621 1 0.698207
0.899519 0.984527 0.685298
0 0 1
0.0572671 0 1
0.215305 0 1
0.371374 0 1
0.525093 0 1
0.689174 0 1
0.889296 0 1
1 0 1
1 0 1
0 0.0811627 1
0.0146944 0.0685588 1
0.176013 0.0558938 1
0.330755 0.044007 1
0.486183 0.0314488 1
0.643473 0.0174716 1
0.832425 0.0015259 1
1 0 1
1 0 1
0 0.210742 1
0 0.198795 1
0.135927 0.186557 1
0.289876 0.175051 1
0.445686 0.163241 1
0.598825 0.15053 1
0.778912 0.136248 1
1 0.119448 1
1 0.102922 1
0 0.339437 1
0 0.327123 1
0.0962844 0.314366 1
0.250813 0.302571 1
0.407477 0.290974 1
0.559442 0.278492 1
0.731182 0.264729 1
0.946014 0.248432 1
1 0.232914 1
0 0.467475 1
0 0.455772 1
0.0556191 0.443671 1
0.213138 0.432212 1
0.369177 0.421241 1
0.523125 0.409689 1
0.687022 0.397055 1
0.88719 0.382391 1
1 0.366629 1
0 0.59205 1
0 0.580346 1
0.0123293 0.568872 1
0.174533 0.557794 1
0.330175 0.547616 1
0.486229 0.537118 1
0.644572 0.526009 1
0.834791 0.513252 1
1 0.499352 1
0 0.734539 1
0 0.721599 1
0 0.708873 1
0.133318 0.696223 1
0.289448 0.684657 1
0.447501 0.673091 1
0.602365 0.661067 1
0.784939 0.647929 1
1 0.633249 0.99852
0 0.90338 1
0 0.887739 1
0 0.872572 1
0.0893263 0.857984 1
0.247425 0.844282 1
0.406577 0.831083 0.991394
0.561349 0.817624 0.975158
0.736233 0.803464 0.957092
0.95433 0.787808 0.937942
0 1 1
0 1 0.986694
0 1 0.973114
0.0454871 1 0.957198
0.206378 1 0.941436
0.365652 1 0.927047
0.522881 1 0.912108
0.689189 0.994202 0.896483
0.892882 0.977783 0.880308
