site/assets/luts/freshluts--0000943-picturefx-kodachrome-1961-25-asa-xprd-exposure-to-taste.cube
# LUTr-Schema-Version: 2
# LUTr-ID: freshluts--0000943-picturefx-kodachrome-1961-25-asa-xprd-exposure-to-taste
# LUTr-Title: PictureFX-Kodachrome-1961-25-ASA-XPRD (exposure to taste)
# LUTr-Collection: Fresh LUTs
# LUTr-Collection-ID: freshluts-community
# LUTr-Source: https://freshluts.com
# LUTr-Retrieved: 2026-07-27
# LUTr-Source-File: submissions-raw/freshluts/cubes/943__PictureFX-Kodachrome-1961-25-ASA-XPRD-3D25.cube
# LUTr-Source-Format: CUBE
# LUTr-Source-SHA256: 8aa460986d2f6ef0b678bcc23c892aec8c56d470cb19792014054679b1d87fa2
# LUTr-License: CC0-1.0
# LUTr-License-URL: https://freshluts.com/termsandconditions
# LUTr-License-Basis: site-terms
# LUTr-Transform-Class: creative-look
# LUTr-Tags: creative, freshluts, community, cube, film-emulation, rec709, assumed-input
# LUTr-Input-Color-Space: rec709
# LUTr-Input-Gamut: rec709
# LUTr-Input-Transfer: rec709
# LUTr-Output-Color-Space: srgb
# LUTr-Output-Gamut: rec709
# LUTr-Output-Transfer: srgb
# LUTr-Color-Space-Confidence: assumed-display-referred
# LUTr-Domain-Normalized: true
# LUTr-Shaper: none
# LUTr-Original-Grid: 25x25x25
# LUTr-Conversion-Grid: 25x25x25
# LUTr-Conversion-Interpolation: none
# LUTr-Conversion-Method: Metadata normalization; numeric LUT samples preserved
# LUTr-Conversion-Tool: LUTr scripts/convert-all-to-cube.mjs 2.0.0
# LUTr-Conversion-Date: 2026-07-28
# LUTr-Asset-URL: https://freshluts.com/luts/943
# LUTr-Author: MarcR.
# LUTr-Author-URL: https://freshluts.com/users/86490
# LUTr-Attribution: MarcR. via Fresh LUTs
# LUTr-Source-Labels: gamma=Other; color=None; key=Neutral; style=Film emulation; LUTr assumption=input Rec.709 per repository policy
# LUTr-Conversion-Warning: Input Rec.709 is a LUTr catalog assumption requested for this otherwise unspecified Fresh LUT; it is not verified by the upstream asset.
# LUTr-Note: Preserve this metadata and the upstream license notices when redistributing.
# LUTr-Upstream-Comment: Generated with IWLTBAP LUT Generator
# LUTr-Upstream-Comment: Website: http://luts.iwltbap.com
# LUTr-Upstream-Comment: LUT size
# LUTr-Upstream-Comment: LUT data points
TITLE "PictureFX-Kodachrome-1961-25-ASA-XPRD (exposure to taste)"
LUT_3D_SIZE 25
DOMAIN_MIN 0 0 0
DOMAIN_MAX 1 1 1
0 0 0
0.019608 0 0
0.047059 0 0
0.078431 0 0
0.109804 0 0
0.137255 0 0
0.164706 0 0
0.192157 0 0
0.219608 0 0
0.25098 0 0
0.290196 0 0
0.341176 0 0
0.423529 0 0
0.541176 0 0
0.682353 0 0
0.827451 0 0
0.956863 0 0
1 0 0
1 0 0
1 0 0
1 0 0
1 0 0
1 0 0
1 0 0
1 0 0
0 0.019608 0
0.019608 0.019608 0
0.047059 0.019608 0
0.078431 0.019608 0
0.105882 0.019608 0
0.133333 0.015686 0
0.164706 0.015686 0
0.192157 0.015686 0
0.219608 0.015686 0
0.25098 0.015686 0
0.290196 0.015686 0
0.345098 0.019608 0
0.431373 0.023529 0
0.54902 0.027451 0
0.690196 0.035294 0
0.831373 0.039216 0
0.960784 0.043137 0
1 0.043137 0
1 0.043137 0
1 0.043137 0
1 0.043137 0
1 0.043137 0
1 0.043137 0
1 0.043137 0
1 0.043137 0
0 0.047059 0
0.019608 0.047059 0
0.043137 0.043137 0
0.07451 0.043137 0
0.105882 0.043137 0
0.133333 0.043137 0
0.160784 0.043137 0
0.188235 0.039216 0
0.219608 0.039216 0
0.254902 0.039216 0
0.294118 0.043137 0
0.352941 0.047059 0
0.443137 0.054902 0
0.560784 0.066667 0
0.698039 0.07451 0
0.839216 0.082353 0
0.960784 0.086275 0
1 0.086275 0
1 0.086275 0
1 0.086275 0
1 0.086275 0
1 0.086275 0
1 0.086275 0
1 0.086275 0
1 0.086275 0
0 0.07451 0
0.015686 0.07451 0
0.043137 0.07451 0
0.07451 0.07451 0
0.101961 0.070588 0
0.129412 0.070588 0
0.160784 0.070588 0
0.188235 0.070588 0
0.219608 0.070588 0
0.254902 0.070588 0
0.301961 0.07451 0
0.368627 0.082353 0
0.458824 0.094118 0
0.576471 0.105882 0
0.713725 0.117647 0
0.85098 0.12549 0
0.968627 0.129412 0
1 0.133333 0
1 0.129412 0
1 0.129412 0
1 0.129412 0
1 0.129412 0
1 0.129412 0
1 0.129412 0
1 0.129412 0
0 0.101961 0
0.015686 0.101961 0
0.043137 0.101961 0
0.070588 0.098039 0
0.098039 0.098039 0
0.129412 0.098039 0
0.156863 0.098039 0
0.188235 0.101961 0
0.223529 0.101961 0
0.262745 0.105882 0
0.317647 0.113725 0
0.388235 0.12549 0
0.482353 0.133333 0
0.596078 0.14902 0
0.729412 0.160784 0
0.862745 0.172549 0
0.972549 0.176471 0
1 0.176471 0
1 0.176471 0
1 0.172549 0
1 0.172549 0
1 0.172549 0
1 0.172549 0
1 0.172549 0
1 0.172549 0
0 0.129412 0
0.015686 0.129412 0
0.039216 0.129412 0
0.070588 0.129412 0
0.098039 0.129412 0
0.129412 0.129412 0
0.160784 0.129412 0
0.196078 0.133333 0
0.235294 0.137255 0
0.278431 0.145098 0
0.337255 0.156863 0
0.415686 0.172549 0
0.509804 0.188235 0
0.623529 0.203922 0
0.752941 0.207843 0
0.87451 0.215686 0
0.976471 0.219608 0
1 0.219608 0
1 0.219608 0
1 0.219608 0
1 0.215686 0
1 0.215686 0
1 0.215686 0
1 0.215686 0
1 0.215686 0
0 0.160784 0
0.015686 0.160784 0
0.043137 0.164706 0
0.070588 0.164706 0
0.101961 0.164706 0
0.137255 0.168627 0
0.172549 0.172549 0
0.207843 0.176471 0
0.25098 0.184314 0
0.305882 0.196078 0
0.368627 0.211765 0
0.447059 0.231373 0
0.545098 0.25098 0
0.658824 0.266667 0
0.780392 0.278431 0
0.890196 0.278431 0
0.984314 0.266667 0
1 0.262745 0
1 0.262745 0
1 0.262745 0
1 0.258824 0
1 0.258824 0
1 0.258824 0
1 0.258824 0
1 0.258824 0
0 0.207843 0
0.019608 0.207843 0
0.047059 0.211765 0
0.078431 0.211765 0
0.113725 0.215686 0
0.152941 0.219608 0
0.192157 0.227451 0
0.231373 0.231373 0
0.27451 0.239216 0
0.329412 0.254902 0
0.396078 0.270588 0
0.482353 0.294118 0
0.580392 0.317647 0
0.690196 0.337255 0
0.803922 0.34902 0
0.901961 0.34902 0
0.988235 0.341176 0
1 0.32549 0
1 0.309804 0
1 0.305882 0
1 0.301961 0
1 0.301961 0
1 0.301961 0
1 0.301961 0
1 0.301961 0
0 0.27451 0
0.023529 0.278431 0
0.058824 0.278431 0
0.094118 0.282353 0
0.129412 0.286275 0
0.168627 0.290196 0
0.211765 0.294118 0
0.258824 0.301961 0
0.305882 0.309804 0
0.360784 0.317647 0
0.431373 0.341176 0
0.517647 0.364706 0
0.615686 0.392157 0
0.717647 0.411765 0
0.815686 0.419608 0
0.905882 0.419608 0
0.992157 0.411765 0
1 0.403922 0
1 0.392157 0
1 0.380392 0
1 0.368627 0
1 0.352941 0
1 0.345098 0
1 0.345098 0
1 0.341176 0
0 0.364706 0
0.031373 0.364706 0
0.070588 0.368627 0
0.109804 0.368627 0
0.14902 0.372549 0
0.188235 0.376471 0
0.235294 0.384314 0
0.290196 0.392157 0
0.345098 0.4 0
0.403922 0.407843 0
0.462745 0.415686 0
0.54902 0.443137 0
0.643137 0.466667 0
0.733333 0.478431 0
0.823529 0.486275 0
0.913725 0.490196 0
0.996078 0.486275 0
1 0.478431 0
1 0.470588 0
1 0.462745 0
1 0.45098 0
1 0.443137 0
1 0.435294 0
1 0.427451 0
1 0.423529 0
0 0.478431 0
0.039216 0.478431 0
0.082353 0.478431 0
0.121569 0.482353 0
0.164706 0.486275 0
0.207843 0.486275 0
0.254902 0.494118 0
0.313725 0.498039 0
0.376471 0.505882 0
0.443137 0.509804 0
0.505882 0.517647 0
0.572549 0.521569 0
0.654902 0.537255 0
0.741176 0.54902 0
0.831373 0.556863 0
0.917647 0.560784 0
1 0.556863 0
1 0.552941 0
1 0.545098 0
1 0.541176 0
1 0.533333 0
1 0.52549 0
1 0.521569 0
1 0.517647 0
1 0.509804 0
0 0.596078 0
0.043137 0.596078 0
0.086275 0.596078 0
0.129412 0.596078 0
0.176471 0.596078 0
0.219608 0.6 0
0.262745 0.6 0
0.309804 0.603922 0
0.384314 0.603922 0
0.454902 0.607843 0
0.52549 0.607843 0
0.592157 0.611765 0
0.666667 0.611765 0
0.74902 0.623529 0
0.835294 0.631373 0
0.917647 0.631373 0
0.996078 0.627451 0
1 0.627451 0
1 0.619608 0
1 0.615686 0
1 0.607843 0
1 0.603922 0
1 0.6 0
1 0.596078 0
1 0.592157 0
0 0.690196 0
0.043137 0.690196 0
0.086275 0.690196 0
0.129412 0.694118 0
0.176471 0.694118 0
0.219608 0.694118 0
0.262745 0.694118 0
0.305882 0.698039 0
0.364706 0.698039 0
0.447059 0.698039 0
0.52549 0.701961 0
0.6 0.701961 0
0.678431 0.701961 0
0.752941 0.701961 0
0.831373 0.701961 0
0.913725 0.701961 0
0.992157 0.701961 0
1 0.698039 0
1 0.694118 0
1 0.686275 0
1 0.682353 0
1 0.678431 0
1 0.67451 0
1 0.670588 0
1 0.666667 0
0 0.780392 0
0.043137 0.780392 0
0.086275 0.780392 0
0.129412 0.780392 0
0.172549 0.780392 0
0.215686 0.780392 0
0.258824 0.780392 0
0.301961 0.784314 0
0.345098 0.784314 0
0.423529 0.784314 0
0.509804 0.784314 0
0.592157 0.780392 0
0.670588 0.780392 0
0.74902 0.780392 0
0.827451 0.776471 0
0.901961 0.772549 0
0.980392 0.772549 0
1 0.768627 0
1 0.760784 0
1 0.756863 0
1 0.74902 0
1 0.741176 0
1 0.737255 0
1 0.733333 0
1 0.729412 0
0 0.858824 0
0.043137 0.858824 0
0.086275 0.858824 0
0.129412 0.858824 0
0.172549 0.858824 0
0.215686 0.858824 0
0.258824 0.858824 0
0.301961 0.858824 0
0.345098 0.858824 0
0.388235 0.858824 0
0.482353 0.858824 0
0.572549 0.854902 0
0.654902 0.854902 0
0.737255 0.85098 0
0.815686 0.847059 0
0.890196 0.839216 0
0.964706 0.835294 0
1 0.831373 0
1 0.823529 0
1 0.815686 0
1 0.803922 0
1 0.8 0
1 0.796078 0
1 0.788235 0
1 0.784314 0
0 0.929412 0
0.039216 0.929412 0
0.082353 0.929412 0
0.12549 0.929412 0
0.168627 0.929412 0
0.211765 0.92549 0
0.254902 0.92549 0
0.298039 0.92549 0
0.337255 0.92549 0
0.380392 0.92549 0
0.45098 0.92549 0
0.545098 0.921569 0
0.635294 0.917647 0
0.721569 0.909804 0
0.8 0.905882 0
0.87451 0.898039 0
0.941176 0.894118 0
1 0.886275 0
1 0.87451 0
1 0.866667 0
1 0.854902 0
1 0.85098 0
1 0.843137 0
1 0.839216 0
1 0.831373 0
0 0.984314 0
0.039216 0.984314 0
0.082353 0.984314 0
0.121569 0.984314 0
0.164706 0.984314 0
0.207843 0.984314 0
0.247059 0.984314 0
0.290196 0.984314 0
0.333333 0.984314 0
0.372549 0.980392 0
0.415686 0.980392 0
0.521569 0.976471 0
0.615686 0.968627 0
0.698039 0.964706 0
0.776471 0.956863 0
0.85098 0.94902 0
0.917647 0.941176 0
0.980392 0.929412 0
1 0.921569 0
1 0.909804 0
1 0.898039 0
1 0.890196 0
1 0.886275 0
1 0.878431 0
1 0.870588 0
0 1 0
0.039216 1 0
0.078431 1 0
0.121569 1 0
0.160784 1 0
0.2 1 0
0.243137 1 0
0.282353 1 0
0.321569 1 0
0.364706 1 0
0.403922 1 0
0.494118 1 0
0.588235 1 0
0.67451 1 0
0.74902 0.996078 0
0.819608 0.988235 0
0.886275 0.980392 0
0.94902 0.968627 0
1 0.956863 0
1 0.945098 0
1 0.933333 0
1 0.92549 0
1 0.921569 0
1 0.913725 0
1 0.905882 0
0 1 0
0.035294 1 0
0.07451 1 0
0.113725 1 0
0.152941 1 0
0.196078 1 0
0.235294 1 0
0.27451 1 0
0.313725 1 0
0.352941 1 0
0.392157 1 0
0.466667 1 0
0.564706 1 0
0.647059 1 0
0.721569 1 0
0.792157 1 0
0.854902 1 0
0.917647 1 0
0.972549 0.988235 0
1 0.976471 0
1 0.964706 0
1 0.956863 0
1 0.94902 0
1 0.941176 0
1 0.937255 0
0 1 0
0.035294 1 0
0.070588 1 0
0.109804 1 0
0.14902 1 0
0.188235 1 0
0.227451 1 0
0.262745 1 0
0.301961 1 0
0.341176 1 0
0.380392 1 0
0.447059 1 0
0.541176 1 0
0.619608 1 0
0.694118 1 0
0.764706 1 0
0.827451 1 0
0.882353 1 0
0.937255 1 0
0.992157 1 0
1 0.992157 0
1 0.980392 0
1 0.976471 0
1 0.968627 0
1 0.960784 0
0 1 0
0.031373 1 0
0.066667 1 0
0.105882 1 0
0.141176 1 0
0.180392 1 0
0.215686 1 0
0.254902 1 0
0.290196 1 0
0.329412 1 0
0.364706 1 0
0.427451 1 0
0.521569 1 0
0.6 1 0
0.670588 1 0
0.737255 1 0
0.796078 1 0
0.854902 1 0
0.909804 1 0
0.956863 1 0
1 1 0
1 1 0
1 0.996078 0
1 0.992157 0
1 0.984314 0
0 1 0
0.031373 1 0
0.066667 1 0
0.101961 1 0
0.137255 1 0
0.176471 1 0
0.211765 1 0
0.247059 1 0
0.286275 1 0
0.321569 1 0
0.356863 1 0
0.419608 1 0
0.505882 1 0
0.584314 1 0
0.65098 1 0
0.713725 1 0
0.772549 1 0
0.827451 1 0
0.882353 1 0
0.929412 1 0
0.976471 1 0
1 1 0
1 1 0
1 1 0
1 1 0
0 1 0
0.027451 1 0
0.062745 1 0
0.101961 1 0
0.137255 1 0
0.172549 1 0
0.207843 1 0
0.243137 1 0
0.278431 1 0
0.317647 1 0
0.352941 1 0
0.423529 1 0
0.505882 1 0
0.576471 1 0
0.643137 1 0
0.701961 1 0
0.760784 1 0
0.811765 1 0
0.862745 1 0
0.905882 1 0
0.94902 1 0
0.988235 1 0
1 1 0
1 1 0
1 1 0
0 1 0
0.027451 1 0
0.062745 1 0
0.098039 1 0
0.133333 1 0
0.168627 1 0
0.203922 1 0
0.239216 1 0
0.27451 1 0
0.309804 1 0
0.34902 1 0
0.431373 1 0
0.505882 1 0
0.576471 1 0
0.635294 1 0
0.694118 1 0
0.74902 1 0
0.796078 1 0
0.843137 1 0
0.886275 1 0
0.929412 1 0
0.968627 1 0
1 1 0
1 1 0
1 1 0
0 1 0
0.027451 1 0
0.058824 1 0
0.094118 1 0
0.129412 1 0
0.164706 1 0
0.2 1 0
0.235294 1 0
0.270588 1 0
0.305882 1 0
0.372549 1 0
0.447059 1 0
0.513725 1 0
0.576471 1 0
0.635294 1 0
0.686275 1 0
0.737255 1 0
0.784314 1 0
0.827451 1 0
0.870588 1 0
0.909804 1 0
0.945098 1 0
0.980392 1 0
1 1 0
1 1 0
0 0 0.015686
0.019608 0 0.019608
0.047059 0 0.019608
0.078431 0 0.019608
0.109804 0 0.019608
0.137255 0 0.019608
0.164706 0 0.015686
0.192157 0 0.015686
0.219608 0 0.015686
0.25098 0 0.015686
0.290196 0 0.015686
0.341176 0 0.015686
0.427451 0 0.019608
0.545098 0 0.027451
0.686275 0 0.035294
0.831373 0 0.039216
0.956863 0 0.043137
1 0 0.043137
1 0 0.043137
1 0 0.043137
1 0 0.043137
1 0 0.043137
1 0 0.043137
1 0 0.043137
1 0 0.043137
0 0.019608 0.019608
0.019608 0.019608 0.019608
0.047059 0.019608 0.019608
0.078431 0.019608 0.019608
0.105882 0.019608 0.019608
0.133333 0.015686 0.015686
0.164706 0.015686 0.015686
0.192157 0.015686 0.015686
0.219608 0.015686 0.015686
0.25098 0.015686 0.015686
0.290196 0.015686 0.015686
0.345098 0.019608 0.019608
0.435294 0.023529 0.023529
0.552941 0.027451 0.027451
0.694118 0.035294 0.035294
0.835294 0.039216 0.039216
0.960784 0.043137 0.043137
1 0.043137 0.043137
1 0.043137 0.043137
1 0.043137 0.043137
1 0.043137 0.043137
1 0.043137 0.043137
1 0.043137 0.043137
1 0.043137 0.043137
1 0.043137 0.043137
0 0.047059 0.019608
0.019608 0.047059 0.019608
0.047059 0.047059 0.019608
0.07451 0.043137 0.019608
0.105882 0.043137 0.015686
0.133333 0.043137 0.015686
0.160784 0.043137 0.015686
0.192157 0.039216 0.015686
0.219608 0.039216 0.015686
0.254902 0.039216 0.015686
0.294118 0.043137 0.015686
0.352941 0.047059 0.019608
0.447059 0.054902 0.023529
0.564706 0.066667 0.027451
0.701961 0.07451 0.035294
0.843137 0.082353 0.039216
0.964706 0.086275 0.043137
1 0.086275 0.043137
1 0.086275 0.043137
1 0.086275 0.043137
1 0.086275 0.043137
1 0.086275 0.043137
1 0.086275 0.043137
1 0.086275 0.043137
1 0.086275 0.043137
0 0.07451 0.015686
0.015686 0.07451 0.015686
0.043137 0.07451 0.015686
0.07451 0.07451 0.015686
0.101961 0.070588 0.015686
0.129412 0.070588 0.015686
0.160784 0.070588 0.015686
0.188235 0.070588 0.015686
0.219608 0.070588 0.015686
0.254902 0.070588 0.015686
0.301961 0.07451 0.015686
0.368627 0.082353 0.019608
0.462745 0.094118 0.023529
0.580392 0.105882 0.031373
0.713725 0.117647 0.035294
0.85098 0.12549 0.043137
0.968627 0.129412 0.043137
1 0.133333 0.043137
1 0.129412 0.043137
1 0.129412 0.043137
1 0.129412 0.043137
1 0.129412 0.043137
1 0.129412 0.043137
1 0.129412 0.043137
1 0.129412 0.043137
0 0.101961 0.015686
0.015686 0.101961 0.015686
0.039216 0.101961 0.015686
0.070588 0.098039 0.015686
0.098039 0.098039 0.015686
0.129412 0.098039 0.015686
0.156863 0.098039 0.015686
0.192157 0.101961 0.015686
0.223529 0.101961 0.015686
0.262745 0.105882 0.015686
0.317647 0.113725 0.019608
0.388235 0.121569 0.023529
0.482353 0.133333 0.027451
0.6 0.14902 0.031373
0.733333 0.160784 0.039216
0.866667 0.172549 0.043137
0.972549 0.176471 0.043137
1 0.176471 0.043137
1 0.176471 0.043137
1 0.172549 0.043137
1 0.172549 0.043137
1 0.172549 0.043137
1 0.172549 0.043137
1 0.172549 0.043137
1 0.172549 0.043137
0 0.129412 0.015686
0.015686 0.129412 0.015686
0.039216 0.129412 0.015686
0.070588 0.129412 0.015686
0.098039 0.129412 0.015686
0.129412 0.129412 0.015686
0.160784 0.133333 0.015686
0.196078 0.133333 0.015686
0.235294 0.137255 0.019608
0.282353 0.145098 0.019608
0.341176 0.156863 0.023529
0.415686 0.172549 0.027451
0.509804 0.188235 0.031373
0.627451 0.2 0.035294
0.752941 0.207843 0.039216
0.878431 0.215686 0.043137
0.980392 0.219608 0.043137
1 0.219608 0.043137
1 0.219608 0.043137
1 0.219608 0.043137
1 0.215686 0.043137
1 0.215686 0.043137
1 0.215686 0.043137
1 0.215686 0.043137
1 0.215686 0.043137
0 0.160784 0.015686
0.015686 0.160784 0.015686
0.043137 0.164706 0.015686
0.070588 0.164706 0.015686
0.101961 0.164706 0.015686
0.137255 0.168627 0.015686
0.172549 0.172549 0.019608
0.207843 0.176471 0.019608
0.254902 0.184314 0.019608
0.305882 0.196078 0.023529
0.368627 0.211765 0.027451
0.447059 0.227451 0.031373
0.545098 0.247059 0.035294
0.658824 0.266667 0.039216
0.780392 0.278431 0.043137
0.894118 0.27451 0.043137
0.984314 0.262745 0.043137
1 0.262745 0.043137
1 0.262745 0.043137
1 0.262745 0.043137
1 0.258824 0.043137
1 0.258824 0.043137
1 0.258824 0.043137
1 0.258824 0.043137
1 0.258824 0.043137
0 0.207843 0.019608
0.019608 0.207843 0.019608
0.047059 0.211765 0.019608
0.078431 0.211765 0.019608
0.113725 0.215686 0.019608
0.152941 0.219608 0.019608
0.192157 0.227451 0.023529
0.231373 0.231373 0.023529
0.278431 0.239216 0.023529
0.333333 0.254902 0.027451
0.4 0.270588 0.031373
0.482353 0.294118 0.035294
0.580392 0.317647 0.039216
0.694118 0.337255 0.043137
0.803922 0.34902 0.043137
0.901961 0.345098 0.043137
0.988235 0.337255 0.043137
1 0.321569 0.043137
1 0.305882 0.043137
1 0.305882 0.043137
1 0.301961 0.043137
1 0.301961 0.043137
1 0.301961 0.043137
1 0.301961 0.043137
1 0.301961 0.043137
0 0.27451 0.023529
0.023529 0.278431 0.023529
0.058824 0.278431 0.023529
0.094118 0.282353 0.023529
0.129412 0.286275 0.027451
0.168627 0.290196 0.027451
0.211765 0.294118 0.027451
0.258824 0.301961 0.027451
0.309804 0.309804 0.031373
0.360784 0.317647 0.031373
0.431373 0.341176 0.035294
0.517647 0.364706 0.039216
0.615686 0.392157 0.043137
0.721569 0.407843 0.043137
0.819608 0.415686 0.043137
0.909804 0.415686 0.043137
0.996078 0.411765 0.043137
1 0.4 0.043137
1 0.392157 0.043137
1 0.376471 0.043137
1 0.364706 0.043137
1 0.34902 0.043137
1 0.345098 0.043137
1 0.345098 0.043137
1 0.341176 0.043137
0 0.364706 0.031373
0.031373 0.364706 0.031373
0.070588 0.368627 0.031373
0.109804 0.368627 0.031373
0.14902 0.372549 0.031373
0.188235 0.376471 0.035294
0.235294 0.384314 0.035294
0.290196 0.392157 0.035294
0.345098 0.4 0.035294
0.403922 0.407843 0.039216
0.462745 0.415686 0.039216
0.54902 0.443137 0.043137
0.643137 0.466667 0.043137
0.733333 0.478431 0.043137
0.827451 0.486275 0.043137
0.913725 0.486275 0.043137
1 0.482353 0.043137
1 0.478431 0.043137
1 0.470588 0.043137
1 0.458824 0.043137
1 0.45098 0.043137
1 0.443137 0.043137
1 0.431373 0.043137
1 0.423529 0.043137
1 0.419608 0.043137
0 0.478431 0.039216
0.039216 0.478431 0.039216
0.082353 0.478431 0.039216
0.12549 0.482353 0.039216
0.164706 0.486275 0.039216
0.207843 0.490196 0.039216
0.254902 0.494118 0.039216
0.313725 0.498039 0.043137
0.376471 0.505882 0.043137
0.443137 0.509804 0.043137
0.505882 0.517647 0.043137
0.572549 0.521569 0.043137
0.654902 0.537255 0.043137
0.745098 0.54902 0.043137
0.831373 0.556863 0.043137
0.917647 0.556863 0.043137
1 0.556863 0.043137
1 0.552941 0.043137
1 0.545098 0.043137
1 0.537255 0.043137
1 0.529412 0.043137
1 0.52549 0.043137
1 0.517647 0.043137
1 0.513725 0.043137
1 0.509804 0.043137
