site/assets/luts/freshluts--0000226-flog-to-rec-709.cube
# LUTr-Schema-Version: 2
# LUTr-ID: freshluts--0000226-flog-to-rec-709
# LUTr-Title: Flog to Rec 709
# LUTr-Collection: Fresh LUTs
# LUTr-Collection-ID: freshluts-community
# LUTr-Source: https://freshluts.com
# LUTr-Retrieved: 2026-07-27
# LUTr-Source-File: submissions-raw/freshluts/cubes/226__Flog_to_Rec_709.cube
# LUTr-Source-Format: CUBE
# LUTr-Source-SHA256: a058232067ee13a61b5afe4f25aff97ff5eaf47a667d7d275dad7c7f0878bac0
# LUTr-License: CC0-1.0
# LUTr-License-URL: https://freshluts.com/termsandconditions
# LUTr-License-Basis: site-terms
# LUTr-Transform-Class: creative-look
# LUTr-Tags: creative, freshluts, community, cube, rec709
# LUTr-Input-Color-Space: rec709
# LUTr-Input-Gamut: rec709
# LUTr-Input-Transfer: rec709
# LUTr-Output-Color-Space: srgb
# LUTr-Output-Gamut: rec709
# LUTr-Output-Transfer: srgb
# LUTr-Color-Space-Confidence: declared-by-source
# LUTr-Domain-Normalized: true
# LUTr-Shaper: none
# LUTr-Original-Grid: 16x16x16
# LUTr-Conversion-Grid: 16x16x16
# LUTr-Conversion-Interpolation: none
# LUTr-Conversion-Method: Metadata normalization; numeric LUT samples preserved
# LUTr-Conversion-Tool: LUTr scripts/convert-all-to-cube.mjs 2.0.0
# LUTr-Conversion-Date: 2026-07-28
# LUTr-Asset-URL: https://freshluts.com/luts/226
# LUTr-Author: Andy
# LUTr-Author-URL: https://freshluts.com/users/1003
# LUTr-Attribution: Andy via Fresh LUTs
# LUTr-Source-Labels: gamma=Rec 709; color=None; key=Neutral; style=Correction
# LUTr-Note: Preserve this metadata and the upstream license notices when redistributing.
TITLE "Flog to Rec 709"
LUT_3D_SIZE 6
DOMAIN_MIN 0 0 0
DOMAIN_MAX 1 1 1
0 0 0
0.142068 -0.000577 -0.000577
0.421988 -0.001714 -0.001714
0.741205 -0.003012 -0.003012
0.986587 -0.004009 -0.004009
1.000003 -0.004063 -0.004063
-0.0007 0.103934 -0.0007
0.098539 0.093626 -0.000712
0.408826 0.026599 -0.001664
0.735115 -0.002987 -0.002987
0.983661 -0.003996 -0.003996
1.000003 -0.004063 -0.004063
-0.002288 0.339647 -0.002288
-0.002265 0.336219 -0.002265
0.3281 0.317119 -0.0024
0.701191 0.227999 -0.003102
0.966728 0.10563 -0.003955
1.000003 -0.00054 -0.004063
-0.004098 0.608422 -0.004098
-0.004087 0.606861 -0.004087
-0.003671 0.598171 -0.004029
0.591138 0.572281 -0.004329
0.899447 0.509012 -0.004731
1.000002 0.453734 -0.004818
-0.005525 0.820388 -0.005525
-0.005518 0.819279 -0.005518
-0.005481 0.813704 -0.005481
0.369924 0.796907 -0.005471
0.797858 0.773399 -0.005848
0.99968 0.732522 -0.006044
-0.006604 0.980506 -0.006604
-0.006598 0.979629 -0.006598
-0.00657 0.975346 -0.00657
0.015524 0.962515 -0.006483
0.664088 0.943962 -0.006684
0.954036 0.925319 -0.006996
-0.000266 -0.000266 0.102803
0.137184 -0.000594 0.101319
0.420428 -0.001713 0.080059
0.740504 -0.00301 0.049479
0.986183 -0.004007 0.021926
1.000003 -0.004063 -0.002454
-0.000719 0.10327 0.094466
0.092403 0.092926 0.092938
0.406711 0.020289 0.081193
0.731771 -0.002974 0.068235
0.981547 -0.003988 0.046783
1.000003 -0.004063 0.026809
-0.002287 0.339395 0.03786
-0.00226 0.335425 0.051025
0.325797 0.316893 0.02255
0.698016 0.239383 0.022001
0.964069 0.136847 0.016473
1.000003 0.007482 -0.00373
-0.004098 0.608366 -0.004098
-0.004082 0.606106 -0.004082
0.006399 0.597474 -0.004024
0.589806 0.572159 -0.004326
0.896731 0.515241 -0.00475
1.000002 0.464549 -0.004857
-0.005525 0.820309 -0.005525
-0.005515 0.818808 -0.005515
-0.005476 0.812951 -0.005476
0.380647 0.796323 -0.005475
0.796896 0.773356 -0.005846
0.999666 0.735409 -0.006058
-0.006604 0.980563 -0.006604
-0.006594 0.979064 -0.006594
-0.006565 0.974687 -0.006565
0.047605 0.961751 -0.006479
0.667949 0.943668 -0.006687
0.953475 0.925336 -0.006995
-0.000873 -0.000873 0.337165
0.093408 -0.00092 0.336663
0.411534 -0.001808 0.333981
0.736377 -0.003038 0.293778
0.984353 -0.004024 0.266637
1.000003 -0.004082 0.245965
-0.000991 0.085899 0.3344
0.041672 0.082038 0.348829
0.397075 0.018771 0.331588
0.72753 -0.003006 0.300047
0.979554 -0.004007 0.278007
1.000003 -0.004086 0.261318
-0.002359 0.338156 0.318939
-0.002333 0.334203 0.318359
0.314348 0.315597 0.315622
0.7296 0.215153 0.277621
0.977788 0.11531 0.272429
1.000003 0.101336 0.293042
-0.004112 0.607808 0.242002
-0.0041 0.605532 0.252679
-0.003995 0.595357 0.277797
0.586835 0.572961 0.180582
0.909236 0.520075 0.162899
1.000002 0.490604 0.255367
-0.005527 0.819992 0.150438
-0.005518 0.818404 0.174499
-0.005473 0.811037 0.224503
0.380009 0.79845 0.11535
0.793868 0.773549 0.10541
0.999665 0.742551 0.19494
-0.006601 0.980137 0.037207
-0.006594 0.978904 0.073987
-0.006555 0.972743 0.158605
0.058969 0.960624 0.120546
0.673139 0.943272 0.067184
0.950011 0.924907 0.061835
-0.001566 -0.001566 0.604485
0.005807 -0.001565 0.604218
0.348189 -0.00199 0.602973
0.724543 -0.003193 0.599274
0.978471 -0.004122 0.56596
1.000003 -0.004193 0.543592
-0.001593 0.065032 0.603133
0.002401 0.082001 0.602358
0.343054 0.019038 0.602745
0.715818 -0.00316 0.597487
0.973854 -0.004107 0.569758
1.000003 -0.004197 0.550836
-0.002418 0.301721 0.596165
-0.002445 0.307148 0.595334
0.270458 0.304453 0.639545
0.711644 0.205509 0.615017
0.967058 0.110492 0.578371
1.000003 0.095941 0.564667
-0.00423 0.606102 0.575221
-0.004216 0.603917 0.574907
-0.00415 0.593759 0.573349
0.569596 0.569821 0.569825
0.921999 0.512415 0.546871
1 0.507843 0.561195
-0.005592 0.818797 0.5191
-0.005584 0.817308 0.52493
-0.00554 0.809893 0.53864
0.297789 0.805125 0.505863
0.787722 0.774359 0.461255
0.999541 0.746213 0.534502
-0.006644 0.979287 0.47212
-0.006638 0.978105 0.482111
-0.006604 0.971933 0.506003
0.057676 0.958729 0.517699
0.622588 0.954072 0.391674
0.947413 0.926898 0.375607
-0.002112 -0.002112 0.815254
-0.002112 -0.002112 0.815048
0.293024 -0.002317 0.814288
0.674858 -0.003273 0.811847
0.970729 -0.004283 0.808587
1.000003 -0.00437 0.787561
-0.00212 0.048661 0.814366
-0.002134 0.072151 0.813721
0.293166 0.018157 0.813829
0.67259 -0.003264 0.810512
0.964738 -0.00426 0.807172
1.000003 -0.004372 0.789032
-0.002663 0.279791 0.809694
-0.002705 0.289956 0.809031
0.206611 0.291123 0.869643
0.676526 0.197565 0.850023
0.953252 0.104209 0.813567
1.000003 0.088932 0.789822
-0.004209 0.575163 0.796136
-0.004228 0.578488 0.795464
-0.004249 0.582225 0.79356
0.542475 0.563058 0.834863
0.909507 0.50378 0.817683
0.999996 0.505655 0.780626
-0.005706 0.817482 0.777377
-0.005695 0.815744 0.777013
-0.005648 0.808507 0.775801
0.265275 0.800392 0.779883
0.770016 0.770154 0.770159
0.998735 0.747365 0.765943
-0.006728 0.978064 0.741003
-0.006721 0.97679 0.743737
-0.006684 0.97061 0.7501
0.044388 0.956893 0.752419
0.587002 0.955006 0.71474
0.935973 0.92511 0.695897
-0.002525 -0.002525 0.974407
-0.002524 -0.002524 0.974261
0.240955 -0.002627 0.973554
0.637924 -0.003411 0.971732
0.939634 -0.004348 0.969247
1.000003 -0.004551 0.966489
-0.002526 0.035422 0.973616
-0.002535 0.062547 0.973043
0.245726 0.018089 0.972997
0.639696 -0.003413 0.970648
0.93656 -0.004336 0.968028
1.000003 -0.004549 0.965401
-0.002925 0.264734 0.970296
-0.002971 0.278459 0.969567
0.183925 0.296797 0.99152
0.633818 0.231633 0.990724
0.930261 0.102049 0.979554
1.000003 0.082444 0.960447
-0.004271 0.555215 0.959658
-0.004308 0.561988 0.958914
-0.004372 0.573779 0.957088
0.52578 0.561656 0.984237
0.870304 0.516149 0.981771
0.999989 0.503407 0.949165
-0.0057 0.797948 0.944755
-0.005706 0.799111 0.944336
-0.005702 0.798668 0.942975
0.239289 0.792298 0.962941
0.752643 0.766346 0.966085
0.997298 0.743427 0.940877
-0.006819 0.976933 0.929815
-0.00681 0.975535 0.929707
-0.006772 0.969706 0.928817
0.01697 0.955656 0.926726
0.563278 0.951175 0.933387
0.921404 0.92147 0.92146
