site/assets/luts/freshluts--0000986-ocean.cube
# LUTr-Schema-Version: 2
# LUTr-ID: freshluts--0000986-ocean
# LUTr-Title: Ocean
# LUTr-Collection: Fresh LUTs
# LUTr-Collection-ID: freshluts-community
# LUTr-Source: https://freshluts.com
# LUTr-Retrieved: 2026-07-27
# LUTr-Source-File: submissions-raw/freshluts/cubes/986__Ocean.cube
# LUTr-Source-Format: CUBE
# LUTr-Source-SHA256: ac7021fd9fe30fc31434df5a5f283c0ed83f879f808f7305548a64909710fe65
# LUTr-License: CC0-1.0
# LUTr-License-URL: https://freshluts.com/termsandconditions
# LUTr-License-Basis: site-terms
# LUTr-Transform-Class: creative-look
# LUTr-Tags: creative, freshluts, community, cube, blue, high-key, rec709
# LUTr-Input-Color-Space: rec709
# LUTr-Input-Gamut: rec709
# LUTr-Input-Transfer: rec709
# LUTr-Output-Color-Space: srgb
# LUTr-Output-Gamut: rec709
# LUTr-Output-Transfer: srgb
# LUTr-Color-Space-Confidence: declared-by-source
# LUTr-Domain-Normalized: true
# LUTr-Shaper: none
# LUTr-Original-Grid: 32x32x32
# LUTr-Conversion-Grid: 32x32x32
# LUTr-Conversion-Interpolation: none
# LUTr-Conversion-Method: Metadata normalization; numeric LUT samples preserved
# LUTr-Conversion-Tool: LUTr scripts/convert-all-to-cube.mjs 2.0.0
# LUTr-Conversion-Date: 2026-07-28
# LUTr-Asset-URL: https://freshluts.com/luts/986
# LUTr-Author: ButterflyBD
# LUTr-Author-URL: https://freshluts.com/users/53416
# LUTr-Attribution: ButterflyBD via Fresh LUTs
# LUTr-Source-Labels: gamma=Rec 709; color=Blue; key=High Key; style=Colorful
# LUTr-Note: Preserve this metadata and the upstream license notices when redistributing.
# LUTr-Upstream-Comment: Created by: Adobe Photoshop Export Color Lookup Plugin
# LUTr-Upstream-Comment: LUT size
# LUTr-Upstream-Comment: data domain
# LUTr-Upstream-Comment: LUT data points
TITLE "Ocean"
LUT_3D_SIZE 5
DOMAIN_MIN 0.000000 0.000000 0.000000
DOMAIN_MAX 0.903226 0.903226 0.903226
0 0 0
0.274231 0 0
0.552368 0 0
0.796173 0 0
1 0 0
0 0.274048 0
0.274231 0.274048 0
0.552368 0.230011 0
0.796173 0.205261 0
1 0.192657 0
0 0.572296 0
0.232117 0.572296 0
0.552368 0.572296 0
0.796173 0.516815 0
1 0.488617 0
0 0.800293 0
0.209106 0.800293 0
0.499268 0.800293 0
0.796173 0.800293 0
1 0.765533 0
0 1 0
0.197571 1 0
0.472778 1 0
0.765594 1 0
1 1 0
0 0 0.27475
0.274231 0 0.27475
0.552368 0 0.233337
0.796173 0 0.210663
1 0 0.199341
0 0.274048 0.27475
0.232117 0.230011 0.233337
0.521667 0.184021 0.191589
0.810272 0.136261 0.149597
1 0.113495 0.129913
0 0.572296 0.233337
0.189575 0.540588 0.191589
0.521667 0.540588 0.191589
0.810272 0.488617 0.149597
1 0.446594 0.129913
0 0.800293 0.210663
0.146667 0.816467 0.149597
0.472778 0.816467 0.149597
0.810272 0.816467 0.149597
1 0.766205 0.129913
0 1 0.199341
0.126373 1 0.129913
0.437683 1 0.129913
0.766144 1 0.129913
1 1 0.129913
0 0 0.546082
0.232117 0 0.546082
0.552368 0 0.546082
0.796173 0 0.492798
1 0 0.470703
0 0.230011 0.546082
0.189575 0.184021 0.511444
0.521667 0.184021 0.511444
0.810272 0.136261 0.470703
1 0.113495 0.436859
0 0.572296 0.546082
0.189575 0.540588 0.511444
0.472748 0.488586 0.470673
0.772797 0.437744 0.429535
1 0.392944 0.388367
0 0.800293 0.492798
0.146667 0.816467 0.470703
0.430389 0.773773 0.429535
0.772797 0.773773 0.429535
1 0.734619 0.388367
0 1 0.470703
0.126373 1 0.436859
0.388947 1 0.388367
0.734161 1 0.388367
1 1 0.388367
0 0 0.779358
0.209106 0 0.779358
0.499268 0 0.779358
0.796173 0 0.779358
1 0 0.756866
0 0.205261 0.779358
0.146667 0.136261 0.79007
0.472778 0.136261 0.79007
0.810272 0.136261 0.79007
1 0.113495 0.757294
0 0.516815 0.779358
0.146667 0.488617 0.79007
0.430389 0.437744 0.762177
0.772797 0.437744 0.762177
1 0.392944 0.733521
0 0.800293 0.779358
0.146667 0.816467 0.79007
0.430389 0.773773 0.762177
0.734161 0.734619 0.733521
0.978821 0.699738 0.700653
0 1 0.756866
0.126373 1 0.757294
0.388947 1 0.733521
0.693542 0.987671 0.700653
0.978821 0.987671 0.700653
0 0 1
0.197571 0 1
0.472778 0 1
0.765594 0 1
1 0 1
0 0.192657 1
0.126373 0.113495 1
0.437683 0.113495 1
0.766144 0.113495 1
1 0.113495 1
0 0.488617 1
0.126373 0.446594 1
0.388947 0.392944 1
0.734161 0.392944 1
1 0.392944 1
0 0.765533 1
0.126373 0.766205 1
0.388947 0.734619 1
0.693542 0.699738 0.977448
0.978821 0.699738 0.977448
0 1 1
0.126373 1 1
0.388947 1 1
0.693542 0.987671 0.977448
0.944 0.967468 0.937073
