site/assets/luts/freshluts--0001550-chemical-hot.cube
# LUTr-Schema-Version: 2
# LUTr-ID: freshluts--0001550-chemical-hot
# LUTr-Title: Chemical Hot
# LUTr-Collection: Fresh LUTs
# LUTr-Collection-ID: freshluts-community
# LUTr-Source: https://freshluts.com
# LUTr-Retrieved: 2026-07-27
# LUTr-Source-File: submissions-raw/freshluts/cubes/1550__Chemical_Hot.cube
# LUTr-Source-Format: CUBE
# LUTr-Source-SHA256: 7172a9fc4de689098f7df6465e6401bb71a1b0296f3dd9a0c8128208040fd8e0
# LUTr-License: CC0-1.0
# LUTr-License-URL: https://freshluts.com/termsandconditions
# LUTr-License-Basis: site-terms
# LUTr-Transform-Class: creative-look
# LUTr-Tags: creative, freshluts, community, cube, film-emulation, warm, rec709
# LUTr-Input-Color-Space: rec709
# LUTr-Input-Gamut: rec709
# LUTr-Input-Transfer: rec709
# LUTr-Output-Color-Space: srgb
# LUTr-Output-Gamut: rec709
# LUTr-Output-Transfer: srgb
# LUTr-Color-Space-Confidence: declared-by-source
# LUTr-Domain-Normalized: true
# LUTr-Shaper: none
# LUTr-Original-Grid: 33x33x33
# LUTr-Conversion-Grid: 33x33x33
# LUTr-Conversion-Interpolation: none
# LUTr-Conversion-Method: Metadata normalization; numeric LUT samples preserved
# LUTr-Conversion-Tool: LUTr scripts/convert-all-to-cube.mjs 2.0.0
# LUTr-Conversion-Date: 2026-07-28
# LUTr-Asset-URL: https://freshluts.com/luts/1550
# LUTr-Author: Suchithya
# LUTr-Author-URL: https://freshluts.com/users/192577
# LUTr-Attribution: Suchithya via Fresh LUTs
# LUTr-Source-Labels: gamma=Rec 709; color=Warm; key=Neutral; style=Film emulation
# LUTr-Note: Preserve this metadata and the upstream license notices when redistributing.
TITLE "Chemical Hot"
LUT_3D_SIZE 5
DOMAIN_MIN 0 0 0
DOMAIN_MAX 1 1 1
0.15312654 0.065854445 0.063987218
0.42480707 0.012250284 0.011390372
0.76592624 0 0
0.99860084 0 0
0.99860084 0 0
0.09465915 0.30056885 0
0.37867957 0.27364439 0
0.67742384 0.23296368 0
0.88680846 0.18585657 0
0.99860084 0.14931789 0
0 0.76852643 0
0.33277959 0.62067401 0
0.62207973 0.56496787 0
0.84415758 0.53264505 0
0.97667658 0.48690328 0
0 0.89803922 0
0.26710916 0.89429164 0
0.59623879 0.77000266 0
0.81031966 0.73120534 0
0.95529973 0.70379782 0
0 0.89803922 0
0.26710916 0.89429164 0
0.5765754 0.89336568 0
0.79448074 0.8465572 0
0.93872327 0.82183939 0
0.14835411 0.051965788 0.52245825
0.41126305 0.012630924 0.39595264
0.75368023 0 0.34111312
0.99860084 0 0.24895477
0.99860084 0 0.22328189
0.08285284 0.29126683 0.28885513
0.3711986 0.24884532 0.23325856
0.64569539 0.19249809 0.18280847
0.88302684 0.1474444 0.1034667
0.99860084 0.11006032 0.048670746
0 0.76405704 0.1275211
0.31968045 0.60149831 0.1073565
0.60736233 0.53790659 0.044393793
0.83284789 0.50955826 0.007873379
0.97421384 0.47443253 0.003991364
0 0.89803922 0
0.24738437 0.89803922 0
0.58379412 0.77066791 0
0.8068971 0.73068214 0
0.95578086 0.69438243 0
0 0.89803922 0
0.24738437 0.89803922 0
0.57058608 0.89411765 0
0.78987598 0.84655756 0
0.93914628 0.81528479 0
0.14623016 0.051965788 0.8392157
0.40396196 0.014089428 0.83529413
0.71996885 0 0.83137256
0.99349022 0 0.82387203
0.99349022 0 0.82387203
0.083087742 0.26604343 0.83531243
0.35577381 0.21726698 0.83529413
0.63897598 0.18395197 0.71008211
0.86724067 0.14246152 0.62317049
0.99860084 0.099072769 0.52384222
0 0.71224308 0.82022953
0.3044796 0.58063233 0.63236225
0.61360234 0.5237596 0.48072019
0.81600177 0.47197762 0.43071219
0.97119921 0.45269987 0.38324818
0 0.88975012 0.80839574
0.21151125 0.89803922 0.49667451
0.57678807 0.76699895 0.39107627
0.80101943 0.70845437 0.34837538
0.94854462 0.67387134 0.32201478
0 0.88975012 0.80839574
0.21151125 0.89803922 0.466142
0.55281711 0.89397967 0.33873242
0.78883565 0.84034813 0.29841977
0.93550271 0.80568218 0.28528303
0.14623016 0.051965788 0.8392157
0.400576 0.014870812 0.83529413
0.71149683 0 0.83137256
0.99349022 0 0.82387203
0.99349022 0 0.82387203
0.083378315 0.26284763 0.835603
0.35606658 0.21433955 0.83529413
0.63535082 0.18230282 0.83363998
0.858428 0.14476922 0.82657772
0.99349022 0.097108297 0.81995046
0 0.67607504 0.82264078
0.30143082 0.55102617 0.83070528
0.59512836 0.48873645 0.83137256
0.82096064 0.45660433 0.72730392
0.96983928 0.44636118 0.67669374
0 0.88975012 0.80839574
0.21912032 0.87659556 0.80668849
0.57450473 0.74754435 0.74324
0.79977483 0.70014888 0.61722523
0.94294274 0.67337215 0.57584631
0 0.88975012 0.80839574
0.21455061 0.8894738 0.80502677
0.5425055 0.89195502 0.68016625
0.78726602 0.8320933 0.56459028
0.93212736 0.78917009 0.53506291
0.14623016 0.051965788 0.8392157
0.400576 0.014870812 0.83529413
0.71149683 0 0.83137256
0.99349022 0 0.82387203
0.99349022 0 0.82387203
0.083847284 0.25964773 0.83589387
0.35606658 0.21433955 0.83529413
0.63535082 0.18230282 0.83363998
0.85450792 0.14583902 0.82675588
0.99349022 0.097108297 0.81995046
0 0.66874045 0.82312971
0.30292731 0.54350328 0.83122408
0.59591973 0.48187813 0.83137256
0.82038307 0.45785519 0.82429933
0.96466112 0.44212154 0.80506462
0 0.88975012 0.80839574
0.22483063 0.86050278 0.80876499
0.57269168 0.73551035 0.81788576
0.79855812 0.69605446 0.75227362
0.94241762 0.67306793 0.68114579
0 0.88975012 0.80839574
0.21455061 0.8894738 0.80502677
0.54274255 0.88895428 0.80086201
0.78668046 0.83101177 0.70948607
0.93311489 0.78950775 0.64489579
