site/assets/luts/freshluts--0001221-color-domi.cube
# LUTr-Schema-Version: 2
# LUTr-ID: freshluts--0001221-color-domi
# LUTr-Title: COLOR DOMI
# LUTr-Collection: Fresh LUTs
# LUTr-Collection-ID: freshluts-community
# LUTr-Source: https://freshluts.com
# LUTr-Retrieved: 2026-07-27
# LUTr-Source-File: submissions-raw/freshluts/cubes/1221__Color_Domi.cube
# LUTr-Source-Format: CUBE
# LUTr-Source-SHA256: fb4de7f19d3c286cf62aac4314bd22041ef176ef178d8bd63502220e51f10a90
# LUTr-License: CC0-1.0
# LUTr-License-URL: https://freshluts.com/termsandconditions
# LUTr-License-Basis: site-terms
# LUTr-Transform-Class: creative-look
# LUTr-Tags: creative, freshluts, community, cube, orange, sony-s-log3
# LUTr-Input-Color-Space: sony-slog3-sgamut3
# LUTr-Input-Gamut: sony-s-gamut3
# LUTr-Input-Transfer: sony-s-log3
# LUTr-Output-Color-Space: srgb
# LUTr-Output-Gamut: rec709
# LUTr-Output-Transfer: srgb
# LUTr-Color-Space-Confidence: inferred-from-source-label
# LUTr-Domain-Normalized: true
# LUTr-Shaper: none
# LUTr-Original-Grid: 33x33x33
# LUTr-Conversion-Grid: 33x33x33
# LUTr-Conversion-Interpolation: none
# LUTr-Conversion-Method: Metadata normalization; numeric LUT samples preserved
# LUTr-Conversion-Tool: LUTr scripts/convert-all-to-cube.mjs 2.0.0
# LUTr-Conversion-Date: 2026-07-28
# LUTr-Asset-URL: https://freshluts.com/luts/1221
# LUTr-Author: Antony Eliezer
# LUTr-Author-URL: https://freshluts.com/users/32961
# LUTr-Attribution: Antony Eliezer via Fresh LUTs
# LUTr-Source-Labels: gamma=Sony S-Log 3; color=Orange; key=Neutral; style=Correction
# LUTr-Note: Preserve this metadata and the upstream license notices when redistributing.
# LUTr-Upstream-Comment: VEGAS Pro LUT
TITLE "COLOR DOMI"
LUT_3D_SIZE 33
DOMAIN_MIN 0 0 0
DOMAIN_MAX 1 1 1
-0.05703908 -0.05127686 -0.05127686
-0.03190327 -0.05127686 -0.05127686
-0.00676739 -0.05127686 -0.05127686
0.01836842 -0.05133921 -0.05115223
0.04350427 -0.05210632 -0.04961771
0.0673672 -0.05160075 -0.04935616
0.09540191 -0.05083346 -0.05201614
0.1276767 -0.05031639 -0.05436766
0.16219103 -0.05025929 -0.05229425
0.1988357 -0.04949212 -0.0530616
0.23484921 -0.04809368 -0.05319762
0.27291739 -0.04655915 -0.05407381
0.31361124 -0.04453462 -0.05585337
0.35660163 -0.04151732 -0.05846649
0.40245372 -0.03921568 -0.06537181
0.44580159 -0.03440982 -0.07102513
0.48641992 -0.03077054 -0.07336569
0.52488691 -0.02798915 -0.07336569
0.56215894 -0.02419949 -0.07331902
0.59726924 -0.0211305 -0.07255167
0.63051713 -0.01806134 -0.07302606
0.66289794 -0.01584756 -0.07336569
0.69517368 -0.01360941 -0.07336569
0.72802359 -0.00985593 -0.07332426
0.7615993 -0.00755429 -0.07255691
0.79394382 -0.00463682 -0.07302082
0.82302785 -0.00241262 -0.07336569
0.84923959 -0.0004195 -0.07198972
0.87441164 0.0025771 -0.06709653
0.90031481 0.00411159 -0.05635488
0.92438692 0.00686678 -0.04805452
0.94965714 0.00993589 -0.04079914
0.97565514 0.01322907 -0.0334456
-0.05703908 -0.02614105 -0.05127686
-0.03190327 -0.02614105 -0.05127686
-0.00676739 -0.02614105 -0.05127686
0.01836842 -0.02620333 -0.05115223
0.04350427 -0.02697051 -0.04961771
0.0673672 -0.02646488 -0.04935616
0.09540191 -0.02569765 -0.05201614
0.1276767 -0.02518052 -0.05436766
0.16219103 -0.02512348 -0.05229425
0.19883573 -0.02435631 -0.0530616
0.23484921 -0.02295786 -0.05319762
0.27291739 -0.02142334 -0.05407381
0.31361124 -0.01939881 -0.05585337
0.35660163 -0.0163815 -0.05846649
0.40245372 -0.01407981 -0.06537181
0.44580159 -0.00927401 -0.07102513
0.48641992 -0.00563473 -0.07336569
0.52488691 -0.00285333 -0.07336569
0.56215894 0.00093636 -0.07331902
0.59726924 0.00400537 -0.07255167
0.63051713 0.00707451 -0.07302606
0.66289794 0.00928825 -0.07336569
0.69517368 0.01152644 -0.07336569
0.72802359 0.01527992 -0.07332426
0.7615993 0.01758155 -0.07255691
0.79394382 0.02049899 -0.07302082
0.82302785 0.0227232 -0.07336569
0.84923959 0.02471635 -0.07198972
0.87441164 0.02771294 -0.06709653
0.90031481 0.02924743 -0.05635488
0.92438692 0.0320026 -0.04805452
0.94965714 0.0350717 -0.04079914
0.97565514 0.03836492 -0.0334456
-0.05703908 -0.00100523 -0.05127686
-0.03190327 -0.00100523 -0.05127686
-0.00676739 -0.00100523 -0.05127686
0.01836842 -0.00106752 -0.05115223
0.04350427 -0.00183469 -0.04961771
0.0673672 -0.00132906 -0.04935616
0.09540191 -0.00056183 -0.05201614
0.1276767 -0.0000447 -0.05436766
0.16219103 0.00001237 -0.05229425
0.1988357 0.00077951 -0.0530616
0.23484921 0.00217798 -0.05319762
0.27291739 0.00371248 -0.05407381
0.31361124 0.00573704 -0.05585337
0.35660163 0.00875434 -0.05846649
0.40245372 0.01105598 -0.06537181
0.44580159 0.01586184 -0.07102513
0.48641992 0.01950109 -0.07336569
0.52488691 0.02228248 -0.07336569
0.56215894 0.02607217 -0.07331902
0.59726924 0.02914119 -0.07255167
0.63051713 0.03221035 -0.07302606
0.66289794 0.0344241 -0.07336569
0.69517368 0.03666228 -0.07336569
0.72802359 0.04041573 -0.07332426
0.7615993 0.04271737 -0.07255691
0.79394382 0.04563484 -0.07302082
0.82302785 0.04785901 -0.07336569
0.84923959 0.04985219 -0.07198972
0.87441164 0.05284876 -0.06709653
0.90031481 0.05438325 -0.05635488
0.92438692 0.05713844 -0.04805452
0.94965714 0.06020755 -0.04079914
0.97565514 0.06350076 -0.0334456
-0.05703908 0.02413064 -0.05127686
-0.03190327 0.02413064 -0.05127686
-0.00676739 0.02413064 -0.05127686
0.01843074 0.02406833 -0.05127686
0.04356658 0.02330115 -0.0497424
0.06755418 0.0238691 -0.04954308
0.09558892 0.02457401 -0.05164224
0.12798834 0.02521577 -0.05430532
0.16221714 0.02527288 -0.05228901
0.1988357 0.02604002 -0.0530616
0.23509854 0.02756315 -0.05319762
0.27304205 0.02915996 -0.0541985
0.31379822 0.03112218 -0.05604035
0.35689232 0.03424323 -0.05849779
0.40276533 0.03656578 -0.06537181
0.44592622 0.04124698 -0.07096279
0.4866069 0.04501092 -0.07336569
0.52494919 0.04766762 -0.07336569
0.56226796 0.051364 -0.07336569
0.59739387 0.05440167 -0.07261401
0.6307041 0.05753314 -0.07302606
0.66296023 0.05993387 -0.07330334
0.69523597 0.06186041 -0.07336569
0.72804451 0.06565532 -0.07336569
0.7615993 0.06797788 -0.07261926
0.79394382 0.070833 -0.07289618
0.8230902 0.07311952 -0.07336569
0.84930193 0.07505035 -0.07192737
0.87440151 0.07808313 -0.0671066
0.90025246 0.07964373 -0.05641717
0.92444921 0.0823366 -0.04811686
0.9495948 0.08546802 -0.04073679
0.97571748 0.08882356 -0.0334456
-0.05703908 0.04926646 -0.05127686
-0.03190327 0.04926646 -0.05127686
-0.00676739 0.04926646 -0.05127686
0.01843074 0.04920417 -0.05127686
0.04433373 0.048437 -0.05127686
0.06946957 0.04957914 -0.05165166
0.09789065 0.05009615 -0.05051482
0.13066596 0.0507274 -0.05064136
0.16605347 0.05194321 -0.05152184
0.19886184 0.05271035 -0.05305636
0.23737431 0.05537146 -0.05319762
0.27535957 0.05774075 -0.05495006
0.31551543 0.05991167 -0.05775756
0.35919419 0.06244808 -0.06079966
0.4065806 0.06628442 -0.06540316
0.44807139 0.06985915 -0.07039905
0.48851201 0.07395709 -0.07296896
0.52689618 0.07705224 -0.07336569
0.56303531 0.07956886 -0.07336569
0.59891289 0.08110335 -0.07336569
0.63279718 0.08476189 -0.07323492
0.66453141 0.08846745 -0.07293797
0.69600326 0.09073862 -0.0727706
0.72881168 0.09155834 -0.07336569
0.76162016 0.09462732 -0.07336569
0.79394382 0.09695002 -0.07200378
0.82345033 0.0993827 -0.07255143
0.85006928 0.10155365 -0.07176036
0.87516892 0.10398614 -0.06633925
0.89953738 0.10628796 -0.05713212
0.92477793 0.108459 -0.04888415
0.94965214 0.11172608 -0.04079425
0.97527373 0.11565572 -0.03284001
-0.05703908 0.07440233 -0.05127686
-0.03190327 0.07440233 -0.05127686
-0.00676739 0.07440233 -0.05127686
0.01843074 0.07433999 -0.05127686
0.04433373 0.07357284 -0.05127686
0.06832746 0.07662427 -0.05127686
0.09967011 0.07727209 -0.05293083
0.13235307 0.07827303 -0.05228823
0.16635644 0.08040881 -0.05260688
0.2020618 0.08001724 -0.0535621
0.23739523 0.08330947 -0.05383414
0.27851155 0.08638379 -0.05471039
0.31935087 0.08986384 -0.0586077
0.36250955 0.09383529 -0.0638935
0.40697297 0.09767163 -0.07025081
0.45122936 0.09900394 -0.07047218
0.49045363 0.10279837 -0.07283813
0.52904105 0.10639495 -0.07336569
0.56557196 0.10900012 -0.07336569
0.59968013 0.10994473 -0.07336569
0.63121206 0.11334169 -0.07336569
0.66472501 0.11546734 -0.07293797
0.69700515 0.11799937 -0.07263976
0.73021549 0.11928791 -0.07324141
0.76302391 0.121167 -0.07145625
0.79460126 0.12362036 -0.07330298
0.82324189 0.12634462 -0.07187295
0.8497929 0.12886041 -0.07186341
0.87529969 0.13108978 -0.0686819
0.89966822 0.13219112 -0.05827421
0.92464709 0.13449281 -0.05028784
0.94978297 0.13804638 -0.04178083
0.9751429 0.14187783 -0.03267336
-0.05881256 0.1017549 -0.05127686
-0.03367668 0.1017549 -0.05127686
-0.00854087 0.1017549 -0.05127686
0.01678196 0.10156792 -0.05133921
0.04344708 0.10003865 -0.05172014
0.07010078 0.10309017 -0.05172014
0.0985789 0.10382304 -0.05127686
0.13395602 0.10507417 -0.05307823
0.16697627 0.10839355 -0.05281132
0.20400733 0.10994369 -0.05357867
0.24223763 0.11207712 -0.05460137
0.28118202 0.11635163 -0.05766821
0.32370949 0.11967611 -0.06167889
0.36644962 0.12465027 -0.06871235
0.41078264 0.12926954 -0.0720945
0.45300272 0.13148838 -0.0727396
0.49265686 0.13268858 -0.07283813
0.52961642 0.13649344 -0.07336569
0.56607425 0.1396262 -0.07336569
0.60044336 0.14039347 -0.07336569
0.63286597 0.14275724 -0.07336569
0.66380024 0.14531052 -0.07336569
0.69732898 0.14609349 -0.07284862
0.73090482 0.14789471 -0.07328284
0.76411515 0.14902747 -0.07138294
0.7952491 0.15162086 -0.07188785
0.82398832 0.15350014 -0.07292229
0.84968299 0.15606868 -0.07165897
0.87526351 0.15815648 -0.07049334
0.89922488 0.15973809 -0.06056589
0.92509049 0.16172609 -0.05049229
0.95022631 0.16486228 -0.04281968
0.97513801 0.16921568 -0.03321654
-0.06263238 0.13047683 -0.05127686
-0.03749651 0.13047683 -0.05127686
-0.01236069 0.13047683 -0.05127686
0.01265049 0.1306015 -0.05133921
0.03914869 0.12923914 -0.05210632
0.06897438 0.13102823 -0.05198693
0.10064703 0.13226157 -0.05229425
0.13293847 0.13147771 -0.05277818
0.16762412 0.13542825 -0.05348825
0.20542237 0.13965085 -0.05406249
0.24472815 0.14347577 -0.05596143
0.28706983 0.14709187 -0.05993676
0.32880819 0.15169555 -0.06481761
0.37103662 0.15558898 -0.07336569
0.41612124 0.16076148 -0.07336569
0.45682466 0.16362816 -0.0727396
0.49547565 0.16574723 -0.07283813
0.53116137 0.16704193 -0.07336569
0.565494 0.1706965 -0.07336569
0.60040069 0.1716674 -0.07336569
0.63364851 0.17317587 -0.07336569
0.66660255 0.17479974 -0.07261503
0.69834554 0.17609972 -0.07284957
0.73174 0.17686689 -0.07282382
0.76448053 0.17763424 -0.0714981
0.79584414 0.1802482 -0.07156003
0.82398832 0.18197188 -0.07265544
0.85020006 0.18396503 -0.07242608
0.87533593 0.18550509 -0.07118821
0.89936525 0.18737894 -0.061553
0.92490751 0.18993098 -0.05162561
0.95049316 0.192817 -0.04255283
0.97562897 0.19598103 -0.03398371
-0.06794608 0.1589672 -0.05116266
-0.04281026 0.1589672 -0.05116266
-0.01767445 0.1589672 -0.05116266
0.00745097 0.15892053 -0.05156761
0.03105232 0.16045505 -0.05233479
0.0622997 0.16141027 -0.05188626
0.09754804 0.16184843 -0.05233485
0.13299558 0.16215572 -0.0540272
0.16591829 0.16292286 -0.05715328
0.20486483 0.16829371 -0.05715328
0.24455684 0.17441005 -0.05984968
0.28844225 0.17995745 -0.06467122
0.33400771 0.18478939 -0.06967455
0.37694621 0.18928933 -0.07330334
0.42203099 0.19388238 -0.07330859
0.46079832 0.19655082 -0.0727967
0.49800593 0.19873846 -0.07278103
0.53363454 0.20050359 -0.07336569
0.56707031 0.2013174 -0.07336569
0.60137159 0.20285189 -0.07336569
0.63447291 0.20376569 -0.07336569
0.66813666 0.20447582 -0.07225394
0.70195347 0.20524305 -0.07071906
0.73463768 0.20605183 -0.07152784
0.76514435 0.20683485 -0.07080746
0.79626656 0.20922038 -0.07059866
0.82452619 0.2106567 -0.07163763
0.85020006 0.21145982 -0.07296503
0.87529969 0.21449262 -0.07194424
0.90041465 0.21530172 -0.06132787
0.92560756 0.21784294 -0.05169284
0.95038325 0.22074062 -0.04314888
0.97491878 0.22353274 -0.03463686
-0.07254958 0.19100839 -0.0496282
-0.04741377 0.19100839 -0.0496282
-0.02227795 0.19100839 -0.0496282
0.00285792 0.19094607 -0.05006444
0.02798331 0.19019461 -0.05540395
0.05285758 0.19172907 -0.05553472
0.08835652 0.19312757 -0.05539876
0.12802148 0.19439006 -0.05517036
0.16668564 0.1957314 -0.05485165
0.2010287 0.19649875 -0.05868781
0.24186897 0.20376322 -0.06310648
0.28766465 0.211602 -0.06850749
0.33533874 0.21911681 -0.07219559
0.38001519 0.225934 -0.07176888
0.42509997 0.22900319 -0.07253599
0.46329847 0.23109221 -0.07316732
0.50181091 0.23232979 -0.0727967
0.53882265 0.23312926 -0.07278103
0.57167375 0.23335859 -0.07336569
0.60294783 0.23489308 -0.07336569
0.63600755 0.23580688 -0.07336569
0.66967124 0.23614651 -0.07336569
0.70331049 0.23651707 -0.07248855
0.73540485 0.23732585 -0.07152784
0.76591152 0.23886037 -0.0730623
0.79703385 0.23902774 -0.07234198
0.82492816 0.23999417 -0.07171077
0.85020006 0.24085468 -0.07125831
0.87529969 0.24269745 -0.06964254
0.89966822 0.24499929 -0.0635044
0.92539352 0.2470291 -0.05288804
0.95074344 0.24863237 -0.04283571
0.97551912 0.25070408 -0.03326935
-0.07336569 0.22368085 -0.04746234
-0.04822987 0.22368085 -0.04746234
-0.02309406 0.22368085 -0.04746234
0.00210413 0.22355622 -0.04764932
0.02780896 0.22222009 -0.05074453
0.05231351 0.22462469 -0.05418503
0.07922268 0.22482923 -0.05773187
0.11844897 0.22580007 -0.05948526
0.16165444 0.22756296 -0.05915087
0.20116472 0.2312009 -0.05954236
0.24182007 0.23196825 -0.06337851
0.28657347 0.24051708 -0.06874937
0.33494732 0.24915016 -0.07297939
0.38113871 0.25705329 -0.07270741
0.42564404 0.26186049 -0.07289529
0.46634659 0.26680762 -0.0717845
0.50257939 0.26663667 -0.07296902
0.53986287 0.26608947 -0.0727967
0.57379901 0.26539978 -0.07273436
0.60565776 0.26693442 -0.07273436
0.63755244 0.26784807 -0.07273436
0.67120576 0.26733235 -0.07316208
0.70461047 0.2673943 -0.07313108
0.73617214 0.26851687 -0.07211757
0.76667881 0.26887175 -0.0730623
0.79718548 0.26917511 -0.07336569
0.8246417 0.27002001 -0.07261401
0.84979814 0.27099603 -0.07230544
0.87533593 0.27209246 -0.07175946
0.90029949 0.27320412 -0.06562126
0.92527843 0.27550596 -0.05276942
0.95074344 0.27697337 -0.04234046
0.97543108 0.27886114 -0.03236604
-0.07336569 0.25692746 -0.04428428
-0.04822987 0.25692746 -0.04428428
-0.02309406 0.25692746 -0.04428428
0.00216645 0.25692746 -0.04472059
0.02844539 0.25614455 -0.04852557
0.05307561 0.25667632 -0.05277818
0.0779084 0.25884297 -0.05411565
0.10986656 0.25832602 -0.05975336
0.15427247 0.25971314 -0.06168848
0.19818798 0.26431674 -0.06320733
0.24094385 0.26707843 -0.0675419
0.28471193 0.27047446 -0.06874937
0.33307841 0.28017166 -0.07240522
0.38092598 0.28898335 -0.07292753
0.42447099 0.2943542 -0.07292753
0.46547037 0.29797259 -0.07255173
0.50518423 0.30074596 -0.07231593
0.5403685 0.29994649 -0.07288617
0.57494211 0.29914686 -0.07206047
0.60737491 0.30028996 -0.07284337
0.64029241 0.30032751 -0.07240522
0.67276126 0.30066705 -0.07283294
0.70614505 0.29891884 -0.07313108
0.73750186 0.29939407 -0.07244664
0.76919866 0.29979083 -0.07321399
0.79707652 0.29979083 -0.07292753
0.82420361 0.3006357 -0.07335001
0.84926021 0.30171156 -0.07284337
0.87529969 0.3023425 -0.07314843
0.90003359 0.30391356 -0.06781417
0.92516941 0.30502522 -0.05408597
0.95030522 0.3064926 -0.04284579
0.97521704 0.30793226 -0.03224075
-0.07336569 0.2905032 -0.04044795
-0.04822987 0.2905032 -0.04044795
-0.02309406 0.2905032 -0.04044795
0.00210413 0.29069018 -0.04063493
0.02859184 0.29123816 -0.04527509
0.05335283 0.29123816 -0.05162591
0.07816482 0.29261482 -0.05511832
0.1033999 0.29413894 -0.05686468
0.14408433 0.29419604 -0.06152546
0.19220668 0.29786018 -0.06573749
0.23850596 0.30169129 -0.07073253
0.28317744 0.30533969 -0.07317257
0.32948709 0.31144553 -0.07191521
0.37952739 0.32177219 -0.07207084
0.42269671 0.32694989 -0.07265025
0.46409154 0.33030668 -0.07216024
0.5031597 0.33198768 -0.07259309
0.54191446 0.33227527 -0.07336044
0.57565105 0.33307883 -0.07193494
0.60925299 0.3340444 -0.07307279
0.64243728 0.33332506 -0.07274485
0.67534029 0.33274055 -0.07283294
0.70814872 0.33274055 -0.07336569
0.73944348 0.33059433 -0.07265025
0.77184486 0.3311581 -0.07321399
0.79837811 0.3313098 -0.07275003
0.82392627 0.33141968 -0.0728277
0.84875363 0.33272487 -0.07336569
0.87526351 0.33277676 -0.07336569
0.89942324 0.33466098 -0.07001489
0.92489213 0.33525205 -0.05552107
0.94953799 0.33675426 -0.04137582
0.97512203 0.3377457 -0.03293586
-0.07336569 0.32439032 -0.03671539
-0.04822987 0.32439032 -0.03671539
-0.02309406 0.32439032 -0.03671539
0.00210413 0.32447356 -0.03695422
0.02800733 0.32677519 -0.0392561
0.05263746 0.32727131 -0.04644203
0.07744935 0.32883716 -0.05237752
0.1025852 0.33156142 -0.05666238
0.12801284 0.33303899 -0.06229264
0.18077004 0.33380613 -0.06766349
0.23272309 0.33772969 -0.07172
0.28106874 0.34145704 -0.07326192
0.32769319 0.34573668 -0.07257879
0.37651029 0.35314995 -0.07064009
0.42082769 0.35775346 -0.07294196
0.46321523 0.36162725 -0.07221746
0.50225246 0.36421677 -0.07192969
0.5391047 0.36498004 -0.07248938
0.57551628 0.36435267 -0.07330334
0.61137295 0.36588737 -0.07331383
0.64502674 0.3651461 -0.0727967
0.67751133 0.36403924 -0.07278103
0.70957947 0.36335099 -0.07336569
0.74222207 0.36339241 -0.07336569
0.77347523 0.36340287 -0.07336569
0.798801 0.36340287 -0.07280195
0.82356584 0.36298037 -0.0728277
0.84941709 0.36261985 -0.07336569
0.87524784 0.36335099 -0.07332945
0.89886481 0.36410245 -0.07331383
0.92480379 0.36364907 -0.05882096
0.95001274 0.36491612 -0.04212749
0.97440672 0.36758879 -0.0285399
-0.07336569 0.36256954 -0.0344137
-0.04822987 0.36256954 -0.0344137
-0.02309406 0.36256954 -0.0344137
0.00210413 0.36263186 -0.03466302
0.02800733 0.3634201 -0.03772157
0.05263746 0.36508536 -0.04256922
0.07744935 0.36545071 -0.04894835
0.1025852 0.3672668 -0.05416226
0.12783521 0.37045103 -0.05924976
0.15468317 0.37121817 -0.06843084
0.21880287 0.37514174 -0.07190788
0.27495676 0.37886909 -0.07248944
0.32461888 0.3821831 -0.07123744
0.37113947 0.38672566 -0.06987298
0.41852605 0.39056203 -0.07294196
0.46033937 0.39328739 -0.07336569
0.4995645 0.39587167 -0.07308322
0.53755462 0.39683336 -0.07250512
0.57628363 0.39562672 -0.07100153
0.609092 0.39716122 -0.07253599
0.6455695 0.39869577 -0.07316732
0.67979741 0.39838231 -0.0727967
0.71191782 0.39714599 -0.07278103
0.74222207 0.39543363 -0.07336569
0.77196163 0.39620098 -0.07336569
0.79952121 0.39621142 -0.07336569
0.82435924 0.39578894 -0.07322443
0.84923959 0.39525095 -0.07336569
0.87448049 0.39539218 -0.07332945
0.89884913 0.39539218 -0.07256216
0.92368686 0.394923 -0.0597291
0.94993961 0.39582467 -0.04402739
0.97559679 0.39826775 -0.02998054
-0.07336569 0.40074885 -0.02647775
-0.04822987 0.40074885 -0.02647775
-0.02309406 0.40074885 -0.02647775
0.00204182 0.40087351 -0.02703869
0.02738124 0.40220448 -0.0329262
0.05263746 0.40360817 -0.03790462
0.0787794 0.40425602 -0.04549223
0.10371262 0.40450627 -0.05361205
0.12772101 0.40672523 -0.06113172
0.15325356 0.40863019 -0.06976992
0.19960219 0.41255376 -0.07142305
0.26485589 0.41584304 -0.07317775
0.32052103 0.41921416 -0.07269698
0.36926544 0.42306831 -0.07202828
0.41378114 0.42288569 -0.07280076
0.45866364 0.42421782 -0.07336569
0.49601585 0.42651957 -0.07336569
0.53361452 0.42858163 -0.07336569
0.57334143 0.42868537 -0.07226926
0.60672921 0.42906117 -0.07148635
0.64264172 0.4293541 -0.07302088
0.67757583 0.43045053 -0.07336569
0.71162063 0.43031457 -0.07303131
0.7440173 0.42927003 -0.07332426
0.77258754 0.42886809 -0.0727396
0.79924917 0.42717302 -0.07335526
0.82506418 0.42714167 -0.07336569
0.84986567 0.42680728 -0.07336569
0.87496531 0.42684349 -0.07336569
0.89933383 0.42743337 -0.07318825
0.92431277 0.42743337 -0.05899322
0.94944865 0.42751625 -0.0420149
0.97547734 0.42895225 -0.02794647
-0.07336569 0.44022685 -0.02030087
-0.04822987 0.44022685 -0.02030087
-0.02309406 0.44022685 -0.02030087
0.00204182 0.44010219 -0.02055013
0.02717766 0.44015443 -0.02560264
0.05231351 0.44168893 -0.03339958
0.07834646 0.44320253 -0.04012138
0.10503346 0.44320253 -0.05082989
0.12847263 0.44384426 -0.06177467
0.15285689 0.44577017 -0.07134193
0.18540388 0.44909999 -0.07110661
0.24677593 0.45152339 -0.07284337
0.30932716 0.45431525 -0.07312065
0.3628526 0.45857522 -0.07298464
0.40945086 0.45894584 -0.07336569
0.45189545 0.45799068 -0.07336569
0.49578008 0.45745921 -0.07336569
0.53084224 0.45928147 -0.07336569
0.5700779 0.46066946 -0.07336569
0.60481238 0.46182823 -0.07260364
0.64000559 0.46096244 -0.07138783
0.67622274 0.46096244 -0.07292229
0.71004868 0.46148998 -0.07316732
0.74462903 0.46148998 -0.07336569
0.77322525 0.46111414 -0.07298988
0.79958349 0.46041441 -0.07302082
0.82421929 0.45937994 -0.07336569
0.8493343 0.45892128 -0.07336569
0.87454253 0.45851415 -0.07314843
0.90010113 0.45888478 -0.07076836
0.92421424 0.45860878 -0.05543154
0.94976729 0.45902604 -0.04237401
0.9751429 0.45979333 -0.0255717
-0.07336569 0.47902948 -0.01502585
-0.04822987 0.47902948 -0.01502585
-0.02309406 0.47902948 -0.01502585
0.00210413 0.47896716 -0.01546216
0.02741745 0.47761008 -0.01906353
0.05231351 0.47862139 -0.0255459
0.07785648 0.48015589 -0.03410614
0.10426617 0.48166952 -0.04521924
0.12934491 0.48166952 -0.05880153
0.15312892 0.48283866 -0.06954318
0.17901546 0.48491642 -0.07156003
0.21607381 0.48691091 -0.07127666
0.29235148 0.48793876 -0.07312065
0.35067618 0.4916195 -0.07245708
0.40055236 0.49373341 -0.07322443
0.44575208 0.49434382 -0.07336569
0.4871003 0.49232972 -0.07288617
0.5306505 0.49031568 -0.07264638
0.56720191 0.49108285 -0.07278633
0.60288632 0.49299845 -0.07336569
0.6386227 0.49291557 -0.07222259
0.67416066 0.49199665 -0.07110006
0.70956904 0.49270028 -0.07263458
0.74374634 0.49267453 -0.07328284
0.7733134 0.4924762 -0.07288617
0.79958349 0.49247622 -0.07336569
0.82469887 0.49271595 -0.07336569
0.84875888 0.49248666 -0.07290703
0.87389469 0.49092638 -0.07201707
0.90015793 0.49031568 -0.06374937
0.92462665 0.48970529 -0.04957634
0.94923985 0.49001226 -0.0345096
0.9751429 0.49033135 -0.02597469
-0.07336569 0.51404655 -0.00677264
-0.04822987 0.51404655 -0.00677264
-0.02309406 0.51404655 -0.00677264
0.00205749 0.51412421 -0.00702232
0.02796069 0.51335686 -0.01239318
0.05263746 0.514359 -0.01644444
0.07744935 0.51584685 -0.02298748
0.10283545 0.51738131 -0.03421366
0.12862441 0.51875496 -0.05210346
0.1529929 0.51875496 -0.06284511
0.17857736 0.51947957 -0.06940138
0.20365089 0.52059168 -0.07284337
0.24784145 0.52217287 -0.07316732
0.3369588 0.523754 -0.07231712
0.3874144 0.52528852 -0.07308447
0.43671107 0.52793521 -0.07336569
0.48081049 0.52772766 -0.07259321
0.52172321 0.52451855 -0.07129848
0.56480694 0.52158952 -0.0705778
0.59991717 0.52235687 -0.07287961
0.63640904 0.52307743 -0.07336569
0.67253286 0.52308267 -0.07260364
0.70808119 0.52311367 -0.07186741
0.74225831 0.52533245 -0.07331902
0.77353233 0.52457577 -0.07179499
0.7998817 0.52447075 -0.07267606
0.82506418 0.52484649 -0.07336569
0.85020006 0.52515507 -0.07192725
0.87533593 0.52446032 -0.06988585
0.90047175 0.52220023 -0.05155504
0.92499715 0.52107257 -0.03868061
0.94978297 0.52151036 -0.02689445
0.9751429 0.52246588 -0.01595372
-0.07336569 0.54762232 -0.00140178
-0.04822987 0.54762232 -0.00140178
-0.02309406 0.54762232 -0.00140178
0.00204182 0.54774696 -0.00158876
0.02719334 0.54923445 -0.0039531
0.05245999 0.5484671 -0.00741464
0.07744935 0.54902595 -0.01417696
0.10283545 0.55018991 -0.02373815
0.12862441 0.55155313 -0.0360015
0.1529929 0.55079639 -0.0474999
0.1779927 0.55269003 -0.05697912
0.20327502 0.55338454 -0.06720644
0.24149442 0.55441242 -0.07336569
0.31248993 0.55656785 -0.07306355
0.37513816 0.55886441 -0.0707826
0.42559355 0.55977285 -0.07280195
0.47315878 0.56054658 -0.07336569
0.51711971 0.55828226 -0.07283294
0.56020319 0.55363077 -0.07211226
0.59608084 0.55286366 -0.07211226
0.63429517 0.55301011 -0.07317257
0.67023623 0.55358416 -0.07336569
0.70557576 0.55382389 -0.07283819
0.74149114 0.55430472 -0.07255167
0.77276498 0.55507207 -0.07255167
0.79911435 0.55554634 -0.07287443
0.8246727 0.55574465 -0.07336569
0.85020006 0.5556618 -0.06809103
0.87533593 0.55496705 -0.05377328
0.90047175 0.55573422 -0.04149705
0.92499715 0.55408454 -0.02926987
