site/assets/luts/freshluts--0000765-correctionsony-footage.cube
# LUTr-Schema-Version: 2
# LUTr-ID: freshluts--0000765-correctionsony-footage
# LUTr-Title: correction(sony footage)
# LUTr-Collection: Fresh LUTs
# LUTr-Collection-ID: freshluts-community
# LUTr-Source: https://freshluts.com
# LUTr-Retrieved: 2026-07-27
# LUTr-Source-File: submissions-raw/freshluts/cubes/765__correct_4.D6_C03_S001_S001_T023.cube
# LUTr-Source-Format: CUBE
# LUTr-Source-SHA256: a56da937a58d432e4bc269b9f7a39d8c0f93cf817f2b471e9c3ecd417146c86b
# LUTr-License: CC0-1.0
# LUTr-License-URL: https://freshluts.com/termsandconditions
# LUTr-License-Basis: site-terms
# LUTr-Transform-Class: creative-look
# LUTr-Tags: creative, freshluts, community, cube, sony-s-log1, correction
# LUTr-Input-Color-Space:
# LUTr-Input-Gamut: sony-s-gamut
# LUTr-Input-Transfer: sony-s-log1
# LUTr-Output-Color-Space: srgb
# LUTr-Output-Gamut: rec709
# LUTr-Output-Transfer: srgb
# LUTr-Color-Space-Confidence: camera-profile-input-required
# LUTr-Domain-Normalized: true
# LUTr-Shaper: none
# LUTr-Original-Grid: 33x33x33
# LUTr-Conversion-Grid: 33x33x33
# LUTr-Conversion-Interpolation: none
# LUTr-Conversion-Method: Metadata normalization; numeric LUT samples preserved
# LUTr-Conversion-Tool: LUTr scripts/convert-all-to-cube.mjs 2.0.0
# LUTr-Conversion-Date: 2026-07-28
# LUTr-Asset-URL: https://freshluts.com/luts/765
# LUTr-Author: lvannoeun@gmail.com
# LUTr-Author-URL: https://freshluts.com/users/57563
# LUTr-Attribution: lvannoeun@gmail.com via Fresh LUTs
# LUTr-Source-Labels: gamma=Sony S-Log; color=None; key=Neutral; style=Correction
# LUTr-Note: Preserve this metadata and the upstream license notices when redistributing.
TITLE "correction(sony footage)"
LUT_3D_SIZE 9
DOMAIN_MIN 0 0 0
DOMAIN_MAX 1 1 1
0 0 0
0 0 0
0.222629 0 0
0.571969 0 0
0.912337 0 0
1 0 0
1 0 0
1 0 0
1 0 0
0 0.0236057 0
0.026154 0.028687 0
0.281315 0.0139925 0
0.584497 0 0
0.918212 0 0
1 0 0
1 0 0
1 0 0
1 0 0
0 0.24947 0
0.00129702 0.254276 0
0.242176 0.250233 0
0.605173 0.208972 0
0.931136 0.183215 0
1 0.16492 0
1 0.153796 0
1 0.153109 0
1 0.153872 0
0 0.513619 0
0 0.520058 0
0.154574 0.514794 0
0.470558 0.485527 0
0.850309 0.429816 0
1 0.379751 0
1 0.357946 0
1 0.352193 0
1 0.349859 0
0 0.774868 0
0 0.772671 0
0.0276493 0.757504 0
0.333806 0.719463 0
0.655283 0.674723 0
1 0.616281 0
1 0.567559 0
1 0.543984 0
1 0.527733 0
0 1 0
0 0.991806 0
0 0.97113 0
0.185519 0.927352 0
0.501137 0.876844 0
0.806424 0.826825 0
1 0.783322 0
1 0.747387 0
1 0.716487 0
0 1 0
0 1 0
0 1 0
0.0720226 1 0
0.381888 1 0
0.681758 0.980743 0
0.923247 0.939071 0
1 0.908568 0
1 0.878264 0
0 1 0
0 1 0
0 1 0
0 1 0
0.297215 1 0
0.593347 1 0
0.831479 1 0
1 1 0
1 0.994461 0
0 1 0
0 1 0
0 1 0
0 1 0
0.216907 1 0
0.510811 1 0
0.747555 1 0
0.923476 1 0
1 1 0
0 0 0
0 0 0
0.237308 0 0.000015259
0.571374 0 0
0.909316 0 0
1 0 0
1 0 0
1 0 0
1 0 0
0 0.0236057 0.0278172
0.0244907 0.0279393 0.0328985
0.262242 0.0200961 0.0259709
0.582071 0 0
0.916793 0 0
1 0 0
1 0 0
1 0 0
1 0 0
0 0.248875 0.0039826
0.000183108 0.254017 0.00981155
0.241428 0.250462 0.00714122
0.582162 0.218097 0.00700389
0.900862 0.196246 0
1 0.168231 0
1 0.152911 0
1 0.150744 0
1 0.149996 0
0 0.514061 0
0 0.519722 0
0.152865 0.513756 0
0.467689 0.483726 0
0.843915 0.427192 0
1 0.38468 0
1 0.365805 0
1 0.361166 0
1 0.358892 0
0 0.772595 0
0 0.768902 0
0.0227665 0.753384 0
0.327947 0.714611 0
0.648997 0.669505 0
1 0.608545 0
1 0.562341 0
1 0.540642 0
1 0.525795 0
0 0.996201 0
0 0.986068 0
0 0.965011 0
0.177798 0.920638 0
0.49279 0.86952 0
0.797467 0.818906 0
1 0.773739 0
1 0.736339 0
1 0.706294 0
0 1 0
0 1 0
0 1 0
0.0621805 1 0
0.371527 1 0
0.670924 0.970932 0
0.91194 0.928817 0
1 0.897581 0
1 0.865904 0
0 1 0
0 1 0
0 1 0
0 1 0
0.285328 1 0
0.581186 1 0
0.819135 1 0
0.996658 1 0
1 0.982651 0
0 1 0
0 1 0
0 1 0
0 1 0
0.204105 1 0
0.497932 1 0
0.734386 1 0
0.910613 1 0
1 1 0
0 0 0.221973
0 0 0.233494
0.238102 0 0.258442
0.5664 0 0.238071
0.90277 0 0.20737
1 0 0.177539
1 0 0.164279
1 0 0.167849
1 0 0.178012
0 0.0190738 0.28101
0.0177462 0.0222629 0.284993
0.25568 0.0147097 0.278416
0.575463 0 0.250996
0.910597 0 0.221103
1 0 0.195346
1 0 0.186252
1 0 0.192096
1 0 0.201495
0 0.244205 0.257298
0 0.249851 0.263706
0.236545 0.246693 0.261448
0.557946 0.222141 0.238178
0.893812 0.192233 0.209628
1 0.162936 0.181643
1 0.146899 0.166659
1 0.143267 0.163775
1 0.141772 0.162997
0 0.509682 0.171603
0 0.514855 0.178302
0.146502 0.508309 0.17319
0.459739 0.477012 0.143359
0.81944 0.424033 0.141405
1 0.393256 0.0831922
1 0.372168 0.0449226
1 0.361746 0.0330663
1 0.354299 0.0264897
0 0.76524 0.059678
0 0.760708 0.0563516
0.0128328 0.744457 0.0412909
0.317494 0.705364 0.00344854
0.637675 0.659434 0
0.995407 0.596246 0
1 0.555596 0
1 0.53904 0
1 0.529824 0
0 0.986374 0
0 0.97586 0
0 0.954116 0
0.164996 0.909041 0
0.479377 0.857298 0
0.783551 0.806287 0
1 0.758785 0
1 0.720699 0
1 0.693126 0
0 1 0
0 1 0
0 1 0
0.0474556 1 0
0.356252 1 0
0.655207 0.956451 0
0.895796 0.913878 0
1 0.881758 0
1 0.848142 0
0 1 0
0 1 0
0 1 0
0 1 0
0.268727 1 0
0.564126 1 0
0.801907 1 0
0.979202 0.994278 0
1 0.965927 0
0 1 0
0 1 0
0 1 0
0 1 0
0.186496 1 0
0.480232 1 0
0.71667 1 0
0.89308 1 0
1 1 0
0 0 0.573587
0 0 0.59202
0.226749 0 0.612894
0.551659 0 0.589227
0.886732 0 0.55729
1 0 0.527657
1 0 0.514351
1 0 0.51841
1 0 0.52842
0 0.00546273 0.631342
0.00218204 0.00816358 0.634592
0.240269 0.000854505 0.628016
0.560571 0 0.601114
0.896147 0 0.571603
1 0 0.545998
1 0 0.535866
1 0 0.540475
1 0 0.548699
0 0.230945 0.607141
0 0.236866 0.612985
0.222461 0.234104 0.610437
0.543618 0.209537 0.586786
0.87921 0.179355 0.557717
1 0.149218 0.528679
1 0.131716 0.511925
1 0.127001 0.507622
1 0.124636 0.505669
0 0.497108 0.520989
0 0.501534 0.526207
0.130526 0.493736 0.519326
0.442573 0.461387 0.488289
0.768353 0.421103 0.449378
1 0.380987 0.41062
1 0.355108 0.385809
1 0.343511 0.375021
1 0.335195 0.367422
0 0.749355 0.405142
0 0.743679 0.400259
0 0.727153 0.38468
0.29781 0.687236 0.346059
0.617563 0.640894 0.301106
0.960403 0.581415 0.29247
1 0.55494 0.250629
1 0.542657 0.217334
1 0.530694 0.197559
0 0.968231 0.270344
0 0.956909 0.259815
0 0.934676 0.238529
0.143435 0.889082 0.194263
0.457191 0.836698 0.143282
0.76051 0.784848 0.0927749
1 0.7337 0.0799725
1 0.699687 0.0869917
1 0.676387 0.0852827
0 1 0.170733
0 1 0.154437
0 1 0.127352
0.0238041 1 0.0774548
0.332052 0.990402 0.0209659
0.630564 0.933364 0
0.870665 0.890394 0
1 0.856733 0
1 0.820584 0
0 1 0.103441
0 1 0.0817884
0 1 0.0499428
0 1 0
0.243137 1 0
0.538201 1 0
0.775814 1 0
0.952789 0.969482 0
1 0.940337 0
0 1 0.035874
0 1 0.0103914
0 1 0
0 1 0
0.160098 1 0
0.453864 1 0
0.690288 1 0
0.86656 1 0
1 1 0
0 0 0.940993
0 0 0.972122
0.212024 0 0.977554
0.53521 0 0.951888
0.869703 0 0.919219
1 0 0.889616
1 0 0.876478
1 0 0.880323
1 0 0.890394
0 0 0.99263
0 0 0.995422
0.223529 0 0.988632
0.544549 0 0.962371
0.880507 0 0.93312
1 0 0.907393
1 0 0.897322
1 0 0.901686
1 0 0.908751
0 0.216632 0.968185
0 0.223285 0.97467
0.207279 0.220478 0.972091
0.528267 0.195941 0.94847
0.862898 0.164752 0.918425
1 0.133501 0.888289
1 0.114885 0.870466
1 0.109041 0.86508
1 0.106172 0.862593
0 0.482719 0.882033
0 0.486412 0.886503
0.112978 0.477653 0.878706
0.423957 0.444389 0.846723
0.748547 0.402899 0.806638
1 0.362463 0.767529
1 0.335714 0.741848
1 0.323507 0.730434
1 0.314809 0.722454
0 0.731502 0.762722
0 0.72546 0.757473
0 0.708202 0.741146
0.276905 0.667948 0.70219
0.595834 0.620783 0.656413
0.904326 0.574411 0.611368
1 0.541741 0.579767
1 0.523262 0.562127
1 0.508827 0.548379
0 0.94844 0.62594
0 0.936706 0.614984
0 0.913863 0.593133
0.120409 0.867674 0.548241
0.433524 0.814679 0.496635
0.736294 0.762203 0.445533
1 0.711681 0.43714
1 0.689525 0.413901
1 0.674281 0.383017
0 1 0.524254
0 1 0.507362
0 1 0.479835
0 1 0.429389
0.306477 0.966522 0.372412
0.604578 0.90901 0.316304
0.844312 0.865629 0.274052
1 0.82884 0.261494
1 0.794812 0.266331
0 1 0.455116
0 1 0.433036
0 1 0.400763
0 1 0.345998
0.216205 1 0.285206
0.511208 1 0.225681
0.748714 0.974533 0.180453
0.925414 0.943725 0.150576
1 0.913161 0.133974
0 1 0.386145
0 1 0.360357
0 1 0.325063
0 1 0.267796
0.132586 1 0.204746
0.425757 1 0.143053
0.662593 1 0.096437
0.838926 1 0.0657511
0.993393 1 0.0408789
0 0 1
0 0 1
0.198581 0 1
0.52018 0 1
0.854383 0 1
1 0 1
1 0 1
1 0 1
1 0 1
0 0 1
0 0 1
0.208942 0 1
0.530129 0 1
0.866545 0 1
1 0 1
1 0 1
1 0 1
1 0 1
0 0.204547 1
0 0.211109 1
0.193973 0.208667 1
0.514 0.183337 1
0.847883 0.151415 1
1 0.119203 1
1 0.0995499 1
1 0.0925765 1
1 0.08925 1
0 0.469871 1
0 0.47277 1
0.0969253 0.463004 1
0.406287 0.42826 1
0.730495 0.386389 1
1 0.345174 1
1 0.318074 1
1 0.305119 1
1 0.295689 1
0 0.715175 1
0 0.708553 1
0 0.690944 1
0.257282 0.649866 1
0.575799 0.602274 0.992844
0.883711 0.555276 0.947127
1 0.521965 0.914885
1 0.502876 0.896559
1 0.487648 0.882017
0 0.930282 0.962722
0 0.917723 0.950927
0 0.894316 0.92842
0.0986801 0.847517 0.882918
0.411399 0.79411 0.830854
0.713588 0.741009 0.77908
0.956863 0.701839 0.740978
1 0.677226 0.717159
1 0.657023 0.697658
0 1 0.858839
0 1 0.841276
0 1 0.813153
0 1 0.762142
0.28249 0.944137 0.704662
0.580209 0.886183 0.648081
0.819638 0.84239 0.605386
1 0.805066 0.598733
1 0.782971 0.575814
0 1 0.787533
0 1 0.765057
0 1 0.732387
0 1 0.677195
0.190921 1 0.616053
0.48571 0.996979 0.556207
0.72311 0.950408 0.510765
0.899718 0.919478 0.48069
1 0.885969 0.470771
0 1 0.717342
0 1 0.691035
0 1 0.655512
0 1 0.598047
0.106661 1 0.534813
0.399802 1 0.472999
0.636728 1 0.426352
0.813291 1 0.395773
0.967742 0.989364 0.370916
0 0 1
0 0 1
0.191638 0 1
0.512078 0 1
0.846326 0 1
1 0 1
1 0 1
1 0 1
1 0 1
0 0 1
0 0 1
0.201907 0 1
0.52343 0 1
0.860105 0 1
1 0 1
1 0 1
1 0 1
1 0 1
0 0.198917 1
0 0.20618 1
0.187472 0.203342 1
0.506737 0.177539 1
0.839994 0.144961 1
1 0.111513 1
1 0.0903334 1
1 0.0828565 1
1 0.0788128 1
0 0.463737 1
0 0.465492 1
0.0874495 0.454551 1
0.395789 0.418997 1
0.719265 0.376379 1
1 0.334813 1
1 0.306828 1
1 0.293339 1
1 0.283406 1
0 0.705531 1
0 0.698405 1
0 0.680034 1
0.244785 0.638621 1
0.562539 0.590249 1
0.869841 0.54258 1
1 0.508644 1
1 0.489128 1
1 0.473304 1
0 0.918593 1
0 0.905623 1
0 0.881621 1
0.0841382 0.834226 1
0.396033 0.780011 1
0.697841 0.726482 1
0.940688 0.686748 0.995911
1 0.661662 0.971557
1 0.641032 0.951568
0 1 1
0 1 1
0 1 1
0 0.987808 1
0.265538 0.928466 0.958877
0.562875 0.8701 0.901808
0.80209 0.826001 0.858763
0.980209 0.797009 0.830549
1 0.773022 0.807248
0 1 1
0 1 1
0 1 0.985931
0 1 0.930526
0.172717 1 0.868849
0.467338 0.979873 0.808728
0.704631 0.933074 0.763012
0.881163 0.902037 0.732754
1 0.869749 0.725368
0 1 0.970336
0 1 0.943832
0 1 0.908019
0 1 0.850233
0.0880598 1 0.78703
0.381201 1 0.725124
0.618173 1 0.678355
0.794629 0.997421 0.647547
0.949187 0.971893 0.622721
0 0 1
0 0 1
0.190204 0 1
0.510033 0 1
0.844327 0 1
1 0 1
1 0 1
1 0 1
1 0 1
0 0 1
0 0 1
0.200748 0 1
0.522377 0 1
0.859297 0 1
1 0 1
1 0 1
1 0 1
1 0 1
0 0.199664 1
0 0.20679 1
0.187182 0.203967 1
0.505348 0.177401 1
0.837369 0.143511 1
1 0.108949 1
1 0.0868696 1
1 0.0786297 1
1 0.0742504 1
0 0.462745 1
0 0.463554 1
0.0838483 0.451698 1
0.390845 0.415015 1
0.71397 0.372076 1
1 0.329671 1
1 0.301274 1
1 0.287175 1
1 0.276478 1
0 0.701274 1
0 0.69366 1
0 0.674891 1
0.237903 0.632715 1
0.5552 0.583902 1
0.861967 0.535637 1
1 0.50106 1
1 0.480705 1
1 0.464454 1
0 0.91252 1
0 0.898894 1
0 0.874311 1
0.0753185 0.826429 1
0.386557 0.771542 1
0.687846 0.717433 1
0.930251 0.677165 1
1 0.651606 1
1 0.630564 1
0 1 1
0 1 1
0 1 1
0 0.978088 1
0.254322 0.918303 1
0.551308 0.859541 1
0.790326 0.815137 1
0.968109 0.785733 1
1 0.761517 0.995666
0 1 1
0 1 1
0 1 1
0 1 1
0.16054 1 1
0.454948 0.968505 0.997238
0.692012 0.921386 0.951171
0.868696 0.890394 0.920958
1 0.864805 0.89604
0 1 1
0 1 1
0 1 1
0 1 1
0.0751965 1 0.975082
0.368277 1 0.913024
0.605341 1 0.866209
0.781857 0.985504 0.835386
0.93666 0.960204 0.810773
0 0 1
0 0 1
0.189548 0 1
0.5093 0 1
0.843442 0 1
1 0 1
1 0 1
1 0 1
1 0 1
0 0 1
0 0 1
0.201297 0 1
0.523323 0 1
0.860014 0 1
1 0 1
1 0 1
1 0 1
1 0 1
0 0.20148 1
0 0.208881 1
0.187579 0.205249 1
0.504738 0.177966 1
0.835782 0.143069 1
1 0.107515 1
1 0.0842145 1
1 0.0756237 1
1 0.0703899 1
0 0.462776 1
0 0.462638 1
0.0807813 0.449317 1
0.387182 0.412329 1
0.70959 0.368612 1
1 0.325841 1
1 0.296605 1
1 0.281865 1
1 0.270695 1
0 0.69839 1
0 0.690044 1
0 0.670604 1
0.232258 0.628 1
0.548928 0.578561 1
0.855116 0.529686 1
1 0.494469 1
1 0.473487 1
1 0.456657 1
0 0.907393 1
0 0.893202 1
0 0.868009 1
0.0673991 0.819455 1
0.378256 0.764187 1
0.679042 0.709529 1
0.921035 0.668742 1
1 0.642725 1
1 0.621286 1
0 1 1
0 1 1
0 1 1
0 0.969543 1
0.244343 0.909331 1
0.540963 0.850141 1
0.779736 0.805371 1
0.957488 0.775876 1
1 0.751461 1
0 1 1
0 1 1
0 1 1
0 1 1
0.149432 1 1
0.443732 0.958251 1
0.680812 0.91104 1
0.857267 0.879774 1
1 0.854109 1
0 1 1
0 1 1
0 1 1
0 1 1
0.0632334 1 1
0.356649 1 1
0.593912 1 1
0.770657 0.975097 1
0.925444 0.949783 0.984771
