site/assets/luts/freshluts--0001215-orangetil-lut.cube
# LUTr-Schema-Version: 2
# LUTr-ID: freshluts--0001215-orangetil-lut
# LUTr-Title: OrangeTil_LUT
# LUTr-Collection: Fresh LUTs
# LUTr-Collection-ID: freshluts-community
# LUTr-Source: https://freshluts.com
# LUTr-Retrieved: 2026-07-27
# LUTr-Source-File: submissions-raw/freshluts/cubes/1215__Orangetil_sister_2.SISTER.00_00_13_00.Still002.cube
# LUTr-Source-Format: CUBE
# LUTr-Source-SHA256: b48be046eda3268d7f007aefc764fac53ac2e4a94d4f766aea779b6a5befdc66
# LUTr-License: CC0-1.0
# LUTr-License-URL: https://freshluts.com/termsandconditions
# LUTr-License-Basis: site-terms
# LUTr-Transform-Class: creative-look
# LUTr-Tags: creative, freshluts, community, cube, teal, sony-s-log3
# LUTr-Input-Color-Space:
# LUTr-Input-Gamut: sony-s-gamut3
# LUTr-Input-Transfer: sony-s-log3
# LUTr-Output-Color-Space: srgb
# LUTr-Output-Gamut: rec709
# LUTr-Output-Transfer: srgb
# LUTr-Color-Space-Confidence: camera-profile-input-required
# LUTr-Domain-Normalized: true
# LUTr-Shaper: none
# LUTr-Original-Grid: 33x33x33
# LUTr-Conversion-Grid: 33x33x33
# LUTr-Conversion-Interpolation: none
# LUTr-Conversion-Method: Metadata normalization; numeric LUT samples preserved
# LUTr-Conversion-Tool: LUTr scripts/convert-all-to-cube.mjs 2.0.0
# LUTr-Conversion-Date: 2026-07-28
# LUTr-Asset-URL: https://freshluts.com/luts/1215
# LUTr-Author: lvannoeun@gmail.com
# LUTr-Author-URL: https://freshluts.com/users/57563
# LUTr-Attribution: lvannoeun@gmail.com via Fresh LUTs
# LUTr-Source-Labels: gamma=Sony S-Log 3; color=Teal; key=Neutral; style=cine drama
# LUTr-Note: Preserve this metadata and the upstream license notices when redistributing.
TITLE "OrangeTil_LUT"
LUT_3D_SIZE 33
DOMAIN_MIN 0 0 0
DOMAIN_MAX 1 1 1
0.0445106 0.0445106 0.0445106
0.0672313 0.0434424 0.0431678
0.0909743 0.0425116 0.0419471
0.115297 0.0416419 0.0407874
0.139956 0.0404974 0.0393378
0.165026 0.0393225 0.0378576
0.190448 0.0381323 0.036347
0.216266 0.0368963 0.0348058
0.242451 0.0356146 0.0332036
0.269093 0.0344091 0.0316625
0.295933 0.0330205 0.0299687
0.32311 0.0316472 0.0282444
0.350744 0.0301976 0.0264591
0.378485 0.0287327 0.0246586
0.4065 0.0273136 0.0229038
0.434821 0.0259709 0.02121
0.463264 0.0245212 0.0194095
0.49189 0.0230716 0.0176089
0.520653 0.0216068 0.0157931
0.549584 0.0201419 0.013962
0.579004 0.0188602 0.0123293
0.608194 0.0174868 0.0105898
0.637446 0.0161288 0.00888075
0.666743 0.0147707 0.00717174
0.696056 0.0134585 0.00550851
0.725536 0.0123445 0.00402838
0.755001 0.0112612 0.00259403
0.784421 0.0101167 0.00108339
0.813809 0.00900282 0
0.843 0.00798047 0
0.872129 0.00706493 0
0.901335 0.00640879 0
0.930648 0.00560006 0
0.0413519 0.0655985 0.0414893
0.0644541 0.0648814 0.0406195
0.0884871 0.0641947 0.0397498
0.11284 0.0633249 0.0386664
0.137728 0.0623484 0.0374762
0.162966 0.0612955 0.0362097
0.188525 0.0601816 0.0348974
0.214679 0.0592355 0.0337377
0.241047 0.0580911 0.0323644
0.26775 0.0569009 0.0309453
0.294759 0.0556344 0.0294499
0.322072 0.0543374 0.027924
0.349889 0.0530251 0.0263676
0.378012 0.0518959 0.0249943
0.406165 0.0505684 0.0234379
0.434531 0.0491951 0.0218357
0.463111 0.047837 0.0202335
0.491905 0.0465095 0.0186618
0.520958 0.0452583 0.0171664
0.55021 0.0440681 0.0157168
0.579599 0.0426947 0.0140993
0.608911 0.0413977 0.0125582
0.638346 0.0401617 0.0110781
0.667857 0.0389715 0.0096437
0.697475 0.0379034 0.00833143
0.727077 0.0368505 0.00701915
0.756603 0.0357671 0.00569161
0.786175 0.0347448 0.00442512
0.815778 0.0337835 0.00320439
0.845151 0.0328832 0.00207523
0.874586 0.0322118 0.00115969
0.903822 0.0315251 0.000244144
0.933272 0.0307927 0
0.0381018 0.087892 0.0383917
0.0614328 0.0873884 0.0377356
0.08542 0.0866712 0.0368505
0.10988 0.085893 0.0358892
0.134905 0.085069 0.0348516
0.160311 0.0841993 0.0337682
0.186221 0.0834363 0.0328069
0.212314 0.0824292 0.0315862
0.238804 0.0813916 0.0303197
0.265644 0.080354 0.0290379
0.292836 0.0792706 0.0277409
0.320317 0.0781415 0.0263828
0.348409 0.0771038 0.0251011
0.376471 0.0759136 0.023682
0.404776 0.0747387 0.0222629
0.433326 0.0735485 0.0208438
0.462058 0.072343 0.0193942
0.491005 0.0711681 0.0179751
0.520256 0.0701152 0.0166781
0.549538 0.0689403 0.015259
0.579095 0.0677501 0.0138247
0.608545 0.0665904 0.0124056
0.638086 0.0654612 0.0110323
0.667903 0.0645914 0.0099031
0.697581 0.0635691 0.00865187
0.72726 0.0625925 0.00743114
0.756893 0.0616312 0.00621042
0.786587 0.0607004 0.00505074
0.816403 0.059968 0.00404364
0.846052 0.0593423 0.00317388
0.875486 0.0586709 0.00227359
0.904768 0.0580453 0.00140383
0.934325 0.0574044 0.000518807
0.0345159 0.110842 0.0349584
0.057969 0.11046 0.0344244
0.0821546 0.109926 0.033753
0.106752 0.1093 0.0329442
0.131884 0.108568 0.0320287
0.157595 0.108003 0.0312505
0.18349 0.10724 0.0302739
0.209766 0.106416 0.0292363
0.236378 0.105516 0.0281071
0.26334 0.10457 0.0269474
0.290822 0.103807 0.0259403
0.318471 0.102846 0.0247501
0.346563 0.101793 0.0234684
0.374746 0.10074 0.0221714
0.403159 0.0996567 0.0208743
0.43183 0.0986038 0.0195773
0.460929 0.0977646 0.0184787
0.489998 0.0967117 0.0171817
0.519219 0.0956283 0.0158694
0.548592 0.0945602 0.0145418
0.578286 0.093492 0.0132296
0.60795 0.092546 0.0120394
0.637812 0.0917372 0.0109865
0.667536 0.0907759 0.00976577
0.697307 0.0898604 0.00859083
0.727123 0.0890059 0.00750744
0.756939 0.0882124 0.00646983
0.786847 0.0875257 0.00552377
0.8168 0.0869001 0.00466926
0.846433 0.0862745 0.00378424
0.87599 0.0857252 0.00299077
0.90544 0.0852674 0.00230411
0.935119 0.0847639 0.00154116
0.0306249 0.134615 0.03122
0.0541848 0.134325 0.0307927
0.0785077 0.133928 0.0302586
0.10341 0.133608 0.0297704
0.128771 0.13312 0.0290837
0.154421 0.132479 0.0282597
0.180423 0.131823 0.0274052
0.206821 0.131136 0.0265049
0.233616 0.130419 0.0255589
0.260899 0.129809 0.0247349
0.28835 0.129 0.023682
0.316091 0.12813 0.0225986
0.34432 0.12723 0.0214542
0.372686 0.126345 0.0203403
0.401251 0.125429 0.0191806
0.430243 0.124681 0.018204
0.459251 0.123751 0.0170291
0.488457 0.122835 0.0158694
0.517845 0.12192 0.0147097
0.547356 0.120989 0.0135348
0.577173 0.120058 0.0123445
0.607095 0.119356 0.0113985
0.636942 0.118532 0.0103304
0.666835 0.117723 0.00927749
0.696727 0.116945 0.00823987
0.726635 0.116182 0.00724804
0.756771 0.115724 0.00653086
0.78674 0.115099 0.00564584
0.816724 0.114504 0.00482185
0.846464 0.113985 0.0040589
0.876112 0.113527 0.00335698
0.90576 0.113268 0.00283818
0.935729 0.113054 0.00239567
0.026566 0.159121 0.0273136
0.0502785 0.158999 0.0270542
0.0748302 0.158816 0.0267491
0.099794 0.158556 0.0263218
0.125261 0.15816 0.0257572
0.15108 0.157717 0.0251164
0.177218 0.157198 0.0243992
0.203738 0.156619 0.0236057
0.230838 0.156207 0.0229953
0.258106 0.155596 0.0221408
0.28571 0.154925 0.0212558
0.313588 0.154192 0.0202945
0.341909 0.153384 0.0192569
0.370565 0.152804 0.0184329
0.399329 0.152071 0.0174716
0.428275 0.151293 0.0164492
0.457389 0.150484 0.0153964
0.486702 0.14966 0.0143435
0.516213 0.148882 0.0133059
0.546105 0.148318 0.0125124
0.576043 0.147509 0.0114443
0.60589 0.146746 0.0104372
0.635828 0.146014 0.00946059
0.665843 0.145327 0.00852979
0.695903 0.144717 0.00766003
0.726162 0.144305 0.00701915
0.756191 0.143725 0.00619516
0.786252 0.143191 0.00540169
0.816358 0.142718 0.00468452
0.84625 0.142351 0.0040589
0.876097 0.142107 0.00357061
0.905913 0.142016 0.00325017
0.935836 0.141741 0.00273136
0.022385 0.184375 0.0233005
0.0463874 0.184558 0.0233463
0.0710002 0.184436 0.0230869
0.096025 0.184222 0.0227207
0.121584 0.183917 0.0222629
0.147539 0.183597 0.0217594
0.173968 0.183368 0.0213321
0.200732 0.183047 0.0208133
0.227756 0.182559 0.0201114
0.255131 0.18204 0.019379
0.282856 0.181506 0.018616
0.310903 0.180941 0.0178378
0.339529 0.180453 0.0171054
0.36817 0.179843 0.0162661
0.396994 0.179187 0.0153811
0.426078 0.178546 0.0144961
0.45536 0.17789 0.0135958
0.484825 0.177218 0.0126802
0.514641 0.176745 0.0119783
0.544427 0.176089 0.0110628
0.574502 0.175418 0.010132
0.604517 0.174807 0.00929274
0.634562 0.174197 0.00843824
0.664683 0.173617 0.00759899
0.695064 0.173312 0.00704967
0.725246 0.172839 0.00633249
0.755413 0.172412 0.00564584
0.785595 0.171984 0.0049897
0.815778 0.171603 0.00434882
0.846006 0.171557 0.00407416
0.875929 0.171374 0.00364691
0.905715 0.171267 0.00329595
0.935744 0.171099 0.00288396
0.0181125 0.210468 0.0192111
0.0420996 0.21062 0.0192264
0.066865 0.210651 0.0191196
0.0920577 0.21062 0.0189364
0.117769 0.210468 0.018616
0.143938 0.210346 0.0183261
0.170474 0.210208 0.0180209
0.197299 0.209949 0.0175631
0.224475 0.209628 0.0170443
0.251987 0.209247 0.0164492
0.27982 0.208804 0.0157931
0.308186 0.208576 0.0153353
0.336812 0.208072 0.0146029
0.36556 0.207584 0.0138857
0.394507 0.20705 0.0131075
0.423682 0.2065 0.0123293
0.453239 0.206119 0.0117037
0.482902 0.205661 0.0110018
0.512657 0.205127 0.0102235
0.54255 0.204578 0.00943008
0.572717 0.203983 0.00860609
0.602838 0.203494 0.00784314
0.633249 0.20325 0.00735485
0.663508 0.202823 0.00668345
0.693782 0.202396 0.00601205
0.724056 0.201999 0.00538643
0.75433 0.201678 0.00480659
0.784649 0.201404 0.00428778
0.815213 0.201389 0.00402838
0.845289 0.201221 0.00360113
0.875288 0.201114 0.00326543
0.905196 0.201099 0.00302129
0.935347 0.201068 0.00273136
0.0135805 0.237171 0.014847
0.037705 0.237461 0.0149996
0.062562 0.237583 0.0149996
0.0879225 0.237705 0.0149844
0.11397 0.237888 0.0149996
0.1402 0.237827 0.0147707
0.166735 0.237705 0.0144808
0.193668 0.237537 0.0141299
0.220981 0.237354 0.0137331
0.248737 0.237217 0.0133974
0.276829 0.237064 0.0130312
0.305104 0.236728 0.0124666
0.333822 0.236316 0.011841
0.362692 0.23595 0.0112459
0.391791 0.235584 0.0106355
0.421256 0.235309 0.010132
0.450843 0.234958 0.00953689
0.480522 0.234531 0.00886549
0.510414 0.234119 0.00822461
0.540444 0.233722 0.00756847
0.570748 0.233265 0.00686656
0.60116 0.233051 0.00642405
0.631479 0.232715 0.00582895
0.66186 0.232395 0.00526436
0.692256 0.23212 0.0047303
0.722637 0.231846 0.00421149
0.753017 0.231601 0.00373846
0.783658 0.231662 0.00354009
0.814099 0.231525 0.00317388
0.844327 0.231495 0.00288396
0.874418 0.231495 0.00263981
0.904402 0.231556 0.00247196
0.93489 0.231861 0.002533
0.00886549 0.26453 0.0103151
0.0331579 0.264973 0.0106355
0.0581826 0.265278 0.0108034
0.0838026 0.26566 0.0110323
0.109789 0.265766 0.0110018
0.136156 0.265843 0.0109255
0.16286 0.265888 0.0107881
0.189929 0.265858 0.0105745
0.217411 0.265843 0.0103761
0.245319 0.265858 0.010193
0.273442 0.265721 0.00984207
0.301854 0.265538 0.00944533
0.330709 0.265263 0.00894179
0.35967 0.264988 0.00843824
0.389105 0.264942 0.00816358
0.418555 0.264668 0.00766003
0.448203 0.264393 0.00714122
0.478004 0.264073 0.0065919
0.507973 0.263752 0.00602731
0.538262 0.263584 0.00561532
0.56878 0.263371 0.00514229
0.59913 0.263096 0.00463874
0.629526 0.262837 0.0041352
0.659983 0.262592 0.00364691
0.690471 0.262409 0.00320439
0.721187 0.26247 0.00302129
0.751736 0.262394 0.00271611
0.782223 0.262303 0.00236515
0.812741 0.262242 0.00205997
0.843061 0.262303 0.00187686
0.873289 0.262425 0.00175479
0.903624 0.262852 0.00195315
0.933944 0.262989 0.00184634
0.00404364 0.292561 0.00569161
0.0286717 0.293324 0.00633249
0.0538338 0.293767 0.00663767
0.0794232 0.294118 0.0068513
0.105531 0.294347 0.0069276
0.131991 0.29453 0.00694286
0.158831 0.294697 0.00695811
0.186252 0.295018 0.00709544
0.213825 0.295079 0.00697337
0.241703 0.295064 0.00675975
0.269902 0.295018 0.0065156
0.298436 0.294957 0.00624094
0.327504 0.294881 0.00595102
0.356756 0.294911 0.00575265
0.386069 0.294743 0.00535592
0.415595 0.29456 0.00494392
0.445365 0.294377 0.00453193
0.475319 0.294209 0.00411994
0.505531 0.294148 0.00381476
0.535866 0.294041 0.00347906
0.566384 0.293812 0.00299077
0.596841 0.29366 0.00259403
0.627375 0.293523 0.00222782
0.657938 0.2934 0.0018616
0.688701 0.293477 0.00169375
0.719356 0.293477 0.00144961
0.749966 0.293477 0.00120546
0.780591 0.293507 0.000991836
0.8112 0.293553 0.00077821
0.841581 0.293675 0.000656138
0.872129 0.294133 0.000869764
0.902327 0.294408 0.000900282
0.932754 0.294667 0.000900282
0 0.321477 0.00125124
0.0239414 0.322148 0.00178531
0.0491951 0.322683 0.00218204
0.0749065 0.323156 0.002533
0.101183 0.323552 0.00276188
0.127794 0.323873 0.00292973
0.15494 0.324346 0.00325017
0.182239 0.324559 0.00328069
0.209934 0.324742 0.00329595
0.237964 0.32488 0.00323491
0.2663 0.324956 0.00311284
0.294987 0.325032 0.00299077
0.324239 0.32517 0.00291447
0.353475 0.32517 0.00268559
0.382925 0.325139 0.00244144
0.412573 0.325063 0.00213626
0.44242 0.324971 0.00181582
0.472694 0.325124 0.00173953
0.502892 0.325063 0.00143435
0.533272 0.324987 0.00111391
0.563882 0.324849 0.000732433
0.594415 0.324773 0.000411994
0.625147 0.324849 0.000244144
0.655955 0.324971 0.000122072
0.686656 0.324987 0
0.717342 0.325017 0
0.747997 0.325078 0
0.778714 0.325185 0
0.809613 0.325521 0
0.840192 0.325826 0
0.870558 0.326116 0
0.900816 0.326467 0
0.931319 0.326787 0
0 0.350835 0
0.0190127 0.351659 0
0.0443885 0.352316 0
0.0702068 0.35288 0
0.096788 0.353597 0
0.123552 0.354055 0
0.150622 0.354467 0
0.178042 0.354788 0
0.205829 0.355047 0
0.233967 0.355291 0
0.262669 0.355734 0
0.291432 0.355901 0
0.320623 0.355962 0
0.34992 0.356039 0
0.379477 0.3561 0
0.409308 0.356207 0
0.43946 0.356451 0
0.469596 0.356451 0
0.499886 0.356451 0
0.530343 0.356481 0
0.561074 0.356466 0
0.591821 0.356603 0
0.62266 0.356786 0
0.653407 0.356847 0
0.684199 0.356954 0
0.715007 0.357092 0
0.745769 0.357259 0
0.776699 0.35761 0
0.807568 0.357916 0
0.838163 0.358251 0
0.868635 0.358633 0
0.898985 0.359045 0
0.929549 0.359442 0
0 0.380682 0
0.0142214 0.381628 0
0.0397498 0.382437 0
0.0659037 0.383337 0
0.0924086 0.383963 0
0.119234 0.384512 0
0.146426 0.385031 0
0.173999 0.385489 0
0.201892 0.385885 0
0.230365 0.38645 0
0.258915 0.38674 0
0.287785 0.387015 0
0.317113 0.387213 0
0.346532 0.387396 0
0.376196 0.387579 0
0.406271 0.38793 0
0.436347 0.388083 0
0.46659 0.388205 0
0.496971 0.388312 0
0.527504 0.388403 0
0.558587 0.388724 0
0.589319 0.388861 0
0.620127 0.389013 0
0.650965 0.389151 0
0.681819 0.389334 0
0.712779 0.389639 0
0.743801 0.390066 0
0.77467 0.390341 0
0.805524 0.390631 0
0.836179 0.391012 0
0.866712 0.391455 0
0.897292 0.392126 0
0.928054 0.392706 0
0 0.411109 0
0.00953689 0.412131 0
0.0354009 0.41326 0
0.0614786 0.414099 0
0.0880903 0.414832 0
0.115038 0.415488 0
0.142306 0.416083 0
0.170169 0.416846 0
0.198245 0.417411 0
0.226612 0.417868 0
0.255268 0.41825 0
0.284215 0.418601 0
0.313619 0.418891 0
0.34342 0.41944 0
0.373159 0.419715 0
0.403098 0.419928 0
0.433249 0.420142 0
0.463569 0.420371 0
0.494102 0.4206 0
0.524956 0.421027 0
0.555856 0.421164 0
0.586664 0.421378 0
0.617548 0.421607 0
0.648478 0.421851 0
0.6795 0.422187 0
0.710613 0.42266 0
0.741543 0.42298 0
0.772473 0.423331 0
0.803433 0.423713 0
0.834134 0.42417 0
0.864866 0.424796 0
0.895476 0.425498 0
0.926192 0.426032 0
0 0.442115 0
0.00526436 0.443397 0
0.0309758 0.444389 0
0.057145 0.445304 0
0.0838636 0.446143 0
0.110933 0.446921 0
0.138521 0.447837 0
0.166323 0.448539 0
0.194446 0.449134 0
0.222904 0.449683 0
0.251682 0.450202 0
0.280735 0.45066 0
0.310475 0.45127 0
0.340093 0.451637 0
0.36994 0.452003 0
0.4 0.452354 0
0.430228 0.452659 0
0.460624 0.452934 0
0.491447 0.453483 0
0.522179 0.453773 0
0.553155 0.454002 0
0.584039 0.454292 0
0.614984 0.454582 0
0.64625 0.455146 0
0.677272 0.455497 0
0.708293 0.455863 0
0.739269 0.456245 0
0.77026 0.456657 0
0.801343 0.457145 0
0.832319 0.457877 0
0.862989 0.458457 0
0.893507 0.459083 0
0.924285 0.459648 0
0 0.473533 0
0.000900282 0.474815 0
0.0267491 0.475944 0
0.0530251 0.476967 0
0.0798199 0.477882 0
0.107225 0.478996 0
0.134737 0.479835 0
0.1626 0.480598 0
0.190799 0.481285 0
0.219333 0.48191 0
0.248386 0.482689 0
0.277623 0.48333 0
0.307225 0.483787 0
0.336919 0.484245 0
0.366827 0.484672 0
0.396948 0.4851 0
0.427543 0.48574 0
0.458045 0.486137 0
0.488685 0.486488 0
0.519463 0.486824 0
0.55053 0.487144 0
0.581491 0.487511 0
0.612787 0.488136 0
0.643839 0.488518 0
0.674907 0.488914 0
0.705989 0.489342 0
0.737041 0.489799 0
0.768154 0.490318 0
0.79942 0.49102 0
0.830243 0.491585 0
0.860975 0.49221 0
0.891554 0.492897 0
0.922362 0.493538 0
0 0.505272 0
0 0.50663 0
0.0227207 0.507851 0
0.0492256 0.509102 0
0.0762798 0.510277 0
0.103517 0.511223 0
0.131106 0.512123 0
0.15906 0.512993 0
0.187381 0.513787 0
0.216175 0.514687 0
0.245197 0.515435 0
0.274434 0.51606 0
0.304128 0.516625 0
0.333913 0.517174 0
0.363912 0.517693 0
0.394324 0.518395 0
0.424765 0.518883 0
0.455329 0.519341 0
0.486061 0.519783 0
0.516915 0.520195 0
0.548012 0.520562 0
0.579309 0.521248 0
0.610407 0.521691 0
0.641535 0.522133 0
0.672663 0.522591 0
0.703777 0.523064 0
0.735149 0.523827 0
0.766278 0.524361 0
0.797375 0.52491 0
0.828244 0.525521 0
0.859007 0.526177 0
0.889647 0.52694 0
0.920745 0.52784 0
0 0.537362 0
0 0.538811 0
0.019089 0.5402 0
0.0457313 0.541588 0
0.0727398 0.542718 0
0.100099 0.543786 0
0.127764 0.544778 0
0.155795 0.545693 0
0.184436 0.546822 0
0.213169 0.547646 0
0.242206 0.548409 0
0.271519 0.549111 0
0.301259 0.549722 0
0.331273 0.5505 0
0.361471 0.551202 0
0.391745 0.551766 0
0.422202 0.552285 0
0.452827 0.552804 0
0.483604 0.553292 0
0.514748 0.553994 0
0.545983 0.554482 0
0.57705 0.554955 0
0.608194 0.555428 0
0.639353 0.555932 0
0.670558 0.556435 0
0.702007 0.557244 0
0.73315 0.557794 0
0.764294 0.558343 0
0.795453 0.558938 0
0.826368 0.559594 0
0.857176 0.560311 0
0.888075 0.561318 0
0.918959 0.56202 0
0 0.569741 0
0 0.571542 0
0.0158999 0.572946 0
0.0424506 0.574243 0
0.0695201 0.575433 0
0.0969558 0.576577 0
0.124804 0.577752 0
0.153109 0.578943 0
0.181567 0.579889 0
0.210346 0.580758 0
0.23946 0.581598 0
0.268864 0.582391 0
0.298817 0.583215 0
0.328862 0.584009 0
0.358999 0.584665 0
0.389334 0.58529 0
0.419883 0.585901 0
0.450568 0.586465 0
0.48159 0.587213 0
0.512627 0.587808 0
0.543862 0.588296 0
0.575006 0.58883 0
0.60618 0.589364 0
0.6374 0.589883 0
0.668879 0.590707 0
0.700099 0.591272 0
0.731289 0.591867 0
0.762478 0.592477 0
0.793667 0.593072 0
0.824872 0.594034 0
0.855711 0.594766 0
0.886381 0.59556 0
0.917296 0.596277 0
0 0.60267 0
0 0.604318 0
0.0127565 0.605798 0
0.0393988 0.607202 0
0.0665599 0.608484 0
0.0941176 0.609751 0
0.122148 0.611093 0
0.150362 0.612192 0
0.178897 0.613214 0
0.207752 0.61416 0
0.236912 0.615045 0
0.266621 0.616159 0
0.296513 0.616922 0
0.326513 0.61767 0
0.35671 0.618372 0
0.387091 0.619043 0
0.417792 0.619806 0
0.448692 0.620584 0
0.479576 0.62118 0
0.510582 0.621759 0
0.541863 0.622278 0
0.573037 0.622858 0
0.604456 0.623621 0
0.635782 0.624277 0
0.667048 0.624857 0
0.698299 0.625452 0
0.729519 0.626078 0
0.760739 0.626703 0
0.792172 0.627588 0
0.823163 0.628321 0
0.854002 0.629068 0
0.884703 0.629877 0
0.915618 0.63061 0
0 0.635523 0
0 0.637217 0
0.0102541 0.638773 0
0.0369573 0.640238 0
0.0644694 0.641855 0
0.0920577 0.643153 0
0.119951 0.644358 0
0.148196 0.645502 0
0.176806 0.646586 0
0.205783 0.647669 0
0.235233 0.648844 0
0.264729 0.649729 0
0.294667 0.650523 0
0.324712 0.651331 0
0.354971 0.652094 0
0.385519 0.652934 0
0.416297 0.653773 0
0.447074 0.654429 0
0.478004 0.65507 0
0.509071 0.655695 0
0.540383 0.65626 0
0.571756 0.657023 0
0.603098 0.657725 0
0.634394 0.658335 0
0.66569 0.658946 0
0.696956 0.659571 0
0.728191 0.660212 0
0.759701 0.661128 0
0.790921 0.661799 0
0.821897 0.662516 0
0.85275 0.663279 0
0.883452 0.664088 0
0.914611 0.66508 0
0 0.668482 0
0 0.670283 0
0.00825513 0.671901 0
0.0352941 0.673686 0
0.0625925 0.675105 0
0.0902419 0.676448 0
0.118212 0.677745 0
0.146532 0.67895 0
0.175204 0.68011 0
0.20441 0.681407 0
0.233707 0.682429 0
0.263279 0.683375 0
0.293248 0.68423 0
0.323339 0.685054 0
0.353887 0.686122 0
0.384375 0.6869 0
0.415045 0.687633 0
0.445869 0.688319 0
0.476814 0.688991 0
0.508003 0.689738 0
0.539528 0.690501 0
0.570748 0.691142 0
0.602045 0.691752 0
0.633341 0.692378 0
0.664637 0.693004 0
0.696101 0.693812 0
0.727459 0.694575 0
0.758694 0.695232 0
0.789929 0.695903 0
0.820905 0.696635 0
0.851759 0.697398 0
0.882689 0.698436 0
0.91368 0.699229 0
0 0.701564 0
0 0.703639 0
0.00706493 0.705364 0
0.0339055 0.706966 0
0.0612497 0.708431 0
0.0889448 0.709834 0
0.11696 0.711162 0
0.145602 0.712703 0
0.174319 0.713878 0
0.203342 0.714992 0
0.232654 0.716045 0
0.262257 0.717037 0
0.292302 0.717952 0
0.322683 0.719081 0
0.353002 0.719905 0
0.38352 0.720699 0
0.414221 0.721462 0
0.445075 0.722179 0
0.476127 0.722957 0
0.507439 0.723827 0
0.538781 0.724437 0
0.570047 0.725078 0
0.601343 0.725719 0
0.632654 0.72636 0
0.664103 0.727138 0
0.695552 0.727916 0
0.726787 0.728573 0
0.758038 0.729229 0
0.789258 0.7299 0
0.820249 0.730632 0
0.851377 0.731655 0
0.882078 0.732464 0
0.912978 0.733196 0
0 0.73492 0
0 0.736873 0
0.00614939 0.738613 0
0.033051 0.740261 0
0.0604562 0.741787 0
0.0882124 0.743236 0
0.116518 0.744884 0
0.14493 0.746181 0
0.173693 0.747402 0
0.202762 0.748562 0
0.232105 0.74966 0
0.261753 0.750668 0
0.292073 0.751858 0
0.322225 0.752773 0
0.352575 0.753628 0
0.383124 0.754452 0
0.41384 0.75523 0
0.444968 0.756237 0
0.475975 0.756954 0
0.507118 0.757641 0
0.538476 0.758267 0
0.569726 0.758923 0
0.601114 0.759625 0
0.632624 0.760479 0
0.663966 0.76112 0
0.695262 0.761761 0
0.726513 0.762417 0
0.757748 0.763073 0
0.789075 0.763867 0
0.820203 0.764721 0
0.851041 0.765484 0
0.881727 0.766262 0
0.912627 0.766979 0
0 0.768124 0
0 0.770092 0
0.00584421 0.771878 0
0.0327764 0.773556 0
0.0604105 0.775311 0
0.0882887 0.776883 0
0.116396 0.778302 0
0.144839 0.779629 0
0.173602 0.780896 0
0.202701 0.782071 0
0.232349 0.783444 0
0.262028 0.784512 0
0.292103 0.785458 0
0.322286 0.786374 0
0.352651 0.787259 0
0.3832 0.788098 0
0.414206 0.789166 0
0.44509 0.789914 0
0.476097 0.790631 0
0.507225 0.791318 0
0.538613 0.791943 0
0.569909 0.792645 0
0.60145 0.793515 0
0.632746 0.794156 0
0.664073 0.794781 0
0.695354 0.795422 0
0.726604 0.796063 0
0.757946 0.796826 0
0.789303 0.797635 0
0.820249 0.798321 0
0.851057 0.799054 0
0.881727 0.799817 0
0.912612 0.800504 0
0 0.801251 0
0 0.80325 0
0.00613413 0.805081 0
0.0332799 0.806989 0
0.060853 0.808682 0
0.0886702 0.810193 0
0.116793 0.811643 0
0.145281 0.813001 0
0.17409 0.814282 0
0.203433 0.815732 0
0.232868 0.816892 0
0.262562 0.81796 0
0.292653 0.818921 0
0.32285 0.819852 0
0.353231 0.820752 0
0.384054 0.821866 0
0.414801 0.82266 0
0.445686 0.823407 0
0.476692 0.82414 0
0.50782 0.824826 0
0.539467 0.825711 0
0.570718 0.826368 0
0.602014 0.826993 0
0.63331 0.827619 0
0.664607 0.828244 0
0.695918 0.828885 0
0.727352 0.829755 0
0.758572 0.830365 0
0.789761 0.830991 0
0.820676 0.831662 0
0.851469 0.832364 0
0.882185 0.833173 0
0.913207 0.834012 0
0 0.834348 0
0 0.836378 0
0.00723278 0.838499 0
0.0342412 0.840253 0
0.0617533 0.841886 0
0.089601 0.843427 0
0.117739 0.844892 0
0.146395 0.846433 0
0.175326 0.847852 0
