site/assets/luts/freshluts--0000751-alonelut.cube
# LUTr-Schema-Version: 2
# LUTr-ID: freshluts--0000751-alonelut
# LUTr-Title: Alone(lut)
# LUTr-Collection: Fresh LUTs
# LUTr-Collection-ID: freshluts-community
# LUTr-Source: https://freshluts.com
# LUTr-Retrieved: 2026-07-27
# LUTr-Source-File: submissions-raw/freshluts/cubes/751__alone_61.A012_10161348_C005.cube
# LUTr-Source-Format: CUBE
# LUTr-Source-SHA256: c7b5701ba566a7c051f5c1e33fb1eee97956659c9f5e2ad6857b427fff3943e7
# LUTr-License: CC0-1.0
# LUTr-License-URL: https://freshluts.com/termsandconditions
# LUTr-License-Basis: site-terms
# LUTr-Transform-Class: creative-look
# LUTr-Tags: creative, freshluts, community, cube, green, low-key, bmd-film
# LUTr-Input-Color-Space: bmd-film
# LUTr-Input-Gamut: bmd-film-gamut
# LUTr-Input-Transfer: bmd-film
# LUTr-Output-Color-Space: srgb
# LUTr-Output-Gamut: rec709
# LUTr-Output-Transfer: srgb
# LUTr-Color-Space-Confidence: inferred-from-source-label
# LUTr-Domain-Normalized: true
# LUTr-Shaper: none
# LUTr-Original-Grid: 33x33x33
# LUTr-Conversion-Grid: 33x33x33
# LUTr-Conversion-Interpolation: none
# LUTr-Conversion-Method: Metadata normalization; numeric LUT samples preserved
# LUTr-Conversion-Tool: LUTr scripts/convert-all-to-cube.mjs 2.0.0
# LUTr-Conversion-Date: 2026-07-28
# LUTr-Asset-URL: https://freshluts.com/luts/751
# LUTr-Author: lvannoeun@gmail.com
# LUTr-Author-URL: https://freshluts.com/users/57563
# LUTr-Attribution: lvannoeun@gmail.com via Fresh LUTs
# LUTr-Source-Labels: gamma=Blackmagic BMD Film; color=Green; key=Low Key; style=Cinematic/Dark
# LUTr-Note: Preserve this metadata and the upstream license notices when redistributing.
TITLE "Alone(lut)"
LUT_3D_SIZE 5
DOMAIN_MIN 0 0 0
DOMAIN_MAX 1 1 1
0 0.00125124 0.0473945
0.24303 0 0.0507973
0.492836 0 0.0488289
0.534218 0.0383459 0.0751354
0.686748 0.0554055 0.0911421
0 0.275639 0.0527504
0.196033 0.256397 0.0476692
0.448798 0.253635 0.0323949
0.638895 0.262028 0.0677348
0.719676 0.294423 0.143099
0 0.492622 0.114626
0.14583 0.525765 0.0380865
0.394339 0.52398 0.0261387
0.618982 0.521019 0.0822156
0.752056 0.534066 0.196094
0.0992905 0.721416 0.197269
0.291188 0.733822 0.20914
0.470069 0.749981 0.224735
0.639872 0.767773 0.241932
0.792035 0.78526 0.259083
0.154742 0.967773 0.268559
0.342397 0.981262 0.281987
0.519783 0.997787 0.298344
0.688762 1 0.316243
0.840375 1 0.333684
0 0 0.359716
0.245396 0 0.347402
0.490288 0 0.336461
0.57969 0.0296941 0.28304
0.690364 0.0607767 0.283467
0 0.27245 0.344015
0.194781 0.255207 0.319036
0.423804 0.258412 0.314702
0.679789 0.249958 0.323079
0.794736 0.278904 0.332113
0 0.495933 0.332952
0.123384 0.530694 0.311818
0.39527 0.520424 0.315068
0.627741 0.521904 0.304265
0.838651 0.522957 0.307942
0.102525 0.726482 0.395056
0.279057 0.744137 0.400092
0.365942 0.797192 0.321218
0.584512 0.804669 0.297108
0.798703 0.803708 0.314656
0.157534 0.972671 0.469291
0.344869 0.986221 0.483207
0.522225 1 0.500145
0.685039 1 0.508553
0.833936 1 0.506844
0 0.0109407 0.418616
0.20621 0.00694286 0.494957
0.409186 0.0168002 0.501274
0.540459 0.0492409 0.460166
0.69369 0.0659342 0.477714
0.0059968 0.249027 0.491417
0.183246 0.254139 0.618936
0.437766 0.248493 0.627176
0.67303 0.247349 0.624308
0.823484 0.270191 0.589014
0.0604715 0.48275 0.528008
0.145815 0.520989 0.59794
0.38114 0.521096 0.605997
0.609934 0.525093 0.581186
0.836805 0.519402 0.604501
0.105791 0.731533 0.592355
0.29662 0.744137 0.605417
0.34165 0.802563 0.596567
0.577996 0.802686 0.59295
0.794522 0.801328 0.607523
0.160418 0.977646 0.667872
0.347478 0.991241 0.6822
0.524697 1 0.699397
0.589502 1 0.632242
0.765942 1 0.599786
0 0.0155947 0.610178
0.194934 0.0230259 0.619135
0.377676 0.0379034 0.635462
0.543511 0.054139 0.653071
0.696727 0.0708019 0.670939
0.0269017 0.250492 0.665583
0.227481 0.260456 0.676539
0.414557 0.267979 0.752926
0.611444 0.273915 0.792782
0.750454 0.300282 0.75639
0.0638743 0.487511 0.721813
0.259251 0.498878 0.733898
0.3897 0.51725 0.869871
0.616266 0.51577 0.905821
0.831525 0.515953 0.90547
0.108843 0.736416 0.787427
0.299763 0.748989 0.800687
0.404791 0.7832 0.854902
0.57026 0.800229 0.892576
0.794614 0.800229 0.870588
0.163165 0.982498 0.864225
0.34995 0.996139 0.878859
0.527108 1 0.89633
0.575784 1 0.90132
0.75787 1 0.897047
0 0.0200961 0.804547
0.198169 0.0276188 0.814176
0.380697 0.0425269 0.830777
0.546319 0.058793 0.8486
0.699428 0.0754711 0.866819
0.030518 0.254932 0.86099
0.230304 0.265095 0.872312
0.411353 0.280446 0.88896
0.579049 0.297246 0.907073
0.731289 0.314183 0.925124
0.0670481 0.492058 0.918105
0.261952 0.503532 0.930648
0.441764 0.519249 0.947478
0.610788 0.532723 1
0.787976 0.537011 1
0.111559 0.741146 0.984802
0.302235 0.753704 0.998672
0.48072 0.769818 1
0.606943 0.792111 1
0.78143 0.796689 1
0.165682 0.987121 1
0.352193 1 1
0.52929 1 1
0.665965 1 1
0.753277 1 1
