site/assets/luts/freshluts--0001796-correction-cannon.cube
# LUTr-Schema-Version: 2
# LUTr-ID: freshluts--0001796-correction-cannon
# LUTr-Title: correction cannon
# LUTr-Collection: Fresh LUTs
# LUTr-Collection-ID: freshluts-community
# LUTr-Source: https://freshluts.com
# LUTr-Retrieved: 2026-07-27
# LUTr-Source-File: submissions-raw/freshluts/cubes/1796__cannon_wide_shot_1.2H0A9763.cube
# LUTr-Source-Format: CUBE
# LUTr-Source-SHA256: d3542a463e953035dd57b3cd9f75caf2450e9963285ca4eb3c74161b35a3a332
# LUTr-License: CC0-1.0
# LUTr-License-URL: https://freshluts.com/termsandconditions
# LUTr-License-Basis: site-terms
# LUTr-Transform-Class: creative-look
# LUTr-Tags: creative, freshluts, community, cube, yellow, rec709, correction
# LUTr-Input-Color-Space: rec709
# LUTr-Input-Gamut: rec709
# LUTr-Input-Transfer: rec709
# LUTr-Output-Color-Space: srgb
# LUTr-Output-Gamut: rec709
# LUTr-Output-Transfer: srgb
# LUTr-Color-Space-Confidence: inferred-from-source-label
# LUTr-Domain-Normalized: true
# LUTr-Shaper: none
# LUTr-Original-Grid: 33x33x33
# LUTr-Conversion-Grid: 33x33x33
# LUTr-Conversion-Interpolation: none
# LUTr-Conversion-Method: Metadata normalization; numeric LUT samples preserved
# LUTr-Conversion-Tool: LUTr scripts/convert-all-to-cube.mjs 2.0.0
# LUTr-Conversion-Date: 2026-07-28
# LUTr-Asset-URL: https://freshluts.com/luts/1796
# LUTr-Author: lvannoeun@gmail.com
# LUTr-Author-URL: https://freshluts.com/users/57563
# LUTr-Attribution: lvannoeun@gmail.com via Fresh LUTs
# LUTr-Source-Labels: gamma=Rec 709; color=Yellow; key=Neutral; style=Drama
# LUTr-Note: Preserve this metadata and the upstream license notices when redistributing.
TITLE "correction cannon"
LUT_3D_SIZE 5
DOMAIN_MIN 0 0 0
DOMAIN_MAX 1 1 1
0 0 0
0.256168 0 0
0.458946 0 0
0.579019 0.00427253 0
0.770535 0.0302281 0.0084535
0 0.295949 0
0.216388 0.275395 0.119219
0.428183 0.299947 0.100557
0.609522 0.326818 0.112505
0.786068 0.354711 0.123995
0 0.546075 0.0669718
0.312139 0.523644 0.208118
0.498421 0.542153 0.291661
0.640452 0.573297 0.333623
0.793729 0.605142 0.324468
0.0951705 0.754894 0.200046
0.425116 0.739528 0.329335
0.613291 0.750927 0.42504
0.747219 0.777157 0.481071
0.87126 0.808804 0.495949
0.169833 0.975982 0.268147
0.518975 0.946105 0.413245
0.718456 0.946792 0.515328
0.856916 0.966323 0.574136
0.976135 0.993713 0.609384
0 0 0.430777
0.27422 0 0.372915
0.529366 0 0.321523
0.651606 0 0.28278
0.807019 0.0248722 0.284825
0 0.325093 0.361669
0.224521 0.285786 0.325277
0.543755 0.279347 0.296513
0.773754 0.292836 0.293431
0.890776 0.335515 0.328527
0 0.609918 0.310994
0.210437 0.576028 0.313207
0.512245 0.556771 0.428397
0.716258 0.576898 0.392721
0.906355 0.59649 0.390692
0 0.817014 0.369833
0.262318 0.815991 0.359564
0.587396 0.783246 0.484123
0.763943 0.794751 0.553994
0.904479 0.819409 0.583185
0.0426947 1 0.436622
0.396887 1 0.480171
0.670298 0.984253 0.570291
0.856138 0.986252 0.661128
0.988968 1 0.723262
0 0 0.631266
0.242985 0 0.633539
0.491691 0 0.57554
0.648386 0 0.524773
0.820844 0.0251011 0.518257
0 0.306035 0.672908
0.214115 0.280644 0.687053
0.556664 0.269154 0.637201
0.819074 0.27541 0.604395
0.96434 0.316136 0.570809
0 0.595575 0.623316
0.120653 0.597894 0.629587
0.516686 0.565225 0.597467
0.799603 0.560189 0.573846
1 0.567727 0.564385
0 0.827756 0.617182
0.108522 0.865034 0.577401
0.499718 0.824063 0.583535
0.771618 0.803372 0.685512
0.962341 0.819532 0.645304
0 1 0.646265
0.237858 1 0.612863
0.526787 1 0.606683
0.832029 1 0.723384
1 1 0.786999
0 0 0.737942
0.199268 0 0.745342
0.440024 0 0.723552
0.633005 0.00518807 0.706249
0.829114 0.0297398 0.719524
0 0.294011 0.818006
0.216098 0.284016 0.918776
0.545556 0.272389 0.904738
0.796933 0.282551 0.860029
0.963287 0.318303 0.811399
0 0.574228 0.830869
0.145068 0.58613 0.930632
0.506615 0.561227 0.918975
0.810819 0.551415 0.874922
1 0.553597 0.849149
0 0.821942 0.841596
0.121508 0.854948 0.877562
0.423697 0.841321 0.868193
0.772992 0.810498 0.836286
1 0.804257 0.814008
0 1 0.863798
0.196399 1 0.851331
0.393729 1 0.812909
0.749645 1 0.817304
1 1 0.913649
0 0 0.932128
0.196979 0 0.90486
0.436408 0 0.890242
0.646494 0.010544 0.889937
0.842039 0.0355383 0.900618
0 0.297673 0.986847
0.23151 0.29836 1
0.512093 0.296269 1
0.749569 0.307546 1
0.929854 0.33756 0.980957
0 0.573526 1
0.212375 0.576257 1
0.506874 0.562753 1
0.805936 0.551705 1
1 0.556802 1
0 0.824735 1
0.203174 0.833463 1
0.437888 0.831724 1
0.762173 0.806531 1
1 0.795834 1
0 1 1
0.246983 1 1
0.396597 1 1
0.683604 1 1
1 1 1
