site/assets/luts/freshluts--0000128-softsknn.cube
# LUTr-Schema-Version: 2
# LUTr-ID: freshluts--0000128-softsknn
# LUTr-Title: softSKNN
# LUTr-Collection: Fresh LUTs
# LUTr-Collection-ID: freshluts-community
# LUTr-Source: https://freshluts.com
# LUTr-Retrieved: 2026-07-27
# LUTr-Source-File: submissions-raw/freshluts/cubes/128__softSKNN.cube
# LUTr-Source-Format: CUBE
# LUTr-Source-SHA256: 6508819253d737e1278dcfa3a581ff5e1102d51106865bf105097e4e241b8e46
# LUTr-License: CC0-1.0
# LUTr-License-URL: https://freshluts.com/termsandconditions
# LUTr-License-Basis: site-terms
# LUTr-Transform-Class: creative-look
# LUTr-Tags: creative, freshluts, community, cube, yellow, arri-logc3-ei800
# LUTr-Input-Color-Space:
# LUTr-Input-Gamut: arri-wide-gamut-3
# LUTr-Input-Transfer: arri-logc3-ei800
# LUTr-Output-Color-Space: srgb
# LUTr-Output-Gamut: rec709
# LUTr-Output-Transfer: srgb
# LUTr-Color-Space-Confidence: camera-profile-input-required
# LUTr-Domain-Normalized: true
# LUTr-Shaper: none
# LUTr-Original-Grid: 33x33x33
# LUTr-Conversion-Grid: 33x33x33
# LUTr-Conversion-Interpolation: none
# LUTr-Conversion-Method: Metadata normalization; numeric LUT samples preserved
# LUTr-Conversion-Tool: LUTr scripts/convert-all-to-cube.mjs 2.0.0
# LUTr-Conversion-Date: 2026-07-28
# LUTr-Asset-URL: https://freshluts.com/luts/128
# LUTr-Author: Remzi Bayram
# LUTr-Author-URL: https://freshluts.com/users/326
# LUTr-Attribution: Remzi Bayram via Fresh LUTs
# LUTr-Source-Labels: gamma=Arri log c; color=Yellow; key=Neutral; style=Retro
# LUTr-Note: Preserve this metadata and the upstream license notices when redistributing.
TITLE "softSKNN"
LUT_3D_SIZE 5
DOMAIN_MIN 0 0 0
DOMAIN_MAX 1 1 1
0 0 0
0 0 0
0.180652 0 0.0263523
1 0 0.0580911
1 0 0.0824292
0 0.351354 0.0111238
0.391821 0.356741 0.0156252
0.896849 0.322591 0
1 0.281331 0
1 0.274342 0
0 0.770794 0
0.29041 0.753857 0
0.769146 0.739544 0
1 0.802014 0.0505531
1 1 0.948211
0.551568 1 0.57583
1 1 1
1 1 1
1 1 1
1 1 1
1 1 1
1 1 1
1 1 1
1 1 1
1 1 1
0 0 0
0 0 0
0.519036 0 0.209491
1 0 0.38027
1 0 0.401679
0 0.366705 0.30959
0.397238 0.361074 0.302129
0.908339 0.319249 0.255543
1 0.278859 0.215122
1 0.274083 0.21033
0 0.772427 0.216831
0.295613 0.75906 0.203449
0.784375 0.754772 0.198962
1 0.905013 0.637766
1 1 1
0.879225 1 0.932708
1 1 1
1 1 1
1 1 1
1 1 1
1 1 1
1 1 1
1 1 1
1 1 1
1 1 1
0 0 0
0 0 0
0.749401 0 0.556466
1 0 0.734707
1 0 0.755901
0 0.370947 0.648295
0.395422 0.360388 0.637736
0.876249 0.322698 0.613428
1 0.277592 0.582727
1 0.274739 0.581949
0 0.770947 0.549813
0.298451 0.761898 0.540764
0.812421 0.782986 0.563012
1 1 0.973144
1 1 1
0.950103 1 1
1 1 1
1 1 1
1 1 1
1 1 1
1 1 1
1 1 1
1 1 1
1 1 1
1 1 1
0 0 0
0.0652323 0 0.156115
0.882551 0 1
1 0 1
1 0 1
0 0.355444 1
0.375555 0.34052 1
0.836484 0.308415 1
1 0.280095 1
1 0.282902 1
0 0.752514 1
0.286885 0.750332 1
0.836957 0.810742 1
1 1 1
1 1 1
1 1 1
1 1 1
1 1 1
1 1 1
1 1 1
1 1 1
1 1 1
1 1 1
1 1 1
1 1 1
0 0 0
0.207874 0 0.832242
0.919036 0 1
1 0 1
1 0 1
0 0.327916 1
0.34519 0.31017 1
0.806058 0.277989 1
1 0.252766 1
1 0.270985 1
0 0.725917 1
0.270985 0.734447 1
0.902708 0.887724 1
1 1 1
1 1 1
1 1 1
1 1 1
1 1 1
1 1 1
1 1 1
1 1 1
1 1 1
1 1 1
1 1 1
1 1 1
