site/assets/luts/freshluts--0000766-correctionwarmsony-footage.cube
# LUTr-Schema-Version: 2
# LUTr-ID: freshluts--0000766-correctionwarmsony-footage
# LUTr-Title: correction.warm(sony footage)
# LUTr-Collection: Fresh LUTs
# LUTr-Collection-ID: freshluts-community
# LUTr-Source: https://freshluts.com
# LUTr-Retrieved: 2026-07-27
# LUTr-Source-File: submissions-raw/freshluts/cubes/766__warm-correction_4.D6_C03_S001_S001_T023.cube
# LUTr-Source-Format: CUBE
# LUTr-Source-SHA256: 463928d51629147411e0b0a7867b8ae8481289ab01c410e71e38ba4a7beb2bf7
# LUTr-License: CC0-1.0
# LUTr-License-URL: https://freshluts.com/termsandconditions
# LUTr-License-Basis: site-terms
# LUTr-Transform-Class: creative-look
# LUTr-Tags: creative, freshluts, community, cube, warm, sony-s-log1, correction
# LUTr-Input-Color-Space: sony-slog1-sgamut
# LUTr-Input-Gamut: sony-s-gamut
# LUTr-Input-Transfer: sony-s-log1
# LUTr-Output-Color-Space: srgb
# LUTr-Output-Gamut: rec709
# LUTr-Output-Transfer: srgb
# LUTr-Color-Space-Confidence: inferred-from-source-label
# LUTr-Domain-Normalized: true
# LUTr-Shaper: none
# LUTr-Original-Grid: 33x33x33
# LUTr-Conversion-Grid: 33x33x33
# LUTr-Conversion-Interpolation: none
# LUTr-Conversion-Method: Metadata normalization; numeric LUT samples preserved
# LUTr-Conversion-Tool: LUTr scripts/convert-all-to-cube.mjs 2.0.0
# LUTr-Conversion-Date: 2026-07-28
# LUTr-Asset-URL: https://freshluts.com/luts/766
# LUTr-Author: lvannoeun@gmail.com
# LUTr-Author-URL: https://freshluts.com/users/57563
# LUTr-Attribution: lvannoeun@gmail.com via Fresh LUTs
# LUTr-Source-Labels: gamma=Sony S-Log; color=Warm; key=Neutral; style=Correction
# LUTr-Note: Preserve this metadata and the upstream license notices when redistributing.
TITLE "correction.warm(sony footage)"
LUT_3D_SIZE 33
DOMAIN_MIN 0 0 0
DOMAIN_MAX 1 1 1
0 0 0
0 0 0
0 0 0
0 0 0
0 0 0
0.00437934 0 0
0.065507 0 0
0.132753 0 0
0.205814 0 0
0.287572 0 0
0.377752 0 0
0.47985 0 0
0.578454 0 0
0.673808 0 0
0.765652 0 0
0.856504 0 0
0.947295 0 0
1 0 0
1 0 0
1 0 0
1 0 0
1 0 0
1 0 0
1 0 0
1 0 0
1 0 0
1 0 0
1 0 0
1 0 0
1 0 0
1 0 0
1 0 0
1 0 0
0 0 0
0 0 0
0 0 0
0 0 0
0 0 0
0.0107424 0 0
0.0750896 0 0
0.147524 0 0
0.232975 0 0
0.316793 0 0
0.404654 0 0
0.495445 0 0
0.587625 0 0
0.679423 0 0
0.769146 0 0
0.858167 0 0
0.947311 0 0
1 0 0
1 0 0
1 0 0
1 0 0
1 0 0
1 0 0
1 0 0
1 0 0
1 0 0
1 0 0
1 0 0
1 0 0
1 0 0
1 0 0
1 0 0
1 0 0
0 0 0
0 0 0
0 0 0
0 0 0
0 0 0
0.0492866 0 0
0.109636 0 0
0.175402 0 0
0.248371 0 0
0.327703 0 0
0.41268 0 0
0.501472 0 0
0.592233 0 0
0.683055 0 0
0.771634 0 0
0.859892 0 0
0.948592 0 0
1 0 0
1 0 0
1 0 0
1 0 0
1 0 0
1 0 0
1 0 0
1 0 0
1 0 0
1 0 0
1 0 0
1 0 0
1 0 0
1 0 0
1 0 0
1 0 0
0 0 0
0 0 0
0 0 0
0 0 0
0.00433356 0 0
0.0683757 0 0
0.131426 0 0
0.193668 0 0
0.26096 0 0
0.334386 0 0
0.416571 0 0
0.504341 0 0
0.59472 0 0
0.684962 0 0
0.773175 0 0
0.860914 0 0
0.949599 0 0
1 0 0
1 0 0
1 0 0
1 0 0
1 0 0
1 0 0
1 0 0
1 0 0
1 0 0
1 0 0
1 0 0
1 0 0
1 0 0
1 0 0
1 0 0
1 0 0
0 0.000320439 0
0 0.00228885 0
0 0.0040589 0
0 0.00541695 0
0.00357061 0.00543221 0
0.0652018 0.00355535 0
0.135592 0 0
0.205203 0 0
0.274479 0 0
0.347631 0 0
0.425193 0 0
0.508415 0 0
0.596262 0 0
0.68574 0 0
0.773953 0 0
0.861738 0 0
0.950668 0 0
1 0 0
1 0 0
1 0 0
1 0 0
1 0 0
1 0 0
1 0 0
1 0 0
1 0 0
1 0 0
1 0 0
1 0 0
1 0 0
1 0 0
1 0 0
1 0 0
0 0.0590372 0
0 0.0592355 0
0 0.0597086 0
0 0.0602121 0
0.00250248 0.0606394 0
0.0584421 0.0598611 0
0.123766 0.0560311 0
0.20148 0.0477913 0
0.279072 0.0398871 0
0.358221 0.0321965 0
0.436118 0.0261387 0
0.519158 0.0193332 0
0.60235 0.0124208 0
0.6878 0.00482185 0
0.773892 0 0
0.861189 0 0
0.950164 0 0
1 0 0
1 0 0
1 0 0
1 0 0
1 0 0
1 0 0
1 0 0
1 0 0
1 0 0
1 0 0
1 0 0
1 0 0
1 0 0
1 0 0
1 0 0
1 0 0
0 0.115648 0
0 0.115267 0
0 0.115358 0
0 0.116014 0
0 0.115755 0
0.052903 0.114855 0
0.112734 0.112978 0
0.183581 0.10779 0
0.269245 0.0976272 0
0.356023 0.0874037 0
0.443702 0.0776379 0
0.527443 0.0702525 0
0.612863 0.0631418 0
0.697246 0.0561685 0
0.778866 0.0501564 0
0.862272 0.0436103 0
0.949203 0.0362097 0
1 0.0278935 0
1 0.0198672 0
1 0.0124208 0
1 0.00572213 0
1 0.000213626 0
1 0 0
1 0 0
1 0 0
1 0 0
1 0 0
1 0 0
1 0 0
1 0 0
1 0 0
1 0 0
1 0 0
0 0.173007 0
0 0.172427 0
0 0.172778 0
0 0.173129 0
0 0.173083 0
0.0429236 0.172412 0
0.102922 0.170809 0
0.168643 0.167926 0
0.246036 0.161608 0
0.339879 0.149767 0
0.435798 0.137377 0
0.529397 0.126345 0
0.620066 0.116884 0
0.703716 0.11043 0
0.787732 0.103685 0
0.870588 0.0977646 0
0.953674 0.0920729 0
1 0.0860151 0
1 0.0794842 0
1 0.0726482 0
1 0.0665141 0
1 0.0612192 0
1 0.0571298 0
1 0.0541238 0
1 0.052079 0
1 0.050782 0
1 0.0506905 0
1 0.0510719 0
1 0.0518196 0
1 0.052903 0
1 0.0536355 0
1 0.0543069 0
1 0.0546578 0
0 0.232425 0
0 0.232303 0
0 0.232792 0
0 0.233295 0
0 0.233661 0
0.0287022 0.233417 0
0.0890211 0.232151 0
0.15494 0.229557 0
0.227085 0.225574 0
0.311269 0.217945 0
0.412314 0.204578 0
0.515358 0.190524 0
0.612924 0.178302 0
0.706569 0.167773 0
0.791882 0.16051 0
0.874189 0.154788 0
0.959579 0.148058 0
1 0.141848 0
1 0.136339 0
1 0.130983 0
1 0.126085 0
1 0.121584 0
1 0.117845 0
1 0.1149 0
1 0.112657 0
1 0.111162 0
1 0.110613 0
1 0.110491 0
1 0.110674 0
1 0.111147 0
1 0.111238 0
1 0.111147 0
1 0.11075 0
0 0.29514 0
0 0.295186 0
0 0.295933 0
0 0.296727 0
0 0.297383 0
0.00941482 0.29749 0
0.0701152 0.29662 0
0.136263 0.294286 0
0.20856 0.290501 0
0.287236 0.285115 0
0.377478 0.276173 0
0.48304 0.261952 0
0.590799 0.246754 0
0.690562 0.234058 0
0.783856 0.222995 0
0.874693 0.213382 0
0.959487 0.206378 0
1 0.200031 0
1 0.193042 0
1 0.186679 0
1 0.181674 0
1 0.177722 0
1 0.174731 0
1 0.172412 0
1 0.170489 0
1 0.169146 0
1 0.168551 0
1 0.168185 0
1 0.168139 0
1 0.168078 0
1 0.167865 0
1 0.167071 0
1 0.166064 0
0 0.361212 0
0 0.361669 0
0 0.3626 0
0 0.363684 0
0 0.364599 0
0 0.364935 0
0.0471809 0.364263 0
0.113527 0.362127 0
0.185595 0.35816 0
0.264271 0.352895 0
0.348775 0.345922 0
0.442741 0.335897 0
0.549203 0.321431 0
0.658289 0.305364 0
0.758602 0.291402 0
0.853925 0.279545 0
0.947402 0.268345 0
1 0.257954 0
1 0.250523 0
1 0.244144 0
1 0.237705 0
1 0.232197 0
1 0.228092 0
1 0.225162 0
1 0.223148 0
1 0.221744 0
1 0.221225 0
1 0.220966 0
1 0.22092 0
1 0.22089 0
1 0.220798 0
1 0.220371 0
1 0.219562 0
0 0.429557 0
0 0.429938 0
0 0.431113 0
0 0.432486 0
0 0.433509 0
0 0.433967 0
0.0208896 0.433371 0
0.0871595 0.431205 0
0.159228 0.427253 0
0.237476 0.421698 0
0.321614 0.414481 0
0.409781 0.405982 0
0.504707 0.395209 0
0.609033 0.380728 0
0.716121 0.364096 0
0.819196 0.348837 0
0.917662 0.334997 0
1 0.322255 0
1 0.310521 0
1 0.299886 0
1 0.292378 0
1 0.286976 0
1 0.28217 0
1 0.27776 0
1 0.274235 0
1 0.271733 0
1 0.269978 0
1 0.269078 0
1 0.268742 0
1 0.26865 0
1 0.26865 0
1 0.268482 0
1 0.268025 0
0 0.499092 0
0 0.499931 0
0 0.501076 0
0 0.502235 0
0 0.50309 0
0 0.503319 0
0 0.502449 0
0.0585641 0.499947 0
0.130205 0.495613 0
0.207996 0.489662 0
0.2916 0.481987 0
0.379156 0.473014 0
0.468421 0.463386 0
0.562341 0.451926 0
0.662226 0.437415 0
0.768353 0.420615 0
0.874418 0.403342 0
0.97464 0.38761 0
1 0.373556 0
1 0.360861 0
1 0.349554 0
1 0.339849 0
1 0.332677 0
1 0.32813 0
1 0.324987 0
1 0.322438 0
1 0.320394 0
1 0.3187 0
1 0.317479 0
1 0.31635 0
1 0.315572 0
1 0.314733 0
1 0.31368 0
0 0.568643 0
0 0.569131 0
0 0.570153 0
0 0.570962 0
0 0.571466 0
0 0.571359 0
0 0.570092 0
0.0285801 0.567147 0
0.0995193 0.562264 0
0.176745 0.555871 0
0.259663 0.547631 0
0.346517 0.538064 0
0.434974 0.527825 0
0.523674 0.51722 0
0.614389 0.505089 0
0.712047 0.490623 0
0.817609 0.472969 0
0.923964 0.454322 0
1 0.43711 0
1 0.422095 0
1 0.409094 0
1 0.397971 0
1 0.388434 0
1 0.380728 0
1 0.374685 0
1 0.370474 0
1 0.368063 0
1 0.366613 0
1 0.365728 0
1 0.364782 0
1 0.363684 0
1 0.36228 0
1 0.360265 0
0 0.636606 0
0 0.636759 0
0 0.637385 0
0 0.637736 0
0 0.637842 0
0 0.637217 0
0 0.635416 0
0 0.631907 0
0.0683146 0.626413 0
0.144778 0.619394 0
0.226902 0.610498 0
0.312993 0.600244 0
0.400641 0.589303 0
0.488518 0.577981 0
0.574746 0.566751 0
0.664042 0.553903 0
0.761273 0.538582 0
0.864897 0.520668 0
0.969726 0.501762 0
1 0.48423 0
1 0.469108 0
1 0.456321 0
1 0.445701 0
1 0.436851 0
1 0.429557 0
1 0.423438 0
1 0.418616 0
1 0.414771 0
1 0.411749 0
1 0.409613 0
1 0.407996 0
1 0.406622 0
1 0.405127 0
0 0.703456 0
0 0.703136 0
0 0.703151 0
0 0.702998 0
0 0.702525 0
0 0.701289 0
0 0.698833 0
0 0.694667 0
0.0343786 0.688655 0
0.109819 0.680766 0
0.191135 0.671168 0
0.276371 0.660182 0
0.363272 0.648524 0
0.450568 0.636667 0
0.536278 0.62504 0
0.621775 0.613352 0
0.711894 0.600122 0
0.807843 0.584619 0
0.908309 0.566903 0
1 0.548531 0
1 0.531273 0
1 0.516304 0
1 0.503944 0
1 0.493706 0
1 0.485267 0
1 0.478325 0
1 0.472602 0
1 0.467674 0
1 0.463508 0
1 0.459678 0
1 0.456031 0
1 0.452522 0
1 0.448981 0
0 0.768856 0
0 0.76791 0
0 0.7673 0
0 0.766506 0
0 0.765332 0
0 0.763394 0
0 0.76022 0
0 0.755337 0
0 0.748699 0
0.0717479 0.740337 0
0.152483 0.730251 0
0.237064 0.718654 0
0.323613 0.706676 0
0.41059 0.694499 0
0.496025 0.682551 0
0.581018 0.670573 0
0.667262 0.658183 0
0.75671 0.644556 0
0.850187 0.629221 0
0.946426 0.612421 0
1 0.594903 0
1 0.5785 0
1 0.564157 0
1 0.552087 0
1 0.542184 0
1 0.533944 0
1 0.527138 0
1 0.52137 0
1 0.51632 0
1 0.511849 0
1 0.507439 0
1 0.503044 0
1 0.498421 0
0 0.831983 0
0 0.83035 0
0 0.829099 0
0 0.827741 0
0 0.825605 0
0 0.822934 0
0 0.819196 0
0 0.813886 0
0 0.806897 0
0.0322576 0.798245 0
0.112627 0.787869 0
0.197101 0.776181 0
0.283223 0.76379 0
0.36968 0.75111 0
0.454765 0.738811 0
0.539376 0.726467 0
0.625071 0.713741 0
0.710857 0.700877 0
0.798459 0.687099 0
0.888334 0.672206 0
0.979065 0.656565 0
1 0.640696 0
1 0.62565 0
1 0.612177 0
1 0.600549 0
1 0.590845 0
1 0.582727 0
1 0.575677 0
1 0.569512 0
1 0.564187 0
1 0.558984 0
1 0.553765 0
1 0.548363 0
0 0.89221 0
0 0.889815 0
0 0.887877 0
0 0.886 0
0 0.883711 0
0 0.88072 0
0 0.876448 0
0 0.870832 0
0 0.863539 0
0 0.854551 0
0.0727855 0.843839 0
0.156878 0.831815 0
0.24271 0.81912 0
0.328969 0.80621 0
0.413687 0.793561 0
0.497917 0.780835 0
0.583032 0.767529 0
0.668238 0.754314 0
0.752407 0.741222 0
0.83711 0.727611 0
0.922286 0.713466 0
1 0.699123 0
1 0.685008 0
1 0.671489 0
1 0.659144 0
1 0.648264 0
1 0.638804 0
1 0.630518 0
1 0.623178 0
1 0.616571 0
1 0.610437 0
1 0.604227 0
1 0.597986 0
0 0.949386 0
0 0.946639 0
0 0.944381 0
0 0.942199 0
0 0.93959 0
0 0.936263 0
0 0.931884 0
0 0.925933 0
0 0.918227 0
0 0.908721 0
0.0339208 0.897658 0
0.117586 0.885298 0
0.203052 0.872221 0
0.288914 0.858915 0
0.373327 0.845884 0
0.457145 0.832822 0
0.542031 0.819333 0
0.626902 0.805737 0
0.710567 0.792325 0
0.792096 0.779278 0
0.872831 0.766155 0
0.952178 0.753033 0
1 0.740139 0
1 0.727642 0
1 0.715648 0
1 0.70457 0
1 0.694499 0
1 0.685328 0
1 0.676905 0
1 0.669078 0
1 0.66186 0
1 0.654551 0
1 0.647425 0
0 1 0
0 1 0
0 0.998444 0
0 0.995911 0
0 0.992981 0
0 0.989303 0
0 0.984543 0
0 0.978271 0
0 0.970275 0
0 0.96054 0
0 0.949126 0
0.0804913 0.9364 0
0.165576 0.922927 0
0.250874 0.909102 0
0.334859 0.895628 0
0.418311 0.882246 0
0.5028 0.868345 0
0.587228 0.854368 0
0.670542 0.840574 0
0.751568 0.827237 0
0.82945 0.814557 0
0.905043 0.802213 0
0.978103 0.790249 0
1 0.77882 0
1 0.767697 0
1 0.757214 0
1 0.747311 0
1 0.737926 0
1 0.72903 0
1 0.720485 0
1 0.712154 0
1 0.70425 0
1 0.695903 0
0 1 0
0 1 0
0 1 0
0 1 0
0 1 0
0 1 0
0 1 0
0 1 0
0 1 0
0 1 0
0 0.997375 0
0.0460212 0.984298 0
0.13077 0.970474 0
0.215824 0.95642 0
0.299458 0.942611 0
0.382528 0.928817 0
0.466636 0.914595 0
0.550698 0.900236 0
0.633631 0.886046 0
0.71429 0.872358 0
0.791608 0.859373 0
0.864744 0.847333 0
0.934661 0.83592 0
1 0.824964 0
1 0.814694 0
1 0.804791 0
1 0.795468 0
1 0.786404 0
1 0.7776 0
1 0.769039 0
1 0.760449 0
1 0.751842 0
1 0.742748 0
0 1 0
0 1 0
0 1 0
0 1 0
0 1 0
0 1 0
0 1 0
0 1 0
0 1 0
0 1 0
0 1 0
0.0148928 1 0
0.0992752 1 0
0.183978 1 0
0.267216 0.986511 0
0.349874 0.972351 0
0.433616 0.957763 0
0.517311 0.943038 0
0.599832 0.928466 0
0.680171 0.914366 0
0.757122 0.901015 0
0.829633 0.888701 0
0.897414 0.877501 0
0.962066 0.867094 0
1 0.857069 0
1 0.847639 0
1 0.838727 0
1 0.830106 0
1 0.821958 0
1 0.813519 0
1 0.804929 0
1 0.796048 0
1 0.787106 0
0 1 0
0 1 0
0 1 0
0 1 0
0 1 0
0 1 0
0 1 0
0 1 0
0 1 0
0 1 0
0 1 0
0 1 0
0.0704967 1 0
0.154894 1 0
0.237842 1 0
0.320134 1 0
0.403479 0.99794 0
0.486824 0.982834 0
0.568963 0.967895 0
0.648905 0.953399 0
0.725521 0.939666 0
0.797696 0.927001 0
0.86508 0.915724 0
0.927703 0.905318 0
0.987076 0.895582 0
1 0.886442 0
1 0.878004 0
1 0.869825 0
1 0.861753 0
1 0.853666 0
1 0.84567 0
1 0.836957 0
1 0.827909 0
0 1 0
0 1 0
0 1 0
0 1 0
0 1 0
0 1 0
0 1 0
0 1 0
0 1 0
0 1 0
0 1 0
0 1 0
0.0446174 1 0
0.128557 1 0
0.211261 1 0
0.293111 1 0
0.376074 1 0
0.459022 1 0
0.540841 1 0
0.620447 0.989624 0
0.696941 0.975753 0
0.768856 0.962737 0
0.835752 0.950942 0
0.897795 0.940337 0
0.955779 0.930938 0
1 0.921996 0
1 0.913634 0
1 0.905653 0
1 0.898039 0
1 0.890242 0
1 0.882322 0
1 0.874144 0
1 0.865324 0
0 1 0
0 1 0
0 1 0
0 1 0
0 1 0
0 1 0
0 1 0
0 1 0
0 1 0
0 1 0
0 1 0
0 1 0
0.0212406 1 0
0.104814 1 0
0.187152 1 0
0.26862 1 0
0.351202 1 0
0.433845 1 0
0.51545 1 0
0.594858 1 0
0.670893 1 0
0.742535 0.995727 0
0.809384 0.983841 0
0.871168 0.972946 0
0.928344 0.96318 0
0.981598 0.95436 0
1 0.946319 0
1 0.938491 0
1 0.931044 0
1 0.923461 0
1 0.915694 0
1 0.907774 0
1 0.899016 0
0 1 0
0 1 0
0 1 0
0 1 0
0 1 0
0 1 0
0 1 0
0 1 0
0 1 0
0 1 0
0 1 0
0 1 0
0 1 0
0.0830396 1 0
0.164889 1 0
0.246036 1 0
0.328313 1 0
0.410819 1 0
0.492042 1 0
0.571099 1 0
0.647074 1 0
0.718471 1 0
0.784894 1 0
0.846647 1 0
0.903593 0.993408 0
0.956222 0.984451 0
1 0.976486 0
1 0.968734 0
1 0.961212 0
1 0.953964 0
1 0.94638 0
1 0.938674 0
1 0.930175 0
0 1 0
0 1 0
0 1 0
0 1 0
0 1 0
0 1 0
0 1 0
0 1 0
0 1 0
