site/assets/luts/freshluts--0001119-correctioncute-cute.cube
# LUTr-Schema-Version: 2
# LUTr-ID: freshluts--0001119-correctioncute-cute
# LUTr-Title: correction&cute cute
# LUTr-Collection: Fresh LUTs
# LUTr-Collection-ID: freshluts-community
# LUTr-Source: https://freshluts.com
# LUTr-Retrieved: 2026-07-27
# LUTr-Source-File: submissions-raw/freshluts/cubes/1119__1.cube
# LUTr-Source-Format: CUBE
# LUTr-Source-SHA256: 0e03d1c10e5cdc3dd4c9dccae3da6930a24132db2a7a1bc124611fa9caea7dbf
# LUTr-License: CC0-1.0
# LUTr-License-URL: https://freshluts.com/termsandconditions
# LUTr-License-Basis: site-terms
# LUTr-Transform-Class: creative-look
# LUTr-Tags: creative, freshluts, community, cube, sony-s-log2, correction
# LUTr-Input-Color-Space:
# LUTr-Input-Gamut: sony-s-gamut
# LUTr-Input-Transfer: sony-s-log2
# LUTr-Output-Color-Space: srgb
# LUTr-Output-Gamut: rec709
# LUTr-Output-Transfer: srgb
# LUTr-Color-Space-Confidence: camera-profile-input-required
# LUTr-Domain-Normalized: true
# LUTr-Shaper: none
# LUTr-Original-Grid: 16x16x16
# LUTr-Conversion-Grid: 16x16x16
# LUTr-Conversion-Interpolation: none
# LUTr-Conversion-Method: Metadata normalization; numeric LUT samples preserved
# LUTr-Conversion-Tool: LUTr scripts/convert-all-to-cube.mjs 2.0.0
# LUTr-Conversion-Date: 2026-07-28
# LUTr-Asset-URL: https://freshluts.com/luts/1119
# LUTr-Author: lvannoeun@gmail.com
# LUTr-Author-URL: https://freshluts.com/users/57563
# LUTr-Attribution: lvannoeun@gmail.com via Fresh LUTs
# LUTr-Source-Labels: gamma=Sony S-Log 2; color=None; key=Neutral; style=fresh
# LUTr-Note: Preserve this metadata and the upstream license notices when redistributing.
TITLE "correction&cute cute"
LUT_3D_SIZE 16
DOMAIN_MIN 0 0 0
DOMAIN_MAX 1 1 1
0 0 0
0 0 0
0 0 0
0.089441 0 0
0.239318 0 0
0.372873 0 0
0.50155 0.040966 0.051839
0.611074 0.129454 0.127102
0.692726 0.204593 0.204883
0.752267 0.26536 0.272043
0.79799 0.316092 0.330254
0.834477 0.35867 0.381156
0.864611 0.394418 0.424561
0.88377 0.422325 0.459054
0.885171 0.433324 0.474277
0.885171 0.433881 0.476886
0 0 0
0 0 0
0 0 0
0.087824 0 0
0.236812 0 0
0.370989 0 0
0.499906 0.042466 0.048222
0.60966 0.128387 0.125005
0.691527 0.203459 0.203119
0.7511 0.264135 0.270485
0.796796 0.314859 0.328744
0.8334 0.357481 0.379616
0.863539 0.393195 0.423124
0.883357 0.421457 0.458002
0.885171 0.433316 0.474228
0.885171 0.433869 0.476819
0 0 0
0 0 0
0 0 0
0.087136 0.034138 0
0.231928 0.044055 0
0.367634 0.039963 0
0.496026 0.060197 0.029558
0.605523 0.127521 0.11763
0.687326 0.199462 0.196829
0.747293 0.260082 0.265339
0.79312 0.310532 0.323444
0.829874 0.353256 0.374484
0.859887 0.38889 0.417856
0.881973 0.41873 0.45448
0.885171 0.432727 0.473109
0.885171 0.433876 0.476491
0 0.124209 0
0 0.121272 0
0 0.114528 0
0.08962 0.109297 0
0.230914 0.13094 0
0.363412 0.133494 0
0.489285 0.127371 0.0078
0.59894 0.145521 0.10797
0.682081 0.197888 0.189518
0.742573 0.255123 0.25871
0.788847 0.305669 0.317578
0.825917 0.348471 0.368731
0.856206 0.384642 0.412646
0.880554 0.415039 0.449856
0.885171 0.431411 0.471224
0.885171 0.433872 0.476093
0 0.264524 0
0 0.262369 0
0 0.256239 0
0.103367 0.247334 0
0.221332 0.238476 0
0.35547 0.242285 0
0.480679 0.231639 0.019323
0.58974 0.216668 0.102553
0.674699 0.225645 0.187533
0.737733 0.256233 0.254078
0.784979 0.30143 0.311972
0.822491 0.344771 0.364086
0.853162 0.380858 0.408046
0.879025 0.411564 0.445416
0.885171 0.430305 0.469623
0.885171 0.433817 0.475725
0.071692 0.394613 0.039592
0.070345 0.393132 0.037598
0.065338 0.387534 0.030405
0.093854 0.37991 0.021637
0.201579 0.369698 0.015082
0.33525 0.358985 0.025703
0.466093 0.348921 0.0645
0.577432 0.326982 0.121292
0.664313 0.305284 0.188184
0.730185 0.297292 0.255475
0.780601 0.310763 0.31288
0.819492 0.34181 0.359447
0.850616 0.37769 0.404101
0.876956 0.408849 0.442196
0.885171 0.429243 0.468176
0.885171 0.433672 0.475442
0.173529 0.517749 0.157442
0.172423 0.516318 0.156035
0.168025 0.510898 0.150652
0.163618 0.50408 0.143877
0.190718 0.495857 0.136507
0.293083 0.485194 0.131646
0.436617 0.474377 0.141521
0.56128 0.452538 0.175061
0.652562 0.422827 0.219808
0.720309 0.396762 0.268495
0.772481 0.37597 0.319009
0.814979 0.37351 0.371976
0.848291 0.379153 0.402404
0.875234 0.406906 0.439571
0.885171 0.428533 0.467223
0.885171 0.433679 0.475302
0.257486 0.623495 0.262031
0.256632 0.622313 0.260893
0.252219 0.616821 0.255368
0.24754 0.610995 0.249512
0.244843 0.605502 0.244297
0.269471 0.598563 0.241131
0.381879 0.588862 0.237432
0.530059 0.578937 0.247267
0.637379 0.551375 0.27456
0.708647 0.518543 0.306795
0.762514 0.486761 0.341432
0.806116 0.455309 0.377112
0.842364 0.430084 0.41648
0.872658 0.425041 0.448507
0.885171 0.428024 0.46608
0.885171 0.433645 0.475119
0.324426 0.704616 0.345617
0.323681 0.703841 0.344745
0.31985 0.699329 0.340018
0.315847 0.694611 0.334968
0.31212 0.690122 0.330289
0.31093 0.685994 0.326653
0.35668 0.680226 0.329938
0.477095 0.672203 0.329002
0.60665 0.664157 0.338842
0.694322 0.637766 0.360706
0.751306 0.604347 0.385055
0.796063 0.571965 0.409305
0.832325 0.534798 0.432112
0.864408 0.494289 0.457709
0.885171 0.468984 0.489162
0.885171 0.43388 0.474499
0.379098 0.767071 0.414012
0.378345 0.766334 0.413174
0.374799 0.762326 0.408639
0.37124 0.758379 0.404234
0.368308 0.754931 0.400528
0.365595 0.751941 0.397131
0.373342 0.748738 0.398012
0.441227 0.743431 0.403925
0.560046 0.737176 0.405901
0.666482 0.731074 0.414882
0.739108 0.707934 0.432579
0.786043 0.675762 0.451222
0.822808 0.643249 0.4675
0.854339 0.605322 0.481762
0.881258 0.555872 0.49335
0.885171 0.496895 0.50062
0.423894 0.815871 0.470009
0.423269 0.815223 0.469308
0.420069 0.81187 0.46527
0.416921 0.808531 0.461269
0.41421 0.805535 0.457933
0.412038 0.803168 0.455243
0.41071 0.80098 0.453015
0.438669 0.79811 0.465091
0.524468 0.793082 0.466417
0.6271 0.788184 0.470091
0.712788 0.783284 0.478475
0.775541 0.764294 0.492857
0.813718 0.733947 0.506445
0.845262 0.703864 0.517865
0.872139 0.670176 0.525609
0.885055 0.620093 0.519007
0.460901 0.855028 0.51637
0.460354 0.85441 0.5157
0.457487 0.851548 0.512103
0.454803 0.848602 0.508749
0.45262 0.846286 0.506007
0.45081 0.844357 0.503757
0.449294 0.842789 0.501806
0.450229 0.841128 0.501204
0.508603 0.837709 0.51975
0.596613 0.833403 0.519326
0.678921 0.829721 0.524494
0.75119 0.826041 0.532039
0.804642 0.810971 0.543389
0.837003 0.782697 0.553307
0.864008 0.755707 0.561033
0.88072 0.725746 0.559663
0.490798 0.886287 0.553967
0.490309 0.885831 0.553385
0.48781 0.883173 0.550229
0.48545 0.88058 0.547165
0.483374 0.878584 0.544632
0.482002 0.877104 0.542896
0.480638 0.87569 0.5412
0.479548 0.874491 0.53978
0.510109 0.872585 0.556397
0.574405 0.869082 0.561226
0.653727 0.865717 0.563441
0.722506 0.863033 0.56899
0.782126 0.859977 0.575809
0.828988 0.848324 0.584887
0.856477 0.823771 0.592298
0.875679 0.801467 0.595215
0.515641 0.912769 0.585404
0.515272 0.912334 0.584884
0.513039 0.910011 0.582109
0.510974 0.907853 0.5795
0.509241 0.905942 0.577234
0.508022 0.904523 0.575677
0.50689 0.903245 0.574282
0.505831 0.902313 0.57291
0.514584 0.901108 0.577527
0.565852 0.898603 0.597499
0.635059 0.89546 0.597505
0.701084 0.892946 0.60103
0.75762 0.890892 0.606568
0.808759 0.888216 0.612747
0.849373 0.879619 0.619835
0.869874 0.859688 0.623876
0.534413 0.93258 0.609234
0.534192 0.932324 0.608933
0.532427 0.930638 0.606759
0.530848 0.92921 0.604647
0.529499 0.927851 0.602982
0.528355 0.926613 0.601601
0.527737 0.925867 0.600699
0.527092 0.925081 0.599909
0.527531 0.924393 0.599592
0.564303 0.922779 0.622051
0.623708 0.919891 0.625943
0.686021 0.917648 0.627996
0.739868 0.915865 0.632401
0.788317 0.914117 0.637838
0.831034 0.912226 0.64338
0.863494 0.908068 0.647864
0.543145 0.937273 0.621432
0.54309 0.937273 0.621264
0.54266 0.937273 0.620613
0.542356 0.937273 0.619945
0.542095 0.937273 0.619517
0.541882 0.937229 0.619211
0.541604 0.936917 0.618807
0.541373 0.936942 0.618493
0.541296 0.936659 0.618223
0.563169 0.936421 0.63146
0.619269 0.93578 0.646355
0.677031 0.935173 0.647373
0.728433 0.933843 0.651072
0.774848 0.932597 0.656088
0.81557 0.931546 0.661471
0.847264 0.930184 0.666102
0 0 0
0 0 0
0 0 0
0.087986 0 0
0.238793 0 0
0.372629 0 0
0.50129 0.040266 0.06117
0.610747 0.129227 0.132374
0.692479 0.204416 0.207905
0.752082 0.265261 0.273653
0.797688 0.315952 0.330563
0.834342 0.358513 0.380913
0.864568 0.39425 0.424368
0.883648 0.422165 0.458954
0.885171 0.433331 0.474286
0.885171 0.433878 0.476908
0 0 0
0 0 0
0 0 0
0.086312 0 0
0.236342 0 0
0.369792 0 0
0.497858 0.040394 0.056741
0.608625 0.127492 0.129315
0.691415 0.203384 0.20584
0.751509 0.264568 0.272286
0.797485 0.315548 0.329755
0.834075 0.358284 0.380605
0.864487 0.394071 0.424139
0.883582 0.422126 0.458853
0.885171 0.433328 0.474264
0.885171 0.433856 0.476905
0 0 0
0 0 0
0 0 0
0.085293 0.032871 0
0.230814 0.040027 0
0.364548 0.015312 0
0.49333 0.057981 0.039521
0.603926 0.12614 0.121396
0.687154 0.199269 0.199367
0.747588 0.260584 0.266963
0.793615 0.311178 0.32444
0.830532 0.354035 0.375467
0.860642 0.389698 0.41884
0.882209 0.419349 0.455291
0.885171 0.432877 0.473304
0.885171 0.433877 0.47656
0 0.12228 0
0 0.119334 0
0 0.112197 0
0.087302 0.106906 0
0.227999 0.128372 0
0.360333 0.130338 0
0.486473 0.124674 0.015398
0.596898 0.143806 0.110675
0.681542 0.197317 0.19121
0.742819 0.255436 0.259764
0.789292 0.306216 0.318395
0.826338 0.34908 0.369341
0.856645 0.3852 0.413272
0.880865 0.415556 0.450473
0.885171 0.431567 0.471407
0.885171 0.433879 0.476109
0 0.263318 0
0 0.260914 0
0 0.254346 0
0.100267 0.245581 0
0.21957 0.236988 0
0.353195 0.240814 0
0.478142 0.230683 0.024508
0.588168 0.215769 0.104475
0.674829 0.225014 0.189101
0.73813 0.256234 0.254961
0.785282 0.301833 0.312669
0.823003 0.345104 0.364651
0.853547 0.381321 0.408528
0.879404 0.411929 0.445975
0.885171 0.430407 0.469731
0.885171 0.433806 0.475798
0.070866 0.39383 0.045473
0.06974 0.392518 0.043205
0.064753 0.386859 0.036357
0.090932 0.379183 0.025858
0.199812 0.368943 0.019353
0.334151 0.358198 0.028461
0.465425 0.348034 0.065117
0.577487 0.325571 0.121348
0.664695 0.303736 0.188629
0.730492 0.296101 0.256158
0.780962 0.309428 0.312484
0.819993 0.341911 0.359809
0.850813 0.378083 0.404561
0.877173 0.409175 0.442541
0.885171 0.429374 0.46826
0.885171 0.433723 0.475525
0.172948 0.51704 0.157133
0.172275 0.516145 0.156021
0.168037 0.510848 0.150666
0.163149 0.503876 0.143721
0.189453 0.495653 0.136303
0.291846 0.484821 0.131264
0.436131 0.473801 0.141087
0.561343 0.45169 0.174653
0.652705 0.421682 0.219556
0.720525 0.395298 0.268403
0.772904 0.374832 0.319283
0.815382 0.373101 0.372426
0.848633 0.379174 0.402636
0.875406 0.407125 0.439918
0.885171 0.428688 0.467356
0.885171 0.4337 0.475346
0.257054 0.622846 0.261425
0.256673 0.622446 0.260921
0.252471 0.617196 0.255684
0.247576 0.611061 0.249577
0.244557 0.605283 0.244086
0.268735 0.598422 0.241058
0.380653 0.588739 0.237156
0.529599 0.578502 0.246841
0.63735 0.550701 0.274187
0.708746 0.517565 0.306367
0.762654 0.485573 0.341123
0.80628 0.453922 0.377035
0.84269 0.429048 0.416694
0.872849 0.423915 0.447977
0.885171 0.428124 0.466202
0.885171 0.433675 0.475183
0.323859 0.704037 0.345071
0.323768 0.703984 0.344896
0.320137 0.69965 0.340382
0.315981 0.694696 0.335197
0.312143 0.69014 0.330348
0.310721 0.685815 0.326513
0.355489 0.680106 0.329741
0.476241 0.672019 0.32876
0.606337 0.6639 0.338599
0.694374 0.637241 0.3604
0.751334 0.603587 0.384702
0.796168 0.571007 0.409052
0.832547 0.533635 0.432013
0.864533 0.493142 0.457805
0.885171 0.468606 0.489468
0.885171 0.433858 0.474518
0.378665 0.766601 0.413435
0.378569 0.766577 0.413432
0.375235 0.762799 0.409245
0.371392 0.758559 0.404407
0.368284 0.754991 0.400613
0.365584 0.751946 0.397146
0.372644 0.748648 0.397684
0.440229 0.743406 0.403758
0.55933 0.736959 0.405616
0.666346 0.730846 0.414723
0.739049 0.707513 0.432391
0.786151 0.675264 0.450935
0.822957 0.642456 0.467227
0.854433 0.604317 0.481493
0.881282 0.554554 0.493217
0.885171 0.495896 0.500663
0.423503 0.815448 0.46954
0.423523 0.815506 0.469571
0.420441 0.812185 0.465737
0.417075 0.808551 0.461549
0.414234 0.805563 0.457969
0.412022 0.803167 0.45522
0.410631 0.801 0.452983
0.437925 0.798073 0.464658
0.523338 0.79302 0.466213
0.626619 0.788075 0.469854
0.712635 0.783087 0.478247
0.775454 0.764114 0.492593
0.813789 0.733574 0.506235
0.845399 0.703183 0.517676
0.872258 0.669521 0.525456
0.885024 0.618948 0.518676
0.460543 0.854614 0.515945
0.460578 0.854676 0.516002
0.457854 0.851713 0.512571
0.455017 0.848781 0.509009
0.452725 0.846431 0.50613
0.450849 0.844429 0.503766
0.449286 0.842764 0.501795
0.450106 0.841084 0.501131
0.507811 0.837735 0.519705
0.595943 0.833399 0.519158
0.678551 0.82972 0.524336
0.751045 0.825986 0.531864
0.804687 0.810817 0.543265
0.837063 0.782541 0.553139
0.864124 0.755232 0.5608
0.880745 0.725166 0.559412
0.490428 0.885912 0.553509
0.490583 0.885988 0.553601
0.488065 0.883538 0.550542
0.48554 0.880821 0.547372
0.48348 0.878656 0.544751
0.482009 0.877091 0.54287
0.480596 0.875642 0.541156
0.479453 0.874502 0.539762
0.509089 0.872535 0.555804
0.573694 0.869015 0.561125
0.653249 0.865744 0.563373
0.722298 0.86305 0.568986
0.782012 0.859954 0.575747
0.828946 0.848091 0.584769
0.856503 0.823551 0.592288
0.875733 0.801148 0.59503
0.515369 0.91236 0.584911
0.515442 0.912535 0.585139
0.513334 0.910283 0.582446
0.511144 0.907901 0.579641
0.509272 0.905967 0.577291
0.507998 0.904528 0.57568
0.5069 0.903282 0.574293
0.505841 0.9023 0.572857
0.51419 0.90115 0.577317
0.565162 0.898585 0.597509
0.634491 0.895396 0.597474
0.700585 0.892998 0.600881
0.757451 0.890747 0.606486
0.808723 0.888236 0.612725
0.849372 0.879364 0.619639
0.869889 0.859374 0.62366
0.534168 0.932337 0.608938
0.534237 0.932295 0.609049
0.53258 0.930984 0.606926
0.530897 0.929168 0.604771
0.529542 0.927825 0.602987
0.528362 0.926608 0.601608
0.527752 0.925934 0.600766
0.527095 0.925122 0.600003
0.52752 0.924425 0.599592
0.563035 0.922834 0.621166
0.623053 0.919914 0.625975
0.685519 0.917667 0.627795
0.739664 0.915838 0.632241
0.788254 0.914026 0.637779
0.831112 0.911989 0.643342
0.863476 0.907956 0.647723
0.543009 0.937273 0.621507
0.54313 0.937273 0.621403
0.542747 0.937273 0.620685
0.542397 0.937276 0.620035
0.542087 0.937273 0.619568
0.541859 0.937231 0.619188
0.541622 0.936928 0.618774
0.541423 0.936893 0.618559
0.541293 0.936666 0.61823
0.56215 0.936525 0.630882
0.618631 0.935791 0.646363
0.676549 0.935164 0.647299
0.727986 0.933814 0.650972
0.774712 0.93254 0.655988
0.815376 0.931519 0.661424
0.847203 0.930233 0.666061
0 0 0
0 0 0
0 0 0
0.08321 0 0
0.238068 0 0
0.372779 0 0.052682
0.501316 0.038802 0.100968
0.61028 0.128888 0.155559
0.692 0.203922 0.22027
0.751753 0.26483 0.280246
0.797514 0.315562 0.333591
0.834089 0.358274 0.381221
0.864152 0.393847 0.423831
0.883561 0.421964 0.458622
0.885171 0.433302 0.474265
0.885171 0.433879 0.476909
0 0 0
0 0 0
0 0 0
0.081207 0 0
0.235129 0 0
0.369671 0 0.048685
0.497832 0.038228 0.097107
0.607966 0.126954 0.152251
0.690681 0.202722 0.217891
0.751095 0.264136 0.278816
0.797058 0.315142 0.332699
0.833787 0.357829 0.380713
0.86403 0.393576 0.423579
0.88345 0.421867 0.458517
0.885171 0.433329 0.474243
0.885171 0.433871 0.476877
0 0 0
0 0 0
0 0 0
0.079593 0 0
0.228724 0 0
0.362376 0.00206 0.030463
0.485473 0.050046 0.080297
0.597159 0.120449 0.139224
0.684478 0.19662 0.207904
0.74808 0.261012 0.273399
0.795248 0.313057 0.329257
0.832654 0.356438 0.378774
0.863117 0.392532 0.422319
0.883382 0.421697 0.458149
0.885171 0.433319 0.474161
0.885171 0.433873 0.476813
0 0.114203 0
0 0.111075 0
0 0.103849 0
0.079633 0.097988 0
0.223108 0.113752 0
0.352505 0.113189 0
0.476956 0.112117 0.050341
0.588776 0.137864 0.123811
0.677362 0.19343 0.196721
0.743184 0.255835 0.265838
0.790269 0.307415 0.322207
0.827998 0.35097 0.372095
0.858414 0.387141 0.41573
0.8821 0.417696 0.453084
0.885171 0.431982 0.472123
0.885171 0.433862 0.476363
0 0.258351 0.035527
0 0.25605 0.033433
0 0.24699 0.02144
0.085446 0.238157 0
0.213839 0.230691 0
0.345224 0.234023 0.002032
0.467783 0.226679 0.046348
0.577738 0.214546 0.111455
0.669234 0.224104 0.193868
0.738657 0.255534 0.259547
0.786352 0.302977 0.316164
0.824209 0.34673 0.366821
0.854774 0.382792 0.41041
0.880543 0.413438 0.447825
0.885171 0.430744 0.470232
0.885171 0.433846 0.476039
0.067791 0.390543 0.070048
0.066711 0.389312 0.067424
0.061582 0.383394 0.06012
0.080597 0.375287 0.044331
0.194381 0.365228 0.036072
0.329052 0.355056 0.041721
0.45795 0.346453 0.072953
0.569009 0.326132 0.123679
0.662351 0.300947 0.191333
0.731573 0.292882 0.261137
0.782181 0.304924 0.312164
0.821118 0.342859 0.361575
0.851842 0.379207 0.405998
0.878188 0.410357 0.443992
0.885171 0.429702 0.468774
0.885171 0.433818 0.475685
0.170949 0.514635 0.157804
0.170211 0.513595 0.156661
0.167115 0.509706 0.152096
0.162007 0.502485 0.144849
0.185052 0.494291 0.13712
0.287495 0.483213 0.131541
0.432062 0.472096 0.140693
0.557809 0.450482 0.173168
0.652578 0.417773 0.218851
0.721345 0.389965 0.268566
0.774089 0.370266 0.32053
0.816384 0.371576 0.374067
0.849446 0.379275 0.403449
0.876327 0.408146 0.441166
0.885171 0.42892 0.467768
0.885171 0.433807 0.475506
0.255304 0.620839 0.259331
0.254899 0.620284 0.258874
0.253137 0.617996 0.256587
0.247661 0.611248 0.249747
0.243681 0.604879 0.243651
0.265778 0.59793 0.240571
0.375971 0.587784 0.235906
0.527896 0.577003 0.245282
0.637213 0.547972 0.272658
0.709382 0.51367 0.304843
0.763552 0.480669 0.339767
0.807377 0.448779 0.376711
0.843744 0.42505 0.417471
0.873699 0.420018 0.44585
0.885171 0.428339 0.466615
0.885171 0.433691 0.475308
0.32261 0.702543 0.343458
0.322369 0.70229 0.343136
0.320997 0.700678 0.341458
0.316409 0.695246 0.335652
0.312232 0.690257 0.330458
0.3101 0.685488 0.32607
0.350677 0.679692 0.329076
0.472469 0.671473 0.32789
0.605196 0.662686 0.337268
0.69428 0.635245 0.359194
0.751709 0.600612 0.383482
0.796715 0.567043 0.407965
0.833317 0.528997 0.431379
0.865494 0.488891 0.458255
0.885171 0.464342 0.487121
0.885171 0.433866 0.474804
0.377468 0.765288 0.411942
0.37718 0.765026 0.411657
0.376543 0.764179 0.410798
0.372178 0.759299 0.40537
0.368302 0.75518 0.400628
0.365595 0.751906 0.397104
0.369942 0.748531 0.396355
0.435844 0.742991 0.403204
0.556548 0.73658 0.404817
0.665623 0.729987 0.413869
0.739002 0.706014 0.431421
0.786311 0.673035 0.45
0.82339 0.639799 0.466409
0.855025 0.600371 0.480504
0.881521 0.549314 0.492436
0.885171 0.49184 0.500823
0.42244 0.814342 0.468179
0.422279 0.814241 0.467996
0.421765 0.813608 0.467357
0.417849 0.809403 0.462405
0.414497 0.805738 0.458258
0.412047 0.803186 0.455196
0.410344 0.800844 0.452773
0.434805 0.797967 0.462918
0.51935 0.79279 0.465636
0.624715 0.787573 0.469126
0.71224 0.782656 0.477683
0.775447 0.762949 0.491841
0.814079 0.731947 0.505413
0.845733 0.700969 0.516753
0.872689 0.666458 0.524545
0.885029 0.614156 0.517426
0.459569 0.85361 0.51472
0.459517 0.853465 0.514587
0.459304 0.853322 0.514417
0.455655 0.849488 0.509872
0.452889 0.846498 0.506308
0.450882 0.844545 0.503833
0.449138 0.842654 0.501661
0.449731 0.840963 0.50091
0.504263 0.837655 0.519604
0.592929 0.833225 0.51858
0.677135 0.829455 0.523837
0.750619 0.8256 0.531365
0.804528 0.810009 0.542672
0.837225 0.78117 0.552486
0.864468 0.753706 0.560109
0.881024 0.722742 0.558443
0.48948 0.885017 0.552341
0.489477 0.884878 0.552252
0.489424 0.884883 0.552254
0.486208 0.88152 0.548243
0.483693 0.878899 0.544979
0.482011 0.877113 0.542923
0.480594 0.875598 0.541111
0.479287 0.874417 0.539523
0.505274 0.872481 0.553508
0.570266 0.868963 0.560806
0.651091 0.865504 0.562962
0.721193 0.86271 0.568452
0.781696 0.859548 0.57539
0.828834 0.847559 0.584376
0.856643 0.822523 0.591738
0.87578 0.799924 0.594376
0.514593 0.91168 0.584071
0.514581 0.911592 0.583987
0.514713 0.911756 0.58409
0.511746 0.908506 0.58047
0.509526 0.906178 0.577641
0.508006 0.904559 0.575721
0.50681 0.903283 0.574204
0.505746 0.902279 0.572891
0.512584 0.901066 0.576195
0.562092 0.898566 0.597461
0.631901 0.895367 0.59714
0.699235 0.892824 0.600426
0.756737 0.890596 0.606163
0.808499 0.887939 0.612423
0.849377 0.878974 0.619316
0.869978 0.858693 0.623311
0.533441 0.931595 0.608016
0.533477 0.931559 0.608013
0.533552 0.931689 0.60822
0.53134 0.92962 0.605356
0.529594 0.927955 0.603093
0.528516 0.926642 0.601664
0.527738 0.925815 0.600717
0.526967 0.924973 0.599751
0.527184 0.924249 0.59938
0.558126 0.922824 0.618013
0.620267 0.919883 0.625605
0.683967 0.917485 0.627487
0.738547 0.915821 0.631961
0.787626 0.913883 0.637492
0.830938 0.911867 0.643026
0.863475 0.90767 0.647448
0.542778 0.937273 0.622301
0.542798 0.937273 0.622098
0.542871 0.937273 0.621287
0.542524 0.937222 0.620316
0.542188 0.937273 0.619702
0.54191 0.937264 0.61926
0.541641 0.936941 0.618868
0.541449 0.936895 0.618502
0.541252 0.936695 0.61824
0.558243 0.936552 0.628418
0.615955 0.935856 0.646338
0.674705 0.935297 0.647183
0.726783 0.933792 0.650752
0.773787 0.932576 0.655739
0.814919 0.931422 0.661217
0.847158 0.930126 0.665892
0 0 0
0 0 0
0 0 0
0.075872 0 0.018277
0.238023 0 0.090382
0.373953 0 0.137277
0.501988 0.03802 0.174152
0.610513 0.129557 0.208531
0.691669 0.203874 0.252675
0.751221 0.264366 0.298546
0.797111 0.31516 0.34371
0.833806 0.357949 0.3857
0.864042 0.39355 0.424233
0.883404 0.421814 0.458431
0.885171 0.433302 0.474226
0.885171 0.433875 0.476865
0 0 0
0 0 0
0 0 0
0.073357 0 0.017583
0.234482 0 0.086899
0.370719 0 0.133684
0.498794 0.036528 0.170932
0.608513 0.127815 0.205628
0.690629 0.202828 0.250356
0.750643 0.263638 0.296811
0.796688 0.314712 0.342507
0.833511 0.357506 0.384824
0.863653 0.393268 0.423684
0.883447 0.421672 0.458274
0.885171 0.433326 0.474229
0.885171 0.43388 0.47689
0 0.023244 0
0 0.022139 0
0 0 0
0.069957 0 0.023557
0.226572 0 0.081159
0.363149 0 0.123176
0.487137 0.042984 0.158127
0.599097 0.121095 0.194424
0.684988 0.197377 0.240807
0.747471 0.260396 0.290286
0.794891 0.312527 0.337788
0.832173 0.355893 0.381375
0.862544 0.391996 0.421676
0.883307 0.421389 0.457778
0.885171 0.433294 0.474091
0.885171 0.433871 0.476771
0 0.099477 0.054309
0 0.096412 0.05115
0 0.089583 0.045658
0.068634 0.078605 0.047007
0.219817 0.077144 0.069316
0.353494 0.078976 0.098542
0.476397 0.093615 0.134546
0.584771 0.130283 0.17624
0.672498 0.188139 0.223938
0.739166 0.251659 0.276642
0.789223 0.306119 0.328208
0.828996 0.352182 0.375933
0.86033 0.389421 0.418494
0.883562 0.420541 0.456674
0.885171 0.432586 0.473106
0.885171 0.433881 0.476684
0 0.248271 0.119341
0 0.245881 0.117278
0 0.236782 0.10969
0.058909 0.227358 0.090864
0.207334 0.21931 0.084337
0.341422 0.21787 0.095392
0.463094 0.211717 0.121974
0.57468 0.208121 0.165729
0.665978 0.219256 0.216313
0.733476 0.250832 0.265761
0.784124 0.300379 0.319919
0.825191 0.347699 0.370364
0.856206 0.384515 0.412571
0.882481 0.41562 0.450432
0.885171 0.431301 0.471166
0.885171 0.43386 0.47621
0.062005 0.384159 0.145013
0.060843 0.382881 0.142836
0.055614 0.377114 0.136403
0.076201 0.365674 0.129442
0.185395 0.355718 0.113946
0.323667 0.346548 0.111936
0.452604 0.338558 0.124373
0.564083 0.32067 0.15434
0.655342 0.300213 0.205629
0.726543 0.294366 0.269073
0.780916 0.302579 0.315469
0.821807 0.343696 0.364938
0.8533 0.381094 0.408345
0.879804 0.412275 0.446215
0.885171 0.430264 0.469605
0.885171 0.433856 0.475968
0.167811 0.510771 0.18663
0.167054 0.509791 0.18403
0.163932 0.505829 0.174965
0.15774 0.497418 0.165409
0.180312 0.489097 0.157105
0.282955 0.47886 0.148867
0.42731 0.467807 0.154077
0.552011 0.447605 0.180303
0.64634 0.416898 0.221219
0.71772 0.387706 0.269455
0.774424 0.365332 0.324205
0.81769 0.366804 0.37408
0.850854 0.380046 0.405171
0.877597 0.409576 0.443029
0.885171 0.429432 0.468436
0.885171 0.433872 0.475688
0.253309 0.618313 0.26096
0.252691 0.617567 0.259463
0.250577 0.614921 0.25517
0.246549 0.609817 0.249727
0.241933 0.603297 0.243314
0.261319 0.595611 0.239373
0.369471 0.585388 0.234273
0.523944 0.574954 0.243714
0.634099 0.545429 0.269746
0.707978 0.509828 0.302116
0.764203 0.47367 0.337989
0.808833 0.439901 0.376114
