site/assets/luts/freshluts--0000201-nightcity.cube
# LUTr-Schema-Version: 2
# LUTr-ID: freshluts--0000201-nightcity
# LUTr-Title: NightCity
# LUTr-Collection: Fresh LUTs
# LUTr-Collection-ID: freshluts-community
# LUTr-Source: https://freshluts.com
# LUTr-Retrieved: 2026-07-27
# LUTr-Source-File: submissions-raw/freshluts/cubes/201__NightCity_1.H004_C006_1211TB.cube
# LUTr-Source-Format: CUBE
# LUTr-Source-SHA256: eaf94fbb09555fe289858dfddeab25fd032164036beea7bd5f64488ba8a93514
# LUTr-License: CC0-1.0
# LUTr-License-URL: https://freshluts.com/termsandconditions
# LUTr-License-Basis: site-terms
# LUTr-Transform-Class: creative-look
# LUTr-Tags: creative, freshluts, community, cube, cinematic, blockbuster, low-key, red-logfilm
# LUTr-Input-Color-Space:
# LUTr-Input-Gamut: red-wide-gamut-rgb
# LUTr-Input-Transfer: red-logfilm
# LUTr-Output-Color-Space: srgb
# LUTr-Output-Gamut: rec709
# LUTr-Output-Transfer: srgb
# LUTr-Color-Space-Confidence: camera-profile-input-required
# LUTr-Domain-Normalized: true
# LUTr-Shaper: none
# LUTr-Original-Grid: 33x33x33
# LUTr-Conversion-Grid: 33x33x33
# LUTr-Conversion-Interpolation: none
# LUTr-Conversion-Method: Metadata normalization; numeric LUT samples preserved
# LUTr-Conversion-Tool: LUTr scripts/convert-all-to-cube.mjs 2.0.0
# LUTr-Conversion-Date: 2026-07-28
# LUTr-Asset-URL: https://freshluts.com/luts/201
# LUTr-Author: escapes
# LUTr-Author-URL: https://freshluts.com/users/117
# LUTr-Attribution: escapes via Fresh LUTs
# LUTr-Source-Labels: gamma=RED Log Film; color=None; key=Low Key; style=Blockbuster
# LUTr-Note: Preserve this metadata and the upstream license notices when redistributing.
TITLE "NightCity"
LUT_3D_SIZE 5
DOMAIN_MIN 0 0 0
DOMAIN_MAX 1 1 1
0.00392157 0 0
0.0229191 0.0037995 0
0.21474 0.00517281 0.0235294
0.537346 0 0.0418402
0.789502 0 0.0839246
0.0188144 0.018616 0.0111696
0.0272374 0.0263218 0.0112154
0.220188 0.0071107 0.0252842
0.547066 0 0.042298
0.810727 0 0.0938888
0.090074 0.174884 0.103059
0.103914 0.204761 0.124285
0.25655 0.271641 0.104509
0.712306 0.253483 0.125246
0.879805 0.354437 0.22417
0.457679 0.648417 0.50544
0.509178 0.693233 0.564904
0.596582 0.685878 0.5944
0.656916 0.715541 0.50837
0.828428 0.743389 0.529412
0.705882 0.827451 0.784314
0.698619 0.823529 0.776471
0.747189 0.827451 0.797116
0.784314 0.84686 0.815885
0.819608 0.862745 0.819608
0.0166629 0.00637827 0.0127413
0.0293126 0.0130312 0.0154574
0.216098 0.00593576 0.0263371
0.537621 0 0.0418555
0.789502 0 0.0839246
0.0288548 0.02533 0.0180514
0.0366064 0.0326696 0.0210269
0.22266 0.00799573 0.0284123
0.555993 0 0.0431373
0.814862 0 0.100099
0.0934768 0.182818 0.108736
0.117098 0.225071 0.137224
0.285786 0.296818 0.123812
0.735363 0.285756 0.149142
0.879164 0.383307 0.250813
0.47306 0.658503 0.520119
0.523003 0.702235 0.58085
0.605142 0.694438 0.607507
0.661707 0.719448 0.51812
0.828183 0.746807 0.537774
0.701793 0.823529 0.780224
0.702602 0.82417 0.784268
0.748898 0.827451 0.807233
0.784314 0.847395 0.819745
0.819608 0.862745 0.823529
0.0960708 0.0607767 0.210788
0.0952316 0.063508 0.212421
0.300206 0.0766003 0.18117
0.584451 0.016022 0.1673
0.790265 0.0120241 0.179049
0.110277 0.0673838 0.21619
0.110796 0.0724498 0.219928
0.309346 0.0785687 0.188891
0.609979 0.0136721 0.186206
0.825666 0.0227665 0.247852
0.091722 0.243626 0.176852
0.120836 0.305211 0.225086
0.402457 0.351247 0.284123
0.732906 0.327077 0.293904
0.864988 0.397101 0.369268
0.486168 0.685695 0.557534
0.513634 0.726665 0.607996
0.623301 0.717418 0.637354
0.689067 0.723049 0.578576
0.837003 0.747448 0.601236
0.692287 0.836728 0.794644
0.694759 0.83917 0.798566
0.7514 0.838834 0.817594
0.804074 0.850385 0.842161
0.829206 0.866667 0.837049
0.228611 0.20116 0.598688
0.222675 0.208164 0.607584
0.40238 0.214786 0.560189
0.681315 0.253193 0.516518
0.846464 0.341009 0.533394
0.242878 0.194736 0.600717
0.236072 0.201968 0.607736
0.413901 0.217243 0.568826
0.711513 0.27863 0.555215
0.869978 0.432364 0.646586
0.286641 0.330846 0.529351
0.320409 0.399786 0.600381
0.506401 0.450401 0.639963
0.77229 0.529992 0.677562
0.852201 0.613199 0.737255
0.458885 0.737789 0.693355
0.488197 0.768277 0.736767
0.573739 0.755718 0.727047
0.748806 0.737957 0.722957
0.852171 0.728786 0.718196
0.647944 0.862745 0.817456
0.647776 0.863325 0.818219
0.70576 0.863767 0.831632
0.820844 0.862959 0.87013
0.845197 0.87451 0.87657
0.441276 0.412634 0.833661
0.443168 0.417182 0.836286
0.522911 0.408011 0.814817
0.728481 0.437232 0.774212
0.861143 0.502632 0.774243
0.45124 0.413947 0.838849
0.450462 0.416052 0.839826
0.54519 0.425803 0.826734
0.770047 0.497505 0.819654
0.87451 0.600458 0.851438
0.466239 0.506508 0.8177
0.526589 0.579477 0.861341
0.633005 0.6103 0.861357
0.811948 0.65771 0.857359
0.862745 0.697139 0.862058
0.641733 0.805539 0.873625
0.645914 0.819181 0.878965
0.684993 0.807157 0.876249
0.782071 0.783459 0.873045
0.854795 0.794186 0.875792
0.729412 0.878431 0.890196
0.72549 0.874952 0.890196
0.750546 0.876036 0.890196
0.814832 0.877241 0.898039
0.862745 0.878431 0.901961
