site/assets/luts/freshluts--0000168-coffee.cube
# LUTr-Schema-Version: 2
# LUTr-ID: freshluts--0000168-coffee
# LUTr-Title: COFFEE
# LUTr-Collection: Fresh LUTs
# LUTr-Collection-ID: freshluts-community
# LUTr-Source: https://freshluts.com
# LUTr-Retrieved: 2026-07-27
# LUTr-Source-File: submissions-raw/freshluts/cubes/168__COFFEE_44.C0014.cube
# LUTr-Source-Format: CUBE
# LUTr-Source-SHA256: 1f7f96a6843eae89bff97d421abae7c0b37b930666cf73a7a231711b8af3851e
# LUTr-License: CC0-1.0
# LUTr-License-URL: https://freshluts.com/termsandconditions
# LUTr-License-Basis: site-terms
# LUTr-Transform-Class: creative-look
# LUTr-Tags: creative, freshluts, community, cube, film-emulation, brown, low-key, rec709
# LUTr-Input-Color-Space: rec709
# LUTr-Input-Gamut: rec709
# LUTr-Input-Transfer: rec709
# LUTr-Output-Color-Space: srgb
# LUTr-Output-Gamut: rec709
# LUTr-Output-Transfer: srgb
# LUTr-Color-Space-Confidence: inferred-from-source-label
# LUTr-Domain-Normalized: true
# LUTr-Shaper: none
# LUTr-Original-Grid: 33x33x33
# LUTr-Conversion-Grid: 33x33x33
# LUTr-Conversion-Interpolation: none
# LUTr-Conversion-Method: Metadata normalization; numeric LUT samples preserved
# LUTr-Conversion-Tool: LUTr scripts/convert-all-to-cube.mjs 2.0.0
# LUTr-Conversion-Date: 2026-07-28
# LUTr-Asset-URL: https://freshluts.com/luts/168
# LUTr-Author: Shamoon Abbasi
# LUTr-Author-URL: https://freshluts.com/users/1258
# LUTr-Attribution: Shamoon Abbasi via Fresh LUTs
# LUTr-Source-Labels: gamma=Rec 709; color=Brown; key=Low Key; style=Film emulation
# LUTr-Note: Preserve this metadata and the upstream license notices when redistributing.
TITLE "COFFEE"
LUT_3D_SIZE 9
DOMAIN_MIN 0 0 0
DOMAIN_MAX 1 1 1
0.0105592 0.00836194 0.000350958
0.0648508 0.00433356 0.000213626
0.162295 0.00401312 0.000213626
0.310369 0.000213626 0.000213626
0.482536 0.000213626 0.000213626
0.642802 0.000213626 0.000213626
0.783108 0.000213626 0.000213626
0.909575 0.000213626 0.000213626
0.923125 0.000213626 0.000213626
0.00399786 0.0682078 0.000213626
0.0695354 0.0654765 0.000213626
0.170611 0.0654765 0.000213626
0.324254 0.0556954 0.000213626
0.500374 0.0440986 0.000213626
0.656107 0.0276951 0.000213626
0.795071 0.0111696 0.000213626
0.918593 0.00514229 0.000213626
0.923125 0.0059205 0.000213626
0.000213626 0.155474 0.000213626
0.0847028 0.160952 0.000213626
0.206699 0.180529 0.0119936
0.376638 0.187716 0.00250248
0.542214 0.172732 0.000213626
0.683787 0.145083 0.000213626
0.813535 0.130831 0.000213626
0.923095 0.123903 0.000213626
0.923125 0.125856 0.000213626
0.000213626 0.278386 0.000213626
0.0988785 0.299458 0.000213626
0.24361 0.339635 0.0115969
0.425696 0.372015 0.028336
0.5906 0.384085 0.0164187
0.72285 0.362783 0.000320439
0.837278 0.314397 0.000213626
0.92311 0.298314 0.000213626
0.923125 0.30663 0.000213626
0.000915541 0.420508 0.000213626
0.127169 0.460472 0.000213626
0.285618 0.502388 0.000213626
0.46067 0.535897 0.0272068
0.610864 0.553765 0.0488899
0.743709 0.560159 0.0458076
0.864271 0.545708 0.0241855
0.92311 0.511269 0.00526436
0.923125 0.513695 0.00848402
0.0143893 0.568032 0.000213626
0.165942 0.624399 0.000213626
0.325582 0.655314 0.000213626
0.485206 0.679377 0.0158083
0.621637 0.691615 0.0527047
0.745632 0.696696 0.07776
0.863828 0.695842 0.085832
0.92311 0.687037 0.0993973
0.923125 0.685679 0.103105
0.0327001 0.715221 0.000213626
0.205661 0.778256 0.000213626
0.358831 0.799268 0.000213626
0.50013 0.813916 0.0220951
0.625223 0.8215 0.0592813
0.740719 0.822538 0.0934615
0.848829 0.817227 0.121065
0.92311 0.800275 0.157229
0.923125 0.79884 0.159289
0.0467994 0.852979 0.000213626
0.234897 0.920684 0.000213626
0.377447 0.922774 0.00724804
0.504799 0.922927 0.041474
0.620066 0.923003 0.0768292
0.725017 0.922942 0.116152
0.817868 0.921874 0.159167
0.904585 0.893675 0.208011
0.923125 0.89337 0.206455
0.036347 0.902373 0.000213626
0.237003 0.923125 0.000213626
0.378607 0.923125 0.0180819
0.50312 0.923125 0.0532845
0.617243 0.923125 0.0862745
0.72015 0.923125 0.123156
0.810422 0.923125 0.166186
0.897536 0.923125 0.217685
0.923125 0.923125 0.238773
0.00756847 0.00170901 0.0488746
0.0610971 0.00157168 0.0533761
0.162539 0.000366217 0.0504311
0.330938 0.000213626 0.0388647
0.513603 0.000213626 0.0179446
0.670542 0.000213626 0.0011902
0.809613 0.000213626 0.000213626
0.923064 0.000213626 0.000213626
0.923125 0.000213626 0.000213626
0.00247196 0.0560464 0.0359808
0.0643931 0.0577401 0.0461433
0.169207 0.0612955 0.0429389
0.331914 0.0571603 0.0331426
0.513817 0.0416571 0.0149538
0.66804 0.0193027 0.000213626
0.80763 0.00427253 0.000213626
0.923095 0.000213626 0.000213626
0.923125 0.000213626 0.000213626
0.000213626 0.140917 0.0372778
0.0788739 0.148745 0.0507515
0.198047 0.164828 0.0539559
0.370779 0.168307 0.0503243
0.533562 0.153765 0.038468
0.675364 0.127733 0.0104677
0.809201 0.104799 0.000213626
0.923095 0.082536 0.000213626
0.923125 0.0794995 0.000213626
0.000213626 0.269184 0.0464637
0.0995041 0.296178 0.0573434
0.236179 0.325704 0.0641642
0.417212 0.347112 0.0750439
0.582834 0.343236 0.0656596
0.705119 0.30576 0.0386664
0.821729 0.256992 0.00428778
0.92311 0.235645 0.000213626
0.923125 0.229267 0.000213626
0.00331121 0.427314 0.0504463
0.138231 0.472526 0.0573892
0.285039 0.501503 0.0596933
0.453407 0.52726 0.0857557
0.608865 0.53228 0.0925612
0.736568 0.52015 0.0749676
0.84184 0.47071 0.0357671
0.92311 0.406851 0.000381476
0.923125 0.395865 0.000213626
0.0255131 0.587213 0.0507362
0.183703 0.638956 0.0544137
0.335042 0.660563 0.0549477
0.489342 0.677104 0.0783703
0.627894 0.68632 0.11017
0.746975 0.680125 0.111788
0.855116 0.668025 0.0939803
0.92311 0.641382 0.0748913
0.923125 0.626291 0.0718547
0.0443732 0.730159 0.0503548
0.222721 0.78645 0.0534829
0.371969 0.799924 0.0565347
0.51516 0.808118 0.0716564
0.6392 0.818906 0.110262
0.749981 0.819623 0.138811
0.848859 0.808667 0.158206
0.923018 0.793805 0.190219
0.923125 0.792248 0.209903
0.0579995 0.863554 0.0511788
0.250782 0.92166 0.0582437
0.395041 0.922713 0.0656138
0.528389 0.922789 0.0790265
0.64268 0.922927 0.116335
0.737255 0.922942 0.17319
0.819532 0.917098 0.243626
0.892836 0.881666 0.372625
0.923125 0.87921 0.372641
0.0446021 0.91313 0.0537575
0.251133 0.923125 0.0621653
0.396597 0.923125 0.0722362
0.527642 0.923125 0.088014
0.640894 0.923125 0.125093
0.728679 0.923125 0.194461
0.805585 0.923125 0.283558
0.883436 0.923125 0.415641
0.920607 0.923125 0.450736
0.00527962 0.000213626 0.109392
0.0534066 0.000213626 0.13991
0.148486 0.000213626 0.143862
0.312871 0.000213626 0.127031
0.511528 0.000213626 0.108415
0.679347 0.000213626 0.0870527
0.823331 0.000213626 0.0644083
0.92311 0.000213626 0.0419318
0.923125 0.000213626 0.0420386
0.000213626 0.0462501 0.0958114
0.0530251 0.0480201 0.118944
0.152514 0.0550546 0.133684
0.314733 0.0504463 0.124666
0.506722 0.0348058 0.102663
0.680415 0.0118105 0.0777295
0.826856 0.00112917 0.0504921
0.92311 0.000213626 0.0273136
0.923125 0.000213626 0.0265812
0.000213626 0.121721 0.0873884
0.0652171 0.129549 0.101595
0.170779 0.14609 0.115389
0.340398 0.154681 0.113893
0.505928 0.147875 0.108217
0.663584 0.113237 0.0811627
0.814298 0.07776 0.0415656
0.923003 0.0543069 0.0147707
0.923125 0.0545968 0.0148165
0.000213626 0.245838 0.0981155
0.0817273 0.268315 0.109941
0.210346 0.301427 0.126772
0.380774 0.318059 0.130556
0.553292 0.315465 0.124819
0.682689 0.288136 0.111879
0.806729 0.216297 0.0648051
0.917556 0.173129 0.0209049
0.923125 0.168139 0.0163729
0.000213626 0.399649 0.111635
0.111437 0.439673 0.128817
0.26891 0.478813 0.1402
0.430777 0.506874 0.152926
0.587274 0.50869 0.156603
0.718898 0.492821 0.144091
0.820005 0.42005 0.100938
0.918822 0.364538 0.0521859
0.923125 0.357397 0.0482643
0.00929274 0.569711 0.130022
0.168566 0.620768 0.149523
0.336553 0.651942 0.157626
0.486656 0.663737 0.164019
0.617273 0.668788 0.180484
0.73959 0.668315 0.180743
0.838529 0.631312 0.148562
0.9196 0.564218 0.0867781
0.923125 0.54609 0.073518
0.0358587 0.725322 0.141909
0.218784 0.776791 0.159503
0.381735 0.798856 0.169635
0.526604 0.805249 0.177264
0.65536 0.806897 0.192782
0.752682 0.812299 0.225879
0.845518 0.798688 0.218585
0.919753 0.777783 0.181353
0.923125 0.772961 0.175372
0.0501259 0.859785 0.147051
0.247013 0.913222 0.166705
0.402426 0.922683 0.176715
0.539666 0.922728 0.183688
0.664561 0.922713 0.199512
0.753307 0.922805 0.260029
0.835264 0.915801 0.302846
0.900877 0.886305 0.367864
0.923125 0.884367 0.373175
0.0421912 0.914672 0.146029
0.252766 0.923125 0.168765
0.406104 0.923125 0.178225
0.540627 0.923125 0.184512
0.664759 0.923125 0.199695
0.752575 0.923125 0.26276
0.831952 0.923125 0.32311
0.893996 0.923125 0.478157
0.919722 0.923125 0.548028
0.000213626 0.000213626 0.217731
0.0533761 0.000213626 0.26038
0.128222 0.000213626 0.323781
0.27422 0.000213626 0.307942
0.467185 0.000213626 0.272999
0.654459 0.000213626 0.227955
0.815381 0.000213626 0.18175
0.92311 0.000213626 0.139376
0.923125 0.000213626 0.133455
0.000213626 0.0375219 0.222248
0.047776 0.031693 0.251484
0.126558 0.0493935 0.325917
0.281147 0.0472419 0.325368
0.467353 0.0329442 0.300252
0.654765 0.0101015 0.238575
0.816953 0.000213626 0.172366
0.92311 0.000213626 0.119707
0.923125 0.000213626 0.114778
0.000213626 0.108934 0.201755
0.0470283 0.108888 0.218006
0.136584 0.13286 0.265995
0.296056 0.147387 0.287373
0.475044 0.143877 0.299916
0.643793 0.113191 0.25095
0.809186 0.0698863 0.163241
0.921096 0.0360266 0.0974594
0.923125 0.0352789 0.0947433
0.000213626 0.216541 0.197223
0.0573739 0.233234 0.207233
0.171008 0.267262 0.234562
0.32578 0.284367 0.249165
0.508644 0.293584 0.25008
0.650034 0.269154 0.242939
0.788754 0.184955 0.170306
0.909285 0.126894 0.0860151
0.923125 0.125521 0.0812695
0.000213626 0.37847 0.213916
0.0796979 0.413108 0.226047
0.216022 0.442145 0.239185
0.377035 0.468208 0.259632
0.541314 0.471916 0.270176
0.684611 0.45687 0.252216
0.800427 0.394705 0.215305
0.898253 0.271321 0.113451
0.923125 0.258579 0.097673
0.000213626 0.552453 0.235019
0.107607 0.580789 0.248432
0.264393 0.605371 0.258976
0.449592 0.634424 0.2636
0.595804 0.654139 0.299016
0.715175 0.640803 0.293568
0.821683 0.607569 0.263935
0.899931 0.515908 0.166125
0.923125 0.493309 0.141848
0.00706493 0.709102 0.254353
0.149737 0.734813 0.267567
0.321874 0.760952 0.278767
0.502068 0.784909 0.287678
0.642924 0.793805 0.308598
0.749874 0.795666 0.330449
0.837339 0.788159 0.330312
0.901152 0.737301 0.248371
0.923125 0.717021 0.216297
0.0239261 0.849393 0.267262
0.186191 0.878569 0.280461
0.366613 0.906035 0.292897
0.529061 0.920546 0.30721
0.661601 0.92079 0.32224
0.771649 0.914458 0.348043
0.834089 0.907042 0.411536
0.892668 0.879896 0.399664
0.923125 0.877546 0.370611
0.0234989 0.910399 0.264424
0.200793 0.923125 0.283284
0.381308 0.923125 0.296117
0.535821 0.923125 0.309636
0.664408 0.923125 0.322683
0.774044 0.923125 0.349767
0.835889 0.923125 0.431937
0.895506 0.923125 0.466911
0.923125 0.923125 0.474571
0.000213626 0.000213626 0.361975
0.0499428 0.000213626 0.394553
0.120424 0.000213626 0.493996
0.236332 0.000213626 0.538399
0.416739 0.000213626 0.511254
0.610239 0.000213626 0.472389
0.783047 0.000213626 0.394583
0.919661 0.000213626 0.302022
0.923125 0.000213626 0.275639
0.000213626 0.0168612 0.3841
0.0394293 0.00862135 0.40325
0.117006 0.0319219 0.498222
0.234165 0.0421302 0.558724
0.423499 0.0295872 0.533593
0.614069 0.0118105 0.503883
0.787274 0.000534066 0.403464
0.917632 0.000213626 0.284108
0.923125 0.000213626 0.251926
0.000213626 0.102525 0.378012
0.0282139 0.094255 0.386786
0.116548 0.117113 0.444099
0.243366 0.139559 0.515023
0.434897 0.138155 0.526726
0.617319 0.119631 0.516487
0.788952 0.0771344 0.405219
0.912902 0.0282292 0.255192
0.923125 0.021561 0.220218
0.000213626 0.194705 0.344594
0.0304723 0.195483 0.348318
0.136568 0.229679 0.390906
0.273701 0.26006 0.427756
0.448081 0.271412 0.449973
0.620554 0.252125 0.4654
0.776608 0.185611 0.38967
0.900359 0.114809 0.217716
0.923125 0.10782 0.185794
0.000213626 0.332784 0.344472
0.04654 0.351049 0.348043
0.176562 0.390311 0.366781
0.326482 0.42826 0.401465
0.485771 0.438056 0.419303
0.64863 0.434287 0.410742
0.77641 0.361959 0.387427
0.878767 0.221805 0.21445
0.923033 0.20557 0.176684
0.000213626 0.516609 0.362097
0.0874647 0.551186 0.375143
0.229999 0.583719 0.392172
0.382956 0.598718 0.400519
0.541817 0.618189 0.427604
0.68159 0.609476 0.433188
0.801953 0.575402 0.402319
0.880827 0.43386 0.281529
0.91899 0.382605 0.22977
0.000289921 0.693874 0.385473
0.121462 0.717418 0.399496
0.260655 0.734462 0.413046
0.424552 0.749233 0.415976
0.601892 0.77435 0.423758
0.732479 0.780789 0.462379
0.824933 0.761837 0.452659
0.890532 0.712108 0.370962
0.923125 0.682246 0.317678
0.0138552 0.842924 0.402548
0.14258 0.856535 0.412161
0.289952 0.871778 0.422461
0.460288 0.897139 0.431479
0.627176 0.911955 0.448112
0.756329 0.907012 0.471092
0.84564 0.899718 0.490608
0.886091 0.876127 0.484092
0.92137 0.865263 0.44715
0.0161135 0.910124 0.403449
0.150683 0.922789 0.413352
0.306447 0.923125 0.422889
0.479637 0.923125 0.435233
0.637156 0.923125 0.455283
0.763226 0.923125 0.473716
0.858045 0.923125 0.498711
0.890074 0.923125 0.542138
0.91548 0.923125 0.537697
0.000213626 0.000213626 0.511116
0.0323339 0.000213626 0.536614
0.120546 0.000213626 0.612024
0.227222 0.000213626 0.697734
0.373617 0.000213626 0.702312
0.564431 0.000213626 0.68513
0.746578 0.000213626 0.645899
0.902815 0.000213626 0.551781
0.923125 0.000213626 0.512428
0.000213626 0.00282292 0.536828
0.0209354 0.000564584 0.545953
0.114763 0.00349432 0.598428
0.22829 0.0307622 0.703532
0.372412 0.0284581 0.710811
0.571786 0.0137789 0.697444
0.75108 0.00254826 0.658244
0.903655 0.000213626 0.544381
0.923125 0.000213626 0.496803
0.000213626 0.0878004 0.543938
0.0105287 0.079057 0.54818
0.10132 0.0870832 0.578073
0.229038 0.130282 0.673365
0.378683 0.137987 0.704555
0.577508 0.121035 0.698543
0.754833 0.0914931 0.661418
0.902754 0.0429389 0.52697
0.923125 0.0313725 0.47306
0.000213626 0.183093 0.516854
0.00636301 0.175204 0.516548
0.103777 0.191577 0.544808
0.229953 0.232883 0.598535
0.385992 0.24535 0.642802
0.581537 0.236561 0.670542
0.757763 0.196658 0.641077
0.894331 0.131182 0.485588
0.923125 0.117128 0.424384
0.000213626 0.300954 0.492271
0.0153964 0.304814 0.492775
0.129305 0.323445 0.504295
0.270741 0.376455 0.556497
0.429282 0.39939 0.577996
0.593545 0.395834 0.598398
0.756146 0.336248 0.595621
0.874434 0.222187 0.427955
0.921202 0.19939 0.353399
0.000213626 0.457679 0.494606
0.0408179 0.475364 0.498283
0.176455 0.503578 0.505241
0.335439 0.550134 0.532692
0.494621 0.57998 0.562722
0.639429 0.580407 0.574975
0.779721 0.54818 0.5608
0.867964 0.381567 0.42533
0.907835 0.322774 0.34551
0.000213626 0.638407 0.509667
0.0890059 0.664607 0.520256
0.239979 0.701137 0.536477
0.400076 0.732433 0.551263
0.552224 0.748089 0.55967
0.691295 0.756176 0.579629
0.806378 0.737545 0.579355
0.881941 0.662272 0.498436
0.916472 0.610239 0.448295
0.00347906 0.814481 0.531167
0.125444 0.828763 0.53872
0.272206 0.853742 0.551461
0.424659 0.882063 0.564324
0.575723 0.898985 0.573495
0.726345 0.901961 0.584314
0.837842 0.891859 0.608804
0.88539 0.867353 0.582406
0.915602 0.854582 0.552682
0.0117037 0.892576 0.536477
0.135607 0.90367 0.542367
0.278233 0.921447 0.553216
0.428351 0.923125 0.564797
0.583337 0.923125 0.577432
0.732998 0.923125 0.591455
0.850248 0.923125 0.608454
0.897337 0.923125 0.61326
0.91429 0.92195 0.607172
0.000213626 0.000213626 0.644923
0.017258 0.000213626 0.670405
0.112444 0.000213626 0.713039
0.229801 0.000213626 0.809873
0.36437 0.000213626 0.838453
0.519417 0.000213626 0.833402
0.709163 0.000213626 0.819898
0.875822 0.000213626 0.773053
0.923125 0.000213626 0.750881
0.000213626 0.000213626 0.67364
0.00608835 0.000213626 0.678645
0.101518 0.000213626 0.698222
0.229236 0.0118563 0.801282
0.36849 0.0256046 0.838666
0.51986 0.0163729 0.833234
0.712596 0.00378424 0.823362
0.878141 0.000213626 0.772122
0.923125 0.000213626 0.7449
0.000213626 0.0708934 0.67953
0.000213626 0.0613718 0.683375
0.0850996 0.0549783 0.692699
0.217166 0.102159 0.76994
0.373236 0.133898 0.833341
0.519951 0.124178 0.829541
0.715984 0.0968032 0.822507
0.880827 0.0570535 0.76318
0.923125 0.0466011 0.730007
0.000213626 0.169589 0.6766
0.000213626 0.158556 0.682124
0.069749 0.154604 0.690257
0.193988 0.194873 0.725734
0.369558 0.236378 0.790295
0.527459 0.234379 0.815122
0.719814 0.203372 0.813291
0.880735 0.152056 0.743374
0.923125 0.13933 0.705303
0.000213626 0.280751 0.649653
0.000213626 0.274968 0.653681
0.0784161 0.271 0.663661
0.20296 0.308888 0.700755
0.366323 0.353353 0.733684
0.535164 0.351308 0.767651
0.725689 0.320607 0.788602
0.872511 0.247044 0.71342
0.922591 0.227665 0.666865
0.000213626 0.423636 0.636881
0.00857557 0.428901 0.641733
0.118639 0.433036 0.645594
0.250019 0.457481 0.665064
0.416403 0.513588 0.704829
0.579919 0.530068 0.726116
0.739208 0.499458 0.740368
0.861997 0.376181 0.668894
0.908156 0.331807 0.612634
0.000213626 0.583642 0.641611
0.0381933 0.598367 0.647318
0.16968 0.618479 0.65481
0.322484 0.649744 0.66453
0.492683 0.69723 0.687877
0.644114 0.723415 0.713298
0.776959 0.716548 0.721019
0.869902 0.617411 0.655543
0.905928 0.547997 0.59939
0.000213626 0.769528 0.659693
0.0868696 0.7785 0.662699
0.222721 0.796765 0.669902
0.384833 0.838819 0.684932
0.546075 0.877592 0.702525
0.689357 0.890303 0.713588
0.81149 0.881331 0.725032
0.879713 0.85156 0.713909
0.9075 0.830655 0.690837
0.000213626 0.855207 0.665171
0.106752 0.86334 0.667918
0.24271 0.880049 0.674601
0.401526 0.91458 0.689403
0.55639 0.923125 0.705882
0.697688 0.923125 0.713878
0.825437 0.923125 0.722927
0.897032 0.922362 0.735195
0.9131 0.917342 0.728634
0.000213626 0.000213626 0.770871
0.00941482 0.000213626 0.798062
0.0992752 0.000213626 0.826871
0.224689 0.000213626 0.902632
0.368414 0.000213626 0.923095
0.509255 0.000213626 0.923095
0.672633 0.000213626 0.923079
0.846387 0.000213626 0.912764
0.90721 0.000213626 0.908919
0.000213626 0.000213626 0.802594
0.000213626 0.000213626 0.808927
0.0843824 0.000213626 0.819272
0.217487 0.00137331 0.890913
0.371481 0.0181888 0.923095
0.509544 0.0131533 0.923095
0.670344 0.00386053 0.923079
0.84831 0.000213626 0.912642
0.909834 0.000213626 0.90811
0.000213626 0.0545357 0.80972
0.000213626 0.0443732 0.81326
0.0666667 0.0343786 0.817792
0.191135 0.0623789 0.858534
0.370214 0.120546 0.92285
0.513573 0.120592 0.923095
0.668406 0.102327 0.923079
0.850401 0.0610361 0.912001
0.912749 0.0519875 0.906218
0.000213626 0.153124 0.813367
0.000213626 0.142626 0.817456
0.0469825 0.131762 0.820752
0.158709 0.14255 0.832944
0.348196 0.212253 0.899153
0.520958 0.229175 0.922698
0.670222 0.212848 0.919524
0.852522 0.167712 0.908202
0.915175 0.156085 0.90045
0.000213626 0.258061 0.807233
0.000213626 0.246983 0.813642
0.0326696 0.234577 0.817243
0.140505 0.238529 0.821897
0.305898 0.301778 0.848692
0.518257 0.33698 0.899794
0.683177 0.320455 0.908263
0.852811 0.27364 0.896986
0.912902 0.25864 0.888319
0.000213626 0.391821 0.786862
0.000213626 0.384176 0.791989
0.0555276 0.372 0.797833
0.156832 0.367803 0.803281
0.302174 0.415488 0.820691
0.504738 0.470741 0.851194
0.697139 0.454139 0.876982
0.847135 0.396674 0.870771
0.901534 0.372473 0.863676
0.000213626 0.550301 0.782269
0.00502022 0.552056 0.785168
0.111879 0.557351 0.790372
0.234165 0.568627 0.793851
0.375036 0.597803 0.801663
0.551369 0.648692 0.82501
0.726619 0.662837 0.844114
0.849134 0.591669 0.835737
0.892317 0.544976 0.821714
0.000213626 0.735073 0.793164
0.045716 0.739208 0.794171
0.165148 0.745418 0.795972
0.298009 0.762707 0.799329
0.455512 0.805142 0.806378
0.628443 0.846098 0.820386
0.774548 0.857313 0.831739
0.86656 0.839643 0.833112
0.899306 0.817487 0.829358
0.000213626 0.817182 0.795468
0.0652171 0.82385 0.796719
0.188922 0.832258 0.798459
0.322774 0.847654 0.802274
0.483925 0.88864 0.811948
0.655833 0.919158 0.824842
0.794476 0.921462 0.831998
0.880888 0.91664 0.837308
0.904768 0.909804 0.835355
0.000213626 0.000213626 0.844205
0.0139162 0.000213626 0.875319
0.0977035 0.000213626 0.905318
0.217914 0.000213626 0.923125
0.366415 0.000213626 0.923125
0.50956 0.000213626 0.923125
0.660395 0.000213626 0.923125
0.830274 0.000213626 0.923125
0.893156 0.000213626 0.923125
0.000213626 0.000213626 0.882414
0.000213626 0.000213626 0.892866
0.0780804 0.000213626 0.901152
0.206043 0.000213626 0.923125
0.366644 0.0108797 0.923125
0.510811 0.0107729 0.923125
0.658732 0.00396735 0.923125
0.830442 0.000213626 0.923125
0.894484 0.000213626 0.923125
0.000213626 0.0502785 0.893538
0.000213626 0.0389868 0.897398
0.0614328 0.0298161 0.900877
0.177569 0.043595 0.920623
0.357214 0.106554 0.923125
0.514336 0.11873 0.923125
0.657938 0.103395 0.923125
0.830259 0.0665293 0.923125
0.895811 0.0526284 0.923125
0.000213626 0.147539 0.898238
0.000213626 0.138811 0.901198
0.0434424 0.128725 0.903624
0.147387 0.124208 0.907469
0.321721 0.185412 0.923125
0.519097 0.226139 0.923125
0.661891 0.215122 0.923125
0.829984 0.179294 0.923125
0.89691 0.16257 0.923125
0.000213626 0.248905 0.899168
0.000213626 0.238987 0.902251
0.0257115 0.22884 0.902434
0.126787 0.21944 0.899092
0.267796 0.258595 0.91252
0.500679 0.326848 0.923125
0.675425 0.322469 0.923125
0.831632 0.293706 0.923125
0.89633 0.275578 0.923125
0.000213626 0.371084 0.885863
0.000213626 0.358831 0.890135
0.0218967 0.343236 0.892195
0.117769 0.33373 0.888258
0.24361 0.357961 0.888182
0.454185 0.43798 0.916533
0.683131 0.445945 0.923125
0.834958 0.417548 0.923125
0.889906 0.399985 0.923125
0.000213626 0.529976 0.873335
0.000213626 0.525261 0.875212
0.0726787 0.518776 0.878264
0.177905 0.517205 0.878843
0.297887 0.53109 0.877226
0.465293 0.581582 0.88661
0.683146 0.624643 0.908476
0.838132 0.585061 0.917494
0.881422 0.557244 0.916793
0.000213626 0.717861 0.877012
0.0244144 0.718685 0.877531
0.136126 0.719615 0.878264
0.259159 0.729519 0.878737
0.39823 0.754086 0.876493
0.558953 0.792599 0.879484
0.730983 0.821241 0.891646
0.8607 0.815106 0.900069
0.892332 0.794415 0.899535
0.000213626 0.802701 0.879133
0.0432136 0.806256 0.879499
0.158587 0.809232 0.879576
0.281331 0.816007 0.879179
0.430167 0.848646 0.878157
0.602014 0.886534 0.879911
0.759441 0.899321 0.889708
0.869551 0.903044 0.8972
0.898619 0.897566 0.897337
