site/assets/luts/freshluts--0000867-sport.cube
# LUTr-Schema-Version: 2
# LUTr-ID: freshluts--0000867-sport
# LUTr-Title: Sport
# LUTr-Collection: Fresh LUTs
# LUTr-Collection-ID: freshluts-community
# LUTr-Source: https://freshluts.com
# LUTr-Retrieved: 2026-07-27
# LUTr-Source-File: submissions-raw/freshluts/cubes/867__Sport.cube
# LUTr-Source-Format: CUBE
# LUTr-Source-SHA256: c91fcc0f8066bb8a0ee62ca9a5bb24989fe2d5f63555723746101a9d6645b787
# LUTr-License: CC0-1.0
# LUTr-License-URL: https://freshluts.com/termsandconditions
# LUTr-License-Basis: site-terms
# LUTr-Transform-Class: creative-look
# LUTr-Tags: creative, freshluts, community, cube, blue, low-key, rec709
# LUTr-Input-Color-Space: rec709
# LUTr-Input-Gamut: rec709
# LUTr-Input-Transfer: rec709
# LUTr-Output-Color-Space: srgb
# LUTr-Output-Gamut: rec709
# LUTr-Output-Transfer: srgb
# LUTr-Color-Space-Confidence: declared-by-source
# LUTr-Domain-Normalized: true
# LUTr-Shaper: none
# LUTr-Original-Grid: 17x17x17
# LUTr-Conversion-Grid: 17x17x17
# LUTr-Conversion-Interpolation: none
# LUTr-Conversion-Method: Metadata normalization; numeric LUT samples preserved
# LUTr-Conversion-Tool: LUTr scripts/convert-all-to-cube.mjs 2.0.0
# LUTr-Conversion-Date: 2026-07-28
# LUTr-Asset-URL: https://freshluts.com/luts/867
# LUTr-Author: Pierre Louis
# LUTr-Author-URL: https://freshluts.com/users/84723
# LUTr-Attribution: Pierre Louis via Fresh LUTs
# LUTr-Source-Labels: gamma=Rec 709; color=Blue; key=Low Key; style=Colorful
# LUTr-Note: Preserve this metadata and the upstream license notices when redistributing.
TITLE "Sport"
LUT_3D_SIZE 5
DOMAIN_MIN 0 0 0
DOMAIN_MAX 1 1 1
0.0421302 0.0421302 0.0421302
0.254658 0.0132448 0.0744945
0.484398 0 0.106813
0.650614 0 0.133608
0.759869 0 0.138949
0.009308 0.190051 0
0.121233 0.199329 0
0.388418 0.171603 0
0.633753 0.14081 0.0131228
0.760006 0.132403 0.0493629
0.00453193 0.372351 0
0.154559 0.392447 0
0.276326 0.435859 0
0.476768 0.424949 0
0.620417 0.385504 0
0.0278325 0.576761 0
0.188296 0.565103 0
0.245121 0.59968 0
0.396185 0.642435 0
0.501839 0.655756 0
0.0412909 0.714733 0
0.239765 0.719356 0
0.322393 0.756863 0
0.406973 0.795682 0
0.484642 0.808789 0
0 0.0671092 0.198703
0.206622 0.0214542 0.260822
0.433295 0 0.29543
0.60293 0 0.32076
0.713466 0 0.334096
0.0860609 0.143343 0.32604
0.176318 0.176318 0.176318
0.406104 0.156252 0.217487
0.615457 0.141741 0.257862
0.736171 0.140658 0.291752
0 0.37409 0.254398
0.199283 0.38732 0.136843
0.334569 0.415946 0.160311
0.566751 0.384039 0.137621
0.708217 0.342123 0.162631
0 0.590112 0.108248
0.187381 0.562295 0.0628672
0.337026 0.578927 0.129335
0.459739 0.627558 0.128695
0.565637 0.636591 0.104616
0 0.736294 0.0652628
0.234226 0.725185 0.0711833
0.411475 0.733898 0.139925
0.473518 0.774945 0.165576
0.547036 0.792386 0.146624
0 0.09514 0.370199
0.107347 0.0449378 0.463615
0.384176 0.00187686 0.496086
0.558389 0 0.515892
0.66836 0 0.527169
0 0.177615 0.431662
0.0808728 0.205264 0.342306
0.360372 0.168597 0.41651
0.570962 0.157458 0.459129
0.691432 0.160479 0.493843
0.173587 0.290211 0.66215
0.28809 0.347799 0.538216
0.391791 0.391791 0.391791
0.593515 0.359701 0.417014
0.702144 0.332128 0.422827
0.0457313 0.512566 0.702678
0.124895 0.561883 0.439078
0.386236 0.575036 0.323537
0.522789 0.609964 0.364706
0.638788 0.61387 0.344976
0 0.701869 0.638773
0.151247 0.741573 0.380621
0.429252 0.733028 0.328359
0.554757 0.751324 0.385855
0.614572 0.776974 0.38909
0 0.123369 0.543786
0 0.0793774 0.639551
0.304082 0.0190738 0.716243
0.510964 0 0.732754
0.623011 0 0.742412
0 0.236103 0.520714
0 0.237125 0.521691
0.260731 0.19826 0.633021
0.526543 0.174395 0.681453
0.64892 0.179446 0.713207
0.166903 0.305425 0.82739
0.186465 0.391592 0.655894
0.286168 0.420829 0.569177
0.541375 0.367559 0.633265
0.653071 0.345861 0.641566
0.270741 0.431312 1
0.365972 0.471672 0.870069
0.490181 0.534829 0.746532
0.573251 0.596658 0.612238
0.695109 0.592248 0.642939
0.263188 0.592294 1
0.361898 0.643626 0.984131
0.454093 0.701411 0.818402
0.593606 0.743114 0.607675
0.704921 0.763149 0.655039
0 0.151217 0.714992
0 0.110384 0.808392
0.180301 0.0516518 0.912108
0.437354 0.00535592 0.951705
0.569421 0 0.960311
0 0.276631 0.659632
0 0.268528 0.697002
0.143008 0.237415 0.811215
0.4448 0.204227 0.905684
0.593576 0.198611 0.936034
0 0.383642 0.900481
0.0264134 0.452522 0.746288
0.181659 0.447059 0.739406
0.435096 0.393072 0.831601
0.596277 0.363989 0.858808
0.292103 0.425177 1
0.345998 0.491707 1
0.36524 0.591531 0.848737
0.475212 0.633066 0.786801
0.610391 0.621302 0.847364
0.403891 0.553292 1
0.502602 0.604334 1
0.5935 0.659205 1
0.642069 0.725353 0.915816
0.674281 0.793729 0.873091
