site/assets/luts/freshluts--0000717-free-cotton-candy-sky.cube
# LUTr-Schema-Version: 2
# LUTr-ID: freshluts--0000717-free-cotton-candy-sky
# LUTr-Title: Free cotton candy sky
# LUTr-Collection: Fresh LUTs
# LUTr-Collection-ID: freshluts-community
# LUTr-Source: https://freshluts.com
# LUTr-Retrieved: 2026-07-27
# LUTr-Source-File: submissions-raw/freshluts/cubes/717__cotton_candy_sky_1.C0033.cube
# LUTr-Source-Format: CUBE
# LUTr-Source-SHA256: bec92f1bb0cfa8d069dd29cbd00f723006ec84036b6d098f883a4b8e1c24136d
# LUTr-License: CC0-1.0
# LUTr-License-URL: https://freshluts.com/termsandconditions
# LUTr-License-Basis: site-terms
# LUTr-Transform-Class: creative-look
# LUTr-Tags: creative, freshluts, community, cube, teal, sony-s-log2
# LUTr-Input-Color-Space:
# LUTr-Input-Gamut: sony-s-gamut
# LUTr-Input-Transfer: sony-s-log2
# LUTr-Output-Color-Space: srgb
# LUTr-Output-Gamut: rec709
# LUTr-Output-Transfer: srgb
# LUTr-Color-Space-Confidence: camera-profile-input-required
# LUTr-Domain-Normalized: true
# LUTr-Shaper: none
# LUTr-Original-Grid: 17x17x17
# LUTr-Conversion-Grid: 17x17x17
# LUTr-Conversion-Interpolation: none
# LUTr-Conversion-Method: Metadata normalization; numeric LUT samples preserved
# LUTr-Conversion-Tool: LUTr scripts/convert-all-to-cube.mjs 2.0.0
# LUTr-Conversion-Date: 2026-07-28
# LUTr-Asset-URL: https://freshluts.com/luts/717
# LUTr-Author: Nathanael Francisco
# LUTr-Author-URL: https://freshluts.com/users/66688
# LUTr-Attribution: Nathanael Francisco via Fresh LUTs
# LUTr-Source-Labels: gamma=Sony S-Log 2; color=Teal; key=Neutral; style=Adventure
# LUTr-Note: Preserve this metadata and the upstream license notices when redistributing.
TITLE "Free cotton candy sky"
LUT_3D_SIZE 17
DOMAIN_MIN 0 0 0
DOMAIN_MAX 1 1 1
0 0 0
0 0 0
0 0 0
0 0 0
0.00733959 0 0
0.0848707 0 0
0.140581 0 0
0.102235 0 0
0.0416876 0.0181735 0.0174563
0.0462654 0.0205539 0.0193179
0.0548562 0.0202487 0.0184634
0.0762798 0.0218357 0.0187686
0.0889601 0.0206607 0.0166323
0.103197 0.0200809 0.0150607
0.119646 0.0201724 0.0141604
0.175814 0.0041352 0
0.509102 0 0
0 0 0
0 0 0
0 0 0
0 0 0
0.0104982 0 0
0.0480201 0 0
0.0427558 0.0310369 0.0284886
0.0563058 0.0365606 0.0334478
0.0696269 0.0375372 0.0332494
0.0796521 0.0360723 0.030808
0.0918593 0.0344854 0.0281224
0.12015 0.0348363 0.0258946
0.138247 0.0322576 0.0215915
0.156466 0.0303502 0.0179751
0.174289 0.0298619 0.0158694
0.192462 0.02916 0.01355
0.246464 0.0153353 0
0 0 0
0 0 0
0 0 0
0.0235752 0.0108949 0
0.0454566 0.0413214 0.0381781
0.0538643 0.0469673 0.043534
0.0637064 0.051606 0.0470283
0.0811475 0.0544594 0.0469978
0.0982376 0.054551 0.0447852
0.112245 0.052079 0.0406653
0.127718 0.049134 0.0361181
0.160021 0.0475319 0.0310674
0.183246 0.0436866 0.0247044
0.204089 0.0402228 0.0190738
0.225086 0.0387427 0.0154116
0.24033 0.0370642 0.0121767
0.253635 0.0348974 0.00866712
0.0333104 0.0410925 0.0332341
0.0410773 0.0462348 0.0384985
0.0493477 0.051133 0.0441291
0.0577554 0.0559396 0.049897
0.0655375 0.0609751 0.054612
0.0741894 0.0657664 0.0584115
0.0843671 0.0701152 0.0611887
0.104585 0.0719005 0.0598611
0.124483 0.0711528 0.0551766
0.140612 0.0674754 0.0487526
0.158618 0.0634928 0.0424201
0.193637 0.0600137 0.0345769
0.22031 0.054078 0.0255589
0.239521 0.0482643 0.0177462
0.259861 0.0455634 0.0127565
0.287526 0.0447395 0.00862135
0.337636 0.0454719 0.00314336
0.0472267 0.0623941 0.0453346
0.0563211 0.0669871 0.050248
0.0659495 0.0712749 0.0557412
0.0756085 0.0754101 0.0614633
0.0849012 0.0794842 0.066743
0.0932326 0.0835889 0.0701305
0.102571 0.0868391 0.0722362
0.125292 0.088426 0.0702831
0.147082 0.0855573 0.0638132
0.16437 0.0799268 0.0543069
0.180743 0.0732586 0.0447242
0.221149 0.0690929 0.0345922
0.266117 0.0650492 0.024445
0.32369 0.0634775 0.0149691
0.390753 0.0651865 0.0071107
0.464652 0.0670939 0
0.547906 0.0674449 0
0.0599069 0.0834058 0.0555581
0.070222 0.087129 0.0601816
0.0804913 0.0899367 0.0650034
0.0910048 0.0931411 0.0703288
0.0998093 0.0962692 0.0690929
0.107362 0.0968643 0.0479744
0.12018 0.0984054 0.0508583
0.141772 0.0986801 0.0664683
0.170031 0.0968032 0.0625162
0.2038 0.0968338 0.0580453
0.249928 0.0981003 0.0527047
0.335576 0.099733 0.0401617
0.420401 0.0973068 0.0242771
0.512016 0.0948196 0.00755322
0.598749 0.0952163 0
0.689372 0.0961318 0
0.786328 0.0960403 0
0.0648508 0.105959 0.0513313
0.0757 0.108293 0.0547951
0.0862745 0.109239 0.0582589
0.0962844 0.109606 0.0617075
0.106111 0.11252 0.0619364
0.121294 0.117556 0.0668956
0.144579 0.127596 0.0768444
0.185672 0.137545 0.0847791
0.238087 0.144656 0.0851759
0.295659 0.147448 0.0792554
0.372763 0.149493 0.0669566
0.483635 0.149035 0.0423285
0.59324 0.144244 0.0151217
0.702861 0.139696 0
0.799481 0.141283 0
0.895308 0.143832 0
0.995148 0.146334 0
0.0613413 0.125444 0.0332189
0.0731975 0.128679 0.0357214
0.0885481 0.136843 0.0393225
0.108812 0.149523 0.043946
0.132418 0.165682 0.0489815
0.160479 0.181353 0.0554971
0.192432 0.196368 0.0644694
0.261051 0.202258 0.0850538
0.325948 0.213474 0.0878309
0.398367 0.218982 0.0825818
0.490379 0.22034 0.0665293
0.621561 0.215671 0.0407416
0.745785 0.208743 0.010132
0.862837 0.205905 0
0.955596 0.211246 0
1 0.218296 0
1 0.225727 0
0.060029 0.174792 0.00137331
0.0795758 0.192401 0.00111391
0.102495 0.209567 0.00161746
0.128145 0.226429 0.00296025
0.155657 0.243107 0.00457771
0.188159 0.25893 0.00857557
0.22414 0.273976 0.0164187
0.31165 0.275303 0.0413977
0.40473 0.280018 0.0664378
0.482856 0.292973 0.0691997
0.586664 0.298817 0.0637675
0.719188 0.294347 0.0354162
0.848463 0.286793 0.00784314
0.968154 0.284566 0
1 0.291173 0
1 0.299947 0
1 0.308843 0
0.0534371 0.256474 0
0.0773022 0.275135 0
0.104982 0.293507 0
0.135286 0.310979 0
0.166613 0.327352 0
0.203998 0.343023 0
0.244068 0.358144 0
0.344839 0.356542 0
0.460212 0.351415 0.0191348
0.554757 0.359899 0.0444953
0.656046 0.3738 0.0497749
0.793744 0.374365 0.0395361
0.91751 0.370031 0.0166629
1 0.367834 0.000396735
1 0.37586 0.00260929
1 0.386603 0.0100099
1 0.399191 0.0194095
0.0361334 0.348013 0
0.0655375 0.368521 0
0.0988937 0.388098 0
0.134874 0.407355 0
0.171603 0.428763 0
0.21416 0.449393 0
0.259846 0.469993 0
0.372427 0.465995 0
0.499519 0.456687 0
0.616419 0.449287 0
0.72578 0.45832 0.0238956
0.857404 0.472114 0.0371557
0.981689 0.47303 0.039292
1 0.478676 0.037232
1 0.494865 0.0476844
1 0.512413 0.060502
1 0.530282 0.0744182
0.00512703 0.472541 0
0.0428321 0.497032 0
0.0844739 0.519875 0
0.129107 0.541909 0
0.171756 0.563241 0
0.219837 0.580407 0
0.268818 0.596429 0
0.38938 0.588922 0
0.528023 0.576806 0
0.653727 0.566369 0
0.785199 0.560021 0
0.927016 0.576699 0.0361334
1 0.594186 0.0539406
1 0.606882 0.0509041
1 0.624094 0.0714427
1 0.642374 0.0919814
1 0.66038 0.112184
0 0.61268 0
0.0188602 0.629175 0
0.0735485 0.645029 0
0.128542 0.660426 0
0.179217 0.677668 0
0.234104 0.69456 0
0.288869 0.71223 0
0.414496 0.707256 0
0.559136 0.696483 0
0.689006 0.687083 0
0.826123 0.677852 0
0.993667 0.675044 0.0335088
1 0.696986 0.0678416
1 0.718868 0.0836347
1 0.738521 0.110796
1 0.757107 0.139223
1 0.774609 0.166659
0 0.725322 0
0.0386511 0.740261 0
0.100877 0.756069 0
0.160433 0.773114 0
0.216373 0.792538 0
0.276219 0.81149 0
0.334676 0.830976 0
0.462745 0.827588 0
0.604669 0.817273 0
0.731548 0.807385 0
0.874449 0.795712 0
1 0.782712 0.0458534
1 0.790173 0.10518
1 0.813947 0.130709
1 0.836286 0.158038
1 0.855665 0.186252
1 0.870939 0.212665
0.0354467 0.829679 0
0.0997024 0.847333 0
0.164096 0.865507 0
0.227039 0.88397 0
0.28838 0.903609 0
0.351186 0.921889 0
0.411093 0.940688 0
0.537072 0.936019 0
0.663966 0.925383 0
0.785229 0.914153 0
0.936645 0.898024 0.0165255
1 0.879942 0.091722
1 0.876402 0.155184
1 0.891936 0.190188
1 0.910201 0.211109
1 0.925063 0.228031
1 0.934951 0.240833
0.114473 0.936736 0
0.181918 0.954879 0
0.247807 0.972396 0
0.313207 0.990158 0
0.374014 1 0
0.435279 1 0
0.492409 1 0
0.604486 1 0
0.718379 1 0
0.836774 1 0
0.988556 0.984802 0.0616312
1 0.960174 0.122271
1 0.94374 0.178714
1 0.946136 0.212619
1 0.958175 0.229953
1 0.970382 0.242863
1 0.980438 0.252644
0.202945 1 0
0.269352 1 0
0.334173 1 0
0.396139 1 0
0.452186 1 0
0.508019 1 0
0.558846 1 0
0.653361 1 0
0.755154 1 0
0.870405 1 0.0116274
1 1 0.0686809
1 1 0.121386
1 0.99469 0.174517
1 0.989151 0.21146
1 0.997971 0.230915
1 1 0.244999
1 1 0.247654
0 0 0
0 0 0
0 0 0
0 0 0
0.00694286 0 0
0.0458686 0 0
0.0422675 0 0
0.0335393 0.0193179 0.0207523
0.042649 0.0221714 0.0230564
0.0498665 0.0219272 0.0223545
0.0587625 0.0214542 0.0213474
0.0809339 0.022858 0.0218509
0.0941329 0.0215305 0.0196384
0.108797 0.020798 0.0180514
0.124788 0.0211032 0.0175784
0.14168 0.0213016 0.0169528
0.16849 0.0176089 0.0132753
0 0 0
0 0 0
0 0 0
0 0 0
0.025391 0.0031281 0.00340276
0.0349737 0.0293126 0.0296025
0.0440223 0.034638 0.0348058
0.0590066 0.038056 0.037583
0.0728008 0.0388647 0.0375525
0.0832685 0.0372778 0.035111
0.0957961 0.0354925 0.0323339
0.124865 0.0355993 0.030518
0.143542 0.0328374 0.0262608
0.162188 0.0307164 0.0227054
0.180194 0.030045 0.0207828
0.197284 0.0293431 0.0189059
0.215122 0.0283665 0.0166629
0.0188449 0.0223087 0.0207065
0.0253758 0.027863 0.0264134
0.0322881 0.0332799 0.032105
0.0393835 0.0386206 0.0378576
0.0466468 0.0439307 0.0428168
0.0548257 0.049012 0.0471962
0.0646525 0.0536049 0.0508278
0.0831006 0.0560769 0.0514076
0.100832 0.0559396 0.0496071
0.115343 0.0532998 0.0455329
0.131014 0.0501411 0.0408179
0.163638 0.0482795 0.0360418
0.186633 0.0441596 0.0295872
0.209751 0.0407416 0.0239719
0.228901 0.0387884 0.0202335
0.243763 0.0369726 0.0170138
0.256687 0.0346838 0.013489
0.0339818 0.0432136 0.0370489
0.0415961 0.0483711 0.0425269
0.0497292 0.053315 0.0480659
0.0581369 0.0580758 0.0540017
0.0658427 0.0630503 0.0593118
0.0742351 0.0678721 0.0633555
0.0843366 0.0721447 0.0663615
0.105089 0.0737621 0.0642405
0.125628 0.0726635 0.0600137
0.142702 0.0687724 0.0540322
0.161913 0.0647288 0.0478676
0.195712 0.0604105 0.0400397
0.222339 0.0541543 0.0308995
0.242573 0.0482948 0.0229801
0.265446 0.0458076 0.0181125
0.299977 0.0455634 0.0142061
0.354345 0.0462959 0.0091249
0.0470283 0.0646067 0.0503395
0.0558785 0.0692302 0.0554513
0.0654154 0.073518 0.0608225
0.0751049 0.0775616 0.0666667
0.084184 0.0815595 0.0723735
0.0920882 0.0852674 0.0760662
0.10161 0.0890059 0.0787213
0.12459 0.0898451 0.0758068
0.146487 0.0868849 0.0683909
0.164248 0.0807813 0.0589914
0.182528 0.0742351 0.049958
0.225483 0.0702068 0.0406806
0.277562 0.0670176 0.0312047
0.339773 0.0653849 0.0220188
0.409751 0.0668193 0.0147097
0.486046 0.0683452 0.00668345
0.570672 0.0682536 0
0.0587778 0.0856184 0.0618143
0.0686961 0.0892958 0.0664378
0.0787518 0.0919509 0.0708782
0.089189 0.0955215 0.0753185
0.0795758 0.0933394 0.0163424
0.0978256 0.0923171 0
0.128023 0.0927901 0
0.163912 0.0941329 0.00459297
0.182712 0.097734 0.0495308
0.209674 0.100633 0.0650797
0.2598 0.102419 0.0609598
0.348714 0.103304 0.0493172
0.437095 0.100282 0.0342107
0.530983 0.0970626 0.0180972
0.618784 0.0971542 0.00578317
0.710994 0.0978561 0
0.808591 0.0976883 0
0.0624094 0.108507 0.0584878
0.0725414 0.110216 0.0615396
0.082887 0.110842 0.0646372
0.0933547 0.111543 0.0681468
0.103456 0.115175 0.0685435
0.120943 0.122377 0.0752575
0.145266 0.133181 0.0863355
0.189258 0.143664 0.0946517
0.243381 0.150469 0.093492
0.302266 0.153231 0.0907454
0.381521 0.155444 0.0775616
0.494942 0.154681 0.0533913
0.607141 0.149004 0.0272221
0.719127 0.14403 0.00381476
0.816312 0.145418 0
0.912886 0.147875 0
1 0.150454 0
0.0578164 0.127901 0.0402533
0.0698253 0.132143 0.0429236
0.0863355 0.142992 0.0473182
0.106966 0.156786 0.0528267
0.1308 0.173556 0.0588388
0.159045 0.189364 0.0664378
0.191211 0.204501 0.0768749
0.26183 0.209506 0.0999619
0.327688 0.220569 0.104402
0.400336 0.225711 0.0989395
0.49575 0.226856 0.0832074
0.628763 0.222797 0.0580758
0.753613 0.216144 0.0263066
0.871168 0.213519 0
0.963577 0.219013 0
1 0.226276 0
1 0.2336 0
0.0555886 0.183047 0.0100557
0.0748455 0.201022 0.0107576
0.0974289 0.218326 0.0119478
0.123537 0.235508 0.0145113
0.150866 0.252354 0.0174563
0.183688 0.268376 0.0227512
0.219837 0.283299 0.0319829
0.309056 0.28394 0.0588083
0.403311 0.287495 0.0865949
0.481788 0.300389 0.0907301
0.587793 0.306569 0.0854963
0.720531 0.301472 0.0573892
0.851743 0.294286 0.0312963
0.970916 0.292409 0.0125887
1 0.299397 0.00720226
1 0.308522 0.00463874
1 0.317739 0.00234989
0.0459907 0.266407 0
0.0697185 0.285374 0
0.0975204 0.303944 0
0.128237 0.321233 0
0.159976 0.338018 0
0.197299 0.353597 0
0.237812 0.368917 0
0.340276 0.366491 0.000762951
0.455711 0.360571 0.0411231
0.551553 0.368231 0.0692454
0.655787 0.382895 0.0766613
0.792172 0.383093 0.0658885
0.915648 0.377859 0.0425574
1 0.37583 0.0274357
1 0.384543 0.0310063
1 0.396124 0.0395361
1 0.409293 0.0487373
0.0262455 0.359655 0
0.0559243 0.380545 0
0.0896468 0.400168 0
0.126055 0.419944 0
0.163516 0.44184 0
0.206561 0.462593 0
0.252522 0.483345 0
0.366567 0.478401 0
0.494072 0.468132 0
0.611444 0.459693 0.0171359
0.725185 0.468742 0.0555734
0.856626 0.483375 0.0702983
0.98027 0.485039 0.0710307
1 0.491081 0.0682994
1 0.507012 0.0784924
1 0.524681 0.0916304
1 0.542855 0.106188
0 0.486763 0
0.0318914 0.511177 0
0.074342 0.533776 0
0.119051 0.555535 0
0.162814 0.576181 0
0.211978 0.592706 0
0.261357 0.608484 0
0.383093 0.600824 0
0.521431 0.588388 0
0.646265 0.578027 0
0.781811 0.571405 0.019028
0.924269 0.587976 0.0684062
1 0.606073 0.0870375
1 0.618021 0.0997482
1 0.635935 0.118791
1 0.654673 0.138369
1 0.672786 0.157824
0 0.623011 0
0.0149691 0.640009 0
0.0686351 0.656397 0
0.121599 0.672435 0
0.171572 0.690135 0
0.227771 0.707195 0
0.28304 0.725093 0
0.41004 0.720302 0
0.553445 0.709255 0
0.681987 0.699687 0
0.822522 0.689891 0
0.990112 0.686336 0.0659495
1 0.7084 0.105013
1 0.730419 0.12752
1 0.750301 0.156115
1 0.76936 0.184634
1 0.786511 0.209735
0 0.736309 0
0.0331884 0.752056 0
0.0941024 0.768704 0
0.15407 0.78613 0
0.210651 0.805966 0
0.271199 0.824857 0
0.329809 0.84448 0
0.45864 0.840864 0
0.599207 0.830182 0
0.72549 0.820172 0
0.871138 0.807401 0
1 0.793652 0.0770733
1 0.800717 0.137896
1 0.824277 0.16965
1 0.846616 0.196582
1 0.865782 0.222171
1 0.880308 0.244053
0.0291142 0.842573 0
0.0938888 0.860578 0
0.158816 0.878721 0
0.222431 0.897246 0
0.283757 0.91693 0
0.346944 0.935103 0
0.407218 0.953796 0
0.533181 0.949111 0
0.658183 0.938155 0
0.779477 0.925536 0
0.932799 0.908583 0.0473335
1 0.890303 0.120699
1 0.885191 0.183886
1 0.900313 0.218952
1 0.917891 0.238865
1 0.93196 0.254414
1 0.941543 0.266804
0.109941 0.949783 0
0.177584 0.967803 0
0.243748 0.985763 0
0.309178 1 0
0.369772 1 0
0.431098 1 0
0.488075 1 0
0.598779 1 0
0.711864 1 0
0.830793 1 0.021622
0.982269 0.993255 0.0882887
1 0.967834 0.147524
1 0.949996 0.20322
1 0.951934 0.237568
1 0.964019 0.25481
1 0.976181 0.267536
1 0.986358 0.276738
0.198276 1 0
0.265187 1 0
0.329885 1 0
0.39147 1 0
0.446967 1 0
0.502739 1 0
0.5523 1 0
0.645121 1 0
0.746624 1 0
0.862577 1 0.0366522
1 1 0.0923323
1 1 0.144656
1 1 0.197299
1 0.994598 0.234333
1 1 0.254673
1 1 0.268956
1 1 0.270344
0 0 0
0 0 0
0 0 0
0 0 0
0.00759899 0 0
0.0517891 0 0
0.0450904 0 0
0.0363928 0.0208438 0.0243229
0.0458686 0.0236057 0.0263981
0.0534676 0.0232547 0.0256199
0.0627909 0.0226596 0.0245365
0.0854963 0.0238346 0.0251011
0.099321 0.0223697 0.0228733
0.114412 0.0214847 0.0212558
0.130678 0.0216678 0.0209049
0.147784 0.0217594 0.0204166
0.178393 0.0164645 0.0168917
0 0 0
0 0 0
0 0 0
0 0 0
0.01738 0 0
0.0398718 0.0143282 0.0221561
0.0496376 0.0286107 0.0336767
0.0618448 0.0393225 0.0418555
0.0759289 0.040177 0.0419928
0.0868086 0.0384833 0.0394751
0.0997024 0.0365606 0.0365759
0.129274 0.0364233 0.0348363
0.148592 0.0335088 0.0305791
0.16759 0.03122 0.026978
0.185626 0.030396 0.0251164
0.201801 0.0294957 0.02327
0.221927 0.0286107 0.0212406
0.0200656 0.0243992 0.0235447
0.0266575 0.0299229 0.0293889
0.0335699 0.0353246 0.0351415
0.0407263 0.0406043 0.0411841
0.048249 0.0458076 0.0464485
0.0564584 0.050782 0.0513619
0.0664073 0.0552682 0.0556954
0.0855726 0.0574197 0.0569009
0.103807 0.0570993 0.0553292
0.118761 0.0543069 0.0512856
0.134722 0.0509346 0.04654
0.167391 0.0487526 0.0419776
0.191363 0.04448 0.0357214
0.216312 0.0410163 0.0302739
0.233204 0.0385138 0.0264286
0.247333 0.0364843 0.0232853
0.261143 0.0341955 0.0198672
0.0346685 0.0453346 0.0408942
0.0423133 0.0504311 0.0466011
0.0503243 0.0553902 0.0523232
0.0584878 0.0602274 0.0579538
0.066331 0.065095 0.0636912
0.0745403 0.0699016 0.0679637
0.0843671 0.0741894 0.0710918
0.106111 0.075349 0.0694438
0.127092 0.0737163 0.0657359
0.145449 0.0698863 0.0600748
0.164111 0.0652934 0.0536049
0.197742 0.0606088 0.0456703
0.224369 0.0540932 0.0365148
0.246723 0.0484169 0.0285954
0.272038 0.0460822 0.0238804
0.314672 0.0464942 0.0204623
0.373541 0.0471809 0.0158694
0.047013 0.066743 0.0553902
0.0557717 0.0713359 0.0608225
0.0650339 0.0756542 0.0663005
0.0745403 0.0797284 0.0717632
0.0835431 0.0835889 0.0775158
0.0912032 0.0869764 0.0817426
0.100877 0.0913558 0.0850996
0.123583 0.0913405 0.0808423
0.146304 0.0878614 0.0734112
0.164889 0.0813611 0.0645457
0.185245 0.0751659 0.0560769
0.231891 0.0715648 0.0474556
0.28957 0.0688029 0.0387427
0.356802 0.0671397 0.0299382
0.429099 0.0681773 0.0232547
0.508064 0.0693523 0.0159609
0.593988 0.0688487 0.00628672
0.0579538 0.0876783 0.0681163
0.0675669 0.0912032 0.0729076
0.0773785 0.0940719 0.0774243
0.0886091 0.0979934 0.0831159
0.0962387 0.0995804 0.0845045
0.103548 0.0993973 0.0756847
0.11545 0.101289 0.078584
0.140414 0.10251 0.0842908
0.17438 0.103532 0.0802167
0.213993 0.104784 0.076463
0.269734 0.106615 0.0717327
0.362539 0.106538 0.059968
0.45388 0.10277 0.0451209
0.550149 0.0988937 0.029572
0.640009 0.0988174 0.0183719
0.732357 0.0992447 0.00740063
0.831037 0.0990158 0
0.060029 0.110262 0.0657511
0.0696574 0.111864 0.0688182
0.0795605 0.112352 0.0715648
0.0906386 0.113802 0.0753338
0.102144 0.117876 0.0788281
0.121416 0.127306 0.0881208
0.145846 0.13904 0.101061
0.191424 0.149706 0.110643
0.246891 0.156283 0.109392
0.307927 0.159106 0.103212
0.390097 0.16141 0.0888685
0.506722 0.160067 0.0658579
0.621683 0.153521 0.0413214
0.735775 0.147936 0.0195468
0.833341 0.149203 0.0075227
0.929717 0.151644 0
1 0.154284 0
0.0544442 0.130587 0.0479438
0.0668498 0.136873 0.0512703
0.0836347 0.149386 0.0564584
0.104753 0.164675 0.0628519
0.128496 0.181674 0.0696727
0.156863 0.197543 0.078233
0.189334 0.212741 0.090013
0.262226 0.216892 0.115511
0.328786 0.227481 0.121523
0.40206 0.23241 0.115694
0.501366 0.233463 0.100633
0.635431 0.230091 0.075288
0.76112 0.223713 0.0425879
0.879255 0.221118 0.0153506
0.97142 0.226764 0.00360113
1 0.234165 0
1 0.241199 0
0.0510109 0.191501 0.0195773
0.0698711 0.209705 0.0213321
0.0919966 0.227314 0.0237736
0.118105 0.2448 0.0274052
0.145449 0.261845 0.0314488
0.178485 0.277897 0.0378882
0.215045 0.292851 0.0483864
0.306523 0.292958 0.0769513
0.401587 0.294987 0.107179
0.480598 0.307836 0.112657
0.588708 0.314168 0.10724
0.721981 0.308568 0.0796674
0.854765 0.301793 0.0548104
0.97322 0.30042 0.0355993
1 0.307897 0.0302892
1 0.31725 0.0277256
1 0.326802 0.0257725
0.0381476 0.276356 0
0.0619821 0.295583 0
0.0897841 0.314351 0
0.120455 0.33135 0
0.152468 0.348699 0
0.190143 0.364446 0
0.231296 0.380118 0
0.335653 0.376699 0.0217899
0.450965 0.369924 0.0632792
0.548333 0.376532 0.0941176
0.655604 0.39205 0.103563
0.790814 0.392004 0.0922255
0.913939 0.385687 0.0683757
1 0.384085 0.0546426
1 0.393423 0.0593729
1 0.406043 0.0686351
1 0.419974 0.0778515
0.0160983 0.371359 0
0.0459907 0.392447 0
0.0803235 0.412299 0
0.117311 0.432853 0
0.154803 0.455222 0
0.198413 0.476188 0
0.245029 0.496864 0
0.360678 0.49102 0
0.488106 0.480247 0
0.605539 0.470619 0.042649
0.723903 0.479683 0.0853437
0.854994 0.495125 0.101366
0.978759 0.497185 0.101747
1 0.503471 0.0989242
1 0.519173 0.108965
1 0.536904 0.122408
1 0.555108 0.137362
0 0.501259 0
0.0208896 0.525216 0
0.0641031 0.547723 0
0.109667 0.568872 0
0.154055 0.588663 0
0.203494 0.604944 0
0.253758 0.620813 0
0.377081 0.612833 0
0.515114 0.600229 0
0.639399 0.589792 0
0.778775 0.582635 0.0492409
0.92192 0.599344 0.100343
1 0.617945 0.119829
1 0.629923 0.13196
1 0.6477 0.150637
1 0.666392 0.170169
1 0.68394 0.188861
0 0.635676 0
0.00454719 0.652399 0
0.0592966 0.668666 0
0.113344 0.68484 0
0.164538 0.702556 0
0.221225 0.720088 0
0.277089 0.738277 0
0.40531 0.733364 0
0.547951 0.722133 0
0.675822 0.712459 0
0.819272 0.701915 0.0178836
0.986526 0.697627 0.0975357
1 0.720302 0.138491
1 0.742077 0.160204
1 0.761532 0.188144
1 0.78024 0.215503
1 0.796841 0.23856
0 0.749111 0
0.025864 0.764691 0
0.0871443 0.781369 0
0.147951 0.79913 0
0.205234 0.819165 0
0.266072 0.838315 0
0.325429 0.858213 0
0.455116 0.854078 0
0.593988 0.843122 0
0.71957 0.832517 0
0.868254 0.81886 0.025803
1 0.804547 0.107866
1 0.810864 0.169284
1 0.834653 0.201266
1 0.856825 0.22768
1 0.875319 0.25214
1 0.88922 0.272892
0.0230564 0.855375 0
0.0887465 0.873518 0
0.153994 0.891783 0
0.218112 0.910719 0
0.279362 0.930159 0
0.342947 0.948211 0
0.403403 0.966674 0
0.529107 0.961608 0
0.652674 0.950317 0
0.77409 0.936812 0.00358587
0.929076 0.918868 0.0774395
1 0.90013 0.149264
1 0.894163 0.211948
1 0.908095 0.246586
1 0.925368 0.266041
1 0.938674 0.280415
1 0.947921 0.292226
0.105592 0.962951 0
0.172457 0.980789 0
0.239628 0.998505 0
0.305348 1 0
0.365759 1 0
0.427115 1 0
0.483848 1 0
0.593164 1 0
0.70489 1 0.000656138
0.825498 1 0.0499886
0.975875 1 0.114061
1 0.975128 0.172137
1 0.956161 0.227329
1 0.957534 0.261952
1 0.969696 0.279423
1 0.981933 0.291615
1 0.992294 0.300603
0.194537 1 0
0.261265 1 0
0.325704 1 0
0.386877 1 0
0.44184 1 0
0.497032 1 0
0.545281 1 0
0.637156 1 0
0.738018 1 0.0217899
0.854994 1 0.0613413
0.997909 1 0.115709
1 1 0.167514
1 1 0.219394
1 1 0.257176
1 1 0.278019
1 1 0.292653
1 1 0.298405
0 0 0
0 0 0
0 0 0
0 0 0
0.00910964 0 0
0.0340734 0 0
0.0269932 0.0174716 0.0232853
0.0385138 0.0235142 0.0285039
0.0491035 0.0249943 0.0300298
0.057084 0.0245365 0.0291447
0.0668498 0.0238041 0.0279698
0.0901808 0.0247654 0.0286412
0.104417 0.0231327 0.0262455
0.120027 0.0221256 0.0247044
0.136568 0.0221866 0.024445
0.153872 0.0221714 0.0240787
0.178698 0.0191043 0.0224308
0 0 0
0 0 0
0 0 0
0 0 0.00122072
0.0279393 0 0.0206149
0.0390478 0.032517 0.0377966
0.0484779 0.0378576 0.0435035
0.0644694 0.0409247 0.0467231
0.0790723 0.0414588 0.0467384
0.0903487 0.0396429 0.0440833
0.103655 0.037583 0.041062
0.133806 0.0372168 0.0394751
0.153521 0.0341344 0.0350042
0.172961 0.031693 0.0314488
0.190845 0.0307012 0.0296178
0.207355 0.0297246 0.0278477
