site/assets/luts/freshluts--0000162-cinelike-d-to-normal-color.cube
# LUTr-Schema-Version: 2
# LUTr-ID: freshluts--0000162-cinelike-d-to-normal-color
# LUTr-Title: Cinelike-D to normal color
# LUTr-Collection: Fresh LUTs
# LUTr-Collection-ID: freshluts-community
# LUTr-Source: https://freshluts.com
# LUTr-Retrieved: 2026-07-27
# LUTr-Source-File: submissions-raw/freshluts/cubes/162__Lumix_CinD.cube
# LUTr-Source-Format: CUBE
# LUTr-Source-SHA256: cfaf26507ee98675194f5b5192e81688dce47620a22901ea7826a4a71a2ab26b
# LUTr-License: CC0-1.0
# LUTr-License-URL: https://freshluts.com/termsandconditions
# LUTr-License-Basis: site-terms
# LUTr-Transform-Class: creative-look
# LUTr-Tags: creative, freshluts, community, cube, panasonic-cinelike-d
# LUTr-Input-Color-Space: panasonic-cinelike-d
# LUTr-Input-Gamut: rec709
# LUTr-Input-Transfer: panasonic-cinelike-d
# LUTr-Output-Color-Space: srgb
# LUTr-Output-Gamut: rec709
# LUTr-Output-Transfer: srgb
# LUTr-Color-Space-Confidence: inferred-from-source-label
# LUTr-Domain-Normalized: true
# LUTr-Shaper: none
# LUTr-Original-Grid: 33x33x33
# LUTr-Conversion-Grid: 33x33x33
# LUTr-Conversion-Interpolation: none
# LUTr-Conversion-Method: Metadata normalization; numeric LUT samples preserved
# LUTr-Conversion-Tool: LUTr scripts/convert-all-to-cube.mjs 2.0.0
# LUTr-Conversion-Date: 2026-07-28
# LUTr-Asset-URL: https://freshluts.com/luts/162
# LUTr-Author: Sander
# LUTr-Author-URL: https://freshluts.com/users/1286
# LUTr-Attribution: Sander via Fresh LUTs
# LUTr-Source-Labels: gamma=Panasonic Cinelike-D; color=None; key=Neutral; style=Correction
# LUTr-Note: Preserve this metadata and the upstream license notices when redistributing.
TITLE "Cinelike-D to normal color"
LUT_3D_SIZE 5
DOMAIN_MIN 0 0 0
DOMAIN_MAX 1 1 1
0 0 0
0.230686 0 0
0.461021 0 0
0.695476 0 0
0.942199 0 0
0 0.192554 0
0.193652 0.193652 0
0.452964 0.202701 0
0.716854 0.216342 0
0.982956 0.232685 0
0 0.472343 0
0.238407 0.488655 0
0.503334 0.503334 0.00334173
0.764202 0.513954 0.013962
1 0.520912 0.0209354
0.0164797 0.766735 0.0164797
0.272831 0.773342 0.0230869
0.527855 0.778119 0.027863
0.781598 0.781598 0.0313573
1 0.783398 0.0331426
0.0322881 1 0.0322881
0.283497 1 0.0337682
0.533227 1 0.0332341
0.779629 1 0.0293889
1 1 0.0206149
0 0 0.243397
0.223865 0 0.223865
0.454887 0 0.204639
0.692958 0 0.192447
0.943587 0 0.193332
0 0.19144 0.19144
0.196139 0.196139 0.196139
0.457038 0.206775 0.206775
0.722286 0.221775 0.221775
0.988357 0.238102 0.238102
0 0.477684 0.227436
0.243809 0.494072 0.243809
0.507485 0.507485 0.257237
0.766873 0.516609 0.266361
1 0.523049 0.272786
0.0188754 0.769116 0.268605
0.274769 0.77528 0.274769
0.529244 0.779507 0.278996
0.782361 0.782361 0.281849
1 0.783734 0.283223
0.0329747 1 0.282704
0.283436 1 0.283436
0.532662 1 0.282414
0.776898 1 0.276387
1 1 0.266896
0 0 0.487404
0.216999 0 0.467262
0.44947 0 0.44947
0.691661 0 0.441398
0.945922 0 0.445914
0 0.19205 0.442313
0.199268 0.199268 0.449516
0.461753 0.21149 0.461753
0.727916 0.227405 0.477668
0.993759 0.243503 0.493751
0 0.48333 0.48333
0.24892 0.499168 0.499168
0.511025 0.511025 0.511025
0.769039 0.518791 0.518791
1 0.524956 0.524956
0.0211032 0.771359 0.521096
0.276188 0.776699 0.526452
0.530465 0.780728 0.530465
0.782879 0.782879 0.532631
1 0.783856 0.533593
0.0334325 1 0.533425
0.28333 1 0.533578
0.531258 1 0.531258
0.773938 1 0.52369
1 1 0.513344
0 0 0.730755
0.210468 0 0.710979
0.445075 0 0.695323
0.692409 0 0.692409
0.948974 0 0.699229
0 0.193729 0.69424
0.202853 0.202853 0.703365
0.466957 0.216709 0.71722
0.733242 0.232731 0.733242
0.998901 0.248646 0.749157
0 0.48893 0.739193
0.253254 0.503502 0.753765
0.514168 0.514168 0.764431
0.771252 0.521004 0.771252
1 0.526665 0.776928
0.0231479 0.773404 0.773404
0.27776 0.778271 0.778271
0.531441 0.781704 0.781704
0.783368 0.783368 0.783368
1 0.783551 0.783551
0.0336461 1 0.783902
0.283024 1 0.783536
0.529122 1 0.77937
0.770626 1 0.770626
1 1 0.760006
0 0 0.973693
0.204211 0 0.954482
0.442649 0 0.942657
0.693828 0 0.943587
0.952712 0 0.952712
0 0.196246 0.946517
0.20708 0.20708 0.957351
0.472419 0.222156 0.972427
0.738888 0.238376 0.988632
1 0.253269 1
0 0.494331 0.994339
0.257527 0.507774 1
0.516701 0.516701 1
0.773373 0.52311 1
1 0.528008 1
0.0248875 0.775143 1
0.279133 0.779644 1
0.532082 0.782345 1
0.783703 0.783703 1
1 0.783307 1
0.0336004 1 1
0.282414 1 1
0.526558 1 1
0.767147 1 1
1 1 1
