site/assets/luts/freshluts--0000163-shadow-king.cube
# LUTr-Schema-Version: 2
# LUTr-ID: freshluts--0000163-shadow-king
# LUTr-Title: SHADOW KING
# LUTr-Collection: Fresh LUTs
# LUTr-Collection-ID: freshluts-community
# LUTr-Source: https://freshluts.com
# LUTr-Retrieved: 2026-07-27
# LUTr-Source-File: submissions-raw/freshluts/cubes/163__SHADOW_KING__39.C0065.cube
# LUTr-Source-Format: CUBE
# LUTr-Source-SHA256: d1aafd808000761934fd73a484ac403340a53dbd3fdeb628eec5abd8a100bce3
# LUTr-License: CC0-1.0
# LUTr-License-URL: https://freshluts.com/termsandconditions
# LUTr-License-Basis: site-terms
# LUTr-Transform-Class: creative-look
# LUTr-Tags: creative, freshluts, community, cube, cinematic, blockbuster, blue, low-key, rec709
# LUTr-Input-Color-Space: rec709
# LUTr-Input-Gamut: rec709
# LUTr-Input-Transfer: rec709
# LUTr-Output-Color-Space: srgb
# LUTr-Output-Gamut: rec709
# LUTr-Output-Transfer: srgb
# LUTr-Color-Space-Confidence: inferred-from-source-label
# LUTr-Domain-Normalized: true
# LUTr-Shaper: none
# LUTr-Original-Grid: 33x33x33
# LUTr-Conversion-Grid: 33x33x33
# LUTr-Conversion-Interpolation: none
# LUTr-Conversion-Method: Metadata normalization; numeric LUT samples preserved
# LUTr-Conversion-Tool: LUTr scripts/convert-all-to-cube.mjs 2.0.0
# LUTr-Conversion-Date: 2026-07-28
# LUTr-Asset-URL: https://freshluts.com/luts/163
# LUTr-Author: Shamoon Abbasi
# LUTr-Author-URL: https://freshluts.com/users/1258
# LUTr-Attribution: Shamoon Abbasi via Fresh LUTs
# LUTr-Source-Labels: gamma=Rec 709; color=Blue; key=Low Key; style=Blockbuster
# LUTr-Note: Preserve this metadata and the upstream license notices when redistributing.
TITLE "SHADOW KING"
LUT_3D_SIZE 9
DOMAIN_MIN 0 0 0
DOMAIN_MAX 1 1 1
0.0213626 0.0213626 0.0213626
0.0265202 0.026688 0.0269169
0.0388495 0.0308537 0.0313268
0.0714275 0.0323644 0.0328222
0.124041 0.0329442 0.0335851
0.195392 0.0324865 0.0331121
0.290867 0.0313268 0.0320745
0.408392 0.0295872 0.0302739
0.53637 0.0277867 0.0286564
0.0413977 0.0422522 0.0434424
0.0500801 0.0510262 0.0528115
0.0615244 0.0599069 0.0590219
0.0937514 0.0655375 0.055024
0.151141 0.068574 0.0525521
0.224216 0.0696422 0.0500038
0.327321 0.0699168 0.0475319
0.446113 0.0694743 0.0451514
0.575662 0.0691081 0.043183
0.0625925 0.0778668 0.0667887
0.0802777 0.087129 0.082887
0.0986343 0.102266 0.0867628
0.133516 0.115358 0.0806287
0.1879 0.124971 0.0754559
0.26569 0.131518 0.0711681
0.372274 0.135515 0.0675059
0.4907 0.13846 0.0643778
0.616297 0.140993 0.06215
0.0708019 0.1458 0.0766155
0.105394 0.156756 0.0952621
0.140322 0.171191 0.107515
0.179477 0.18703 0.108263
0.235294 0.201007 0.102632
0.318685 0.212238 0.0958877
0.421897 0.22089 0.0897536
0.539773 0.228016 0.0843824
0.656245 0.234501 0.0809796
0.0772412 0.236408 0.0853742
0.123644 0.249073 0.105135
0.171984 0.264958 0.120302
0.223102 0.28484 0.127916
0.289952 0.30454 0.127504
0.375433 0.32163 0.122164
0.47541 0.336141 0.115892
0.588327 0.348638 0.110521
0.699031 0.35996 0.10602
0.082002 0.362188 0.0941329
0.138186 0.377493 0.11339
0.196689 0.394461 0.130312
0.262043 0.412467 0.141665
0.342214 0.431693 0.145937
0.430579 0.450263 0.144869
0.531746 0.467475 0.141131
0.634806 0.482567 0.135927
0.741329 0.4963 0.130709
0.0887617 0.505074 0.103136
0.150607 0.521324 0.122164
0.217853 0.53817 0.139666
0.299077 0.555734 0.152621
0.388128 0.572503 0.160494
0.481987 0.589807 0.163165
0.583108 0.605798 0.162097
0.68127 0.620569 0.158633
0.778881 0.633204 0.153689
0.0977646 0.651469 0.114031
0.164508 0.665629 0.133654
0.239246 0.67924 0.150072
0.331548 0.693187 0.163577
0.428183 0.707607 0.173068
0.529137 0.722194 0.178134
0.626444 0.736584 0.178943
0.724193 0.749249 0.177737
0.813306 0.760952 0.174258
0.106142 0.786587 0.125368
0.176135 0.796979 0.143404
0.257145 0.806622 0.15903
0.357336 0.816098 0.171984
0.459739 0.825772 0.18175
0.566171 0.836469 0.189044
0.664164 0.847745 0.193225
0.760479 0.858183 0.193942
0.844999 0.867948 0.192355
0.0228122 0.022858 0.0229191
0.0284276 0.0286564 0.0289464
0.03682 0.0336461 0.0360113
0.0682231 0.0348516 0.0464179
0.118425 0.0351415 0.0525521
0.189197 0.0345617 0.0554513
0.283024 0.0332952 0.0563821
0.40119 0.0316167 0.0560464
0.528344 0.0297551 0.0551919
0.0442969 0.0452277 0.0466011
0.0530556 0.0541695 0.0560464
0.0622416 0.0636606 0.0661631
0.0830091 0.0708019 0.073579
0.140856 0.0732128 0.0762493
0.214389 0.0741131 0.077409
0.316106 0.0740215 0.0773327
0.436316 0.0733959 0.0769665
0.567285 0.0729534 0.076524
0.0708019 0.0790265 0.0790265
0.0872511 0.0906386 0.0960098
0.102266 0.106264 0.112642
0.122698 0.122164 0.124437
0.175738 0.132586 0.11696
0.251759 0.138994 0.112764
0.358648 0.142992 0.11014
0.478126 0.145403 0.107515
0.606149 0.147677 0.106264
0.0793774 0.147265 0.108141
0.124834 0.155154 0.13872
0.156756 0.169451 0.167575
0.18175 0.189487 0.17319
0.227695 0.207187 0.164248
0.305821 0.219471 0.155154
0.408576 0.229114 0.148333
0.526131 0.236561 0.14313
0.645212 0.242893 0.139788
0.0863813 0.237827 0.130449
0.141131 0.248432 0.157961
0.190921 0.262592 0.184588
0.236713 0.284474 0.201007
0.293233 0.308019 0.202152
0.370398 0.32842 0.195102
0.465736 0.344228 0.186023
0.577523 0.357534 0.178805
0.688624 0.368902 0.173861
0.0926375 0.364065 0.147799
0.153552 0.377493 0.173327
0.215686 0.392599 0.19855
0.282841 0.411353 0.21857
0.354726 0.432242 0.228336
0.433722 0.453742 0.227848
0.528542 0.473289 0.221683
0.628229 0.489921 0.214099
0.733684 0.504463 0.207477
0.0992599 0.507469 0.163699
0.164904 0.521721 0.187472
0.236881 0.536965 0.212085
0.320333 0.55407 0.233707
0.405249 0.572305 0.2486
0.491859 0.590738 0.254139
0.585901 0.608652 0.252705
0.679057 0.624842 0.247639
0.774411 0.638895 0.240513
0.107515 0.653315 0.179736
0.17734 0.665995 0.204028
0.257145 0.678508 0.22707
0.352132 0.691554 0.2486
0.446113 0.706142 0.265324
0.543191 0.721645 0.276097
0.633555 0.73785 0.279744
0.726757 0.751461 0.277546
0.812268 0.764126 0.272251
0.115358 0.78793 0.195529
0.18819 0.797284 0.217853
0.274815 0.806043 0.24004
0.377111 0.814939 0.260594
0.478706 0.824475 0.278828
0.581064 0.835599 0.2925
0.674281 0.847883 0.30071
0.765866 0.859358 0.302907
0.846876 0.86978 0.30071
0.0242008 0.0243076 0.0325322
0.0314336 0.029984 0.0340429
0.0437781 0.034226 0.0459144
0.070634 0.0362402 0.0611582
0.118425 0.03682 0.0729534
0.18703 0.0362402 0.0805371
0.278462 0.0349737 0.0862593
0.395956 0.0332952 0.0902571
0.523522 0.0314336 0.0926375
0.044892 0.0486305 0.0530556
0.0560464 0.0573129 0.0592813
0.0654459 0.0670634 0.0697337
0.0800031 0.0756237 0.0821241
0.134859 0.0775006 0.100755
0.20734 0.0782177 0.111635
0.307286 0.0777752 0.118425
0.428 0.0771496 0.12311
0.559655 0.0764324 0.126436
0.06804 0.0847486 0.0897536
0.092256 0.0957656 0.101381
0.107515 0.111772 0.1187
0.124041 0.129244 0.137652
0.161563 0.142199 0.151415
0.23798 0.147265 0.156756
0.344228 0.150347 0.160235
0.465934 0.152483 0.162631
0.595773 0.153948 0.16437
0.0817884 0.151949 0.136461
0.139925 0.157427 0.16144
0.167041 0.173861 0.185168
0.186603 0.194522 0.207919
0.213535 0.215839 0.223423
0.287755 0.229603 0.213825
0.391104 0.238773 0.208637
0.510292 0.245426 0.206332
0.633204 0.251286 0.205615
0.0927596 0.241779 0.17319
0.155825 0.249699 0.202304
0.216129 0.260044 0.242893
0.258885 0.281376 0.285023
0.296147 0.311147 0.293233
0.35996 0.336324 0.280095
0.450843 0.35436 0.266606
0.562814 0.367422 0.256977
0.675196 0.378607 0.251606
0.100633 0.367971 0.202869
0.167452 0.378607 0.232914
0.2383 0.390921 0.270985
0.310048 0.408209 0.310964
0.37171 0.431693 0.334493
0.436866 0.45684 0.335592
0.521324 0.479667 0.325673
0.618616 0.498253 0.314275
0.722194 0.513497 0.303807
0.107393 0.510887 0.228641
0.177874 0.523522 0.259358
0.256825 0.53576 0.296513
0.345708 0.551461 0.33228
0.426139 0.569894 0.359762
0.504875 0.591119 0.372641
0.587945 0.611139 0.371328
0.67483 0.629297 0.363684
0.767926 0.644297 0.353613
0.115633 0.655879 0.254917
0.189776 0.666926 0.287404
0.276997 0.677775 0.321248
0.37525 0.68954 0.353429
0.468254 0.703227 0.380285
0.559274 0.719829 0.398016
0.641749 0.73785 0.4047
0.728573 0.753201 0.402853
0.80975 0.767452 0.396139
0.123903 0.789715 0.28101
0.199847 0.797574 0.31133
0.29305 0.805142 0.341299
0.398016 0.813306 0.370214
0.500252 0.822736 0.396521
0.598321 0.833875 0.415976
0.686412 0.847013 0.428183
0.771725 0.859739 0.432425
0.8486 0.871473 0.430396
0.0245975 0.0247807 0.0616922
0.0365301 0.0293584 0.0622416
0.0537423 0.033402 0.0695506
0.0781262 0.0362402 0.0831311
0.124971 0.0374914 0.102632
0.190494 0.037232 0.1187
0.279377 0.0360113 0.13138
0.394842 0.0343938 0.140459
0.520912 0.0327153 0.147677
0.039353 0.0518654 0.080354
0.0582589 0.059556 0.0758984
0.0707103 0.0693828 0.0787518
0.0916304 0.0767071 0.100267
0.138857 0.0800031 0.127779
0.20734 0.0810712 0.149813
0.304723 0.0809033 0.165179
0.423743 0.0800946 0.176135
0.554803 0.0792859 0.184726
0.0606241 0.092256 0.119768
0.0931411 0.10164 0.113024
0.112886 0.117357 0.124834
0.130053 0.135393 0.144198
0.156619 0.151278 0.167041
0.229603 0.155016 0.192355
0.334493 0.157427 0.208347
0.45568 0.158892 0.21915
0.587396 0.160098 0.228336
0.0778668 0.159167 0.169451
0.135119 0.166384 0.177066
0.173602 0.180545 0.192798
0.193515 0.202014 0.215686
0.215122 0.224689 0.241001
0.266056 0.242573 0.260594
0.372824 0.249546 0.268605
0.494179 0.254917 0.275181
0.62092 0.259678 0.281193
0.0925154 0.24828 0.2177
0.160372 0.255879 0.239734
0.23624 0.263325 0.275364
0.274266 0.288487 0.311513
0.30309 0.318502 0.343313
0.341115 0.348089 0.364996
0.430579 0.366674 0.351949
0.544991 0.379355 0.346075
0.659922 0.389059 0.343862
0.103395 0.374136 0.262776
0.175738 0.383276 0.295064
0.257771 0.392233 0.336141
0.344411 0.404883 0.38999
0.399512 0.428367 0.439094
0.439826 0.460517 0.447593
0.509682 0.487785 0.433356
0.604379 0.508278 0.41912
0.70779 0.523934 0.409323
0.112016 0.515908 0.306004
0.18761 0.526741 0.340185
0.27718 0.537163 0.379919
0.374136 0.549004 0.424475
0.4551 0.565988 0.467475
0.523125 0.589441 0.493217
0.590555 0.613977 0.494759
0.668208 0.634272 0.483543
0.758267 0.651102 0.470375
0.121904 0.659739 0.345892
0.199847 0.669123 0.379538
0.295598 0.677958 0.415427
0.399695 0.687709 0.454124
0.49514 0.699947 0.491859
0.57995 0.716899 0.521324
0.65275 0.737377 0.534768
0.73077 0.755261 0.534157
0.806043 0.770932 0.524727
0.130175 0.791791 0.379538
0.209934 0.798917 0.411353
0.310048 0.80499 0.443153
0.418936 0.811826 0.478126
0.525338 0.820432 0.512688
0.618616 0.831846 0.54258
0.701762 0.845579 0.560952
0.778576 0.859739 0.568399
0.849912 0.872908 0.56672
0.0247807 0.0248875 0.108766
0.0403754 0.0287785 0.108522
0.0616159 0.0324865 0.114687
0.0890059 0.0353246 0.129244
0.136187 0.0368811 0.148608
0.19884 0.037171 0.167575
0.286305 0.0364233 0.184436
0.398199 0.0349737 0.19855
0.522316 0.0335241 0.210513
0.0363622 0.0535744 0.134447
0.0586862 0.0601816 0.128985
0.0793774 0.0679484 0.129778
0.108522 0.0752728 0.143664
0.152621 0.0799115 0.167712
0.215549 0.0822614 0.193805
0.309483 0.0830091 0.216983
0.425406 0.0825055 0.236881
0.55407 0.0816052 0.252872
0.054078 0.0973831 0.171191
0.0840009 0.107515 0.163439
0.116701 0.121508 0.155154
0.139666 0.139666 0.160769
0.172396 0.153277 0.190921
0.235615 0.15996 0.228489
0.334127 0.162631 0.259358
0.452003 0.164111 0.28484
0.582361 0.165316 0.304723
0.0712596 0.166247 0.218997
0.121233 0.175998 0.216983
0.174929 0.188617 0.208484
0.200855 0.209491 0.224216
0.222629 0.233082 0.250172
0.258564 0.254444 0.284108
0.36257 0.260227 0.321996
0.482765 0.264591 0.345708
0.61149 0.268971 0.363119
0.0868849 0.256825 0.277363
0.153277 0.266606 0.288121
0.229435 0.276997 0.299611
0.283925 0.298711 0.322179
0.313726 0.328969 0.35491
0.34313 0.35996 0.387564
0.407279 0.382895 0.411719
0.525139 0.392599 0.421897
0.645212 0.400809 0.430396
0.101518 0.382162 0.33669
0.175463 0.39205 0.359014
0.264424 0.400061 0.386633
0.370214 0.408392 0.427802
0.416159 0.435569 0.467872
0.44741 0.468833 0.502861
0.488762 0.500862 0.52694
0.584421 0.521523 0.512688
0.689906 0.535973 0.506676
0.112886 0.522728 0.38999
0.191501 0.53315 0.418189
0.289036 0.541985 0.451423
0.398947 0.55053 0.496117
0.492821 0.562249 0.554253
0.552575 0.585901 0.602411
0.593729 0.616831 0.61149
0.657359 0.641932 0.597787
0.745449 0.659739 0.583291
0.124834 0.664714 0.438346
0.205905 0.673167 0.468452
0.308934 0.680537 0.503258
0.421332 0.687709 0.54519
0.526131 0.697566 0.588876
0.607935 0.713069 0.629465
0.66894 0.735866 0.652567
0.732952 0.757473 0.654231
0.800839 0.77615 0.643931
0.134051 0.794614 0.479866
0.216693 0.801144 0.511086
0.323827 0.806485 0.544396
0.438346 0.811521 0.579019
0.551263 0.818845 0.615228
0.642817 0.829389 0.650553
0.722744 0.843687 0.678325
0.787778 0.85948 0.690455
0.851789 0.874464 0.689723
0.0244297 0.0246586 0.180148
0.0425116 0.0280156 0.17908
0.0670634 0.0313268 0.183429
0.0998856 0.0340429 0.194522
0.14847 0.0357214 0.211231
0.210224 0.0363622 0.231022
0.297429 0.0360113 0.252232
0.406363 0.0350347 0.272801
0.527535 0.033753 0.292134
0.0345617 0.0543374 0.20705
0.0585031 0.0601816 0.201862
0.085008 0.0667887 0.201572
0.122301 0.0732128 0.209934
0.16878 0.0784009 0.229114
0.230701 0.0814374 0.255711
0.321996 0.0834974 0.286854
0.43299 0.0838788 0.314824
0.55816 0.0837568 0.339452
0.0489815 0.100511 0.2448
0.079118 0.110643 0.236881
0.118029 0.122972 0.229603
0.155428 0.137255 0.230549
0.195239 0.150744 0.249866
0.254139 0.15996 0.286122
0.346258 0.165042 0.325673
0.457603 0.167315 0.35996
0.583856 0.169055 0.388678
0.0647288 0.171984 0.297246
0.109895 0.182864 0.290867
0.162768 0.196536 0.278645
0.206043 0.214969 0.266056
0.235615 0.238773 0.274266
0.282475 0.257145 0.319783
0.370031 0.267338 0.371893
0.482765 0.272984 0.4121
0.608118 0.276814 0.441672
0.0795605 0.265141 0.358831
0.142336 0.278279 0.360693
0.211658 0.2916 0.356405
0.286122 0.310048 0.344045
0.323461 0.339635 0.365927
0.353796 0.370962 0.39913
0.398566 0.397833 0.43743
0.5131 0.405432 0.479866
0.634806 0.411902 0.507469
0.0956283 0.390921 0.420233
0.168383 0.402472 0.432242
0.255085 0.413016 0.442969
0.362005 0.423377 0.454124
0.42652 0.446479 0.479667
0.458381 0.480247 0.515297
0.491279 0.514504 0.551827
0.560204 0.539376 0.575662
0.671336 0.550149 0.586648
0.110018 0.531746 0.479088
0.188907 0.542184 0.499458
0.288853 0.551263 0.52253
0.406546 0.558526 0.551263
0.521523 0.565988 0.592416
0.569711 0.593164 0.629465
0.600992 0.624125 0.661768
0.638544 0.653681 0.683467
0.727123 0.672251 0.670604
0.124041 0.67097 0.53637
0.20705 0.679973 0.560586
0.314458 0.686046 0.586282
0.433906 0.691737 0.615946
0.552392 0.698299 0.655695
0.6421 0.709972 0.708339
0.6963 0.732403 0.753048
0.735866 0.760159 0.760952
0.792081 0.782437 0.748928
0.134722 0.798611 0.582177
0.219623 0.804852 0.606332
0.331914 0.809598 0.631968
0.453162 0.813901 0.661768
0.573236 0.818982 0.698116
0.671153 0.827512 0.740856
0.748775 0.840803 0.776944
0.80174 0.858579 0.796979
0.853498 0.876417 0.797879
0.0239109 0.0241398 0.275547
0.043534 0.0271 0.273533
0.0705425 0.030045 0.276997
0.108385 0.0325322 0.286671
0.159838 0.034226 0.302541
0.223102 0.0349737 0.322911
0.31133 0.0349737 0.345708
0.417639 0.0344549 0.368536
0.536767 0.033463 0.390173
0.0328832 0.0543374 0.308568
0.0580911 0.0597391 0.302907
0.0888838 0.0655375 0.301625
0.132586 0.0710765 0.308019
0.183001 0.0761578 0.323644
0.248112 0.0799115 0.348089
0.339086 0.0821241 0.37731
0.445747 0.0836347 0.406912
0.567102 0.0842603 0.434089
0.0448005 0.10251 0.349752
0.0760815 0.112139 0.342214
0.118425 0.123507 0.335958
0.164645 0.135515 0.335225
0.213962 0.147539 0.347356
0.278462 0.157565 0.373953
0.366674 0.164508 0.408957
0.472114 0.168521 0.44445
0.591867 0.171191 0.477348
0.0593729 0.176394 0.400443
0.101518 0.1879 0.393347
0.15555 0.201144 0.382528
0.20763 0.216693 0.372824
0.257298 0.235935 0.374685
0.315557 0.253971 0.398566
0.394095 0.267887 0.440009
0.4963 0.276631 0.485084
0.613443 0.282658 0.525536
0.0734874 0.272801 0.456443
0.130983 0.287587 0.453941
0.197696 0.302907 0.445563
0.267704 0.321447 0.431876
0.330449 0.34699 0.418189
0.370031 0.378424 0.426886
0.425406 0.401556 0.47715
0.521324 0.413016 0.534966
0.634455 0.420417 0.57789
0.088014 0.399695 0.51751
0.158358 0.412833 0.522728
0.239887 0.425589 0.523323
0.339452 0.439643 0.518105
0.428733 0.459159 0.503868
0.469413 0.491463 0.527947
0.502464 0.526329 0.56318
0.552392 0.55555 0.601877
0.660487 0.562997 0.640864
0.104891 0.540581 0.57734
0.18201 0.552941 0.588876
0.278645 0.562249 0.598856
0.395407 0.571374 0.607584
0.512688 0.58143 0.617548
0.580499 0.603845 0.640681
0.610956 0.634455 0.672801
0.640681 0.665629 0.705776
0.704143 0.688258 0.729488
0.120562 0.678141 0.630533
0.203449 0.687709 0.646311
0.311147 0.694835 0.662501
0.433539 0.70013 0.680903
0.559655 0.705776 0.705592
0.668208 0.713252 0.744488
0.712886 0.73959 0.777539
0.742275 0.766659 0.80441
0.77615 0.792233 0.821881
0.133379 0.803815 0.67686
0.218708 0.80975 0.695567
0.333013 0.814649 0.71545
0.458579 0.818555 0.738476
0.586465 0.822461 0.764279
0.695567 0.828382 0.798474
0.779324 0.838056 0.8421
0.824048 0.856229 0.877989
0.855573 0.878904 0.884245
0.0230411 0.023331 0.399878
0.0437781 0.0261082 0.397833
0.0726787 0.0287175 0.399695
0.114565 0.0309758 0.405997
0.169314 0.0325322 0.417456
0.235935 0.033402 0.433722
0.326223 0.0335851 0.453162
0.431144 0.033402 0.475212
0.549004 0.0329442 0.497658
0.0312657 0.0539101 0.431327
0.0572366 0.058854 0.42707
0.0910048 0.0642863 0.425772
0.139666 0.0691081 0.429099
0.194949 0.0738384 0.439826
0.264591 0.0777752 0.458381
0.357534 0.0804456 0.483543
0.46244 0.0822614 0.511482
0.579568 0.0838788 0.539971
0.0415656 0.103639 0.471351
0.0734874 0.112886 0.464576
0.118303 0.123507 0.459739
0.17052 0.134325 0.458381
0.227848 0.144869 0.465736
0.300893 0.154482 0.483726
0.389624 0.162234 0.511696
0.491463 0.167849 0.545602
0.605081 0.171725 0.577157
0.0546731 0.179477 0.518517
0.09514 0.191638 0.511894
0.150744 0.204028 0.502663
0.208484 0.2177 0.495338
0.271534 0.23418 0.494759
0.342397 0.250645 0.508675
0.422263 0.264775 0.53817
0.51931 0.276448 0.575296
0.626978 0.28484 0.612024
0.0679484 0.279377 0.569894
0.121233 0.294881 0.566537
0.18674 0.31078 0.55816
0.257771 0.328237 0.546807
0.333013 0.349752 0.536171
0.397635 0.374502 0.537774
0.461677 0.398016 0.56318
0.547997 0.414313 0.605081
0.646693 0.424857 0.647059
0.0811627 0.408026 0.621454
0.148333 0.42208 0.622354
0.225483 0.436316 0.61825
0.319417 0.452003 0.610071
0.410056 0.472114 0.59707
0.477348 0.499458 0.582559
0.520912 0.534157 0.591302
0.578836 0.559091 0.638361
0.668391 0.571374 0.691005
0.0983902 0.549599 0.673915
0.173465 0.562448 0.679973
0.264424 0.5738 0.682918
0.376928 0.584604 0.68127
0.487022 0.597787 0.675746
0.582925 0.615763 0.66305
0.621103 0.644846 0.684398
0.650919 0.676112 0.716899
0.695933 0.702861 0.752255
0.115358 0.685863 0.72694
0.196826 0.696117 0.737377
0.301442 0.704326 0.744808
0.422812 0.711254 0.751141
0.548409 0.718364 0.757794
0.659739 0.72784 0.766491
0.72311 0.748775 0.786587
0.751614 0.776318 0.813748
0.777981 0.802029 0.840085
0.129641 0.809155 0.769665
0.214679 0.815946 0.781552
0.327871 0.820722 0.792386
0.454704 0.825055 0.804257
0.586084 0.829541 0.818982
0.702861 0.834592 0.839796
0.800397 0.840803 0.870176
0.837186 0.861433 0.896178
0.861173 0.884504 0.917586
0.0220951 0.0223545 0.534966
0.043534 0.0249485 0.532952
0.0740215 0.0273289 0.533761
0.119493 0.0293584 0.538369
0.177066 0.030808 0.546593
0.247639 0.0317235 0.558724
0.340734 0.0320745 0.573617
0.44538 0.0321965 0.591669
0.561883 0.0321355 0.610788
0.0297551 0.0531472 0.566171
0.0562905 0.057908 0.562814
0.092134 0.0628672 0.561517
0.144869 0.0675975 0.563561
0.204608 0.0717021 0.570077
0.280827 0.0755322 0.583291
0.375814 0.0785687 0.601343
0.480446 0.0808118 0.622522
0.594278 0.0827497 0.645396
0.0385901 0.104265 0.601526
0.071519 0.113268 0.59707
0.117769 0.123232 0.593729
0.174533 0.13312 0.592233
0.238773 0.142733 0.596521
0.3196 0.151675 0.607217
0.410803 0.159564 0.625025
0.513497 0.16611 0.64889
0.621637 0.171328 0.676478
0.0510262 0.181888 0.639261
0.090013 0.194232 0.634989
0.147539 0.206332 0.629114
0.209216 0.21857 0.623774
0.281193 0.233082 0.622522
0.362188 0.247807 0.628931
0.44741 0.261311 0.646311
0.545388 0.274266 0.672801
0.645396 0.284657 0.704677
0.0634012 0.28484 0.682002
0.113771 0.300893 0.678508
0.179202 0.316838 0.671885
0.252232 0.333577 0.663432
0.335042 0.352132 0.655512
0.413947 0.373007 0.655146
0.491463 0.394095 0.667842
0.577157 0.4121 0.695201
0.668208 0.425223 0.73077
0.0762493 0.415045 0.728573
0.139528 0.430762 0.72784
0.214099 0.445182 0.722377
0.305089 0.461479 0.713619
0.398764 0.480446 0.702312
0.481025 0.50367 0.69247
0.55108 0.530556 0.693553
0.61416 0.55555 0.717266
0.692287 0.572503 0.755734
0.0915084 0.557412 0.772671
0.164645 0.571191 0.775204
0.250965 0.583856 0.773938
0.359014 0.595956 0.769024
0.465934 0.609537 0.760479
0.562997 0.627512 0.748135
0.628397 0.652567 0.735866
0.667292 0.683467 0.743221
0.721462 0.706325 0.784512
0.109636 0.693736 0.815381
0.188037 0.704509 0.819852
0.288487 0.713619 0.822309
0.407095 0.722194 0.822171
0.52874 0.731502 0.820294
0.636591 0.742748 0.815518
0.725109 0.759213 0.805142
0.760647 0.785107 0.822461
0.786892 0.810941 0.849332
0.1243 0.814649 0.852842
0.208057 0.822019 0.859739
0.318502 0.827802 0.864958
0.4439 0.832715 0.869917
0.574731 0.838209 0.874861
0.692287 0.844846 0.881498
0.793866 0.852705 0.888304
0.845579 0.869261 0.903471
0.868482 0.891081 0.92369
