site/assets/luts/freshluts--0001969-yellow-sahil.cube
# LUTr-Schema-Version: 2
# LUTr-ID: freshluts--0001969-yellow-sahil
# LUTr-Title: Yellow Sahil
# LUTr-Collection: Fresh LUTs
# LUTr-Collection-ID: freshluts-community
# LUTr-Source: https://freshluts.com
# LUTr-Retrieved: 2026-07-27
# LUTr-Source-File: submissions-raw/freshluts/cubes/1969__yellow_sahil.cube
# LUTr-Source-Format: CUBE
# LUTr-Source-SHA256: bedc8e5c063ce0d8ca0a00abec05ec062361c1d8046b366b2cb28392ca854ae7
# LUTr-License: CC0-1.0
# LUTr-License-URL: https://freshluts.com/termsandconditions
# LUTr-License-Basis: site-terms
# LUTr-Transform-Class: creative-look
# LUTr-Tags: creative, freshluts, community, cube, yellow, sony-s-log2
# LUTr-Input-Color-Space:
# LUTr-Input-Gamut: sony-s-gamut
# LUTr-Input-Transfer: sony-s-log2
# LUTr-Output-Color-Space: srgb
# LUTr-Output-Gamut: rec709
# LUTr-Output-Transfer: srgb
# LUTr-Color-Space-Confidence: camera-profile-input-required
# LUTr-Domain-Normalized: true
# LUTr-Shaper: none
# LUTr-Original-Grid: 16x16x16
# LUTr-Conversion-Grid: 16x16x16
# LUTr-Conversion-Interpolation: none
# LUTr-Conversion-Method: Metadata normalization; numeric LUT samples preserved
# LUTr-Conversion-Tool: LUTr scripts/convert-all-to-cube.mjs 2.0.0
# LUTr-Conversion-Date: 2026-07-28
# LUTr-Asset-URL: https://freshluts.com/luts/1969
# LUTr-Author: sahil raza
# LUTr-Author-URL: https://freshluts.com/users/275762
# LUTr-Attribution: sahil raza via Fresh LUTs
# LUTr-Source-Labels: gamma=Sony S-Log 2; color=Yellow; key=Neutral; style=Cinematic/Dark
# LUTr-Note: Preserve this metadata and the upstream license notices when redistributing.
TITLE "Yellow Sahil"
LUT_3D_SIZE 16
DOMAIN_MIN 0 0 0
DOMAIN_MAX 1 1 1
0.002505 0.00008 0
0.002505 0.00008 0
0.08138 0.007105 0
0.124084 0.011694 0.001469
0.179024 0.017271 0.003531
0.26106 0.025954 0.006175
0.361514 0.036991 0.009805
0.454456 0.046604 0.012649
0.546009 0.055949 0.015246
0.624892 0.064041 0.017674
0.699016 0.071721 0.02021
0.759883 0.077953 0.022522
0.816079 0.083737 0.024644
0.869701 0.0893 0.026781
0.906962 0.093153 0.028066
0.964763 0.097306 0.027937
0.002505 0.00008 0
0.002505 0.00008 0
0.083032 0.00008 0.002606
0.125666 0.00008 0.00724
0.179107 0.016398 0.003523
0.261167 0.02522 0.006175
0.361718 0.035748 0.009808
0.457521 0.043427 0.013742
0.552874 0.049902 0.01822
0.63223 0.056273 0.021849
0.704538 0.063645 0.024663
0.763497 0.070085 0.027039
0.81838 0.07629 0.029034
0.871693 0.082465 0.03091
0.908565 0.086745 0.031914
0.966067 0.091302 0.031392
0.017009 0.056368 0.013722
0.002505 0.055771 0.016745
0.067905 0.0603 0.014976
0.132701 0.00008 0.004547
0.190802 0.00008 0.00937
0.278928 0.00008 0.015591
0.381155 0.006824 0.020708
0.47655 0.026216 0.022282
0.48955 0.076392 0.014243
0.588118 0.092408 0.017197
0.669507 0.103002 0.019752
0.743814 0.110548 0.022302
0.806799 0.116154 0.024546
0.861353 0.120323 0.026582
0.897095 0.122433 0.027951
0.957132 0.123542 0.027683
0.02415 0.082492 0.021534
0.017894 0.082313 0.024314
0.002505 0.08277 0.024696
0.095333 0.085408 0.02245
0.124252 0.077341 0.020312
0.170711 0.089691 0.021023
0.241427 0.104543 0.018884
0.352699 0.123422 0.018715
0.477365 0.14102 0.020156
0.576015 0.153444 0.021803
0.663245 0.162736 0.023559
0.735461 0.169258 0.025351
0.803583 0.173684 0.027129
0.859248 0.176643 0.028756
0.896339 0.177802 0.029718
0.954903 0.177676 0.029359
0.031923 0.11239 0.030004
0.031486 0.112374 0.030006
0.002505 0.111855 0.034853
0.089251 0.109847 0.029338
0.135492 0.112832 0.030088
0.185255 0.125243 0.0329
0.252264 0.140333 0.032252
0.351372 0.16041 0.0299
0.470737 0.185085 0.030425
0.569782 0.202373 0.030984
0.658383 0.214473 0.031554
0.73163 0.222712 0.032384
0.799323 0.228 0.033208
0.858286 0.230742 0.034094
0.899542 0.231263 0.034074
0.953405 0.229349 0.033668
0.04213 0.156464 0.041358
0.041838 0.156441 0.041354
0.002505 0.155342 0.0472
0.10077 0.151294 0.040224
0.146337 0.152259 0.040788
0.180693 0.151367 0.039725
0.248306 0.17467 0.04303
0.343761 0.201498 0.04614
0.46076 0.230959 0.047122
0.565726 0.253534 0.046589
0.654568 0.270796 0.046451
0.72982 0.281874 0.046012
0.796164 0.288398 0.045364
0.857335 0.291458 0.044893
0.911042 0.291707 0.042623
0.952908 0.288135 0.042879
0.053417 0.21489 0.05356
0.053105 0.214855 0.053571
0.03426 0.216394 0.057751
0.111193 0.206135 0.05249
0.161187 0.206981 0.053273
0.204086 0.206473 0.052766
0.240212 0.203623 0.050279
0.337669 0.241932 0.055883
0.453572 0.281272 0.065851
0.563198 0.311996 0.069302
0.649928 0.332521 0.069331
0.72925 0.346802 0.067892
0.794502 0.354728 0.065844
0.857607 0.358635 0.06335
0.917561 0.358033 0.059189
0.952207 0.353076 0.059362
0.060468 0.28842 0.072818
0.061476 0.28882 0.072651
0.05633 0.29187 0.075484
0.111467 0.272914 0.065795
0.16868 0.272426 0.064107
0.2203 0.272833 0.064293
0.270165 0.27352 0.063936
0.32591 0.277282 0.064075
0.446973 0.330739 0.076361
0.560272 0.368426 0.085895
0.646158 0.392911 0.092022
0.727549 0.410475 0.093054
0.792125 0.420196 0.091287
0.855949 0.425266 0.087625
0.913444 0.424359 0.083246
0.948705 0.418784 0.082738
0.075682 0.368578 0.093411
0.076855 0.369807 0.093336
0.077212 0.360967 0.090968
0.104118 0.355156 0.087876
0.181569 0.353892 0.084363
0.239643 0.354606 0.083426
0.299422 0.356432 0.083699
0.367309 0.362814 0.084753
0.433472 0.369979 0.085409
0.555224 0.421048 0.096992
0.643949 0.451001 0.104635
0.724609 0.471388 0.110702
0.789991 0.483053 0.114224
0.8551 0.488909 0.112688
0.909731 0.487738 0.109734
0.944731 0.481213 0.10879
0.094514 0.451762 0.113582
0.095757 0.453221 0.113934
0.098906 0.443338 0.111173
0.105355 0.438072 0.109376
0.186145 0.436967 0.105085
0.254033 0.437843 0.103295
0.321522 0.440824 0.103155
0.396263 0.446775 0.104594
0.469907 0.457304 0.106245
0.544327 0.467352 0.107634
0.640103 0.506182 0.116597
0.722654 0.530165 0.122847
0.788607 0.543421 0.127084
0.856317 0.551071 0.130204
0.906089 0.549415 0.13094
0.941345 0.542832 0.131016
0.11028 0.526249 0.131737
0.111409 0.527533 0.131961
0.115996 0.518996 0.129503
0.117283 0.51736 0.129009
0.177706 0.519872 0.12627
0.262474 0.523115 0.123795
0.337133 0.526699 0.123059
0.417958 0.532459 0.123944
0.491531 0.537474 0.125264
0.572224 0.549883 0.127228
0.632563 0.554776 0.12779
0.717739 0.585679 0.13501
0.786734 0.601331 0.139294
0.857298 0.609574 0.141912
0.903166 0.606972 0.142318
0.938836 0.598962 0.142165
0.125036 0.597886 0.149052
0.126015 0.598822 0.149201
0.131166 0.593188 0.147415
0.137738 0.590566 0.146377
0.168499 0.592651 0.145117
0.264442 0.595836 0.141531
0.345241 0.601446 0.140636
0.430226 0.609675 0.141483
0.508296 0.617059 0.143085
0.583715 0.623266 0.144833
0.650249 0.632567 0.146296
0.710505 0.63842 0.147239
0.784221 0.660929 0.152645
0.861153 0.670906 0.154954
0.900913 0.667277 0.154828
0.937038 0.657809 0.154033
0.137389 0.658244 0.163673
0.138255 0.659014 0.163792
0.143311 0.655047 0.162447
0.153895 0.65731 0.162379
0.15476 0.660859 0.163255
0.258399 0.66417 0.158761
0.346682 0.669178 0.156954
0.435043 0.677272 0.157264
0.51517 0.684189 0.1584
0.594227 0.6914 0.160165
0.656206 0.695247 0.161397
0.719167 0.7036 0.162808
0.779266 0.710999 0.164332
0.863856 0.723023 0.166539
0.897279 0.720133 0.166428
0.934375 0.711429 0.165456
0.148691 0.71377 0.177198
0.149544 0.714398 0.177264
0.154096 0.710506 0.175904
0.165212 0.712058 0.175693
0.168977 0.71723 0.176825
0.244914 0.722569 0.174089
0.342519 0.729485 0.171854
0.432811 0.739439 0.17206
0.515483 0.747778 0.173012
0.595854 0.754563 0.174496
0.661464 0.758539 0.175684
0.718979 0.761118 0.176628
0.779496 0.76909 0.178168
0.863036 0.776708 0.178881
0.894213 0.772945 0.178452
0.931022 0.762898 0.176902
0.158535 0.762142 0.188937
0.159206 0.762604 0.188964
0.163444 0.758833 0.187831
0.173775 0.760233 0.187513
0.18271 0.764953 0.188246
0.214716 0.770745 0.187843
0.332617 0.776861 0.184077
0.42422 0.787361 0.18385
0.508471 0.79657 0.184648
0.588074 0.805258 0.186194
0.659244 0.812388 0.187973
0.716392 0.816058 0.189041
0.772968 0.818828 0.190245
0.855164 0.826011 0.190678
0.892818 0.827803 0.191437
0.92825 0.815801 0.189002
0.183199 0.884156 0.219
0.18342 0.884213 0.219005
0.185857 0.883613 0.218757
0.191831 0.886859 0.219251
0.196272 0.892154 0.220457
0.202908 0.897132 0.221497
0.311874 0.902485 0.217224
0.406721 0.911071 0.215996
0.493504 0.919897 0.216084
0.573584 0.927591 0.216881
0.650646 0.934762 0.218289
0.708258 0.937661 0.21916
0.767437 0.941267 0.220272
0.835326 0.943928 0.220896
0.888349 0.944751 0.220632
0.930771 0.945557 0.220883
0.002505 0.00008 0
0.002505 0.00008 0
0.002505 0.00008 0
0.098722 0.00008 0
0.173406 0.00008 0
0.265189 0.00008 0
0.367678 0.00008 0
0.460045 0.00008 0
0.550524 0.00008 0
0.627997 0.00008 0
0.700795 0.00008 0
0.760269 0.00008 0
0.817161 0.00008 0
0.868977 0.00008 0.00188
0.904169 0.00008 0.010102
0.965269 0.00008 0.017084
0.002505 0.00008 0
0.002505 0.00008 0
0.083131 0.00008 0.003962
0.125727 0.00008 0.007894
0.179185 0.016393 0.004154
0.261223 0.025087 0.006669
0.364909 0.034163 0.011403
0.462886 0.040717 0.016216
0.555481 0.048073 0.02024
0.632534 0.055519 0.023119
0.704683 0.063278 0.025647
0.763523 0.069897 0.027759
0.818286 0.07622 0.029572
0.871688 0.082405 0.03128
0.90858 0.086684 0.032275
0.966047 0.091199 0.031773
0.016781 0.056373 0.013963
0.002505 0.05577 0.017125
0.067809 0.060195 0.015178
0.132789 0.00008 0.005561
0.190889 0.00008 0.009888
0.279047 0.00008 0.01608
0.386038 0.013934 0.019755
0.393573 0.065209 0.011716
0.49075 0.083679 0.014821
0.586715 0.096018 0.017619
0.668803 0.104716 0.020107
0.743824 0.111246 0.022598
0.806928 0.116288 0.024807
0.860983 0.120414 0.026769
0.897138 0.122643 0.028122
0.957098 0.124177 0.027863
0.024045 0.082489 0.021578
0.017902 0.082312 0.024397
0.002505 0.082761 0.024892
0.094816 0.08493 0.022374
0.123592 0.083027 0.02203
0.169878 0.095267 0.023634
0.244279 0.107727 0.019779
0.357746 0.125182 0.019026
0.479489 0.142148 0.020471
0.576039 0.154203 0.022075
0.663181 0.16319 0.023849
0.735603 0.169409 0.025568
0.803631 0.173721 0.02732
0.859249 0.176631 0.028907
0.89659 0.177892 0.029866
0.954971 0.177827 0.029509
0.031862 0.112382 0.03
0.031343 0.112364 0.03006
0.002505 0.111869 0.034923
0.095482 0.1097 0.029414
0.134855 0.112232 0.029964
0.185154 0.126708 0.033275
0.252116 0.141821 0.032934
0.351031 0.16174 0.030418
0.470629 0.186015 0.030753
0.569903 0.203027 0.031232
0.658511 0.214782 0.03176
0.731515 0.222834 0.032564
0.798824 0.228011 0.033364
0.858341 0.230809 0.034202
0.899571 0.231345 0.034207
0.953474 0.229494 0.033846
0.042103 0.156465 0.041331
0.041426 0.156442 0.04145
0.002505 0.155365 0.047301
0.1077 0.151294 0.040352
0.1482 0.152339 0.040819
0.180422 0.151077 0.039695
0.248302 0.175444 0.043221
0.343579 0.20228 0.04639
0.460665 0.231557 0.047374
0.565638 0.25401 0.046836
0.654395 0.270965 0.046618
0.729829 0.28204 0.046176
0.796287 0.288419 0.04549
0.857411 0.291451 0.044965
0.910939 0.291748 0.042728
0.95298 0.288217 0.04298
0.053322 0.214891 0.053572
0.052642 0.215238 0.053775
0.034572 0.217305 0.058074
0.116108 0.206452 0.052711
0.163209 0.207075 0.053367
0.204927 0.206493 0.05281
0.240072 0.203487 0.050316
0.337607 0.242219 0.05596
0.453585 0.281541 0.065948
0.563157 0.312311 0.069454
0.650009 0.332685 0.069477
0.729158 0.346727 0.067974
0.794653 0.354677 0.065929
0.85756 0.358764 0.063446
0.917345 0.35807 0.059276
0.952186 0.353199 0.059427
0.060345 0.288418 0.07292
0.062551 0.289596 0.072892
0.058866 0.281259 0.07115
0.114977 0.273467 0.065898
0.17033 0.272357 0.064149
0.221114 0.272879 0.064365
0.270757 0.273624 0.063992
0.325771 0.277192 0.064087
0.446845 0.330742 0.076383
0.560256 0.36866 0.085966
0.646146 0.392928 0.092077
0.72756 0.410465 0.093163
0.792161 0.420176 0.091387
0.855941 0.425304 0.087672
0.913459 0.424457 0.083337
0.948688 0.418939 0.082854
0.07556 0.368564 0.093492
0.07778 0.370125 0.093437
0.077088 0.360621 0.090937
0.107078 0.355532 0.087855
0.183051 0.353919 0.084373
0.240396 0.354664 0.083463
0.299963 0.356596 0.083719
0.367599 0.362924 0.08477
0.433429 0.369926 0.085408
0.555221 0.421029 0.097036
0.643975 0.450992 0.104674
0.724608 0.471372 0.110796
0.790048 0.482999 0.114307
0.855143 0.489029 0.112787
0.909741 0.487824 0.109791
0.944777 0.481429 0.108946
0.094443 0.451762 0.11359
0.096289 0.453342 0.11391
0.098998 0.442847 0.111072
0.105952 0.437978 0.109379
0.187055 0.43709 0.105094
0.254563 0.437722 0.103332
0.32182 0.440864 0.103199
0.396575 0.4469 0.104592
0.470084 0.457331 0.106245
0.544166 0.467345 0.107661
0.640106 0.506175 0.116655
0.722666 0.530263 0.122911
0.788632 0.543457 0.127081
0.856316 0.551036 0.130212
0.906061 0.549457 0.130929
0.941347 0.542829 0.131038
0.11023 0.52625 0.131745
0.111655 0.527569 0.131945
0.116143 0.518791 0.129479
0.117266 0.517401 0.12908
0.178376 0.51992 0.126299
0.262763 0.523138 0.123825
0.337345 0.526719 0.123084
0.418087 0.532457 0.123975
0.491695 0.537493 0.125266
0.572342 0.549892 0.127212
0.632553 0.554894 0.127843
0.717821 0.585648 0.135017
0.786578 0.601256 0.13933
0.857349 0.609361 0.141901
0.903184 0.606977 0.142343
0.938842 0.599153 0.14222
0.125004 0.597886 0.149055
0.126119 0.598816 0.149178
0.131174 0.59318 0.147439
0.137695 0.590677 0.146461
0.168842 0.592673 0.145175
0.264501 0.595878 0.141622
0.345523 0.601499 0.140688
0.430307 0.609692 0.141486
0.508367 0.617066 0.143067
0.583707 0.623226 0.144877
0.650345 0.632622 0.146336
0.710554 0.638486 0.147312
0.784228 0.661057 0.152677
0.861166 0.670958 0.15496
0.900964 0.66707 0.154894
0.937034 0.657803 0.15406
0.137367 0.658245 0.163613
0.138346 0.658897 0.163779
0.143295 0.655036 0.16249
0.15386 0.657215 0.162482
0.154666 0.660908 0.163355
0.258398 0.664167 0.158892
0.346796 0.669182 0.157042
0.435199 0.677331 0.15721
0.51523 0.684192 0.158401
0.594233 0.69141 0.160151
0.656296 0.695248 0.161391
0.719294 0.703597 0.16278
0.779311 0.711054 0.164323
0.863858 0.723028 0.166541
0.897274 0.720135 0.166434
0.934357 0.711427 0.165438
0.148689 0.713769 0.177194
0.149546 0.714393 0.177287
0.1541 0.710497 0.176036
0.165176 0.712156 0.175804
0.168899 0.717219 0.176914
0.244862 0.722553 0.174153
0.342504 0.72951 0.171905
0.432885 0.739488 0.172117
0.515518 0.747789 0.173063
0.595847 0.754587 0.174502
0.661458 0.758539 0.175697
0.718995 0.761125 0.176652
0.779545 0.7691 0.1782
0.863028 0.776686 0.1789
0.894211 0.77285 0.178459
0.931004 0.763055 0.176874
0.158462 0.762141 0.188995
0.159282 0.762601 0.188993
0.163365 0.758799 0.187932
0.173678 0.760238 0.187597
0.182616 0.76487 0.188346
0.214711 0.770725 0.187954
0.332658 0.776849 0.184184
0.424055 0.787425 0.183932
0.508539 0.796568 0.184689
0.587977 0.8052 0.186297
0.6594 0.812418 0.187962
0.716446 0.816018 0.189099
0.772915 0.818837 0.190265
0.855186 0.825986 0.190715
0.892816 0.82777 0.191472
0.928291 0.815812 0.189005
0.183482 0.884143 0.218445
0.183746 0.884307 0.218462
0.185975 0.883598 0.218411
0.191801 0.886766 0.219295
0.196171 0.892102 0.22066
0.203004 0.897216 0.221643
0.312114 0.902458 0.217348
0.406954 0.911143 0.215964
0.493881 0.919888 0.215602
0.573917 0.927649 0.216142
0.650568 0.934701 0.217276
0.707684 0.937477 0.217954
0.766219 0.94129 0.218995
0.834175 0.943959 0.219575
0.887362 0.944782 0.219315
0.929933 0.945686 0.219627
0.002505 0.00008 0
0.002505 0.00008 0
0.002505 0.00008 0
0.098445 0.00008 0
0.173431 0.00008 0
0.265184 0.00008 0
0.367834 0.00008 0
0.46076 0.00008 0
0.547081 0.00008 0
0.630227 0.00008 0.000678
0.705651 0.00008 0.02665
0.771575 0.00008 0.04255
0.826172 0.00008 0.053312
0.877506 0.00008 0.061815
0.914812 0.00008 0.064023
0.972314 0.00008 0.063849
0.00504 0.00008 0.047027
0.004993 0.00008 0.046031
0.091054 0.00008 0.053437
0.129846 0.00008 0
0.189358 0.00008 0
0.274956 0.01307 0.00422
0.376224 0.029094 0.007652
0.463838 0.038637 0.038461
0.553285 0.048612 0.049831
0.633193 0.057637 0.057354
0.706044 0.065926 0.06282
0.770357 0.073332 0.067123
0.825115 0.079568 0.070182
0.87864 0.085615 0.072592
0.917601 0.089748 0.071563
0.971775 0.094042 0.06825
0.017684 0.054764 0.051075
0.002505 0.054233 0.050217
0.07268 0.057524 0.047487
0.097644 0.058036 0.046728
0.131459 0.056888 0.044568
0.181619 0.054889 0.038823
0.263777 0.055308 0.03075
0.380458 0.062138 0.026368
0.494313 0.067028 0.02376
0.592206 0.070255 0.023462
0.674896 0.073373 0.024372
0.750142 0.077587 0.026803
0.811712 0.082355 0.029595
0.86573 0.087128 0.032325
0.902025 0.091012 0.033144
0.961082 0.095287 0.032627
0.025991 0.082494 0.00421
0.002505 0.082351 0
0.07757 0.081299 0.053033
0.102141 0.082155 0.048796
0.1394 0.091316 0.048032
0.189896 0.100018 0.04357
0.258418 0.107515 0.035811
0.361696 0.121761 0.032019
0.478627 0.136106 0.030088
0.574077 0.146265 0.029858
0.66274 0.153769 0.030487
0.735731 0.158965 0.031644
0.804791 0.16252 0.033001
0.862065 0.16486 0.03465
0.899121 0.166398 0.035209
0.957007 0.16701 0.034734
0.03184 0.112382 0.030114
0.002505 0.111922 0.028722
0.076998 0.11036 0.058163
0.110739 0.111846 0.053865
0.137275 0.111278 0.052248
0.188192 0.129043 0.052576
0.254067 0.142021 0.047787
0.350648 0.159221 0.041483
0.468406 0.181323 0.038972
0.568256 0.196671 0.037861
0.657813 0.207367 0.037448
0.731731 0.214243 0.03769
0.798902 0.218798 0.038223
0.860261 0.221178 0.039032
0.901427 0.221741 0.038855
0.955376 0.220471 0.038378
0.042063 0.156469 0.041689
0.031379 0.157336 0.040216
0.073016 0.151977 0.063831
0.119153 0.152936 0.060572
0.156037 0.153477 0.0599
0.183282 0.150857 0.057472
0.250203 0.175958 0.057953
0.342781 0.199636 0.055661
0.458005 0.227161 0.054021
0.564169 0.248923 0.052147
0.652315 0.264858 0.051094
0.730014 0.275282 0.050109
0.796366 0.281277 0.049351
0.858811 0.284099 0.048808
0.911693 0.284462 0.046635
0.954172 0.281242 0.046775
0.053316 0.215131 0.053727
0.048123 0.216572 0.053126
0.063826 0.207456 0.069766
0.122456 0.207077 0.068594
0.1686 0.207551 0.068837
0.209431 0.20719 0.067536
0.24243 0.203194 0.064293
0.336374 0.239393 0.064975
0.450611 0.27756 0.072181
0.561191 0.307641 0.073608
0.648286 0.327387 0.07274
0.72949 0.341302 0.070607
0.794456 0.34883 0.0686
0.856883 0.352209 0.066104
0.917429 0.351693 0.061862
0.951978 0.346947 0.062027
0.060567 0.289637 0.073062
0.061896 0.285307 0.086385
0.059305 0.277655 0.086149
0.115311 0.272274 0.076935
0.172549 0.272501 0.076625
0.223351 0.273245 0.076602
0.272048 0.272981 0.07426
0.324662 0.274925 0.072707
0.444476 0.32767 0.08263
0.558115 0.365527 0.090509
0.645008 0.389798 0.095562
0.726409 0.406766 0.095781
0.792181 0.416273 0.093627
0.855958 0.420776 0.089787
0.913522 0.419961 0.085277
0.948741 0.414643 0.084889
0.07533 0.364775 0.105447
0.077311 0.36531 0.107708
0.076419 0.359815 0.103741
0.101527 0.354189 0.096717
0.179873 0.352745 0.093027
0.238271 0.353324 0.091784
0.297939 0.35504 0.091565
0.366024 0.361278 0.091918
0.431501 0.367775 0.091585
0.553497 0.418919 0.101413
0.642406 0.448466 0.108211
0.723619 0.468447 0.113758
0.789406 0.479761 0.116652
0.854484 0.485576 0.114843
0.909465 0.484352 0.111562
0.944567 0.477741 0.110557
0.093576 0.448521 0.125427
0.095138 0.449231 0.127107
0.09606 0.443737 0.11977
0.097879 0.437582 0.11707
0.180473 0.436432 0.112747
0.250417 0.437333 0.110635
0.31819 0.440183 0.110006
0.393909 0.44642 0.110633
0.467827 0.45631 0.111478
0.542875 0.466159 0.111903
0.638851 0.504584 0.120047
0.720942 0.528397 0.125747
0.788383 0.541575 0.129895
0.855918 0.549153 0.133091
0.906122 0.547502 0.1336
0.941405 0.540829 0.133477
0.108666 0.524035 0.143551
0.110001 0.52463 0.144729
0.112197 0.520886 0.136439
0.112514 0.517851 0.135734
0.164512 0.520388 0.133533
0.256131 0.52311 0.130196
0.332651 0.525877 0.12884
0.414579 0.531608 0.128918
0.489228 0.536737 0.129698
0.569441 0.54834 0.130854
0.631343 0.553961 0.131122
0.716448 0.584154 0.137984
0.786516 0.600343 0.142325
0.857368 0.608224 0.144905
0.903415 0.60555 0.145215
0.939151 0.59773 0.145043
0.122987 0.597708 0.160682
0.124125 0.598127 0.161603
0.127033 0.595177 0.153707
0.132347 0.590935 0.152416
0.155619 0.593012 0.1518
0.256279 0.595835 0.147567
0.339481 0.601344 0.146114
0.425977 0.609736 0.146224
0.505089 0.61684 0.147229
0.581736 0.623391 0.148624
0.64896 0.632403 0.149789
0.709833 0.638838 0.150627
0.784428 0.660748 0.155772
0.861046 0.67012 0.157991
0.901055 0.66614 0.157829
0.937186 0.657079 0.157021
0.134821 0.658798 0.175125
0.135821 0.65917 0.175891
0.139038 0.656499 0.168414
0.147704 0.657534 0.167993
0.147572 0.661153 0.169135
0.247181 0.664563 0.16472
0.339383 0.669428 0.162387
0.42996 0.677724 0.162172
0.511893 0.684835 0.162853
0.592014 0.692038 0.164148
0.655636 0.696105 0.165319
0.718088 0.704221 0.166506
0.779296 0.711397 0.16783
0.86275 0.723459 0.170092
0.897442 0.71986 0.169865
0.934471 0.711363 0.16876
0.145569 0.714248 0.187995
0.146432 0.714488 0.188715
0.149959 0.712054 0.181822
0.158323 0.712582 0.181193
0.165402 0.71814 0.182627
0.227695 0.723813 0.180721
0.334036 0.730205 0.177676
0.42713 0.740209 0.177291
0.511617 0.748321 0.177771
0.592735 0.754941 0.178661
0.660363 0.759413 0.17978
0.718141 0.761771 0.180827
0.778723 0.769343 0.182005
0.863264 0.776768 0.182722
0.89443 0.772867 0.18217
0.931079 0.763013 0.180521
0.15497 0.762634 0.198945
0.155772 0.763034 0.199716
0.159541 0.760469 0.193622
0.16668 0.760981 0.193311
0.17832 0.76603 0.194271
0.195489 0.771796 0.19494
0.323288 0.777983 0.190225
0.417921 0.788054 0.189485
0.504285 0.797376 0.189785
0.584863 0.806187 0.190837
0.657809 0.813549 0.192297
0.714878 0.816526 0.193377
0.772174 0.819133 0.194505
0.852795 0.826509 0.194927
0.892869 0.827937 0.195499
0.928112 0.816234 0.192987
0.179493 0.885483 0.227697
0.180436 0.885614 0.228271
0.18349 0.884436 0.223645
0.185805 0.887837 0.224405
0.190981 0.892421 0.225227
0.192761 0.897783 0.226644
0.302119 0.903511 0.221741
0.400832 0.911803 0.219181
0.489084 0.92054 0.218289
0.569534 0.928357 0.218246
0.647555 0.935401 0.218924
0.70533 0.938613 0.219514
0.764206 0.942019 0.220415
0.832571 0.944817 0.220922
0.886005 0.94562 0.220775
0.928752 0.946526 0.221093
0.002505 0.00008 0
0.002505 0.00008 0
0.002505 0.00008 0
0.111986 0.00008 0.01573
0.171484 0.00008 0
0.256168 0.00008 0
0.3562 0.00008 0.047563
0.457964 0.00008 0.072823
0.551057 0.00008 0.092494
0.638451 0.00008 0.107537
0.712141 0.00008 0.119931
0.780439 0.00008 0.129873
0.836487 0.00008 0.136902
0.887074 0.00008 0.142365
0.927116 0.00008 0.14171
0.980242 0.00008 0.138221
0.013791 0.003051 0.074367
0.006298 0.00008 0.075063
0.006229 0.00008 0.073361
0.141164 0.00008 0.083637
0.189581 0.00008 0.074245
0.266719 0.009263 0.082472
0.362878 0.025062 0.093514
0.463006 0.036971 0.104785
0.55326 0.046892 0.114855
0.638537 0.056275 0.122081
0.710473 0.064251 0.128463
0.776882 0.071713 0.133109
0.832892 0.077975 0.135997
0.885911 0.083896 0.138009
0.927506 0.087953 0.135478
0.97825 0.092258 0.129999
0.00633 0.00008 0.075875
0.006351 0.00008 0.076324
0.079841 0.060486 0.063976
0.10171 0.058356 0.062376
0.134772 0.058662 0.067052
0.185912 0.058369 0.071166
0.26346 0.058386 0.072585
0.376413 0.064686 0.078887
0.491562 0.070056 0.086354
0.590036 0.074799 0.093932
0.679261 0.079679 0.100459
0.753676 0.084597 0.106019
0.820814 0.089442 0.110034
0.874865 0.094039 0.11321
0.912972 0.097431 0.111396
0.969005 0.101273 0.106937
0.026629 0.083506 0.068876
0.002505 0.081321 0.069336
0.079139 0.083399 0.068948
0.10541 0.083132 0.068775
0.142704 0.082545 0.063713
0.194268 0.079325 0.054511
0.265994 0.075934 0.042884
0.375225 0.081425 0.037254
0.4905 0.085456 0.032862
0.586381 0.087281 0.030667
0.673771 0.088874 0.029926
0.746908 0.090613 0.03038
0.814094 0.092457 0.03179
0.868508 0.094591 0.033779
0.905323 0.098262 0.034231
0.963341 0.102527 0.033956
0.033235 0.109486 0.066607
0.002505 0.10757 0.071426
0.079413 0.11195 0.077687
0.104111 0.112855 0.071485
0.141601 0.113295 0.0713
0.190343 0.124862 0.068592
0.256335 0.132501 0.059425
0.35327 0.144281 0.050753
0.469867 0.160377 0.046727
0.569821 0.172348 0.04464
0.659481 0.180504 0.043607
0.733887 0.185721 0.043406
0.802067 0.188844 0.043853
0.863238 0.190299 0.044852
0.903067 0.191238 0.044556
0.958363 0.190997 0.043929
0.043779 0.152764 0.078966
0.033595 0.1522 0.08283
