site/assets/luts/freshluts--0000627-coolgreen.cube
# LUTr-Schema-Version: 2
# LUTr-ID: freshluts--0000627-coolgreen
# LUTr-Title: COOL.GREEN
# LUTr-Collection: Fresh LUTs
# LUTr-Collection-ID: freshluts-community
# LUTr-Source: https://freshluts.com
# LUTr-Retrieved: 2026-07-27
# LUTr-Source-File: submissions-raw/freshluts/cubes/627__HIGTH.GREEN_42.A007_02270900_C016.cube
# LUTr-Source-Format: CUBE
# LUTr-Source-SHA256: 85dfcef394b4d3a9d1bf99a46149c6660ea3eb110703e1c21e9825dd1a81cf34
# LUTr-License: CC0-1.0
# LUTr-License-URL: https://freshluts.com/termsandconditions
# LUTr-License-Basis: site-terms
# LUTr-Transform-Class: creative-look
# LUTr-Tags: creative, freshluts, community, cube, green, low-key, rec709, cool
# LUTr-Input-Color-Space: rec709
# LUTr-Input-Gamut: rec709
# LUTr-Input-Transfer: rec709
# LUTr-Output-Color-Space: srgb
# LUTr-Output-Gamut: rec709
# LUTr-Output-Transfer: srgb
# LUTr-Color-Space-Confidence: inferred-from-source-label
# LUTr-Domain-Normalized: true
# LUTr-Shaper: none
# LUTr-Original-Grid: 33x33x33
# LUTr-Conversion-Grid: 33x33x33
# LUTr-Conversion-Interpolation: none
# LUTr-Conversion-Method: Metadata normalization; numeric LUT samples preserved
# LUTr-Conversion-Tool: LUTr scripts/convert-all-to-cube.mjs 2.0.0
# LUTr-Conversion-Date: 2026-07-28
# LUTr-Asset-URL: https://freshluts.com/luts/627
# LUTr-Author: lvannoeun@gmail.com
# LUTr-Author-URL: https://freshluts.com/users/57563
# LUTr-Attribution: lvannoeun@gmail.com via Fresh LUTs
# LUTr-Source-Labels: gamma=Rec 709; color=Green; key=Low Key; style=Drama
# LUTr-Note: Preserve this metadata and the upstream license notices when redistributing.
TITLE "COOL.GREEN"
LUT_3D_SIZE 9
DOMAIN_MIN 0 0 0
DOMAIN_MAX 1 1 1
0.0637064 0 0
0.150988 0 0.00166323
0.261341 0.000671397 0.00448615
0.385687 0.000427253 0.00428779
0.487678 0.00173953 0.00706493
0.583108 0.00703441 0.0117037
0.688518 0.0124971 0.0185397
0.791272 0.0186618 0.0285191
0.894118 0.0254673 0.0399329
0.0452583 0.0929122 0.00927749
0.121767 0.111635 0.0133669
0.216251 0.126757 0.0121614
0.33109 0.136736 0.00410468
0.445945 0.142367 0
0.546944 0.14725 0
0.65304 0.151461 0.00502022
0.764187 0.155642 0.0140993
0.871015 0.160876 0.0278172
0.0243229 0.223743 0.000427253
0.109758 0.239551 0.00642405
0.205158 0.2542 0.00793469
0.312795 0.266606 0.00030518
0.42504 0.274846 0
0.527214 0.280156 0
0.631907 0.284077 0
0.746426 0.287343 0.00361639
0.858763 0.290776 0.018143
0 0.35993 0
0.0803388 0.373083 0
0.185428 0.384573 0
0.298329 0.394888 0
0.412192 0.40296 0
0.513771 0.408545 0
0.617014 0.412451 0
0.732754 0.415381 0
0.848234 0.41796 0.0113832
0 0.490196 0
0.0607614 0.504402 0
0.167742 0.515938 0
0.284413 0.525246 0
0.402502 0.532647 0
0.504814 0.53817 0
0.607156 0.542092 0
0.723339 0.544884 0
0.840452 0.546822 0.00988785
0 0.61796 0
0.0550393 0.632364 0
0.161227 0.643946 0
0.277806 0.653193 0
0.397894 0.66038 0
0.500526 0.66566 0
0.602472 0.669505 0
0.718608 0.672007 0
0.83653 0.673579 0.0149081
0 0.737423 0
0.0633707 0.752941 0
0.166537 0.765637 0
0.280888 0.775708 0
0.399817 0.783322 0
0.502556 0.7888 0
0.603861 0.792599 0
0.719326 0.795102 0.0108339
0.837659 0.796689 0.0267033
0.000183108 0.85362 0.0000610361
0.0830091 0.869368 0
0.184085 0.882658 0.000442512
0.295674 0.893553 0.0009308
0.411627 0.901991 0.00428779
0.512551 0.908064 0.0107576
0.612375 0.912367 0.0191653
0.726665 0.915389 0.0303655
0.844572 0.917327 0.0441596
0.0146639 0.970428 0.0177768
0.104646 0.97406 0.0203708
0.203769 0.978225 0.0202792
0.3131 0.983383 0.0210727
0.426368 0.988312 0.0242313
0.525139 0.992844 0.0296941
0.623835 0.997345 0.0373083
0.737255 1 0.0474861
0.854597 1 0.0602426
0.0628367 0 0.102953
0.145388 0 0.124071
0.249516 0.000030518 0.144839
0.372442 0.0009308 0.162722
0.480674 0.000991836 0.17319
0.578805 0.00344854 0.179263
0.687541 0.007187 0.183948
0.795209 0.0114595 0.187533
0.898177 0.0186618 0.190814
0.0432441 0.0889448 0.0876936
0.116518 0.108248 0.107408
0.203937 0.124681 0.122927
0.311833 0.135653 0.132952
0.427054 0.140581 0.137301
0.538842 0.142641 0.139101
0.648981 0.145861 0.142367
0.764172 0.149294 0.146258
0.875853 0.153658 0.151568
0.0246281 0.217212 0.0864118
0.111467 0.232258 0.107683
0.20325 0.247395 0.125475
0.302129 0.261433 0.133242
0.408438 0.271229 0.131945
0.515755 0.275883 0.125261
0.62652 0.278767 0.123262
0.744121 0.281636 0.126162
0.861814 0.284245 0.131182
0 0.352514 0.0650492
0.0845045 0.363561 0.0878004
0.190219 0.373999 0.108705
0.297414 0.385397 0.121324
0.405234 0.395865 0.121126
0.506127 0.402975 0.114809
0.611521 0.407065 0.111879
0.729519 0.409812 0.114183
0.849485 0.411765 0.118837
0 0.484764 0.0505837
0.0549325 0.498283 0.065507
0.163729 0.508888 0.0801556
0.280934 0.517739 0.0929885
0.398047 0.525856 0.0998093
0.499779 0.532189 0.102312
0.602396 0.536477 0.104677
0.719814 0.53933 0.108019
0.840467 0.54107 0.112978
0 0.613336 0.0500038
0.0465095 0.627405 0.0633707
0.153368 0.638773 0.0747997
0.270451 0.647715 0.0844739
0.391165 0.654902 0.0923781
0.495018 0.660502 0.0983597
0.597498 0.664347 0.10338
0.714717 0.667124 0.107683
0.835462 0.668742 0.113603
0 0.734157 0.061677
0.0508888 0.749767 0.0724956
0.154467 0.762234 0.0815137
0.270176 0.771832 0.0897993
0.390707 0.779232 0.0971389
0.494911 0.784878 0.103258
0.597116 0.788754 0.108659
0.714351 0.791318 0.114275
0.835081 0.792676 0.122026
0 0.850431 0.0837415
0.0697642 0.866682 0.0945144
0.169451 0.880491 0.101823
0.280949 0.891691 0.107317
0.398764 0.900191 0.112764
0.501503 0.906157 0.118166
0.60293 0.91017 0.123705
0.719585 0.912795 0.130388
0.839979 0.914199 0.139345
0.00747692 0.965576 0.108721
0.0934768 0.975082 0.120073
0.191089 0.980392 0.12694
0.299351 0.985656 0.131258
0.413169 0.991043 0.135012
0.513405 0.995666 0.139162
0.613489 0.999527 0.144121
0.729107 1 0.150774
0.848951 1 0.159609
0.0678264 0 0.256199
0.153903 0 0.273976
0.257496 0 0.295033
0.374044 0 0.315129
0.477913 0.0000610361 0.327626
0.575906 0.00201419 0.334203
0.685252 0.00514229 0.338399
0.79588 0.00836194 0.340063
0.901106 0.0144808 0.339406
0.0339971 0.0897078 0.217746
0.115679 0.107378 0.229465
0.204639 0.123522 0.243671
0.306661 0.135332 0.262333
0.415198 0.14139 0.278462
0.527916 0.142199 0.290211
0.644907 0.143084 0.296315
0.762875 0.14583 0.299214
0.879545 0.14905 0.301076
0.0181735 0.217029 0.218097
0.109987 0.231312 0.232685
0.206058 0.245304 0.247593
0.295186 0.261494 0.264057
0.394873 0.272374 0.274586
0.495323 0.278035 0.279683
0.613519 0.27834 0.279606
0.741253 0.278431 0.279728
0.862684 0.280262 0.281376
0 0.348852 0.215137
0.0892805 0.358541 0.234272
0.19791 0.368078 0.25391
0.303044 0.379568 0.272953
0.400839 0.392325 0.283513
0.492073 0.401434 0.284993
0.596033 0.406287 0.278447
0.724132 0.407233 0.26952
0.848692 0.40827 0.269261
0 0.481331 0.20621
0.0542458 0.493782 0.222431
0.171054 0.501411 0.242023
0.292576 0.50811 0.263905
0.404425 0.517174 0.278889
0.497704 0.526024 0.282704
0.594919 0.53283 0.275914
0.714885 0.536416 0.26508
0.839078 0.537758 0.263157
0 0.61059 0.204639
0.0413367 0.62443 0.218524
0.149081 0.635309 0.230472
0.269505 0.643168 0.243473
0.392554 0.649271 0.256901
0.495048 0.655131 0.264271
0.594766 0.660319 0.264668
0.711421 0.663996 0.261906
0.833906 0.665629 0.261952
0 0.732998 0.211292
0.0420539 0.748119 0.223362
0.147417 0.760067 0.23386
0.264347 0.769299 0.24303
0.386007 0.776379 0.250782
0.491279 0.781765 0.257008
0.593652 0.785855 0.261143
0.710933 0.788647 0.26389
0.833051 0.790219 0.265782
0 0.850172 0.22858
0.0575418 0.866865 0.239048
0.157183 0.880644 0.246479
0.27042 0.891157 0.253132
0.390463 0.899031 0.259571
0.494957 0.904677 0.265064
0.597208 0.908721 0.269108
0.714611 0.911406 0.272587
0.836683 0.912963 0.275319
0.000656138 0.965087 0.251759
0.0828412 0.976623 0.262486
0.178286 0.982696 0.26804
0.285863 0.98883 0.271153
0.40116 0.993515 0.274464
0.503319 0.997574 0.278477
0.604837 1 0.282032
0.721981 1 0.285527
0.843961 1 0.289311
0.0702373 0 0.43537
0.162295 0 0.451987
0.267247 0 0.466346
0.378653 0 0.478111
0.477485 0 0.486778
0.573587 0.00105287 0.492714
0.68246 0.0040589 0.49633
0.79353 0.00721752 0.496391
0.900771 0.0126497 0.492988
0.0226291 0.0886244 0.381415
0.112688 0.104387 0.387961
0.210849 0.118761 0.394522
0.315862 0.130526 0.406867
0.42237 0.137163 0.424536
0.528634 0.139666 0.440742
0.642298 0.141054 0.450217
0.760861 0.143587 0.453559
0.879759 0.146227 0.454276
0.00198367 0.219959 0.363317
0.0967117 0.233417 0.369116
0.198489 0.246815 0.374304
0.298192 0.260899 0.382177
0.394568 0.272618 0.396674
0.489372 0.279088 0.411414
0.601053 0.280125 0.424033
0.735759 0.277272 0.431525
0.861311 0.277928 0.433326
0 0.349645 0.358572
0.0773785 0.360143 0.370169
0.193072 0.36878 0.379797
0.304494 0.379294 0.390723
0.400412 0.392554 0.40383
0.483101 0.403311 0.415671
0.580087 0.408911 0.422141
0.707729 0.408927 0.422873
0.845212 0.406516 0.420661
0 0.479179 0.353155
0.0501869 0.49189 0.368475
0.171496 0.498756 0.383612
0.299077 0.50425 0.40116
0.412497 0.512703 0.419272
0.499275 0.522667 0.431983
0.58584 0.531731 0.434791
0.698146 0.536995 0.429526
0.831998 0.536583 0.417166
0 0.608347 0.351461
0.0379034 0.622171 0.366522
0.14725 0.632578 0.37969
0.275441 0.637781 0.396307
0.40589 0.641047 0.417777
0.506081 0.647044 0.432898
0.597253 0.6542 0.43978
0.704234 0.660914 0.434485
0.827802 0.663874 0.418921
0 0.731243 0.356069
0.0375219 0.746319 0.370169
0.143343 0.757931 0.382223
0.261418 0.766857 0.39295
0.387564 0.77229 0.405402
0.497017 0.776013 0.418845
0.597971 0.779965 0.428183
0.710018 0.784665 0.428199
0.83003 0.787854 0.420157
0 0.849226 0.369619
0.0503853 0.866133 0.382162
0.150454 0.879683 0.39205
0.265126 0.889662 0.40119
0.386557 0.897047 0.409308
0.492515 0.902449 0.416022
0.595483 0.906157 0.421759
0.712581 0.909056 0.425177
0.834241 0.910979 0.424918
0 0.964614 0.390204
0.0751049 0.977356 0.402655
0.168994 0.983825 0.409918
0.277226 0.989654 0.415671
0.394949 0.993729 0.421439
0.498817 0.997284 0.426993
0.601038 1 0.431327
0.718517 1 0.43415
0.840848 1 0.435737
0.0681315 0 0.590204
0.160739 0 0.606714
0.26598 0 0.619532
0.376989 0 0.629023
0.475319 0 0.636088
0.57084 0.000610361 0.64094
0.678157 0.00387579 0.64268
0.788327 0.00715648 0.640894
0.896757 0.012604 0.635706
0.0168612 0.0867475 0.548714
0.109056 0.100999 0.563592
0.214374 0.112963 0.573648
0.327153 0.12282 0.581308
0.434653 0.130251 0.589853
0.534874 0.135363 0.597986
0.642008 0.139116 0.603143
0.758984 0.142138 0.605509
0.87808 0.144884 0.605203
0 0.220462 0.527153
0.0805219 0.234363 0.539635
0.188571 0.246082 0.542397
0.299992 0.257771 0.540093
0.404379 0.268223 0.544488
0.499657 0.274922 0.556008
0.606378 0.277089 0.570871
0.733974 0.276051 0.582757
0.85977 0.27631 0.586038
0 0.349416 0.514107
0.0601358 0.362615 0.527764
0.174655 0.372198 0.531487
0.294469 0.381659 0.52845
0.401236 0.39295 0.530114
0.487587 0.403143 0.537728
0.578958 0.40972 0.550286
0.698314 0.411048 0.563424
0.838819 0.4065 0.572274
0 0.477455 0.506783
0.0439002 0.491295 0.522393
0.157778 0.500908 0.532708
0.29012 0.506386 0.536599
0.411154 0.513954 0.541909
0.502586 0.52343 0.548516
0.580682 0.534142 0.559121
0.686152 0.539986 0.567849
0.813748 0.539971 0.570062
0 0.606363 0.504448
0.0354772 0.620508 0.52047
0.143542 0.631342 0.533349
0.272312 0.637018 0.544198
0.410147 0.639048 0.556649
0.514214 0.644297 0.569574
0.603433 0.651392 0.58291
0.698131 0.660731 0.587701
0.810834 0.665797 0.5832
0 0.729152 0.507958
0.0357366 0.74464 0.523796
0.140795 0.756374 0.536522
0.259449 0.765148 0.547204
0.392782 0.768551 0.560052
0.510628 0.769512 0.576699
0.611292 0.773083 0.59115
0.7149 0.779171 0.599924
0.822873 0.785611 0.596414
0 0.84773 0.518837
0.0480812 0.86482 0.533745
0.147372 0.878355 0.545342
0.262226 0.888411 0.555108
0.384756 0.895445 0.563455
0.49604 0.89897 0.573556
0.604944 0.900069 0.586862
0.721218 0.902266 0.598688
0.835126 0.906508 0.598856
0 0.963729 0.536599
0.0713359 0.97705 0.550851
0.163882 0.983749 0.55996
0.272801 0.989197 0.567559
0.391836 0.993179 0.57438
0.497047 0.996094 0.580468
0.601602 0.998505 0.58703
0.721111 1 0.594644
0.841489 1 0.597284
0.0662699 0 0.719921
0.158022 0 0.737758
0.262547 0 0.751675
0.373114 0 0.761883
0.471031 0 0.768887
0.565545 0.0011902 0.772717
0.671092 0.00486763 0.77322
0.780484 0.00830091 0.770397
0.890547 0.014313 0.765118
0.0158694 0.0857404 0.687434
0.107469 0.100008 0.70399
0.213153 0.111559 0.716747
0.32723 0.120806 0.726528
0.435676 0.128176 0.733913
0.534844 0.133852 0.739055
0.640513 0.13817 0.742641
0.756741 0.141543 0.74403
0.874632 0.144808 0.742046
0 0.219287 0.669123
0.0775616 0.233219 0.684916
0.183749 0.244633 0.696941
0.299382 0.254032 0.704356
0.412558 0.262028 0.708476
0.512398 0.268116 0.713161
0.616388 0.271885 0.719448
0.735821 0.273838 0.724636
0.858412 0.275364 0.726131
0 0.348074 0.656718
0.0563211 0.361975 0.672358
0.163363 0.3729 0.684016
0.28217 0.381994 0.68687
0.399603 0.391058 0.680751
0.494896 0.399466 0.679271
0.589197 0.405936 0.685054
0.70602 0.407889 0.698314
0.838361 0.405402 0.710811
0 0.475883 0.649241
0.0420844 0.490303 0.665339
0.14905 0.501656 0.677501
0.271717 0.509896 0.681834
0.400229 0.51667 0.674708
0.498802 0.524865 0.671885
0.58645 0.533532 0.674159
0.687846 0.540444 0.684184
0.807965 0.541619 0.696681
0 0.604196 0.646525
0.0350805 0.619043 0.663233
0.140978 0.630411 0.67602
0.261494 0.638788 0.684688
0.398642 0.642222 0.685634
0.509911 0.646647 0.686442
0.604303 0.653193 0.689097
0.696101 0.663142 0.695918
0.802121 0.668818 0.70573
0 0.726421 0.649042
0.0369573 0.742596 0.665888
0.139727 0.755016 0.679103
0.256657 0.764263 0.689082
0.387381 0.769039 0.696498
0.510826 0.769421 0.703761
0.616281 0.772122 0.71252
0.721752 0.777478 0.72462
0.818326 0.786282 0.730663
0 0.845518 0.658
0.0502632 0.862638 0.67425
0.147082 0.876875 0.687099
0.260517 0.887297 0.69688
0.383032 0.894331 0.704829
0.498421 0.896925 0.713298
0.615045 0.895918 0.725887
0.732815 0.897353 0.739925
0.840238 0.902678 0.749096
0 0.962295 0.673381
0.0724193 0.97557 0.688823
0.163684 0.982422 0.699794
0.270695 0.988312 0.708141
0.390005 0.992187 0.715633
0.496742 0.995041 0.721904
0.607095 0.995636 0.730648
0.734447 0.995148 0.745892
0.852155 0.999832 0.757626
0.0652018 0 0.82977
0.155108 0 0.84828
0.257725 0 0.863691
0.366766 0 0.875807
0.463813 0.000488289 0.883894
0.557321 0.00349432 0.888731
0.662028 0.00717174 0.890181
0.771893 0.0114443 0.88867
0.883833 0.0167849 0.88513
0.0173648 0.0859846 0.805356
0.107362 0.100328 0.825956
0.211719 0.111772 0.842954
0.325338 0.120882 0.855421
0.433906 0.128237 0.863951
0.532876 0.134005 0.869383
0.637476 0.138567 0.872389
0.752575 0.142443 0.872587
0.868772 0.14638 0.868971
0 0.218387 0.794141
0.0780346 0.232715 0.813993
0.18294 0.24419 0.82916
0.298344 0.2533 0.840253
0.41297 0.260471 0.847944
0.514366 0.266133 0.853132
0.617792 0.270268 0.856733
0.735485 0.273136 0.858991
0.856931 0.27512 0.859083
0 0.346731 0.784787
0.0572366 0.360922 0.804166
0.162203 0.372366 0.818479
0.278431 0.381491 0.82858
0.397436 0.388907 0.834836
0.499763 0.394903 0.837018
0.600504 0.399817 0.838361
0.717571 0.402609 0.842512
0.841749 0.403357 0.846983
0 0.473777 0.778408
0.0439307 0.488914 0.797894
0.148348 0.500786 0.812207
0.265019 0.510292 0.822126
0.387869 0.517632 0.825223
0.493584 0.524117 0.819715
0.590585 0.531014 0.813062
0.69778 0.537087 0.814084
0.81677 0.538613 0.825147
0 0.601465 0.77583
0.0385901 0.617182 0.795499
0.141054 0.62945 0.810346
0.257343 0.63888 0.820645
0.38265 0.645472 0.824979
0.49688 0.649912 0.818647
0.598276 0.65539 0.811032
0.700984 0.662943 0.809079
0.805539 0.669245 0.816358
0 0.723583 0.77847
0.0427405 0.740139 0.79762
0.141085 0.753613 0.812909
0.255589 0.763561 0.82385
0.379263 0.77052 0.83093
0.4972 0.773342 0.831022
0.609674 0.775128 0.827726
0.720424 0.780179 0.826825
0.818128 0.788846 0.830274
0 0.843137 0.78706
0.0563821 0.860212 0.805097
0.150256 0.875151 0.820081
0.260334 0.886244 0.831418
0.381216 0.893919 0.839429
0.493004 0.897963 0.844373
0.611292 0.897398 0.847608
0.735637 0.897765 0.853147
0.846983 0.901884 0.86276
0 0.960784 0.801358
0.0766308 0.973602 0.818128
0.167346 0.980377 0.83151
0.271321 0.986938 0.842069
0.388678 0.991424 0.84979
0.495064 0.994736 0.855314
0.606943 0.99501 0.860822
0.740856 0.993576 0.870481
0.861097 0.997253 0.882261
0.0654002 0 0.932265
0.15378 0 0.949828
0.254582 0 0.965286
0.361868 0.0000915541 0.978195
0.457771 0.00241093 0.987579
0.550469 0.00619516 0.992844
0.654643 0.0102235 0.994904
0.764858 0.0150454 0.995377
0.878782 0.0194858 0.996017
0.0202945 0.0870985 0.909743
0.108812 0.101869 0.929915
0.211322 0.113771 0.947738
0.322866 0.123217 0.963027
0.430304 0.130694 0.97435
0.528588 0.136446 0.981628
0.631937 0.141299 0.985397
0.745556 0.145617 0.985504
0.861189 0.149691 0.982223
0 0.21828 0.902022
0.0822461 0.232944 0.923522
0.18468 0.244633 0.943282
0.2981 0.253895 0.958984
0.412192 0.261067 0.96968
0.513664 0.266453 0.976364
0.616739 0.270604 0.980133
0.733776 0.273762 0.98204
0.854429 0.276066 0.981369
0 0.345602 0.896834
0.0630961 0.360189 0.918746
0.16466 0.372091 0.938384
0.278737 0.381415 0.952758
0.39704 0.388693 0.961837
0.500038 0.394232 0.967498
0.602518 0.398337 0.971237
0.720058 0.401236 0.97322
0.84239 0.40293 0.973983
0 0.471794 0.89369
0.0512398 0.487419 0.915404
0.151339 0.50013 0.934615
0.265278 0.510002 0.948104
0.385763 0.51751 0.956359
0.490608 0.5234 0.961013
0.59266 0.527901 0.961669
0.708019 0.531807 0.95993
0.828855 0.533806 0.962051
0 0.59913 0.89366
0.0474403 0.615076 0.914611
0.145205 0.628351 0.933501
0.257847 0.638453 0.94696
0.378927 0.646006 0.955047
0.486427 0.65156 0.958251
0.590631 0.65597 0.952834
0.703716 0.66128 0.941527
0.815137 0.66656 0.939437
0 0.721447 0.897673
0.0519417 0.737957 0.91751
0.146868 0.752041 0.935744
0.256825 0.763012 0.949737
0.377356 0.770855 0.958297
0.48603 0.776104 0.962203
0.595224 0.779004 0.956695
0.714397 0.782635 0.944244
0.822812 0.789044 0.939239
0 0.841459 0.906767
0.0644388 0.858183 0.925612
0.157504 0.873091 0.942565
0.262806 0.885466 0.956481
0.381048 0.893767 0.965774
0.488212 0.899275 0.971145
0.598062 0.901488 0.970901
0.728038 0.901534 0.963577
0.8448 0.905211 0.959701
0 0.960494 0.921843
0.082887 0.971664 0.938643
0.174258 0.978103 0.953552
0.275166 0.985306 0.966369
0.388968 0.990753 0.975555
0.49395 0.994553 0.981369
0.600061 0.996796 0.984176
0.734722 0.996155 0.983307
0.862043 0.999268 0.984848
0.0657816 0 1
0.154009 0 1
0.254139 0 1
0.360327 0.000518807 1
0.455604 0.00341802 1
0.548028 0.00758373 1
0.651957 0.0120546 1
0.763043 0.0164645 1
0.879103 0.0198978 1
0.0219425 0.0881666 1
0.110262 0.103487 1
0.211429 0.11574 1
0.321324 0.125582 1
0.427314 0.133379 1
0.524376 0.139467 1
0.62678 0.144305 1
0.739635 0.148714 1
0.854978 0.152743 1
0.00105287 0.218708 1
0.086656 0.233692 1
0.187549 0.245823 1
0.298665 0.25536 1
0.41117 0.262669 1
0.511727 0.268147 1
0.614176 0.272221 1
0.730297 0.275547 1
0.849424 0.278279 1
0 0.34522 0.997559
0.0699626 0.360098 1
0.169924 0.372274 1
0.281041 0.381903 1
0.397421 0.389227 1
0.49987 0.39469 1
0.601907 0.398703 1
0.719417 0.401556 1
0.841184 0.403342 1
0 0.470909 0.997009
0.0599527 0.486397 1
0.158434 0.499321 1
0.268223 0.509804 1
0.386313 0.517601 1
0.490623 0.523339 1
0.592554 0.52752 1
0.709911 0.530434 1
0.832074 0.532097 1
0 0.597833 0.998154
0.057084 0.613657 1
0.153765 0.626978 1
0.261494 0.637934 1
0.379538 0.64593 1
0.485359 0.651637 1
0.587533 0.655741 1
0.704387 0.659052 1
0.824399 0.661784 1
0 0.720424 1
0.0614023 0.736126 1
0.156542 0.750195 1
0.261524 0.762081 1
0.377981 0.770626 1
0.484443 0.776349 1
0.587366 0.780407 1
0.706569 0.78349 1
0.824948 0.787717 1
0 0.841566 1
0.0727855 0.856641 1
0.166659 0.871168 1
0.269017 0.88397 1
0.382315 0.893446 1
0.487617 0.899504 1
0.590799 0.903349 1
0.715023 0.904906 1
0.839429 0.907469 1
0 0.961151 1
0.087892 0.970382 1
0.181842 0.975921 1
0.281971 0.983124 1
0.391073 0.989639 1
0.493919 0.994018 1
0.596246 0.99733 1
0.721965 0.999527 1
0.855268 1 1
