site/assets/luts/freshluts--0000983-metro.cube
# LUTr-Schema-Version: 2
# LUTr-ID: freshluts--0000983-metro
# LUTr-Title: Metro
# LUTr-Collection: Fresh LUTs
# LUTr-Collection-ID: freshluts-community
# LUTr-Source: https://freshluts.com
# LUTr-Retrieved: 2026-07-27
# LUTr-Source-File: submissions-raw/freshluts/cubes/983__Metro.cube
# LUTr-Source-Format: CUBE
# LUTr-Source-SHA256: 9136f63f59e4f15d96a5fc3dff104220e0efadb0aed1fd3a028b0ae0a0881301
# LUTr-License: CC0-1.0
# LUTr-License-URL: https://freshluts.com/termsandconditions
# LUTr-License-Basis: site-terms
# LUTr-Transform-Class: creative-look
# LUTr-Tags: creative, freshluts, community, cube, warm, rec709, assumed-input
# LUTr-Input-Color-Space: rec709
# LUTr-Input-Gamut: rec709
# LUTr-Input-Transfer: rec709
# LUTr-Output-Color-Space: srgb
# LUTr-Output-Gamut: rec709
# LUTr-Output-Transfer: srgb
# LUTr-Color-Space-Confidence: assumed-display-referred
# LUTr-Domain-Normalized: true
# LUTr-Shaper: none
# LUTr-Original-Grid: 32x32x32
# LUTr-Conversion-Grid: 32x32x32
# LUTr-Conversion-Interpolation: none
# LUTr-Conversion-Method: Metadata normalization; numeric LUT samples preserved
# LUTr-Conversion-Tool: LUTr scripts/convert-all-to-cube.mjs 2.0.0
# LUTr-Conversion-Date: 2026-07-28
# LUTr-Asset-URL: https://freshluts.com/luts/983
# LUTr-Author: ButterflyBD
# LUTr-Author-URL: https://freshluts.com/users/53416
# LUTr-Attribution: ButterflyBD via Fresh LUTs
# LUTr-Source-Labels: gamma=Other; color=Warm; key=Neutral; style=Teal - Orange; LUTr assumption=input Rec.709 per repository policy
# LUTr-Conversion-Warning: Input Rec.709 is a LUTr catalog assumption requested for this otherwise unspecified Fresh LUT; it is not verified by the upstream asset.
# LUTr-Note: Preserve this metadata and the upstream license notices when redistributing.
# LUTr-Upstream-Comment: Created by: Adobe Photoshop Export Color Lookup Plugin
# LUTr-Upstream-Comment: LUT size
# LUTr-Upstream-Comment: data domain
# LUTr-Upstream-Comment: LUT data points
TITLE "Metro"
LUT_3D_SIZE 5
DOMAIN_MIN 0.000000 0.000000 0.000000
DOMAIN_MAX 0.903226 0.903226 0.903226
0 0 0
0.212799 0.004242 0.004974
0.487823 0.018127 0.021362
0.688751 0.044128 0.051849
0.912231 0.069489 0.081329
0.009735 0.209747 0.012482
0.215851 0.210815 0.017456
0.488831 0.214172 0.033722
0.689362 0.220612 0.061676
0.912781 0.228973 0.08847
0.040588 0.493622 0.051575
0.225586 0.494202 0.055664
0.492096 0.496033 0.067841
0.691376 0.499512 0.087494
0.91452 0.504089 0.108826
0.081268 0.710785 0.10083
0.243835 0.710999 0.103302
0.49826 0.711761 0.110962
0.695312 0.713257 0.124542
0.917847 0.71524 0.140625
0.119781 0.923004 0.143799
0.266754 0.923187 0.145569
0.506073 0.923889 0.151093
0.7005 0.925171 0.161377
0.922302 0.926819 0.174011
0 0 0.230957
0.212799 0.004242 0.232025
0.487823 0.018127 0.235443
0.688751 0.044128 0.241882
0.912231 0.069489 0.250153
0.009735 0.209747 0.233551
0.215851 0.210815 0.234619
0.496094 0.178009 0.20108
0.693237 0.165314 0.187744
0.913605 0.168579 0.191193
0.040588 0.493622 0.241821
0.159821 0.505981 0.184296
0.500732 0.508026 0.189514
0.695374 0.4841 0.198761
0.915375 0.478699 0.201691
0.081268 0.710785 0.257019
0.172241 0.715057 0.196014
0.485504 0.715881 0.200348
0.699799 0.717499 0.208618
0.918854 0.709747 0.21991
0.119781 0.923004 0.275757
0.196869 0.924164 0.218231
0.487488 0.924866 0.221985
0.694275 0.926178 0.229095
0.923431 0.927887 0.23819
0 0 0.467712
0.212799 0.004242 0.46817
0.487823 0.018127 0.469666
0.688751 0.044128 0.472504
0.912231 0.069489 0.476288
0.009735 0.209747 0.468842
0.145844 0.149261 0.478241
0.49704 0.154541 0.47998
0.693298 0.161621 0.460236
0.913605 0.16745 0.456665
0.040588 0.493622 0.472473
0.159821 0.505981 0.482483
0.492096 0.496033 0.474396
0.700012 0.457977 0.445282
0.917145 0.422852 0.419159
0.081268 0.710785 0.479462
0.172241 0.715057 0.465485
0.427368 0.72226 0.40918
0.706879 0.724121 0.413483
0.920746 0.699402 0.427948
0.119781 0.923004 0.488525
0.196869 0.924164 0.467743
0.415955 0.927032 0.398956
0.675385 0.928406 0.402893
0.926025 0.930328 0.40802
0 0 0.709167
0.212799 0.004242 0.709442
0.487823 0.018127 0.710327
0.688751 0.044128 0.712006
0.912231 0.069489 0.714233
0.009735 0.209747 0.709839
0.135529 0.139679 0.714264
0.474579 0.144653 0.715179
0.693451 0.153931 0.71698
0.913605 0.165253 0.708221
0.040588 0.493622 0.711975
0.148499 0.474579 0.716553
0.415192 0.395569 0.723724
0.701904 0.401306 0.72583
0.917206 0.405457 0.694824
0.081268 0.710785 0.716156
0.172241 0.715057 0.720947
0.427368 0.72226 0.728882
0.695312 0.713257 0.718933
0.921265 0.698975 0.702789
0.119781 0.923004 0.721588
0.196869 0.924164 0.71521
0.415955 0.927032 0.69577
0.655792 0.929535 0.676025
0.927368 0.93161 0.678894
0 0 0.919739
0.212799 0.004242 0.919922
0.487823 0.018127 0.920563
0.688751 0.044128 0.921753
0.912231 0.069489 0.92334
0.009735 0.209747 0.920227
0.132477 0.13678 0.921051
0.467377 0.141693 0.921692
0.682739 0.150787 0.922913
0.913605 0.162231 0.924561
0.040588 0.493622 0.921753
0.145142 0.464569 0.922638
0.388733 0.36676 0.924683
0.6651 0.372009 0.926025
0.917297 0.378876 0.927795
0.081268 0.710785 0.924713
0.168243 0.704895 0.92569
0.400848 0.687347 0.927979
0.649414 0.670166 0.930023
0.921997 0.672577 0.931946
0.119781 0.923004 0.928619
0.196869 0.924164 0.929718
0.415955 0.927032 0.932373
0.655792 0.929535 0.934723
0.922302 0.926819 0.93219
