site/assets/luts/freshluts--0000419-lut003.cube
# LUTr-Schema-Version: 2
# LUTr-ID: freshluts--0000419-lut003
# LUTr-Title: LUT003
# LUTr-Collection: Fresh LUTs
# LUTr-Collection-ID: freshluts-community
# LUTr-Source: https://freshluts.com
# LUTr-Retrieved: 2026-07-27
# LUTr-Source-File: submissions-raw/freshluts/cubes/419__LUT003.cube
# LUTr-Source-Format: CUBE
# LUTr-Source-SHA256: 1bd5ffac5ea7dbb13af776137451f317e878e04aa2fff92066cfaa1fe56747ab
# LUTr-License: CC0-1.0
# LUTr-License-URL: https://freshluts.com/termsandconditions
# LUTr-License-Basis: site-terms
# LUTr-Transform-Class: creative-look
# LUTr-Tags: creative, freshluts, community, cube, bmd-film
# LUTr-Input-Color-Space:
# LUTr-Input-Gamut: bmd-film-gamut
# LUTr-Input-Transfer: bmd-film
# LUTr-Output-Color-Space: srgb
# LUTr-Output-Gamut: rec709
# LUTr-Output-Transfer: srgb
# LUTr-Color-Space-Confidence: camera-profile-input-required
# LUTr-Domain-Normalized: true
# LUTr-Shaper: none
# LUTr-Original-Grid: 33x33x33
# LUTr-Conversion-Grid: 33x33x33
# LUTr-Conversion-Interpolation: none
# LUTr-Conversion-Method: Metadata normalization; numeric LUT samples preserved
# LUTr-Conversion-Tool: LUTr scripts/convert-all-to-cube.mjs 2.0.0
# LUTr-Conversion-Date: 2026-07-28
# LUTr-Asset-URL: https://freshluts.com/luts/419
# LUTr-Author: Revirssab
# LUTr-Author-URL: https://freshluts.com/users/9194
# LUTr-Attribution: Revirssab via Fresh LUTs
# LUTr-Source-Labels: gamma=Blackmagic BMD Film; color=None; key=Neutral; style=Adventure
# LUTr-Note: Preserve this metadata and the upstream license notices when redistributing.
TITLE "LUT003"
LUT_3D_SIZE 5
DOMAIN_MIN 0 0 0
DOMAIN_MAX 1 1 1
0.000976577 0.000259403 0
0.593668 0 0
1 0 0
1 0 0
1 0 0
0 0.428351 0
0.298741 0.342473 0
0.958831 0.251072 0
1 0.193423 0
1 0.167514 0
0 0.889464 0
0 0.811933 0
0.636805 0.719478 0
1 0.66302 0
1 0.646433 0
0 1 0
0 1 0
0.417273 0.994736 0
0.845914 0.946029 0
0.845914 0.946029 0
0 1 0
0 1 0
0.344991 0.998734 0
0.845914 0.946029 0
0.845914 0.946029 0
0 0.0511635 0.313634
0.604532 0 0.55758
1 0 0.454963
1 0 0.385382
1 0 0.34931
0 0.38938 0.407431
0.29601 0.311635 0.297948
0.961196 0.204974 0.158618
1 0.147295 0.0794232
1 0.123705 0.066804
0 0.85153 0.0797131
0 0.774868 0.00210575
0.636164 0.683345 0
1 0.628565 0
1 0.613931 0
0 1 0
0 1 0
0.416129 0.969467 0
0.848508 0.923186 0
0.848341 0.924407 0
0 1 0
0 1 0
0.343389 0.982269 0
0.84799 0.927169 0
0.847883 0.928313 0
0 0.17641 0.656336
0.596857 0 1
1 0 1
1 0 1
1 0 1
0 0.383108 0.997848
0 0.420264 0.722881
0.964858 0.155749 0.930663
1 0.0964981 0.864363
1 0.0728923 0.850538
0 0.812314 0.849195
0 0.733684 0.754452
0.655146 0.660014 0.655711
1 0.590738 0.563333
1 0.5738 0.545586
0 1 0.6421
0 1 0.560494
0.429877 0.938277 0.453605
0.865904 0.894362 0.374914
0.8645 0.89424 0.351064
0 1 0.562478
0 1 0.492531
0.353536 0.945998 0.381155
0.861341 0.894057 0.295933
0.860136 0.894179 0.272526
0 0.218555 0.772168
0.481315 0 1
1 0 1
1 0 1
1 0 1
0 0.4206 1
0 0.479789 0.883253
0.966217 0.126802 1
1 0.0688945 1
1 0.0493019 1
0 0.792248 1
0 0.716411 1
0.379232 0.716304 0.895415
1 0.561257 1
1 0.542992 1
0 1 1
0 0.994492 1
0.421576 0.917769 0.930144
0.891814 0.891814 0.891814
0.891814 0.891814 0.891814
0 1 1
0 0.999924 1
0.346441 0.921645 0.935943
0.891814 0.891814 0.891814
0.891814 0.891814 0.891814
0 0.218555 0.772168
0.434791 0 1
1 0 1
1 0 1
1 0 1
0 0.416419 1
0 0.474769 0.878691
0.965728 0.116823 1
1 0.0606241 1
1 0.0413367 1
0 0.785245 1
0 0.711406 1
0.367559 0.711955 0.896559
1 0.553429 1
1 0.535454 1
0 1 1
0 0.995193 1
0.411948 0.918273 0.930877
0.891814 0.891814 0.891814
0.891814 0.891814 0.891814
0 1 1
0 1 1
0.336797 0.922225 0.936782
0.891814 0.891814 0.891814
0.891814 0.891814 0.891814
