site/assets/luts/freshluts--0000290-brown-bm.cube
# LUTr-Schema-Version: 2
# LUTr-ID: freshluts--0000290-brown-bm
# LUTr-Title: brown BM
# LUTr-Collection: Fresh LUTs
# LUTr-Collection-ID: freshluts-community
# LUTr-Source: https://freshluts.com
# LUTr-Retrieved: 2026-07-27
# LUTr-Source-File: submissions-raw/freshluts/cubes/290__kahve_3.A020_08241333_C001.cube
# LUTr-Source-Format: CUBE
# LUTr-Source-SHA256: fad276ee4bec7547271f78b1decc8e3d0b61e012a67fbc6b6fbb66143cb8d378
# LUTr-License: CC0-1.0
# LUTr-License-URL: https://freshluts.com/termsandconditions
# LUTr-License-Basis: site-terms
# LUTr-Transform-Class: creative-look
# LUTr-Tags: creative, freshluts, community, cube, brown, bmd-film-4k
# LUTr-Input-Color-Space:
# LUTr-Input-Gamut: bmd-film-gamut
# LUTr-Input-Transfer: bmd-film-4k
# LUTr-Output-Color-Space: srgb
# LUTr-Output-Gamut: rec709
# LUTr-Output-Transfer: srgb
# LUTr-Color-Space-Confidence: camera-profile-input-required
# LUTr-Domain-Normalized: true
# LUTr-Shaper: none
# LUTr-Original-Grid: 33x33x33
# LUTr-Conversion-Grid: 33x33x33
# LUTr-Conversion-Interpolation: none
# LUTr-Conversion-Method: Metadata normalization; numeric LUT samples preserved
# LUTr-Conversion-Tool: LUTr scripts/convert-all-to-cube.mjs 2.0.0
# LUTr-Conversion-Date: 2026-07-28
# LUTr-Asset-URL: https://freshluts.com/luts/290
# LUTr-Author: berat
# LUTr-Author-URL: https://freshluts.com/users/10185
# LUTr-Attribution: berat via Fresh LUTs
# LUTr-Source-Labels: gamma=Blackmagic BMD Film 4K; color=Brown; key=Neutral; style=Retro
# LUTr-Note: Preserve this metadata and the upstream license notices when redistributing.
TITLE "brown BM"
LUT_3D_SIZE 9
DOMAIN_MIN 0 0 0
DOMAIN_MAX 1 1 1
0.0330053 0.032166 0.03093
0.0432593 0.0327153 0.0301671
0.0820935 0.0349126 0.0267796
0.152529 0.0352483 0.0146944
0.248447 0.0346838 0
0.352621 0.0422065 0
0.477638 0.0700999 0
0.638117 0.138964 0
0.888914 0.310201 0
0.0386511 0.0443122 0.0335699
0.0489509 0.0449073 0.0329595
0.0864576 0.0469215 0.0293736
0.156664 0.0466773 0.0171206
0.251896 0.0459602 0
0.356298 0.0536965 0
0.48188 0.0822156 0
0.639078 0.148074 0
0.889143 0.314153 0
0.0619364 0.0881971 0.0448615
0.070573 0.0886244 0.0441596
0.10544 0.0902724 0.041001
0.176074 0.0897841 0.0296483
0.268605 0.0914626 0.0115663
0.373571 0.102632 0.000915541
0.494682 0.129168 0.0019379
0.642832 0.18407 0.000564584
0.890486 0.330602 0
0.100984 0.169955 0.0629892
0.109422 0.170977 0.0631571
0.146014 0.173632 0.0616312
0.213672 0.176562 0.0557717
0.29807 0.181521 0.0433814
0.393866 0.189929 0.0188144
0.505547 0.207294 0.00318914
0.648859 0.245518 0.00129702
0.892668 0.362371 0
0.180377 0.282246 0.0996262
0.187503 0.282521 0.0993362
0.216159 0.283406 0.0971847
0.267552 0.285405 0.0925612
0.33727 0.288487 0.0833448
0.422171 0.293538 0.0659037
0.522942 0.301778 0.0243229
0.658335 0.324987 0.00198367
0.89659 0.410452 0.000350958
0.279133 0.395911 0.158495
0.283757 0.396063 0.158038
0.302312 0.396521 0.155886
0.338109 0.397711 0.151522
0.391287 0.399908 0.143114
0.461723 0.40322 0.127565
0.552529 0.409003 0.0979324
0.672847 0.418067 0.00854505
0.90219 0.475944 0.00077821
0.39292 0.51812 0.243946
0.395651 0.518196 0.243732
0.406806 0.518273 0.242283
0.42974 0.519127 0.239704
0.466072 0.520302 0.234455
0.518776 0.522438 0.224445
0.593088 0.526238 0.203342
0.704112 0.534478 0.142977
0.911162 0.562448 0.00077821
0.538689 0.666575 0.360098
0.540078 0.666606 0.359945
0.545922 0.666804 0.359335
0.558114 0.666896 0.357626
0.579293 0.667582 0.355215
0.612131 0.668589 0.349859
0.664012 0.670588 0.339559
0.750668 0.675135 0.312871
0.937942 0.692195 0.110414
0.787808 0.908721 0.570474
0.788235 0.908736 0.570413
0.789929 0.908843 0.57026
0.794095 0.908919 0.569741
0.801312 0.909133 0.568872
0.81355 0.909194 0.566964
0.835416 0.909911 0.564111
0.879088 0.911299 0.556146
1 0.917845 0.51751
0.033051 0.0347906 0.0433661
0.0434119 0.0354467 0.0427253
0.0820172 0.0374914 0.0391699
0.152697 0.0378271 0.0274357
0.248798 0.0373541 0.00459297
0.353109 0.0446632 0
0.478447 0.0728466 0
0.638392 0.140948 0
0.888869 0.310994 0
0.0387884 0.0469368 0.046067
0.0489662 0.0474098 0.0452888
0.0864576 0.049424 0.041825
0.156954 0.0492561 0.0299229
0.252461 0.0485237 0.00796521
0.356985 0.05626 0
0.482368 0.0845502 0
0.639384 0.149981 0
0.889174 0.315007 0
0.0618143 0.0900893 0.055848
0.0706951 0.0906539 0.0554665
0.105608 0.0923171 0.0526589
0.176562 0.0919966 0.0422065
0.269276 0.0939651 0.0247959
0.373754 0.104768 0.00103761
0.494835 0.13135 0.00204471
0.642908 0.185718 0.000610361
0.890517 0.331395 0
0.101518 0.17229 0.0728313
0.109957 0.173327 0.0730755
0.14641 0.175784 0.0715038
0.214359 0.178943 0.0661326
0.299107 0.184009 0.0551614
0.394903 0.192508 0.0323339
0.505577 0.208759 0.00318914
0.648844 0.246662 0.00125124
0.89279 0.362997 0
0.180728 0.283635 0.108232
0.187869 0.283925 0.107836
0.216556 0.284825 0.105653
0.268147 0.286793 0.101366
0.337789 0.289982 0.0924697
0.422629 0.294911 0.0754711
0.523812 0.303471 0.0374151
0.658351 0.325795 0.00198367
0.896605 0.410986 0.000366217
0.279225 0.396597 0.16643
0.283848 0.396735 0.165988
0.302403 0.397192 0.163912
0.338216 0.398398 0.159716
0.391516 0.400565 0.151812
0.461952 0.403998 0.13608
0.553002 0.409995 0.106401
0.674128 0.419638 0.0225223
0.90219 0.476326 0.00077821
0.393027 0.518471 0.249042
0.395636 0.51841 0.248646
0.406912 0.518639 0.247349
0.429801 0.519509 0.244816
0.466148 0.520699 0.239704
0.518669 0.522652 0.229816
0.593164 0.526604 0.209812
0.704326 0.534905 0.151537
0.911162 0.562692 0.000793469
0.538735 0.666743 0.362936
0.540124 0.666773 0.362783
0.545968 0.666972 0.362188
0.55816 0.667063 0.36051
0.579339 0.667765 0.357839
0.612146 0.668772 0.35285
0.664042 0.670771 0.342657
0.750713 0.675319 0.316411
0.938338 0.692653 0.119127
0.787808 0.908766 0.57142
0.788251 0.908782 0.571374
0.789944 0.908888 0.571206
0.794095 0.908965 0.570703
0.801328 0.909178 0.569833
0.813565 0.909239 0.567926
0.835416 0.909972 0.565042
0.879118 0.91136 0.55697
1 0.917891 0.518746
0.0330205 0.0461891 0.0869612
0.0433509 0.0467689 0.0864881
0.0823682 0.0489662 0.0841382
0.153536 0.0491646 0.0744793
0.250858 0.0488441 0.0561685
0.35697 0.0570382 0.0318456
0.481544 0.0839551 0
0.638941 0.149523 0
0.889036 0.314809 0
0.0385901 0.0573892 0.0887617
0.0489662 0.0579843 0.0883497
0.086717 0.0598001 0.0858167
0.158145 0.0598001 0.0765087
0.254994 0.0597696 0.0593118
0.361364 0.0686046 0.0367742
0.4851 0.0953689 0
0.63978 0.15816 0.0000457771
0.889525 0.318669 0
0.0617075 0.0984512 0.0962539
0.0706035 0.0990768 0.095964
0.106188 0.101198 0.0943618
0.178759 0.10219 0.0866712
0.273045 0.10573 0.0742199
0.379416 0.118181 0.0568856
0.496208 0.141207 0.0145113
0.643137 0.192508 0.000656138
0.890364 0.334554 0
0.102861 0.181247 0.111742
0.111177 0.182116 0.111757
0.148089 0.184878 0.110903
0.216358 0.188113 0.106172
0.301839 0.193561 0.0974136
0.398535 0.202518 0.0803235
0.508858 0.217731 0.0434119
0.649226 0.251835 0.00151064
0.892989 0.365911 0.000106813
0.181476 0.288655 0.145968
0.188632 0.28896 0.145678
0.217426 0.289906 0.143511
0.269078 0.292103 0.138842
0.339208 0.29543 0.130373
0.424582 0.300908 0.114397
0.527428 0.310521 0.0835126
0.658228 0.329061 0.00177005
0.896681 0.413321 0.000381476
0.279225 0.399222 0.197864
0.283848 0.399359 0.197513
0.30277 0.400076 0.196063
0.338781 0.401236 0.192706
0.391669 0.403235 0.185595
0.462272 0.406729 0.172015
0.553979 0.413245 0.144045
0.678325 0.425681 0.0729992
0.902235 0.478035 0.000793469
0.393057 0.519768 0.269749
0.395773 0.519844 0.269566
0.407172 0.520241 0.268528
0.429755 0.520882 0.26598
0.466285 0.52224 0.261372
0.518853 0.524224 0.252689
0.593439 0.527916 0.235157
0.704799 0.53637 0.185061
0.91136 0.563745 0.000961318
0.538949 0.667491 0.374655
0.540352 0.667521 0.374548
0.545892 0.667445 0.373785
0.558312 0.667826 0.372396
0.579446 0.668559 0.369863
0.612268 0.669581 0.365026
0.664164 0.67155 0.355657
0.750973 0.676066 0.331136
0.939101 0.693889 0.155932
0.787884 0.908995 0.575296
0.788327 0.90901 0.57525
0.790021 0.909117 0.575082
0.794171 0.909194 0.574609
0.801373 0.909392 0.573983
0.813611 0.909438 0.572152
0.835447 0.910201 0.569055
0.879133 0.911589 0.561395
1 0.91812 0.523873
0.0309911 0.0664225 0.166384
0.0413062 0.0669261 0.165942
0.0812238 0.0693675 0.164248
0.154513 0.0704051 0.156588
0.254948 0.071809 0.142138
0.366064 0.0838483 0.125277
0.493339 0.113237 0.100359
0.641093 0.168414 0.0182803
0.889296 0.322576 0
0.0364385 0.0758984 0.16788
0.0468757 0.0764935 0.167559
0.0856336 0.0788891 0.165957
0.159289 0.0800946 0.158602
0.259602 0.0825818 0.145464
0.370855 0.095613 0.129915
0.496147 0.12372 0.103899
0.642023 0.176501 0.0214237
0.88957 0.32636 0
0.0590524 0.114412 0.173846
0.0684215 0.11548 0.174029
0.105623 0.119066 0.173953
0.180591 0.122164 0.16878
0.278248 0.12874 0.160067
0.385122 0.14197 0.144915
0.503258 0.165454 0.114397
0.646097 0.209232 0.0346532
0.890837 0.341848 0
0.103044 0.197223 0.189425
0.111421 0.198093 0.189563
0.148775 0.201038 0.189197
0.217502 0.204257 0.185687
0.30338 0.209751 0.17792
0.401129 0.218616 0.16321
0.514138 0.235004 0.133227
0.654017 0.266743 0.059678
0.89308 0.371908 0.0000457771
0.181689 0.298329 0.215747
0.188891 0.298634 0.215488
0.217823 0.299626 0.214008
0.269383 0.301518 0.210727
0.339818 0.305028 0.204273
0.425956 0.310735 0.192004
0.530282 0.321187 0.166201
0.665492 0.342992 0.0965896
0.897032 0.41828 0.00062562
0.279484 0.404868 0.252705
0.284123 0.405005 0.252506
0.303029 0.405753 0.251575
0.338994 0.406989 0.248844
0.391943 0.408972 0.243702
0.463157 0.412573 0.234226
0.554925 0.418952 0.214038
0.681468 0.433265 0.156435
0.902525 0.481636 0.0010071
0.393347 0.523217 0.308659
0.396063 0.523308 0.308461
0.407218 0.523445 0.307378
0.430076 0.524315 0.305531
0.466484 0.525505 0.30193
0.51928 0.527611 0.295064
0.594034 0.531411 0.28101
0.705669 0.539925 0.243259
0.911437 0.566155 0.000991836
0.538842 0.668894 0.397696
0.54023 0.66894 0.397559
0.546044 0.669154 0.397055
0.558495 0.669551 0.39585
0.579355 0.669993 0.393332
0.612482 0.671275 0.389532
0.664134 0.672984 0.380896
0.75108 0.677485 0.359808
0.940139 0.696056 0.221836
0.788006 0.909468 0.583825
0.788449 0.909483 0.58378
0.790143 0.909575 0.583658
0.794278 0.909651 0.583291
0.801343 0.909697 0.582452
0.813687 0.909941 0.580758
0.835492 0.910704 0.577798
0.879194 0.912077 0.570474
1 0.918547 0.534981
0.0264439 0.0974289 0.266178
0.0371862 0.0982986 0.266361
0.0791485 0.102174 0.267201
0.156756 0.106386 0.26511
0.262562 0.112612 0.258915
0.375967 0.126452 0.250935
0.499184 0.15227 0.233127
0.649241 0.203647 0.181857
0.889937 0.336324 0
0.0316472 0.105913 0.266758
0.04271 0.106981 0.267216
0.084062 0.111559 0.268666
0.161746 0.116136 0.266819
0.266957 0.122942 0.261509
0.378744 0.1364 0.25304
0.500511 0.161212 0.234455
0.650187 0.210727 0.183749
0.890196 0.339849 0
0.0542916 0.144854 0.269841
0.0644236 0.146593 0.270893
0.104341 0.152529 0.274037
0.182254 0.158083 0.272953
0.280598 0.164828 0.268147
0.387121 0.176379 0.258839
0.50576 0.196704 0.240253
0.65304 0.238636 0.190646
0.891417 0.354345 0.0000610361
0.102296 0.222934 0.283223
0.110765 0.223819 0.283543
0.148455 0.226719 0.284047
0.217685 0.229725 0.282032
0.304143 0.234775 0.277668
0.402304 0.242908 0.269032
0.515724 0.257618 0.25156
0.659144 0.289097 0.205386
0.893614 0.38294 0.000320439
0.18143 0.314565 0.300252
0.188647 0.314839 0.30013
0.217762 0.315816 0.299245
0.269612 0.317662 0.297047
0.340063 0.320974 0.293202
0.426841 0.326406 0.285771
0.53138 0.336355 0.2701
0.668544 0.358022 0.228901
0.897215 0.426886 0.000610361
0.279591 0.414893 0.324544
0.28426 0.415045 0.324361
0.302968 0.415518 0.323445
0.33904 0.416724 0.321691
0.392447 0.418936 0.318563
0.463615 0.422278 0.3122
0.555749 0.428641 0.299077
0.68304 0.442771 0.264393
0.902403 0.487968 0.000732433
0.393545 0.528908 0.364477
0.396277 0.528984 0.364324
0.40763 0.52929 0.363653
0.430365 0.529992 0.362173
0.46685 0.531182 0.359319
0.519722 0.533333 0.354437
0.594568 0.537041 0.344182
0.706508 0.545556 0.317784
0.920241 0.578683 0.120287
0.539071 0.671962 0.434409
0.540459 0.671992 0.434302
0.546273 0.672206 0.43389
0.55845 0.672312 0.432624
0.579614 0.673045 0.430808
0.612497 0.674052 0.42742
0.664546 0.67602 0.420508
0.751522 0.680537 0.403601
0.9411 0.699229 0.303502
0.788128 0.910353 0.598749
0.78854 0.910369 0.598703
0.790234 0.91046 0.59855
0.794186 0.910369 0.59791
0.801282 0.910506 0.59704
0.813764 0.910857 0.59559
0.835325 0.911376 0.592874
0.878996 0.912703 0.585824
1 0.919142 0.553567
0.0174105 0.151415 0.364675
0.0294347 0.153399 0.366094
0.0767681 0.162081 0.372274
0.159869 0.170642 0.375677
0.267506 0.177386 0.372915
0.379828 0.188098 0.367117
0.501945 0.207507 0.356161
0.652262 0.247807 0.330632
0.899779 0.367285 0.155306
0.0236362 0.160388 0.365774
0.0356603 0.1626 0.367422
0.0816052 0.170901 0.373297
0.164065 0.178851 0.376226
0.270085 0.185321 0.37348
0.381521 0.195575 0.367712
0.503243 0.214496 0.357061
0.652979 0.253361 0.331487
0.900053 0.370489 0.157153
0.0508431 0.197406 0.371649
0.0616007 0.199527 0.373281
0.102724 0.205966 0.377584
0.182437 0.211551 0.378775
0.28159 0.217075 0.375845
0.388617 0.225879 0.370398
0.507576 0.242069 0.359945
0.655573 0.276356 0.335027
0.90135 0.383627 0.165011
0.100771 0.261845 0.382864
0.109438 0.262699 0.383307
0.147448 0.265614 0.384482
0.217304 0.268406 0.38352
0.30457 0.272602 0.381277
0.40354 0.279622 0.376272
0.517235 0.291997 0.366094
0.660975 0.319036 0.341726
0.903838 0.409903 0.18114
0.180377 0.340475 0.39408
0.187716 0.340795 0.39408
0.217105 0.341711 0.393622
0.269368 0.34342 0.39237
0.340383 0.346593 0.390356
0.427482 0.3514 0.385702
0.532464 0.360327 0.376577
0.669947 0.379934 0.353765
0.907256 0.450843 0.207279
0.279225 0.431312 0.409506
0.283909 0.431449 0.4094
0.302724 0.431891 0.40882
0.339025 0.433066 0.407706
0.392645 0.435233 0.405692
0.464088 0.438376 0.401602
0.556115 0.444282 0.393256
0.684276 0.457679 0.37319
0.913466 0.508583 0.246616
0.3935 0.538643 0.435859
0.396094 0.538552 0.435599
0.407553 0.538933 0.435203
0.430518 0.539788 0.434379
0.46714 0.540963 0.432471
0.519905 0.542809 0.428717
0.59498 0.546365 0.421988
0.706981 0.554696 0.404562
0.92314 0.588296 0.304509
0.539223 0.67686 0.486473
0.540627 0.67689 0.486397
0.546456 0.677119 0.486107
0.558938 0.677501 0.48539
0.579858 0.677943 0.483742
0.612772 0.67892 0.481254
0.664836 0.680888 0.475959
0.751873 0.685359 0.463523
0.941711 0.703853 0.395285
0.787945 0.911696 0.622232
0.788342 0.911711 0.622202
0.790066 0.911803 0.622065
0.794202 0.911894 0.621668
0.801404 0.912123 0.620996
0.81387 0.912474 0.619974
0.83537 0.912947 0.617304
0.879133 0.914305 0.611231
1 0.920714 0.583246
0.0108492 0.238056 0.475303
0.0233768 0.240467 0.477348
0.0729839 0.249577 0.484901
0.158068 0.258045 0.490181
0.26807 0.262898 0.489326
0.381857 0.270344 0.486366
0.50486 0.283513 0.480415
0.655253 0.311833 0.466819
0.903471 0.406424 0.399496
0.0172732 0.244465 0.476493
0.0299687 0.246952 0.478706
0.078294 0.255756 0.486122
0.162524 0.263508 0.490684
0.270573 0.268315 0.489693
0.383154 0.275395 0.48661
0.505913 0.288151 0.480842
0.655772 0.31606 0.467231
0.903899 0.409003 0.400229
0.0459754 0.27126 0.482399
0.0572061 0.273487 0.484306
0.0996109 0.280156 0.489555
0.180789 0.285527 0.491905
0.281895 0.289677 0.491051
0.390341 0.296132 0.488212
0.510018 0.30782 0.482216
0.658106 0.332998 0.468818
0.904799 0.419989 0.402441
0.0971695 0.31986 0.492302
0.105989 0.32079 0.492973
0.144656 0.32369 0.494682
0.2159 0.326284 0.494667
0.304448 0.3299 0.49366
0.404242 0.335286 0.491081
0.5187 0.345006 0.485435
0.663233 0.36611 0.472206
0.906691 0.442191 0.407248
0.177966 0.382513 0.500237
0.185214 0.382528 0.500053
0.215381 0.383658 0.500252
0.268421 0.385214 0.49984
0.340169 0.38793 0.498817
0.427909 0.392157 0.496315
0.533486 0.399588 0.491081
0.671473 0.415946 0.478401
0.909972 0.477882 0.415763
0.278096 0.459434 0.509255
0.282734 0.459602 0.509239
0.301747 0.460014 0.508919
0.338384 0.461082 0.508537
0.392447 0.463096 0.507591
0.464302 0.46595 0.505302
0.556909 0.47129 0.500404
0.685283 0.483101 0.489006
0.915541 0.529442 0.42977
0.393072 0.556008 0.525673
0.395682 0.555917 0.525475
0.407233 0.556252 0.525292
0.430365 0.557092 0.52488
0.467185 0.558206 0.52372
0.52015 0.559915 0.521309
0.595285 0.563317 0.517098
0.707805 0.571008 0.506645
0.924559 0.602518 0.454185
0.5393 0.686091 0.558877
0.540703 0.686122 0.558816
0.546532 0.686336 0.558633
0.558785 0.686427 0.55787
0.580026 0.687129 0.556985
0.613031 0.688075 0.555352
0.665217 0.689967 0.551736
0.752071 0.694041 0.542992
0.942611 0.712215 0.500801
0.788067 0.914748 0.66128
0.788464 0.914763 0.661234
0.790188 0.91487 0.661158
0.794324 0.914946 0.660822
0.801266 0.9149 0.659998
0.813748 0.915236 0.658946
0.835538 0.915984 0.657252
0.879316 0.917327 0.652247
1 0.923354 0.629786
0 0.357198 0.60914
0.010071 0.359396 0.611139
0.0628367 0.369253 0.620142
0.151705 0.378714 0.627848
0.265949 0.382406 0.628565
0.382528 0.387091 0.627649
0.507607 0.39498 0.62501
0.658778 0.411887 0.618509
0.906828 0.474983 0.590005
0.00393683 0.361105 0.610132
0.0166171 0.363378 0.612207
0.0683452 0.373159 0.621149
0.156374 0.381643 0.628138
0.268772 0.385336 0.628809
0.383886 0.390066 0.627848
0.508232 0.397513 0.624903
0.659266 0.414481 0.618677
0.907012 0.47689 0.590204
0.0333257 0.378485 0.615763
0.0457008 0.381003 0.618097
0.0910353 0.388556 0.624842
0.175265 0.3944 0.628962
0.27982 0.397772 0.629389
0.390845 0.402029 0.628641
0.511986 0.409262 0.62565
0.661341 0.425208 0.619196
0.907942 0.485023 0.591272
0.0881971 0.412177 0.625727
0.0975204 0.41352 0.626947
0.137102 0.417029 0.629755
0.211414 0.419532 0.630701
0.302449 0.422202 0.630549
0.404425 0.426307 0.629847
0.520134 0.432547 0.627146
0.665934 0.44683 0.620752
0.909392 0.501381 0.592798
0.171313 0.45626 0.632792
0.17908 0.456535 0.632914
0.210056 0.45745 0.633219
0.264881 0.458869 0.63331
0.338643 0.461067 0.633051
0.427817 0.464332 0.632288
0.534478 0.469764 0.62977
0.673472 0.481788 0.623453
0.912474 0.528725 0.596201
0.274617 0.513375 0.638041
0.27921 0.513481 0.638041
0.298787 0.513939 0.638041
0.336248 0.514916 0.638025
0.39147 0.516625 0.637797
0.463981 0.519036 0.636728
0.557427 0.52311 0.634195
0.686397 0.532631 0.628595
0.917449 0.570291 0.601862
0.391409 0.591684 0.64683
0.394064 0.591791 0.646845
0.405585 0.591943 0.646616
0.429023 0.592599 0.646555
0.466377 0.593545 0.646097
0.520043 0.595209 0.644984
0.595834 0.598245 0.642695
0.708873 0.604791 0.6374
0.926085 0.632074 0.612039
0.53872 0.705913 0.665354
0.540047 0.705867 0.665248
0.545953 0.705974 0.665095
0.55848 0.706355 0.664866
0.57966 0.706798 0.66421
0.613077 0.707912 0.663325
0.665202 0.709361 0.66096
0.752621 0.713344 0.656275
0.943603 0.730037 0.633936
0.788128 0.921309 0.730388
0.78854 0.92134 0.730373
0.790249 0.921416 0.730312
0.794369 0.921462 0.730037
0.801328 0.921431 0.729412
0.813855 0.921782 0.728695
0.835676 0.922515 0.727398
0.879438 0.92369 0.723751
1 0.92961 0.708629
0 0.578027 0.831174
0 0.578073 0.831144
0.00958267 0.580606 0.833417
0.115129 0.598032 0.850172
0.247684 0.602991 0.853971
0.375006 0.605844 0.854871
0.506676 0.609339 0.854658
0.662058 0.615732 0.853162
0.911727 0.641779 0.844999
0 0.578912 0.831067
0 0.578958 0.831052
0.0164645 0.583017 0.834821
0.119936 0.599496 0.850645
0.250294 0.603784 0.853803
0.376623 0.606867 0.854917
0.507561 0.61033 0.854719
0.662501 0.616693 0.853208
0.911742 0.642481 0.844907
0 0.583307 0.831189
0 0.583352 0.831174
0.0457618 0.592966 0.840482
0.141192 0.604929 0.851804
0.26276 0.608454 0.854322
0.383658 0.611261 0.855406
0.511376 0.614649 0.855161
0.664607 0.620813 0.853605
0.912352 0.646204 0.845121
0.0420539 0.601221 0.840314
0.053666 0.603342 0.842359
0.0987869 0.610559 0.849302
0.183764 0.615137 0.853254
0.287541 0.617914 0.855085
0.398047 0.620371 0.855848
0.519356 0.623529 0.855528
0.668208 0.629541 0.853712
0.913756 0.653864 0.845594
0.135958 0.628824 0.852735
0.145281 0.629236 0.853101
0.181994 0.630426 0.854032
0.245014 0.632044 0.855085
0.326543 0.633951 0.856016
0.42179 0.636194 0.856519
0.53315 0.638911 0.856077
0.675715 0.644648 0.854414
0.916091 0.667231 0.846281
0.255299 0.657282 0.856748
0.260533 0.657481 0.856886
0.282582 0.658106 0.857298
0.3234 0.658946 0.857649
0.382605 0.660151 0.857954
0.459144 0.661738 0.857984
0.556191 0.664286 0.857542
0.687633 0.668971 0.855634
0.92047 0.689586 0.848066
0.381994 0.700893 0.860731
0.384756 0.701015 0.860807
0.397116 0.701213 0.860822
0.421714 0.701671 0.860868
0.460792 0.702388 0.860838
0.516701 0.703624 0.860731
0.594553 0.705425 0.860258
0.709484 0.709392 0.858305
0.928283 0.726314 0.850828
0.535149 0.77583 0.867292
0.536568 0.77583 0.867262
0.542367 0.775723 0.867018
0.555337 0.776013 0.866987
0.577066 0.776593 0.867002
0.611139 0.777203 0.866575
0.664271 0.778286 0.86569
0.752941 0.780957 0.864042
0.944945 0.792966 0.856733
0.787442 0.947768 0.882856
0.787854 0.947753 0.882826
0.789456 0.947738 0.88278
0.793652 0.947799 0.882765
0.800916 0.947997 0.88278
0.813535 0.948287 0.882795
0.835264 0.948638 0.882612
0.879347 0.949691 0.882414
1 0.954467 0.881895
