site/assets/luts/freshluts--0001099-girl-in-studio.cube
# LUTr-Schema-Version: 2
# LUTr-ID: freshluts--0001099-girl-in-studio
# LUTr-Title: Girl in Studio
# LUTr-Collection: Fresh LUTs
# LUTr-Collection-ID: freshluts-community
# LUTr-Source: https://freshluts.com
# LUTr-Retrieved: 2026-07-27
# LUTr-Source-File: submissions-raw/freshluts/cubes/1099__Girl_in_Studio.cube
# LUTr-Source-Format: CUBE
# LUTr-Source-SHA256: 7785895f03e9a0d2e325f3123290510e8e6a3665cc5fc792cce4f05cbc1d8354
# LUTr-License: CC0-1.0
# LUTr-License-URL: https://freshluts.com/termsandconditions
# LUTr-License-Basis: site-terms
# LUTr-Transform-Class: creative-look
# LUTr-Tags: creative, freshluts, community, cube, panasonic-v-log
# LUTr-Input-Color-Space: panasonic-vlog-vgamut
# LUTr-Input-Gamut: panasonic-v-gamut
# LUTr-Input-Transfer: panasonic-v-log
# LUTr-Output-Color-Space: srgb
# LUTr-Output-Gamut: rec709
# LUTr-Output-Transfer: srgb
# LUTr-Color-Space-Confidence: inferred-from-source-label
# LUTr-Domain-Normalized: true
# LUTr-Shaper: none
# LUTr-Original-Grid: 35x35x35
# LUTr-Conversion-Grid: 35x35x35
# LUTr-Conversion-Interpolation: none
# LUTr-Conversion-Method: Metadata normalization; numeric LUT samples preserved
# LUTr-Conversion-Tool: LUTr scripts/convert-all-to-cube.mjs 2.0.0
# LUTr-Conversion-Date: 2026-07-28
# LUTr-Asset-URL: https://freshluts.com/luts/1099
# LUTr-Author: Camera Head Studios LUTS
# LUTr-Author-URL: https://freshluts.com/users/107973
# LUTr-Attribution: Camera Head Studios LUTS via Fresh LUTs
# LUTr-Source-Labels: gamma=Panasonic V-log; color=None; key=Neutral; style=Cinematic/Dark
# LUTr-Note: Preserve this metadata and the upstream license notices when redistributing.
# LUTr-Upstream-Comment: Created by: Pixelmator Pro
# LUTr-Upstream-Comment: Color profile: "sRGB IEC61966-2.1"
# LUTr-Upstream-Comment: Data domain
# LUTr-Upstream-Comment: LUT size
TITLE "Girl in Studio"
LUT_3D_SIZE 35
DOMAIN_MIN 0 0 0
DOMAIN_MAX 1 1 1
0 0 0
0 0 0
0 0 0
0 0 0
0 0 0
0.012 0 0
0.067 0 0
0.165 0 0
0.266 0 0
0.36 0 0
0.453 0 0
0.547 0 0
0.645 0 0
0.741 0 0
0.833 0 0
0.917 0 0
0.982 0 0
1 0 0
1 0 0
1 0 0
1 0 0
1 0 0
1 0 0
1 0 0
1 0 0
1 0 0
1 0 0
1 0 0
1 0 0
1 0 0
1 0 0
1 0 0
1 0 0
1 0 0
1 0 0
0 0 0
0 0 0
0 0 0
0 0 0
0 0 0
0 0 0
0.031 0 0
0.116 0 0
0.222 0 0
0.319 0 0
0.413 0 0
0.508 0 0
0.605 0 0
0.703 0 0
0.796 0 0
0.883 0 0
0.96 0 0
1 0 0
1 0 0
1 0 0
1 0 0
1 0 0
1 0 0
1 0 0
1 0 0
1 0 0
1 0 0
1 0 0
1 0 0
1 0 0
1 0 0
1 0 0
1 0 0
1 0 0
1 0 0
0 0 0
0 0 0
0 0 0
0 0 0
0 0 0
0 0 0
0.009 0 0
0.072 0 0
0.182 0 0
0.281 0 0
0.375 0 0
0.47 0 0
0.567 0 0
0.666 0 0
0.761 0 0
0.851 0 0
0.932 0 0
0.997 0 0
1 0 0
1 0 0
1 0 0
1 0 0
1 0 0
1 0 0
1 0 0
1 0 0
1 0 0
1 0 0
1 0 0
1 0 0
1 0 0
1 0 0
1 0 0
1 0 0
1 0 0
0 0 0
0 0 0
0 0 0
0 0 0
0 0 0
0 0 0
0 0 0
0.036 0 0
0.145 0 0
0.247 0 0
0.341 0 0
0.435 0 0
0.532 0 0
0.631 0 0
0.728 0 0
0.819 0 0
0.902 0 0
0.977 0 0
1 0 0
1 0 0
1 0 0
1 0 0
1 0 0
1 0 0
1 0 0
1 0 0
1 0 0
1 0 0
1 0 0
1 0 0
1 0 0
1 0 0
1 0 0
1 0 0
1 0 0
0 0 0
0 0 0
0 0 0
0 0 0
0 0 0
0 0 0
0 0 0
0.019 0 0
0.108 0 0
0.212 0 0
0.309 0 0
0.402 0 0
0.498 0 0
0.597 0 0
0.694 0 0
0.787 0 0
0.873 0 0
0.95 0 0
0.994 0 0
1 0 0
1 0 0
1 0 0
1 0 0
1 0 0
1 0 0
1 0 0
1 0 0
1 0 0
1 0 0
1 0 0
1 0 0
1 0 0
1 0 0
1 0 0
1 0 0
0 0 0
0 0 0
0 0 0
0 0 0
0 0 0
0 0 0
0 0 0
0.008 0 0
0.072 0 0
0.178 0 0
0.276 0 0
0.37 0 0
0.465 0 0
0.563 0 0
0.661 0 0
0.755 0 0
0.843 0 0
0.923 0 0
0.983 0 0
1 0 0
1 0 0
1 0 0
1 0 0
1 0 0
1 0 0
1 0 0
1 0 0
1 0 0
1 0 0
1 0 0
1 0 0
1 0 0
1 0 0
1 0 0
1 0.028 0
0 0 0
0 0 0
0 0 0
0 0 0
0 0 0
0 0 0
0 0 0
0.002 0 0
0.035 0 0
0.144 0 0
0.243 0 0
0.337 0 0
0.431 0 0
0.528 0 0
0.627 0 0
0.722 0 0
0.812 0 0
0.895 0 0
0.966 0 0
1 0 0
1 0 0
1 0 0
1 0 0
1 0 0
1 0 0
1 0 0
1 0 0
1 0 0
1 0 0
1 0 0
1 0 0
1 0 0
1 0 0
1 0 0
1 0.075 0
0 0.038 0
0 0.031 0
0 0.022 0
0 0.015 0
0 0.009 0
0 0.005 0
0 0.001 0
0 0 0
0.002 0 0
0.111 0 0
0.211 0 0
0.305 0 0
0.398 0 0
0.493 0 0
0.592 0 0
0.689 0 0
0.781 0 0
0.866 0 0
0.94 0 0
0.999 0 0
1 0 0
1 0 0
1 0 0
1 0 0
1 0 0
1 0 0
1 0 0
1 0 0
1 0 0
1 0 0
1 0 0
1 0 0
1 0 0
1 0 0
1 0.139 0
0 0.117 0
0 0.111 0
0 0.096 0
0 0.082 0
0 0.068 0
0 0.055 0
0 0.042 0
0 0.029 0
0 0.018 0
0.075 0.009 0
0.177 0 0
0.272 0 0
0.364 0 0
0.459 0 0
0.557 0 0
0.654 0 0
0.749 0 0
0.833 0 0
0.91 0 0
0.978 0 0
0.999 0 0
1 0 0
1 0 0
1 0 0
1 0 0
1 0 0
1 0 0
1 0 0
1 0 0
1 0 0
1 0 0
1 0 0
1 0 0
1 0 0
1 0.21 0
0 0.193 0
0 0.194 0
0 0.18 0
0 0.167 0
0 0.154 0
0 0.142 0
0 0.129 0
0 0.116 0
0 0.103 0
0.042 0.088 0
0.137 0.072 0
0.233 0.059 0
0.326 0.047 0
0.421 0.036 0
0.518 0.027 0
0.617 0.018 0
0.71 0.012 0
0.798 0.007 0
0.879 0.003 0
0.952 0.001 0
0.993 0 0
1 0 0
1 0 0
1 0 0
1 0 0
1 0 0
1 0 0
1 0 0
1 0 0
1 0 0
1 0 0
1 0 0
1 0 0
1 0.042 0
1 0.29 0
0 0.263 0
0 0.271 0
0 0.258 0
0 0.245 0
0 0.233 0
0 0.221 0
0 0.209 0
0 0.197 0
0 0.185 0
0.017 0.17 0
0.098 0.154 0
0.196 0.138 0
0.289 0.122 0
0.382 0.107 0
0.477 0.091 0
0.574 0.075 0
0.669 0.06 0
0.76 0.045 0
0.844 0.032 0
0.921 0.022 0
0.98 0.016 0
1 0.012 0
1 0.008 0
1 0.005 0
1 0.003 0
1 0.002 0
1 0 0
1 0 0
1 0 0
1 0.01 0
1 0.028 0
1 0.05 0
1 0.078 0
1 0.135 0
1 0.378 0
0 0.328 0
0 0.344 0
0 0.333 0
0 0.32 0
0 0.308 0
0 0.296 0
0 0.284 0
0 0.272 0
0 0.26 0
0 0.247 0
0.062 0.231 0
0.161 0.216 0
0.253 0.201 0
0.344 0.186 0
0.437 0.172 0
0.534 0.157 0
0.631 0.143 0
0.724 0.129 0
0.812 0.116 0
0.892 0.103 0
0.961 0.092 0
1 0.082 0
1 0.074 0
1 0.067 0
1 0.063 0
1 0.061 0
1 0.068 0
1 0.077 0
1 0.089 0
1 0.104 0
1 0.122 0
1 0.146 0
1 0.174 0
1 0.234 0
1 0.473 0
0 0.392 0
0 0.417 0
0 0.407 0
0 0.394 0
0 0.382 0
0 0.37 0
0 0.358 0
0 0.346 0
0 0.335 0
0 0.322 0
0.038 0.307 0
0.124 0.291 0
0.218 0.276 0
0.309 0.262 0
0.401 0.248 0
0.497 0.234 0
0.595 0.22 0
0.691 0.207 0
0.782 0.194 0
0.865 0.183 0
0.94 0.173 0
0.999 0.164 0
1 0.157 0
1 0.152 0
1 0.15 0
1 0.153 0
1 0.161 0
1 0.171 0
1 0.183 0
1 0.199 0
1 0.219 0
1 0.244 0
1 0.275 0
1 0.337 0
1 0.567 0
0 0.458 0
0 0.485 0
0 0.483 0
0 0.471 0
0 0.458 0
0 0.446 0
0 0.434 0
0 0.422 0
0 0.409 0
0 0.396 0
0.02 0.382 0
0.089 0.366 0
0.184 0.352 0
0.275 0.338 0
0.367 0.324 0
0.463 0.311 0
0.562 0.298 0
0.66 0.285 0
0.754 0.274 0
0.841 0.263 0
0.918 0.254 0
0.986 0.247 0
1 0.241 0
1 0.238 0
1 0.241 0
1 0.247 0
1 0.256 0
1 0.267 0
1 0.281 0
1 0.299 0
1 0.321 0
1 0.348 0
1 0.382 0
1 0.447 0
1 0.655 0
0 0.525 0
0 0.552 0
0 0.563 0
0 0.55 0
0 0.536 0
0 0.523 0
0 0.51 0
0 0.498 0
0 0.485 0
0 0.473 0
0.008 0.46 0
0.056 0.445 0
0.152 0.431 0
0.243 0.417 0
0.335 0.405 0
0.432 0.392 0
0.532 0.379 0
0.632 0.368 0
0.728 0.357 0
0.818 0.347 0
0.899 0.34 0
0.969 0.334 0
1 0.33 0
1 0.333 0
1 0.339 0
1 0.347 0
1 0.357 0
1 0.37 0
1 0.386 0
1 0.406 0
1 0.43 0
1 0.459 0
1 0.494 0
1 0.556 0
1 0.735 0
0 0.593 0
0 0.62 0
0 0.638 0
0 0.625 0
0 0.612 0
0 0.6 0
0 0.588 0
0 0.576 0
0 0.564 0
0 0.552 0
0.001 0.541 0
0.025 0.527 0
0.123 0.514 0
0.214 0.502 0
0.306 0.49 0
0.402 0.478 0
0.504 0.467 0
0.606 0.456 0
0.705 0.447 0
0.798 0.439 0
0.881 0.433 0
0.954 0.43 0
1 0.433 0
1 0.438 0
1 0.445 0
1 0.454 0
1 0.466 0
1 0.48 0
1 0.497 0
1 0.517 0
1 0.541 0
1 0.569 0
1 0.602 0
1 0.657 0
1 0.803 0
0 0.663 0
0 0.689 0
0 0.713 0
0 0.7 0
0 0.688 0
0 0.677 0
0 0.665 0
0 0.655 0
0 0.644 0
0 0.633 0
0 0.623 0
0.003 0.611 0
0.095 0.599 0
0.187 0.588 0
0.279 0.578 0
0.376 0.568 0
0.478 0.559 0
0.583 0.55 0
0.684 0.542 0
0.78 0.536 0
0.869 0.536 0
0.944 0.538 0
0.996 0.541 0
1 0.547 0
1 0.555 0
1 0.564 0
1 0.576 0
1 0.59 0
1 0.606 0
1 0.625 0
1 0.647 0
1 0.673 0
1 0.702 0
1 0.746 0
1 0.859 0
0 0.734 0
0 0.757 0
0 0.783 0
0 0.775 0
0 0.764 0
0 0.753 0
0 0.743 0
0 0.733 0
0 0.723 0
0 0.715 0
0 0.706 0
0 0.696 0
0.07 0.685 0
0.162 0.676 0
0.255 0.668 0
0.353 0.66 0
0.457 0.652 0
0.564 0.645 0
0.671 0.643 0
0.771 0.641 0
0.86 0.642 0
0.934 0.644 0
0.985 0.648 0
1 0.653 0
1 0.661 0
1 0.67 0
1 0.68 0
1 0.693 0
1 0.707 0
1 0.724 0
1 0.743 0
1 0.764 0
1 0.789 0
1 0.82 0
1 0.906 0.001
0 0.804 0
0 0.825 0
0 0.849 0
0 0.848 0
0 0.838 0
0 0.828 0
0 0.818 0
0 0.81 0
0 0.802 0
0 0.794 0
0 0.788 0
0 0.779 0
0.051 0.771 0
0.141 0.763 0
0.236 0.757 0
0.336 0.752 0
0.445 0.748 0
0.557 0.745 0
0.665 0.743 0
0.765 0.741 0
0.853 0.741 0
0.926 0.743 0
0.978 0.746 0
1 0.751 0
1 0.757 0
1 0.765 0
1 0.774 0
1 0.784 0
1 0.796 0
1 0.809 0
1 0.825 0
1 0.842 0
1 0.86 0
1 0.881 0
1 0.944 0.003
0 0.873 0
0 0.893 0
0 0.914 0
0 0.919 0
0 0.909 0
0 0.9 0
0 0.892 0
0 0.884 0
0 0.878 0
0 0.872 0
0 0.866 0
0 0.86 0
0.039 0.854 0
0.126 0.85 0
0.225 0.846 0
0.328 0.843 0
0.44 0.839 0
0.553 0.835 0
0.662 0.832 0
0.761 0.83 0
0.848 0.829 0
0.92 0.83 0
0.976 0.832 0
1 0.836 0
1 0.84 0
1 0.846 0
1 0.853 0
1 0.861 0
1 0.869 0
1 0.88 0
1 0.891 0
1 0.904 0
1 0.917 0
1 0.929 0
1 0.975 0.003
0 0.94 0
0 0.958 0
0 0.973 0
0 0.979 0
0 0.973 0
0 0.968 0
0 0.961 0
0 0.954 0
0 0.949 0
0 0.946 0
0 0.943 0
0 0.938 0
0.032 0.933 0
0.118 0.929 0
0.218 0.925 0
0.324 0.921 0
0.437 0.916 0
0.552 0.911 0
0.661 0.907 0
0.761 0.904 0
0.846 0.902 0
0.917 0.902 0
0.974 0.903 0
0.996 0.905 0
1 0.908 0
1 0.912 0
1 0.916 0
1 0.922 0
1 0.929 0
1 0.936 0
1 0.944 0
1 0.953 0
1 0.962 0
1 0.967 0
1 0.995 0.018
0 0.993 0
0 1 0
0 1 0
0 1 0
0 1 0
0 1 0
0 0.998 0
0 0.996 0
0 0.995 0
0 0.994 0
0 0.995 0
0 0.995 0
0.026 0.997 0
0.113 0.994 0
0.215 0.988 0
0.324 0.981 0
0.438 0.975 0
0.554 0.97 0
0.664 0.967 0
0.762 0.964 0
0.847 0.961 0
0.916 0.96 0
0.971 0.96 0
0.994 0.96 0
1 0.962 0
1 0.964 0
1 0.968 0
1 0.971 0
1 0.973 0
1 0.976 0
1 0.98 0
1 0.984 0
1 0.989 0
1 0.997 0
1 0.997 0.054
0 1 0
0 1 0
0 1 0
0 1 0
0 1 0
0 1 0
0 1 0
0 1 0
0 1 0
0 1 0
0 1 0
0 1 0
0.021 1 0
0.11 1 0
0.214 1 0
0.325 1 0
0.442 1 0
0.558 1 0
0.668 1 0
0.766 0.997 0
0.849 0.994 0
0.916 0.991 0
0.97 0.99 0
0.993 0.99 0
1 0.99 0
1 0.991 0
1 0.993 0
1 0.995 0
1 0.997 0
1 1 0
1 1 0
1 1 0
1 1 0
1 1 0
1 1 0.095
0 1 0
0 1 0
0 1 0
0 1 0
0 1 0
0 1 0
0 1 0
0 1 0
0 1 0
0 1 0
0 1 0
0 1 0
0.016 1 0
0.109 1 0
0.215 1 0
0.328 1 0
0.447 1 0
0.564 1 0
0.674 1 0
0.771 1 0
0.852 1 0
0.918 1 0
0.971 1 0
0.994 1 0
1 1 0
1 1 0
1 1 0
1 1 0
1 1 0
1 1 0
1 1 0
1 1 0
1 1 0
1 1 0
1 1 0.143
0 1 0
0 1 0
0 1 0
0 1 0
0 1 0
0 1 0
0 1 0
0 1 0
0 1 0
0 1 0
0 1 0
0 1 0
0.012 1 0
0.109 1 0
0.217 1 0
0.332 1 0
0.453 1 0
0.571 1 0
0.681 1 0
0.777 1 0
0.856 1 0
0.92 1 0
0.97 1 0
0.996 1 0
1 1 0
1 1 0
1 1 0
1 1 0
1 1 0
1 1 0
1 1 0
1 1 0
1 1 0
1 1 0
1 1 0.201
0 1 0
0 1 0
0 1 0
0 1 0
0 1 0
0 1 0
0 1 0
0 1 0
0 1 0
0 1 0
0 1 0
0 1 0
0.009 1 0
0.108 1 0
0.219 1 0
0.337 1 0
0.459 1 0
0.578 1 0
0.688 1 0
0.783 1 0
0.861 1 0
0.924 1 0
0.971 1 0
0.999 1 0
1 1 0
