site/assets/luts/freshluts--0000015-contrasty-green.cube
# LUTr-Schema-Version: 2
# LUTr-ID: freshluts--0000015-contrasty-green
# LUTr-Title: Contrasty Green
# LUTr-Collection: Fresh LUTs
# LUTr-Collection-ID: freshluts-community
# LUTr-Source: https://freshluts.com
# LUTr-Retrieved: 2026-07-27
# LUTr-Source-File: submissions-raw/freshluts/cubes/15__Contrasty_Green.cube
# LUTr-Source-Format: CUBE
# LUTr-Source-SHA256: b7eead88970175b6e2b6cda6ca29dd774c1a3cfd2626d44bedf480056d6039d6
# LUTr-License: CC0-1.0
# LUTr-License-URL: https://freshluts.com/termsandconditions
# LUTr-License-Basis: site-terms
# LUTr-Transform-Class: creative-look
# LUTr-Tags: creative, freshluts, community, cube, cinematic, blockbuster, green, low-key, rec709
# LUTr-Input-Color-Space: rec709
# LUTr-Input-Gamut: rec709
# LUTr-Input-Transfer: rec709
# LUTr-Output-Color-Space: srgb
# LUTr-Output-Gamut: rec709
# LUTr-Output-Transfer: srgb
# LUTr-Color-Space-Confidence: declared-by-source
# LUTr-Domain-Normalized: true
# LUTr-Shaper: none
# LUTr-Original-Grid: 33x33x33
# LUTr-Conversion-Grid: 33x33x33
# LUTr-Conversion-Interpolation: none
# LUTr-Conversion-Method: Metadata normalization; numeric LUT samples preserved
# LUTr-Conversion-Tool: LUTr scripts/convert-all-to-cube.mjs 2.0.0
# LUTr-Conversion-Date: 2026-07-28
# LUTr-Asset-URL: https://freshluts.com/luts/15
# LUTr-Author: Alex Jordan
# LUTr-Author-URL: https://freshluts.com/users/1
# LUTr-Attribution: Alex Jordan via Fresh LUTs
# LUTr-Source-Labels: gamma=Rec 709; color=Green; key=Low Key; style=Blockbuster
# LUTr-Note: Preserve this metadata and the upstream license notices when redistributing.
TITLE "Contrasty Green"
LUT_3D_SIZE 33
DOMAIN_MIN 0 0 0
DOMAIN_MAX 1 1 1
0 0 0
0 0 0
0.00289921 0 0
0.0117189 0 0
0.0268559 0 0
0.0473182 0 0
0.0723735 0 0
0.102007 0 0
0.136004 0 0
0.175158 0 0
0.218845 0 0
0.267521 0 0
0.320882 0 0
0.378088 0 0
0.439857 0 0
0.506004 0 0
0.576104 0 0
0.650401 0 0
0.729839 0 0
0.818463 0 0
0.924453 0 0
1 0 0
1 0 0
1 0 0
1 0 0
1 0 0
1 0 0
1 0 0
1 0 0
1 0 0
1 0 0
1 0 0
1 0 0
0 0 0
0 0 0
0.000946059 0 0
0.00714122 0 0
0.020264 0 0
0.0385595 0 0
0.0618601 0 0
0.0899214 0 0
0.122393 0 0
0.159686 0 0
0.202045 0 0
0.249226 0 0
0.302083 0 0
0.360006 0 0
0.421469 0 0
0.487648 0 0
0.558663 0 0
0.635462 0 0
0.719203 0 0
0.813443 0 0
0.920836 0 0
1 0 0
1 0 0
1 0 0
1 0 0
1 0 0
1 0 0
1 0 0
1 0 0
1 0 0
1 0 0
1 0 0
1 0 0
0 0 0
0 0 0
0 0 0
0.002533 0 0
0.0122072 0 0
0.0282139 0 0
0.0501564 0 0
0.0774243 0 0
0.109224 0 0
0.145281 0 0
0.18706 0 0
0.23418 0 0
0.286824 0 0
0.344869 0 0
0.408789 0 0
0.477821 0 0
0.551904 0 0
0.631373 0 0
0.717128 0 0
0.812573 0 0
0.922896 0 0
1 0 0
1 0 0
1 0 0
1 0 0
1 0 0
1 0 0
1 0 0
1 0 0
1 0 0
1 0 0
1 0 0
1 0 0
0 0.00302129 0
0 0.00248722 0
0 0.000961318 0
0.000656138 0.000106813 0
0.00624094 0 0
0.0191196 0 0
0.0380102 0 0
0.0631418 0 0
0.0941176 0 0
0.130953 0 0
0.174182 0 0
0.223575 0 0
0.27892 0 0
0.338964 0 0
0.40444 0 0
0.475547 0 0
0.552407 0 0
0.633783 0 0
0.720806 0 0
0.81738 0 0
0.929183 0 0
1 0 0
1 0 0
1 0 0
1 0 0
1 0 0
1 0 0
1 0 0
1 0 0
1 0 0
1 0 0
1 0 0
1 0 0
0 0.00494392 0
0 0.00457771 0
0 0.0037232 0
0 0.00161746 0
0.00317388 0.000976577 0
0.0139773 0 0
0.0318608 0 0
0.0567483 0 0
0.0884718 0 0
0.127443 0 0
0.172168 0 0
0.222675 0 0
0.279896 0 0
0.342947 0 0
0.41091 0 0
0.485451 0 0
0.564172 0 0
0.648127 0 0
0.73814 0 0
0.838239 0 0
0.953216 0 0
1 0 0
1 0 0
1 0 0
1 0 0
1 0 0
1 0 0
1 0 0
1 0 0
1 0 0
1 0 0
1 0 0
1 0 0
0 0.00921645 0
0 0.00836194 0
0 0.00767529 0
0 0.00602731 0
0.000640879 0.00630198 0
0.0119478 0.00552377 0
0.0312505 0.0030518 0
0.057847 0 0
0.0921492 0 0
0.132616 0 0
0.179873 0 0
0.233249 0 0
0.292622 0 0
0.359152 0 0
0.430457 0 0
0.506905 0 0
0.588067 0 0
0.674876 0 0
0.768093 0 0
0.872969 0 0
0.991623 0 0
1 0 0
1 0 0
1 0 0
1 0 0
1 0 0
1 0 0
1 0 0
1 0 0
1 0 0
1 0 0
1 0 0
1 0 0
0 0.0180819 0
0 0.0176394 0
0 0.0171817 0
0 0.0166323 0
0 0.0181582 0
0.0099794 0.0188296 0
0.0310979 0.0180514 0
0.0598764 0.0157473 0
0.0957504 0.0118715 0
0.138521 0.00674449 0
0.187961 0.000518807 0
0.243824 0 0
0.307149 0 0
0.375753 0 0
0.449012 0 0
0.528267 0 0
0.61297 0 0
0.702495 0 0
0.800015 0 0
0.906264 0 0
1 0 0
1 0 0
1 0 0
1 0 0
1 0 0
1 0 0
1 0 0
1 0 0
1 0 0
1 0 0
1 0 0
1 0 0
1 0 0
0 0.0340276 0
0 0.0337072 0
0 0.0335393 0
0 0.0343023 0
0 0.0374762 0
0.0077821 0.0398871 0
0.0307622 0.040589 0
0.0615702 0.0396429 0
0.0996109 0.0373693 0
0.144778 0.0337377 0
0.196689 0.0288853 0
0.256367 0.0234073 0
0.321279 0.016556 0
0.392554 0.00863661 0
0.469139 0 0
0.550546 0 0
0.639124 0 0
0.732601 0 0
0.830991 0 0
0.940322 0 0
1 0 0
1 0 0
1 0 0
1 0 0
1 0 0
1 0 0
1 0 0
1 0 0
1 0 0
1 0 0
1 0 0
1 0 0
1 0 0
0 0.0569924 0
0 0.0570993 0
0 0.0572366 0
0 0.0596323 0
0 0.0650797 0
0.00537118 0.0688334 0
0.0303197 0.0708629 0
0.0633249 0.0713817 0
0.10396 0.0705577 0
0.152056 0.0688334 0
0.207294 0.0659495 0
0.268605 0.0615091 0
0.336431 0.0559854 0
0.410025 0.0496071 0
0.489555 0.0423133 0
0.575265 0.0346838 0
0.665644 0.0261082 0
0.760784 0.0163577 0
0.861997 0.00560006 0
0.973281 0 0
1 0 0
1 0 0
1 0 0
1 0 0
1 0 0
1 0 0
1 0 0
1 0 0
1 0 0
1 0 0
1 0 0
1 0 0
1 0 0
0 0.0870527 0
0 0.0877546 0
0 0.0885939 0
0 0.0933547 0
0 0.100191 0
0.00248722 0.105486 0
0.0301976 0.109117 0
0.0657054 0.111254 0
0.109163 0.112215 0
0.160281 0.112093 0
0.217823 0.110307 0
0.281621 0.107515 0
0.352255 0.103441 0
0.42887 0.0983291 0
0.51223 0.0932326 0
0.599451 0.0864729 0
0.69189 0.0788891 0
0.789319 0.0704204 0
0.89218 0.0609751 0
1 0.0493782 0
1 0.0339666 0
1 0.0151064 0
1 0 0
1 0 0
1 0 0
1 0 0
1 0 0
1 0 0
1 0 0
1 0 0
1 0 0
1 0 0
1 0 0
0 0.124498 0
0 0.126314 0
0 0.128084 0
0 0.135012 0
0 0.143633 0
0 0.150317 0
0.0302739 0.155535 0
0.0693523 0.159915 0
0.115541 0.162097 0
0.168688 0.162966 0
0.228885 0.162493 0
0.295628 0.160861 0
0.368811 0.158404 0
0.44921 0.155261 0
0.533806 0.150454 0
0.623316 0.144762 0
0.717174 0.138277 0
0.816419 0.130724 0
0.922255 0.122484 0
1 0.112093 0
1 0.0969863 0
1 0.0784772 0
1 0.0584115 0
1 0.0388495 0
1 0.0220798 0
1 0.00840772 0
1 0 0
1 0 0
1 0 0
1 0 0
1 0.0034638 0
1 0.0189517 0
1 0.0349584 0
0 0.170169 0
0 0.172015 0
0 0.175448 0
0 0.184787 0
0 0.195056 0
0 0.203265 0
0.0313878 0.210529 0
0.0727703 0.215427 0
0.121767 0.218814 0
0.177905 0.220829 0
0.240452 0.221653 0
0.310033 0.221378 0
0.386786 0.220356 0
0.467765 0.217517 0
0.554314 0.213535 0
0.645884 0.208698 0
0.742 0.20293 0
0.844144 0.197284 0
0.950134 0.189136 0
1 0.178592 0
1 0.163928 0
1 0.145892 0
1 0.126223 0
1 0.1075 0
1 0.090135 0
1 0.0765698 0
1 0.0667735 0
1 0.0609598 0
1 0.0592355 0
1 0.0623178 0
1 0.0738689 0
1 0.0898299 0
1 0.106386 0
0 0.222431 0
0 0.224689 0
0 0.231022 0
0 0.242695 0
0 0.254994 0
0 0.264363 0
0.0325475 0.271809 0
0.0768139 0.27779 0
0.128359 0.282216 0
0.187121 0.285176 0
0.253407 0.287678 0
0.324773 0.28809 0
0.402655 0.287083 0
0.486076 0.28481 0
0.5738 0.281468 0
0.666865 0.277134 0
0.765759 0.272709 0
0.867674 0.266316 0
0.974151 0.258747 0
1 0.248203 0
1 0.233448 0
1 0.215793 0
1 0.196765 0
1 0.177417 0
1 0.160235 0
1 0.146395 0
1 0.136873 0
1 0.131823 0
1 0.130892 0
1 0.133974 0
1 0.14699 0
1 0.163165 0
1 0.180331 0
0 0.281285 0
0 0.283909 0
0 0.293858 0
0 0.308583 0
0 0.320958 0
0 0.330938 0
0.0340124 0.339071 0
0.0810407 0.345678 0
0.135409 0.350759 0
0.197208 0.355489 0
0.264973 0.357687 0
0.338491 0.358236 0
0.417533 0.357488 0
0.502495 0.355505 0
0.592447 0.352605 0
0.687602 0.349493 0
0.78555 0.344076 0
0.88777 0.337499 0
0.995193 0.329839 0
1 0.319631 0
1 0.305974 0
1 0.287831 0
1 0.267811 0
1 0.248493 0
1 0.231601 0
1 0.218402 0
1 0.210224 0
1 0.20531 0
1 0.20412 0
1 0.208591 0
1 0.22266 0
1 0.239399 0
1 0.258061 0
0 0.345769 0
0 0.349828 0
0 0.364569 0
0 0.379263 0
0 0.391745 0
0 0.402182 0
0.0362707 0.410925 0
0.0865492 0.418769 0
0.143648 0.424323 0
0.206744 0.428016 0
0.276219 0.43032 0
0.351644 0.431098 0
0.432609 0.430274 0
0.51931 0.429175 0
0.610239 0.426047 0
0.705318 0.421759 0
0.8038 0.416556 0
0.906615 0.409934 0
1 0.401984 0
1 0.392538 0
1 0.377966 0
1 0.359976 0
1 0.340475 0
1 0.321508 0
1 0.305089 0
1 0.293233 0
1 0.28452 0
1 0.280217 0
1 0.279606 0
1 0.286183 0
1 0.300603 0
1 0.318517 0
1 0.337087 0
0 0.415183 0
0 0.423728 0
0 0.438956 0
0 0.453941 0
0 0.466438 0
0 0.476707 0
0.0397803 0.486183 0
0.0922408 0.493843 0
0.151324 0.499016 0
0.216495 0.502358 0
0.28716 0.504219 0
0.363928 0.504707 0
0.447333 0.504768 0
0.534615 0.502907 0
0.626062 0.49926 0
0.721492 0.49456 0
0.821103 0.488945 0
0.924346 0.482521 0
1 0.476051 0
1 0.465965 0
1 0.451591 0
1 0.433936 0
1 0.414618 0
1 0.397223 0
1 0.381125 0
1 0.368856 0
1 0.360601 0
1 0.356695 0
1 0.35668 0
1 0.366781 0
1 0.381277 0
1 0.398428 0
1 0.418112 0
0 0.488289 0
0 0.500496 0
0 0.516594 0
0 0.531411 0
0 0.543908 0
0 0.555535 0
0.0439612 0.563577 0
0.0981613 0.569924 0
0.159152 0.57467 0
0.226169 0.577829 0
0.299275 0.57995 0
0.377554 0.58056 0
0.460929 0.578912 0
0.549279 0.576272 0
0.641321 0.572778 0
0.738247 0.568307 0
0.840406 0.563592 0
0.945571 0.557961 0
1 0.550637 0
1 0.540764 0
1 0.526802 0
1 0.509499 0
1 0.491356 0
1 0.473564 0
1 0.457847 0
1 0.445808 0
1 0.438071 0
1 0.434577 0
1 0.436042 0
1 0.447868 0
1 0.462348 0
1 0.480674 0
1 0.500832 0
0 0.565972 0
0 0.581109 0
0 0.597223 0
0 0.611444 0
0 0.624369 0
0 0.634012 0
0.0487526 0.641657 0
0.10518 0.647379 0
0.167498 0.651362 0
0.236393 0.654383 0
0.311437 0.656458 0
0.390631 0.656474 0
0.475685 0.655009 0
0.565606 0.652415 0
0.658961 0.649195 0
0.758404 0.645518 0
0.861952 0.640864 0
0.967742 0.634882 0
1 0.627665 0
1 0.617792 0
1 0.603769 0
1 0.587961 0
1 0.569207 0
1 0.551308 0
1 0.535943 0
1 0.524285 0
1 0.517662 0
1 0.515084 0
1 0.518471 0
1 0.530343 0
1 0.546227 0
1 0.564965 0
1 0.586496 0
0 0.646799 0
0 0.662547 0
0 0.678462 0
0 0.693004 0
0 0.703883 0
0.0012665 0.712489 0
0.0534371 0.719463 0
0.112001 0.724926 0
0.177325 0.73051 0
0.247837 0.733028 0
0.323964 0.734218 0
0.40499 0.734371 0
0.491875 0.73315 0
0.583597 0.731258 0
0.680247 0.729168 0
0.780468 0.724971 0
0.884749 0.719921 0
0.992355 0.714137 0
1 0.70724 0
1 0.69807 0
1 0.68513 0
1 0.667689 0
1 0.648615 0
1 0.630671 0
1 0.615549 0
1 0.604776 0
1 0.598581 0
1 0.595941 0
1 0.602914 0
1 0.615686 0
1 0.631891 0
1 0.651972 0
1 0.673884 0
0 0.728771 0
0 0.745907 0
0 0.760327 0
0 0.772931 0
0 0.783581 0
0.00485237 0.792157 0
0.0593576 0.799191 0
0.120851 0.806119 0
0.187472 0.810239 0
0.26009 0.812879 0
0.338201 0.814237 0
0.421103 0.814481 0
0.509743 0.813687 0
0.6047 0.812802 0
0.701869 0.809873 0
0.803815 0.805829 0
0.909697 0.800885 0
1 0.795377 0
1 0.789105 0
1 0.780713 0
1 0.766964 0
1 0.74963 0
1 0.730831 0
1 0.712703 0
1 0.69894 0
1 0.687785 0
1 0.681437 0
1 0.680095 0
1 0.689723 0
1 0.703029 0
1 0.72105 0
1 0.740932 0
1 0.76257 0
0 0.812116 0
0 0.828183 0
0 0.842344 0
0 0.854795 0
0 0.865293 0
0.00984207 0.87396 0
0.0675364 0.88249 0
0.130251 0.88806 0
0.199252 0.892119 0
0.27396 0.894835 0
0.353933 0.896422 0
0.440177 0.898283 0
0.530968 0.897368 0
0.626444 0.895232 0
0.725505 0.892454 0
0.829252 0.888609 0
0.936843 0.883894 0
1 0.88011 0
1 0.873503 0
1 0.864424 0
1 0.850813 0
1 0.833432 0
1 0.81474 0
1 0.79823 0
1 0.783261 0
1 0.772549 0
1 0.766461 0
1 0.768322 0
1 0.778332 0
1 0.792996 0
1 0.810437 0
1 0.830976 0
1 0.853284 0
0 0.89662 0
0 0.912337 0
0 0.926406 0
0 0.938918 0
0 0.950561 0
0.0170901 0.959487 0
0.0762188 0.966537 0
0.141497 0.972107 0
0.212726 0.976226 0
0.289372 0.979049 0
0.372366 0.982086 0
0.460136 0.982681 0
0.552895 0.981735 0
0.649744 0.979919 0
0.751202 0.97705 0
0.856794 0.973297 0
0.96733 0.970443 0
1 0.965286 0
1 0.958968 0
1 0.949966 0
1 0.936355 0
1 0.919127 0
1 0.901976 0
1 0.88423 0
1 0.869337 0
1 0.859007 0
1 0.853147 0
1 0.859449 0
1 0.869902 0
1 0.883589 0
1 0.901717 0
1 0.922972 0
1 0.946212 0
0 0.983185 0
0 0.998611 0
0 1 0
0 1 0
0 1 0
0.0246891 1 0
0.0862135 1 0
0.153811 1 0
0.227405 1 0
0.307408 1 0
0.391974 1 0
0.481636 1 0
0.575921 1 0
0.67538 1 0
0.780011 1 0
0.887465 1 0
0.998383 1 0
1 1 0
1 1 0
1 1 0
1 1 0
1 1 0
1 0.989715 0
1 0.971969 0
1 0.95758 0
1 0.947311 0
1 0.94464 0
1 0.95172 0
1 0.961852 0
1 0.976043 0
1 0.994766 0
1 1 0
1 1 0
0 1 0
0 1 0
0 1 0
0 1 0
0 1 0
0.0328832 1 0
0.0970932 1 0
0.167727 1 0
0.243931 1 0
0.325429 1 0
0.412253 1 0
0.503548 1 0
0.600458 1 0
0.702754 1 0
0.808209 1 0
0.917693 1 0
1 1 0
1 1 0
1 1 0
1 1 0
1 1 0
1 1 0
1 1 0
1 1 0
1 1 0
1 1 0
1 1 0
1 1 0
1 1 0
1 1 0
1 1 0
1 1 0
1 1 0
0 1 0
0 1 0
0 1 0
0 1 0
0 1 0
0.0419165 1 0
0.108568 1 0
0.181857 1 0
0.260166 1 0
0.343862 1 0
0.432425 1 0
0.526162 1 0
0.626795 1 0
0.729778 1 0
0.837278 1 0
0.948669 1 0
1 1 0
1 1 0
1 1 0
1 1 0
1 1 0
1 1 0
1 1 0
1 1 0
1 1 0
1 1 0
1 1 0
1 1 0
1 1 0
1 1 0
1 1 0
1 1 0
1 1 0
0 1 0
0 1 0
0 1 0
0 1 0
0 1 0
0.051667 1 0
0.120836 1 0
0.195834 1 0
0.275822 1 0
0.361654 1 0
0.453101 1 0
0.550027 1 0
0.651148 1 0
0.756832 1 0
0.866285 1 0
0.978897 1 0
1 1 0
1 1 0
1 1 0
1 1 0
1 1 0
1 1 0
1 1 0
1 1 0
1 1 0
1 1 0
1 1 0
1 1 0
1 1 0
1 1 0
1 1 0
1 1 0
1 1 0
0 1 0
0 1 0
0 1 0
0 1 0
0 1 0
0.0605783 1 0
0.131609 1 0
0.208606 1 0
0.291478 1 0
0.379843 1 0
0.47393 1 0
0.572229 1 0
0.675471 1 0
0.782727 1 0
0.893874 1 0
1 1 0
1 1 0
1 1 0
1 1 0
1 1 0
1 1 0
1 1 0
1 1 0
1 1 0
1 1 0
1 1 0
1 1 0
1 1 0
1 1 0
1 1 0
1 1 0
1 1 0
1 1 0
0 1 0
0 1 0
0 1 0
0 1 0
0.000366217 1 0
0.0680247 1 0
0.141741 1 0
0.221241 1 0
0.306645 1 0
