site/assets/luts/freshluts--0000175-night-blade.cube
# LUTr-Schema-Version: 2
# LUTr-ID: freshluts--0000175-night-blade
# LUTr-Title: Night Blade
# LUTr-Collection: Fresh LUTs
# LUTr-Collection-ID: freshluts-community
# LUTr-Source: https://freshluts.com
# LUTr-Retrieved: 2026-07-27
# LUTr-Source-File: submissions-raw/freshluts/cubes/175__Night_Blade_4.1.cube
# LUTr-Source-Format: CUBE
# LUTr-Source-SHA256: bea075d05cc014bbbc0d58331c9cad49c92c4148518dd3e34d263ef9abd59b0c
# LUTr-License: CC0-1.0
# LUTr-License-URL: https://freshluts.com/termsandconditions
# LUTr-License-Basis: site-terms
# LUTr-Transform-Class: creative-look
# LUTr-Tags: creative, freshluts, community, cube, cinematic, blockbuster, warm, low-key
# LUTr-Input-Color-Space:
# LUTr-Input-Gamut: unspecified
# LUTr-Input-Transfer: unspecified
# LUTr-Output-Color-Space: srgb
# LUTr-Output-Gamut: rec709
# LUTr-Output-Transfer: srgb
# LUTr-Color-Space-Confidence: camera-profile-input-required
# LUTr-Domain-Normalized: true
# LUTr-Shaper: none
# LUTr-Original-Grid: 33x33x33
# LUTr-Conversion-Grid: 33x33x33
# LUTr-Conversion-Interpolation: none
# LUTr-Conversion-Method: Metadata normalization; numeric LUT samples preserved
# LUTr-Conversion-Tool: LUTr scripts/convert-all-to-cube.mjs 2.0.0
# LUTr-Conversion-Date: 2026-07-28
# LUTr-Asset-URL: https://freshluts.com/luts/175
# LUTr-Author: Cube Frames
# LUTr-Author-URL: https://freshluts.com/users/1308
# LUTr-Attribution: Cube Frames via Fresh LUTs
# LUTr-Source-Labels: gamma=Other; color=Warm; key=Low Key; style=Blockbuster
# LUTr-Duplicate-Assets: 176:https://freshluts.com/luts/176
# LUTr-Note: Preserve this metadata and the upstream license notices when redistributing.
TITLE "Night Blade"
LUT_3D_SIZE 5
DOMAIN_MIN 0 0 0
DOMAIN_MAX 1 1 1
0.0477607 0.0569162 0.06392
0.143984 0.0675364 0.0608072
0.499733 0.0838026 0.057847
0.828885 0.119265 0.0836957
0.916014 0.127596 0.0863355
0.0406653 0.125078 0.0539712
0.124544 0.128054 0.0492561
0.500053 0.142901 0.0565652
0.821851 0.180423 0.0827649
0.922469 0.187793 0.0864576
0.035996 0.294209 0.0493477
0.0753338 0.304631 0.0476692
0.546456 0.308568 0.0514076
0.860578 0.369146 0.0594339
0.987747 0.421607 0.0512245
0.0476539 0.51458 0.0615702
0.0753338 0.510231 0.0586404
0.482795 0.640284 0.0481575
0.838544 0.629175 0.0629587
0.977096 0.645579 0.0661173
0.0602731 0.736065 0.0690623
0.0868544 0.734035 0.0670024
0.45069 0.825116 0.0555581
0.794553 0.890684 0.0706798
0.956909 0.857755 0.0755627
0.0438697 0.0725414 0.14815
0.114595 0.0773327 0.141833
0.469306 0.0883803 0.122728
0.823484 0.133883 0.133501
0.913603 0.139986 0.133608
0.0381933 0.118166 0.137865
0.0980545 0.126345 0.137804
0.493233 0.139208 0.104158
0.817945 0.170031 0.125689
0.919829 0.178103 0.127703
0.0305638 0.311345 0.0961929
0.0703136 0.304311 0.0901808
0.532006 0.311315 0.0863813
0.854994 0.366064 0.0904402
0.985199 0.418784 0.0813001
0.0454261 0.507683 0.0954299
0.0730297 0.503136 0.0903792
0.468406 0.631983 0.0767834
0.834791 0.621775 0.0904097
0.976349 0.640162 0.0936751
0.0593729 0.735195 0.0977188
0.0859693 0.733166 0.0955673
0.440711 0.819593 0.0836957
0.790585 0.886625 0.0982986
0.955047 0.853834 0.103731
0.0514687 0.140993 0.394827
0.0968948 0.140627 0.371313
0.305608 0.141726 0.320119
0.802029 0.184298 0.288991
0.911818 0.228061 0.305074
0.0469368 0.181247 0.383139
0.0903487 0.187869 0.39324
0.292271 0.199908 0.331334
0.79324 0.252186 0.302586
0.923903 0.289708 0.314824
0.049012 0.298726 0.380667
0.0820935 0.300359 0.379156
0.271702 0.371252 0.403479
0.816709 0.454551 0.336828
0.970871 0.464302 0.262669
0.0847028 0.689616 0.595224
0.108537 0.676524 0.56791
0.214618 0.609644 0.316381
0.806638 0.682246 0.213474
0.972717 0.676387 0.211246
0.073106 0.830243 0.406577
0.0953078 0.818311 0.370443
0.247578 0.80885 0.218799
0.746578 0.878416 0.198764
0.950469 0.852934 0.187472
0.0712444 0.252232 0.695247
0.116289 0.246036 0.666438
0.211246 0.248631 0.617899
0.749004 0.29366 0.506111
0.887373 0.308202 0.515999
0.0674601 0.293904 0.688548
0.109926 0.297856 0.692393
0.204532 0.289754 0.627024
0.73196 0.344701 0.522744
0.89308 0.358801 0.52488
0.0673838 0.388846 0.682643
0.0995346 0.388693 0.680354
0.197391 0.41912 0.70927
0.710735 0.516732 0.638254
0.919356 0.556802 0.647639
0.0771801 0.536904 0.701518
0.102251 0.527276 0.68983
0.193393 0.559609 0.706294
0.703624 0.719585 0.704555
0.938827 0.729747 0.669001
0.10605 0.783429 0.809873
0.132052 0.78262 0.805432
0.20972 0.814328 0.807584
0.636439 0.872099 0.609323
0.933257 0.86807 0.449119
0.0715343 0.263676 0.76939
0.118013 0.264546 0.754482
0.216815 0.283574 0.740963
0.688258 0.340322 0.712963
0.86479 0.354025 0.692088
0.0717479 0.320729 0.788586
0.114305 0.328161 0.796658
0.212589 0.336492 0.772808
0.638224 0.397696 0.769162
0.871565 0.403861 0.714916
0.076463 0.438117 0.822599
0.108324 0.439185 0.823636
0.205005 0.465034 0.847379
0.556664 0.572961 0.856794
0.899367 0.558145 0.809506
0.0848859 0.563394 0.852216
0.110491 0.556863 0.848463
0.199695 0.579675 0.864286
0.438468 0.65626 0.881636
0.903273 0.728099 0.853513
0.096437 0.703944 0.880003
0.122179 0.698955 0.874784
0.198001 0.706706 0.87303
0.355657 0.75494 0.87715
0.880659 0.878401 0.845533
