site/assets/luts/freshluts--0001239-rubio-neon.cube
# LUTr-Schema-Version: 2
# LUTr-ID: freshluts--0001239-rubio-neon
# LUTr-Title: RUBIO NEON
# LUTr-Collection: Fresh LUTs
# LUTr-Collection-ID: freshluts-community
# LUTr-Source: https://freshluts.com
# LUTr-Retrieved: 2026-07-27
# LUTr-Source-File: submissions-raw/freshluts/cubes/1239__RUBIO_NEON.cube
# LUTr-Source-Format: CUBE
# LUTr-Source-SHA256: 7627e3f7552963f6996f5868b4c4a436279f75695547aecaf25768264f00aad1
# LUTr-License: CC0-1.0
# LUTr-License-URL: https://freshluts.com/termsandconditions
# LUTr-License-Basis: site-terms
# LUTr-Transform-Class: creative-look
# LUTr-Tags: creative, freshluts, community, cube, blue, rec709
# LUTr-Input-Color-Space: rec709
# LUTr-Input-Gamut: rec709
# LUTr-Input-Transfer: rec709
# LUTr-Output-Color-Space: srgb
# LUTr-Output-Gamut: rec709
# LUTr-Output-Transfer: srgb
# LUTr-Color-Space-Confidence: declared-by-source
# LUTr-Domain-Normalized: true
# LUTr-Shaper: none
# LUTr-Original-Grid: 33x33x33
# LUTr-Conversion-Grid: 33x33x33
# LUTr-Conversion-Interpolation: none
# LUTr-Conversion-Method: Metadata normalization; numeric LUT samples preserved
# LUTr-Conversion-Tool: LUTr scripts/convert-all-to-cube.mjs 2.0.0
# LUTr-Conversion-Date: 2026-07-28
# LUTr-Asset-URL: https://freshluts.com/luts/1239
# LUTr-Author: Antony Eliezer
# LUTr-Author-URL: https://freshluts.com/users/32961
# LUTr-Attribution: Antony Eliezer via Fresh LUTs
# LUTr-Source-Labels: gamma=Rec 709; color=Blue; key=Neutral; style=Colorful
# LUTr-Note: Preserve this metadata and the upstream license notices when redistributing.
# LUTr-Upstream-Comment: VEGAS Pro LUT
TITLE "RUBIO NEON"
LUT_3D_SIZE 9
DOMAIN_MIN 0 0 0
DOMAIN_MAX 1 1 1
0.052228 0.06159313 0.09581274
0.07358632 0.06024397 0.09372438
0.13824813 0.0540239 0.08696138
0.25858399 0.05128968 0.07728637
0.41488755 0.05616341 0.07184324
0.57119691 0.07338934 0.07439338
0.70357579 0.09996463 0.08763561
0.79370767 0.12941538 0.10234717
0.8247239 0.14851584 0.10936452
0.05020143 0.07692793 0.09915006
0.07315123 0.07647765 0.09452864
0.15234131 0.07870318 0.08929861
0.27698269 0.08044878 0.08121078
0.42411357 0.08895312 0.07600904
0.58137441 0.10610125 0.07936527
0.70452052 0.12930085 0.09115193
0.80486268 0.15772302 0.10588446
0.83452642 0.17547199 0.11637485
0.03247514 0.11699927 0.1032216
0.08802781 0.11223722 0.10117219
0.15680622 0.1236079 0.10157105
0.29967457 0.14280833 0.08699463
0.45582092 0.15492281 0.08410356
0.61011899 0.16785453 0.08727565
0.7338537 0.18378402 0.09897875
0.82883334 0.20907584 0.11801507
0.85792589 0.22585736 0.13319594
0.00998302 0.20766583 0.12397686
0.08734735 0.19496682 0.12019893
0.18974216 0.19429289 0.12226576
0.29423258 0.22120015 0.12301157
0.45098248 0.25526604 0.12079864
0.6451233 0.25992563 0.10555704
0.76197088 0.26620904 0.1185398
0.85569155 0.28402397 0.14061122
0.88556427 0.29750666 0.15562925
0.02747476 0.31742609 0.15251316
0.10464817 0.31227931 0.15058884
0.21339001 0.29801953 0.15263666
0.3165684 0.31315234 0.15929222
0.43605605 0.35612652 0.17321636
0.6425249 0.38417527 0.16184665
0.79538262 0.38944459 0.15729794
0.88661259 0.39336216 0.17271118
0.92128986 0.40318459 0.19222358
0.08614188 0.46203479 0.1902871
0.14737661 0.45930389 0.18835577
0.24145491 0.44344959 0.19345964
0.35179698 0.43892035 0.20573936
0.4680537 0.47564021 0.22269708
0.62200546 0.50854242 0.24126096
0.77501673 0.53434885 0.24265474
0.8951878 0.53334349 0.23902772
0.95034361 0.53540909 0.25383711
0.19436076 0.60686213 0.26126277
0.23896968 0.60123056 0.26183316
0.31175375 0.59462434 0.26741719
0.4227877 0.58081996 0.2889691
0.52174646 0.58228546 0.30775106
0.62505275 0.62348539 0.33129084
0.75682986 0.65297771 0.3609288
0.86263037 0.67121971 0.37493888
0.93407333 0.67826319 0.38792926
0.37945917 0.73028982 0.39699957
0.4103888 0.73250079 0.39925116
0.45958373 0.725178 0.40370613
0.53012586 0.72229809 0.41748333
0.60942793 0.71504623 0.43972087
0.68833917 0.73131263 0.46817014
0.76682544 0.75444937 0.4865984
0.8642714 0.77336973 0.50576085
0.90697551 0.78110641 0.52939135
0.53992701 0.81098956 0.51168692
0.55487972 0.81752855 0.51973426
0.5929938 0.81248778 0.52918649
0.63391602 0.81047219 0.55095601
0.68466276 0.80601722 0.57960278
0.73535973 0.81000847 0.60596675
0.799317 0.82526511 0.62785482
0.86441636 0.8431077 0.62756521
0.90369982 0.85258192 0.64098674
0.0474957 0.06492201 0.10788355
0.07231716 0.06147221 0.10365632
0.14529002 0.04890102 0.1002473
0.2564036 0.03876967 0.08953105
0.40565056 0.03998671 0.0815199
0.56508863 0.05837335 0.08786707
0.6982649 0.09061199 0.09976399
0.79872328 0.12637641 0.11831661
0.82825524 0.14935601 0.12909888
0.04865369 0.07745114 0.11088601
0.07701671 0.0770145 0.10774361
0.14944689 0.07445599 0.10195389
0.27141646 0.07208025 0.09480093
0.42163619 0.07825933 0.09084325
0.57346934 0.09592807 0.09379277
0.70218503 0.12414421 0.10537963
0.80456191 0.15696055 0.12414029
0.83547872 0.17764969 0.1359624
0.02938389 0.12890987 0.12477393
0.0804439 0.12298124 0.11838932
0.1614984 0.12870885 0.11480749
0.30235103 0.1407903 0.10436604
0.44986862 0.14901161 0.10340995
0.60268635 0.16563417 0.10834388
0.7286287 0.18353571 0.12132635
0.8259306 0.21144745 0.13911156
0.85441619 0.22607045 0.15161008
0.01549175 0.21579377 0.14582613
0.08242845 0.20842311 0.13840534
0.18472779 0.20072858 0.13864158
0.29595244 0.22429088 0.13946632
0.45144737 0.25589767 0.13900042
0.63086075 0.25505868 0.12754352
0.75620043 0.26834589 0.13874973
0.85288131 0.2851074 0.15856798
0.88692415 0.30296236 0.17377052
0.04886159 0.32837245 0.17193741
0.09971718 0.32008553 0.16721928
0.20966548 0.30743802 0.1679759
0.3215141 0.31483454 0.17434029
0.43606615 0.36255035 0.19085072
0.63664502 0.38599545 0.17978597
0.78867298 0.39113042 0.17429209
0.88541281 0.39542949 0.19163129
0.92125261 0.40777853 0.2106197
0.11079293 0.46987268 0.21392357
0.14366196 0.4645772 0.20608497
0.24234948 0.45093414 0.20997758
0.35512775 0.44112381 0.22575104
0.46263921 0.47658622 0.2413851
0.61511958 0.51397163 0.26712155
0.7737236 0.5303185 0.26373836
0.89692128 0.53461128 0.26192012
0.94965935 0.53606653 0.27474424
0.21168697 0.60455418 0.2861141
0.23375362 0.60896599 0.28229794
0.30840728 0.59706283 0.28475007
0.42092013 0.58137935 0.30284402
0.51655555 0.58573735 0.32812232
0.62622249 0.61929345 0.35534638
0.75656682 0.6561867 0.38269094
0.86283511 0.66991603 0.38880992
0.93488318 0.68044299 0.3995876
0.38843873 0.73124516 0.41288
0.40909767 0.73113894 0.40889299
0.45325261 0.73141497 0.41422668
0.52819866 0.72110075 0.42462695
0.60295022 0.71287483 0.4713884
0.68436962 0.72989708 0.49224302
0.77296013 0.75187033 0.50571489
0.85499859 0.77230096 0.51925892
0.90128857 0.78423053 0.54622269
0.53781807 0.815786 0.52525151
0.55646437 0.81166703 0.5316301
0.58864653 0.81411135 0.53842032
0.63389546 0.81292439 0.55959326
0.68077141 0.81156629 0.60313928
0.73107719 0.81236488 0.63135362
0.78481245 0.82722086 0.6533494
0.84889656 0.84355921 0.6678676
0.89654183 0.85314655 0.67444462
0.04471796 0.06445615 0.12761834
0.07596325 0.06057048 0.12820634
0.13957818 0.05000183 0.12756048
0.26224554 0.03083913 0.12311942
0.418798 0.01836644 0.10904969
0.57640409 0.03017682 0.11229976
0.70480216 0.07881291 0.12839213
0.804591 0.12725998 0.14809082
0.83721393 0.15487787 0.16059607
0.03485928 0.0863167 0.13671327
0.06904303 0.07968415 0.132585
0.15462475 0.07290977 0.1324749
0.27274415 0.06220932 0.12821838
0.42746806 0.06133332 0.12217496
0.58078992 0.08180365 0.1244908
0.70578229 0.11566825 0.13627739
0.8104111 0.15780833 0.15497112
0.84431875 0.18477933 0.16596378
0.01719061 0.13210177 0.15112145
0.06578009 0.13277873 0.14710511
0.16289906 0.13660042 0.14438358
0.28972068 0.13761702 0.13716319
0.44409046 0.14417554 0.13796939
0.595617 0.16047175 0.14268366
0.72592658 0.183103 0.15204692
0.82826114 0.21600772 0.17163515
0.86114895 0.23681974 0.18377326
0.00686527 0.23349892 0.18621056
0.03007363 0.23398389 0.18011433
0.1761658 0.2219445 0.16674231
0.30173373 0.23396438 0.16676836
0.44565919 0.25258037 0.17107184
0.61660087 0.25703406 0.16438513
0.74836546 0.27132198 0.17434755
0.8462733 0.29590136 0.19391295
0.88718456 0.31409222 0.2078675
0.00318779 0.35301545 0.21237056
0.0905887 0.34160942 0.20639178
0.19817084 0.33562893 0.19633448
0.32527053 0.32591337 0.2016854
0.43823266 0.37120119 0.22459802
0.62593442 0.3916246 0.21720254
0.7768473 0.39152318 0.20587902
0.87822616 0.40340734 0.22696994
0.92034489 0.41532627 0.25014463
0.10472284 0.48496854 0.25704727
0.16268337 0.48051038 0.25716349
0.23673379 0.47435364 0.24355137
0.35163224 0.46000305 0.25392827
0.46446824 0.47763553 0.28030288
0.61020893 0.51906258 0.30724686
0.7723065 0.53649819 0.29564816
0.89552164 0.54275084 0.29918495
0.94498569 0.54162389 0.30985731
0.22525984 0.61418289 0.33045495
0.26594934 0.61239862 0.32733595
0.31228194 0.6041522 0.32353646
0.41402349 0.59009647 0.32872894
0.51891786 0.5893662 0.35750777
0.62637085 0.61940873 0.38812414
0.74102128 0.65791887 0.42279497
0.85996467 0.67388779 0.42224377
0.92900544 0.68295085 0.42905259
0.40111774 0.74193585 0.44873378
0.42358154 0.73606968 0.44781184
0.45275116 0.73260278 0.4373242
0.52297354 0.72534239 0.46240601
0.59458297 0.71936297 0.49775743
0.67356181 0.72955704 0.52194822
0.7622155 0.74815327 0.53696281
0.85083008 0.77494693 0.54682934
0.90121388 0.7817502 0.57490385
0.54628605 0.81705213 0.55857033
0.55769533 0.81815386 0.5589394
0.58210433 0.81658757 0.56035632
0.62485969 0.81470251 0.57997376
0.67323661 0.80981201 0.61921388
0.71903652 0.81233734 0.65583628
0.77620178 0.8260411 0.68936622
0.83558321 0.83981359 0.6960094
0.88114691 0.85243088 0.71438235
0.01481455 0.07105704 0.17471927
0.06360655 0.06401891 0.17364971
0.14519951 0.05072277 0.17171928
0.26252979 0.02911463 0.17110011
0.43284917 0.01772695 0.16870491
0.59249413 0.01811141 0.16045988
0.72734982 0.06711549 0.17161858
0.8301512 0.13564198 0.19496524
0.86314303 0.17385943 0.21067238
0.01510347 0.09626467 0.18613224
0.04073659 0.08610117 0.18542069
0.14720212 0.07430638 0.18225126
0.27765158 0.06200243 0.18290752
0.44073254 0.05712485 0.17612049
0.5971266 0.06962143 0.17284931
0.72671497 0.11356734 0.18203107
0.83319777 0.16635059 0.20264556
0.86562121 0.19752383 0.2151176
0.01491588 0.1509386 0.19852225
0.03520485 0.14839257 0.1975096
0.14504398 0.14175364 0.19848207
0.29448974 0.13669015 0.19776602
0.4466275 0.14480457 0.19451907
0.59855598 0.16053528 0.19439557
0.73516989 0.19018011 0.20317693
0.8365162 0.22719541 0.22130202
0.87228125 0.2528753 0.23389947
0.01377046 0.22377363 0.22421961
0.03212672 0.22986776 0.2274899
0.16359283 0.23357201 0.2200284
0.29542479 0.2466515 0.21787301
0.43105519 0.25541267 0.22428761
0.58676493 0.26503971 0.22933297
0.7447741 0.27896941 0.2280747
0.8466121 0.30906332 0.2482205
0.89376301 0.32891273 0.26479778
0.00281124 0.37524188 0.29534736
0.01706115 0.37773094 0.28723371
0.16046181 0.36598116 0.27083543
0.31420425 0.35531002 0.2559492
0.44777039 0.3810133 0.27533212
0.61371601 0.39693755 0.27787599
0.76534313 0.39743149 0.26804981
0.86646199 0.41855326 0.28989896
0.91823685 0.43553269 0.3100068
0.01484324 0.51614231 0.33964753
0.10583363 0.51075923 0.32857087
0.22427194 0.50404888 0.31835744
0.34711868 0.48984814 0.31100804
0.47696534 0.48630229 0.33121771
0.6079511 0.52746999 0.36546871
0.76278836 0.54442751 0.35449806
0.88184249 0.54611462 0.34665
0.93924272 0.55349845 0.36463225
0.18384802 0.63367683 0.38777262
0.23646051 0.63142318 0.38919011
0.31884578 0.62536877 0.38440999
0.41484195 0.61417663 0.38668883
0.52056807 0.60226804 0.39932948
0.61969763 0.62303895 0.43714061
0.7351554 0.66135347 0.46769503
0.85205984 0.67937088 0.46623075
0.92935133 0.68290454 0.46651784
0.36259723 0.74824339 0.47839141
0.40401414 0.74243647 0.49018565
0.45617548 0.74425 0.49236864
0.51123875 0.73645306 0.48525348
0.58501238 0.73015916 0.52933091
0.65860152 0.72463977 0.58239049
0.74254769 0.75479525 0.59300655
0.84005487 0.77698845 0.59426498
0.89993089 0.78925037 0.59965694
0.51924729 0.82139713 0.57530892
0.54653788 0.81820416 0.58844393
0.5902862 0.820831 0.59723991
0.61746496 0.81973124 0.59949672
0.67012221 0.81862533 0.64504844
0.7168256 0.81468284 0.68377149
0.77094209 0.82494938 0.71557772
0.82663739 0.84423661 0.74425477
0.87218529 0.85513896 0.75123298
0.01509771 0.06993373 0.24963574
0.0295721 0.06866874 0.25291881
0.13183074 0.05337395 0.2498515
0.25991762 0.03152283 0.25392833
0.42464232 0.022496 0.26325557
0.61060441 0.01401331 0.25018808
0.75623387 0.06252207 0.25242367
0.85597479 0.14083095 0.26536092
0.89671099 0.20437121 0.29402131
0.01598649 0.10052133 0.25656182
0.03106855 0.08874398 0.26477793
0.12872598 0.0813053 0.26484632
0.26711032 0.06580249 0.27065411
0.43772349 0.05481104 0.2714178
0.61300164 0.06673506 0.26557285
0.75109744 0.1111091 0.25999337
0.85101748 0.17302227 0.27394915
0.89735955 0.23519924 0.30235472
0.01659225 0.16535489 0.27522895
0.03257233 0.16533555 0.2804617
0.11732699 0.1472646 0.28514552
0.27424118 0.14049548 0.29204038
0.44838995 0.13819914 0.29573002
0.61364132 0.15611863 0.28631637
0.75017607 0.18986692 0.28073061
0.85181737 0.24731527 0.30180204
0.90276027 0.29900816 0.32867184
0.01677578 0.24092531 0.30356786
0.03319172 0.24031346 0.30693483
0.14689301 0.2449964 0.30094603
0.28063849 0.24958985 0.30777037
0.45629945 0.24827549 0.31529939
0.5905385 0.27104786 0.31805184
0.74517649 0.29360658 0.31360474
0.8480106 0.33449975 0.33193073
0.90739578 0.36028561 0.34485209
0.0129629 0.34508261 0.34173569
0.05156511 0.34588292 0.34730142
0.17732604 0.35425699 0.34155974
0.30374339 0.36967984 0.3440505
0.45665327 0.3871631 0.34383774
0.59096193 0.40227306 0.35688856
0.73993641 0.41532961 0.36383811
0.85824949 0.43576536 0.3667208
0.92028558 0.4571023 0.38848448
0.00125078 0.52883017 0.43653706
0.01705472 0.52932554 0.43999967
0.15600026 0.52365571 0.42995521
0.30770844 0.52096689 0.4101378
0.47534379 0.51014614 0.39034089
0.60481393 0.53383106 0.42842659
0.74770647 0.55162543 0.43108651
0.8670218 0.55077291 0.41802904
0.93169701 0.56912863 0.43808076
0.08246139 0.66492248 0.48577726
0.15301873 0.65721172 0.47986516
0.25100154 0.64882755 0.47162145
0.3831937 0.64151168 0.45834512
0.50920022 0.62827241 0.45746401
0.61986172 0.62439412 0.50821185
0.72079664 0.66595465 0.54117364
0.85187596 0.68404245 0.50616646
0.92676675 0.68888038 0.51474839
0.274975 0.76737571 0.53533256
0.31859323 0.76278782 0.53020447
0.39648128 0.76124454 0.53740251
0.49655119 0.75364727 0.54102278
0.57949603 0.74244535 0.56235462
0.65578443 0.73621255 0.61714894
0.72974831 0.75291729 0.64906478
0.81768167 0.77837461 0.66585922
0.87734509 0.79349142 0.67250454
0.44002631 0.83593619 0.61055732
0.47033969 0.83886647 0.60701579
0.53294837 0.83128929 0.6140573
0.60674304 0.8276338 0.63032442
0.65503204 0.82652462 0.65046579
0.70633548 0.82127517 0.69397062
0.7646203 0.82828945 0.74722791
0.82433981 0.84375376 0.77005094
0.864627 0.85868579 0.79049295
0.0145375 0.07491159 0.36478373
0.0282666 0.07186617 0.36573467
0.09664887 0.0610324 0.36914074
0.23862208 0.04236315 0.3729164
0.40684018 0.02553196 0.38171357
0.5965004 0.01817764 0.3882857
0.77362895 0.05483784 0.37531814
0.88057226 0.13373294 0.37036589
0.92478508 0.20213908 0.38076687
0.01591255 0.10389943 0.37360469
0.03097279 0.09664376 0.37653574
0.07915525 0.09087809 0.38701281
0.23955867 0.07657191 0.38121617
0.41181421 0.06355355 0.39633811
0.60585529 0.06370802 0.39790088
0.77227527 0.09944364 0.3796576
0.87489265 0.16745257 0.36908564
0.92263532 0.23161612 0.38642308
0.01672152 0.17985135 0.3972849
0.03269638 0.17314434 0.39819551
0.06662023 0.1587019 0.40869352
0.24358603 0.14927588 0.40284768
0.41602048 0.14577645 0.41861591
0.61533803 0.14956746 0.42481315
0.7728312 0.18005808 0.39403239
0.8697468 0.24219128 0.39280364
0.92553604 0.30346817 0.410918
0.0170047 0.26119629 0.41033226
0.03331289 0.2649917 0.41558093
0.12067405 0.26124924 0.41319126
0.25316963 0.25136465 0.42046371
0.41906735 0.2515527 0.43747875
0.60435802 0.25826383 0.44059628
0.75258327 0.29060569 0.4167884
0.86255693 0.33921382 0.42391735
0.92252266 0.39129594 0.44284713
0.01683783 0.36001331 0.44871569
0.03294593 0.36219776 0.4566589
0.15978561 0.36534011 0.4445962
0.28532842 0.37887585 0.44270718
0.43306127 0.38630494 0.45101187
0.61077446 0.39310798 0.46446282
0.7342689 0.42348933 0.46568993
0.84867656 0.45836332 0.47116679
0.91666156 0.48861519 0.48681766
0.04200967 0.47944286 0.49218974
0.11072028 0.47929013 0.48702627
0.21010198 0.4852837 0.48653159
0.32640395 0.49876639 0.48562783
0.46738291 0.51791847 0.48806003
0.61083102 0.53714818 0.48677146
0.72296166 0.5528571 0.52228105
0.84348989 0.56369907 0.52210546
0.9106189 0.58016694 0.52708644
0.0506724 0.64346606 0.57128936
0.11678566 0.64783323 0.56944478
0.20983373 0.65160334 0.57142287
0.32588232 0.65951854 0.57255709
0.46499264 0.66409582 0.55863631
0.59421384 0.65138942 0.58233958
0.7056914 0.66932338 0.62601072
0.84083879 0.68815047 0.57652736
0.91820461 0.69317406 0.56523865
0.19461633 0.78518504 0.64573997
0.23562539 0.78331941 0.63758379
0.30994985 0.7817269 0.62602156
0.41976649 0.77141815 0.61383069
0.54529142 0.76428193 0.60369557
0.64203447 0.75614077 0.64530039
0.71875757 0.74955618 0.69780439
0.80441743 0.78072619 0.72976393
0.86812335 0.79783994 0.72179753
0.3394317 0.85796779 0.67436725
0.36975455 0.85472351 0.67070907
0.43142852 0.84660542 0.66411155
0.51496154 0.84158212 0.66444397
0.62980783 0.83634567 0.672023
0.69934505 0.83148116 0.71159512
0.75509942 0.8299976 0.76721895
0.82285881 0.84577185 0.80268157
0.85975879 0.85776091 0.82649052
0.01431946 0.08384123 0.52259719
0.02768075 0.08090617 0.5275017
0.04052119 0.07609195 0.52649087
0.21050659 0.06117673 0.53601611
0.37351072 0.04713954 0.53716129
0.56891394 0.03702988 0.54797137
0.77262819 0.06150418 0.55094999
0.89974523 0.12853089 0.50723124
0.95206881 0.20038269 0.50187802
0.01543953 0.11360097 0.53116715
0.03018999 0.1109295 0.53258407
0.04498494 0.10827935 0.52514154
0.20982508 0.09625904 0.53597856
0.37698749 0.087357 0.54230869
0.57589746 0.08458132 0.55581105
0.76766878 0.10421348 0.5452491
0.89564985 0.15906698 0.51767296
0.94882202 0.23066291 0.49987698
0.01633452 0.1930514 0.54550409
0.03193703 0.18722187 0.54562306
0.04705969 0.17106692 0.54558134
0.21202113 0.16339563 0.55004609
0.37830481 0.1608555 0.55467039
0.57549965 0.16197124 0.55992967
0.77341825 0.17922741 0.5637517
0.89160025 0.23320693 0.52868986
0.94875574 0.30151045 0.52085155
0.01673149 0.28092757 0.54926336
0.03274211 0.27884832 0.55445254
0.08346227 0.27507457 0.56618285
0.22509605 0.25884441 0.55910122
0.38717967 0.25913781 0.56538141
0.57280993 0.26430404 0.58056092
0.76222688 0.28374329 0.5758462
0.88691705 0.33053961 0.54805249
0.93508321 0.38677448 0.54463071
0.01659385 0.38075325 0.56630027
0.03250558 0.38005611 0.56928384
0.12928024 0.38377234 0.56872451
0.26531774 0.38673747 0.56559807
0.40440676 0.38735673 0.57639778
0.57393873 0.3938064 0.59018332
0.74915433 0.41207209 0.59307027
0.85580099 0.45359597 0.58015293
0.92021555 0.49832654 0.58609682
0.01628874 0.48719966 0.60896379
0.09614328 0.48679957 0.60343546
0.19803607 0.49015403 0.60021085
0.30654928 0.50206661 0.59970558
0.44115829 0.51851094 0.58843058
0.5824244 0.53520906 0.60511851
0.72780198 0.54915237 0.63587075
0.82953507 0.57710856 0.63298613
0.90656191 0.60401505 0.62737513
0.14110415 0.59967697 0.6321612
0.18773347 0.5977093 0.6233111
0.26457718 0.60364681 0.62554139
0.36210749 0.61447567 0.62785429
0.4826268 0.63342381 0.62902802
0.59730387 0.65777725 0.65510631
0.69547868 0.67729473 0.70267195
0.80830634 0.6879921 0.69849092
0.89084679 0.69672662 0.68117785
0.20681424 0.75095487 0.70392865
0.24335976 0.750853 0.69740629
0.3029142 0.75581169 0.69930661
0.38569269 0.76328176 0.69623476
0.50124454 0.77065879 0.70350891
0.62427169 0.77616161 0.69324303
0.70831347 0.77114809 0.74350047
0.7993322 0.78901112 0.78354836
0.87314445 0.79796821 0.786071
0.25383779 0.85352069 0.77866524
0.27953389 0.86280769 0.76411736
0.34091944 0.86029691 0.76779419
0.43549454 0.85666108 0.75645864
0.54352474 0.85588855 0.74080795
0.66936922 0.84462959 0.72896576
0.75170934 0.84219688 0.79770923
0.81410128 0.84388506 0.83058137
0.85941738 0.86411965 0.85691166
0.0140313 0.1041097 0.69717383
0.02776446 0.10497839 0.68871647
0.04156816 0.10305629 0.68878794
0.17808367 0.093807 0.70097423
0.34392643 0.08902634 0.69569987
0.52771902 0.08820359 0.69239628
0.72558802 0.10288476 0.71051294
0.90337127 0.14917415 0.70566511
0.96748614 0.20707507 0.67066127
0.01471853 0.13522512 0.69837964
0.02898518 0.13548867 0.69264185
0.04324932 0.13257638 0.69230229
0.18016845 0.12661363 0.68504322
0.34682104 0.12451608 0.69785905
0.52415085 0.12619509 0.70245761
0.72105235 0.13950475 0.69796389
0.89915949 0.17904994 0.69906181
0.96769881 0.23761366 0.67116708
0.01576953 0.21115445 0.68932974
0.03065671 0.20238735 0.7019797
0.0454381 0.19548951 0.70552969
0.18907876 0.18987519 0.69733346
0.35172033 0.18989585 0.69982713
0.52709866 0.19308972 0.70886385
0.72250068 0.20903331 0.71307665
0.8979013 0.24752732 0.70832211
0.96599382 0.30346838 0.67969429
0.01614463 0.29410586 0.69679701
0.03155899 0.29558542 0.70835328
0.07776671 0.29670069 0.7014817
0.21480934 0.28033087 0.69852179
0.36319259 0.2800639 0.70395434
0.53082746 0.28566301 0.70816624
0.72257733 0.29920375 0.71682835
0.88654661 0.33759412 0.71502638
0.95046473 0.38456061 0.68585527
0.01614707 0.39618945 0.70999312
0.03166488 0.40042087 0.70180351
0.08712786 0.39267108 0.70356429
0.25310841 0.39518377 0.70736074
0.38912401 0.39972496 0.70228809
0.54126316 0.40764451 0.71054286
0.718629 0.42097372 0.71970284
0.8687523 0.45160747 0.72584993
0.93305951 0.49309313 0.69469368
0.01599573 0.50018835 0.73368651
0.05774671 0.4971101 0.72177285
0.17382158 0.49872991 0.7165122
0.28517112 0.51037461 0.71563303
0.41742149 0.52177036 0.70892406
0.56268406 0.5404731 0.71799368
0.71626341 0.54971582 0.73159963
0.85418761 0.5728305 0.73327672
0.9147194 0.60091084 0.72780097
0.12826176 0.59772503 0.72657162
0.17318983 0.59766656 0.73807865
0.24948534 0.60216856 0.72307211
0.34433749 0.62000859 0.7324633
0.46638396 0.63357538 0.73139739
0.58412337 0.65811926 0.72331625
0.69917375 0.67488897 0.75900024
0.82102841 0.68680918 0.7816487
0.88819778 0.70503801 0.78252369
0.25023851 0.7063635 0.74969172
0.27724731 0.71521568 0.75985783
0.33861804 0.71802384 0.75455213
0.42040089 0.72456932 0.75157666
0.5188697 0.73577207 0.75098908
0.62971216 0.75244355 0.75144982
0.72234422 0.77159029 0.79400939
0.79837918 0.79073489 0.83143145
0.86451185 0.79682982 0.84438038
0.29289484 0.80711132 0.79316509
0.32805243 0.80827957 0.7986663
0.37754571 0.81330734 0.79569268
0.44624215 0.82134521 0.78570509
0.53785646 0.82807857 0.80004406
0.63804561 0.84434479 0.80565792
0.73514491 0.84810364 0.81148398
0.80740172 0.8519085 0.87145507
0.86441678 0.86661142 0.8994292
0.01407683 0.14145978 0.81728834
0.02775652 0.14211239 0.81158417
0.04179827 0.14319108 0.8088932
0.17846562 0.13737242 0.80879796
0.33596092 0.13833959 0.80576152
0.5024823 0.1454719 0.8065691
0.68971717 0.15681496 0.80957901
0.86844647 0.19864987 0.81722599
0.96718782 0.25236538 0.81658351
0.01459891 0.17305925 0.81075203
0.02872107 0.17302123 0.80487698
0.04306542 0.1749285 0.80827975
0.18674172 0.16791582 0.80808508
0.3379882 0.16711493 0.80717808
0.50047064 0.17371604 0.80208802
0.6881426 0.18781814 0.80875587
0.86750448 0.23076245 0.81708074
0.96773672 0.2793411 0.81703073
0.01540257 0.24227463 0.81491369
0.03011107 0.23615406 0.81587911
0.04493469 0.23239285 0.81115329
0.20877293 0.22428413 0.81022024
0.35008949 0.22925714 0.80689859
0.50944388 0.23688212 0.80627084
0.69382596 0.25177938 0.8197006
0.86542714 0.29101312 0.82629377
0.96349788 0.33830026 0.82377613
0.01575743 0.32136142 0.81506866
0.03092357 0.32504368 0.81082225
0.13746348 0.32158482 0.80837548
0.23638184 0.30994412 0.80987394
0.37204152 0.31202316 0.81101227
0.51814765 0.32198051 0.81273037
0.68986392 0.33840126 0.81159335
0.85572338 0.37520954 0.82131553
0.95593655 0.41656417 0.81709403
0.01582885 0.40188044 0.81317216
0.03100578 0.40231031 0.81713456
0.08124261 0.40108898 0.81408936
0.27540493 0.42578182 0.80668956
0.40069726 0.42393544 0.81359512
0.5384689 0.43468145 0.81391543
0.69666475 0.44830689 0.81537265
0.84623796 0.47434977 0.81628132
0.94188803 0.50677663 0.81622672
0.01580094 0.51029372 0.82593668
0.03100621 0.51290852 0.81694436
0.15265341 0.51417273 0.80884999
0.26643154 0.51675993 0.81347662
0.40516639 0.52923858 0.80678445
0.56330383 0.55195796 0.80954653
0.69977123 0.56220698 0.81313401
0.83811325 0.58180994 0.82505262
0.93040675 0.60881197 0.82004929
0.11121131 0.60575968 0.82469618
0.15885921 0.60780656 0.82279843
0.23263901 0.61384237 0.82614136
0.3266921 0.62311202 0.82176101
0.44015607 0.63989961 0.81411946
0.56163758 0.65704238 0.80779856
0.70347178 0.67864054 0.8196345
0.83009219 0.6906932 0.83039224
0.91087753 0.70382023 0.83422834
0.23305392 0.71551359 0.84120136
0.26634395 0.71425086 0.83583611
0.31712595 0.71916419 0.83275789
0.40336356 0.72765177 0.83731806
0.49847683 0.73777908 0.83320779
0.60999948 0.75680733 0.82964438
0.71591961 0.77213538 0.82874262
0.80957294 0.79076129 0.87562567
0.87738723 0.80015242 0.89550096
0.30443174 0.78634036 0.85380799
0.32950997 0.79191804 0.85337943
0.38301545 0.79377693 0.8517822
0.45212889 0.80334139 0.84802312
0.53939646 0.81128013 0.84561718
0.63513601 0.8225109 0.84397
0.7363202 0.83815742 0.84916478
0.81193072 0.85530597 0.89309275
0.8658402 0.86395633 0.92142665
