site/assets/luts/freshluts--0000627-coolgreen.cube
# LUTr-Schema-Version: 2
# LUTr-ID: freshluts--0000627-coolgreen
# LUTr-Title: COOL.GREEN
# LUTr-Collection: Fresh LUTs
# LUTr-Collection-ID: freshluts-community
# LUTr-Source: https://freshluts.com
# LUTr-Retrieved: 2026-07-27
# LUTr-Source-File: submissions-raw/freshluts/cubes/627__HIGTH.GREEN_42.A007_02270900_C016.cube
# LUTr-Source-Format: CUBE
# LUTr-Source-SHA256: 85dfcef394b4d3a9d1bf99a46149c6660ea3eb110703e1c21e9825dd1a81cf34
# LUTr-License: CC0-1.0
# LUTr-License-URL: https://freshluts.com/termsandconditions
# LUTr-License-Basis: site-terms
# LUTr-Transform-Class: creative-look
# LUTr-Tags: creative, freshluts, community, cube, green, low-key, rec709, cool
# LUTr-Input-Color-Space: rec709
# LUTr-Input-Gamut: rec709
# LUTr-Input-Transfer: rec709
# LUTr-Output-Color-Space: srgb
# LUTr-Output-Gamut: rec709
# LUTr-Output-Transfer: srgb
# LUTr-Color-Space-Confidence: inferred-from-source-label
# LUTr-Domain-Normalized: true
# LUTr-Shaper: none
# LUTr-Original-Grid: 33x33x33
# LUTr-Conversion-Grid: 33x33x33
# LUTr-Conversion-Interpolation: none
# LUTr-Conversion-Method: Metadata normalization; numeric LUT samples preserved
# LUTr-Conversion-Tool: LUTr scripts/convert-all-to-cube.mjs 2.0.0
# LUTr-Conversion-Date: 2026-07-28
# LUTr-Asset-URL: https://freshluts.com/luts/627
# LUTr-Author: lvannoeun@gmail.com
# LUTr-Author-URL: https://freshluts.com/users/57563
# LUTr-Attribution: lvannoeun@gmail.com via Fresh LUTs
# LUTr-Source-Labels: gamma=Rec 709; color=Green; key=Low Key; style=Drama
# LUTr-Note: Preserve this metadata and the upstream license notices when redistributing.
TITLE "COOL.GREEN"
LUT_3D_SIZE 33
DOMAIN_MIN 0 0 0
DOMAIN_MAX 1 1 1
0.0637064 0 0
0.083238 0 0
0.104433 0 0.000030518
0.127001 0 0.000564584
0.150988 0 0.00166323
0.176455 0 0.00268559
0.203128 0.0000610361 0.00352483
0.231235 0.000396735 0.00418097
0.261341 0.000671397 0.00448615
0.292683 0.000762951 0.00448615
0.324636 0.000671397 0.00430304
0.356222 0.000503548 0.00419623
0.385687 0.000427253 0.00428779
0.412238 0.000488289 0.00468452
0.437995 0.000518807 0.00529488
0.463172 0.0010071 0.00610361
0.487678 0.00173953 0.00706493
0.511589 0.00285344 0.00819409
0.535149 0.0043183 0.00927749
0.558785 0.00567636 0.0103761
0.583108 0.00703441 0.0117037
0.608682 0.00836194 0.0131685
0.635294 0.0096437 0.0148013
0.662074 0.0110781 0.0165713
0.688518 0.0124971 0.0185397
0.714565 0.0137484 0.0207218
0.740398 0.015198 0.0232853
0.765988 0.0169223 0.0258488
0.791272 0.0186618 0.0285191
0.816617 0.0204318 0.0313115
0.842145 0.0222324 0.0341192
0.867933 0.0239261 0.0369726
0.894118 0.0254673 0.0399329
0.0530404 0.00183108 0.000106813
0.0720226 0.00488289 0.000671397
0.0924392 0.00816358 0.00175479
0.114275 0.0116274 0.00297551
0.137407 0.0150607 0.00401312
0.161959 0.0184024 0.00491341
0.187427 0.0214694 0.00563058
0.21413 0.024155 0.00598154
0.242451 0.0264591 0.00593576
0.272557 0.0283665 0.00543221
0.304097 0.0298009 0.00453193
0.336156 0.0310674 0.00352483
0.36788 0.0321202 0.00274662
0.396384 0.033402 0.00242618
0.42327 0.0347143 0.00251774
0.449287 0.0360571 0.00292973
0.474693 0.0374914 0.00363165
0.499352 0.0389563 0.00457771
0.523369 0.0403449 0.00569162
0.547097 0.0417334 0.00689708
0.571191 0.0429847 0.00819409
0.59646 0.0442206 0.00949111
0.623117 0.0454414 0.011017
0.650385 0.0466773 0.012726
0.677455 0.0479286 0.0146029
0.704295 0.0493019 0.0166934
0.730709 0.050721 0.0190433
0.756756 0.0522621 0.0216373
0.782498 0.0539101 0.0244297
0.808118 0.0555886 0.0272221
0.833799 0.0572061 0.0301823
0.859648 0.0588083 0.0332494
0.885863 0.0603342 0.0364538
0.0482948 0.0307012 0.00386053
0.0659495 0.0356298 0.00520333
0.0851453 0.0402533 0.00624094
0.105867 0.0445258 0.00695811
0.128023 0.0484779 0.00749218
0.151522 0.0522011 0.00790417
0.176242 0.0555734 0.00817884
0.201801 0.0586862 0.00828565
0.228702 0.0614328 0.00799573
0.257374 0.0638437 0.00726329
0.287617 0.0657359 0.00604257
0.319142 0.0672465 0.00444038
0.351232 0.0685283 0.00267033
0.381964 0.0696727 0.00125124
0.40972 0.0709087 0.000579843
0.436622 0.0721752 0.00047303
0.46273 0.073518 0.000686656
0.488182 0.0747997 0.00134279
0.512779 0.0761578 0.00228885
0.536843 0.0774395 0.00344854
0.560952 0.0787213 0.0047303
0.58587 0.0798962 0.00616464
0.612284 0.0810407 0.00766003
0.63975 0.0821851 0.00914015
0.667353 0.0833143 0.0109255
0.694697 0.0845197 0.0129549
0.721828 0.085771 0.0152285
0.748562 0.0870832 0.017792
0.774914 0.0885481 0.0206302
0.800961 0.090074 0.0236973
0.826902 0.0916152 0.0267643
0.852903 0.0931716 0.0299229
0.879179 0.0945907 0.0333257
0.0471504 0.0615549 0.00796521
0.0643931 0.0666056 0.00935378
0.0829023 0.0714275 0.0103761
0.102678 0.0760052 0.0109865
0.123903 0.0802777 0.0111086
0.146426 0.0843061 0.0111238
0.170352 0.088014 0.0108797
0.195239 0.0914168 0.0106813
0.221027 0.0945144 0.0102235
0.2486 0.0972763 0.00921645
0.277684 0.0995956 0.00769055
0.308156 0.101579 0.00569162
0.339635 0.103105 0.00337224
0.371099 0.104479 0.0011902
0.399741 0.105745 0.000015259
0.427039 0.10695 0
0.453635 0.108232 0
0.479561 0.109453 0
0.504768 0.11075 0.0000610361
0.529259 0.112047 0.000411994
0.553414 0.113222 0.00164797
0.578134 0.114382 0.00306706
0.604273 0.115465 0.00462348
0.6318 0.116533 0.00621042
0.659724 0.117601 0.00775158
0.687465 0.1187 0.00970474
0.715053 0.119814 0.0119173
0.742351 0.120974 0.0144198
0.769253 0.122271 0.0172427
0.795789 0.123644 0.0203555
0.82208 0.125063 0.023682
0.84831 0.126513 0.0269932
0.874708 0.127901 0.0304875
0.0452583 0.0929122 0.00927749
0.0628977 0.0978408 0.0108797
0.0814984 0.102617 0.0121004
0.101091 0.10724 0.0129091
0.121767 0.111635 0.0133669
0.143648 0.11577 0.0134737
0.166796 0.119738 0.0133364
0.191089 0.123384 0.0130007
0.216251 0.126757 0.0121614
0.242863 0.129778 0.0108492
0.270939 0.132509 0.0091249
0.300465 0.134783 0.00683604
0.33109 0.136736 0.00410468
0.362341 0.138308 0.0012665
0.391684 0.139712 0
0.419089 0.141054 0
0.445945 0.142367 0
0.472236 0.143587 0
0.497795 0.144854 0
0.522637 0.146044 0
0.546944 0.14725 0
0.571618 0.148394 0.00030518
0.597513 0.149371 0.00173953
0.624903 0.150469 0.00332647
0.65304 0.151461 0.00502022
0.681056 0.152499 0.00672923
0.709026 0.15346 0.00888075
0.736767 0.154543 0.0113222
0.764187 0.155642 0.0140993
0.791211 0.156863 0.0172122
0.817853 0.158206 0.0206149
0.844404 0.159564 0.0242161
0.871015 0.160876 0.0278172
0.0417029 0.124926 0.00865187
0.0600443 0.129625 0.0103609
0.0792096 0.134203 0.0118715
0.0991226 0.138705 0.0130312
0.11989 0.143038 0.0138399
0.141649 0.14728 0.0142519
0.16437 0.151263 0.0142977
0.188312 0.155032 0.0140536
0.213046 0.158556 0.0133364
0.238834 0.161852 0.0121004
0.266224 0.164782 0.0100099
0.294926 0.167452 0.00738537
0.324727 0.16965 0.00442512
0.355337 0.171572 0.0011902
0.385214 0.173205 0
0.412528 0.174609 0
0.439414 0.175998 0
0.465827 0.177325 0
0.491615 0.178546 0
0.516732 0.179782 0
0.541268 0.180911 0
0.565866 0.182025 0
0.591516 0.183047 0
0.618799 0.184039 0.000564584
0.647013 0.185 0.00230411
0.675212 0.185977 0.00411994
0.703456 0.186923 0.00604257
0.731533 0.187869 0.00843824
0.75938 0.188907 0.0111543
0.786862 0.18999 0.0142367
0.813977 0.191135 0.0176699
0.840833 0.19237 0.0214237
0.867674 0.193637 0.0253147
0.0370489 0.157412 0.00697337
0.0561074 0.161929 0.00868238
0.0758526 0.166308 0.0102998
0.0962844 0.170626 0.0117189
0.117433 0.174823 0.0128176
0.139406 0.178882 0.0135958
0.162127 0.182895 0.0139467
0.185946 0.186709 0.0138247
0.210513 0.190326 0.0131228
0.23592 0.193698 0.0118563
0.262791 0.196841 0.00994888
0.290761 0.19968 0.00733959
0.319966 0.202213 0.00392157
0.34992 0.204349 0.000732433
0.379873 0.206195 0
0.407187 0.207843 0
0.433829 0.209262 0
0.460197 0.210651 0
0.486076 0.211978 0
0.511406 0.213169 0
0.53608 0.214359 0
0.560723 0.215381 0
0.586175 0.216419 0
0.613214 0.217395 0
0.64152 0.218387 0.0000915541
0.669932 0.219257 0.00158694
0.698299 0.220142 0.00352483
0.72665 0.221088 0.00575265
0.754818 0.221973 0.00843824
0.782696 0.22295 0.01149
0.810239 0.223972 0.0149233
0.837476 0.225147 0.0187381
0.864576 0.226261 0.0228122
0.0314794 0.190219 0.00434882
0.0510872 0.194553 0.00605783
0.0714885 0.198703 0.00772107
0.092546 0.202899 0.00926223
0.114199 0.206943 0.0105287
0.136553 0.210925 0.0115053
0.159533 0.214786 0.0120394
0.183352 0.218555 0.0119936
0.208057 0.222187 0.0113985
0.233356 0.22565 0.010193
0.259831 0.22884 0.00830091
0.287449 0.231815 0.00581369
0.316121 0.234501 0.00263981
0.345617 0.236881 0.0000457771
0.375311 0.238926 0
0.402777 0.240711 0
0.429084 0.242313 0
0.455344 0.243732 0
0.481163 0.24509 0
0.506584 0.246372 0
0.531426 0.247501 0
0.556085 0.248585 0
0.581353 0.249592 0
0.608164 0.250568 0
0.636515 0.251469 0
0.664973 0.252369 0
0.693523 0.253208 0.00117494
0.722072 0.254032 0.00331121
0.7505 0.254902 0.0059205
0.778729 0.255787 0.00894179
0.806607 0.256703 0.0123598
0.834226 0.257694 0.0162203
0.861631 0.258701 0.0203861
0.0243229 0.223743 0.000427253
0.0446479 0.227863 0.00173953
0.0657511 0.23183 0.00335698
0.0874952 0.235721 0.00500496
0.109758 0.239551 0.00642405
0.132647 0.243366 0.0075227
0.156069 0.247044 0.00823987
0.180179 0.250675 0.00834669
0.205158 0.2542 0.00793469
0.230564 0.257633 0.00683604
0.256962 0.260807 0.00512703
0.284428 0.263813 0.00270085
0.312795 0.266606 0.00030518
0.341863 0.269062 0
0.371298 0.27126 0
0.399039 0.273152 0
0.42504 0.274846 0
0.451133 0.27631 0
0.476844 0.277714 0
0.502266 0.27895 0
0.527214 0.280156 0
0.551827 0.281239 0
0.576989 0.282231 0
0.603555 0.283177 0
0.631907 0.284077 0
0.660441 0.284947 0
0.689097 0.285756 0
0.7178 0.286519 0.00114443
0.746426 0.287343 0.00361639
0.774899 0.288151 0.00660716
0.803113 0.288975 0.0100252
0.831022 0.289876 0.0138857
0.858763 0.290776 0.018143
0.0154574 0.257755 0
0.0365301 0.261601 0
0.0583658 0.265309 0
0.0808576 0.26894 0.000350958
0.10396 0.272496 0.000671397
0.127443 0.27599 0.00155642
0.151522 0.27953 0.00251774
0.17612 0.282979 0.00276188
0.20145 0.286336 0.00259403
0.227222 0.289586 0.00173953
0.253788 0.292775 0.000762951
0.2813 0.29575 0.0000762951
0.30956 0.298528 0
0.338384 0.301015 0
0.367559 0.303243 0
0.395636 0.305257 0
0.421515 0.306981 0
0.447349 0.308507 0
0.473045 0.309941 0
0.498421 0.311192 0
0.523339 0.312428 0
0.547936 0.313527 0
0.573022 0.314443 0
0.599405 0.31545 0
0.627634 0.31632 0
0.656291 0.317174 0
0.685054 0.317906 0
0.713787 0.3187 0.000015259
0.742596 0.319402 0.00157168
0.771267 0.32015 0.00453193
0.799741 0.320958 0.00793469
0.827893 0.321798 0.0117647
0.856001 0.322606 0.016083
0.00502022 0.292058 0
0.0269169 0.295659 0
0.0495155 0.299138 0
0.0727855 0.30251 0
0.0966812 0.305821 0
0.120943 0.309071 0
0.145708 0.312383 0
0.170947 0.315602 0
0.196826 0.318776 0
0.223102 0.321859 0
0.250019 0.324895 0
0.277729 0.327764 0
0.306081 0.330465 0
0.33489 0.332921 0
0.364004 0.335149 0
0.392294 0.337163 0
0.418265 0.338949 0
0.443931 0.34049 0
0.469566 0.34197 0
0.494881 0.343236 0
0.519844 0.344472 0
0.544396 0.345602 0
0.569406 0.346532 0
0.595666 0.347494 0
0.623758 0.348363 0
0.652491 0.349218 0
0.681239 0.34992 0
0.710124 0.350698 0
0.73904 0.351354 0.0000915541
0.76788 0.352071 0.00267033
0.796567 0.352819 0.00607309
0.824964 0.353567 0.00991836
0.853208 0.35433 0.0142061
0 0.326253 0
0.0169223 0.329747 0
0.0400244 0.333089 0
0.0639048 0.336248 0
0.0884718 0.339437 0
0.11342 0.34255 0
0.138903 0.345586 0
0.164828 0.348577 0
0.191348 0.351537 0
0.21825 0.354482 0
0.245655 0.357259 0
0.273701 0.360037 0
0.302312 0.362554 0
0.331273 0.364996 0
0.360433 0.367163 0
0.389013 0.369085 0
0.415183 0.370901 0
0.440787 0.372519 0
0.466361 0.373953 0
0.491646 0.375296 0
0.51664 0.376471 0
0.541222 0.377615 0
0.56611 0.378637 0
0.592233 0.379538 0
0.620218 0.380377 0
0.648981 0.381216 0
0.677775 0.381979 0
0.706737 0.382666 0
0.735744 0.383352 0
0.764721 0.384024 0.00105287
0.793576 0.384665 0.00450141
0.822187 0.385367 0.00836194
0.850614 0.38613 0.0126192
0 0.35993 0
0.00796521 0.363455 0
0.0313726 0.366796 0
0.0555123 0.370001 0
0.0803388 0.373083 0
0.105776 0.376074 0
0.131838 0.378958 0
0.158358 0.381796 0
0.185428 0.384573 0
0.213031 0.38732 0
0.240909 0.389914 0
0.269383 0.392447 0
0.298329 0.394888 0
0.327581 0.397208 0
0.356863 0.399313 0
0.38584 0.401205 0
0.412192 0.40296 0
0.437858 0.404593 0
0.463386 0.406012 0
0.48867 0.40737 0
0.513771 0.408545 0
0.538369 0.409674 0
0.563195 0.410727 0
0.58909 0.411643 0
0.617014 0.412451 0
0.645792 0.413275 0
0.674662 0.414038 0
0.70367 0.41471 0
0.732754 0.415381 0
0.761837 0.416022 0.000106813
0.790814 0.416632 0.00318914
0.819608 0.417258 0.00709545
0.848234 0.41796 0.0113832
0 0.392996 0
0.00141909 0.396643 0
0.0243534 0.400031 0
0.0485237 0.403281 0
0.0734417 0.406378 0
0.0991073 0.409293 0
0.125444 0.412192 0
0.152361 0.414923 0
0.179812 0.417578 0
0.207904 0.420127 0
0.236225 0.422629 0
0.26511 0.425025 0
0.294408 0.427344 0
0.323919 0.42948 0
0.353399 0.431525 0
0.382681 0.433417 0
0.409445 0.435157 0
0.435065 0.436713 0
0.46067 0.438193 0
0.485969 0.439475 0
0.511086 0.440711 0
0.53579 0.441855 0
0.560601 0.442832 0
0.586313 0.443839 0
0.614008 0.444663 0
0.642924 0.445396 0
0.671824 0.446143 0
0.700862 0.446876 0
0.729992 0.447471 0
0.759167 0.448066 0.000015259
0.78822 0.448707 0.00216678
0.817212 0.449302 0.00613413
0.846006 0.449882 0.0104677
0 0.425559 0
0 0.429313 0
0.0188754 0.432761 0
0.0430304 0.436088 0
0.06804 0.439231 0
0.0937209 0.442267 0
0.12018 0.445106 0
0.147234 0.447822 0
0.174929 0.450431 0
0.203189 0.452979 0
0.231891 0.455406 0
0.261067 0.457694 0
0.2907 0.459831 0
0.320439 0.461982 0
0.350134 0.463951 0
0.379599 0.465736 0
0.406882 0.467445 0
0.432517 0.469017 0
0.458183 0.470436 0
0.483543 0.471794 0
0.508721 0.472969 0
0.53344 0.474098 0
0.558221 0.475151 0
0.583917 0.476097 0
0.611383 0.476936 0
0.64033 0.477729 0
0.669276 0.478447 0
0.698344 0.479103 0
0.72752 0.479759 0
0.756695 0.480323 0
0.785901 0.480858 0.00149538
0.815015 0.481407 0.00550851
0.843961 0.482002 0.0099031
0 0.457847 0
0 0.461769 0
0.0148623 0.465278 0
0.038941 0.468666 0
0.0638437 0.47187 0
0.089601 0.474891 0
0.115969 0.477836 0
0.143084 0.480583 0
0.170901 0.483207 0
0.199298 0.485679 0
0.228107 0.48809 0
0.257465 0.490349 0
0.287251 0.4925 0
0.31725 0.49453 0
0.347127 0.496468 0
0.376806 0.498283 0
0.404532 0.499931 0
0.430259 0.501503 0
0.455924 0.502983 0
0.481346 0.50428 0
0.506645 0.505516 0
0.531426 0.5066 0
0.556191 0.507637 0
0.581811 0.508598 0
0.60911 0.509514 0
0.637995 0.510246 0
0.666987 0.510964 0
0.696071 0.511666 0
0.725277 0.51223 0
0.754559 0.512795 0
0.783825 0.513359 0.00123598
0.812985 0.513878 0.0052491
0.842084 0.514366 0.00968948
0 0.490196 0
0 0.494118 0
0.0118257 0.497688 0
0.0359045 0.501137 0
0.0607614 0.504402 0
0.0864729 0.507546 0
0.112825 0.510491 0
0.13991 0.513283 0
0.167742 0.515938 0
0.196155 0.518502 0
0.225071 0.520836 0
0.254505 0.523095 0
0.284413 0.525246 0
0.314534 0.52723 0
0.344549 0.529137 0
0.374365 0.530938 0
0.402502 0.532647 0
0.42829 0.534157 0
0.453986 0.535622 0
0.479469 0.536919 0
0.504814 0.53817 0
0.529656 0.5393 0
0.554421 0.540337 0
0.579965 0.541299 0
0.607156 0.542092 0
0.635996 0.542885 0
0.665003 0.543633 0
0.694118 0.544274 0
0.723339 0.544884 0
0.752636 0.545419 0
0.781979 0.545892 0.00138857
0.811231 0.54638 0.00538643
0.840452 0.546822 0.00988785
0 0.522698 0
0 0.526589 0
0.00936904 0.530266 0
0.033463 0.533669 0
0.058381 0.537026 0
0.0840162 0.540124 0
0.11043 0.543084 0
0.137514 0.545953 0
0.16527 0.548608 0
0.193683 0.55111 0
0.222705 0.553521 0
0.252171 0.555779 0
0.282124 0.557916 0
0.312245 0.559884 0
0.342412 0.561791 0
0.372244 0.563577 0
0.400839 0.565209 0
0.426596 0.566766 0
0.452369 0.568154 0
0.477928 0.569528 0
0.503258 0.570764 0
0.528145 0.571832 0
0.552926 0.572854 0
0.578408 0.5738 0
0.605478 0.574701 0
0.634348 0.575418 0
0.663325 0.576104 0
0.692424 0.576715 0
0.72166 0.577325 0
0.751003 0.577829 0
0.780377 0.578347 0.00195315
0.80972 0.578744 0.00596628
0.839048 0.579217 0.0104982
0 0.554971 0
0 0.558968 0
0.00766003 0.5626 0
0.0317235 0.566079 0
0.0565347 0.56939 0
0.0821088 0.572534 0
0.108507 0.575433 0
0.135576 0.578302 0
0.163302 0.580957 0
0.19176 0.583505 0
0.220752 0.585855 0
0.250217 0.588174 0
0.280201 0.590234 0
0.31043 0.592248 0
0.340597 0.594125 0
0.370581 0.59585 0
0.399496 0.597513 0
0.425223 0.599054 0
0.451026 0.600427 0
0.476616 0.60177 0
0.501991 0.60293 0
0.526986 0.604044 0
0.551766 0.605051 0
0.577142 0.605966 0
0.604181 0.606806 0
0.632929 0.607569 0
0.661982 0.608225 0
0.691096 0.60882 0
0.720348 0.6094 0
0.749691 0.609903 0
0.779065 0.610315 0.00292973
0.808515 0.610758 0.00698863
0.837934 0.6112 0.0115511
0 0.586877 0
0 0.590875 0
0.00665293 0.594537 0
0.0306249 0.598016 0
0.0553445 0.601328 0
0.0809339 0.604471 0
0.107271 0.607385 0
0.134279 0.610162 0
0.161975 0.612787 0
0.190326 0.61532 0
0.219364 0.617624 0
0.248829 0.619852 0
0.278767 0.621958 0
0.308965 0.62388 0
0.339284 0.625727 0
0.369253 0.627482 0
0.398535 0.629114 0
0.424262 0.630579 0
0.45008 0.631983 0
0.4757 0.633249 0
0.501106 0.634455 0
0.526085 0.635554 0
0.550866 0.63653 0
0.576257 0.63743 0
0.603143 0.638254 0
0.631861 0.639033 0
0.660868 0.639658 0
0.690028 0.640238 0
0.71928 0.640726 0
0.748653 0.64126 0.000396735
0.778103 0.641657 0.00433356
0.807553 0.642069 0.00848402
0.837064 0.642435 0.0130007
0 0.61796 0
0 0.621942 0
0.00660716 0.625589 0
0.0304417 0.629068 0
0.0550393 0.632364 0
0.0804456 0.635538 0
0.106676 0.638498 0
0.133608 0.641306 0
0.161227 0.643946 0
0.189578 0.64651 0
0.218494 0.648829 0
0.247929 0.651072 0
0.277806 0.653193 0
0.308019 0.655161 0
0.338323 0.656992 0
0.368429 0.658732 0
0.397894 0.66038 0
0.423621 0.661845 0
0.44947 0.663264 0
0.47509 0.6645 0
0.500526 0.66566 0
0.525582 0.666819 0
0.550362 0.667796 0
0.575662 0.668681 0
0.602472 0.669505 0
0.631128 0.670268 0
0.660136 0.670924 0
0.689342 0.671458 0
0.718608 0.672007 0
0.747982 0.672389 0.00215152
0.777417 0.672847 0.00622568
0.806973 0.673243 0.0104219
0.83653 0.673579 0.0149081
0 0.648341 0
0 0.652399 0
0.00753796 0.656107 0
0.0311742 0.659678 0
0.0555886 0.66305 0
0.080827 0.666285 0
0.10692 0.669291 0
0.133715 0.67216 0
0.161212 0.674907 0
0.189456 0.677455 0
0.218296 0.679866 0
0.247669 0.682124 0
0.277501 0.68423 0
0.307637 0.68629 0
0.337881 0.688136 0
0.368032 0.689876 0
0.39762 0.691463 0
0.423438 0.692988 0
0.449271 0.694347 0
0.474891 0.695644 0
0.500389 0.696803 0
0.525414 0.697887 0
0.550195 0.698878 0
0.575433 0.699763 0
0.602228 0.700557 0
0.630808 0.701335 0
0.659739 0.701991 0
0.68893 0.70251 0
0.718227 0.703014 0.000839246
0.747616 0.703471 0.00451667
0.777111 0.703838 0.00862135
0.806653 0.704234 0.0128481
0.836301 0.704616 0.0172427
0 0.678386 0
0 0.682521 0
0.00959792 0.686305 0
0.03299 0.689937 0
0.0571908 0.693401 0
0.0822003 0.696712 0
0.108095 0.699794 0
0.134707 0.702724 0
0.162051 0.705486 0
0.190143 0.708125 0
0.218875 0.710536 0
0.248142 0.71284 0
0.277882 0.715038 0
0.307958 0.717052 0
0.338079 0.718959 0
0.368185 0.720714 0
0.397772 0.722362 0
0.423728 0.723827 0
0.449546 0.725246 0
0.475166 0.726497 0
0.500587 0.727718 0
0.525658 0.728801 0
0.550408 0.729778 0
0.575631 0.730663 0
0.602289 0.731456 0
0.630869 0.732235 0
0.659785 0.732891 0
0.688899 0.733425 0.000320439
0.718242 0.733913 0.00357061
0.747631 0.73434 0.00743114
0.777096 0.734722 0.01149
0.806729 0.735103 0.0157168
0.836408 0.735439 0.0199741
0 0.708034 0
0 0.712215 0
0.012665 0.71606 0
0.0358282 0.719783 0
0.0597848 0.723339 0
0.0846418 0.726726 0
0.110246 0.729885 0
0.136706 0.732891 0
0.163836 0.735729 0
0.191669 0.738445 0
0.220295 0.740917 0
0.249348 0.743282 0
0.27895 0.745525 0
0.308919 0.747585 0
0.33904 0.749523 0
0.368948 0.751324 0
0.398489 0.752987 0
0.424582 0.754452 0
0.450355 0.755886 0
0.475929 0.757137 0
0.50132 0.758358 0
0.526329 0.759457 0
0.551049 0.760449 0
0.576272 0.761334 0
0.602869 0.762127 0
0.631388 0.76289 0
0.660212 0.763561 0.000366217
0.68925 0.764111 0.00326543
0.718563 0.764599 0.00695811
0.748012 0.765026 0.0108186
0.777523 0.765423 0.0148318
0.807126 0.765805 0.0189822
0.836835 0.766125 0.0231479
0 0.737423 0
0 0.741588 0
0.0166476 0.74548 0
0.0395972 0.749264 0
0.0633707 0.752941 0
0.0879988 0.756344 0
0.113359 0.759594 0
0.139605 0.762676 0
0.166537 0.765637 0
0.194156 0.768368 0
0.222583 0.770977 0
0.251453 0.773404 0
0.280888 0.775708 0
0.310689 0.777813 0
0.340688 0.779797 0
0.370474 0.781659 0
0.399817 0.783322 0
0.425956 0.784863 0
0.451698 0.786236 0
0.477226 0.787579 0
0.502556 0.7888 0
0.52752 0.789853 0
0.552178 0.79086 0
0.577325 0.791745 0
0.603861 0.792599 0
0.632303 0.793317 0.000976577
0.661082 0.794003 0.00389105
0.690074 0.794583 0.00723278
0.719326 0.795102 0.0108339
0.748791 0.795529 0.0146792
0.778302 0.795926 0.0186007
0.807904 0.796307 0.0226596
0.837659 0.796689 0.0267033
0 0.766583 0
0.000320439 0.770779 0
0.0212558 0.774731 0
0.0440681 0.778561 0
0.0676738 0.782208 0
0.0921187 0.785718 0
0.117357 0.789029 0
0.143328 0.792172 0
0.170047 0.795148 0
0.197528 0.798016 0
0.225681 0.800687 0
0.254414 0.803174 0
0.28365 0.805493 0
0.313298 0.807721 0
0.343053 0.80975 0
0.372747 0.811673 0
0.401846 0.813367 0
0.427893 0.814969 0
0.453574 0.816358 0
0.479057 0.817716 0
0.50428 0.818906 0
0.529229 0.82005 0
0.553811 0.821057 0
0.578836 0.821958 0.000564584
0.60528 0.822782 0.00262455
0.633661 0.82359 0.00535592
0.66244 0.824277 0.00842298
0.691386 0.824887 0.0117189
0.720546 0.825452 0.0151675
0.749966 0.825895 0.0189059
0.779461 0.826291 0.0227512
0.80911 0.826688 0.0267033
0.838865 0.827085 0.0306249
0 0.795697 0
0.0043183 0.799817 0
0.0261997 0.803861 0
0.0489204 0.807706 0
0.0724956 0.811383 0
0.0967727 0.814893 0
0.121889 0.818235 0
0.147707 0.821469 0
0.174273 0.824491 0
0.201587 0.827359 0
0.229557 0.830091 0
0.258076 0.832639 0
0.287129 0.835065 0
0.316594 0.837308 0
0.346166 0.839414 0
0.375631 0.841352 0
0.404578 0.843122 0
0.430472 0.84477 0
0.456031 0.846204 0
0.481453 0.847562 0
0.506569 0.848844 0.000228885
0.53138 0.849958 0.000839246
0.555856 0.850996 0.0028687
0.58085 0.851942 0.0052491
0.607202 0.852842 0.00779736
0.635523 0.85362 0.0104372
0.664225 0.854353 0.0133974
0.693095 0.854978 0.016556
0.722194 0.855589 0.0199283
0.751522 0.856077 0.0234989
0.781033 0.856519 0.0272679
0.810666 0.856947 0.0310826
0.840421 0.857313 0.0348516
0 0.824659 0
0.00968948 0.828824 0
0.0315404 0.832822 0
0.0541848 0.836683 0
0.0776226 0.840391 0
0.101823 0.843946 0
0.126833 0.847303 0
0.152529 0.850523 0
0.178958 0.853651 0
