site/assets/luts/freshluts--0001161-clearn-cool-look.cube
# LUTr-Schema-Version: 2
# LUTr-ID: freshluts--0001161-clearn-cool-look
# LUTr-Title: clearn cool look
# LUTr-Collection: Fresh LUTs
# LUTr-Collection-ID: freshluts-community
# LUTr-Source: https://freshluts.com
# LUTr-Retrieved: 2026-07-27
# LUTr-Source-File: submissions-raw/freshluts/cubes/1161__mak_phearith.cube
# LUTr-Source-Format: CUBE
# LUTr-Source-SHA256: 9f699d1c5cfb71f6b3b9d8b377e4ad9aeaae8d2a3392db965f77853fb48256a0
# LUTr-License: CC0-1.0
# LUTr-License-URL: https://freshluts.com/termsandconditions
# LUTr-License-Basis: site-terms
# LUTr-Transform-Class: creative-look
# LUTr-Tags: creative, freshluts, community, cube, cool, high-key, sony-s-log3
# LUTr-Input-Color-Space:
# LUTr-Input-Gamut: sony-s-gamut3
# LUTr-Input-Transfer: sony-s-log3
# LUTr-Output-Color-Space: srgb
# LUTr-Output-Gamut: rec709
# LUTr-Output-Transfer: srgb
# LUTr-Color-Space-Confidence: camera-profile-input-required
# LUTr-Domain-Normalized: true
# LUTr-Shaper: none
# LUTr-Original-Grid: 16x16x16
# LUTr-Conversion-Grid: 16x16x16
# LUTr-Conversion-Interpolation: none
# LUTr-Conversion-Method: Metadata normalization; numeric LUT samples preserved
# LUTr-Conversion-Tool: LUTr scripts/convert-all-to-cube.mjs 2.0.0
# LUTr-Conversion-Date: 2026-07-28
# LUTr-Asset-URL: https://freshluts.com/luts/1161
# LUTr-Author: lvannoeun@gmail.com
# LUTr-Author-URL: https://freshluts.com/users/57563
# LUTr-Attribution: lvannoeun@gmail.com via Fresh LUTs
# LUTr-Source-Labels: gamma=Sony S-Log 3; color=Cool; key=High Key; style=Drama
# LUTr-Note: Preserve this metadata and the upstream license notices when redistributing.
TITLE "clearn cool look"
LUT_3D_SIZE 16
DOMAIN_MIN 0 0 0
DOMAIN_MAX 1 1 1
0 0 0
0 0 0
0 0 0
0 0 0
0.131129 0 0.002632
0.251227 0 0.032906
0.376733 0 0.065691
0.490077 0.038606 0.097766
0.588214 0.080011 0.133653
0.674696 0.115544 0.167271
0.752379 0.146906 0.195815
0.820414 0.173803 0.223082
0.848951 0.193119 0.244763
0.848951 0.197073 0.252495
0.848951 0.197083 0.255556
0.848951 0.197093 0.25769
0 0 0
0 0 0
0 0 0
0 0 0
0.126568 0 0.002327
0.249603 0 0.031377
0.374721 0 0.065532
0.488546 0.03801 0.097691
0.587077 0.079492 0.133408
0.673973 0.115254 0.167281
0.751702 0.146619 0.195725
0.820075 0.173634 0.222999
0.848951 0.193072 0.24472
0.848951 0.197074 0.252475
0.848951 0.197082 0.255546
0.848951 0.197093 0.257692
0 0 0
0 0 0
0 0 0
0.008216 0.001354 0
0.12447 0.018907 0
0.244963 0.012711 0
0.366497 0 0.059491
0.484351 0.037838 0.096727
0.582231 0.077483 0.131857
0.671328 0.114267 0.167387
0.749737 0.145865 0.196411
0.818292 0.172953 0.222678
0.848951 0.192874 0.244586
0.848951 0.197092 0.252446
0.848951 0.19708 0.255505
0.848951 0.197092 0.257678
0 0.033075 0.001251
0.001017 0.031021 0
0.007697 0.026106 0
0.023914 0.024456 0
0.127083 0.070872 0
0.23823 0.08651 0
0.359988 0.077223 0.017497
0.477849 0.057215 0.077973
0.578002 0.081199 0.130913
0.667869 0.113068 0.167022
0.746988 0.144722 0.198027
0.816209 0.17206 0.222543
0.848951 0.192485 0.244379
0.848951 0.197096 0.252409
0.848951 0.197082 0.255483
0.848951 0.197091 0.257655
0 0.153303 0.026375
0 0.152458 0.024037
0.013723 0.149742 0
0.070008 0.146006 0
0.135907 0.143693 0
0.242864 0.166435 0.004064
0.358645 0.172381 0.035775
0.47014 0.16374 0.076679
0.571384 0.145874 0.115924
0.662933 0.129386 0.162263
0.74342 0.148882 0.197127
0.814915 0.171626 0.22512
0.848951 0.192295 0.244595
0.848951 0.197087 0.252351
0.848951 0.19708 0.255486
0.848951 0.197089 0.257657
0.025157 0.278744 0.060566
0.025327 0.278198 0.059919
0.026371 0.276802 0.058145
0.048586 0.273878 0.039986
0.145266 0.269207 0.042911
0.249077 0.265936 0.054008
0.361013 0.274489 0.074244
0.465806 0.27515 0.100336
0.561752 0.2664 0.13006
0.651566 0.24588 0.158001
0.734551 0.209474 0.188818
0.811182 0.190433 0.221268
0.848951 0.19266 0.245592
0.848951 0.197044 0.252357
0.848951 0.197077 0.255503
0.848951 0.197086 0.257689
0.085068 0.399914 0.11827
0.084962 0.399638 0.118133
0.084601 0.398418 0.117415
0.087431 0.3965 0.116248
0.126715 0.393536 0.108353
0.24525 0.388791 0.112197
0.362169 0.38554 0.123084
0.462818 0.387043 0.138527
0.554188 0.384577 0.158738
0.639229 0.374548 0.178886
0.719472 0.351254 0.19632
0.795552 0.305409 0.217268
0.847894 0.236927 0.237474
0.848951 0.20445 0.250573
0.848951 0.197076 0.255479
0.848951 0.197082 0.257732
0.135514 0.503965 0.173548
0.135411 0.503808 0.173479
0.13511 0.503126 0.173009
0.135484 0.501991 0.17306
0.150241 0.500212 0.170257
0.23015 0.496337 0.168396
0.35551 0.491795 0.173797
0.461123 0.489086 0.18376
0.549671 0.48809 0.194804
0.630608 0.484224 0.21125
0.706235 0.474501 0.223786
0.777168 0.454302 0.233486
0.838836 0.406867 0.243061
0.848951 0.292268 0.24129
0.848951 0.216968 0.250151
0.848951 0.197071 0.257842
0.17815 0.593684 0.224203
0.17807 0.593596 0.224104
0.177898 0.593156 0.223791
0.177732 0.592416 0.2239
0.182238 0.591717 0.224791
0.228525 0.58894 0.221868
0.343787 0.584174 0.224021
0.454402 0.581175 0.230661
0.548221 0.578641 0.238767
0.625775 0.577119 0.248452
0.697117 0.572878 0.259758
0.764719 0.564318 0.265941
0.824843 0.547925 0.272303
0.847647 0.491851 0.263448
0.848951 0.383173 0.247667
0.848951 0.23223 0.252785
0.214844 0.672084 0.274428
0.214749 0.672032 0.274354
0.214722 0.671864 0.274254
0.214559 0.671469 0.274169
0.215343 0.670786 0.275924
0.240536 0.669202 0.276227
0.330883 0.665191 0.27679
0.445029 0.661512 0.281207
0.539544 0.659179 0.287002
0.622327 0.657643 0.29258
0.69182 0.655441 0.299877
0.755933 0.651439 0.305139
0.811505 0.644357 0.304092
0.839943 0.624621 0.302066
0.846942 0.573501 0.286478
0.848951 0.463825 0.264201
0.245175 0.738088 0.333199
0.245146 0.737933 0.333221
0.245076 0.737935 0.333215
0.245008 0.737424 0.333228
0.24635 0.737188 0.334359
0.263448 0.735854 0.335309
0.327158 0.732872 0.335678
0.438412 0.729169 0.338774
0.534419 0.72656 0.343521
0.615947 0.724985 0.34687
0.688265 0.723662 0.347848
0.751133 0.722385 0.349677
0.802017 0.719553 0.344807
0.833759 0.713753 0.336456
0.841492 0.695212 0.327984
0.843498 0.653966 0.312636
0.271507 0.79614 0.404156
0.271499 0.796127 0.404168
0.271478 0.796 0.404425
0.271434 0.79581 0.404922
0.272679 0.795675 0.40574
0.284643 0.794802 0.406395
0.336184 0.792291 0.405896
0.440762 0.788524 0.406402
0.531925 0.7863 0.408965
0.612058 0.785055 0.412001
0.683434 0.783775 0.411288
0.747685 0.782767 0.406611
0.794134 0.781955 0.397157
0.826621 0.780193 0.380241
0.839511 0.776164 0.362041
0.840617 0.759387 0.35332
0.29118 0.839409 0.477887
0.291176 0.839416 0.47797
0.291166 0.839624 0.478171
0.291104 0.839319 0.478491
0.294083 0.839267 0.479137
0.308748 0.83827 0.47982
0.361177 0.835904 0.479726
0.453927 0.83215 0.480682
0.540353 0.829521 0.481988
0.615161 0.827851 0.483572
0.683957 0.826841 0.483439
0.743749 0.82619 0.480084
0.789387 0.82574 0.467944
0.820823 0.826015 0.444241
0.837339 0.826003 0.409825
0.840231 0.82317 0.382963
0.299243 0.848951 0.548444
0.299241 0.848951 0.548583
0.299583 0.848951 0.548688
0.300572 0.848951 0.549136
0.305665 0.848951 0.549513
0.324881 0.849049 0.549855
0.403632 0.848951 0.549073
0.485726 0.848716 0.550448
0.559369 0.847878 0.552248
0.62799 0.84677 0.553512
0.691063 0.846136 0.553653
0.745824 0.846118 0.551614
0.785795 0.845981 0.542959
0.816375 0.845993 0.524401
0.834376 0.846568 0.486642
0.839551 0.847642 0.426556
0.308098 0.848951 0.616592
0.308589 0.848951 0.616665
0.313059 0.848951 0.616685
0.325033 0.848951 0.616481
0.346037 0.848951 0.616288
0.396692 0.848951 0.615701
0.461748 0.848951 0.615907
0.525947 0.848951 0.617259
0.58813 0.848782 0.619208
0.647785 0.848035 0.620539
0.704174 0.847333 0.621577
0.750601 0.847548 0.620005
0.786385 0.847506 0.614456
0.813321 0.847916 0.602255
0.832188 0.848547 0.578248
0.83778 0.848951 0.521156
0.372142 0.848951 0.68229
0.374026 0.848951 0.682234
0.383171 0.848951 0.682157
0.404417 0.848951 0.681845
0.436888 0.848951 0.681517
0.476744 0.848951 0.681645
0.52283 0.848951 0.682565
0.572492 0.848652 0.683948
0.623294 0.847678 0.685501
0.674109 0.847001 0.687168
0.71995 0.846882 0.688156
0.758718 0.846766 0.687878
0.789464 0.847112 0.684405
0.812845 0.84716 0.677502
0.829091 0.847529 0.662256
0.836361 0.847819 0.630604
0 0 0
0 0 0
0 0 0
0 0 0
0.130894 0 0.004875
0.251076 0 0.039936
0.375926 0 0.070285
0.490075 0.03862 0.102145
0.587985 0.079859 0.135739
0.674788 0.115594 0.169325
0.752233 0.146838 0.19739
0.820425 0.173801 0.223581
0.848951 0.19311 0.24493
0.848951 0.197074 0.252497
0.848951 0.197083 0.255557
0.848951 0.197093 0.25769
0 0 0
0 0 0
0 0 0
0 0 0
0.126255 0 0.004192
0.249183 0 0.038563
0.373757 0 0.069814
0.488675 0.038073 0.101908
0.58667 0.079349 0.135373
0.674046 0.115288 0.169329
0.751604 0.14662 0.19753
0.819927 0.173587 0.223469
0.848951 0.193055 0.244874
0.848951 0.197075 0.252477
0.848951 0.197082 0.255547
0.848951 0.197093 0.257692
0 0 0
0 0 0
0 0 0
0.006474 0.000892 0
0.123238 0.016709 0
0.243267 0 0.021784
0.366407 0 0.065568
0.484484 0.037777 0.100475
0.582598 0.077641 0.135781
0.671316 0.11424 0.169193
0.749552 0.145802 0.198139
0.818165 0.172924 0.223126
0.848951 0.192865 0.244758
0.848951 0.197092 0.252447
0.848951 0.197081 0.255506
0.848951 0.197092 0.257677
0 0.031369 0.003187
0 0.029345 0.002735
0.006905 0.024568 0
0.022683 0.023237 0
0.125267 0.069585 0
0.238468 0.083699 0
0.360918 0.072648 0.021646
0.477839 0.056811 0.082962
0.578435 0.081234 0.134276
0.667559 0.112957 0.16861
0.746886 0.144706 0.199518
0.816074 0.172018 0.223461
0.848951 0.192461 0.244489
0.848951 0.197095 0.252405
0.848951 0.197082 0.255482
0.848951 0.197091 0.257655
0 0.152563 0.03365
0 0.151704 0.032237
0 0.149072 0.021442
0.067861 0.145236 0
0.13535 0.14307 0
0.242758 0.165563 0.007205
0.3591 0.170498 0.040636
0.470521 0.162093 0.07988
0.571634 0.144716 0.117918
0.663232 0.129008 0.165329
0.743338 0.148803 0.198281
0.814808 0.171608 0.22624
0.848951 0.192209 0.244634
0.848951 0.197083 0.252352
0.848951 0.19708 0.255487
0.848951 0.197089 0.257657
0.02493 0.27818 0.066409
0.025109 0.277836 0.066167
0.026051 0.276328 0.065207
0.042266 0.273384 0.044201
0.144131 0.268763 0.046327
0.248778 0.265536 0.056769
0.360933 0.273988 0.076224
0.46587 0.274415 0.103831
0.561934 0.265654 0.132409
0.65194 0.245125 0.159669
0.734937 0.208511 0.190931
0.811089 0.190421 0.222127
0.848951 0.192592 0.246154
0.848951 0.197036 0.252352
0.848951 0.197077 0.255497
0.848951 0.197086 0.25769
0.084936 0.399668 0.120842
0.084867 0.399357 0.120859
0.084481 0.39817 0.120969
0.087247 0.396156 0.119522
0.125522 0.393314 0.110562
0.244824 0.388568 0.114077
0.361996 0.385182 0.124519
0.462802 0.386761 0.139836
0.554193 0.38424 0.161106
0.639442 0.374109 0.180394
0.719508 0.351048 0.197811
0.795765 0.304917 0.218551
0.847916 0.237524 0.237779
0.848951 0.204677 0.250773
0.848951 0.197076 0.255458
0.848951 0.197082 0.257728
0.1354 0.503799 0.174954
0.135322 0.50362 0.174971
0.134973 0.502818 0.175108
0.135362 0.50179 0.175352
0.150051 0.500045 0.17244
0.229811 0.496118 0.169969
0.355269 0.491575 0.175032
0.461 0.488939 0.184674
0.549545 0.48786 0.197408
0.630658 0.484026 0.212903
0.7063 0.474264 0.224547
0.777356 0.453892 0.234998
0.838845 0.407084 0.243559
0.848951 0.293499 0.241329
0.848951 0.217363 0.250123
0.848951 0.197072 0.257842
0.178031 0.593494 0.225282
0.178021 0.593376 0.22535
0.177761 0.592945 0.22574
0.177603 0.592272 0.226547
0.182143 0.5915 0.227269
0.228081 0.58885 0.223923
0.343537 0.584045 0.225723
0.454277 0.580949 0.231934
0.548062 0.578421 0.239581
0.625615 0.576858 0.250904
0.697076 0.572626 0.261107
0.764739 0.564233 0.266285
0.825012 0.547748 0.27303
0.847585 0.492498 0.263705
0.848951 0.384721 0.247851
0.848951 0.232697 0.252771
0.214713 0.67196 0.27548
0.214706 0.671897 0.275566
0.214577 0.671692 0.276178
0.214409 0.671249 0.277337
0.215223 0.670556 0.27906
0.240373 0.66907 0.279174
0.330712 0.665069 0.279409
0.444877 0.661462 0.28336
0.539418 0.658992 0.28866
0.622243 0.657582 0.293958
0.691731 0.655152 0.302249
0.755834 0.651217 0.306365
0.811493 0.644205 0.304144
0.839931 0.624735 0.302492
0.8469 0.57404 0.286651
0.848951 0.464652 0.264431
0.245098 0.737997 0.335221
0.245055 0.737884 0.335221
0.24502 0.737585 0.335429
0.244872 0.737489 0.336326
0.246211 0.736964 0.337733
0.26327 0.735691 0.338569
0.326983 0.732827 0.338777
0.438207 0.72879 0.341641
0.534314 0.726416 0.34623
0.615811 0.724617 0.349019
0.688085 0.723496 0.350909
0.751239 0.722395 0.352003
0.801914 0.719485 0.34601
0.83364 0.713809 0.336633
0.841459 0.695452 0.328251
0.843477 0.65445 0.312789
0.27144 0.795863 0.406707
0.271432 0.795786 0.406735
0.271383 0.795708 0.406924
0.271386 0.79556 0.407627
0.272545 0.79545 0.408474
0.284556 0.794842 0.409177
0.335937 0.792145 0.408628
0.440663 0.788336 0.409192
0.531865 0.786191 0.411594
0.61191 0.784788 0.414812
0.683354 0.783776 0.413807
0.74762 0.78247 0.4095
0.794157 0.781946 0.399627
0.826525 0.780151 0.381444
0.839429 0.776118 0.362952
0.840666 0.75965 0.3535
0.291097 0.839528 0.479929
0.291109 0.839525 0.479998
0.291095 0.839423 0.48013
0.291032 0.839199 0.480516
0.294034 0.839012 0.4813
0.308616 0.838237 0.48177
0.360985 0.835955 0.481801
0.453786 0.831976 0.482671
0.540368 0.829333 0.484053
0.615139 0.82781 0.485567
0.683924 0.826655 0.485552
0.743551 0.826174 0.482317
0.789171 0.82544 0.470436
0.82058 0.825888 0.446623
0.837222 0.825946 0.410971
0.840327 0.823181 0.383557
0.299253 0.848951 0.549957
0.299252 0.848951 0.550129
0.299579 0.848951 0.550259
0.300548 0.848951 0.55067
0.305631 0.848951 0.551125
0.324895 0.849039 0.551502
0.403468 0.848951 0.550654
0.485696 0.84865 0.552049
0.559417 0.847858 0.553905
0.627884 0.846685 0.555135
0.691006 0.846086 0.555341
0.745595 0.84602 0.553421
0.785871 0.845865 0.54478
0.816275 0.845868 0.526511
0.834372 0.846784 0.489215
0.839466 0.847594 0.427727
0.308043 0.848951 0.617752
0.308536 0.848951 0.617788
0.313044 0.848951 0.617777
0.325042 0.848951 0.617611
0.346077 0.848951 0.617559
0.396528 0.848951 0.616884
0.461753 0.848951 0.617218
0.525903 0.848951 0.618492
0.588056 0.848737 0.620358
0.647764 0.847995 0.621724
0.704008 0.847333 0.622729
0.750393 0.847542 0.6213
0.786304 0.847453 0.615825
0.813215 0.847914 0.603786
0.832104 0.848479 0.580097
0.837724 0.848951 0.523633
0.372131 0.848951 0.683168
0.373956 0.848951 0.683086
0.382998 0.848951 0.682941
0.4043 0.848951 0.682733
0.436825 0.848951 0.682359
0.476688 0.848951 0.682571
0.522775 0.848951 0.683549
0.572486 0.848629 0.684818
0.623282 0.847655 0.686364
0.674068 0.846982 0.688068
0.7199 0.846861 0.689118
0.758631 0.846788 0.688801
0.78942 0.847087 0.685492
0.812753 0.847132 0.678643
0.828985 0.847474 0.663322
0.836326 0.847835 0.632069
0 0 0
0 0 0
0 0 0
0 0 0
0.13124 0 0.027895
0.250884 0 0.063579
0.376544 0 0.09252
0.49028 0.038763 0.120138
0.588238 0.080037 0.150943
0.674898 0.115683 0.1793
0.751956 0.146748 0.204946
0.820402 0.173717 0.227183
0.848951 0.193061 0.245674
0.848951 0.197074 0.252496
0.848951 0.197084 0.255558
0.848951 0.197093 0.257693
0 0 0
0 0 0
0 0 0
0 0 0
0.127617 0 0.026506
0.248931 0 0.062542
0.374981 0 0.092224
0.488954 0.038247 0.120121
0.587404 0.079675 0.150918
0.674156 0.115372 0.179488
0.751315 0.146471 0.204922
0.819773 0.173496 0.227313
0.848951 0.193013 0.245592
0.848951 0.197075 0.252517
0.848951 0.197084 0.255549
0.848951 0.197093 0.257687
0 0 0
0 0 0
0 0 0
0.00236 0 0.00054
0.121047 0 0.024468
0.243597 0 0.056651
0.370268 0 0.089353
0.485419 0.037773 0.120013
0.584087 0.078291 0.150152
0.671806 0.114385 0.180386
0.749477 0.145664 0.204916
0.818322 0.172884 0.227744
0.848951 0.19274 0.245323
0.848951 0.197094 0.252477
0.848951 0.197083 0.255508
0.848951 0.197092 0.257674
0 0.02581 0.010151
0 0.023819 0.009347
0 0.019013 0.006242
0.017972 0.018072 0
0.125036 0.061562 0
0.240401 0.067044 0
0.363764 0.040258 0.045778
0.480235 0.054703 0.110257
0.580074 0.081337 0.149281
0.668634 0.113261 0.181663
0.746346 0.144487 0.205965
0.8161 0.171984 0.228831
0.848951 0.192284 0.245046
0.848951 0.197091 0.252396
0.848951 0.197082 0.255484
0.848951 0.197091 0.257653
0 0.149732 0.05519
0 0.148936 0.054421
0 0.146291 0.050356
0.054187 0.142297 0.001732
0.132946 0.140045 0.010639
0.242755 0.159331 0.030585
0.360336 0.16342 0.059188
0.471922 0.154039 0.095583
0.572955 0.135521 0.133544
0.664866 0.127627 0.177252
0.744017 0.148596 0.208788
0.814849 0.171534 0.230769
0.848951 0.192117 0.247147
0.848951 0.197074 0.252325
0.848951 0.19708 0.255485
0.848951 0.197089 0.257658
0.024096 0.27673 0.088459
0.024217 0.276167 0.088091
0.024897 0.274553 0.086868
0.041019 0.271608 0.073684
0.138987 0.26701 0.061798
0.247559 0.263882 0.07348
0.360744 0.270998 0.093802
0.466397 0.271194 0.117775
0.56285 0.262136 0.143918
0.65279 0.240417 0.172759
0.736428 0.204422 0.199533
0.811003 0.189956 0.229973
0.848951 0.192435 0.248622
0.848951 0.197037 0.252832
0.848951 0.197077 0.25548
0.848951 0.197088 0.257689
0.08429 0.398405 0.134194
0.084226 0.398132 0.134092
0.083843 0.397099 0.13381
0.086505 0.395154 0.132066
0.120726 0.392028 0.119367
0.242954 0.387641 0.122645
0.361166 0.384158 0.135804
0.462459 0.385191 0.153192
0.554255 0.382479 0.170791
0.639828 0.372326 0.188117
0.719949 0.348662 0.207609
0.796178 0.302856 0.223968
0.847848 0.238052 0.242339
0.848951 0.205735 0.251451
0.848951 0.197076 0.255457
0.848951 0.197082 0.25772
0.134911 0.502847 0.185063
0.134828 0.502667 0.185001
0.134459 0.501908 0.184815
0.134786 0.50089 0.184454
0.14942 0.499139 0.18106
0.228153 0.495262 0.176324
0.354115 0.490727 0.180758
0.460381 0.487993 0.194318
0.549257 0.48682 0.208232
0.630734 0.483039 0.219861
0.706307 0.473207 0.229594
0.777644 0.452433 0.241462
0.839147 0.40842 0.245668
0.848951 0.296799 0.243685
0.848951 0.219085 0.250052
0.848951 0.197075 0.257837
0.177623 0.592647 0.236811
0.177542 0.592526 0.236814
0.177333 0.59211 0.236927
0.177164 0.591457 0.237243
0.181647 0.590572 0.237271
0.226472 0.58809 0.232324
0.342484 0.583306 0.232716
0.453705 0.580217 0.238384
0.547609 0.577566 0.250442
0.625364 0.575949 0.26101
0.696878 0.57192 0.266722
0.764754 0.563548 0.270424
0.825167 0.546685 0.276054
0.847543 0.495199 0.264461
0.849033 0.389624 0.248902
0.848951 0.234471 0.252666
0.214291 0.671156 0.289362
0.214225 0.671011 0.289445
0.214144 0.670759 0.289823
0.213998 0.670318 0.290605
0.214803 0.669883 0.291722
0.2398 0.668344 0.29111
0.32959 0.664337 0.289945
0.444213 0.660587 0.292459
0.53891 0.658253 0.29781
0.621742 0.656488 0.306873
0.69154 0.654449 0.31213
0.755754 0.650534 0.311559
0.811397 0.643635 0.308632
0.839955 0.625189 0.30428
0.846675 0.576569 0.287361
0.848951 0.468672 0.265359
0.244662 0.737085 0.349045
0.244634 0.737076 0.349152
0.244573 0.736876 0.349553
0.244462 0.736806 0.350186
0.245738 0.736273 0.351409
0.262536 0.735115 0.351988
0.326144 0.732161 0.351823
0.437557 0.728121 0.353641
0.533797 0.725861 0.357139
0.615359 0.724053 0.360478
0.687746 0.722768 0.363911
0.750718 0.721619 0.362095
0.801445 0.718937 0.35117
0.833384 0.713304 0.341869
0.841466 0.696344 0.329186
0.843432 0.656165 0.313417
0.271122 0.79513 0.418075
0.27108 0.795218 0.418237
0.271068 0.79517 0.418403
0.270977 0.794835 0.418997
0.272144 0.794811 0.419854
0.283819 0.794196 0.420602
0.334868 0.791541 0.420211
0.440173 0.787621 0.420852
0.531369 0.785613 0.423323
0.611528 0.784204 0.426327
0.682998 0.783118 0.425347
0.747013 0.781715 0.421658
0.793674 0.781195 0.409813
0.826226 0.780146 0.386376
0.83958 0.775888 0.367155
0.840657 0.760022 0.353978
0.290881 0.838954 0.488673
0.290878 0.838954 0.488692
0.290809 0.838802 0.488858
0.290792 0.838804 0.489242
0.293787 0.838518 0.489931
0.308144 0.837523 0.490452
0.360349 0.83515 0.490395
0.453125 0.831485 0.491205
0.53993 0.828778 0.49266
0.614841 0.82726 0.494171
0.683585 0.826109 0.494494
0.743354 0.825356 0.49162
0.788957 0.824849 0.480634
0.820273 0.825256 0.456549
0.836924 0.825627 0.416983
0.840126 0.823154 0.386459
0.299245 0.848951 0.556725
0.299246 0.848951 0.556785
0.299524 0.848951 0.556936
0.30044 0.848951 0.55739
0.305565 0.848951 0.557868
0.324831 0.849035 0.5582
0.403097 0.848951 0.557357
0.485331 0.848512 0.55866
0.559213 0.847802 0.560417
0.627674 0.846676 0.561623
0.690881 0.845837 0.562001
0.745243 0.845727 0.560433
0.785702 0.845879 0.552516
0.816094 0.845844 0.53541
0.833971 0.846396 0.499991
0.839541 0.847537 0.436624
0.308098 0.848951 0.622832
0.30844 0.848951 0.622848
0.313007 0.848951 0.622861
0.324879 0.848951 0.622805
0.345866 0.848951 0.622642
0.396129 0.848951 0.622071
0.461411 0.848951 0.622181
0.525662 0.848951 0.623486
0.5878 0.848701 0.625343
0.647683 0.847888 0.626843
0.703832 0.847522 0.627777
0.750111 0.847363 0.626589
0.786032 0.847318 0.621614
0.812953 0.847845 0.610094
0.832012 0.848395 0.587931
0.837452 0.848825 0.534274
0.371684 0.848951 0.686834
0.373566 0.848951 0.686844
0.382704 0.848951 0.686816
0.404096 0.848951 0.686584
0.436581 0.848951 0.686295
0.476484 0.848951 0.68652
0.522613 0.848951 0.687306
0.572211 0.848609 0.688752
0.623163 0.84762 0.690226
0.673974 0.847119 0.691889
0.719669 0.846769 0.692905
0.75852 0.846674 0.692541
0.789102 0.847004 0.689586
0.812686 0.847066 0.683274
0.828746 0.847394 0.668646
0.836127 0.847723 0.638585
0 0 0
0 0 0
0 0 0
0.003511 0 0.00269
0.133226 0 0.071479
0.251017 0 0.108128
0.376647 0 0.138285
0.490437 0.039187 0.162473
0.58812 0.080081 0.185699
0.675031 0.11573 0.207972
0.751764 0.14669 0.22696
0.820132 0.173627 0.239925
0.848951 0.193008 0.251377
0.848951 0.197073 0.252613
0.848951 0.197084 0.25559
0.848951 0.197093 0.257682
0 0 0
0 0 0
0 0 0
0.001688 0 0.001359
0.130392 0 0.069991
0.249468 0 0.107593
0.375136 0 0.138203
0.489375 0.038724 0.16243
0.587201 0.07973 0.185749
0.674306 0.115506 0.208236
0.751202 0.146512 0.227067
0.81972 0.173486 0.240336
0.848951 0.192942 0.251447
0.848951 0.197078 0.252653
0.848951 0.197084 0.255585
0.848951 0.197093 0.257676
0 0 0
0 0 0
0 0 0
0.000692 0 0.000671
0.122457 0 0.066461
0.246127 0 0.106821
0.372271 0 0.138367
0.486466 0.03793 0.162692
0.585088 0.078891 0.186099
0.672358 0.114684 0.209477
0.749502 0.145777 0.227652
0.818135 0.1729 0.241773
0.848951 0.192715 0.251724
0.848951 0.197099 0.252798
0.848951 0.197084 0.255564
0.848951 0.197092 0.257668
0 0.016529 0.017289
0 0.015208 0.016018
0 0.012807 0.013903
0.014635 0.005894 0.018899
0.124625 0.00913 0.056059
0.243206 0.017258 0.090213
0.367291 0.03231 0.124914
0.482731 0.050198 0.159055
0.582165 0.081292 0.187315
0.669644 0.113728 0.211615
0.747373 0.14496 0.228869
0.816169 0.172109 0.244351
0.848951 0.192294 0.251912
0.848951 0.197079 0.25309
0.848951 0.197082 0.255519
0.848951 0.197091 0.257652
0 0.143192 0.094818
0 0.142437 0.094369
0 0.139906 0.092368
0.021786 0.136023 0.077557
0.128524 0.133469 0.067326
0.243201 0.144128 0.082305
0.36248 0.143846 0.105716
0.474514 0.132819 0.136104
0.575199 0.127408 0.176778
0.666576 0.125094 0.210427
0.745245 0.148144 0.232866
0.815115 0.17166 0.248532
0.848951 0.191998 0.253882
0.848951 0.197069 0.253528
0.848951 0.19708 0.255478
0.848951 0.197092 0.25765
0.022456 0.273364 0.134349
0.022518 0.272775 0.134115
0.022782 0.271008 0.133613
0.038365 0.267945 0.128707
0.123952 0.263134 0.1077
0.245172 0.26015 0.117058
0.360818 0.264695 0.133253
0.467046 0.263402 0.15336
0.564245 0.253758 0.175321
0.654146 0.231296 0.200845
0.737854 0.197881 0.226941
0.81199 0.188919 0.247991
0.848951 0.192156 0.260234
0.848951 0.197008 0.254518
0.848951 0.197076 0.255553
0.848951 0.197096 0.257693
0.082905 0.395775 0.170558
0.08285 0.395627 0.170535
0.082504 0.394716 0.170626
0.084759 0.392866 0.170058
0.11625 0.389926 0.16209
0.237379 0.385121 0.156781
0.359515 0.381606 0.167829
0.461932 0.38188 0.183294
0.554454 0.378579 0.199232
0.640522 0.367857 0.213934
0.720863 0.343534 0.228761
0.797353 0.297181 0.244079
0.848103 0.237391 0.255025
0.848951 0.206981 0.256874
0.848951 0.197076 0.255733
0.848951 0.197082 0.257708
0.13395 0.500975 0.21319
0.13382 0.50076 0.213184
0.133393 0.499961 0.213211
0.133623 0.498764 0.213513
0.147796 0.497172 0.212189
0.222448 0.493202 0.205911
0.351638 0.488619 0.210741
0.459054 0.48586 0.219583
0.548672 0.484645 0.232962
