site/assets/luts/freshluts--0000710-hitman.cube
# LUTr-Schema-Version: 2
# LUTr-ID: freshluts--0000710-hitman
# LUTr-Title: Hitman
# LUTr-Collection: Fresh LUTs
# LUTr-Collection-ID: freshluts-community
# LUTr-Source: https://freshluts.com
# LUTr-Retrieved: 2026-07-27
# LUTr-Source-File: submissions-raw/freshluts/cubes/710__Hitman.cube
# LUTr-Source-Format: CUBE
# LUTr-Source-SHA256: 18819fff1c987f8d4721f5cf643bba4f4a0c11fa8286c83e018556b67f1985e6
# LUTr-License: CC0-1.0
# LUTr-License-URL: https://freshluts.com/termsandconditions
# LUTr-License-Basis: site-terms
# LUTr-Transform-Class: creative-look
# LUTr-Tags: creative, freshluts, community, cube, warm, low-key, bmd-film
# LUTr-Input-Color-Space: bmd-film
# LUTr-Input-Gamut: bmd-film-gamut
# LUTr-Input-Transfer: bmd-film
# LUTr-Output-Color-Space: srgb
# LUTr-Output-Gamut: rec709
# LUTr-Output-Transfer: srgb
# LUTr-Color-Space-Confidence: inferred-from-source-label
# LUTr-Domain-Normalized: true
# LUTr-Shaper: none
# LUTr-Original-Grid: 16x16x16
# LUTr-Conversion-Grid: 16x16x16
# LUTr-Conversion-Interpolation: none
# LUTr-Conversion-Method: Metadata normalization; numeric LUT samples preserved
# LUTr-Conversion-Tool: LUTr scripts/convert-all-to-cube.mjs 2.0.0
# LUTr-Conversion-Date: 2026-07-28
# LUTr-Asset-URL: https://freshluts.com/luts/710
# LUTr-Author: InAvision
# LUTr-Author-URL: https://freshluts.com/users/64078
# LUTr-Attribution: InAvision via Fresh LUTs
# LUTr-Source-Labels: gamma=Blackmagic BMD Film; color=Warm; key=Low Key; style=Warm shadows
# LUTr-Note: Preserve this metadata and the upstream license notices when redistributing.
TITLE "Hitman"
LUT_3D_SIZE 16
DOMAIN_MIN 0 0 0
DOMAIN_MAX 1 1 1
0 0 0
0 0 0
0.039154 0.016196 0.01308
0.089355 0.027234 0.023047
0.15646 0.039464 0.034893
0.243977 0.052192 0.048778
0.348015 0.070685 0.067397
0.452189 0.091464 0.087291
0.567106 0.11592 0.110642
0.636378 0.130755 0.125416
0.690089 0.14285 0.137275
0.737565 0.156152 0.149396
0.782278 0.167962 0.160396
0.822547 0.178125 0.169939
0.855172 0.186311 0.177677
0.883439 0.193546 0.184514
0 0 0
0 0 0
0.059907 0.036007 0.021112
0.129074 0.050368 0.032279
0.218087 0.062366 0.0458
0.324984 0.076806 0.063888
0.432012 0.095003 0.083909
0.522727 0.113446 0.101307
0.592098 0.128354 0.116289
0.646964 0.14177 0.128661
0.696908 0.154449 0.14001
0.743476 0.166034 0.151743
0.787509 0.176383 0.162392
0.826935 0.185255 0.171621
0.859015 0.192427 0.179121
0.88683 0.198864 0.18578
0.036579 0.089367 0.032658
0.050435 0.093977 0.034482
0.10084 0.101342 0.039809
0.179318 0.114819 0.049835
0.269597 0.125536 0.061515
0.364196 0.135768 0.076588
0.4554 0.146355 0.09256
0.538568 0.157822 0.107764
0.606152 0.169221 0.123235
0.659684 0.180822 0.135369
0.708275 0.1912 0.146683
0.754034 0.200002 0.157781
0.796901 0.207297 0.167747
0.835575 0.213232 0.176436
0.86672 0.21765 0.183452
0.893505 0.221936 0.189699
0.057646 0.171276 0.054868
0.073459 0.177313 0.057305
0.125548 0.181876 0.061034
0.198318 0.185009 0.06725
0.285724 0.196593 0.078056
0.376515 0.206794 0.09051
0.464922 0.215191 0.103826
0.54676 0.223447 0.119956
0.613137 0.232655 0.133214
0.666302 0.241926 0.144654
0.714921 0.249622 0.15593
0.760714 0.255533 0.166399
0.803745 0.25926 0.175721
0.842376 0.261261 0.183769
0.873358 0.261687 0.190165
0.899799 0.262465 0.195913
0.081656 0.256051 0.079438
0.100374 0.263874 0.082527
0.148367 0.268496 0.085596
0.221151 0.268171 0.089469
0.304854 0.272869 0.097628
0.392101 0.28263 0.112464
0.476813 0.290457 0.125324
0.556033 0.297807 0.137358
0.621174 0.305973 0.148749
0.674009 0.313838 0.159785
0.722547 0.319932 0.17017
0.76855 0.323696 0.179705
0.811566 0.324371 0.187973
0.850229 0.322696 0.194981
0.881209 0.319038 0.200374
0.907334 0.316162 0.20523
0.115859 0.349227 0.112602
0.128387 0.353577 0.114325
0.170254 0.358467 0.117562
0.239615 0.358882 0.121077
0.322458 0.357957 0.127393
0.410973 0.363504 0.138563
0.495566 0.369826 0.150225
0.573394 0.376869 0.161558
0.637056 0.384889 0.1723
0.689107 0.392667 0.182536
0.737231 0.398079 0.1919
0.782504 0.400226 0.200123
0.8248 0.398432 0.20682
0.862661 0.393496 0.212083
0.892582 0.386008 0.215744
0.917968 0.379671 0.219195
0.147536 0.43813 0.144209
0.158665 0.441161 0.145807
0.196875 0.446072 0.148967
0.261856 0.448316 0.152291
0.345543 0.44829 0.157545
0.434522 0.449166 0.166439
0.523443 0.456323 0.179376
0.602053 0.462724 0.191653
0.665353 0.470293 0.203176
0.716274 0.477374 0.213512
0.762851 0.48177 0.222316
0.806406 0.482333 0.229159
0.846516 0.478263 0.233768
0.882201 0.470307 0.236596
0.909603 0.459299 0.237646
0.932989 0.449648 0.238947
0.184113 0.525544 0.178383
0.193219 0.528179 0.179522
0.229859 0.533199 0.182571
0.292207 0.537218 0.186463
0.373879 0.539526 0.19158
0.466397 0.541037 0.199912
0.556552 0.54564 0.211994
0.639634 0.553585 0.226365
0.703291 0.56012 0.239011
0.75373 0.565892 0.250148
0.798608 0.568522 0.259065
0.839508 0.567 0.265177
0.876811 0.560445 0.268045
0.909414 0.549665 0.268328
0.931823 0.535399 0.266293
0.951583 0.522986 0.264952
0.224903 0.611314 0.215129
0.233094 0.613721 0.216083
0.270657 0.618564 0.219677
0.331259 0.623497 0.224237
0.409751 0.627435 0.229509
0.501969 0.629782 0.237227
0.59436 0.633457 0.248874
0.678602 0.63994 0.263199
0.747938 0.649871 0.279104
0.797826 0.654116 0.290679
0.841242 0.654835 0.299548
0.879922 0.651202 0.305045
0.913454 0.642158 0.306641
0.941569 0.628772 0.305001
0.95551 0.611572 0.300019
0.968878 0.596779 0.296043
0.270748 0.693047 0.254937
0.28026 0.694581 0.256025
0.316802 0.699024 0.259906
0.375125 0.7042 0.26479
0.449858 0.708616 0.270036
0.538596 0.711482 0.276929
0.631279 0.714298 0.287609
0.71649 0.719323 0.3012
0.786167 0.727539 0.316668
0.844243 0.73826 0.333017
0.886612 0.737316 0.341583
0.922717 0.731254 0.346382
0.951891 0.720443 0.347128
0.969014 0.704584 0.343276
0.974433 0.685078 0.33602
0.980689 0.668514 0.330005
0.319707 0.767838 0.29508
0.329125 0.768984 0.296184
0.362809 0.772839 0.299891
0.417656 0.777568 0.304516
0.487706 0.781593 0.309327
0.57085 0.784367 0.315044
0.660708 0.78632 0.323767
0.74578 0.78958 0.33584
0.816035 0.796081 0.35012
0.872583 0.804771 0.366408
0.925325 0.813619 0.384422
0.956413 0.806068 0.389521
0.976812 0.793151 0.387464
0.984319 0.775948 0.381795
0.984627 0.754277 0.372987
0.985667 0.735693 0.365048
0.364368 0.834338 0.330914
0.372627 0.835191 0.33191
0.403145 0.838419 0.335292
0.453126 0.842158 0.339291
0.517648 0.845446 0.343336
0.59428 0.847542 0.347895
0.679074 0.848464 0.354991
0.763271 0.849601 0.36657
0.834111 0.853762 0.382368
0.8882 0.860049 0.401579
0.936456 0.866843 0.424424
0.973462 0.873326 0.449484
0.986447 0.860252 0.445437
0.989649 0.842119 0.434149
0.989003 0.819181 0.419863
0.988184 0.799415 0.406044
0.40042 0.88891 0.359992
0.407627 0.889423 0.360846
0.434981 0.891606 0.363745
0.480206 0.894101 0.367314
0.539929 0.896254 0.371519
0.611066 0.897061 0.376628
0.690532 0.896753 0.384614
0.771645 0.89601 0.397881
0.842815 0.897051 0.416951
0.89554 0.901547 0.441099
0.939973 0.905776 0.468691
0.973881 0.91102 0.499352
0.990471 0.915305 0.530351
0.992752 0.902355 0.513761
0.991793 0.879261 0.48994
0.990894 0.85948 0.468045
0.428848 0.930538 0.382701
0.435143 0.930729 0.383485
0.459742 0.931888 0.386114
0.501256 0.932899 0.389923
0.557672 0.932998 0.395451
0.625062 0.932297 0.403275
0.700141 0.931232 0.414935
0.776376 0.929263 0.431362
0.845075 0.92856 0.453846
0.89793 0.930555 0.481456
0.940456 0.93301 0.512426
0.972149 0.935866 0.545888
0.989528 0.939198 0.580514
0.995172 0.942279 0.615117
0.994409 0.926436 0.58274
0.99356 0.911524 0.552964
0.456591 0.951725 0.40342
0.462619 0.951811 0.404458
0.486121 0.9517 0.408038
0.525865 0.951127 0.413661
0.579526 0.949598 0.421798
0.643034 0.947664 0.43283
0.712225 0.945589 0.447211
0.782806 0.943464 0.466145
0.847919 0.942313 0.490325
0.900335 0.943025 0.519096
0.94041 0.944771 0.550793
0.969855 0.946778 0.583747
0.987057 0.949361 0.616789
0.994638 0.951939 0.649034
0.996131 0.954175 0.675799
0.995602 0.94609 0.648957
0.478539 0.964733 0.419433
0.484231 0.964508 0.420566
0.505791 0.963444 0.424296
0.543209 0.962051 0.430703
0.594128 0.959754 0.440275
0.654127 0.957193 0.45284
0.719017 0.95449 0.468563
0.785114 0.952357 0.488299
0.847713 0.950706 0.512741
0.899829 0.950664 0.541082
0.939111 0.951814 0.57258
0.968606 0.953295 0.604652
0.985863 0.95517 0.636297
0.994089 0.957645 0.667025
0.996523 0.960099 0.695682
0.996738 0.962493 0.717484
0 0 0
0 0 0
0.037818 0.017824 0.018676
0.090192 0.028196 0.032076
0.160525 0.039992 0.044736
0.251499 0.052815 0.058511
0.356091 0.071514 0.075793
0.460961 0.092112 0.094857
0.568648 0.115194 0.1164
0.63582 0.130051 0.1316
0.689439 0.142456 0.144395
0.737177 0.155574 0.15565
0.78215 0.167341 0.165736
0.822474 0.177507 0.174498
0.855205 0.185755 0.181585
0.883554 0.193082 0.187915
0 0 0
0 0 0
0.039273 0.016224 0.013103
0.102364 0.034662 0.028454
0.193241 0.051709 0.045858
0.303674 0.067876 0.064373
0.418632 0.087886 0.084956
0.518976 0.10702 0.103643
0.590176 0.123256 0.118934
0.644992 0.137552 0.132213
0.695106 0.15083 0.144552
0.74223 0.163085 0.155953
0.786496 0.174097 0.166261
0.826463 0.183628 0.175268
0.858877 0.191379 0.182621
0.886893 0.198273 0.189117
0.036823 0.090662 0.044714
0.041773 0.091703 0.037241
0.09986 0.102104 0.045309
0.178019 0.112821 0.05566
0.268755 0.121893 0.066908
0.36409 0.131353 0.081626
0.455704 0.141711 0.097368
0.539412 0.153398 0.112753
0.606426 0.165068 0.126962
0.659728 0.176596 0.139418
0.708375 0.187265 0.151022
0.754056 0.196793 0.161798
0.797075 0.204837 0.171538
0.835797 0.211452 0.180023
0.867004 0.216566 0.186899
0.893844 0.221389 0.193062
0.057901 0.172606 0.068464
0.067327 0.176266 0.0647
0.120571 0.183502 0.06983
0.195222 0.186515 0.076684
0.282405 0.196387 0.086823
0.374103 0.205865 0.098055
0.463756 0.213793 0.110543
0.546645 0.221438 0.124303
0.613354 0.230201 0.137255
0.666626 0.239321 0.149055
0.715218 0.2473 0.160109
0.760992 0.253514 0.170316
0.803965 0.257694 0.179447
0.842685 0.260132 0.187362
0.873711 0.261025 0.193653
0.900363 0.262221 0.199311
0.081924 0.257587 0.094317
0.093455 0.263866 0.091945
0.141628 0.270728 0.096115
0.21534 0.271173 0.100586
0.300492 0.275031 0.109574
0.389078 0.283068 0.120611
0.474898 0.29021 0.131008
0.555141 0.297036 0.141897
0.620866 0.304802 0.153091
0.673912 0.312601 0.163858
0.722714 0.318785 0.17406
0.768667 0.32265 0.183446
0.811889 0.323533 0.1916
0.850506 0.322143 0.198482
0.88151 0.318772 0.203765
0.907737 0.31617 0.208586
0.115444 0.350319 0.123782
0.123146 0.353523 0.121252
0.16519 0.359477 0.124569
0.235206 0.360494 0.127817
0.319735 0.359483 0.133975
0.409349 0.364413 0.144954
0.494 0.370231 0.156049
0.572092 0.376858 0.166414
0.636115 0.384725 0.176567
0.688474 0.392451 0.186518
0.736788 0.397736 0.195676
0.782297 0.399886 0.203788
0.824831 0.398257 0.210377
0.862919 0.393418 0.215583
0.892984 0.386139 0.219185
0.918259 0.379924 0.222544
0.14795 0.439142 0.153838
0.155141 0.441024 0.151803
0.192592 0.446559 0.15449
0.258221 0.449203 0.157748
0.342609 0.449605 0.162811
0.433012 0.450386 0.171709
0.522422 0.457211 0.184586
0.601045 0.463126 0.196545
0.664365 0.470491 0.207718
0.715464 0.477527 0.217814
0.762123 0.481931 0.226382
0.805918 0.482413 0.233012
0.846257 0.478407 0.237466
0.882082 0.470589 0.240163
0.909743 0.459651 0.241166
0.933201 0.450258 0.24247
0.183885 0.526383 0.186013
0.190009 0.528014 0.184338
0.226312 0.533576 0.187174
0.28935 0.537966 0.191204
0.37123 0.540588 0.19625
0.464539 0.542063 0.204453
0.55558 0.546596 0.216682
0.639001 0.554408 0.231119
0.702676 0.560794 0.243681
0.753057 0.566372 0.254714
0.79788 0.568928 0.263477
0.838924 0.567454 0.269379
0.876426 0.560925 0.272036
0.909213 0.550267 0.272159
0.931875 0.536097 0.270045
0.951687 0.523788 0.268658
0.224407 0.612109 0.221728
0.230177 0.613653 0.220354
0.267694 0.618861 0.22397
0.328923 0.624112 0.228754
0.407537 0.628243 0.233995
0.500128 0.630766 0.241597
0.593273 0.634295 0.253293
0.678014 0.640712 0.267702
0.747516 0.65063 0.283666
0.797512 0.654786 0.295181
0.840775 0.655379 0.303885
0.879522 0.651734 0.309233
0.913253 0.6428 0.310714
0.941291 0.629425 0.308887
0.955462 0.612415 0.303852
0.968959 0.59766 0.299804
0.270964 0.693719 0.261177
0.277412 0.694735 0.26022
0.314747 0.699323 0.264193
0.373549 0.704662 0.269214
0.448452 0.709256 0.274505
0.537135 0.712204 0.281252
0.630264 0.714911 0.291771
0.715944 0.720051 0.305422
0.785771 0.728175 0.320896
0.843953 0.738955 0.337256
0.886361 0.737836 0.345789
0.922398 0.73182 0.350495
0.951594 0.720951 0.351147
0.969047 0.70513 0.347258
0.974286 0.685889 0.339886
0.980922 0.669244 0.333772
0.320246 0.768481 0.300739
0.327137 0.769147 0.300147
0.361498 0.773177 0.304008
0.416687 0.777935 0.308745
0.486752 0.782097 0.313599
0.569729 0.785011 0.319217
0.659683 0.786932 0.327757
0.745252 0.790212 0.339768
0.815654 0.796697 0.354096
0.872236 0.805386 0.370409
0.925043 0.814163 0.388466
0.95619 0.806479 0.393516
0.976636 0.793784 0.391441
0.984275 0.77657 0.385718
0.984592 0.754902 0.376835
0.985604 0.736402 0.368841
0.364906 0.83489 0.335982
0.371272 0.835477 0.335622
0.402307 0.838793 0.339203
0.452582 0.842438 0.343278
0.517021 0.845806 0.347351
0.593449 0.848013 0.351838
0.67819 0.848953 0.358835
0.762741 0.85001 0.370286
0.833646 0.854094 0.386112
0.887587 0.860601 0.405415
0.936047 0.867228 0.428331
0.973075 0.87368 0.453344
0.986185 0.860627 0.449282
0.989662 0.842513 0.438011
0.989051 0.819749 0.423767
0.988225 0.800005 0.409839
0.401065 0.889171 0.364434
0.406906 0.889656 0.364379
0.434617 0.891957 0.36741
0.479901 0.894247 0.371051
0.53964 0.896483 0.37532
0.610605 0.897334 0.380408
0.689894 0.897084 0.388358
0.771115 0.896325 0.401572
0.842346 0.897539 0.420687
0.895135 0.901788 0.444854
0.939623 0.906036 0.472347
0.97355 0.911221 0.502933
0.990353 0.915746 0.533792
0.992775 0.902737 0.51729
0.991836 0.879817 0.4937
0.99094 0.859896 0.471878
0.429524 0.930558 0.386656
0.434956 0.930991 0.386817
0.459699 0.931898 0.389568
0.501411 0.933152 0.393543
0.557801 0.933251 0.399106
0.625055 0.932523 0.406992
0.699826 0.931273 0.418633
0.776103 0.92937 0.434996
0.845031 0.928866 0.457485
0.897632 0.930648 0.484962
0.940244 0.93321 0.515929
0.971972 0.935948 0.549268
0.989467 0.939245 0.583424
0.9952 0.942563 0.617631
0.994431 0.92654 0.5856
0.993594 0.911818 0.556201
0.457523 0.951928 0.407126
0.463208 0.952036 0.407936
0.48679 0.951815 0.411544
0.526521 0.951288 0.417255
0.580112 0.949684 0.42545
0.643499 0.947838 0.436507
0.712617 0.945718 0.450881
0.782907 0.943626 0.469789
0.847912 0.942334 0.493757
0.900348 0.943147 0.522327
0.940469 0.944951 0.553781
0.969902 0.946961 0.586371
0.987064 0.949406 0.619161
0.994662 0.952175 0.651208
0.996157 0.954374 0.677741
0.995627 0.946352 0.651134
0.479586 0.964787 0.422734
0.485278 0.964658 0.423884
0.506901 0.963526 0.427612
0.544317 0.96208 0.434127
0.595179 0.959809 0.443728
0.655038 0.957271 0.456266
0.719684 0.954618 0.471878
0.785596 0.952445 0.491426
0.847983 0.950911 0.515621
0.899915 0.95078 0.543943
0.939178 0.952012 0.575242
0.968679 0.953405 0.607079
0.985843 0.955336 0.638492
0.99403 0.957812 0.668976
0.996546 0.96028 0.697504
0.996763 0.962715 0.718981
0.007116 0.007444 0.019319
0.014457 0.011339 0.02526
0.039843 0.022731 0.037321
0.080171 0.031481 0.050834
0.147131 0.040646 0.068343
0.241025 0.052257 0.086592
0.350936 0.070866 0.104764
0.456672 0.091457 0.120999
0.563534 0.114471 0.141666
0.630279 0.129203 0.155693
0.685039 0.141861 0.167226
0.733943 0.154914 0.176535
0.779907 0.1667 0.184591
0.820801 0.176939 0.191356
0.854129 0.185318 0.196699
0.882585 0.192757 0.201616
0.017886 0.027033 0.040232
0.00713 0.007461 0.019363
0.039941 0.022756 0.037393
0.09375 0.039849 0.058252
0.182412 0.052983 0.080781
0.296578 0.067608 0.101217
0.412993 0.087249 0.118838
0.512395 0.106155 0.133806
0.584686 0.122082 0.146066
0.640985 0.136178 0.157192
0.69218 0.149445 0.167572
0.740085 0.161811 0.176982
0.785106 0.173027 0.185252
0.82561 0.182807 0.192267
0.858342 0.190801 0.197831
0.886419 0.1979 0.20292
0.03919 0.094449 0.084834
0.04451 0.096382 0.086715
0.0969 0.106531 0.095687
0.16914 0.110803 0.098552
0.262542 0.114199 0.106212
0.361181 0.121303 0.115493
0.454458 0.132064 0.126362
0.538679 0.144789 0.138286
0.606187 0.158335 0.150409
0.659817 0.171716 0.161994
0.708727 0.18447 0.173012
0.754911 0.19626 0.183228
0.798191 0.206697 0.192404
0.837363 0.21569 0.200373
0.869111 0.223087 0.206933
0.896354 0.229724 0.212758
0.059063 0.174671 0.108298
0.068333 0.178735 0.109722
0.113959 0.186506 0.112145
0.189077 0.189561 0.115306
0.277936 0.194984 0.120366
0.372439 0.20168 0.126532
0.463976 0.208237 0.135455
0.547603 0.215935 0.146417
0.614554 0.225407 0.158006
0.667989 0.235576 0.169374
0.716826 0.24493 0.180179
0.762708 0.252896 0.19019
0.805935 0.258969 0.19906
0.844828 0.263504 0.206729
0.876349 0.266611 0.212961
0.903398 0.26969 0.218541
0.083017 0.259706 0.129482
0.094752 0.266344 0.131453
0.134103 0.27316 0.130899
0.207191 0.274947 0.132928
0.294566 0.277619 0.139736
0.384267 0.283678 0.14704
0.472137 0.289805 0.153437
0.554204 0.296111 0.162003
0.620981 0.303751 0.172269
0.674692 0.311945 0.182921
0.724034 0.318847 0.193211
0.77045 0.323686 0.202639
0.813997 0.325953 0.210799
0.85302 0.326065 0.217684
0.884303 0.324479 0.223036
0.910879 0.323483 0.227888
0.11675 0.352438 0.155154
0.12406 0.355674 0.154619
0.1585 0.36157 0.153132
0.226943 0.363886 0.154366
0.313573 0.363641 0.159487
0.404769 0.367076 0.169603
0.489955 0.372271 0.178807
0.569019 0.378613 0.186604
0.634491 0.38645 0.195636
0.687935 0.394185 0.205263
0.737133 0.399892 0.214513
0.783517 0.40275 0.222776
0.826658 0.401793 0.2294
0.865301 0.398056 0.234724
0.895628 0.391996 0.238438
0.921523 0.386965 0.241906
0.149194 0.441343 0.181297
0.155499 0.443328 0.179826
0.187625 0.448729 0.178925
0.251953 0.452276 0.180898
0.336194 0.453863 0.185294
0.429392 0.454471 0.194027
0.519497 0.460406 0.20684
0.598386 0.466187 0.218182
0.662015 0.473582 0.228469
0.71379 0.480949 0.238015
0.761175 0.48551 0.246074
0.805863 0.486462 0.252472
0.847326 0.483028 0.256838
0.884068 0.475802 0.259461
0.912082 0.465729 0.260531
0.935945 0.457229 0.26185
0.184975 0.528873 0.210407
0.190516 0.5306 0.209263
0.223335 0.535907 0.209631
0.285577 0.540839 0.213032
0.366387 0.544576 0.217908
0.460669 0.546478 0.225567
0.553375 0.550519 0.238118
0.637222 0.558013 0.252887
0.7009 0.564288 0.265439
0.751482 0.57006 0.276239
0.796817 0.57308 0.284653
0.838265 0.571962 0.289967
0.876455 0.565741 0.291971
0.909982 0.55567 0.291763
0.933127 0.542048 0.289445
0.953303 0.530291 0.28787
0.226143 0.614699 0.244804
0.23156 0.616275 0.243995
0.266944 0.621388 0.245907
0.327713 0.626895 0.250507
0.405079 0.63175 0.25589
0.496677 0.634871 0.262762
0.591199 0.638206 0.274343
0.676638 0.644382 0.289108
0.746222 0.65422 0.305295
0.796029 0.658344 0.316831
0.839416 0.659175 0.325371
0.878291 0.655783 0.330364
0.912558 0.647418 0.33142
0.941217 0.634551 0.328986
0.955815 0.618093 0.3236
0.969478 0.60393 0.319282
0.272773 0.696112 0.282966
0.279279 0.697241 0.28247
0.316139 0.701888 0.285905
0.374594 0.707314 0.291147
0.448051 0.712104 0.296551
0.534796 0.715844 0.302629
0.628139 0.718689 0.312618
0.71438 0.723408 0.326219
0.784375 0.731349 0.341798
0.842441 0.742155 0.358124
0.885041 0.741094 0.366566
0.921256 0.735229 0.371136
0.950565 0.724725 0.37141
0.968699 0.709575 0.367243
0.974551 0.690803 0.359664
0.981016 0.674629 0.353118
0.322149 0.77066 0.320836
0.329151 0.771356 0.320625
0.364861 0.775615 0.32532
0.419311 0.78025 0.33034
0.487873 0.784673 0.335224
0.56873 0.788085 0.34027
0.657895 0.790238 0.347987
0.743604 0.793135 0.359555
0.814312 0.799456 0.373763
0.870713 0.808112 0.390191
0.923422 0.816724 0.408144
0.955045 0.809488 0.413206
0.976329 0.797031 0.411099
0.984274 0.780078 0.405273
0.984724 0.759071 0.396358
0.985792 0.741098 0.388086
0.367099 0.836685 0.353918
0.373573 0.837333 0.354032
0.407449 0.840969 0.359219
0.456779 0.844515 0.363563
0.519767 0.848075 0.367638
0.594155 0.850523 0.37178
0.677469 0.851518 0.378101
0.761658 0.852548 0.389251
0.832627 0.856362 0.405004
0.886526 0.862686 0.424502
0.934828 0.869264 0.447274
0.972146 0.875855 0.471913
0.98599 0.862974 0.468177
0.989784 0.845486 0.45731
0.989189 0.823175 0.443124
0.988393 0.803966 0.429268
0.403386 0.890651 0.380304
0.409373 0.891091 0.380534
0.441182 0.893572 0.386023
0.485971 0.895971 0.390084
0.544296 0.898258 0.394473
0.613342 0.898978 0.399364
0.691089 0.898921 0.407239
0.771479 0.897996 0.420087
0.842192 0.899125 0.439072
0.894785 0.903436 0.463082
0.939026 0.90759 0.490235
0.973145 0.912803 0.520073
0.990185 0.917148 0.549931
0.992813 0.90466 0.534216
0.992017 0.882252 0.511528
0.991102 0.863119 0.490404
0.431771 0.931543 0.40054
0.437373 0.931687 0.40093
0.468172 0.932952 0.407126
0.509675 0.93398 0.411769
0.564813 0.934004 0.417597
0.630616 0.933188 0.425746
0.703378 0.932177 0.437244
0.778198 0.930313 0.453269
0.845982 0.929874 0.475298
0.898258 0.93176 0.502184
0.940516 0.934328 0.53257
0.971975 0.936898 0.56464
0.989526 0.940243 0.597719
0.995301 0.943415 0.630683
0.994485 0.928066 0.600016
0.993694 0.913875 0.571958
0.460351 0.952404 0.419487
0.466163 0.952488 0.420444
0.497997 0.952211 0.42895
0.537781 0.951317 0.435376
0.589963 0.94977 0.443758
0.65153 0.948051 0.454819
0.718362 0.946101 0.469022
0.78702 0.944385 0.487562
0.850604 0.943038 0.51068
0.901876 0.943706 0.538476
0.941494 0.945545 0.569082
0.97034 0.947643 0.600491
0.987328 0.950302 0.632044
0.994681 0.952957 0.662694
0.996153 0.955159 0.68801
0.995745 0.947281 0.662893
0.482366 0.965009 0.433575
0.488166 0.964815 0.434726
0.520141 0.963638 0.444774
0.557835 0.961961 0.45206
0.606946 0.959611 0.461685
0.664551 0.957297 0.474048
0.727091 0.954852 0.489507
0.791065 0.952719 0.508702
0.851527 0.951353 0.532161
0.902202 0.95133 0.559543
0.940644 0.95262 0.589878
0.969653 0.95404 0.620342
0.986287 0.956038 0.650599
0.994286 0.958355 0.679604
0.996539 0.961049 0.706585
0.996757 0.96352 0.727407
0.01256 0.013136 0.035955
0.022182 0.01799 0.046442
0.050617 0.0277 0.061837
0.081664 0.03506 0.067756
0.133104 0.042815 0.083592
0.217564 0.051868 0.106755
0.327804 0.067469 0.130831
0.438038 0.088265 0.150251
0.547893 0.112653 0.173406
0.616497 0.128013 0.187207
0.673966 0.141434 0.197902
0.725636 0.154954 0.206093
0.773305 0.166923 0.212362
0.815964 0.1773 0.217174
0.850221 0.185683 0.220483
0.879778 0.193133 0.223608
0.025589 0.037113 0.070731
0.012567 0.013144 0.03598
0.049761 0.027474 0.061769
0.096041 0.045977 0.079939
0.162836 0.058164 0.101071
0.267757 0.069029 0.128555
0.388127 0.086082 0.152344
0.492768 0.104777 0.168483
0.569745 0.12137 0.180333
0.629334 0.135991 0.19073
0.683176 0.149639 0.19991
0.733143 0.162242 0.207717
0.779814 0.17354 0.21391
0.821532 0.183337 0.218678
0.85531 0.191339 0.22206
0.88413 0.198398 0.225209
0.044611 0.105964 0.127658
0.050577 0.105805 0.130076
0.100033 0.110398 0.140259
0.15926 0.117217 0.1342
0.235757 0.12193 0.141976
0.340098 0.125273 0.157372
0.441966 0.133645 0.168756
0.530897 0.145523 0.178285
0.600792 0.158758 0.187889
0.655795 0.172011 0.197293
0.705887 0.184731 0.205979
0.752653 0.196509 0.213698
0.796779 0.206959 0.220118
0.836575 0.216016 0.225409
0.868696 0.223526 0.229477
0.896215 0.230298 0.233236
0.061244 0.178154 0.147211
0.071072 0.182433 0.150662
0.116241 0.189989 0.156327
0.185711 0.193583 0.156458
0.271107 0.197408 0.160164
0.369792 0.20101 0.16689
0.463747 0.206732 0.174031
0.548281 0.214973 0.182726
0.615806 0.225771 0.192864
0.669751 0.238012 0.203654
0.718983 0.249975 0.214093
0.765648 0.261054 0.223869
0.809422 0.270689 0.232481
0.849192 0.278922 0.23999
0.881272 0.285803 0.246208
0.908748 0.292036 0.251731
0.084541 0.262484 0.166784
0.096836 0.269159 0.170813
0.135825 0.276175 0.173186
0.204918 0.278737 0.173067
0.291206 0.281008 0.177476
0.382175 0.285558 0.181511
0.472355 0.290892 0.186035
0.555791 0.296962 0.193559
0.623286 0.305491 0.203558
0.677458 0.315153 0.214408
0.727402 0.324159 0.225056
0.774236 0.33162 0.234888
