site/assets/luts/freshluts--0000290-brown-bm.cube
# LUTr-Schema-Version: 2
# LUTr-ID: freshluts--0000290-brown-bm
# LUTr-Title: brown BM
# LUTr-Collection: Fresh LUTs
# LUTr-Collection-ID: freshluts-community
# LUTr-Source: https://freshluts.com
# LUTr-Retrieved: 2026-07-27
# LUTr-Source-File: submissions-raw/freshluts/cubes/290__kahve_3.A020_08241333_C001.cube
# LUTr-Source-Format: CUBE
# LUTr-Source-SHA256: fad276ee4bec7547271f78b1decc8e3d0b61e012a67fbc6b6fbb66143cb8d378
# LUTr-License: CC0-1.0
# LUTr-License-URL: https://freshluts.com/termsandconditions
# LUTr-License-Basis: site-terms
# LUTr-Transform-Class: creative-look
# LUTr-Tags: creative, freshluts, community, cube, brown, bmd-film-4k
# LUTr-Input-Color-Space:
# LUTr-Input-Gamut: bmd-film-gamut
# LUTr-Input-Transfer: bmd-film-4k
# LUTr-Output-Color-Space: srgb
# LUTr-Output-Gamut: rec709
# LUTr-Output-Transfer: srgb
# LUTr-Color-Space-Confidence: camera-profile-input-required
# LUTr-Domain-Normalized: true
# LUTr-Shaper: none
# LUTr-Original-Grid: 33x33x33
# LUTr-Conversion-Grid: 33x33x33
# LUTr-Conversion-Interpolation: none
# LUTr-Conversion-Method: Metadata normalization; numeric LUT samples preserved
# LUTr-Conversion-Tool: LUTr scripts/convert-all-to-cube.mjs 2.0.0
# LUTr-Conversion-Date: 2026-07-28
# LUTr-Asset-URL: https://freshluts.com/luts/290
# LUTr-Author: berat
# LUTr-Author-URL: https://freshluts.com/users/10185
# LUTr-Attribution: berat via Fresh LUTs
# LUTr-Source-Labels: gamma=Blackmagic BMD Film 4K; color=Brown; key=Neutral; style=Retro
# LUTr-Note: Preserve this metadata and the upstream license notices when redistributing.
TITLE "brown BM"
LUT_3D_SIZE 33
DOMAIN_MIN 0 0 0
DOMAIN_MAX 1 1 1
0.0330053 0.032166 0.03093
0.0333867 0.0321965 0.0309148
0.0349432 0.0323033 0.0308232
0.0381476 0.0324407 0.0305486
0.0432593 0.0327153 0.0301671
0.0504921 0.0332189 0.0297093
0.0594644 0.0336309 0.029099
0.0700694 0.0343175 0.0281987
0.0820935 0.0349126 0.0267796
0.0959182 0.0354314 0.0248569
0.111757 0.0357671 0.0224308
0.130541 0.0358129 0.0191653
0.152529 0.0352483 0.0146944
0.175891 0.034638 0.00946059
0.199664 0.0342565 0.00370794
0.223819 0.0342718 0.000686656
0.248447 0.0346838 0
0.273518 0.0355383 0
0.299229 0.0369879 0
0.325597 0.0391394 0
0.352621 0.0422065 0
0.380957 0.0463417 0
0.411231 0.0522469 0
0.442786 0.0596933 0
0.477638 0.0700999 0
0.514504 0.0827955 0
0.553414 0.0978866 0
0.594873 0.116381 0
0.638117 0.138964 0
0.685603 0.166583 0
0.739956 0.201434 0
0.805249 0.246891 0
0.888914 0.310201 0
0.0332189 0.0326238 0.0310369
0.0335546 0.0326543 0.0310216
0.0351568 0.0327611 0.03093
0.0382544 0.0328374 0.0305943
0.0434577 0.0331731 0.0302586
0.0507515 0.0336461 0.0298619
0.0596628 0.0340734 0.0292058
0.0702373 0.0347601 0.028275
0.0822461 0.0353552 0.0268711
0.0960708 0.0358587 0.0249485
0.11191 0.0361944 0.0225223
0.130602 0.0361639 0.0191653
0.152621 0.0356146 0.014725
0.175967 0.0350042 0.00949111
0.19971 0.0346075 0.00367742
0.223865 0.0346532 0.000640879
0.2486 0.0350958 0
0.27364 0.0359655 0
0.299351 0.0374304 0
0.325719 0.0395666 0
0.352743 0.0426337 0
0.381109 0.0467842 0
0.411353 0.0526894 0
0.442954 0.0601511 0
0.477806 0.0705577 0
0.514656 0.0832227 0
0.553521 0.0982986 0
0.59501 0.116732 0
0.638163 0.139315 0
0.685618 0.166873 0
0.739986 0.201678 0
0.805264 0.247089 0
0.888899 0.310323 0
0.0339971 0.0344244 0.0314488
0.0343786 0.0344396 0.0314183
0.0360266 0.0345312 0.0313115
0.0392462 0.0347448 0.0311131
0.0444495 0.0350805 0.0307774
0.0514839 0.0354162 0.0301823
0.0604257 0.035996 0.0295109
0.0708324 0.0365301 0.0285496
0.0828565 0.0371862 0.0272068
0.0968185 0.037705 0.0254368
0.112673 0.0380407 0.0229953
0.131273 0.0380102 0.0195468
0.153323 0.0373693 0.0151522
0.176516 0.0368048 0.00984207
0.200397 0.0364385 0.00424201
0.224414 0.0365301 0.000701915
0.249149 0.0369421 0
0.27425 0.0377508 0
0.299855 0.0390784 0
0.326299 0.0413825 0
0.353368 0.0443732 0
0.381857 0.0486458 0
0.411749 0.0543526 0
0.443793 0.0620432 0
0.478477 0.0725109 0
0.515297 0.0850538 0
0.553964 0.100038 0
0.595422 0.118288 0
0.638437 0.140749 0
0.68574 0.168154 0
0.740063 0.202762 0
0.805249 0.247776 0
0.888899 0.310887 0
0.035935 0.0383307 0.0323949
0.0363165 0.0383459 0.0323644
0.0379644 0.0384222 0.0322728
0.0410315 0.0384985 0.0319371
0.0461891 0.0388342 0.0316014
0.0532845 0.0392767 0.0311131
0.0619516 0.0397192 0.0302892
0.0721904 0.0402991 0.0293126
0.0842451 0.0409247 0.0280461
0.0981155 0.0413977 0.0261845
0.114046 0.0417029 0.0236362
0.132647 0.0416419 0.0203098
0.154665 0.0409857 0.0157931
0.177783 0.0403906 0.0106966
0.201511 0.0401923 0.00535592
0.225559 0.040116 0.00077821
0.250172 0.0404364 0
0.275242 0.0412604 0
0.30103 0.0428168 0
0.327199 0.0449531 0
0.354406 0.0479438 0
0.383169 0.052491 0
0.413046 0.0580758 0
0.445075 0.0657816 0
0.479667 0.0761425 0
0.516426 0.0884565 0
0.555001 0.103487 0
0.595789 0.121279 0
0.638575 0.143404 0
0.685969 0.170733 0
0.740261 0.204913 0
0.805386 0.249302 0
0.888991 0.312154 0
0.0386511 0.0443122 0.0335699
0.0390173 0.0443275 0.0335393
0.0406348 0.0444038 0.0334478
0.0438239 0.0446021 0.0333104
0.0489509 0.0449073 0.0329595
0.0556954 0.0452277 0.0323491
0.0643015 0.0457771 0.0316625
0.0746014 0.0462348 0.0306554
0.0864576 0.0469215 0.0293736
0.100221 0.0473487 0.0275578
0.116304 0.0475319 0.024918
0.134997 0.0473182 0.0216373
0.156664 0.0466773 0.0171206
0.179736 0.0461585 0.0122377
0.203464 0.0458228 0.00677501
0.22739 0.045716 0.000961318
0.251896 0.0459602 0
0.277104 0.0468605 0
0.302815 0.0484321 0
0.329 0.0506142 0
0.356298 0.0536965 0
0.385168 0.0582742 0
0.415015 0.063859 0
0.447547 0.0720989 0
0.48188 0.0822156 0
0.518273 0.0943313 0
0.55613 0.108721 0
0.59678 0.12636 0
0.639078 0.148074 0
0.686366 0.174578 0
0.740475 0.207996 0
0.805615 0.252049 0
0.889143 0.314153 0
0.0427558 0.0526436 0.0355688
0.0431373 0.0526589 0.0355383
0.0447547 0.0527504 0.0354314
0.0477913 0.0528115 0.0350958
0.0527504 0.0531014 0.0347601
0.0594339 0.0535134 0.0342718
0.0676585 0.0539101 0.0335088
0.0778363 0.0544594 0.0326238
0.0896315 0.0548714 0.0312657
0.103197 0.0552071 0.0293126
0.119387 0.0553902 0.0268864
0.13814 0.0551308 0.0234073
0.159991 0.0544289 0.0192111
0.182818 0.0538491 0.0142672
0.206287 0.0534066 0.00903334
0.230137 0.0533303 0.00320439
0.254688 0.0537423 0
0.279545 0.0547951 0
0.305165 0.0562295 0
0.331716 0.0585794 0
0.359304 0.0618906 0
0.388052 0.0663005 0
0.418067 0.072343 0
0.450706 0.080705 0
0.484703 0.0903944 0
0.520424 0.102205 0
0.558129 0.116289 0
0.597513 0.133288 0
0.639689 0.154253 0
0.686778 0.180163 0
0.740887 0.212802 0
0.805905 0.255894 0
0.889357 0.316991 0
0.0480964 0.0627909 0.038056
0.0484627 0.0628061 0.0380407
0.0500343 0.0628824 0.0379644
0.0530098 0.062974 0.0377356
0.0577707 0.0631723 0.0373999
0.0641794 0.0635538 0.0369573
0.0722057 0.0638743 0.0361334
0.0820935 0.0643778 0.0351568
0.0937514 0.0647288 0.0336767
0.107362 0.0651713 0.0320439
0.123552 0.0651865 0.0294499
0.142809 0.064744 0.0260319
0.164294 0.0640116 0.0217746
0.186648 0.063447 0.0171054
0.21004 0.0632944 0.0121614
0.233799 0.0634775 0.00672923
0.258137 0.0638895 0.00077821
0.282872 0.0647288 0
0.308675 0.0663767 0
0.335485 0.0690166 0
0.362982 0.0724498 0
0.391821 0.0772717 0
0.422385 0.0836805 0
0.454551 0.0914931 0
0.487892 0.101106 0
0.523125 0.112306 0
0.559945 0.125902 0.00030518
0.598459 0.142245 0.000259403
0.640681 0.162554 0.000137331
0.687358 0.187182 0
0.741344 0.218692 0
0.80621 0.260578 0
0.889815 0.320638 0
0.0544137 0.074464 0.0410468
0.0547036 0.0744945 0.0410468
0.0561837 0.0745861 0.04094
0.0590524 0.0747692 0.0407568
0.0635843 0.0750439 0.0404517
0.0698405 0.0754253 0.0399939
0.0776989 0.0757458 0.0392157
0.0874342 0.0762798 0.0383612
0.0991226 0.0765545 0.0370947
0.112612 0.0767681 0.035172
0.128954 0.0768139 0.032639
0.148302 0.0763104 0.0292363
0.169619 0.075761 0.0252689
0.191928 0.0753948 0.0209659
0.215 0.0753948 0.0162661
0.23856 0.0754711 0.0110475
0.262699 0.0761273 0.00535592
0.287694 0.0773938 0
0.313451 0.079469 0
0.340002 0.0820935 0
0.36762 0.085771 0
0.396841 0.0911116 0
0.427176 0.0975357 0
0.458564 0.104936 0
0.491493 0.114092 0.000427253
0.525658 0.124804 0.0010071
0.561639 0.137758 0.000976577
0.599603 0.153246 0.000595102
0.641566 0.172457 0.000244144
0.688365 0.196155 0
0.742184 0.226337 0
0.806897 0.266758 0
0.889891 0.325032 0
0.0619364 0.0881971 0.0448615
0.0622568 0.0882277 0.0448463
0.0635538 0.0883345 0.0447852
0.0663767 0.0885023 0.0446021
0.070573 0.0886244 0.0441596
0.0765545 0.0890059 0.0437324
0.0843366 0.0894484 0.0430915
0.093843 0.0897841 0.0420539
0.10544 0.0902724 0.041001
0.119371 0.0904707 0.0391852
0.135775 0.0904707 0.0366827
0.155291 0.0902113 0.0335699
0.176074 0.0897841 0.0296483
0.197971 0.0895247 0.0256046
0.220737 0.0898146 0.0212253
0.244343 0.090547 0.0166171
0.268605 0.0914626 0.0115663
0.293278 0.0928206 0.00569162
0.318776 0.0949111 0.000885023
0.345632 0.0983139 0.000686656
0.373571 0.102632 0.000915541
0.402075 0.107485 0.0009308
0.431922 0.113542 0.00137331
0.462791 0.120821 0.00198367
0.494682 0.129168 0.0019379
0.527703 0.139345 0.00157168
0.563027 0.1514 0.00131228
0.600931 0.166125 0.000808728
0.642832 0.18407 0.000564584
0.689235 0.20647 0.000015259
0.74287 0.235172 0
0.807248 0.273991 0
0.890486 0.330602 0
0.0699779 0.103853 0.0487831
0.0702983 0.103883 0.0487678
0.0715648 0.104005 0.0487221
0.074342 0.104204 0.0486
0.078584 0.10454 0.0484016
0.0843061 0.104829 0.0479133
0.0919814 0.105348 0.047425
0.10161 0.105852 0.0467384
0.11313 0.106142 0.0454566
0.127153 0.106401 0.0437934
0.144076 0.106447 0.041413
0.163287 0.10634 0.0385138
0.184085 0.106615 0.0353552
0.205753 0.106844 0.0317082
0.228168 0.10724 0.0275578
0.251164 0.10808 0.0230411
0.275257 0.109728 0.0184939
0.300145 0.111757 0.0135348
0.325643 0.114382 0.00772107
0.35201 0.117479 0.00350958
0.379355 0.121523 0.00350958
0.407462 0.12639 0.00347906
0.436194 0.131899 0.00314336
0.46598 0.13872 0.00292973
0.497398 0.146731 0.00267033
0.530037 0.156008 0.00215152
0.564874 0.167147 0.00163272
0.602564 0.180713 0.00112917
0.644099 0.197436 0.000717174
0.690486 0.218296 0.000335698
0.743709 0.245426 0
0.808148 0.282673 0
0.890883 0.336904 0
0.0786145 0.122164 0.0526131
0.0788586 0.12221 0.0526284
0.0801862 0.122316 0.0526131
0.0828565 0.12253 0.0525978
0.0870222 0.122896 0.0525368
0.0930343 0.123384 0.0523384
0.100481 0.123857 0.0518502
0.110292 0.124575 0.0512856
0.12221 0.125048 0.0501564
0.136614 0.125628 0.0487984
0.153582 0.125704 0.0466773
0.172625 0.125994 0.0441901
0.192645 0.12636 0.0413825
0.214267 0.127047 0.0383764
0.236606 0.128389 0.0352178
0.259556 0.129885 0.0314336
0.283085 0.13164 0.0270237
0.307347 0.133639 0.022034
0.332387 0.136324 0.0162814
0.357748 0.139239 0.00944533
0.383902 0.14284 0.00460822
0.411322 0.147295 0.00433356
0.439658 0.152529 0.00392157
0.46894 0.158434 0.00328069
0.499687 0.165713 0.00294499
0.532158 0.174075 0.00225834
0.567102 0.184421 0.00210575
0.604425 0.196841 0.00146487
0.645365 0.212024 0.000823987
0.691691 0.231708 0.000457771
0.744701 0.257084 0
0.808927 0.292332 0
0.891524 0.344549 0
0.0885634 0.144152 0.0571603
0.0888685 0.144183 0.0571603
0.0901961 0.144305 0.0571145
0.0927291 0.144579 0.057084
0.0969406 0.144961 0.0569619
0.102693 0.145525 0.0567941
0.11017 0.146014 0.0563058
0.120241 0.146715 0.0558785
0.132326 0.147585 0.0551919
0.147234 0.148104 0.0537881
0.164416 0.148928 0.0523384
0.18291 0.14963 0.0504616
0.202686 0.15053 0.0482948
0.22359 0.151644 0.0458839
0.245045 0.152819 0.0426642
0.26743 0.154482 0.039292
0.290364 0.156115 0.0349737
0.314153 0.157931 0.0300908
0.338231 0.160143 0.0242008
0.362921 0.162692 0.0174258
0.388769 0.16585 0.00967422
0.415244 0.169574 0.00450141
0.443214 0.174212 0.0041352
0.472129 0.179385 0.00349432
0.502571 0.185916 0.00318914
0.534997 0.193683 0.00277714
0.569162 0.202823 0.00215152
0.606256 0.21413 0.00155642
0.647044 0.228244 0.00117494
0.692851 0.246159 0.000549325
0.745998 0.270008 0.000213626
0.809888 0.303166 0
0.892058 0.352941 0
0.100984 0.169955 0.0629892
0.101305 0.170001 0.0629892
0.102495 0.170184 0.0630655
0.105196 0.170489 0.0631266
0.109422 0.170977 0.0631571
0.115557 0.171603 0.0630961
0.123415 0.172259 0.0628672
0.133364 0.1729 0.0623484
0.146014 0.173632 0.0616312
0.160403 0.174121 0.0603952
0.176806 0.174914 0.0592203
0.194537 0.175525 0.0575418
0.213672 0.176562 0.0557717
0.233402 0.177523 0.0533608
0.254368 0.178866 0.0507973
0.275731 0.180148 0.0473487
0.29807 0.181521 0.0433814
0.321233 0.183383 0.0390173
0.344671 0.18529 0.0332952
0.368811 0.187472 0.026627
0.393866 0.189929 0.0188144
0.419669 0.192889 0.00943008
0.446967 0.196872 0.00433356
0.475273 0.201541 0.00355535
0.505547 0.207294 0.00318914
0.537408 0.214252 0.0028687
0.571527 0.222416 0.00222782
0.608316 0.232639 0.00164797
0.648859 0.245518 0.00129702
0.694469 0.262119 0.000869764
0.747433 0.284153 0.000503548
0.810834 0.315221 0.0000762951
0.892668 0.362371 0
0.117113 0.197955 0.0710613
0.117418 0.197971 0.071046
0.118746 0.198093 0.0710307
0.121386 0.198352 0.0710155
0.12549 0.198749 0.070985
0.131411 0.199252 0.0708629
0.139513 0.199771 0.0705425
0.149599 0.200031 0.0697337
0.161624 0.200656 0.0692149
0.175692 0.20119 0.0682994
0.190967 0.201724 0.0669566
0.207782 0.202564 0.065507
0.225345 0.203296 0.0637064
0.244495 0.204364 0.0616312
0.264317 0.205295 0.0590524
0.28484 0.206409 0.0558938
0.306752 0.207828 0.0526284
0.328817 0.209247 0.0483253
0.35169 0.210849 0.043061
0.375555 0.212955 0.0369116
0.4 0.21503 0.0294347
0.425147 0.217533 0.020264
0.451438 0.220386 0.00939956
0.479194 0.224353 0.00367742
0.509056 0.22945 0.00334173
0.540551 0.235676 0.0030518
0.573983 0.243015 0.00239567
0.610758 0.252399 0.00215152
0.65098 0.264042 0.0015259
0.696361 0.27924 0.00117494
0.748653 0.299596 0.00062562
0.8121 0.328359 0.000335698
0.893599 0.372763 0.0000915541
0.13611 0.226184 0.0800336
0.136385 0.226215 0.0800336
0.137575 0.226322 0.0800183
0.140307 0.226444 0.0798962
0.144503 0.226673 0.0797284
0.150622 0.226932 0.079408
0.158343 0.227298 0.0790723
0.167636 0.227466 0.0783703
0.17882 0.228016 0.0776989
0.191836 0.228565 0.0767834
0.205921 0.228992 0.0754406
0.221637 0.229755 0.0741894
0.238331 0.23035 0.072343
0.256428 0.231296 0.0703899
0.275273 0.232074 0.0679332
0.295109 0.23331 0.0652476
0.315969 0.234287 0.0620737
0.337469 0.235798 0.0584115
0.359747 0.237186 0.0536355
0.382605 0.238819 0.0478676
0.406531 0.240681 0.041062
0.431235 0.242954 0.0324712
0.456855 0.245411 0.0217899
0.483696 0.248295 0.00886549
0.512688 0.252445 0.00349432
0.543801 0.257954 0.00299077
0.577203 0.264729 0.00271611
0.61323 0.272892 0.002121
0.653117 0.28336 0.0015259
0.698146 0.297154 0.0011902
0.750042 0.315801 0.000671397
0.813291 0.342718 0.000411994
0.894438 0.384298 0.000122072
0.157656 0.2542 0.0892958
0.157946 0.254215 0.0892805
0.159197 0.254261 0.0892195
0.161517 0.254414 0.0891737
0.165515 0.254551 0.0889906
0.170947 0.254795 0.0887465
0.178042 0.2551 0.0883345
0.186557 0.255192 0.0875105
0.196963 0.255634 0.0868086
0.208957 0.256123 0.0859236
0.222049 0.256596 0.0847486
0.236545 0.257176 0.0834821
0.25243 0.257954 0.0820325
0.2692 0.258549 0.0799878
0.287434 0.259419 0.0781567
0.306294 0.260197 0.0753796
0.326146 0.261219 0.072343
0.346716 0.262455 0.0688029
0.368215 0.263661 0.064271
0.390646 0.265354 0.0593729
0.414084 0.26685 0.053315
0.438056 0.268696 0.0454261
0.463279 0.271061 0.0358129
0.489586 0.273426 0.02327
0.517128 0.276356 0.0075227
0.547387 0.280949 0.00315862
0.58056 0.286885 0.00283818
0.615991 0.294224 0.00207523
0.655833 0.3037 0.0018616
0.700236 0.316182 0.00128176
0.751919 0.333303 0.000915541
0.814359 0.357839 0.000442512
0.895354 0.396857 0.00015259
0.180377 0.282246 0.0996262
0.180652 0.282246 0.0996109
0.181781 0.282292 0.0995651
0.184085 0.282353 0.0994583
0.187503 0.282521 0.0993362
0.192554 0.282704 0.0990463
0.198993 0.282979 0.0986496
0.206714 0.283055 0.0978866
0.216159 0.283406 0.0971847
0.226902 0.283909 0.0963912
0.239246 0.284367 0.0952926
0.252522 0.284764 0.0940108
0.267552 0.285405 0.0925612
0.283391 0.285863 0.0906844
0.30042 0.286717 0.088777
0.318257 0.287419 0.0860914
0.33727 0.288487 0.0833448
0.356832 0.289433 0.0798962
0.377752 0.290715 0.076112
0.399176 0.291951 0.0713512
0.422171 0.293538 0.0659037
0.445533 0.295186 0.0589151
0.469963 0.297047 0.0502174
0.495781 0.299107 0.0392004
0.522942 0.301778 0.0243229
0.551736 0.304646 0.00521859
0.583841 0.309911 0.0027924
0.619242 0.316289 0.0021973
0.658335 0.324987 0.00198367
0.702586 0.336202 0.00141909
0.753689 0.351537 0.000885023
0.815946 0.374258 0.000671397
0.89659 0.410452 0.000350958
0.203937 0.310369 0.111269
0.204181 0.310384 0.111254
0.205188 0.310414 0.111192
0.207248 0.310475 0.111086
0.210346 0.310613 0.110948
0.214893 0.31078 0.110613
0.22063 0.311025 0.110216
0.227695 0.311223 0.109575
0.236118 0.311421 0.108751
0.246143 0.311818 0.107927
0.257557 0.312261 0.106996
0.26981 0.312535 0.105669
0.283696 0.313085 0.104387
0.298497 0.313756 0.102724
0.314229 0.314305 0.100557
0.331243 0.31516 0.0984512
0.349065 0.315847 0.0955062
0.368109 0.31693 0.0924697
0.387915 0.317845 0.0885023
0.40882 0.319203 0.0842451
0.430732 0.320363 0.0790112
0.453391 0.321782 0.0727245
0.477714 0.323674 0.0649729
0.502983 0.325505 0.055314
0.529488 0.327642 0.042298
0.557519 0.330343 0.0244297
0.58793 0.33344 0.00282292
0.622675 0.339208 0.00241093
0.661387 0.346868 0.00204471
0.704997 0.356924 0.0016022
0.755962 0.371069 0.00111391
0.817777 0.39176 0.000915541
0.897688 0.425223 0.000503548
0.22829 0.338628 0.124758
0.228504 0.338628 0.124743
0.229419 0.338659 0.124681
0.231266 0.33872 0.124559
0.234195 0.338811 0.124346
0.238102 0.338979 0.124102
0.243473 0.339132 0.123796
0.249912 0.339345 0.123354
0.25742 0.339437 0.122469
0.266468 0.339818 0.12166
0.276814 0.34023 0.120668
0.28806 0.340612 0.119371
0.300725 0.341039 0.11783
0.314504 0.34168 0.116335
0.329168 0.342107 0.114076
0.345296 0.34287 0.111742
0.362081 0.343511 0.10901
0.380118 0.344442 0.105882
0.399115 0.345541 0.102525
0.419028 0.346456 0.0984207
0.440085 0.347494 0.09337
0.462287 0.349081 0.0875563
0.485649 0.350515 0.0802014
0.510201 0.352285 0.0714122
0.536583 0.354376 0.0603494
0.564218 0.356573 0.0449836
0.593759 0.358938 0.0228428
0.626368 0.362722 0.00218204
0.664637 0.369574 0.00195315
0.707698 0.378592 0.00149538
0.758282 0.391211 0.00123598
0.819471 0.41004 0.000839246
0.899016 0.441062 0.000656138
0.253407 0.367102 0.140398
0.253605 0.367117 0.140383
0.254398 0.367132 0.140307
0.256031 0.367193 0.140169
0.258625 0.367269 0.139925
0.262058 0.367453 0.139635
0.26685 0.367605 0.139178
0.272328 0.367575 0.138369
0.279286 0.367849 0.137865
0.287449 0.368185 0.137057
0.296818 0.368566 0.136049
0.307408 0.369009 0.134844
0.318883 0.369223 0.13315
0.331548 0.369833 0.131548
0.345556 0.370428 0.129824
0.360189 0.370886 0.127367
0.37615 0.371695 0.124834
0.392905 0.37229 0.121782
0.411032 0.373297 0.118242
0.430198 0.374044 0.114137
0.450584 0.37528 0.109361
0.471672 0.376471 0.103578
0.494575 0.378042 0.0969711
0.51841 0.379629 0.0885023
0.544015 0.381338 0.0783703
0.571405 0.383612 0.0652323
0.600671 0.38587 0.0468452
0.631861 0.388281 0.0184176
0.668223 0.393133 0.00205997
0.710918 0.401053 0.00155642
0.760586 0.412497 0.0011902
0.821668 0.429694 0.00103761
0.900587 0.457969 0.000808728
0.279133 0.395911 0.158495
0.279301 0.395926 0.15848
0.280003 0.395941 0.158404
0.281468 0.395987 0.158267
0.283757 0.396063 0.158038
0.286809 0.396216 0.157778
0.290974 0.396277 0.157275
0.295888 0.396307 0.156573
0.302312 0.396521 0.155886
0.309651 0.396811 0.155093
0.318105 0.397162 0.154131
0.327657 0.397513 0.153109
0.338109 0.397711 0.151522
0.349722 0.39826 0.14992
0.362646 0.398825 0.147982
0.376165 0.399222 0.145556
0.391287 0.399908 0.143114
0.407462 0.400656 0.140108
0.424323 0.401328 0.136507
0.442573 0.402365 0.132387
0.461723 0.40322 0.127565
0.482124 0.404486 0.12221
0.50399 0.405737 0.115419
0.527092 0.407202 0.107164
0.552529 0.409003 0.0979324
0.579126 0.410956 0.0855726
0.607706 0.413184 0.0695048
0.6392 0.415625 0.0466621
0.672847 0.418067 0.00854505
0.714107 0.424659 0.00148013
0.763348 0.434745 0.00103761
0.823758 0.450248 0.000946059
0.90219 0.475944 0.00077821
0.305791 0.425254 0.177768
0.305928 0.425254 0.177752
0.306554 0.425284 0.177707
0.307836 0.425315 0.177615
0.309865 0.425376 0.177462
0.312535 0.425391 0.177172
0.31603 0.425361 0.176638
0.320684 0.425528 0.17615
0.326284 0.425742 0.175555
0.33283 0.426032 0.174838
0.340414 0.426337 0.173953
0.349035 0.426673 0.172885
0.358511 0.426795 0.171405
0.369329 0.427207 0.170016
0.381231 0.427665 0.168536
0.393652 0.427985 0.166262
0.407645 0.428611 0.163836
0.422538 0.429358 0.161135
0.43827 0.429923 0.157717
0.455482 0.430884 0.153796
0.473625 0.431662 0.149065
0.493385 0.432868 0.143587
0.514275 0.433967 0.136706
0.53698 0.435523 0.129122
0.561212 0.437003 0.119554
0.587335 0.438972 0.107683
0.615763 0.441245 0.0929122
0.646616 0.44358 0.0731212
0.680079 0.445991 0.0425727
0.71812 0.449104 0.00144961
0.766964 0.458351 0.00137331
0.826123 0.471977 0.000961318
0.903944 0.495186 0.000686656
0.333562 0.455039 0.198505
0.333684 0.455039 0.198489
0.334203 0.455024 0.198398
0.335271 0.454994 0.19823
0.337041 0.455039 0.198032
0.339361 0.455177 0.197833
0.342687 0.455268 0.197467
0.346899 0.45539 0.197024
0.351766 0.455619 0.196521
0.357565 0.455863 0.19588
0.364477 0.456107 0.195071
0.372076 0.45623 0.193957
0.380682 0.456474 0.192981
0.390417 0.456855 0.191653
0.400946 0.457374 0.190173
0.412467 0.457588 0.188067
0.425345 0.458137 0.185916
0.439063 0.458793 0.183673
0.45388 0.459205 0.180377
0.469932 0.460044 0.177127
0.487266 0.461021 0.17293
0.505669 0.46183 0.167849
0.525933 0.46305 0.161822
0.547311 0.46424 0.154376
0.570672 0.465629 0.144854
0.596185 0.467674 0.133181
0.623819 0.469718 0.118715
0.654322 0.472068 0.0999771
0.688212 0.474907 0.0742962
0.725002 0.47715 0.0306554
0.770397 0.482856 0.00134279
0.829007 0.495033 0.0009308
0.906203 0.516121 0.000839246
0.362509 0.485908 0.220279
0.362631 0.485908 0.220264
0.363119 0.485924 0.220218
0.364065 0.485954 0.220127
0.365438 0.486046 0.22002
0.367651 0.486122 0.219776
0.370565 0.486198 0.219471
0.374166 0.486336 0.219089
0.378515 0.486503 0.218738
0.383612 0.486702 0.218311
0.389624 0.486732 0.217411
0.396368 0.4869 0.21648
0.40415 0.487221 0.215503
0.412879 0.487572 0.214359
0.422583 0.487968 0.212985
0.433005 0.488136 0.211109
0.444724 0.488609 0.209461
0.457313 0.489219 0.207309
0.470954 0.489555 0.20441
0.485832 0.490288 0.201617
0.502129 0.491096 0.198123
0.519417 0.491768 0.193591
0.53843 0.492866 0.188418
0.558831 0.493874 0.181781
0.581384 0.495399 0.173678
0.605661 0.496986 0.162966
0.632609 0.498863 0.149172
0.662806 0.501488 0.13051
0.696071 0.504356 0.10602
0.733547 0.507149 0.0708629
0.774472 0.50869 0.00109865
0.83241 0.519509 0.000946059
0.908476 0.538354 0.000961318
0.39292 0.51812 0.243946
0.393027 0.51812 0.243946
0.393439 0.518135 0.2439
0.394293 0.518151 0.243839
0.395651 0.518196 0.243732
0.397498 0.518166 0.243458
0.399817 0.51812 0.243076
0.402869 0.518181 0.24271
0.406806 0.518273 0.242283
0.411276 0.518471 0.24181
0.416754 0.518624 0.241199
0.422827 0.518853 0.240513
0.42974 0.519127 0.239704
0.437491 0.519432 0.238697
0.445945 0.519478 0.237217
0.455482 0.519875 0.235996
0.466072 0.520302 0.234455
0.477714 0.520806 0.232532
0.490166 0.521065 0.229999
0.503838 0.521737 0.227375
0.518776 0.522438 0.224445
0.534981 0.523003 0.220401
0.552758 0.52398 0.216068
0.571939 0.524834 0.210254
0.593088 0.526238 0.203342
0.616602 0.527459 0.194415
0.64242 0.529274 0.182757
0.671489 0.531624 0.166552
0.704112 0.534478 0.142977
0.741695 0.537774 0.109392
0.783993 0.540612 0.0565347
0.836118 0.545785 0.0010071
0.911162 0.562448 0.00077821
0.425315 0.551492 0.269123
0.425406 0.551492 0.269108
0.425772 0.551507 0.269078
0.42649 0.551522 0.269001
0.427466 0.551598 0.268925
0.429099 0.551659 0.268742
0.431296 0.55172 0.268498
0.434073 0.551797 0.268193
0.437263 0.551949 0.267872
0.441321 0.552071 0.267399
