site/assets/luts/freshluts--0000115-frostedbeachpicnic.cube
# LUTr-Schema-Version: 2
# LUTr-ID: freshluts--0000115-frostedbeachpicnic
# LUTr-Title: FrostedBeachPicnic
# LUTr-Collection: Fresh LUTs
# LUTr-Collection-ID: freshluts-community
# LUTr-Source: https://freshluts.com
# LUTr-Retrieved: 2026-07-27
# LUTr-Source-File: submissions-raw/freshluts/cubes/115__FrostedBeachPicnic.cube
# LUTr-Source-Format: CUBE
# LUTr-Source-SHA256: c0012b7b140d969c8d3c812b81c1d73c6acdcf81960c3a7519e9082d61c6599d
# LUTr-License: CC0-1.0
# LUTr-License-URL: https://freshluts.com/termsandconditions
# LUTr-License-Basis: site-terms
# LUTr-Transform-Class: creative-look
# LUTr-Tags: creative, freshluts, community, cube, faded, vintage, cool, canon-cinestyle
# LUTr-Input-Color-Space: canon-cinestyle
# LUTr-Input-Gamut: rec709
# LUTr-Input-Transfer: canon-cinestyle
# LUTr-Output-Color-Space: srgb
# LUTr-Output-Gamut: rec709
# LUTr-Output-Transfer: srgb
# LUTr-Color-Space-Confidence: inferred-from-source-label
# LUTr-Domain-Normalized: true
# LUTr-Shaper: none
# LUTr-Original-Grid: 33x33x33
# LUTr-Conversion-Grid: 33x33x33
# LUTr-Conversion-Interpolation: none
# LUTr-Conversion-Method: Metadata normalization; numeric LUT samples preserved
# LUTr-Conversion-Tool: LUTr scripts/convert-all-to-cube.mjs 2.0.0
# LUTr-Conversion-Date: 2026-07-28
# LUTr-Asset-URL: https://freshluts.com/luts/115
# LUTr-Author: J. T. Semple
# LUTr-Author-URL: https://freshluts.com/users/120
# LUTr-Attribution: J. T. Semple via Fresh LUTs
# LUTr-Source-Labels: gamma=Canon Cinestyle; color=Cool; key=Neutral; style=Faded
# LUTr-Note: Preserve this metadata and the upstream license notices when redistributing.
TITLE "FrostedBeachPicnic"
LUT_3D_SIZE 9
DOMAIN_MIN 0 0 0
DOMAIN_MAX 1 1 1
0 0 0
0.0379339 0 0
0.154086 0 0
0.29955 0 0
0.461173 0 0
0.618112 0 0
0.753689 0 0
0.865095 0 0
0.971664 0 0
0 0.025803 0
0.0616922 0.0303044 0
0.181338 0.0319829 0
0.332067 0.0252995 0
0.492836 0.0166781 0
0.649485 0.0117189 0
0.78468 0.0159457 0
0.900954 0.0287633 0
1 0.0466621 0.00767529
0 0.146487 0.00207523
0.0774853 0.151843 0.00669871
0.204822 0.155993 0.0102388
0.365667 0.154376 0.00791943
0.533715 0.155215 0.00776684
0.696468 0.162371 0.0134279
0.836088 0.180377 0.0293736
0.959457 0.206165 0.0525368
1 0.235569 0.0793622
0 0.292714 0.00062562
0.0847944 0.307836 0.0133669
0.227802 0.322164 0.0246128
0.402731 0.331792 0.0306706
0.580179 0.345113 0.039704
0.745144 0.364874 0.0542458
0.883299 0.395514 0.0785687
1 0.434485 0.110094
1 0.478477 0.145586
0 0.48188 0.0202945
0.115358 0.50808 0.0425422
0.27776 0.529641 0.0590982
0.46424 0.549035 0.0718547
0.65127 0.574914 0.0898756
0.815091 0.611704 0.118227
0.952377 0.656855 0.15465
1 0.701854 0.192187
1 0.742473 0.227832
0.0371099 0.704906 0.0779431
0.19173 0.74136 0.110979
0.385748 0.770474 0.136843
0.585763 0.797665 0.161822
0.768109 0.826673 0.191638
0.911818 0.860349 0.229999
1 0.891173 0.26952
1 0.918273 0.308888
1 0.943328 0.348272
0.166903 0.949065 0.215152
0.349767 0.975509 0.248005
0.54815 0.991135 0.272084
0.732754 1 0.297704
0.878523 1 0.332403
1 1 0.371374
1 1 0.408377
1 1 0.44509
1 1 0.480995
0.302113 1 0.360647
0.494179 1 0.381659
0.67837 1 0.402838
0.832532 1 0.431037
0.958175 1 0.466377
1 1 0.501015
1 1 0.536141
1 1 0.571359
1 1 0.60621
0.424048 1 0.485161
0.612192 1 0.502083
0.780041 1 0.524712
0.913024 1 0.557153
1 1 0.592157
1 1 0.626184
1 1 0.660319
1 1 0.693507
1 1 0.725231
0 0 0.0427558
0.0417487 0 0.0476234
0.158679 0 0.0518196
0.305135 0 0.0472877
0.466407 0 0.0384833
0.622904 0 0.0307927
0.757534 0 0.0285191
0.868864 0 0.0333257
0.976074 0 0.0414435
0 0.0298009 0.0678416
0.0653239 0.0339208 0.0722362
0.185367 0.0353704 0.0737926
0.337041 0.0285649 0.0670481
0.49836 0.0205844 0.0591592
0.655482 0.0165255 0.0551614
0.790829 0.0218967 0.0607156
0.90779 0.0360571 0.0750439
1 0.055314 0.0945296
0 0.150652 0.0834516
0.0815137 0.156497 0.088777
0.210483 0.161395 0.0930495
0.372747 0.160647 0.0912947
0.542016 0.162753 0.0925612
0.705272 0.171374 0.0996719
0.844694 0.190478 0.117357
0.968795 0.217716 0.14258
1 0.248051 0.170306
0 0.300252 0.0844587
0.0912337 0.316625 0.0988479
0.236683 0.331777 0.111147
0.412894 0.34226 0.118364
0.590677 0.356603 0.12842
0.755215 0.377508 0.144533
0.893202 0.409674 0.171527
1 0.450645 0.206928
1 0.495369 0.246082
0 0.4934 0.108965
0.125093 0.520104 0.132799
0.289357 0.541573 0.150225
0.478187 0.563058 0.166354
0.665644 0.590661 0.188693
0.827695 0.628595 0.222324
0.963104 0.673152 0.264286
1 0.716289 0.30753
1 0.754543 0.349813
0.0493477 0.719631 0.177676
0.20705 0.75639 0.21471
0.403006 0.78468 0.245365
0.602838 0.811231 0.276921
0.780911 0.838834 0.313848
0.920745 0.870451 0.358633
1 0.899443 0.402899
1 0.925475 0.444892
1 0.950088 0.484047
0.181125 0.961898 0.336934
0.366033 0.985397 0.374228
0.562432 0.998642 0.403006
0.74316 1 0.432258
0.88539 1 0.468269
1 1 0.505241
1 1 0.540734
1 1 0.57612
1 1 0.610925
0.313512 1 0.494224
0.505425 1 0.514229
0.688273 1 0.534493
0.839536 1 0.562219
0.964401 1 0.596735
1 1 0.63061
1 1 0.664622
1 1 0.697734
1 1 0.729183
0.435157 1 0.613565
0.622766 1 0.630304
0.78822 1 0.653147
0.919554 1 0.68423
1 1 0.716258
1 1 0.746853
1 1 0.776394
1 1 0.804578
1 1 0.831205
0 0 0.13109
0.0452125 0 0.136339
0.162493 0 0.140719
0.309728 0 0.136049
0.471031 0 0.127337
0.626902 0 0.119463
0.760998 0 0.118105
0.872145 0 0.12401
0.980087 0 0.133944
0 0.0329747 0.158312
0.0681621 0.0368353 0.162768
0.188891 0.038056 0.164614
0.341451 0.0311589 0.15816
0.503471 0.0238651 0.151614
0.6607 0.0208896 0.149386
0.796262 0.0273747 0.156847
0.913802 0.0428931 0.173373
1 0.0632486 0.195315
0 0.154009 0.176913
0.0845655 0.160616 0.183291
0.21532 0.166186 0.188846
0.379339 0.166339 0.188922
0.549477 0.169772 0.192309
0.713237 0.179599 0.202213
0.852277 0.199771 0.222187
0.976776 0.228077 0.250416
1 0.259113 0.281285
0 0.30695 0.184161
0.0969711 0.324544 0.200916
0.24448 0.340246 0.215244
0.421988 0.351812 0.225055
0.600259 0.366705 0.238239
0.76379 0.38854 0.257984
0.901793 0.422827 0.290745
1 0.465202 0.33228
1 0.510414 0.37731
0 0.503487 0.220157
0.133364 0.530816 0.246555
0.300282 0.552758 0.267689
0.490318 0.575418 0.289479
0.677775 0.604089 0.318105
0.837552 0.642374 0.357763
0.97171 0.686778 0.404776
1 0.728084 0.450401
1 0.764324 0.491905
0.0601358 0.73283 0.308156
0.2206 0.76936 0.35053
0.418097 0.79675 0.385245
0.616968 0.821988 0.420691
0.791547 0.848585 0.459266
0.927855 0.878462 0.501976
1 0.906661 0.544167
1 0.932189 0.583749
1 0.955917 0.620661
0.193317 0.972412 0.48217
0.379477 0.992844 0.516335
0.575204 1 0.543603
0.752758 1 0.571496
0.891814 1 0.606104
1 1 0.641703
1 1 0.675227
1 1 0.707988
1 1 0.738949
0.324651 1 0.630488
0.515999 1 0.649317
0.697612 1 0.668666
0.846265 1 0.694865
0.970657 1 0.726146
1 1 0.756115
1 1 0.785077
1 1 0.81294
1 1 0.838834
0.446021 1 0.74226
0.633387 1 0.755749
0.796658 1 0.774746
0.926787 1 0.801144
1 1 0.827344
1 1 0.852857
1 1 0.877272
1 1 0.900725
1 1 0.923491
0 0 0.236728
0.0472419 0 0.243336
0.164996 0 0.248859
0.312978 0 0.245579
0.473671 0 0.238132
0.629236 0 0.231632
0.762387 0 0.231571
0.873976 0 0.239826
0.982712 0 0.252125
0 0.0343023 0.271183
0.0691081 0.0379187 0.276631
0.190692 0.0389715 0.27953
0.344244 0.032166 0.274662
0.506615 0.0255436 0.270085
0.664408 0.0235447 0.270054
0.799771 0.0310979 0.280034
0.918517 0.0480659 0.299672
1 0.0694896 0.324361
0 0.155612 0.296483
0.0863355 0.162905 0.304692
0.218341 0.168917 0.31162
0.384176 0.170306 0.314488
0.555413 0.175036 0.320455
0.719326 0.186221 0.333257
0.858274 0.207492 0.356176
0.982956 0.23653 0.386618
1 0.26836 0.419974
0 0.311849 0.312901
0.100999 0.330617 0.331701
0.250248 0.346929 0.348028
0.429267 0.359518 0.36054
0.608011 0.375143 0.376318
0.771054 0.398276 0.399313
0.90927 0.434379 0.43534
1 0.478065 0.478691
1 0.524239 0.523232
0.00231937 0.51165 0.35935
0.139651 0.539452 0.38764
0.310109 0.562783 0.411383
0.501564 0.586831 0.435798
0.68893 0.616556 0.465599
0.846311 0.655451 0.504677
0.979446 0.699397 0.549813
1 0.7393 0.593103
1 0.773312 0.632212
0.0701915 0.744884 0.457603
0.233417 0.781262 0.498573
0.433097 0.808087 0.532296
0.630655 0.832105 0.565774
0.801328 0.857542 0.602609
0.935195 0.88658 0.643961
1 0.913771 0.68307
1 0.938979 0.71873
1 0.962722 0.750744
0.205325 0.982574 0.626612
0.393469 1 0.657877
0.587259 1 0.682292
0.761975 1 0.707347
0.898314 1 0.737545
1 1 0.768048
1 1 0.796521
1 1 0.823514
1 1 0.848966
0.335821 1 0.762234
0.527184 1 0.776165
0.707561 1 0.790585
0.854017 1 0.81207
0.978058 1 0.837552
1 1 0.862562
1 1 0.886381
1 1 0.909361
1 1 0.932158
0.457206 1 0.853712
0.645151 1 0.862501
0.806348 1 0.877134
0.935439 1 0.899184
1 1 0.92166
1 1 0.944167
1 1 0.96643
1 1 0.988052
1 1 1
0 0 0.370306
0.0471809 0 0.377951
0.165026 0 0.383963
0.313832 0 0.381628
0.474296 0 0.375051
0.629633 0 0.369665
0.762402 0 0.370855
0.87425 0 0.38024
0.983948 0 0.393759
0 0.0336614 0.408835
0.0684215 0.0371405 0.414237
0.190448 0.0380102 0.417304
0.345327 0.0317388 0.413764
0.508568 0.025864 0.410468
0.666819 0.0246891 0.411933
0.802594 0.0338598 0.423484
0.92253 0.0522011 0.444495
1 0.0749981 0.469703
0 0.155932 0.435767
0.0868849 0.164187 0.4448
0.220645 0.171054 0.452628
0.38822 0.173495 0.456443
0.560693 0.179461 0.463767
0.724636 0.191623 0.476783
0.864012 0.214771 0.500557
0.988663 0.244953 0.530709
1 0.278111 0.56376
0 0.316228 0.455482
0.104601 0.336248 0.474647
0.256168 0.353262 0.490837
0.436072 0.366751 0.503716
0.615488 0.383322 0.51957
0.778805 0.408408 0.543633
0.91722 0.44686 0.580285
1 0.491585 0.623178
1 0.537362 0.666423
0.00755322 0.519738 0.503502
0.145968 0.547921 0.530617
0.320272 0.573098 0.555108
0.513283 0.598871 0.580362
0.700496 0.629694 0.610727
0.85539 0.668803 0.649302
0.987091 0.711666 0.691646
1 0.750072 0.730236
1 0.78262 0.763622
0.0803388 0.757275 0.603891
0.247074 0.793317 0.644038
0.447974 0.81944 0.676326
0.644541 0.84213 0.706294
0.810987 0.866621 0.738323
0.943236 0.895125 0.773373
1 0.921981 0.805432
1 0.947219 0.834104
1 0.970977 0.8598
0.217502 0.992294 0.764172
0.40737 1 0.788602
0.600351 1 0.806241
0.772076 1 0.824598
0.90631 1 0.8486
1 1 0.873472
1 1 0.896971
1 1 0.91957
1 1 0.942061
0.347997 1 0.873579
0.539925 1 0.88191
0.718853 1 0.891691
0.862943 1 0.909407
0.987198 1 0.931594
1 1 0.953994
1 1 0.976257
1 1 0.998016
1 1 1
0.470451 1 0.947509
0.658091 1 0.953811
0.816587 1 0.967239
0.94435 1 0.987716
1 1 1
1 1 1
1 1 1
1 1 1
1 1 1
0 0 0.509972
0.0467079 0 0.517281
0.165072 0 0.522866
0.314473 0 0.519951
0.474769 0 0.513451
0.629877 0 0.508492
0.762615 0 0.51043
0.874907 0 0.520317
0.985641 0 0.534356
0 0.0329747 0.546242
0.0677806 0.0364843 0.551522
0.190768 0.0374914 0.55433
0.346746 0.0316777 0.551385
0.510994 0.0267033 0.549142
0.669566 0.0266728 0.551705
0.806271 0.0372473 0.564248
0.926772 0.0570993 0.58584
1 0.080827 0.611322
0 0.156786 0.57258
0.0878462 0.16585 0.581979
0.223667 0.173861 0.590646
0.392813 0.177569 0.595331
0.566323 0.184756 0.603647
0.730648 0.198062 0.617685
0.869734 0.222507 0.641733
0.994949 0.253681 0.671901
1 0.288334 0.704845
0 0.321355 0.594781
0.108812 0.342092 0.613993
0.262654 0.360342 0.630762
0.443458 0.374563 0.643732
0.623148 0.39173 0.65922
0.787167 0.419547 0.684413
0.926101 0.460136 0.720974
1 0.50605 0.761334
1 0.551873 0.800031
0.0135958 0.528511 0.643885
0.153735 0.557961 0.670741
0.331411 0.584222 0.694575
0.525963 0.611337 0.718379
0.712291 0.642786 0.745785
0.865156 0.68304 0.780087
0.995712 0.724941 0.815717
1 0.7617 0.846586
1 0.793301 0.872557
0.0920424 0.770657 0.741695
0.261753 0.80618 0.777264
0.463508 0.831373 0.803662
0.659388 0.85304 0.826841
0.821714 0.87689 0.851362
0.952529 0.905043 0.879896
1 0.931655 0.905898
1 0.956298 0.929732
1 0.980438 0.952621
0.230869 1 0.880156
0.422492 1 0.896361
0.614359 1 0.907668
0.783032 1 0.921553
0.915434 1 0.942489
1 1 0.964965
1 1 0.987015
1 1 1
1 1 1
0.361975 1 0.967514
0.553307 1 0.973159
0.730617 1 0.98143
0.87248 1 0.999023
0.996017 1 1
1 1 1
1 1 1
1 1 1
1 1 1
0.483818 1 1
0.670863 1 1
0.826841 1 1
0.953582 1 1
1 1 1
1 1 1
1 1 1
1 1 1
1 1 1
0 0 0.646021
0.0465095 0 0.652857
0.165423 0 0.657511
0.315343 0 0.653971
0.475639 0 0.647257
0.630503 0 0.642176
0.763424 0 0.644709
0.876356 0 0.654856
0.988113 0 0.669078
0 0.0326238 0.678904
0.0675364 0.0362249 0.683848
0.191669 0.0375525 0.686473
0.348913 0.0323491 0.683589
0.513985 0.0284276 0.681956
0.673396 0.0296025 0.685039
0.810575 0.0418402 0.698207
0.932387 0.0629435 0.719783
1 0.087602 0.744625
0 0.15845 0.703334
0.0897078 0.168429 0.712642
0.227619 0.1776 0.721553
0.398733 0.182559 0.72668
0.573022 0.190967 0.73489
0.737575 0.205859 0.74876
0.876524 0.231449 0.771847
1 0.263706 0.800229
1 0.300664 0.831724
0 0.327581 0.724208
0.114153 0.349554 0.743297
0.27039 0.368673 0.758938
0.452247 0.383825 0.770764
0.63299 0.40235 0.784772
0.797116 0.432486 0.808286
0.936156 0.475013 0.842115
1 0.521691 0.87776
1 0.568048 0.910658
0.0204776 0.538293 0.768383
0.16376 0.56997 0.7944
0.344854 0.597574 0.815457
0.540413 0.625864 0.835706
0.725612 0.658106 0.858396
0.876295 0.698314 0.887602
1 0.739162 0.917464
1 0.773846 0.942565
1 0.804685 0.965515
0.105303 0.785443 0.856992
0.278798 0.820523 0.887938
0.480766 0.844419 0.90837
0.674281 0.864469 0.925734
0.833661 0.888167 0.947127
0.962768 0.915694 0.972824
1 0.941802 0.99736
1 0.96614 1
1 0.990051 1
0.24567 1 0.976928
0.438361 1 0.988815
0.62887 1 0.998352
0.794034 1 1
0.924681 1 1
1 1 1
1 1 1
1 1 1
1 1 1
0.376013 1 1
0.566766 1 1
0.74226 1 1
0.881773 1 1
1 1 1
1 1 1
1 1 1
1 1 1
1 1 1
0.49723 1 1
0.683482 1 1
0.836683 1 1
0.962768 1 1
1 1 1
1 1 1
1 1 1
1 1 1
1 1 1
0 0 0.767529
0.0470283 0 0.772885
0.166827 0 0.77644
0.317311 0 0.771496
0.477836 0 0.763958
0.6327 0 0.758511
0.765667 0 0.760891
0.879499 0 0.771115
0.992065 0 0.784772
0 0.0336004 0.794156
0.0686046 0.0373083 0.798047
0.193942 0.0392767 0.800595
0.352987 0.0347143 0.79733
0.518425 0.0316472 0.795377
0.678874 0.0345617 0.79881
0.817075 0.0483253 0.812451
0.93962 0.0709392 0.833646
1 0.0966812 0.857771
0 0.162036 0.814359
0.0935988 0.173053 0.824247
0.233509 0.183337 0.832959
0.406302 0.189532 0.837827
0.581369 0.199008 0.84538
0.746639 0.215579 0.858839
0.885359 0.242466 0.880751
1 0.276127 0.907469
1 0.315129 0.937346
0 0.33576 0.832776
0.12163 0.358892 0.851316
0.279866 0.378714 0.865919
0.462791 0.394873 0.875959
0.645151 0.415534 0.889265
0.8094 0.447837 0.911788
0.948074 0.491829 0.94345
1 0.538643 0.975937
1 0.584741 1
0.0294652 0.550286 0.871931
0.175631 0.583886 0.896941
0.360327 0.612833 0.916335
0.55639 0.641886 0.934249
0.740383 0.674525 0.955123
0.887984 0.714061 0.981994
1 0.753109 1
1 0.786297 1
1 0.815885 1
0.120378 0.801831 0.956481
0.297108 0.835523 0.984375
0.498527 0.857816 1
0.689494 0.876188 1
0.844938 0.899336 1
0.972976 0.926177 1
1 0.951568 1
1 0.975662 1
1 0.999573 1
0.260319 1 1
0.453773 1 1
0.642954 1 1
0.804685 1 1
0.933761 1 1
1 1 1
1 1 1
1 1 1
1 1 1
0.3897 1 1
0.580056 1 1
0.753094 1 1
0.891035 1 1
1 1 1
1 1 1
1 1 1
1 1 1
1 1 1
0.510445 1 1
0.695659 1 1
0.846128 1 1
0.971923 1 1
1 1 1
1 1 1
1 1 1
1 1 1
1 1 1
0 0 0.867704
0.0497444 0 0.871977
0.169818 0 0.874235
0.320912 0 0.868147
0.4813 0 0.859861
0.636637 0 0.854505
0.769894 0 0.857084
0.884153 0 0.867277
0.997787 0 0.881712
0 0.0360723 0.889082
0.0714885 0.0402533 0.892805
0.198306 0.0426184 0.895308
0.35845 0.0390478 0.892027
0.525093 0.0370336 0.890455
0.686381 0.0413062 0.89453
0.824994 0.0566262 0.908537
0.948119 0.0800641 0.929961
1 0.107469 0.954421
0 0.166918 0.907683
0.0991073 0.179538 0.917983
0.24123 0.190936 0.927275
0.415503 0.198306 0.932372
0.591394 0.208881 0.940047
0.756634 0.226642 0.953674
0.895018 0.25481 0.975433
1 0.290288 1
1 0.331304 1
0 0.345403 0.926268
0.130587 0.369848 0.94519
0.290776 0.390158 0.959197
0.474113 0.406683 0.969009
0.658412 0.429877 0.983047
0.8224 0.464393 1
0.960464 0.509697 1
1 0.556146 1
1 0.601007 1
0.0402533 0.564065 0.965911
0.188754 0.598947 0.991241
0.376394 0.628626 1
0.572702 0.658045 1
0.754772 0.690867 1
0.899123 0.729412 1
1 0.766354 1
1 0.798123 1
1 0.826749 1
0.135637 0.818097 1
0.314931 0.849821 1
0.515908 0.870314 1
0.704494 0.887266 1
0.855787 0.909972 1
0.982971 0.936309 1
1 0.961059 1
1 0.985107 1
1 1 1
0.274647 1 1
0.468482 1 1
0.655924 1 1
0.815122 1 1
0.942794 1 1
1 1 1
1 1 1
1 1 1
1 1 1
0.403098 1 1
0.593118 1 1
0.764019 1 1
0.900191 1 1
1 1 1
1 1 1
1 1 1
1 1 1
1 1 1
0.523598 1 1
0.70779 1 1
0.855741 1 1
0.981064 1 1
1 1 1
1 1 1
1 1 1
1 1 1
1 1 1
