site/assets/luts/freshluts--0000756-correction-style-black-magic-footage.cube
# LUTr-Schema-Version: 2
# LUTr-ID: freshluts--0000756-correction-style-black-magic-footage
# LUTr-Title: Correction Style( black magic footage)
# LUTr-Collection: Fresh LUTs
# LUTr-Collection-ID: freshluts-community
# LUTr-Source: https://freshluts.com
# LUTr-Retrieved: 2026-07-27
# LUTr-Source-File: submissions-raw/freshluts/cubes/756__natural_1.A003_02171201_C024.cube
# LUTr-Source-Format: CUBE
# LUTr-Source-SHA256: 443a27a07d41ddc4f1d7d63c4e92ed9fbd7d4cf0c192e868964a1ab193c5a6be
# LUTr-License: CC0-1.0
# LUTr-License-URL: https://freshluts.com/termsandconditions
# LUTr-License-Basis: site-terms
# LUTr-Transform-Class: creative-look
# LUTr-Tags: creative, freshluts, community, cube, bmd-film, correction
# LUTr-Input-Color-Space:
# LUTr-Input-Gamut: bmd-film-gamut
# LUTr-Input-Transfer: bmd-film
# LUTr-Output-Color-Space: srgb
# LUTr-Output-Gamut: rec709
# LUTr-Output-Transfer: srgb
# LUTr-Color-Space-Confidence: camera-profile-input-required
# LUTr-Domain-Normalized: true
# LUTr-Shaper: none
# LUTr-Original-Grid: 33x33x33
# LUTr-Conversion-Grid: 33x33x33
# LUTr-Conversion-Interpolation: none
# LUTr-Conversion-Method: Metadata normalization; numeric LUT samples preserved
# LUTr-Conversion-Tool: LUTr scripts/convert-all-to-cube.mjs 2.0.0
# LUTr-Conversion-Date: 2026-07-28
# LUTr-Asset-URL: https://freshluts.com/luts/756
# LUTr-Author: lvannoeun@gmail.com
# LUTr-Author-URL: https://freshluts.com/users/57563
# LUTr-Attribution: lvannoeun@gmail.com via Fresh LUTs
# LUTr-Source-Labels: gamma=Blackmagic BMD Film; color=None; key=Neutral; style=Correction
# LUTr-Note: Preserve this metadata and the upstream license notices when redistributing.
TITLE "Correction Style( black magic footage)"
LUT_3D_SIZE 5
DOMAIN_MIN 0 0 0
DOMAIN_MAX 1 1 1
0 0 0
0 0 0
0.432959 0 0
0.901091 0 0
1 0 0
0 0 0
0 0.0547799 0
0.537957 0 0
1 0 0
1 0 0
0 0.426322 0.0240787
0 0.484871 0.00688182
0.131441 0.529793 0
0.884871 0.450782 0
1 0.437949 0
0 0.876921 0.214343
0 0.921935 0.199481
0.0140688 0.951766 0.0843366
0.281163 0.974792 0
0.907485 0.886732 0
0 1 0.342458
0 1 0.295842
0 1 0.149767
0.135103 1 0
0.354955 1 0
0 0 0.0113222
0.00494392 0 0
0.481743 0 0.0322881
0.990219 0 0.0981765
1 0 0.180438
0 0.0206149 0.0141299
0.0174716 0.0220035 0.0165103
0.476417 0 0.0646372
0.947555 0 0.129015
1 0 0.210651
0 0.424674 0.147463
0 0.454658 0.216922
0.236652 0.50837 0.0709087
0.971878 0.427298 0
1 0.407675 0.0222934
0 0.861677 0.363729
0 0.885542 0.409049
0.111559 0.90956 0.312245
0.37911 0.942229 0.0779126
0.980041 0.849699 0
0 1 0.481605
0 1 0.490822
0.0291752 1 0.391974
0.228458 1 0.174365
0.446189 1 0.00326543
0 0 0.523507
0 0 0.5075
0.463905 0 0.465415
0.979324 0 0.497505
1 0 0.574365
0 0.0115053 0.537179
0.00509651 0.00895705 0.537057
0.497673 0 0.507271
0.992187 0 0.546883
1 0 0.646326
0 0.448493 0.464515
0 0.466819 0.48574
0.449531 0.445426 0.467124
0.922347 0.422065 0.522423
1 0.426841 0.587137
0 0.881331 0.522896
0 0.880796 0.549538
0.320562 0.84596 0.608576
0.574731 0.869886 0.427527
1 0.794934 0.263401
0 1 0.600214
0 1 0.626856
0.196811 1 0.661341
0.445441 1 0.533974
0.611185 1 0.331106
0 0 1
0 0 1
0.446326 0 1
0.973999 0 1
1 0 1
0 0 1
0 0 1
0.481987 0 1
0.988861 0 1
1 0 1
0 0.44239 1
0 0.458259 1
0.434745 0.434684 1
0.940764 0.406882 0.992264
1 0.407111 1
0 0.89546 0.93846
0 0.893996 0.93846
0.312703 0.846738 0.891539
0.784619 0.789014 0.833783
1 0.753368 0.848875
0 1 0.899275
0 1 0.874952
0.232013 1 0.831022
0.656275 1 0.860136
0.826108 1 0.733059
0 0 1
0 0 1
0.447913 0 1
0.966827 0 1
1 0 1
0 0 1
0 0 1
0.47924 0 1
0.988006 0 1
1 0 1
0 0.443748 1
0 0.457664 1
0.43061 0.432868 1
0.93463 0.403174 1
1 0.40032 1
0 0.89366 1
0 0.888426 1
0.294804 0.836561 1
0.769818 0.774929 1
1 0.739635 1
0 1 1
0 1 1
0.177844 1 1
0.634592 1 1
0.967559 0.978637 1
