site/assets/luts/freshluts--0000608-adventure.cube
# LUTr-Schema-Version: 2
# LUTr-ID: freshluts--0000608-adventure
# LUTr-Title: ADVENTURE
# LUTr-Collection: Fresh LUTs
# LUTr-Collection-ID: freshluts-community
# LUTr-Source: https://freshluts.com
# LUTr-Retrieved: 2026-07-27
# LUTr-Source-File: submissions-raw/freshluts/cubes/608__ADVENTURE__93.DJI_0926.cube
# LUTr-Source-Format: CUBE
# LUTr-Source-SHA256: 3a9de865813c6b80ee130f522596fe4287a63329e2add9856b8dc6b10c62f818
# LUTr-License: CC0-1.0
# LUTr-License-URL: https://freshluts.com/termsandconditions
# LUTr-License-Basis: site-terms
# LUTr-Transform-Class: creative-look
# LUTr-Tags: creative, freshluts, community, cube, warm, high-key, dji-d-log
# LUTr-Input-Color-Space: dji-dlog-dgamut
# LUTr-Input-Gamut: dji-d-gamut
# LUTr-Input-Transfer: dji-d-log
# LUTr-Output-Color-Space: srgb
# LUTr-Output-Gamut: rec709
# LUTr-Output-Transfer: srgb
# LUTr-Color-Space-Confidence: inferred-from-source-label
# LUTr-Domain-Normalized: true
# LUTr-Shaper: none
# LUTr-Original-Grid: 33x33x33
# LUTr-Conversion-Grid: 33x33x33
# LUTr-Conversion-Interpolation: none
# LUTr-Conversion-Method: Metadata normalization; numeric LUT samples preserved
# LUTr-Conversion-Tool: LUTr scripts/convert-all-to-cube.mjs 2.0.0
# LUTr-Conversion-Date: 2026-07-28
# LUTr-Asset-URL: https://freshluts.com/luts/608
# LUTr-Author: Shamoon Abbasi
# LUTr-Author-URL: https://freshluts.com/users/1258
# LUTr-Attribution: Shamoon Abbasi via Fresh LUTs
# LUTr-Source-Labels: gamma=DJI D-log; color=Warm; key=High Key; style=Drama
# LUTr-Note: Preserve this metadata and the upstream license notices when redistributing.
TITLE "ADVENTURE"
LUT_3D_SIZE 33
DOMAIN_MIN 0 0 0
DOMAIN_MAX 1 1 1
0.0264897 0.0398718 0.052842
0.0282902 0.0409552 0.0538186
0.0354925 0.0421454 0.0541695
0.0484474 0.0438544 0.0542153
0.0658732 0.0463111 0.0538033
0.0883803 0.0492409 0.0528725
0.121523 0.0522011 0.050721
0.162997 0.0544137 0.0461128
0.21207 0.0533761 0.0360723
0.273442 0.0478218 0.0247807
0.340612 0.0373388 0.0200656
0.404913 0.0257725 0.0181582
0.466773 0.0204776 0.0172732
0.522881 0.0194247 0.0177768
0.568307 0.0186313 0.0185855
0.60766 0.0179141 0.0192264
0.640345 0.0174868 0.0199283
0.666773 0.0174563 0.0207065
0.687831 0.0175784 0.0214847
0.701839 0.0178683 0.0220951
0.708675 0.0182803 0.0226902
0.71194 0.0187533 0.0230716
0.714626 0.0192874 0.0234073
0.717357 0.0198672 0.0237125
0.719646 0.0204776 0.0237278
0.721859 0.0211032 0.0237278
0.724132 0.0215763 0.0237583
0.726452 0.0216373 0.0237125
0.728344 0.021622 0.0236973
0.728344 0.0216526 0.0237125
0.728344 0.0216678 0.023743
0.728344 0.0216831 0.023743
0.728344 0.0217136 0.0237736
0.0289006 0.0440986 0.0562142
0.0311437 0.0455329 0.0572824
0.0372015 0.0472267 0.0567178
0.049424 0.0491188 0.0560616
0.0667735 0.0517891 0.0554055
0.0887617 0.055024 0.0543832
0.121584 0.0583505 0.0522164
0.164553 0.060914 0.0469978
0.214252 0.0610666 0.0369726
0.275563 0.0575875 0.0257572
0.344259 0.050248 0.0202792
0.410056 0.0384833 0.0184176
0.470863 0.0265202 0.0176089
0.526757 0.0218357 0.0180362
0.573922 0.0207523 0.0188144
0.61387 0.0199893 0.0194553
0.64686 0.0195773 0.0202182
0.673533 0.0195773 0.0209354
0.694194 0.0196841 0.0216831
0.707698 0.0199588 0.022385
0.714519 0.0203708 0.0229496
0.718303 0.0208438 0.0233005
0.721111 0.0214237 0.0236515
0.72372 0.0220188 0.0239567
0.725933 0.0226291 0.0239872
0.728176 0.02327 0.0239872
0.730327 0.0237278 0.0239719
0.732616 0.0237583 0.0239261
0.734264 0.0237583 0.0239109
0.734386 0.0237736 0.0239261
0.734478 0.0238041 0.0239567
0.734569 0.0238193 0.0239719
0.734661 0.0238346 0.0240024
0.0267338 0.0507057 0.057496
0.0324254 0.052369 0.0592966
0.0392615 0.0544137 0.059556
0.0506142 0.0566262 0.0588083
0.0685893 0.0592508 0.0578012
0.0909133 0.0625315 0.0564279
0.122698 0.0661173 0.0538796
0.165377 0.0690623 0.0483558
0.215152 0.0702525 0.038056
0.27657 0.0690166 0.0262913
0.346822 0.0652323 0.0203708
0.415 0.0563211 0.0184329
0.475914 0.0407111 0.0179751
0.53225 0.0287175 0.0183566
0.580575 0.0242771 0.0190738
0.621637 0.0226291 0.0197757
0.655451 0.021912 0.0205386
0.681987 0.0218051 0.0212558
0.70248 0.0218662 0.022034
0.715618 0.0221256 0.0226596
0.72311 0.0225376 0.0231022
0.727413 0.0230564 0.0234836
0.73019 0.0236362 0.0238193
0.732769 0.0242466 0.024094
0.735119 0.0248417 0.0242618
0.737484 0.0254826 0.0242924
0.739757 0.0259098 0.0242924
0.742153 0.0259098 0.0242466
0.743603 0.0259098 0.0242466
0.743725 0.0259403 0.0242618
0.743832 0.0259556 0.0242924
0.743923 0.0259861 0.0242924
0.74406 0.0260166 0.0243229
0.0208438 0.0610666 0.0594339
0.0278935 0.0626078 0.0608072
0.0366064 0.0648203 0.0614023
0.0509651 0.0673991 0.0610361
0.0698558 0.0703593 0.0600443
0.09308 0.0737469 0.0584726
0.124956 0.0773632 0.0555734
0.167361 0.0803693 0.0499886
0.217548 0.0826123 0.0392615
0.278782 0.0834058 0.0264439
0.350561 0.0818494 0.0201877
0.420279 0.076585 0.0184176
0.482734 0.0650187 0.0180514
0.539315 0.0495155 0.0185245
0.58909 0.0378729 0.0192416
0.63061 0.0307622 0.0199893
0.66421 0.0266575 0.0207218
0.691478 0.0253758 0.0215457
0.712077 0.0252232 0.0223545
0.725322 0.025864 0.022858
0.733455 0.026566 0.0233005
0.738354 0.0267796 0.023743
0.741054 0.0267338 0.0240482
0.743374 0.0268254 0.0242618
0.745571 0.0272068 0.024445
0.747723 0.0278325 0.0245518
0.749889 0.0281682 0.0245823
0.752148 0.0281682 0.0245975
0.753384 0.0281682 0.0246128
0.753521 0.0281987 0.0246281
0.753613 0.0282139 0.0246433
0.75375 0.0282444 0.0246433
0.753841 0.028275 0.0246586
0.0136873 0.0743267 0.0618143
0.0200504 0.0756085 0.0626078
0.0300908 0.0777142 0.0631113
0.0466621 0.0806897 0.063035
0.0705577 0.0840772 0.0622263
0.0943008 0.0878767 0.0606851
0.126894 0.0923018 0.0576791
0.170855 0.0963607 0.0515755
0.22211 0.100221 0.039704
0.284245 0.10251 0.025803
0.356512 0.103029 0.0196841
0.42855 0.101366 0.0176547
0.493339 0.0950484 0.017258
0.550713 0.08336 0.017792
0.600305 0.070161 0.0185702
0.640421 0.0579538 0.019379
0.67425 0.0484016 0.0203861
0.702281 0.0437324 0.0214389
0.723156 0.0423285 0.0222324
0.738323 0.0431678 0.0228885
0.747921 0.0441901 0.0234531
0.753033 0.0426337 0.0238804
0.754833 0.0391089 0.0242466
0.756069 0.0360266 0.024445
0.757595 0.0347295 0.0245212
0.759518 0.0343938 0.0246128
0.761471 0.033814 0.0246586
0.763516 0.0332799 0.0247501
0.764523 0.0331884 0.0247959
0.764675 0.0332647 0.0247959
0.764813 0.0333562 0.0247959
0.764965 0.0334325 0.0247959
0.765087 0.0335088 0.0247959
0.0101015 0.0892195 0.0644846
0.014435 0.0902266 0.0650492
0.0234379 0.0924239 0.0653849
0.0411994 0.0956436 0.0651255
0.0673838 0.0998856 0.0640726
0.0953078 0.104753 0.0625925
0.129274 0.109529 0.0592355
0.175326 0.114137 0.0520027
0.229068 0.118975 0.0394446
0.292088 0.123339 0.0249943
0.365103 0.127001 0.0183261
0.439811 0.128496 0.0161288
0.507286 0.12639 0.0156558
0.566415 0.120134 0.0162051
0.616754 0.111162 0.0169375
0.655604 0.101335 0.0177157
0.686732 0.0927596 0.0185855
0.711635 0.0870832 0.0194553
0.732357 0.0842451 0.0203861
0.752194 0.0838636 0.0214542
0.763455 0.0856794 0.0220645
0.768994 0.0863203 0.0225681
0.771191 0.0837568 0.0230411
0.771878 0.0793317 0.0234379
0.772686 0.0742199 0.0238346
0.77322 0.0686656 0.0241093
0.773907 0.0629435 0.0242771
0.775113 0.0593423 0.0243534
0.775784 0.0588388 0.0243534
0.77583 0.0594492 0.0243229
0.775814 0.0601511 0.0242618
0.775814 0.0608377 0.0242313
0.775814 0.0615244 0.0241855
0.00894179 0.109957 0.0664836
0.0116274 0.11078 0.0669261
0.0175021 0.112688 0.066865
0.0322423 0.115923 0.0660716
0.0577249 0.120653 0.0649271
0.0896773 0.126421 0.0632181
0.128618 0.132204 0.0592813
0.178073 0.137179 0.0506905
0.235828 0.142504 0.0358587
0.300923 0.14905 0.0220493
0.375326 0.155154 0.016144
0.452735 0.159197 0.0142061
0.523064 0.159854 0.0139315
0.584543 0.156649 0.0146944
0.63592 0.150286 0.0152895
0.675898 0.143038 0.0158694
0.70605 0.135958 0.0164492
0.728527 0.130419 0.0168307
0.743481 0.127642 0.0168002
0.751827 0.127428 0.016907
0.75964 0.129152 0.0175937
0.766232 0.130724 0.0184787
0.769711 0.129396 0.0192874
0.771572 0.125963 0.0198215
0.77348 0.122087 0.0202792
0.775036 0.11809 0.0205539
0.776471 0.114168 0.020737
0.77818 0.111864 0.0207675
0.778958 0.112016 0.020676
0.779187 0.112642 0.0205692
0.779416 0.113252 0.0204929
0.779644 0.113878 0.0203861
0.779873 0.114488 0.0202945
0.00822461 0.13611 0.0666514
0.0102693 0.136843 0.066865
0.0133211 0.138476 0.0666361
0.0213779 0.141512 0.0657359
0.0416114 0.146426 0.0639811
0.0758068 0.154086 0.0618601
0.120684 0.161868 0.0571908
0.177035 0.167956 0.0461891
0.240406 0.174243 0.0289921
0.309178 0.18262 0.0178988
0.386389 0.19089 0.013901
0.467033 0.197345 0.0128786
0.540536 0.200061 0.0130922
0.603281 0.199115 0.0133516
0.657221 0.195727 0.0136568
0.699779 0.191531 0.013962
0.731487 0.187243 0.0142214
0.754788 0.183322 0.0144198
0.770672 0.181353 0.0143893
0.779568 0.182269 0.0142214
0.787106 0.183291 0.014313
0.793454 0.18378 0.0144656
0.796536 0.181292 0.0146639
0.797223 0.177066 0.0148775
0.797971 0.173007 0.0150912
0.798703 0.169223 0.0152438
0.799573 0.165743 0.0153811
0.801144 0.164034 0.0154421
0.801984 0.164614 0.0153964
0.802502 0.165576 0.0153353
0.802915 0.166354 0.0152895
0.803433 0.167315 0.0152285
0.803845 0.168093 0.0151827
0.0074464 0.164782 0.0662699
0.00946059 0.165545 0.0664378
0.0115053 0.16759 0.0659342
0.0147707 0.170764 0.0649271
0.0247807 0.175708 0.06215
0.0526741 0.184009 0.0582742
0.104311 0.195178 0.0520485
0.170336 0.204364 0.0382544
0.242191 0.212802 0.0224308
0.316213 0.222965 0.0156863
0.396109 0.233616 0.0125582
0.47982 0.242206 0.0122072
0.557092 0.247715 0.0124666
0.623407 0.249744 0.0124666
0.679744 0.248981 0.0124514
0.724758 0.246754 0.0124971
0.758175 0.24361 0.012726
0.78294 0.24097 0.0128481
0.799298 0.240009 0.0126802
0.809644 0.241108 0.0124514
0.817853 0.242176 0.0124514
0.824582 0.243534 0.0125124
0.828656 0.242649 0.012604
0.829679 0.238926 0.0127565
0.830289 0.234668 0.0129397
0.83093 0.23032 0.0131075
0.83183 0.226566 0.0133059
0.83328 0.224811 0.0134279
0.833967 0.225528 0.0133974
0.834485 0.22652 0.0133516
0.835004 0.227512 0.0133059
0.835523 0.228504 0.0132753
0.835935 0.229297 0.0132296
0.00648508 0.197726 0.0648966
0.00851453 0.198383 0.065095
0.0104982 0.200397 0.0643626
0.0127108 0.203769 0.0629435
0.0174105 0.209033 0.0594186
0.0326696 0.217212 0.0527047
0.0785687 0.230243 0.042359
0.154208 0.243946 0.0288243
0.237583 0.256672 0.021973
0.31902 0.269306 0.0165103
0.404196 0.281178 0.013077
0.491478 0.292165 0.0122683
0.57261 0.300343 0.0122835
0.642618 0.304616 0.0119478
0.701808 0.30547 0.0116884
0.749447 0.304707 0.0116732
0.78468 0.30248 0.0119478
0.810361 0.300725 0.0120394
0.828168 0.300267 0.011841
0.839765 0.301198 0.0116579
0.848508 0.302602 0.0116121
0.855573 0.304875 0.0115969
0.860655 0.305806 0.0116579
0.86183 0.302205 0.0119478
0.86247 0.298207 0.012314
0.86305 0.293797 0.0127718
0.863584 0.289982 0.0132296
0.864897 0.288655 0.0133669
0.865461 0.289586 0.0133364
0.866072 0.290837 0.0133211
0.866575 0.29189 0.0133059
0.866987 0.292729 0.0132753
0.867491 0.293767 0.0132601
0.00520333 0.234592 0.0608225
0.00724804 0.235203 0.0609751
0.00924697 0.237095 0.0602579
0.0114137 0.241138 0.0582284
0.0147097 0.246998 0.0534218
0.0226291 0.255726 0.0431067
0.0529641 0.269673 0.0295262
0.125048 0.287465 0.0212863
0.222156 0.305425 0.0197757
0.315862 0.321538 0.0176547
0.407721 0.335805 0.0141451
0.499977 0.348791 0.012665
0.586099 0.359167 0.0123751
0.659464 0.365515 0.0118563
0.722194 0.368231 0.0114443
0.772793 0.368566 0.0114595
0.809583 0.367407 0.0117037
0.836866 0.365286 0.01178
0.855894 0.364462 0.0117342
0.868498 0.364782 0.0117037
0.877577 0.365759 0.01178
0.884718 0.368353 0.0118868
0.889921 0.370199 0.012192
0.89192 0.368032 0.0127565
0.892592 0.363867 0.0134585
0.893034 0.359686 0.0142061
0.893324 0.355825 0.0148013
0.894682 0.354864 0.0149233
0.895232 0.356207 0.0149233
0.895796 0.357534 0.0149081
0.896269 0.358648 0.0148928
0.896742 0.359777 0.0148928
0.8972 0.360876 0.0148928
0.00370794 0.273335 0.0545357
0.00575265 0.274449 0.0547036
0.00779736 0.276997 0.0538186
0.0102083 0.281712 0.0501869
0.0133211 0.288746 0.0424659
0.0179294 0.298741 0.030869
0.0337377 0.313039 0.0215763
0.0897383 0.332753 0.0178225
0.194797 0.355306 0.0180819
0.305028 0.377279 0.0170748
0.40444 0.39588 0.0149081
0.503258 0.411368 0.0132296
0.595026 0.424079 0.0124208
0.673533 0.433143 0.0119173
0.739208 0.437781 0.0116426
0.792157 0.438972 0.0116732
0.832181 0.438254 0.0119173
0.861372 0.436149 0.0122072
0.881559 0.434974 0.0124666
0.89543 0.434791 0.0128634
0.90483 0.435538 0.0133211
0.912062 0.437964 0.0137484
0.91725 0.439872 0.0142824
0.919966 0.438529 0.0148775
0.920653 0.433814 0.0154574
0.921065 0.428946 0.0159609
0.921614 0.424811 0.0163577
0.923049 0.424216 0.0164034
0.923613 0.42562 0.0163882
0.924163 0.427039 0.0163577
0.924712 0.428443 0.0163577
0.925185 0.429618 0.0163272
0.925734 0.431022 0.0163272
0.00308232 0.311131 0.0439765
0.0049897 0.312764 0.0441138
0.00717174 0.31574 0.042298
0.0099031 0.32108 0.0363622
0.0130922 0.329091 0.027924
0.0167086 0.340581 0.0208896
0.023621 0.355932 0.0175784
0.0571908 0.376226 0.0159457
0.162493 0.403342 0.0156252
0.284672 0.431022 0.0171054
0.395422 0.455985 0.014847
0.501213 0.475288 0.0136416
0.598764 0.490761 0.0131075
0.682445 0.502098 0.0127718
0.751873 0.508736 0.0125429
0.808713 0.511543 0.0126955
0.852384 0.51194 0.0130617
0.883635 0.510246 0.0135653
0.905898 0.508766 0.0140993
0.921416 0.508736 0.0146944
0.931289 0.509392 0.015259
0.93843 0.510781 0.0157626
0.943999 0.512657 0.0162966
0.947143 0.511467 0.0167697
0.948257 0.507088 0.0171359
0.948821 0.5019 0.0175174
0.949615 0.49807 0.0177615
0.951141 0.49807 0.0177615
0.951782 0.499825 0.0177462
0.952331 0.50132 0.017731
0.952895 0.502831 0.0177157
0.953353 0.504097 0.0177005
0.953902 0.505592 0.0176852
0.00303655 0.347463 0.0278477
0.0047303 0.34876 0.0282902
0.00688182 0.352346 0.0266728
0.00975052 0.358236 0.0223545
0.0129091 0.367224 0.0183871
0.0164492 0.379721 0.016495
0.0210117 0.396063 0.01561
0.0380865 0.417014 0.0144198
0.113451 0.445502 0.0138094
0.253269 0.478264 0.0161746
0.378195 0.509148 0.0150149
0.490105 0.533288 0.0142977
0.594507 0.550713 0.014023
0.685557 0.564813 0.0142061
0.760754 0.574517 0.014435
0.822324 0.580041 0.0146334
0.870024 0.58233 0.0149538
0.90428 0.581323 0.0153658
0.928664 0.579965 0.0157778
0.945418 0.579767 0.0162203
0.955871 0.580331 0.0166781
0.963058 0.581415 0.0171206
0.968338 0.582895 0.0176242
0.972015 0.582803 0.0180667
0.973846 0.579278 0.0184482
0.975204 0.575006 0.0187991
0.976608 0.571939 0.0189212
0.978103 0.572152 0.0189059
0.978714 0.573831 0.0188754
0.979217 0.57528 0.0188449
0.979828 0.576959 0.0188296
0.980346 0.578408 0.0188144
0.980774 0.579599 0.0187839
0.0030518 0.382071 0.0175174
0.0047303 0.38323 0.0175937
0.0069276 0.387396 0.0171206
0.00981155 0.39382 0.0163424
0.0130007 0.403449 0.0157321
0.0166018 0.416648 0.0153048
0.0210117 0.433646 0.0149081
0.0288701 0.454566 0.0146181
0.0741436 0.482017 0.0146181
0.202335 0.517632 0.0152895
0.349432 0.553002 0.0166629
0.470878 0.583246 0.0155032
0.583902 0.606088 0.0154269
0.683055 0.622934 0.0158541
0.76495 0.635294 0.0164034
0.831632 0.643061 0.0167391
0.883726 0.646586 0.0169833
0.921645 0.646998 0.0172274
0.947646 0.645701 0.0174868
0.964401 0.644678 0.0177157
0.973999 0.644358 0.0180514
0.979522 0.644144 0.0184329
0.98323 0.644587 0.0188449
0.986496 0.644465 0.0191958
0.989242 0.641993 0.019501
0.991913 0.638666 0.0197452
0.994217 0.636515 0.0197604
0.995682 0.637201 0.0197147
0.995758 0.638483 0.0196841
0.99585 0.63978 0.0196689
0.995911 0.640894 0.0196536
0.995987 0.642008 0.0196231
0.996063 0.643107 0.0196231
0.0031281 0.412146 0.0157473
0.00495918 0.413367 0.016083
0.0075227 0.417548 0.0161593
0.0105287 0.424384 0.0159609
0.0138552 0.43415 0.0157015
0.0176242 0.447288 0.0155489
0.0221256 0.464775 0.0154879
0.0289464 0.487205 0.0155337
0.0579995 0.515099 0.0155032
0.158679 0.550668 0.0161288
0.312551 0.590112 0.0173495
0.44683 0.625895 0.0170596
0.567895 0.653803 0.0170596
0.675731 0.674311 0.0173342
0.764492 0.689326 0.0178531
0.836851 0.699321 0.0183566
0.893782 0.705242 0.018677
0.934691 0.707179 0.0189364
0.961364 0.706004 0.0191806
0.975464 0.703655 0.0193484
0.98143 0.70164 0.0196078
0.984634 0.700359 0.0198672
0.987427 0.699458 0.0201572
0.990188 0.698573 0.0204623
0.993011 0.696529 0.0206607
0.995712 0.693645 0.0208438
0.997955 0.691936 0.0208438
0.998901 0.692378 0.0208133
0.998932 0.693767 0.020798
0.998947 0.694987 0.0207828
0.998962 0.696208 0.0207675
0.998978 0.697246 0.020737
0.998993 0.698299 0.0207218
0.00331121 0.435416 0.016083
0.0056611 0.436423 0.0167697
0.00872816 0.440604 0.0170443
0.0119173 0.447791 0.0169223
0.0153506 0.457755 0.0167391
0.0191806 0.47126 0.0166934
0.023682 0.489296 0.0166629
0.0294804 0.512154 0.0166476
0.0486 0.540246 0.016556
0.124773 0.575311 0.0171054
0.267216 0.616342 0.0184482
0.415457 0.656336 0.0184482
0.546563 0.689708 0.0184939
0.663188 0.71545 0.0187381
0.760082 0.733883 0.0190127
0.837644 0.746456 0.0195315
0.898558 0.754345 0.0199741
0.942245 0.757702 0.020325
0.968032 0.756573 0.0206149
0.978805 0.753582 0.020798
0.982879 0.750881 0.0209812
0.985763 0.749218 0.0212406
0.988556 0.748257 0.0214389
0.991379 0.747616 0.0216983
0.994232 0.745907 0.0218814
0.996887 0.743374 0.022034
0.999023 0.742 0.022034
0.999725 0.742702 0.0220035
0.999741 0.743908 0.021973
0.999741 0.744961 0.0219577
0.999756 0.746029 0.0219272
0.999771 0.747082 0.021912
0.999786 0.747982 0.0218967
0.00419623 0.453712 0.0175326
0.00723278 0.45449 0.018143
0.0103609 0.458396 0.0182498
0.0135653 0.465583 0.0181277
0.0170291 0.475547 0.0180209
0.020798 0.489067 0.0179141
0.0251621 0.5066 0.0178073
0.0304723 0.529091 0.0176547
0.0427253 0.556603 0.0175479
0.0950942 0.590143 0.0179599
0.228656 0.630961 0.0194858
0.382986 0.675029 0.0196078
0.521798 0.713314 0.0195621
0.646448 0.743297 0.0201877
0.749447 0.765026 0.0201724
0.83151 0.7794 0.0204318
0.897108 0.788952 0.0208896
0.944701 0.794354 0.0213321
0.971008 0.794797 0.0216831
0.98027 0.79234 0.0219272
0.983948 0.789914 0.0221256
0.986831 0.78854 0.0223697
0.989715 0.787747 0.0225376
0.992569 0.787274 0.022797
0.995438 0.786038 0.0229801
0.997848 0.784237 0.0231327
0.999603 0.783551 0.0231479
1 0.784283 0.0231174
1 0.785275 0.0230869
1 0.78616 0.0230716
1 0.787152 0.0230411
1 0.788022 0.0230259
1 0.788769 0.0229953
0.00601205 0.468116 0.0192569
0.00895705 0.468742 0.0194705
0.011902 0.471717 0.01944
0.0150454 0.478614 0.0193179
0.0184329 0.488685 0.0191958
0.0222019 0.501732 0.019028
0.0266423 0.518456 0.0188907
0.0319219 0.539605 0.0187686
0.0407874 0.566079 0.018616
0.0774243 0.598093 0.0187381
0.191806 0.637644 0.0202487
0.345556 0.683787 0.0212253
0.493751 0.726009 0.0203403
0.624933 0.758923 0.0209964
0.734585 0.784421 0.021561
0.822766 0.802625 0.0215763
0.89276 0.814649 0.0216831
0.943648 0.821729 0.0221103
0.971588 0.823926 0.0225681
0.981079 0.822339 0.0229038
0.985 0.820157 0.0231632
0.987945 0.818845 0.0233921
0.990906 0.817975 0.0235904
0.993759 0.817334 0.0238193
0.996353 0.816419 0.0240024
0.99823 0.815274 0.0241093
0.999802 0.814984 0.0241245
1 0.815717 0.024094
1 0.81648 0.0240635
1 0.817243 0.024033
1 0.817899 0.0240177
1 0.818555 0.0239872
1 0.819089 0.0239567
0.00755322 0.47538 0.0206455
0.0103456 0.475776 0.0207218
0.0133059 0.477531 0.0206607
0.016495 0.484337 0.0205234
0.0199283 0.494774 0.0203555
0.0236973 0.507515 0.0202182
0.0281529 0.523445 0.0201267
0.0334173 0.543633 0.0200198
0.0404364 0.569039 0.0200198
0.0632792 0.599481 0.0200046
0.150256 0.637888 0.0208133
0.309804 0.685924 0.0224155
0.465095 0.731426 0.0215915
0.602655 0.768338 0.0218357
0.718242 0.797131 0.022446
0.811231 0.818616 0.0229801
0.885084 0.833387 0.0230411
0.940352 0.842603 0.0230106
0.971481 0.84625 0.0234226
0.981979 0.845472 0.0238193
0.986099 0.843488 0.0241245
0.989105 0.841993 0.0243992
0.992065 0.840894 0.0245823
0.994827 0.840208 0.0247654
0.996857 0.839628 0.0249943
0.998413 0.838819 0.0251164
0.999969 0.838575 0.0251469
1 0.839109 0.0251164
1 0.839597 0.0250858
1 0.840085 0.0250553
1 0.840513 0.0250248
1 0.841001 0.0250095
1 0.841428 0.0249638
0.0091249 0.48481 0.0217746
0.0118868 0.484916 0.0218357
0.0148775 0.486 0.0217594
0.0180667 0.491875 0.021622
0.0214694 0.502342 0.0214694
0.0252384 0.515297 0.0213321
0.0297704 0.530694 0.0212558
0.03505 0.549752 0.0212406
0.0415961 0.573785 0.0213321
0.0559243 0.602808 0.0211948
0.12108 0.638865 0.0215915
0.277989 0.685695 0.0232853
0.438224 0.734173 0.0230411
0.578988 0.77406 0.0227817
0.699458 0.805188 0.0234073
0.797299 0.829221 0.0241398
0.875563 0.846448 0.0248569
0.935103 0.857771 0.0247349
0.970718 0.862959 0.0243687
0.982605 0.862669 0.0247654
0.986877 0.861067 0.0250706
0.990158 0.859632 0.0253605
0.993042 0.858396 0.0255894
0.995361 0.857496 0.0257725
0.99704 0.856825 0.0259556
0.998581 0.856306 0.0260319
1 0.856275 0.0260471
1 0.856672 0.0260166
1 0.857099 0.0259861
1 0.857496 0.0259709
1 0.857877 0.0259403
1 0.858228 0.0259098
1 0.85861 0.0258793
0.0107576 0.495521 0.022797
0.013489 0.495445 0.022858
0.0164492 0.495949 0.0228428
0.0196231 0.500359 0.0227359
0.0230716 0.510689 0.0225223
0.0268864 0.52401 0.0223697
0.0314336 0.539025 0.022385
0.0367285 0.556924 0.0224918
0.0430304 0.579278 0.0225681
0.0522927 0.606561 0.0223697
0.103807 0.640482 0.022446
0.243397 0.685115 0.0238804
0.411963 0.735042 0.0241855
0.556146 0.776898 0.0237888
0.680629 0.809995 0.0243992
0.782605 0.835859 0.0251469
0.864576 0.854749 0.0259861
0.928786 0.868086 0.0268254
0.967803 0.874998 0.0265812
0.982879 0.875608 0.0260014
0.987671 0.874083 0.0260166
0.991089 0.87274 0.0263066
0.993835 0.871595 0.0265354
0.995666 0.870848 0.0267491
0.997208 0.870359 0.0269169
0.998764 0.869963 0.026978
1 0.87013 0.0269932
1 0.870451 0.026978
1 0.870802 0.0269474
1 0.871122 0.0269169
1 0.871443 0.0269017
1 0.871763 0.0268711
1 0.872084 0.0268559
0.0122683 0.507515 0.0238041
0.0149996 0.507332 0.0238956
0.0179904 0.507408 0.0239109
0.0211337 0.510399 0.0238193
0.0245823 0.520088 0.0235447
0.0284581 0.533852 0.0233921
0.0330968 0.548913 0.0234989
0.0383612 0.565759 0.023621
0.0448005 0.586282 0.0236973
0.0539406 0.611902 0.0235294
0.0956436 0.643671 0.0235904
0.223362 0.687022 0.0248569
0.391638 0.736355 0.0252079
0.537026 0.778775 0.0248569
0.662593 0.812802 0.0253758
0.767819 0.840162 0.0260929
0.852674 0.8607 0.0269169
0.918761 0.874891 0.0277562
0.962478 0.883574 0.0284428
0.982116 0.886168 0.0282597
0.988479 0.885054 0.0275578
0.991974 0.883421 0.0272831
0.994247 0.882277 0.0274662
0.99585 0.881575 0.0276799
0.997375 0.881239 0.027863
0.998932 0.881056 0.027924
1 0.881254 0.0279393
1 0.881559 0.027924
1 0.881819 0.0279088
1 0.882124 0.0278935
1 0.882383 0.027863
1 0.882658 0.0278477
1 0.882918 0.0278172
0.0136721 0.519738 0.0248417
0.0164187 0.519478 0.0248417
0.0194247 0.519432 0.0248569
0.0225834 0.521523 0.0247807
0.0260624 0.529839 0.0245975
0.0300603 0.544137 0.024506
0.0346838 0.560067 0.024567
0.0402838 0.576547 0.0246433
0.0467231 0.595422 0.0247044
0.0558022 0.618997 0.0245212
0.0932479 0.648981 0.0246433
0.211139 0.69044 0.0258793
0.375143 0.738293 0.0263676
0.521859 0.780545 0.0258793
0.645731 0.814359 0.0261845
0.752972 0.842542 0.0268254
0.839124 0.864088 0.0276646
0.907591 0.879377 0.0285191
0.95613 0.88957 0.0293278
0.981018 0.894209 0.0298924
0.989395 0.89427 0.029984
0.992691 0.892744 0.0294194
0.994476 0.891295 0.0285191
0.996017 0.890532 0.0285496
0.997559 0.890196 0.0287022
0.9991 0.890074 0.028748
1 0.890257 0.0287785
1 0.890501 0.028748
1 0.890715 0.028748
1 0.890913 0.0287175
1 0.891112 0.0287022
1 0.891295 0.028687
1 0.891478 0.0286717
0.0150149 0.52781 0.0258335
0.0178378 0.527947 0.0258946
0.0208438 0.528298 0.0259403
0.0240177 0.529793 0.0259098
0.0275425 0.536843 0.0257725
0.0316167 0.551522 0.0256962
0.0364691 0.568566 0.0256809
0.0422675 0.585504 0.025742
0.0485237 0.603784 0.0257267
0.0562142 0.625849 0.0255589
0.0866407 0.654063 0.0256352
0.199145 0.694133 0.0267796
