site/assets/luts/freshluts--0000455-bmpcc4k.cube
# LUTr-Schema-Version: 2
# LUTr-ID: freshluts--0000455-bmpcc4k
# LUTr-Title: BMPCC4K
# LUTr-Collection: Fresh LUTs
# LUTr-Collection-ID: freshluts-community
# LUTr-Source: https://freshluts.com
# LUTr-Retrieved: 2026-07-27
# LUTr-Source-File: submissions-raw/freshluts/cubes/455__BMPCC4K.cube
# LUTr-Source-Format: CUBE
# LUTr-Source-SHA256: e4f6fbfbb5dd0822d1d340d47d213ab4dd49bb19278eb2f4e62ea2ff54d7947d
# LUTr-License: CC0-1.0
# LUTr-License-URL: https://freshluts.com/termsandconditions
# LUTr-License-Basis: site-terms
# LUTr-Transform-Class: creative-look
# LUTr-Tags: creative, freshluts, community, cube, bmd-film
# LUTr-Input-Color-Space: bmd-film
# LUTr-Input-Gamut: bmd-film-gamut
# LUTr-Input-Transfer: bmd-film
# LUTr-Output-Color-Space: srgb
# LUTr-Output-Gamut: rec709
# LUTr-Output-Transfer: srgb
# LUTr-Color-Space-Confidence: inferred-from-source-label
# LUTr-Domain-Normalized: true
# LUTr-Shaper: none
# LUTr-Original-Grid: 33x33x33
# LUTr-Conversion-Grid: 33x33x33
# LUTr-Conversion-Interpolation: none
# LUTr-Conversion-Method: Metadata normalization; numeric LUT samples preserved
# LUTr-Conversion-Tool: LUTr scripts/convert-all-to-cube.mjs 2.0.0
# LUTr-Conversion-Date: 2026-07-28
# LUTr-Asset-URL: https://freshluts.com/luts/455
# LUTr-Author: Revirssab
# LUTr-Author-URL: https://freshluts.com/users/9194
# LUTr-Attribution: Revirssab via Fresh LUTs
# LUTr-Source-Labels: gamma=Blackmagic BMD Film; color=None; key=Neutral; style=Adventure
# LUTr-Note: Preserve this metadata and the upstream license notices when redistributing.
TITLE "BMPCC4K"
LUT_3D_SIZE 33
DOMAIN_MIN 0 0 0
DOMAIN_MAX 1 1 1
0 0 0
0 0 0
0 0 0
0 0 0
0 0 0
0 0 0
0 0 0
0.0894484 0 0
0.169909 0 0
0.240421 0 0
0.312413 0 0
0.385199 0 0
0.458869 0 0
0.532998 0 0
0.605234 0 0
0.661616 0 0
0.704921 0 0
0.743648 0 0
0.779232 0 0
0.811978 0 0
0.838544 0 0
0.862852 0 0
0.887587 0 0
0.912154 0 0
0.936599 0 0
0.961059 0 0
0.980987 0 0
0.998901 0 0
1 0 0
1 0 0
1 0 0
1 0 0
1 0 0
0 0 0
0 0 0
0 0 0
0 0 0
0 0 0
0 0 0
0 0 0
0.082887 0 0
0.165225 0 0
0.236561 0 0
0.309071 0 0
0.382437 0 0
0.456687 0 0
0.531395 0 0
0.604181 0 0
0.660868 0 0
0.704555 0 0
0.743664 0 0
0.779599 0 0
0.812711 0 0
0.839597 0 0
0.864271 0 0
0.889418 0 0
0.914534 0 0
0.939788 0 0
0.965423 0 0
0.983856 0 0
0.999069 0 0
1 0 0
1 0 0
1 0 0
1 0 0
1 0 0
0 0 0
0 0 0
0 0 0
0 0 0
0 0 0
0 0 0
0 0 0
0.0750439 0 0
0.159869 0 0
0.23238 0 0
0.305592 0 0
0.379736 0 0
0.454749 0 0
0.530282 0 0
0.603845 0 0
0.660792 0 0
0.705074 0 0
0.744869 0 0
0.781674 0 0
0.816052 0 0
0.844343 0 0
0.869474 0 0
0.894926 0 0
0.919936 0 0
0.944686 0 0
0.969329 0 0
0.986038 0 0
0.999191 0 0
1 0 0
1 0 0
1 0 0
1 0 0
1 0 0
0 0 0
0 0 0
0 0 0
0 0 0
0 0 0
0 0 0
0 0 0
0.0660716 0 0
0.153979 0 0
0.228 0 0
0.302205 0 0
0.377447 0 0
0.453651 0 0
0.530526 0 0
0.605417 0 0
0.663066 0 0
0.709331 0 0
0.749538 0 0
0.78613 0 0
0.819577 0 0
0.846632 0 0
0.871031 0 0
0.895872 0 0
0.920729 0 0
0.945296 0 0
0.969665 0 0
0.986191 0 0
0.999191 0 0
1 0 0
1 0 0
1 0 0
1 0 0
1 0 0
0 0 0
0 0 0
0 0 0
0 0 0
0 0 0
0 0 0
0 0 0
0.0562905 0 0
0.147951 0 0
0.22388 0 0
0.299733 0 0
0.377035 0 0
0.45716 0 0
0.536309 0 0
0.610864 0 0
0.665537 0 0
0.710079 0 0
0.74966 0 0
0.78584 0 0
0.818982 0 0
0.845823 0 0
0.870054 0 0
0.894759 0 0
0.919493 0 0
0.943938 0 0
0.968231 0 0
0.98529 0 0
0.999146 0 0
1 0 0
1 0 0
1 0 0
1 0 0
1 0 0
0 0.0324407 0
0 0.0315099 0
0 0.0296788 0
0 0.0268254 0
0 0.0230564 0
0 0.0183261 0
0 0.0119326 0
0.0458381 0.0000915541 0
0.142611 0 0
0.222873 0 0
0.30071 0 0
0.378561 0 0
0.456535 0 0
0.534279 0 0
0.608286 0 0
0.663035 0 0
0.707378 0 0
0.746822 0 0
0.78291 0 0
0.815976 0 0
0.842741 0 0
0.866926 0 0
0.891585 0 0
0.916274 0 0
0.940673 0.000198367 0
0.96492 0.000640879 0
0.983291 0.0015259 0
0.999023 0.00259403 0
1 0.00344854 0
1 0.00434882 0
1 0.00550851 0
1 0.00668345 0
1 0.00787366 0
0 0.102205 0
0 0.102052 0
0 0.101183 0
0 0.0997024 0
0 0.0976425 0
0 0.0955367 0
0 0.0920119 0
0.0399481 0.0790723 0
0.139025 0.0713207 0
0.217731 0.0670787 0
0.294728 0.064332 0
0.372122 0.062501 0
0.449714 0.061326 0
0.527214 0.0606394 0
0.601694 0.0603799 0
0.657938 0.0605325 0
0.702251 0.0610056 0
0.74165 0.0616159 0
0.777691 0.0623178 0
0.810727 0.0630808 0
0.837476 0.0637522 0
0.861814 0.0644541 0
0.886549 0.0652018 0
0.911025 0.0659953 0
0.935302 0.0668193 0
0.959518 0.0677195 0
0.980011 0.0686351 0
0.99884 0.0695811 0
1 0.0705882 0
1 0.0716259 0
1 0.0726787 0
1 0.0737621 0
1 0.0748608 0
0 0.169146 0
0 0.170336 0
0 0.172549 0
0 0.172686 0
0 0.171054 0
0 0.167895 0
0 0.162707 0
0.0302434 0.150637 0
0.132601 0.141863 0
0.211917 0.137057 0
0.288869 0.133761 0
0.366308 0.131426 0
0.443915 0.129793 0
0.521447 0.128679 0
0.596429 0.127993 0
0.653971 0.127764 0
0.698329 0.127855 0
0.737758 0.128145 0
0.773816 0.128573 0
0.806867 0.129061 0
0.8336 0.129519 0
0.857954 0.130037 0
0.882704 0.130571 0
0.907179 0.131197 0
0.931441 0.131838 0
0.955657 0.132509 0
0.977661 0.133242 0
0.998703 0.133974 0
1 0.134798 0
1 0.135622 0
1 0.136477 0
1 0.137362 0
1 0.138277 0
0 0.239078 0
0 0.239918 0
0 0.239796 0
0 0.238621 0
0 0.236316 0
0 0.23267 0
0 0.227253 0
0.0178531 0.216037 0
0.125658 0.2056 0
0.205798 0.200275 0
0.282719 0.196597 0
0.360296 0.193927 0
0.437964 0.191943 0
0.515633 0.190494 0
0.591134 0.189487 0
0.650095 0.188937 0
0.69453 0.188785 0
0.734035 0.188861 0
0.770153 0.189075 0
0.803235 0.189395 0
0.830014 0.189715 0
0.854383 0.190082 0
0.879149 0.190494 0
0.903639 0.190982 0
0.927916 0.191516 0
0.952148 0.192081 0
0.97554 0.192691 0
0.998581 0.193317 0
1 0.194018 0
1 0.194736 0
1 0.195514 0
1 0.196307 0
1 0.197116 0
0 0.308705 0
0 0.308858 0
0 0.308217 0
0 0.306661 0
0 0.304082 0
0 0.300191 0
0 0.294469 0
0.00387579 0.284047 0
0.118532 0.27071 0
0.199527 0.264546 0
0.276356 0.260258 0
0.354009 0.257069 0
0.431724 0.254673 0
0.509514 0.252888 0
0.58555 0.25156 0
0.646067 0.250736 0
0.690608 0.250355 0
0.730205 0.250248 0
0.7664 0.250324 0
0.799542 0.250523 0
0.826352 0.250736 0
0.850752 0.251057 0
0.875547 0.251392 0
0.900069 0.251835 0
0.924376 0.252308 0
0.948608 0.252827 0
0.972656 0.253407 0
0.996612 0.254002 0
0.999115 0.254673 0
1 0.255375 0
1 0.256123 0
1 0.256901 0
1 0.25771 0
0 0.37969 0
0 0.379492 0
0 0.378592 0
0 0.376852 0
0 0.374105 0
0 0.370108 0
0 0.364279 0
0.000015259 0.354284 0
0.111528 0.33959 0
0.193256 0.332769 0
0.269917 0.327993 0
0.347585 0.324376 0
0.425269 0.321599 0
0.503136 0.319463 0
0.579675 0.317861 0
0.641825 0.316747 0
0.686503 0.316152 0
0.726177 0.315847 0
0.762448 0.315785 0
0.795651 0.315862 0
0.822522 0.315999 0
0.846952 0.316243 0
0.871794 0.316518 0
0.896345 0.316884 0
0.920684 0.317296 0
0.944961 0.317769 0
0.969039 0.318303 0
0.993027 0.318853 0
0.997436 0.319493 0
1 0.32015 0
1 0.320882 0
1 0.32163 0
1 0.322423 0
0 0.451835 0
0 0.451438 0
0 0.450355 0
0 0.448447 0
0 0.445609 0
0 0.441505 0
0 0.435584 0
0 0.425772 0
0.104768 0.409934 0
0.187137 0.402548 0
0.263584 0.397391 0
0.341176 0.393469 0
0.418784 0.390417 0
0.496666 0.388022 0
0.573587 0.38616 0
0.637461 0.384817 0
0.682246 0.384009 0
0.722011 0.383566 0
0.758358 0.383352 0
0.791638 0.383307 0
0.81857 0.383352 0
0.843046 0.383505 0
0.867918 0.383688 0
0.892515 0.383978 0
0.916884 0.384329 0
0.941207 0.384741 0
0.965301 0.385199 0
0.989319 0.385702 0
0.995712 0.386297 0
1 0.386908 0
1 0.387579 0
1 0.388281 0
1 0.389013 0
0 0.525063 0
0 0.524514 0
0 0.523308 0
0 0.521309 0
0 0.518334 0
0 0.514199 0
0 0.508278 0
0 0.498665 0
0.0981308 0.482109 0
0.181216 0.474296 0
0.25742 0.468833 0
0.334813 0.464668 0
0.412284 0.461357 0
0.490135 0.458732 0
0.567346 0.456641 0
0.632975 0.4551 0
0.677852 0.454093 0
0.717708 0.453498 0
0.754131 0.453147 0
0.787472 0.452979 0
0.81445 0.452934 0
0.838987 0.453025 0
0.86392 0.453147 0
0.888548 0.453361 0
0.912963 0.453635 0
0.937301 0.453971 0
0.96144 0.454383 0
0.985504 0.454841 0
0.993942 0.45536 0
1 0.455909 0
1 0.45655 0
1 0.457206 0
1 0.457908 0
0 0.596613 0
0 0.595956 0
0 0.594751 0
0 0.592859 0
0 0.590112 0
0 0.586282 0
0 0.580789 0
0 0.571969 0
0.0917372 0.555459 0
0.175509 0.54728 0
0.251499 0.541588 0
0.328649 0.537194 0
0.405951 0.533684 0
0.48368 0.530846 0
0.561074 0.528588 0
0.628458 0.526833 0
0.673426 0.525689 0
0.713359 0.524956 0
0.749844 0.524483 0
0.783246 0.524208 0
0.810269 0.524056 0
0.834836 0.524071 0
0.8598 0.524117 0
0.884489 0.524269 0
0.908934 0.524483 0
0.933318 0.524742 0
0.957488 0.525093 0
0.981582 0.525475 0
0.992126 0.525963 0
1 0.526482 0
1 0.527062 0
1 0.527672 0
1 0.528328 0
0 0.651026 0
0 0.650401 0
0 0.649393 0
0 0.647929 0
0 0.64593 0
0 0.643198 0
0 0.639399 0
0 0.633555 0
0.0856947 0.622385 0
0.170138 0.615228 0
0.245899 0.610162 0
0.322728 0.60618 0
0.399832 0.60296 0
0.477424 0.60032 0
0.554879 0.598154 0
0.624018 0.596429 0
0.669017 0.595254 0
0.70901 0.594461 0
0.745541 0.593927 0
0.779004 0.593576 0
0.806073 0.593362 0
0.830686 0.593301 0
0.855695 0.593256 0
0.8804 0.593301 0
0.904906 0.593408 0
0.92932 0.593576 0
0.953521 0.59382 0
0.977646 0.594079 0
0.990295 0.594446 0
1 0.594827 0
1 0.59527 0
1 0.595743 0
1 0.596246 0
0 0.697826 0
0 0.697154 0
0 0.696132 0
0 0.694652 0
0 0.692638 0
0 0.689937 0
0 0.686229 0
0 0.680583 0
0.0800946 0.669551 0
0.165255 0.663828 0
0.240772 0.659892 0
0.317266 0.656809 0
0.394125 0.654307 0
0.471565 0.652247 0
0.548959 0.650523 0
0.61973 0.649088 0
0.664881 0.648127 0
0.704906 0.647456 0
0.741497 0.646952 0
0.775006 0.646418 0
0.80209 0.646357 0
0.826734 0.64622 0
0.851759 0.646113 0
0.876524 0.646067 0
0.901061 0.646052 0
0.925505 0.646082 0
0.949767 0.646174 0
0.973922 0.646281 0
0.988571 0.646448 0
1 0.646647 0
1 0.646876 0
1 0.647135 0
1 0.64741 0
0 0.741268 0
0 0.740551 0
0 0.739483 0
0 0.738003 0
0 0.735988 0
0 0.733318 0
0 0.729656 0
0 0.724147 0
0.0750134 0.713161 0
0.160952 0.707317 0
0.236271 0.703319 0
0.312459 0.700221 0
0.389075 0.697673 0
0.466346 0.695552 0
0.543664 0.693782 0
0.615167 0.692332 0
0.661158 0.69131 0
0.701228 0.690593 0
0.737835 0.690044 0
0.771359 0.689632 0
0.798489 0.689357 0
0.823163 0.689189 0
0.848219 0.689052 0
0.873014 0.688975 0
0.897581 0.68893 0
0.922057 0.68893 0
0.946334 0.688975 0
0.97052 0.689052 0
0.986984 0.689174 0
1 0.689326 0
1 0.68954 0
1 0.689769 0
1 0.690028 0
0 0.780346 0
0 0.779614 0
0 0.778531 0
0 0.777035 0
0 0.775036 0
0 0.772351 0
0 0.76875 0
0 0.763363 0
0.070573 0.752422 0
0.157183 0.746441 0
0.232364 0.742412 0
0.308248 0.739269 0
0.38468 0.736721 0
0.461784 0.734569 0
0.538949 0.732784 0
0.611032 0.731273 0
0.657832 0.73022 0
0.697932 0.729458 0
0.734554 0.728878 0
0.768093 0.72845 0
0.795239 0.728145 0
0.819928 0.727947 0
0.845014 0.727779 0
0.869825 0.727672 0
0.894408 0.727596 0
0.918898 0.727565 0
0.943206 0.727596 0
0.967407 0.727642 0
0.98555 0.727749 0
1 0.727871 0
1 0.728038 0
1 0.728237 0
1 0.728466 0
0 0.816434 0
0 0.815686 0
0 0.814572 0
0 0.813062 0
0 0.811063 0
0 0.808408 0
0 0.804837 0
0 0.799558 0
0.0665141 0.788678 0
0.153796 0.782574 0
0.228855 0.7785 0
0.304479 0.775341 0
0.380728 0.772763 0
0.457649 0.770611 0
0.534676 0.768795 0
0.607248 0.767269 0
0.65478 0.766171 0
0.694911 0.765393 0
0.731533 0.764782 0
0.765087 0.764309 0
0.792248 0.763989 0
0.816938 0.763775 0
0.842039 0.763577 0
0.866865 0.763455 0
0.891463 0.763363 0
0.915984 0.763302 0
0.940291 0.763302 0
0.964508 0.763317 0
0.984207 0.763394 0
1 0.7635 0
1 0.763653 0
1 0.763821 0
1 0.764035 0
0 0.84976 0
0 0.848814 0
0 0.847684 0
0 0.846342 0
0 0.844327 0
0 0.841703 0
0 0.838163 0
0 0.832959 0
0.0628061 0.822141 0
0.150713 0.815946 0
0.225666 0.811826 0
0.301076 0.808652 0
0.377142 0.806043 0
0.453895 0.803876 0
0.530785 0.802045 0
0.603769 0.80032 0
0.651987 0.799374 0
0.692149 0.798566 0
0.728756 0.79794 0
0.76231 0.797452 0
0.789471 0.797101 0
0.814191 0.796887 0
0.839307 0.79649 0
0.864134 0.796521 0
0.888731 0.796399 0
0.913268 0.796323 0
0.937591 0.796307 0
0.961822 0.796307 0
0.98294 0.796368 0
1 0.796445 0
1 0.796567 0
1 0.796719 0
1 0.796902 0
0 0.876875 0
0 0.876081 0
0 0.874937 0
0 0.873411 0
0 0.871397 0
0 0.868788 0
0 0.865263 0
0 0.860121 0
0.0598154 0.849363 0
0.148241 0.843091 0
0.223117 0.838941 0
0.298344 0.835752 0
0.374273 0.833127 0
0.450874 0.830945 0
0.527657 0.829099 0
0.600931 0.827543 0
0.649729 0.826398 0
0.689891 0.825574 0
0.726513 0.824933 0
0.760067 0.82443 0
0.787228 0.824079 0
0.811948 0.823835 0
0.837064 0.823606 0
0.861906 0.823423 0
0.886519 0.823301 0
0.911055 0.823209 0
0.935393 0.823178 0
0.95964 0.823163 0
0.981933 0.823209 0
1 0.82327 0
1 0.823377 0
1 0.823514 0
1 0.823682 0
0 0.901564 0
0 0.900755 0
0 0.899611 0
0 0.89807 0
0 0.896071 0
0 0.893462 0
0 0.889952 0
0 0.884871 0
0.0570993 0.874174 0
0.146029 0.867826 0
0.220844 0.863645 0
0.295903 0.860441 0
0.371695 0.857816 0
0.448157 0.855634 0
0.524819 0.853773 0
0.598352 0.852201 0
0.6477 0.851041 0
0.687861 0.850355 0
0.724468 0.849729 0
0.758022 0.849226 0
0.785183 0.848844 0
0.809888 0.8486 0
0.835004 0.848356 0
0.859861 0.848173 0
0.884474 0.848035 0
0.909026 0.847929 0
0.933364 0.847883 0
0.95761 0.847852 0
0.98085 0.847883 0
0.999771 0.847929 0
0.999908 0.848035 0
1 0.848157 0
1 0.84831 0
0 0.926772 0
0 0.925948 0
0 0.924788 0
0 0.923247 0
0 0.921263 0
0 0.918654 0
0 0.91516 0
0 0.91014 0
0.0543374 0.899519 0
0.143786 0.89308 0
0.21854 0.888884 0
0.293431 0.885649 0
0.36907 0.883024 0
0.445396 0.880827 0
0.52195 0.878965 0
0.595728 0.877379 0
0.645624 0.876204 0
0.685786 0.875608 0
0.722393 0.874983 0
0.755947 0.874281 0
0.783093 0.874083 0
0.807797 0.873823 0
0.832914 0.873564 0
0.857801 0.873381 0
0.882429 0.873228 0
0.90695 0.873106 0
0.931304 0.873045 0
0.95555 0.872999 0
0.979568 0.873014 0
0.999207 0.87306 0
0.99971 0.873137 0
1 0.873243 0
1 0.873396 0
0 0.952209 0
0 0.951385 0
0 0.95021 0
0 0.948669 0
0 0.94667 0
0 0.94406 0
0 0.940597 0
0 0.935607 0
0.051545 0.925063 0
0.141527 0.918532 0
0.216251 0.914321 0
0.290974 0.91107 0
0.366476 0.908431 0
0.442679 0.906233 0
0.519097 0.904356 0
0.593103 0.902754 0
0.643565 0.901579 0
0.683726 0.900801 0
0.720317 0.900145 0
0.753841 0.899611 0
0.781003 0.899214 0
0.805707 0.898939 0
0.830854 0.89868 0
0.855833 0.898497 0
0.880476 0.898329 0
0.904891 0.898207 0
0.929213 0.898131 0
0.953475 0.89807 0
0.977493 0.898085 0
0.99736 0.8981 0
0.999039 0.898177 0
1 0.898268 0
1 0.89839 0
0 0.974807 0
0 0.974182 0
0 0.973312 0
0 0.972137 0
0 0.970657 0
0 0.968719 0
0 0.965805 0
0 0.960876 0
0.0488136 0.950408 0
0.139315 0.943786 0
0.214038 0.939529 0
0.288594 0.936278 0
0.363958 0.933623 0
0.440009 0.931426 0
0.516304 0.929549 0
0.590509 0.927932 0
0.64152 0.926726 0
0.681697 0.925856 0
0.718273 0.925185 0
0.751797 0.924636 0
0.778943 0.924239 0
0.803647 0.923949 0
0.828794 0.92369 0
0.853834 0.923476 0
0.878492 0.923308 0
0.902846 0.923171 0
0.927153 0.923095 0
0.951415 0.923018 0
0.975433 0.923018 0
0.995529 0.923033 0
0.998383 0.923095 0
1 0.923171 0
1 0.923293 0
0 0.994064 0
0 0.993912 0
0 0.993713 0
0 0.993439 0
0 0.993088 0
0 0.99263 0
0 0.990967 0
0 0.986084 0
0.0461128 0.975692 0
0.137163 0.968978 0
0.211887 0.964706 0
0.286244 0.96144 0
0.361486 0.958785 0
0.437385 0.956573 0
0.513573 0.954665 0
0.58793 0.953048 0
0.639521 0.951843 0
0.679698 0.950973 0
0.716258 0.950271 0
0.749767 0.949722 0
0.776898 0.94931 0
0.801602 0.94902 0
0.826734 0.948745 0
0.851789 0.948531 0
0.876432 0.948348 0
0.900801 0.948211 0
0.925109 0.948119 0
0.949371 0.948043 0
0.973388 0.948028 0
0.993698 0.948028 0
0.997726 0.948074 0
1 0.94815 0
1 0.948257 0
0 1 0
0 1 0
0 1 0
0 1 0
0 1 0
0 1 0
0 0.999222 0
0 0.996277 0
0.0434272 0.990005 0
0.135027 0.985916 0
0.209766 0.983337 0
0.28394 0.981353 0
0.359045 0.979736 0
0.434821 0.978393 0
0.510872 0.977249 0
0.585412 0.976272 0
0.637552 0.97554 0
0.677729 0.975006 0
0.71426 0.974578 0
0.747753 0.974243 0
0.774884 0.973999 0
0.799573 0.973816 0
0.824704 0.973648 0
0.84976 0.97348 0
0.874403 0.973342 0
0.898772 0.97319 0
0.923064 0.973083 0
0.947341 0.973007 0
0.971359 0.972976 0
0.991882 0.972961 0
0.997055 0.973007 0
1 0.973068 0
1 0.973159 0
0 1 0
0 1 0
0 1 0
0 1 0
0 1 0
0 1 0
0 0.999954 0
0 0.999786 0
0.0407416 0.99942 0
