site/assets/luts/freshluts--0000015-contrasty-green.cube
# LUTr-Schema-Version: 2
# LUTr-ID: freshluts--0000015-contrasty-green
# LUTr-Title: Contrasty Green
# LUTr-Collection: Fresh LUTs
# LUTr-Collection-ID: freshluts-community
# LUTr-Source: https://freshluts.com
# LUTr-Retrieved: 2026-07-27
# LUTr-Source-File: submissions-raw/freshluts/cubes/15__Contrasty_Green.cube
# LUTr-Source-Format: CUBE
# LUTr-Source-SHA256: b7eead88970175b6e2b6cda6ca29dd774c1a3cfd2626d44bedf480056d6039d6
# LUTr-License: CC0-1.0
# LUTr-License-URL: https://freshluts.com/termsandconditions
# LUTr-License-Basis: site-terms
# LUTr-Transform-Class: creative-look
# LUTr-Tags: creative, freshluts, community, cube, cinematic, blockbuster, green, low-key, rec709
# LUTr-Input-Color-Space: rec709
# LUTr-Input-Gamut: rec709
# LUTr-Input-Transfer: rec709
# LUTr-Output-Color-Space: srgb
# LUTr-Output-Gamut: rec709
# LUTr-Output-Transfer: srgb
# LUTr-Color-Space-Confidence: declared-by-source
# LUTr-Domain-Normalized: true
# LUTr-Shaper: none
# LUTr-Original-Grid: 33x33x33
# LUTr-Conversion-Grid: 33x33x33
# LUTr-Conversion-Interpolation: none
# LUTr-Conversion-Method: Metadata normalization; numeric LUT samples preserved
# LUTr-Conversion-Tool: LUTr scripts/convert-all-to-cube.mjs 2.0.0
# LUTr-Conversion-Date: 2026-07-28
# LUTr-Asset-URL: https://freshluts.com/luts/15
# LUTr-Author: Alex Jordan
# LUTr-Author-URL: https://freshluts.com/users/1
# LUTr-Attribution: Alex Jordan via Fresh LUTs
# LUTr-Source-Labels: gamma=Rec 709; color=Green; key=Low Key; style=Blockbuster
# LUTr-Note: Preserve this metadata and the upstream license notices when redistributing.
TITLE "Contrasty Green"
LUT_3D_SIZE 5
DOMAIN_MIN 0 0 0
DOMAIN_MAX 1 1 1
0 0 0
0.136004 0 0
0.576104 0 0
1 0 0
1 0 0
0 0.0569924 0
0.10396 0.0705577 0
0.665644 0.0261082 0
1 0 0
1 0 0
0 0.488289 0
0.159152 0.57467 0
0.840406 0.563592 0
1 0.457847 0
1 0.500832 0
0 1 0
0.260166 1 0
1 1 0
1 1 0
1 1 0
0 1 0
0.335241 1 0
1 1 0
1 1 0
1 1 0
0 0 0.0484627
0.129198 0 0
0.575952 0 0
1 0 0
1 0 0
0 0.0675212 0
0.122789 0.0880751 0.01944
0.707012 0.0487678 0
1 0 0
1 0 0
0 0.529931 0
0.19266 0.617182 0.0623789
0.881788 0.605417 0.0644083
1 0.499962 0
1 0.548608 0
0 1 0.0134737
0.296895 1 0.114137
1 1 0.138598
1 1 0.089128
1 1 0.114183
0 1 0
0.379278 1 0.117968
1 1 0.171481
1 1 0.163485
1 1 0.187228
0 0 0.152804
0.125216 0 0.0814832
0.592233 0 0
1 0 0
1 0 0
0 0.080766 0.0894942
0.147051 0.109926 0.123232
0.761837 0.0747692 0.0931716
1 0 0
1 0 0
0 0.576135 0.122454
0.220218 0.659052 0.209323
0.927092 0.647181 0.208469
1 0.540993 0.125597
1 0.595438 0.139406
0 1 0.205707
0.328054 1 0.301701
1 1 0.322026
1 1 0.264073
1 1 0.307057
0 1 0.221592
0.419532 1 0.341985
1 1 0.390829
1 1 0.376806
1 1 0.416144
0 0 0.321904
0.117739 0 0.233326
0.609476 0 0.108766
1 0 0
1 0 0
0 0.0913252 0.265019
0.169085 0.128923 0.313146
0.812497 0.0975052 0.291951
1 0 0.179141
1 0 0.207279
0 0.615625 0.352819
0.244434 0.693721 0.435477
0.969955 0.683558 0.432197
1 0.577905 0.342519
1 0.637507 0.376013
0 1 0.479103
0.359197 1 0.570855
1 1 0.585748
1 1 0.520088
1 1 0.581537
0 1 0.528618
0.455863 1 0.645823
1 1 0.689952
1 1 0.669505
1 1 0.725521
0 0 0.665919
0.0972305 0 0.553796
0.616068 0 0.42002
1 0 0.207523
1 0 0.275319
0 0.0941634 0.589029
0.184161 0.140749 0.636454
0.85388 0.114092 0.612055
1 0 0.481758
1 0.0198825 0.564904
0 0.645426 0.698314
0.264988 0.722118 0.770336
1 0.712108 0.75816
1 0.609018 0.651774
1 0.671794 0.720958
0 1 0.889128
0.386618 1 0.963668
1 1 0.963943
1 1 0.878065
1 1 0.986526
0 1 1
0.483589 1 1
1 1 1
1 1 1
1 1 1
