site/assets/luts/freshluts--0001054-mexican-food.cube
# LUTr-Schema-Version: 2
# LUTr-ID: freshluts--0001054-mexican-food
# LUTr-Title: Mexican Food
# LUTr-Collection: Fresh LUTs
# LUTr-Collection-ID: freshluts-community
# LUTr-Source: https://freshluts.com
# LUTr-Retrieved: 2026-07-27
# LUTr-Source-File: submissions-raw/freshluts/cubes/1054__Mexican.cube
# LUTr-Source-Format: CUBE
# LUTr-Source-SHA256: 08c6f88d796b1c1f3c2024804937c709344a03aceff8d99d8d2b85d585a0f74a
# LUTr-License: CC0-1.0
# LUTr-License-URL: https://freshluts.com/termsandconditions
# LUTr-License-Basis: site-terms
# LUTr-Transform-Class: creative-look
# LUTr-Tags: creative, freshluts, community, cube, warm, rec709, assumed-input
# LUTr-Input-Color-Space: rec709
# LUTr-Input-Gamut: rec709
# LUTr-Input-Transfer: rec709
# LUTr-Output-Color-Space: srgb
# LUTr-Output-Gamut: rec709
# LUTr-Output-Transfer: srgb
# LUTr-Color-Space-Confidence: assumed-display-referred
# LUTr-Domain-Normalized: true
# LUTr-Shaper: none
# LUTr-Original-Grid: 17x17x17
# LUTr-Conversion-Grid: 17x17x17
# LUTr-Conversion-Interpolation: none
# LUTr-Conversion-Method: Metadata normalization; numeric LUT samples preserved
# LUTr-Conversion-Tool: LUTr scripts/convert-all-to-cube.mjs 2.0.0
# LUTr-Conversion-Date: 2026-07-28
# LUTr-Asset-URL: https://freshluts.com/luts/1054
# LUTr-Author: Gina
# LUTr-Author-URL: https://freshluts.com/users/90727
# LUTr-Attribution: Gina via Fresh LUTs
# LUTr-Source-Labels: gamma=RED Color; color=Warm; key=Neutral; style=Cinematic/Dark; LUTr assumption=input Rec.709 per repository policy
# LUTr-Conversion-Warning: Input Rec.709 is a LUTr catalog assumption requested for this otherwise unspecified Fresh LUT; it is not verified by the upstream asset.
# LUTr-Note: Preserve this metadata and the upstream license notices when redistributing.
# LUTr-Upstream-Comment: Created by Saumyajit Maity on 2019-12-24 13:25:06 +0000
# LUTr-Upstream-Comment: Color Finale Plugin v.1.9.4 (263)
TITLE "Mexican Food"
LUT_3D_SIZE 9
DOMAIN_MIN 0 0 0
DOMAIN_MAX 1 1 1
0.0144 0.026 0.0432
0.0937 0.0192 0.0364
0.1869 0.0158 0.0242
0.3015 0.0094 0.0019
0.4286 0 0
0.5719 0 0
0.7224 0 0
0.8635 0 0
1 0 0
0 0.099 0.0304
0.0787 0.0957 0.0226
0.1816 0.088 0.0077
0.3003 0.0825 0
0.4356 0.0694 0
0.5838 0.0231 0
0.7395 0 0
0.8866 0 0
1 0 0
0 0.184 0.0269
0.0464 0.1776 0.015
0.1686 0.1725 0
0.3051 0.1668 0
0.4474 0.1584 0
0.5994 0.1422 0
0.7536 0.1163 0
0.9032 0.0955 0
1 0.1016 0
0 0.276 0.0076
0.0114 0.2754 0.0009
0.115 0.275 0
0.3132 0.2712 0
0.4744 0.2716 0
0.6339 0.2722 0
0.7976 0.2637 0
0.9439 0.2601 0
1 0.2628 0
0 0.3744 0
0 0.3766 0
0.0547 0.3857 0
0.2929 0.3942 0
0.4953 0.402 0
0.6803 0.4074 0
0.8526 0.4078 0
1 0.4063 0
1 0.4083 0
0 0.4707 0
0 0.4757 0
0.0257 0.4953 0
0.2177 0.5208 0
0.4844 0.539 0
0.6869 0.5539 0
0.8745 0.5557 0
1 0.5532 0
1 0.5523 0
0 0.555 0
0 0.5646 0
0.0022 0.5931 0
0.1565 0.6349 0
0.466 0.6671 0
0.6709 0.6951 0
0.8701 0.7044 0
0.9866 0.6946 0
1 0.688 0
0 0.6266 0
0 0.646 0
0 0.6775 0
0.1424 0.7316 0
0.4571 0.7754 0
0.6549 0.8163 0
0.8482 0.8295 0
0.9637 0.8157 0
1 0.8076 0
0 0.7112 0
0 0.7407 0
0 0.778 0
0.1868 0.8302 0
0.4546 0.8815 0
0.646 0.9286 0
0.8315 0.9376 0
0.9415 0.9278 0
1 0.9191 0
0.0119 0.0234 0.1257
0.091 0.0165 0.1224
0.1864 0.0129 0.11
0.3011 0.0065 0.0895
0.4323 0 0.0488
0.5782 0 0.0283
0.7278 0 0.0147
0.8737 0 0.0048
1 0 0
0 0.0963 0.1187
0.076 0.093 0.1108
0.1744 0.0897 0.0998
0.3011 0.0819 0.0746
0.436 0.0582 0.0238
0.5919 0.0026 0.0104
0.7468 0 0
0.894 0 0
1 0 0
0 0.1814 0.1169
0.037 0.1776 0.1055
0.1624 0.1732 0.0856
0.3038 0.167 0.0567
0.4479 0.154 0
0.6026 0.1348 0
0.762 0.0996 0
0.9093 0.085 0
1 0.0881 0
0 0.2786 0.1026
0.0048 0.2771 0.0935
0.1039 0.2786 0.0748
0.3094 0.2741 0.016
0.4757 0.2733 0
0.6373 0.2714 0
0.8003 0.2646 0
0.951 0.2596 0
1 0.2643 0
0 0.3789 0.0748
0 0.3817 0.0633
0.0491 0.3911 0.0391
0.2877 0.3995 0
0.4964 0.4067 0
0.6855 0.4119 0
0.8613 0.4119 0
1 0.4105 0
1 0.415 0
0 0.4767 0.0354
0 0.4822 0.0169
0.0215 0.5006 0
0.1933 0.5297 0
0.4851 0.5449 0
0.6913 0.5621 0
0.8823 0.5642 0
1 0.5587 0
1 0.5578 0
0 0.5587 0
0 0.5701 0
0 0.5965 0
0.1452 0.6431 0
0.4649 0.6759 0
0.6733 0.7066 0
0.8679 0.7136 0
0.9858 0.7011 0
1 0.6951 0
0 0.6295 0
0 0.6475 0
0 0.6819 0
0.128 0.7371 0
0.4522 0.7827 0
0.6566 0.8223 0
0.846 0.8335 0
0.9581 0.8183 0
1 0.811 0
0 0.7147 0.0383
0 0.7444 0.0098
0 0.7787 0
0.1325 0.8342 0
0.4464 0.8799 0
0.6383 0.9246 0
0.8259 0.9353 0
0.9376 0.9238 0
1 0.9146 0
0.0006 0.0209 0.2201
0.0872 0.0134 0.2179
0.1827 0.0097 0.2101
0.2979 0.003 0.1982
0.4302 0 0.1804
0.575 0 0.1627
0.7272 0 0.1394
0.8745 0 0.1273
1 0 0.1224
0 0.0976 0.2171
0.0677 0.0913 0.2068
0.1709 0.0867 0.1994
0.2951 0.0789 0.1863
0.4343 0.0517 0.1615
0.5893 0 0.1404
0.7479 0 0.122
0.8956 0 0.1112
1 0 0.1066
0 0.1803 0.221
0.031 0.1768 0.2138
0.1519 0.1737 0.1948
0.2964 0.1688 0.1696
0.4426 0.1538 0.1403
0.6003 0.1115 0.1064
0.7632 0.0577 0.0867
0.9154 0.0402 0.0756
1 0.0424 0.0664
0 0.2812 0.219
0 0.2786 0.2119
0.0794 0.2824 0.1965
0.2945 0.279 0.1474
0.4593 0.2765 0.1174
0.6276 0.265 0.0624
0.7922 0.2535 0.0314
0.9423 0.2474 0.0138
1 0.2508 0.0062
0 0.3846 0.2027
0 0.3867 0.1939
0.037 0.3973 0.1771
0.2571 0.4056 0.1209
0.4855 0.4063 0.0302
0.6775 0.4089 0
0.8482 0.4074 0
1 0.4051 0
1 0.4098 0
0 0.4833 0.1809
0 0.4887 0.1711
0.0103 0.5065 0.1458
0.1595 0.5319 0.0684
0.4726 0.546 0
0.6814 0.5599 0
0.8752 0.5608 0
1 0.5578 0
1 0.5561 0
0 0.5672 0.1673
0 0.5773 0.1532
0 0.6021 0.1221
0.0945 0.6441 0.0327
0.4512 0.6733 0
0.6592 0.7033 0
0.8592 0.71 0
0.9826 0.6989 0
1 0.6918 0
0 0.6417 0.1765
0 0.6587 0.1604
0 0.6869 0.133
0.0721 0.7377 0.0499
0.4345 0.7736 0
0.6397 0.8123 0
0.837 0.823 0
0.9557 0.8123 0
1 0.8023 0
0 0.7306 0.2214
0 0.7574 0.2092
0 0.7936 0.188
0.0572 0.8447 0.1389
0.4174 0.8708 0.0301
0.6128 0.9025 0
0.8009 0.9161 0
0.936 0.9093 0
1 0.894 0
0 0.0031 0.3364
0.0767 0 0.3334
0.1799 0 0.3285
0.2995 0 0.3232
0.4321 0 0.3187
0.5786 0 0.31
0.7284 0 0.304
0.876 0 0.2981
1 0 0.2951
0 0.0803 0.3325
0.0457 0.0834 0.3277
0.163 0.0786 0.323
0.2949 0.0702 0.3173
0.4345 0.0358 0.3094
0.5897 0 0.3061
0.7484 0 0.2977
0.8964 0 0.2937
1 0 0.2919
0 0.1748 0.3393
0.0264 0.1723 0.3351
0.1281 0.1734 0.325
0.2869 0.1688 0.3147
0.4381 0.1528 0.3044
0.5957 0.1068 0.2927
0.7614 0.0522 0.2884
0.9124 0.0291 0.2846
1 0.0376 0.2792
0 0.2822 0.3554
0 0.2792 0.351
0.0689 0.2846 0.3498
0.2705 0.2882 0.3171
0.4454 0.2843 0.2951
0.6164 0.2701 0.2756
0.7807 0.253 0.2626
0.9301 0.2449 0.2551
1 0.2501 0.2502
0 0.3895 0.3639
0 0.392 0.3587
0.0301 0.4043 0.3558
0.1866 0.4172 0.3246
0.4549 0.4184 0.2765
0.6407 0.4148 0.2586
0.8163 0.4083 0.2384
0.9715 0.4034 0.2301
1 0.407 0.2261
0 0.4938 0.3598
0 0.4991 0.3563
0 0.5174 0.3492
0.0874 0.546 0.3212
0.4328 0.5565 0.2514
0.6422 0.5595 0.2186
0.8288 0.5557 0.198
0.9882 0.5523 0.1849
1 0.5539 0.1816
0 0.5804 0.3596
0 0.5906 0.3547
0 0.6174 0.3448
0.0394 0.6611 0.3177
0.4078 0.6825 0.248
0.6217 0.6978 0.1969
0.8136 0.6978 0.167
0.9652 0.6907 0.1466
1 0.6845 0.1383
0 0.6549 0.3722
0 0.6728 0.367
0 0.7061 0.3578
0.0194 0.7594 0.3329
0.3931 0.7879 0.2648
0.6034 0.8096 0.2206
0.7916 0.813 0.1897
0.9407 0.805 0.1712
1 0.7936 0.1656
0 0.745 0.402
0 0.7754 0.3983
0 0.811 0.3913
0.0019 0.8694 0.3713
0.3855 0.8948 0.3047
0.5859 0.9183 0.2729
0.7663 0.9238 0.2495
0.9146 0.9146 0.2343
1 0.9046 0.2266
0 0 0.4535
0.0558 0 0.4497
0.1665 0 0.4488
0.3022 0 0.4501
0.4356 0 0.4466
0.5824 0 0.4428
0.7347 0 0.4396
0.883 0 0.436
1 0 0.4367
0 0.0607 0.4557
0.043 0.0545 0.4515
0.1547 0.0445 0.4508
0.3003 0.0257 0.4512
0.4408 0.0037 0.4479
0.5931 0 0.4436
0.7524 0 0.4406
0.9017 0 0.4362
1 0 0.4351
0 0.1365 0.4603
0.024 0.1412 0.4564
0.0988 0.1644 0.4557
0.2807 0.159 0.4497
0.4363 0.1421 0.4457
0.5989 0.0891 0.4426
0.7644 0.0365 0.4417
0.9124 0.0219 0.4386
1 0.0275 0.4356
0 0.2784 0.4807
0 0.2748 0.4764
0.0654 0.2831 0.4814
0.2506 0.2921 0.4593
0.4369 0.2869 0.4512
0.6086 0.2746 0.4412
0.7717 0.2566 0.4333
0.9175 0.2491 0.427
1 0.2549 0.4267
0 0.394 0.5076
0 0.3985 0.5087
0.0336 0.4063 0.5138
0.1426 0.423 0.5006
0.43 0.43 0.4528
0.6174 0.4253 0.4367
0.7936 0.4159 0.4272
0.9431 0.4109 0.4208
1 0.4141 0.418
0 0.501 0.5241
0 0.5065 0.523
0 0.523 0.5241
0.0561 0.5561 0.5182
0.4024 0.5706 0.4472
0.6124 0.5746 0.4264
0.7983 0.5672 0.4157
0.9534 0.5633 0.4087
1 0.565 0.4059
0 0.5901 0.529
0 0.6003 0.5279
0 0.6257 0.5294
0.0291 0.6718 0.5182
0.3749 0.7039 0.4441
0.5931 0.7153 0.4215
0.782 0.7136 0.4059
0.9415 0.7072 0.3983
1 0.7022 0.3938
0 0.665 0.5382
0 0.683 0.5382
0 0.7158 0.5379
0.0113 0.7705 0.5294
0.3565 0.8103 0.4525
0.5773 0.828 0.4289
0.7614 0.8295 0.4124
0.9161 0.8237 0.4049
1 0.8157 0.3997
0 0.7518 0.5587
0 0.782 0.5621
0 0.8197 0.5616
0 0.8807 0.5502
0.3505 0.9207 0.4737
0.5616 0.9376 0.4478
0.7371 0.9399 0.4343
0.8925 0.9353 0.4267
1 0.9262 0.4192
0 0 0.571
0.0506 0 0.5701
0.1305 0 0.5714
0.2989 0 0.5714
0.4387 0 0.5742
0.5859 0 0.5727
0.7426 0 0.5697
0.8896 0 0.5655
1 0 0.5659
0 0.0556 0.5769
0.0377 0.0491 0.5761
0.1206 0.0418 0.5769
0.2973 0.0194 0.5786
0.4437 0 0.5799
0.5999 0 0.5778
0.7581 0 0.5761
0.9077 0 0.5731
1 0 0.5723
0 0.122 0.591
0.0248 0.1137 0.5901
0.0927 0.1303 0.5901
0.2797 0.1348 0.5855
0.4389 0.1122 0.5859
0.6034 0.0604 0.5876
0.7681 0.0245 0.5872
0.9168 0.0148 0.5838
1 0.0073 0.5819
0 0.2579 0.606
0 0.2584 0.6086
0.0579 0.2748 0.6178
0.2199 0.2929 0.606
0.4313 0.2857 0.5984
0.603 0.2709 0.5906
0.7663 0.2532 0.585
0.9146 0.2455 0.5778
1 0.2507 0.5761
0 0.3924 0.6655
0 0.3944 0.6636
0.0316 0.407 0.6748
0.1161 0.426 0.6786
0.4152 0.433 0.6091
0.6043 0.4295 0.5994
0.778 0.4202 0.5876
0.9294 0.4144 0.5814
1 0.4189 0.5765
0 0.5028 0.6989
0 0.5076 0.705
0 0.5258 0.7147
0.0618 0.5578 0.718
0.3826 0.5753 0.6407
0.5914 0.5819 0.5957
0.7736 0.5765 0.5824
0.9286 0.5697 0.575
1 0.571 0.5714
0 0.5923 0.7112
0 0.6021 0.7175
0 0.629 0.7254
0.0343 0.6748 0.723
0.3437 0.7082 0.6451
0.5723 0.726 0.5897
0.7581 0.7242 0.5746
0.9132 0.718 0.5667
1 0.7124 0.5616
0 0.6682 0.7202
0 0.6855 0.7254
0 0.7175 0.7328
0.0148 0.7742 0.7334
0.3219 0.8183 0.6514
0.5574 0.842 0.591
0.7377 0.8427 0.5769
0.8896 0.837 0.568
1 0.828 0.5625
0 0.7554 0.7377
0 0.7854 0.7468
0 0.8223 0.7501
0.0008 0.8837 0.7468
0.3223 0.927 0.6611
0.5426 0.9502 0.6043
0.7186 0.9518 0.5885
0.8672 0.9462 0.5786
0.9882 0.936 0.5727
0 0 0.7011
0.0463 0 0.6989
0.1194 0 0.7028
0.2925 0 0.7033
0.4397 0 0.7106
0.5876 0 0.7112
0.7438 0 0.7106
0.8964 0 0.7072
1 0 0.7072
0 0.0511 0.713
0.0332 0.0446 0.7118
0.104 0.0382 0.7191
0.2909 0.015 0.7213
0.4445 0 0.7284
0.6017 0 0.7278
0.7644 0 0.7254
0.9161 0 0.7219
1 0 0.7197
0 0.115 0.7353
0.0162 0.109 0.7347
0.0892 0.1057 0.7407
0.2748 0.1181 0.7359
0.4391 0.0868 0.7462
0.6055 0.0376 0.7501
0.7717 0.0187 0.7468
0.923 0.0089 0.742
1 0.0013 0.7395
0 0.2174 0.7554
0 0.2326 0.7554
0.0523 0.2622 0.7687
0.1942 0.2919 0.765
0.427 0.2831 0.7594
0.5979 0.268 0.7567
0.7632 0.2491 0.7501
0.9069 0.2409 0.7413
1 0.2486 0.7383
0 0.3886 0.8308
0 0.3911 0.8335
0.027 0.4039 0.8562
0.1033 0.4255 0.8672
0.4046 0.4331 0.784
0.5957 0.4287 0.7724
0.7675 0.4197 0.7614
0.9199 0.4141 0.7542
1 0.4177 0.7456
0 0.4995 0.8987
0 0.5058 0.9032
0.0007 0.5234 0.9222
0.0637 0.5554 0.9384
0.3698 0.5735 0.8407
0.5804 0.5824 0.7742
0.7601 0.5769 0.7594
0.9161 0.5701 0.7506
1 0.571 0.7438
0 0.5931 0.9183
0 0.6026 0.9246
0 0.6271 0.9431
0.0356 0.6743 0.9542
0.3248 0.7094 0.8621
0.5591 0.7272 0.7897
0.7395 0.7266 0.7501
0.8956 0.7202 0.7407
1 0.7169 0.7328
0 0.6671 0.9191
0 0.6845 0.9331
0 0.7169 0.9478
0.0179 0.773 0.9518
0.2989 0.8176 0.865
0.5405 0.8447 0.7867
0.7213 0.8475 0.7456
0.8708 0.8427 0.7322
0.9992 0.8356 0.7266
0 0.7542 0.9262
0 0.7834 0.9447
0 0.819 0.9518
0.003 0.8784 0.9392
0.3061 0.9222 0.8606
0.5297 0.9502 0.7867
0.7017 0.9565 0.7456
0.8511 0.9518 0.7334
0.9771 0.9439 0.7248
0 0 0.8342
0.0428 0 0.8329
0.1158 0 0.8434
0.2896 0 0.8434
0.4408 0 0.8555
0.594 0 0.8599
0.7536 0 0.857
0.9046 0 0.8555
1 0 0.8511
0 0.0474 0.8592
0.026 0.0412 0.8599
0.1002 0.0337 0.8694
0.2877 0.0102 0.8723
0.4456 0 0.883
0.6047 0 0.8881
0.7705 0 0.8852
0.9238 0 0.8807
1 0 0.8815
0 0.1115 0.8852
0.0123 0.1055 0.8852
0.0852 0.0974 0.8971
0.2682 0.1225 0.8866
0.4365 0.0952 0.901
0.6043 0.0473 0.9109
0.773 0.0144 0.9117
0.9246 0.0046 0.9054
1 0 0.901
0 0.2097 0.9054
0 0.2236 0.9077
0.048 0.2594 0.9246
0.172 0.2951 0.9286
0.4228 0.2877 0.9207
0.5957 0.2714 0.9214
0.7594 0.2533 0.9124
0.9077 0.2444 0.9054
1 0.2514 0.8995
0 0.3859 0.985
0 0.3887 0.9961
0.0234 0.4022 1
0.0936 0.4259 1
0.3968 0.4343 0.9486
0.5906 0.4289 0.9407
0.7626 0.4199 0.9286
0.9132 0.4133 0.9214
1 0.4174 0.9154
0 0.4968 1
0 0.5043 1
0 0.5227 1
0.0628 0.5543 1
0.36 0.5739 1
0.5727 0.5828 0.9439
0.749 0.5742 0.9316
0.9032 0.5697 0.9191
1 0.568 0.9117
0 0.591 1
0 0.6003 1
0 0.6253 1
0.0378 0.6733 1
0.3096 0.7072 1
0.5539 0.7242 0.9652
0.7295 0.726 0.9207
0.8837 0.7191 0.9054
1 0.7153 0.8932
0 0.6655 1
0 0.684 1
0 0.7147 1
0.0201 0.7724 1
0.2773 0.817 1
0.5367 0.8414 0.9478
0.7112 0.8454 0.9132
0.865 0.8414 0.8896
0.9921 0.8356 0.8799
0 0.7512 1
0 0.7807 1
0 0.819 1
0.0045 0.8815 1
0.2919 0.9214 0.9842
0.5271 0.9455 0.9278
0.6924 0.9565 0.8971
0.8441 0.9502 0.8745
0.9708 0.9455 0.8635
0 0 0.9937
0.0394 0 0.9929
0.1098 0 1
0.2927 0 1
0.4462 0 1
0.6034 0 1
0.7669 0 1
0.9262 0 1
1 0 1
0 0.0442 1
0.022 0.0379 1
0.0956 0.0275 1
0.2841 0.0198 1
0.4461 0 1
0.6091 0 1
0.7754 0 1
0.9294 0 1
1 0 1
0 0.1084 1
0.0081 0.1024 1
0.0738 0.1301 1
0.2426 0.1784 1
0.4302 0.1632 1
0.5965 0.1308 1
0.7626 0.0854 1
0.9139 0.0633 1
1 0.0895 1
0 0.2504 1
0 0.2575 1
0.0409 0.282 1
0.151 0.3126 1
0.4168 0.3102 1
0.5931 0.2953 1
0.7588 0.2809 1
0.9061 0.2733 1
1 0.2788 1
0 0.3926 1
0 0.3969 1
0.0176 0.4098 1
0.0883 0.433 1
0.3893 0.443 1
0.5855 0.4389 1
0.7554 0.4295 1
0.9117 0.4237 1
1 0.4272 1
0 0.4983 1
0 0.5058 1
0 0.523 1
0.0601 0.5554 1
0.3547 0.5735 1
0.5659 0.5842 1
0.7444 0.5765 1
0.8979 0.5719 1
1 0.5706 1
0 0.5889 1
0 0.5994 1
0 0.6261 1
0.0359 0.6713 1
0.3015 0.7055 1
0.5485 0.7219 1
0.7236 0.7236 1
0.8776 0.7186 1
1 0.713 1
0 0.666 1
0 0.683 1
0 0.7153 1
0.019 0.7699 1
0.269 0.815 1
0.533 0.8385 1
0.7088 0.842 1
0.8555 0.8392 1
0.9889 0.8329 0.9889
0 0.749 1
0 0.784 1
0 0.8163 1
0.0039 0.8776 1
0.2835 0.9191 1
0.5216 0.9431 1
0.6891 0.9526 0.9992
0.8356 0.947 0.981
0.9676 0.9431 0.9676
