site/assets/luts/freshluts--0000129-tango-teal.cube
# LUTr-Schema-Version: 2
# LUTr-ID: freshluts--0000129-tango-teal
# LUTr-Title: Tango Teal
# LUTr-Collection: Fresh LUTs
# LUTr-Collection-ID: freshluts-community
# LUTr-Source: https://freshluts.com
# LUTr-Retrieved: 2026-07-27
# LUTr-Source-File: submissions-raw/freshluts/cubes/129__TangoTealVlog.cube
# LUTr-Source-Format: CUBE
# LUTr-Source-SHA256: dca93644214f9c2345513eda956af6b10d8062e40a9712994b130cdc4ad7f2df
# LUTr-License: CC0-1.0
# LUTr-License-URL: https://freshluts.com/termsandconditions
# LUTr-License-Basis: site-terms
# LUTr-Transform-Class: creative-look
# LUTr-Tags: creative, freshluts, community, cube, orange, high-key, panasonic-v-log
# LUTr-Input-Color-Space:
# LUTr-Input-Gamut: panasonic-v-gamut
# LUTr-Input-Transfer: panasonic-v-log
# LUTr-Output-Color-Space: srgb
# LUTr-Output-Gamut: rec709
# LUTr-Output-Transfer: srgb
# LUTr-Color-Space-Confidence: camera-profile-input-required
# LUTr-Domain-Normalized: true
# LUTr-Shaper: none
# LUTr-Original-Grid: 33x33x33
# LUTr-Conversion-Grid: 33x33x33
# LUTr-Conversion-Interpolation: none
# LUTr-Conversion-Method: Metadata normalization; numeric LUT samples preserved
# LUTr-Conversion-Tool: LUTr scripts/convert-all-to-cube.mjs 2.0.0
# LUTr-Conversion-Date: 2026-07-28
# LUTr-Asset-URL: https://freshluts.com/luts/129
# LUTr-Author: Forty Miles West
# LUTr-Author-URL: https://freshluts.com/users/391
# LUTr-Attribution: Forty Miles West via Fresh LUTs
# LUTr-Source-Labels: gamma=Panasonic V-log; color=Orange; key=High Key; style=Teal - Orange
# LUTr-Note: Preserve this metadata and the upstream license notices when redistributing.
TITLE "Tango Teal"
LUT_3D_SIZE 5
DOMAIN_MIN 0 0 0
DOMAIN_MAX 1 1 1
0 0.00943008 0.026978
0.134615 0.0701762 0.0893111
0.402869 0.0695811 0.109422
0.793851 0.01738 0.0827802
1 0 0.0235752
0 0.15404 0.0884108
0.125643 0.241596 0.0638743
0.63769 0.20856 0
1 0.14667 0
1 0.0999619 0
0 0.514092 0
0 0.541299 0
0.524529 0.512322 0
0.898253 0.502266 0
1 0.451041 0
0 0.922103 0
0 0.908476 0
0.461234 0.894377 0
0.876158 0.888685 0
1 0.983276 0
0 1 0
0 1 0
0.869474 1 0.720592
1 1 1
1 1 1
0 0.00447089 0.0907301
0.131212 0.0702525 0.151553
0.419883 0.0614633 0.23328
0.818173 0.00158694 0.262226
1 0 0.25507
0 0.15729 0.163714
0.111574 0.234638 0.258076
0.624796 0.196765 0.241199
1 0.147875 0.209689
1 0.105714 0.18294
0 0.513939 0.203357
0 0.533455 0.166049
0.520592 0.503655 0.141726
0.953307 0.473869 0.125231
1 0.434501 0.0736553
0 0.916533 0.0973526
0 0.904418 0.09131
0.452735 0.891615 0.0886549
0.877577 0.885405 0.0838941
1 0.90898 0.178561
0 1 0.0360113
0 1 0.0529793
0.963287 1 0.925414
1 1 1
1 1 1
0 0.00459297 0.195193
0.232792 0.0642252 0.289784
0.442649 0.0486915 0.429679
0.844831 0 0.519158
1 0 0.558373
0 0.16144 0.277745
0.0680095 0.223774 0.560006
0.609293 0.181811 0.573861
1 0.135363 0.544854
1 0.0966049 0.509117
0 0.509834 0.485267
0 0.521706 0.497093
0.5131 0.490898 0.471412
0.938598 0.464515 0.454429
1 0.43946 0.439796
0 0.907317 0.41442
0 0.896544 0.408927
0.437491 0.885344 0.406088
0.875532 0.877958 0.403159
1 0.883894 0.527626
0 1 0.352422
0 1 0.371756
1 1 1
1 1 1
1 1 1
0 0.0053254 0.30837
0.399084 0.0168917 0.51397
0.473045 0.0287175 0.728252
0.884352 0 0.896788
1 0 0.991287
0 0.143435 0.293263
0.0144045 0.211048 0.98085
0.705638 0.135058 0.997757
1 0.119982 1
1 0.0833295 0.981018
0 0.508003 0.912963
0 0.507836 0.968902
0.485603 0.476722 0.994614
0.921965 0.454765 0.923476
1 0.432303 0.904509
0 0.89601 0.879942
0 0.887022 0.875105
0.419684 0.878172 0.870832
0.87361 0.870329 0.867674
1 0.902083 0.905669
0 1 0.7953
0 1 0.818982
1 1 1
1 1 1
1 1 1
0 0.00608835 0.425162
0.342916 0.0164645 0.858198
0.704814 0 1
0.910903 0 1
1 0 1
0 0.13228 0.38616
0 0.195697 1
1 0 1
0.985061 0.104234 1
1 0.0698558 1
0 0.502129 1
0 0.556588 1
0.457374 0.461936 1
1 0.416373 1
1 0.42298 1
0 0.884199 1
0 0.876829 1
0.399832 0.870558 1
0.856764 0.865568 1
1 0.933425 1
0 1 1
0 1 1
1 1 1
1 1 1
1 1 1
