site/assets/luts/freshluts--0000690-warm-redlutheart-broken.cube
# LUTr-Schema-Version: 2
# LUTr-ID: freshluts--0000690-warm-redlutheart-broken
# LUTr-Title: Warm-red/LUT(heart broken)
# LUTr-Collection: Fresh LUTs
# LUTr-Collection-ID: freshluts-community
# LUTr-Source: https://freshluts.com
# LUTr-Retrieved: 2026-07-27
# LUTr-Source-File: submissions-raw/freshluts/cubes/690__Untitled_70.A032_07220228_C115.cube
# LUTr-Source-Format: CUBE
# LUTr-Source-SHA256: 113c7c3dcee898dbd29ef40d5a1034fe44f36e4cc0141c630eb80d5e3cf981a5
# LUTr-License: CC0-1.0
# LUTr-License-URL: https://freshluts.com/termsandconditions
# LUTr-License-Basis: site-terms
# LUTr-Transform-Class: creative-look
# LUTr-Tags: creative, freshluts, community, cube, red, low-key, bmd-film, warm
# LUTr-Input-Color-Space:
# LUTr-Input-Gamut: bmd-film-gamut
# LUTr-Input-Transfer: bmd-film
# LUTr-Output-Color-Space: srgb
# LUTr-Output-Gamut: rec709
# LUTr-Output-Transfer: srgb
# LUTr-Color-Space-Confidence: camera-profile-input-required
# LUTr-Domain-Normalized: true
# LUTr-Shaper: none
# LUTr-Original-Grid: 33x33x33
# LUTr-Conversion-Grid: 33x33x33
# LUTr-Conversion-Interpolation: none
# LUTr-Conversion-Method: Metadata normalization; numeric LUT samples preserved
# LUTr-Conversion-Tool: LUTr scripts/convert-all-to-cube.mjs 2.0.0
# LUTr-Conversion-Date: 2026-07-28
# LUTr-Asset-URL: https://freshluts.com/luts/690
# LUTr-Author: lvannoeun@gmail.com
# LUTr-Author-URL: https://freshluts.com/users/57563
# LUTr-Attribution: lvannoeun@gmail.com via Fresh LUTs
# LUTr-Source-Labels: gamma=Blackmagic BMD Film; color=Red; key=Low Key; style=Cinematic/Dark
# LUTr-Note: Preserve this metadata and the upstream license notices when redistributing.
TITLE "Warm-red/LUT(heart broken)"
LUT_3D_SIZE 5
DOMAIN_MIN 0 0 0
DOMAIN_MAX 1 1 1
0 0 0
0.267124 0 0.015259
0.587381 0 0.0563821
0.776791 0 0.123156
0.636561 0.0397345 0.170306
0.0302434 0.212528 0
0.318425 0.189776 0
0.637537 0.165148 0.0471504
0.872312 0.166247 0.130877
0.767575 0.266987 0.277455
0.0911879 0.475425 0
0.39826 0.445991 0
0.687022 0.429664 0.00205997
0.947768 0.415351 0.127031
0.904372 0.482628 0.376974
0.163516 0.725277 0
0.471153 0.696544 0
0.759426 0.675639 0
0.955657 0.668315 0.15848
1 0.694972 0.449271
0.52047 0.822446 0.217288
0.68748 0.840513 0.303807
0.844007 0.861662 0.382498
0.985473 0.886641 0.446006
1 0.908721 0.503059
0 0 0.0137331
0.243229 0 0.223865
0.537621 0 0.25684
0.825467 0 0.31519
0.619684 0.0618753 0.269963
0 0.222553 0.204242
0.224842 0.22092 0.213626
0.542733 0.199145 0.26714
0.861219 0.177874 0.326757
1 0.17229 0.373892
0.00891127 0.506539 0.0971389
0.305653 0.47689 0.122683
0.592737 0.459266 0.224903
0.912093 0.433799 0.315373
1 0.41622 0.363104
0.0745251 0.759213 0.0110628
0.376394 0.726619 0.0334936
0.673777 0.702464 0.155184
0.955566 0.687251 0.238087
1 0.66363 0.314351
0.46006 0.853483 0.337057
0.490791 0.938933 0.101015
0.749203 0.937911 0.126238
0.985656 0.924865 0.241123
1 0.909072 0.271214
0 0 0.0812543
0.159716 0 0.309789
0.536904 0 0.504921
0.820386 0 0.513619
0.617166 0.0799878 0.363943
0.0380102 0.209369 0.367895
0.23946 0.236957 0.275624
0.518318 0.211032 0.486656
0.814466 0.1991 0.517052
1 0.183825 0.565423
0 0.494331 0.466423
0.229526 0.492149 0.465797
0.495186 0.488914 0.476677
0.8177 0.465812 0.525628
1 0.445319 0.573312
0 0.775769 0.404181
0.214633 0.769665 0.358328
0.57171 0.735744 0.38439
0.861082 0.716197 0.47921
1 0.691829 0.552377
0.398718 0.879011 0.50779
0.280995 0.994614 0.229557
0.636805 0.975937 0.292638
0.934966 0.9552 0.40972
1 0.938186 0.48307
0.00216678 0 0.16875
0.126268 0.0162814 0.305043
0.466545 0 0.675929
0.784115 0 0.735149
0.627497 0.0924086 0.472068
0.10248 0.210452 0.41622
0.254231 0.25095 0.354482
0.431937 0.255497 0.568139
0.81355 0.200244 0.758495
1 0.19321 0.763439
0.0192264 0.482933 0.675547
0.303319 0.478721 0.621103
0.507973 0.504311 0.535958
0.791089 0.477302 0.737255
1 0.464683 0.762066
0.00779736 0.75436 0.71162
0.226871 0.754513 0.713085
0.493446 0.750698 0.710262
0.761318 0.745769 0.721553
1 0.721447 0.764691
0.400198 0.883421 0.699825
0.184131 1 0.650141
0.47277 1 0.598825
0.835142 0.984482 0.628092
1 0.967758 0.715404
0.0218204 0.0125277 0.103227
0.102937 0.0628519 0.179477
0.240574 0.0837568 0.368856
0.452201 0.0829023 0.539391
0.638605 0.102632 0.597864
0.188159 0.220111 0.314977
0.267857 0.264668 0.435401
0.396902 0.293004 0.563455
0.743664 0.230274 0.929351
1 0.202213 0.950393
0.284276 0.437507 0.561242
0.36846 0.479332 0.668315
0.523629 0.517723 0.603479
0.704341 0.519951 0.817227
1 0.464408 0.966171
0.341405 0.665034 0.73286
0.277745 0.742336 0.922133
0.569528 0.736507 0.866209
0.770321 0.760723 0.78819
1 0.73167 0.958984
0.427039 0.885634 0.837583
0.237247 1 0.947723
0.484382 1 0.948333
0.755093 0.999283 0.945052
1 0.996506 0.955642
