site/assets/luts/freshluts--0001158-flashback1-sad.cube
# LUTr-Schema-Version: 2
# LUTr-ID: freshluts--0001158-flashback1-sad
# LUTr-Title: flashback1_sad
# LUTr-Collection: Fresh LUTs
# LUTr-Collection-ID: freshluts-community
# LUTr-Source: https://freshluts.com
# LUTr-Retrieved: 2026-07-27
# LUTr-Source-File: submissions-raw/freshluts/cubes/1158__flashback1.cube
# LUTr-Source-Format: CUBE
# LUTr-Source-SHA256: 09309340eab82a08c3ee5b0e26f3106b1076ef75007f7e9d2ed51f472deefeb1
# LUTr-License: CC0-1.0
# LUTr-License-URL: https://freshluts.com/termsandconditions
# LUTr-License-Basis: site-terms
# LUTr-Transform-Class: creative-look
# LUTr-Tags: creative, freshluts, community, cube, warm, low-key, sony-s-log2
# LUTr-Input-Color-Space:
# LUTr-Input-Gamut: sony-s-gamut
# LUTr-Input-Transfer: sony-s-log2
# LUTr-Output-Color-Space: srgb
# LUTr-Output-Gamut: rec709
# LUTr-Output-Transfer: srgb
# LUTr-Color-Space-Confidence: camera-profile-input-required
# LUTr-Domain-Normalized: true
# LUTr-Shaper: none
# LUTr-Original-Grid: 16x16x16
# LUTr-Conversion-Grid: 16x16x16
# LUTr-Conversion-Interpolation: none
# LUTr-Conversion-Method: Metadata normalization; numeric LUT samples preserved
# LUTr-Conversion-Tool: LUTr scripts/convert-all-to-cube.mjs 2.0.0
# LUTr-Conversion-Date: 2026-07-28
# LUTr-Asset-URL: https://freshluts.com/luts/1158
# LUTr-Author: lvannoeun@gmail.com
# LUTr-Author-URL: https://freshluts.com/users/57563
# LUTr-Attribution: lvannoeun@gmail.com via Fresh LUTs
# LUTr-Source-Labels: gamma=Sony S-Log 2; color=Warm; key=Low Key; style=cine drama
# LUTr-Note: Preserve this metadata and the upstream license notices when redistributing.
TITLE "flashback1_sad"
LUT_3D_SIZE 6
DOMAIN_MIN 0 0 0
DOMAIN_MAX 1 1 1
0 0 0
0.006699 0 0
0.316691 0 0
0.675271 0.032049 0.032049
0.822655 0.125441 0.111933
0.941921 0.27642 0.267819
0 0.020166 0
0.025246 0.025246 0
0.341297 0.111116 0
0.699035 0.118044 0.049392
0.847815 0.227444 0.161999
0.952452 0.340439 0.301579
0.046953 0.36932 0.21776
0.093095 0.383683 0.204234
0.361264 0.425786 0.070157
0.758236 0.420385 0.110571
0.916771 0.468683 0.284944
0.968156 0.511869 0.394382
0.239491 0.732421 0.493712
0.294972 0.74046 0.481122
0.445686 0.770783 0.421794
0.762952 0.777359 0.277734
0.953312 0.742642 0.39449
0.968156 0.709115 0.467669
0.52128 0.936452 0.688473
0.543808 0.939425 0.680684
0.620633 0.950545 0.643722
0.74077 0.95725 0.521164
0.945245 0.947673 0.518705
0.968156 0.859707 0.542259
0.644301 0.968144 0.753022
0.657687 0.968144 0.748707
0.705796 0.968156 0.733096
0.754269 0.968156 0.675239
0.850413 0.968156 0.630013
0.968156 0.968144 0.650452
0 0 0.002604
0.008756 0 0.008756
0.317634 0 0.109062
0.68307 0.033916 0.115075
0.829526 0.126086 0.179705
0.943124 0.28372 0.308704
0 0.021937 0.021937
0.026923 0.026923 0.026923
0.337204 0.049028 0.049028
0.701404 0.086257 0.086087
0.851416 0.221519 0.210041
0.954227 0.353846 0.346227
0.048522 0.373534 0.269779
0.089287 0.383611 0.26247
0.3683 0.426772 0.112677
0.760543 0.414727 0.173962
0.921527 0.468371 0.321389
0.968144 0.518121 0.42414
0.249473 0.732896 0.53443
0.297417 0.738861 0.51879
0.463105 0.767979 0.468689
0.767305 0.777007 0.322557
0.956749 0.741789 0.425351
0.968156 0.711757 0.491784
0.525409 0.935676 0.712116
0.546201 0.937666 0.702093
0.62551 0.94852 0.665377
0.744073 0.956462 0.549728
0.947573 0.946592 0.541529
0.968156 0.860278 0.564323
0.6484 0.968156 0.766729
0.661937 0.968156 0.762377
0.712326 0.968156 0.747679
0.762569 0.968156 0.697155
0.854011 0.968156 0.651557
0.968156 0.968144 0.667993
0 0 0.333756
0.109361 0 0.333237
0.318881 0 0.320859
0.697326 0.04162 0.333578
0.857706 0.128084 0.369896
0.957652 0.288005 0.435249
0 0.110596 0.345732
0.034957 0.034957 0.346407
0.340436 0.055647 0.340782
0.717303 0.091321 0.347363
0.88212 0.222055 0.39264
0.968144 0.356077 0.460587
0.054989 0.400933 0.401031
0.09422 0.408391 0.405866
0.412986 0.421315 0.416684
0.756298 0.441785 0.42848
0.940943 0.507281 0.497715
0.968156 0.578871 0.571786
0.255005 0.74253 0.634396
0.322181 0.743325 0.640986
0.529022 0.755466 0.625248
0.782485 0.771823 0.520625
0.962361 0.752829 0.571269
0.968156 0.737927 0.615214
0.536628 0.934718 0.790122
0.56317 0.934716 0.787103
0.665324 0.937524 0.760837
0.773928 0.948873 0.679413
0.954153 0.939246 0.655948
0.968156 0.86697 0.671491
0.660738 0.968156 0.816985
0.678594 0.968156 0.814442
0.748199 0.968156 0.80871
0.806408 0.968156 0.786081
0.872801 0.968156 0.740049
0.968156 0.964509 0.747897
0 0 0.655104
0.113261 0 0.666911
0.339299 0.006939 0.677133
0.692743 0.055837 0.652885
0.871443 0.148999 0.623567
0.968144 0.297758 0.626205
0 0.113176 0.672938
0.050398 0.050455 0.680299
0.348905 0.069456 0.693015
0.71701 0.101367 0.676233
0.896982 0.237006 0.646135
0.968156 0.361775 0.636297
0.07201 0.407448 0.711247
0.107065 0.405255 0.718866
0.425114 0.429778 0.723102
0.758975 0.453723 0.719249
0.952648 0.515268 0.715495
0.968156 0.583049 0.718132
0.235684 0.76005 0.769381
0.29344 0.763139 0.770905
0.535438 0.767287 0.766692
0.789652 0.771569 0.764396
0.952866 0.786963 0.779146
0.968156 0.804526 0.798916
0.511651 0.946561 0.846534
0.542725 0.945435 0.847926
0.68637 0.934699 0.860444
0.828033 0.934345 0.842167
0.961112 0.933168 0.813794
0.968156 0.890628 0.823865
0.656702 0.968144 0.859994
0.680839 0.968156 0.864007
0.771558 0.968156 0.876846
0.863473 0.968156 0.879948
0.906997 0.968156 0.855777
0.968156 0.961738 0.853924
0.00172 0.00172 0.76929
0.10881 0.008864 0.774195
0.31536 0.034944 0.813298
0.632283 0.074172 0.8247
0.866584 0.210855 0.82999
0.968156 0.334385 0.808119
0.02419 0.109699 0.783776
0.070394 0.072853 0.790339
0.33073 0.097017 0.838115
0.657971 0.147523 0.853266
0.891446 0.286805 0.85375
0.968156 0.392665 0.811803
0.09781 0.396423 0.851293
0.162167 0.394135 0.86481
0.452024 0.451299 0.90556
0.73238 0.472399 0.910886
0.955557 0.536347 0.914805
0.968156 0.595691 0.87028
0.302832 0.721892 0.912333
0.344731 0.724173 0.918303
0.548661 0.743525 0.924641
0.799477 0.776706 0.91511
0.953672 0.792571 0.917815
0.968156 0.80993 0.884894
0.516859 0.950295 0.958349
0.544351 0.949989 0.95702
0.677003 0.943078 0.945182
0.850075 0.931653 0.93025
0.955693 0.935847 0.93059
0.968156 0.93484 0.932304
0.645597 0.968156 0.905785
0.66992 0.968156 0.905278
0.767164 0.968156 0.913204
0.885062 0.968156 0.933363
0.956777 0.968156 0.954388
0.968156 0.965911 0.948333
0.032654 0.032654 0.866385
0.103029 0.03738 0.868354
0.298357 0.057215 0.874643
0.575663 0.101519 0.902486
0.814085 0.233509 0.917802
0.968156 0.386374 0.938645
0.04786 0.125818 0.876788
0.091509 0.119483 0.879049
0.322036 0.144764 0.899583
0.603095 0.197002 0.930545
0.839011 0.30581 0.941793
0.968156 0.43836 0.942338
0.153786 0.380231 0.915015
0.220497 0.387892 0.928347
0.481288 0.478383 0.968156
0.688823 0.496042 0.968144
0.885415 0.546492 0.968156
0.968156 0.618271 0.968156
0.332609 0.666219 0.968156
0.371696 0.665983 0.968144
0.560999 0.70292 0.968144
0.803208 0.784524 0.968156
0.911308 0.796031 0.968156
0.968156 0.81541 0.963415
0.506109 0.866752 0.968156
0.530856 0.867931 0.968156
0.663999 0.873132 0.968156
0.842151 0.898662 0.968156
0.947501 0.938169 0.968156
0.968156 0.941846 0.962245
0.651696 0.968156 0.968156
0.672906 0.968144 0.968144
0.765126 0.968144 0.968156
0.883064 0.968156 0.967802
0.968156 0.968156 0.968156
0.968163 0.968156 0.968156
