site/assets/luts/freshluts--0000290-brown-bm.cube
# LUTr-Schema-Version: 2
# LUTr-ID: freshluts--0000290-brown-bm
# LUTr-Title: brown BM
# LUTr-Collection: Fresh LUTs
# LUTr-Collection-ID: freshluts-community
# LUTr-Source: https://freshluts.com
# LUTr-Retrieved: 2026-07-27
# LUTr-Source-File: submissions-raw/freshluts/cubes/290__kahve_3.A020_08241333_C001.cube
# LUTr-Source-Format: CUBE
# LUTr-Source-SHA256: fad276ee4bec7547271f78b1decc8e3d0b61e012a67fbc6b6fbb66143cb8d378
# LUTr-License: CC0-1.0
# LUTr-License-URL: https://freshluts.com/termsandconditions
# LUTr-License-Basis: site-terms
# LUTr-Transform-Class: creative-look
# LUTr-Tags: creative, freshluts, community, cube, brown, bmd-film-4k
# LUTr-Input-Color-Space:
# LUTr-Input-Gamut: bmd-film-gamut
# LUTr-Input-Transfer: bmd-film-4k
# LUTr-Output-Color-Space: srgb
# LUTr-Output-Gamut: rec709
# LUTr-Output-Transfer: srgb
# LUTr-Color-Space-Confidence: camera-profile-input-required
# LUTr-Domain-Normalized: true
# LUTr-Shaper: none
# LUTr-Original-Grid: 33x33x33
# LUTr-Conversion-Grid: 33x33x33
# LUTr-Conversion-Interpolation: none
# LUTr-Conversion-Method: Metadata normalization; numeric LUT samples preserved
# LUTr-Conversion-Tool: LUTr scripts/convert-all-to-cube.mjs 2.0.0
# LUTr-Conversion-Date: 2026-07-28
# LUTr-Asset-URL: https://freshluts.com/luts/290
# LUTr-Author: berat
# LUTr-Author-URL: https://freshluts.com/users/10185
# LUTr-Attribution: berat via Fresh LUTs
# LUTr-Source-Labels: gamma=Blackmagic BMD Film 4K; color=Brown; key=Neutral; style=Retro
# LUTr-Note: Preserve this metadata and the upstream license notices when redistributing.
TITLE "brown BM"
LUT_3D_SIZE 5
DOMAIN_MIN 0 0 0
DOMAIN_MAX 1 1 1
0.0330053 0.032166 0.03093
0.0820935 0.0349126 0.0267796
0.248447 0.0346838 0
0.477638 0.0700999 0
0.888914 0.310201 0
0.0619364 0.0881971 0.0448615
0.10544 0.0902724 0.041001
0.268605 0.0914626 0.0115663
0.494682 0.129168 0.0019379
0.890486 0.330602 0
0.180377 0.282246 0.0996262
0.216159 0.283406 0.0971847
0.33727 0.288487 0.0833448
0.522942 0.301778 0.0243229
0.89659 0.410452 0.000350958
0.39292 0.51812 0.243946
0.406806 0.518273 0.242283
0.466072 0.520302 0.234455
0.593088 0.526238 0.203342
0.911162 0.562448 0.00077821
0.787808 0.908721 0.570474
0.789929 0.908843 0.57026
0.801312 0.909133 0.568872
0.835416 0.909911 0.564111
1 0.917845 0.51751
0.0330205 0.0461891 0.0869612
0.0823682 0.0489662 0.0841382
0.250858 0.0488441 0.0561685
0.481544 0.0839551 0
0.889036 0.314809 0
0.0617075 0.0984512 0.0962539
0.106188 0.101198 0.0943618
0.273045 0.10573 0.0742199
0.496208 0.141207 0.0145113
0.890364 0.334554 0
0.181476 0.288655 0.145968
0.217426 0.289906 0.143511
0.339208 0.29543 0.130373
0.527428 0.310521 0.0835126
0.896681 0.413321 0.000381476
0.393057 0.519768 0.269749
0.407172 0.520241 0.268528
0.466285 0.52224 0.261372
0.593439 0.527916 0.235157
0.91136 0.563745 0.000961318
0.787884 0.908995 0.575296
0.790021 0.909117 0.575082
0.801373 0.909392 0.573983
0.835447 0.910201 0.569055
1 0.91812 0.523873
0.0264439 0.0974289 0.266178
0.0791485 0.102174 0.267201
0.262562 0.112612 0.258915
0.499184 0.15227 0.233127
0.889937 0.336324 0
0.0542916 0.144854 0.269841
0.104341 0.152529 0.274037
0.280598 0.164828 0.268147
0.50576 0.196704 0.240253
0.891417 0.354345 0.0000610361
0.18143 0.314565 0.300252
0.217762 0.315816 0.299245
0.340063 0.320974 0.293202
0.53138 0.336355 0.2701
0.897215 0.426886 0.000610361
0.393545 0.528908 0.364477
0.40763 0.52929 0.363653
0.46685 0.531182 0.359319
0.594568 0.537041 0.344182
0.920241 0.578683 0.120287
0.788128 0.910353 0.598749
0.790234 0.91046 0.59855
0.801282 0.910506 0.59704
0.835325 0.911376 0.592874
1 0.919142 0.553567
0.0108492 0.238056 0.475303
0.0729839 0.249577 0.484901
0.26807 0.262898 0.489326
0.50486 0.283513 0.480415
0.903471 0.406424 0.399496
0.0459754 0.27126 0.482399
0.0996109 0.280156 0.489555
0.281895 0.289677 0.491051
0.510018 0.30782 0.482216
0.904799 0.419989 0.402441
0.177966 0.382513 0.500237
0.215381 0.383658 0.500252
0.340169 0.38793 0.498817
0.533486 0.399588 0.491081
0.909972 0.477882 0.415763
0.393072 0.556008 0.525673
0.407233 0.556252 0.525292
0.467185 0.558206 0.52372
0.595285 0.563317 0.517098
0.924559 0.602518 0.454185
0.788067 0.914748 0.66128
0.790188 0.91487 0.661158
0.801266 0.9149 0.659998
0.835538 0.915984 0.657252
1 0.923354 0.629786
0 0.578027 0.831174
0.00958267 0.580606 0.833417
0.247684 0.602991 0.853971
0.506676 0.609339 0.854658
0.911727 0.641779 0.844999
0 0.583307 0.831189
0.0457618 0.592966 0.840482
0.26276 0.608454 0.854322
0.511376 0.614649 0.855161
0.912352 0.646204 0.845121
0.135958 0.628824 0.852735
0.181994 0.630426 0.854032
0.326543 0.633951 0.856016
0.53315 0.638911 0.856077
0.916091 0.667231 0.846281
0.381994 0.700893 0.860731
0.397116 0.701213 0.860822
0.460792 0.702388 0.860838
0.594553 0.705425 0.860258
0.928283 0.726314 0.850828
0.787442 0.947768 0.882856
0.789456 0.947738 0.88278
0.800916 0.947997 0.88278
0.835264 0.948638 0.882612
1 0.954467 0.881895
