site/assets/luts/freshluts--0000553-logc-teal-orange-709-v1.cube
# LUTr-Schema-Version: 2
# LUTr-ID: freshluts--0000553-logc-teal-orange-709-v1
# LUTr-Title: LogC_Teal_Orange_709_V1
# LUTr-Collection: Fresh LUTs
# LUTr-Collection-ID: freshluts-community
# LUTr-Source: https://freshluts.com
# LUTr-Retrieved: 2026-07-27
# LUTr-Source-File: submissions-raw/freshluts/cubes/553__LogC_Teal_Orange_709_V1.cube
# LUTr-Source-Format: CUBE
# LUTr-Source-SHA256: 98d1691ebac29306da451e47d3fc17e3e86b683bb618c31752a287196ab59944
# LUTr-License: CC0-1.0
# LUTr-License-URL: https://freshluts.com/termsandconditions
# LUTr-License-Basis: site-terms
# LUTr-Transform-Class: creative-look
# LUTr-Tags: creative, freshluts, community, cube, teal, arri-logc3-ei800
# LUTr-Input-Color-Space:
# LUTr-Input-Gamut: arri-wide-gamut-3
# LUTr-Input-Transfer: arri-logc3-ei800
# LUTr-Output-Color-Space: srgb
# LUTr-Output-Gamut: rec709
# LUTr-Output-Transfer: srgb
# LUTr-Color-Space-Confidence: camera-profile-input-required
# LUTr-Domain-Normalized: true
# LUTr-Shaper: none
# LUTr-Original-Grid: 33x33x33
# LUTr-Conversion-Grid: 33x33x33
# LUTr-Conversion-Interpolation: none
# LUTr-Conversion-Method: Metadata normalization; numeric LUT samples preserved
# LUTr-Conversion-Tool: LUTr scripts/convert-all-to-cube.mjs 2.0.0
# LUTr-Conversion-Date: 2026-07-28
# LUTr-Asset-URL: https://freshluts.com/luts/553
# LUTr-Author: tjtop
# LUTr-Author-URL: https://freshluts.com/users/10151
# LUTr-Attribution: tjtop via Fresh LUTs
# LUTr-Source-Labels: gamma=Arri log c; color=Teal; key=Neutral; style=Teal - Orange
# LUTr-Note: Preserve this metadata and the upstream license notices when redistributing.
TITLE "LogC_Teal_Orange_709_V1"
LUT_3D_SIZE 9
DOMAIN_MIN 0 0 0
DOMAIN_MAX 1 1 1
0 0 0
0.000167849 0.000030518 0.000030518
0.0183566 0 0
0.0893416 0 0
0.195209 0 0
0.317891 0 0
0.43856 0 0
0.556115 0 0
0.663493 0 0
0.000488289 0.00418097 0.00120546
0.000946059 0.00418097 0.0010071
0.0288548 0.00695811 0
0.113573 0.000579843 0
0.239704 0 0
0.385657 0 0
0.514839 0 0
0.631052 0 0
0.734554 0 0
0 0.0774853 0
0 0.0789654 0
0.0127871 0.0947738 0
0.152163 0.100038 0
0.340322 0.0778973 0
0.549157 0.016083 0
0.718227 0 0
0.838788 0 0
0.933425 0 0
0 0.245502 0
0 0.256306 0
0 0.28986 0
0.0262303 0.317372 0
0.352361 0.33019 0
0.612268 0.325353 0
0.822278 0.318532 0
0.967742 0.331701 0
1 0.361471 0
0 0.497902 0
0 0.51751 0
0 0.563317 0
0 0.593896 0
0.145266 0.613931 0
0.561074 0.621271 0
0.812879 0.623224 0
0.990921 0.630411 0
1 0.646647 0
0 0.750027 0
0 0.768704 0
0 0.814343 0
0 0.841733 0
0.000656138 0.862623 0
0.462806 0.878035 0
0.76257 0.888777 0
0.987198 0.896651 0
1 0.906691 0
0 0.971618 0
0 0.985763 0
0 0.998901 0
0 1 0
0 1 0
0.429633 1 0
0.694774 1 0
0.913451 1 0
1 1 0
0 1 0.0581521
0 1 0.0480354
0 1 0
0 1 0
0.304082 1 0
0.534585 1 0
0.706447 1 0
0.856947 1 0
0.98735 1 0.15787
0 1 0.294057
0 1 0.273198
0 1 0.178637
0.0887312 1 0.0235599
0.422965 1 0.00308232
0.584573 1 0.00457771
0.722881 1 0.0719463
0.84596 1 0.262638
0.945693 1 0.410346
0 0 0.00248722
0.0000457771 0 0.00236515
0.0478981 0 0.00683604
0.123507 0 0
0.233463 0 0
0.355016 0 0
0.474357 0 0
0.589456 0 0
0.692195 0 0
0 0.00929274 0.0140841
0 0.00756847 0.0113375
0.0578317 0.00292973 0.0074464
0.153628 0 0
0.280598 0 0
0.42295 0 0
0.547784 0 0
0.661189 0 0
0.760632 0 0
0 0.0897383 0.0189517
0 0.091249 0.0177005
0.0361028 0.101091 0.00047303
0.210452 0.0965133 0
0.408148 0.0587625 0
0.601877 0.00784314 0
0.755459 0 0
0.866743 0 0
0.956268 0.00334173 0
0 0.272068 0
0 0.287602 0
0 0.319692 0
0.0962234 0.332769 0
0.436835 0.332647 0
0.685832 0.321508 0
0.868116 0.319966 0
0.994797 0.339269 0
1 0.371328 0
0 0.531289 0
0 0.556497 0
0 0.606424 0
0 0.625055 0
0.27776 0.630076 0
0.646342 0.626627 0
0.877394 0.625116 0
1 0.634195 0
1 0.654795 0
0 0.776394 0
0 0.799481 0
0 0.853559 0
0 0.882307 0
0.00816358 0.895247 0
0.530343 0.898222 0
0.835355 0.89778 0
1 0.899657 0
1 0.910704 0
0 0.988678 0
0 0.99382 0
0 1 0
0 1 0
0 1 0
0.445014 1 0
0.740459 1 0
0.963714 1 0
1 1 0
0 1 0.278004
0 1 0.258274
0 1 0.15761
0 1 0.028687
0.287816 1 0.00404364
0.541787 1 0.000228885
0.731151 1 0.00425727
0.889021 1 0.0616922
0.99971 1 0.300099
0 1 0.388098
0 1 0.3691
0 1 0.29865
0.0448615 1 0.241932
0.43537 1 0.236927
0.609613 1 0.27425
0.752041 1 0.335943
0.873335 1 0.41445
0.966644 1 0.5066
0 0 0.0229343
0 0 0.0232395
0.0740063 0 0.0799573
0.221576 0 0.0997177
0.364141 0 0.0656138
0.469078 0 0.0183871
0.557534 0 0.000030518
0.640787 0 0
0.715297 0 0
0 0.0101015 0.071397
0 0.00643931 0.0682383
0.0723735 0 0.100786
0.251804 0 0.0917983
0.409461 0 0.0466621
0.53666 0 0.00668345
0.629435 0 0
0.711727 0 0
0.787884 0 0
0 0.107698 0.113207
0 0.0991073 0.114824
0.00746166 0.0984665 0.12221
0.286687 0.0620127 0.0787518
0.522377 0.0122988 0.0133211
0.731624 0 0.000015259
0.854246 0 0
0.92636 0 0
0.983429 0.0062562 0
0 0.307973 0.104311
0 0.30927 0.103044
0 0.329381 0.0919356
0.210407 0.334554 0.0381323
0.533578 0.329 0.000228885
0.799878 0.307317 0
0.985046 0.296895 0
1 0.327733 0
1 0.372305 0
0 0.567864 0.0173037
0 0.584878 0.00132753
0 0.624903 0
0 0.637507 0
0.39144 0.637949 0
0.744396 0.630503 0
0.986786 0.622034 0
1 0.628626 0
1 0.662379 0
0 0.804395 0.0237125
0 0.825513 0.000335698
0 0.880827 0
0 0.910811 0
0.0428473 0.919493 0
0.597375 0.919097 0
0.927382 0.911543 0
1 0.906142 0
1 0.912276 0
0 0.994919 0.230137
0 0.998871 0.184848
0 1 0.00347906
0 1 0
0 1 0
0.450797 1 0
0.778439 1 0
0.995026 1 0
1 1 0.0531319
0 1 0.436652
0 1 0.419669
0 1 0.347066
0 1 0.257328
0.268376 1 0.199939
0.555001 1 0.194614
0.752636 1 0.238605
0.91371 1 0.344259
1 1 0.480369
0 1 0.500511
0 1 0.482963
0 1 0.42501
0 1 0.383734
0.454139 1 0.393729
0.651545 1 0.444373
0.785016 1 0.497017
0.897047 1 0.55996
0.981048 1 0.638254
0 0 0.0751812
0 0 0.0716411
0.0253605 0 0.124727
0.245411 0 0.238178
0.43592 0 0.248859
0.580941 0 0.204517
0.679057 0 0.148211
0.752438 0 0.104707
0.781338 0 0.0703136
0 0.0000915541 0.179721
0 0 0.172976
0 0 0.190753
0.283223 0 0.282811
0.514733 0 0.272969
0.660197 0 0.200229
0.747082 0 0.139376
0.815808 0 0.10634
0.858442 0 0.0850996
0 0.0977646 0.263722
0 0.0843366 0.261082
0 0.0484932 0.299962
0.30251 0 0.344991
0.637049 0 0.283787
0.849348 0 0.204807
0.960998 0 0.159503
0.998184 0 0.1523
1 0 0.162753
0 0.338811 0.311177
0 0.324102 0.312383
0 0.337819 0.345052
0.195254 0.326421 0.343572
0.616632 0.293294 0.280156
0.89276 0.266407 0.209079
1 0.24773 0.163088
1 0.288457 0.180468
1 0.362295 0.227726
0 0.596216 0.318624
0 0.599207 0.318379
0 0.627527 0.312749
0.00852979 0.624521 0.320623
0.498451 0.621927 0.293416
0.837034 0.616175 0.182635
1 0.604532 0.0751965
1 0.621897 0.114565
1 0.661112 0.241978
0 0.823987 0.352026
0 0.838666 0.335607
0 0.892348 0.25922
0 0.916457 0.186755
0.188678 0.921111 0.204273
0.686961 0.918318 0.0578622
0.998016 0.906355 0.00682078
1 0.900664 0.00637827
1 0.903227 0.239017
0 0.999344 0.450355
0 0.999863 0.433585
0 1 0.354711
0 1 0.209552
0 1 0.0543984
0.501427 1 0.0131228
0.828138 1 0.00675975
1 1 0.0919509
1 1 0.379522
0 1 0.574578
0 1 0.55964
0 1 0.502953
0 1 0.431449
0.205524 1 0.389853
0.591455 1 0.414221
0.781476 1 0.449882
0.937514 1 0.512688
1 1 0.619287
0 1 0.611688
0 1 0.597833
0 1 0.553613
0 1 0.519661
0.465385 1 0.530541
0.692012 1 0.576761
0.81944 1 0.628061
0.919707 1 0.682414
0.992416 1 0.750591
0 0 0.170581
0 0 0.152453
0 0 0.135866
0.18999 0 0.336431
0.428779 0 0.39028
0.58912 0 0.374701
0.710445 0 0.33193
0.79855 0 0.285985
0.821332 0 0.243793
0 0 0.327398
0 0 0.316533
0 0 0.295338
0.173404 0 0.428107
0.495979 0 0.45388
0.669581 0 0.415976
0.788342 0 0.354864
0.870512 0 0.302632
0.895949 0 0.259403
0 0.00170901 0.447303
0 0.000289921 0.442466
0 0 0.458534
0.00254826 0 0.554604
0.625956 0 0.581033
0.883803 0 0.525154
0.995666 0 0.433738
1 0 0.377676
1 0 0.342901
0 0.343954 0.517525
0 0.325719 0.516396
0 0.318257 0.564843
0 0.293217 0.606638
0.633051 0.0610056 0.618173
0.973342 0.0318761 0.54139
1 0.0729076 0.460273
1 0.238392 0.424857
1 0.329442 0.413581
0 0.61178 0.540856
0 0.595544 0.54139
0 0.626474 0.582528
0 0.621469 0.600305
0.516365 0.600381 0.59556
0.915251 0.574441 0.528939
1 0.56791 0.46244
1 0.599054 0.434256
1 0.647532 0.461616
0 0.836347 0.567452
0 0.837125 0.56875
0 0.890608 0.567575
0 0.907561 0.56083
0.372778 0.898924 0.564904
0.780087 0.891615 0.544549
1 0.880491 0.466545
1 0.878096 0.441001
1 0.884123 0.494881
0 1 0.631449
0 1 0.626719
0 1 0.596963
0 1 0.537881
0 1 0.493309
0.605142 1 0.505196
0.888243 1 0.480323
1 1 0.501854
1 0.999603 0.582498
0 1 0.707362
0 1 0.69778
0 1 0.657954
0 1 0.604257
0.152819 1 0.568185
0.646342 1 0.594278
0.825254 1 0.636591
0.960998 1 0.671916
1 1 0.745098
0 1 0.72546
0 1 0.715999
0 1 0.684153
0 1 0.660853
0.459373 1 0.658808
0.721996 1 0.693339
0.859632 1 0.748211
0.942992 1 0.795224
0.998871 1 0.848478
0 0 0.281743
0 0 0.260319
0 0 0.213291
0.0640116 0 0.373281
0.373587 0 0.492775
0.560357 0 0.492363
0.686091 0 0.466194
0.784497 0 0.433188
0.815518 0 0.405158
0 0 0.469749
0 0 0.456077
0 0 0.433814
0 0 0.526696
0.414405 0 0.584115
0.625238 0 0.549676
0.757412 0 0.514183
0.861585 0 0.4766
0.894972 0 0.440894
0 0 0.615259
0 0 0.608133
0 0 0.59913
0 0 0.713527
0.467994 0 0.781781
0.817609 0 0.722698
0.973968 0 0.665644
1 0 0.60882
1 0 0.556786
0 0.320714 0.694697
0 0.2981 0.692943
0 0.270314 0.716258
0 0.185931 0.812985
0.311086 0.0100557 0.857679
0.947738 0 0.84654
1 0 0.790311
1 0.00361639 0.701701
1 0.211231 0.636255
0 0.614664 0.72517
0 0.598703 0.725261
0 0.609659 0.779355
0 0.612009 0.837339
0.0627146 0.58703 0.860761
0.942916 0.454261 0.869307
1 0.478233 0.793698
1 0.55169 0.71548
1 0.606378 0.672633
0 0.845121 0.750484
0 0.831205 0.749508
0 0.877714 0.794751
0 0.901442 0.82652
0.0555428 0.887266 0.837263
0.811994 0.855024 0.830014
1 0.835447 0.762737
1 0.842573 0.713527
1 0.856641 0.698146
0 1 0.79675
0 1 0.798047
0 1 0.807431
0 1 0.790997
0 1 0.766812
0.693324 1 0.762585
0.946609 0.998779 0.762493
1 0.994659 0.74258
1 0.986831 0.759915
0 1 0.835538
0 1 0.832776
0 1 0.811734
0 1 0.778622
0.129793 1 0.752911
0.683345 1 0.76376
0.880522 1 0.805325
0.981094 1 0.825681
1 1 0.864393
0 1 0.838529
0 1 0.833951
0 1 0.813642
0 1 0.796277
0.475929 1 0.788144
0.742473 1 0.805936
0.90161 1 0.856992
0.967483 1 0.898634
1 1 0.931456
0 0 0.397421
0 0 0.375601
0 0 0.331487
0 0 0.362707
0.265507 0 0.560891
0.509453 0 0.581109
0.649027 0 0.559182
0.75378 0 0.538567
0.792935 0 0.526543
0 0 0.590677
0 0 0.576669
0 0 0.555306
0 0 0.567681
0.251286 0 0.686519
0.561028 0 0.649134
0.713695 0 0.615824
0.830091 0 0.597375
0.872435 0 0.582055
0 0 0.742458
0 0 0.734493
0 0 0.725017
0 0 0.77435
0.0856489 0 0.913375
0.716518 0 0.853346
0.920501 0 0.800046
1 0 0.771664
1 0 0.745663
0 0.292805 0.830167
0 0.265278 0.827329
0 0.23537 0.82417
0 0.116106 0.919966
0 0 1
0.804379 0 1
1 0 0.98584
1 0 0.929107
1 0 0.879179
0 0.614664 0.871885
0 0.598825 0.870954
0 0.589441 0.891493
0 0.586313 0.992142
0 0.568795 1
0.671611 0.461723 1
1 0.292668 1
1 0.450355 0.996643
1 0.531579 0.938903
0 0.853559 0.907225
0 0.839643 0.905806
0 0.858534 0.951949
0 0.890318 1
0 0.896269 1
0.559365 0.862974 1
1 0.768704 1
1 0.797131 0.962875
1 0.821958 0.901167
0 1 0.944808
0 1 0.943786
0 1 0.974075
0 1 0.988632
0 1 0.980865
0.635966 1 0.961822
0.967987 0.973312 0.94667
1 0.962646 0.912551
1 0.964385 0.893065
0 1 0.951324
0 1 0.952926
0 1 0.947753
0 1 0.932921
0.237156 1 0.914076
0.711635 1 0.90782
0.917678 1 0.920394
0.993164 1 0.935164
1 1 0.942077
0 1 0.944945
0 1 0.944076
0 1 0.931579
0 1 0.916457
0.532876 1 0.904479
0.779141 1 0.909895
0.927596 1 0.935195
0.986297 1 0.966125
1 1 0.980774
0 0 0.512718
0 0 0.491875
0 0 0.452918
0 0 0.383581
0.103578 0 0.589929
0.426947 0 0.649729
0.602564 0 0.629908
0.724361 0 0.618494
0.767636 0 0.615686
0 0 0.69398
0 0 0.680674
0 0 0.661601
0 0 0.621546
0.000030518 0 0.745113
0.463203 0 0.738231
0.665705 0 0.696284
0.798489 0 0.684123
0.845899 0 0.681498
0 0 0.83975
0 0 0.831846
0 0 0.821729
0 0 0.805646
0 0 0.945052
0.554253 0 0.96083
0.855146 0 0.899657
0.997696 0 0.877623
1 0 0.869001
0 0.28629 0.932006
0 0.25687 0.928054
0 0.207507 0.923354
0 0.114961 0.955688
0 0 1
0.551598 0 1
1 0 1
1 0 1
1 0 0.999619
0 0.619852 0.989914
0 0.603876 0.988724
0 0.586725 0.986648
0 0.593271 1
0 0.624216 1
0.325673 0.583963 1
1 0.398703 1
1 0.494652 1
1 0.547219 1
0 0.870161 1
0 0.855833 1
0 0.855283 1
0 0.906264 1
0 0.930556 1
0.184375 0.909331 1
0.95581 0.823178 1
1 0.800809 1
1 0.814618 1
0 1 1
0 1 1
0 1 1
0 1 1
0 1 1
0.485054 1 1
0.855497 0.983063 1
1 0.944884 1
1 0.947417 0.997711
0 1 1
0 1 1
0 1 1
0 1 1
0.388022 1 1
0.727291 1 0.998215
0.919112 1 0.990768
0.99736 0.995789 0.989166
1 0.995315 0.984985
0 1 1
0 1 1
0 1 1
0.233814 1 1
0.603677 1 0.992416
0.820447 1 0.982452
0.948684 1 0.983383
0.994766 1 0.993225
0.999481 0.999786 0.997375
0 0 0.607538
0 0 0.588006
0 0 0.554376
0 0 0.495003
0 0 0.57615
0.321508 0 0.687663
0.547646 0 0.677134
0.697551 0 0.669856
0.749264 0 0.670207
0 0 0.774487
0 0 0.760815
0 0 0.742962
0 0 0.709667
0 0 0.7664
0.332738 0 0.803494
0.609857 0 0.760128
0.771527 0 0.742428
0.826413 0 0.741085
0 0 0.911162
0 0 0.902831
0 0 0.892454
0 0 0.878187
0 0 0.943694
0.348028 0 0.999008
0.772091 0 0.979065
0.973281 0 0.944762
1 0 0.934218
0 0.31078 1
0 0.279667 0.998749
0 0.233585 0.993957
0 0.179294 0.988296
0 0.100557 1
0.265141 0 1
0.906584 0 1
1 0 1
1 0 1
0 0.660151 1
0 0.642237 1
0 0.622339 1
0 0.623102 1
0 0.662531 1
0.000503548 0.659953 1
0.897032 0.542931 1
1 0.550164 1
1 0.603937 1
0 0.918868 1
0 0.905241 1
0 0.891432 1
0 0.921569 1
0 0.946807 1
0 0.939666 1
0.744045 0.886442 1
1 0.823728 1
1 0.839979 1
0 1 1
0 1 1
0 1 1
0 1 1
0 1 1
0.404944 1 1
0.766567 0.997345 1
0.999573 0.958602 1
1 0.955962 1
0 1 1
0 1 1
0 1 1
0.047715 1 1
0.520302 1 1
0.740169 1 1
0.901686 1 1
0.98172 0.996841 1
0.999557 0.993622 0.999359
0 1 1
0 1 1
0 1 1
0.395865 1 1
0.661189 1 1
0.841031 1 1
0.957046 1 1
0.996994 0.998917 0.99884
1 1 1
