site/assets/luts/freshluts--0000123-toastedgarden.cube
# LUTr-Schema-Version: 2
# LUTr-ID: freshluts--0000123-toastedgarden
# LUTr-Title: ToastedGarden
# LUTr-Collection: Fresh LUTs
# LUTr-Collection-ID: freshluts-community
# LUTr-Source: https://freshluts.com
# LUTr-Retrieved: 2026-07-27
# LUTr-Source-File: submissions-raw/freshluts/cubes/123__ToastedGarden.cube
# LUTr-Source-Format: CUBE
# LUTr-Source-SHA256: dc2bb9ec4f0eb2df7b2bbb67680d280a8cce4d689e522c9613814a0f4f633560
# LUTr-License: CC0-1.0
# LUTr-License-URL: https://freshluts.com/termsandconditions
# LUTr-License-Basis: site-terms
# LUTr-Transform-Class: creative-look
# LUTr-Tags: creative, freshluts, community, cube, brown, canon-cinestyle
# LUTr-Input-Color-Space:
# LUTr-Input-Gamut: rec709
# LUTr-Input-Transfer: canon-cinestyle
# LUTr-Output-Color-Space: srgb
# LUTr-Output-Gamut: rec709
# LUTr-Output-Transfer: srgb
# LUTr-Color-Space-Confidence: camera-profile-input-required
# LUTr-Domain-Normalized: true
# LUTr-Shaper: none
# LUTr-Original-Grid: 33x33x33
# LUTr-Conversion-Grid: 33x33x33
# LUTr-Conversion-Interpolation: none
# LUTr-Conversion-Method: Metadata normalization; numeric LUT samples preserved
# LUTr-Conversion-Tool: LUTr scripts/convert-all-to-cube.mjs 2.0.0
# LUTr-Conversion-Date: 2026-07-28
# LUTr-Asset-URL: https://freshluts.com/luts/123
# LUTr-Author: J. T. Semple
# LUTr-Author-URL: https://freshluts.com/users/120
# LUTr-Attribution: J. T. Semple via Fresh LUTs
# LUTr-Source-Labels: gamma=Canon Cinestyle; color=Brown; key=Neutral; style=Hipster
# LUTr-Note: Preserve this metadata and the upstream license notices when redistributing.
TITLE "ToastedGarden"
LUT_3D_SIZE 5
DOMAIN_MIN 0 0 0
DOMAIN_MAX 1 1 1
0 0 0
0 0 0
0.213031 0 0
0.542885 0 0
0.795331 0 0
0 0.0491493 0
0.0363775 0.0569467 0
0.306493 0.0500191 0
0.638865 0.0358892 0
0.888594 0.0608377 0
0 0.297704 0
0.0797742 0.333806 0
0.41326 0.358968 0
0.757504 0.383627 0
1 0.433417 0
0 0.671901 0
0.179294 0.717784 0
0.530373 0.737163 0
0.851286 0.75584 0
1 0.7879 0.0167391
0.0990921 1 0.0448768
0.344839 1 0.0618143
0.664332 1 0.049897
0.937087 1 0.0429541
1 1 0.0529335
0 0 0.00343328
0 0 0.00973526
0.223514 0 0.00840772
0.553079 0 0
0.802197 0 0
0 0.0545968 0.0406958
0.0442359 0.0624399 0.0476387
0.319417 0.0562448 0.0420386
0.654612 0.0467842 0.0334478
0.906691 0.0772869 0.0611734
0 0.311559 0.0424964
0.0994583 0.352239 0.0711986
0.436744 0.377951 0.0865644
0.777798 0.402808 0.102419
1 0.453559 0.141833
0 0.6907 0.0858015
0.202533 0.736324 0.124239
0.551675 0.753658 0.137758
0.865919 0.768902 0.150866
1 0.797604 0.176761
0.114 1 0.206332
0.356466 1 0.221775
0.673243 1 0.21059
0.942504 1 0.206256
1 1 0.220905
0 0 0.175265
0 0 0.186557
0.229969 0 0.189776
0.559091 0 0.174517
0.805264 0 0.180636
0 0.0565499 0.232639
0.0472419 0.0642252 0.246708
0.327367 0.0588846 0.250034
0.666133 0.0538338 0.254353
0.920119 0.0890669 0.295109
0 0.321294 0.266545
0.113436 0.365164 0.305913
0.452689 0.39057 0.328496
0.790402 0.414527 0.351186
1 0.465415 0.398077
0 0.702495 0.338354
0.215854 0.746593 0.381231
0.562936 0.760983 0.398184
0.871092 0.772442 0.413184
1 0.797391 0.441276
0.117678 1 0.471077
0.356619 1 0.487037
0.672602 1 0.477806
0.938338 0.998459 0.476188
1 1 0.494697
0 0 0.452125
0 0 0.467216
0.227161 0 0.472679
0.556893 0 0.459266
0.801007 0 0.467079
0 0.0509499 0.519249
0.0428473 0.0594797 0.535149
0.329732 0.0566873 0.540749
0.672541 0.0564584 0.548516
0.929458 0.0966049 0.59266
0 0.327276 0.56051
0.122438 0.373404 0.601251
0.463615 0.39852 0.62211
0.800275 0.423331 0.643198
1 0.474144 0.687556
0 0.711177 0.629831
0.225681 0.753735 0.669566
0.57055 0.765255 0.680964
0.873457 0.773571 0.689906
1 0.795285 0.711009
0.118822 1 0.746471
0.355856 1 0.756191
0.670939 1 0.740566
0.935561 0.994095 0.734371
1 1 0.747341
0 0 0.709789
0 0 0.718746
0.228046 0 0.716869
0.558206 0 0.695781
0.802136 0 0.697261
0 0.0495766 0.753613
0.0448768 0.0600748 0.763684
0.340398 0.0614328 0.765072
0.687343 0.0672313 0.77052
0.945968 0.111437 0.810758
0 0.340734 0.779309
0.139681 0.388647 0.815961
0.481712 0.413031 0.830549
0.817456 0.439368 0.847578
1 0.489158 0.886122
0 0.72665 0.832441
0.243458 0.767346 0.866575
0.584329 0.775296 0.870588
0.882414 0.781018 0.873396
1 0.800122 0.888731
0.126909 1 0.927749
0.362524 1 0.932708
0.67686 1 0.91368
0.940063 0.997147 0.905074
1 1 0.916747
