site/assets/luts/freshluts--0001089-arri-crosstalk-custom-look-1-by-tjtop.cube
# LUTr-Schema-Version: 2
# LUTr-ID: freshluts--0001089-arri-crosstalk-custom-look-1-by-tjtop
# LUTr-Title: Arri_Crosstalk_Custom_Look_1_by_TJTOP
# LUTr-Collection: Fresh LUTs
# LUTr-Collection-ID: freshluts-community
# LUTr-Source: https://freshluts.com
# LUTr-Retrieved: 2026-07-27
# LUTr-Source-File: submissions-raw/freshluts/cubes/1089__LogC_CCL_1_33.cube
# LUTr-Source-Format: CUBE
# LUTr-Source-SHA256: 4513cb49bfc18242773466921a555b4b1ced8d9042194cf159945efb9f1b67c9
# LUTr-License: CC0-1.0
# LUTr-License-URL: https://freshluts.com/termsandconditions
# LUTr-License-Basis: site-terms
# LUTr-Transform-Class: creative-look
# LUTr-Tags: creative, freshluts, community, cube, cross-process, teal, arri-logc3-ei800
# LUTr-Input-Color-Space:
# LUTr-Input-Gamut: arri-wide-gamut-3
# LUTr-Input-Transfer: arri-logc3-ei800
# LUTr-Output-Color-Space: srgb
# LUTr-Output-Gamut: rec709
# LUTr-Output-Transfer: srgb
# LUTr-Color-Space-Confidence: camera-profile-input-required
# LUTr-Domain-Normalized: true
# LUTr-Shaper: none
# LUTr-Original-Grid: 33x33x33
# LUTr-Conversion-Grid: 33x33x33
# LUTr-Conversion-Interpolation: none
# LUTr-Conversion-Method: Metadata normalization; numeric LUT samples preserved
# LUTr-Conversion-Tool: LUTr scripts/convert-all-to-cube.mjs 2.0.0
# LUTr-Conversion-Date: 2026-07-28
# LUTr-Asset-URL: https://freshluts.com/luts/1089
# LUTr-Author: tjtop
# LUTr-Author-URL: https://freshluts.com/users/10151
# LUTr-Attribution: tjtop via Fresh LUTs
# LUTr-Source-Labels: gamma=Arri log c; color=Teal; key=Neutral; style=Cross Process
# LUTr-Note: Preserve this metadata and the upstream license notices when redistributing.
TITLE "Arri_Crosstalk_Custom_Look_1_by_TJTOP"
LUT_3D_SIZE 9
DOMAIN_MIN 0 0 0
DOMAIN_MAX 1 1 1
0.027843 -0.02794 0
0.152796 -0.05292 -0.031221
0.260412 -0.09011 -0.077492
0.37836 -0.196929 -0.208551
0.50106 -0.383534 -0.427283
0.625332 0.387388 0.407445
0.750104 0.597013 0.614067
0.875032 0.738888 0.755572
1.00001 0.868655 0.885244
-0.003407 0.09706 0.03125
0.121593 0.07208 0.000029
0.248654 0.03489 -0.046242
0.374582 -0.071929 -0.177302
0.49987 -0.258534 -0.396033
0.624959 0.400239 0.41024
0.749987 0.598933 0.614479
0.874996 0.739404 0.755682
0.999999 0.868809 0.885277
-0.050979 0.238426 0.078822
0.074021 0.226902 0.047601
0.227843 0.207067 0.00133
0.368562 0.118743 -0.129729
0.498032 -0.067862 -0.348461
0.62439 0.417285 0.414359
0.74981 0.601797 0.615104
0.874941 0.740185 0.75585
0.999981 0.869044 0.885327
-0.196818 0.37152 0.206537
-0.071818 0.368309 0.186378
0.118854 0.363345 0.147169
0.347676 0.347658 0.016109
0.492193 0.313157 -0.202622
0.622624 0.4582 0.426084
0.749264 0.610374 0.616996
0.874771 0.742618 0.756364
0.999928 0.869782 0.885481
-0.502703 0.498926 0.312264
-0.377703 0.497956 0.30517
-0.187031 0.496496 0.293711
0.283404 0.492189 0.252455
0.478808 0.484223 0.103263
0.618823 0.533432 0.447167
0.74811 0.633989 0.620861
0.874414 0.75006 0.757433
0.999817 0.872113 0.885803
0.449224 0.624666 -1.763112
0.456637 0.624366 -1.794333
0.467041 0.623919 -1.840603
0.494532 0.622622 -1.971663
0.552991 0.62032 -2.190394
0.644501 0.636593 -0.535894
0.756475 0.686613 0.587788
0.877063 0.770929 0.749145
1.000648 0.87926 0.883363
0.652873 0.749896 -11.670675
0.654018 0.749803 -11.701896
0.655742 0.749664 -11.748167
0.661013 0.749264 -11.879227
0.676344 0.748561 -12.097958
0.71447 0.753755 -10.443458
0.786589 0.773262 -3.508163
0.887812 0.819082 0.703444
1.004165 0.899399 0.872135
0.794 0.874967 -43.413868
0.794309 0.874938 -43.445091
0.794778 0.874895 -43.49136
0.796248 0.874771 -43.622417
0.800825 0.874553 -43.841152
0.814299 0.876186 -42.186649
0.848713 0.882816 -35.251358
0.91641 0.901659 -13.031121
1.014715 0.946311 0.825352
0.923575 0.99999 -145.117
0.923668 0.999981 -145.14822
0.923808 0.999967 -145.1945
0.924252 0.999928 -145.32556
0.925662 0.999861 -145.5443
0.930058 1.000372 -143.88979
0.943042 1.002501 -136.9545
0.976443 1.009052 -114.73425
1.042871 1.027698 -43.542065
0.021646 -0.00294 0.125
0.146646 -0.02792 0.093779
0.258181 -0.06511 0.047508
0.377621 -0.171929 -0.083551
0.500825 -0.358534 -0.302283
0.625258 0.390084 0.418212
0.750081 0.5974 0.615707
0.875025 0.738992 0.756013
1.000008 0.868686 0.885376
-0.009604 0.12206 0.156055
0.115396 0.09708 0.125029
0.246161 0.05989 0.078758
0.373816 -0.046929 -0.052302
0.499632 -0.233534 -0.271033
0.624885 0.402634 0.420743
0.749964 0.599313 0.616113
0.874989 0.739506 0.756123
0.999996 0.86884 0.885409
-0.057176 0.248839 0.19351
0.067824 0.238434 0.170451
0.224809 0.220795 0.12633
0.367753 0.143743 -0.004729
0.49779 -0.042862 -0.223461
0.624315 0.419332 0.424485
0.749787 0.602167 0.616728
0.874933 0.740287 0.75629
0.999979 0.869074 0.885459
-0.203015 0.374639 0.262581
-0.078015 0.371522 0.251081
0.112657 0.366707 0.231393
0.346692 0.35154 0.141109
0.491938 0.318474 -0.077622
0.622548 0.459603 0.435205
0.749241 0.610716 0.618593
0.874764 0.742717 0.756802
0.999926 0.869812 0.885613
-0.5089 0.499887 0.336735
-0.3839 0.498927 0.331126
-0.193228 0.49748 0.322233
0.281606 0.493213 0.292115
0.478519 0.485325 0.208638
0.618745 0.534131 0.454718
0.748086 0.634263 0.622401
0.874406 0.750153 0.757867
0.999815 0.872143 0.885934
0.448843 0.624965 -1.638112
0.456281 0.624666 -1.669333
0.466718 0.62422 -1.715603
0.494282 0.622927 -1.846663
0.552846 0.620631 -2.065394
0.644439 0.636861 -0.410894
0.756454 0.686781 0.589879
0.877056 0.771006 0.749613
1.000646 0.879288 0.883497
0.652816 0.749989 -11.545676
0.653962 0.749896 -11.576897
0.655686 0.749757 -11.623167
0.66096 0.749357 -11.754226
0.676298 0.748655 -11.972959
0.714438 0.753844 -10.318458
0.786573 0.773337 -3.383163
0.887805 0.819131 0.70416
1.004163 0.899422 0.872284
0.793985 0.874997 -43.288868
0.794294 0.874968 -43.320091
0.794763 0.874924 -43.36636
0.796233 0.8748 -43.497421
0.80081 0.874582 -43.716152
0.814286 0.876215 -42.061653
0.848704 0.882843 -35.126354
0.916405 0.901682 -12.906121
1.014713 0.946326 0.825583
0.923571 0.999999 -144.992
0.923663 0.99999 -145.02322
0.923804 0.999976 -145.06949
0.924248 0.999938 -145.20056
0.925658 0.99987 -145.41928
0.930054 1.000381 -143.76479
0.943038 1.00251 -136.8295
0.97644 1.009061 -114.60925
1.04287 1.027705 -43.417065
0.014508 0.034821 0.25
0.139508 0.009841 0.236981
0.255551 -0.027349 0.214215
0.376764 -0.134168 0.107121
0.500554 -0.320773 -0.111611
0.625173 0.394032 0.432801
0.750054 0.597981 0.618161
0.875017 0.739147 0.756683
1.000005 0.868732 0.885577
-0.016742 0.159368 0.26162
0.108258 0.134841 0.250011
0.243215 0.097651 0.230106
0.372928 -0.009168 0.13837
0.499358 -0.195773 -0.080361
0.6248 0.406154 0.435013
0.749938 0.599884 0.618558
0.874981 0.739662 0.756792
0.999994 0.868886 0.88561
-0.064314 0.262871 0.277198
0.060686 0.253797 0.267233
0.221205 0.238684 0.250521
0.366813 0.177546 0.180916
0.497511 -0.005101 -0.032789
0.624229 0.422352 0.438296
0.74976 0.602723 0.619159
0.874925 0.740441 0.756959
0.999977 0.869121 0.88566
-0.210153 0.379185 0.314395
-0.085153 0.376199 0.307445
0.105519 0.371594 0.296239
0.345547 0.35715 0.256147
0.491643 0.326037 0.11305
0.622461 0.461687 0.447778
0.749214 0.61123 0.620982
0.874755 0.742868 0.757467
0.999924 0.869858 0.885813
-0.516038 0.501324 0.365799
-0.391038 0.500376 0.361547
-0.200366 0.498949 0.354918
0.279497 0.49474 0.333559
0.478185 0.486969 0.284401
0.618654 0.535177 0.4653
0.748059 0.634676 0.624709
0.874398 0.750293 0.758525
0.999812 0.872188 0.886135
0.448403 0.625415 -1.44744
0.45587 0.625117 -1.478661
0.466345 0.624673 -1.524932
0.493993 0.623386 -1.655991
0.552679 0.6211 -1.874722
0.644368 0.637264 -0.220222
0.756428 0.687034 0.592991
0.877048 0.771121 0.750324
1.000643 0.87933 0.883702
0.65275 0.75013 -11.355003
0.653897 0.750037 -11.386224
0.655622 0.749898 -11.432495
0.660899 0.749499 -11.563555
0.676245 0.748798 -11.782286
0.714401 0.75398 -10.127786
0.786554 0.77345 -3.192491
0.887798 0.819205 0.705244
1.004161 0.899457 0.872512
0.793967 0.87504 -43.098198
0.794276 0.875011 -43.129417
0.794746 0.874968 -43.17569
0.796216 0.874844 -43.306751
0.800794 0.874626 -43.525478
0.814272 0.876258 -41.870979
0.848693 0.882884 -34.935684
0.916399 0.901716 -12.715449
1.014711 0.946349 0.825934
0.923565 1.000013 -144.80133
0.923658 1.000004 -144.83255
0.923799 0.99999 -144.87883
0.924242 0.999951 -145.00989
0.925653 0.999883 -145.22861
0.930049 1.000394 -143.57411
0.943033 1.002523 -136.63882
0.976437 1.009073 -114.41859
1.042868 1.027715 -43.226391
0.011469 0.131576 0.375
0.136469 0.106595 0.371103
0.254412 0.069405 0.365055
0.376397 -0.037413 0.345805
0.500438 -0.224019 0.303166
0.625137 0.403532 0.469037
0.750043 0.599457 0.625567
0.875013 0.739546 0.758772
1.000004 0.868851 0.88621
-0.01978 0.223851 0.378764
0.10522 0.210544 0.375004
0.241937 0.187061 0.369177
0.372548 0.087587 0.350718
0.499241 -0.099019 0.310396
0.624764 0.414678 0.47062
0.749926 0.601334 0.625937
0.874977 0.740058 0.75888
0.999993 0.869005 0.886243
-0.067353 0.292182 0.384251
0.057647 0.285347 0.380681
0.219633 0.274289 0.375163
0.36641 0.2342 0.35779
0.497392 0.091653 0.320544
0.624193 0.429722 0.472987
0.749749 0.604135 0.626499
0.874922 0.740835 0.759043
0.999975 0.86924 0.886293
-0.213191 0.390025 0.399512
-0.088191 0.387329 0.396423
0.102481 0.383187 0.391674
0.345055 0.370313 0.376957
0.491518 0.343287 0.346754
0.622424 0.46685 0.479933
0.749203 0.612535 0.628202
0.874752 0.743253 0.759541
0.999923 0.869976 0.886445
-0.519077 0.504919 0.425842
-0.394077 0.504002 0.423431
-0.203405 0.502623 0.419757
0.278587 0.498559 0.408611
0.478042 0.491068 0.386965
0.618616 0.537811 0.493187
0.748048 0.635726 0.63169
0.874395 0.750652 0.760579
0.999811 0.872304 0.886765
0.448215 0.62656 -0.844956
0.455694 0.626265 -0.876177
0.466186 0.625826 -0.922448
0.49387 0.624552 -1.053508
0.552608 0.622291 -1.272239
0.644338 0.638289 0.273403
0.756418 0.68768 0.602271
0.877045 0.771417 0.75254
1.000642 0.879438 0.884346
0.652722 0.750489 -10.75252
0.653869 0.750396 -10.78374
0.655595 0.750258 -10.830011
0.660873 0.749861 -10.961071
0.676223 0.749162 -11.179802
0.714385 0.754327 -9.525302
0.786546 0.77374 -2.590008
0.887795 0.819394 0.708597
1.00416 0.899547 0.873226
0.79396 0.875153 -42.495712
0.794269 0.875124 -42.526936
0.794738 0.875081 -42.573204
0.796208 0.874956 -42.704266
0.800787 0.874739 -42.922993
0.814265 0.876369 -41.268497
0.848689 0.882988 -34.333202
0.916397 0.901804 -12.112967
1.01471 0.946407 0.827035
0.923563 1.000048 -144.19885
0.923656 1.000039 -144.23007
0.923796 1.000025 -144.27635
0.92424 0.999986 -144.40739
0.92565 0.999919 -144.62613
0.930047 1.000429 -142.97163
0.943032 1.002558 -136.03635
0.976435 1.009106 -113.8161
1.042867 1.027742 -42.623909
0.070019 0.220553 0.5
0.187494 0.206803 0.498799
0.274481 0.182385 0.496994
0.383256 0.081104 0.49171
0.502646 -0.105502 0.482267
0.625833 0.414128 0.538946
0.750261 0.601238 0.646347
0.875081 0.740031 0.765205
1.000025 0.868997 0.888214
0.038769 0.271115 0.501189
0.162916 0.262738 0.500001
0.264238 0.248915 0.498216
0.37965 0.195016 0.492993
0.501473 0.019498 0.483668
0.625462 0.424274 0.539775
0.750144 0.603084 0.646652
0.875045 0.740541 0.765306
1.000014 0.869151 0.888246
-0.008803 0.319742 0.502974
0.116197 0.314492 0.501806
0.246486 0.306168 0.500051
0.373916 0.277892 0.494919
0.499663 0.197649 0.485766
0.624895 0.438111 0.541024
0.749967 0.605841 0.647115
0.87499 0.741315 0.76546
0.999997 0.869385 0.888295
-0.154641 0.401965 0.508268
-0.029641 0.399556 0.507156
0.160467 0.395867 0.505487
0.354145 0.384507 0.500615
0.493915 0.361221 0.491954
0.623137 0.472853 0.544765
0.749422 0.614113 0.648523
0.87482 0.743722 0.765929
0.999944 0.870121 0.888445
-0.460527 0.509165 0.51859
-0.335527 0.508284 0.517581
-0.144855 0.506959 0.516067
0.2949 0.503059 0.511661
0.480756 0.495886 0.503879
0.619355 0.540953 0.552213
0.74827 0.636999 0.651417
0.874463 0.75109 0.766908
0.999833 0.872445 0.888758
0.451783 0.627945 0.393756
0.459026 0.627655 0.390494
0.469212 0.627221 0.385469
0.496216 0.625964 0.369809
0.553971 0.623733 0.337178
0.64492 0.639533 0.47725
0.756623 0.688467 0.627534
0.877111 0.771778 0.759345
1.000663 0.87957 0.886385
0.653261 0.750928 -8.822201
0.654402 0.750836 -8.853422
0.656119 0.750698 -8.899693
0.661372 0.750302 -9.030753
0.676656 0.749606 -9.249484
0.714689 0.75475 -7.594983
0.786701 0.774093 -0.659689
0.887855 0.819625 0.718687
1.00418 0.899657 0.875485
0.794105 0.875291 -40.565395
0.794413 0.875262 -40.596615
0.794882 0.875218 -40.642887
0.79635 0.875094 -40.773945
0.800923 0.874877 -40.992676
0.814385 0.876505 -39.338177
0.848776 0.883116 -32.402882
0.916443 0.901911 -10.182648
1.014729 0.946478 0.830489
0.923606 1.000091 -142.26854
0.923699 1.000082 -142.29974
0.92384 1.000068 -142.34602
0.924283 1.000029 -142.47708
0.925693 0.999962 -142.69582
0.930088 1.000472 -141.04132
0.943068 1.0026 -134.10602
0.976462 1.009145 -111.88578
1.042882 1.027776 -40.693588
-1.537761 0.203876 0.625
-1.412761 0.187631 0.624627
-1.22209 0.157714 0.624071
-0.619606 0.051206 0.622481
0.414755 -0.1354 0.619773
0.604863 0.411552 0.638736
0.74411 0.600791 0.694349
0.873196 0.739909 0.783549
0.99944 0.86896 0.894393
-1.569011 0.26101 0.625372
-1.444011 0.251769 0.625
-1.253339 0.236346 0.624446
-0.650856 0.17338 0.622862
0.412077 -0.0104 0.620164
0.604412 0.421933 0.639064
0.743987 0.602645 0.694545
0.873159 0.74042 0.783634
0.999429 0.869114 0.894424
-1.616583 0.313428 0.625937
-1.491583 0.307852 0.625567
-1.300911 0.298975 0.625016
-0.698428 0.268432 0.62344
0.407868 0.176592 0.620756
0.603721 0.436056 0.639561
0.7438 0.605413 0.694841
0.873103 0.741194 0.783764
0.999411 0.869348 0.89447
-1.762422 0.399076 0.62765
-1.637422 0.396601 0.627285
-1.44675 0.392807 0.626743
-0.844266 0.3811 0.625192
0.393827 0.356972 0.622553
0.601577 0.47137 0.641071
0.743222 0.613717 0.695746
0.87293 0.743604 0.78416
0.999358 0.870084 0.894611
-2.068307 0.50811 0.631155
-1.943307 0.50722 0.630802
-1.752635 0.505881 0.630278
-1.150152 0.501941 0.628778
0.356595 0.494691 0.626226
0.596935 0.540169 0.64417
0.742001 0.636679 0.697619
0.872567 0.75098 0.784986
0.999246 0.87241 0.894907
0.206943 0.627598 0.601567
0.262821 0.627306 0.601102
0.314543 0.62687 0.600409
0.39958 0.62561 0.598423
0.508292 0.623371 0.595025
0.627658 0.63922 0.618403
0.750837 0.688269 0.682706
0.875262 0.771687 0.778631
1.000082 0.879537 0.892668
0.637389 0.750818 -2.637583
0.638711 0.750725 -2.668804
0.640696 0.750587 -2.715075
0.646738 0.750191 -2.846134
0.664082 0.749494 -3.064866
0.706023 0.754644 -1.410365
0.782357 0.774004 0.571901
0.886183 0.819567 0.745808
1.003617 0.899629 0.882418
0.790056 0.875256 -34.380775
0.790376 0.875227 -34.411999
0.790863 0.875184 -34.458267
0.792387 0.87506 -34.589329
0.797128 0.874842 -34.80806
0.811044 0.876471 -33.153561
0.846361 0.883084 -26.218262
0.915165 0.901884 -3.998029
1.014218 0.94646 0.840861
0.922411 1.00008 -136.08392
0.922504 1.000071 -136.11513
0.922646 1.000057 -136.16141
0.923095 1.000018 -136.29246
0.92452 0.999951 -136.5112
0.928962 1.000461 -134.85671
0.942071 1.002589 -127.92139
0.975732 1.009135 -105.70116
1.042489 1.027767 -34.508972
-8.473056 0.203876 0.75
-8.348056 0.187631 0.749884
-8.157384 0.157714 0.749711
-7.5549 0.051206 0.74922
-5.624582 -0.1354 0.748396
0.31856 0.411552 0.754479
0.712604 0.600791 0.776783
0.864662 0.739909 0.82731
0.996879 0.86896 0.91209
-8.504305 0.26101 0.750116
-8.379305 0.251769 0.75
-8.188633 0.236346 0.749828
-7.58615 0.17338 0.749337
-5.655831 -0.0104 0.748514
0.311877 0.421933 0.75459
0.712439 0.602645 0.776874
0.864622 0.74042 0.827367
0.996867 0.869114 0.912116
-8.551878 0.313428 0.750293
-8.426878 0.307852 0.750177
-8.236205 0.298975 0.750005
-7.633722 0.268432 0.749515
-5.703403 0.176592 0.748693
0.300829 0.436056 0.75476
0.712187 0.605413 0.777012
0.864561 0.741194 0.827453
0.996849 0.869348 0.912155
-8.697716 0.399076 0.750834
-8.572716 0.396601 0.750718
-8.382045 0.392807 0.750547
-7.77956 0.3811 0.75006
-5.849242 0.356972 0.749242
0.257472 0.47137 0.755279
0.711412 0.613717 0.777433
0.864374 0.743604 0.827717
0.996795 0.870084 0.912275
-9.003602 0.50811 0.751959
-8.878602 0.50722 0.751845
-8.68793 0.505881 0.751675
-8.085446 0.501941 0.751193
-6.155127 0.494691 0.750384
0.029491 0.540169 0.756359
0.709766 0.636679 0.778313
0.86398 0.75098 0.828268
0.99668 0.87241 0.912526
-6.709944 0.627598 0.74322
-6.584943 0.627306 0.743096
-6.394271 0.62687 0.742912
-5.791788 0.62561 0.742388
-3.86147 0.623371 0.74151
0.477748 0.63922 0.747984
0.721532 0.688269 0.771537
0.866897 0.771687 0.824064
0.997536 0.879537 0.910629
0.512589 0.750818 0.694236
0.51676 0.750725 0.69404
0.522825 0.750587 0.693749
0.540008 0.750191 0.692921
0.58165 0.749494 0.691525
0.657666 0.754644 0.701662
0.761301 0.774004 0.736059
0.878656 0.819567 0.803733
1.001155 0.899629 0.902023
0.770597 0.875256 -14.56565
0.770981 0.875227 -14.59687
0.771564 0.875184 -14.643141
0.773385 0.87506 -14.7742
0.77902 0.874842 -14.992932
0.795309 0.876471 -13.338432
0.835275 0.883084 -6.403137
0.909467 0.901884 0.685355
1.01199 0.94646 0.86862
0.917094 1.00008 -116.26878
0.917192 1.000071 -116.29999
0.917342 1.000057 -116.34628
0.917813 1.000018 -116.47733
0.91931 0.999951 -116.69607
0.923968 1.000461 -115.04157
0.937663 1.002589 -108.10627
0.972529 1.009135 -85.886032
1.040781 1.027767 -14.693845
-30.693289 0.203876 0.875
-30.568289 0.187631 0.874964
-30.377617 0.157714 0.87491
-29.775133 0.051206 0.874757
-27.844814 -0.1354 0.874502
-21.660196 0.411552 0.876418
-1.845072 0.600791 0.884098
0.831595 0.739909 0.90555
0.988235 0.86896 0.954679
-30.724539 0.26101 0.875036
-30.599537 0.251769 0.875
-30.408867 0.236346 0.874946
-29.806383 0.17338 0.874794
-27.876066 -0.0104 0.874538
-21.691448 0.421933 0.876454
-1.876321 0.602645 0.884131
0.831541 0.74042 0.905578
0.988222 0.869114 0.954696
-30.772112 0.313428 0.875092
-30.64711 0.307852 0.875055
-30.456438 0.298975 0.875002
-29.853956 0.268432 0.874849
-27.923637 0.176592 0.874594
-21.739019 0.436056 0.876508
-1.923893 0.605413 0.884182
0.831458 0.741194 0.905619
0.988203 0.869348 0.954723
-30.91795 0.399076 0.875261
-30.792948 0.396601 0.875225
-30.602278 0.392807 0.875171
-29.999794 0.3811 0.875019
-28.069475 0.356972 0.874764
-21.884855 0.47137 0.876676
-2.069732 0.613717 0.884338
0.831203 0.743604 0.905747
0.988144 0.870084 0.954803
-31.223835 0.50811 0.875615
-31.098833 0.50722 0.875579
-30.908165 0.505881 0.875526
-30.305679 0.501941 0.875374
-28.37536 0.494691 0.87512
-22.190742 0.540169 0.877025
-2.375618 0.636679 0.884663
0.830667 0.75098 0.906014
0.98802 0.87241 0.954972
-28.930178 0.627598 0.872929
-28.805176 0.627306 0.872892
-28.614504 0.62687 0.872837
-28.012022 0.62561 0.872682
-26.081701 0.623371 0.872421
-19.897085 0.63922 0.874375
-0.08196 0.688269 0.882197
0.834625 0.771687 0.903996
0.988947 0.879537 0.953698
-19.022614 0.750818 0.860487
-18.897614 0.750725 0.860445
-18.706942 0.750587 0.860383
-18.104458 0.750191 0.860208
-16.174141 0.749494 0.859916
-9.989523 0.754644 0.862108
0.634069 0.774004 0.87084
0.850221 0.819567 0.894818
0.992862 0.899629 0.948014
0.661896 0.875256 0.806764
0.662949 0.875227 0.806695
0.664536 0.875184 0.806593
0.669402 0.87506 0.806305
0.683654 0.874842 0.805821
0.719646 0.876471 0.809426
0.789265 0.883084 0.823343
0.888862 0.901884 0.85866
1.004522 0.94646 0.927463
0.898036 1.00008 -52.782398
0.898153 1.000071 -52.813618
0.898332 1.000057 -52.85989
0.898894 1.000018 -52.990952
0.900676 0.999951 -53.209679
0.906196 1.000461 -51.55518
0.922181 1.002589 -44.619888
0.961568 1.009135 -22.399652
1.035117 1.027767 0.806482
-101.88548 0.203876 1
-101.76047 0.187631 0.999989
-101.56981 0.157714 0.999972
-100.96732 0.051206 0.999924
-99.03701 -0.1354 0.999845
-92.852386 0.411552 1.000445
-73.037262 0.600791 1.002923
-9.550879 0.739909 1.0105
0.954649 0.86896 1.0317
-101.91673 0.26101 1.000011
-101.79173 0.251769 1
-101.60106 0.236346 0.999983
-100.99857 0.17338 0.999936
-99.068253 -0.0104 0.999856
-92.883636 0.421933 1.000456
-73.068512 0.602645 1.002934
-9.582129 0.74042 1.01051
0.954632 0.869114 1.031708
-101.9643 0.313428 1.000028
-101.8393 0.307852 1.000017
-101.64863 0.298975 1
-101.04614 0.268432 0.999953
-99.115829 0.176592 0.999873
-92.931206 0.436056 1.000473
-73.116081 0.605413 1.002951
-9.629702 0.741194 1.010526
0.954605 0.869348 1.031721
-102.11014 0.399076 1.000081
-101.98514 0.396601 1.00007
-101.79446 0.392807 1.000053
-101.19199 0.3811 1.000006
-99.261658 0.356972 0.999926
-93.077042 0.47137 1.000526
-73.261917 0.613717 1.003003
-9.77554 0.743604 1.010574
0.954525 0.870084 1.03176
-102.41602 0.50811 1.000192
-102.29102 0.50722 1.000181
-102.10036 0.505881 1.000164
-101.49787 0.501941 1.000117
-99.567551 0.494691 1.000037
-93.382935 0.540169 1.000636
-73.567802 0.636679 1.003111
-10.081426 0.75098 1.010674
0.954355 0.87241 1.031843
-100.12237 0.627598 0.999358
-99.99736 0.627306 0.999346
-99.806694 0.62687 0.99933
-99.204216 0.62561 0.999282
-97.273895 0.623371 0.999202
-91.089279 0.63922 0.999805
-71.274147 0.688269 1.002298
-7.787768 0.771687 1.009918
0.955621 0.879537 1.031222
-90.214798 0.750818 0.995677
-90.089806 0.750725 0.995665
-89.899132 0.750587 0.995648
-89.296646 0.750191 0.995598
-87.366325 0.749494 0.995515
-81.181709 0.754644 0.99614
-61.366589 0.774004 0.998719
0.467723 0.819567 1.006587
0.960926 0.899629 1.028499
-58.471619 0.875256 0.982954
-58.346615 0.875227 0.982941
-58.155945 0.875184 0.982921
-57.553459 0.87506 0.982865
-55.623142 0.874842 0.982772
-49.438522 0.876471 0.983475
-29.623396 0.883084 0.986372
0.767229 0.901884 0.995162
0.976348 0.94646 1.019276
0.793479 1.00008 0.927554
0.793789 1.000071 0.927532
0.794261 1.000057 0.927499
0.795737 1.000018 0.927405
0.800336 0.999951 0.927249
0.813868 1.000461 0.928426
0.848401 1.002589 0.933221
0.916244 1.009135 0.947285
1.014649 1.027767 0.9829
