site/assets/luts/freshluts--0000769-breige.cube
# LUTr-Schema-Version: 2
# LUTr-ID: freshluts--0000769-breige
# LUTr-Title: Breige
# LUTr-Collection: Fresh LUTs
# LUTr-Collection-ID: freshluts-community
# LUTr-Source: https://freshluts.com
# LUTr-Retrieved: 2026-07-27
# LUTr-Source-File: submissions-raw/freshluts/cubes/769__Breige.cube
# LUTr-Source-Format: CUBE
# LUTr-Source-SHA256: d518eba38007bf6d7f3004da7db5fce4a519bc925225d1d9a50e0b98f6839313
# LUTr-License: CC0-1.0
# LUTr-License-URL: https://freshluts.com/termsandconditions
# LUTr-License-Basis: site-terms
# LUTr-Transform-Class: creative-look
# LUTr-Tags: creative, freshluts, community, cube, warm, low-key, red-logfilm
# LUTr-Input-Color-Space: red-logfilm-rwg
# LUTr-Input-Gamut: red-wide-gamut-rgb
# LUTr-Input-Transfer: red-logfilm
# LUTr-Output-Color-Space: srgb
# LUTr-Output-Gamut: rec709
# LUTr-Output-Transfer: srgb
# LUTr-Color-Space-Confidence: inferred-from-source-label
# LUTr-Domain-Normalized: true
# LUTr-Shaper: none
# LUTr-Original-Grid: 16x16x16
# LUTr-Conversion-Grid: 16x16x16
# LUTr-Conversion-Interpolation: none
# LUTr-Conversion-Method: Metadata normalization; numeric LUT samples preserved
# LUTr-Conversion-Tool: LUTr scripts/convert-all-to-cube.mjs 2.0.0
# LUTr-Conversion-Date: 2026-07-28
# LUTr-Asset-URL: https://freshluts.com/luts/769
# LUTr-Author: InAvision
# LUTr-Author-URL: https://freshluts.com/users/64078
# LUTr-Attribution: InAvision via Fresh LUTs
# LUTr-Source-Labels: gamma=RED Log Film; color=Warm; key=Low Key; style=Drama
# LUTr-Note: Preserve this metadata and the upstream license notices when redistributing.
TITLE "Breige"
LUT_3D_SIZE 6
DOMAIN_MIN 0 0 0
DOMAIN_MAX 1 1 1
-0.105784 -0.096173 -0.092407
0.17857 -0.096173 -0.092408
0.395775 -0.096176 -0.092409
0.610069 -0.096183 -0.092405
0.819985 -0.096183 -0.092416
1.020935 -0.096197 -0.092431
-0.105785 0.162343 -0.092409
0.17857 0.162343 -0.09241
0.395774 0.165605 -0.092411
0.610069 0.169027 -0.092407
0.819984 0.170091 -0.092418
1.020934 0.168958 -0.092433
-0.10579 0.359774 -0.092405
0.182151 0.359774 -0.092406
0.395773 0.359774 -0.092409
0.610068 0.365902 -0.092416
0.819984 0.367867 -0.092427
1.020934 0.365784 -0.092433
-0.105801 0.554648 -0.092423
0.185899 0.554648 -0.092424
0.402469 0.554648 -0.092427
0.610068 0.554647 -0.092433
0.819983 0.557449 -0.092436
1.020934 0.554479 -0.09245
-0.105807 0.745466 -0.092443
0.187064 0.745466 -0.092444
0.404591 0.745466 -0.092447
0.613154 0.745465 -0.092454
0.820017 0.745465 -0.092456
1.020933 0.741598 -0.09247
-0.105831 0.928182 -0.092474
0.18584 0.928182 -0.092475
0.402381 0.928182 -0.092478
0.609911 0.928182 -0.092484
0.815626 0.928182 -0.092486
1.020932 0.928181 -0.092486
-0.105784 -0.096173 0.155996
0.17857 -0.096173 0.155996
0.395775 -0.096176 0.159118
0.610069 -0.096183 0.162403
0.819984 -0.096183 0.163426
1.020934 -0.096197 0.162343
-0.105785 0.162343 0.155996
0.179604 0.162074 0.155143
0.408269 0.149693 0.141701
0.62767 0.125909 0.115674
0.835374 0.110799 0.098704
1.020935 0.162331 0.155983
-0.10579 0.359774 0.159115
0.152766 0.363337 0.119673
0.398767 0.359893 0.11181
0.619296 0.359991 0.100881
0.830372 0.35735 0.092111
1.020934 0.363798 0.15598
-0.105801 0.554648 0.162398
0.134321 0.557662 0.093987
0.394987 0.556548 0.091974
0.612103 0.554763 0.088865
0.825125 0.554954 0.085469
1.020934 0.553614 0.155975
-0.105808 0.745466 0.163414
0.127712 0.747679 0.08389
0.392332 0.747343 0.083368
0.610313 0.746551 0.082508
0.821415 0.745628 0.081541
1.020933 0.741147 0.155951
-0.105832 0.928182 0.162333
0.125614 0.929812 0.080656
0.388376 0.929641 0.080576
0.604658 0.929319 0.080459
0.814426 0.928818 0.080383
1.020932 0.928181 0.155948
-0.105784 -0.096173 0.345712
0.182154 -0.096174 0.345712
0.395775 -0.096177 0.345712
0.610069 -0.096184 0.351588
0.819984 -0.096184 0.353447
1.020934 -0.096198 0.351511
-0.105785 0.165606 0.345712
0.177726 0.159872 0.354981
0.407656 0.146221 0.354005
0.627574 0.12138 0.350284
0.835977 0.104182 0.343891
1.020935 0.162331 0.349581
-0.10579 0.359774 0.345711
0.146305 0.362802 0.347278
0.398078 0.359156 0.343838
0.622157 0.352889 0.337093
0.844018 0.338045 0.320902
1.020934 0.359769 0.345708
-0.105802 0.554648 0.351586
0.114849 0.558195 0.338268
0.379954 0.558721 0.319937
0.615835 0.554467 0.307738
0.839153 0.547224 0.290522
1.020934 0.551849 0.345706
-0.105808 0.745466 0.353444
0.10022 0.748332 0.333156
0.346583 0.753082 0.275811
0.599921 0.75006 0.268439
0.826742 0.745735 0.25833
1.020933 0.740499 0.345703
-0.105832 0.928182 0.351506
0.09408 0.930456 0.328357
0.321774 0.936034 0.242542
0.582329 0.934232 0.238662
0.809501 0.931643 0.233125
1.020932 0.928181 0.3457
-0.105785 -0.096175 0.532923
0.185906 -0.096176 0.532923
0.402472 -0.096179 0.532923
0.610069 -0.096175 0.532922
0.819984 -0.096185 0.535643
1.020934 -0.096199 0.532785
-0.105786 0.169029 0.532923
0.172905 0.154046 0.551003
0.411481 0.137804 0.552351
0.625665 0.117665 0.544437
0.834869 0.102583 0.538784
1.020934 0.162331 0.531942
-0.105792 0.365903 0.532922
0.140401 0.365534 0.547226
0.396788 0.357639 0.543093
0.621468 0.351322 0.539549
0.842784 0.336715 0.534175
1.020934 0.359769 0.530245
-0.105803 0.554648 0.532921
0.113425 0.557442 0.534561
0.381532 0.557107 0.533613
0.613651 0.553666 0.529988
0.833831 0.548219 0.524151
1.020934 0.554645 0.532917
-0.105809 0.745466 0.53564
0.099779 0.748143 0.52984
0.340274 0.752869 0.512522
0.600649 0.748785 0.513824
0.82638 0.745062 0.504439
1.020933 0.741691 0.532915
-0.105833 0.928182 0.532781
0.093952 0.930343 0.523448
0.300757 0.937255 0.48583
0.572992 0.936411 0.476107
0.80724 0.933045 0.466286
1.020932 0.928181 0.532912
-0.105787 -0.096178 0.716258
0.187079 -0.096178 0.716258
0.404598 -0.096181 0.716258
0.613156 -0.096177 0.716258
0.819984 -0.096188 0.716257
1.020934 -0.096202 0.712574
-0.105788 0.170083 0.716258
0.161932 0.140541 0.746488
0.409547 0.127872 0.742562
0.625321 0.112546 0.733917
0.83321 0.10035 0.726142
1.020934 0.16233 0.712171
-0.105793 0.367869 0.716258
0.133717 0.364015 0.738097
0.394625 0.355183 0.734776
0.620463 0.348772 0.732434
0.842871 0.332095 0.732002
1.020934 0.359769 0.711582
-0.105804 0.55745 0.716256
0.111169 0.55849 0.725061
0.378264 0.555975 0.729555
0.612478 0.552335 0.726281
0.833077 0.546821 0.722508
1.020934 0.554645 0.71255
-0.105811 0.745466 0.716255
0.09913 0.747653 0.717582
0.336911 0.751656 0.719375
0.599605 0.747757 0.716162
0.824831 0.744271 0.712383
1.020933 0.745464 0.716253
-0.105835 0.928182 0.712571
0.093757 0.930059 0.709599
0.298801 0.936331 0.697573
0.577286 0.934538 0.695963
0.813357 0.931077 0.698283
1.020932 0.928181 0.71625
-0.105789 -0.096181 0.891831
0.185866 -0.096182 0.891831
0.402392 -0.096185 0.891831
0.609915 -0.096181 0.891831
0.815629 -0.096191 0.89183
1.020934 -0.096205 0.89183
-0.10579 0.168967 0.891831
0.15076 0.126901 0.926161
0.403365 0.118497 0.920802
0.618911 0.107538 0.912768
0.826644 0.097985 0.905314
1.020934 0.162329 0.89183
-0.105795 0.365787 0.891831
0.127064 0.358966 0.917788
0.390211 0.348816 0.925982
0.618587 0.339987 0.923808
0.837266 0.32551 0.920014
1.020934 0.359768 0.891829
-0.105806 0.554481 0.89183
0.109009 0.554121 0.905071
0.369893 0.550818 0.919843
0.611171 0.549197 0.9171
0.830818 0.54247 0.912703
1.020934 0.554645 0.891829
-0.105812 0.7416 0.891829
0.098493 0.742846 0.897207
0.333579 0.744892 0.910274
0.596927 0.742786 0.905216
0.823793 0.743015 0.900949
1.020933 0.745463 0.891828
-0.105837 0.928182 0.891828
0.093515 0.929821 0.892825
0.296111 0.935256 0.895729
0.57434 0.933667 0.893874
0.812256 0.930204 0.890783
1.020932 0.928181 0.891826
