site/assets/luts/freshluts--0001114-a-slight-touch-of-sepia.cube
# LUTr-Schema-Version: 2
# LUTr-ID: freshluts--0001114-a-slight-touch-of-sepia
# LUTr-Title: A slight touch of Sepia
# LUTr-Collection: Fresh LUTs
# LUTr-Collection-ID: freshluts-community
# LUTr-Source: https://freshluts.com
# LUTr-Retrieved: 2026-07-27
# LUTr-Source-File: submissions-raw/freshluts/cubes/1114__RR_ASlightTouchOfSepia.cube
# LUTr-Source-Format: CUBE
# LUTr-Source-SHA256: 1fff113de3fb8ed8e684610246a36f951a4a261513e2d625fafe87fdc2fca62f
# LUTr-License: CC0-1.0
# LUTr-License-URL: https://freshluts.com/termsandconditions
# LUTr-License-Basis: site-terms
# LUTr-Transform-Class: creative-look
# LUTr-Tags: creative, freshluts, community, cube, vintage, warm, dji-d-log
# LUTr-Input-Color-Space: dji-dlog-dgamut
# LUTr-Input-Gamut: dji-d-gamut
# LUTr-Input-Transfer: dji-d-log
# LUTr-Output-Color-Space: srgb
# LUTr-Output-Gamut: rec709
# LUTr-Output-Transfer: srgb
# LUTr-Color-Space-Confidence: inferred-from-source-label
# LUTr-Domain-Normalized: true
# LUTr-Shaper: none
# LUTr-Original-Grid: 33x33x33
# LUTr-Conversion-Grid: 33x33x33
# LUTr-Conversion-Interpolation: none
# LUTr-Conversion-Method: Metadata normalization; numeric LUT samples preserved
# LUTr-Conversion-Tool: LUTr scripts/convert-all-to-cube.mjs 2.0.0
# LUTr-Conversion-Date: 2026-07-28
# LUTr-Asset-URL: https://freshluts.com/luts/1114
# LUTr-Author: Tobias Reimer
# LUTr-Author-URL: https://freshluts.com/users/119677
# LUTr-Attribution: Tobias Reimer via Fresh LUTs
# LUTr-Source-Labels: gamma=DJI D-log; color=Warm; key=Neutral; style=Vintage
# LUTr-Note: Preserve this metadata and the upstream license notices when redistributing.
TITLE "A slight touch of Sepia"
LUT_3D_SIZE 33
DOMAIN_MIN 0 0 0
DOMAIN_MAX 1 1 1
0 0 0
0.0791638 0 0
0.126192 0 0
0.123613 0 0
0.13669 0 0
0.167147 0 0
0.203296 0 0
0.24094 0 0
0.279713 0 0
0.318563 0 0
0.35758 0 0
0.396704 0 0
0.436179 0 0
0.475441 0 0
0.51519 0 0
0.554314 0 0
0.593668 0 0
0.633112 0 0
0.672526 0 0
0.712306 0 0
0.751812 0 0
0.791623 0 0
0.830976 0 0
0.871168 0 0
0.910857 0 0
0.950896 0 0
0.990662 0 0
1 0 0
1 0 0
1 0 0
1 0 0
1 0 0
1 0 0
0.00682078 0 0
0.0288396 0 0
0.111803 0 0
0.114855 0 0
0.132097 0 0
0.164889 0 0
0.201572 0 0
0.240009 0 0
0.27895 0 0
0.318044 0 0
0.356817 0 0
0.396307 0 0
0.435782 0 0
0.475334 0 0
0.514549 0 0
0.553979 0 0
0.593149 0 0
0.632853 0 0
0.672282 0 0
0.712077 0 0
0.751598 0 0
0.791638 0 0
0.831037 0 0
0.871 0 0
0.910674 0 0
0.950729 0 0
0.990494 0 0
1 0 0
1 0 0
1 0 0
1 0 0
1 0 0
1 0 0
0.0143282 0.010605 0
0.0241245 0.00933852 0
0.082063 0.00747692 0
0.0938888 0.00621042 0
0.120089 0.00227359 0
0.159457 0 0
0.198505 0 0
0.237842 0 0
0.277028 0 0
0.316258 0 0
0.355581 0 0
0.394812 0 0
0.43444 0 0
0.473838 0 0
0.513313 0 0
0.552483 0 0
0.592309 0 0
0.631769 0 0
0.67158 0 0
0.711116 0 0
0.751003 0 0
0.790417 0 0
0.830243 0 0
0.869902 0 0
0.909957 0 0
0.949706 0 0
0.989837 0 0
1 0 0
1 0 0
1 0 0
1 0 0
1 0 0
1 0 0
0.0330663 0.0105745 0
0.0391241 0.0101778 0
0.0789197 0.0100557 0
0.0890211 0.00956741 0
0.118868 0.00595102 0
0.157763 0 0
0.196445 0 0
0.235096 0 0
0.274327 0 0
0.313481 0 0
0.352804 0 0
0.39234 0 0
0.431998 0 0
0.471397 0 0
0.511162 0 0
0.550362 0 0
0.590158 0 0
0.629953 0 0
0.669612 0 0
0.709575 0 0
0.749187 0 0
0.788907 0 0
0.828641 0 0
0.868727 0 0
0.908522 0 0
0.948669 0 0
0.98851 0 0
1 0 0
1 0 0
1 0 0
1 0 0
1 0 0
1 0 0
0.0338598 0.0321202 0
0.0352636 0.0318761 0
0.0370336 0.031754 0
0.0467689 0.0316472 0
0.11429 0.0316014 0
0.151461 0.0281834 0
0.18851 0.0207218 0
0.228183 0 0
0.270481 0 0
0.309651 0 0
0.349233 0 0
0.388907 0 0
0.428214 0 0
0.467811 0 0
0.507393 0 0
0.547326 0 0
0.58706 0 0
0.626673 0 0
0.666728 0 0
0.706783 0 0
0.746258 0 0
0.786358 0 0
0.826215 0 0
0.866407 0 0
0.906386 0 0
0.946563 0 0
0.986709 0 0
1 0 0
1 0 0
1 0 0
1 0 0
1 0 0
1 0 0
0.0106966 0.0659037 0
0.0107576 0.0659037 0
0.0121157 0.0657359 0
0.0200809 0.0656443 0
0.0995651 0.0664225 0
0.144594 0.0655528 0
0.182849 0.0632944 0
0.220768 0.0589914 0
0.258824 0.0524453 0
0.29752 0.041886 0
0.337697 0.0213016 0
0.382849 0 0
0.423301 0 0
0.463371 0 0
0.503059 0 0
0.543038 0 0
0.583215 0 0
0.623056 0 0
0.662974 0 0
0.702861 0 0
0.743053 0 0
0.783078 0 0
0.823331 0 0
0.863554 0 0
0.903426 0 0
0.943572 0 0
0.983688 0 0
1 0 0
1 0 0
1 0 0
1 0 0
1 0 0
1 0 0
0 0.101152 0
0 0.101122 0
0 0.101106 0
0 0.10103 0
0.0244297 0.100954 0
0.132967 0.10219 0
0.175952 0.100786 0
0.214481 0.0986954 0
0.252583 0.0955673 0
0.2916 0.0909133 0
0.330495 0.085069 0
0.369512 0.0768597 0
0.409247 0.0649119 0
0.449088 0.0467536 0
0.494057 0 0
0.537209 0 0
0.577478 0 0
0.618036 0 0
0.658427 0 0
0.698405 0 0
0.738735 0 0
0.779187 0 0
0.819638 0 0
0.85951 0 0
0.899947 0 0
0.940093 0 0
0.98027 0 0
1 0 0
1 0 0
1 0 0
1 0 0
1 0 0
1 0 0
0 0.136416 0
0 0.136385 0
0 0.136339 0
0 0.136248 0
0 0.136172 0
0.111528 0.138155 0
0.165301 0.13756 0
0.207004 0.136278 0
0.246708 0.134371 0
0.285588 0.131518 0
0.324193 0.127993 0
0.363104 0.123354 0
0.402365 0.117494 0
0.441642 0.110216 0
0.481529 0.100694 0
0.52134 0.0886549 0
0.561898 0.0716106 0
0.602899 0.044892 0
0.65127 0 0
0.692927 0 0
0.733272 0 0
0.774044 0 0
0.814633 0 0
0.8551 0 0
0.89514 0 0
0.935775 0 0
0.976455 0 0
1 0 0
1 0 0
1 0 0
1 0 0
1 0 0
1 0 0
0 0.171923 0
0 0.171908 0
0 0.171862 0
0 0.171756 0
0 0.17142 0
0.0145418 0.172335 0
0.150027 0.1738 0
0.197971 0.173037 0
0.238972 0.171664 0
0.278813 0.169619 0
0.317739 0.167132 0
0.357183 0.16405 0
0.396338 0.160311 0
0.435508 0.155657 0
0.475471 0.149737 0
0.515053 0.142992 0
0.555108 0.134569 0
0.594842 0.124865 0
0.635248 0.112245 0
0.675395 0.0963302 0
0.71635 0.0733806 0
0.75906 0.0293431 0
0.807523 0 0
0.849104 0 0
0.890242 0 0
0.930602 0 0
0.971527 0 0
1 0 0
1 0 0
1 0 0
1 0 0
1 0 0
1 0 0
0 0.207431 0
0 0.207401 0
0 0.207279 0
0 0.207004 0
0 0.206729 0
0 0.207065 0
0.124498 0.209628 0
0.184756 0.209445 0
0.229664 0.208331 0
0.271229 0.206683 0
0.311467 0.205005 0
0.350713 0.202625 0
0.390265 0.199619 0
0.429847 0.196048 0
0.469139 0.192004 0
0.508614 0.18732 0
0.548547 0.181582 0
0.588296 0.175219 0
0.628519 0.167483 0
0.668544 0.158785 0
0.709056 0.14815 0
0.749355 0.135744 0
0.790234 0.120012 0
0.831403 0.0994888 0
0.872786 0.0701305 0
0.922332 0 0
0.964752 0 0
1 0 0
1 0 0
1 0 0
1 0 0
1 0 0
1 0 0
0 0.242924 0
0 0.242893 0
0 0.242588 0
0 0.24239 0
0 0.242222 0
0 0.242206 0
0.0139162 0.243244 0
0.167422 0.245365 0
0.218677 0.244526 0
0.262287 0.243626 0
0.303731 0.241993 0
0.343664 0.240116 0
0.383993 0.237537 0
0.423636 0.235111 0
0.463066 0.232013 0
0.502892 0.228183 0
0.542489 0.224048 0
0.582223 0.219257 0
0.622339 0.213687 0
0.662272 0.207507 0
0.702739 0.200214 0
0.742885 0.192187 0
0.783383 0.182818 0
0.823743 0.17229 0
0.864576 0.159442 0
0.905303 0.143893 0
0.946136 0.125231 0
0.987671 0.099855 0
1 0.060853 0
1 0 0
1 0 0
1 0 0
1 0 0
0 0.278065 0
0 0.278004 0
0 0.277958 0
0 0.277775 0
0 0.277607 0
0 0.277485 0
0 0.277592 0
0.138506 0.281117 0
0.203174 0.280674 0
0.25153 0.279988 0
0.295399 0.278462 0
0.336324 0.27686 0
0.377172 0.275166 0
0.416892 0.272923 0
0.456626 0.270268 0
0.496483 0.267231 0
0.536492 0.263706 0
0.576425 0.259831 0
0.616587 0.255695 0
0.656535 0.25098 0
0.696818 0.245335 0
0.736828 0.239292 0
0.777478 0.232471 0
0.817563 0.224781 0
0.858167 0.2159 0
0.898589 0.206378 0
0.939483 0.195209 0
0.98024 0.182528 0
1 0.167742 0
1 0.149935 0
1 0.128481 0
1 0.0969253 0
1 0.0370794 0
0 0.313542 0
0 0.313512 0
0 0.313436 0
0 0.313252 0
0 0.3131 0
0 0.312932 0
0 0.312657 0
0.0249332 0.314672 0
0.184222 0.316411 0
0.239033 0.315938 0
0.284642 0.314931 0
0.327916 0.313741 0
0.369406 0.312016 0
0.410147 0.309972 0
0.45008 0.307759 0
0.490547 0.305425 0
0.530327 0.302617 0
0.570474 0.29926 0
0.610285 0.29572 0
0.650263 0.291783 0
0.690547 0.287251 0
0.730617 0.282475 0
0.77113 0.276951 0
0.811337 0.271077 0
0.852003 0.264393 0
0.892363 0.257221 0
0.933181 0.249042 0
0.973678 0.240299 0
1 0.230167 0
1 0.219226 0
1 0.206104 0
1 0.19115 0
1 0.174502 0
0 0.348837 0
0 0.348821 0
0 0.348745 0
0 0.348684 0
0 0.348455 0
0 0.348272 0
0 0.347951 0
0 0.348424 0
0.154009 0.352102 0
0.221973 0.351995 0
0.272725 0.351003 0
0.318624 0.349966 0
0.360861 0.348562 0
0.402396 0.346761 0
0.443107 0.345129 0
0.483955 0.342763 0
0.524041 0.340246 0
0.563958 0.337545 0
0.603861 0.334508 0
0.644388 0.330953 0
0.684657 0.327443 0
0.724956 0.32343 0
0.765484 0.318822 0
0.805692 0.31397 0
0.846342 0.308492 0
0.886687 0.302724 0
0.927459 0.296193 0
0.967956 0.289342 0
1 0.281422 0
1 0.273243 0
1 0.263539 0
1 0.253529 0
1 0.242374 0
0 0.384268 0
0 0.384253 0
0 0.384176 0
0 0.384115 0
0 0.383932 0
0 0.383612 0
0 0.383276 0
0 0.383322 0
0.0842908 0.386816 0
0.20116 0.387686 0
0.258122 0.387015 0
0.306737 0.386221 0
0.351339 0.384909 0
0.394217 0.383597 0
0.435813 0.381765 0
0.476631 0.379767 0
0.517128 0.377584 0
0.557321 0.375265 0
0.597955 0.372641 0
0.638437 0.369619 0
0.678492 0.3664 0
0.719005 0.362753 0
0.759152 0.358953 0
0.799405 0.354864 0
0.84004 0.350149 0
0.8804 0.345342 0
0.921157 0.339834 0
0.961639 0.334188 0
1 0.327749 0
1 0.321126 0
1 0.313649 0
1 0.305791 0
1 0.296971 0
0 0.419577 0
0 0.419593 0
0 0.419562 0
0 0.419425 0
0 0.419272 0
0 0.418784 0
0 0.418631 0
0 0.418555 0
0 0.418952 0
0.170779 0.423285 0
0.240497 0.422873 0
0.294041 0.422187 0
0.341131 0.420951 0
0.384909 0.419928 0
0.427497 0.418326 0
0.468681 0.416587 0
0.510277 0.414755 0
0.550973 0.412543 0
0.591241 0.410163 0
0.631846 0.407431 0
0.672419 0.404456 0
0.712779 0.401556 0
0.753109 0.398352 0
0.793637 0.394583 0
0.834363 0.390555 0
0.874647 0.386374 0
0.915587 0.381598 0
0.956039 0.376715 0
0.996933 0.371283 0
1 0.365637 0
1 0.359365 0
1 0.352865 0
1 0.345617 0
0 0.455085 0
0 0.45507 0
0 0.454994 0
0 0.454856 0
0 0.454505 0
0 0.454261 0
0 0.454017 0
0 0.453788 0
0 0.453666 0
0.114626 0.458213 0
0.218235 0.458656 0
0.278111 0.458152 0
0.328313 0.457115 0
0.374594 0.456138 0
0.418433 0.454643 0
0.460883 0.452979 0
0.502876 0.451392 0
0.543679 0.449439 0
0.584527 0.447257 0
0.625589 0.4448 0
0.666072 0.44242 0
0.706386 0.439689 0
0.746929 0.436576 0
0.787778 0.433188 0
0.828107 0.429709 0
0.868635 0.425925 0
0.909331 0.421851 0
0.949859 0.417655 0
0.990753 0.412879 0
1 0.407965 0
1 0.402762 0
1 0.397116 0
1 0.390738 0
0 0.490364 0
0 0.490349 0
0 0.490288 0
0 0.49012 0
0 0.489769 0
0 0.489586 0
0 0.489387 0
0 0.489204 0
0 0.488869 0
0 0.489799 0
0.186069 0.494102 0
0.259464 0.493935 0
0.315007 0.49305 0
0.363241 0.492164 0
0.408362 0.490852 0
0.452201 0.489616 0
0.494469 0.487984 0
0.536126 0.486107 0
0.577646 0.484306 0
0.618769 0.482078 0
0.659281 0.479759 0
0.699901 0.47715 0
0.740948 0.474266 0
0.781613 0.471626 0
0.822065 0.468498 0
0.862837 0.465003 0
0.903288 0.461433 0
0.943832 0.457649 0
0.984726 0.453376 0
1 0.448997 0
1 0.444236 0
1 0.439307 0
1 0.433814 0
0 0.525582 0
0 0.525551 0
0 0.525429 0
0 0.525246 0
0 0.525048 0
0 0.524895 0
0 0.524697 0
0 0.524483 0
0 0.524071 0
0 0.524392 0
0.136767 0.529076 0
0.236179 0.529534 0
0.297749 0.528847 0
0.34995 0.528191 0
0.397314 0.526986 0
0.442374 0.525872 0
0.485847 0.524239 0
0.528344 0.522515 0
0.569986 0.521004 0
0.611475 0.518914 0
0.652644 0.51664 0
0.693431 0.514458 0
0.734554 0.512001 0
0.775067 0.509346 0
0.815946 0.50634 0
0.856428 0.503288 0
0.897215 0.499992 0
0.938247 0.4963 0
0.978882 0.492653 0
1 0.489052 0
1 0.484749 0
1 0.480369 0
1 0.475563 0
0 0.5608 0
0 0.5608 0
0 0.560739 0
0 0.560616 0
0 0.560479 0
0 0.560296 0
0 0.560113 0
0 0.559838 0
0 0.559442 0
0 0.559533 0
0 0.560433 0
0.204868 0.565026 0
0.27837 0.564706 0
0.334981 0.564004 0
0.385 0.562951 0
0.43183 0.561959 0
0.476371 0.560494 0
0.519646 0.559213 0
0.562005 0.557427 0
0.604135 0.555459 0
0.64538 0.553429 0
0.686519 0.551583 0
0.727733 0.549203 0
0.76878 0.546563 0
0.809384 0.543938 0
0.85008 0.541253 0
0.89163 0.538155 0
0.93225 0.535027 0
0.972854 0.53167 0
1 0.527977 0
1 0.524224 0
1 0.520287 0
1 0.515892 0
0 0.596109 0
0 0.596094 0
0 0.596033 0
0 0.595911 0
0 0.595819 0
0 0.59559 0
0 0.595407 0
0 0.594888 0
0 0.594675 0
0 0.594644 0
0 0.594781 0
0.155459 0.600198 0
0.254643 0.600458 0
0.317784 0.599817 0
0.371283 0.598978 0
0.420356 0.597894 0
0.4663 0.596567 0
0.510613 0.595376 0
0.553796 0.593713 0
0.595773 0.592004 0
0.638056 0.590372 0
0.679545 0.588266 0
0.721096 0.585946 0
0.762066 0.583841 0
0.80296 0.581537 0
0.844282 0.578698 0
0.885161 0.575921 0
0.925826 0.572992 0
0.966842 0.569787 0
1 0.566522 0
1 0.563287 0
1 0.559396 0
1 0.555596 0
0 0.631479 0
0 0.631464 0
0 0.631403 0
0 0.631403 0
0 0.631235 0
0 0.631098 0
0 0.630716 0
0 0.63032 0
0 0.630091 0
0 0.629938 0
0 0.62977 0
0 0.631495 0
0.223835 0.63592 0
0.297505 0.635477 0
0.355795 0.634943 0
0.407095 0.633875 0
0.454795 0.632624 0
0.500603 0.631556 0
0.544137 0.630091 0
0.588052 0.628534 0
0.630518 0.626688 0
0.672099 0.624857 0
0.713817 0.622736 0
0.755154 0.620874 0
0.796521 0.618463 0
0.837781 0.615915 0
0.878553 0.613336 0
0.919646 0.610758 0
0.960739 0.607889 0
1 0.604898 0
1 0.601526 0
1 0.598016 0
1 0.594522 0
0 0.666804 0
0 0.666819 0
0 0.666758 0
0 0.666667 0
0 0.666514 0
0 0.666392 0
0 0.665827 0
0 0.665614 0
0 0.66537 0
0 0.665232 0
0 0.664881 0
0 0.665385 0
0.175921 0.670939 0
0.271778 0.671153 0
0.337224 0.670771 0
0.39263 0.669764 0
0.442557 0.668818 0
0.489693 0.667552 0
0.534859 0.666102 0
0.579065 0.66482 0
0.621637 0.663188 0
0.664149 0.661311 0
0.706523 0.659602 0
0.748302 0.657465 0
0.789441 0.655314 0
0.83093 0.652964 0
0.872343 0.650752 0
0.91339 0.648112 0
0.954253 0.645472 0
0.995483 0.642496 0
1 0.639338 0
1 0.636423 0
1 0.633249 0
0 0.70219 0
0 0.702174 0
0 0.702144 0
0 0.702052 0
0 0.701961 0
0 0.701686 0
0 0.701335 0
0 0.701091 0
0 0.700801 0
0 0.700618 0
0 0.700206 0
0 0.700313 0
0 0.7028 0
0.241993 0.706462 0
0.31696 0.70631 0
0.376303 0.705516 0
0.42916 0.704768 0
0.477928 0.703548 0
0.524361 0.70222 0
0.568994 0.70106 0
0.61326 0.699321 0
0.656413 0.697658 0
0.698604 0.696071 0
0.740749 0.694057 0
0.782315 0.692012 0
0.824369 0.689967 0
0.865644 0.687648 0
0.906676 0.685283 0
0.947707 0.682719 0
0.989593 0.680049 0
1 0.677317 0
1 0.674372 0
1 0.671168 0
0 0.737438 0
0 0.737423 0
0 0.737331 0
0 0.737163 0
0 0.736934 0
0 0.736751 0
0 0.736599 0
0 0.736416 0
0 0.736171 0
0 0.735897 0
0 0.735439 0
0 0.735393 0
0 0.735943 0
0.196429 0.741772 0
0.290791 0.74197 0
0.356771 0.741314 0
0.413367 0.740658 0
0.465003 0.739452 0
0.513237 0.73846 0
0.559197 0.737041 0
0.603845 0.735485 0
0.647318 0.734249 0
0.690364 0.732464 0
0.733013 0.730465 0
0.775357 0.728756 0
0.816846 0.726757 0
0.858595 0.724483 0
0.900191 0.722057 0
0.941619 0.719982 0
0.983017 0.717342 0
1 0.714702 0
1 0.711803 0
1 0.708873 0
0 0.77258 0
0 0.772549 0
0 0.772534 0
0 0.772473 0
0 0.772335 0
0 0.772198 0
0 0.772 0
0 0.771801 0
0 0.771557 0
0 0.771023 0
0 0.770794 0
0 0.770672 0
0 0.770657 0
0.0961013 0.775876 0
0.259419 0.777386 0
0.336034 0.776852 0
0.397147 0.776303 0
0.450828 0.77528 0
0.500908 0.77438 0
0.547875 0.773144 0
0.593591 0.771725 0
0.638544 0.770275 0
0.6822 0.768612 0
0.724788 0.766979 0
0.767559 0.76524 0
0.8094 0.763272 0
0.851789 0.761028 0
0.893431 0.759167 0
0.934936 0.756817 0
0.976318 0.754421 0
1 0.751751 0
1 0.749401 0
1 0.746609 0
0 0.807874 0
0 0.807858 0
0 0.807813 0
0 0.807736 0
0 0.807599 0
0 0.807507 0
0 0.807279 0
0 0.80708 0
0 0.806836 0
0 0.806302 0
0 0.806043 0
0 0.805859 0
0 0.805615 0
0 0.806531 0
0.215854 0.812665 0
0.309667 0.812482 0
0.377066 0.8121 0
0.434852 0.811093 0
0.487465 0.810224 0
0.536355 0.809003 0
0.58323 0.807706 0
0.628763 0.806409 0
0.672526 0.804898 0
0.716457 0.803433 0
0.759594 0.801556 0
0.801999 0.799649 0
0.844511 0.797818 0
0.886183 0.79585 0
0.927962 0.793561 0
0.969802 0.791135 0
1 0.78909 0
1 0.786603 0
1 0.783703 0
0 0.843244 0
0 0.843244 0
0 0.843198 0
0 0.843122 0
0 0.843091 0
0 0.842908 0
0 0.842756 0
0 0.842496 0
0 0.842069 0
