site/assets/luts/freshluts--0001281-picturefx-js-style-mystical-dusk-photographer-js-style-color.cube
# LUTr-Schema-Version: 2
# LUTr-ID: freshluts--0001281-picturefx-js-style-mystical-dusk-photographer-js-style-color
# LUTr-Title: PictureFX J.S. Style Mystical Dusk - Photographer J.S. Style - color palette and tonal repartition - add bloom, exposure, blur to taste - more info on website
# LUTr-Collection: Fresh LUTs
# LUTr-Collection-ID: freshluts-community
# LUTr-Source: https://freshluts.com
# LUTr-Retrieved: 2026-07-27
# LUTr-Source-File: submissions-raw/freshluts/cubes/1281__PictureFX_J.S._Style_Mystical_Dusk_.cube
# LUTr-Source-Format: CUBE
# LUTr-Source-SHA256: aa9b33c3d185c9ad6a0564c00547d23d0ce820c348e419d06826ce6405fb1258
# LUTr-License: CC0-1.0
# LUTr-License-URL: https://freshluts.com/termsandconditions
# LUTr-License-Basis: site-terms
# LUTr-Transform-Class: creative-look
# LUTr-Tags: creative, freshluts, community, cube, film-emulation, low-key
# LUTr-Input-Color-Space:
# LUTr-Input-Gamut: unspecified
# LUTr-Input-Transfer: unspecified
# LUTr-Output-Color-Space: srgb
# LUTr-Output-Gamut: rec709
# LUTr-Output-Transfer: srgb
# LUTr-Color-Space-Confidence: camera-profile-input-required
# LUTr-Domain-Normalized: true
# LUTr-Shaper: none
# LUTr-Original-Grid: 25x25x25
# LUTr-Conversion-Grid: 25x25x25
# LUTr-Conversion-Interpolation: none
# LUTr-Conversion-Method: Metadata normalization; numeric LUT samples preserved
# LUTr-Conversion-Tool: LUTr scripts/convert-all-to-cube.mjs 2.0.0
# LUTr-Conversion-Date: 2026-07-28
# LUTr-Asset-URL: https://freshluts.com/luts/1281
# LUTr-Author: MarcR.
# LUTr-Author-URL: https://freshluts.com/users/86490
# LUTr-Attribution: MarcR. via Fresh LUTs
# LUTr-Source-Labels: gamma=Other; color=None; key=Low Key; style=Film emulation
# LUTr-Note: Preserve this metadata and the upstream license notices when redistributing.
# LUTr-Upstream-Comment: Generated by lutCreator.js
# LUTr-Upstream-Comment: Coded by SirSerch
# LUTr-Upstream-Comment: https://github.com/SirSerch/LutCreatorJs
TITLE "PictureFX J.S. Style Mystical Dusk - Photographer J.S. Style - color palette and tonal repartition - add bloom, exposure, blur to taste - more info on website"
LUT_3D_SIZE 9
DOMAIN_MIN 0 0 0
DOMAIN_MAX 1 1 1
0 0.015686 0
0.023529 0 0.011765
0.12549 0 0
0.207843 0.062745 0
0.286275 0.090196 0
0.368627 0.12549 0.007843
0.458824 0.160784 0.023529
0.54902 0.2 0.039216
0.639216 0.235294 0.047059
0 0.05098 0
0 0.047059 0.07451
0.117647 0.082353 0.019608
0.196078 0.098039 0
0.278431 0.117647 0.003922
0.364706 0.145098 0.011765
0.454902 0.180392 0.027451
0.54902 0.215686 0.039216
0.635294 0.25098 0.047059
0.007843 0.152941 0.039216
0.062745 0.152941 0.05098
0.133333 0.160784 0.070588
0.207843 0.172549 0.058824
0.290196 0.188235 0.047059
0.380392 0.211765 0.05098
0.470588 0.235294 0.054902
0.556863 0.262745 0.062745
0.647059 0.294118 0.066667
0.047059 0.243137 0.062745
0.094118 0.243137 0.070588
0.160784 0.25098 0.082353
0.235294 0.258824 0.094118
0.313725 0.27451 0.094118
0.4 0.290196 0.090196
0.482353 0.305882 0.086275
0.568627 0.32549 0.086275
0.65098 0.34902 0.086275
0.113725 0.34902 0.098039
0.141176 0.34902 0.101961
0.2 0.352941 0.105882
0.266667 0.356863 0.117647
0.341176 0.364706 0.12549
0.419608 0.376471 0.12549
0.501961 0.388235 0.121569
0.584314 0.403922 0.121569
0.670588 0.423529 0.121569
0.176471 0.45098 0.129412
0.2 0.45098 0.133333
0.243137 0.454902 0.137255
0.305882 0.458824 0.145098
0.376471 0.462745 0.152941
0.45098 0.470588 0.160784
0.52549 0.478431 0.160784
0.603922 0.490196 0.156863
0.682353 0.501961 0.14902
0.231373 0.54902 0.156863
0.247059 0.54902 0.156863
0.282353 0.54902 0.156863
0.337255 0.54902 0.160784
0.403922 0.552941 0.168627
0.470588 0.556863 0.176471
0.541176 0.560784 0.176471
0.615686 0.564706 0.176471
0.690196 0.572549 0.168627
0.278431 0.639216 0.176471
0.294118 0.643137 0.176471
0.32549 0.643137 0.180392
0.376471 0.643137 0.184314
0.435294 0.647059 0.188235
0.501961 0.647059 0.196078
0.572549 0.654902 0.2
0.639216 0.654902 0.2
0.709804 0.658824 0.196078
0.313725 0.717647 0.180392
0.321569 0.717647 0.180392
0.34902 0.713725 0.176471
0.388235 0.713725 0.180392
0.439216 0.709804 0.176471
0.501961 0.713725 0.180392
0.564706 0.709804 0.180392
0.635294 0.713725 0.184314
0.709804 0.72549 0.192157
0 0.007843 0.117647
0.015686 0 0.101961
0.113725 0 0.082353
0.196078 0.058824 0.090196
0.278431 0.086275 0.090196
0.360784 0.121569 0.094118
0.454902 0.156863 0.101961
0.545098 0.2 0.109804
0.639216 0.235294 0.117647
0 0.047059 0.058824
0 0.043137 0.027451
0.105882 0.07451 0.082353
0.184314 0.090196 0.082353
0.266667 0.113725 0.086275
0.356863 0.141176 0.094118
0.447059 0.176471 0.101961
0.541176 0.211765 0.109804
0.631373 0.247059 0.113725
0 0.14902 0.101961
0.039216 0.14902 0.109804
0.113725 0.152941 0.160784
0.196078 0.168627 0.121569
0.282353 0.184314 0.109804
0.372549 0.207843 0.109804
0.462745 0.235294 0.117647
0.552941 0.262745 0.121569
0.643137 0.294118 0.129412
0.023529 0.239216 0.117647
0.078431 0.239216 0.121569
0.152941 0.247059 0.137255
0.227451 0.254902 0.152941
0.305882 0.270588 0.14902
0.392157 0.286275 0.141176
0.478431 0.305882 0.137255
0.564706 0.32549 0.137255
0.65098 0.34902 0.141176
0.101961 0.345098 0.141176
0.133333 0.345098 0.145098
0.192157 0.34902 0.152941
0.262745 0.352941 0.164706
0.337255 0.360784 0.172549
0.415686 0.372549 0.172549
0.498039 0.388235 0.168627
0.584314 0.407843 0.164706
0.670588 0.423529 0.164706
0.172549 0.45098 0.172549
0.196078 0.45098 0.172549
0.239216 0.454902 0.176471
0.305882 0.458824 0.184314
0.376471 0.462745 0.192157
0.45098 0.470588 0.2
0.52549 0.482353 0.2
0.607843 0.494118 0.196078
0.686275 0.505882 0.192157
0.227451 0.54902 0.192157
0.247059 0.54902 0.192157
0.282353 0.54902 0.196078
0.337255 0.552941 0.2
0.403922 0.552941 0.203922
0.47451 0.560784 0.211765
0.545098 0.564706 0.215686
0.619608 0.572549 0.215686
0.698039 0.580392 0.211765
0.286275 0.647059 0.215686
0.301961 0.647059 0.215686
0.333333 0.65098 0.219608
0.380392 0.65098 0.223529
0.443137 0.654902 0.227451
0.509804 0.658824 0.235294
0.580392 0.662745 0.239216
0.65098 0.666667 0.239216
0.721569 0.670588 0.235294
0.321569 0.72549 0.215686
0.329412 0.72549 0.215686
0.352941 0.721569 0.215686
0.396078 0.721569 0.215686
0.447059 0.717647 0.211765
0.505882 0.717647 0.215686
0.572549 0.717647 0.215686
0.639216 0.721569 0.219608
0.713725 0.729412 0.223529
0 0 0.211765
0 0 0.192157
0.094118 0 0.172549
0.184314 0.054902 0.176471
0.270588 0.082353 0.176471
0.356863 0.117647 0.180392
0.447059 0.156863 0.188235
0.541176 0.196078 0.2
0.635294 0.235294 0.207843
0 0.027451 0.14902
0 0.054902 0.160784
0.086275 0.066667 0.156863
0.172549 0.082353 0.160784
0.258824 0.105882 0.164706
0.34902 0.137255 0.172549
0.443137 0.172549 0.184314
0.537255 0.211765 0.196078
0.631373 0.247059 0.2
0 0.145098 0.168627
0 0.14902 0.160784
0.109804 0.152941 0.145098
0.192157 0.164706 0.176471
0.278431 0.180392 0.180392
0.368627 0.203922 0.188235
0.458824 0.231373 0.2
0.54902 0.262745 0.203922
0.643137 0.294118 0.211765
0 0.235294 0.184314
0.047059 0.239216 0.188235
0.133333 0.243137 0.203922
0.207843 0.25098 0.266667
0.294118 0.270588 0.227451
0.384314 0.286275 0.215686
0.470588 0.305882 0.215686
0.560784 0.32549 0.215686
0.647059 0.34902 0.219608
0.078431 0.341176 0.215686
0.117647 0.341176 0.215686
0.180392 0.345098 0.223529
0.254902 0.34902 0.239216
0.32549 0.360784 0.258824
0.407843 0.372549 0.25098
0.494118 0.388235 0.243137
0.580392 0.407843 0.239216
0.670588 0.427451 0.243137
0.160784 0.454902 0.243137
0.184314 0.454902 0.243137
0.235294 0.454902 0.247059
0.298039 0.458824 0.254902
0.372549 0.462745 0.266667
0.447059 0.47451 0.27451
0.52549 0.482353 0.27451
0.607843 0.498039 0.270588
0.690196 0.509804 0.266667
0.223529 0.552941 0.258824
0.239216 0.552941 0.258824
0.278431 0.552941 0.262745
0.337255 0.552941 0.266667
0.403922 0.556863 0.27451
0.47451 0.560784 0.282353
0.54902 0.568627 0.286275
0.623529 0.580392 0.286275
0.701961 0.588235 0.278431
0.286275 0.654902 0.278431
0.301961 0.654902 0.282353
0.337255 0.658824 0.286275
0.384314 0.658824 0.290196
0.447059 0.662745 0.294118
0.513725 0.666667 0.301961
0.588235 0.67451 0.309804
0.658824 0.67451 0.305882
0.729412 0.682353 0.305882
0.32549 0.733333 0.282353
0.333333 0.733333 0.278431
0.356863 0.729412 0.278431
0.4 0.729412 0.278431
0.45098 0.72549 0.27451
0.509804 0.72549 0.278431
0.576471 0.72549 0.278431
0.643137 0.72549 0.282353
0.717647 0.733333 0.286275
0 0 0.282353
0 0 0.270588
0.047059 0.043137 0.278431
0.164706 0.058824 0.270588
0.258824 0.086275 0.266667
0.34902 0.117647 0.270588
0.443137 0.156863 0.282353
0.541176 0.196078 0.290196
0.631373 0.235294 0.298039
0 0.05098 0.254902
0 0.058824 0.254902
0.031373 0.070588 0.25098
0.152941 0.082353 0.247059
0.25098 0.105882 0.254902
0.345098 0.137255 0.262745
0.439216 0.172549 0.27451
0.533333 0.207843 0.282353
0.627451 0.247059 0.290196
0 0.14902 0.258824
0 0.14902 0.254902
0.07451 0.152941 0.254902
0.180392 0.164706 0.258824
0.270588 0.180392 0.266667
0.364706 0.203922 0.27451
0.454902 0.231373 0.286275
0.545098 0.258824 0.294118
0.639216 0.294118 0.301961
0 0.239216 0.262745
0 0.243137 0.266667
0.101961 0.247059 0.262745
0.207843 0.254902 0.247059
0.294118 0.270588 0.282353
0.380392 0.286275 0.290196
0.470588 0.305882 0.298039
0.556863 0.32549 0.301961
0.643137 0.34902 0.305882
0.027451 0.341176 0.294118
0.082353 0.345098 0.294118
0.156863 0.345098 0.298039
0.239216 0.34902 0.313725
0.309804 0.356863 0.380392
0.396078 0.376471 0.337255
0.486275 0.392157 0.321569
0.576471 0.407843 0.321569
0.666667 0.427451 0.32549
0.141176 0.454902 0.321569
0.168627 0.454902 0.32549
0.223529 0.454902 0.329412
0.290196 0.458824 0.337255
0.364706 0.462745 0.352941
0.439216 0.47451 0.372549
0.517647 0.486275 0.364706
0.6 0.498039 0.352941
0.686275 0.513725 0.34902
0.211765 0.552941 0.337255
0.231373 0.552941 0.337255
0.270588 0.552941 0.341176
0.329412 0.556863 0.345098
0.396078 0.556863 0.352941
0.470588 0.564706 0.364706
0.545098 0.572549 0.372549
0.619608 0.580392 0.372549
0.698039 0.592157 0.364706
0.278431 0.654902 0.356863
0.294118 0.658824 0.360784
0.329412 0.662745 0.364706
0.380392 0.662745 0.368627
0.443137 0.666667 0.372549
0.513725 0.670588 0.380392
0.588235 0.678431 0.388235
0.654902 0.678431 0.388235
0.729412 0.686275 0.388235
0.321569 0.737255 0.356863
0.329412 0.733333 0.352941
0.352941 0.729412 0.352941
0.396078 0.729412 0.352941
0.45098 0.729412 0.352941
0.509804 0.72549 0.352941
0.572549 0.72549 0.356863
0.643137 0.729412 0.356863
0.72549 0.745098 0.372549
0 0 0.364706
0 0.019608 0.360784
0 0.054902 0.368627
0.129412 0.070588 0.364706
0.239216 0.094118 0.360784
0.341176 0.121569 0.368627
0.439216 0.160784 0.376471
0.533333 0.2 0.384314
0.627451 0.239216 0.392157
0 0.062745 0.345098
0 0.066667 0.341176
0 0.078431 0.341176
0.117647 0.090196 0.341176
0.231373 0.109804 0.34902
0.333333 0.141176 0.356863
0.431373 0.172549 0.364706
0.529412 0.211765 0.376471
0.623529 0.247059 0.384314
0 0.152941 0.356863
0 0.152941 0.352941
0 0.156863 0.352941
0.152941 0.168627 0.356863
0.258824 0.184314 0.360784
0.352941 0.203922 0.368627
0.45098 0.231373 0.376471
0.541176 0.262745 0.384314
0.635294 0.294118 0.392157
0 0.239216 0.356863
0 0.243137 0.356863
0.05098 0.25098 0.356863
0.184314 0.258824 0.360784
0.286275 0.270588 0.368627
0.376471 0.286275 0.376471
0.466667 0.305882 0.384314
0.552941 0.32549 0.388235
0.643137 0.34902 0.396078
0 0.345098 0.376471
0 0.345098 0.376471
0.117647 0.34902 0.376471
0.211765 0.356863 0.372549
0.313725 0.364706 0.356863
0.396078 0.376471 0.388235
0.486275 0.392157 0.4
0.576471 0.407843 0.403922
0.662745 0.431373 0.411765
0.105882 0.454902 0.407843
0.137255 0.458824 0.407843
0.2 0.458824 0.407843
0.27451 0.462745 0.411765
0.352941 0.466667 0.431373
0.423529 0.47451 0.501961
0.505882 0.490196 0.454902
0.596078 0.501961 0.435294
0.686275 0.517647 0.435294
0.192157 0.552941 0.423529
0.211765 0.552941 0.423529
0.254902 0.556863 0.423529
0.317647 0.556863 0.427451
0.388235 0.560784 0.439216
0.462745 0.564706 0.458824
0.537255 0.572549 0.47451
0.611765 0.584314 0.466667
0.694118 0.596078 0.454902
0.270588 0.658824 0.443137
0.286275 0.662745 0.447059
0.321569 0.662745 0.447059
0.372549 0.666667 0.45098
0.439216 0.670588 0.458824
0.509804 0.67451 0.470588
0.584314 0.678431 0.478431
0.654902 0.682353 0.486275
0.72549 0.690196 0.478431
0.313725 0.737255 0.439216
0.321569 0.737255 0.439216
0.34902 0.733333 0.435294
0.388235 0.733333 0.435294
0.443137 0.729412 0.435294
0.505882 0.729412 0.439216
0.572549 0.729412 0.443137
0.639216 0.729412 0.443137
0.721569 0.74902 0.458824
0 0.066667 0.470588
0 0.066667 0.466667
0 0.07451 0.462745
0.070588 0.086275 0.458824
0.215686 0.105882 0.458824
0.329412 0.133333 0.466667
0.431373 0.168627 0.470588
0.529412 0.203922 0.478431
0.623529 0.243137 0.486275
0 0.082353 0.435294
0 0.082353 0.435294
0 0.090196 0.435294
0.054902 0.101961 0.439216
0.207843 0.121569 0.447059
0.321569 0.14902 0.454902
0.423529 0.180392 0.462745
0.521569 0.215686 0.470588
0.619608 0.25098 0.478431
0 0.160784 0.454902
0 0.160784 0.454902
0 0.168627 0.454902
0.109804 0.176471 0.454902
0.239216 0.192157 0.458824
0.345098 0.211765 0.466667
0.443137 0.239216 0.47451
0.537255 0.266667 0.478431
0.631373 0.298039 0.486275
0 0.247059 0.458824
0 0.25098 0.458824
0 0.254902 0.462745
0.152941 0.262745 0.466667
0.266667 0.27451 0.470588
0.368627 0.290196 0.47451
0.458824 0.305882 0.478431
0.54902 0.329412 0.482353
0.639216 0.34902 0.486275
0 0.352941 0.47451
0 0.352941 0.470588
0.054902 0.356863 0.470588
0.188235 0.360784 0.470588
0.298039 0.368627 0.470588
0.392157 0.376471 0.47451
0.482353 0.392157 0.486275
0.572549 0.411765 0.494118
0.662745 0.431373 0.501961
0.007843 0.458824 0.494118
0.07451 0.462745 0.494118
0.156863 0.462745 0.494118
0.243137 0.466667 0.494118
0.329412 0.47451 0.486275
0.427451 0.478431 0.470588
0.509804 0.490196 0.505882
0.592157 0.501961 0.509804
0.678431 0.513725 0.513725
0.156863 0.556863 0.505882
0.180392 0.556863 0.505882
0.227451 0.556863 0.505882
0.294118 0.556863 0.509804
0.372549 0.560784 0.513725
0.45098 0.564706 0.529412
0.517647 0.568627 0.6
0.6 0.584314 0.552941
0.686275 0.592157 0.529412
0.243137 0.658824 0.52549
0.262745 0.658824 0.529412
0.301961 0.662745 0.529412
0.356863 0.662745 0.533333
0.423529 0.666667 0.537255
0.498039 0.670588 0.54902
0.568627 0.67451 0.568627
0.639216 0.678431 0.584314
0.709804 0.686275 0.572549
0.290196 0.733333 0.521569
0.301961 0.733333 0.521569
0.329412 0.729412 0.517647
0.372549 0.729412 0.517647
0.431373 0.72549 0.517647
0.494118 0.72549 0.517647
0.564706 0.72549 0.52549
0.631373 0.72549 0.533333
0.713725 0.745098 0.54902
0 0.082353 0.564706
0 0.086275 0.560784
0 0.090196 0.556863
0 0.101961 0.556863
0.184314 0.121569 0.556863
0.309804 0.14902 0.564706
0.419608 0.180392 0.568627
0.517647 0.211765 0.576471
0.615686 0.247059 0.580392
0 0.098039 0.533333
0 0.101961 0.533333
0 0.105882 0.537255
0 0.121569 0.541176
0.176471 0.137255 0.545098
0.301961 0.164706 0.552941
0.411765 0.192157 0.560784
0.513725 0.223529 0.568627
0.611765 0.258824 0.576471
0 0.172549 0.552941
0 0.176471 0.552941
0 0.180392 0.552941
0.007843 0.188235 0.556863
0.207843 0.203922 0.560784
0.32549 0.223529 0.564706
0.431373 0.247059 0.572549
0.529412 0.270588 0.576471
0.627451 0.301961 0.584314
0 0.254902 0.556863
0 0.258824 0.560784
0 0.262745 0.564706
0.098039 0.27451 0.568627
0.243137 0.282353 0.572549
0.34902 0.298039 0.572549
0.447059 0.313725 0.576471
0.541176 0.333333 0.580392
0.631373 0.352941 0.584314
0 0.356863 0.572549
0 0.356863 0.572549
0 0.360784 0.572549
0.152941 0.364706 0.572549
0.27451 0.372549 0.576471
0.376471 0.380392 0.580392
0.470588 0.396078 0.584314
0.564706 0.411765 0.588235
0.654902 0.431373 0.592157
0 0.462745 0.588235
0 0.462745 0.588235
0.094118 0.466667 0.588235
0.211765 0.470588 0.588235
0.309804 0.47451 0.584314
0.411765 0.482353 0.584314
0.501961 0.490196 0.588235
0.588235 0.498039 0.596078
0.67451 0.513725 0.6
0.086275 0.556863 0.596078
0.121569 0.556863 0.596078
0.184314 0.560784 0.596078
0.262745 0.560784 0.592157
0.341176 0.564706 0.592157
0.427451 0.568627 0.584314
0.521569 0.576471 0.564706
0.6 0.580392 0.6
0.682353 0.592157 0.6
0.207843 0.654902 0.607843
0.227451 0.658824 0.611765
0.270588 0.658824 0.611765
0.329412 0.662745 0.615686
0.4 0.666667 0.615686
0.478431 0.670588 0.623529
0.556863 0.670588 0.635294
0.615686 0.670588 0.705882
0.694118 0.682353 0.65098
0.266667 0.733333 0.603922
0.278431 0.729412 0.6
0.305882 0.729412 0.6
0.352941 0.72549 0.6
0.411765 0.72549 0.6
0.478431 0.72549 0.6
0.54902 0.72549 0.607843
0.623529 0.729412 0.623529
0.721569 0.760784 0.670588
0 0.105882 0.658824
0 0.109804 0.658824
0 0.113725 0.658824
0 0.12549 0.654902
0.133333 0.141176 0.658824
0.286275 0.168627 0.662745
0.403922 0.196078 0.670588
0.509804 0.223529 0.67451
0.607843 0.258824 0.678431
0 0.121569 0.635294
0 0.121569 0.639216
0 0.129412 0.639216
0 0.141176 0.643137
0.129412 0.156863 0.647059
0.282353 0.180392 0.654902
0.4 0.207843 0.662745
0.505882 0.235294 0.666667
0.603922 0.266667 0.67451
0 0.188235 0.654902
0 0.192157 0.654902
0 0.196078 0.654902
0 0.203922 0.658824
0.168627 0.219608 0.662745
0.305882 0.235294 0.666667
0.415686 0.258824 0.670588
0.517647 0.282353 0.67451
0.615686 0.309804 0.682353
0 0.270588 0.662745
0 0.270588 0.662745
0 0.278431 0.666667
0 0.286275 0.670588
0.207843 0.294118 0.670588
0.329412 0.305882 0.67451
0.431373 0.321569 0.67451
0.529412 0.341176 0.678431
0.623529 0.360784 0.678431
0 0.364706 0.67451
0 0.364706 0.67451
0 0.368627 0.67451
0.094118 0.372549 0.67451
0.243137 0.380392 0.678431
0.356863 0.388235 0.678431
0.454902 0.4 0.682353
0.552941 0.415686 0.686275
0.643137 0.431373 0.686275
0 0.466667 0.686275
0 0.466667 0.686275
0 0.470588 0.690196
0.172549 0.470588 0.690196
0.286275 0.478431 0.690196
0.388235 0.482353 0.690196
0.482353 0.490196 0.690196
0.572549 0.498039 0.686275
0.658824 0.509804 0.690196
0 0.556863 0.686275
0 0.560784 0.686275
0.121569 0.560784 0.686275
0.219608 0.560784 0.686275
0.313725 0.564706 0.682353
0.407843 0.568627 0.678431
0.501961 0.572549 0.67451
0.588235 0.576471 0.67451
0.670588 0.584314 0.678431
0.141176 0.65098 0.694118
0.168627 0.65098 0.694118
0.219608 0.654902 0.694118
0.286275 0.654902 0.694118
0.364706 0.658824 0.694118
0.443137 0.662745 0.690196
0.521569 0.666667 0.678431
0.611765 0.666667 0.654902
0.686275 0.670588 0.686275
0.219608 0.72549 0.682353
0.231373 0.721569 0.678431
0.266667 0.721569 0.678431
0.321569 0.721569 0.67451
0.384314 0.721569 0.67451
0.454902 0.717647 0.67451
0.529412 0.721569 0.67451
0.607843 0.721569 0.690196
0.698039 0.752941 0.792157
0 0.129412 0.760784
0 0.133333 0.756863
0 0.137255 0.756863
0 0.14902 0.756863
0.023529 0.164706 0.760784
0.258824 0.188235 0.764706
0.384314 0.211765 0.768627
0.494118 0.239216 0.772549
0.596078 0.266667 0.776471
0 0.145098 0.741176
0 0.14902 0.741176
0 0.152941 0.745098
0 0.164706 0.74902
0.023529 0.180392 0.752941
0.254902 0.2 0.760784
0.380392 0.223529 0.764706
0.490196 0.25098 0.768627
0.592157 0.278431 0.772549
0 0.207843 0.756863
0 0.207843 0.756863
0 0.215686 0.756863
0 0.223529 0.760784
0.105882 0.235294 0.764706
0.278431 0.25098 0.768627
0.396078 0.270588 0.772549
0.501961 0.290196 0.772549
0.603922 0.317647 0.776471
0 0.286275 0.764706
0 0.286275 0.764706
0 0.290196 0.768627
0 0.298039 0.768627
0.156863 0.305882 0.772549
0.301961 0.317647 0.772549
0.411765 0.333333 0.772549
0.513725 0.34902 0.776471
0.611765 0.364706 0.776471
0 0.372549 0.776471
0 0.372549 0.776471
0 0.376471 0.776471
0 0.380392 0.776471
0.203922 0.388235 0.776471
0.329412 0.396078 0.776471
0.435294 0.407843 0.780392
0.533333 0.419608 0.780392
0.627451 0.435294 0.780392
0 0.470588 0.784314
0 0.470588 0.784314
0 0.470588 0.784314
0.105882 0.47451 0.784314
0.25098 0.478431 0.784314
0.360784 0.482353 0.784314
0.462745 0.490196 0.784314
0.552941 0.498039 0.780392
0.643137 0.505882 0.780392
0 0.556863 0.784314
0 0.556863 0.780392
0 0.560784 0.780392
0.172549 0.560784 0.780392
0.282353 0.564706 0.780392
0.380392 0.564706 0.776471
0.47451 0.568627 0.776471
0.564706 0.572549 0.772549
0.65098 0.576471 0.768627
0 0.647059 0.780392
0.05098 0.647059 0.780392
0.145098 0.647059 0.780392
0.235294 0.65098 0.780392
0.321569 0.65098 0.776471
0.407843 0.654902 0.772549
0.494118 0.654902 0.764706
0.584314 0.654902 0.756863
0.670588 0.658824 0.756863
0.145098 0.717647 0.760784
0.164706 0.717647 0.760784
0.211765 0.713725 0.756863
0.27451 0.717647 0.756863
0.345098 0.717647 0.756863
0.419608 0.717647 0.752941
0.498039 0.717647 0.745098
0.584314 0.729412 0.741176
0.698039 0.756863 0.745098
