site/assets/luts/freshluts--0000355-cine-series-candyman-90s.cube
# LUTr-Schema-Version: 2
# LUTr-ID: freshluts--0000355-cine-series-candyman-90s
# LUTr-Title: CINE SERIES_CANDYMAN 90S
# LUTr-Collection: Fresh LUTs
# LUTr-Collection-ID: freshluts-community
# LUTr-Source: https://freshluts.com
# LUTr-Retrieved: 2026-07-27
# LUTr-Source-File: submissions-raw/freshluts/cubes/355__Candyman.cube
# LUTr-Source-Format: CUBE
# LUTr-Source-SHA256: 709e7da68d336d5508ceb03d87619c400b44758c754f03c85a946f1fca6d7064
# LUTr-License: CC0-1.0
# LUTr-License-URL: https://freshluts.com/termsandconditions
# LUTr-License-Basis: site-terms
# LUTr-Transform-Class: creative-look
# LUTr-Tags: creative, freshluts, community, cube, green, cinematic
# LUTr-Input-Color-Space:
# LUTr-Input-Gamut: unspecified
# LUTr-Input-Transfer: unspecified
# LUTr-Output-Color-Space: srgb
# LUTr-Output-Gamut: rec709
# LUTr-Output-Transfer: srgb
# LUTr-Color-Space-Confidence: camera-profile-input-required
# LUTr-Domain-Normalized: true
# LUTr-Shaper: none
# LUTr-Original-Grid: 32x32x32
# LUTr-Conversion-Grid: 32x32x32
# LUTr-Conversion-Interpolation: none
# LUTr-Conversion-Method: Metadata normalization; numeric LUT samples preserved
# LUTr-Conversion-Tool: LUTr scripts/convert-all-to-cube.mjs 2.0.0
# LUTr-Conversion-Date: 2026-07-28
# LUTr-Asset-URL: https://freshluts.com/luts/355
# LUTr-Author: I WANT TO MAKE A FILM PODCAST
# LUTr-Author-URL: https://freshluts.com/users/15633
# LUTr-Attribution: I WANT TO MAKE A FILM PODCAST via Fresh LUTs
# LUTr-Source-Labels: gamma=Other; color=Green; key=Neutral; style=Horror / Dark
# LUTr-Note: Preserve this metadata and the upstream license notices when redistributing.
# LUTr-Upstream-Comment: Created by: Adobe Photoshop Export Color Lookup Plugin
# LUTr-Upstream-Comment: LUT size
# LUTr-Upstream-Comment: data domain
# LUTr-Upstream-Comment: LUT data points
TITLE "CINE SERIES_CANDYMAN 90S"
LUT_3D_SIZE 8
DOMAIN_MIN 0.000000 0.000000 0.000000
DOMAIN_MAX 0.903226 0.903226 0.903226
0.019623 0.019623 0.019623
0.044006 0.018646 0.022034
0.140442 0.014862 0.031616
0.329132 0.007416 0.050293
0.569824 0 0.075958
0.792175 0 0.105591
0.93103 0 0.124115
0.994934 0 0.132629
0.019623 0.044037 0.019623
0.040009 0.042694 0.020935
0.140442 0.024536 0.014862
0.329132 0.007416 0.023895
0.569824 0 0.049805
0.792175 0 0.079865
0.93103 0 0.098663
0.994934 0 0.107117
0.019623 0.139435 0.019623
0.04306 0.139435 0.019623
0.120667 0.132874 0.026154
0.321014 0.118042 0.015564
0.569824 0.052734 0
0.792175 0.020508 0
0.93103 0.000916 0
0.994934 0 0.007782
0.019623 0.322876 0.019623
0.043091 0.322876 0.019623
0.130127 0.318115 0.024353
0.278503 0.306274 0.036194
0.539825 0.323853 0.029968
0.782837 0.268585 0.009308
0.93103 0.228424 0
0.994934 0.212067 0
0.019623 0.556366 0.019623
0.043091 0.556366 0.019623
0.135712 0.556366 0.019623
0.289337 0.538544 0.037445
0.48172 0.527008 0.048981
0.737244 0.586151 0.054901
0.887024 0.566376 0.044006
0.958496 0.554626 0.036407
0.019623 0.776459 0.019623
0.043091 0.776459 0.019623
0.135651 0.776459 0.019623
0.301544 0.764618 0.031433
0.483582 0.739502 0.05658
0.675507 0.735077 0.061005
0.86264 0.808533 0.06839
0.923035 0.816833 0.071869
0.019623 0.912811 0.019623
0.042969 0.912811 0.019623
0.13562 0.912811 0.019623
0.307159 0.904083 0.028351
0.496094 0.879669 0.052765
0.672852 0.863953 0.068451
0.79657 0.863953 0.068451
0.907867 0.923035 0.071869
0.019623 0.975586 0.019623
0.042969 0.975586 0.019623
0.13562 0.975586 0.019623
0.309662 0.968109 0.027069
0.500885 0.943848 0.051361
0.6716 0.923309 0.071899
0.795258 0.923309 0.071899
0.852234 0.923309 0.071899
0.013916 0.021088 0.044281
0.04306 0.019623 0.038666
0.140442 0.014862 0.052216
0.329132 0.007416 0.070892
0.569824 0 0.096405
0.792175 0 0.125702
0.93103 0 0.14389
0.994934 0 0.152557
0.019623 0.044037 0.038666
0.04245 0.043732 0.03894
0.139648 0.034668 0.042847
0.328369 0.027252 0.061584
0.571167 0.01767 0.085632
0.802643 0.008545 0.108582
0.947205 0.002869 0.122986
1 0.013977 0.139893
0.019623 0.139435 0.038666
0.04306 0.139435 0.038666
0.123077 0.133911 0.044159
0.322388 0.113373 0.033234
0.571167 0.052948 0.01767
0.802643 0.011658 0.008545
0.947205 0.002869 0.019684
1 0.013977 0.039246
0.019623 0.322876 0.038635
0.04303 0.322876 0.038666
0.132141 0.320099 0.041443
0.280975 0.307312 0.054199
0.541199 0.320923 0.047638
0.782593 0.264618 0.028625
0.935272 0.221771 0.014801
1 0.204407 0.013977
0.019623 0.556366 0.038635
0.043091 0.556366 0.038666
0.135742 0.556366 0.038666
0.292175 0.540192 0.05484
0.484131 0.528046 0.066956
0.739563 0.58432 0.071625
0.89093 0.564362 0.059113
0.958832 0.551758 0.055115
0.019623 0.776459 0.038666
0.042999 0.776459 0.038666
0.135742 0.776459 0.038666
0.30365 0.766357 0.048737
0.486694 0.740417 0.074677
0.677887 0.736115 0.07901
0.863678 0.808258 0.086395
0.924072 0.816345 0.089874
0.019623 0.912811 0.038605
0.043152 0.912811 0.038666
0.135773 0.912811 0.038666
0.308929 0.905975 0.045502
0.499054 0.880371 0.071106
0.675293 0.86499 0.086456
0.798859 0.86499 0.086456
0.910217 0.924072 0.089874
0.019623 0.975586 0.038757
0.042999 0.975586 0.038666
0.135651 0.975586 0.038666
0.311371 0.970093 0.044159
0.503693 0.944458 0.069763
0.673981 0.924347 0.089905
0.797638 0.924347 0.089905
0.854675 0.924347 0.089905
0 0.032104 0.140106
0.029205 0.024536 0.139771
0.135681 0.019623 0.11908
0.326813 0.009735 0.149536
0.569824 0 0.1828
0.792175 0 0.210236
0.93103 0 0.227997
0.994934 0 0.236115
0 0.057434 0.139771
0.019409 0.049866 0.141357
0.135681 0.044037 0.11908
0.327087 0.033905 0.15036
0.570953 0.023254 0.177429
0.802429 0.01416 0.200439
0.94696 0.008453 0.214661
1 0.019348 0.229065
0.019623 0.139435 0.11908
0.04306 0.139435 0.11908
0.133453 0.138306 0.120178
0.325073 0.110962 0.117493
0.567871 0.101379 0.141571
0.799347 0.092255 0.164429
0.943909 0.086578 0.178894
1 0.094391 0.193665
0.019623 0.322876 0.119049
0.04306 0.322876 0.11908
0.135712 0.322876 0.11908
0.291351 0.311737 0.130219
0.550201 0.306641 0.11908
0.791687 0.241791 0.099915
0.943909 0.195404 0.086578
1 0.18924 0.094391
0.019623 0.556366 0.11908
0.04306 0.556366 0.119141
0.135742 0.556366 0.11908
0.303528 0.546112 0.129333
0.494507 0.53244 0.142975
0.748291 0.576508 0.143311
0.897461 0.552368 0.132996
0.966949 0.538391 0.127441
0.019623 0.776459 0.119019
0.04306 0.776459 0.119171
0.13562 0.776459 0.11908
0.312622 0.772614 0.122925
0.500061 0.746918 0.14859
0.688324 0.740509 0.155029
0.868073 0.80658 0.162415
0.928467 0.814911 0.165894
0.019623 0.912811 0.119049
0.04306 0.912811 0.11908
0.135742 0.912811 0.11908
0.316559 0.912811 0.11908
0.511414 0.886444 0.145416
0.685577 0.869385 0.162476
0.809326 0.869385 0.162476
0.920654 0.928467 0.165894
0.019623 0.975586 0.119049
0.04306 0.975586 0.11911
0.13559 0.975586 0.11908
0.316895 0.975586 0.11908
0.515289 0.952148 0.142487
0.684387 0.928741 0.165924
0.808075 0.928741 0.165924
0.865051 0.928741 0.165924
0 0.072479 0.315765
0.019104 0.066284 0.315552
0.108734 0.041779 0.314697
0.316956 0.019623 0.293579
0.559509 0.010284 0.325806
0.792175 0 0.366486
0.93103 0 0.391876
0.994934 0 0.403961
0 0.092102 0.315552
0 0.078796 0.339294
0.097504 0.049438 0.339325
0.316956 0.044037 0.29364
0.560089 0.034149 0.327301
0.795319 0.021271 0.367279
0.943573 0.011841 0.391052
1 0.019348 0.404083
0 0.17218 0.314667
0 0.171265 0.338287
0.069824 0.147736 0.339264
0.316956 0.139435 0.29361
0.562225 0.12738 0.332184
0.798523 0.113464 0.369873
0.943054 0.107758 0.385925
1 0.114746 0.395935
0.019623 0.322876 0.29364
0.04306 0.322876 0.29364
0.135681 0.322876 0.29364
0.313812 0.321259 0.295197
0.56073 0.283081 0.288422
0.792175 0.273956 0.311401
0.936737 0.26825 0.325684
1 0.268921 0.334961
0.019623 0.556366 0.29364
0.04306 0.556366 0.293579
0.135681 0.556366 0.29364
0.316956 0.556366 0.29361
0.517029 0.541992 0.307983
0.765076 0.553345 0.301086
0.916229 0.519165 0.288788
0.984619 0.50177 0.284271
0.019623 0.776459 0.29364
0.04306 0.776459 0.293549
0.135681 0.776459 0.293671
0.316956 0.776459 0.29361
0.527832 0.761353 0.308685
0.710754 0.750031 0.320007
0.877625 0.803192 0.327393
0.944672 0.80304 0.324219
0.019623 0.912811 0.293518
0.04306 0.912811 0.29361
0.135681 0.912811 0.293549
0.316895 0.912811 0.29361
0.535217 0.901917 0.304474
0.708069 0.878937 0.327454
0.831818 0.878937 0.327454
0.938019 0.932831 0.330872
0.019623 0.975586 0.29361
0.04306 0.975586 0.293732
0.135681 0.975586 0.293579
0.316925 0.975586 0.29361
0.538055 0.966248 0.302917
0.712097 0.940948 0.328247
0.830627 0.938293 0.330902
0.887421 0.938293 0.330902
0 0.127411 0.553528
0.011993 0.121552 0.553406
0.071808 0.09848 0.552887
0.246429 0.053314 0.551849
0.550201 0.019623 0.531036
0.775482 0.016663 0.543182
0.923584 0.007416 0.572205
0.990234 0.004669 0.584564
0 0.14444 0.553406
0 0.133545 0.576935
0.057709 0.108002 0.577393
0.240875 0.058472 0.576294
0.550201 0.044037 0.531036
0.776825 0.039764 0.54541
0.923248 0.032166 0.573639
0.991669 0.027649 0.586151
0 0.21402 0.552856
0 0.207886 0.576385
0.010193 0.168243 0.643219
0.221313 0.13385 0.59967
0.550201 0.139435 0.531036
0.778717 0.13324 0.552429
0.926483 0.124359 0.579865
0.993256 0.12146 0.591614
0 0.36145 0.551819
0 0.367218 0.575287
0.056213 0.362305 0.591003
0.174225 0.321655 0.591919
0.550201 0.322876 0.531006
0.782196 0.313202 0.564178
0.929779 0.304474 0.589203
0.996979 0.301208 0.600159
0.019623 0.556366 0.530945
0.04306 0.556366 0.531036
0.135681 0.556366 0.531006
0.316956 0.556366 0.531006
0.547577 0.554962 0.532379
0.78244 0.521088 0.528503
0.927002 0.515381 0.542816
0.99353 0.512787 0.549408
0.019623 0.776459 0.531067
0.04306 0.776459 0.530975
0.135681 0.776459 0.531006
0.316956 0.776459 0.531006
0.550171 0.776459 0.531006
0.741364 0.763031 0.544434
0.898773 0.785797 0.54364
0.967499 0.774292 0.538818
0.019623 0.912811 0.530975
0.04306 0.912811 0.531036
0.135681 0.912811 0.531067
0.316956 0.912811 0.530945
0.550201 0.912811 0.531006
0.745667 0.896393 0.547394
0.862396 0.891937 0.55188
0.951019 0.928314 0.555298
0.019623 0.975586 0.530975
0.04306 0.975586 0.530945
0.135681 0.975586 0.531036
0.316956 0.975586 0.530975
0.550232 0.975586 0.531006
0.750732 0.960815 0.545746
0.861176 0.951263 0.555298
0.917999 0.951263 0.555298
0 0.181976 0.788391
0.005859 0.1763 0.78833
0.040985 0.153717 0.788086
0.164764 0.109558 0.787628
0.509979 0.052734 0.787018
0.772552 0.019623 0.766846
0.911407 0.019623 0.766846
0.975311 0.019623 0.766724
0 0.197205 0.78833
0 0.18808 0.811676
0.029999 0.163849 0.812439
0.151703 0.11676 0.811981
0.511078 0.071289 0.792786
0.772552 0.044037 0.766876
0.911407 0.044037 0.766785
0.975311 0.044037 0.766815
0 0.259674 0.788086
0 0.252716 0.811432
0 0.211792 0.903534
0.089813 0.15036 0.906952
0.510406 0.152893 0.804108
0.772552 0.139435 0.766846
0.911407 0.139435 0.766846
0.975311 0.139435 0.766754
0 0.392731 0.787598
0 0.39212 0.810974
0 0.375244 0.903229
0.05954 0.328918 0.892456
0.49173 0.308594 0.828918
0.772552 0.322876 0.766846
0.911407 0.322876 0.766846
0.977844 0.320312 0.777191
0.007355 0.582703 0.777588
0.023712 0.583801 0.780121
0.084808 0.58786 0.793243
0.196472 0.58609 0.819183
0.409637 0.537598 0.827545
0.772552 0.556366 0.766785
0.915558 0.552185 0.781342
0.98349 0.548187 0.793793
0.019623 0.776459 0.766846
0.04306 0.776459 0.766785
0.135681 0.776459 0.766754
0.316956 0.776459 0.766815
0.550201 0.776459 0.766785
0.771942 0.776093 0.767151
0.917328 0.760864 0.771301
0.983856 0.75827 0.777924
0.019623 0.912811 0.766724
0.04306 0.912811 0.766724
0.135681 0.912811 0.766907
0.316956 0.912811 0.766754
0.550201 0.912811 0.766815
0.772552 0.912811 0.766815
0.892761 0.904816 0.77478
0.965942 0.920502 0.776184
0.019623 0.975586 0.766693
0.04306 0.975586 0.766815
0.135681 0.975586 0.766846
0.316956 0.975586 0.766876
0.550201 0.975586 0.766846
0.772583 0.975586 0.766815
0.893463 0.965393 0.777008
0.948456 0.964172 0.778229
0 0.216095 0.934631
0.002197 0.210449 0.934631
0.022644 0.18808 0.93454
0.116791 0.144287 0.934387
0.472015 0.087952 0.934204
0.756958 0.051788 0.914429
0.911316 0.020264 0.914276
0.975311 0.019623 0.914185
0 0.230347 0.934631
0 0.222168 0.957794
0.014374 0.198395 0.95874
0.102905 0.152191 0.958649
0.47168 0.092773 0.958496
0.757019 0.075378 0.914429
0.911194 0.044678 0.914276
0.975311 0.044037 0.914368
0 0.288879 0.93454
0 0.282013 0.957764
0.002716 0.261414 1
0.07312 0.21347 1
0.459869 0.151093 1
0.75705 0.167664 0.914429
0.911316 0.140015 0.914276
0.975311 0.139435 0.914307
0 0.414124 0.934387
0 0.411682 0.957642
0.013916 0.398895 1
0.055237 0.372955 1
0.423889 0.320068 1
0.756927 0.345093 0.914429
0.911255 0.323334 0.914276
0.975311 0.322876 0.914307
0 0.598236 0.934204
0 0.603638 0.95752
0.028137 0.607391 1
0.124725 0.588501 1
0.328461 0.537659 1
0.7612 0.543823 0.945129
0.911285 0.556671 0.914276
0.975311 0.556366 0.914246
0.016907 0.7836 0.914429
0.03714 0.7836 0.914429
0.116974 0.7836 0.914429
0.273285 0.7836 0.914429
0.490326 0.790161 0.938568
0.705658 0.752258 0.953705
0.911285 0.776611 0.914276
0.976074 0.775665 0.916779
0.019592 0.912781 0.914276
0.042999 0.912811 0.914276
0.135468 0.912781 0.914276
0.316498 0.912842 0.914276
0.549896 0.912872 0.914276
0.7724 0.912842 0.914276
0.910919 0.912842 0.914673
0.977875 0.910248 0.920837
0.019623 0.975586 0.914215
0.04306 0.975586 0.914337
0.135681 0.975586 0.914276
0.316956 0.975586 0.914307
0.550201 0.975586 0.914307
0.772552 0.975586 0.914276
0.911407 0.975586 0.914276
0.967438 0.972229 0.917633
0 0.231171 0.999023
0.00061 0.225525 0.999023
0.014679 0.203217 0.999023
0.0961 0.159546 0.999023
0.455658 0.103394 0.999023
0.749786 0.066559 0.979462
0.908539 0.035034 0.979431
0.975342 0.020538 0.979401
0 0.244904 0.999023
0.000519 0.24408 1
0.01416 0.222504 1
0.095093 0.179718 1
0.45517 0.124664 1
0.749786 0.089813 0.979462
0.908447 0.059082 0.979431
0.97522 0.044952 0.979401
0 0.301727 0.999023
0.002777 0.301056 1
0.013702 0.298584 1
0.093109 0.260498 1
0.451935 0.210632 1
0.751434 0.177826 0.982697
0.908417 0.152985 0.979431
0.97525 0.140259 0.979401
0 0.423828 0.999023
0.00708 0.423279 1
0.035858 0.421173 1
0.089722 0.415222 1
0.44342 0.375916 1
0.756775 0.337769 1
0.908539 0.333527 0.979431
0.975159 0.323517 0.979401
0 0.603729 0.999023
0.012543 0.603394 1
0.064026 0.601807 1
0.163177 0.597351 1
0.424377 0.586121 1
0.748108 0.56015 1
0.908539 0.563354 0.979431
0.97522 0.556793 0.979401
0.015656 0.786987 0.979462
0.034332 0.786896 0.979462
0.108154 0.786987 0.979462
0.236115 0.79364 0.996216
0.479126 0.789001 1
0.722839 0.770325 1
0.911987 0.76944 0.990479
0.97522 0.776672 0.979401
0.018311 0.914185 0.979431
0.040192 0.914215 0.979431
0.126648 0.914215 0.979431
0.295837 0.914124 0.979431
0.535767 0.914215 0.979431
0.757172 0.916779 0.986664
0.887177 0.897278 0.99826
0.97525 0.912903 0.979401
0.019562 0.975677 0.979401
0.042908 0.975555 0.979401
0.135162 0.975525 0.979401
0.315735 0.975555 0.979401
0.549377 0.975647 0.979401
0.772125 0.975586 0.979401
0.911255 0.975616 0.979401
0.974121 0.97464 0.98053
