site/assets/luts/freshluts--0001839-lut-fx3.cube
# LUTr-Schema-Version: 2
# LUTr-ID: freshluts--0001839-lut-fx3
# LUTr-Title: LUT FX3
# LUTr-Collection: Fresh LUTs
# LUTr-Collection-ID: freshluts-community
# LUTr-Source: https://freshluts.com
# LUTr-Retrieved: 2026-07-27
# LUTr-Source-File: submissions-raw/freshluts/cubes/1839__TRAP_FX3.cube
# LUTr-Source-Format: CUBE
# LUTr-Source-SHA256: f4bfa3f7741ffee67b5974ba5f180350546e9b6b339370c81bef3cc6e69056e7
# LUTr-License: CC0-1.0
# LUTr-License-URL: https://freshluts.com/termsandconditions
# LUTr-License-Basis: site-terms
# LUTr-Transform-Class: creative-look
# LUTr-Tags: creative, freshluts, community, cube, orange, sony-s-log3
# LUTr-Input-Color-Space:
# LUTr-Input-Gamut: sony-s-gamut3
# LUTr-Input-Transfer: sony-s-log3
# LUTr-Output-Color-Space: srgb
# LUTr-Output-Gamut: rec709
# LUTr-Output-Transfer: srgb
# LUTr-Color-Space-Confidence: camera-profile-input-required
# LUTr-Domain-Normalized: true
# LUTr-Shaper: none
# LUTr-Original-Grid: 33x33x33
# LUTr-Conversion-Grid: 33x33x33
# LUTr-Conversion-Interpolation: none
# LUTr-Conversion-Method: Metadata normalization; numeric LUT samples preserved
# LUTr-Conversion-Tool: LUTr scripts/convert-all-to-cube.mjs 2.0.0
# LUTr-Conversion-Date: 2026-07-28
# LUTr-Asset-URL: https://freshluts.com/luts/1839
# LUTr-Author: Antony Eliezer
# LUTr-Author-URL: https://freshluts.com/users/32961
# LUTr-Attribution: Antony Eliezer via Fresh LUTs
# LUTr-Source-Labels: gamma=Sony S-Log 3; color=Orange; key=Neutral; style=NEUTRAL
# LUTr-Note: Preserve this metadata and the upstream license notices when redistributing.
# LUTr-Upstream-Comment: VEGAS Pro LUT
TITLE "LUT FX3"
LUT_3D_SIZE 9
DOMAIN_MIN 0 0 0
DOMAIN_MAX 1 1 1
0.00765074 0.01148323 0.00765967
0.04130616 0.01053877 0.00647949
0.12213654 0.01161509 0.00716682
0.38854548 0.01749941 0.0257198
0.72195268 0.04600686 0.12192555
0.83602118 0.06363528 0.16008729
0.8469767 0.06434523 0.16161513
0.84952796 0.06441967 0.1617752
0.85207915 0.06449413 0.16193525
0.00215895 0.02765663 0.00461603
0.03026594 0.02972504 0.00343205
0.12080967 0.03296104 0.00271781
0.38138151 0.02020689 0.02191578
0.71689135 0.04730333 0.11915003
0.83640271 0.06591328 0.15971464
0.84771007 0.06665047 0.16130333
0.85026133 0.06672492 0.16146338
0.85281247 0.06679936 0.16162343
0.01193279 0.07025253 0.000153
0.01660308 0.0686865 0.00015332
0.10339726 0.08664331 0.00008883
0.38565829 0.09084339 0.00999677
0.70454323 0.05111516 0.10841256
0.835962 0.06812818 0.15919684
0.8484441 0.06895571 0.160991
0.85099465 0.06903017 0.16115156
0.85354584 0.06910461 0.16131161
0.06754369 0.18397285 0.001706
0.06874282 0.18211685 0.00138003
0.06865571 0.17745805 0.0008496
0.3403517 0.26608688 0.00461633
0.72436202 0.27056035 0.05321599
0.90233409 0.17359462 0.09431086
0.89087176 0.10277432 0.12397999
0.87155563 0.08430672 0.14698458
0.86515296 0.08013382 0.15537643
0.25357029 0.39271134 0.07843722
0.25474548 0.39121211 0.07763727
0.25375456 0.38721335 0.0757385
0.30147785 0.39546573 0.06741069
0.58107424 0.49023151 0.03016469
0.90229946 0.51070046 0.08055907
0.94566548 0.46034342 0.08810916
0.94915026 0.43383035 0.08936465
0.95199114 0.42473581 0.08982786
0.30992237 0.57095879 0.14329612
0.31333855 0.56944472 0.14300723
0.31708685 0.56620592 0.14239562
0.32223785 0.55740523 0.14084341
0.48537958 0.59151024 0.08485663
0.76489091 0.68685329 0.03081779
0.92557663 0.72635967 0.04313162
0.92901325 0.71437347 0.04625686
0.93190956 0.71039844 0.04732015
0.28606617 0.64554667 0.15046933
0.28888515 0.64568442 0.15035307
0.29178646 0.64565021 0.15023434
0.29470077 0.64558893 0.15011522
0.34533986 0.65214944 0.14358935
0.66313416 0.79108435 0.00251784
0.92214215 0.90048677 0.02527853
0.94246924 0.90211833 0.02812557
0.94495553 0.90077704 0.02818375
0.28455144 0.65055555 0.1503714
0.28737038 0.6506933 0.15025514
0.29018933 0.65083098 0.1501389
0.29309067 0.65079677 0.15002015
0.29597256 0.65091616 0.14989461
0.60707206 0.77264857 0.00420242
0.90714812 0.9050644 0.02212026
0.94531888 0.91759562 0.02888605
0.94807112 0.91769844 0.02901518
0.28303674 0.65556443 0.15027346
0.28585565 0.65570217 0.15015721
0.28867459 0.65583986 0.15004095
0.29149354 0.65597755 0.14992471
0.29436246 0.65612394 0.14979954
0.58642256 0.76996171 0.00575682
0.89544648 0.90840894 0.01989442
0.94649279 0.92648697 0.02925081
0.94975561 0.92684776 0.02946473
0.00573657 0.01831479 0.02509232
0.03592265 0.02268057 0.03174127
0.11530035 0.01530038 0.02540388
0.37393969 0.01941137 0.03951675
0.71906054 0.04678692 0.12759446
0.83573359 0.06393616 0.16262701
0.84675342 0.06465075 0.16416377
0.84930468 0.0647252 0.16432384
0.85185581 0.06479964 0.16448389
0.00049586 0.03821937 0.0269998
0.02567772 0.03966649 0.02695487
0.11405759 0.03100419 0.02005243
0.37018067 0.02113312 0.03391676
0.71439564 0.04777179 0.12368494
0.83610284 0.06619482 0.1623072
0.84747213 0.06693623 0.16390435
0.85002333 0.06701069 0.16406441
0.85257453 0.06708513 0.16422446
0.00857837 0.07284871 0.01383198
0.01276878 0.07103735 0.01295438
0.10026108 0.08477865 0.00847367
0.38082826 0.08451837 0.01553327
0.70050824 0.04989337 0.11302967
0.83565831 0.06841021 0.16179071
0.84820616 0.06924149 0.16359203
0.8507567 0.06931593 0.16375259
0.8533079 0.06939038 0.16391265
0.06465685 0.18165354 0.00383184
0.06593888 0.17980368 0.00349204
0.0653547 0.17518099 0.00297819
0.33815852 0.26327446 0.00680247
0.72348881 0.26620302 0.05539093
0.90100229 0.16859926 0.09753894
0.88863748 0.09892127 0.12932843
0.86831599 0.08319999 0.15278694
0.86318171 0.07909002 0.15898119
0.25112084 0.3903248 0.07977493
0.2523137 0.38883099 0.07897668
0.25130877 0.38482407 0.07707378
0.2980907 0.39262649 0.0687473
0.58032751 0.48857936 0.03236751
0.9024334 0.50804532 0.08333923
0.94583189 0.45732433 0.09074351
0.94932109 0.43068054 0.09200509
0.95216316 0.42155266 0.09246983
0.31024513 0.56942087 0.14572674
0.31366849 0.56790531 0.14544329
0.31739315 0.56466585 0.1448244
0.32254818 0.55585176 0.14327011
0.48485926 0.58997607 0.08822797
0.76431292 0.68545121 0.03360111
0.92568517 0.724958 0.04617303
0.92912316 0.7129426 0.04927904
0.93202412 0.70895517 0.05032227
0.28588864 0.64559335 0.15316571
0.28871563 0.64573336 0.15306234
0.29161695 0.64569914 0.15294361
0.29453123 0.64563787 0.15282449
0.34426054 0.65193802 0.14660999
0.66231585 0.79076654 0.00506848
0.92190742 0.89999586 0.02828467
0.94241667 0.90165621 0.03114
0.94490075 0.90030587 0.03118977
0.28437391 0.65060222 0.15306778
0.2872009 0.65074223 0.15296441
0.29001984 0.65087998 0.15284815
0.29292116 0.65084577 0.15272944
0.29580206 0.65096557 0.15260537
0.60618997 0.77227461 0.00681211
0.90691298 0.90498716 0.0250902
0.94536012 0.91763175 0.03195553
0.94811231 0.91773456 0.03208467
0.28285921 0.65561104 0.15296984
0.28568614 0.65575111 0.15286648
0.28850508 0.65588886 0.15275022
0.29132405 0.65602648 0.15263398
0.29419196 0.65617341 0.1525103
0.58556229 0.7695992 0.0086814
0.89493388 0.90820318 0.02282132
0.94648296 0.92651737 0.03231695
0.9497968 0.92688382 0.03253422
0.01021929 0.04809244 0.07266007
0.02891955 0.05961744 0.0885626
0.09911509 0.04812241 0.08392727
0.32877773 0.01695542 0.06690838
0.68215269 0.04818111 0.14911222
0.82513046 0.07086296 0.18639062
0.84204388 0.06944141 0.1806611
0.84637088 0.06778832 0.17620672
0.84950382 0.06729279 0.17484364
0.00713387 0.06349174 0.07828873
0.02134082 0.06776699 0.08587727
0.0941358 0.0561858 0.08303202
0.32287744 0.02020357 0.06451622
0.67858696 0.05067217 0.14643805
0.82707793 0.0730103 0.18499859
0.84355754 0.07097002 0.17875159
0.84790617 0.06929224 0.17423116
0.850986 0.0688445 0.17291524
0.0019339 0.11101235 0.0926223
0.00506644 0.10880745 0.09139389
0.07658773 0.10592883 0.08001963
0.34364736 0.05377083 0.05080774
0.66864282 0.05194977 0.13893794
0.83000517 0.07376386 0.18055494
0.84601617 0.07156287 0.17404345
0.85008556 0.07012639 0.16977079
0.85286605 0.06995498 0.16883965
0.03362808 0.17982084 0.03311558
0.03569588 0.1779065 0.03193802
0.03725114 0.17351136 0.03012825
0.32958901 0.25475168 0.02068297
0.7208671 0.25155279 0.06597809
0.89710504 0.15474637 0.10516626
0.88227242 0.09094326 0.13987723
0.86094755 0.07974637 0.16123712
0.85846478 0.07588625 0.16393332
0.24575564 0.3846668 0.07970917
0.24692537 0.38315973 0.07890648
0.24577138 0.37903026 0.07695281
0.29018474 0.38573441 0.06870745
0.57850754 0.4844023 0.03452674
0.9026925 0.50122178 0.08653796
0.94617295 0.44955069 0.09359518
0.94966674 0.42250133 0.09484025
0.95250857 0.41322637 0.09529035
0.3111726 0.56557536 0.14769766
0.31459194 0.56404638 0.14740472
0.31821966 0.56082356 0.14673583
0.3233014 0.55197495 0.1450956
0.48375735 0.58615351 0.09229069
0.76300353 0.68199629 0.03673943
0.92595583 0.72136521 0.04969063
0.92939657 0.70925444 0.05277264
0.93229914 0.705244 0.05382164
0.28573686 0.64558685 0.15586235
0.28856382 0.64572686 0.15575898
0.2914739 0.64569145 0.15565239
0.29438823 0.64563024 0.15553327
0.34157151 0.65121311 0.15005341
0.66031986 0.78985488 0.00764321
0.92115128 0.89853352 0.03112346
0.94220912 0.90036237 0.03408673
0.94469118 0.89900076 0.0341359
0.28419638 0.65064889 0.15576416
0.28702337 0.6507889 0.15566079
0.28985032 0.65092891 0.15555744
0.29275164 0.65089476 0.15543871
0.29563254 0.65101457 0.15531462
0.60389733 0.77120256 0.00958961
0.90583551 0.90455174 0.02792387
0.94540131 0.91766781 0.03502502
0.94815356 0.91777062 0.03515415
0.28268167 0.65565771 0.15566623
0.2855086 0.65579778 0.15556286
0.28833559 0.65593779 0.15545951
0.29115453 0.65607554 0.15534325
0.29402244 0.6562224 0.15521957
0.58337826 0.76857483 0.01210313
0.89348143 0.90759891 0.02558393
0.94638276 0.92653769 0.03537696
0.9498381 0.92691994 0.03560371
0.02418357 0.13951276 0.21084529
0.03289815 0.14913599 0.22553131
0.06009227 0.16610727 0.25508752
0.26903629 0.07118626 0.18053204
0.57948166 0.03164568 0.20697734
0.7512641 0.04593137 0.23506618
0.77077484 0.04803204 0.22832558
0.77670395 0.04878648 0.22402446
0.78046072 0.04910318 0.22268555
0.02381794 0.14233944 0.21091387
0.02955433 0.14759432 0.2190793
0.05602122 0.16972779 0.25545853
0.26222917 0.07502577 0.17992163
0.57508832 0.03334425 0.20283152
0.7536332 0.04892366 0.23286615
0.77337563 0.05111101 0.22638592
0.7792263 0.05192823 0.22234496
0.78294975 0.05226431 0.22110237
0.02126671 0.1760056 0.22974057
0.02369705 0.17392769 0.22846559
0.0455349 0.18722263 0.25412399
0.24479489 0.08687969 0.1794834
0.56306183 0.03432698 0.19348705
0.75679088 0.05239612 0.2284963
0.7778846 0.05478873 0.22226161
0.78380603 0.05572627 0.21853963
0.78752941 0.05627052 0.2181194
0.01889542 0.28828028 0.26690006
0.02061906 0.28624731 0.26574802
0.02179372 0.28151006 0.26326212
0.2708362 0.28941345 0.250139
0.66852564 0.16390294 0.18194833
0.82271558 0.12243096 0.22868942
0.80141842 0.07776371 0.21764283
0.79508907 0.06306192 0.21347056
0.79891586 0.06368624 0.21308285
0.13146004 0.36811638 0.17410472
0.13273944 0.36623526 0.17235197
0.13270721 0.36226845 0.16944878
0.1572139 0.34599084 0.14324586
0.57303828 0.47308913 0.08768321
0.90839875 0.47124165 0.13740572
0.95129555 0.41492316 0.13527071
0.95457321 0.38596627 0.1336416
0.95735013 0.37601736 0.1331325
0.29885748 0.54994494 0.1795036
0.30242592 0.54841143 0.1786668
0.30629194 0.5452497 0.17687099
0.3123064 0.53635931 0.1724297
0.4747223 0.57399386 0.12177826
0.75770909 0.66989213 0.05641489
0.9266187 0.70941442 0.06776581
0.93035096 0.69726628 0.06820849
0.93330783 0.69302469 0.06828626
0.28522524 0.64558512 0.16475643
0.28806332 0.64572781 0.16447298
0.29100531 0.64570111 0.16375129
0.29402724 0.64566237 0.16174641
0.33563063 0.65010178 0.15373732
0.6545375 0.78721541 0.01038617
0.91876751 0.8940329 0.03359869
0.94107097 0.89398217 0.03688431
0.94315964 0.8903985 0.03688858
0.28404462 0.6506424 0.1584608
0.28687155 0.65078241 0.15835743
0.28969851 0.65092242 0.15825407
0.29260859 0.65088701 0.15814748
0.29548949 0.65100688 0.15802342
0.5972839 0.76793498 0.01253543
0.90161741 0.90271384 0.03023445
0.94542795 0.91765368 0.03804873
0.94818264 0.91775692 0.03817762
0.28250414 0.65570438 0.15836263
0.28533107 0.65584439 0.15825926
0.28815806 0.65598446 0.15815589
0.29098502 0.65612441 0.15805253
0.29385296 0.65627134 0.15792884
0.57707751 0.76549256 0.01724367
0.88895231 0.90569097 0.0277308
0.94598413 0.92652333 0.03841459
0.94987929 0.926956 0.03867319
0.03356486 0.24855553 0.38155282
0.03591575 0.24975933 0.38324738
0.05796244 0.27452117 0.41810793
0.16313121 0.26914462 0.41755879
0.50036222 0.16328956 0.35543701
0.63263565 0.14027244 0.38782641
0.65063483 0.13008128 0.38413364
0.65533984 0.12516946 0.38121182
0.65883142 0.12348326 0.3803947
0.03345048 0.2510497 0.38136974
0.03574214 0.2517544 0.3824335
0.05558115 0.27260473 0.41194114
0.15312824 0.27170661 0.41690108
0.49536389 0.16333185 0.35187489
0.63350236 0.1398406 0.3862384
0.65195209 0.12959898 0.38262129
0.65667319 0.12467772 0.37969521
0.66015941 0.12300461 0.37888652
0.03320573 0.25208026 0.37895665
0.03549739 0.25278497 0.38002044
0.04859954 0.26315004 0.39490601
0.13178071 0.27618906 0.41717687
0.48386213 0.16179483 0.34502792
0.63484234 0.13642225 0.38245329
0.65545839 0.12606834 0.37924141
0.66051108 0.1212273 0.37640604
0.66409111 0.11957328 0.37562102
0.03193347 0.34655491 0.4257642
0.03401494 0.34470254 0.42448592
0.03600527 0.34007236 0.42126957
0.0985716 0.36045915 0.45713639
0.48604444 0.20832221 0.35630071
0.65523416 0.14180253 0.37990722
0.66410893 0.1133102 0.37004074
0.66926789 0.10833921 0.36712667
0.67287552 0.10663896 0.36630797
0.1077029 0.49617594 0.46606588
0.10876033 0.49482268 0.46522623
0.10834897 0.49173808 0.4634456
0.11358014 0.4799453 0.45570073
0.57168901 0.56740344 0.53294694
0.88498485 0.43682313 0.46205083
0.90092719 0.39235446 0.46295732
0.88937438 0.36750782 0.45894966
0.88795924 0.35844848 0.45545885
0.22148417 0.59060133 0.4331651
0.22364984 0.58954328 0.43236542
0.22532751 0.58732927 0.43100986
0.22511122 0.58139002 0.42787239
0.37334082 0.58786082 0.37345889
0.76886284 0.67232525 0.21042685
0.94161344 0.6864661 0.22688961
0.94651949 0.67131054 0.2254056
0.94944179 0.66614723 0.2248714
0.2250434 0.6613096 0.34256265
0.22802271 0.66107333 0.34143144
0.23119029 0.66033995 0.33912313
0.23474602 0.65934503 0.33414835
0.26371247 0.65700811 0.31587347
0.63115418 0.78387356 0.14398541
0.91697985 0.88209605 0.16428599
0.94165677 0.87756908 0.16461581
0.9436568 0.87356842 0.1626074
0.22910333 0.66208446 0.31306809
0.23207463 0.66192567 0.31201139
0.23521586 0.66162902 0.30988264
0.2387998 0.66086739 0.30474189
0.24309266 0.65958345 0.29556492
0.56908268 0.76583558 0.1507681
0.89521778 0.90297329 0.14154314
0.94891983 0.92201555 0.15224975
0.95216078 0.92211401 0.15101497
0.23040158 0.66670316 0.3035776
0.23337078 0.66654623 0.30253407
0.23651193 0.66630203 0.30037874
0.24012282 0.66572505 0.29523435
0.24444926 0.66444522 0.28587231
0.54947853 0.7632637 0.15656057
0.88138717 0.90579355 0.13195775
0.94901472 0.93098748 0.14674711
0.95372081 0.93145043 0.14560159
0.04795542 0.32687262 0.49676168
0.05050534 0.32781261 0.49796021
0.06559455 0.33678997 0.50940698
0.13932252 0.39386511 0.57007009
0.5246228 0.42388406 0.59311557
0.63726401 0.390982 0.56784648
0.64848542 0.38280162 0.56202561
0.6504696 0.37893572 0.5590778
0.65272725 0.37751365 0.55807763
0.04803454 0.32971674 0.49717188
0.0504722 0.33030736 0.49794522
0.06269024 0.33689681 0.50638133
0.13597134 0.39529663 0.57004553
0.51862317 0.42584768 0.59280169
0.63699818 0.39250669 0.5672847
0.64855969 0.38413697 0.56138062
0.6505453 0.38027042 0.55843467
0.65280306 0.3788493 0.55743521
0.04797408 0.33204684 0.49675071
0.05041094 0.33263448 0.4975192
0.05435212 0.33366004 0.49881622
0.12760296 0.39420483 0.56833047
0.5016399 0.42543396 0.59001857
0.63561916 0.39137164 0.56453723
0.64825416 0.38194662 0.55807388
0.65021682 0.37778059 0.55494291
0.65246236 0.37625226 0.5538705
0.0505013 0.37473232 0.50986171
0.05261219 0.37351087 0.50935322
0.0543835 0.37006599 0.50768077
0.10213968 0.39732131 0.55154765
0.4400776 0.4218792 0.57892025
0.63057542 0.3817749 0.55487967
0.64698666 0.37070021 0.54788888
0.64896804 0.36649811 0.54476327
0.65122014 0.36495587 0.54368788
0.09696993 0.5161382 0.57449734
0.09832881 0.51479012 0.573744
0.09871092 0.51160485 0.5720706
0.09921823 0.50162876 0.56675619
0.30751416 0.53797829 0.60555947
0.70353729 0.57229531 0.65221274
0.73264605 0.52801675 0.63066852
0.72563183 0.50366807 0.61641252
0.72465676 0.49517217 0.61145425
0.15652628 0.64080471 0.60183042
0.15888798 0.63980865 0.60113889
0.16105501 0.63779116 0.59988981
0.16266045 0.63254774 0.59698027
0.23421159 0.6251657 0.59216297
0.70435679 0.74019885 0.68014437
0.90409684 0.69662702 0.66454285
0.9010191 0.68597746 0.66428775
0.90087372 0.6824317 0.66413736
0.14757441 0.74180472 0.60328305
0.15055357 0.74156582 0.60265744
0.15391755 0.7405529 0.60148865
0.15823023 0.73805207 0.59899783
0.17588079 0.73215926 0.59218347
0.58447504 0.8311094 0.57868761
0.9332093 0.877132 0.44718668
0.96007723 0.86654186 0.44367155
0.96233225 0.86200577 0.44254905
0.15232189 0.74305987 0.59020036
0.15530731 0.74286491 0.58959055
0.15878634 0.74262381 0.5885396
0.16286771 0.74182719 0.58609426
0.16765091 0.74052906 0.58171326
0.51339632 0.82699895 0.56073022
0.90019202 0.92687988 0.40318814
0.96210754 0.93888032 0.40294188
0.96641004 0.93880397 0.40169328
0.1537315 0.74709982 0.58591795
0.15678573 0.74693406 0.58533299
0.16026478 0.74669302 0.58428204
0.16434813 0.74603927 0.58182883
0.16922164 0.74478525 0.57743311
0.49199775 0.82433748 0.55720288
0.88399631 0.93073827 0.39182413
0.96086949 0.94684535 0.39595649
0.96662843 0.94708484 0.3950744
0.05072765 0.33669627 0.52509785
0.05326299 0.33760244 0.52622581
0.05712136 0.33899102 0.52792388
0.13137351 0.39922962 0.59447759
0.4935225 0.46232012 0.63916677
0.64146644 0.44743767 0.62567884
0.65466267 0.44600806 0.62401479
0.65698802 0.44574544 0.62355584
0.6593231 0.4456152 0.62337172
0.05089803 0.33974177 0.52577496
0.05331023 0.340314 0.52651072
0.05584594 0.34122178 0.52760321
0.12804572 0.40014905 0.59404808
0.48657712 0.46475804 0.63906056
0.64131665 0.45016244 0.62600201
0.65484661 0.44868061 0.62429309
0.65717226 0.44842023 0.62383699
0.65950757 0.44829169 0.62365586
0.05105206 0.34274259 0.52621531
0.05346473 0.34331587 0.52695239
0.05587703 0.34388372 0.52764219
0.12005629 0.39830452 0.59141904
0.46561196 0.46472371 0.63598871
0.6403811 0.45287675 0.62615949
0.65502089 0.451222 0.62429422
0.65734571 0.45094919 0.62382907
0.65967888 0.45080185 0.62363291
0.05125356 0.34676161 0.52636164
0.0535729 0.34615871 0.52669507
0.05598508 0.34672615 0.52738315
0.09858047 0.38244614 0.57145125
0.39240754 0.45224169 0.61894381
0.63691151 0.4556317 0.625898
0.65515524 0.45326471 0.62340504
0.65747601 0.45294684 0.62290245
0.65980881 0.45278645 0.62269616
0.09265334 0.49955124 0.60288566
0.09408176 0.49823001 0.60199475
0.094527 0.49499017 0.59979737
0.09185468 0.48561326 0.59352797
0.2446567 0.51802617 0.6320644
0.64225471 0.60914302 0.7043069
0.68426943 0.56894481 0.68044209
0.67987257 0.54285324 0.6658029
0.67986226 0.53324574 0.66038322
0.16482013 0.64865714 0.67177391
0.16668747 0.64766622 0.67117262
0.16807005 0.64534986 0.66975003
0.16782027 0.63983279 0.66710055
0.20907195 0.63245612 0.67531401
0.52362639 0.71103656 0.74266058
0.74672133 0.75266266 0.78012729
0.74560219 0.74538136 0.77464557
0.74554801 0.74293721 0.77275276
0.15950984 0.79547465 0.75714904
0.1622604 0.79471016 0.75654572
0.16510573 0.7927686 0.75491148
0.16850227 0.78753543 0.75110108
0.17270495 0.77800536 0.74457574
0.4390547 0.80302292 0.75745416
0.90090716 0.87164849 0.81663126
0.93826288 0.86138129 0.81455564
0.93889087 0.85813397 0.81337208
0.15568715 0.80651927 0.75573176
0.15825133 0.806288 0.75525385
0.16073535 0.8058877 0.75436962
0.16312635 0.80503392 0.75263292
0.16533637 0.80389023 0.74990368
0.38775638 0.83823395 0.75204509
0.86839092 0.94726777 0.77849436
0.97132277 0.95299816 0.78505266
0.97700578 0.95149368 0.78313351
0.15396948 0.81162351 0.75540763
0.15651214 0.81135589 0.75485313
0.15899616 0.81095564 0.75396889
0.16136102 0.81025934 0.75232106
0.16321786 0.80856115 0.74847502
0.37006164 0.83935422 0.74802566
0.84758317 0.95284992 0.76523131
0.97229964 0.96584016 0.77572453
0.97967327 0.96594232 0.77384788
0.05097189 0.33754238 0.52872479
0.05350792 0.33845094 0.5298667
0.05604396 0.33935949 0.5310086
0.12581424 0.39712352 0.59658563
0.4800663 0.46333674 0.64244789
0.6408723 0.45044798 0.63166004
0.65489197 0.44912833 0.6304878
0.65723133 0.44905105 0.63041943
0.65957117 0.44898605 0.63037074
0.05114799 0.34060642 0.52948618
0.0535609 0.34118173 0.53023839
0.05609693 0.34209025 0.5313803
0.12250967 0.39793777 0.5960499
0.47216478 0.46523258 0.64182526
0.64072299 0.45321277 0.63207275
0.65507722 0.45183471 0.63084805
0.65741658 0.45175743 0.63077962
0.65975642 0.45169246 0.63073093
0.05132408 0.34367049 0.53024751
0.053737 0.34424573 0.53099978
0.05614991 0.34482101 0.53175199
0.11481075 0.39552072 0.59251612
0.45054296 0.46482801 0.63857883
0.63977993 0.45610803 0.63260472
0.65526199 0.45454088 0.631208
0.65760183 0.45446381 0.63113981
0.65994173 0.45439884 0.63109118
0.05150043 0.34674564 0.53101784
0.05391334 0.34732091 0.53177005
0.05632625 0.34789616 0.53252226
0.09362302 0.3782078 0.570265
0.37142912 0.44966868 0.61942035
0.63630611 0.45949104 0.63358718
0.65544915 0.45726359 0.63158923
0.65778905 0.45718658 0.63152105
0.66012949 0.45712134 0.63147211
0.08411593 0.48212463 0.59747654
0.0856861 0.48087543 0.59668833
0.08641823 0.47775847 0.59477085
0.08460179 0.46874592 0.58939219
0.22857974 0.50268614 0.62982166
0.63547081 0.58826888 0.70096076
0.67496556 0.53936726 0.67179149
0.66992068 0.51071554 0.65617329
0.66945034 0.49984136 0.65029371
0.16171537 0.63882095 0.67777908
0.16348296 0.63797128 0.67742544
0.16471741 0.63596845 0.67660147
0.16431223 0.63040942 0.67435759
0.20203152 0.62231129 0.68274605
0.50048804 0.69601035 0.74357498
0.71675956 0.74841774 0.78847885
0.71837014 0.7412917 0.78221029
0.71888572 0.73883903 0.78001499
0.16611822 0.79660076 0.78404886
0.16891608 0.79582983 0.78348404
0.17193307 0.79399264 0.78221112
0.17551361 0.78817236 0.77802151
0.17999189 0.77764523 0.77012348
0.41277599 0.7952559 0.80157363
0.84076649 0.86223608 0.87801677
0.8959586 0.85799611 0.884426
0.89621443 0.85502744 0.88255334
0.16137351 0.82117248 0.79695278
0.16404796 0.82112879 0.7968694
0.16670612 0.82105184 0.7966755
0.16932963 0.82072246 0.79604465
0.17195101 0.82047391 0.79524946
0.36218482 0.85134691 0.82075071
0.80674005 0.94046098 0.89203751
0.95955312 0.95336825 0.92632657
0.96622741 0.95218784 0.92622489
0.16022162 0.82756805 0.7994312
0.16289608 0.82752454 0.79934788
0.16554974 0.8274408 0.79913932
0.16816558 0.82727265 0.79863125
0.1707852 0.827048 0.79784954
0.34489751 0.85440695 0.819166
0.78045303 0.95067072 0.88611078
0.96451098 0.97187865 0.93070328
0.97212976 0.97088796 0.93086249
0.0511729 0.33823878 0.53170979
0.05370893 0.33914733 0.5328517
0.05624497 0.34005588 0.5339936
0.1240349 0.39662141 0.59870249
0.47502255 0.46416318 0.64489698
0.64072537 0.452216 0.63519919
0.65501279 0.45077479 0.63390064
0.65735215 0.45069751 0.63383222
0.65969145 0.45062014 0.63376373
0.051349 0.34130281 0.53247118
0.0537619 0.34187806 0.53322345
0.05629794 0.34278664 0.5343653
0.12078738 0.39737543 0.59803796
0.46687323 0.46590161 0.64411086
0.6405766 0.45498148 0.63561249
0.6551981 0.45348117 0.63426083
0.6575374 0.45340389 0.63419241
0.6598767 0.45332655 0.63412392
0.0515251 0.34436685 0.53323251
0.05393801 0.34494212 0.53398472
0.05635092 0.34551737 0.53473699
0.11345812 0.39459786 0.59362799
0.44480816 0.4652774 0.64063692
0.63962585 0.45788139 0.63614851
0.65538287 0.45618734 0.63462079
0.65772265 0.45611027 0.6345526
0.66006202 0.45603299 0.63448423
0.0517012 0.34743088 0.53399396
0.0541141 0.34800613 0.53474611
0.05652701 0.3485814 0.53549832
0.09209782 0.37703642 0.57093829
0.36441889 0.44899544 0.6204288
0.6361357 0.46124616 0.63710701
0.65556753 0.45889348 0.63498074
0.65790743 0.45881644 0.63491261
0.66024721 0.45873937 0.63484442
0.08176618 0.47671276 0.59662241
0.08333402 0.47545934 0.59583396
0.08406318 0.47230941 0.59391832
0.0821284 0.46305168 0.58841401
0.22370172 0.49826771 0.6303221
0.63285404 0.58040857 0.69933075
0.67192012 0.52869684 0.66838688
0.66620165 0.49759713 0.65158886
0.66634434 0.48855636 0.64706802
0.16028225 0.63550103 0.67920804
0.16204678 0.6346513 0.67885399
0.16326405 0.6326322 0.67802209
0.1628249 0.62701708 0.67576468
0.19938362 0.61861312 0.6837154
0.4967016 0.69184339 0.74324846
0.71222407 0.74559718 0.7882247
0.71404505 0.73841739 0.78188866
0.7144978 0.73595834 0.77969062
0.16720046 0.79374766 0.78535211
0.16999337 0.79296774 0.78476346
0.17300211 0.79106963 0.78339541
0.17660147 0.78506261 0.77909464
0.18115972 0.77453595 0.77166349
0.40872926 0.79076803 0.80560338
0.82692677 0.85802174 0.88312393
0.88631862 0.85480863 0.89048904
0.88630891 0.85189825 0.88865286
0.1620516 0.82258642 0.80329657
0.16472967 0.82255262 0.80325276
0.16740772 0.82251883 0.80320895
0.17009395 0.82231206 0.80302316
0.17278716 0.82224685 0.80295277
0.35869318 0.85194731 0.83088762
0.79283667 0.93716127 0.90556824
0.95648867 0.95206755 0.94352514
0.96367151 0.95096171 0.94348305
0.16092056 0.82945961 0.80707794
0.16359863 0.82942575 0.80703413
0.16627669 0.82939202 0.80699033
0.16895476 0.82935822 0.80694652
0.17164667 0.82932019 0.80689847
0.34152794 0.85628843 0.83134675
0.76634139 0.94924188 0.90153188
0.96245891 0.97072917 0.94833231
0.97035736 0.96979851 0.94852906
