site/assets/luts/freshluts--0002335-retro-bl.cube
# LUTr-Schema-Version: 2
# LUTr-ID: freshluts--0002335-retro-bl
# LUTr-Title: retro bl
# LUTr-Collection: Fresh LUTs
# LUTr-Collection-ID: freshluts-community
# LUTr-Source: https://freshluts.com
# LUTr-Retrieved: 2026-07-27
# LUTr-Source-File: submissions-raw/freshluts/cubes/2335__retro_bl_10.C0133.cube
# LUTr-Source-Format: CUBE
# LUTr-Source-SHA256: 9397e95e58c574333709b15290279ca8cb9851b487c46880404bc519dd1a7dae
# LUTr-License: CC0-1.0
# LUTr-License-URL: https://freshluts.com/termsandconditions
# LUTr-License-Basis: site-terms
# LUTr-Transform-Class: creative-look
# LUTr-Tags: creative, freshluts, community, cube, cool, high-key, sony-s-log1, vintage
# LUTr-Input-Color-Space:
# LUTr-Input-Gamut: sony-s-gamut
# LUTr-Input-Transfer: sony-s-log1
# LUTr-Output-Color-Space: srgb
# LUTr-Output-Gamut: rec709
# LUTr-Output-Transfer: srgb
# LUTr-Color-Space-Confidence: camera-profile-input-required
# LUTr-Domain-Normalized: true
# LUTr-Shaper: none
# LUTr-Original-Grid: 17x17x17
# LUTr-Conversion-Grid: 17x17x17
# LUTr-Conversion-Interpolation: none
# LUTr-Conversion-Method: Metadata normalization; numeric LUT samples preserved
# LUTr-Conversion-Tool: LUTr scripts/convert-all-to-cube.mjs 2.0.0
# LUTr-Conversion-Date: 2026-07-28
# LUTr-Asset-URL: https://freshluts.com/luts/2335
# LUTr-Author: abhijith t s
# LUTr-Author-URL: https://freshluts.com/users/267812
# LUTr-Attribution: abhijith t s via Fresh LUTs
# LUTr-Source-Labels: gamma=Sony S-Log; color=Cool; key=High Key; style=Teal - Orange
# LUTr-Note: Preserve this metadata and the upstream license notices when redistributing.
TITLE "retro bl"
LUT_3D_SIZE 17
DOMAIN_MIN 0 0 0
DOMAIN_MAX 1 1 1
0.021088 0 0.0209812
0.021088 0 0.0209812
0.0211948 0 0.0216983
0.0443732 0 0.0239567
0.145861 0 0.0544442
0.253712 0.0330968 0.0869001
0.378775 0.0582589 0.104341
0.525399 0.0814527 0.143145
0.672618 0.113481 0.197803
0.814817 0.142885 0.248905
0.930282 0.187472 0.286671
1 0.226658 0.327703
1 0.268086 0.357534
1 0.277699 0.364721
1 0.277699 0.364721
1 0.277699 0.364721
1 0.277562 0.365179
0.021088 0 0.0209812
0.021088 0 0.0209812
0.021088 0 0.0209812
0.0428168 0 0.0239109
0.140902 0 0.0525978
0.248859 0.0316625 0.0855421
0.372244 0.0567025 0.104219
0.518898 0.0796521 0.140826
0.666072 0.111772 0.195682
0.80885 0.140627 0.247074
0.926268 0.18587 0.285222
1 0.225101 0.326543
1 0.267567 0.357076
1 0.277699 0.364721
1 0.277699 0.364721
1 0.277699 0.364721
1 0.277562 0.365179
0.021088 0 0.0209812
0.021088 0 0.0209812
0.021088 0 0.0209812
0.0400549 0 0.0223697
0.129 0 0.0487984
0.238514 0.0285954 0.0826276
0.358312 0.0537423 0.103624
0.505058 0.0763256 0.136034
0.652201 0.108339 0.19089
0.796216 0.136431 0.243061
0.917464 0.182452 0.282032
1 0.221775 0.32372
1 0.266453 0.356298
1 0.277699 0.364721
1 0.277699 0.364721
1 0.277699 0.364721
1 0.277241 0.365179
0.0361181 0.00149538 0.0244602
0.0362554 0.00109865 0.0245975
0.035935 0 0.0249027
0.0477455 0 0.0251926
0.105119 0.00177005 0.0357824
0.220417 0.0346838 0.0683299
0.343786 0.0632334 0.0924697
0.489723 0.0818952 0.124315
0.629755 0.109728 0.181201
0.770062 0.13257 0.233753
0.89572 0.173297 0.274723
0.993164 0.213657 0.315618
1 0.261418 0.353017
1 0.276081 0.364736
1 0.277699 0.364721
1 0.278676 0.364691
1 0.278294 0.364858
0.0534524 0.0690471 0.0254826
0.052842 0.06804 0.0252689
0.051194 0.0665446 0.0243534
0.0551614 0.062089 0.0243687
0.0808881 0.0551614 0.0278325
0.184253 0.0656901 0.0438849
0.327611 0.0910964 0.0607767
0.491707 0.111559 0.0945296
0.632334 0.145434 0.163134
0.769467 0.179583 0.221912
0.893248 0.214664 0.2645
0.987152 0.25127 0.302098
1 0.294102 0.343099
1 0.307012 0.362997
1 0.304402 0.363592
1 0.309834 0.363531
1 0.318761 0.363745
0.0558785 0.141421 0.0694896
0.055024 0.140734 0.0692149
0.0548104 0.139162 0.068513
0.0567178 0.134722 0.0680095
0.0758221 0.125414 0.0680247
0.147951 0.116152 0.0703441
0.28864 0.131044 0.050721
0.469932 0.155962 0.037705
0.635691 0.186038 0.0960403
0.775631 0.222354 0.166873
0.887694 0.265751 0.23035
0.977325 0.30811 0.277882
1 0.358953 0.326284
1 0.379919 0.354131
1 0.378607 0.356176
1 0.384909 0.353811
1 0.39559 0.349722
0.0622568 0.21593 0.100755
0.0623789 0.215274 0.100511
0.0626993 0.213565 0.10013
0.0635843 0.210437 0.0988937
0.0722972 0.202792 0.0980545
0.121309 0.18996 0.0957961
0.231235 0.185107 0.0827192
0.4094 0.207813 0.0414588
0.599664 0.240986 0.033875
0.77174 0.271855 0.0802167
0.901335 0.306096 0.140398
0.981659 0.347509 0.212863
1 0.402869 0.273686
1 0.427558 0.307149
1 0.431464 0.31368
1 0.436942 0.304906
1 0.446403 0.291264
0.0531624 0.301503 0.139956
0.0534829 0.300923 0.13962
0.0540322 0.298741 0.138994
0.055024 0.295079 0.137377
0.0628519 0.287907 0.13463
0.0905165 0.276097 0.13193
0.180468 0.260548 0.120836
0.330449 0.262455 0.0959487
0.534127 0.292287 0.0364843
0.725017 0.329763 0.0241398
0.882414 0.364782 0.0417029
0.980301 0.396719 0.105089
1 0.44799 0.191012
1 0.474388 0.233066
1 0.482521 0.243259
1 0.4925 0.230472
0.998596 0.508858 0.210849
0.0428168 0.390768 0.170306
0.042649 0.390188 0.170047
0.0428016 0.388235 0.169589
0.0427405 0.384833 0.168292
0.0450294 0.378271 0.1664
0.0666514 0.369406 0.164385
0.117723 0.356435 0.161715
0.253147 0.341497 0.144503
0.439094 0.348104 0.101122
0.651637 0.380636 0.0169223
0.840406 0.427771 0
0.958144 0.462806 0.0139467
0.997101 0.510842 0.103395
0.994629 0.535454 0.15874
0.991806 0.544701 0.171984
0.989212 0.557809 0.159884
0.985107 0.578103 0.139635
0.0381628 0.476905 0.197803
0.0385443 0.475731 0.197528
0.0370184 0.473671 0.196857
0.0345312 0.471031 0.196033
0.029984 0.463828 0.194568
0.0483406 0.455177 0.191791
0.103136 0.445655 0.189731
0.188891 0.432258 0.185855
0.344747 0.422065 0.162875
0.539467 0.428641 0.0959335
0.770138 0.469841 0
0.925353 0.532433 0
0.980438 0.5841 0
0.980957 0.603159 0.0906386
0.978607 0.609857 0.106142
0.975341 0.625528 0.0914931
0.970321 0.650248 0.065919
0.0306554 0.566598 0.220005
0.0309758 0.566186 0.219669
0.032166 0.564095 0.219165
0.0343633 0.56025 0.218143
0.0378424 0.553231 0.216114
0.0469368 0.544747 0.21474
0.0740673 0.535348 0.214939
0.15227 0.525002 0.213413
0.266499 0.510643 0.208927
0.432837 0.500526 0.17879
0.644221 0.504524 0.0725414
0.869596 0.571405 0
0.95993 0.649851 0
0.967361 0.675868 0.00248722
0.965179 0.679438 0.0232242
0.961151 0.697398 0.0133516
0.954757 0.728313 0
0.0186618 0.654444 0.217014
0.0201572 0.653056 0.217105
0.0204318 0.65153 0.217563
0.0218357 0.648341 0.217929
0.0240024 0.642359 0.218647
0.0285801 0.634302 0.219745
0.0578775 0.624735 0.221515
0.112947 0.616876 0.224582
0.211322 0.60914 0.224399
0.357473 0.599435 0.216693
0.522881 0.585138 0.190066
0.760967 0.601236 0.0395666
0.932464 0.691402 0
0.951492 0.748348 0
0.948898 0.755703 0
0.943709 0.775021 0
0.935119 0.807858 0
0 0.746426 0.172961
0 0.745418 0.173541
0 0.743984 0.175006
0 0.741131 0.177905
0 0.736019 0.181796
0 0.728466 0.187564
0.00857557 0.720577 0.194781
0.0710155 0.711574 0.198932
0.208728 0.703639 0.197711
0.343282 0.702785 0.199252
0.486976 0.706127 0.198734
0.663172 0.703777 0.156069
0.864363 0.725078 0
0.933822 0.809354 0
0.930495 0.827192 0
0.924926 0.845899 0
0.916823 0.87454 0
0 0.821607 0.069398
0 0.821073 0.0703593
0 0.820218 0.072221
0 0.818692 0.0750439
0 0.815686 0.0803388
0 0.811627 0.087129
0 0.807584 0.0963455
0 0.807919 0.105226
0.160998 0.798505 0.0936294
0.367071 0.800839 0.0998245
0.532647 0.811734 0.122087
0.675151 0.824735 0.132097
0.807614 0.828443 0.0840314
0.909621 0.848478 0
0.914397 0.881209 0
0.908934 0.902022 0
0.902296 0.922759 0
0 0.855009 0.00640879
0 0.854856 0.00680552
0 0.854765 0.00749218
0 0.854231 0.00805676
0 0.853254 0.00947585
0 0.852491 0.0114748
0 0.850431 0.0145571
0 0.853407 0.0170291
0.0606088 0.854124 0.0123598
0.335698 0.855421 0.00721752
0.542245 0.870436 0.0443885
0.693477 0.886763 0.0591135
0.811383 0.897429 0.0406806
0.890181 0.908995 0
0.901183 0.920531 0
0.897902 0.93608 0
0.896803 0.940414 0
0 0.855024 0.00764477
0 0.855024 0.00764477
0 0.855024 0.00764477
0 0.855024 0.00764477
0 0.855131 0.00773632
0 0.855085 0.0074464
0 0.854444 0.00770581
0 0.857816 0.0068513
0 0.867521 0.00631724
0.321263 0.864485 0
0.546517 0.882445 0.0150301
0.704479 0.902663 0.0280613
0.823133 0.916274 0.00556954
0.890425 0.930755 0
0.896254 0.938277 0
0.896132 0.942229 0
0.895735 0.94519 0
0 0.862486 0.00746166
0 0.862486 0.00746166
0 0.862486 0.00746166
0 0.862364 0.00735485
0 0.86154 0.00729381
0 0.859785 0.0077821
0 0.857084 0.00886549
0 0.860304 0.00495918
0 0.872938 0.00283818
0.321599 0.870848 0
0.565438 0.891112 0.00836194
0.736782 0.913375 0.0198672
0.857542 0.927092 0
0.89485 0.94136 0
0.895323 0.944915 0
0.895521 0.946929 0
0.895552 0.946822 0
0.021088 0 0.0209812
0.021088 0 0.0209812
0.021088 0 0.0209812
0.040116 0 0.0231174
0.129 0 0.0487984
0.247791 0.0316777 0.0838483
0.376669 0.055375 0.104692
0.522148 0.0751812 0.14287
0.668574 0.103258 0.19559
0.810849 0.128603 0.247227
0.926329 0.171725 0.284794
1 0.20293 0.324956
1 0.232273 0.356939
1 0.237064 0.365332
1 0.235019 0.365713
1 0.232334 0.365957
1 0.22797 0.366415
0.0211948 0 0.0216983
0.0211948 0 0.0216983
0.0211948 0 0.0216983
0.040116 0 0.0231174
0.13138 0 0.0496681
0.246616 0.0311894 0.0839704
0.373129 0.0554513 0.104448
0.519265 0.0767376 0.141283
0.66601 0.106523 0.195026
0.80882 0.133486 0.246815
0.925399 0.177722 0.284779
1 0.211978 0.325399
1 0.248173 0.356985
1 0.256321 0.364981
1 0.256306 0.365148
1 0.255924 0.365316
1 0.255512 0.365637
0.0215152 0 0.0238499
0.0214084 0 0.0231327
0.0214084 0 0.0231327
0.0385443 0 0.0238651
0.124529 0 0.0477455
0.237583 0.0284733 0.081651
0.358618 0.0527352 0.104143
0.50428 0.0738537 0.136492
0.651347 0.105226 0.190753
0.795331 0.132357 0.242985
0.916365 0.177859 0.282017
1 0.216205 0.323751
1 0.259541 0.356359
1 0.270863 0.364981
1 0.271519 0.364981
1 0.27248 0.364965
1 0.272343 0.365423
0.035523 0.00146487 0.0244602
0.0356603 0.00106813 0.0245975
0.0361028 0 0.0249638
0.0468299 0 0.0252079
0.104372 0.0010071 0.0359197
0.220798 0.0339361 0.0687114
0.343664 0.0622568 0.0933242
0.48957 0.0809491 0.124941
0.63061 0.109407 0.181628
0.771054 0.132433 0.234134
0.896376 0.173342 0.274922
0.993622 0.213474 0.315984
1 0.2607 0.35317
1 0.275746 0.364736
1 0.276997 0.364874
1 0.27834 0.364691
1 0.278248 0.365011
0.0529946 0.0689555 0.0266728
0.0526131 0.0682994 0.0258946
0.051194 0.0663615 0.0243076
0.0546426 0.0620279 0.0237583
0.0805524 0.0545205 0.0276951
0.184039 0.0653086 0.044007
0.327688 0.0903639 0.0619364
0.491188 0.110262 0.0957198
0.631724 0.143969 0.165209
0.7691 0.178363 0.223102
0.892927 0.212985 0.264759
0.98706 0.249805 0.302373
1 0.29247 0.343282
1 0.303975 0.363088
1 0.301656 0.363699
1 0.306508 0.363592
1 0.31545 0.363806
0.0558328 0.141024 0.0695201
0.0552682 0.140826 0.0695964
0.0549783 0.138766 0.068574
0.0565957 0.134707 0.0680247
0.0752117 0.125383 0.06804
0.147631 0.115679 0.0704509
0.288975 0.130068 0.0506752
0.470436 0.154726 0.0379339
0.635752 0.184771 0.0975509
0.774975 0.221225 0.168444
0.887129 0.264805 0.232029
0.977096 0.306706 0.279042
1 0.357687 0.327001
1 0.378408 0.354971
1 0.376837 0.356786
1 0.382925 0.354482
1 0.393439 0.350713
0.0623789 0.215488 0.10045
0.0622416 0.215488 0.100481
0.0627604 0.213504 0.0997482
0.0635843 0.210437 0.0988937
0.0719615 0.202792 0.0981003
0.120653 0.189899 0.0958572
0.230976 0.184848 0.0827802
0.408667 0.207523 0.0415808
0.599695 0.240345 0.033753
0.771756 0.270695 0.081239
0.901015 0.30515 0.141451
0.981445 0.346349 0.214694
1 0.402167 0.274861
1 0.426734 0.3084
1 0.430503 0.315022
1 0.435828 0.306416
1 0.445212 0.292897
0.0531472 0.301244 0.139986
0.0534829 0.300923 0.13962
0.0543679 0.298421 0.138643
0.0549783 0.295583 0.137377
0.0628367 0.287633 0.134646
0.0902571 0.275792 0.13164
0.179461 0.259968 0.120912
0.330388 0.261936 0.0956436
0.533867 0.291783 0.0365148
0.724819 0.329 0.0245975
0.882231 0.364218 0.0420081
0.980377 0.395193 0.106661
1 0.446754 0.192447
1 0.473518 0.234333
1 0.481636 0.244511
1 0.491386 0.231937
0.998764 0.507759 0.212329
0.0426184 0.390753 0.170321
0.042649 0.390188 0.170047
0.0426795 0.387976 0.169619
0.0428321 0.384588 0.168307
0.0444038 0.378622 0.166751
0.0656901 0.369619 0.164462
0.11696 0.356374 0.161776
0.251499 0.341344 0.144549
0.439094 0.347295 0.100832
0.652354 0.380026 0.0165103
0.84004 0.427192 0
0.958251 0.461738 0.0153353
0.997299 0.50985 0.10457
0.994781 0.534768 0.159228
0.991928 0.544045 0.172885
0.989395 0.556893 0.160555
0.985336 0.57702 0.140688
0.037995 0.47631 0.197528
0.037995 0.47631 0.197528
0.0370184 0.473671 0.196857
0.0345312 0.471031 0.196033
0.0299992 0.464714 0.194827
0.047425 0.455467 0.191852
0.102052 0.446174 0.189746
0.18822 0.431907 0.185534
0.34403 0.421439 0.162966
0.539925 0.427909 0.095491
0.769329 0.469642 0
0.925444 0.531945 0
0.980392 0.583993 0
0.981125 0.602289 0.0916609
0.978698 0.609415 0.106401
0.97557 0.624445 0.0925765
0.970535 0.64918 0.0670787
0.0308232 0.566552 0.219608
0.0305486 0.566522 0.219654
0.0318914 0.564065 0.219196
0.0338293 0.560876 0.218082
0.0377508 0.553292 0.216495
0.04654 0.545068 0.214694
0.073167 0.535592 0.214923
0.150637 0.525246 0.213474
0.26566 0.510857 0.208896
0.431022 0.499992 0.179309
0.644984 0.503075 0.0711528
0.869841 0.570657 0
0.960052 0.649058 0
0.967468 0.675212 0.00366217
0.965316 0.678782 0.0240024
0.961273 0.696742 0.0141909
0.954879 0.727672 0
0.0191958 0.653742 0.217075
0.019791 0.653712 0.217365
0.020264 0.65182 0.217487
0.0218357 0.648341 0.217929
0.0246281 0.642344 0.21854
0.0285801 0.634302 0.219745
0.0564889 0.62475 0.221698
0.11191 0.616846 0.224643
0.210208 0.609384 0.224399
0.35613 0.599588 0.216999
0.52195 0.585046 0.190494
0.760357 0.600793 0.0398413
0.932464 0.691081 0
0.951492 0.748348 0
0.949004 0.755261 0
0.943923 0.774166 0
0.935286 0.807279 0
0 0.745937 0.173465
0 0.745418 0.173541
0 0.743725 0.175097
0 0.741375 0.177874
0 0.736614 0.181704
0 0.728771 0.187488
0.00805676 0.720851 0.194766
0.0687419 0.711925 0.199161
0.207202 0.703563 0.197818
0.342336 0.702129 0.199756
0.485344 0.705898 0.19913
0.661509 0.703593 0.156664
0.86424 0.724804 0
0.933852 0.80911 0
0.930663 0.826596 0
0.924926 0.845899 0
0.916869 0.874372 0
0 0.821271 0.0699016
0 0.821088 0.0708171
0 0.820218 0.072221
0 0.818692 0.0750439
0 0.815686 0.0803388
0 0.811627 0.087129
0 0.807538 0.096376
0 0.807813 0.105348
0.158282 0.798474 0.0944381
0.365164 0.800687 0.099382
0.531548 0.811383 0.122438
0.674174 0.824216 0.132525
0.80734 0.828199 0.0845502
0.909636 0.848249 0
0.914519 0.880873 0
0.909026 0.901717 0
0.902388 0.922423 0
0 0.854856 0.00680552
0 0.854856 0.00680552
0 0.854444 0.00749218
0 0.854231 0.00805676
0 0.853254 0.00947585
0 0.852491 0.0114748
0 0.850431 0.0145571
0 0.853483 0.0171054
0.0573281 0.854292 0.0128481
0.332708 0.855283 0.00708019
0.541268 0.870329 0.0442054
0.692912 0.886534 0.0591592
0.810773 0.897368 0.0408331
0.889998 0.908797 0
0.901183 0.920531 0
0.897932 0.935973 0
0.896803 0.940414 0
0 0.855024 0.00764477
0 0.855024 0.00764477
0 0.855024 0.00764477
0 0.855024 0.00764477
0 0.855024 0.00764477
0 0.855085 0.0074464
0 0.854444 0.00770581
0 0.857618 0.00689708
0 0.867796 0.00700389
0.318318 0.864347 0
0.544549 0.882231 0.0146181
0.703609 0.902434 0.0280461
0.822736 0.916228 0.00563058
0.890379 0.930724 0
0.896239 0.938277 0
0.896132 0.942229 0
0.895735 0.94519 0
0 0.862165 0.00708019
0 0.862165 0.00708019
0 0.862165 0.00708019
0 0.862409 0.00724804
0 0.861891 0.00723278
0 0.860105 0.00746166
0 0.857191 0.00852979
0 0.860105 0.005066
0 0.872786 0.00299077
0.317922 0.870695 0
0.563485 0.890639 0.00801099
0.734951 0.91313 0.0197452
0.857221 0.926909 0
0.894835 0.94136 0
0.895323 0.944915 0
0.895521 0.946929 0
0.895552 0.946822 0
0.021088 0 0.0209812
0.021088 0 0.0209812
0.021088 0 0.0209812
0.0309606 0 0.0217441
0.0875257 0 0.0356146
0.235279 0.0285496 0.0773022
0.368978 0.0530251 0.105241
0.516091 0.070634 0.142535
0.664607 0.0974899 0.194217
0.808591 0.12137 0.245548
0.92488 0.16379 0.282704
1 0.186267 0.321096
1 0.197711 0.356451
1 0.196139 0.366629
1 0.196017 0.367483
1 0.195987 0.367651
1 0.195956 0.367834
0.0214084 0 0.0231327
0.0214084 0 0.0231327
0.0213016 0 0.0224155
0.0328069 0 0.0224308
0.0950332 0 0.0379339
0.235615 0.0285649 0.07776
0.370031 0.0540627 0.10277
0.515068 0.0711986 0.140719
0.661479 0.0973526 0.192279
0.805325 0.120668 0.244099
0.922133 0.163027 0.281788
1 0.184924 0.321172
1 0.197742 0.356283
1 0.196139 0.366629
1 0.196033 0.367315
1 0.195987 0.367651
1 0.195956 0.367834
0.0222019 0 0.0287938
0.0220951 0 0.0280919
0.0220035 0 0.0273899
0.0354162 0 0.0260471
0.110201 0 0.0436866
0.234455 0.0278172 0.079469
0.36025 0.0523384 0.10367
0.504158 0.068574 0.138445
0.650233 0.0950332 0.190524
0.793729 0.118608 0.242786
0.914107 0.163897 0.281651
1 0.194873 0.323125
1 0.229664 0.356649
1 0.237583 0.365789
1 0.237522 0.36611
1 0.236866 0.36614
1 0.237125 0.366461
0.035523 0.00111391 0.029633
0.0354009 0.0010071 0.0282139
0.035584 0 0.0264286
0.0454414 0 0.0259556
0.103105 0 0.0370336
0.221271 0.0316625 0.0700542
0.34435 0.0589609 0.0961013
0.489235 0.0768597 0.127306
0.631647 0.105577 0.182681
0.773083 0.128054 0.235538
0.898604 0.171435 0.276036
0.99501 0.210193 0.317342
1 0.256886 0.353826
1 0.271519 0.364981
1 0.273075 0.365103
1 0.275059 0.364904
1 0.276905 0.365179
0.052369 0.0684977 0.0284276
0.0519875 0.0678416 0.0276493
0.0509499 0.0664683 0.0255589
0.0534524 0.0617838 0.0237736
0.0790265 0.0535286 0.0269169
0.185245 0.0628519 0.0454108
0.327993 0.0876631 0.0644846
0.490303 0.10692 0.0996414
0.630594 0.140719 0.168856
0.76846 0.173587 0.225147
0.892164 0.20737 0.26566
0.986984 0.244739 0.303578
1 0.288441 0.344305
1 0.298772 0.363333
1 0.290776 0.363851
1 0.295003 0.363836
1 0.302724 0.364096
0.0551614 0.140414 0.069688
0.0551919 0.140139 0.069276
0.054902 0.139223 0.0690013
0.0561074 0.134813 0.0675975
0.0721141 0.125414 0.0677043
0.146304 0.1149 0.0702068
0.288914 0.128878 0.0506447
0.47187 0.151797 0.038819
0.636133 0.18143 0.100893
0.77319 0.21767 0.174395
0.886427 0.261189 0.235203
0.977462 0.302388 0.28072
1 0.353582 0.329747
1 0.372946 0.357107
1 0.370413 0.35903
1 0.375708 0.357229
1 0.385382 0.353979
0.0623484 0.214862 0.100649
0.0625467 0.214618 0.100282
0.0627146 0.213947 0.100069
0.0633707 0.21059 0.0984817
0.0705272 0.203265 0.0977951
0.118029 0.189746 0.0959793
0.229084 0.183948 0.0827344
0.409628 0.205753 0.0403449
0.600855 0.237858 0.0347295
0.772503 0.267674 0.0840009
0.900694 0.301595 0.148196
0.980804 0.343465 0.220096
1 0.398978 0.27924
1 0.423972 0.313237
1 0.427359 0.319753
1 0.432197 0.312093
1 0.441352 0.298878
0.0537423 0.300404 0.13962
0.0536049 0.300343 0.139315
0.0539559 0.299001 0.138994
0.0549783 0.295583 0.137377
0.0611276 0.288121 0.134844
0.0881208 0.275929 0.131884
0.176211 0.260182 0.12134
0.329061 0.26125 0.0957198
0.5346 0.290455 0.0354772
0.725521 0.326955 0.0255436
0.882902 0.360861 0.0446937
0.980499 0.392294 0.109636
1 0.444175 0.195193
1 0.470802 0.237659
1 0.478111 0.249104
1 0.487633 0.236774
0.999573 0.502815 0.21825
0.0424048 0.38996 0.170443
0.043061 0.389349 0.169757
0.0428016 0.388235 0.169589
0.0426947 0.384878 0.168627
0.0440681 0.378256 0.166522
0.0637675 0.369207 0.164355
0.114977 0.356176 0.161563
0.248508 0.340993 0.14464
0.437125 0.346792 0.101259
0.651499 0.378882 0.0164645
0.840558 0.425864 0
0.95845 0.459907 0.0174411
0.997833 0.507271 0.106813
0.995285 0.532265 0.161471
0.992447 0.54136 0.175708
0.990021 0.55375 0.163714
0.986145 0.573129 0.14464
0.0379797 0.475425 0.197284
0.0372473 0.474815 0.19707
0.0378271 0.47364 0.196765
0.0350652 0.471061 0.196338
0.0302586 0.465263 0.194736
0.0447852 0.455467 0.192126
0.0987716 0.445701 0.18967
0.18497 0.432166 0.185626
0.341665 0.420859 0.163058
0.537881 0.426841 0.0960403
0.76878 0.468788 0
0.92575 0.530449 0
0.980835 0.58114 0
0.981491 0.600534 0.0932174
0.979217 0.606836 0.109346
0.976074 0.621866 0.0955825
0.97113 0.646174 0.0704204
0.0318303 0.565179 0.219379
0.0315557 0.565148 0.219409
0.032166 0.564095 0.219165
0.0338293 0.560876 0.218082
0.0377508 0.553292 0.216495
0.0458534 0.544945 0.214405
0.0717632 0.535424 0.214649
0.147341 0.524437 0.213535
0.261997 0.510536 0.20914
0.428962 0.499718 0.179767
0.642771 0.502266 0.072343
0.869474 0.569665 0
0.960067 0.648173 0
0.967681 0.673655 0.00627146
0.965667 0.676829 0.0264744
0.9617 0.694545 0.0162814
0.955612 0.724422 0
0.0203403 0.65275 0.217182
0.0195926 0.652796 0.217319
0.0204318 0.65153 0.217563
0.0218357 0.648341 0.217929
0.0246281 0.642344 0.21854
0.0285801 0.634302 0.219745
0.0542916 0.624628 0.221546
0.10988 0.616388 0.224552
0.206546 0.608927 0.224872
0.351659 0.599527 0.217639
0.518944 0.584436 0.191531
0.759197 0.599603 0.0404059
0.932479 0.690181 0
0.951751 0.747265 0
0.949477 0.753323 0
0.944289 0.772641 0
0.93579 0.805371 0
0 0.74493 0.17409
0 0.744961 0.174029
0 0.744244 0.17496
0 0.741131 0.177905
0 0.736614 0.181704
0 0.728771 0.187488
0.00675975 0.720745 0.194598
0.0620737 0.711559 0.200122
0.20296 0.702815 0.198291
0.338003 0.701473 0.199939
0.482856 0.704982 0.199695
0.659129 0.702754 0.157931
0.86392 0.723934 0
0.934005 0.808408 0
0.930831 0.826017 0
0.925368 0.844282 0
0.917372 0.872557 0
0 0.821332 0.0706951
0 0.820752 0.0712749
0 0.820218 0.072221
0 0.818692 0.0750439
0 0.815671 0.0798962
0 0.811627 0.087129
0 0.807568 0.0960555
0 0.807172 0.105547
0.151354 0.797848 0.0951858
0.359182 0.799863 0.100114
0.527474 0.81062 0.121935
0.672084 0.824247 0.133028
0.805722 0.827604 0.08542
0.909773 0.847395 0
0.914595 0.880552 0
0.909209 0.901137 0
0.902541 0.921981 0
0 0.854856 0.00680552
0 0.854917 0.00709545
0 0.854765 0.00749218
0 0.854231 0.00805676
0 0.853407 0.00946059
0 0.852491 0.0114748
0 0.850629 0.0144503
0 0.853162 0.016968
0.0431678 0.85507 0.0146487
0.325231 0.854932 0.00674449
0.536843 0.869505 0.0437324
0.69044 0.886122 0.0597391
0.809979 0.897139 0.0413825
0.889494 0.90837 0
0.901228 0.920302 0
0.897978 0.935851 0
0.896834 0.940307 0
0 0.855024 0.00764477
0 0.855024 0.00764477
0 0.855024 0.00764477
0 0.855024 0.00764477
0 0.855024 0.00764477
0 0.855131 0.00735485
0 0.854704 0.00750744
0 0.857603 0.00666819
0 0.867628 0.00717174
0.308812 0.863935 0
0.538552 0.881743 0.01355
0.700511 0.902068 0.0284886
0.820905 0.916014 0.00598154
0.890028 0.930343 0
0.896239 0.938277 0
0.896132 0.942229 0
0.895735 0.94519 0
0 0.862135 0.00560006
0 0.862135 0.00598154
0 0.86215 0.00672923
0 0.862119 0.00683604
0 0.862196 0.0065919
0 0.86099 0.0065919
0 0.857679 0.00802625
0 0.859617 0.00541695
0 0.872145 0.00283818
0.306111 0.870207 0
0.557641 0.89012 0.00668345
0.730694 0.912474 0.0201114
0.855406 0.926482 0
0.89485 0.941238 0
0.895338 0.944793 0
0.895521 0.946929 0
0.895552 0.946822 0
0.0418097 0 0.143343
0.0413825 0 0.140459
0.0402228 0 0.132876
0.0396582 0 0.129335
0.053727 0 0.15906
0.160098 0.00105287 0.210849
0.309422 0.0206912 0.225559
0.481331 0.0444953 0.204227
0.635157 0.0722667 0.217929
0.78262 0.100832 0.262272
0.906905 0.149538 0.297871
1 0.172 0.338033
1 0.19556 0.370413
1 0.194202 0.379156
1 0.19382 0.381552
1 0.193317 0.384802
1 0.192706 0.388724
0.0411994 0 0.139925
0.0410315 0 0.138201
0.0399634 0 0.131182
0.0393378 0 0.126986
0.0624094 0 0.155138
0.165728 0.000793469 0.204059
0.30988 0.0227207 0.211185
0.480613 0.0471809 0.192172
0.635691 0.0755016 0.213184
0.78265 0.102815 0.25861
0.906645 0.150958 0.294347
1 0.17348 0.334905
1 0.196094 0.366964
1 0.194629 0.37641
1 0.194308 0.37847
1 0.193805 0.38172
