site/assets/luts/freshluts--0001220-rd-cube.cube
# LUTr-Schema-Version: 2
# LUTr-ID: freshluts--0001220-rd-cube
# LUTr-Title: RD CUBE
# LUTr-Collection: Fresh LUTs
# LUTr-Collection-ID: freshluts-community
# LUTr-Source: https://freshluts.com
# LUTr-Retrieved: 2026-07-27
# LUTr-Source-File: submissions-raw/freshluts/cubes/1220__RD_CUBE.cube
# LUTr-Source-Format: CUBE
# LUTr-Source-SHA256: 8fdc54064e88d6075b8f339b11fe88277024432e93570b1e641117b2e105d5ee
# LUTr-License: CC0-1.0
# LUTr-License-URL: https://freshluts.com/termsandconditions
# LUTr-License-Basis: site-terms
# LUTr-Transform-Class: creative-look
# LUTr-Tags: creative, freshluts, community, cube, blue, sony-s-log3
# LUTr-Input-Color-Space:
# LUTr-Input-Gamut: sony-s-gamut3
# LUTr-Input-Transfer: sony-s-log3
# LUTr-Output-Color-Space: srgb
# LUTr-Output-Gamut: rec709
# LUTr-Output-Transfer: srgb
# LUTr-Color-Space-Confidence: camera-profile-input-required
# LUTr-Domain-Normalized: true
# LUTr-Shaper: none
# LUTr-Original-Grid: 33x33x33
# LUTr-Conversion-Grid: 33x33x33
# LUTr-Conversion-Interpolation: none
# LUTr-Conversion-Method: Metadata normalization; numeric LUT samples preserved
# LUTr-Conversion-Tool: LUTr scripts/convert-all-to-cube.mjs 2.0.0
# LUTr-Conversion-Date: 2026-07-28
# LUTr-Asset-URL: https://freshluts.com/luts/1220
# LUTr-Author: Antony Eliezer
# LUTr-Author-URL: https://freshluts.com/users/32961
# LUTr-Attribution: Antony Eliezer via Fresh LUTs
# LUTr-Source-Labels: gamma=Sony S-Log 3; color=Blue; key=Neutral; style=Adventure
# LUTr-Note: Preserve this metadata and the upstream license notices when redistributing.
# LUTr-Upstream-Comment: VEGAS Pro LUT
TITLE "RD CUBE"
LUT_3D_SIZE 5
DOMAIN_MIN 0 0 0
DOMAIN_MAX 1 1 1
0.04055658 0.04035254 0.04058388
0.09661085 0.06668251 0.06185738
0.28880256 0.11562093 0.09250111
0.52678967 0.12748146 0.08799502
0.68186289 0.1340808 0.0873308
0.08755034 0.08702438 0.07111972
0.18676314 0.12599115 0.09292934
0.44246954 0.1691577 0.09634575
0.65354824 0.18963084 0.09190103
0.75009495 0.17886956 0.09139304
0.1319346 0.29589045 0.08403792
0.36666304 0.35843128 0.09363938
0.59962767 0.3763144 0.12603654
0.73701978 0.39233464 0.14580023
0.81718957 0.38690168 0.1533664
0.36387789 0.53807712 0.11217315
0.55647892 0.58885157 0.19904123
0.71278501 0.62534237 0.26706168
0.81400311 0.62894124 0.27341837
0.86853993 0.64714718 0.28285658
0.43725842 0.6922462 0.26376909
0.56249827 0.72929132 0.3287071
0.70634753 0.77111709 0.38935426
0.83038181 0.802589 0.42550743
0.87965775 0.84441817 0.52747917
0.04646074 0.05062445 0.05455211
0.1024043 0.08080554 0.08392306
0.31342784 0.12388606 0.10573243
0.53276616 0.13123721 0.09996817
0.67998266 0.1363095 0.09950065
0.07502519 0.10248163 0.08975898
0.149895 0.17687024 0.1464054
0.4808065 0.22675925 0.16363689
0.66118735 0.23766947 0.16922654
0.75032371 0.21189544 0.16215543
0.09468085 0.31844226 0.10661248
0.25621593 0.41529581 0.14244224
0.58863533 0.47754765 0.28968197
0.7263881 0.48758408 0.32164291
0.80037332 0.47209167 0.31149486
0.12009978 0.52050561 0.11107674
0.40660572 0.59464049 0.23201084
0.65674889 0.66460836 0.37389883
0.79791665 0.68573993 0.41965619
0.86864746 0.70125538 0.42900813
0.27047905 0.67824066 0.26095688
0.47526324 0.71239805 0.34493336
0.65342402 0.77261037 0.44917396
0.81114256 0.81780624 0.52018845
0.88138831 0.85788023 0.62543219
0.05793559 0.07088704 0.08041702
0.07074986 0.08998526 0.10705633
0.33004662 0.15990034 0.15647006
0.5588572 0.17601997 0.14618516
0.69273102 0.17654175 0.14741139
0.0795517 0.1228546 0.13700278
0.09128236 0.16470718 0.19519384
0.43250611 0.30583185 0.33897194
0.65755576 0.2986035 0.28672013
0.73131806 0.27991024 0.28288451
0.06884281 0.36012772 0.28715307
0.07332949 0.45597857 0.37720531
0.48157147 0.56124377 0.5024122
0.69737762 0.57067704 0.51356494
0.77666765 0.54622042 0.49126613
0.09468227 0.57898688 0.36797753
0.27880573 0.63670826 0.43451235
0.58366901 0.7010234 0.53614455
0.75944197 0.74094081 0.60888338
0.86359572 0.74979979 0.62106514
0.21537903 0.71511358 0.44394296
0.41100204 0.73469311 0.47449198
0.62908292 0.78365397 0.57160211
0.78694737 0.83410817 0.65981483
0.8817665 0.86920309 0.71723163
0.06686439 0.09122987 0.11051342
0.07600426 0.11049143 0.13777789
0.17336293 0.20921902 0.25773427
0.57282293 0.23234025 0.22169168
0.69463187 0.254859 0.24022876
0.08029754 0.14679088 0.18819761
0.08225986 0.17546855 0.2448751
0.15596181 0.34812465 0.46664178
0.60632932 0.36737239 0.45168364
0.69570053 0.35320562 0.41735658
0.06181519 0.37072131 0.39377224
0.06217128 0.4499242 0.47251803
0.26871821 0.56591117 0.58142632
0.64008158 0.60060042 0.64003056
0.7480244 0.59210485 0.61956823
0.09138202 0.60177314 0.51523554
0.12071778 0.64039516 0.55118376
0.42319486 0.70676422 0.64118123
0.70843643 0.75209546 0.71040171
0.83972836 0.77212507 0.73654008
0.1861036 0.7442984 0.57416856
0.29380277 0.7651664 0.60916126
0.59046829 0.79899257 0.67896175
0.7722832 0.83924997 0.74923921
0.87455994 0.87285328 0.80026394
0.07484137 0.11808205 0.1576121
0.07752264 0.13285169 0.19526196
0.0874458 0.19356301 0.31208798
0.54188371 0.35375601 0.44765118
0.66594088 0.35440788 0.40276584
0.07809375 0.18206967 0.27121192
0.07530782 0.2118479 0.33006209
0.08189509 0.36460623 0.51607716
0.50726402 0.42852184 0.63384491
0.66747236 0.37691361 0.55250418
0.05520594 0.40835619 0.47972062
0.05150172 0.45198616 0.52346432
0.10209295 0.55872637 0.61138475
0.55042821 0.62984401 0.70435095
0.72325748 0.61806524 0.69627684
0.09321228 0.62016958 0.60005128
0.11673318 0.65251088 0.63667876
0.33600041 0.71503681 0.70384347
0.6548481 0.75809628 0.76576942
0.80192512 0.77324182 0.78475648
0.18560188 0.76926184 0.67950565
0.20947807 0.78571421 0.6982916
0.47286093 0.8120032 0.7516253
0.75294048 0.84809536 0.81580508
0.85650092 0.86477089 0.84061217
