site/assets/luts/freshluts--0001974-atikan.cube
# LUTr-Schema-Version: 2
# LUTr-ID: freshluts--0001974-atikan
# LUTr-Title: Atikan
# LUTr-Collection: Fresh LUTs
# LUTr-Collection-ID: freshluts-community
# LUTr-Source: https://freshluts.com
# LUTr-Retrieved: 2026-07-27
# LUTr-Source-File: submissions-raw/freshluts/cubes/1974__Atikan.cube
# LUTr-Source-Format: CUBE
# LUTr-Source-SHA256: 85cecc9df92923efd541b9c305dde3b8092a46bd4bc1d5d903cc7a6d50215a76
# LUTr-License: CC0-1.0
# LUTr-License-URL: https://freshluts.com/termsandconditions
# LUTr-License-Basis: site-terms
# LUTr-Transform-Class: creative-look
# LUTr-Tags: creative, freshluts, community, cube, warm, low-key, rec709
# LUTr-Input-Color-Space: rec709
# LUTr-Input-Gamut: rec709
# LUTr-Input-Transfer: rec709
# LUTr-Output-Color-Space: srgb
# LUTr-Output-Gamut: rec709
# LUTr-Output-Transfer: srgb
# LUTr-Color-Space-Confidence: declared-by-source
# LUTr-Domain-Normalized: true
# LUTr-Shaper: none
# LUTr-Original-Grid: 16x16x16
# LUTr-Conversion-Grid: 16x16x16
# LUTr-Conversion-Interpolation: none
# LUTr-Conversion-Method: Metadata normalization; numeric LUT samples preserved
# LUTr-Conversion-Tool: LUTr scripts/convert-all-to-cube.mjs 2.0.0
# LUTr-Conversion-Date: 2026-07-28
# LUTr-Asset-URL: https://freshluts.com/luts/1974
# LUTr-Author: InAvision
# LUTr-Author-URL: https://freshluts.com/users/64078
# LUTr-Attribution: InAvision via Fresh LUTs
# LUTr-Source-Labels: gamma=Rec 709; color=Warm; key=Low Key; style=Cinematic/Dark
# LUTr-Note: Preserve this metadata and the upstream license notices when redistributing.
TITLE "Atikan"
LUT_3D_SIZE 16
DOMAIN_MIN 0 0 0
DOMAIN_MAX 1 1 1
0 0 0
0.065745 0 0
0.136886 0 0
0.205919 0 0
0.272137 0 0
0.336444 0 0
0.399278 0 0
0.460867 0 0
0.52152 0 0
0.581337 0 0
0.640331 0 0
0.69874 0 0
0.756506 0 0
0.81381 0 0
0.870471 0 0
0.926213 0 0
0 0.061799 0
0.065745 0.061799 0
0.136886 0.061799 0
0.205919 0.061799 0
0.272137 0.061799 0
0.336444 0.061799 0
0.399278 0.061799 0
0.460867 0.061799 0
0.52152 0.061799 0
0.581337 0.061799 0
0.640331 0.061799 0
0.69874 0.061799 0
0.756506 0.061799 0
0.81381 0.061799 0
0.870471 0.061799 0
0.926213 0.061799 0
0 0.131143 0
0.065745 0.131143 0
0.136886 0.131143 0
0.205919 0.131143 0
0.272137 0.131143 0
0.336444 0.131143 0
0.399278 0.131143 0
0.460867 0.131143 0
0.52152 0.131143 0
0.581337 0.131143 0
0.640331 0.131143 0
0.69874 0.131143 0
0.756506 0.131143 0
0.81381 0.131143 0
0.870471 0.131143 0
0.926213 0.131143 0
0 0.199261 0
0.065745 0.199261 0
0.136886 0.199261 0
0.205919 0.199261 0
0.272137 0.199261 0
0.336444 0.199261 0
0.399278 0.199261 0
0.460867 0.199261 0
0.52152 0.199261 0
0.581337 0.199261 0
0.640331 0.199261 0
0.69874 0.199261 0
0.756506 0.199261 0
0.81381 0.199261 0
0.870471 0.199261 0
0.926213 0.199261 0
0 0.265013 0
0.065745 0.265013 0
0.136886 0.265013 0
0.205919 0.265013 0
0.272137 0.265013 0
0.336444 0.265013 0
0.399278 0.265013 0
0.460867 0.265013 0
0.52152 0.265013 0
0.581337 0.265013 0
0.640331 0.265013 0
0.69874 0.265013 0
0.756506 0.265013 0
0.81381 0.265013 0
0.870471 0.265013 0
0.926213 0.265013 0
0 0.329151 0
0.065745 0.329151 0
0.136886 0.329151 0
0.205919 0.329151 0
0.272137 0.329151 0
0.336444 0.329151 0
0.399278 0.329151 0
0.460867 0.329151 0
0.52152 0.329151 0
0.581337 0.329151 0
0.640331 0.329151 0
0.69874 0.329151 0
0.756506 0.329151 0
0.81381 0.329151 0
0.870471 0.329151 0
0.926213 0.329151 0
0 0.392017 0
0.065745 0.392017 0
0.136886 0.392017 0
0.205919 0.392017 0
0.272137 0.392017 0
0.336444 0.392017 0
0.399278 0.392017 0
0.460867 0.392017 0
0.52152 0.392017 0
0.581337 0.392017 0
0.640331 0.392017 0
0.69874 0.392017 0
0.756506 0.392017 0
0.81381 0.392017 0
0.870471 0.392017 0
0.926213 0.392017 0
0 0.453843 0
0.065745 0.453843 0
0.136886 0.453843 0
0.205919 0.453843 0
0.272137 0.453843 0
0.336444 0.453843 0
0.399278 0.453843 0
0.460867 0.453843 0
0.52152 0.453843 0
0.581337 0.453843 0
0.640331 0.453843 0
0.69874 0.453843 0
0.756506 0.453843 0
0.81381 0.453843 0
0.870471 0.453843 0
0.926213 0.453843 0
0 0.514848 0
0.065745 0.514848 0
0.136886 0.514848 0
0.205919 0.514848 0
0.272137 0.514848 0
0.336444 0.514848 0
0.399278 0.514848 0
0.460867 0.514848 0
0.52152 0.514848 0
0.581337 0.514848 0
0.640331 0.514848 0
0.69874 0.514848 0
0.756506 0.514848 0
0.81381 0.514848 0
0.870471 0.514848 0
0.926213 0.514848 0
0 0.575177 0
0.065745 0.575177 0
0.136886 0.575177 0
0.205919 0.575177 0
0.272137 0.575177 0
0.336444 0.575177 0
0.399278 0.575177 0
0.460867 0.575177 0
0.52152 0.575177 0
0.581337 0.575177 0
0.640331 0.575177 0
0.69874 0.575177 0
0.756506 0.575177 0
0.81381 0.575177 0
0.870471 0.575177 0
0.926213 0.575177 0
0 0.634769 0
0.065745 0.634769 0
0.136886 0.634769 0
0.205919 0.634769 0
0.272137 0.634769 0
0.336444 0.634769 0
0.399278 0.634769 0
0.460867 0.634769 0
0.52152 0.634769 0
0.581337 0.634769 0
0.640331 0.634769 0
0.69874 0.634769 0
0.756506 0.634769 0
0.81381 0.634769 0
0.870471 0.634769 0
0.926213 0.634769 0
0 0.6939 0
0.065745 0.6939 0
0.136886 0.6939 0
0.205919 0.6939 0
0.272137 0.6939 0
0.336444 0.6939 0
0.399278 0.6939 0
0.460867 0.6939 0
0.52152 0.6939 0
0.581337 0.6939 0
0.640331 0.6939 0
0.69874 0.6939 0
0.756506 0.6939 0
0.81381 0.6939 0
0.870471 0.6939 0
0.926213 0.6939 0
0 0.752434 0
0.065745 0.752434 0
0.136886 0.752434 0
0.205919 0.752434 0
0.272137 0.752434 0
0.336444 0.752434 0
0.399278 0.752434 0
0.460867 0.752434 0
0.52152 0.752434 0
0.581337 0.752434 0
0.640331 0.752434 0
0.69874 0.752434 0
0.756506 0.752434 0
0.81381 0.752434 0
0.870471 0.752434 0
0.926213 0.752434 0
0 0.810611 0
0.065745 0.810611 0
0.136886 0.810611 0
0.205919 0.810611 0
0.272137 0.810611 0
0.336444 0.810611 0
0.399278 0.810611 0
0.460867 0.810611 0
0.52152 0.810611 0
0.581337 0.810611 0
0.640331 0.810611 0
0.69874 0.810611 0
0.756506 0.810611 0
0.81381 0.810611 0
0.870471 0.810611 0
0.926213 0.810611 0
0 0.868134 0
0.065745 0.868134 0
0.136886 0.868134 0
0.205919 0.868134 0
0.272137 0.868134 0
0.336444 0.868134 0
0.399278 0.868134 0
0.460867 0.868134 0
0.52152 0.868134 0
0.581337 0.868134 0
0.640331 0.868134 0
0.69874 0.868134 0
0.756506 0.868134 0
0.81381 0.868134 0
0.870471 0.868134 0
0.926213 0.868134 0
0 0.924889 0
0.065745 0.924889 0
0.136886 0.924889 0
0.205919 0.924889 0
0.272137 0.924889 0
0.336444 0.924889 0
0.399278 0.924889 0
0.460867 0.924889 0
0.52152 0.924889 0
0.581337 0.924889 0
0.640331 0.924889 0
0.69874 0.924889 0
0.756506 0.924889 0
0.81381 0.924889 0
0.870471 0.924889 0
0.926213 0.924889 0
0 0 0.043352
0.065745 0 0.043352
0.136886 0 0.043352
0.205919 0 0.043352
0.272137 0 0.043352
0.336444 0 0.043352
0.399278 0 0.043352
0.460867 0 0.043352
0.52152 0 0.043352
0.581337 0 0.043352
0.640331 0 0.043352
0.69874 0 0.043352
0.756506 0 0.043352
0.81381 0 0.043352
0.870471 0 0.043352
0.926213 0 0.043352
0 0.061799 0.043352
0.065745 0.061799 0.043352
0.136886 0.061799 0.043352
0.205919 0.061799 0.043352
0.272137 0.061799 0.043352
0.336444 0.061799 0.043352
0.399278 0.061799 0.043352
0.460867 0.061799 0.043352
0.52152 0.061799 0.043352
0.581337 0.061799 0.043352
0.640331 0.061799 0.043352
0.69874 0.061799 0.043352
0.756506 0.061799 0.043352
0.81381 0.061799 0.043352
0.870471 0.061799 0.043352
0.926213 0.061799 0.043352
0 0.131143 0.043352
0.065745 0.131143 0.043352
0.136886 0.131143 0.043352
0.205919 0.131143 0.043352
0.272137 0.131143 0.043352
0.336444 0.131143 0.043352
0.399278 0.131143 0.043352
0.460867 0.131143 0.043352
0.52152 0.131143 0.043352
0.581337 0.131143 0.043352
0.640331 0.131143 0.043352
0.69874 0.131143 0.043352
0.756506 0.131143 0.043352
0.81381 0.131143 0.043352
0.870471 0.131143 0.043352
0.926213 0.131143 0.043352
0 0.199261 0.043352
0.065745 0.199261 0.043352
0.136886 0.199261 0.043352
0.205919 0.199261 0.043352
0.272137 0.199261 0.043352
0.336444 0.199261 0.043352
0.399278 0.199261 0.043352
0.460867 0.199261 0.043352
0.52152 0.199261 0.043352
0.581337 0.199261 0.043352
0.640331 0.199261 0.043352
0.69874 0.199261 0.043352
0.756506 0.199261 0.043352
0.81381 0.199261 0.043352
0.870471 0.199261 0.043352
0.926213 0.199261 0.043352
0 0.265013 0.043352
0.065745 0.265013 0.043352
0.136886 0.265013 0.043352
0.205919 0.265013 0.043352
0.272137 0.265013 0.043352
0.336444 0.265013 0.043352
0.399278 0.265013 0.043352
0.460867 0.265013 0.043352
0.52152 0.265013 0.043352
0.581337 0.265013 0.043352
0.640331 0.265013 0.043352
0.69874 0.265013 0.043352
0.756506 0.265013 0.043352
0.81381 0.265013 0.043352
0.870471 0.265013 0.043352
0.926213 0.265013 0.043352
0 0.329151 0.043352
0.065745 0.329151 0.043352
0.136886 0.329151 0.043352
0.205919 0.329151 0.043352
0.272137 0.329151 0.043352
0.336444 0.329151 0.043352
0.399278 0.329151 0.043352
0.460867 0.329151 0.043352
0.52152 0.329151 0.043352
0.581337 0.329151 0.043352
0.640331 0.329151 0.043352
0.69874 0.329151 0.043352
0.756506 0.329151 0.043352
0.81381 0.329151 0.043352
0.870471 0.329151 0.043352
0.926213 0.329151 0.043352
0 0.392017 0.043352
0.065745 0.392017 0.043352
0.136886 0.392017 0.043352
0.205919 0.392017 0.043352
0.272137 0.392017 0.043352
0.336444 0.392017 0.043352
0.399278 0.392017 0.043352
0.460867 0.392017 0.043352
0.52152 0.392017 0.043352
0.581337 0.392017 0.043352
0.640331 0.392017 0.043352
0.69874 0.392017 0.043352
0.756506 0.392017 0.043352
0.81381 0.392017 0.043352
0.870471 0.392017 0.043352
0.926213 0.392017 0.043352
0 0.453843 0.043352
0.065745 0.453843 0.043352
0.136886 0.453843 0.043352
0.205919 0.453843 0.043352
0.272137 0.453843 0.043352
0.336444 0.453843 0.043352
0.399278 0.453843 0.043352
0.460867 0.453843 0.043352
0.52152 0.453843 0.043352
0.581337 0.453843 0.043352
0.640331 0.453843 0.043352
0.69874 0.453843 0.043352
0.756506 0.453843 0.043352
0.81381 0.453843 0.043352
0.870471 0.453843 0.043352
0.926213 0.453843 0.043352
0 0.514848 0.043352
0.065745 0.514848 0.043352
0.136886 0.514848 0.043352
0.205919 0.514848 0.043352
0.272137 0.514848 0.043352
0.336444 0.514848 0.043352
0.399278 0.514848 0.043352
0.460867 0.514848 0.043352
0.52152 0.514848 0.043352
0.581337 0.514848 0.043352
0.640331 0.514848 0.043352
0.69874 0.514848 0.043352
0.756506 0.514848 0.043352
0.81381 0.514848 0.043352
0.870471 0.514848 0.043352
0.926213 0.514848 0.043352
0 0.575177 0.043352
0.065745 0.575177 0.043352
0.136886 0.575177 0.043352
0.205919 0.575177 0.043352
0.272137 0.575177 0.043352
0.336444 0.575177 0.043352
0.399278 0.575177 0.043352
0.460867 0.575177 0.043352
0.52152 0.575177 0.043352
0.581337 0.575177 0.043352
0.640331 0.575177 0.043352
0.69874 0.575177 0.043352
0.756506 0.575177 0.043352
0.81381 0.575177 0.043352
0.870471 0.575177 0.043352
0.926213 0.575177 0.043352
0 0.634769 0.043352
0.065745 0.634769 0.043352
0.136886 0.634769 0.043352
0.205919 0.634769 0.043352
0.272137 0.634769 0.043352
0.336444 0.634769 0.043352
0.399278 0.634769 0.043352
0.460867 0.634769 0.043352
0.52152 0.634769 0.043352
0.581337 0.634769 0.043352
0.640331 0.634769 0.043352
0.69874 0.634769 0.043352
0.756506 0.634769 0.043352
0.81381 0.634769 0.043352
0.870471 0.634769 0.043352
0.926213 0.634769 0.043352
0 0.6939 0.043352
0.065745 0.6939 0.043352
0.136886 0.6939 0.043352
0.205919 0.6939 0.043352
0.272137 0.6939 0.043352
0.336444 0.6939 0.043352
0.399278 0.6939 0.043352
0.460867 0.6939 0.043352
0.52152 0.6939 0.043352
0.581337 0.6939 0.043352
0.640331 0.6939 0.043352
0.69874 0.6939 0.043352
0.756506 0.6939 0.043352
0.81381 0.6939 0.043352
0.870471 0.6939 0.043352
0.926213 0.6939 0.043352
0 0.752434 0.043352
0.065745 0.752434 0.043352
0.136886 0.752434 0.043352
0.205919 0.752434 0.043352
0.272137 0.752434 0.043352
0.336444 0.752434 0.043352
0.399278 0.752434 0.043352
0.460867 0.752434 0.043352
0.52152 0.752434 0.043352
0.581337 0.752434 0.043352
0.640331 0.752434 0.043352
0.69874 0.752434 0.043352
0.756506 0.752434 0.043352
0.81381 0.752434 0.043352
0.870471 0.752434 0.043352
0.926213 0.752434 0.043352
0 0.810611 0.043352
0.065745 0.810611 0.043352
0.136886 0.810611 0.043352
0.205919 0.810611 0.043352
0.272137 0.810611 0.043352
0.336444 0.810611 0.043352
0.399278 0.810611 0.043352
0.460867 0.810611 0.043352
0.52152 0.810611 0.043352
0.581337 0.810611 0.043352
0.640331 0.810611 0.043352
0.69874 0.810611 0.043352
0.756506 0.810611 0.043352
0.81381 0.810611 0.043352
0.870471 0.810611 0.043352
0.926213 0.810611 0.043352
0 0.868134 0.043352
0.065745 0.868134 0.043352
0.136886 0.868134 0.043352
0.205919 0.868134 0.043352
0.272137 0.868134 0.043352
0.336444 0.868134 0.043352
0.399278 0.868134 0.043352
0.460867 0.868134 0.043352
0.52152 0.868134 0.043352
0.581337 0.868134 0.043352
0.640331 0.868134 0.043352
0.69874 0.868134 0.043352
0.756506 0.868134 0.043352
0.81381 0.868134 0.043352
0.870471 0.868134 0.043352
0.926213 0.868134 0.043352
0 0.924889 0.043352
0.065745 0.924889 0.043352
0.136886 0.924889 0.043352
0.205919 0.924889 0.043352
0.272137 0.924889 0.043352
0.336444 0.924889 0.043352
0.399278 0.924889 0.043352
0.460867 0.924889 0.043352
0.52152 0.924889 0.043352
0.581337 0.924889 0.043352
0.640331 0.924889 0.043352
0.69874 0.924889 0.043352
0.756506 0.924889 0.043352
0.81381 0.924889 0.043352
0.870471 0.924889 0.043352
0.926213 0.924889 0.043352
0 0 0.101488
0.065745 0 0.101488
0.136886 0 0.101488
0.205919 0 0.101488
0.272137 0 0.101488
0.336444 0 0.101488
0.399278 0 0.101488
0.460867 0 0.101488
0.52152 0 0.101488
0.581337 0 0.101488
0.640331 0 0.101488
0.69874 0 0.101488
0.756506 0 0.101488
0.81381 0 0.101488
0.870471 0 0.101488
0.926213 0 0.101488
0 0.061799 0.101488
0.065745 0.061799 0.101488
0.136886 0.061799 0.101488
0.205919 0.061799 0.101488
0.272137 0.061799 0.101488
0.336444 0.061799 0.101488
0.399278 0.061799 0.101488
0.460867 0.061799 0.101488
0.52152 0.061799 0.101488
0.581337 0.061799 0.101488
0.640331 0.061799 0.101488
0.69874 0.061799 0.101488
0.756506 0.061799 0.101488
0.81381 0.061799 0.101488
0.870471 0.061799 0.101488
0.926213 0.061799 0.101488
0 0.131143 0.101488
0.065745 0.131143 0.101488
0.136886 0.131143 0.101488
0.205919 0.131143 0.101488
0.272137 0.131143 0.101488
0.336444 0.131143 0.101488
0.399278 0.131143 0.101488
0.460867 0.131143 0.101488
0.52152 0.131143 0.101488
0.581337 0.131143 0.101488
0.640331 0.131143 0.101488
0.69874 0.131143 0.101488
0.756506 0.131143 0.101488
0.81381 0.131143 0.101488
0.870471 0.131143 0.101488
0.926213 0.131143 0.101488
0 0.199261 0.101488
0.065745 0.199261 0.101488
0.136886 0.199261 0.101488
0.205919 0.199261 0.101488
0.272137 0.199261 0.101488
0.336444 0.199261 0.101488
0.399278 0.199261 0.101488
0.460867 0.199261 0.101488
0.52152 0.199261 0.101488
0.581337 0.199261 0.101488
0.640331 0.199261 0.101488
0.69874 0.199261 0.101488
0.756506 0.199261 0.101488
0.81381 0.199261 0.101488
0.870471 0.199261 0.101488
0.926213 0.199261 0.101488
0 0.265013 0.101488
0.065745 0.265013 0.101488
0.136886 0.265013 0.101488
0.205919 0.265013 0.101488
0.272137 0.265013 0.101488
0.336444 0.265013 0.101488
0.399278 0.265013 0.101488
0.460867 0.265013 0.101488
0.52152 0.265013 0.101488
0.581337 0.265013 0.101488
0.640331 0.265013 0.101488
0.69874 0.265013 0.101488
0.756506 0.265013 0.101488
0.81381 0.265013 0.101488
0.870471 0.265013 0.101488
0.926213 0.265013 0.101488
0 0.329151 0.101488
0.065745 0.329151 0.101488
0.136886 0.329151 0.101488
0.205919 0.329151 0.101488
0.272137 0.329151 0.101488
0.336444 0.329151 0.101488
0.399278 0.329151 0.101488
0.460867 0.329151 0.101488
0.52152 0.329151 0.101488
0.581337 0.329151 0.101488
0.640331 0.329151 0.101488
0.69874 0.329151 0.101488
0.756506 0.329151 0.101488
0.81381 0.329151 0.101488
0.870471 0.329151 0.101488
0.926213 0.329151 0.101488
0 0.392017 0.101488
0.065745 0.392017 0.101488
0.136886 0.392017 0.101488
0.205919 0.392017 0.101488
0.272137 0.392017 0.101488
0.336444 0.392017 0.101488
0.399278 0.392017 0.101488
0.460867 0.392017 0.101488
0.52152 0.392017 0.101488
0.581337 0.392017 0.101488
0.640331 0.392017 0.101488
0.69874 0.392017 0.101488
0.756506 0.392017 0.101488
0.81381 0.392017 0.101488
0.870471 0.392017 0.101488
0.926213 0.392017 0.101488
0 0.453843 0.101488
0.065745 0.453843 0.101488
0.136886 0.453843 0.101488
0.205919 0.453843 0.101488
0.272137 0.453843 0.101488
0.336444 0.453843 0.101488
0.399278 0.453843 0.101488
0.460867 0.453843 0.101488
0.52152 0.453843 0.101488
0.581337 0.453843 0.101488
0.640331 0.453843 0.101488
0.69874 0.453843 0.101488
0.756506 0.453843 0.101488
0.81381 0.453843 0.101488
0.870471 0.453843 0.101488
0.926213 0.453843 0.101488
0 0.514848 0.101488
0.065745 0.514848 0.101488
0.136886 0.514848 0.101488
0.205919 0.514848 0.101488
0.272137 0.514848 0.101488
0.336444 0.514848 0.101488
0.399278 0.514848 0.101488
0.460867 0.514848 0.101488
0.52152 0.514848 0.101488
0.581337 0.514848 0.101488
0.640331 0.514848 0.101488
0.69874 0.514848 0.101488
0.756506 0.514848 0.101488
0.81381 0.514848 0.101488
0.870471 0.514848 0.101488
0.926213 0.514848 0.101488
0 0.575177 0.101488
0.065745 0.575177 0.101488
0.136886 0.575177 0.101488
0.205919 0.575177 0.101488
0.272137 0.575177 0.101488
0.336444 0.575177 0.101488
0.399278 0.575177 0.101488
0.460867 0.575177 0.101488
0.52152 0.575177 0.101488
0.581337 0.575177 0.101488
0.640331 0.575177 0.101488
0.69874 0.575177 0.101488
0.756506 0.575177 0.101488
0.81381 0.575177 0.101488
0.870471 0.575177 0.101488
0.926213 0.575177 0.101488
0 0.634769 0.101488
0.065745 0.634769 0.101488
0.136886 0.634769 0.101488
0.205919 0.634769 0.101488
0.272137 0.634769 0.101488
0.336444 0.634769 0.101488
0.399278 0.634769 0.101488
0.460867 0.634769 0.101488
0.52152 0.634769 0.101488
0.581337 0.634769 0.101488
0.640331 0.634769 0.101488
0.69874 0.634769 0.101488
0.756506 0.634769 0.101488
0.81381 0.634769 0.101488
0.870471 0.634769 0.101488
0.926213 0.634769 0.101488
0 0.6939 0.101488
0.065745 0.6939 0.101488
0.136886 0.6939 0.101488
0.205919 0.6939 0.101488
0.272137 0.6939 0.101488
0.336444 0.6939 0.101488
0.399278 0.6939 0.101488
0.460867 0.6939 0.101488
0.52152 0.6939 0.101488
0.581337 0.6939 0.101488
0.640331 0.6939 0.101488
0.69874 0.6939 0.101488
0.756506 0.6939 0.101488
0.81381 0.6939 0.101488
0.870471 0.6939 0.101488
0.926213 0.6939 0.101488
0 0.752434 0.101488
0.065745 0.752434 0.101488
0.136886 0.752434 0.101488
0.205919 0.752434 0.101488
0.272137 0.752434 0.101488
0.336444 0.752434 0.101488
0.399278 0.752434 0.101488
0.460867 0.752434 0.101488
0.52152 0.752434 0.101488
0.581337 0.752434 0.101488
0.640331 0.752434 0.101488
0.69874 0.752434 0.101488
0.756506 0.752434 0.101488
0.81381 0.752434 0.101488
0.870471 0.752434 0.101488
0.926213 0.752434 0.101488
0 0.810611 0.101488
0.065745 0.810611 0.101488
0.136886 0.810611 0.101488
0.205919 0.810611 0.101488
0.272137 0.810611 0.101488
0.336444 0.810611 0.101488
0.399278 0.810611 0.101488
0.460867 0.810611 0.101488
0.52152 0.810611 0.101488
0.581337 0.810611 0.101488
0.640331 0.810611 0.101488
0.69874 0.810611 0.101488
0.756506 0.810611 0.101488
0.81381 0.810611 0.101488
0.870471 0.810611 0.101488
0.926213 0.810611 0.101488
0 0.868134 0.101488
0.065745 0.868134 0.101488
0.136886 0.868134 0.101488
0.205919 0.868134 0.101488
0.272137 0.868134 0.101488
0.336444 0.868134 0.101488
0.399278 0.868134 0.101488
0.460867 0.868134 0.101488
0.52152 0.868134 0.101488
0.581337 0.868134 0.101488
0.640331 0.868134 0.101488
0.69874 0.868134 0.101488
0.756506 0.868134 0.101488
0.81381 0.868134 0.101488
0.870471 0.868134 0.101488
0.926213 0.868134 0.101488
0 0.924889 0.101488
0.065745 0.924889 0.101488
0.136886 0.924889 0.101488
0.205919 0.924889 0.101488
0.272137 0.924889 0.101488
0.336444 0.924889 0.101488
0.399278 0.924889 0.101488
0.460867 0.924889 0.101488
0.52152 0.924889 0.101488
0.581337 0.924889 0.101488
0.640331 0.924889 0.101488
0.69874 0.924889 0.101488
0.756506 0.924889 0.101488
0.81381 0.924889 0.101488
0.870471 0.924889 0.101488
0.926213 0.924889 0.101488
0 0 0.162378
0.065745 0 0.162378
0.136886 0 0.162378
0.205919 0 0.162378
0.272137 0 0.162378
0.336444 0 0.162378
0.399278 0 0.162378
0.460867 0 0.162378
0.52152 0 0.162378
0.581337 0 0.162378
0.640331 0 0.162378
0.69874 0 0.162378
0.756506 0 0.162378
0.81381 0 0.162378
0.870471 0 0.162378
0.926213 0 0.162378
0 0.061799 0.162378
0.065745 0.061799 0.162378
0.136886 0.061799 0.162378
0.205919 0.061799 0.162378
0.272137 0.061799 0.162378
0.336444 0.061799 0.162378
0.399278 0.061799 0.162378
0.460867 0.061799 0.162378
0.52152 0.061799 0.162378
0.581337 0.061799 0.162378
0.640331 0.061799 0.162378
0.69874 0.061799 0.162378
0.756506 0.061799 0.162378
0.81381 0.061799 0.162378
0.870471 0.061799 0.162378
0.926213 0.061799 0.162378
0 0.131143 0.162378
0.065745 0.131143 0.162378
0.136886 0.131143 0.162378
0.205919 0.131143 0.162378
0.272137 0.131143 0.162378
0.336444 0.131143 0.162378
0.399278 0.131143 0.162378
0.460867 0.131143 0.162378
0.52152 0.131143 0.162378
0.581337 0.131143 0.162378
0.640331 0.131143 0.162378
0.69874 0.131143 0.162378
0.756506 0.131143 0.162378
0.81381 0.131143 0.162378
0.870471 0.131143 0.162378
0.926213 0.131143 0.162378
0 0.199261 0.162378
0.065745 0.199261 0.162378
0.136886 0.199261 0.162378
0.205919 0.199261 0.162378
0.272137 0.199261 0.162378
0.336444 0.199261 0.162378
0.399278 0.199261 0.162378
0.460867 0.199261 0.162378
0.52152 0.199261 0.162378
0.581337 0.199261 0.162378
0.640331 0.199261 0.162378
0.69874 0.199261 0.162378
0.756506 0.199261 0.162378
0.81381 0.199261 0.162378
0.870471 0.199261 0.162378
0.926213 0.199261 0.162378
0 0.265013 0.162378
0.065745 0.265013 0.162378
0.136886 0.265013 0.162378
0.205919 0.265013 0.162378
0.272137 0.265013 0.162378
0.336444 0.265013 0.162378
0.399278 0.265013 0.162378
0.460867 0.265013 0.162378
0.52152 0.265013 0.162378
0.581337 0.265013 0.162378
0.640331 0.265013 0.162378
0.69874 0.265013 0.162378
0.756506 0.265013 0.162378
0.81381 0.265013 0.162378
0.870471 0.265013 0.162378
0.926213 0.265013 0.162378
0 0.329151 0.162378
0.065745 0.329151 0.162378
0.136886 0.329151 0.162378
0.205919 0.329151 0.162378
0.272137 0.329151 0.162378
0.336444 0.329151 0.162378
0.399278 0.329151 0.162378
0.460867 0.329151 0.162378
0.52152 0.329151 0.162378
0.581337 0.329151 0.162378
0.640331 0.329151 0.162378
0.69874 0.329151 0.162378
0.756506 0.329151 0.162378
0.81381 0.329151 0.162378
0.870471 0.329151 0.162378
0.926213 0.329151 0.162378
0 0.392017 0.162378
0.065745 0.392017 0.162378
0.136886 0.392017 0.162378
0.205919 0.392017 0.162378
0.272137 0.392017 0.162378
0.336444 0.392017 0.162378
0.399278 0.392017 0.162378
0.460867 0.392017 0.162378
0.52152 0.392017 0.162378
0.581337 0.392017 0.162378
0.640331 0.392017 0.162378
0.69874 0.392017 0.162378
0.756506 0.392017 0.162378
0.81381 0.392017 0.162378
0.870471 0.392017 0.162378
0.926213 0.392017 0.162378
0 0.453843 0.162378
0.065745 0.453843 0.162378
0.136886 0.453843 0.162378
0.205919 0.453843 0.162378
0.272137 0.453843 0.162378
0.336444 0.453843 0.162378
0.399278 0.453843 0.162378
0.460867 0.453843 0.162378
0.52152 0.453843 0.162378
0.581337 0.453843 0.162378
0.640331 0.453843 0.162378
0.69874 0.453843 0.162378
0.756506 0.453843 0.162378
0.81381 0.453843 0.162378
0.870471 0.453843 0.162378
0.926213 0.453843 0.162378
0 0.514848 0.162378
0.065745 0.514848 0.162378
0.136886 0.514848 0.162378
0.205919 0.514848 0.162378
