site/assets/luts/freshluts--0001979-dinner-party.cube
# LUTr-Schema-Version: 2
# LUTr-ID: freshluts--0001979-dinner-party
# LUTr-Title: Dinner Party
# LUTr-Collection: Fresh LUTs
# LUTr-Collection-ID: freshluts-community
# LUTr-Source: https://freshluts.com
# LUTr-Retrieved: 2026-07-27
# LUTr-Source-File: submissions-raw/freshluts/cubes/1979__Dinner_Party.cube
# LUTr-Source-Format: CUBE
# LUTr-Source-SHA256: 788e87f03f050df465350e62ff9d83605625a7cb4d8dc3860aa7d10fab5b0a65
# LUTr-License: CC0-1.0
# LUTr-License-URL: https://freshluts.com/termsandconditions
# LUTr-License-Basis: site-terms
# LUTr-Transform-Class: creative-look
# LUTr-Tags: creative, freshluts, community, cube, teal, low-key, red-logfilm
# LUTr-Input-Color-Space:
# LUTr-Input-Gamut: red-wide-gamut-rgb
# LUTr-Input-Transfer: red-logfilm
# LUTr-Output-Color-Space: srgb
# LUTr-Output-Gamut: rec709
# LUTr-Output-Transfer: srgb
# LUTr-Color-Space-Confidence: camera-profile-input-required
# LUTr-Domain-Normalized: true
# LUTr-Shaper: none
# LUTr-Original-Grid: 16x16x16
# LUTr-Conversion-Grid: 16x16x16
# LUTr-Conversion-Interpolation: none
# LUTr-Conversion-Method: Metadata normalization; numeric LUT samples preserved
# LUTr-Conversion-Tool: LUTr scripts/convert-all-to-cube.mjs 2.0.0
# LUTr-Conversion-Date: 2026-07-28
# LUTr-Asset-URL: https://freshluts.com/luts/1979
# LUTr-Author: InAvision
# LUTr-Author-URL: https://freshluts.com/users/64078
# LUTr-Attribution: InAvision via Fresh LUTs
# LUTr-Source-Labels: gamma=RED Log Film; color=Teal; key=Low Key; style=Drama
# LUTr-Note: Preserve this metadata and the upstream license notices when redistributing.
TITLE "Dinner Party"
LUT_3D_SIZE 6
DOMAIN_MIN 0 0 0
DOMAIN_MAX 1 1 1
0 0 0
0.080266 0 0
0.295219 0 0
0.486546 0 0
0.669524 0 0
0.947092 0 0
0 0.100517 0
0.080266 0.100517 0
0.295219 0.127256 0
0.486546 0.132184 0
0.669524 0.134655 0
0.947092 0.163793 0
0 0.33646 0
0.102055 0.33646 0
0.295219 0.33646 0
0.486546 0.345404 0
0.669524 0.349823 0
0.947092 0.402196 0
0 0.543367 0
0.106102 0.543367 0
0.303469 0.543367 0
0.486546 0.543367 0
0.669524 0.54966 0
0.947092 0.624274 0
0 0.741169 0
0.108141 0.741169 0
0.307602 0.741169 0
0.492368 0.741169 0
0.669524 0.741169 0
0.947092 0.837302 0
0 1.000034 0
0.133796 1.000034 0
0.356071 1.000034 0
0.561367 1.000034 0
0.758365 1.000034 0
0.947092 1.000034 0
0 0 0.114229
0.080266 0 0.114229
0.295219 0 0.142857
0.486546 0 0.148095
0.669524 0 0.150725
0.947092 0 0.181473
0 0.100517 0.114229
0.080266 0.100517 0.114229
0.295219 0.100517 0.114229
0.486546 0.100517 0.114229
0.669524 0.100517 0.114229
0.947092 0.100517 0.114229
0 0.33646 0.142857
0.080266 0.33646 0.114229
0.295219 0.33646 0.114229
0.486546 0.338487 0.114229
0.669524 0.340541 0.114229
0.947092 0.385303 0.114229
0 0.543367 0.148095
0.080266 0.543367 0.114229
0.29707 0.543367 0.114229
0.486546 0.543367 0.114229
0.669524 0.546663 0.114229
0.947092 0.617136 0.114229
0 0.741169 0.150725
0.080266 0.741169 0.114229
0.29898 0.741169 0.114229
0.489576 0.741169 0.114229
0.669524 0.741169 0.114229
0.947092 0.834643 0.114229
0 1.000034 0.181473
0.080266 1.000034 0.114229
0.34038 1.000034 0.114229
0.554762 1.000034 0.114229
0.755869 1.000034 0.114229
0.947092 1.000034 0.114229
0 0 0.359121
0.102055 0 0.359121
0.295219 0 0.359121
0.486546 0 0.368133
0.669524 0 0.372624
0.947092 0 0.42529
0 0.127256 0.359121
0.080266 0.100517 0.359121
0.295219 0.100517 0.359121
0.486546 0.100517 0.361164
0.669524 0.100517 0.363205
0.947092 0.100517 0.408363
0 0.33646 0.359121
0.080266 0.33646 0.359121
0.295219 0.33646 0.359121
0.486546 0.33646 0.359121
0.669524 0.33646 0.359121
0.947092 0.33646 0.359121
0 0.543367 0.368133
0.080266 0.543367 0.361164
0.295219 0.543367 0.359121
0.486546 0.543367 0.359121
0.669524 0.545339 0.359121
0.947092 0.598325 0.359121
0 0.741169 0.372624
0.080266 0.741169 0.363205
0.295219 0.741169 0.359121
0.488368 0.741169 0.359121
0.669524 0.741169 0.359121
0.947092 0.827727 0.359121
0 1.000034 0.42529
0.080266 1.000034 0.408363
0.295219 1.000034 0.359121
0.53739 1.000034 0.359121
0.749425 1.000034 0.359121
0.947092 1.000034 0.359121
0 0 0.565644
0.106102 0 0.565644
0.303469 0 0.565644
0.486546 0 0.565644
0.669524 0 0.571882
0.947092 0 0.645194
0 0.132184 0.565644
0.080266 0.100517 0.565644
0.29707 0.100517 0.565644
0.486546 0.100517 0.565644
0.669524 0.100517 0.568904
0.947092 0.100517 0.638172
0 0.345404 0.565644
0.080266 0.338487 0.565644
0.295219 0.33646 0.565643
0.486546 0.33646 0.565643
0.669524 0.33646 0.567606
0.947092 0.33646 0.619775
0 0.543367 0.565644
0.080266 0.543367 0.565644
0.295219 0.543367 0.565643
0.486546 0.543367 0.565643
0.669524 0.543367 0.565643
0.947092 0.543367 0.565643
0 0.741169 0.571882
0.080266 0.741169 0.568904
0.295219 0.741169 0.567606
0.486546 0.741169 0.565643
0.669524 0.741169 0.565643
0.947092 0.808708 0.565643
0 1.000034 0.645194
0.080266 1.000034 0.638172
0.295219 1.000034 0.619775
0.486546 1.000034 0.565643
0.731834 1.000034 0.565643
0.947092 1.000034 0.565643
0 0 0.759146
0.108141 0 0.759146
0.307602 0 0.759146
0.492368 0 0.759146
0.669524 0 0.759146
0.947092 0 0.852275
0 0.134655 0.759146
0.080266 0.100517 0.759146
0.29898 0.100517 0.759146
0.489576 0.100517 0.759146
0.669524 0.100517 0.759146
0.947092 0.100517 0.849715
0 0.349823 0.759146
0.080266 0.340541 0.759146
0.295219 0.33646 0.759146
0.488368 0.33646 0.759146
0.669524 0.33646 0.759146
0.947092 0.33646 0.84297
0 0.54966 0.759146
0.080266 0.546663 0.759146
0.295219 0.545339 0.759146
0.486546 0.543367 0.759146
0.669524 0.543367 0.759146
0.947092 0.543367 0.824596
0 0.741169 0.759146
0.080266 0.741169 0.759146
0.295219 0.741169 0.759146
0.486546 0.741169 0.759146
0.669524 0.741169 0.759146
0.947092 0.741169 0.759146
0 1.000034 0.852275
0.080266 1.000034 0.849715
0.295219 1.000034 0.84297
0.486546 1.000034 0.824596
0.669524 1.000034 0.759146
0.947092 1.000034 0.759146
0 0 1.000034
0.133796 0 1.000034
0.356071 0 1.000034
0.561367 0 1.000034
0.758365 0 1.000034
0.947092 0 1.000034
0 0.163793 1.000034
0.080266 0.100517 1.000034
0.34038 0.100517 1.000034
0.554762 0.100517 1.000034
0.755869 0.100517 1.000034
0.947092 0.100517 1.000034
0 0.402196 1.000034
0.080266 0.385303 1.000034
0.295219 0.33646 1.000034
0.53739 0.33646 1.000034
0.749425 0.33646 1.000034
0.947092 0.33646 1.000034
0 0.624274 1.000034
0.080266 0.617136 1.000034
0.295219 0.598325 1.000034
0.486546 0.543367 1.000034
0.731834 0.543367 1.000034
0.947092 0.543367 1.000034
0 0.837302 1.000034
0.080266 0.834643 1.000034
0.295219 0.827727 1.000034
0.486546 0.808708 1.000034
0.669524 0.741169 1.000034
0.947092 0.741169 1.000034
0 1.000034 1.000034
0.080266 1.000034 1.000034
0.295219 1.000034 1.000034
0.486546 1.000034 1.000034
0.669524 1.000034 1.000034
0.947092 1.000034 1.000034
