site/assets/luts/freshluts--0000272-night-crawler.cube
# LUTr-Schema-Version: 2
# LUTr-ID: freshluts--0000272-night-crawler
# LUTr-Title: Night Crawler
# LUTr-Collection: Fresh LUTs
# LUTr-Collection-ID: freshluts-community
# LUTr-Source: https://freshluts.com
# LUTr-Retrieved: 2026-07-27
# LUTr-Source-File: submissions-raw/freshluts/cubes/272__Night_Crawler_Day_LUT.cube
# LUTr-Source-Format: CUBE
# LUTr-Source-SHA256: 8ca6ea01c1bd33761f30f3c8ed5df57ddde5fc472ec36cdb8f2aed236fd13bce
# LUTr-License: CC0-1.0
# LUTr-License-URL: https://freshluts.com/termsandconditions
# LUTr-License-Basis: site-terms
# LUTr-Transform-Class: creative-look
# LUTr-Tags: creative, freshluts, community, cube, green, linear
# LUTr-Input-Color-Space: linear-rec709
# LUTr-Input-Gamut: rec709
# LUTr-Input-Transfer: linear
# LUTr-Output-Color-Space: srgb
# LUTr-Output-Gamut: rec709
# LUTr-Output-Transfer: srgb
# LUTr-Color-Space-Confidence: inferred-from-source-label
# LUTr-Domain-Normalized: true
# LUTr-Shaper: none
# LUTr-Original-Grid: 33x33x33
# LUTr-Conversion-Grid: 33x33x33
# LUTr-Conversion-Interpolation: none
# LUTr-Conversion-Method: Metadata normalization; numeric LUT samples preserved
# LUTr-Conversion-Tool: LUTr scripts/convert-all-to-cube.mjs 2.0.0
# LUTr-Conversion-Date: 2026-07-28
# LUTr-Asset-URL: https://freshluts.com/luts/272
# LUTr-Author: Colorist Factory
# LUTr-Author-URL: https://freshluts.com/users/7054
# LUTr-Attribution: Colorist Factory via Fresh LUTs
# LUTr-Source-Labels: gamma=linear; color=Green; key=Neutral; style=2010 Films
# LUTr-Note: Preserve this metadata and the upstream license notices when redistributing.
TITLE "Night Crawler"
LUT_3D_SIZE 5
DOMAIN_MIN 0 0 0
DOMAIN_MAX 1 1 1
0.0227817 0.0158846 0.0269474
0.227832 0 0
0.495735 0 0
0.751492 0 0
0.908919 0 0
0 0.227115 0
0.196109 0.239368 0
0.481758 0.212253 0
0.655039 0.210239 0
0.771572 0.219532 0
0 0.475898 0
0.17789 0.45713 0
0.376608 0.435065 0
0.556954 0.43418 0
0.73225 0.456718 0.00248722
0 0.653666 0.0149386
0.168429 0.650858 0.0339513
0.377752 0.664607 0.0373083
0.581933 0.682185 0.0378882
0.755978 0.706172 0.04654
0.00604257 0.880262 0.0482338
0.186007 0.900572 0.0635233
0.401679 0.912535 0.0725719
0.631067 0.948394 0.100679
0.808225 0.974304 0.113405
0.00750744 0 0.262715
0.229282 0 0.233906
0.499474 0 0.188159
0.74725 0 0.172519
0.891264 0 0.167575
0 0.234073 0.199405
0.215015 0.229892 0.22504
0.484169 0.207446 0.18764
0.645258 0.206531 0.169299
0.76643 0.2168 0.159625
0 0.46688 0.196414
0.182803 0.447181 0.195789
0.380392 0.429465 0.183169
0.58587 0.432792 0.16965
0.751568 0.459007 0.184527
0 0.645914 0.19411
0.183917 0.653468 0.211963
0.395544 0.667536 0.218692
0.599268 0.684901 0.22063
0.772488 0.707912 0.228046
0.0204929 0.885084 0.221134
0.200107 0.902296 0.238697
0.425071 0.920592 0.258366
0.650477 0.951156 0.284215
0.826261 0.977523 0.29807
0.000213626 0 0.523217
0.224079 0 0.504784
0.49987 0 0.480308
0.734478 0 0.450217
0.867887 0 0.423865
0 0.258625 0.393713
0.217746 0.219455 0.504631
0.454658 0.204883 0.451331
0.630991 0.19971 0.402701
0.764858 0.211185 0.381704
0 0.462821 0.398672
0.175433 0.439185 0.403052
0.387762 0.422141 0.402686
0.614252 0.428977 0.380011
0.78436 0.454337 0.396307
0.00526436 0.64097 0.395102
0.194736 0.655528 0.41828
0.411902 0.667277 0.436591
0.616434 0.683513 0.443061
0.795254 0.703288 0.442527
0.0304112 0.886961 0.425589
0.213901 0.902052 0.448966
0.452781 0.929595 0.487144
0.670924 0.949706 0.507958
0.843961 0.976425 0.524132
0 0 0.794263
0.224872 0 0.778149
0.498451 0 0.748241
0.719142 0 0.697749
0.84448 0 0.651713
0 0.241703 0.722698
0.22002 0.21178 0.74255
0.440894 0.199863 0.674937
0.61738 0.195392 0.617838
0.770031 0.208209 0.597528
0 0.501701 0.424704
0.0839094 0.470893 0.478859
0.37969 0.425483 0.606836
0.604089 0.43415 0.618814
0.786313 0.456809 0.628504
0 0.649927 0.561532
0.188602 0.665675 0.599145
0.41619 0.672801 0.631159
0.632547 0.682887 0.655314
0.825223 0.69865 0.642588
0.0315862 0.89131 0.62179
0.223056 0.908843 0.649393
0.471473 0.937041 0.695369
0.689372 0.949828 0.72108
0.862806 0.976577 0.742885
0.00154116 0 0.990631
0.230701 0 0.977081
0.498375 0 0.935027
0.70631 0 0.86949
0.826246 0 0.819562
0 0.235248 0.931411
0.21944 0.211688 0.919036
0.43064 0.199619 0.848112
0.608423 0.195758 0.802014
0.781781 0.208331 0.805692
0 0.51545 0.567147
0.0546426 0.475761 0.673411
0.388418 0.429297 0.798825
0.610315 0.439002 0.813931
0.799374 0.458076 0.837003
0 0.699306 0.555795
0.10927 0.714717 0.609689
0.345022 0.714534 0.688212
0.619013 0.694392 0.827588
0.817899 0.708461 0.863203
0.0155489 0.90367 0.781445
0.219898 0.926543 0.826123
0.470253 0.946868 0.872679
0.698054 0.956863 0.895277
0.879469 0.980468 0.925734
