site/assets/luts/freshluts--0001107-teal-and-orange.cube
# LUTr-Schema-Version: 2
# LUTr-ID: freshluts--0001107-teal-and-orange
# LUTr-Title: Teal and Orange
# LUTr-Collection: Fresh LUTs
# LUTr-Collection-ID: freshluts-community
# LUTr-Source: https://freshluts.com
# LUTr-Retrieved: 2026-07-27
# LUTr-Source-File: submissions-raw/freshluts/cubes/1107__TO_2.DJI_0007.cube
# LUTr-Source-Format: CUBE
# LUTr-Source-SHA256: 4abd5758be78f879efcfa3552e1e44877fa7ca7aa64af2389ab7b6daebdfc193
# LUTr-License: CC0-1.0
# LUTr-License-URL: https://freshluts.com/termsandconditions
# LUTr-License-Basis: site-terms
# LUTr-Transform-Class: creative-look
# LUTr-Tags: creative, freshluts, community, cube, orange, rec709, warm
# LUTr-Input-Color-Space: rec709
# LUTr-Input-Gamut: rec709
# LUTr-Input-Transfer: rec709
# LUTr-Output-Color-Space: srgb
# LUTr-Output-Gamut: rec709
# LUTr-Output-Transfer: srgb
# LUTr-Color-Space-Confidence: declared-by-source
# LUTr-Domain-Normalized: true
# LUTr-Shaper: none
# LUTr-Original-Grid: 17x17x17
# LUTr-Conversion-Grid: 17x17x17
# LUTr-Conversion-Interpolation: none
# LUTr-Conversion-Method: Metadata normalization; numeric LUT samples preserved
# LUTr-Conversion-Tool: LUTr scripts/convert-all-to-cube.mjs 2.0.0
# LUTr-Conversion-Date: 2026-07-28
# LUTr-Asset-URL: https://freshluts.com/luts/1107
# LUTr-Author: Neeraj Badyal
# LUTr-Author-URL: https://freshluts.com/users/117643
# LUTr-Attribution: Neeraj Badyal via Fresh LUTs
# LUTr-Source-Labels: gamma=Rec 709; color=Orange; key=Neutral; style=Teal - Orange
# LUTr-Note: Preserve this metadata and the upstream license notices when redistributing.
TITLE "Teal and Orange"
LUT_3D_SIZE 17
DOMAIN_MIN 0 0 0
DOMAIN_MAX 1 1 1
0 0 0
0 0 0
0 0 0
0.0516365 0 0
0.161868 0 0
0.273442 0 0
0.381399 0 0
0.482109 0 0
0.577951 0 0
0.677791 0 0
0.776944 0 0
0.864988 0 0
0.942748 0 0
0.996658 0 0
1 0 0
1 0 0
1 0 0
0 0 0
0 0 0
0 0 0
0 0 0
0 0 0
0.272419 0 0
0.381125 0 0
0.482963 0 0
0.580652 0 0
0.68426 0 0
0.785016 0 0
0.872938 0 0
0.94818 0 0
0.997314 0 0
1 0 0
1 0 0
1 0 0
0 0 0
0 0 0
0 0 0
0 0 0
0 0 0
0 0 0
0.384909 0 0
0.487129 0 0
0.5841 0 0
0.684794 0 0
0.784329 0 0
0.872129 0 0
0.947906 0 0
0.997452 0 0
1 0 0
1 0 0
1 0 0
0 0 0
0 0 0
0 0 0
0 0 0
0 0 0
0.0583963 0 0
0.364843 0.0180972 0.00207523
0.47245 0.00898756 0.00102235
0.575509 0.00047303 0.0000457771
0.676738 0 0
0.777615 0 0
0.867277 0 0
0.945464 0 0
0.997482 0 0
1 0 0
1 0 0
1 0.00419623 0.00047303
0 0 0
0 0 0
0 0 0
0 0 0
0 0.00233463 0.000183108
0.111116 0.00759899 0.000656138
0.329686 0.0811322 0.00361639
0.429801 0.0735027 0.0059205
0.529809 0.0661631 0.00570687
0.633707 0.059556 0.00552377
0.740764 0.0551614 0.00520333
0.835904 0.0543374 0.00514229
0.916426 0.0572976 0.00535592
0.985061 0.063386 0.00573739
1 0.0711528 0.00614939
1 0.0796368 0.00660716
1 0.088838 0.00709544
0 0.161013 0.00975052
0 0.161257 0.00976577
0 0.0929122 0.00729381
0 0.098909 0.00753796
0 0.103639 0.000350958
0.169085 0.159487 0
0.370703 0.140017 0
0.428534 0.140322 0
0.516915 0.137774 0
0.599954 0.137789 0.00714122
0.701259 0.136416 0.00898756
0.799359 0.138109 0.0090486
0.883192 0.143526 0.00923171
0.956069 0.151843 0.00950637
0.99913 0.161501 0.00976577
1 0.171405 0.0100252
1 0.181674 0.0102998
0 0.233158 0.0113069
0 0.234852 0.0113375
0 0.236439 0.0113527
0 0.237156 0.011368
0 0.239582 0.0114137
0.109529 0.242496 0.00469978
0.253239 0.240345 0
0.403998 0.231205 0
0.477592 0.231769 0
0.576654 0.230518 0.00514229
0.670787 0.231586 0.0112764
0.7673 0.234852 0.0113375
0.852247 0.241291 0.0114443
0.926696 0.250263 0.0115663
0.995132 0.260349 0.0116884
1 0.270069 0.0118105
1 0.279667 0.0119173
0 0.31545 0.0121614
0 0.319707 0.012192
0 0.324102 0.0122072
0 0.327626 0.0122225
0 0.332998 0.012253
0.0645609 0.337377 0.0122835
0.228382 0.338476 0.0122835
0.348714 0.337011 0.0122683
0.453986 0.33579 0.0122683
0.556527 0.334829 0.0122683
0.653788 0.33518 0.0122683
0.744411 0.338354 0.0122835
0.8271 0.344457 0.0122988
0.899931 0.352636 0.0122988
0.968063 0.36202 0.012314
0.999802 0.371542 0.0123293
0.99852 0.381308 0.012314
0 0.406973 0.0122835
0 0.413931 0.012253
0 0.421027 0.0122225
0 0.426886 0.012192
0 0.434226 0.0121614
0.0231632 0.440223 0.0121309
0.190295 0.442435 0.0121157
0.339361 0.441337 0.0121157
0.452354 0.440101 0.0121309
0.555245 0.438758 0.0121309
0.65066 0.43827 0.0121462
0.737148 0.440726 0.0121309
0.815961 0.446601 0.0120851
0.886549 0.455039 0.0120394
0.953063 0.464591 0.0119783
0.988342 0.474144 0.0118868
0.987747 0.483574 0.0118105
0 0.506859 0.0115816
0 0.515679 0.01149
0 0.52401 0.0113985
0 0.530632 0.0113222
0 0.538247 0.0112154
0 0.544259 0.0111391
0.140078 0.545983 0.0111086
0.311116 0.544381 0.0111391
0.443214 0.542794 0.0111543
0.554025 0.541436 0.0111696
0.652857 0.541192 0.0111849
0.739391 0.543648 0.0111391
0.815732 0.549294 0.0110781
0.883894 0.557397 0.0109712
0.948135 0.566354 0.0108339
0.985672 0.575067 0.0107118
0.985733 0.583429 0.0105898
0 0.609476 0.0101625
0 0.618326 0.0100099
0 0.626322 0.00987259
0 0.632334 0.00976577
0 0.639475 0.00962844
0 0.64538 0.00952163
0.0929732 0.647593 0.00949111
0.275196 0.646357 0.00950637
0.424949 0.645853 0.00222782
0.550271 0.644816 0
0.660945 0.6439 0
0.752743 0.644831 0
0.826322 0.649012 0
0.88777 0.655756 0.00624094
0.947585 0.663462 0.00917067
0.988403 0.670466 0.00903334
0.988693 0.677119 0.00889601
0 0.707393 0.00825513
0 0.715892 0.00807202
0 0.723903 0.00788891
0 0.730434 0.00773632
0 0.737697 0.00756847
0 0.743862 0.00743114
0.0735485 0.745953 0.00738537
0.251957 0.74435 0.00741588
0.410742 0.742138 0.00747692
0.544549 0.740139 0.00344854
0.657801 0.738308 0
0.752117 0.738506 0
0.829709 0.741085 0
0.890349 0.745586 0.00738537
0.949981 0.751141 0.00724804
0.992584 0.756069 0.00712596
0.992798 0.760494 0.00701915
0 0.80145 0.0059968
0 0.810086 0.00576791
0 0.818097 0.00555428
0 0.824277 0.00538643
0 0.831052 0.00518807
0 0.836362 0.00505074
0.0744335 0.837598 0.00502022
0.247852 0.83476 0.00509651
0.406302 0.831052 0.00518807
0.543755 0.826871 0.00531014
0.660075 0.822919 0.00541695
0.754635 0.820935 0.00547799
0.831189 0.821561 0.00546273
0.895766 0.824277 0.00538643
0.953902 0.827726 0.00527962
0.996078 0.830564 0.00520333
0.996185 0.833036 0.00514229
0 0.891814 0.00344854
0 0.899718 0.00320439
0 0.906889 0.00299077
0 0.911833 0.00283818
0 0.917266 0.00267033
0 0.921096 0.00254826
0.082887 0.920607 0.00256352
0.251148 0.915785 0.00271611
0.406958 0.909972 0.00289921
0.544961 0.90367 0.00309758
0.663447 0.89749 0.00328069
0.759731 0.893416 0.00340276
0.837003 0.891936 0.00344854
0.901167 0.892683 0.00341802
0.958389 0.894163 0.00337224
0.998413 0.895277 0.00334173
0.998428 0.895888 0.00332647
0 0.977111 0.000762951
0 0.983536 0.000549325
0 0.988983 0.000366217
0 0.992081 0.000259403
0 0.995422 0.00015259
0 0.997147 0.0000915541
0.0895094 0.994553 0.000183108
0.25304 0.987747 0.000411994
0.406607 0.979828 0.000671397
0.544533 0.971542 0.000946059
0.664439 0.963378 0.00120546
0.762005 0.957321 0.00140383
0.839948 0.954101 0.00151064
0.904234 0.953109 0.00154116
0.961105 0.953109 0.00154116
0.999634 0.953109 0.00154116
0.999619 0.952743 0.00155642
0 1 0
0 1 0
0 1 0
0 1 0
0 1 0
0.00131228 1 0
0.106157 1 0
0.262989 1 0
0.41117 1 0
0.545007 1 0
0.663081 1 0
0.760555 1 0
0.83949 1 0
0.905241 1 0
0.964019 1 0
1 1 0
1 1 0
0 1 0
0 1 0
0 1 0
0 1 0
0 1 0
0.00332647 1 0
0.113207 1 0
0.267094 1 0
0.412955 1 0
0.545174 1 0
0.662058 1 0
0.759045 1 0
0.837293 1 0
0.90164 1 0
0.958648 1 0
1 1 0
1 1 0
0.000198367 0 0
0.000534066 0 0
0.000976577 0 0
0.0584115 0 0
0.168414 0 0
0.275319 0 0
0.382345 0 0
0.482841 0 0
0.578805 0 0
0.678843 0 0
0.778012 0 0
0.866331 0 0
0.944656 0 0
0.996857 0 0
1 0 0
1 0 0
1 0 0
0 0 0
0.0000610361 0 0
0.00015259 0 0
0.052079 0 0
0.164218 0 0
0.27599 0 0
0.382742 0 0
0.484565 0 0
0.58262 0 0
0.686137 0 0
0.786221 0 0
0.873884 0 0
0.948989 0 0
0.997452 0 0
1 0 0
1 0 0
1 0 0
0 0 0
0 0 0
0 0 0
0 0 0
0 0 0
0.00772107 0 0
0.38706 0 0
0.488609 0 0
0.585351 0 0
0.686 0 0
0.785412 0 0
0.873075 0 0
0.948989 0 0
0.997681 0 0
1 0 0
1 0 0
1 0 0
0 0 0
0 0 0
0 0 0
0 0 0
0 0 0
0.074876 0 0
0.224918 0 0
0.473869 0.00886549 0.0010071
0.576852 0.00047303 0.0000457771
0.678309 0 0
0.779095 0 0
0.868894 0 0
0.947356 0 0
0.99794 0 0
1 0 0
1 0 0
1 0.0061799 0.000701915
0 0 0
0 0 0
0 0 0
0 0.00115969 0.000137331
0 0.00688182 0.000793469
0.115526 0.0120241 0.00137331
0.261723 0.012604 0.00143435
0.430579 0.0741436 0.00630198
0.531014 0.0668498 0.0059205
0.635355 0.0605173 0.0055848
0.742535 0.0563516 0.00529488
0.837644 0.0557565 0.0052491
0.918227 0.0590829 0.00547799
0.985489 0.0654154 0.00584421
1 0.0735332 0.00627146
1 0.0822614 0.00674449
1 0.0915847 0.00723278
0 0.161257 0.00976577
0 0.0859693 0.00694286
0 0.0968643 0.00746166
0 0.102266 0.00769055
0 0.105547 0.00474556
0.0466621 0.107576 0
0.287709 0.0924392 0
0.439597 0.139803 0
0.505226 0.142336 0.00260929
0.601617 0.139742 0.00761425
0.703883 0.138582 0.00906386
0.801984 0.140505 0.0091249
0.885679 0.146181 0.009308
0.958877 0.15462 0.00958267
0.999313 0.164523 0.00984207
1 0.174426 0.0101015
1 0.184573 0.0103761
0 0.23389 0.0113222
0 0.235828 0.0113527
0 0.237888 0.0113832
0 0.195956 0.0106203
0 0.200793 0.0107271
0.000244144 0.206989 0.00881971
0.253742 0.242206 0.00604257
0.398733 0.234577 0
0.475822 0.235233 0.00411994
0.573175 0.234379 0.0113222
0.673991 0.234501 0.0113222
0.770596 0.237644 0.0113832
0.85539 0.244312 0.01149
0.929946 0.2533 0.0115969
0.994934 0.263264 0.0117189
1 0.272862 0.011841
1 0.282353 0.0119326
0 0.317159 0.0121767
0 0.32166 0.012192
0 0.326421 0.0122225
0 0.33019 0.0122377
0 0.33579 0.0122683
0.067628 0.340429 0.0122835
0.231327 0.34165 0.0122835
0.351736 0.340063 0.0122835
0.457389 0.338842 0.0122835
0.560021 0.337865 0.0122835
0.657267 0.338231 0.0122835
0.748119 0.341283 0.0122835
0.830488 0.347265 0.0122988
0.903136 0.355306 0.012314
0.971145 0.364828 0.012314
0.999435 0.37435 0.0123293
0.998154 0.384115 0.012314
0 0.409537 0.0122683
0 0.416861 0.0122377
0 0.424201 0.0122072
0 0.430198 0.012192
0 0.437537 0.0121462
0.0250248 0.443656 0.0121004
0.193256 0.445869 0.0121004
0.342031 0.444633 0.0121004
0.455268 0.44329 0.0121157
0.558282 0.441581 0.0121157
0.653895 0.441093 0.0121157
0.740703 0.443656 0.0121004
0.819348 0.449531 0.0120699
0.890013 0.457862 0.0120241
0.956558 0.467536 0.0119478
0.988174 0.476967 0.0118715
0.987579 0.486397 0.01178
0 0.510048 0.0115511
0 0.51899 0.0114443
0 0.527321 0.0113527
0 0.534081 0.0112764
0 0.541558 0.0111696
0 0.54757 0.0110933
0.142367 0.549172 0.0110781
0.313664 0.54757 0.0110933
0.445991 0.545983 0.0111086
0.557092 0.544503 0.0111391
0.656016 0.544137 0.0111391
0.742702 0.546593 0.0111086
0.819181 0.552239 0.0110323
0.887205 0.560098 0.0109255
0.951308 0.569055 0.0108034
0.985687 0.577523 0.0106661
0.985748 0.585763 0.0105592
0 0.612665 0.0101015
0 0.621515 0.00994888
0 0.629511 0.00981155
0 0.635538 0.00970474
0 0.642664 0.00958267
0 0.648692 0.00946059
0.0955978 0.650904 0.00943008
0.277699 0.649683 0.00944533
0.427878 0.648722 0.00469978
0.552834 0.647379 0
0.66183 0.646403 0
0.752956 0.647395 0
0.827131 0.651606 0.0000915541
0.890181 0.658122 0.00688182
0.950408 0.66566 0.00894179
0.988708 0.672419 0.0087129
0.988907 0.678828 0.00868238
0 0.710506 0.0081178
0 0.719097 0.00801099
0 0.72723 0.00781262
0 0.733639 0.00766003
0 0.741024 0.00749218
0 0.747066 0.00735485
0.0763104 0.749157 0.00730907
0.254246 0.747433 0.00733959
0.412879 0.745098 0.00740063
0.547127 0.742412 0.00727855
0.659236 0.7402 0.00714122
0.751415 0.7402 0.00694286
0.827436 0.742763 0.00708019
0.894423 0.747463 0.00283818
0.956832 0.752544 0
1 0.757061 0
0.999268 0.761334 0
0 0.806165 0.00125124
0 0.813474 0.00512703
0 0.821195 0.00546273
0 0.827359 0.00529488
0 0.834028 0.00511177
0 0.839323 0.00495918
0.0763561 0.840436 0.00492866
0.249424 0.837476 0.00502022
0.407858 0.833402 0.00512703
0.545205 0.828962 0.0052491
0.661387 0.824765 0.00537118
0.755825 0.822553 0.00543221
0.83241 0.822919 0.00541695
0.896864 0.825254 0.00535592
0.955657 0.828489 0.00357061
0.997864 0.831205 0.00181582
0.998825 0.833432 0.0000610361
0 0.895674 0.000564584
0 0.903136 0.00172427
0 0.909606 0.00291447
0 0.914549 0.00276188
0 0.919738 0.00259403
0 0.923445 0.00248722
0.0839704 0.922713 0.00250248
0.251728 0.917754 0.00265507
0.407599 0.911574 0.00285344
0.545495 0.905028 0.0030518
0.664027 0.898604 0.00325017
0.760204 0.894286 0.00337224
0.837491 0.892561 0.00341802
0.901534 0.89305 0.00340276
0.958633 0.894286 0.00337224
0.998413 0.895277 0.00334173
0.998428 0.895888 0.00332647
0 0.979583 0.000671397
0 0.985901 0.00047303
0 0.991089 0.000289921
0 0.994064 0.000198367
0 0.997024 0.0000915541
0 0.998627 0.00131228
0.0895247 0.995911 0.000137331
0.25272 0.988861 0.000366217
0.406348 0.980819 0.000640879
0.544228 0.972274 0.000915541
0.664073 0.963867 0.0011902
0.761715 0.957565 0.00140383
0.839811 0.954101 0.00151064
0.90399 0.952987 0.00154116
0.960861 0.952987 0.00154116
0.999619 0.952865 0.00155642
0.999619 0.952377 0.00157168
0 0.999893 0.010193
0 0.999847 0.0141451
0 0.999817 0.0169833
0 0.999817 0.0174105
0 0.999817 0.0178225
0.000686656 0.999817 0.0169833
0.0997787 0.999878 0.0113222
0.261646 0.999985 0.000991836
0.410269 1 0
0.54406 1 0
0.662196 1 0
0.759869 1 0
0.838865 1 0
0.904799 1 0
0.963958 1 0
1 1 0
1 1 0
0 1 0.0275883
0 0.99968 0.0305638
0 0.99968 0.0311284
0 0.999695 0.0292973
0 0.99971 0.0275883
0.000991836 0.999741 0.0247654
0.102983 0.999817 0.0174105
0.263233 0.999939 0.00552377
0.411536 1 0
0.54374 1 0
0.660868 1 0
0.758068 1 0
0.836515 1 0
0.900984 1 0
0.958099 1 0
1 1 0
1 1 0
0.000137331 0 0.0498207
0.000350958 0 0.0505226
0.000564584 0 0.0483864
0.0493935 0 0.0411383
0.160998 0 0.0352789
0.273899 0 0.0303197
0.385153 0 0.0212253
0.485176 0 0.00962844
0.578561 0 0
0.678706 0 0
0.778149 0 0
0.867018 0 0
0.944915 0 0
0.996826 0 0
1 0 0
1 0 0
1 0 0
0 0 0.0447547
0.0000762951 0 0.0466316
0.00015259 0 0.0443275
0.0462806 0 0.0384527
0.160433 0 0.0342718
0.273289 0 0.0307012
0.386618 0 0.0224918
0.488487 0 0.0127413
0.58555 0 0.00552377
0.686534 0 0
0.786221 0 0
0.873625 0 0
0.948577 0 0
0.997375 0 0
1 0 0
1 0 0
1 0 0
0 0 0.0384833
0 0 0.0386206
0 0 0.0368963
0.0424353 0 0.0336767
0.157839 0 0.0342412
0.278355 0 0.0343786
0.392584 0 0.0280156
0.49395 0 0.0178225
0.587686 0 0.0077821
0.686137 0 0
0.785412 0 0
0.873075 0 0
0.948989 0 0
0.997711 0 0
1 0 0
1 0 0
1 0 0
0 0.0186313 0.0256352
0 0 0
0 0 0
0 0 0
0 0 0
0.0900282 0 0
0.28748 0 0
0.477546 0.00779736 0.0100862
0.577707 0 0
0.678843 0 0
0.779767 0 0
0.869703 0 0
0.94818 0 0
0.998169 0 0
1 0 0
1 0.000122072 0.00199893
1 0.00732433 0.0117342
0 0 0
0 0 0
0 0 0
0 0.0052491 0.000595102
0 0.0106203 0.00122072
0.119432 0.0147097 0.00167849
0.265782 0.0145876 0.00166323
0.39295 0.00875868 0.0010071
0.532647 0.0664683 0.00730907
0.636744 0.0605173 0.0055848
0.743999 0.0565957 0.00531014
0.839078 0.0564736 0.00529488
0.919493 0.060029 0.00555428
0.986587 0.0666819 0.0101625
1 0.0749371 0.0209354
1 0.0836652 0.032166
1 0.0931258 0.0442054
0 0.160296 0.0326696
0 0.0908675 0.00720226
0 0.0999924 0.00758373
0 0.105394 0.00781262
0 0.108537 0.00491341
0.0492256 0.11046 0
0.291646 0.0954452 0
0.398276 0.0925154 0
0.508919 0.142733 0.00970474
0.604471 0.140597 0.0117342
0.706538 0.139757 0.0127871
0.804822 0.142 0.0162509
0.889464 0.147707 0.0240787
0.96379 0.156283 0.0350958
0.999756 0.166049 0.0475929
1 0.176013 0.0593118
1 0.186084 0.0711681
0 0.233753 0.0131533
0 0.236042 0.0146029
0 0.192935 0.0105592
0 0.199344 0.0106966
0 0.204669 0.0108034
0.000823987 0.210773 0.0107881
0.165713 0.215732 0.0106661
0.305791 0.215991 0.00631724
0.474037 0.237613 0.020676
0.576577 0.236057 0.020676
0.677043 0.236194 0.0225376
0.773617 0.239536 0.0276799
0.858778 0.245991 0.0366979
0.933639 0.254856 0.0481117
0.995682 0.264744 0.0599527
1 0.274144 0.0711376
1 0.283558 0.0822766
0 0.317769 0.0121767
0 0.322759 0.0122072
0 0.327871 0.0122225
0 0.332021 0.012253
0 0.309239 0.0121462
0 0.321172 0.012192
0.132021 0.331289 0.012253
0.353902 0.342306 0.0193637
0.460151 0.340963 0.019791
0.562814 0.339849 0.0204929
0.659953 0.340078 0.0224765
0.75024 0.343069 0.0274357
0.832334 0.348852 0.0356451
0.904784 0.356909 0.0462654
0.972808 0.366217 0.0577401
0.99881 0.375784 0.0690776
0.996841 0.385473 0.0805219
0 0.411246 0.012253
0 0.41883 0.0122377
0 0.426398 0.0122072
0 0.432639 0.0121767
0 0.440101 0.0121309
0.0238499 0.446311 0.0157626
0.192462 0.448356 0.0188602
0.343511 0.447013 0.0186007
0.457465 0.445426 0.0183261
0.560555 0.443595 0.0179141
0.656291 0.442969 0.0190433
0.74287 0.445487 0.0235599
0.820981 0.451286 0.0317235
0.89102 0.459602 0.0426947
0.957198 0.469047 0.0543984
0.985534 0.478294 0.0655222
0.984283 0.487526 0.0764935
0 0.512367 0.0115206
0 0.521324 0.011429
0 0.5299 0.0113222
0 0.536645 0.0112306
0 0.544137 0.0111391
0 0.549996 0.0146029
0.140841 0.551568 0.016846
0.314275 0.549981 0.0157321
0.447745 0.54815 0.0150454
0.559319 0.54667 0.014786
0.658396 0.546304 0.0157778
0.745022 0.548577 0.0201419
0.820859 0.554025 0.0278477
0.88835 0.561654 0.0380713
0.951766 0.570382 0.0491188
0.983291 0.578668 0.059266
0.982849 0.586694 0.068864
0 0.615 0.010071
0 0.62385 0.00991836
0 0.631724 0.00976577
0 0.637873 0.00965896
0 0.645121 0.00953689
0 0.651209 0.0150759
0.0922103 0.653407 0.0175784
0.276936 0.652064 0.0166171
0.42884 0.651072 0.0100404
0.554665 0.649683 0.000808728
0.664347 0.648447 0
0.755795 0.649195 0
0.829526 0.653025 0.0129854
0.891554 0.659327 0.0296025
0.950866 0.666545 0.0416419
0.98703 0.672999 0.0499886
0.987015 0.679103 0.0574655
0 0.712688 0.00814832
0 0.721309 0.00794995
0 0.729564 0.00776684
0 0.736065 0.011429
0 0.743252 0.0187686
0 0.74934 0.0251164
0.0654917 0.751293 0.0270542
0.248463 0.749462 0.0251164
0.411536 0.746899 0.0226444
0.547723 0.744106 0.0200198
0.660441 0.74165 0.0180819
0.752483 0.741405 0.0189364
0.828443 0.743709 0.0227054
0.894331 0.747967 0.0261845
0.955459 0.75288 0.0294499
0.997909 0.757122 0.0319219
0.997086 0.761059 0.0386664
0 0.808103 0.00563058
0 0.815671 0.0173037
0 0.823316 0.0261997
0 0.829297 0.0319677
0 0.835767 0.0385901
0 0.840909 0.043534
0.0541238 0.841886 0.0440375
0.235492 0.838834 0.0404822
0.401221 0.834562 0.035935
0.542962 0.829923 0.0308232
0.661265 0.825406 0.026276
0.756237 0.822965 0.0242313
0.832776 0.823072 0.0252079
0.897047 0.825254 0.028687
0.955428 0.828199 0.0314794
0.997192 0.830488 0.033875
0.997971 0.832547 0.0357061
0 0.897475 0.0359197
0 0.904097 0.0464942
0 0.910979 0.0528115
0 0.91577 0.0569162
0 0.920684 0.0614328
0 0.924132 0.0643931
0.0493629 0.923278 0.0628214
0.228351 0.918242 0.0571145
0.394781 0.911864 0.050248
0.539879 0.905119 0.043122
0.661997 0.898497 0.036347
0.759441 0.89398 0.0316777
0.836927 0.892027 0.0300298
0.90103 0.892256 0.0310216
0.957961 0.893355 0.0331121
0.998245 0.894072 0.0347906
0.998245 0.894423 0.0360418
0 0.980484 0.0676432
0 0.986633 0.073106
0 0.991562 0.0773632
0 0.994278 0.0793622
0 0.997101 0.0814832
0 0.998596 0.0820783
0.0440681 0.995636 0.0785382
0.221637 0.988495 0.0708324
0.388022 0.98027 0.0619211
0.534936 0.971542 0.0526131
0.659892 0.963073 0.0438239
0.759762 0.956695 0.0372168
0.838575 0.953017 0.0336614
0.902968 0.951675 0.0327153
0.959869 0.951537 0.0332799
0.999573 0.951293 0.0337072
0.999557 0.95079 0.033875
0 0.999283 0.0914473
0 0.999268 0.0948348
0 0.999252 0.0970474
0 0.999252 0.0969253
0 0.999252 0.0969253
0 0.999268 0.0957504
0.0525216 0.999283 0.0901503
0.225879 0.999344 0.0801099
0.388663 0.999405 0.0691234
0.532525 0.999466 0.0579385
0.656443 0.999542 0.0472877
0.756817 0.999603 0.0390173
0.836576 0.999634 0.0341039
0.90161 0.999664 0.0321202
0.958938 0.999664 0.031693
1 0.999664 0.0314183
1 0.99968 0.0311284
0 0.999207 0.107683
0 0.999207 0.108965
0 0.999207 0.109087
0 0.999207 0.107042
0 0.999222 0.105119
0 0.999237 0.102129
0.0554055 0.999268 0.0950942
0.227008 0.999329 0.0837568
0.388617 0.99939 0.0716259
0.531395 0.999466 0.0594034
0.654704 0.999542 0.0476844
0.754726 0.999603 0.0387579
0.834333 0.999649 0.0329747
0.900298 1 0.0255589
0.960403 1 0.016022
1 1 0.00697337
1 1 0.00758373
0.000289921 0 0.123018
0.000289921 0 0.122469
0.000366217 0 0.121691
0.0319677 0 0.116381
0.146273 0 0.109209
0.264759 0 0.102281
0.389517 0 0.0931411
0.501564 0 0.0823224
0.598825 0 0.072282
0.696422 0 0.0628672
0.793973 0 0.0556802
0.883009 0 0.0538033
0.959991 0 0.054612
1 0 0.0562142
1 0 0.0582132
1 0 0.0598001
1 0 0.0615396
0 0 0.11487
0 0 0.115831
0 0 0.114992
0.0292821 0 0.110948
0.142931 0 0.107866
0.264942 0 0.103182
0.391852 0 0.0952316
0.505699 0 0.0861067
0.607004 0 0.0794537
0.706935 0 0.0712444
0.804105 0 0.0636606
0.889632 0 0.0588693
0.963806 0 0.0572671
1 0 0.0580758
1 0 0.0600748
1 0 0.0623331
