site/assets/luts/freshluts--0000869-at-market-asian-look-lut.cube
# LUTr-Schema-Version: 2
# LUTr-ID: freshluts--0000869-at-market-asian-look-lut
# LUTr-Title: at market Asian look-LUT
# LUTr-Collection: Fresh LUTs
# LUTr-Collection-ID: freshluts-community
# LUTr-Source: https://freshluts.com
# LUTr-Retrieved: 2026-07-27
# LUTr-Source-File: submissions-raw/freshluts/cubes/869__at_market_look-lut_7.A016C046_210805GJ.cube
# LUTr-Source-Format: CUBE
# LUTr-Source-SHA256: d9b111e2c91e0d1c57290488e9321ae646900c5dd8404150e8b12ed94d48fc1f
# LUTr-License: CC0-1.0
# LUTr-License-URL: https://freshluts.com/termsandconditions
# LUTr-License-Basis: site-terms
# LUTr-Transform-Class: creative-look
# LUTr-Tags: creative, freshluts, community, cube, high-contrast, warm, low-key, sony-s-log3
# LUTr-Input-Color-Space:
# LUTr-Input-Gamut: sony-s-gamut3
# LUTr-Input-Transfer: sony-s-log3
# LUTr-Output-Color-Space: srgb
# LUTr-Output-Gamut: rec709
# LUTr-Output-Transfer: srgb
# LUTr-Color-Space-Confidence: camera-profile-input-required
# LUTr-Domain-Normalized: true
# LUTr-Shaper: none
# LUTr-Original-Grid: 33x33x33
# LUTr-Conversion-Grid: 33x33x33
# LUTr-Conversion-Interpolation: none
# LUTr-Conversion-Method: Metadata normalization; numeric LUT samples preserved
# LUTr-Conversion-Tool: LUTr scripts/convert-all-to-cube.mjs 2.0.0
# LUTr-Conversion-Date: 2026-07-28
# LUTr-Asset-URL: https://freshluts.com/luts/869
# LUTr-Author: lvannoeun@gmail.com
# LUTr-Author-URL: https://freshluts.com/users/57563
# LUTr-Attribution: lvannoeun@gmail.com via Fresh LUTs
# LUTr-Source-Labels: gamma=Sony S-Log 3; color=Warm; key=Low Key; style=High contrast
# LUTr-Note: Preserve this metadata and the upstream license notices when redistributing.
TITLE "at market Asian look-LUT"
LUT_3D_SIZE 33
DOMAIN_MIN 0 0 0
DOMAIN_MAX 1 1 1
0 0.0129397 0
0.0130007 0.0134279 0
0.0466773 0.0137026 0
0.0788586 0.0138857 0
0.109056 0.014435 0
0.13846 0.015198 0
0.1673 0.0161135 0
0.195666 0.0171511 0
0.223651 0.0182956 0
0.251316 0.0195315 0
0.278691 0.0208438 0
0.305837 0.0222171 0
0.332738 0.0236515 0
0.359457 0.0251469 0
0.385962 0.026688 0
0.412284 0.028275 0
0.438453 0.0299229 0
0.464485 0.0315862 0
0.490425 0.0332952 0
0.516228 0.0350195 0
0.541924 0.0367895 0
0.567514 0.0385748 0
0.592981 0.0404059 0
0.618357 0.0422522 0
0.643641 0.0441291 0
0.668833 0.0460365 0
0.693935 0.0479591 0
0.718959 0.049897 0
0.743908 0.0518654 0
0.76878 0.0538643 0
0.793576 0.0558633 0
0.818296 0.0578927 0
0.84268 0.0600137 0
0 0.0390173 0
0.0228275 0.0403449 0
0.0534981 0.0415808 0
0.0848554 0.0422827 0
0.11516 0.0429084 0
0.144488 0.0437018 0
0.173236 0.0446326 0
0.201526 0.0457008 0
0.22945 0.0468605 0
0.257053 0.0481117 0
0.284398 0.0494392 0
0.311482 0.0508125 0
0.338354 0.0522621 0
0.365042 0.0537728 0
0.391501 0.0553292 0
0.417792 0.0569314 0
0.443931 0.0585641 0
0.469947 0.0602426 0
0.495857 0.0619516 0
0.52163 0.0636912 0
0.547311 0.0654765 0
0.572869 0.067277 0
0.598321 0.0691081 0
0.623682 0.0709544 0
0.648936 0.0728466 0
0.674113 0.0747539 0
0.699199 0.0766766 0
0.724208 0.0786297 0
0.749142 0.0805982 0
0.773983 0.0825971 0
0.798764 0.0846113 0
0.823484 0.0866407 0
0.847852 0.0887617 0
0.00645457 0.0642252 0
0.0329137 0.0670939 0
0.0610819 0.0690166 0
0.0906996 0.0704204 0
0.12076 0.0714122 0
0.15024 0.072282 0
0.178973 0.0732433 0
0.207202 0.0743267 0
0.23508 0.0755016 0
0.262638 0.0767681 0
0.289921 0.0780957 0
0.316976 0.0794995 0
0.343816 0.0809491 0
0.370474 0.0824598 0
0.396902 0.0840314 0
0.423163 0.0856336 0
0.449271 0.0872969 0
0.475273 0.0889754 0
0.501152 0.0906996 0
0.526909 0.0924392 0
0.55256 0.0942245 0
0.578103 0.096025 0
0.60354 0.0978561 0
0.628885 0.0997177 0
0.654124 0.10161 0
0.679286 0.103517 0
0.704356 0.105455 0
0.729351 0.107408 0
0.754253 0.109392 0
0.779095 0.111391 0
0.803861 0.113405 0
0.828565 0.115434 0
0.852918 0.117556 0
0.0214389 0.08925 0
0.0441291 0.0932479 0
0.0695659 0.0961624 0
0.097322 0.0981003 0
0.126131 0.0997024 0
0.155413 0.100908 0
0.184314 0.101961 0
0.212604 0.103059 0
0.240436 0.10425 0
0.267948 0.105516 0
0.295201 0.106874 0
0.322225 0.108278 0
0.34902 0.109743 0
0.375647 0.111254 0
0.402045 0.112825 0
0.42829 0.114443 0
0.454383 0.116106 0
0.480354 0.1178 0
0.506203 0.119524 0
0.53196 0.121279 0
0.55758 0.123049 0
0.583108 0.124865 0
0.60853 0.126711 0
0.633844 0.128573 0
0.659083 0.130465 0
0.684215 0.132387 0
0.709285 0.134325 0
0.734264 0.136278 0
0.759152 0.138262 0
0.783978 0.140261 0
0.808743 0.142275 0
0.833417 0.14432 0
0.857771 0.146441 0
0.0361334 0.114366 0
0.0565347 0.118959 0
0.0793622 0.122774 0
0.105196 0.125429 0
0.132509 0.127474 0
0.160784 0.129198 0
0.189471 0.130541 0
0.217899 0.131746 0
0.245853 0.132967 0
0.273335 0.134249 0
0.300557 0.135607 0
0.327535 0.137026 0
0.354314 0.138491 0
0.380896 0.140017 0
0.407279 0.141604 0
0.433494 0.143221 0
0.459556 0.1449 0
0.485512 0.146593 0
0.51136 0.148318 0
0.537072 0.150072 0
0.562692 0.151858 0
0.58819 0.153674 0
0.613596 0.15552 0
0.638911 0.157397 0
0.664118 0.159289 0
0.68925 0.161212 0
0.71429 0.163149 0
0.739254 0.165118 0
0.764141 0.167102 0
0.788952 0.1691 0
0.813703 0.17113 0
0.838376 0.173175 0
0.862699 0.175296 0
0.0504768 0.13962 0
0.0695048 0.144488 0
0.0902419 0.148974 0
0.113985 0.152407 0
0.139849 0.15494 0
0.166827 0.157061 0
0.194705 0.158877 0
0.222934 0.160357 0
0.250965 0.161685 0
0.278614 0.162997 0
0.305837 0.16437 0
0.332784 0.165789 0
0.359533 0.167285 0
0.386099 0.168811 0
0.412451 0.170397 0
0.438651 0.17203 0
0.464683 0.173693 0
0.490608 0.175402 0
0.516442 0.177142 0
0.542138 0.178897 0
0.567742 0.180697 0
0.593225 0.182513 0
0.618616 0.18436 0
0.6439 0.186236 0
0.669108 0.188144 0
0.694224 0.190066 0
0.719249 0.192004 0
0.744198 0.193973 0
0.76907 0.195956 0
0.793881 0.197971 0
0.818616 0.2 0
0.843275 0.202045 0
0.867597 0.204166 0
0.0644846 0.164996 0
0.0827497 0.16997 0
0.101946 0.174868 0
0.123766 0.178988 0
0.147967 0.182177 0
0.1738 0.184634 0
0.200519 0.186831 0
0.228046 0.188724 0
0.255894 0.190311 0
0.283589 0.191745 0
0.310979 0.193149 0
0.337987 0.194583 0
0.364706 0.196078 0
0.391241 0.19762 0
0.417578 0.199207 0
0.443748 0.200855 0
0.469764 0.202533 0
0.495674 0.204242 0
0.521477 0.205966 0
0.547173 0.207736 0
0.572747 0.209537 0
0.598215 0.211368 0
0.62359 0.213214 0
0.648875 0.215091 0
0.674052 0.216999 0
0.699153 0.218921 0
0.724178 0.220874 0
0.749111 0.222843 0
0.773968 0.224842 0
0.798764 0.226856 0
0.823484 0.228885 0
0.848127 0.23093 0
0.87245 0.233066 0
0.0782177 0.190494 0
0.0960555 0.195468 0
0.114214 0.200595 0
0.134401 0.205234 0
0.156939 0.209049 0
0.181445 0.212039 0
0.207156 0.214496 0
0.233692 0.216754 0
0.260914 0.218708 0
0.288426 0.220386 0
0.315847 0.221912 0
0.342992 0.223392 0
0.369818 0.224887 0
0.396353 0.226444 0
0.42266 0.228046 0
0.448798 0.229679 0
0.4748 0.231373 0
0.500694 0.233082 0
0.526482 0.234821 0
0.552148 0.236591 0
0.577707 0.238407 0
0.603159 0.240238 0
0.628519 0.242084 0
0.653788 0.243977 0
0.678965 0.245884 0
0.704051 0.247807 0
0.729046 0.24976 0
0.753979 0.251743 0
0.77882 0.253727 0
0.803601 0.255741 0
0.828321 0.257771 0
0.852949 0.259831 0
0.877256 0.261967 0
0.0915999 0.216098 0.00906386
0.109148 0.221057 0.00306706
0.12668 0.226291 0
0.145617 0.231281 0
0.166583 0.23563 0
0.18967 0.239185 0
0.214328 0.242039 0
0.239918 0.244541 0
0.266255 0.24683 0
0.293217 0.248844 0
0.320455 0.250599 0
0.347616 0.252216 0
0.374548 0.253773 0
0.401205 0.255344 0
0.427543 0.256947 0
0.453666 0.258595 0
0.479652 0.260288 0
0.505516 0.261997 0
0.531289 0.263752 0
0.556939 0.265522 0
0.582483 0.267338 0
0.607935 0.269169 0
0.63328 0.271031 0
0.658518 0.272923 0
0.68368 0.27483 0
0.708766 0.276753 0
0.733745 0.278721 0
0.758663 0.28069 0
0.783505 0.282689 0
0.80827 0.284703 0
0.832975 0.286748 0
0.857603 0.288792 0
0.881895 0.290944 0
0.104891 0.241749 0.020264
0.122286 0.246677 0.0151522
0.139422 0.251911 0.00759899
0.157427 0.25713 0
0.177111 0.261906 0
0.198779 0.265965 0
0.222232 0.269322 0
0.246952 0.272099 0
0.272435 0.274632 0
0.298604 0.276967 0
0.325338 0.279026 0
0.352316 0.280858 0
0.379248 0.282551 0
0.405997 0.284169 0
0.432456 0.285801 0
0.458656 0.287465 0
0.484611 0.289158 0
0.51046 0.290883 0
0.536217 0.292622 0
0.561852 0.294408 0
0.587381 0.296223 0
0.612818 0.298054 0
0.638148 0.299931 0
0.663386 0.301808 0
0.688533 0.303731 0
0.713588 0.305669 0
0.738567 0.307622 0
0.76347 0.309606 0
0.788296 0.311604 0
0.813062 0.313619 0
0.837751 0.315663 0
0.862364 0.317723 0
0.886656 0.31986 0
0.117998 0.26746 0.0313726
0.135302 0.272343 0.0269932
0.152193 0.277562 0.0203555
0.169574 0.282902 0.0112001
0.18819 0.287968 0.000976577
0.208591 0.292485 0
0.230808 0.296315 0
0.254505 0.299519 0
0.279225 0.302251 0
0.304601 0.304814 0
0.330617 0.307179 0
0.357153 0.3093 0
0.383902 0.311192 0
0.41062 0.312947 0
0.437156 0.314641 0
0.463462 0.316335 0
0.489525 0.318029 0
0.515389 0.319768 0
0.541115 0.321523 0
0.566735 0.323308 0
0.592248 0.325124 0
0.61767 0.32697 0
0.642985 0.328832 0
0.668208 0.330724 0
0.693339 0.332647 0
0.718395 0.334585 0
0.743358 0.336553 0
0.768246 0.338537 0
0.793072 0.340536 0
0.817807 0.34255 0
0.842496 0.344594 0
0.867109 0.346654 0
0.891371 0.348806 0
0.130953 0.293233 0.0423743
0.148211 0.298054 0.0386511
0.164904 0.303273 0.0327459
0.181903 0.308629 0.024445
0.19971 0.313909 0.0145876
0.219013 0.318776 0.00444038
0.240024 0.323049 0
0.262638 0.32668 0
0.286503 0.329778 0
0.311192 0.332494 0
0.336461 0.335088 0
0.362341 0.337484 0
0.388678 0.339651 0
0.415229 0.341604 0
0.441733 0.34342 0
0.468086 0.345174 0
0.494255 0.346914 0
0.520226 0.348653 0
0.545998 0.350423 0
0.571603 0.352209 0
0.597101 0.354025 0
0.622492 0.355871 0
0.647791 0.357748 0
0.672999 0.35964 0
0.698131 0.361563 0
0.723171 0.363516 0
0.748119 0.365484 0
0.773007 0.367468 0
0.797803 0.369467 0
0.822553 0.371496 0
0.847211 0.373541 0
0.871809 0.375601 0
0.896071 0.377752 0
0.143771 0.319051 0.0533303
0.160983 0.323827 0.0501411
0.1776 0.329 0.0449531
0.194324 0.334356 0.0374609
0.211536 0.339773 0.0281224
0.229908 0.3449 0.0180209
0.249851 0.349538 0.00820935
0.271382 0.353597 0
0.294286 0.357076 0
0.318242 0.360082 0
0.34287 0.362814 0
0.368063 0.365423 0
0.393805 0.367849 0
0.419974 0.370062 0
0.446296 0.372076 0
0.472618 0.373953 0
0.498817 0.375769 0
0.524865 0.377554 0
0.550744 0.379324 0
0.576425 0.381125 0
0.601907 0.382956 0
0.627298 0.384802 0
0.652583 0.386679 0
0.677775 0.388571 0
0.702892 0.390494 0
0.727916 0.392447 0
0.752865 0.394415 0
0.777737 0.396399 0
0.802533 0.398413 0
0.827253 0.400443 0
0.851911 0.402487 0
0.876509 0.404547 0
0.900755 0.406699 0
0.156466 0.3449 0.0642252
0.173663 0.349645 0.0615091
0.190219 0.354772 0.0569467
0.206775 0.360098 0.0502327
0.223545 0.365576 0.0415198
0.241199 0.370901 0.0316777
0.260182 0.375845 0.0216526
0.280674 0.38027 0.012314
0.302602 0.384146 0.0043183
0.325734 0.387503 0
0.349737 0.390448 0
0.374304 0.39321 0
0.399405 0.395834 0
0.425025 0.398291 0
0.450996 0.400534 0
0.477134 0.402609 0
0.503288 0.404547 0
0.529366 0.406409 0
0.555322 0.408225 0
0.581094 0.41004 0
0.606683 0.411872 0
0.632074 0.413733 0
0.657359 0.41561 0
0.682536 0.417517 0
0.707637 0.41944 0
0.732647 0.421393 0
0.75758 0.423362 0
0.782437 0.425361 0
0.807233 0.427375 0
0.831937 0.429404 0
0.856596 0.431449 0
0.881178 0.433509 0
0.905425 0.43566 0.000335698
0.168963 0.370825 0.0749828
0.18613 0.37554 0.0726787
0.202655 0.380606 0.0686809
0.219059 0.385946 0.062562
0.235584 0.391409 0.0546273
0.252674 0.396857 0.0452125
0.270848 0.402045 0.0352026
0.290394 0.40679 0.0254673
0.311345 0.411017 0.0166934
0.333577 0.41474 0.00929274
0.356847 0.418006 0.00340276
0.380865 0.42092 0
0.405371 0.423713 0
0.430381 0.426352 0
0.455848 0.42884 0
0.481651 0.431128 0
0.507637 0.433249 0
0.533654 0.435233 0
0.559625 0.43714 0
0.585458 0.439002 0
0.611124 0.440864 0
0.636622 0.442725 0
0.661952 0.444602 0
0.687114 0.446525 0
0.7122 0.448447 0
0.737209 0.450401 0
0.762127 0.452369 0
0.786984 0.454368 0
0.811765 0.456382 0
0.836469 0.458412 0
0.861097 0.460472 0
0.885679 0.462531 0.00143435
0.909911 0.464698 0.00378424
0.18146 0.39675 0.0858015
0.198611 0.401434 0.0838483
0.215122 0.406455 0.080354
0.231449 0.411749 0.0748608
0.247776 0.417212 0.0676127
0.264439 0.422736 0.0586862
0.281956 0.428092 0.0488899
0.300664 0.433097 0.0389715
0.320714 0.437659 0.029633
0.342077 0.441733 0.0214237
0.364553 0.445319 0.0145876
0.387915 0.448508 0.00917067
0.411917 0.451408 0.00471504
0.436362 0.454215 0
0.461265 0.456886 0
0.486595 0.459403 0
0.512276 0.461723 0
0.538125 0.46389 0
0.564019 0.465904 0
0.589868 0.467857 0
0.615579 0.469764 0
0.641154 0.471656 0
0.666575 0.473564 0
0.691814 0.475471 0
0.716915 0.477409 0
0.741909 0.479362 0
0.766812 0.481331 0
0.791653 0.48333 0
0.816419 0.485359 0
0.841108 0.487388 0.000518807
0.865751 0.489448 0.00276188
0.890303 0.491508 0.00502022
0.914534 0.493675 0.00738537
0.193851 0.422705 0.0965744
0.211002 0.427359 0.0949569
0.227512 0.432349 0.0918898
0.243793 0.437583 0.0869612
0.259998 0.443015 0.0803693
0.276326 0.448585 0.0720073
0.293324 0.454063 0.0625467
0.31133 0.459297 0.0526284
0.330556 0.464134 0.0429541
0.351049 0.468513 0.0341192
0.372717 0.472435 0.0264134
0.395361 0.475914 0.0200809
0.418799 0.479042 0.0151064
0.442771 0.481956 0.0106661
0.46714 0.484779 0.00584421
0.491951 0.48748 0.00105287
0.517174 0.490013 0
0.542733 0.492363 0
0.568475 0.49456 0
0.594232 0.49662 0
0.619959 0.498619 0
0.645563 0.500572 0
0.671046 0.502495 0
0.696376 0.504433 0
0.721553 0.506371 0
0.746578 0.508324 0
0.771481 0.510307 0
0.796307 0.512306 0
0.821057 0.514321 0.0018616
0.845747 0.516365 0.00408942
0.870359 0.518425 0.00634775
0.894926 0.5205 0.00860609
0.919142 0.522652 0.0109712
0.20618 0.448692 0.107347
0.223316 0.453315 0.105989
0.239826 0.458259 0.103319
0.256077 0.463462 0.0988937
0.272129 0.468894 0.0927749
0.288304 0.474434 0.0851301
0.304891 0.480003 0.0760967
0.322301 0.48539 0.066331
0.34078 0.490455 0.0565042
0.360464 0.495125 0.0471809
0.381323 0.499352 0.0388037
0.40325 0.503136 0.031632
0.426047 0.506539 0.0257572
0.449516 0.509621 0.021088
0.473411 0.512551 0.0166781
0.497719 0.515389 0.0119478
0.522454 0.51812 0.00712596
0.547585 0.520668 0.0027924
0.573037 0.523049 0
0.598657 0.525277 0
0.624292 0.527382 0
0.649897 0.529412 0
0.67541 0.531411 0
0.700801 0.533364 0
0.726055 0.535332 0
0.751156 0.537301 0
0.77612 0.539284 0.00103761
0.800946 0.541283 0.00320439
0.825681 0.543313 0.00541695
0.850355 0.545342 0.00764477
0.874968 0.547402 0.0099031
0.899519 0.549477 0.0121767
0.92372 0.551644 0.0145418
0.218433 0.474693 0.11809
0.235554 0.479301 0.116991
0.252064 0.484215 0.114656
0.268299 0.489372 0.110689
0.284291 0.494759 0.105119
0.300328 0.500298 0.0980697
0.316594 0.505898 0.0894942
0.333501 0.511406 0.0800183
0.351339 0.51667 0.0701915
0.370291 0.521584 0.0605631
0.390387 0.526101 0.0516518
0.411551 0.530175 0.0437476
0.433677 0.533867 0.0370489
0.456565 0.537194 0.0315862
0.480034 0.540246 0.0272221
0.503868 0.543206 0.0227359
0.52813 0.546059 0.0179751
0.552804 0.548791 0.0132601
0.577859 0.551354 0.0089723
0.603204 0.553765 0.00549325
0.628702 0.556039 0.00300603
0.654215 0.558175 0.00163272
0.679713 0.56025 0.00108339
0.705135 0.56228 0.0012665
0.730434 0.564279 0.00204471
0.755596 0.566262 0.00329595
0.780636 0.568261 0.00491341
0.805524 0.570275 0.00682078
0.830289 0.57229 0.0089723
0.854963 0.574334 0.0112001
0.879561 0.576394 0.0134585
0.904097 0.57847 0.0157321
0.928298 0.580636 0.0180972
0.230533 0.50074 0.12874
0.247654 0.505333 0.127871
0.264164 0.510216 0.125856
0.2804 0.515328 0.122301
0.296361 0.520684 0.117235
0.312276 0.526192 0.110735
0.328298 0.531823 0.102693
0.344823 0.537408 0.0935683
0.362112 0.542824 0.0838636
0.380392 0.547951 0.0741131
0.399741 0.552712 0.0647898
0.420188 0.557076 0.0562905
0.441611 0.561044 0.0488441
0.46389 0.56463 0.0425879
0.486824 0.56791 0.0375067
0.510262 0.570962 0.0332647
0.534081 0.573922 0.028748
0.558282 0.576806 0.0240024
0.58291 0.579538 0.0193332
0.607874 0.582132 0.0151217
0.633097 0.584573 0.0116732
0.658473 0.586862 0.00920119
0.683894 0.589059 0.00776684
0.709285 0.591165 0.00715648
0.7346 0.593225 0.00726329
0.759808 0.595254 0.00796521
0.784909 0.597284 0.00914015
0.809888 0.599298 0.0106661
0.834714 0.601328 0.0125277
0.859434 0.603372 0.0146181
0.884016 0.605432 0.0168765
0.908553 0.607523 0.0191501
0.932738 0.609689 0.0215152
0.242618 0.526802 0.139437
0.259739 0.531365 0.138766
0.276249 0.536217 0.137026
0.2925 0.541299 0.133852
0.308415 0.546624 0.129229
0.324208 0.552117 0.123156
0.340124 0.557717 0.115755
0.356329 0.563363 0.107042
0.373159 0.568887 0.0975662
0.390845 0.574197 0.0878157
0.409537 0.579187 0.078233
0.429267 0.58381 0.0691844
0.450019 0.588022 0.0611887
0.471656 0.591882 0.0541848
0.494041 0.595407 0.0483406
0.517006 0.598642 0.043595
0.540429 0.601694 0.0393988
0.564218 0.604669 0.0348516
0.588403 0.607553 0.0301213
0.612955 0.6103 0.0255131
0.637827 0.612909 0.0213626
0.662943 0.615381 0.0179599
0.688212 0.617716 0.0154879
0.713512 0.619928 0.014023
0.738811 0.62208 0.0133516
0.764035 0.62417 0.0133822
0.789166 0.62623 0.0140078
0.814191 0.62829 0.0151064
0.839094 0.630335 0.0165866
0.863874 0.63238 0.0183719
0.888533 0.634455 0.0204166
0.913069 0.63653 0.0226444
0.937255 0.638697 0.0250248
0.254673 0.552865 0.150149
0.271778 0.557427 0.14966
0.288289 0.562249 0.148165
0.304555 0.567285 0.145327
0.32047 0.572564 0.141131
0.336202 0.578042 0.135531
0.351995 0.583627 0.128664
0.367941 0.589288 0.120378
0.384405 0.594903 0.111223
0.401587 0.600351 0.101564
0.419684 0.605524 0.0918746
0.438773 0.610361 0.0825666
0.458854 0.614832 0.074052
0.479835 0.618967 0.0663157
0.501625 0.622736 0.0597391
0.524086 0.6262 0.0542458
0.547097 0.629389 0.0497597
0.570504 0.632441 0.0455787
0.594263 0.635431 0.041001
0.618402 0.638315 0.0363012
0.642893 0.641093 0.0317388
0.667674 0.643717 0.0276646
0.692699 0.646204 0.0243076
0.717861 0.648569 0.0218357
0.743053 0.650828 0.0203403
0.768261 0.65301 0.0196078
0.793393 0.655131 0.0195773
0.818448 0.657237 0.0201267
0.843397 0.659312 0.0211643
0.868238 0.661387 0.0225834
0.892973 0.663462 0.0243076
0.917571 0.665537 0.0262913
0.941787 0.66772 0.0285649
0.266667 0.578958 0.16083
0.283757 0.58349 0.16051
0.300282 0.588296 0.159258
0.316548 0.593301 0.15671
0.332464 0.59855 0.152911
0.348165 0.603983 0.147753
0.363821 0.609567 0.141299
0.379629 0.615228 0.133577
0.395773 0.62089 0.124758
0.412543 0.626444 0.115312
0.430106 0.631769 0.105608
0.448585 0.63682 0.0960861
0.468009 0.641535 0.0870832
0.48838 0.645884 0.0788739
0.50956 0.649897 0.0716411
0.531487 0.65359 0.0654459
0.554025 0.657008 0.0602884
0.577066 0.660166 0.0560616
0.600458 0.663233 0.0517739
0.624186 0.666224 0.0471809
0.648264 0.669123 0.0425116
0.672694 0.671916 0.0380255
0.697398 0.674571 0.0340124
0.722316 0.677073 0.0306859
0.747387 0.679469 0.0282139
0.772488 0.681758 0.0267033
0.797589 0.68397 0.0259098
0.822644 0.686122 0.0258183
0.847623 0.688258 0.0263066
0.872511 0.690364 0.0272679
0.897276 0.692454 0.0286259
0.92195 0.69456 0.0302892
0.946227 0.696727 0.0323033
0.278614 0.605051 0.171527
0.295689 0.609583 0.171359
0.312215 0.614359 0.170306
0.328496 0.619348 0.168048
0.344411 0.624552 0.164584
0.360082 0.629953 0.159838
0.375662 0.635523 0.153796
0.391363 0.641154 0.146609
0.407248 0.64686 0.138186
0.423651 0.652491 0.128985
0.440757 0.657954 0.119387
0.458686 0.663172 0.109758
0.477516 0.668086 0.100465
0.497261 0.672679 0.0917983
0.517861 0.676921 0.0839857
0.539223 0.680842 0.0771344
0.561257 0.684474 0.0713054
0.583856 0.687831 0.0664378
0.606912 0.690974 0.0623178
0.630289 0.694057 0.0579843
0.653986 0.697063 0.0533608
0.678019 0.699977 0.0487831
0.702373 0.70277 0.044358
0.727001 0.70544 0.0403906
0.751827 0.707973 0.0371099
0.776791 0.710399 0.034638
0.801801 0.712718 0.0330968
0.826825 0.714961 0.0322576
0.851789 0.717144 0.032105
0.876692 0.719295 0.032517
0.901518 0.721431 0.0334173
0.926223 0.723552 0.0347143
0.950561 0.725734 0.0364233
0.290471 0.631174 0.182162
0.30753 0.635706 0.182147
0.324071 0.640452 0.181277
0.340352 0.645411 0.179278
0.356283 0.650584 0.17615
0.371939 0.655955 0.171786
0.387472 0.661494 0.166171
0.403082 0.667109 0.159472
0.418769 0.672831 0.151446
0.434867 0.678523 0.142565
0.45156 0.684092 0.13312
0.469001 0.689448 0.123491
0.487282 0.69456 0.114
0.506447 0.699351 0.104982
0.526452 0.703822 0.0966964
0.54725 0.707973 0.0892653
0.56875 0.711803 0.0827649
0.59089 0.715373 0.0772259
0.61355 0.718685 0.0726177
0.636606 0.721843 0.0685588
0.659953 0.724926 0.06421
0.683604 0.727947 0.0596475
0.707591 0.730861 0.0550546
0.731868 0.733669 0.0506752
0.75642 0.736355 0.0467689
0.78117 0.738918 0.0435187
0.806043 0.741375 0.0410468
0.830961 0.743709 0.0394751
0.855894 0.745983 0.0386053
0.880796 0.748211 0.0383917
0.905623 0.750393 0.0387427
0.930373 0.752544 0.0395819
0.954742 0.754757 0.0409094
0.302266 0.657328 0.192782
0.31931 0.661845 0.192889
0.335851 0.66659 0.192203
0.352132 0.671504 0.190433
0.368078 0.676646 0.187594
0.383734 0.681987 0.183597
0.399237 0.687495 0.178393
0.414679 0.693126 0.171984
0.430304 0.698817 0.164538
0.446159 0.70454 0.156008
0.462501 0.710185 0.146792
0.479515 0.715679 0.13724
0.497292 0.720928 0.127672
0.515892 0.725917 0.118395
0.535302 0.730617 0.109575
0.555566 0.734966 0.101732
0.576547 0.739025 0.0946517
0.598199 0.742794 0.0884871
0.620417 0.746303 0.0832227
0.643122 0.749584 0.0788891
0.666148 0.752743 0.074815
0.689464 0.75584 0.0704356
0.713085 0.758862 0.0659342
0.737011 0.761791 0.061326
0.761227 0.76463 0.057023
0.785702 0.76733 0.0531624
0.810361 0.769909 0.0499428
0.835157 0.772381 0.0474708
0.859983 0.774762 0.0458686
0.884825 0.777066 0.0449531
0.909651 0.779309 0.0446784
0.934417 0.781506 0.0449836
0.958816 0.783764 0.0458534
0.314061 0.683482 0.203449
0.33109 0.687984 0.203677
0.347631 0.692699 0.203159
0.363943 0.697612 0.201602
0.379889 0.702708 0.199039
0.395544 0.708019 0.195361
0.411017 0.713497 0.190524
0.426413 0.719112 0.184527
0.441932 0.724773 0.177539
0.457588 0.730526 0.169375
0.47364 0.736233 0.160433
0.490272 0.741817 0.151019
0.507591 0.747219 0.141451
0.525689 0.752361 0.132006
0.544579 0.757244 0.123003
0.564309 0.761776 0.114778
0.584726 0.766079 0.107012
0.605875 0.770062 0.100252
0.627649 0.773754 0.094377
0.649927 0.777218 0.0893873
0.672633 0.780484 0.0851759
0.695659 0.783642 0.0811475
0.718944 0.786755 0.0767681
0.742519 0.789792 0.0722515
0.7664 0.792737 0.0677195
0.79057 0.795575 0.0634623
0.814969 0.798291 0.0596628
0.839551 0.8009 0.0564736
0.86424 0.803388 0.0540169
0.888991 0.805798 0.0523995
0.913771 0.808118 0.0514382
0.938506 0.810391 0.051133
0.962921 0.812696 0.0514992
0.325826 0.709636 0.214115
0.34284 0.714122 0.21445
0.35938 0.718837 0.214084
0.375692 0.72372 0.212726
0.391653 0.728801 0.210407
0.407324 0.734066 0.20705
0.422782 0.739513 0.202564
0.438132 0.745098 0.196963
0.453574 0.750759 0.190402
