site/assets/luts/freshluts--0001344-natural-love.cube
# LUTr-Schema-Version: 2
# LUTr-ID: freshluts--0001344-natural-love
# LUTr-Title: Natural LOVE
# LUTr-Collection: Fresh LUTs
# LUTr-Collection-ID: freshluts-community
# LUTr-Source: https://freshluts.com
# LUTr-Retrieved: 2026-07-27
# LUTr-Source-File: submissions-raw/freshluts/cubes/1344__natural.cube
# LUTr-Source-Format: CUBE
# LUTr-Source-SHA256: 3f19d5d909cac52a85ef85f8b55fc54c6a5b128b3aeb66cf3c61ee89778f960a
# LUTr-License: CC0-1.0
# LUTr-License-URL: https://freshluts.com/termsandconditions
# LUTr-License-Basis: site-terms
# LUTr-Transform-Class: creative-look
# LUTr-Tags: creative, freshluts, community, cube, red, high-key, rec709
# LUTr-Input-Color-Space: rec709
# LUTr-Input-Gamut: rec709
# LUTr-Input-Transfer: rec709
# LUTr-Output-Color-Space: srgb
# LUTr-Output-Gamut: rec709
# LUTr-Output-Transfer: srgb
# LUTr-Color-Space-Confidence: declared-by-source
# LUTr-Domain-Normalized: true
# LUTr-Shaper: none
# LUTr-Original-Grid: 16x16x16
# LUTr-Conversion-Grid: 16x16x16
# LUTr-Conversion-Interpolation: none
# LUTr-Conversion-Method: Metadata normalization; numeric LUT samples preserved
# LUTr-Conversion-Tool: LUTr scripts/convert-all-to-cube.mjs 2.0.0
# LUTr-Conversion-Date: 2026-07-28
# LUTr-Asset-URL: https://freshluts.com/luts/1344
# LUTr-Author: lvannoeun@gmail.com
# LUTr-Author-URL: https://freshluts.com/users/57563
# LUTr-Attribution: lvannoeun@gmail.com via Fresh LUTs
# LUTr-Source-Labels: gamma=Rec 709; color=Red; key=High Key; style=Colorful
# LUTr-Note: Preserve this metadata and the upstream license notices when redistributing.
TITLE "Natural LOVE"
LUT_3D_SIZE 16
DOMAIN_MIN 0 0 0
DOMAIN_MAX 1 1 1
0.011657 0 0.023932
0.011657 -0.000144 0.023932
0.037355 -0.000356 0.023932
0.114806 -0.000605 0.023931
0.20918 -0.00088 0.023931
0.305411 -0.001178 0.023929
0.401717 -0.001495 0.023929
0.496025 -0.001828 0.023926
0.586603 -0.002174 0.023921
0.667168 -0.00251 0.023918
0.737514 -0.00283 0.023915
0.798771 -0.003131 0.023908
0.852179 -0.00341 0.023908
0.898492 -0.003663 0.023901
0.937571 -0.003882 0.023901
0.96577 -0.004041 0.023895
0.011657 0 0.023932
0.011657 0 0.023932
0.037355 0.008025 0.023932
0.114806 0.021271 0.023931
0.20918 0.030216 0.02393
0.305411 0.036484 0.023929
0.401717 0.040988 0.023929
0.496025 0.044144 0.023926
0.586603 0.046223 0.023921
0.667168 0.046917 0.023918
0.737514 0.046632 0.023915
0.798771 0.045699 0.023908
0.852179 0.044381 0.023908
0.898492 0.042807 0.023901
0.937571 0.041045 0.023901
0.96577 0.038919 0.023895
0.011657 0.020687 0.023931
0.023378 0.020687 0.023931
0.03749 0.020687 0.023931
0.114806 0.054535 0.023931
0.20918 0.077472 0.02393
0.305411 0.093555 0.023928
0.401717 0.105103 0.023928
0.496025 0.11321 0.023924
0.586603 0.118526 0.02392
0.667168 0.120342 0.02392
0.737513 0.119602 0.023913
0.798771 0.117221 0.023907
0.852178 0.113834 0.023907
0.898492 0.10981 0.023899
0.937571 0.105288 0.023899
0.96577 0.099868 0.023894
0.011655 0.094777 0.02393
0.038158 0.094777 0.02393
0.073237 0.094777 0.02393
0.114987 0.094777 0.023929
0.209179 0.134385 0.023928
0.305411 0.161006 0.023928
0.401716 0.179022 0.023926
0.496025 0.191232 0.023922
0.586603 0.199041 0.023919
0.667168 0.201685 0.023917
0.737513 0.200603 0.02391
0.798771 0.19712 0.023906
0.852178 0.192131 0.023904
0.898492 0.186157 0.0239
0.937571 0.179297 0.023896
0.96577 0.170944 0.023891
0.011654 0.193336 0.023929
0.04769 0.193336 0.023929
0.097088 0.193336 0.023929
0.15346 0.193336 0.023928
0.209322 0.193335 0.023928
0.30541 0.227013 0.023926
0.401715 0.249978 0.023922
0.496024 0.26554 0.023918
0.586603 0.275495 0.023919
0.667168 0.278864 0.023912
0.737513 0.277495 0.023906
0.798771 0.273075 0.023906
0.852178 0.266724 0.023899
0.898492 0.259061 0.023899
0.937571 0.250351 0.023892
0.965769 0.239685 0.023891
0.011649 0.290604 0.023924
0.054287 0.290604 0.023924
0.113805 0.290604 0.023924
0.178438 0.290603 0.023923
0.242287 0.290603 0.023922
0.305523 0.290603 0.023921
0.401713 0.318253 0.023919
0.496024 0.337076 0.023918
0.586602 0.34916 0.023912
0.667168 0.353214 0.023906
0.737512 0.351594 0.023906
0.798771 0.346223 0.023899
0.852178 0.338561 0.023899
0.898492 0.329238 0.023892
0.937571 0.318712 0.023889
0.965769 0.305809 0.023885
0.011643 0.384661 0.023919
0.058984 0.384661 0.023918
0.125403 0.384661 0.023918
0.195572 0.38466 0.023917
0.264866 0.38466 0.02392
0.333557 0.384659 0.023919
0.401735 0.384659 0.023917
0.496023 0.406672 0.023911
0.586602 0.420758 0.023905
0.66729 0.425584 0.023905
0.737511 0.423611 0.023897
0.79877 0.417335 0.023897
0.852178 0.408307 0.02389
0.898491 0.39749 0.023887
0.93757 0.385145 0.023881
0.965769 0.370067 0.02388
0.011634 0.474669 0.023911
0.062286 0.474669 0.02391
0.133347 0.474669 0.02391
0.207311 0.474669 0.023909
0.280335 0.474669 0.023908
0.352723 0.474668 0.023907
0.424632 0.474668 0.023905
0.496052 0.474668 0.023909
0.586602 0.490754 0.023902
0.66729 0.49622 0.023901
0.73751 0.493981 0.023893
0.79877 0.486806 0.02389
0.852177 0.476551 0.023882
0.898491 0.464164 0.023879
0.93757 0.450069 0.023881
0.965768 0.432845 0.023878
0.011621 0.559331 0.023903
0.064428 0.559331 0.023902
0.138407 0.559331 0.023902
0.214815 0.559331 0.023901
0.290287 0.559331 0.0239
0.364999 0.55933 0.023898
0.439216 0.55933 0.023899
0.513041 0.55933 0.0239
0.586501 0.55933 0.023896
0.66729 0.565567 0.023888
0.737508 0.563094 0.023883
0.79877 0.555045 0.023879
0.852177 0.543506 0.023879
0.89849 0.529597 0.023873
0.937569 0.513786 0.023871
0.965768 0.4944 0.023869
0.011607 0.633572 0.023891
0.065151 0.633572 0.023891
0.140114 0.633572 0.02389
0.217318 0.633572 0.02389
0.293603 0.633571 0.023888
0.369156 0.633571 0.02389
0.444152 0.633571 0.023887
0.518696 0.633571 0.023884
0.592959 0.633571 0.02388
0.66689 0.633571 0.023879
0.737507 0.631043 0.023878
0.798769 0.622096 0.023873
0.852176 0.609364 0.023866
0.89849 0.593951 0.02386
0.937569 0.576434 0.02386
0.965767 0.555011 0.023859
0.011588 0.697721 0.023879
0.064828 0.697721 0.023879
0.139427 0.697721 0.023878
0.21629 0.697721 0.023879
0.292205 0.697721 0.023881
0.367386 0.697721 0.023879
0.442135 0.697721 0.023876
0.516369 0.697721 0.023873
0.590318 0.697721 0.023872
0.663972 0.69772 0.023868
0.737153 0.69772 0.023862
0.798768 0.688135 0.023859
0.852176 0.674165 0.023852
0.898489 0.657288 0.02385
0.937568 0.638116 0.023851
0.965767 0.614632 0.023851
0.011569 0.753116 0.023864
0.063844 0.753116 0.023864
0.137093 0.753116 0.023863
0.212871 0.753116 0.023862
0.287716 0.753116 0.023861
0.361814 0.753116 0.023861
0.435469 0.753116 0.023861
0.508705 0.753115 0.023858
0.581522 0.753115 0.023853
0.654034 0.753115 0.023849
0.726304 0.753115 0.023851
0.798191 0.753115 0.023845
0.852175 0.738201 0.023841
0.898488 0.720039 0.02384
0.937568 0.699098 0.023837
0.965766 0.673566 0.023838
0.01155 0.801157 0.023852
0.062466 0.801157 0.023852
0.133831 0.801157 0.023852
0.208057 0.801157 0.023851
0.281359 0.801157 0.023849
0.353962 0.801157 0.023847
0.426147 0.801157 0.023845
0.497808 0.801157 0.023842
0.56915 0.801157 0.023841
0.640177 0.801157 0.023839
0.710831 0.801157 0.023834
0.781461 0.801157 0.023829
0.851654 0.801156 0.023822
0.898488 0.781735 0.023821
0.937567 0.759209 0.023822
0.965765 0.731649 0.023822
0.011529 0.842655 0.023834
0.060805 0.842655 0.023834
0.129911 0.842655 0.023834
0.202266 0.842655 0.023833
0.273721 0.842655 0.023831
0.34454 0.842655 0.023832
0.414809 0.842655 0.023829
0.484688 0.842655 0.023826
0.55421 0.842655 0.023822
0.62344 0.842655 0.023821
0.692415 0.842655 0.023822
0.761115 0.842654 0.023815
0.829648 0.842654 0.02381
0.898021 0.842654 0.023802
0.937566 0.818939 0.023801
0.965764 0.789286 0.023806
0.01151 0.877356 0.023823
0.05895 0.877356 0.023823
0.125453 0.877356 0.023822
0.19571 0.877356 0.023822
0.265086 0.877356 0.02382
0.333811 0.877356 0.023818
0.40204 0.877356 0.023816
0.469831 0.877356 0.023813
0.537325 0.877356 0.023811
0.604568 0.877356 0.023806
0.671505 0.877356 0.023801
0.738047 0.877356 0.023801
0.804629 0.877355 0.023794
0.87101 0.877355 0.023789
0.937112 0.877355 0.023786
0.965763 0.846306 0.023792
0.011495 0.902378 0.023807
0.056722 0.902378 0.023806
0.120043 0.902378 0.023806
0.187683 0.902378 0.023806
0.254505 0.902378 0.023804
0.320688 0.902378 0.023803
0.386425 0.902377 0.023802
0.451716 0.902377 0.023803
0.516761 0.902377 0.023799
0.581464 0.902377 0.023795
0.645792 0.902377 0.02379
0.710199 0.902377 0.023793
0.774089 0.902377 0.023786
0.838086 0.902376 0.023781
0.901694 0.902376 0.023776
0.965141 0.902376 0.02377
0.011657 -0.000092 0.023932
0.011657 -0.000163 0.023932
0.037355 -0.000365 0.038524
0.114806 -0.000611 0.055958
0.20918 -0.000885 0.066869
0.305411 -0.001182 0.074311
0.401717 -0.001498 0.079589
0.496025 -0.001831 0.083267
0.586603 -0.002177 0.085654
0.667168 -0.002512 0.086474
0.737514 -0.002831 0.086131
0.798771 -0.003133 0.085062
0.852179 -0.003411 0.083537
0.898492 -0.003664 0.081707
0.937571 -0.003883 0.079651
0.96577 -0.004042 0.077175
0.011657 0 0.023932
0.011657 0 0.023932
0.041343 0 0.025433
0.120967 0 0.026372
0.213465 0 0.026736
0.30828 0 0.026908
0.403622 0 0.026978
0.497428 0 0.026993
0.58752 0 0.026973
0.667816 0 0.026923
0.737864 0 0.026863
0.798983 0 0.026801
0.85244 0 0.026748
0.898729 0 0.026696
0.937782 0 0.026652
0.96598 0 0.026624
0.011657 0.020687 0.03859
0.011657 0.02158 0.025768
0.037694 0.02089 0.023932
0.117305 0.051804 0.023932
0.211706 0.071298 0.023932
0.307446 0.084792 0.023932
0.403229 0.094512 0.023932
0.497162 0.101365 0.023932
0.587419 0.105833 0.023932
0.667762 0.107273 0.023932
0.737886 0.10653 0.023932
0.798931 0.104312 0.023932
0.852501 0.101278 0.023932
0.898691 0.097645 0.023932
0.937749 0.093612 0.023932
0.965954 0.088759 0.023932
0.011655 0.094777 0.05601
0.011657 0.095596 0.027078
0.069319 0.09536 0.023932
0.115156 0.09495 0.023932
0.21017 0.132352 0.023932
0.306515 0.15725 0.023932
0.402679 0.174084 0.023932
0.49687 0.185516 0.023932
0.587245 0.19275 0.023932
0.667657 0.195069 0.023932
0.737751 0.193876 0.023932
0.798975 0.190386 0.023932
0.852495 0.185464 0.023932
0.898709 0.179568 0.023932
0.937744 0.172863 0.023932
0.965882 0.16466 0.023932
0.011654 0.193336 0.066901
0.011657 0.19387 0.02763
0.089701 0.193784 0.023932
0.151023 0.193641 0.023932
0.209436 0.193441 0.023932
0.30587 0.225774 0.023932
0.402201 0.247699 0.023932
0.49659 0.262582 0.023932
0.587011 0.272026 0.023932
0.667641 0.275104 0.023932
0.737689 0.273556 0.023932
0.798885 0.26907 0.023932
0.852377 0.262687 0.023932
0.898761 0.255043 0.023932
0.937789 0.246387 0.023932
0.966031 0.235833 0.023932
0.011649 0.290604 0.074328
0.011657 0.290901 0.02788
0.104022 0.290907 0.023932
0.174314 0.29083 0.023932
0.24077 0.290767 0.023932
0.305573 0.29068 0.023932
0.401922 0.317411 0.023932
0.496355 0.335594 0.023932
0.586896 0.347165 0.023932
0.667404 0.350883 0.023932
0.737532 0.349146 0.023932
0.798905 0.343613 0.023932
0.8523 0.335849 0.023932
0.898638 0.326552 0.023932
0.93767 0.316039 0.023932
0.965918 0.303201 0.023932
0.011643 0.384661 0.079591
0.011657 0.38479 0.027996
0.114288 0.384827 0.023932
0.190465 0.384786 0.023932
0.262357 0.384708 0.023932
0.332534 0.384735 0.023932
0.401801 0.384698 0.023932
0.49617 0.406012 0.023932
0.586767 0.419644 0.023932
0.667352 0.424133 0.023932
0.737534 0.42198 0.023932
0.798911 0.415529 0.023932
0.852286 0.406453 0.023932
0.898592 0.395569 0.023932
0.937619 0.383221 0.023932
0.965795 0.368161 0.023932
0.011634 0.474669 0.083255
0.011657 0.474754 0.028025
0.121366 0.474747 0.023932
0.201458 0.474726 0.023932
0.277117 0.474717 0.023932
0.35102 0.474714 0.023932
0.423908 0.47467 0.023932
0.496079 0.474661 0.023932
0.586684 0.490331 0.023932
0.667291 0.495397 0.023932
0.73749 0.492944 0.023932
0.798829 0.485613 0.023932
0.852225 0.47524 0.023932
0.898633 0.462812 0.023932
0.937673 0.448678 0.023932
0.965815 0.431408 0.023932
0.011621 0.559331 0.085631
0.011657 0.559356 0.027997
0.125882 0.559421 0.023932
0.208517 0.559409 0.023932
0.28659 0.559379 0.023932
0.362834 0.559379 0.023932
0.438025 0.559419 0.023932
0.512496 0.55939 0.023932
0.586515 0.559358 0.023932
0.667185 0.565197 0.023932
0.737498 0.562496 0.023932
0.798839 0.55421 0.023932
0.852223 0.542568 0.023932
0.89854 0.528601 0.023932
0.937572 0.512722 0.023932
0.965806 0.493338 0.023932
0.011607 0.633572 0.086421
0.011657 0.633588 0.027932
0.127359 0.633588 0.023932
0.210783 0.633585 0.023932
0.289622 0.633581 0.023932
0.366664 0.633575 0.023932
0.442567 0.633569 0.023932
0.517799 0.633584 0.023932
0.592587 0.633577 0.023932
0.666897 0.63357 0.023932
0.737424 0.630781 0.023932
0.798804 0.621621 0.023932
0.852162 0.608684 0.023932
0.898471 0.593246 0.023932
0.937603 0.575625 0.023932
0.965804 0.55414 0.023932
0.011588 0.697721 0.086081
0.011657 0.697715 0.027849
0.126604 0.697715 0.023932
0.209646 0.697712 0.023932
0.288097 0.697708 0.023932
0.364741 0.697702 0.023932
0.440305 0.697696 0.023932
0.515172 0.697688 0.023932
0.589535 0.697681 0.023932
0.663615 0.69773 0.023932
0.737157 0.697724 0.023932
0.798774 0.688021 0.023932
0.852178 0.673854 0.023932
0.898489 0.65684 0.023932
0.937568 0.637495 0.023932
0.965767 0.614 0.023932
0.011568 0.753116 0.084979
0.011657 0.753135 0.027771
0.124455 0.753136 0.023932
0.206285 0.753134 0.023932
0.283593 0.753132 0.023932
0.359162 0.753129 0.023932
0.43354 0.753125 0.023932
0.507387 0.753121 0.023932
0.580643 0.753118 0.023932
0.653569 0.753115 0.023932
0.726013 0.753115 0.023932
0.79819 0.753115 0.023932
0.852175 0.738088 0.023932
0.898488 0.719646 0.023932
0.937568 0.698717 0.023932
0.965766 0.673063 0.023932
0.01155 0.801157 0.083456
0.011657 0.801157 0.027696
0.121425 0.801157 0.023932
0.201546 0.801157 0.023932
0.277267 0.801157 0.023932
0.351195 0.801157 0.023932
0.424114 0.801157 0.023932
0.496372 0.801157 0.023932
0.568148 0.801157 0.023932
0.639512 0.801157 0.023932
0.710552 0.801157 0.023932
0.781301 0.801157 0.023932
0.851652 0.801156 0.023932
0.898488 0.781598 0.023932
0.937567 0.759012 0.023932
0.965765 0.731399 0.023932
0.011529 0.842655 0.08162
0.011657 0.842655 0.027637
0.117775 0.842655 0.023932
0.195894 0.842655 0.023932
0.269693 0.842655 0.023932
0.341762 0.842655 0.023932
0.412823 0.842655 0.023932
0.483193 0.842655 0.023932
0.553176 0.842655 0.023932
0.622669 0.842655 0.023932
0.691778 0.842655 0.023932
0.760935 0.842654 0.023932
0.829455 0.842654 0.023932
0.898019 0.842654 0.023932
0.937566 0.818752 0.023932
0.965764 0.789199 0.023932
0.01151 0.877356 0.079552
0.011657 0.877356 0.027585
0.113684 0.877356 0.023932
0.1895 0.877356 0.023932
0.261092 0.877356 0.023932
0.330996 0.877356 0.023932
0.399987 0.877356 0.023932
0.468324 0.877356 0.023932
0.536223 0.877356 0.023932
0.603706 0.877356 0.023932
0.670797 0.877356 0.023932
0.737702 0.877356 0.023932
0.804391 0.877355 0.023932
0.870934 0.877355 0.023932
0.937109 0.877355 0.023932
0.965763 0.846242 0.023932
0.011495 0.902378 0.077062
0.011657 0.902378 0.027544
0.108688 0.902378 0.023932
0.181706 0.902377 0.023932
0.250657 0.902378 0.023932
0.317965 0.902377 0.023932
0.384396 0.902377 0.023932
0.450219 0.902377 0.023932
0.515599 0.902377 0.023932
0.580587 0.902377 0.023932
0.645229 0.902377 0.023932
0.709575 0.902377 0.023932
0.773826 0.902377 0.023932
0.837894 0.902376 0.023932
0.901664 0.902376 0.023932
0.965139 0.902376 0.023932
0.011657 -0.000228 0.055397
0.023439 -0.000274 0.055397
0.037634 -0.000403 0.055397
0.114806 -0.000636 0.095212
0.20918 -0.000904 0.121113
0.305411 -0.001197 0.138326
0.401717 -0.001511 0.150119
0.496025 -0.001841 0.158151
0.586603 -0.002186 0.163312
0.667168 -0.00252 0.165053
0.737514 -0.002838 0.164357
0.798771 -0.003139 0.162049
0.852179 -0.003417 0.158743
0.898492 -0.003669 0.154769
0.937571 -0.003887 0.150314
0.96577 -0.004046 0.144799
0.011657 0.008127 0.055397
0.011657 0.000452 0.060526
0.041148 0 0.059472
0.12041 0 0.093985
0.213254 0 0.115014
0.308181 0 0.129398
0.403601 0 0.139467
0.497372 0 0.146415
0.587532 0 0.15091
0.667806 0 0.15234
0.737929 0 0.15158
0.798977 0 0.149336
0.852434 0 0.14626
0.898723 0 0.142574
0.937778 0 0.138393
0.965977 0 0.133326
0.011657 0.020825 0.055396
0.011657 0.021455 0.0562
0.037338 0.020699 0.05543
0.12194 0.017923 0.052247
0.2218 0.011752 0.044683
0.319693 0.004638 0.035831
0.414405 0.00048 0.032052
0.506285 0 0.031912
0.594659 0 0.031782
0.67346 0 0.031612
0.742371 0 0.031436
0.802846 0 0.031262
0.855656 0 0.031097
0.901675 0 0.030954
0.940389 0 0.030842
0.96841 0 0.030766
0.011655 0.094777 0.095327
0.011657 0.095527 0.091203
0.026295 0.097482 0.043688
0.115576 0.095461 0.03922
0.215973 0.120616 0.032655
0.314339 0.137625 0.026563
0.410543 0.149103 0.023932
0.503848 0.15675 0.023932
0.593011 0.161402 0.023932
0.672368 0.162322 0.023932
0.741792 0.160458 0.023932
0.802327 0.156871 0.023932
0.855264 0.152174 0.023932
0.901303 0.146741 0.023932
0.940147 0.140697 0.023932
0.968363 0.133409 0.023932
0.011654 0.193336 0.121184
0.011657 0.193817 0.11336
0.014037 0.196546 0.034208
0.137077 0.195467 0.026084
0.209965 0.194042 0.024408
0.309373 0.22038 0.023932
0.406784 0.237935 0.023932
0.501205 0.2496 0.023932
0.591323 0.256742 0.023932
0.671323 0.258288 0.023932
0.740994 0.255885 0.023932
0.801813 0.250977 0.023932
0.854931 0.244487 0.023932
0.901037 0.236937 0.023932
0.939919 0.22853 0.023932
0.968096 0.218402 0.023932
0.011649 0.290604 0.138377
0.011657 0.290897 0.128494
0.011657 0.293012 0.034341
0.152602 0.292589 0.023932
0.233598 0.291876 0.023932
0.305952 0.291106 0.023932
0.40402 0.31411 0.023932
0.499092 0.329505 0.023932
0.589773 0.338952 0.023932
0.670131 0.341292 0.023932
0.740139 0.338514 0.023932
0.801235 0.332427 0.023932
0.854481 0.324426 0.023932
0.900707 0.31504 0.023932
0.939628 0.304551 0.023932
0.967915 0.291899 0.023932
0.011643 0.384661 0.15011
0.011657 0.38477 0.138954
0.011657 0.386382 0.03451
0.163864 0.386239 0.023932
0.250387 0.385831 0.023932
0.328129 0.385528 0.023932
0.402078 0.38504 0.023932
0.497446 0.403795 0.023932
0.588408 0.415407 0.023932
0.669127 0.418442 0.023932
0.739463 0.415365 0.023932
0.800675 0.408308 0.023932
0.853948 0.398842 0.023932
0.900365 0.387728 0.023932
0.939334 0.375361 0.023932
0.967521 0.360291 0.023932
0.011634 0.474669 0.158154
0.011657 0.474751 0.14611
0.011657 0.475834 0.03452
0.171764 0.475748 0.023932
0.262088 0.475557 0.023932
0.343293 0.475402 0.023932
0.42078 0.475148 0.023932
0.496258 0.474904 0.023932
0.587479 0.488616 0.023932
0.668343 0.492324 0.023932
0.738623 0.488904 0.023932
0.800145 0.480887 0.023932
0.853504 0.470047 0.023932
0.899943 0.457331 0.023932
0.93905 0.443049 0.023932
0.967164 0.425781 0.023932
0.011621 0.559331 0.163266
0.011657 0.559422 0.150662
0.011657 0.560176 0.034405
0.176822 0.560144 0.023932
0.269621 0.560085 0.023932
0.353037 0.559971 0.023932
0.432698 0.559894 0.023932
0.510316 0.559704 0.023932
0.586686 0.559484 0.023932
0.667741 0.563949 0.023932
0.738127 0.560187 0.023932
0.799634 0.551272 0.023932
0.853161 0.539089 0.023932
0.899617 0.524727 0.023932
0.938702 0.508687 0.023932
0.966946 0.489218 0.023932
0.011607 0.633572 0.164981
0.011657 0.633588 0.152152
0.011657 0.63418 0.034223
0.178113 0.634185 0.023932
0.271511 0.634151 0.023932
0.355528 0.634016 0.023932
0.435781 0.63399 0.023932
0.513955 0.633893 0.023932
0.590948 0.633803 0.023932
0.666999 0.633768 0.023932
0.737847 0.629739 0.023932
0.799302 0.619922 0.023932
0.852898 0.606462 0.023932
0.899297 0.590583 0.023932
0.938373 0.572717 0.023932
0.966761 0.551136 0.023932
0.011588 0.697721 0.164276
0.011657 0.697714 0.151395
0.011657 0.698206 0.034004
0.176705 0.698173 0.023932
0.269386 0.698101 0.023932
0.352799 0.698048 0.023932
0.432522 0.698099 0.023932
0.510268 0.698002 0.023932
0.586699 0.697902 0.023932
0.662274 0.69783 0.023932
0.737258 0.697832 0.023932
0.798953 0.687206 0.023932
0.852673 0.67258 0.023932
0.899135 0.655127 0.023932
0.938112 0.635541 0.023932
0.966443 0.611813 0.023932
0.01157 0.753116 0.161942
0.011657 0.753135 0.149225
0.011657 0.75349 0.033778
0.173478 0.75347 0.023932
0.264717 0.753593 0.023932
0.346809 0.753522 0.023932
0.42524 0.753433 0.023932
0.50171 0.753428 0.023932
0.576988 0.753303 0.023932
0.651389 0.753232 0.023932
0.725051 0.753325 0.023932
0.798352 0.753175 0.023932
0.852443 0.73744 0.023932
0.898973 0.718632 0.023932
0.937988 0.697278 0.023932
0.966362 0.671563 0.023932
0.01155 0.801157 0.158658
0.011657 0.801157 0.146153
0.011657 0.80146 0.033569
0.169225 0.80145 0.023932
0.258429 0.801422 0.023932
0.338757 0.801427 0.023932
0.415433 0.801376 0.023932
0.490207 0.801397 0.023932
0.563861 0.801385 0.023932
0.636624 0.801306 0.023932
0.708776 0.801249 0.023932
0.780609 0.801245 0.023932
0.851675 0.801177 0.023932
0.898719 0.781165 0.023932
0.937831 0.758107 0.023932
0.966224 0.730426 0.023932
0.011529 0.842655 0.154685
0.011657 0.842655 0.142462
0.011657 0.842856 0.033381
0.164196 0.84285 0.023932
0.251083 0.842892 0.023932
0.329245 0.842858 0.023932
0.404007 0.842868 0.023932
0.476823 0.842882 0.023932
0.548454 0.842819 0.023932
0.61936 0.842749 0.023932
0.689642 0.842722 0.023932
0.759505 0.8427 0.023932
0.828838 0.842712 0.023932
0.898001 0.842683 0.023932
0.937669 0.818385 0.023932
0.966024 0.78861 0.023932
0.01151 0.877356 0.150182
0.011657 0.877356 0.138302
0.011657 0.877553 0.033234
0.158609 0.87755 0.023932
0.242888 0.877561 0.023932
0.318713 0.877576 0.023932
0.391202 0.877537 0.023932
0.46181 0.877527 0.023932
0.531347 0.877522 0.023932
0.600164 0.87754 0.023932
0.668316 0.877521 0.023932
0.736043 0.87744 0.023932
0.803278 0.877361 0.023932
0.870398 0.877391 0.023932
0.937119 0.877375 0.023932
0.9658 0.845957 0.023932
0.011495 0.902378 0.144714
0.011657 0.902378 0.133235
0.011657 0.902612 0.03313
0.15185 0.902611 0.023932
0.233003 0.902537 0.023932
0.306023 0.90251 0.023932
0.375754 0.902567 0.023932
0.443731 0.902579 0.023932
0.51067 0.902528 0.023932
0.576875 0.902574 0.023932
0.642414 0.902505 0.023932
0.70769 0.902518 0.023932
0.772368 0.902444 0.023932
0.837125 0.902467 0.023932
0.901228 0.90247 0.023932
0.965311 0.902389 0.023932
0.011657 -0.000387 0.139773
0.038208 -0.000419 0.139773
0.073342 -0.000528 0.139773
0.115189 -0.000684 0.139772
0.20918 -0.000941 0.178338
0.305411 -0.001226 0.203469
0.401717 -0.001535 0.220701
0.496025 -0.001862 0.232446
0.586603 -0.002204 0.240003
0.667168 -0.002536 0.242569
0.737513 -0.002852 0.241521
0.798771 -0.003151 0.238148
0.852179 -0.003428 0.233348
0.898492 -0.003679 0.227546
0.937571 -0.003895 0.220998
0.96577 -0.004053 0.212978
0.011657 0.021353 0.139773
0.011657 0.000844 0.151302
0.073755 0 0.148313
0.119778 0 0.144446
0.212787 0 0.178416
0.307975 0 0.200802
0.403464 0 0.216415
0.497306 0 0.227155
0.587514 0 0.234044
0.667787 0 0.236254
0.737869 0 0.235055
0.798964 0 0.231631
0.852424 0 0.226915
0.898714 0 0.221218
0.93777 0 0.214808
0.96597 0 0.206969
0.011656 0.054745 0.139772
0.011657 0.052896 0.144004
0.036297 0.01995 0.148277
0.121518 0.016954 0.146409
0.221289 0.010636 0.16959
0.319042 0.004046 0.184167
0.413891 0.000302 0.19386
0.506066 0 0.200461
0.594461 0 0.204526
0.673302 0 0.205155
0.74231 0 0.203283
0.802767 0 0.199794
0.855565 0 0.195304
0.901591 0 0.190129
0.94031 0 0.184404
0.968437 0 0.177607
0.011655 0.094968 0.139772
0.011657 0.095541 0.140388
0.025268 0.096904 0.141891
0.114751 0.094781 0.139862
0.217277 0.090813 0.135856
0.319088 0.083874 0.128607
0.420496 0.071674 0.115343
0.516646 0.057643 0.099677
0.605785 0.045255 0.085676
0.68397 0.035895 0.074961
0.751868 0.029142 0.067108
0.81131 0.024269 0.061364
0.863158 0.02077 0.05718
0.908485 0.018268 0.054173
0.946782 0.016532 0.052054
0.968958 0.070598 0.113802
0.011654 0.193336 0.178436
0.011657 0.193802 0.17614
0.013683 0.196159 0.162745
0.100089 0.196497 0.125326
0.209973 0.194179 0.119891
0.314328 0.20594 0.109482
0.415217 0.213097 0.097584
0.511284 0.216946 0.085946
0.601415 0.218255 0.075636
0.680693 0.216158 0.067601
0.749405 0.211714 0.061519
0.809527 0.20576 0.056882
0.861793 0.199057 0.053437
0.907415 0.191815 0.050871
0.946056 0.184061 0.049034
0.96896 0.18849 0.111118
0.011649 0.290604 0.203564
0.011657 0.290896 0.199507
0.011657 0.292833 0.178135
