site/assets/luts/freshluts--0001113-sony-log3-to-rec709-fallin-love.cube
# LUTr-Schema-Version: 2
# LUTr-ID: freshluts--0001113-sony-log3-to-rec709-fallin-love
# LUTr-Title: Sony-log3 to rec709 fallin love
# LUTr-Collection: Fresh LUTs
# LUTr-Collection-ID: freshluts-community
# LUTr-Source: https://freshluts.com
# LUTr-Retrieved: 2026-07-27
# LUTr-Source-File: submissions-raw/freshluts/cubes/1113__orange_tone1.cube
# LUTr-Source-Format: CUBE
# LUTr-Source-SHA256: f87a01fd3a9b60562eb3d3d7c9b8cc17e4d06db07391ae326e439c69837f39e2
# LUTr-License: CC0-1.0
# LUTr-License-URL: https://freshluts.com/termsandconditions
# LUTr-License-Basis: site-terms
# LUTr-Transform-Class: creative-look
# LUTr-Tags: creative, freshluts, community, cube, red, high-key, sony-s-log3
# LUTr-Input-Color-Space:
# LUTr-Input-Gamut: sony-s-gamut3
# LUTr-Input-Transfer: sony-s-log3
# LUTr-Output-Color-Space: srgb
# LUTr-Output-Gamut: rec709
# LUTr-Output-Transfer: srgb
# LUTr-Color-Space-Confidence: camera-profile-input-required
# LUTr-Domain-Normalized: true
# LUTr-Shaper: none
# LUTr-Original-Grid: 16x16x16
# LUTr-Conversion-Grid: 16x16x16
# LUTr-Conversion-Interpolation: none
# LUTr-Conversion-Method: Metadata normalization; numeric LUT samples preserved
# LUTr-Conversion-Tool: LUTr scripts/convert-all-to-cube.mjs 2.0.0
# LUTr-Conversion-Date: 2026-07-28
# LUTr-Asset-URL: https://freshluts.com/luts/1113
# LUTr-Author: lvannoeun@gmail.com
# LUTr-Author-URL: https://freshluts.com/users/57563
# LUTr-Attribution: lvannoeun@gmail.com via Fresh LUTs
# LUTr-Source-Labels: gamma=Sony S-Log 3; color=Red; key=High Key; style=Correction
# LUTr-Note: Preserve this metadata and the upstream license notices when redistributing.
TITLE "Sony-log3 to rec709 fallin love"
LUT_3D_SIZE 16
DOMAIN_MIN 0 0 0
DOMAIN_MAX 1 1 1
0.064103 -0.045727 -0.059671
0.064103 -0.045727 -0.059671
0.065102 -0.045727 -0.059671
0.092953 -0.045728 -0.059671
0.265178 -0.041299 -0.055765
0.452448 0.068051 0.109499
0.612803 0.068051 0.160483
0.738404 0.068051 0.20702
0.835623 0.068051 0.249423
0.892299 0.115619 0.283229
0.895624 0.149452 0.304899
0.895614 0.150187 0.312546
0.895612 0.15008 0.317122
0.89561 0.150045 0.319525
0.895609 0.150033 0.320594
0.895609 0.150026 0.321045
0.064103 -0.045727 -0.059671
0.064103 -0.045727 -0.059671
0.064956 -0.045727 -0.059671
0.092953 -0.045728 -0.059671
0.242833 -0.043783 -0.05812
0.424488 0.068051 0.101366
0.586418 0.068051 0.151414
0.714164 0.068051 0.197396
0.814579 0.068051 0.239604
0.883336 0.093124 0.274779
0.895616 0.145161 0.299924
0.895616 0.150219 0.310333
0.895612 0.150102 0.315799
0.89561 0.150056 0.318817
0.895609 0.150039 0.320226
0.895609 0.150029 0.320874
0.064103 0.035181 -0.059671
0.064103 -0.023188 -0.059671
0.068081 -0.037217 -0.059671
0.092953 -0.035916 -0.059671
0.226097 0.009843 -0.058443
0.40878 0.068051 0.078134
0.571106 0.068051 0.145719
0.698272 0.068051 0.191418
0.800527 0.068051 0.233266
0.873458 0.084491 0.268972
0.895636 0.141719 0.29633
0.895617 0.150088 0.308771
0.895613 0.150121 0.314663
0.895611 0.15005 0.318182
0.89561 0.150038 0.320002
0.895609 0.150032 0.320712
0.066974 0.068051 -0.057314
0.06556 0.068051 -0.058676
0.07003 0.068051 -0.059059
0.092953 0.068051 -0.058869
0.214713 0.125181 -0.048397
0.395845 0.1652 0.06228
0.562006 0.095532 0.06228
0.689568 0.068051 0.186473
0.791893 0.068051 0.229309
0.867017 0.0794 0.265359
0.895659 0.13756 0.293105
0.895619 0.149948 0.30761
0.895614 0.150129 0.313905
0.895611 0.150076 0.317759
0.89561 0.150041 0.319771
0.895609 0.150032 0.320663
0.092953 0.242416 0.088779
0.092953 0.223453 0.081713
0.092953 0.209537 0.072488
0.151401 0.196742 0.06228
0.210102 0.182401 0.06228
0.380518 0.25096 0.06228
0.5442 0.266313 0.06228
0.679702 0.205374 0.06228
0.786306 0.068051 0.219049
0.863019 0.076152 0.263019
0.895602 0.134412 0.290905
0.89562 0.149819 0.306897
0.895614 0.150142 0.313445
0.895611 0.150056 0.317415
0.89561 0.150044 0.319574
0.895609 0.150033 0.320593
0.092953 0.423605 0.158285
0.092953 0.4022 0.149622
0.092953 0.38805 0.144018
0.092953 0.377271 0.135572
0.234999 0.364636 0.06228
0.362883 0.347169 0.06228
0.519667 0.384618 0.06228
0.655205 0.385688 0.06228
0.770447 0.327747 0.069863
0.859475 0.114682 0.198332
0.89561 0.132849 0.289105
0.895621 0.149742 0.306567
0.895614 0.150146 0.313169
0.895612 0.150064 0.317279
0.89561 0.150046 0.319473
0.895609 0.150034 0.320558
0.092953 0.578613 0.223069
0.092953 0.559017 0.214761
0.092953 0.54586 0.208989
0.092953 0.536752 0.205102
0.092953 0.528491 0.188797
0.350679 0.515486 0.06228
0.495053 0.498576 0.06228
0.624769 0.513766 0.068498
0.740836 0.509979 0.094287
0.835327 0.456302 0.125557
0.892825 0.293965 0.184676
0.89562 0.150253 0.303226
0.895614 0.150173 0.312984
0.895611 0.150066 0.317138
0.89561 0.150047 0.319411
0.895609 0.150035 0.320519
0.092953 0.705562 0.278705
0.092953 0.688279 0.271051
0.092953 0.6759 0.265547
0.092953 0.667754 0.261948
0.092953 0.661639 0.259221
0.138463 0.654979 0.168992
0.474517 0.640298 0.112916
0.60186 0.625989 0.122542
0.710784 0.627995 0.137837
0.807042 0.618808 0.1566
0.877574 0.566412 0.177531
0.894801 0.417066 0.206128
0.895503 0.182194 0.283115
0.895612 0.150067 0.317074
0.89561 0.150047 0.319393
0.895609 0.150035 0.320483
0.1404 0.808542 0.326315
0.132788 0.793603 0.319218
0.127483 0.783421 0.314374
0.123878 0.776474 0.311095
0.121145 0.771477 0.308755
0.122762 0.767014 0.304
0.380026 0.758647 0.173271
0.58039 0.746086 0.174935
0.690482 0.734484 0.184099
0.778884 0.726061 0.197504
0.854985 0.709366 0.213037
0.89041 0.658904 0.221735
0.893816 0.539465 0.210089
0.895335 0.232217 0.240021
0.895609 0.150322 0.319216
0.895609 0.150035 0.32048
0.182518 0.884049 0.364907
0.175538 0.872906 0.358887
0.170913 0.864694 0.354501
0.167881 0.859337 0.351783
0.165566 0.855417 0.34961
0.16405 0.852391 0.348165
0.227553 0.848797 0.292228
0.526771 0.839174 0.223865
0.66796 0.830149 0.228699
0.76175 0.821078 0.237676
0.831801 0.804762 0.250145
0.878031 0.781333 0.261228
0.887678 0.741921 0.252922
0.892181 0.642542 0.228288
0.895198 0.262994 0.23752
0.895609 0.150141 0.320409
0.317308 0.922577 0.414597
0.261239 0.922398 0.396945
0.21766 0.920407 0.387626
0.205157 0.917544 0.384461
0.203233 0.914854 0.382761
0.201794 0.913071 0.381629
0.210838 0.911422 0.374398
0.433038 0.906979 0.271575
0.628109 0.899741 0.271858
0.735677 0.894227 0.27828
0.815762 0.886888 0.286399
0.861813 0.865581 0.295462
0.880274 0.842882 0.297723
0.883224 0.811868 0.283956
0.888762 0.729468 0.25288
0.894915 0.393187 0.242238
0.348565 0.926459 0.437289
0.347645 0.926459 0.434636
0.346334 0.926459 0.432934
0.345161 0.926459 0.431704
0.344323 0.926459 0.430893
0.344022 0.926459 0.430528
0.343685 0.926472 0.430038
0.427499 0.925803 0.397989
0.603494 0.924768 0.392566
0.710331 0.923421 0.398892
0.78908 0.922577 0.403005
0.845078 0.922577 0.377219
0.877847 0.917324 0.330318
0.878851 0.898786 0.327205
0.87887 0.874437 0.315455
0.883679 0.80729 0.283057
0.347782 0.926459 0.514602
0.348156 0.926459 0.491991
0.348242 0.926459 0.47509
0.34842 0.926459 0.463437
0.34858 0.926459 0.45686
0.34857 0.926459 0.453406
0.348823 0.926459 0.450059
0.415795 0.926459 0.429716
0.586479 0.926459 0.40615
0.693532 0.926459 0.408383
0.771862 0.926505 0.416324
0.826173 0.926458 0.424716
0.860387 0.926458 0.43125
0.87345 0.926458 0.433536
0.875713 0.926432 0.432434
0.880994 0.922468 0.358219
0.346748 0.926459 0.649679
0.346787 0.926459 0.626654
0.346815 0.926459 0.609856
0.346897 0.926459 0.59802
0.347114 0.926459 0.589445
0.34716 0.926459 0.583167
0.351778 0.926459 0.576369
0.444192 0.926459 0.55814
0.579073 0.926459 0.531608
0.68435 0.926459 0.520665
0.763048 0.926455 0.497966
0.818359 0.926458 0.46617
0.853584 0.926458 0.441153
0.871242 0.926458 0.434355
0.873657 0.926458 0.434743
0.873652 0.926458 0.434811
0.348801 0.926459 0.759493
0.34657 0.926459 0.740001
0.346787 0.926459 0.725856
0.347566 0.926459 0.716217
0.349228 0.926459 0.709118
0.35469 0.926459 0.703609
0.396375 0.926459 0.69598
0.503616 0.926459 0.686359
0.612124 0.926507 0.685501
0.692322 0.926459 0.67544
0.761496 0.926459 0.662986
0.811987 0.926458 0.639696
0.846243 0.926458 0.589887
0.867186 0.926515 0.496737
0.873719 0.926458 0.436871
0.87367 0.926458 0.434761
0.466532 0.926459 0.848438
0.431973 0.926459 0.831782
0.407968 0.926459 0.820487
0.398009 0.926459 0.812538
0.412834 0.926459 0.805824
0.45317 0.926459 0.800071
0.515505 0.926459 0.795124
0.582789 0.926459 0.793289
0.654055 0.926459 0.795358
0.725679 0.926459 0.803696
0.776477 0.926491 0.799458
0.815103 0.926454 0.788003
0.843321 0.926458 0.766124
0.861753 0.926458 0.718877
0.870249 0.926458 0.60638
0.873274 0.926458 0.454897
0.064103 -0.045727 -0.059671
0.064103 -0.045727 -0.059671
0.065115 -0.045727 -0.059671
0.092953 -0.045728 -0.05967
0.263056 -0.041639 -0.051295
0.449968 0.068051 0.119624
0.610869 0.068051 0.165924
0.736917 0.068051 0.207993
0.833698 0.068051 0.24854
0.891745 0.113638 0.282576
0.895624 0.149323 0.304615
0.895614 0.150189 0.312355
0.895612 0.150082 0.316986
0.89561 0.150046 0.319441
0.895609 0.150034 0.320578
0.895609 0.150027 0.321029
0.064103 -0.045727 -0.059671
0.064103 -0.045727 -0.059671
0.064718 -0.045727 -0.059671
0.092953 -0.045728 -0.059671
0.238826 -0.044103 -0.056682
0.42044 0.068051 0.10949
0.583122 0.068051 0.155502
0.710414 0.068051 0.197145
0.811794 0.068051 0.238389
0.881719 0.091489 0.273737
0.89562 0.144579 0.299242
0.895616 0.150191 0.310131
0.895612 0.150138 0.315603
0.895611 0.150063 0.318698
0.89561 0.150039 0.320191
0.895609 0.15003 0.320858
0.064103 -0.011704 -0.059671
0.064103 -0.036327 -0.059671
0.06627 -0.042423 -0.059671
0.092953 -0.041074 -0.059671
0.220936 -0.025876 -0.05799
0.403718 0.068051 0.093772
0.565857 0.068051 0.148404
0.694246 0.068051 0.19113
0.796925 0.068051 0.231754
0.871044 0.082489 0.267574
0.895643 0.140559 0.295304
0.895618 0.150047 0.308374
0.895613 0.150125 0.314421
0.895611 0.150066 0.318112
0.89561 0.150039 0.319936
0.895609 0.150032 0.320669
0.066342 0.068051 -0.057336
0.065115 0.068051 -0.058687
0.068599 0.068051 -0.05915
0.092953 0.068051 -0.058992
0.208428 0.12008 -0.049515
0.389475 0.159728 0.06228
0.556516 0.068051 0.088582
0.684502 0.068051 0.185772
0.788007 0.068051 0.227599
0.864161 0.077066 0.263866
0.895671 0.135417 0.291578
0.89562 0.149878 0.307182
0.895614 0.150151 0.313705
0.895611 0.150051 0.317615
0.89561 0.150043 0.319699
0.895609 0.150033 0.320646
0.092953 0.235119 0.086315
0.092953 0.216436 0.079398
0.092953 0.202389 0.069316
0.147678 0.189039 0.06228
0.202801 0.174826 0.06228
0.373735 0.245088 0.06228
0.537858 0.260968 0.06228
0.674365 0.202638 0.06228
0.781975 0.068051 0.217125
0.859722 0.07373 0.2612
0.895612 0.132399 0.289853
0.895621 0.149751 0.306496
0.895614 0.150167 0.313165
0.895611 0.150064 0.31728
0.89561 0.150046 0.319483
0.895609 0.150034 0.320561
0.092953 0.416243 0.155288
0.092953 0.395322 0.146932
0.092953 0.380238 0.140941
0.092953 0.369761 0.132406
0.231197 0.356327 0.06228
0.35566 0.339199 0.06228
0.513428 0.377931 0.06228
0.649968 0.380044 0.06228
0.765965 0.323261 0.066809
0.855832 0.114323 0.19282
0.895219 0.130095 0.287722
0.895621 0.149736 0.306104
0.895614 0.150148 0.312846
0.895612 0.150067 0.317069
0.89561 0.150047 0.319393
0.895609 0.150035 0.320493
0.092953 0.571712 0.220022
0.092953 0.55211 0.211722
0.092953 0.538778 0.206051
0.092953 0.529261 0.201966
0.092953 0.521347 0.18554
0.344138 0.507772 0.06228
0.488803 0.49128 0.06228
0.619493 0.507177 0.064389
0.736628 0.503998 0.090545
0.831894 0.449498 0.122546
0.892105 0.289028 0.181733
0.895621 0.150257 0.302769
0.895614 0.150173 0.312661
0.895612 0.150071 0.316932
0.89561 0.150047 0.3194
0.895609 0.150036 0.32047
0.092953 0.699542 0.276055
0.092953 0.681611 0.268097
0.092953 0.669604 0.262803
0.092953 0.661049 0.259047
0.092953 0.654693 0.256135
0.131724 0.648215 0.171766
0.467911 0.633348 0.108852
0.596342 0.61922 0.118414
0.706102 0.621856 0.134139
0.80365 0.613325 0.153139
0.875728 0.561031 0.174149
0.894885 0.407985 0.205298
0.895498 0.182876 0.282773
0.895612 0.150075 0.316855
0.89561 0.150048 0.319366
0.895609 0.150036 0.320441
0.137685 0.802896 0.323681
0.129866 0.788169 0.316658
0.12443 0.777746 0.311646
0.120829 0.770636 0.308337
0.1182 0.765563 0.306
0.119555 0.761314 0.301421
0.368244 0.752928 0.169995
0.574974 0.740549 0.171274
0.685596 0.72852 0.1805
0.775434 0.720778 0.194148
0.852544 0.704768 0.209737
0.890463 0.655134 0.220213
0.893996 0.533691 0.208757
0.895364 0.219563 0.256099
0.89561 0.150048 0.319331
0.895609 0.150036 0.320401
0.179648 0.879764 0.362439
0.173175 0.868616 0.356545
0.168547 0.860559 0.352328
0.165237 0.854775 0.349272
0.163186 0.850791 0.347351
0.161297 0.84779 0.345687
0.221046 0.84393 0.293385
0.519462 0.834346 0.220893
0.663244 0.825468 0.225461
0.757453 0.815909 0.234378
0.828959 0.80046 0.247046
0.877526 0.776933 0.258642
0.888017 0.736263 0.25054
0.892325 0.634922 0.228643
0.895195 0.268652 0.237031
0.895608 0.150248 0.320324
0.296825 0.922577 0.407333
0.238037 0.921599 0.391576
0.205797 0.918078 0.384914
0.202822 0.914379 0.382423
0.200882 0.911817 0.380825
0.199411 0.909844 0.379606
0.208066 0.908057 0.372494
0.419449 0.903804 0.268754
0.62305 0.896779 0.268813
0.731776 0.890508 0.275015
0.812985 0.883403 0.283239
0.861007 0.862246 0.292999
0.880103 0.839122 0.295331
0.883541 0.807802 0.28188
0.888845 0.727884 0.250176
0.894889 0.400092 0.241108
0.348402 0.926459 0.436698
0.346776 0.926459 0.43401
0.345268 0.926459 0.432056
0.3442 0.926459 0.43087
0.343508 0.926451 0.430343
0.342932 0.926229 0.429676
0.342602 0.926032 0.429056
0.418249 0.925366 0.401143
0.596905 0.924284 0.391001
0.705755 0.922764 0.397095
0.785618 0.922577 0.388179
0.844098 0.922577 0.361732
0.877069 0.915514 0.328643
0.878539 0.89599 0.326006
0.87898 0.872003 0.314071
0.8839 0.803628 0.281161
0.347678 0.926459 0.525753
0.348016 0.926459 0.499648
0.348249 0.926459 0.480765
0.348275 0.926459 0.468952
0.348381 0.926459 0.462722
0.348449 0.926459 0.458714
0.348486 0.926459 0.455245
0.403045 0.926459 0.437527
0.578162 0.926459 0.409706
0.687823 0.926532 0.409879
0.768004 0.926459 0.415869
0.82429 0.926458 0.423922
0.859322 0.926458 0.430433
0.87422 0.926458 0.432773
0.876646 0.926052 0.431604
0.881264 0.919632 0.336758
0.346741 0.926459 0.650388
0.34677 0.926459 0.626874
0.346828 0.926459 0.610004
0.346906 0.926459 0.597691
0.347139 0.926459 0.589043
0.347161 0.926459 0.582449
0.350322 0.926459 0.576051
0.430901 0.926459 0.558273
0.570016 0.926459 0.530222
0.678025 0.926459 0.518207
0.758793 0.926481 0.499149
0.81597 0.926459 0.463764
0.851878 0.926458 0.442026
0.870888 0.926458 0.434385
0.873655 0.926458 0.434754
0.873652 0.926458 0.434711
0.347055 0.926459 0.757382
0.346513 0.926459 0.737261
0.346786 0.926459 0.722828
0.347161 0.926459 0.713032
0.34804 0.926459 0.706055
0.35127 0.926459 0.70084
0.386183 0.926459 0.693467
0.488958 0.926459 0.683112
0.602722 0.926524 0.681266
0.685868 0.926459 0.671604
0.757021 0.926459 0.659449
0.809319 0.926458 0.636692
0.8445 0.926458 0.587636
0.866711 0.926498 0.494832
0.873705 0.926458 0.434812
0.87367 0.926458 0.434759
0.451294 0.926459 0.844759
0.41605 0.926459 0.828728
0.390997 0.926459 0.817447
0.386622 0.926459 0.808901
0.403883 0.926459 0.802026
0.440343 0.926459 0.796174
0.501876 0.926459 0.790797
0.572515 0.926459 0.788425
0.646237 0.926459 0.790467
0.719365 0.926459 0.798178
0.772358 0.926429 0.794393
0.812354 0.926458 0.782666
0.841649 0.926458 0.760933
0.86102 0.926458 0.714345
0.870233 0.926458 0.600361
0.873086 0.926458 0.461286
0.064103 -0.045727 -0.059671
0.064103 -0.045727 -0.059671
0.065372 -0.045727 -0.059651
0.092953 -0.045728 -0.044578
0.263413 -0.041188 0.085643
0.450272 0.068051 0.160204
0.610407 0.068051 0.199495
0.736188 0.068051 0.229242
0.83345 0.068051 0.253414
0.891578 0.113191 0.282401
0.895625 0.149247 0.304417
0.895614 0.15019 0.312283
0.895612 0.150083 0.316944
0.89561 0.150047 0.319416
0.895609 0.150034 0.320567
0.895609 0.150027 0.321029
0.064103 -0.045727 -0.059671
0.064103 -0.045727 -0.059671
0.06467 -0.045727 -0.059666
0.092953 -0.045728 -0.054594
0.237669 -0.044151 0.048494
0.418984 0.068051 0.146734
0.581226 0.068051 0.186921
0.709134 0.068051 0.217646
0.810703 0.068051 0.243221
0.880683 0.090608 0.273244
0.895621 0.144301 0.298934
0.895616 0.150199 0.309989
0.895612 0.150109 0.315549
0.895611 0.150064 0.31862
0.895609 0.150039 0.320232
0.895609 0.15003 0.320843
0.064103 -0.040321 -0.058313
0.064103 -0.043474 -0.059099
0.064772 -0.044655 -0.059377
0.092953 -0.044574 -0.057192
0.214879 -0.036325 0.006151
0.396548 0.066733 0.132192
0.56135 0.068051 0.177177
0.691608 0.068051 0.210821
0.794892 0.068051 0.237509
0.869749 0.081517 0.266894
0.895647 0.139758 0.294726
0.895618 0.150011 0.308214
0.895613 0.150127 0.314279
0.895611 0.150063 0.318041
0.89561 0.15004 0.319887
0.895609 0.150032 0.320659
0.065552 0.068051 -0.012945
0.064741 0.068051 -0.039328
0.067312 0.068051 -0.04628
0.092953 0.068051 -0.042191
0.194006 0.111892 0.032053
0.376112 0.144459 0.06228
0.544325 0.068051 0.139536
0.678946 0.068051 0.20271
0.78512 0.068051 0.233775
0.862248 0.075586 0.263032
0.895603 0.134223 0.290872
0.89562 0.149806 0.306957
0.895614 0.150146 0.313502
0.895611 0.150053 0.317492
0.89561 0.150043 0.319648
0.895609 0.150033 0.320595
0.092953 0.228149 0.102664
0.092953 0.209652 0.095384
0.092953 0.194817 0.089049
0.13929 0.182021 0.06228
0.195147 0.167977 0.06228
0.357265 0.237235 0.06228
0.528915 0.255286 0.06228
0.668343 0.191104 0.06228
0.778343 0.068051 0.222605
0.857691 0.072351 0.260473
0.895272 0.130556 0.289103
0.895621 0.149764 0.306208
0.895614 0.150174 0.31293
0.895612 0.150066 0.317159
0.89561 0.150046 0.319421
0.895609 0.150035 0.320515
0.092953 0.410963 0.15436
0.092953 0.389254 0.145991
0.092953 0.374467 0.140121
0.092953 0.363571 0.131686
0.226741 0.350272 0.06228
0.349182 0.333494 0.06228
0.506076 0.372735 0.06228
0.644042 0.376543 0.06228
0.762227 0.31965 0.065794
0.853726 0.11356 0.190897
0.894933 0.127969 0.286833
0.895622 0.149647 0.305826
0.895614 0.150174 0.312608
0.895612 0.150069 0.316928
0.89561 0.150047 0.319401
0.895609 0.150036 0.320437
0.092953 0.566779 0.217923
0.092953 0.546994 0.209542
0.092953 0.533218 0.203749
0.092953 0.523899 0.199768
0.092953 0.51554 0.183486
0.339328 0.502267 0.06228
0.48363 0.485725 0.06228
0.615159 0.502365 0.06228
0.733228 0.499581 0.087902
0.829563 0.445312 0.12057
0.891319 0.284683 0.180001
0.895621 0.150255 0.302394
0.895614 0.150176 0.312473
0.895612 0.150071 0.316833
0.89561 0.150048 0.319329
0.895609 0.150036 0.320405
0.092953 0.694609 0.273853
0.092953 0.677018 0.266066
0.092953 0.66442 0.260525
0.092953 0.655871 0.256706
0.092953 0.649721 0.253979
0.12473 0.642786 0.176247
0.463481 0.628464 0.106168
0.5923 0.614144 0.115545
0.70304 0.617735 0.131672
0.801162 0.60945 0.150949
0.874383 0.558245 0.17244
0.89494 0.404093 0.204586
0.895509 0.181226 0.284244
0.895612 0.150075 0.316772
0.89561 0.150049 0.319259
0.895609 0.150037 0.320389
0.135521 0.799012 0.32178
0.127798 0.784036 0.314666
0.122312 0.773556 0.309738
0.118639 0.766374 0.306389
0.115846 0.761166 0.304001
0.117302 0.757012 0.299538
0.359756 0.748771 0.167453
0.570941 0.735762 0.168637
0.682232 0.724111 0.177956
0.772645 0.716935 0.191642
0.850882 0.701634 0.207431
0.890505 0.652064 0.218918
0.893937 0.530534 0.208096
0.895408 0.206831 0.269238
0.89561 0.150049 0.319227
0.895609 0.150037 0.320386
0.177959 0.876784 0.360898
0.171135 0.865217 0.354803
0.166477 0.856896 0.350501
0.163433 0.851231 0.34762
0.160973 0.847121 0.345324
0.159415 0.844044 0.34395
0.21501 0.840418 0.295193
0.514278 0.830811 0.218439
0.659552 0.821638 0.222985
0.754668 0.812215 0.232192
0.827102 0.797275 0.24488
0.876829 0.774148 0.256756
0.888236 0.732306 0.249324
0.892397 0.63077 0.228156
0.895226 0.293862 0.23506
0.895608 0.15026 0.320246
0.278148 0.922577 0.401609
0.219136 0.920479 0.387906
0.203897 0.915773 0.383286
0.201138 0.912019 0.381042
0.199005 0.909267 0.379231
0.197701 0.90744 0.378159
0.205509 0.905612 0.371449
0.409316 0.901365 0.266267
0.619203 0.893823 0.266554
0.729092 0.887748 0.272803
0.810857 0.880607 0.281206
0.859998 0.859939 0.291017
0.880154 0.836832 0.293884
0.883668 0.80523 0.280814
0.889185 0.723032 0.248486
0.89489 0.400454 0.240667
0.348045 0.926459 0.44176
0.346009 0.926459 0.436392
0.344362 0.926459 0.432957
0.343437 0.926463 0.431331
0.342602 0.926254 0.429977
0.342042 0.925945 0.429038
0.341471 0.925766 0.428138
0.411316 0.924997 0.402969
0.592061 0.923543 0.389167
0.701703 0.922577 0.387386
0.783309 0.922577 0.372331
0.843821 0.922403 0.347303
0.876512 0.913429 0.3273
0.878208 0.89348 0.324931
0.879212 0.869263 0.31252
0.88412 0.800567 0.279746
0.347528 0.926459 0.539012
0.347748 0.926459 0.513647
0.348039 0.926459 0.495469
0.348216 0.926459 0.483407
0.348239 0.926459 0.476486
0.348209 0.926459 0.47178
0.348248 0.926459 0.466905
0.393707 0.926459 0.45115
0.570715 0.926459 0.418392
0.683198 0.92646 0.415346
0.765119 0.926459 0.416839
0.822642 0.926458 0.423368
0.85858 0.926458 0.4299
0.874391 0.926481 0.432369
0.877335 0.925804 0.430895
0.88102 0.91739 0.335807
0.346619 0.926459 0.654921
0.34676 0.926459 0.632354
0.346796 0.926459 0.616409
0.346788 0.926459 0.605377
0.346972 0.926459 0.597201
0.347136 0.926459 0.591033
0.349305 0.926459 0.584929
0.420944 0.926459 0.568495
0.56464 0.926459 0.542184
0.672921 0.926459 0.526534
0.755135 0.926503 0.508687
0.813788 0.926459 0.47211
0.850509 0.926458 0.443358
0.870705 0.926458 0.434665
0.873643 0.926458 0.434757
0.873652 0.926458 0.434699
0.346624 0.926459 0.757581
0.346536 0.926459 0.737682
0.346686 0.926459 0.72402
0.347071 0.926459 0.714451
0.347287 0.926459 0.707681
0.348928 0.926459 0.70253
0.379372 0.926459 0.695671
0.478993 0.926459 0.685321
0.596148 0.926535 0.682369
0.682141 0.926459 0.674689
0.75377 0.926459 0.661796
0.807167 0.926458 0.640789
0.843001 0.926458 0.592373
0.865901 0.926475 0.503881
0.873639 0.926458 0.434818
0.87367 0.926458 0.434759
0.441675 0.926459 0.843727
0.404032 0.926459 0.827765
0.380053 0.926459 0.816706
0.382368 0.926459 0.808128
0.397834 0.926459 0.801326
0.431331 0.926459 0.795355
0.491794 0.926459 0.790157
0.56521 0.926459 0.787164
0.640204 0.926459 0.788664
0.714707 0.926459 0.796472
0.769546 0.926443 0.793391
0.810394 0.926445 0.782084
0.840359 0.926458 0.760406
0.860433 0.926458 0.71598
0.870071 0.926458 0.604908
0.872959 0.926458 0.466665
0.064103 -0.045727 -0.033187
0.064103 -0.045727 -0.020312
0.066171 -0.045727 0.06228
0.092953 -0.045728 0.06228
0.265849 -0.038768 0.155856
0.451496 0.068051 0.231554
0.610733 0.068051 0.276034
0.73646 0.068051 0.298208
0.833394 0.068051 0.301664
0.89159 0.113089 0.29422
0.895624 0.149334 0.304723
0.895615 0.150191 0.312286
0.895612 0.150083 0.316907
0.89561 0.150047 0.319416
0.895609 0.150034 0.32056
0.895609 0.150027 0.321029
0.064103 -0.045727 -0.028282
0.064103 -0.045727 -0.035885
0.064889 -0.045727 0.05792
0.092953 -0.045728 0.06228
0.237534 -0.043581 0.135535
0.418713 0.068051 0.209228
0.580749 0.068051 0.253594
0.708665 0.068051 0.276287
0.809836 0.068051 0.285859
0.880432 0.090353 0.287129
0.895621 0.144199 0.299386
0.895616 0.150175 0.309943
0.895612 0.15011 0.315489
0.895611 0.150065 0.318593
0.895609 0.150039 0.320227
0.895609 0.15003 0.320818
0.064103 -0.04471 0.06228
0.064103 -0.045219 0.06228
0.064452 -0.045606 0.06228
0.092953 -0.045599 0.06228
0.216577 -0.042632 0.121497
0.398547 0.066093 0.195263
0.56149 0.068051 0.241042
0.690466 0.068051 0.265504
0.793647 0.068051 0.275653
0.868986 0.080871 0.279188
0.895649 0.139416 0.294797
0.895619 0.149964 0.308061
0.895613 0.150127 0.314271
0.895611 0.150056 0.318012
0.89561 0.15004 0.319869
0.895609 0.150033 0.320659
0.064828 0.068051 0.06228
0.064538 0.068051 0.06228
0.065317 0.068051 0.06228
0.092953 0.068051 0.06228
0.202983 0.068051 0.106511
0.386508 0.068051 0.169873
0.547292 0.068051 0.221977
0.677045 0.068051 0.253982
0.782281 0.068051 0.268585
0.860631 0.074389 0.27526
0.895606 0.133605 0.291094
0.89562 0.149783 0.306806
0.895614 0.150148 0.313413
0.895611 0.150065 0.317409
