site/assets/luts/freshluts--0000129-tango-teal.cube
# LUTr-Schema-Version: 2
# LUTr-ID: freshluts--0000129-tango-teal
# LUTr-Title: Tango Teal
# LUTr-Collection: Fresh LUTs
# LUTr-Collection-ID: freshluts-community
# LUTr-Source: https://freshluts.com
# LUTr-Retrieved: 2026-07-27
# LUTr-Source-File: submissions-raw/freshluts/cubes/129__TangoTealVlog.cube
# LUTr-Source-Format: CUBE
# LUTr-Source-SHA256: dca93644214f9c2345513eda956af6b10d8062e40a9712994b130cdc4ad7f2df
# LUTr-License: CC0-1.0
# LUTr-License-URL: https://freshluts.com/termsandconditions
# LUTr-License-Basis: site-terms
# LUTr-Transform-Class: creative-look
# LUTr-Tags: creative, freshluts, community, cube, orange, high-key, panasonic-v-log
# LUTr-Input-Color-Space:
# LUTr-Input-Gamut: panasonic-v-gamut
# LUTr-Input-Transfer: panasonic-v-log
# LUTr-Output-Color-Space: srgb
# LUTr-Output-Gamut: rec709
# LUTr-Output-Transfer: srgb
# LUTr-Color-Space-Confidence: camera-profile-input-required
# LUTr-Domain-Normalized: true
# LUTr-Shaper: none
# LUTr-Original-Grid: 33x33x33
# LUTr-Conversion-Grid: 33x33x33
# LUTr-Conversion-Interpolation: none
# LUTr-Conversion-Method: Metadata normalization; numeric LUT samples preserved
# LUTr-Conversion-Tool: LUTr scripts/convert-all-to-cube.mjs 2.0.0
# LUTr-Conversion-Date: 2026-07-28
# LUTr-Asset-URL: https://freshluts.com/luts/129
# LUTr-Author: Forty Miles West
# LUTr-Author-URL: https://freshluts.com/users/391
# LUTr-Attribution: Forty Miles West via Fresh LUTs
# LUTr-Source-Labels: gamma=Panasonic V-log; color=Orange; key=High Key; style=Teal - Orange
# LUTr-Note: Preserve this metadata and the upstream license notices when redistributing.
TITLE "Tango Teal"
LUT_3D_SIZE 9
DOMAIN_MIN 0 0 0
DOMAIN_MAX 1 1 1
0 0.00943008 0.026978
0.0216068 0.0376135 0.0559243
0.134615 0.0701762 0.0893111
0.26743 0.0791485 0.108583
0.402869 0.0695811 0.109422
0.574029 0.0494087 0.101122
0.793851 0.01738 0.0827802
1 0 0.0562753
1 0 0.0235752
0 0.0743572 0.0572976
0.043595 0.106569 0.0899062
0.180407 0.139147 0.108873
0.419623 0.130678 0.08365
0.60734 0.109087 0.0607156
0.802243 0.0839094 0.0381933
1 0.0532387 0.0106355
1 0.01944 0
1 0 0
0 0.15404 0.0884108
0 0.212085 0.0954452
0.125643 0.241596 0.0638743
0.38117 0.239887 0.0028687
0.63769 0.20856 0
0.876585 0.177218 0
1 0.14667 0
1 0.120668 0
1 0.0999619 0
0 0.302464 0.0725872
0 0.361852 0.0310674
0.00433356 0.377966 0
0.326207 0.366827 0
0.414862 0.397009 0
0.794232 0.326253 0
1 0.307607 0
1 0.283635 0
1 0.260227 0
0 0.514092 0
0 0.546532 0
0 0.541299 0
0.246784 0.52343 0
0.524529 0.512322 0
0.521508 0.571588 0
0.898253 0.502266 0
1 0.465888 0
1 0.451041 0
0 0.734112 0
0 0.73106 0
0 0.717922 0
0.161089 0.705119 0
0.494987 0.693736 0
0.694224 0.689052 0
0.65774 0.767086 0
0.934737 0.740063 0
1 0.657832 0
0 0.922103 0
0 0.916777 0
0 0.908476 0
0.0888228 0.900816 0
0.461234 0.894377 0
0.682811 0.887587 0
0.876158 0.888685 0
0.821057 0.980087 0
1 0.983276 0
0 1 0
0 1 0
0 1 0
0.0295262 1 0
0.429114 1 0
0.706203 1 0
0.915404 1 0.237339
1 1 0.616312
1 1 1
0 1 0
0 1 0
0 1 0
0.170291 1 0.00805676
0.869474 1 0.720592
1 1 1
1 1 1
1 1 1
1 1 1
0 0.0068513 0.0565499
0.0198367 0.0375677 0.085008
0.133913 0.0706188 0.119203
0.27393 0.077348 0.15378
0.413001 0.0658122 0.166995
0.586892 0.0432593 0.17171
0.808927 0.00943008 0.168017
1 0 0.155306
1 0 0.135637
0 0.0749523 0.0866712
0.0421454 0.108156 0.121279
0.174838 0.137728 0.165698
0.401312 0.130694 0.176944
0.58677 0.109041 0.167941
0.788449 0.0810864 0.152834
1 0.0475471 0.132616
1 0.016434 0.0935988
1 0 0.0671092
0 0.156268 0.123201
0 0.212696 0.155093
0.119631 0.238895 0.153414
0.416007 0.226337 0.124926
0.659373 0.19791 0.0843366
0.871595 0.171145 0.0614176
1 0.148638 0.0470588
1 0.129274 0.0357519
1 0.11078 0.0241245
0 0.305135 0.138613
0 0.361639 0.125307
0 0.374945 0.0897536
0.321187 0.361898 0.0536812
0.542916 0.355428 0.0157015
0.791913 0.322118 0.0229191
1 0.298375 0
1 0.275929 0
1 0.256596 0
0 0.515389 0.0835126
0 0.544762 0.0472877
0 0.538125 0.019028
0.23856 0.520623 0.00602731
0.523323 0.508858 0
0.573999 0.552056 0
0.954391 0.478401 0
1 0.463691 0
1 0.443931 0
0 0.732906 0
0 0.72871 0
0 0.71574 0
0.154284 0.703334 0
0.491493 0.69218 0
0.694118 0.686717 0
0.689464 0.754742 0
1 0.692699 0
1 0.652811 0
0 0.920195 0
0 0.915221 0
0 0.907332 0
0.0838483 0.900069 0
0.458793 0.894057 0
0.681132 0.887694 0
0.877836 0.888167 0
0.841245 0.973465 0
1 0.953414 0
0 1 0
0 1 0
0 1 0
0.0259403 1 0
0.435157 1 0
0.719036 1 0.128374
0.924025 1 0.386374
1 1 0.740444
1 1 1
0 1 0
0 1 0
0 1 0
0.21503 1 0.165408
0.919936 1 0.836378
1 1 1
1 1 1
1 1 1
1 1 1
0 0.00447089 0.0907301
0.0567941 0.0424048 0.122072
0.131212 0.0702525 0.151553
0.277745 0.0750439 0.206256
0.419883 0.0614633 0.23328
0.594522 0.0372931 0.251423
0.818173 0.00158694 0.262226
1 0 0.263142
1 0 0.25507
0 0.0747692 0.119219
0.0361334 0.107012 0.158755
0.168093 0.135729 0.230137
0.399908 0.126299 0.270085
0.58584 0.10338 0.273411
0.786572 0.0749065 0.267506
1 0.0412451 0.255055
1 0.00637827 0.238163
1 0 0.218921
0 0.15729 0.163714
0 0.211673 0.224872
0.111574 0.234638 0.258076
0.405005 0.220493 0.255665
0.624796 0.196765 0.241199
0.827482 0.172442 0.225696
1 0.147875 0.209689
1 0.125917 0.19559
1 0.105714 0.18294
0 0.305501 0.216327
0 0.359365 0.234852
0 0.370413 0.223102
0.313588 0.3552 0.198993
0.580377 0.334752 0.183688
0.81268 0.311192 0.153338
1 0.292012 0.141115
1 0.277852 0.13669
1 0.265538 0.132387
0 0.513939 0.203357
0 0.54107 0.186038
0 0.533455 0.166049
0.226551 0.516121 0.153414
0.520592 0.503655 0.141726
0.692195 0.50576 0.110552
0.953307 0.473869 0.125231
1 0.453727 0.092668
1 0.434501 0.0736553
0 0.729488 0.14258
0 0.724147 0.133089
0 0.711803 0.124681
0.14342 0.699611 0.117128
0.486046 0.688975 0.111498
0.692744 0.682765 0.103731
0.741665 0.73286 0.038468
1 0.661006 0.0956588
1 0.650233 0.090547
0 0.916533 0.0973526
0 0.911925 0.0948806
0 0.904418 0.09131
0.0745251 0.897292 0.0890364
0.452735 0.891615 0.0886549
0.67715 0.885679 0.0877241
0.877577 0.885405 0.0838941
0.876173 0.959304 0.0256657
1 0.90898 0.178561
0 1 0.0626383
0 1 0.0648356
0 1 0.0665446
0.0182345 1 0.0707713
0.438987 1 0.111986
0.730556 1 0.288396
0.932479 1 0.527749
1 1 0.848569
1 1 1
0 1 0.0360113
0 1 0.0432898
0 1 0.0529793
0.254856 1 0.319356
0.963287 1 0.925414
1 1 1
1 1 1
1 1 1
1 1 1
0 0.00367742 0.136904
0.146151 0.0524605 0.179934
0.128557 0.0701915 0.189258
0.282628 0.0720989 0.270191
0.427039 0.0564279 0.310887
0.602274 0.0303349 0.341756
0.825742 0 0.366613
1 0 0.380713
1 0 0.384039
0 0.0702983 0.133898
0.0294652 0.106325 0.204868
0.217243 0.128695 0.314137
0.398856 0.120699 0.376532
0.585199 0.0963302 0.392706
0.785687 0.0669261 0.396948
1 0.0328679 0.393744
1 0 0.383612
1 0 0.369085
0 0.15761 0.208118
0 0.210132 0.301305
0.0914778 0.229129 0.382071
0.391821 0.214206 0.392096
0.616663 0.190356 0.384848
0.818723 0.166262 0.372045
1 0.142672 0.357168
1 0.121874 0.342107
1 0.102541 0.328298
0 0.305089 0.300969
0 0.355993 0.352743
0 0.364706 0.364813
0.305058 0.347951 0.352575
0.571725 0.328878 0.339727
0.776806 0.311833 0.329442
0.988342 0.295277 0.319631
1 0.279469 0.310582
1 0.263951 0.301823
0 0.511604 0.331868
0 0.536049 0.333059
0 0.527581 0.320226
0.212497 0.510887 0.308232
0.51696 0.497429 0.29752
0.7337 0.482612 0.28925
0.977401 0.462837 0.262791
1 0.446876 0.254307
1 0.436683 0.253971
0 0.725231 0.295155
0 0.719188 0.287739
0 0.707195 0.279545
0.131426 0.695399 0.27219
0.479866 0.685176 0.266743
0.690791 0.67805 0.259998
0.857786 0.685557 0.230884
1 0.656229 0.251057
1 0.640513 0.222736
0 0.911894 0.25214
0 0.907622 0.249912
0 0.900587 0.246586
0.0640726 0.894148 0.244663
0.445594 0.888716 0.244236
0.672663 0.883223 0.243534
0.876921 0.882094 0.240772
0.931289 0.937209 0.201495
1 0.88246 0.370901
0 1 0.218112
0 1 0.220478
0 1 0.222171
0.0087892 1 0.226474
0.44445 1 0.277852
0.743648 1 0.442908
0.941909 1 0.655909
1 1 0.934585
1 1 1
0 1 0.191653
0 1 0.198886
0 1 0.20853
0.291463 1 0.462791
1 1 0.996521
1 1 1
1 1 1
1 1 1
1 1 1
0 0.00459297 0.195193
0.0907301 0.0466926 0.239963
0.232792 0.0642252 0.289784
0.293477 0.0679179 0.368353
0.442649 0.0486915 0.429679
0.620844 0.019791 0.478279
0.844831 0 0.519158
1 0 0.546136
1 0 0.558373
0 0.0648356 0.17528
0.0211795 0.107988 0.276432
0.420523 0.0868391 0.470039
0.397696 0.113344 0.532021
0.588296 0.0867933 0.56321
0.788357 0.0565347 0.576288
1 0.0222171 0.579278
1 0 0.571954
1 0 0.55726
0 0.16144 0.277745
0 0.210285 0.35317
0.0680095 0.223774 0.560006
0.450706 0.193896 0.561685
0.609293 0.181811 0.573861
0.811826 0.158099 0.561517
1 0.135363 0.544854
1 0.115389 0.526513
1 0.0966049 0.509117
0 0.307012 0.415274
0 0.35346 0.505409
0 0.358999 0.542016
0.279927 0.340063 0.562127
0.561807 0.322545 0.521706
0.767514 0.306462 0.507103
0.977859 0.29073 0.492927
1 0.275669 0.479576
1 0.260899 0.466697
0 0.509834 0.485267
0 0.53135 0.505364
0 0.521706 0.497093
0.197543 0.505241 0.483131
0.5131 0.490898 0.471412
0.726543 0.477531 0.462272
0.938598 0.464515 0.454429
1 0.451652 0.446784
1 0.43946 0.439796
0 0.720378 0.461585
0 0.713771 0.455451
0 0.701839 0.446052
0.118013 0.690593 0.437797
0.472816 0.680613 0.431327
0.688121 0.672526 0.424552
0.905379 0.661814 0.419425
1 0.646021 0.394675
1 0.634485 0.390219
0 0.907317 0.41442
0 0.903288 0.412314
0 0.896544 0.408927
0.0525368 0.890364 0.406699
0.437491 0.885344 0.406088
0.667384 0.880049 0.405203
0.875532 0.877958 0.403159
1 0.892134 0.404059
1 0.883894 0.527626
0 1 0.378943
0 1 0.381598
0 1 0.383307
0 1 0.3879
0.451164 1 0.443061
0.757275 1 0.586954
0.952041 1 0.767575
1 1 1
1 1 1
0 1 0.352422
0 1 0.359991
0 1 0.371756
0.33164 1 0.598901
1 1 1
1 1 1
1 1 1
1 1 1
1 1 1
0 0.00495918 0.25124
0.0335699 0.0418402 0.276951
0.347448 0.0361944 0.380529
0.305547 0.0621653 0.489693
0.459403 0.0390326 0.575067
0.641627 0.00708019 0.645304
0.867445 0 0.706569
1 0 0.750225
1 0 0.775265
0 0.0626688 0.234684
0.0115358 0.109392 0.35877
0.380056 0.0838026 0.703426
0.497963 0.080827 0.692943
0.592172 0.0756847 0.769162
0.792065 0.0442359 0.794461
1 0.00987259 0.806607
1 0 0.804761
1 0 0.792218
0 0.161517 0.331594
0 0.203296 0.405753
0.0417639 0.217823 0.770474
0.669947 0.125338 0.757061
0.601862 0.172503 0.807477
0.804395 0.149065 0.796887
1 0.127489 0.779568
1 0.108248 0.759731
1 0.0900282 0.741039
0 0.311284 0.569299
0 0.351614 0.703838
0 0.375998 0.701701
0.25362 0.331777 0.826658
0.602335 0.303532 0.734691
0.75906 0.300053 0.738994
0.969345 0.284977 0.723903
1 0.270039 0.709087
1 0.255909 0.695232
0 0.50927 0.690761
0 0.526207 0.731487
0 0.514946 0.727214
0.181689 0.499168 0.712764
0.49958 0.48394 0.727337
0.718807 0.472511 0.68893
0.929625 0.459953 0.678035
1 0.448051 0.667948
1 0.436728 0.658335
0 0.714824 0.686931
0 0.707546 0.681559
0 0.696376 0.672435
0.104158 0.685466 0.66363
0.465934 0.676005 0.656321
0.685664 0.66714 0.649638
0.898833 0.657954 0.643977
1 0.649012 0.639872
1 0.640955 0.636713
0 0.901991 0.633585
0 0.898146 0.631998
0 0.891859 0.628138
0.0397955 0.886 0.624903
0.428595 0.881651 0.62324
0.662531 0.877302 0.621454
0.874815 0.874418 0.618494
1 0.87248 0.642573
1 0.885679 0.695537
0 1 0.588083
0 1 0.591577
0 1 0.592798
0 1 0.596429
0.466133 1 0.645838
0.781491 1 0.754559
0.969924 1 0.888884
1 1 1
1 1 1
0 1 0.550988
0 1 0.559564
0 1 0.575982
0.388647 1 0.749981
1 1 1
1 1 1
1 1 1
1 1 1
1 1 1
0 0.0053254 0.30837
0.0138552 0.0414435 0.320531
0.399084 0.0168917 0.51397
0.433433 0.0266575 0.590112
0.473045 0.0287175 0.728252
0.656886 0 0.816739
0.884352 0 0.896788
1 0 0.954757
1 0 0.991287
0 0.061265 0.294499
0.000137331 0.109926 0.447013
0.217548 0.106264 0.792874
0.738109 0.00822461 0.820859
0.592844 0.0643778 0.975387
0.792966 0.032166 1
1 0 1
1 0 1
1 0 1
0 0.143435 0.293263
0 0.19704 0.483391
0.0144045 0.211048 0.98085
0.61178 0.119844 1
0.705638 0.135058 0.997757
0.796216 0.140337 1
1 0.119982 1
1 0.101274 0.998016
1 0.0833295 0.981018
0 0.313451 0.730877
0 0.353918 0.877836
0 0.398779 0.896895
0.225849 0.3234 1
0.825772 0.232837 0.939116
0.750591 0.293721 0.979522
0.960327 0.278782 0.965637
1 0.264469 0.952392
1 0.250492 0.939391
0 0.508003 0.912963
0 0.520241 0.970596
0 0.507836 0.968902
0.0256657 0.520195 0.902312
0.485603 0.476722 0.994614
0.757015 0.453758 0.915373
0.921965 0.454765 0.923476
1 0.443168 0.913741
1 0.432303 0.904509
0 0.708858 0.932189
0 0.70132 0.926711
0 0.690684 0.918074
0.0899825 0.680293 0.909667
0.459144 0.671305 0.902632
0.674006 0.661418 0.921599
0.891585 0.653742 0.889326
1 0.64564 0.88336
1 0.638758 0.878645
0 0.89601 0.879942
0 0.892927 0.878828
0 0.887022 0.875105
0.0271305 0.881773 0.872084
0.419684 0.878172 0.870832
0.657511 0.874418 0.869383
0.87361 0.870329 0.867674
1 0.874388 0.874998
1 0.902083 0.905669
0 1 0.835538
0 1 0.839139
0 1 0.840528
0 1 0.844816
0.494591 1 0.867643
0.817319 1 0.920439
0.996002 1 0.993759
1 1 1
1 1 1
0 1 0.7953
0 1 0.8047
0 1 0.818982
0.478599 1 0.909316
1 1 1
1 1 1
1 1 1
1 1 1
1 1 1
0 0.00570687 0.366369
0.00863661 0.0424201 0.370642
0.399145 0.00885023 0.692714
0.61825 0 0.695415
0.500511 0.0133974 0.893278
0.671214 0 1
0.899046 0 1
1 0 1
1 0 1
0 0.0610819 0.358328
0 0.10956 0.542885
0.14345 0.112596 0.884993
0.85037 0 1
0.758541 0.00987259 1
0.792493 0.0197299 1
1 0 1
1 0 1
1 0 1
0 0.137194 0.331548
0 0.194339 0.574243
0 0.203693 1
0.460868 0.146792 1
1 0.0430152 1
0.787152 0.131655 1
0.996094 0.112352 1
1 0.0940108 1
1 0.0767681 1
0 0.315679 0.876631
0 0.373129 0.921828
0 0.403616 1
0.196139 0.314733 1
0.770718 0.228794 1
0.845777 0.259953 1
0.95111 0.272404 1
1 0.258366 1
1 0.244892 1
0 0.505638 1
0 0.514031 1
0 0.509926 1
0 0.555001 1
0.471489 0.469596 1
0.992599 0.381018 1
0.913985 0.449271 1
1 0.438407 1
1 0.427985 1
0 0.702022 1
0 0.694713 1
0 0.684291 1
0.0747539 0.674662 1
0.338293 0.693004 1
0.662058 0.655604 1
0.934234 0.636744 1
1 0.642039 1
1 0.635691 1
0 0.890318 1
0 0.887663 1
0 0.8822 1
0.0139315 0.877333 1
0.409705 0.874189 1
0.652094 0.871199 1
0.864469 0.867414 1
1 0.879011 1
1 0.916716 1
0 1 1
0 1 1
0 1 1
0 1 1
0.52462 1 1
0.854383 1 1
1 1 1
1 1 1
1 1 1
0 1 1
0 1 1
0 1 1
0.562615 1 1
1 1 1
1 1 1
1 1 1
1 1 1
1 1 1
0 0.00608835 0.425162
0.00683604 0.0437324 0.424659
0.342916 0.0164645 0.858198
0.743267 0 0.885283
0.704814 0 1
0.683497 0 1
0.910903 0 1
1 0 1
1 0 1
0 0.0614633 0.424186
0 0.108827 0.647715
0.112551 0.11075 1
0.847532 0 1
1 0 1
0.802762 0.00376898 1
1 0 1
1 0 1
1 0 1
0 0.13228 0.38616
0 0.194278 0.688106
0 0.195697 1
0.351186 0.15819 1
1 0 1
0.961318 0.0768902 1
0.985061 0.104234 1
1 0.0866407 1
1 0.0698558 1
0 0.316732 0.883864
0 0.377615 0.9888
0 0.403388 1
0.166644 0.306325 1
0.617502 0.260975 1
1 0.167895 1
0.94197 0.266239 1
1 0.252461 1
1 0.239231 1
0 0.502129 1
0 0.511315 1
0 0.556588 1
0 0.565682 1
0.457374 0.461936 1
0.938582 0.377096 1
1 0.416373 1
1 0.433036 1
1 0.42298 1
0 0.695125 1
0 0.688258 1
0 0.678279 1
0.0206149 0.67689 1
0.0773785 0.728405 1
0.649989 0.649714 1
1 0.561151 1
1 0.637919 1
1 0.631937 1
0 0.884199 1
0 0.881712 1
0 0.876829 1
0 0.872374 1
0.399832 0.870558 1
0.574823 0.894789 1
0.856764 0.865568 1
1 0.875883 1
1 0.933425 1
0 1 1
0 1 1
0 1 1
0 1 1
0.5617 1 1
0.896971 1 1
1 1 1
1 1 1
1 1 1
0 1 1
0 1 1
0 1 1
0.659449 1 1
1 1 1
1 1 1
1 1 1
1 1 1
1 1 1
