site/assets/luts/freshluts--0001219-lut-1-favorito.cube
# LUTr-Schema-Version: 2
# LUTr-ID: freshluts--0001219-lut-1-favorito
# LUTr-Title: Lut 1 Favorito
# LUTr-Collection: Fresh LUTs
# LUTr-Collection-ID: freshluts-community
# LUTr-Source: https://freshluts.com
# LUTr-Retrieved: 2026-07-27
# LUTr-Source-File: submissions-raw/freshluts/cubes/1219__Favoritord1.cube
# LUTr-Source-Format: CUBE
# LUTr-Source-SHA256: 3a23f7902754e55599e9718f6560673595da94728f8791041cdbeafa96501c4a
# LUTr-License: CC0-1.0
# LUTr-License-URL: https://freshluts.com/termsandconditions
# LUTr-License-Basis: site-terms
# LUTr-Transform-Class: creative-look
# LUTr-Tags: creative, freshluts, community, cube, orange, sony-s-log2
# LUTr-Input-Color-Space:
# LUTr-Input-Gamut: sony-s-gamut
# LUTr-Input-Transfer: sony-s-log2
# LUTr-Output-Color-Space: srgb
# LUTr-Output-Gamut: rec709
# LUTr-Output-Transfer: srgb
# LUTr-Color-Space-Confidence: camera-profile-input-required
# LUTr-Domain-Normalized: true
# LUTr-Shaper: none
# LUTr-Original-Grid: 33x33x33
# LUTr-Conversion-Grid: 33x33x33
# LUTr-Conversion-Interpolation: none
# LUTr-Conversion-Method: Metadata normalization; numeric LUT samples preserved
# LUTr-Conversion-Tool: LUTr scripts/convert-all-to-cube.mjs 2.0.0
# LUTr-Conversion-Date: 2026-07-28
# LUTr-Asset-URL: https://freshluts.com/luts/1219
# LUTr-Author: Antony Eliezer
# LUTr-Author-URL: https://freshluts.com/users/32961
# LUTr-Attribution: Antony Eliezer via Fresh LUTs
# LUTr-Source-Labels: gamma=Sony S-Log 2; color=Orange; key=Neutral; style=Colorful
# LUTr-Note: Preserve this metadata and the upstream license notices when redistributing.
# LUTr-Upstream-Comment: VEGAS Pro LUT
TITLE "Lut 1 Favorito"
LUT_3D_SIZE 33
DOMAIN_MIN 0 0 0
DOMAIN_MAX 1 1 1
0 0 0.02607617
0.00087146 0 0.02502139
0.0379597 0 0.01830154
0.086795 0 0.01394336
0.14161684 0 0.00958606
0.2047814 0 0.00610022
0.28094912 0 0.00261438
0.34354958 0 0
0.41802901 0 0
0.48984504 0 0
0.56217694 0 0
0.64002323 0 0
0.73010683 0 0
0.81254297 0 0
0.88496149 0 0
0.96856642 0 0
1 0 0
1 0 0
1 0 0
1 0 0
1 0 0
1 0 0
1 0 0
1 0 0
1 0 0
1 0 0
1 0 0
1 0 0
1 0 0
1 0 0
1 0 0
1 0 0
1 0 0
0 0.00261438 0.02399052
0 0.00174292 0.02298345
0.03538647 0 0.01655773
0.0847417 0 0.01132898
0.13626264 0 0.00784314
0.19821247 0 0.00348584
0.26925555 0 0
0.33480203 0 0
0.40827879 0 0
0.4792017 0 0
0.55641824 0 0
0.62768507 0 0
0.71683782 0 0
0.7984665 0 0
0.87020558 0 0
0.95305651 0 0
1 0 0
1 0 0
1 0 0
1 0 0
1 0 0
1 0 0
1 0 0
1 0 0
1 0 0
1 0 0
1 0 0
1 0 0
1 0 0
1 0 0
1 0 0
1 0 0
1 0 0
0 0.03291224 0.01132898
0 0.03171201 0.01045752
0.02200009 0.02502139 0.00348584
0.0621893 0.02010404 0
0.10650045 0.01655773 0
0.16125478 0.01394336 0
0.22870415 0.01045752 0
0.28889698 0.0087146 0
0.35242134 0.00610022 0
0.42295164 0.0043573 0
0.48984504 0.00261438 0
0.56217694 0.00087146 0
0.64624178 0 0
0.72345549 0 0
0.7984665 0 0
0.87020558 0 0
0.94535333 0 0
1 0 0
1 0 0
1 0 0
1 0 0
1 0 0
1 0 0
1 0 0
1 0 0
1 0 0
1 0 0
1 0 0
1 0 0
1 0 0
1 0 0
1 0 0
1 0 0
0 0.07112098 0.00087146
0 0.0674692 0
0.01481481 0.05714504 0
0.04775541 0.04925614 0
0.08887538 0.04483035 0
0.13892555 0.03928365 0
0.20148224 0.03538647 0
0.25408825 0.03171201 0
0.31767839 0.0293849 0
0.37978536 0.02715495 0
0.4480412 0.02399052 0
0.51701707 0.02298345 0
0.5914613 0.02010404 0
0.67144763 0.01830154 0
0.73679155 0.01742919 0
0.81254297 0.01568627 0
0.88496149 0.01394336 0
0.96856642 0.01307189 0
1 0.01132898 0
1 0.00958606 0
1 0.0087146 0
1 0.00784314 0
1 0.00610022 0
1 0.00522876 0
1 0.00348584 0
1 0.00261438 0
1 0.00174292 0
1 0.00087146 0
1 0 0
1 0 0
1 0 0
1 0 0
1 0 0
0 0.10882729 0
0 0.10650045 0
0.0087146 0.09311758 0
0.03928365 0.08271538 0
0.07487892 0.07487892 0
0.1208779 0.06928186 0
0.17920975 0.06392299 0
0.23224068 0.0588004 0
0.29291674 0.05551564 0
0.35242134 0.05233442 0
0.41802901 0.04775541 0
0.4792017 0.04483035 0
0.55641824 0.04200665 0
0.63383758 0.03928365 0
0.69718486 0.03666067 0
0.77071881 0.03538647 0
0.8411026 0.03291224 0
0.92244929 0.03171201 0
0.99208999 0.0293849 0
1 0.02715495 0
1 0.02607617 0
1 0.02399052 0
1 0.02298345 0
1 0.02200009 0
1 0.02010404 0
1 0.01919115 0
1 0.01830154 0
1 0.01742919 0
1 0.01568627 0
1 0.01481481 0
1 0.01394336 0
1 0.01220043 0
1 0.01220043 0
0 0.15550074 0
0 0.14986145 0
0.00348584 0.13362804 0
0.03171201 0.12337175 0
0.06392299 0.11356405 0
0.10650045 0.10650045 0
0.16125478 0.09746885 0
0.21146829 0.09311758 0
0.26925555 0.086795 0
0.32617843 0.08271538 0
0.38915727 0.07874354 0
0.4480412 0.07487892 0
0.52811223 0.07112098 0
0.5974164 0.0674692 0
0.65877837 0.06392299 0
0.73010683 0.06048179 0
0.80548769 0.0588004 0
0.87756634 0.05551564 0
0.94535333 0.05391212 0
1 0.05078245 0
1 0.04775541 0
1 0.04628017 0
1 0.04340587 0
1 0.04200665 0
1 0.04063261 0
1 0.0379597 0
1 0.03666067 0
1 0.03538647 0
1 0.03413703 0
1 0.03291224 0
1 0.03053626 0
1 0.0293849 0
1 0.02825782 0
0 0.20811008 0
0 0.2047814 0
0 0.18542707 0
0.02502139 0.170102 0
0.05551564 0.15836339 0
0.09527954 0.14986145 0
0.14708473 0.14161684 0
0.19176117 0.13362804 0
0.24668565 0.1284436 0
0.30515936 0.12337175 0
0.36141768 0.11597411 0
0.42295164 0.1111818 0
0.49521488 0.10650045 0
0.56217694 0.10192963 0
0.62768507 0.09746885 0
0.69070071 0.09527954 0
0.76386601 0.09098288 0
0.83391172 0.086795 0
0.89985412 0.0847417 0
0.97637314 0.08071603 0
1 0.07874354 0
1 0.07487892 0
1 0.07298665 0
1 0.06928186 0
1 0.0674692 0
1 0.06568293 0
1 0.06392299 0
1 0.06048179 0
1 0.0588004 0
1 0.05714504 0
1 0.05551564 0
1 0.05233442 0
1 0.05078245 0
0 0.25408825 0
0 0.2503719 0
0 0.22870415 0
0.02010404 0.21146829 0
0.04775541 0.19821247 0
0.0847417 0.18857948 0
0.13626264 0.17920975 0
0.17920975 0.170102 0
0.23224068 0.16417497 0
0.28490788 0.15836339 0
0.34354958 0.14986145 0
0.40345103 0.14433654 0
0.46868676 0.13892555 0
0.5393371 0.13362804 0
0.5974164 0.1284436 0
0.66509646 0.12589362 0
0.73010683 0.1208779 0
0.7984665 0.11597411 0
0.86287868 0.11356405 0
0.94535333 0.10882729 0
1 0.10650045 0
1 0.10192963 0
1 0.09968551 0
1 0.09527954 0
1 0.09311758 0
1 0.09098288 0
1 0.08887538 0
1 0.0847417 0
1 0.08271538 0
1 0.08071603 0
1 0.07874354 0
1 0.07487892 0
1 0.07298665 0
0 0.30515936 0
0 0.30104789 0
0 0.27702096 0
0.01655773 0.25783476 0
0.04200665 0.24302945 0
0.07679787 0.23224068 0
0.12337175 0.22172067 0
0.16712405 0.21146829 0
0.21827354 0.2047814 0
0.26925555 0.19821247 0
0.32617843 0.18857948 0
0.37978536 0.18230382 0
0.4480412 0.17614479 0
0.51151818 0.170102 0
0.57379252 0.16417497 0
0.63383758 0.16125478 0
0.69718486 0.15550074 0
0.77071881 0.14986145 0
0.82675499 0.14708473 0
0.90735149 0.14161684 0
0.97637314 0.13892555 0
1 0.13362804 0
1 0.13102171 0
1 0.12589362 0
1 0.12337175 0
1 0.1208779 0
1 0.11841205 0
1 0.11356405 0
1 0.1111818 0
1 0.10882729 0
1 0.10650045 0
1 0.10192963 0
1 0.09968551 0
0 0.35690385 0
0 0.35242134 0
0 0.32617843 0
0.01307189 0.30515936 0
0.03666067 0.28889698 0
0.06928186 0.27702096 0
0.11356405 0.26541832 0
0.15550074 0.25408825 0
0.2047814 0.24302945 0
0.25408825 0.235807 0
0.30930167 0.22870415 0
0.36141768 0.22172067 0
0.42790604 0.2148561 0
0.48984504 0.20811008 0
0.5506919 0.20148224 0
0.60942513 0.19497214 0
0.67144763 0.19176117 0
0.73679155 0.18542707 0
0.7984665 0.17920975 0
0.87020558 0.17614479 0
0.93768424 0.170102 0
1 0.16712405 0
1 0.16125478 0
1 0.15836339 0
1 0.15550074 0
1 0.14986145 0
1 0.14708473 0
1 0.14433654 0
1 0.14161684 0
1 0.13626264 0
1 0.13362804 0
1 0.13102171 0
1 0.1284436 0
0 0.40827879 0
0 0.40345103 0
0 0.37514642 0
0.01045752 0.35242134 0
0.03171201 0.33916023 0
0.0621893 0.32191294 0
0.10420125 0.30930167 0
0.14433654 0.29696694 0
0.19176117 0.28889698 0
0.23940325 0.28094912 0
0.29291674 0.26925555 0
0.34354958 0.26161149 0
0.40827879 0.25408825 0
0.46868676 0.24668565 0
0.52254856 0.24302945 0
0.58553892 0.235807 0
0.64624178 0.22870415 0
0.71025336 0.22172067 0
0.77071881 0.21827354 0
0.8411026 0.21146829 0
0.89985412 0.20811008 0
0.97637314 0.20148224 0
1 0.19821247 0
1 0.19176117 0
1 0.18857948 0
1 0.18542707 0
1 0.18230382 0
1 0.17614479 0
1 0.17310889 0
1 0.170102 0
1 0.16712405 0
1 0.16125478 0
1 0.15836339 0
0 0.46347731 0
0 0.45315456 0
0 0.42295164 0
0.00697168 0.40345103 0
0.02825782 0.38445553 0
0.05714504 0.36596265 0
0.09746885 0.35242134 0
0.13626264 0.34354958 0
0.17920975 0.3304747 0
0.22519752 0.32191294 0
0.27702096 0.31347457 0
0.32617843 0.30515936 0
0.38915727 0.29291674 0
0.4480412 0.28490788 0
0.50061709 0.28094912 0
0.55641824 0.27312306 0
0.6215654 0.26541832 0
0.6842497 0.25783476 0
0.73679155 0.25408825 0
0.81254297 0.2503719 0
0.87020558 0.24302945 0
0.94535333 0.235807 0
1 0.23224068 0
1 0.22519752 0
1 0.22172067 0
1 0.21827354 0
1 0.2148561 0
1 0.20811008 0
1 0.2047814 0
1 0.20148224 0
1 0.19821247 0
1 0.19176117 0
1 0.18857948 0
0 0.52254856 0
0 0.51701707 0
0 0.4845072 0
0.00348584 0.45830005 0
0.02399052 0.44295958 0
0.05078245 0.42295164 0
0.08887538 0.40827879 0
0.12337175 0.39389029 0
0.16712405 0.38445553 0
0.21146829 0.37514642 0
0.26161149 0.36141768 0
0.30930167 0.35242134 0
0.36596265 0.34354958 0
0.42790604 0.33480203 0
0.4792017 0.32617843 0
0.53370845 0.32191294 0
0.5914613 0.31347457 0
0.6524936 0.30515936 0
0.70370251 0.30104789 0
0.77071881 0.29291674 0
0.83391172 0.28490788 0
0.90735149 0.28094912 0
0.96856642 0.27312306 0
1 0.26925555 0
1 0.26541832 0
1 0.25783476 0
1 0.25408825 0
1 0.2503719 0
1 0.24668565 0
1 0.23940325 0
1 0.235807 0
1 0.23224068 0
1 0.22870415 0
0 0.57964945 0
0 0.57379252 0
0 0.5393371 0
0.00087146 0.51151818 0
0.02104032 0.49521488 0
0.04628017 0.47392815 0
0.08071603 0.45830005 0
0.11597411 0.44295958 0
0.15550074 0.43289202 0
0.19821247 0.42295164 0
0.24668565 0.40827879 0
0.29291674 0.39865497 0
0.34796983 0.38915727 0
0.40345103 0.37978536 0
0.45315456 0.37053895 0
0.50605142 0.36141768 0
0.56796855 0.35690385 0
0.62768507 0.34796983 0
0.67783219 0.34354958 0
0.74350995 0.33480203 0
0.7984665 0.3304747 0
0.87020558 0.32191294 0
0.93768424 0.31347457 0
1 0.30930167 0
1 0.30515936 0
1 0.29696694 0
1 0.29291674 0
1 0.28889698 0
1 0.28094912 0
1 0.27702096 0
1 0.27312306 0
1 0.26541832 0
1 0.26541832 0
0 0.63383758 0
0 0.62768507 0
0 0.5914613 0
0 0.56217694 0
0.01742919 0.5393371 0
0.04063261 0.52254856 0
0.07487892 0.50605142 0
0.10882729 0.48984504 0
0.14708473 0.4792017 0
0.18857948 0.46347731 0
0.23224068 0.45315456 0
0.27702096 0.44295958 0
0.33480203 0.43289202 0
0.38915727 0.42295164 0
0.43790996 0.413138 0
0.48984504 0.40345103 0
0.54499835 0.39865497 0
0.6034044 0.38915727 0
0.6524936 0.37978536 0
0.71683782 0.37514642 0
0.77071881 0.36596265 0
0.8411026 0.35690385 0
0.90735149 0.35242134 0
0.96856642 0.34354958 0
1 0.33916023 0
1 0.33480203 0
1 0.3304747 0
1 0.32191294 0
1 0.31767839 0
1 0.31347457 0
1 0.30930167 0
1 0.30104789 0
1 0.29696694 0
0 0.69070071 0
0 0.6842497 0
0 0.64624178 0
0 0.61547893 0
0.01481481 0.5914613 0
0.03666067 0.57379252 0
0.06928186 0.5506919 0
0.09968551 0.5393371 0
0.13892555 0.52254856 0
0.17614479 0.51151818 0
0.22172067 0.50061709 0
0.26541832 0.48984504 0
0.31767839 0.47392815 0
0.37053895 0.46347731 0
0.41802901 0.45315456 0
0.46868676 0.4480412 0
0.52254856 0.43790996 0
0.57964945 0.42790604 0
0.62768507 0.42295164 0
0.69070071 0.413138 0
0.74350995 0.40827879 0
0.81254297 0.39865497 0
0.87020558 0.38915727 0
0.93768424 0.38445553 0
0.98421425 0.37978536 0
1 0.37053895 0
1 0.36596265 0
1 0.36141768 0
1 0.35690385 0
1 0.34796983 0
1 0.34354958 0
1 0.33480203 0
1 0.33480203 0
0 0.7502616 0
0 0.73679155 0
0 0.69718486 0
0 0.66509646 0
0.01220043 0.64624178 0
0.03291224 0.6215654 0
0.0621893 0.6034044 0
0.09311758 0.58553892 0
0.1284436 0.57379252 0
0.16712405 0.55641824 0
0.20811008 0.54499835 0
0.2503719 0.53370845 0
0.30104789 0.52254856 0
0.35242134 0.51151818 0
0.39865497 0.50061709 0
0.4480412 0.49521488 0
0.50061709 0.4845072 0
0.55641824 0.47392815 0
0.6034044 0.46868676 0
0.66509646 0.45830005 0
0.71683782 0.4480412 0
0.78452516 0.43790996 0
0.8411026 0.43289202 0
0.89985412 0.42790604 0
0.95305651 0.41802901 0
1 0.413138 0
1 0.40827879 0
1 0.39865497 0
1 0.39389029 0
1 0.38915727 0
1 0.38445553 0
1 0.37514642 0
1 0.37053895 0
0 0.80548769 0
0 0.7984665 0
0 0.75704712 0
0 0.72345549 0
0.00958606 0.69718486 0
0.02825782 0.67783219 0
0.05714504 0.6524936 0
0.0847417 0.64002323 0
0.11841205 0.6215654 0
0.15550074 0.60942513 0
0.19497214 0.5974164 0
0.235807 0.58553892 0
0.28490788 0.57379252 0
0.33480203 0.55641824 0
0.37978536 0.5506919 0
0.42790604 0.5393371 0
0.4792017 0.52811223 0
0.53370845 0.52254856 0
0.57964945 0.51151818 0
0.64002323 0.50061709 0
0.69070071 0.49521488 0
0.75704712 0.4845072 0
0.81254297 0.4792017 0
0.87020558 0.46868676 0
0.91488343 0.46347731 0
0.97637314 0.45830005 0
1 0.4480412 0
1 0.44295958 0
1 0.43790996 0
1 0.42790604 0
1 0.42295164 0
1 0.41802901 0
1 0.413138 0
0 0.85558599 0
0 0.84832716 0
0 0.80548769 0
0 0.77071881 0
0.00697168 0.74350995 0
0.02607617 0.72345549 0
0.05233442 0.70370251 0
0.07874354 0.6842497 0
0.1111818 0.67144763 0
0.14708473 0.6524936 0
0.18542707 0.64002323 0
0.22519752 0.62768507 0
0.27312306 0.61547893 0
0.32191294 0.6034044 0
0.36141768 0.5914613 0
0.40827879 0.57964945 0
0.45830005 0.57379252 0
0.51151818 0.56217694 0
0.55641824 0.5506919 0
0.61547893 0.5393371 0
0.66509646 0.53370845 0
0.73010683 0.52254856 0
0.78452516 0.51701707 0
0.8411026 0.50605142 0
0.89239067 0.50061709 0
0.95305651 0.49521488 0
1 0.48984504 0
1 0.4792017 0
1 0.47392815 0
1 0.46868676 0
1 0.46347731 0
1 0.45315456 0
1 0.4480412 0
0 0.92244929 0
0 0.91488343 0
0 0.87020558 0
0 0.83391172 0
0.0043573 0.80548769 0
0.02200009 0.78452516 0
0.04628017 0.75704712 0
0.07112098 0.74350995 0
0.10420125 0.72345549 0
0.13626264 0.71025336 0
0.17310889 0.69718486 0
0.21146829 0.6842497 0
0.25783476 0.66509646 0
0.30104789 0.6524936 0
0.34354958 0.64002323 0
0.38915727 0.63383758 0
0.43790996 0.6215654 0
0.48984504 0.60942513 0
0.53370845 0.6034044 0
0.5914613 0.5914613 0
0.64002323 0.58553892 0
0.69718486 0.57379252 0
0.75704712 0.56217694 0
0.81254297 0.55641824 0
0.85558599 0.5506919 0
0.91488343 0.5393371 0
0.96856642 0.53370845 0
1 0.52811223 0
1 0.51701707 0
1 0.51151818 0
1 0.50605142 0
1 0.49521488 0
1 0.48984504 0
0 0.97637314 0
0 0.96856642 0
0 0.92244929 0
0 0.88496149 0
0.00174292 0.85558599 0
0.01919115 0.83391172 0
0.04200665 0.81254297 0
0.06568293 0.79147881 0
0.09527954 0.77071881 0
0.12589362 0.75704712 0
0.16417497 0.74350995 0
0.19821247 0.73010683 0
0.24668565 0.71683782 0
0.28889698 0.69718486 0
0.3304747 0.69070071 0
0.37514642 0.67783219 0
0.41802901 0.66509646 0
0.46868676 0.6524936 0
0.51151818 0.64624178 0
0.56796855 0.63383758 0
0.61547893 0.62768507 0
0.67783219 0.61547893 0
0.73010683 0.6034044 0
0.78452516 0.5974164 0
0.82675499 0.5914613 0
0.89239067 0.57964945 0
0.93768424 0.57379252 0
1 0.56796855 0
1 0.55641824 0
1 0.5506919 0
1 0.54499835 0
1 0.53370845 0
1 0.53370845 0
0 1 0
0 1 0
0 0.99208999 0
0 0.95305651 0
0 0.92244929 0
0.01568627 0.89985412 0
0.03666067 0.87020558 0
0.0588004 0.85558599 0
0.086795 0.83391172 0
0.11597411 0.81963199 0
0.15266678 0.7984665 0
0.18542707 0.78452516 0
0.22870415 0.77071881 0
0.27312306 0.75704712 0
0.30930167 0.74350995 0
0.35242134 0.73010683 0
0.39865497 0.72345549 0
0.4480412 0.71025336 0
0.48984504 0.70370251 0
0.54499835 0.69070071 0
0.5914613 0.67783219 0
0.64624178 0.66509646 0
0.69718486 0.65877837 0
0.7502616 0.6524936 0
0.7984665 0.64002323 0
0.85558599 0.63383758 0
0.89985412 0.62768507 0
0.96079439 0.61547893 0
1 0.60942513 0
1 0.6034044 0
1 0.5974164 0
1 0.58553892 0
1 0.57964945 0
0 1 0
0 1 0
0 1 0
0 1 0
0 0.97637314 0
0.01307189 0.95305651 0
0.03291224 0.92244929 0
0.05391212 0.90735149 0
0.08071603 0.88496149 0
0.10882729 0.87020558 0
0.14161684 0.84832716 0
0.17614479 0.83391172 0
0.21827354 0.81963199 0
0.25783476 0.80548769 0
0.29696694 0.79147881 0
0.33480203 0.78452516 0
0.37978536 0.77071881 0
0.42790604 0.75704712 0
0.46868676 0.74350995 0
0.52254856 0.73679155 0
0.56796855 0.72345549 0
0.6215654 0.71683782 0
0.67783219 0.70370251 0
0.73010683 0.69718486 0
0.77071881 0.6842497 0
0.82675499 0.67783219 0
0.87020558 0.67144763 0
0.93004972 0.65877837 0
0.98421425 0.6524936 0
1 0.64624178 0
1 0.64002323 0
1 0.62768507 0
1 0.6215654 0
0 1 0
0 1 0
0 1 0
0 1 0
0 1 0
0.01045752 1 0
0.0293849 0.97637314 0
0.04775541 0.96079439 0
0.07298665 0.93768424 0
0.10192963 0.92244929 0
0.13102171 0.90735149 0
0.16417497 0.89239067 0
0.2047814 0.87020558 0
0.24302945 0.85558599 0
0.28094912 0.84832716 0
0.32191294 0.83391172 0
0.36141768 0.81963199 0
0.40827879 0.80548769 0
0.4480412 0.7984665 0
0.50061709 0.78452516 0
0.54499835 0.77071881 0
0.6034044 0.76386601 0
0.6524936 0.7502616 0
0.70370251 0.74350995 0
0.74350995 0.73679155 0
0.7984665 0.72345549 0
0.84832716 0.71683782 0
0.90735149 0.70370251 0
0.95305651 0.69718486 0
1 0.69070071 0
1 0.6842497 0
1 0.67144763 0
1 0.66509646 0
0 1 0
0 1 0
0 1 0
0 1 0
0 1 0
0.00784314 1 0
0.02607617 1 0
0.04483035 1 0
0.0674692 0.98421425 0
0.09527954 0.96856642 0
0.12589362 0.94535333 0
0.15550074 0.93004972 0
0.19497214 0.91488343 0
0.23224068 0.89985412 0
0.26925555 0.88496149 0
0.30930167 0.87020558 0
0.34796983 0.86287868 0
0.39389029 0.84832716 0
0.43289202 0.83391172 0
0.4845072 0.82675499 0
0.52811223 0.81254297 0
0.58553892 0.7984665 0
0.63383758 0.79147881 0
0.6842497 0.777605 0
0.72345549 0.77071881 0
0.777605 0.76386601 0
0.82675499 0.75704712 0
0.88496149 0.74350995 0
0.93004972 0.73679155 0
0.98421425 0.73010683 0
1 0.72345549 0
1 0.71025336 0
1 0.70370251 0
0 1 0
0 1 0
0 1 0
0 1 0
0 1 0
0.00522876 1 0
0.02298345 1 0
0.03928365 1 0
0.0621893 1 0
0.086795 1 0
0.11597411 1 0
0.14433654 0.98421425 0
0.18230382 0.96856642 0
0.22172067 0.95305651 0
0.25408825 0.93768424 0
0.29291674 0.93004972 0
0.33480203 0.91488343 0
0.37514642 0.89985412 0
0.413138 0.88496149 0
0.46347731 0.87756634 0
0.50605142 0.86287868 0
0.56217694 0.85558599 0
0.60942513 0.8411026 0
0.65877837 0.83391172 0
0.69718486 0.81963199 0
0.7502616 0.81254297 0
0.7984665 0.80548769 0
0.85558599 0.79147881 0
0.89985412 0.78452516 0
0.95305651 0.777605 0
1 0.77071881 0
1 0.75704712 0
1 0.7502616 0
0 1 0
0 1 0
0 1 0
0 1 0
0 1 0
0.00261438 1 0
0.02010404 1 0
0.03538647 1 0
0.05714504 1 0
0.08071603 1 0
0.10882729 1 0
0.13626264 1 0
0.17310889 1 0
0.21146829 1 0
0.24302945 0.98421425 0
0.28094912 0.96856642 0
0.32191294 0.96079439 0
0.36141768 0.94535333 0
0.39865497 0.93004972 0
0.4480412 0.91488343 0
0.48984504 0.90735149 0
0.54499835 0.89239067 0
0.5914613 0.88496149 0
0.64002323 0.87020558 0
0.67783219 0.86287868 0
0.73010683 0.85558599 0
0.777605 0.84832716 0
0.83391172 0.83391172 0
0.87756634 0.82675499 0
0.93004972 0.81963199 0
0.97637314 0.80548769 0
1 0.7984665 0
1 0.79147881 0
0 1 0
0 1 0
0 1 0
0 1 0
0 1 0
0 1 0
0.01655773 1 0
0.03171201 1 0
0.05078245 1 0
