site/assets/luts/freshluts--0001551-black-woo-by-suchithya.cube
# LUTr-Schema-Version: 2
# LUTr-ID: freshluts--0001551-black-woo-by-suchithya
# LUTr-Title: Black Woo by Suchithya
# LUTr-Collection: Fresh LUTs
# LUTr-Collection-ID: freshluts-community
# LUTr-Source: https://freshluts.com
# LUTr-Retrieved: 2026-07-27
# LUTr-Source-File: submissions-raw/freshluts/cubes/1551__Black_Woo.cube
# LUTr-Source-Format: CUBE
# LUTr-Source-SHA256: 11bbe93977d5d151e6754736ef5088e68024c4e0cf099b436326711a65ad87f9
# LUTr-License: CC0-1.0
# LUTr-License-URL: https://freshluts.com/termsandconditions
# LUTr-License-Basis: site-terms
# LUTr-Transform-Class: creative-look
# LUTr-Tags: creative, freshluts, community, cube, noir, cinematic, black-and-white, arri-logc3-ei800
# LUTr-Input-Color-Space:
# LUTr-Input-Gamut: arri-wide-gamut-3
# LUTr-Input-Transfer: arri-logc3-ei800
# LUTr-Output-Color-Space: srgb
# LUTr-Output-Gamut: rec709
# LUTr-Output-Transfer: srgb
# LUTr-Color-Space-Confidence: camera-profile-input-required
# LUTr-Domain-Normalized: true
# LUTr-Shaper: none
# LUTr-Original-Grid: 33x33x33
# LUTr-Conversion-Grid: 33x33x33
# LUTr-Conversion-Interpolation: none
# LUTr-Conversion-Method: Metadata normalization; numeric LUT samples preserved
# LUTr-Conversion-Tool: LUTr scripts/convert-all-to-cube.mjs 2.0.0
# LUTr-Conversion-Date: 2026-07-28
# LUTr-Asset-URL: https://freshluts.com/luts/1551
# LUTr-Author: Suchithya
# LUTr-Author-URL: https://freshluts.com/users/192577
# LUTr-Attribution: Suchithya via Fresh LUTs
# LUTr-Source-Labels: gamma=Arri log c; color=Black and white; key=Neutral; style=Noir
# LUTr-Note: Preserve this metadata and the upstream license notices when redistributing.
TITLE "Black Woo by Suchithya"
LUT_3D_SIZE 9
DOMAIN_MIN 0 0 0
DOMAIN_MAX 1 1 1
0.000076 0 0.000528
0.000573 0 0.002736
0.003057 0.002868 0.006163
0.008601 0.009677 0.013009
0.014202 0.016977 0.020251
0.02118 0.023944 0.026719
0.035207 0.036736 0.038614
0.05273 0.053761 0.055752
0.070686 0.073025 0.076474
0.015237 0.01801 0.021205
0.021453 0.024216 0.026972
0.034548 0.036138 0.038058
0.050839 0.051853 0.053755
0.068056 0.069871 0.072933
0.084732 0.08991 0.095465
0.108518 0.114202 0.123829
0.14493 0.147951 0.16218
0.190527 0.190951 0.210397
0.071862 0.074436 0.078061
0.086613 0.09208 0.097928
0.109105 0.114794 0.124522
0.143351 0.146526 0.160579
0.186371 0.186808 0.205759
0.234183 0.23464 0.258862
0.281735 0.285936 0.308568
0.322948 0.339123 0.356306
0.372375 0.396537 0.405491
0.194818 0.195227 0.215185
0.236987 0.237659 0.261789
0.28073 0.28485 0.307517
0.319724 0.334732 0.352448
0.364786 0.388651 0.398862
0.421677 0.448287 0.450178
0.475499 0.508537 0.508983
0.538062 0.563312 0.555887
0.593889 0.617251 0.601498
0.373289 0.397487 0.40629
0.423237 0.450031 0.45188
0.472808 0.505521 0.50604
0.531014 0.557375 0.550932
0.585913 0.608742 0.594241
0.63326 0.659777 0.638904
0.676718 0.708904 0.687285
0.720164 0.757481 0.734695
0.765884 0.800004 0.778821
0.592202 0.615451 0.599963
0.63358 0.660138 0.639259
0.673584 0.705363 0.683797
0.714385 0.751036 0.728408
0.757626 0.793068 0.771344
0.801302 0.829929 0.811109
0.841888 0.864786 0.848843
0.872121 0.89158 0.878165
0.897075 0.91356 0.902805
0.762623 0.797265 0.775868
0.800916 0.829598 0.81075
0.838359 0.861763 0.845565
0.867744 0.887692 0.873907
0.892633 0.909668 0.898382
0.913481 0.927904 0.919101
0.932507 0.944644 0.937887
0.949506 0.959471 0.954255
0.962592 0.970685 0.96676
0.894787 0.911556 0.900527
0.913054 0.927531 0.918681
0.930498 0.942869 0.935903
0.946779 0.957094 0.951632
0.960216 0.968674 0.9645
0.970112 0.97707 0.973951
0.978686 0.984728 0.982368
0.985841 0.991088 0.989118
0.989621 0.993937 0.992437
0.934601 0.946476 0.939919
0.949092 0.95911 0.953857
0.961207 0.969514 0.965443
0.970491 0.977401 0.974322
0.978902 0.984924 0.982581
0.985831 0.991079 0.989109
0.989561 0.993899 0.992387
0.992145 0.995477 0.994436
0.994865 0.997194 0.996581
0.00023 0 0.001342
0.001023 0.000397 0.003657
0.004577 0.004638 0.007953
0.010725 0.01248 0.015816
0.016445 0.019217 0.022322
0.025054 0.027544 0.030064
0.040398 0.041444 0.043001
0.058737 0.059825 0.062102
0.076334 0.079811 0.084105
0.017555 0.020325 0.023351
0.025599 0.028037 0.030521
0.039737 0.040844 0.042442
0.05689 0.057961 0.060148
0.073745 0.076699 0.080605
0.092202 0.097725 0.104547
0.116813 0.122577 0.133612
0.159193 0.160822 0.176632
0.206481 0.206853 0.228193
0.077496 0.081209 0.085678
0.094701 0.100249 0.107504
0.11751 0.123251 0.13439
0.157599 0.159383 0.175017
0.202293 0.202678 0.223524
0.25035 0.252058 0.275749
0.29644 0.303047 0.324607
0.336012 0.356909 0.371932
0.39175 0.41666 0.422449
0.210823 0.21118 0.233032
0.253101 0.255024 0.278623
0.295587 0.301889 0.323588
0.332777 0.352506 0.368063
0.384017 0.40863 0.415675
0.439809 0.468568 0.469975
0.495252 0.52725 0.525783
0.559199 0.581119 0.570754
0.610289 0.634753 0.61641
0.392681 0.417627 0.423265
0.441354 0.470296 0.471662
0.492055 0.524556 0.523533
0.552143 0.575174 0.56579
0.602375 0.626307 0.609216
0.647752 0.676163 0.65504
0.691009 0.724928 0.702948
0.734832 0.773827 0.750642
0.780978 0.81268 0.792487
0.608616 0.632967 0.614889
0.648071 0.676524 0.655396
0.687959 0.721517 0.699623
0.72899 0.767318 0.744292
0.772713 0.805738 0.785003
0.814954 0.841667 0.823808
0.852308 0.873984 0.85889
0.881714 0.900092 0.88751
0.904448 0.920011 0.910145
0.77771 0.809934 0.789527
0.814569 0.841335 0.823449
0.849711 0.871676 0.856363
0.877519 0.896374 0.883416
0.900053 0.916167 0.90577
0.91968 0.933339 0.92522
0.938178 0.949594 0.943359
0.954826 0.964093 0.959365
0.966218 0.97374 0.970205
0.902185 0.918033 0.907893
0.919241 0.932954 0.924787
0.936468 0.948103 0.941715
0.952339 0.961938 0.956979
0.963915 0.971802 0.968017
0.972637 0.979288 0.976424
0.981236 0.987013 0.984791
0.987661 0.992638 0.990798
0.990482 0.994477 0.993141
0.940177 0.951337 0.945282
0.954539 0.963848 0.959092
0.964877 0.972612 0.968931
0.973068 0.979673 0.976847
0.981403 0.987162 0.984948
0.987656 0.992635 0.990794
0.990426 0.994442 0.993095
0.993051 0.996037 0.995141
0.995678 0.997749 0.997257
0.000473 0 0.002363
0.002272 0.00194 0.005224
0.007022 0.007647 0.010976
0.012801 0.015359 0.018699
0.019275 0.022042 0.024947
0.031024 0.032945 0.035085
0.047538 0.048522 0.050271
0.06566 0.067003 0.069714
0.082964 0.087785 0.093077
0.020425 0.02319 0.026016
0.031584 0.033452 0.035557
0.046746 0.047723 0.049435
0.063856 0.064993 0.067518
0.080377 0.084675 0.089578
0.101831 0.107449 0.115934
0.133001 0.137199 0.150091
0.176604 0.177074 0.194863
0.225704 0.226014 0.249591
0.084133 0.08919 0.094656
0.10436 0.110003 0.11892
0.133999 0.138098 0.151102
0.174824 0.175299 0.192877
0.221389 0.221713 0.244795
0.269062 0.272247 0.29531
0.311916 0.324098 0.343107
0.355732 0.379239 0.390963
0.414817 0.440621 0.442692
0.230199 0.230494 0.254583
0.271759 0.275159 0.298131
0.311071 0.322947 0.342096
0.351072 0.374395 0.3869
0.407089 0.432586 0.435895
0.461011 0.492305 0.493143
0.520201 0.548267 0.543329
0.57947 0.601868 0.58838
0.629066 0.655035 0.634234
0.415688 0.441594 0.443643
0.462542 0.494019 0.494816
0.517009 0.545578 0.541085
0.573983 0.596013 0.58339
0.62165 0.646882 0.626733
0.664883 0.69553 0.674113
0.707904 0.743802 0.721353
0.752673 0.788907 0.766859
0.798224 0.827283 0.808246
0.62758 0.653355 0.632579
0.665203 0.695893 0.67447
0.704814 0.740353 0.717989
0.746665 0.783859 0.761418
0.79057 0.820741 0.801174
0.831003 0.855455 0.838731
0.863849 0.884233 0.870117
0.890564 0.907855 0.896322
0.912412 0.926969 0.918046
0.795276 0.824749 0.805504
0.830621 0.855128 0.838377
0.861257 0.881931 0.867595
0.887216 0.904919 0.892989
0.908703 0.92373 0.914382
0.92721 0.939967 0.932655
0.944785 0.955355 0.949714
0.95933 0.967923 0.963656
0.969785 0.976783 0.973631
0.910545 0.925338 0.916204
0.926759 0.939569 0.93221
0.943068 0.953858 0.948063
0.957476 0.966349 0.961891
0.968128 0.975341 0.972017
0.976123 0.982414 0.979848
0.984018 0.989486 0.987411
0.988819 0.993417 0.991772
0.991465 0.995066 0.993913
0.946785 0.957099 0.951638
0.959049 0.967685 0.963389
0.968861 0.975973 0.972727
0.976609 0.982853 0.980326
0.984171 0.989621 0.987554
0.988815 0.993414 0.991768
0.991408 0.995032 0.99387
0.994143 0.99672 0.995996
0.996715 0.998483 0.998134
0.000833 0.00014 0.003394
0.003909 0.003862 0.007169
0.009672 0.011078 0.014411
0.015134 0.017908 0.021111
0.022117 0.024879 0.02759
0.036944 0.038311 0.040082
0.054557 0.055605 0.057682
0.072233 0.074882 0.078562
0.090861 0.09637 0.102959
0.024273 0.026839 0.029409
0.037511 0.038826 0.040561
0.053786 0.054828 0.056868
0.070472 0.072768 0.076187
0.087149 0.092622 0.098564
0.111291 0.117001 0.1271
0.149214 0.151815 0.166521
0.194861 0.19527 0.215233
0.244499 0.245752 0.269636
0.092537 0.098064 0.104944
0.113843 0.119578 0.130111
0.150225 0.152727 0.167545
0.193087 0.193502 0.213253
0.240273 0.241199 0.265221
0.286923 0.291544 0.313998
0.326883 0.344482 0.361013
0.377618 0.401984 0.410076
0.435684 0.463952 0.46547
0.248838 0.250428 0.274169
0.28958 0.294415 0.316778
0.326039 0.343332 0.360003
0.37286 0.397041 0.405915
0.428488 0.455903 0.457612
0.481458 0.515216 0.515501
0.544434 0.568679 0.560368
0.598372 0.622034 0.605575
0.645695 0.673837 0.65275
0.436545 0.464915 0.46641
0.482989 0.516916 0.517152
0.541241 0.565989 0.558123
0.592881 0.616176 0.600581
0.638688 0.665914 0.644947
0.68158 0.714383 0.692668
0.724573 0.762396 0.739489
0.769992 0.803453 0.782539
0.813884 0.840747 0.822813
0.644211 0.672159 0.651098
0.681892 0.714732 0.693008
0.721433 0.758896 0.736075
0.764003 0.798424 0.777118
0.806413 0.834324 0.815863
0.845746 0.868148 0.852503
0.875069 0.894198 0.881033
0.899092 0.915326 0.904813
0.919503 0.933184 0.925045
0.810932 0.838209 0.820067
0.845464 0.867897 0.852229
0.872479 0.891898 0.878513
0.895776 0.912422 0.901512
0.915782 0.92992 0.921372
0.934476 0.946367 0.939798
0.951181 0.96093 0.955866
0.963592 0.971529 0.96771
0.972674 0.979321 0.97646
0.917577 0.931493 0.923144
0.934088 0.94603 0.939426
0.949479 0.959447 0.954229
0.961791 0.970008 0.965998
0.971021 0.977864 0.97484
0.979591 0.985542 0.983236
0.986449 0.991617 0.989685
0.989862 0.99409 0.992634
0.992477 0.995681 0.994694
0.953157 0.96265 0.957766
0.963319 0.971299 0.967451
0.971681 0.978443 0.975486
0.979979 0.985889 0.983603
0.986583 0.991733 0.98981
0.989858 0.994088 0.992631
0.992416 0.995643 0.994647
0.995081 0.99734 0.99676
0.997738 0.999196 0.998976
0.001879 0.001467 0.004744
0.005827 0.006125 0.009452
0.011851 0.014023 0.017361
0.017749 0.020519 0.023531
0.02757 0.029819 0.032177
0.043045 0.043989 0.045533
0.061271 0.062383 0.064781
0.078576 0.082508 0.08714
0.100036 0.105636 0.113812
0.029948 0.031971 0.034178
0.043734 0.044683 0.046258
0.06052 0.061625 0.063987
0.076837 0.080416 0.084786
0.096279 0.101842 0.109371
0.122952 0.128149 0.139906
0.165297 0.16633 0.182817
0.21292 0.213271 0.235369
0.262487 0.265149 0.288435
0.101733 0.10735 0.115817
0.127249 0.132018 0.144261
0.166305 0.167238 0.183838
0.211118 0.211474 0.233361
0.258346 0.260682 0.284106
0.302516 0.311306 0.331867
0.341639 0.364561 0.378658
0.39958 0.424789 0.429313
0.455967 0.486656 0.48763
0.26674 0.26974 0.292882
0.304772 0.314374 0.334563
0.340789 0.363405 0.377641
0.394731 0.419755 0.425061
0.448841 0.478677 0.479842
0.505025 0.535483 0.532657
0.567115 0.588685 0.577145
0.616808 0.641712 0.622334
0.662043 0.692321 0.670952
0.45682 0.487611 0.488562
0.506834 0.537008 0.53393
0.564635 0.586038 0.57489
0.611366 0.635903 0.617388
0.655023 0.684385 0.663137
0.697598 0.732292 0.710128
0.741302 0.779354 0.756562
0.787026 0.817762 0.797964
0.829221 0.853925 0.837075
0.660556 0.690639 0.669297
0.697913 0.732644 0.710471
0.738057 0.776627 0.753623
0.781014 0.81271 0.792519
0.821791 0.847543 0.830167
0.856824 0.877993 0.863282
0.884935 0.902918 0.890717
0.907368 0.922563 0.913053
0.926683 0.939503 0.932135
0.826289 0.851408 0.83435
0.856548 0.877748 0.863014
0.882945 0.901172 0.888735
0.904096 0.919704 0.909796
0.922852 0.936128 0.928352
0.940762 0.951847 0.945845
0.956473 0.965495 0.960935
0.967632 0.974925 0.971546
0.975999 0.982302 0.979726
0.924701 0.937756 0.930177
0.940372 0.951506 0.945469
0.955296 0.964493 0.959814
0.965899 0.973472 0.969902
0.974063 0.980562 0.977824
0.982352 0.988008 0.985843
0.988091 0.992931 0.991162
0.990814 0.99468 0.99341
0.993506 0.99632 0.995497
0.957838 0.966655 0.962235
0.96737 0.974706 0.971298
0.974854 0.981271 0.978601
0.982721 0.988336 0.98619
0.988159 0.992977 0.991219
0.99081 0.994677 0.993406
0.993444 0.996282 0.995448
0.996019 0.997988 0.997544
0.998376 0.99944 0.999288
0.003374 0.003239 0.006539
0.008527 0.009582 0.012913
0.0138 0.016577 0.019881
0.020458 0.023223 0.026047
0.033253 0.034964 0.036964
0.049972 0.050978 0.05284
0.067746 0.069499 0.072515
0.084839 0.090038 0.09561
0.109192 0.114882 0.124624
0.035673 0.037158 0.039008
0.050643 0.051655 0.053548
0.067011 0.06862 0.071528
0.083087 0.087932 0.093242
0.105397 0.11105 0.120144
0.13855 0.142199 0.155715
0.182355 0.182806 0.201279
0.231233 0.231525 0.255731
0.279918 0.283973 0.306667
0.110905 0.116611 0.126645
0.142898 0.146118 0.16012
0.183486 0.183932 0.20254
0.229372 0.22967 0.253664
0.275848 0.279575 0.302409
0.317063 0.331107 0.349264
0.362566 0.386344 0.396925
0.420877 0.447393 0.449305
0.475832 0.508911 0.509348
0.284103 0.288495 0.311047
0.319307 0.334163 0.351949
0.361338 0.385067 0.395853
0.416363 0.442348 0.444379
0.468756 0.500982 0.50161
0.52853 0.555283 0.549185
0.585413 0.608209 0.593787
0.633877 0.660474 0.63959
0.678256 0.710641 0.688995
0.47668 0.509861 0.510274
0.530338 0.556806 0.550457
0.582923 0.605553 0.591522
0.629038 0.655003 0.634203
0.671197 0.702666 0.681141
0.713601 0.750162 0.727555
0.758128 0.79349 0.771799
0.80275 0.831174 0.812456
0.844082 0.866667 0.850884
0.676759 0.70895 0.68733
0.713921 0.750518 0.727903
0.754883 0.790764 0.76886
0.797331 0.826515 0.807416
0.83684 0.860462 0.844155
0.867707 0.88766 0.873871
0.893256 0.910214 0.899002
0.914439 0.928743 0.920047
0.933832 0.945807 0.939179
0.841258 0.864246 0.848257
0.867431 0.887414 0.873602
0.89128 0.908482 0.897035
0.911708 0.926354 0.917352
0.930029 0.942455 0.935439
0.94699 0.957278 0.951835
0.960685 0.969071 0.964945
0.970594 0.977491 0.974423
0.979405 0.985375 0.98306
0.931923 0.944127 0.937309
0.9466 0.956938 0.95146
0.959535 0.968096 0.963851
0.969397 0.976444 0.973252
0.977486 0.983644 0.981188
0.984888 0.990253 0.988227
0.989156 0.993637 0.992052
0.99175 0.995236 0.994132
0.994518 0.996962 0.996295
0.962015 0.970197 0.966211
0.970413 0.977333 0.974246
0.978327 0.984404 0.982015
0.985222 0.990547 0.98854
0.989218 0.993678 0.992104
0.991746 0.995234 0.994128
0.994466 0.996927 0.996253
0.997022 0.998704 0.998395
0.999006 0.99968 0.999596
0.005086 0.005226 0.008548
0.010859 0.012662 0.015998
0.016259 0.019031 0.022149
0.024111 0.026693 0.029274
0.03896 0.04014 0.041786
0.056652 0.05772 0.059896
0.074013 0.077021 0.080967
0.093178 0.098711 0.105702
0.119065 0.124651 0.135966
0.041388 0.042342 0.043837
0.057305 0.05838 0.060587
0.073294 0.076156 0.079995
0.090666 0.096174 0.102729
0.114509 0.120251 0.130896
0.154187 0.156302 0.171559
0.199882 0.200275 0.220834
0.249098 0.250708 0.27444
0.296236 0.30277 0.324362
0.121946 0.127243 0.138886
0.158593 0.16028 0.176023
0.201016 0.201405 0.222099
0.247308 0.248779 0.27257
0.292785 0.298084 0.320242
0.331435 0.35068 0.366459
0.38372 0.408322 0.415416
0.440848 0.46973 0.47111
0.497794 0.529392 0.527571
0.299786 0.307594 0.328604
0.333685 0.353743 0.36915
0.382465 0.407018 0.414317
0.436385 0.464736 0.466235
0.489391 0.522312 0.521659
0.551802 0.574886 0.56555
0.603542 0.627551 0.610276
0.649839 0.678523 0.657364
0.693951 0.728216 0.706154
0.498801 0.53024 0.52828
0.553612 0.576411 0.566823
0.601064 0.624907 0.608023
0.645004 0.673056 0.651981
0.687075 0.720529 0.69866
0.729686 0.768094 0.745049
0.774747 0.807446 0.786844
0.817786 0.844101 0.826442
0.854948 0.876327 0.861457
0.692493 0.726586 0.704565
0.73001 0.768455 0.745401
0.771506 0.804724 0.783911
0.812366 0.839441 0.8214
0.849593 0.871571 0.856248
0.878473 0.89722 0.884344
0.901417 0.917361 0.907128
0.921305 0.934768 0.926825
0.93997 0.951156 0.945082
0.852835 0.874451 0.859402
0.878197 0.896976 0.884076
0.899463 0.91565 0.905182
0.918491 0.932295 0.924046
0.936633 0.948247 0.941873
0.953108 0.962607 0.957718
0.964737 0.972495 0.968799
0.973477 0.980037 0.977248
0.982113 0.987795 0.985618
0.938247 0.949654 0.943426
0.952723 0.962272 0.957348
0.963623 0.971555 0.96774
0.972126 0.978835 0.975922
0.980556 0.986405 0.984148
0.987122 0.992199 0.99031
0.990134 0.994261 0.992857
0.992736 0.995841 0.994896
0.995391 0.997551 0.997018
0.966023 0.973576 0.970019
0.973264 0.979847 0.97704
0.981208 0.986988 0.984764
0.987412 0.992448 0.990579
0.990192 0.994298 0.992905
0.992732 0.995839 0.994893
0.995336 0.997513 0.996972
0.9979 0.999258 0.999055
0.999622 0.999912 0.999893
0.007583 0.008365 0.011695
0.012771 0.015316 0.018657
0.018865 0.021633 0.024567
0.029605 0.03166 0.033889
0.045263 0.046226 0.047871
0.063109 0.064239 0.066727
0.080148 0.084399 0.089268
0.102095 0.107715 0.116245
0.134332 0.138398 0.15144
0.048177 0.049167 0.050945
0.063747 0.064882 0.067402
0.079433 0.083539 0.0883
0.099555 0.10515 0.113243
0.127883 0.132589 0.144904
0.169741 0.170337 0.18732
0.217474 0.21781 0.240438
0.266447 0.269424 0.292576
0.310561 0.322253 0.341486
0.137245 0.141022 0.154392
0.174523 0.175 0.192542
0.218633 0.218965 0.241729
0.264691 0.267528 0.290739
0.307143 0.3176 0.337398
0.347485 0.370665 0.383775
0.405068 0.430486 0.434123
0.460462 0.49169 0.492543
0.520876 0.548836 0.543804
0.314083 0.327049 0.3457
0.350719 0.374027 0.386592
0.403803 0.429173 0.433014
0.456037 0.486734 0.487706
0.512487 0.541769 0.537905
0.572267 0.594182 0.58183
0.621372 0.646585 0.62648
0.665694 0.696447 0.675016
0.709611 0.745708 0.723211
0.521882 0.549683 0.544511
0.573674 0.595684 0.583109
0.618912 0.643958 0.624245
0.660845 0.690966 0.669618
0.702653 0.73794 0.715635
0.746047 0.78334 0.760859
0.791275 0.821334 0.801813
0.832614 0.856837 0.840228
0.865629 0.885814 0.871849
0.708134 0.74406 0.721604
0.746381 0.783621 0.761161
0.78802 0.818597 0.798864
0.827241 0.852226 0.835235
0.860277 0.88106 0.866642
0.887287 0.904981 0.893059
0.909386 0.924326 0.915061
0.92831 0.940937 0.933741
0.946084 0.956488 0.950964
0.863514 0.883935 0.869791
0.887076 0.904796 0.892849
0.907479 0.922661 0.913163
0.925418 0.938388 0.930886
0.94274 0.953571 0.947747
0.957671 0.966514 0.962076
0.968545 0.975696 0.972417
0.976784 0.98301 0.980498
0.984626 0.990022 0.987981
0.94436 0.954984 0.949305
0.957405 0.966288 0.961823
0.967539 0.974848 0.971458
0.975266 0.981642 0.979006
0.983183 0.988746 0.986625
0.988399 0.993138 0.991421
0.991054 0.994828 0.993603
0.993738 0.996466 0.995678
0.996324 0.998203 0.997802
0.969432 0.976475 0.973286
0.97655 0.9828 0.980268
0.983792 0.989286 0.987198
0.98855 0.993238 0.991547
0.991109 0.994859 0.993644
0.993734 0.996463 0.995675
0.996264 0.998161 0.997751
0.998518 0.999495 0.999358
0.999834 0.999979 0.999979
0.009855 0.011319 0.014653
0.014773 0.017548 0.020778
0.021334 0.024097 0.026862
0.034755 0.036326 0.038233
0.051462 0.052481 0.054413
0.068915 0.070901 0.074089
0.085806 0.091198 0.096914
0.11036 0.116061 0.126002
0.148505 0.151175 0.165803
0.054308 0.055354 0.057419
0.069541 0.071651 0.074931
0.085082 0.09033 0.095938
0.107797 0.113473 0.122978
0.141984 0.145294 0.159194
0.185597 0.186037 0.204896
0.234031 0.234477 0.258703
0.28211 0.286341 0.30896
0.323643 0.34007 0.357138
0.151453 0.153835 0.16879
0.19049 0.190914 0.210355
0.23519 0.235724 0.259913
0.280379 0.284471 0.307149
0.320234 0.335426 0.353058
0.366444 0.390374 0.40031
0.423979 0.450861 0.452691
0.478343 0.511725 0.512094
0.542055 0.566676 0.558695
0.327163 0.344864 0.361349
0.36973 0.393789 0.40318
0.422801 0.449544 0.451405
0.473944 0.506795 0.507283
0.533665 0.559608 0.552796
0.588774 0.611794 0.596844
0.636346 0.663265 0.642339
0.68032 0.712973 0.691292
0.72419 0.761969 0.739073
0.543061 0.567523 0.559403
0.590187 0.613301 0.59813
0.634155 0.660788 0.6399
0.675443 0.707463 0.685866
0.717132 0.7541 0.731397
0.761206 0.796075 0.774585
0.805075 0.833173 0.814618
0.845494 0.867924 0.852259
0.875435 0.894523 0.881388
0.722692 0.7603 0.737444
0.761539 0.796354 0.774887
0.802144 0.830653 0.811892
0.840728 0.863793 0.847765
0.870086 0.889772 0.876185
0.894772 0.911543 0.900512
0.915487 0.929661 0.921082
0.934615 0.946489 0.939932
0.951667 0.961353 0.956333
0.873322 0.892646 0.879333
0.894562 0.911359 0.900303
0.913858 0.928235 0.919474
0.931934 0.944137 0.937321
0.948347 0.958461 0.95314
0.961444 0.969714 0.965668
0.971006 0.977851 0.974826
0.979758 0.985691 0.983394
0.986702 0.991836 0.98992
0.949958 0.959865 0.95469
0.961184 0.969494 0.965421
0.970263 0.977201 0.974099
0.978409 0.984478 0.982096
0.985408 0.990709 0.988713
0.989342 0.993758 0.992206
0.9919 0.995327 0.994247
0.994626 0.997034 0.996385
0.997245 0.998866 0.998585
0.971903 0.978639 0.975705
0.979572 0.985525 0.983218
0.985958 0.99119 0.989227
0.989483 0.993849 0.992323
0.99196 0.995363 0.994293
0.994623 0.997032 0.996382
0.997182 0.99882 0.998531
0.999085 0.99971 0.999634
0.999889 0.999986 0.999986
