site/assets/luts/freshluts--0000673-this-is-sample-cinestyle-look-correct-your-footages-first-th.cube
# LUTr-Schema-Version: 2
# LUTr-ID: freshluts--0000673-this-is-sample-cinestyle-look-correct-your-footages-first-th
# LUTr-Title: This is sample CINEstyle LOOK . correct your footages first then apply THIS LUT.
# LUTr-Collection: Fresh LUTs
# LUTr-Collection-ID: freshluts-community
# LUTr-Source: https://freshluts.com
# LUTr-Retrieved: 2026-07-27
# LUTr-Source-File: submissions-raw/freshluts/cubes/673__fit_for_hope_3.00002.cube
# LUTr-Source-Format: CUBE
# LUTr-Source-SHA256: 0a10b44504e6eb07ce5a96e8dc4138a47da0ad589580b255a101cb4a912b8b0f
# LUTr-License: CC0-1.0
# LUTr-License-URL: https://freshluts.com/termsandconditions
# LUTr-License-Basis: site-terms
# LUTr-Transform-Class: creative-look
# LUTr-Tags: creative, freshluts, community, cube, canon-cinestyle, correction
# LUTr-Input-Color-Space:
# LUTr-Input-Gamut: rec709
# LUTr-Input-Transfer: canon-cinestyle
# LUTr-Output-Color-Space: srgb
# LUTr-Output-Gamut: rec709
# LUTr-Output-Transfer: srgb
# LUTr-Color-Space-Confidence: camera-profile-input-required
# LUTr-Domain-Normalized: true
# LUTr-Shaper: none
# LUTr-Original-Grid: 33x33x33
# LUTr-Conversion-Grid: 33x33x33
# LUTr-Conversion-Interpolation: none
# LUTr-Conversion-Method: Metadata normalization; numeric LUT samples preserved
# LUTr-Conversion-Tool: LUTr scripts/convert-all-to-cube.mjs 2.0.0
# LUTr-Conversion-Date: 2026-07-28
# LUTr-Asset-URL: https://freshluts.com/luts/673
# LUTr-Author: lvannoeun@gmail.com
# LUTr-Author-URL: https://freshluts.com/users/57563
# LUTr-Attribution: lvannoeun@gmail.com via Fresh LUTs
# LUTr-Source-Labels: gamma=Canon Cinestyle; color=None; key=Neutral; style=Drama
# LUTr-Note: Preserve this metadata and the upstream license notices when redistributing.
TITLE "This is sample CINEstyle LOOK . correct your footages first then apply THIS LUT."
LUT_3D_SIZE 33
DOMAIN_MIN 0 0 0
DOMAIN_MAX 1 1 1
0 0 0.0339971
0 0 0.0322728
0 0 0.0308843
0 0 0.0293126
0 0 0.0268101
0.0141451 0 0.0225071
0.0569772 0 0.0198215
0.09691 0 0.0179141
0.135378 0 0.0163729
0.173022 0 0.0153353
0.209766 0 0.0142367
0.245899 0 0.0134279
0.281636 0 0.0126497
0.316884 0 0.0120089
0.351614 0 0.0114748
0.386419 0 0.0111849
0.420722 0 0.0108034
0.454917 0 0.0106203
0.488609 0 0.0103914
0.522164 0 0.0102388
0.555627 0 0.0102693
0.58883 0 0.0102388
0.621897 0 0.0102235
0.654917 0 0.0104219
0.687739 0 0.0104982
0.720317 0 0.0106355
0.75285 0 0.0109255
0.785092 0 0.0111391
0.817273 0 0.0113832
0.849546 0 0.011902
0.881514 0 0.0122377
0.913512 0 0.0125582
0.932219 0 0.0129549
0 0.0273747 0.0385748
0 0.0261997 0.0373846
0 0.0249943 0.0361639
0 0.0231022 0.034287
0 0.0204623 0.0316167
0.0214237 0.016083 0.0272526
0.0638132 0.0135348 0.0246586
0.103761 0.0118105 0.0229343
0.142199 0.0103609 0.0214389
0.179629 0.00917067 0.0201877
0.21622 0.00827039 0.0192569
0.25243 0.00740063 0.0183566
0.288029 0.00671397 0.0176394
0.323354 0.0062562 0.0171511
0.358236 0.00578317 0.0166476
0.392782 0.00534066 0.0161898
0.427085 0.00517281 0.0159762
0.461082 0.00491341 0.0157168
0.49482 0.0047303 0.0155489
0.528511 0.00468452 0.0155184
0.561913 0.00462348 0.0154726
0.595239 0.00469978 0.0155642
0.628229 0.00477607 0.0156252
0.661112 0.00486763 0.0157473
0.693812 0.00497444 0.0158694
0.726467 0.00520333 0.016144
0.758846 0.00538643 0.0163424
0.791485 0.00573739 0.0167086
0.823728 0.00602731 0.0170138
0.855787 0.00633249 0.0173342
0.887739 0.00665293 0.0176699
0.9196 0.00706493 0.0181125
0.937636 0.00737011 0.0184176
0 0.0580911 0.0424964
0 0.0569772 0.0413519
0 0.055436 0.0398566
0 0.0536049 0.037995
0 0.0507362 0.0351568
0.0271611 0.0465248 0.03093
0.0695048 0.0441138 0.0285649
0.109224 0.0423285 0.0267643
0.147509 0.0408789 0.0253605
0.184833 0.0397192 0.0242008
0.221515 0.0386816 0.0231937
0.257603 0.0378576 0.0223392
0.293294 0.0372931 0.0217746
0.328527 0.0366674 0.0211795
0.363424 0.036286 0.0207828
0.39794 0.0358892 0.0204318
0.432227 0.0355688 0.0200961
0.46627 0.0352636 0.0198367
0.500145 0.0352178 0.0197757
0.533715 0.0350347 0.0196384
0.567239 0.0350958 0.0196841
0.600473 0.0350805 0.0197147
0.633448 0.0351415 0.0197452
0.666362 0.0352331 0.0198825
0.699123 0.0354162 0.0200656
0.731685 0.0355535 0.0202182
0.764218 0.0359197 0.0205997
0.796567 0.0361791 0.0209049
0.828763 0.0364843 0.0211948
0.861067 0.0367742 0.0215152
0.892973 0.0371557 0.0218967
0.924834 0.0375067 0.0222934
0.94226 0.0378424 0.0226291
0 0.0890211 0.0456092
0 0.0878462 0.044419
0 0.0863355 0.0429389
0 0.0844282 0.0410163
0.000869764 0.0814069 0.038056
0.0324712 0.0774701 0.0340887
0.0743572 0.0749981 0.0316625
0.113924 0.0732738 0.0299382
0.152178 0.0718547 0.0285496
0.189349 0.0707256 0.0274205
0.226093 0.0697948 0.0265202
0.262165 0.0690776 0.0257877
0.297826 0.0683146 0.0250706
0.332967 0.0678416 0.0245975
0.367819 0.0673686 0.0241703
0.402396 0.0670024 0.0237888
0.436759 0.0667124 0.0235447
0.470771 0.0665293 0.0233616
0.50457 0.0663157 0.0231785
0.538308 0.0663767 0.0232242
0.571649 0.0663005 0.0231937
0.604883 0.0663157 0.023209
0.637903 0.0663767 0.0233158
0.670817 0.0665141 0.0234379
0.703655 0.0667124 0.023682
0.736309 0.0670024 0.0239719
0.768688 0.0672618 0.0242161
0.801007 0.0674907 0.0244907
0.833249 0.0678416 0.0248417
0.865324 0.0681621 0.0252079
0.897383 0.0686656 0.0256962
0.929503 0.0690929 0.0261692
0.94612 0.0692302 0.0262913
0 0.120134 0.0482948
0 0.118883 0.0470893
0 0.117403 0.045594
0 0.115496 0.0437171
0.00210575 0.11249 0.0407263
0.0370947 0.1084 0.0366674
0.0786908 0.106188 0.0344396
0.118105 0.104433 0.0327306
0.156313 0.103059 0.031342
0.193591 0.101946 0.0302892
0.230167 0.101122 0.0294499
0.266316 0.100298 0.0286717
0.30193 0.0997177 0.0280919
0.336996 0.0992142 0.0275731
0.371878 0.0986954 0.0271153
0.4065 0.0984054 0.0267948
0.440848 0.0981155 0.0265507
0.474678 0.098024 0.0264591
0.508568 0.0979171 0.0263981
0.542153 0.0978408 0.0263218
0.575525 0.0977646 0.0262913
0.608759 0.0978714 0.0263981
0.641779 0.0979171 0.0264591
0.674739 0.0981308 0.0266728
0.707561 0.0983444 0.0269474
0.740185 0.0985428 0.0271305
0.772717 0.0987411 0.0273747
0.805081 0.0990768 0.0277104
0.837263 0.0993515 0.0280308
0.869444 0.0998245 0.0285039
0.901473 0.100282 0.0290074
0.933349 0.100725 0.0294499
0.949615 0.100847 0.0296178
0 0.151446 0.0504921
0 0.150195 0.0492714
0 0.14876 0.0478065
0 0.146822 0.0459297
0.00354009 0.143618 0.0427253
0.0413672 0.139727 0.0389105
0.0828107 0.137484 0.0366979
0.122087 0.13576 0.03505
0.160235 0.1346 0.0338903
0.197467 0.13344 0.0328069
0.234043 0.13257 0.0319677
0.270115 0.131823 0.031281
0.305623 0.131228 0.0306859
0.340795 0.130648 0.0302129
0.375769 0.130312 0.0298619
0.410163 0.129946 0.0295415
0.44445 0.129747 0.0293431
0.478492 0.129595 0.0292515
0.512291 0.129488 0.0291142
0.545907 0.129397 0.0290837
0.579339 0.129442 0.0291295
0.612467 0.129427 0.02916
0.645685 0.129717 0.0294499
0.678569 0.12987 0.0295872
0.711284 0.130007 0.0297704
0.743816 0.130266 0.0300145
0.776287 0.13051 0.0303197
0.808759 0.130846 0.0306401
0.841215 0.131273 0.0311437
0.873243 0.131655 0.0315099
0.905196 0.132021 0.0319219
0.937072 0.132494 0.0323949
0.952682 0.132784 0.0327306
0 0.182849 0.0526894
0 0.181796 0.0516365
0 0.180209 0.0500954
0 0.178195 0.0480659
0.00526436 0.174823 0.0447547
0.0453498 0.171115 0.0410315
0.0866102 0.168902 0.03888
0.125963 0.167407 0.0373693
0.163912 0.166049 0.0360571
0.201129 0.165103 0.035111
0.237736 0.164141 0.0342107
0.273625 0.163455 0.0335088
0.309178 0.162875 0.0329137
0.344472 0.162387 0.0324712
0.379141 0.162036 0.0321202
0.413809 0.161776 0.0319219
0.448035 0.161547 0.0316777
0.482048 0.161318 0.0314946
0.515846 0.161227 0.0314031
0.549493 0.161181 0.0314183
0.582895 0.161212 0.0314488
0.616175 0.161395 0.0316625
0.64921 0.16144 0.0317845
0.682078 0.161608 0.0319371
0.714824 0.161852 0.0321813
0.747356 0.162051 0.0324254
0.779828 0.162387 0.0327611
0.812329 0.162829 0.0332647
0.844541 0.163195 0.0336156
0.876738 0.163485 0.0339513
0.908736 0.163943 0.0344091
0.940597 0.16434 0.0348974
0.955566 0.164675 0.0352026
0 0.214557 0.0548867
0 0.213336 0.0536507
0 0.21181 0.0521706
0 0.209751 0.0501106
0.00709545 0.20618 0.0465858
0.0492256 0.20264 0.0430304
0.0903029 0.200626 0.041062
0.129397 0.199039 0.0394903
0.167452 0.197803 0.0383001
0.204608 0.196796 0.0372778
0.241077 0.19588 0.0364233
0.27715 0.19527 0.0358129
0.312657 0.194614 0.0352026
0.347662 0.194186 0.0347601
0.382635 0.193866 0.0345006
0.417182 0.193576 0.0341955
0.451362 0.193286 0.0339666
0.485466 0.193225 0.0338903
0.519203 0.193072 0.0337987
0.552712 0.193088 0.0337987
0.58613 0.193225 0.0339971
0.619348 0.193317 0.0340734
0.652415 0.193378 0.0341802
0.685405 0.193576 0.0343786
0.71809 0.19379 0.0345922
0.750881 0.194202 0.0350652
0.783337 0.194507 0.0353704
0.815656 0.194797 0.0357061
0.847852 0.195163 0.0360723
0.879881 0.195544 0.0364996
0.911971 0.195972 0.0369116
0.944121 0.196567 0.0375677
0.958312 0.196704 0.0376898
0 0.246235 0.0567788
0 0.245014 0.0556039
0 0.243473 0.0540475
0 0.241291 0.0519417
0.0090486 0.237797 0.0484321
0.0529641 0.234333 0.0450141
0.0937972 0.232288 0.0429694
0.13286 0.230808 0.0415351
0.170779 0.229587 0.0403143
0.207874 0.228519 0.039292
0.244404 0.227817 0.0385901
0.2804 0.227039 0.0378576
0.315877 0.226642 0.0374762
0.351019 0.2262 0.0370031
0.385855 0.225772 0.0366369
0.420386 0.225483 0.0363317
0.454536 0.225315 0.0362249
0.488441 0.225193 0.0360876
0.522393 0.225238 0.0361944
0.555978 0.225238 0.0361791
0.589273 0.225208 0.0362249
0.622477 0.225315 0.0363165
0.655543 0.225452 0.0364996
0.688396 0.225635 0.0366827
0.721279 0.226017 0.0371099
0.753902 0.226291 0.0373846
0.78648 0.22649 0.037644
0.818799 0.226856 0.037995
0.85095 0.227146 0.038407
0.88304 0.227634 0.038819
0.915206 0.228244 0.0394903
0.947097 0.228702 0.0399634
0.960739 0.228763 0.0400549
0 0.27808 0.0586252
0 0.276799 0.0573892
0 0.275227 0.0558022
0 0.273152 0.0537881
0.0113069 0.269337 0.049958
0.0565347 0.266178 0.0468605
0.0972305 0.264225 0.0449073
0.136126 0.262654 0.0433967
0.173953 0.261463 0.0421912
0.211124 0.260533 0.0413214
0.247547 0.259709 0.0404822
0.283497 0.259129 0.0399634
0.318975 0.258625 0.0394446
0.354116 0.258106 0.0389715
0.388998 0.257801 0.0386664
0.423285 0.257542 0.038468
0.457511 0.257343 0.0382696
0.491676 0.257343 0.0383154
0.52546 0.257282 0.0382544
0.559014 0.257221 0.0382391
0.592371 0.257328 0.0383459
0.625559 0.257389 0.0384375
0.658564 0.257527 0.0385901
0.691646 0.257954 0.0390173
0.7243 0.258152 0.0392615
0.756878 0.258442 0.0395361
0.789334 0.258732 0.0398871
0.821729 0.259083 0.0402228
0.854154 0.259556 0.0407721
0.886259 0.260014 0.0412299
0.918212 0.26041 0.0416876
0.950118 0.260945 0.0422065
0.963256 0.261204 0.0425269
0 0.309926 0.0601053
0 0.308782 0.0589609
0 0.307118 0.0574197
0 0.304952 0.0552224
0.0154421 0.300999 0.0513313
0.0599527 0.298054 0.0483864
0.100465 0.296071 0.046479
0.13933 0.294697 0.0451209
0.177188 0.293477 0.0439612
0.214115 0.292531 0.0430304
0.250751 0.291798 0.0423438
0.286458 0.291203 0.0417639
0.321981 0.290669 0.0412299
0.357183 0.290227 0.0408484
0.391806 0.289952 0.040589
0.426368 0.289769 0.0404364
0.460655 0.289631 0.0403143
0.494636 0.289464 0.0402075
0.528405 0.289418 0.0401617
0.561929 0.289418 0.0402228
0.5953 0.289494 0.0402991
0.628641 0.289708 0.0405585
0.661723 0.289952 0.0407721
0.694514 0.290089 0.0409857
0.727214 0.290349 0.0412604
0.759808 0.290623 0.0415961
0.792248 0.290959 0.0419318
0.82472 0.291447 0.0424353
0.856886 0.291829 0.0428779
0.889143 0.292241 0.0432898
0.921157 0.292729 0.0437629
0.953033 0.293202 0.0443122
0.96556 0.293477 0.0445716
0 0.342 0.0617533
0 0.340795 0.0605325
0 0.339162 0.0589761
0 0.336934 0.056733
0.0192264 0.332845 0.0526894
0.0632181 0.330007 0.0498512
0.103578 0.328161 0.0480659
0.142367 0.326772 0.0466621
0.180194 0.325643 0.045594
0.217273 0.324773 0.0447089
0.253574 0.323964 0.0439612
0.289403 0.323339 0.0433204
0.324971 0.32282 0.0428626
0.359899 0.322454 0.0424964
0.394797 0.322118 0.0422827
0.429297 0.322011 0.0421149
0.463523 0.321782 0.0419318
0.49752 0.321706 0.0418555
0.531258 0.32166 0.0418708
0.564675 0.321691 0.041886
0.598108 0.321889 0.0421302
0.631357 0.322087 0.0423285
0.664424 0.322194 0.0424964
0.697307 0.322408 0.04271
0.730068 0.322698 0.0429847
0.762631 0.322942 0.0432898
0.79527 0.323491 0.0438392
0.827512 0.323812 0.0442054
0.859709 0.324254 0.0446479
0.891814 0.324681 0.0451209
0.923903 0.325139 0.0455787
0.955932 0.325673 0.0461738
0.967742 0.325826 0.0463417
0 0.37409 0.0633097
0 0.372824 0.0620737
0 0.371252 0.060502
0 0.368841 0.0581521
0.0229496 0.364752 0.054078
0.0665141 0.362066 0.0514382
0.106645 0.36025 0.0496223
0.145418 0.358877 0.0482948
0.183124 0.357855 0.0472572
0.220157 0.356802 0.0463111
0.256367 0.356191 0.045655
0.292317 0.355596 0.0450599
0.327596 0.355077 0.0445869
0.36289 0.354864 0.044358
0.397589 0.354482 0.0440528
0.432074 0.354269 0.0438239
0.466194 0.354116 0.0437171
0.500114 0.35407 0.0436713
0.533944 0.354086 0.0437476
0.567544 0.354253 0.0439002
0.600885 0.354284 0.0439765
0.634058 0.354421 0.0441291
0.667063 0.354574 0.0443275
0.69987 0.354818 0.0445869
0.732692 0.355138 0.0449531
0.765408 0.355535 0.0453498
0.797955 0.355795 0.045655
0.830228 0.356222 0.0460822
0.86244 0.356603 0.0465248
0.894514 0.357092 0.047013
0.926558 0.35761 0.0475776
0.958511 0.358206 0.0481575
0.969772 0.358236 0.0482643
0 0.406332 0.0648508
0 0.405005 0.0635691
0 0.403357 0.0619059
0 0.4009 0.0595407
0.0265507 0.396796 0.0554055
0.0695354 0.394232 0.052903
0.109682 0.392569 0.0512398
0.148287 0.391165 0.0498817
0.185977 0.390066 0.0487831
0.222843 0.389166 0.0479286
0.25919 0.388464 0.0472419
0.294987 0.3879 0.0467231
0.330526 0.387549 0.0463569
0.365606 0.387091 0.0459602
0.40029 0.386801 0.0456703
0.434623 0.386603 0.0455329
0.468818 0.386481 0.0454108
0.502846 0.386435 0.0454108
0.53666 0.386557 0.0455329
0.570184 0.386542 0.0455787
0.60354 0.386664 0.0456855
0.636728 0.386786 0.0458686
0.669657 0.386999 0.046067
0.702586 0.38732 0.0464027
0.735393 0.387655 0.0467842
0.767956 0.387991 0.0471199
0.800443 0.388327 0.0475166
0.832807 0.388724 0.0478981
0.865049 0.389075 0.0483101
0.897292 0.389715 0.0489509
0.929244 0.390158 0.0494392
0.961044 0.390707 0.0499886
0.971695 0.390829 0.0501564
0 0.438499 0.0662394
0 0.437201 0.0649424
0 0.435554 0.0633402
0 0.433051 0.0608377
0.0297704 0.428885 0.0567178
0.0726024 0.42652 0.0543526
0.112566 0.424735 0.0526436
0.15111 0.423438 0.0513313
0.188846 0.422354 0.050309
0.225589 0.421515 0.0494545
0.261921 0.420768 0.0487678
0.297734 0.420356 0.0483558
0.333181 0.419898 0.0478828
0.368231 0.419471 0.0475319
0.402777 0.419272 0.0473182
0.437217 0.419013 0.0471046
0.471626 0.419104 0.0471962
0.505577 0.418982 0.0471351
0.539239 0.418982 0.0471351
0.572763 0.418997 0.0471962
0.606119 0.419135 0.0473335
0.639307 0.419287 0.0475319
0.672404 0.419654 0.0478981
0.705242 0.419852 0.0481422
0.737942 0.420142 0.0484474
0.770535 0.420462 0.0488136
0.802899 0.420859 0.0492103
0.835248 0.421241 0.0496529
0.867613 0.421805 0.0502022
0.899794 0.422171 0.0506294
0.931807 0.422751 0.051194
0.963607 0.423224 0.0517433
0.973724 0.423484 0.0519875
0 0.470771 0.0675517
0 0.469581 0.0663462
0 0.467781 0.064622
0 0.465309 0.0621347
0.0331426 0.461143 0.0580148
0.0755016 0.458778 0.0556497
0.115373 0.457053 0.0539864
0.153887 0.455833 0.0527504
0.191379 0.454734 0.0517281
0.228382 0.454047 0.0510262
0.264515 0.45333 0.0503548
0.300343 0.452766 0.0497902
0.33576 0.452247 0.0493477
0.370611 0.451987 0.049073
0.405341 0.451667 0.0488136
0.439979 0.451682 0.0487831
0.474159 0.451499 0.0486763
0.508095 0.451453 0.0486305
0.541711 0.451423 0.048661
0.575219 0.451545 0.0487831
0.608545 0.451637 0.0489204
0.641855 0.451987 0.0492409
0.674815 0.452186 0.0494392
0.707744 0.452415 0.0496986
0.740475 0.45275 0.0500496
0.773007 0.453025 0.0504005
0.805386 0.453437 0.0507973
0.837812 0.453941 0.0513161
0.869978 0.454383 0.0517739
0.902159 0.454871 0.0522774
0.934203 0.455375 0.052781
0.966064 0.455848 0.053315
0.97554 0.456062 0.0535134
0 0.503227 0.0686656
0 0.501839 0.0673533
0 0.500237 0.0657359
0 0.497459 0.0630198
0.0363165 0.493385 0.0589456
0.0783398 0.491127 0.0567483
0.11809 0.489525 0.0551156
0.156573 0.488167 0.0538186
0.194186 0.487343 0.0529946
0.230945 0.486442 0.0521553
0.267094 0.485786 0.0514992
0.302968 0.485283 0.0509957
0.33817 0.484825 0.0505837
0.373114 0.484489 0.0502327
0.408042 0.484382 0.0501869
0.442466 0.484199 0.0500038
0.476524 0.484062 0.0499275
0.510338 0.484108 0.0499428
0.54403 0.484062 0.049958
0.577737 0.484337 0.050248
0.611048 0.484413 0.05037
0.644129 0.484581 0.0505379
0.677134 0.484779 0.0507973
0.710002 0.485084 0.0510872
0.742733 0.485328 0.0513924
0.775525 0.485756 0.0518807
0.807919 0.486137 0.0522316
0.840192 0.486549 0.0526589
0.872419 0.487007 0.0531624
0.904509 0.487541 0.0536965
0.936431 0.487984 0.0542
0.968521 0.48864 0.0548409
0.977325 0.48867 0.0549477
0 0.535622 0.0698558
0 0.534371 0.0686656
0 0.532601 0.0668803
0 0.529686 0.0640269
0.0392309 0.525811 0.0601511
0.0811475 0.523537 0.0579232
0.120943 0.522103 0.0564889
0.159289 0.520806 0.0552529
0.196765 0.519799 0.0542458
0.233341 0.518959 0.0534676
0.269657 0.518349 0.052842
0.305272 0.517769 0.0523384
0.34081 0.517555 0.0520943
0.375753 0.517159 0.0517739
0.410468 0.51693 0.0515297
0.444694 0.516747 0.0513924
0.478859 0.516701 0.0513619
0.512703 0.516609 0.0513313
0.546593 0.516838 0.051545
0.580087 0.516869 0.0516365
0.613428 0.517037 0.0517891
0.646494 0.517159 0.0519875
0.6795 0.517449 0.0522469
0.712322 0.517708 0.0525216
0.745144 0.518151 0.0530098
0.777615 0.518486 0.0533455
0.810147 0.518868 0.0537881
0.842588 0.51931 0.0542153
0.874754 0.519707 0.0546578
0.906798 0.520195 0.0551461
0.938811 0.52079 0.0558175
0.970672 0.521324 0.0563363
0.978882 0.521355 0.0564279
0 0.56817 0.0711681
0 0.566812 0.06981
0 0.564874 0.0679789
0 0.56199 0.0650339
0.0421454 0.558114 0.0612039
0.0840467 0.556115 0.0591897
0.123568 0.554528 0.0576791
0.161791 0.553323 0.0564584
0.199222 0.55227 0.0554818
0.235859 0.551553 0.0547494
0.272084 0.55082 0.054078
0.307836 0.55053 0.0537728
0.343145 0.550134 0.0533761
0.378134 0.549767 0.0530709
0.412665 0.549615 0.0529183
0.447044 0.54934 0.0527657
0.481178 0.549325 0.0526741
0.515221 0.549432 0.052842
0.548898 0.549462 0.0528725
0.582406 0.549538 0.0529946
0.615747 0.549722 0.0531777
0.648798 0.549859 0.0533761
0.68188 0.550225 0.053727
0.714733 0.550484 0.0540627
0.747387 0.55082 0.0543679
0.779919 0.551171 0.0547799
0.812345 0.551598 0.0552224
0.844648 0.551965 0.0556344
0.877028 0.552514 0.0561837
0.909072 0.552956 0.0566873
0.941009 0.553475 0.0571908
0.97293 0.554086 0.057847
0.980575 0.554284 0.0580453
0 0.600671 0.0722667
0 0.599374 0.0709544
0 0.597467 0.0691081
0.00195315 0.594217 0.0658427
0.0452735 0.590692 0.0623789
0.0867323 0.588632 0.0603037
0.126131 0.587045 0.0587778
0.164324 0.585901 0.0576486
0.201526 0.584924 0.0567178
0.238422 0.584253 0.0560464
0.274495 0.583673 0.0555276
0.310216 0.583169 0.0549935
0.34548 0.582696 0.0545968
0.380285 0.582483 0.0543679
0.414954 0.582208 0.0541543
0.44947 0.582193 0.054139
0.483574 0.582101 0.0541085
0.517449 0.582086 0.0540932
0.551156 0.582116 0.0541695
0.584665 0.582254 0.0543069
0.61796 0.582345 0.0544594
0.651133 0.582666 0.0547646
0.684123 0.582971 0.0550698
0.71696 0.58323 0.0553902
0.749645 0.583597 0.0557412
0.782132 0.583932 0.0561379
0.814527 0.584329 0.0565347
0.846876 0.584802 0.0570687
0.879072 0.585306 0.057557
0.911208 0.585702 0.0580911
0.943252 0.586328 0.0586557
0.975082 0.586831 0.059205
0.982101 0.586999 0.0593576
0 0.633295 0.0733654
0 0.631861 0.0719921
0 0.63006 0.0701762
0.00462348 0.626581 0.0667735
0.0480201 0.623194 0.0633707
0.0891585 0.621073 0.061387
0.128573 0.619669 0.0599222
0.166705 0.618448 0.0587472
0.204028 0.617655 0.0579385
0.240757 0.616907 0.0572671
0.276799 0.616312 0.0566567
0.31252 0.615824 0.0561532
0.347601 0.615457 0.0558633
0.382559 0.615152 0.0555581
0.417304 0.615 0.0554513
0.451743 0.614923 0.055375
0.485786 0.614816 0.0553292
0.519677 0.614878 0.0553597
0.553277 0.614832 0.0554513
0.586709 0.615015 0.0555581
0.620035 0.615274 0.0558785
0.653162 0.615488 0.0560922
0.686183 0.615702 0.0563516
0.719112 0.616022 0.056672
0.751736 0.616312 0.057023
0.784298 0.616724 0.057435
0.816754 0.617151 0.057908
0.848997 0.617594 0.0583505
0.881193 0.618051 0.0588693
0.913222 0.618616 0.0594034
0.945266 0.619058 0.0599069
0.977218 0.619669 0.060502
0.983581 0.619715 0.0606088
0 0.665934 0.0743114
0 0.66453 0.0729534
0 0.662684 0.0710918
0.00689708 0.658961 0.0674296
0.05066 0.655772 0.0642405
0.0917983 0.653773 0.0623026
0.130968 0.652323 0.060853
0.169177 0.651347 0.0598764
0.20647 0.650385 0.0589303
0.242939 0.649622 0.0582132
0.279103 0.649027 0.0576181
0.31458 0.648554 0.0571908
0.349889 0.648234 0.0568704
0.384955 0.648005 0.0566567
0.419562 0.647807 0.0564584
0.453895 0.647639 0.0563363
0.487816 0.647654 0.0563516
0.521675 0.647623 0.0563668
0.555383 0.647745 0.0564889
0.588937 0.647898 0.0566873
0.622126 0.648066 0.0568399
0.655283 0.64828 0.0571298
0.688243 0.648554 0.0573892
0.721035 0.648875 0.0576944
0.753689 0.649195 0.0580758
0.786389 0.649622 0.0584878
0.81883 0.649973 0.0588998
0.851148 0.650492 0.0594186
0.883238 0.650935 0.0598917
0.915251 0.651438 0.0603952
0.947219 0.651957 0.0609598
0.979217 0.652537 0.0615396
0.985 0.652537 0.0616007
0 0.698695 0.075288
0 0.697261 0.0738537
0 0.695201 0.0718547
0.00935378 0.691386 0.06804
0.0533761 0.688319 0.0650187
0.0943313 0.686458 0.0631571
0.133608 0.685115 0.0618753
0.171466 0.684016 0.0607767
0.208728 0.68304 0.0598459
0.245212 0.682353 0.0591592
0.281331 0.681727 0.0585946
0.316793 0.681346 0.0582132
0.352178 0.681102 0.0579538
0.387091 0.680766 0.0576791
0.421637 0.680613 0.0575265
0.455833 0.680507 0.0574807
0.489906 0.680446 0.0574044
0.523812 0.680446 0.0574807
0.557549 0.680613 0.0576333
0.590997 0.68069 0.0577707
0.624247 0.680934 0.0579995
0.657359 0.681102 0.0582284
0.690272 0.681361 0.0584878
0.723156 0.681727 0.0588998
0.755734 0.682078 0.0592508
0.788235 0.682414 0.0596323
0.820722 0.682902 0.0601205
0.853132 0.683253 0.0605325
0.885206 0.683742 0.0610208
0.917311 0.684215 0.0616159
0.949203 0.684825 0.06215
0.981048 0.685359 0.0627451
0.986191 0.685435 0.0628214
0 0.731365 0.0762036
0 0.729915 0.0747387
0 0.727871 0.072755
0.0117342 0.723903 0.0687877
0.0560159 0.720958 0.0658885
0.0969406 0.719265 0.0641947
0.135836 0.717815 0.0628061
0.173739 0.716747 0.061738
0.210834 0.715862 0.060914
0.24744 0.715129 0.0601663
0.283497 0.714687 0.0597848
0.319051 0.714229 0.0593271
0.354269 0.713802 0.0589456
0.38912 0.713603 0.0587472
0.423636 0.713405 0.0586099
0.457877 0.713298 0.0585031
0.492088 0.713344 0.0585946
0.525917 0.713344 0.0585946
0.559548 0.713359 0.0586709
0.592966 0.713558 0.0588693
0.62623 0.713695 0.0590524
0.659327 0.713939 0.0592966
0.692348 0.714321 0.059678
0.725048 0.714549 0.059968
0.757748 0.714992 0.0603952
0.790249 0.715312 0.0607767
0.822614 0.71574 0.0612039
0.854871 0.716152 0.0616617
0.887175 0.71667 0.0621805
0.919203 0.717113 0.0626841
0.951202 0.717769 0.0633402
0.983001 0.718288 0.0639048
0.987549 0.718379 0.0640116
0 0.764096 0.0770733
0 0.7626 0.075639
0 0.760494 0.0735485
0.0145876 0.756542 0.0696422
0.0585489 0.753811 0.0668956
0.0990921 0.751934 0.0650797
0.137972 0.750576 0.0637369
0.175982 0.749462 0.0626841
0.213001 0.748623 0.0618143
0.249668 0.748028 0.0612802
0.285527 0.747478 0.0607309
0.321157 0.747051 0.0603037
0.356298 0.746654 0.0599527
0.391073 0.746471 0.0597696
0.425635 0.746227 0.0595712
0.460014 0.746273 0.059617
0.494057 0.746151 0.059556
0.527932 0.746242 0.0596475
0.561563 0.746303 0.0597696
0.594888 0.746426 0.0598917
0.628138 0.746548 0.0600595
0.661326 0.746899 0.0603952
0.69424 0.747082 0.0606546
0.727031 0.747494 0.0610513
0.759655 0.747799 0.0614176
0.792111 0.74818 0.061799
0.824537 0.748608 0.0622873
0.856718 0.749096 0.0627451
0.888823 0.749493 0.0632181
0.921096 0.750088 0.0638132
0.953033 0.750576 0.0643473
