site/assets/luts/freshluts--0000882-picturefx-cross-process-methode-2-rgb-curves.cube
# LUTr-Schema-Version: 2
# LUTr-ID: freshluts--0000882-picturefx-cross-process-methode-2-rgb-curves
# LUTr-Title: PictureFX Cross Process Methode 2 – RGB Curves
# LUTr-Collection: Fresh LUTs
# LUTr-Collection-ID: freshluts-community
# LUTr-Source: https://freshluts.com
# LUTr-Retrieved: 2026-07-27
# LUTr-Source-File: submissions-raw/freshluts/cubes/882__PictureFX-Cross-Process-Methode-2.cube
# LUTr-Source-Format: CUBE
# LUTr-Source-SHA256: 5fbb252695a1cb323d10c70c5a544ecd029eb4396b5bb5255463753e31b32653
# LUTr-License: CC0-1.0
# LUTr-License-URL: https://freshluts.com/termsandconditions
# LUTr-License-Basis: site-terms
# LUTr-Transform-Class: creative-look
# LUTr-Tags: creative, freshluts, community, cube, cross-process, rec709, assumed-input
# LUTr-Input-Color-Space: rec709
# LUTr-Input-Gamut: rec709
# LUTr-Input-Transfer: rec709
# LUTr-Output-Color-Space: srgb
# LUTr-Output-Gamut: rec709
# LUTr-Output-Transfer: srgb
# LUTr-Color-Space-Confidence: assumed-display-referred
# LUTr-Domain-Normalized: true
# LUTr-Shaper: none
# LUTr-Original-Grid: 25x25x25
# LUTr-Conversion-Grid: 25x25x25
# LUTr-Conversion-Interpolation: none
# LUTr-Conversion-Method: Metadata normalization; numeric LUT samples preserved
# LUTr-Conversion-Tool: LUTr scripts/convert-all-to-cube.mjs 2.0.0
# LUTr-Conversion-Date: 2026-07-28
# LUTr-Asset-URL: https://freshluts.com/luts/882
# LUTr-Author: MarcR.
# LUTr-Author-URL: https://freshluts.com/users/86490
# LUTr-Attribution: MarcR. via Fresh LUTs
# LUTr-Source-Labels: gamma=Other; color=None; key=Neutral; style=Cross Process; LUTr assumption=input Rec.709 per repository policy
# LUTr-Conversion-Warning: Input Rec.709 is a LUTr catalog assumption requested for this otherwise unspecified Fresh LUT; it is not verified by the upstream asset.
# LUTr-Note: Preserve this metadata and the upstream license notices when redistributing.
# LUTr-Upstream-Comment: Generated with IWLTBAP LUT Generator
# LUTr-Upstream-Comment: Website: http://luts.iwltbap.com
# LUTr-Upstream-Comment: LUT size
# LUTr-Upstream-Comment: LUT data points
TITLE "PictureFX Cross Process Methode 2 – RGB Curves"
LUT_3D_SIZE 5
DOMAIN_MIN 0 0 0
DOMAIN_MAX 1 1 1
0 0 0
0 0 0
0.501961 0.027451 0.090196
0.952941 0.243137 0.211765
1 0.317647 0.27451
0 0.047059 0.015686
0.043137 0.066667 0.023529
0.564706 0.192157 0.109804
0.964706 0.25098 0.219608
1 0.313725 0.262745
0.2 0.647059 0.14902
0.2 0.65098 0.14902
0.635294 0.658824 0.164706
0.960784 0.631373 0.266667
1 0.619608 0.329412
0.431373 0.92549 0.407843
0.431373 0.92549 0.407843
0.627451 0.92549 0.419608
0.913725 0.913725 0.439216
1 0.901961 0.462745
0.54902 1 0.501961
0.607843 1 0.505882
0.756863 1 0.513725
0.945098 1 0.529412
0.992157 1 0.533333
0 0 0.039216
0.011765 0 0.066667
0.537255 0 0.301961
0.94902 0.282353 0.388235
1 0.368627 0.419608
0 0.109804 0.2
0.003922 0.101961 0.223529
0.592157 0.156863 0.309804
0.960784 0.290196 0.384314
1 0.360784 0.407843
0.219608 0.65098 0.345098
0.223529 0.65098 0.345098
0.647059 0.658824 0.352941
0.956863 0.639216 0.4
1 0.631373 0.411765
0.435294 0.92549 0.415686
0.435294 0.92549 0.411765
0.635294 0.921569 0.419608
0.921569 0.913725 0.439216
1 0.901961 0.462745
0.556863 1 0.505882
0.615686 1 0.505882
0.764706 1 0.513725
0.945098 1 0.529412
0.992157 1 0.533333
0.129412 0.07451 0.443137
0.192157 0.066667 0.454902
0.611765 0 0.533333
0.960784 0.32549 0.564706
1 0.423529 0.580392
0 0.164706 0.494118
0.196078 0.164706 0.501961
0.643137 0.184314 0.541176
0.968627 0.333333 0.560784
1 0.423529 0.576471
0.25098 0.654902 0.552941
0.317647 0.654902 0.552941
0.682353 0.658824 0.560784
0.952941 0.662745 0.588235
1 0.670588 0.592157
0.509804 0.921569 0.588235
0.509804 0.921569 0.588235
0.698039 0.917647 0.588235
0.933333 0.913725 0.592157
1 0.905882 0.596078
0.635294 1 0.607843
0.678431 1 0.611765
0.8 1 0.615686
0.956863 1 0.623529
0.992157 1 0.627451
0.254902 0.141176 0.694118
0.384314 0.121569 0.705882
0.698039 0.176471 0.733333
0.988235 0.372549 0.72549
1 0.435294 0.717647
0.243137 0.235294 0.709804
0.415686 0.243137 0.717647
0.721569 0.262745 0.733333
0.992157 0.376471 0.721569
1 0.435294 0.713725
0.372549 0.654902 0.733333
0.509804 0.658824 0.733333
0.741176 0.670588 0.733333
0.964706 0.698039 0.741176
1 0.717647 0.745098
0.568627 0.917647 0.729412
0.635294 0.917647 0.737255
0.768627 0.913725 0.741176
0.956863 0.913725 0.741176
1 0.913725 0.745098
0.733333 1 0.752941
0.764706 1 0.752941
0.858824 1 0.756863
0.972549 1 0.756863
0.996078 1 0.760784
0.411765 0.243137 0.917647
0.509804 0.270588 0.921569
0.72549 0.34902 0.929412
0.984314 0.443137 0.933333
1 0.466667 0.937255
0.45098 0.333333 0.921569
0.541176 0.341176 0.92549
0.741176 0.372549 0.929412
0.988235 0.447059 0.933333
1 0.470588 0.937255
0.592157 0.686275 0.929412
0.647059 0.690196 0.929412
0.784314 0.698039 0.933333
0.976471 0.713725 0.933333
1 0.733333 0.933333
0.662745 0.909804 0.941176
0.709804 0.909804 0.941176
0.823529 0.913725 0.941176
0.952941 0.917647 0.945098
1 0.929412 0.94902
0.788235 1 0.984314
0.819608 1 0.984314
0.890196 1 0.988235
0.960784 1 0.996078
1 1 1
