site/assets/luts/freshluts--0000987-urban-square.cube
# LUTr-Schema-Version: 2
# LUTr-ID: freshluts--0000987-urban-square
# LUTr-Title: Urban Square
# LUTr-Collection: Fresh LUTs
# LUTr-Collection-ID: freshluts-community
# LUTr-Source: https://freshluts.com
# LUTr-Retrieved: 2026-07-27
# LUTr-Source-File: submissions-raw/freshluts/cubes/987__Urban_Square_-_2.cube
# LUTr-Source-Format: CUBE
# LUTr-Source-SHA256: d74f3362a4652cd30798a4b443c0b03d45fd84b103828037827782859787150f
# LUTr-License: CC0-1.0
# LUTr-License-URL: https://freshluts.com/termsandconditions
# LUTr-License-Basis: site-terms
# LUTr-Transform-Class: creative-look
# LUTr-Tags: creative, freshluts, community, cube, high-contrast, high-key, rec709, assumed-input
# LUTr-Input-Color-Space: rec709
# LUTr-Input-Gamut: rec709
# LUTr-Input-Transfer: rec709
# LUTr-Output-Color-Space: srgb
# LUTr-Output-Gamut: rec709
# LUTr-Output-Transfer: srgb
# LUTr-Color-Space-Confidence: assumed-display-referred
# LUTr-Domain-Normalized: true
# LUTr-Shaper: none
# LUTr-Original-Grid: 32x32x32
# LUTr-Conversion-Grid: 32x32x32
# LUTr-Conversion-Interpolation: none
# LUTr-Conversion-Method: Metadata normalization; numeric LUT samples preserved
# LUTr-Conversion-Tool: LUTr scripts/convert-all-to-cube.mjs 2.0.0
# LUTr-Conversion-Date: 2026-07-28
# LUTr-Asset-URL: https://freshluts.com/luts/987
# LUTr-Author: ButterflyBD
# LUTr-Author-URL: https://freshluts.com/users/53416
# LUTr-Attribution: ButterflyBD via Fresh LUTs
# LUTr-Source-Labels: gamma=Other; color=None; key=High Key; style=High contrast; LUTr assumption=input Rec.709 per repository policy
# LUTr-Conversion-Warning: Input Rec.709 is a LUTr catalog assumption requested for this otherwise unspecified Fresh LUT; it is not verified by the upstream asset.
# LUTr-Note: Preserve this metadata and the upstream license notices when redistributing.
# LUTr-Upstream-Comment: Created by: Adobe Photoshop Export Color Lookup Plugin
# LUTr-Upstream-Comment: LUT size
# LUTr-Upstream-Comment: data domain
# LUTr-Upstream-Comment: LUT data points
TITLE "Urban Square"
LUT_3D_SIZE 8
DOMAIN_MIN 0.000000 0.000000 0.000000
DOMAIN_MAX 0.903226 0.903226 0.903226
0 0 0
0.158264 0 0
0.331268 0 0
0.494232 0 0
0.637787 0 0
0.769196 0 0
0.884247 0 0
0.975647 0 0
0 0.170776 0
0.158264 0.170776 0
0.331268 0.170776 0
0.494232 0.170776 0
0.637787 0.170776 0
0.769196 0.170776 0
0.884247 0.170776 0
0.975647 0.170776 0
0 0.349457 0
0.158264 0.349457 0
0.331268 0.349457 0
0.494232 0.349457 0
0.637787 0.349457 0
0.769196 0.349457 0
0.884247 0.349457 0
0.975647 0.349457 0
0 0.464752 0
0.158264 0.464752 0
0.331268 0.464752 0
0.494232 0.464752 0
0.637787 0.464752 0
0.769196 0.464752 0
0.884247 0.464752 0
0.975647 0.464752 0
0 0.576965 0
0.158264 0.576965 0
0.331268 0.576965 0
0.494232 0.576965 0
0.637787 0.576965 0
0.769196 0.576965 0
0.884247 0.576965 0
0.975647 0.576965 0
0 0.704376 0
0.158264 0.704376 0
0.331268 0.704376 0
0.494232 0.704376 0
0.637787 0.704376 0
0.769196 0.704376 0
0.884247 0.704376 0
0.975647 0.704376 0
0 0.832642 0
0.158264 0.832642 0
0.331268 0.832642 0
0.494232 0.832642 0
0.637787 0.832642 0
0.769196 0.832642 0
0.884247 0.832642 0
0.975647 0.832642 0
0 0.942017 0
0.158264 0.942017 0
0.331268 0.942017 0
0.494232 0.942017 0
0.637787 0.942017 0
0.769196 0.942017 0
0.884247 0.942017 0
0.975647 0.942017 0
0 0 0.174683
0.158264 0 0.174683
0.331268 0 0.174683
0.494232 0 0.174683
0.637787 0 0.174683
0.769196 0 0.174683
0.884247 0 0.174683
0.975647 0 0.174683
0 0.170776 0.174683
0.158264 0.170776 0.174683
0.331268 0.170776 0.174683
0.494232 0.170776 0.174683
0.637787 0.170776 0.174683
0.769196 0.170776 0.174683
0.884247 0.170776 0.174683
0.975647 0.170776 0.174683
0 0.349457 0.174683
0.158264 0.349457 0.174683
0.331268 0.349457 0.174683
0.494232 0.349457 0.174683
0.637787 0.349457 0.174683
0.769196 0.349457 0.174683
0.884247 0.349457 0.174683
0.975647 0.349457 0.174683
0 0.464752 0.174683
0.158264 0.464752 0.174683
0.331268 0.464752 0.174683
0.494232 0.464752 0.174683
0.637787 0.464752 0.174683
0.769196 0.464752 0.174683
0.884247 0.464752 0.174683
0.975647 0.464752 0.174683
0 0.576965 0.174683
0.158264 0.576965 0.174683
0.331268 0.576965 0.174683
0.494232 0.576965 0.174683
0.637787 0.576965 0.174683
0.769196 0.576965 0.174683
0.884247 0.576965 0.174683
0.975647 0.576965 0.174683
0 0.704376 0.174683
0.158264 0.704376 0.174683
0.331268 0.704376 0.174683
0.494232 0.704376 0.174683
0.637787 0.704376 0.174683
0.769196 0.704376 0.174683
0.884247 0.704376 0.174683
0.975647 0.704376 0.174683
0 0.832642 0.174683
0.158264 0.832642 0.174683
0.331268 0.832642 0.174683
0.494232 0.832642 0.174683
0.637787 0.832642 0.174683
0.769196 0.832642 0.174683
0.884247 0.832642 0.174683
0.975647 0.832642 0.174683
0 0.942017 0.174683
0.158264 0.942017 0.174683
0.331268 0.942017 0.174683
0.494232 0.942017 0.174683
0.637787 0.942017 0.174683
0.769196 0.942017 0.174683
0.884247 0.942017 0.174683
0.975647 0.942017 0.174683
0 0 0.334778
0.158264 0 0.334778
0.331268 0 0.334778
0.494232 0 0.334778
0.637787 0 0.334778
0.769196 0 0.334778
0.884247 0 0.334778
0.975647 0 0.334778
0 0.170776 0.334778
0.158264 0.170776 0.334778
0.331268 0.170776 0.334778
0.494232 0.170776 0.334778
0.637787 0.170776 0.334778
0.769196 0.170776 0.334778
0.884247 0.170776 0.334778
0.975647 0.170776 0.334778
0 0.349457 0.334778
0.158264 0.349457 0.334778
0.331268 0.349457 0.334778
0.494232 0.349457 0.334778
0.637787 0.349457 0.334778
0.769196 0.349457 0.334778
0.884247 0.349457 0.334778
0.975647 0.349457 0.334778
0 0.464752 0.334778
0.158264 0.464752 0.334778
0.331268 0.464752 0.334778
0.494232 0.464752 0.334778
0.637787 0.464752 0.334778
0.769196 0.464752 0.334778
0.884247 0.464752 0.334778
0.975647 0.464752 0.334778
0 0.576965 0.334778
0.158264 0.576965 0.334778
0.331268 0.576965 0.334778
0.494232 0.576965 0.334778
0.637787 0.576965 0.334778
0.769196 0.576965 0.334778
0.884247 0.576965 0.334778
0.975647 0.576965 0.334778
0 0.704376 0.334778
0.158264 0.704376 0.334778
0.331268 0.704376 0.334778
0.494232 0.704376 0.334778
0.637787 0.704376 0.334778
0.769196 0.704376 0.334778
0.884247 0.704376 0.334778
0.975647 0.704376 0.334778
0 0.832642 0.334778
0.158264 0.832642 0.334778
0.331268 0.832642 0.334778
0.494232 0.832642 0.334778
0.637787 0.832642 0.334778
0.769196 0.832642 0.334778
0.884247 0.832642 0.334778
0.975647 0.832642 0.334778
0 0.942017 0.334778
0.158264 0.942017 0.334778
0.331268 0.942017 0.334778
0.494232 0.942017 0.334778
0.637787 0.942017 0.334778
0.769196 0.942017 0.334778
0.884247 0.942017 0.334778
0.975647 0.942017 0.334778
0 0 0.463806
0.158264 0 0.463806
0.331268 0 0.463806
0.494232 0 0.463806
0.637787 0 0.463806
0.769196 0 0.463806
0.884247 0 0.463806
0.975647 0 0.463806
0 0.170776 0.463806
0.158264 0.170776 0.463806
0.331268 0.170776 0.463806
0.494232 0.170776 0.463806
0.637787 0.170776 0.463806
0.769196 0.170776 0.463806
0.884247 0.170776 0.463806
0.975647 0.170776 0.463806
0 0.349457 0.463806
0.158264 0.349457 0.463806
0.331268 0.349457 0.463806
0.494232 0.349457 0.463806
0.637787 0.349457 0.463806
0.769196 0.349457 0.463806
0.884247 0.349457 0.463806
0.975647 0.349457 0.463806
0 0.464752 0.463806
0.158264 0.464752 0.463806
0.331268 0.464752 0.463806
0.494232 0.464752 0.463806
0.637787 0.464752 0.463806
0.769196 0.464752 0.463806
0.884247 0.464752 0.463806
0.975647 0.464752 0.463806
0 0.576965 0.463806
0.158264 0.576965 0.463806
0.331268 0.576965 0.463806
0.494232 0.576965 0.463806
0.637787 0.576965 0.463806
0.769196 0.576965 0.463806
0.884247 0.576965 0.463806
0.975647 0.576965 0.463806
0 0.704376 0.463806
0.158264 0.704376 0.463806
0.331268 0.704376 0.463806
0.494232 0.704376 0.463806
0.637787 0.704376 0.463806
0.769196 0.704376 0.463806
0.884247 0.704376 0.463806
0.975647 0.704376 0.463806
0 0.832642 0.463806
0.158264 0.832642 0.463806
0.331268 0.832642 0.463806
0.494232 0.832642 0.463806
0.637787 0.832642 0.463806
0.769196 0.832642 0.463806
0.884247 0.832642 0.463806
0.975647 0.832642 0.463806
0 0.942017 0.463806
0.158264 0.942017 0.463806
0.331268 0.942017 0.463806
0.494232 0.942017 0.463806
0.637787 0.942017 0.463806
0.769196 0.942017 0.463806
0.884247 0.942017 0.463806
0.975647 0.942017 0.463806
0 0 0.580566
0.158264 0 0.580566
0.331268 0 0.580566
0.494232 0 0.580566
0.637787 0 0.580566
0.769196 0 0.580566
0.884247 0 0.580566
0.975647 0 0.580566
0 0.170776 0.580566
0.158264 0.170776 0.580566
0.331268 0.170776 0.580566
0.494232 0.170776 0.580566
0.637787 0.170776 0.580566
0.769196 0.170776 0.580566
0.884247 0.170776 0.580566
0.975647 0.170776 0.580566
0 0.349457 0.580566
0.158264 0.349457 0.580566
0.331268 0.349457 0.580566
0.494232 0.349457 0.580566
0.637787 0.349457 0.580566
0.769196 0.349457 0.580566
0.884247 0.349457 0.580566
0.975647 0.349457 0.580566
0 0.464752 0.580566
0.158264 0.464752 0.580566
0.331268 0.464752 0.580566
0.494232 0.464752 0.580566
0.637787 0.464752 0.580566
0.769196 0.464752 0.580566
0.884247 0.464752 0.580566
0.975647 0.464752 0.580566
0 0.576965 0.580566
0.158264 0.576965 0.580566
0.331268 0.576965 0.580566
0.494232 0.576965 0.580566
0.637787 0.576965 0.580566
0.769196 0.576965 0.580566
0.884247 0.576965 0.580566
0.975647 0.576965 0.580566
0 0.704376 0.580566
0.158264 0.704376 0.580566
0.331268 0.704376 0.580566
0.494232 0.704376 0.580566
0.637787 0.704376 0.580566
0.769196 0.704376 0.580566
0.884247 0.704376 0.580566
0.975647 0.704376 0.580566
0 0.832642 0.580566
0.158264 0.832642 0.580566
0.331268 0.832642 0.580566
0.494232 0.832642 0.580566
0.637787 0.832642 0.580566
0.769196 0.832642 0.580566
0.884247 0.832642 0.580566
0.975647 0.832642 0.580566
0 0.942017 0.580566
0.158264 0.942017 0.580566
0.331268 0.942017 0.580566
0.494232 0.942017 0.580566
0.637787 0.942017 0.580566
0.769196 0.942017 0.580566
0.884247 0.942017 0.580566
0.975647 0.942017 0.580566
0 0 0.704559
0.158264 0 0.704559
0.331268 0 0.704559
0.494232 0 0.704559
0.637787 0 0.704559
0.769196 0 0.704559
0.884247 0 0.704559
0.975647 0 0.704559
0 0.170776 0.704559
0.158264 0.170776 0.704559
0.331268 0.170776 0.704559
0.494232 0.170776 0.704559
0.637787 0.170776 0.704559
0.769196 0.170776 0.704559
0.884247 0.170776 0.704559
0.975647 0.170776 0.704559
0 0.349457 0.704559
0.158264 0.349457 0.704559
0.331268 0.349457 0.704559
0.494232 0.349457 0.704559
0.637787 0.349457 0.704559
0.769196 0.349457 0.704559
0.884247 0.349457 0.704559
0.975647 0.349457 0.704559
0 0.464752 0.704559
0.158264 0.464752 0.704559
0.331268 0.464752 0.704559
0.494232 0.464752 0.704559
0.637787 0.464752 0.704559
0.769196 0.464752 0.704559
0.884247 0.464752 0.704559
0.975647 0.464752 0.704559
0 0.576965 0.704559
0.158264 0.576965 0.704559
0.331268 0.576965 0.704559
0.494232 0.576965 0.704559
0.637787 0.576965 0.704559
0.769196 0.576965 0.704559
0.884247 0.576965 0.704559
0.975647 0.576965 0.704559
0 0.704376 0.704559
0.158264 0.704376 0.704559
0.331268 0.704376 0.704559
0.494232 0.704376 0.704559
0.637787 0.704376 0.704559
0.769196 0.704376 0.704559
0.884247 0.704376 0.704559
0.975647 0.704376 0.704559
0 0.832642 0.704559
0.158264 0.832642 0.704559
0.331268 0.832642 0.704559
0.494232 0.832642 0.704559
0.637787 0.832642 0.704559
0.769196 0.832642 0.704559
0.884247 0.832642 0.704559
0.975647 0.832642 0.704559
0 0.942017 0.704559
0.158264 0.942017 0.704559
0.331268 0.942017 0.704559
0.494232 0.942017 0.704559
0.637787 0.942017 0.704559
0.769196 0.942017 0.704559
0.884247 0.942017 0.704559
0.975647 0.942017 0.704559
0 0 0.831604
0.158264 0 0.831604
0.331268 0 0.831604
0.494232 0 0.831604
0.637787 0 0.831604
0.769196 0 0.831604
0.884247 0 0.831604
0.975647 0 0.831604
0 0.170776 0.831604
0.158264 0.170776 0.831604
0.331268 0.170776 0.831604
0.494232 0.170776 0.831604
0.637787 0.170776 0.831604
0.769196 0.170776 0.831604
0.884247 0.170776 0.831604
0.975647 0.170776 0.831604
0 0.349457 0.831604
0.158264 0.349457 0.831604
0.331268 0.349457 0.831604
0.494232 0.349457 0.831604
0.637787 0.349457 0.831604
0.769196 0.349457 0.831604
0.884247 0.349457 0.831604
0.975647 0.349457 0.831604
0 0.464752 0.831604
0.158264 0.464752 0.831604
0.331268 0.464752 0.831604
0.494232 0.464752 0.831604
0.637787 0.464752 0.831604
0.769196 0.464752 0.831604
0.884247 0.464752 0.831604
0.975647 0.464752 0.831604
0 0.576965 0.831604
0.158264 0.576965 0.831604
0.331268 0.576965 0.831604
0.494232 0.576965 0.831604
0.637787 0.576965 0.831604
0.769196 0.576965 0.831604
0.884247 0.576965 0.831604
0.975647 0.576965 0.831604
0 0.704376 0.831604
0.158264 0.704376 0.831604
0.331268 0.704376 0.831604
0.494232 0.704376 0.831604
0.637787 0.704376 0.831604
0.769196 0.704376 0.831604
0.884247 0.704376 0.831604
0.975647 0.704376 0.831604
0 0.832642 0.831604
0.158264 0.832642 0.831604
0.331268 0.832642 0.831604
0.494232 0.832642 0.831604
0.637787 0.832642 0.831604
0.769196 0.832642 0.831604
0.884247 0.832642 0.831604
0.975647 0.832642 0.831604
0 0.942017 0.831604
0.158264 0.942017 0.831604
0.331268 0.942017 0.831604
0.494232 0.942017 0.831604
0.637787 0.942017 0.831604
0.769196 0.942017 0.831604
0.884247 0.942017 0.831604
0.975647 0.942017 0.831604
0 0 0.941498
0.158264 0 0.941498
0.331268 0 0.941498
0.494232 0 0.941498
0.637787 0 0.941498
0.769196 0 0.941498
0.884247 0 0.941498
0.975647 0 0.941498
0 0.170776 0.941498
0.158264 0.170776 0.941498
0.331268 0.170776 0.941498
0.494232 0.170776 0.941498
0.637787 0.170776 0.941498
0.769196 0.170776 0.941498
0.884247 0.170776 0.941498
0.975647 0.170776 0.941498
0 0.349457 0.941498
0.158264 0.349457 0.941498
0.331268 0.349457 0.941498
0.494232 0.349457 0.941498
0.637787 0.349457 0.941498
0.769196 0.349457 0.941498
0.884247 0.349457 0.941498
0.975647 0.349457 0.941498
0 0.464752 0.941498
0.158264 0.464752 0.941498
0.331268 0.464752 0.941498
0.494232 0.464752 0.941498
0.637787 0.464752 0.941498
0.769196 0.464752 0.941498
0.884247 0.464752 0.941498
0.975647 0.464752 0.941498
0 0.576965 0.941498
0.158264 0.576965 0.941498
0.331268 0.576965 0.941498
0.494232 0.576965 0.941498
0.637787 0.576965 0.941498
0.769196 0.576965 0.941498
0.884247 0.576965 0.941498
0.975647 0.576965 0.941498
0 0.704376 0.941498
0.158264 0.704376 0.941498
0.331268 0.704376 0.941498
0.494232 0.704376 0.941498
0.637787 0.704376 0.941498
0.769196 0.704376 0.941498
0.884247 0.704376 0.941498
0.975647 0.704376 0.941498
0 0.832642 0.941498
0.158264 0.832642 0.941498
0.331268 0.832642 0.941498
0.494232 0.832642 0.941498
0.637787 0.832642 0.941498
0.769196 0.832642 0.941498
0.884247 0.832642 0.941498
0.975647 0.832642 0.941498
0 0.942017 0.941498
0.158264 0.942017 0.941498
0.331268 0.942017 0.941498
0.494232 0.942017 0.941498
0.637787 0.942017 0.941498
0.769196 0.942017 0.941498
0.884247 0.942017 0.941498
0.975647 0.942017 0.941498
