site/assets/luts/freshluts--0001345-cute-love.cube
# LUTr-Schema-Version: 2
# LUTr-ID: freshluts--0001345-cute-love
# LUTr-Title: cute LOVE
# LUTr-Collection: Fresh LUTs
# LUTr-Collection-ID: freshluts-community
# LUTr-Source: https://freshluts.com
# LUTr-Retrieved: 2026-07-27
# LUTr-Source-File: submissions-raw/freshluts/cubes/1345__cute.LOVE.cube
# LUTr-Source-Format: CUBE
# LUTr-Source-SHA256: 0c152b63f28b7411a276704220270af616e1a279b7f47bf095c4a5baabbb6a54
# LUTr-License: CC0-1.0
# LUTr-License-URL: https://freshluts.com/termsandconditions
# LUTr-License-Basis: site-terms
# LUTr-Transform-Class: creative-look
# LUTr-Tags: creative, freshluts, community, cube, high-key, rec709
# LUTr-Input-Color-Space: rec709
# LUTr-Input-Gamut: rec709
# LUTr-Input-Transfer: rec709
# LUTr-Output-Color-Space: srgb
# LUTr-Output-Gamut: rec709
# LUTr-Output-Transfer: srgb
# LUTr-Color-Space-Confidence: inferred-from-source-label
# LUTr-Domain-Normalized: true
# LUTr-Shaper: none
# LUTr-Original-Grid: 16x16x16
# LUTr-Conversion-Grid: 16x16x16
# LUTr-Conversion-Interpolation: none
# LUTr-Conversion-Method: Metadata normalization; numeric LUT samples preserved
# LUTr-Conversion-Tool: LUTr scripts/convert-all-to-cube.mjs 2.0.0
# LUTr-Conversion-Date: 2026-07-28
# LUTr-Asset-URL: https://freshluts.com/luts/1345
# LUTr-Author: lvannoeun@gmail.com
# LUTr-Author-URL: https://freshluts.com/users/57563
# LUTr-Attribution: lvannoeun@gmail.com via Fresh LUTs
# LUTr-Source-Labels: gamma=Rec 709; color=None; key=High Key; style=cool rain
# LUTr-Note: Preserve this metadata and the upstream license notices when redistributing.
TITLE "cute LOVE"
LUT_3D_SIZE 16
DOMAIN_MIN 0 0 0
DOMAIN_MAX 1 1 1
0.043209 0 0.011724
0.061345 -0.000372 0.01172
0.21032 -0.000742 0.011709
0.33755 -0.001108 0.011686
0.444517 -0.001467 0.011651
0.534672 -0.001817 0.0116
0.61084 -0.002153 0.011536
0.67501 -0.002471 0.011459
0.72926 -0.002768 0.011372
0.774636 -0.003037 0.011279
0.812209 -0.003273 0.011188
0.842639 -0.003473 0.011111
0.865732 -0.00363 0.011046
0.881736 -0.003739 0.010997
0.890198 -0.003798 0.010969
0.891937 -0.00381 0.010964
0.043209 0.032443 0.011713
0.071369 0.032445 0.01171
0.21032 0.093604 0.011699
0.33755 0.111712 0.011676
0.444517 0.116057 0.011639
0.534671 0.115266 0.011588
0.610839 0.112245 0.011524
0.67501 0.108204 0.01145
0.72926 0.103753 0.011362
0.774636 0.099128 0.01127
0.812209 0.094523 0.01118
0.842639 0.089932 0.011104
0.865732 0.085365 0.011039
0.881736 0.080791 0.010991
0.890198 0.076211 0.010964
0.891937 0.071646 0.010959
0.043204 0.185889 0.011667
0.133499 0.185889 0.011663
0.218508 0.185888 0.011653
0.33755 0.211801 0.011629
0.444517 0.220009 0.011593
0.534671 0.218513 0.011543
0.610839 0.212799 0.011479
0.67501 0.205167 0.011404
0.72926 0.196722 0.01132
0.774636 0.187952 0.011229
0.812209 0.179178 0.011146
0.842639 0.170502 0.011073
0.865732 0.161864 0.01101
0.881736 0.153189 0.010964
0.890198 0.144526 0.010941
0.891937 0.135874 0.010939
0.043191 0.313092 0.011571
0.148453 0.313092 0.01157
0.247145 0.313092 0.011557
0.342603 0.313091 0.011532
0.444515 0.319878 0.011497
0.534671 0.317711 0.011449
0.610839 0.309377 0.011385
0.675009 0.298231 0.011313
0.72926 0.285977 0.01123
0.774635 0.273251 0.011151
0.812209 0.260522 0.011075
0.842639 0.247882 0.011007
0.865732 0.235335 0.01095
0.881736 0.222722 0.010911
0.890198 0.2101 0.010894
0.891937 0.197551 0.0109
0.043169 0.418508 0.011419
0.151171 0.418508 0.011416
0.252413 0.418507 0.011403
0.350249 0.418507 0.011378
0.445836 0.418507 0.01134
0.53467 0.414314 0.011291
0.610839 0.403448 0.011233
0.675009 0.388974 0.011167
0.72926 0.372944 0.0111
0.774635 0.356368 0.01103
0.812208 0.339739 0.010961
0.842638 0.323295 0.0109
0.865732 0.306891 0.010852
0.881736 0.290465 0.010824
0.890198 0.27403 0.010817
0.891937 0.257624 0.010834
0.043145 0.506637 0.0112
0.149521 0.506637 0.011198
0.249242 0.506637 0.011187
0.345635 0.506637 0.011164
0.439832 0.506637 0.011129
0.532337 0.506636 0.011078
0.610838 0.495758 0.01103
0.675009 0.477881 0.010975
0.729259 0.458232 0.010913
0.774634 0.437819 0.010851
0.812208 0.417476 0.010791
0.842638 0.397173 0.010743
0.865731 0.377096 0.010708
0.881736 0.356873 0.010695
0.890198 0.336689 0.010706
0.891937 0.316517 0.010739
0.043114 0.580539 0.01095
0.146012 0.580539 0.010947
0.242544 0.580539 0.010936
0.335846 0.580539 0.010913
0.427027 0.580539 0.010876
0.516613 0.580539 0.010824
0.604884 0.580539 0.010752
0.675008 0.565445 0.010703
0.729259 0.542208 0.01065
0.774633 0.518074 0.010599
0.812208 0.493925 0.010555
0.842638 0.469977 0.010522
0.865731 0.446187 0.010508
0.881735 0.422241 0.010517
0.890198 0.398358 0.010553
0.891937 0.374563 0.010611
0.043073 0.642482 0.010634
0.141743 0.642482 0.010631
0.23437 0.642482 0.010619
0.32388 0.642482 0.010595
0.411418 0.642482 0.010556
0.497377 0.642482 0.010501
0.582057 0.642482 0.010425
0.665765 0.642482 0.010328
0.729258 0.625059 0.010288
0.774631 0.597283 0.010255
0.812207 0.569439 0.010231
0.842637 0.541778 0.010224
0.865731 0.514362 0.010239
0.881735 0.486837 0.010281
0.890197 0.459265 0.010351
0.891936 0.431793 0.010441
0.043032 0.694947 0.010246
0.137224 0.694947 0.010244
0.225729 0.694947 0.010231
0.311275 0.694947 0.010205
0.394882 0.694947 0.010163
0.477047 0.694947 0.010105
0.558016 0.694947 0.010025
0.638038 0.694947 0.009921
0.717195 0.694946 0.009807
0.774629 0.675609 0.009801
0.812207 0.644146 0.009808
0.842637 0.612912 0.009834
0.86573 0.581885 0.009883
0.881735 0.550709 0.009968
0.890197 0.519541 0.010085
0.891936 0.488452 0.010223
0.042988 0.738995 0.009808
0.132689 0.738995 0.009805
0.217015 0.738995 0.009795
0.298586 0.738995 0.009771
0.378366 0.738995 0.009734
0.456671 0.738995 0.009681
0.533918 0.738994 0.009609
0.610163 0.738994 0.009516
0.685726 0.738994 0.009399
0.760497 0.738994 0.009252
0.812206 0.718295 0.009302
0.842636 0.683271 0.009377
0.86573 0.648681 0.00948
0.881734 0.613972 0.009612
0.890196 0.579223 0.009767
0.891936 0.544546 0.009943
0.042942 0.775544 0.009377
0.128246 0.775544 0.009374
0.208488 0.775544 0.009362
0.286156 0.775544 0.009337
0.362066 0.775544 0.009298
0.436675 0.775544 0.009241
0.510191 0.775544 0.009164
0.582826 0.775544 0.009065
0.654681 0.775544 0.008938
0.725897 0.775544 0.008781
0.796697 0.775543 0.008585
0.842636 0.753085 0.008744
0.865729 0.714978 0.008935
0.881734 0.676782 0.009155
0.890196 0.638317 0.009393
0.891935 0.600123 0.009635
0.042904 0.805521 0.008916
0.123875 0.805521 0.008914
0.200151 0.805521 0.008902
0.273946 0.805521 0.008875
0.346124 0.805521 0.008833
0.416962 0.805521 0.008773
0.486937 0.805521 0.008691
0.555964 0.805521 0.008585
0.624382 0.80552 0.008475
0.692139 0.80552 0.008337
0.759192 0.80552 0.008169
0.826134 0.80552 0.007957
0.865728 0.78068 0.008241
0.881733 0.73886 0.00854
0.890195 0.697062 0.0089
0.891935 0.655381 0.009252
0.042869 0.828594 0.008491
0.119579 0.828594 0.008488
0.191919 0.828594 0.008477
0.261912 0.828594 0.008456
0.330413 0.828594 0.00842
0.397696 0.828594 0.008369
0.464032 0.828594 0.008299
0.529546 0.828594 0.00821
0.594492 0.828594 0.008095
0.658784 0.828594 0.007953
0.722524 0.828594 0.007777
0.785906 0.828593 0.007558
0.848745 0.828593 0.007286
0.881732 0.800644 0.007814
0.890195 0.755198 0.008294
0.891934 0.710044 0.008753
0.042842 0.844527 0.008187
0.115308 0.844527 0.008184
0.183694 0.844527 0.008174
0.249931 0.844527 0.008152
0.314689 0.844527 0.008117
0.378391 0.844527 0.008066
0.441136 0.844527 0.007998
0.50317 0.844527 0.007908
0.564598 0.844527 0.007796
0.625439 0.844527 0.007655
0.685862 0.844527 0.00748
0.745792 0.844526 0.007263
0.805243 0.844526 0.007052
0.864414 0.844526 0.006791
0.890194 0.813313 0.007506
0.891934 0.764683 0.00817
0.042828 0.854036 0.008
0.111116 0.854036 0.007999
0.175617 0.854036 0.007988
0.238139 0.854036 0.007968
0.299252 0.854036 0.007936
0.359359 0.854036 0.007889
0.418637 0.854036 0.007825
0.477169 0.854035 0.007743
0.535189 0.854035 0.007639
0.592575 0.854035 0.007509
0.649621 0.854035 0.007349
0.706244 0.854035 0.007175
0.762365 0.854035 0.006986
0.818354 0.854035 0.006753
0.873704 0.854035 0.006464
0.891055 0.817779 0.00739
0.042825 0.856539 0.007962
0.106886 0.856539 0.007959
0.167528 0.856539 0.00795
0.226297 0.856539 0.007933
0.283763 0.856539 0.007905
0.340268 0.856539 0.007864
0.396032 0.856539 0.00781
0.451123 0.856539 0.007739
0.505661 0.856539 0.00765
0.559721 0.856539 0.00754
0.61331 0.856539 0.007406
0.666557 0.856538 0.007246
0.719416 0.856538 0.00709
0.772042 0.856538 0.006902
0.824194 0.856538 0.006674
0.876225 0.856538 0.00639
0.043209 -0.000274 0.057176
0.080584 -0.000438 0.057176
0.21032 -0.000769 0.114216
0.33755 -0.001124 0.13446
0.444517 -0.001478 0.139309
0.534672 -0.001825 0.138414
0.61084 -0.002159 0.135058
0.67501 -0.002476 0.130531
0.72926 -0.002771 0.125556
0.774636 -0.00304 0.120407
0.812209 -0.003276 0.115232
0.842639 -0.003475 0.11011
0.865732 -0.003631 0.105026
0.881736 -0.003741 0.099922
0.890198 -0.003799 0.094808
0.891937 -0.003811 0.089722
0.043209 0.042364 0.057175
0.058694 0.036864 0.060309
0.225804 0.019228 0.073239
0.35641 0 0.078017
0.460055 0 0.078232
0.54655 0 0.076945
0.619773 0 0.075199
0.681951 0 0.073405
0.734781 0 0.071689
0.779313 0 0.070187
0.816208 0 0.068914
0.846124 0 0.067898
0.869039 0 0.067147
0.884735 0 0.066637
0.89323 0 0.066371
0.894975 0 0.066316
0.043204 0.185889 0.119207
0.043209 0.189829 0.084624
0.216176 0.187606 0.011724
0.34643 0.205929 0.011724
0.455104 0.208666 0.011724
0.54441 0.204099 0.011724
0.619085 0.196851 0.011724
0.681884 0.188489 0.011724
0.734957 0.179885 0.011724
0.779656 0.171201 0.011724
0.816616 0.162689 0.011724
0.846475 0.154269 0.011724
0.869506 0.145901 0.011724
0.885229 0.137481 0.011724
0.893674 0.128981 0.011724
0.895467 0.120417 0.011724
0.04319 0.313092 0.136559
0.043209 0.315592 0.092075
0.231397 0.315672 0.011724
0.341491 0.314165 0.011724
0.448377 0.318341 0.011724
0.539901 0.313777 0.011724
0.616117 0.303861 0.011724
0.679969 0.291769 0.011724
0.733807 0.278922 0.011724
0.778588 0.265906 0.011724
0.815974 0.253051 0.011724
0.846079 0.24038 0.011724
0.869043 0.22785 0.011724
0.884852 0.21526 0.011724
0.893447 0.202742 0.011724
0.895228 0.190167 0.011724
0.043169 0.418508 0.139733
0.043209 0.42009 0.093291
0.23194 0.420389 0.011724
0.343654 0.419963 0.011724
0.445169 0.419176 0.011724
0.536535 0.413743 0.011724
0.613641 0.40169 0.011724
0.678062 0.38626 0.011724
0.732338 0.369625 0.011724
0.777659 0.352681 0.011724
0.815197 0.335856 0.011724
0.84541 0.319242 0.011724
0.868616 0.302798 0.011724
0.884499 0.286338 0.011724
0.893169 0.269897 0.011724
0.894938 0.253468 0.011724
0.043145 0.506637 0.137815
0.043209 0.507697 0.092217
0.227192 0.508009 0.011724
0.336613 0.507812 0.011724
0.436261 0.507507 0.011724
0.53178 0.507086 0.011724
0.61183 0.495512 0.011724
0.676618 0.476935 0.011724
0.731199 0.456711 0.011724
0.776718 0.436033 0.011724
0.814364 0.41534 0.011724
0.844786 0.39486 0.011724
0.868157 0.374716 0.011724
0.884073 0.354462 0.011724
0.892757 0.334218 0.011724
0.894531 0.314022 0.011724
0.043114 0.580539 0.133743
0.043209 0.581248 0.090288
0.220108 0.581521 0.011724
0.325718 0.58146 0.011724
0.422039 0.581253 0.011724
0.514356 0.581133 0.011724
0.604467 0.580856 0.011724
0.675578 0.565385 0.011724
0.730238 0.541625 0.011724
0.775909 0.517188 0.011724
0.813695 0.492854 0.011724
0.844206 0.468696 0.011724
0.867505 0.444826 0.011724
0.883604 0.420812 0.011724
0.89225 0.396873 0.011724
0.894102 0.373035 0.011724
0.043073 0.642482 0.128781
0.043209 0.643042 0.08811
0.212066 0.643328 0.011724
0.313372 0.643283 0.011724
0.405635 0.643146 0.011724
0.494166 0.642997 0.011724
0.580528 0.642946 0.011724
0.665402 0.642691 0.011724
0.729654 0.625027 0.011724
0.775375 0.596939 0.011724
0.813174 0.56895 0.011724
0.843659 0.541116 0.011724
0.867016 0.513581 0.011724
0.883134 0.486041 0.011724
0.891821 0.458432 0.011724
0.893738 0.430904 0.011724
0.043032 0.694947 0.123536
0.043209 0.695322 0.086008
0.203792 0.69557 0.011724
0.300619 0.69545 0.011724
0.388718 0.695374 0.011724
0.473373 0.695369 0.011724
0.555975 0.695261 0.011724
0.637021 0.695278 0.011724
0.717016 0.695214 0.011724
0.774876 0.675616 0.011724
0.812757 0.644052 0.011724
0.843394 0.612547 0.011724
0.86673 0.581464 0.011724
0.882862 0.550293 0.011724
0.891615 0.519086 0.011724
0.893418 0.487984 0.011724
0.042988 0.738995 0.118272
0.043209 0.739148 0.084137
0.195459 0.739454 0.011724
0.287941 0.739375 0.011724
0.371993 0.739304 0.011724
0.452664 0.739253 0.011724
0.531304 0.739169 0.011724
0.608586 0.739161 0.011724
0.684877 0.739122 0.011724
0.760219 0.739182 0.011724
0.812334 0.71826 0.011724
0.842925 0.68323 0.011724
0.866255 0.648596 0.011724
0.882421 0.61378 0.011724
0.891157 0.579041 0.011724
0.89299 0.544292 0.011724
0.042943 0.775544 0.113087
0.043209 0.775952 0.082578
0.187283 0.77613 0.011724
0.275566 0.776108 0.011724
0.355671 0.776063 0.011724
0.432445 0.776001 0.011724
0.507327 0.775964 0.011724
0.580961 0.775988 0.011724
0.653588 0.775897 0.011724
0.725378 0.77578 0.011724
0.796453 0.775724 0.011724
0.842753 0.753164 0.011724
0.866039 0.71492 0.011724
0.882136 0.676592 0.011724
0.890877 0.63822 0.011724
0.892766 0.600096 0.011724
0.042904 0.805521 0.108005
0.043209 0.805878 0.08135
0.179171 0.805903 0.011724
0.263431 0.805949 0.011724
0.339682 0.80591 0.011724
0.412691 0.805937 0.011724
0.483931 0.805906 0.011724
0.553987 0.805897 0.011724
0.622985 0.805833 0.011724
0.691231 0.805731 0.011724
0.758781 0.805719 0.011724
0.825882 0.805673 0.011724
0.865777 0.780812 0.011724
0.881987 0.738948 0.011724
0.890628 0.69719 0.011724
0.892553 0.655442 0.011724
0.042869 0.828594 0.103015
0.043209 0.828711 0.080448
0.171035 0.828891 0.011724
0.251456 0.828871 0.011724
0.323918 0.828839 0.011724
0.393265 0.828795 0.011724
0.460942 0.828839 0.011724
0.527361 0.828771 0.011724
0.592888 0.828731 0.011724
0.657668 0.828715 0.011724
0.72179 0.828717 0.011724
0.785401 0.828712 0.011724
0.848501 0.828719 0.011724
0.881757 0.800784 0.011724
0.890419 0.755468 0.011724
0.892265 0.710293 0.011724
0.042842 0.844527 0.098022
0.043209 0.844728 0.079858
0.162745 0.844938 0.011724
0.239427 0.844921 0.011724
0.308136 0.844894 0.011724
0.373833 0.844851 0.011724
0.437926 0.844803 0.011724
0.500794 0.844744 0.011724
0.562815 0.844733 0.011724
0.624199 0.844723 0.011724
0.68481 0.844698 0.011724
0.745147 0.84473 0.011724
0.804832 0.844675 0.011724
0.864209 0.844698 0.011724
0.890239 0.813597 0.011724
0.892178 0.764739 0.011724
0.042828 0.854036 0.093118
0.061226 0.854035 0.080737
0.158361 0.854036 0.057068
0.229289 0.854035 0.057068
0.293687 0.854035 0.057069
0.355515 0.854035 0.057067
0.415773 0.854035 0.057064
0.474988 0.854035 0.057061
0.533513 0.854035 0.057062
0.591311 0.854035 0.057057
0.648586 0.854035 0.057059
0.705453 0.854035 0.057055
0.761722 0.854035 0.057052
0.817925 0.854035 0.057044
0.873592 0.854035 0.05704
0.891057 0.817949 0.011724
0.042825 0.856539 0.088182
0.061229 0.856539 0.080737
0.150138 0.856539 0.057069
0.217446 0.856539 0.057069
0.278146 0.856539 0.057067
0.33637 0.856539 0.057066
0.393122 0.856539 0.057064
0.448894 0.856539 0.057062
0.503928 0.856539 0.057061
0.558364 0.856539 0.057058
0.612205 0.856538 0.057051
0.665736 0.856538 0.057056
0.718708 0.856538 0.057056
0.771541 0.856538 0.057049
0.823748 0.856538 0.057042
0.875968 0.856538 0.057038
0.043209 -0.000547 0.225949
0.137314 -0.000628 0.225949
0.225819 -0.000874 0.225948
0.33755 -0.001188 0.246567
0.444517 -0.001522 0.255766
0.534671 -0.001857 0.254089
0.610839 -0.002184 0.247693
0.67501 -0.002495 0.239096
0.72926 -0.002787 0.22964
0.774636 -0.003053 0.219845
0.812209 -0.003287 0.210009
0.842639 -0.003485 0.200278
0.865732 -0.003639 0.190597
0.881736 -0.003747 0.180868
0.890198 -0.003805 0.171187
0.891937 -0.003816 0.161488
0.043208 0.102023 0.225948
0.051471 0.059018 0.247823
0.235211 0.012402 0.244161
0.354574 0 0.252055
0.459 0 0.252262
0.545988 0 0.245989
0.619514 0 0.237407
0.68178 0 0.227938
0.734692 0 0.218247
0.779264 0 0.208687
0.816142 0 0.199335
0.846094 0 0.190219
0.868977 0 0.181309
0.884794 0 0.172491
0.893266 0 0.163802
0.894978 0 0.15526
0.043203 0.193414 0.225946
0.043209 0.195714 0.231082
0.205801 0.18721 0.231142
0.351504 0.178447 0.225596
0.466653 0.1652 0.214471
0.560001 0.147428 0.198882
0.635532 0.129542 0.183043
0.697541 0.113687 0.169235
0.749367 0.100501 0.157986
0.792584 0.089983 0.149232
0.828632 0.081822 0.142597
0.857797 0.075671 0.137684
0.880168 0.071287 0.134259
0.895565 0.068449 0.132051
0.903942 0.066988 0.130934
0.905532 0.066688 0.130704
0.04319 0.313092 0.250544
0.043209 0.315304 0.244831
0.167091 0.318632 0.210027
0.334793 0.315473 0.19264
0.456469 0.308211 0.181711
0.552807 0.29533 0.168754
0.630791 0.280026 0.155299
0.694746 0.26427 0.142698
0.747917 0.249065 0.131487
0.792198 0.234686 0.122128
0.828766 0.221173 0.114551
0.858395 0.208353 0.108729
0.880996 0.196108 0.104523
0.896681 0.184147 0.101879
0.905106 0.172427 0.100657
0.906935 0.160947 0.100718
0.043168 0.418508 0.256593
0.043209 0.420025 0.247118
0.130177 0.42408 0.190496
0.312135 0.423739 0.154644
0.440939 0.420958 0.14768
0.542274 0.409778 0.140299
0.622653 0.392772 0.132406
0.68845 0.374138 0.124592
0.743023 0.35553 0.117355
0.788455 0.337263 0.111045
0.825833 0.319714 0.105821
0.855976 0.302774 0.101755
0.879062 0.286301 0.09888
0.894997 0.270024 0.097192
0.903782 0.253969 0.096693
0.905762 0.238086 0.097294
0.043144 0.506637 0.252936
0.043209 0.507657 0.242205
0.105008 0.511072 0.177876
0.291425 0.511601 0.124806
0.419585 0.510265 0.120937
0.528942 0.508613 0.116008
0.615429 0.49397 0.111759
0.68263 0.472258 0.107445
0.73837 0.449991 0.103239
0.784654 0.427936 0.099486
0.822661 0.406495 0.096335
0.853426 0.38558 0.093913
0.87685 0.365166 0.092311
0.893094 0.344902 0.091595
0.901985 0.324843 0.091863
0.904202 0.304965 0.093067
0.043113 0.580539 0.245241
0.043209 0.581223 0.234283
0.088602 0.583879 0.169138
0.273946 0.584685 0.103583
0.398753 0.584012 0.101389
0.504256 0.583094 0.098512
0.602301 0.582034 0.095075
0.677835 0.564891 0.092904
0.734374 0.539097 0.090721
0.781098 0.513316 0.088793
0.819762 0.488064 0.08718
0.850804 0.463417 0.086043
0.87446 0.439169 0.085505
0.891109 0.415192 0.085645
0.900243 0.391295 0.086558
0.902551 0.367554 0.088274
0.043073 0.642482 0.235783
0.043209 0.643029 0.225145
0.078042 0.64513 0.162482
0.258619 0.645955 0.088881
0.378981 0.645529 0.087602
0.480028 0.645033 0.085874
0.573862 0.644404 0.083772
0.66383 0.643666 0.0814
0.731056 0.625055 0.080438
0.778151 0.595653 0.079636
0.817042 0.5667 0.079067
0.848395 0.538346 0.078823
0.872385 0.510478 0.079037
0.889017 0.482677 0.079806
0.89836 0.455089 0.081195
0.900807 0.427659 0.083292
0.043031 0.694947 0.225834
0.043209 0.695303 0.215755
0.071261 0.69707 0.157132
0.244766 0.697744 0.078722
0.360368 0.69759 0.077957
0.456932 0.697298 0.076901
0.546488 0.69688 0.075584
0.632222 0.696325 0.074063
0.715595 0.69575 0.072396
0.775952 0.676107 0.072242
0.81492 0.643463 0.0723
0.846364 0.611438 0.072588
0.87048 0.579891 0.07327
0.887287 0.548506 0.07441
0.896709 0.517268 0.076102
0.899173 0.486148 0.078443
0.042987 0.738995 0.215821
0.043209 0.739134 0.206417
0.066952 0.740642 0.152829
0.231774 0.741308 0.071833
0.342743 0.741077 0.071354
0.434872 0.740893 0.070682
0.520196 0.74067 0.069844
0.601883 0.740375 0.068859
0.68132 0.740035 0.067755
0.759168 0.739712 0.066567
0.81316 0.718795 0.066902
0.844693 0.683091 0.067493
0.868891 0.647984 0.068379
0.885658 0.613084 0.069677
0.895039 0.578199 0.071513
0.897733 0.543581 0.073911
0.042942 0.775544 0.205988
0.043209 0.776003 0.197402
0.064354 0.777311 0.149421
0.219256 0.777817 0.067197
0.325986 0.777646 0.066876
0.413867 0.777445 0.066438
0.495222 0.777421 0.065902
0.57299 0.77715 0.06522
0.648598 0.776829 0.064503
0.722544 0.77666 0.063699
0.795408 0.776241 0.062846
0.843389 0.753764 0.063498
0.867487 0.715086 0.064428
0.884279 0.676606 0.065742
0.893676 0.638129 0.067519
0.896347 0.600002 0.069867
0.042904 0.805521 0.196373
0.043209 0.805874 0.18866
0.062812 0.807001 0.146818
0.206887 0.807478 0.064131
0.309745 0.807407 0.063921
0.393705 0.807342 0.063628
0.471091 0.80724 0.063261
0.545073 0.807016 0.062823
0.617 0.806802 0.062306
0.687324 0.806649 0.061747
0.756493 0.80639 0.06115
0.824908 0.806183 0.060537
0.866239 0.781501 0.06139
0.88305 0.739478 0.062573
0.892583 0.697528 0.06419
0.895023 0.655787 0.066368
0.042869 0.828594 0.186867
0.043209 0.828708 0.180156
0.061969 0.829961 0.144938
0.194326 0.830478 0.062213
0.293754 0.830346 0.06206
0.373899 0.830214 0.061841
0.447566 0.830131 0.06159
0.517888 0.829996 0.061273
0.586134 0.829958 0.06092
0.653008 0.829715 0.060506
0.718683 0.829538 0.060072
0.783675 0.829367 0.059637
0.847694 0.829177 0.059178
0.882145 0.801453 0.060141
0.891608 0.756183 0.061537
0.893959 0.710757 0.063452
0.042842 0.844527 0.177373
0.043209 0.844725 0.171822
0.061552 0.845768 0.143717
0.181 0.846286 0.061078
0.277601 0.846271 0.060956
0.354116 0.846152 0.060809
0.424099 0.846151 0.06061
0.49085 0.846014 0.060384
0.555609 0.845934 0.060113
0.618873 0.845725 0.059793
0.681118 0.845575 0.059477
0.742602 0.845471 0.059151
0.803096 0.845226 0.058788
0.863369 0.845049 0.058424
0.890604 0.814296 0.059516
0.89302 0.76553 0.061106
0.042827 0.854036 0.16804
0.061226 0.854035 0.164077
0.21028 0.854035 0.2121
0.270995 0.854035 0.225923
0.321559 0.854035 0.225922
0.375283 0.854035 0.225921
0.430418 0.854035 0.225921
0.486013 0.854035 0.225939
0.541814 0.854035 0.225937
0.597643 0.854035 0.225935
0.653231 0.854035 0.225931
0.708839 0.854035 0.225928
0.763958 0.854035 0.225925
0.819072 0.854035 0.225921
0.873737 0.854035 0.225916
0.891095 0.818614 0.059316
0.042825 0.856539 0.158665
0.061228 0.856539 0.15621
0.21028 0.856539 0.2121
0.265385 0.856539 0.225923
0.310762 0.856539 0.225922
0.359786 0.856539 0.225922
0.410621 0.856539 0.22594
0.462222 0.856539 0.225939
0.514216 0.856539 0.225938
0.56626 0.856539 0.225936
0.618301 0.856539 0.225933
0.670252 0.856538 0.22593
0.72189 0.856538 0.225927
0.773533 0.856538 0.225923
0.824906 0.856538 0.22592
0.87623 0.856538 0.225916
0.043208 -0.000817 0.364667
0.149847 -0.000866 0.364667
0.249853 -0.00104 0.364667
0.346542 -0.001305 0.364667
0.444517 -0.001606 0.367805
0.534671 -0.00192 0.365358
0.610839 -0.002233 0.356098
0.67501 -0.002535 0.343505
0.72926 -0.002819 0.329774
0.774636 -0.003079 0.315501
0.812209 -0.003309 0.301209
0.842639 -0.003504 0.287036
0.865732 -0.003656 0.272936
0.881736 -0.003761 0.258806
0.890198 -0.003817 0.244667
0.891937 -0.003826 0.230586
0.043207 0.115052 0.364667
0.043209 0.062939 0.392401
0.248344 0.001411 0.389639
0.358189 0 0.382056
0.457196 0 0.376431
0.545013 0 0.367801
0.618971 0 0.35494
0.681479 0 0.340617
0.734513 0 0.32589
0.779081 0 0.311187
0.816038 0 0.296799
0.846039 0 0.282697
0.868916 0 0.268841
0.884778 0 0.255054
0.893258 0 0.24138
0.894989 0 0.227816
0.043202 0.218105 0.364667
0.043209 0.215634 0.377453
0.201193 0.185415 0.386909
0.350028 0.174499 0.383942
0.465497 0.161003 0.375967
0.558909 0.143968 0.36082
0.634552 0.126948 0.342623
0.696786 0.111837 0.324458
0.748798 0.099168 0.30742
0.792178 0.089019 0.291694
0.828346 0.081086 0.277341
0.857571 0.075115 0.264045
0.880013 0.070858 0.251643
0.895465 0.068101 0.239922
0.903808 0.066692 0.228879
0.905446 0.066448 0.218458
0.043188 0.317086 0.364666
0.043209 0.3185 0.367718
0.163226 0.317976 0.373323
0.33178 0.313606 0.371124
0.455852 0.307831 0.365158
0.554568 0.299481 0.355764
0.635497 0.288431 0.343623
0.70212 0.275267 0.329576
0.757117 0.261854 0.315378
0.802224 0.249415 0.302303
0.839291 0.238607 0.291103
0.86901 0.229767 0.281939
0.891764 0.223029 0.275063
0.906382 0.223026 0.274169
0.912302 0.233408 0.282487
0.913311 0.235924 0.284509
0.043167 0.418507 0.368972
0.043209 0.419803 0.367269
0.128263 0.423382 0.356904
0.300949 0.424079 0.347547
0.438762 0.420881 0.34351
0.545019 0.410241 0.335832
0.629016 0.395178 0.326233
0.69728 0.378759 0.315649
0.753548 0.361986 0.304831
0.800015 0.345702 0.294694
0.837925 0.330365 0.285704
0.8685 0.316164 0.278287
