site/assets/luts/freshluts--0001975-ole-world.cube
# LUTr-Schema-Version: 2
# LUTr-ID: freshluts--0001975-ole-world
# LUTr-Title: Ole World
# LUTr-Collection: Fresh LUTs
# LUTr-Collection-ID: freshluts-community
# LUTr-Source: https://freshluts.com
# LUTr-Retrieved: 2026-07-27
# LUTr-Source-File: submissions-raw/freshluts/cubes/1975__Ole_World.cube
# LUTr-Source-Format: CUBE
# LUTr-Source-SHA256: 8b1c3f7edc59f23945566c152368a1f9f160d061a7b892eae23db6932f24aeda
# LUTr-License: CC0-1.0
# LUTr-License-URL: https://freshluts.com/termsandconditions
# LUTr-License-Basis: site-terms
# LUTr-Transform-Class: creative-look
# LUTr-Tags: creative, freshluts, community, cube, brown, low-key, sony-s-log1
# LUTr-Input-Color-Space:
# LUTr-Input-Gamut: sony-s-gamut
# LUTr-Input-Transfer: sony-s-log1
# LUTr-Output-Color-Space: srgb
# LUTr-Output-Gamut: rec709
# LUTr-Output-Transfer: srgb
# LUTr-Color-Space-Confidence: camera-profile-input-required
# LUTr-Domain-Normalized: true
# LUTr-Shaper: none
# LUTr-Original-Grid: 16x16x16
# LUTr-Conversion-Grid: 16x16x16
# LUTr-Conversion-Interpolation: none
# LUTr-Conversion-Method: Metadata normalization; numeric LUT samples preserved
# LUTr-Conversion-Tool: LUTr scripts/convert-all-to-cube.mjs 2.0.0
# LUTr-Conversion-Date: 2026-07-28
# LUTr-Asset-URL: https://freshluts.com/luts/1975
# LUTr-Author: InAvision
# LUTr-Author-URL: https://freshluts.com/users/64078
# LUTr-Attribution: InAvision via Fresh LUTs
# LUTr-Source-Labels: gamma=Sony S-Log; color=Brown; key=Low Key; style=Cinematic/Dark
# LUTr-Note: Preserve this metadata and the upstream license notices when redistributing.
TITLE "Ole World"
LUT_3D_SIZE 16
DOMAIN_MIN 0 0 0
DOMAIN_MAX 1 1 1
0 0 0
0.044197 0 0
0.110293 0 0
0.18467 0 0
0.252233 0 0
0.314625 0 0
0.373477 0 0
0.429512 0 0
0.483513 0 0
0.535684 0 0
0.58632 0 0
0.635749 0 0
0.683975 0 0
0.731168 0 0
0.777419 0 0
0.822433 0 0
0 0.034306 0
0.044197 0.034306 0
0.110293 0.034306 0
0.18467 0.034306 0
0.252233 0.034306 0
0.314625 0.034306 0
0.373477 0.034306 0
0.429512 0.034306 0
0.483513 0.034306 0
0.535684 0.034306 0
0.58632 0.034306 0
0.635749 0.034306 0
0.683975 0.034306 0
0.731168 0.034306 0
0.777419 0.034306 0
0.822433 0.034306 0
0 0.091794 0
0.044197 0.091794 0
0.110293 0.091794 0
0.18467 0.091794 0
0.252233 0.091794 0
0.314625 0.091794 0
0.373477 0.091794 0
0.429512 0.091794 0
0.483513 0.091794 0
0.535684 0.091794 0
0.58632 0.091794 0
0.635749 0.091794 0
0.683975 0.091794 0
0.731168 0.091794 0
0.777419 0.091794 0
0.822433 0.091794 0
0 0.16008 0
0.044197 0.16008 0
0.110293 0.16008 0
0.18467 0.16008 0
0.252233 0.16008 0
0.314625 0.16008 0
0.373477 0.16008 0
0.429512 0.16008 0
0.483513 0.16008 0
0.535684 0.16008 0
0.58632 0.16008 0
0.635749 0.16008 0
0.683975 0.16008 0
0.731168 0.16008 0
0.777419 0.16008 0
0.822433 0.16008 0
0 0.223855 0
0.044197 0.223855 0
0.110293 0.223855 0
0.18467 0.223855 0
0.252233 0.223855 0
0.314625 0.223855 0
0.373477 0.223855 0
0.429512 0.223855 0
0.483513 0.223855 0
0.535684 0.223855 0
0.58632 0.223855 0
0.635749 0.223855 0
0.683975 0.223855 0
0.731168 0.223855 0
0.777419 0.223855 0
0.822433 0.223855 0
0 0.283662 0
0.044197 0.283662 0
0.110293 0.283662 0
0.18467 0.283662 0
0.252233 0.283662 0
0.314625 0.283662 0
0.373477 0.283662 0
0.429512 0.283662 0
0.483513 0.283662 0
0.535684 0.283662 0
0.58632 0.283662 0
0.635749 0.283662 0
0.683975 0.283662 0
0.731168 0.283662 0
0.777419 0.283662 0
0.822433 0.283662 0
0 0.340662 0
0.044197 0.340662 0
0.110293 0.340662 0
0.18467 0.340662 0
0.252233 0.340662 0
0.314625 0.340662 0
0.373477 0.340662 0
0.429512 0.340662 0
0.483513 0.340662 0
0.535684 0.340662 0
0.58632 0.340662 0
0.635749 0.340662 0
0.683975 0.340662 0
0.731168 0.340662 0
0.777419 0.340662 0
0.822433 0.340662 0
0 0.395518 0
0.044197 0.395518 0
0.110293 0.395518 0
0.18467 0.395518 0
0.252233 0.395518 0
0.314625 0.395518 0
0.373477 0.395518 0
0.429512 0.395518 0
0.483513 0.395518 0
0.535684 0.395518 0
0.58632 0.395518 0
0.635749 0.395518 0
0.683975 0.395518 0
0.731168 0.395518 0
0.777419 0.395518 0
0.822433 0.395518 0
0 0.448729 0
0.044197 0.448729 0
0.110293 0.448729 0
0.18467 0.448729 0
0.252233 0.448729 0
0.314625 0.448729 0
0.373477 0.448729 0
0.429512 0.448729 0
0.483513 0.448729 0
0.535684 0.448729 0
0.58632 0.448729 0
0.635749 0.448729 0
0.683975 0.448729 0
0.731168 0.448729 0
0.777419 0.448729 0
0.822433 0.448729 0
0 0.50054 0
0.044197 0.50054 0
0.110293 0.50054 0
0.18467 0.50054 0
0.252233 0.50054 0
0.314625 0.50054 0
0.373477 0.50054 0
0.429512 0.50054 0
0.483513 0.50054 0
0.535684 0.50054 0
0.58632 0.50054 0
0.635749 0.50054 0
0.683975 0.50054 0
0.731168 0.50054 0
0.777419 0.50054 0
0.822433 0.50054 0
0 0.551025 0
0.044197 0.551025 0
0.110293 0.551025 0
0.18467 0.551025 0
0.252233 0.551025 0
0.314625 0.551025 0
0.373477 0.551025 0
0.429512 0.551025 0
0.483513 0.551025 0
0.535684 0.551025 0
0.58632 0.551025 0
0.635749 0.551025 0
0.683975 0.551025 0
0.731168 0.551025 0
0.777419 0.551025 0
0.822433 0.551025 0
0 0.600627 0
0.044197 0.600627 0
0.110293 0.600627 0
0.18467 0.600627 0
0.252233 0.600627 0
0.314625 0.600627 0
0.373477 0.600627 0
0.429512 0.600627 0
0.483513 0.600627 0
0.535684 0.600627 0
0.58632 0.600627 0
0.635749 0.600627 0
0.683975 0.600627 0
0.731168 0.600627 0
0.777419 0.600627 0
0.822433 0.600627 0
0 0.649197 0
0.044197 0.649197 0
0.110293 0.649197 0
0.18467 0.649197 0
0.252233 0.649197 0
0.314625 0.649197 0
0.373477 0.649197 0
0.429512 0.649197 0
0.483513 0.649197 0
0.535684 0.649197 0
0.58632 0.649197 0
0.635749 0.649197 0
0.683975 0.649197 0
0.731168 0.649197 0
0.777419 0.649197 0
0.822433 0.649197 0
0 0.697059 0
0.044197 0.697059 0
0.110293 0.697059 0
0.18467 0.697059 0
0.252233 0.697059 0
0.314625 0.697059 0
0.373477 0.697059 0
0.429512 0.697059 0
0.483513 0.697059 0
0.535684 0.697059 0
0.58632 0.697059 0
0.635749 0.697059 0
0.683975 0.697059 0
0.731168 0.697059 0
0.777419 0.697059 0
0.822433 0.697059 0
0 0.743985 0
0.044197 0.743985 0
0.110293 0.743985 0
0.18467 0.743985 0
0.252233 0.743985 0
0.314625 0.743985 0
0.373477 0.743985 0
0.429512 0.743985 0
0.483513 0.743985 0
0.535684 0.743985 0
0.58632 0.743985 0
0.635749 0.743985 0
0.683975 0.743985 0
0.731168 0.743985 0
0.777419 0.743985 0
0.822433 0.743985 0
0 0.789824 0
0.044197 0.789824 0
0.110293 0.789824 0
0.18467 0.789824 0
0.252233 0.789824 0
0.314625 0.789824 0
0.373477 0.789824 0
0.429512 0.789824 0
0.483513 0.789824 0
0.535684 0.789824 0
0.58632 0.789824 0
0.635749 0.789824 0
0.683975 0.789824 0
0.731168 0.789824 0
0.777419 0.789824 0
0.822433 0.789824 0
0 0 0.017863
0.044197 0 0.017863
0.110293 0 0.017863
0.18467 0 0.017863
0.252233 0 0.017863
0.314625 0 0.017863
0.373477 0 0.017863
0.429512 0 0.017863
0.483513 0 0.017863
0.535684 0 0.017863
0.58632 0 0.017863
0.635749 0 0.017863
0.683975 0 0.017863
0.731168 0 0.017863
0.777419 0 0.017863
0.822433 0 0.017863
0 0.034306 0.017863
0.044197 0.034306 0.017863
0.110293 0.034306 0.017863
0.18467 0.034306 0.017863
0.252233 0.034306 0.017863
0.314625 0.034306 0.017863
0.373477 0.034306 0.017863
0.429512 0.034306 0.017863
0.483513 0.034306 0.017863
0.535684 0.034306 0.017863
0.58632 0.034306 0.017863
0.635749 0.034306 0.017863
0.683975 0.034306 0.017863
0.731168 0.034306 0.017863
0.777419 0.034306 0.017863
0.822433 0.034306 0.017863
0 0.091794 0.017863
0.044197 0.091794 0.017863
0.110293 0.091794 0.017863
0.18467 0.091794 0.017863
0.252233 0.091794 0.017863
0.314625 0.091794 0.017863
0.373477 0.091794 0.017863
0.429512 0.091794 0.017863
0.483513 0.091794 0.017863
0.535684 0.091794 0.017863
0.58632 0.091794 0.017863
0.635749 0.091794 0.017863
0.683975 0.091794 0.017863
0.731168 0.091794 0.017863
0.777419 0.091794 0.017863
0.822433 0.091794 0.017863
0 0.16008 0.017863
0.044197 0.16008 0.017863
0.110293 0.16008 0.017863
0.18467 0.16008 0.017863
0.252233 0.16008 0.017863
0.314625 0.16008 0.017863
0.373477 0.16008 0.017863
0.429512 0.16008 0.017863
0.483513 0.16008 0.017863
0.535684 0.16008 0.017863
0.58632 0.16008 0.017863
0.635749 0.16008 0.017863
0.683975 0.16008 0.017863
0.731168 0.16008 0.017863
0.777419 0.16008 0.017863
0.822433 0.16008 0.017863
0 0.223855 0.017863
0.044197 0.223855 0.017863
0.110293 0.223855 0.017863
0.18467 0.223855 0.017863
0.252233 0.223855 0.017863
0.314625 0.223855 0.017863
0.373477 0.223855 0.017863
0.429512 0.223855 0.017863
0.483513 0.223855 0.017863
0.535684 0.223855 0.017863
0.58632 0.223855 0.017863
0.635749 0.223855 0.017863
0.683975 0.223855 0.017863
0.731168 0.223855 0.017863
0.777419 0.223855 0.017863
0.822433 0.223855 0.017863
0 0.283662 0.017863
0.044197 0.283662 0.017863
0.110293 0.283662 0.017863
0.18467 0.283662 0.017863
0.252233 0.283662 0.017863
0.314625 0.283662 0.017863
0.373477 0.283662 0.017863
0.429512 0.283662 0.017863
0.483513 0.283662 0.017863
0.535684 0.283662 0.017863
0.58632 0.283662 0.017863
0.635749 0.283662 0.017863
0.683975 0.283662 0.017863
0.731168 0.283662 0.017863
0.777419 0.283662 0.017863
0.822433 0.283662 0.017863
0 0.340662 0.017863
0.044197 0.340662 0.017863
0.110293 0.340662 0.017863
0.18467 0.340662 0.017863
0.252233 0.340662 0.017863
0.314625 0.340662 0.017863
0.373477 0.340662 0.017863
0.429512 0.340662 0.017863
0.483513 0.340662 0.017863
0.535684 0.340662 0.017863
0.58632 0.340662 0.017863
0.635749 0.340662 0.017863
0.683975 0.340662 0.017863
0.731168 0.340662 0.017863
0.777419 0.340662 0.017863
0.822433 0.340662 0.017863
0 0.395518 0.017863
0.044197 0.395518 0.017863
0.110293 0.395518 0.017863
0.18467 0.395518 0.017863
0.252233 0.395518 0.017863
0.314625 0.395518 0.017863
0.373477 0.395518 0.017863
0.429512 0.395518 0.017863
0.483513 0.395518 0.017863
0.535684 0.395518 0.017863
0.58632 0.395518 0.017863
0.635749 0.395518 0.017863
0.683975 0.395518 0.017863
0.731168 0.395518 0.017863
0.777419 0.395518 0.017863
0.822433 0.395518 0.017863
0 0.448729 0.017863
0.044197 0.448729 0.017863
0.110293 0.448729 0.017863
0.18467 0.448729 0.017863
0.252233 0.448729 0.017863
0.314625 0.448729 0.017863
0.373477 0.448729 0.017863
0.429512 0.448729 0.017863
0.483513 0.448729 0.017863
0.535684 0.448729 0.017863
0.58632 0.448729 0.017863
0.635749 0.448729 0.017863
0.683975 0.448729 0.017863
0.731168 0.448729 0.017863
0.777419 0.448729 0.017863
0.822433 0.448729 0.017863
0 0.50054 0.017863
0.044197 0.50054 0.017863
0.110293 0.50054 0.017863
0.18467 0.50054 0.017863
0.252233 0.50054 0.017863
0.314625 0.50054 0.017863
0.373477 0.50054 0.017863
0.429512 0.50054 0.017863
0.483513 0.50054 0.017863
0.535684 0.50054 0.017863
0.58632 0.50054 0.017863
0.635749 0.50054 0.017863
0.683975 0.50054 0.017863
0.731168 0.50054 0.017863
0.777419 0.50054 0.017863
0.822433 0.50054 0.017863
0 0.551025 0.017863
0.044197 0.551025 0.017863
0.110293 0.551025 0.017863
0.18467 0.551025 0.017863
0.252233 0.551025 0.017863
0.314625 0.551025 0.017863
0.373477 0.551025 0.017863
0.429512 0.551025 0.017863
0.483513 0.551025 0.017863
0.535684 0.551025 0.017863
0.58632 0.551025 0.017863
0.635749 0.551025 0.017863
0.683975 0.551025 0.017863
0.731168 0.551025 0.017863
0.777419 0.551025 0.017863
0.822433 0.551025 0.017863
0 0.600627 0.017863
0.044197 0.600627 0.017863
0.110293 0.600627 0.017863
0.18467 0.600627 0.017863
0.252233 0.600627 0.017863
0.314625 0.600627 0.017863
0.373477 0.600627 0.017863
0.429512 0.600627 0.017863
0.483513 0.600627 0.017863
0.535684 0.600627 0.017863
0.58632 0.600627 0.017863
0.635749 0.600627 0.017863
0.683975 0.600627 0.017863
0.731168 0.600627 0.017863
0.777419 0.600627 0.017863
0.822433 0.600627 0.017863
0 0.649197 0.017863
0.044197 0.649197 0.017863
0.110293 0.649197 0.017863
0.18467 0.649197 0.017863
0.252233 0.649197 0.017863
0.314625 0.649197 0.017863
0.373477 0.649197 0.017863
0.429512 0.649197 0.017863
0.483513 0.649197 0.017863
0.535684 0.649197 0.017863
0.58632 0.649197 0.017863
0.635749 0.649197 0.017863
0.683975 0.649197 0.017863
0.731168 0.649197 0.017863
0.777419 0.649197 0.017863
0.822433 0.649197 0.017863
0 0.697059 0.017863
0.044197 0.697059 0.017863
0.110293 0.697059 0.017863
0.18467 0.697059 0.017863
0.252233 0.697059 0.017863
0.314625 0.697059 0.017863
0.373477 0.697059 0.017863
0.429512 0.697059 0.017863
0.483513 0.697059 0.017863
0.535684 0.697059 0.017863
0.58632 0.697059 0.017863
0.635749 0.697059 0.017863
0.683975 0.697059 0.017863
0.731168 0.697059 0.017863
0.777419 0.697059 0.017863
0.822433 0.697059 0.017863
0 0.743985 0.017863
0.044197 0.743985 0.017863
0.110293 0.743985 0.017863
0.18467 0.743985 0.017863
0.252233 0.743985 0.017863
0.314625 0.743985 0.017863
0.373477 0.743985 0.017863
0.429512 0.743985 0.017863
0.483513 0.743985 0.017863
0.535684 0.743985 0.017863
0.58632 0.743985 0.017863
0.635749 0.743985 0.017863
0.683975 0.743985 0.017863
0.731168 0.743985 0.017863
0.777419 0.743985 0.017863
0.822433 0.743985 0.017863
0 0.789824 0.017863
0.044197 0.789824 0.017863
0.110293 0.789824 0.017863
0.18467 0.789824 0.017863
0.252233 0.789824 0.017863
0.314625 0.789824 0.017863
0.373477 0.789824 0.017863
0.429512 0.789824 0.017863
0.483513 0.789824 0.017863
0.535684 0.789824 0.017863
0.58632 0.789824 0.017863
0.635749 0.789824 0.017863
0.683975 0.789824 0.017863
0.731168 0.789824 0.017863
0.777419 0.789824 0.017863
0.822433 0.789824 0.017863
0 0 0.057883
0.044197 0 0.057883
0.110293 0 0.057883
0.18467 0 0.057883
0.252233 0 0.057883
0.314625 0 0.057883
0.373477 0 0.057883
0.429512 0 0.057883
0.483513 0 0.057883
0.535684 0 0.057883
0.58632 0 0.057883
0.635749 0 0.057883
0.683975 0 0.057883
0.731168 0 0.057883
0.777419 0 0.057883
0.822433 0 0.057883
0 0.034306 0.057883
0.044197 0.034306 0.057883
0.110293 0.034306 0.057883
0.18467 0.034306 0.057883
0.252233 0.034306 0.057883
0.314625 0.034306 0.057883
0.373477 0.034306 0.057883
0.429512 0.034306 0.057883
0.483513 0.034306 0.057883
0.535684 0.034306 0.057883
0.58632 0.034306 0.057883
0.635749 0.034306 0.057883
0.683975 0.034306 0.057883
0.731168 0.034306 0.057883
0.777419 0.034306 0.057883
0.822433 0.034306 0.057883
0 0.091794 0.057883
0.044197 0.091794 0.057883
0.110293 0.091794 0.057883
0.18467 0.091794 0.057883
0.252233 0.091794 0.057883
0.314625 0.091794 0.057883
0.373477 0.091794 0.057883
0.429512 0.091794 0.057883
0.483513 0.091794 0.057883
0.535684 0.091794 0.057883
0.58632 0.091794 0.057883
0.635749 0.091794 0.057883
0.683975 0.091794 0.057883
0.731168 0.091794 0.057883
0.777419 0.091794 0.057883
0.822433 0.091794 0.057883
0 0.16008 0.057883
0.044197 0.16008 0.057883
0.110293 0.16008 0.057883
0.18467 0.16008 0.057883
0.252233 0.16008 0.057883
0.314625 0.16008 0.057883
0.373477 0.16008 0.057883
0.429512 0.16008 0.057883
0.483513 0.16008 0.057883
0.535684 0.16008 0.057883
0.58632 0.16008 0.057883
0.635749 0.16008 0.057883
0.683975 0.16008 0.057883
0.731168 0.16008 0.057883
0.777419 0.16008 0.057883
0.822433 0.16008 0.057883
0 0.223855 0.057883
0.044197 0.223855 0.057883
0.110293 0.223855 0.057883
0.18467 0.223855 0.057883
0.252233 0.223855 0.057883
0.314625 0.223855 0.057883
0.373477 0.223855 0.057883
0.429512 0.223855 0.057883
0.483513 0.223855 0.057883
0.535684 0.223855 0.057883
0.58632 0.223855 0.057883
0.635749 0.223855 0.057883
0.683975 0.223855 0.057883
0.731168 0.223855 0.057883
0.777419 0.223855 0.057883
0.822433 0.223855 0.057883
0 0.283662 0.057883
0.044197 0.283662 0.057883
0.110293 0.283662 0.057883
0.18467 0.283662 0.057883
0.252233 0.283662 0.057883
0.314625 0.283662 0.057883
0.373477 0.283662 0.057883
0.429512 0.283662 0.057883
0.483513 0.283662 0.057883
0.535684 0.283662 0.057883
0.58632 0.283662 0.057883
0.635749 0.283662 0.057883
0.683975 0.283662 0.057883
0.731168 0.283662 0.057883
0.777419 0.283662 0.057883
0.822433 0.283662 0.057883
0 0.340662 0.057883
0.044197 0.340662 0.057883
0.110293 0.340662 0.057883
0.18467 0.340662 0.057883
0.252233 0.340662 0.057883
0.314625 0.340662 0.057883
0.373477 0.340662 0.057883
0.429512 0.340662 0.057883
0.483513 0.340662 0.057883
0.535684 0.340662 0.057883
0.58632 0.340662 0.057883
0.635749 0.340662 0.057883
0.683975 0.340662 0.057883
0.731168 0.340662 0.057883
0.777419 0.340662 0.057883
0.822433 0.340662 0.057883
0 0.395518 0.057883
0.044197 0.395518 0.057883
0.110293 0.395518 0.057883
0.18467 0.395518 0.057883
0.252233 0.395518 0.057883
0.314625 0.395518 0.057883
0.373477 0.395518 0.057883
0.429512 0.395518 0.057883
0.483513 0.395518 0.057883
0.535684 0.395518 0.057883
0.58632 0.395518 0.057883
0.635749 0.395518 0.057883
0.683975 0.395518 0.057883
0.731168 0.395518 0.057883
0.777419 0.395518 0.057883
0.822433 0.395518 0.057883
0 0.448729 0.057883
0.044197 0.448729 0.057883
0.110293 0.448729 0.057883
0.18467 0.448729 0.057883
0.252233 0.448729 0.057883
0.314625 0.448729 0.057883
0.373477 0.448729 0.057883
0.429512 0.448729 0.057883
0.483513 0.448729 0.057883
0.535684 0.448729 0.057883
0.58632 0.448729 0.057883
0.635749 0.448729 0.057883
0.683975 0.448729 0.057883
0.731168 0.448729 0.057883
0.777419 0.448729 0.057883
0.822433 0.448729 0.057883
0 0.50054 0.057883
0.044197 0.50054 0.057883
0.110293 0.50054 0.057883
0.18467 0.50054 0.057883
0.252233 0.50054 0.057883
0.314625 0.50054 0.057883
0.373477 0.50054 0.057883
0.429512 0.50054 0.057883
0.483513 0.50054 0.057883
0.535684 0.50054 0.057883
0.58632 0.50054 0.057883
0.635749 0.50054 0.057883
0.683975 0.50054 0.057883
0.731168 0.50054 0.057883
0.777419 0.50054 0.057883
0.822433 0.50054 0.057883
0 0.551025 0.057883
0.044197 0.551025 0.057883
0.110293 0.551025 0.057883
0.18467 0.551025 0.057883
0.252233 0.551025 0.057883
0.314625 0.551025 0.057883
0.373477 0.551025 0.057883
0.429512 0.551025 0.057883
0.483513 0.551025 0.057883
0.535684 0.551025 0.057883
0.58632 0.551025 0.057883
0.635749 0.551025 0.057883
0.683975 0.551025 0.057883
0.731168 0.551025 0.057883
0.777419 0.551025 0.057883
0.822433 0.551025 0.057883
0 0.600627 0.057883
0.044197 0.600627 0.057883
0.110293 0.600627 0.057883
0.18467 0.600627 0.057883
0.252233 0.600627 0.057883
0.314625 0.600627 0.057883
0.373477 0.600627 0.057883
0.429512 0.600627 0.057883
0.483513 0.600627 0.057883
0.535684 0.600627 0.057883
0.58632 0.600627 0.057883
0.635749 0.600627 0.057883
0.683975 0.600627 0.057883
0.731168 0.600627 0.057883
0.777419 0.600627 0.057883
0.822433 0.600627 0.057883
0 0.649197 0.057883
0.044197 0.649197 0.057883
0.110293 0.649197 0.057883
0.18467 0.649197 0.057883
0.252233 0.649197 0.057883
0.314625 0.649197 0.057883
0.373477 0.649197 0.057883
0.429512 0.649197 0.057883
0.483513 0.649197 0.057883
0.535684 0.649197 0.057883
0.58632 0.649197 0.057883
0.635749 0.649197 0.057883
0.683975 0.649197 0.057883
0.731168 0.649197 0.057883
0.777419 0.649197 0.057883
0.822433 0.649197 0.057883
0 0.697059 0.057883
0.044197 0.697059 0.057883
0.110293 0.697059 0.057883
0.18467 0.697059 0.057883
0.252233 0.697059 0.057883
0.314625 0.697059 0.057883
0.373477 0.697059 0.057883
0.429512 0.697059 0.057883
0.483513 0.697059 0.057883
0.535684 0.697059 0.057883
0.58632 0.697059 0.057883
0.635749 0.697059 0.057883
0.683975 0.697059 0.057883
0.731168 0.697059 0.057883
0.777419 0.697059 0.057883
0.822433 0.697059 0.057883
0 0.743985 0.057883
0.044197 0.743985 0.057883
0.110293 0.743985 0.057883
0.18467 0.743985 0.057883
0.252233 0.743985 0.057883
0.314625 0.743985 0.057883
0.373477 0.743985 0.057883
0.429512 0.743985 0.057883
0.483513 0.743985 0.057883
0.535684 0.743985 0.057883
0.58632 0.743985 0.057883
0.635749 0.743985 0.057883
0.683975 0.743985 0.057883
0.731168 0.743985 0.057883
0.777419 0.743985 0.057883
0.822433 0.743985 0.057883
0 0.789824 0.057883
0.044197 0.789824 0.057883
0.110293 0.789824 0.057883
0.18467 0.789824 0.057883
0.252233 0.789824 0.057883
0.314625 0.789824 0.057883
0.373477 0.789824 0.057883
0.429512 0.789824 0.057883
0.483513 0.789824 0.057883
0.535684 0.789824 0.057883
0.58632 0.789824 0.057883
0.635749 0.789824 0.057883
0.683975 0.789824 0.057883
0.731168 0.789824 0.057883
0.777419 0.789824 0.057883
0.822433 0.789824 0.057883
0 0 0.113458
0.044197 0 0.113458
0.110293 0 0.113458
0.18467 0 0.113458
0.252233 0 0.113458
0.314625 0 0.113458
0.373477 0 0.113458
0.429512 0 0.113458
0.483513 0 0.113458
0.535684 0 0.113458
0.58632 0 0.113458
0.635749 0 0.113458
0.683975 0 0.113458
0.731168 0 0.113458
0.777419 0 0.113458
0.822433 0 0.113458
0 0.034306 0.113458
0.044197 0.034306 0.113458
0.110293 0.034306 0.113458
0.18467 0.034306 0.113458
0.252233 0.034306 0.113458
0.314625 0.034306 0.113458
0.373477 0.034306 0.113458
0.429512 0.034306 0.113458
0.483513 0.034306 0.113458
0.535684 0.034306 0.113458
0.58632 0.034306 0.113458
0.635749 0.034306 0.113458
0.683975 0.034306 0.113458
0.731168 0.034306 0.113458
0.777419 0.034306 0.113458
0.822433 0.034306 0.113458
0 0.091794 0.113458
0.044197 0.091794 0.113458
0.110293 0.091794 0.113458
0.18467 0.091794 0.113458
0.252233 0.091794 0.113458
0.314625 0.091794 0.113458
0.373477 0.091794 0.113458
0.429512 0.091794 0.113458
0.483513 0.091794 0.113458
0.535684 0.091794 0.113458
0.58632 0.091794 0.113458
0.635749 0.091794 0.113458
0.683975 0.091794 0.113458
0.731168 0.091794 0.113458
0.777419 0.091794 0.113458
0.822433 0.091794 0.113458
0 0.16008 0.113458
0.044197 0.16008 0.113458
0.110293 0.16008 0.113458
0.18467 0.16008 0.113458
0.252233 0.16008 0.113458
0.314625 0.16008 0.113458
0.373477 0.16008 0.113458
0.429512 0.16008 0.113458
0.483513 0.16008 0.113458
0.535684 0.16008 0.113458
0.58632 0.16008 0.113458
0.635749 0.16008 0.113458
0.683975 0.16008 0.113458
0.731168 0.16008 0.113458
0.777419 0.16008 0.113458
0.822433 0.16008 0.113458
0 0.223855 0.113458
0.044197 0.223855 0.113458
0.110293 0.223855 0.113458
0.18467 0.223855 0.113458
0.252233 0.223855 0.113458
0.314625 0.223855 0.113458
0.373477 0.223855 0.113458
0.429512 0.223855 0.113458
0.483513 0.223855 0.113458
0.535684 0.223855 0.113458
0.58632 0.223855 0.113458
0.635749 0.223855 0.113458
0.683975 0.223855 0.113458
0.731168 0.223855 0.113458
0.777419 0.223855 0.113458
0.822433 0.223855 0.113458
0 0.283662 0.113458
0.044197 0.283662 0.113458
0.110293 0.283662 0.113458
0.18467 0.283662 0.113458
0.252233 0.283662 0.113458
0.314625 0.283662 0.113458
0.373477 0.283662 0.113458
0.429512 0.283662 0.113458
0.483513 0.283662 0.113458
0.535684 0.283662 0.113458
0.58632 0.283662 0.113458
0.635749 0.283662 0.113458
0.683975 0.283662 0.113458
0.731168 0.283662 0.113458
0.777419 0.283662 0.113458
0.822433 0.283662 0.113458
0 0.340662 0.113458
0.044197 0.340662 0.113458
0.110293 0.340662 0.113458
0.18467 0.340662 0.113458
0.252233 0.340662 0.113458
0.314625 0.340662 0.113458
0.373477 0.340662 0.113458
0.429512 0.340662 0.113458
0.483513 0.340662 0.113458
0.535684 0.340662 0.113458
0.58632 0.340662 0.113458
0.635749 0.340662 0.113458
0.683975 0.340662 0.113458
0.731168 0.340662 0.113458
0.777419 0.340662 0.113458
0.822433 0.340662 0.113458
0 0.395518 0.113458
0.044197 0.395518 0.113458
0.110293 0.395518 0.113458
0.18467 0.395518 0.113458
0.252233 0.395518 0.113458
0.314625 0.395518 0.113458
0.373477 0.395518 0.113458
0.429512 0.395518 0.113458
0.483513 0.395518 0.113458
0.535684 0.395518 0.113458
0.58632 0.395518 0.113458
0.635749 0.395518 0.113458
0.683975 0.395518 0.113458
0.731168 0.395518 0.113458
0.777419 0.395518 0.113458
0.822433 0.395518 0.113458
0 0.448729 0.113458
0.044197 0.448729 0.113458
0.110293 0.448729 0.113458
0.18467 0.448729 0.113458
