site/assets/luts/freshluts--0001539-mood.cube
# LUTr-Schema-Version: 2
# LUTr-ID: freshluts--0001539-mood
# LUTr-Title: Mood
# LUTr-Collection: Fresh LUTs
# LUTr-Collection-ID: freshluts-community
# LUTr-Source: https://freshluts.com
# LUTr-Retrieved: 2026-07-27
# LUTr-Source-File: submissions-raw/freshluts/cubes/1539__mood.cube
# LUTr-Source-Format: CUBE
# LUTr-Source-SHA256: 3802fe2c0d60749b37814d9e5c9790f4641676071a108706d04f9c28d284e73b
# LUTr-License: CC0-1.0
# LUTr-License-URL: https://freshluts.com/termsandconditions
# LUTr-License-Basis: site-terms
# LUTr-Transform-Class: creative-look
# LUTr-Tags: creative, freshluts, community, cube, high-contrast, cool, high-key, linear
# LUTr-Input-Color-Space: linear-rec709
# LUTr-Input-Gamut: rec709
# LUTr-Input-Transfer: linear
# LUTr-Output-Color-Space: srgb
# LUTr-Output-Gamut: rec709
# LUTr-Output-Transfer: srgb
# LUTr-Color-Space-Confidence: declared-by-source
# LUTr-Domain-Normalized: true
# LUTr-Shaper: none
# LUTr-Original-Grid: 16x16x16
# LUTr-Conversion-Grid: 16x16x16
# LUTr-Conversion-Interpolation: none
# LUTr-Conversion-Method: Metadata normalization; numeric LUT samples preserved
# LUTr-Conversion-Tool: LUTr scripts/convert-all-to-cube.mjs 2.0.0
# LUTr-Conversion-Date: 2026-07-28
# LUTr-Asset-URL: https://freshluts.com/luts/1539
# LUTr-Author: Gina
# LUTr-Author-URL: https://freshluts.com/users/90727
# LUTr-Attribution: Gina via Fresh LUTs
# LUTr-Source-Labels: gamma=linear; color=Cool; key=High Key; style=High contrast
# LUTr-Note: Preserve this metadata and the upstream license notices when redistributing.
TITLE "Mood"
LUT_3D_SIZE 16
DOMAIN_MIN 0 0 0
DOMAIN_MAX 1 1 1
0.109804 0.054902 0.054902
0.113725 0.058824 0.058824
0.120784 0.054902 0.054902
0.139608 0.053333 0.061177
0.161569 0.054902 0.050196
0.192157 0.05098 0.05098
0.250196 0.043137 0.05804
0.323137 0.019608 0.050196
0.396079 0.001569 0.043137
0.493333 0 0.036078
0.580392 0 0.023529
0.677647 0 0.007843
0.758432 0 0
0.844706 0 0.003922
0.92549 0.000784 0
0.999843 0.085883 0.003883
0.105882 0.062745 0.054902
0.118275 0.062118 0.058824
0.126588 0.060706 0.060706
0.143529 0.06102 0.056
0.171294 0.062745 0.057255
0.212549 0.054118 0.05804
0.266039 0.049568 0.056157
0.332549 0.028706 0.047372
0.419451 0.001569 0.043451
0.511059 0.000157 0.034039
0.597647 0 0.018039
0.685804 0 0.002667
0.772079 0.003451 0
0.849255 0.000471 0
0.926118 0.009569 0.00251
0.995984 0.126792 0.003106
0.113725 0.073725 0.061177
0.118745 0.068549 0.055216
0.126588 0.072784 0.056314
0.153726 0.07451 0.055216
0.187765 0.076078 0.059608
0.230588 0.076078 0.053333
0.28549 0.065098 0.048314
0.365333 0.050666 0.044392
0.445647 0.026039 0.036079
0.534118 0.002196 0.024471
0.622745 0.002353 0.007843
0.706196 0.002039 0
0.786353 0.000941 0.00251
0.863843 0.010667 0.001569
0.938823 0.100235 0
0.996031 0.180196 0
0.12 0.092549 0.061177
0.123922 0.088628 0.061177
0.131294 0.089255 0.054902
0.150431 0.096471 0.057882
0.18949 0.100706 0.055059
0.247059 0.102745 0.044706
0.330667 0.108706 0.038588
0.407059 0.10353 0.02651
0.495059 0.093177 0.013961
0.575687 0.081569 0.00753
0.655686 0.073726 0.001569
0.736941 0.078902 0.002353
0.81302 0.098824 0.001569
0.881882 0.140392 0.001255
0.955922 0.185882 0
0.998431 0.239137 0.004674
0.118431 0.12 0.065883
0.121726 0.12298 0.06149
0.136941 0.12 0.064784
0.153255 0.128314 0.052706
0.189804 0.14149 0.044549
0.251764 0.149804 0.035294
0.344627 0.166274 0.021647
0.450353 0.184784 0.00251
0.548078 0.187922 0.003138
0.632941 0.189804 0.000628
0.697255 0.187451 0
0.767373 0.20251 0
0.836706 0.216941 0.001255
0.903372 0.239216 0.004078
0.966274 0.275608 0.000628
0.999969 0.320667 0.005475
0.105882 0.192157 0.05098
0.109804 0.184314 0.058824
0.12549 0.188235 0.047059
0.153726 0.184314 0.058039
0.188235 0.2 0.042353
0.243137 0.223529 0.007843
0.338823 0.236863 0.007843
0.447843 0.264314 0.003137
0.569412 0.288628 0.002353
0.677647 0.309804 0.000784
0.74902 0.313725 0.003922
0.807843 0.319216 0
0.869019 0.324706 0
0.927059 0.343529 0.002353
0.987451 0.363922 0.003922
0.988313 0.399882 0
0.016471 0.283921 0.032941
0.041412 0.283764 0.027294
0.081098 0.283608 0.032941
0.134431 0.283137 0.041255
0.178196 0.286745 0.035294
0.23451 0.312941 0
0.329568 0.337568 0.005804
0.44251 0.352314 0.000471
0.557647 0.381176 0
0.665098 0.403137 0
0.757647 0.430588 0
0.840627 0.440157 0.000628
0.901177 0.44 0.000314
0.956863 0.450196 0.001255
0.995607 0.459922 0.000941
0.995341 0.48542 0
0 0.403137 0
0 0.403137 0
0 0.403137 0.006275
0.030118 0.407058 0.015216
0.147765 0.40047 0.028706
0.219608 0.414902 0
0.31247 0.437647 0.001883
0.426039 0.455059 0.000941
0.536628 0.473725 0
0.651138 0.494275 0.001883
0.747451 0.509804 0.002353
0.833882 0.528628 0.000627
0.913882 0.544157 0
0.976314 0.546667 0
1 0.550745 0
0.998431 0.565443 0.001569
0 0.524706 0.011765
0 0.53098 0.017255
0.001412 0.527372 0.022589
0.000941 0.521569 0.042353
0.06102 0.52549 0.059137
0.20549 0.521569 0.071373
0.296941 0.532549 0
0.408313 0.552941 0.000628
0.516549 0.566118 0.003294
0.628236 0.576471 0.001883
0.727059 0.586666 0
0.819294 0.601882 0
0.901333 0.617882 0
0.974745 0.627451 0
0.998745 0.637333 0.001883
0.997631 0.64698 0.004682
0 0.633726 0.12549
0.000628 0.631216 0.132392
0.003765 0.630118 0.13647
0.005804 0.625412 0.148549
0.040314 0.632314 0.150432
0.22196 0.619608 0.176471
0.312941 0.624157 0.153883
0.408627 0.636549 0.054588
0.505412 0.648157 0.003137
0.611608 0.658667 0.000157
0.70902 0.666666 0
0.805333 0.665255 0.000314
0.88251 0.677333 0.000314
0.961098 0.693333 0.001883
0.999372 0.702902 0.000628
0.996862 0.710588 0
0.003922 0.721569 0.266667
0 0.717647 0.262745
0.006275 0.716863 0.26902
0 0.723922 0.262745
0.155294 0.718431 0.278431
0.266667 0.709804 0.286275
0.356078 0.709804 0.305098
0.431372 0.713725 0.270588
0.506667 0.721569 0.195294
0.610196 0.731764 0.068235
0.694118 0.737255 0
0.783529 0.737255 0.007059
0.87451 0.734902 0.001569
0.950588 0.745098 0
0.999216 0.752157 0
0.996117 0.760745 0
0.030588 0.787451 0.406275
0.05349 0.784784 0.393726
0.138196 0.787451 0.39749
0.216941 0.784314 0.408
0.288157 0.786667 0.409726
0.349804 0.783529 0.414118
0.415686 0.779608 0.434196
0.483138 0.773804 0.434196
0.539137 0.78149 0.399216
0.612235 0.787451 0.334275
0.699608 0.791372 0.262745
0.773176 0.798274 0.122353
0.865883 0.793569 0.001412
0.938667 0.788549 0
0.995921 0.797019 0.000157
0.999223 0.804667 0
0.31451 0.837647 0.520784
0.325176 0.842039 0.52047
0.348078 0.838431 0.533647
0.380078 0.840784 0.532706
0.416157 0.837334 0.530353
0.46196 0.833725 0.548235
0.509804 0.833255 0.547451
0.55451 0.830745 0.558118
0.601412 0.830745 0.549176
0.654431 0.832471 0.513569
0.712157 0.839216 0.472942
0.784 0.839373 0.409726
0.856157 0.834667 0.330824
0.931608 0.837647 0.190275
0.998431 0.833569 0.011922
0.998431 0.837671 0.096682
0.483921 0.879216 0.632157
0.492236 0.881883 0.635451
0.505569 0.877647 0.633882
0.521569 0.881098 0.638588
0.544627 0.879687 0.640313
0.579608 0.876863 0.649412
0.614117 0.875294 0.650196
0.645647 0.871373 0.658824
0.685961 0.870745 0.663529
0.717961 0.868392 0.656471
0.757647 0.873725 0.627451
0.806745 0.877961 0.590902
0.864941 0.87702 0.546353
0.916863 0.879216 0.488157
0.985882 0.881255 0.401882
0.99767 0.879224 0.299004
0.636078 0.912156 0.726275
0.644549 0.912784 0.730039
0.64298 0.912627 0.72251
0.658353 0.914666 0.73302
0.678746 0.915137 0.733333
0.700392 0.905882 0.733333
0.721412 0.908863 0.736784
0.743216 0.911215 0.740392
0.772549 0.905412 0.744471
0.796393 0.904941 0.750431
0.824314 0.908235 0.737255
0.85098 0.912784 0.723137
0.882981 0.914353 0.699137
0.922353 0.921882 0.671686
0.970824 0.923608 0.631529
0.999961 0.923921 0.578055
0.768274 0.948902 0.807569
0.768313 0.948942 0.806118
0.766055 0.946557 0.805357
0.784024 0.945082 0.811553
0.791875 0.948895 0.807694
0.795882 0.952823 0.811608
0.812353 0.945827 0.812385
0.826455 0.945035 0.814769
0.849255 0.950432 0.825702
0.866471 0.945059 0.831216
0.889961 0.948981 0.827255
0.901051 0.953608 0.823333
0.92222 0.958322 0.81309
0.943482 0.963035 0.803585
0.974839 0.967733 0.780871
1 0.972392 0.772157
0.113725 0.05804 0.060393
0.117804 0.055059 0.058981
0.122824 0.055373 0.060863
0.136314 0.052549 0.059138
0.164235 0.056314 0.061647
0.196078 0.054902 0.056471
0.250196 0.049411 0.062745
0.321568 0.023686 0.059922
0.398431 0.002353 0.05098
0.494117 0.000628 0.046588
0.581176 0 0.033726
0.677647 0 0.016157
0.76 0.002667 0.000471
0.841569 0.003608 0
0.917647 0.000784 0.000628
0.999835 0.070227 0.001553
0.107764 0.059451 0.059451
0.118431 0.062275 0.058981
0.131514 0.061396 0.055906
0.145318 0.063529 0.06011
0.173741 0.059859 0.059012
0.212392 0.062118 0.062745
0.259482 0.050572 0.057224
0.334275 0.029051 0.058604
0.416 0.002635 0.049976
0.511059 0.000251 0.041663
0.59749 0.000784 0.028863
0.68662 0.000784 0.008816
0.768816 0.000314 0
0.850133 0.002353 0.000753
0.925898 0.000628 0
0.995793 0.115986 0.001708
0.114823 0.07451 0.062118
0.121976 0.072722 0.063781
0.1328 0.074165 0.057255
0.150275 0.076267 0.061428
0.185819 0.073976 0.060424
0.229961 0.071686 0.05851
0.287937 0.068079 0.057726
0.366463 0.051733 0.052047
0.443639 0.0224 0.041694
0.532863 0.001318 0.030745
0.619765 0.002353 0.01349
0.709333 0.000784 0.006651
0.785726 0.001569 0.001067
0.863529 0.003137 0.001255
0.941051 0.086432 0.003639
0.998016 0.174213 0
0.121569 0.094118 0.062431
0.127906 0.094839 0.060392
0.134086 0.089443 0.065914
0.155671 0.097569 0.062118
0.192 0.102494 0.052173
0.254745 0.104941 0.052549
0.334526 0.105913 0.048314
0.40571 0.100329 0.034949
0.49098 0.087561 0.026604
0.573145 0.074479 0.00618
0.653334 0.065098 0.000471
0.733365 0.065757 0.001506
0.807687 0.089255 0
0.87793 0.13211 0.000753
0.952376 0.1776 0.003639
0.999981 0.235463 0.001864
0.118431 0.12549 0.070588
0.126055 0.127184 0.065443
0.135655 0.12571 0.069584
0.158023 0.129819 0.061302
0.196518 0.142086 0.054902
0.262118 0.155137 0.045647
0.347576 0.167812 0.023435
0.452988 0.18742 0.003859
0.548329 0.18287 0.001318
0.625412 0.180141 0.00069
0.703686 0.182117 0.000784
0.768878 0.191749 0.003012
0.833977 0.207467 0.001506
0.902181 0.238275 0.000377
0.967592 0.269522 0.000502
1 0.314248 0.002861
0.105098 0.189804 0.059608
0.111216 0.192314 0.063529
0.13098 0.195764 0.059294
0.157334 0.196549 0.060863
0.193568 0.204863 0.052549
0.25098 0.227451 0.023529
0.343373 0.244078 0.000628
0.46149 0.265412 0.003451
0.575686 0.287373 0
0.676863 0.307922 0
0.745098 0.308235 0.006274
0.803137 0.313568 0.001412
0.86698 0.322667 0
0.923137 0.339608 0.001883
0.980078 0.366431 0.007529
0.999961 0.395223 0
0.009412 0.29302 0.04251
0.03749 0.288628 0.044675
0.081977 0.293584 0.042416
0.131419 0.292894 0.050384
0.187451 0.290981 0.053239
0.237177 0.315137 0.010353
0.335906 0.336314 0.002761
0.44662 0.357961 0.002008
0.564706 0.383216 0.00022
0.669145 0.406808 0.001255
0.767215 0.428862 0
0.833914 0.434071 0
0.89989 0.437208 0.000753
0.95247 0.443043 0.003388
0.996455 0.458792 0.002384
0.989092 0.482267 0.000006
0.001883 0.414588 0.026039
0.002071 0.41302 0.025694
0.003702 0.411577 0.037302
0.036706 0.411294 0.039561
0.157459 0.408376 0.055937
0.224 0.418824 0.022274
0.316078 0.440753 0.002416
0.427169 0.461208 0.000941
0.544345 0.47473 0.000126
0.653397 0.493239 0.002416
0.753569 0.511843 0.006275
0.83702 0.527122 0.000628
0.917616 0.543655 0.001537
0.976219 0.544251 0.001883
1 0.551278 0.001255
0.999211 0.562297 0.004832
0.003294 0.532392 0.058667
0.001004 0.535373 0.061804
0.005208 0.529286 0.06491
0.004486 0.526525 0.080973
0.076643 0.526212 0.090823
0.219294 0.524863 0.09851
0.303467 0.540016 0.028518
0.413208 0.553506 0.000879
0.522008 0.568063 0.006337
0.631844 0.577851 0
0.728627 0.585883 0
0.825224 0.603985 0.002949
0.903655 0.615906 0.001067
0.977757 0.627137 0.001914
0.997113 0.638777 0.000753
0.998136 0.640014 0.000469
0.00251 0.632157 0.155137
0.000784 0.637804 0.160784
0.000377 0.635922 0.160282
0.00229 0.631122 0.172863
0.058886 0.631122 0.184973
0.228549 0.624471 0.192157
0.321694 0.625349 0.18902
0.411231 0.637867 0.104189
0.505474 0.648439 0.004141
0.614526 0.661177 0.004518
0.713255 0.667922 0
0.801851 0.667859 0.000188
0.89051 0.677459 0.003263
0.960282 0.690102 0.000502
0.999498 0.699326 0.000376
0.993725 0.7087 0
0.003138 0.717647 0.283137
0 0.724706 0.286275
0.001255 0.723608 0.28753
0.002824 0.718431 0.284235
0.170824 0.721569 0.301961
0.279215 0.710588 0.314509
0.362981 0.709333 0.320628
0.435608 0.716863 0.291294
0.510902 0.724235 0.230745
0.603921 0.729255 0.125647
0.697255 0.733333 0.001569
0.795294 0.740549 0
0.871686 0.73851 0.001255
0.946667 0.745098 0
0.999843 0.755294 0.005647
0.993012 0.757608 0.003106
0.028863 0.790117 0.417883
0.091232 0.788832 0.415121
0.15542 0.789835 0.419733
0.227828 0.784376 0.420643
0.295969 0.786698 0.426886
0.358588 0.779765 0.437804
0.422745 0.780361 0.441255
0.491859 0.777977 0.455937
0.541678 0.781992 0.411168
0.613898 0.788423 0.357804
0.691608 0.793098 0.282196
0.781835 0.791498 0.167467
0.865098 0.795043 0.008471
0.939263 0.789898 0.004016
0.99727 0.79818 0
0.998135 0.802314 0.000031
0.323294 0.841883 0.538039
0.335435 0.840377 0.540455
0.352628 0.840565 0.540863
0.382839 0.841255 0.540141
0.422714 0.838557 0.544879
0.462432 0.835765 0.550745
0.513976 0.836392 0.559028
0.559781 0.831812 0.566871
0.604361 0.832722 0.562761
0.653961 0.834667 0.529788
0.710902 0.835294 0.485177
0.782212 0.839749 0.421616
0.856031 0.83909 0.34607
0.931388 0.841318 0.219545
0.993317 0.83771 0.03542
0.997628 0.838276 0.150303
0.491294 0.881098 0.640157
0.497035 0.879467 0.639153
0.512157 0.880126 0.64229
0.527467 0.879028 0.642353
0.554165 0.87702 0.646588
0.579608 0.873725 0.648941
0.614871 0.874855 0.658541
0.648753 0.873851 0.664816
0.687718 0.87062 0.667043
0.720941 0.87153 0.656784
0.759529 0.872157 0.63247
0.801883 0.877835 0.594949
0.863435 0.876518 0.553537
0.919184 0.880973 0.493427
0.983278 0.879843 0.414902
0.996878 0.877973 0.315605
0.636863 0.912941 0.727059
0.6432 0.910933 0.728188
0.64891 0.913537 0.73029
0.658636 0.913223 0.734275
0.679624 0.914008 0.739168
0.696784 0.90949 0.735529
0.722322 0.907953 0.741522
0.742055 0.908235 0.748643
0.774682 0.905192 0.749082
0.795451 0.90447 0.754353
0.821804 0.910745 0.74353
0.846369 0.909522 0.726525
0.88593 0.91793 0.705317
0.922604 0.918275 0.674949
0.97211 0.922635 0.637459
0.997509 0.923322 0.584695
0.768313 0.948942 0.807608
0.768329 0.948879 0.807663
0.773944 0.946766 0.809382
0.785269 0.946639 0.812177
0.79576 0.946606 0.815427
0.799726 0.944988 0.807749
0.815205 0.948112 0.814933
0.833941 0.94565 0.819434
0.850673 0.94747 0.823687
0.867155 0.945183 0.831061
0.890031 0.948934 0.83509
0.900428 0.953594 0.824568
0.922154 0.956785 0.816664
0.940863 0.958985 0.802383
0.977463 0.969754 0.786061
1 0.972423 0.768344
0.111372 0.052549 0.064314
0.117961 0.055216 0.063843
0.126275 0.058196 0.068392
0.145255 0.057098 0.06902
0.169568 0.054902 0.064941
0.203922 0.05098 0.062745
0.247529 0.048157 0.067294
0.316078 0.028235 0.067451
0.39702 0 0.060549
0.491608 0.001255 0.052863
0.581177 0 0.04549
0.673725 0 0.030589
0.755294 0.002039 0.017098
0.836863 0 0
0.923451 0.001255 0
0.999726 0.041231 0.006989
0.110431 0.063216 0.068549
0.119592 0.063435 0.064063
0.129192 0.064941 0.066698
0.148392 0.062745 0.070274
0.173051 0.062557 0.069176
0.213333 0.059295 0.069647
0.258855 0.053208 0.067765
0.326902 0.032 0.061741
0.413992 0.001192 0.063749
0.510494 0.002228 0.05509
0.592 0.001883 0.044078
0.679435 0.000784 0.025506
0.764078 0.0016 0.005835
0.84593 0.001412 0.000188
0.927937 0.000094 0.000314
0.997366 0.09722 0.002497
0.116549 0.076706 0.069647
0.121286 0.076737 0.069365
0.136941 0.078306 0.06993
0.153004 0.073945 0.068769
0.181145 0.076486 0.068329
0.227451 0.074039 0.068392
0.283608 0.064126 0.06651
0.357804 0.048659 0.062055
0.438808 0.017726 0.05509
0.531357 0.001412 0.04869
0.617568 0.000941 0.036235
0.700549 0.001192 0.015373
0.780706 0.001381 0.000941
0.86058 0.003765 0.002887
0.932047 0.059827 0.002541
0.996613 0.158958 0.001398
0.12549 0.094902 0.072941
0.131639 0.094526 0.070494
0.138761 0.095498 0.077239
0.160471 0.099388 0.069584
0.199937 0.100925 0.061992
0.256157 0.104471 0.062902
0.324925 0.099231 0.056722
0.401725 0.091388 0.051765
0.488251 0.079655 0.044706
0.568534 0.060737 0.029804
0.650196 0.043921 0.009412
0.730353 0.042824 0.001694
0.803294 0.067671 0.001318
0.874416 0.111937 0
0.948392 0.168941 0.001883
0.99901 0.225897 0.002974
0.128471 0.134588 0.081569
0.131294 0.13807 0.07131
0.143121 0.134212 0.072471
0.165553 0.135278 0.073726
0.198902 0.149741 0.063404
0.266981 0.158117 0.059294
0.356832 0.168627 0.035451
0.455404 0.174933 0.013616
0.542055 0.171984 0.007718
0.626384 0.168251 0.002824
0.696157 0.170039 0.004235
0.764926 0.178824 0.001883
0.835734 0.196831 0.003075
0.896502 0.225977 0.004047
0.965427 0.259702 0.001255
0.999529 0.308099 0.000318
0.105882 0.206275 0.073725
0.117176 0.206588 0.077961
0.13851 0.203922 0.06651
0.163137 0.203922 0.071843
0.203137 0.209412 0.062745
0.261961 0.235294 0.040784
0.352157 0.248157 0.00251
0.469647 0.269647 0.00549
0.58447 0.290824 0.000941
0.674039 0.294745 0
0.741176 0.298039 0
0.801098 0.300549 0
0.867451 0.311686 0.000941
0.924079 0.328627 0.001569
0.980549 0.35702 0.001255
1 0.39127 0
0.00502 0.30902 0.072471
0.027796 0.305004 0.067106
0.084518 0.305098 0.07498
0.138729 0.305286 0.080502
0.193192 0.302933 0.081035
0.246902 0.322509 0.039843
0.345913 0.346196 0.003326
0.459608 0.360471 0.000188
0.571106 0.385631 0.001883
0.679467 0.407624 0.000816
0.775216 0.425882 0.000471
0.834322 0.426886 0.000251
0.897976 0.429992 0.003137
0.954165 0.43589 0.000376
0.997553 0.454117 0.00342
0.994853 0.475539 0.004988
0.001569 0.428235 0.06902
0.002981 0.424188 0.076235
0.001977 0.424878 0.08389
0.037647 0.422525 0.081819
0.158651 0.420612 0.095623
0.239686 0.426667 0.082981
0.325208 0.446432 0.01073
0.435827 0.466918 0.000816
0.553757 0.479059 0.002667
0.657977 0.495028 0.002761
0.755294 0.511373 0.000941
0.842416 0.52982 0
0.917647 0.541804 0.001004
0.973992 0.543216 0.002039
0.999812 0.547482 0.000251
0.998137 0.559159 0.00264
0.001569 0.541961 0.113411
0.001224 0.541365 0.120941
0 0.540894 0.124047
0.001412 0.53782 0.132173
0.104784 0.535874 0.141051
0.230902 0.532392 0.151373
0.314729 0.542337 0.110808
0.416376 0.55658 0.006024
0.527874 0.571482 0.000941
0.635671 0.582776 0.000941
0.734432 0.589333 0.000941
0.828831 0.605459 0.002698
0.907639 0.617349 0
0.976251 0.628957 0.000941
0.998494 0.636047 0.001537
0.996869 0.639823 0.004695
0.001883 0.642353 0.2
0.000722 0.640721 0.202478
0.004298 0.641788 0.210196
0.000471 0.636549 0.215938
0.10218 0.636204 0.227357
0.243137 0.63404 0.237177
0.336878 0.631749 0.23749
0.419138 0.642761 0.176722
0.512 0.655028 0.06331
0.615969 0.663059 0.000125
0.714823 0.670118 0
0.805741 0.669867 0.002259
0.89051 0.678118 0.002071
0.965428 0.689443 0.002447
1 0.700831 0.001004
0.998256 0.70899 0.002507
0.002353 0.72549 0.316078
0.002353 0.72549 0.320784
0.002353 0.72549 0.320784
0.040157 0.720941 0.330353
0.190588 0.722667 0.330981
0.300392 0.713725 0.350588
0.374745 0.715294 0.353882
0.446118 0.714666 0.33349
0.520314 0.725334 0.27953
0.606745 0.730667 0.195137
0.692549 0.739608 0.03451
0.797961 0.738196 0.00251
0.87749 0.737568 0.002981
0.953412 0.74651 0
0.999216 0.752157 0.001883
0.996102 0.76076 0
0.093961 0.789333 0.444863
0.134996 0.790431 0.437835
0.186792 0.788863 0.440251
0.247749 0.788675 0.450196
0.30811 0.787451 0.455435
0.374588 0.784784 0.457725
0.437114 0.783623 0.463592
0.496376 0.780047 0.475075
0.548235 0.784502 0.444549
0.617726 0.788423 0.390934
0.695059 0.792314 0.331765
0.78011 0.79542 0.225004
0.864502 0.797208 0.040439
0.944188 0.788078 0.000502
0.997082 0.796235 0.002698
0.999672 0.803603 0.043249
0.339765 0.841412 0.550588
0.344283 0.839467 0.551623
0.366839 0.842667 0.557584
0.397679 0.8416 0.554133
0.432377 0.83953 0.555733
0.470275 0.84 0.568784
0.515043 0.835765 0.572957
0.564769 0.831529 0.581741
0.607749 0.833098 0.577976
0.659514 0.834949 0.546133
0.717804 0.83702 0.506353
0.781114 0.839373 0.451639
0.855906 0.840784 0.380706
0.931075 0.838526 0.267388
0.991216 0.838808 0.118651
1 0.841363 0.214059
0.501176 0.878431 0.652078
0.506039 0.880784 0.649412
0.513914 0.879686 0.655529
0.535529 0.880816 0.655937
0.558714 0.876737 0.649443
0.582745 0.878118 0.661333
0.620016 0.872941 0.665443
0.65578 0.872439 0.67153
0.690698 0.871216 0.678432
0.72229 0.871686 0.669804
0.760471 0.874353 0.640627
0.808063 0.875921 0.611357
0.864157 0.878871 0.569569
0.919372 0.88113 0.517051
0.981459 0.881161 0.4336
0.997656 0.881082 0.345693
0.640471 0.911843 0.729412
0.64847 0.91338 0.732612
0.6544 0.9136 0.735906
0.664627 0.913317 0.740423
0.683671 0.911905 0.74218
0.702588 0.912314 0.742745
0.725396 0.90927 0.747106
0.744722 0.909396 0.749741
0.777224 0.906698 0.753035
0.798337 0.905819 0.758431
0.825569 0.906353 0.752627
0.849098 0.911153 0.731608
0.886714 0.917208 0.707796
0.922227 0.919969 0.687718
0.973239 0.922447 0.646557
0.997823 0.929372 0.591471
0.768313 0.948942 0.807608
0.768842 0.949392 0.808129
0.774305 0.948921 0.807782
0.784651 0.94571 0.812181
0.790216 0.94813 0.809561
0.806008 0.946612 0.81473
0.8141 0.948586 0.817568
0.829752 0.947382 0.821321
0.851769 0.947996 0.83043
0.869025 0.946267 0.83339
0.890024 0.948926 0.835082
0.90059 0.952852 0.826579
0.924118 0.955843 0.824182
0.942499 0.96336 0.805825
0.972185 0.967745 0.796329
0.999984 0.970886 0.771506
0.12 0.053333 0.081569
0.118431 0.051764 0.075294
0.132863 0.056471 0.073569
0.144157 0.059294 0.078902
0.173177 0.060706 0.08
0.214118 0.056471 0.083137
0.264157 0.036079 0.08298
0.324392 0.008628 0.078745
0.399216 0 0.079372
0.483138 0.002039 0.079373
0.571765 0.002353 0.070588
0.663059 0.000471 0.065412
0.747922 0 0.050824
0.832157 0.001412 0.031686
0.905412 0.002667 0.007059
0.997474 0.001577 0.001577
0.119373 0.06149 0.078274
0.12204 0.06171 0.077522
0.137537 0.062306 0.078023
0.147828 0.068079 0.076455
0.17851 0.066887 0.082792
0.22149 0.058196 0.083608
0.270776 0.046431 0.078024
0.333459 0.019953 0.079749
0.408251 0.001443 0.081381
0.498729 0.002447 0.077584
0.585569 0.002353 0.066824
0.673506 0.001381 0.064345
0.757584 0.002071 0.049161
0.837804 0.000502 0.02491
0.918557 0.003483 0.005678
0.999427 0.055492 0.006989
0.116706 0.074666 0.08
0.123388 0.072094 0.078212
0.140894 0.075137 0.087153
0.156957 0.07978 0.080251
0.185945 0.077584 0.083765
0.22698 0.075608 0.082667
0.283639 0.063875 0.086683
0.346416 0.051922 0.080502
0.431216 0.018792 0.076392
0.521255 0.001161 0.071059
0.61098 0.000941 0.074196
0.695216 0.000596 0.05393
0.774023 0.002039 0.039718
0.850353 0.002353 0.015247
0.929035 0.015875 0.003514
0.996591 0.138584 0
0.11749 0.097883 0.080314
0.127498 0.101302 0.085302
0.140455 0.101835 0.086243
0.161976 0.104471 0.084455
0.204769 0.098918 0.087812
0.25051 0.101804 0.087216
0.314698 0.099325 0.082949
0.389961 0.086243 0.079874
0.472816 0.070808 0.073412
0.560282 0.042447 0.065474
0.640941 0.018353 0.053333
0.721506 0.01644 0.038871
0.799655 0.030996 0.015906
0.870871 0.082541 0.001506
0.940517 0.147388 0
0.996204 0.214238 0.001873
0.130039 0.141647 0.090353
0.131765 0.143937 0.089789
0.144345 0.145286 0.093396
0.175969 0.149835 0.094902
0.20709 0.153224 0.083828
0.280941 0.161569 0.079529
0.367906 0.164894 0.066039
0.450698 0.163169 0.065255
0.534369 0.156424 0.052518
0.613333 0.15018 0.038839
0.687843 0.152941 0.02604
0.755733 0.159843 0.005176
0.827765 0.177882 0.000282
0.8944 0.210196 0.001255
0.963451 0.247592 0.000251
0.99624 0.293547 0.001406
0.105098 0.213333 0.104313
0.118431 0.217726 0.101176
0.134745 0.222902 0.097725
0.174118 0.221961 0.104941
0.210667 0.220862 0.104314
0.273725 0.241569 0.076079
0.369098 0.257883 0.048471
0.490196 0.272784 0.018667
0.597647 0.283294 0.001882
0.667921 0.281569 0.001255
0.737255 0.28 0
0.800627 0.283922 0.001255
0.858823 0.299608 0
0.922353 0.321098 0
0.980392 0.345882 0.002353
0.999961 0.380274 0
0.007529 0.32 0.117961
0.040345 0.322227 0.120094
0.086086 0.327059 0.116423
0.141584 0.32389 0.118651
