site/assets/luts/freshluts--0002336-retro-nigt.cube
# LUTr-Schema-Version: 2
# LUTr-ID: freshluts--0002336-retro-nigt
# LUTr-Title: retro nigt
# LUTr-Collection: Fresh LUTs
# LUTr-Collection-ID: freshluts-community
# LUTr-Source: https://freshluts.com
# LUTr-Retrieved: 2026-07-27
# LUTr-Source-File: submissions-raw/freshluts/cubes/2336__nigt_luminance_14.C0114.cube
# LUTr-Source-Format: CUBE
# LUTr-Source-SHA256: b6105f4eea875b7caed4156bfe8b74759ff268e35cfce06cd8074673ce82b75b
# LUTr-License: CC0-1.0
# LUTr-License-URL: https://freshluts.com/termsandconditions
# LUTr-License-Basis: site-terms
# LUTr-Transform-Class: creative-look
# LUTr-Tags: creative, freshluts, community, cube, high-contrast, cool, high-key, sony-s-log1, vintage
# LUTr-Input-Color-Space: sony-slog1-sgamut
# LUTr-Input-Gamut: sony-s-gamut
# LUTr-Input-Transfer: sony-s-log1
# LUTr-Output-Color-Space: srgb
# LUTr-Output-Gamut: rec709
# LUTr-Output-Transfer: srgb
# LUTr-Color-Space-Confidence: inferred-from-source-label
# LUTr-Domain-Normalized: true
# LUTr-Shaper: none
# LUTr-Original-Grid: 17x17x17
# LUTr-Conversion-Grid: 17x17x17
# LUTr-Conversion-Interpolation: none
# LUTr-Conversion-Method: Metadata normalization; numeric LUT samples preserved
# LUTr-Conversion-Tool: LUTr scripts/convert-all-to-cube.mjs 2.0.0
# LUTr-Conversion-Date: 2026-07-28
# LUTr-Asset-URL: https://freshluts.com/luts/2336
# LUTr-Author: abhijith t s
# LUTr-Author-URL: https://freshluts.com/users/267812
# LUTr-Attribution: abhijith t s via Fresh LUTs
# LUTr-Source-Labels: gamma=Sony S-Log; color=Cool; key=High Key; style=High contrast
# LUTr-Note: Preserve this metadata and the upstream license notices when redistributing.
TITLE "retro nigt"
LUT_3D_SIZE 17
DOMAIN_MIN 0 0 0
DOMAIN_MAX 1 1 1
0 0 0
0 0 0
0.0200809 0 0
0.0894179 0 0
0.163241 0 0
0.24918 0 0
0.340032 0 0
0.430838 0 0
0.522271 0 0
0.615991 0 0.00883497
0.712047 0 0.0270237
0.810483 0 0.0433967
0.912566 0 0.0558785
1 0 0.0666514
1 0 0.0813306
1 0 0.0976883
1 0 0.105257
0 0 0
0 0 0
0.00297551 0 0
0.0795758 0 0
0.165362 0 0
0.266361 0 0
0.372122 0 0
0.468956 0 0
0.558587 0 0
0.646677 0 0
0.73666 0 0
0.830869 0 0.012192
0.926192 0 0.0298924
1 0.0099031 0.0462043
1 0.0221256 0.0620127
1 0.0347448 0.0760357
1 0.0561532 0.0859541
0 0 0
0 0 0
0 0 0
0.0620584 0 0
0.151781 0 0
0.25304 0 0
0.359976 0 0
0.466178 0 0
0.572824 0.00184634 0
0.677699 0.00352483 0
0.779004 0.00799573 0
0.878813 0.0172122 0
0.972656 0.0290684 0
1 0.0422217 0.00181582
1 0.0590372 0.0209812
1 0.0762951 0.0355688
1 0.0962997 0.0486763
0 0.0119173 0
0 0.01738 0
0 0.0235599 0
0.0361334 0.0295567 0
0.131701 0.0337987 0
0.233967 0.0379492 0
0.345098 0.0413062 0
0.457145 0.044831 0
0.567742 0.0485542 0
0.678874 0.051667 0
0.79379 0.0553292 0
0.909972 0.0613565 0
1 0.0700084 0
1 0.0821851 0
1 0.0979171 0
1 0.11664 0
1 0.138064 0
0 0.0564889 0
0 0.0610208 0
0 0.0674296 0
0 0.0741894 0
0.106889 0.0800336 0
0.21387 0.0843519 0
0.329839 0.087602 0
0.446571 0.0913405 0
0.560174 0.095613 0
0.674327 0.0999008 0
0.793988 0.104875 0
0.915541 0.112001 0
1 0.121309 0
1 0.131716 0
1 0.143374 0
1 0.162341 0
1 0.190036 0
0 0.106218 0
0 0.111421 0
0 0.116396 0
0 0.123934 0
0.073518 0.131029 0
0.191867 0.137835 0
0.311131 0.141527 0
0.431174 0.143755 0
0.549996 0.146731 0
0.667796 0.151232 0
0.789853 0.15761 0
0.912734 0.166583 0
1 0.177493 0
1 0.18706 0
1 0.196841 0
1 0.215976 0
1 0.248905 0
0 0.160632 0
0 0.166949 0
0 0.17116 0
0 0.179736 0
0.0238041 0.188357 0
0.158755 0.196628 0
0.288304 0.202152 0
0.411933 0.204379 0
0.535088 0.204883 0
0.658579 0.206973 0
0.784161 0.212421 0
0.908354 0.220951 0
1 0.231815 0
1 0.242664 0
1 0.256046 0
1 0.277165 0
1 0.310353 0
0 0.219532 0
0 0.226368 0
0 0.229465 0
0 0.23769 0
0 0.249104 0
0.110796 0.257435 0
0.259525 0.265003 0
0.391562 0.268605 0
0.516747 0.269032 0
0.644755 0.268559 0
0.775448 0.269978 0
0.90219 0.276478 0
1 0.287648 0
1 0.301656 0
1 0.31899 0
1 0.34197 0
1 0.372198 0
0 0.281071 0
0 0.290227 0
0 0.291875 0
0 0.298802 0
0 0.312047 0
0.0527657 0.321752 0
0.217929 0.330205 0
0.367941 0.335897 0
0.497612 0.338598 0
0.62623 0.338735 0
0.76144 0.337667 0
0.892714 0.339651 0
1 0.348699 0
1 0.364324 0
1 0.382727 0
1 0.404517 0
1 0.431662 0
0 0.348211 0
0 0.360555 0
0 0.361563 0
0 0.366888 0
0 0.380148 0
0 0.392386 0
0.161013 0.400931 0
0.333318 0.407797 0
0.476066 0.413275 0
0.607034 0.415732 0
0.744488 0.415229 0
0.880476 0.414206 0
0.998398 0.417609 0
1 0.429114 0
1 0.445243 0
1 0.464057 0
1 0.489616 0
0 0.421576 0
0 0.434867 0
0 0.435874 0
0 0.439429 0
0 0.451118 0
0 0.466407 0
0.09131 0.474861 0
0.283452 0.480949 0
0.44831 0.487541 0
0.589456 0.492164 0
0.730144 0.493416 0
0.868009 0.493156 0
0.988479 0.492912 0
1 0.496559 0
1 0.506813 0
1 0.523156 0
1 0.548562 0
0 0.495308 0
0 0.507683 0
0 0.509194 0
0 0.511742 0
0 0.52163 0
0 0.538674 0
0.0281682 0.548363 0
0.23122 0.553826 0
0.418265 0.559655 0
0.575433 0.56611 0
0.722606 0.56965 0
0.856931 0.570031 0
0.975875 0.570565 0
1 0.570642 0
1 0.573404 0
1 0.585214 0
1 0.607614 0
0 0.564874 0
0 0.57641 0
0 0.579644 0
0 0.58201 0
0 0.591562 0
0 0.608408 0
0 0.620172 0
0.185458 0.625055 0
0.392416 0.628931 0
0.564797 0.635386 0
0.718807 0.640162 0
0.848798 0.640681 0
0.961547 0.641215 0
1 0.64213 0
1 0.64271 0
1 0.647562 0
1 0.66157 0
0 0.630381 0
0 0.640574 0
0 0.645853 0
0 0.648798 0
0 0.657511 0
0 0.67245 0
0 0.685924 0
0.140627 0.688624 0
0.372076 0.688441 0
0.554147 0.692378 0
0.711879 0.697398 0
0.844587 0.699153 0
0.951553 0.697276 0
1 0.698161 0
1 0.697734 0
1 0.700282 0
1 0.708721 0
0 0.687526 0
0 0.695415 0
0 0.701854 0
0 0.704463 0
0 0.712215 0
0 0.72491 0
0 0.73727 0
0.111482 0.73846 0
0.348714 0.736171 0
0.538109 0.738018 0
0.699367 0.741665 0
0.834974 0.743389 0
0.942641 0.741787 0
1 0.740688 0
1 0.74023 0
1 0.742412 0
1 0.749905 0
0 0.735729 0
0 0.741192 0
0 0.74725 0
0 0.749813 0
0 0.756451 0
0 0.767269 0
0 0.776471 0
0.0944076 0.776959 0
0.316442 0.773953 0
0.512612 0.773968 0
0.679118 0.776394 0
0.817655 0.779095 0
0.930816 0.779431 0
1 0.775799 0
1 0.774914 0
1 0.775677 0
1 0.782452 0
0 0.775967 0
0 0.779736 0
0 0.785046 0
0 0.788052 0
0 0.793683 0
0 0.801968 0
0 0.808194 0
0.0726329 0.807324 0
0.288457 0.802945 0
0.486336 0.80116 0
0.648371 0.802152 0
0.78851 0.804425 0
0.905287 0.806546 0
1 0.804303 0
1 0.802976 0
1 0.803647 0
1 0.8103 0
0 0 0.00994888
0 0 0.0169833
0.0299382 0 0.00923171
0.099855 0 0
0.169085 0 0
0.250324 0 0
0.339254 0 0
0.429877 0 0.00189212
0.520714 0 0.0214847
0.613596 0 0.0413519
0.710018 0 0.0608072
0.810178 0 0.0803082
0.913069 0 0.0936294
1 0 0.105592
1 0 0.118837
1 0 0.135012
1 0 0.142947
0 0 0
0 0 0
0.00109865 0 0
0.0927596 0 0
0.18764 0 0
0.288808 0 0
0.382757 0 0
0.471778 0 0.00180056
0.562356 0 0.0203098
0.656275 0 0.0372015
0.754299 0 0.0544137
0.856809 0 0.0709697
0.956954 0.00102235 0.0838941
1 0.0116579 0.0958267
1 0.0254673 0.108217
1 0.0368505 0.120851
1 0.0612955 0.132906
0 0 0
0 0 0
0 0 0
0.0656596 0 0
0.183413 0 0
0.305959 0 0
0.416251 0 0
0.51342 0 0
0.604288 0.00280766 0
0.69546 0.010605 0.000900282
0.790204 0.0205997 0.0220645
0.885008 0.0332189 0.0419013
0.975769 0.0474403 0.0597848
1 0.0614023 0.0751965
1 0.0780499 0.0907912
1 0.0937209 0.103731
1 0.114916 0.117403
0 0.0298619 0
0 0.032929 0
0 0.0352178 0
0.0204929 0.0376135 0
0.13463 0.0422065 0
0.266255 0.0446479 0
0.39884 0.044892 0
0.518059 0.0460975 0
0.628382 0.0484016 0
0.738231 0.0519722 0
0.844388 0.0585794 0
0.939406 0.068925 0
1 0.0825055 0.0071107
1 0.0978103 0.0282902
1 0.114809 0.0473335
1 0.133944 0.0639658
1 0.156176 0.0784466
0 0.0779736 0
0 0.0795453 0
0 0.0808118 0
0 0.0835584 0
0.0924086 0.0877089 0
0.213901 0.0922408 0
0.35169 0.0959487 0
0.490425 0.09897 0
0.619486 0.101442 0
0.744213 0.10428 0
0.865171 0.108522 0
0.973724 0.115389 0
1 0.125917 0
1 0.139254 0
1 0.15642 0
1 0.178622 0.00404364
1 0.203449 0.0254978
0 0.127169 0
0 0.130358 0
0 0.130709 0
0 0.13434 0
0.050248 0.138598 0
0.174105 0.145068 0
0.304952 0.149737 0
0.44419 0.153033 0
0.58616 0.15668 0
0.729091 0.1608 0
0.865064 0.16553 0
0.981292 0.172244 0
1 0.18117 0
1 0.190875 0
1 0.206607 0
1 0.234287 0
1 0.261601 0
0 0.180652 0
0 0.186053 0
0 0.185657 0
0 0.190234 0
0 0.196521 0
0.131685 0.203204 0
0.270588 0.20911 0
0.403815 0.21207 0
0.541054 0.214267 0
0.691279 0.21767 0
0.84332 0.223056 0
0.973877 0.231296 0
1 0.240833 0
1 0.251575 0
1 0.269139 0
1 0.298329 0
1 0.322377 0
0 0.238499 0
0 0.245274 0
0 0.244327 0
0 0.248295 0
0 0.257771 0
0.0792096 0.263981 0
0.235996 0.27097 0
0.374212 0.275303 0
0.504784 0.2766 0
0.646967 0.2766 0
0.801801 0.279881 0
0.948806 0.29015 0
1 0.30338 0
1 0.317494 0
1 0.336767 0
1 0.363485 0
1 0.382208 0
0 0.299977 0
0 0.308949 0
0 0.307698 0
0 0.310369 0
0 0.3205 0
0.0213169 0.328511 0
0.188464 0.336065 0
0.344228 0.342351 0
0.478874 0.345418 0
0.613138 0.344747 0
0.760754 0.34432 0
0.910445 0.350881 0
1 0.365927 0
1 0.383703 0
1 0.403693 0
1 0.427085 0
1 0.441474 0
0 0.366796 0
0 0.37818 0
0 0.377676 0
0 0.379385 0
0 0.388724 0
0 0.400015 0
0.124697 0.40795 0
0.302815 0.414267 0
0.453712 0.419654 0
0.590753 0.421485 0
0.733913 0.419806 0
0.877913 0.42002 0
1 0.428382 0
1 0.444999 0
1 0.465614 0
1 0.48867 0
1 0.500191 0
0 0.438514 0
0 0.450477 0
0 0.451575 0
0 0.452308 0
0 0.460472 0
0 0.475044 0
0.0525216 0.483314 0
0.249149 0.488426 0
0.424567 0.494133 0
0.572946 0.498695 0
0.718456 0.499367 0
0.858671 0.497887 0
0.983764 0.497963 0
1 0.505302 0
1 0.521813 0
1 0.546929 0
1 0.559838 0
0 0.509773 0
0 0.521096 0
0 0.524071 0
0 0.524193 0
0 0.531182 0
0 0.546151 0
0 0.556176 0
0.19443 0.560952 0
0.391882 0.565637 0
0.556756 0.572 0
0.709484 0.57557 0
0.846067 0.575082 0
0.968353 0.574365 0
1 0.57377 0
1 0.579782 0
1 0.600397 0
1 0.617639 0
0 0.577493 0
0 0.588296 0
0 0.593957 0
0 0.594141 0
0 0.601038 0
0 0.615228 0
0 0.626963 0
0.14786 0.631815 0
0.363027 0.635065 0
0.544167 0.640879 0
0.703761 0.645548 0
0.838376 0.646326 0
0.954757 0.646006 0
1 0.645975 0
1 0.646021 0
1 0.653239 0
1 0.668971 0
0 0.641581 0
0 0.651194 0
0 0.658473 0
0 0.659159 0
0 0.66566 0
0 0.678233 0
0 0.691585 0
0.10251 0.694713 0
0.340444 0.694057 0
0.534417 0.697307 0
0.697887 0.702358 0
0.835447 0.704112 0
0.945861 0.702129 0
1 0.702174 0
1 0.701564 0
1 0.704265 0
1 0.71397 0
0 0.696269 0
0 0.703777 0
0 0.71104 0
0 0.712367 0
0 0.718654 0
0 0.729778 0
0 0.741894 0
0.0784314 0.744152 0
0.319951 0.742061 0
0.523369 0.743358 0
0.689433 0.747036 0
0.827985 0.749172 0
0.937804 0.748165 0
1 0.746838 0
1 0.74612 0
1 0.747845 0
1 0.755993 0
0 0.742596 0
0 0.747616 0
0 0.753979 0
0 0.756573 0
0 0.762127 0
0 0.771496 0
0 0.780728 0
0.0657511 0.78201 0
0.295018 0.77908 0
0.504372 0.778561 0
0.673655 0.780911 0
0.812818 0.784115 0
0.926848 0.785061 0
1 0.78143 0
1 0.780545 0
1 0.781277 0
1 0.787808 0
0 0.78114 0
0 0.785504 0
0 0.791348 0
0 0.794308 0
0 0.798749 0
0 0.805951 0
0 0.811948 0
0.0495003 0.811505 0
0.2692 0.806729 0
0.479591 0.804273 0
0.645258 0.80531 0
0.78468 0.807874 0
0.900649 0.8103 0
0.997192 0.808362 0
1 0.806806 0
1 0.807446 0
1 0.814435 0
0 0 0.098909
0 0 0.109438
0.000854505 0 0.114931
0.0978561 0 0.113863
0.192142 0 0.100786
0.281529 0 0.0843214
0.364096 0 0.0721752
0.443687 0 0.0654459
0.524239 0 0.0675364
0.608637 0 0.0775464
0.697612 0 0.0931563
0.790936 0 0.112062
0.889036 0 0.127718
0.981643 0 0.137362
1 0 0.151598
1 0 0.166506
1 0 0.176837
0 0 0.0810559
0 0 0.081117
0 0 0.0823377
0.0789349 0 0.0823224
0.192142 0 0.0610208
0.297169 0 0.0403754
0.387396 0 0.036286
0.471336 0 0.0439002
0.558755 0 0.0573739
0.649927 0 0.0725872
0.747021 0 0.0895094
0.849653 0 0.10695
0.949447 0 0.12166
1 0 0.134356
1 0.0135958 0.145708
1 0.0254368 0.15845
1 0.0491493 0.170428
0 0 0.0648051
0 0 0.0632944
0 0 0.0631266
0.0444343 0 0.0559396
0.159472 0 0.0409705
0.265736 0 0.0319829
0.370138 0.00415045 0.0352178
0.474067 0.00946059 0.0442054
0.578241 0.0146639 0.0559243
0.687633 0.0201267 0.069688
0.799252 0.0271611 0.0850538
0.903044 0.0366064 0.100252
0.996551 0.0490578 0.113313
1 0.0620279 0.125154
1 0.0771344 0.137026
1 0.0956283 0.150988
1 0.122362 0.169284
0 0.0479133 0.0517739
0 0.0509804 0.0477455
0 0.0491493 0.0458228
0 0.0467842 0.0429084
0.113924 0.0486305 0.030396
0.249104 0.0523079 0.0181277
0.380545 0.0545968 0.0128328
0.502892 0.0556497 0.0138094
0.6177 0.0574502 0.0213169
0.730831 0.0621653 0.034699
0.839704 0.0708629 0.0518654
0.937133 0.0831006 0.070573
1 0.0973678 0.0877852
1 0.11281 0.103319
1 0.130297 0.118364
1 0.150637 0.132784
1 0.178744 0.153292
0 0.0989548 0.0372473
0 0.100725 0.0308843
0 0.0979477 0.0268864
0 0.0961318 0.0252995
0.0621195 0.0955062 0.0234531
0.195514 0.100191 0.0166171
0.34023 0.104906 0.0030518
0.484092 0.107454 0
0.623896 0.108522 0
0.764385 0.109438 0
0.892287 0.113161 0
0.992096 0.122515 0.00448615
1 0.136629 0.0282444
1 0.153002 0.0513466
1 0.171359 0.0716869
1 0.193698 0.0915999
1 0.22356 0.117372
0 0.149554 0.0258335
0 0.152255 0.018265
0 0.148943 0.0112612
0 0.14786 0.00820935
0.0124971 0.147372 0.00932326
0.143252 0.151934 0.0104372
0.282353 0.157549 0.0047303
0.431235 0.161929 0
0.58436 0.165621 0
0.73962 0.169131 0
0.888914 0.172137 0
1 0.17612 0
1 0.18468 0
1 0.199161 0
1 0.220539 0.0111086
1 0.246342 0.0356603
1 0.276646 0.068452
0 0.203723 0.0158083
0 0.208362 0.00965896
0 0.205493 0.00196841
0 0.204578 0
0 0.206943 0
0.0913558 0.209857 0
0.237568 0.215549 0
0.378943 0.220203 0
0.526421 0.224186 0
0.686763 0.228779 0
0.849882 0.233082 0
0.993896 0.23743 0
1 0.244968 0
1 0.259586 0
1 0.284367 0
1 0.308568 0
1 0.334783 0.0231479
0 0.261509 0.00698863
0 0.267399 0.00202945
0 0.265583 0
0 0.263264 0
0 0.267826 0
0.0347601 0.271397 0
0.194217 0.277241 0
0.341085 0.282673 0
0.480385 0.285679 0
0.631083 0.287358 0
0.796338 0.291417 0
0.953933 0.300069 0
1 0.311894 0
1 0.328237 0
1 0.352987 0
1 0.373419 0
1 0.393866 0
0 0.323186 0
0 0.330953 0
0 0.330663 0
0 0.326558 0
0 0.330678 0
0 0.336385 0
0.141329 0.342336 0
0.304997 0.348669 0
0.448173 0.353124 0
0.588449 0.353994 0
0.744076 0.354833 0
0.904555 0.362097 0
1 0.377295 0
1 0.395132 0
1 0.416464 0
1 0.436469 0
1 0.452918 0
0 0.390555 0
0 0.400366 0
0 0.401801 0
0 0.396643 0
0 0.399481 0
0 0.408072 0
0.0749676 0.414542 0
0.256535 0.420905 0
0.417685 0.427482 0
0.561227 0.431159 0
0.709651 0.430381 0
0.861982 0.431281 0
1 0.44097 0
1 0.457267 0
1 0.476387 0
1 0.499321 0
1 0.512078 0
0 0.461006 0
0 0.470909 0
0 0.474235 0
0 0.469306 0
0 0.471962 0
0 0.482948 0
0 0.491096 0
0.193713 0.496239 0
0.382483 0.501747 0
0.540597 0.50782 0
0.693797 0.510079 0
0.837964 0.507942 0
0.968307 0.50808 0
1 0.516075 0
1 0.532753 0
1 0.559243 0
1 0.570886 0
0 0.528527 0
0 0.537499 0
0 0.542962 0
0 0.539788 0
0 0.543053 0
0 0.554391 0
0 0.565255 0
0.132342 0.569635 0
0.344625 0.572869 0
0.522576 0.579156 0
0.684276 0.583871 0
0.825025 0.583856 0
0.951019 0.581476 0
1 0.579904 0
1 0.588144 0
1 0.61117 0
1 0.627039 0
0 0.592493 0
0 0.601846 0
0 0.609293 0
0 0.608438 0
0 0.612833 0
0 0.623728 0
0 0.635416 0
0.0885023 0.640024 0
0.312596 0.641962 0
0.508919 0.646693 0
0.677455 0.652399 0
0.818784 0.654643 0
0.939254 0.652598 0
1 0.650568 0
1 0.650034 0
1 0.659327 0
1 0.676799 0
0 0.654108 0
0 0.662791 0
0 0.670207 0
0 0.671427 0
0 0.676341 0
0 0.68603 0
0 0.69836 0
0.0499123 0.701976 0
0.290944 0.701015 0
0.502464 0.703319 0
0.672648 0.70837 0
0.816464 0.710674 0
0.933059 0.708812 0
1 0.707301 0
1 0.705653 0
1 0.708858 0
1 0.720577 0
0 0.706996 0
0 0.713161 0
0 0.719951 0
0 0.722316 0
0 0.727535 0
0 0.736339 0
0 0.747417 0
0.0334325 0.750393 0
0.274525 0.748241 0
0.494697 0.748516 0
0.667323 0.751553 0
0.812238 0.75375 0
0.928679 0.753536 0
1 0.751476 0
1 0.750408 0
1 0.752102 0
1 0.761578 0
0 0.750561 0
0 0.755108 0
0 0.760342 0
0 0.764202 0
0 0.769543 0
0 0.777325 0
0 0.786145 0
0.0281376 0.78822 0
0.258549 0.784939 0
0.482963 0.783368 0
0.65861 0.785275 0
0.801328 0.788556 0
0.918654 0.790082 0
1 0.786648 0
1 0.785687 0
1 0.786221 0
1 0.793545 0
0 0.787732 0
0 0.791943 0
0 0.797391 0
0 0.801038 0
0 0.805219 0
0 0.811337 0
0 0.816892 0
0.0201267 0.817594 0
0.240192 0.812604 0
0.464775 0.808835 0
0.636759 0.809461 0
0.776455 0.812192 0
0.892012 0.815045 0
0.989425 0.813794 0
1 0.812634 0
1 0.813397 0
1 0.820447 0
0 0 0.176852
0 0 0.194232
0 0 0.204318
0.0670329 0 0.216098
0.175601 0 0.225895
0.291051 0 0.221118
0.392172 0 0.203555
0.473503 0 0.181094
0.547982 0 0.164233
0.624369 0 0.155306
0.705333 0 0.154955
0.793271 0 0.162799
0.887266 0 0.171008
0.977218 0 0.178058
1 0 0.191196
1 0 0.206699
1 0 0.216861
0 0 0.16936
0 0 0.170306
0 0 0.173373
0.0267491 0 0.18352
0.148501 0 0.188449
0.286976 0 0.178546
0.402564 0 0.156939
0.490883 0 0.136172
0.57055 0 0.125093
0.652354 0 0.125353
0.740383 0 0.133898
0.835142 0 0.145556
0.929778 0 0.157198
1 0 0.168811
1 0 0.180621
1 0.00976577 0.193469
