site/assets/luts/freshluts--0000943-picturefx-kodachrome-1961-25-asa-xprd-exposure-to-taste.cube
# LUTr-Schema-Version: 2
# LUTr-ID: freshluts--0000943-picturefx-kodachrome-1961-25-asa-xprd-exposure-to-taste
# LUTr-Title: PictureFX-Kodachrome-1961-25-ASA-XPRD (exposure to taste)
# LUTr-Collection: Fresh LUTs
# LUTr-Collection-ID: freshluts-community
# LUTr-Source: https://freshluts.com
# LUTr-Retrieved: 2026-07-27
# LUTr-Source-File: submissions-raw/freshluts/cubes/943__PictureFX-Kodachrome-1961-25-ASA-XPRD-3D25.cube
# LUTr-Source-Format: CUBE
# LUTr-Source-SHA256: 8aa460986d2f6ef0b678bcc23c892aec8c56d470cb19792014054679b1d87fa2
# LUTr-License: CC0-1.0
# LUTr-License-URL: https://freshluts.com/termsandconditions
# LUTr-License-Basis: site-terms
# LUTr-Transform-Class: creative-look
# LUTr-Tags: creative, freshluts, community, cube, film-emulation, rec709, assumed-input
# LUTr-Input-Color-Space: rec709
# LUTr-Input-Gamut: rec709
# LUTr-Input-Transfer: rec709
# LUTr-Output-Color-Space: srgb
# LUTr-Output-Gamut: rec709
# LUTr-Output-Transfer: srgb
# LUTr-Color-Space-Confidence: assumed-display-referred
# LUTr-Domain-Normalized: true
# LUTr-Shaper: none
# LUTr-Original-Grid: 25x25x25
# LUTr-Conversion-Grid: 25x25x25
# LUTr-Conversion-Interpolation: none
# LUTr-Conversion-Method: Metadata normalization; numeric LUT samples preserved
# LUTr-Conversion-Tool: LUTr scripts/convert-all-to-cube.mjs 2.0.0
# LUTr-Conversion-Date: 2026-07-28
# LUTr-Asset-URL: https://freshluts.com/luts/943
# LUTr-Author: MarcR.
# LUTr-Author-URL: https://freshluts.com/users/86490
# LUTr-Attribution: MarcR. via Fresh LUTs
# LUTr-Source-Labels: gamma=Other; color=None; key=Neutral; style=Film emulation; LUTr assumption=input Rec.709 per repository policy
# LUTr-Conversion-Warning: Input Rec.709 is a LUTr catalog assumption requested for this otherwise unspecified Fresh LUT; it is not verified by the upstream asset.
# LUTr-Note: Preserve this metadata and the upstream license notices when redistributing.
# LUTr-Upstream-Comment: Generated with IWLTBAP LUT Generator
# LUTr-Upstream-Comment: Website: http://luts.iwltbap.com
# LUTr-Upstream-Comment: LUT size
# LUTr-Upstream-Comment: LUT data points
TITLE "PictureFX-Kodachrome-1961-25-ASA-XPRD (exposure to taste)"
LUT_3D_SIZE 5
DOMAIN_MIN 0 0 0
DOMAIN_MAX 1 1 1
0 0 0
0.164706 0 0
0.423529 0 0
1 0 0
1 0 0
0 0.160784 0
0.172549 0.172549 0
0.545098 0.25098 0
1 0.262745 0
1 0.258824 0
0 0.690196 0
0.262745 0.694118 0
0.678431 0.701961 0
1 0.694118 0
1 0.666667 0
0 1 0
0.235294 1 0
0.564706 1 0
0.972549 0.988235 0
1 0.937255 0
0 1 0
0.2 1 0
0.513725 1 0
0.827451 1 0
1 1 0
0 0 0.176471
0.164706 0 0.164706
0.454902 0 0.207843
1 0 0.262745
1 0 0.258824
0 0.164706 0.164706
0.176471 0.176471 0.176471
0.572549 0.231373 0.231373
1 0.262745 0.262745
1 0.258824 0.258824
0 0.698039 0.262745
0.262745 0.701961 0.262745
0.682353 0.701961 0.258824
1 0.678431 0.254902
1 0.647059 0.247059
0 1 0.235294
0.235294 1 0.231373
0.556863 1 0.231373
0.976471 0.988235 0.215686
1 0.933333 0.207843
0 1 0.2
0.2 1 0.2
0.52549 1 0.196078
0.831373 1 0.188235
1 1 0.176471
0 0 0.454902
0.176471 0 0.462745
0.6 0 0.635294
1 0 0.74902
1 0 0.717647
0 0.196078 0.533333
0.196078 0.196078 0.560784
0.670588 0.25098 0.701961
1 0.262745 0.737255
1 0.258824 0.709804
0 0.709804 0.74902
0.262745 0.709804 0.74902
0.678431 0.701961 0.745098
1 0.662745 0.717647
1 0.643137 0.698039
0 1 0.666667
0.231373 1 0.666667
0.545098 1 0.658824
0.964706 0.980392 0.623529
1 0.929412 0.607843
0 1 0.627451
0.2 1 0.627451
0.533333 1 0.619608
0.815686 1 0.6
1 1 0.580392
0 0 0.992157
0.219608 0 1
0.666667 0 1
1 0 1
1 0 1
0 0.235294 1
0.243137 0.243137 1
0.67451 0.262745 1
1 0.258824 1
1 0.254902 1
0 0.694118 1
0.258824 0.694118 1
0.647059 0.690196 1
1 0.658824 1
1 0.643137 1
0 1 1
0.227451 1 1
0.501961 1 1
0.929412 0.968627 1
1 0.917647 0.996078
0 1 0.960784
0.196078 1 0.960784
0.572549 1 0.952941
0.815686 1 0.929412
0.988235 1 0.898039
0 0 1
0.333333 0 1
0.729412 0 1
1 0 1
1 0 1
0 0.254902 1
0.309804 0.258824 1
0.721569 0.262745 1
1 0.258824 1
1 0.254902 1
0 0.694118 1
0.258824 0.694118 1
0.678431 0.690196 1
1 0.67451 1
1 0.662745 1
0 1 1
0.231373 1 1
0.615686 0.992157 1
0.917647 0.960784 1
1 0.921569 1
0.141176 1 1
0.352941 1 1
0.619608 1 1
0.839216 1 1
0.976471 1 1
