site/assets/luts/freshluts--0000281-flog-to-eterna-color.cube
# LUTr-Schema-Version: 2
# LUTr-ID: freshluts--0000281-flog-to-eterna-color
# LUTr-Title: Flog to Eterna color
# LUTr-Collection: Fresh LUTs
# LUTr-Collection-ID: freshluts-community
# LUTr-Source: https://freshluts.com
# LUTr-Retrieved: 2026-07-27
# LUTr-Source-File: submissions-raw/freshluts/cubes/281__Flog_to_Eterna_Color.cube
# LUTr-Source-Format: CUBE
# LUTr-Source-SHA256: 83ee52c4080e1f089a5f6d0113357de9379fbd140c1b18b2481416c27dfb3fe1
# LUTr-License: CC0-1.0
# LUTr-License-URL: https://freshluts.com/termsandconditions
# LUTr-License-Basis: site-terms
# LUTr-Transform-Class: creative-look
# LUTr-Tags: creative, freshluts, community, cube, film-emulation
# LUTr-Input-Color-Space:
# LUTr-Input-Gamut: unspecified
# LUTr-Input-Transfer: unspecified
# LUTr-Output-Color-Space: srgb
# LUTr-Output-Gamut: rec709
# LUTr-Output-Transfer: srgb
# LUTr-Color-Space-Confidence: camera-profile-input-required
# LUTr-Domain-Normalized: true
# LUTr-Shaper: none
# LUTr-Original-Grid: 16x16x16
# LUTr-Conversion-Grid: 16x16x16
# LUTr-Conversion-Interpolation: none
# LUTr-Conversion-Method: Metadata normalization; numeric LUT samples preserved
# LUTr-Conversion-Tool: LUTr scripts/convert-all-to-cube.mjs 2.0.0
# LUTr-Conversion-Date: 2026-07-28
# LUTr-Asset-URL: https://freshluts.com/luts/281
# LUTr-Author: Andy
# LUTr-Author-URL: https://freshluts.com/users/1003
# LUTr-Attribution: Andy via Fresh LUTs
# LUTr-Source-Labels: gamma=Other; color=None; key=Neutral; style=Film emulation
# LUTr-Note: Preserve this metadata and the upstream license notices when redistributing.
TITLE "Flog to Eterna color"
LUT_3D_SIZE 6
DOMAIN_MIN 0 0 0
DOMAIN_MAX 1 1 1
0.007876 0.007876 0.007876
0.215987 0.011559 0.018184
0.688756 0.019046 0.083758
0.982378 0.027155 0.134255
0.982378 0.027155 0.134255
0.982378 0.027155 0.134255
0 0.098328 0.000034
0.120307 0.092327 0.003548
0.452993 0.016871 0.043322
0.893813 0.024164 0.11909
0.982378 0.027155 0.134255
0.982378 0.027155 0.134255
0 0.300551 0.000105
0 0.333537 0.000116
0.368126 0.302619 0
0.805912 0.240163 0.048346
0.983603 0.027155 0.134254
0.983141 0.027155 0.134255
0 0.655778 0.000229
0 0.72055 0.000251
0.163802 0.69446 0.000142
0.738898 0.670375 0
0.984824 0.537872 0.000012
0.998175 0.329869 0.056853
0 0.947733 0.00033
0 0.982318 0.000343
0 0.97515 0.00034
0.615027 0.967915 0
0.932263 0.924248 0
0.956574 0.768145 0
0 0.984192 0.000343
0 0.984192 0.000343
0 0.984808 0.000343
0.280025 0.993335 0.000176
0.76543 0.999938 0
0.916064 0.995733 0
0.008982 0.011567 0.161236
0.20142 0.010594 0.108815
0.632989 0.018256 0.074061
0.982378 0.027155 0.134255
0.982378 0.027155 0.134255
0.982378 0.027155 0.134255
0.000056 0.094506 0.1603
0.099313 0.10012 0.129855
0.430062 0.026978 0.04338
0.866166 0.023376 0.114519
0.982378 0.027155 0.134255
0.982378 0.027155 0.134255
0 0.316544 0.161701
0 0.354134 0.127876
0.359874 0.324625 0.091917
0.800999 0.265662 0.037647
0.983885 0.027155 0.134254
0.98317 0.027155 0.134255
0 0.677655 0.140286
0 0.73705 0.03091
0.125997 0.71372 0.015475
0.725924 0.693259 0
0.982029 0.564858 0
0.998368 0.35249 0.046514
0 0.948051 0.053628
0 0.978028 0.000341
0 0.973116 0.000339
0.587646 0.97355 0.000003
0.928923 0.935158 0
0.953507 0.788848 0
0 0.978572 0.000341
0 0.980345 0.000342
0 0.981205 0.000342
0.266887 0.988798 0.000183
0.733872 0.99994 0
0.91524 0.99908 0
0.011529 0.036188 0.519665
0.146122 0.017851 0.423409
0.60342 0.015031 0.316019
0.982378 0.027155 0.134255
0.982378 0.027155 0.134255
0.982378 0.027155 0.134255
0.00163 0.069427 0.504295
0.008643 0.088299 0.40999
0.419886 0.026203 0.368635
0.855266 0.021804 0.21117
0.982378 0.027155 0.134255
0.982378 0.027155 0.134255
0.00017 0.323874 0.513753
0.000117 0.366772 0.456339
0.343695 0.338371 0.42435
0.81209 0.277349 0.362839
0.98411 0.030133 0.133708
0.983296 0.027155 0.134254
0.000042 0.682373 0.558176
0.000004 0.737844 0.51142
0.003549 0.718641 0.48523
0.733233 0.699692 0.443901
0.984324 0.590813 0.127556
0.998309 0.371582 0.03595
0 0.934462 0.569934
0 0.965865 0.507374
0 0.961739 0.480541
0.583832 0.96392 0.453046
0.937382 0.934722 0.199159
0.950895 0.806877 0
0 0.970991 0.427589
0 0.973292 0.313282
0 0.974005 0.271918
0.116764 0.982008 0.304231
0.733801 0.997817 0.307728
0.915138 0.999925 0
0.000525 0.116196 0.955908
0.005276 0.08613 0.843075
0.56668 0.010465 0.765325
0.999726 0.020834 0.552341
0.982378 0.027155 0.134255
0.982378 0.027155 0.134255
0.001674 0.101403 0.903465
0.005927 0.08038 0.809758
0.370302 0.02652 0.755086
0.870305 0.015922 0.705515
0.986036 0.025859 0.209603
0.982378 0.027155 0.134255
0.000385 0.313679 0.864657
0.000326 0.367177 0.804961
0.21473 0.344674 0.785241
0.812026 0.27852 0.791362
1 0.088552 0.558773
0.983228 0.027155 0.134255
0.000232 0.663865 0.860372
0.000183 0.720528 0.818457
0.00017 0.708758 0.789204
0.700562 0.692569 0.807973
0.999992 0.614414 0.720997
0.999863 0.456792 0.384613
0.000117 0.900385 0.838091
0.000072 0.940139 0.791886
0.000061 0.938541 0.77238
0.470332 0.940324 0.786499
0.948891 0.916952 0.74569
0.981694 0.813148 0.537003
0.000026 0.96417 0.733016
0 0.965983 0.655816
0 0.966619 0.630387
0 0.97052 0.611109
0.731099 0.991409 0.687121
0.948561 0.999083 0.439784
0.000539 0.125242 0.984561
0.000526 0.11679 0.957737
0.437988 0.077238 0.972688
0.975488 0.014922 0.987075
0.999597 0.02132 0.528523
0.993785 0.023546 0.356766
0.000531 0.145451 0.985835
0.000531 0.145451 0.985835
0.018961 0.131993 0.987596
0.828829 0.011513 0.999759
1 0.017689 0.799575
0.999435 0.02178 0.49196
0.000509 0.188887 0.980174
0.000466 0.272532 0.968824
0.000459 0.286135 0.966938
0.713396 0.247061 0.999911
1 0.01855 0.978272
1 0.019093 0.678527
0.000332 0.530751 0.930541
0.000285 0.622695 0.918778
0.00028 0.632458 0.917874
0.485103 0.64151 0.972265
0.999442 0.559355 0.997553
1 0.487762 0.796347
0.000194 0.802853 0.896191
0.000164 0.86315 0.889523
0.000162 0.86719 0.88918
0.007948 0.873298 0.90201
0.869701 0.868411 0.986524
0.999998 0.820034 0.879775
0.000119 0.958671 0.88377
0.000118 0.960276 0.882679
0.000116 0.960382 0.879282
0.000109 0.960702 0.867592
0.581517 0.980691 0.896751
0.987088 0.996375 0.894027
0.000539 0.128222 1.108788
0.000531 0.11994 1.086299
0.397015 0.086456 1.09897
0.959056 0.014739 1.12096
1 0.019841 0.704535
1 0.02175 0.553216
0.000531 0.145451 1.106325
0.000531 0.145451 1.106325
0.000532 0.142941 1.106614
0.793526 0.013952 1.121977
1 0.016432 1.044874
1 0.019135 0.781891
0.000507 0.190848 1.099733
0.00048 0.243656 1.091677
0.000484 0.237161 1.092676
0.585359 0.220051 1.122191
1 0.014589 1.121835
1 0.017026 0.968656
0.000363 0.470185 1.054914
0.000321 0.550616 1.04068
0.00032 0.551422 1.040626
0.197217 0.567139 1.081235
0.966692 0.532802 1.122062
1 0.445322 1.031963
0.00022 0.751073 1.012743
0.000194 0.803083 1.00575
0.000191 0.808294 1.004909
0.000188 0.815235 1.004
0.793596 0.829379 1.102749
1 0.797107 1.0712
0.000119 0.960025 0.992425
0.000119 0.96021 0.99281
0.000119 0.960209 0.99281
0.000119 0.960131 0.992809
0.439331 0.975046 1.043275
0.998556 0.99078 1.117929
