site/assets/luts/freshluts--0002277-picturefx-lac-du-connemara.cube
# LUTr-Schema-Version: 2
# LUTr-ID: freshluts--0002277-picturefx-lac-du-connemara
# LUTr-Title: PictureFX Lac du Connemara
# LUTr-Collection: Fresh LUTs
# LUTr-Collection-ID: freshluts-community
# LUTr-Source: https://freshluts.com
# LUTr-Retrieved: 2026-07-27
# LUTr-Source-File: submissions-raw/freshluts/cubes/2277__PictureFX-Lac-du-Connemara.cube
# LUTr-Source-Format: CUBE
# LUTr-Source-SHA256: e402155d753ef647fefee141136a681e18b38a3101062120c11208d7e8cc8bb3
# LUTr-License: CC0-1.0
# LUTr-License-URL: https://freshluts.com/termsandconditions
# LUTr-License-Basis: site-terms
# LUTr-Transform-Class: creative-look
# LUTr-Tags: creative, freshluts, community, cube, warm
# LUTr-Input-Color-Space:
# LUTr-Input-Gamut: unspecified
# LUTr-Input-Transfer: unspecified
# LUTr-Output-Color-Space: srgb
# LUTr-Output-Gamut: rec709
# LUTr-Output-Transfer: srgb
# LUTr-Color-Space-Confidence: camera-profile-input-required
# LUTr-Domain-Normalized: true
# LUTr-Shaper: none
# LUTr-Original-Grid: 25x25x25
# LUTr-Conversion-Grid: 25x25x25
# LUTr-Conversion-Interpolation: none
# LUTr-Conversion-Method: Metadata normalization; numeric LUT samples preserved
# LUTr-Conversion-Tool: LUTr scripts/convert-all-to-cube.mjs 2.0.0
# LUTr-Conversion-Date: 2026-07-28
# LUTr-Asset-URL: https://freshluts.com/luts/2277
# LUTr-Author: MarcR.
# LUTr-Author-URL: https://freshluts.com/users/86490
# LUTr-Attribution: MarcR. via Fresh LUTs
# LUTr-Source-Labels: gamma=Other; color=Warm; key=Neutral; style=NEUTRAL
# LUTr-Note: Preserve this metadata and the upstream license notices when redistributing.
# LUTr-Upstream-Comment: Generated with IWLTBAP LUT Generator
# LUTr-Upstream-Comment: Website: http://luts.iwltbap.com
# LUTr-Upstream-Comment: LUT size
# LUTr-Upstream-Comment: LUT data points
TITLE "PictureFX Lac du Connemara"
LUT_3D_SIZE 25
DOMAIN_MIN 0 0 0
DOMAIN_MAX 1 1 1
0.011765 0.011765 0.011765
0.039216 0.011765 0.015686
0.066667 0.011765 0.019608
0.090196 0.015686 0.019608
0.121569 0.015686 0.023529
0.156863 0.015686 0.027451
0.196078 0.019608 0.027451
0.243137 0.019608 0.031373
0.290196 0.019608 0.031373
0.341176 0.011765 0.023529
0.396078 0 0.027451
0.443137 0 0.031373
0.482353 0 0.031373
0.521569 0 0.035294
0.552941 0 0.039216
0.584314 0 0.043137
0.607843 0 0.047059
0.635294 0 0.05098
0.658824 0 0.054902
0.682353 0 0.054902
0.694118 0 0.062745
0.694118 0 0.066667
0.694118 0 0.070588
0.694118 0 0.07451
0.698039 0 0.082353
0.015686 0.039216 0.015686
0.043137 0.039216 0.015686
0.066667 0.039216 0.015686
0.090196 0.039216 0.019608
0.121569 0.039216 0.019608
0.156863 0.039216 0.023529
0.196078 0.039216 0.027451
0.243137 0.035294 0.027451
0.290196 0.027451 0.027451
0.341176 0.015686 0.023529
0.392157 0 0.023529
0.439216 0 0.027451
0.482353 0 0.031373
0.517647 0 0.035294
0.552941 0 0.039216
0.580392 0 0.039216
0.607843 0 0.043137
0.631373 0 0.047059
0.654902 0 0.05098
0.678431 0 0.054902
0.690196 0 0.058824
0.690196 0 0.062745
0.694118 0 0.070588
0.694118 0 0.07451
0.694118 0 0.082353
0.023529 0.062745 0.015686
0.047059 0.062745 0.015686
0.070588 0.062745 0.015686
0.094118 0.062745 0.015686
0.12549 0.066667 0.015686
0.156863 0.066667 0.019608
0.2 0.066667 0.023529
0.247059 0.062745 0.023529
0.298039 0.058824 0.019608
0.34902 0.047059 0.019608
0.4 0.027451 0.023529
0.447059 0.015686 0.023529
0.486275 0.011765 0.027451
0.517647 0.003922 0.031373
0.54902 0 0.035294
0.576471 0 0.039216
0.603922 0 0.043137
0.627451 0 0.047059
0.65098 0 0.05098
0.67451 0 0.054902
0.686275 0 0.058824
0.686275 0 0.062745
0.690196 0 0.066667
0.690196 0 0.070588
0.690196 0 0.078431
0.031373 0.086275 0.015686
0.05098 0.086275 0.019608
0.070588 0.086275 0.019608
0.094118 0.090196 0.019608
0.129412 0.090196 0.019608
0.160784 0.090196 0.015686
0.203922 0.090196 0.015686
0.25098 0.090196 0.019608
0.301961 0.090196 0.015686
0.352941 0.078431 0.015686
0.407843 0.058824 0.019608
0.454902 0.043137 0.023529
0.494118 0.035294 0.023529
0.529412 0.031373 0.027451
0.560784 0.023529 0.031373
0.588235 0.015686 0.035294
0.611765 0.003922 0.039216
0.635294 0 0.043137
0.658824 0 0.047059
0.678431 0 0.05098
0.686275 0 0.054902
0.686275 0 0.058824
0.686275 0 0.066667
0.686275 0 0.070588
0.686275 0 0.07451
0.035294 0.113725 0.019608
0.054902 0.113725 0.019608
0.07451 0.113725 0.019608
0.098039 0.117647 0.019608
0.133333 0.117647 0.019608
0.164706 0.117647 0.015686
0.207843 0.121569 0.015686
0.254902 0.121569 0.011765
0.305882 0.117647 0.003922
0.360784 0.113725 0.007843
0.415686 0.101961 0.011765
0.462745 0.070588 0.015686
0.501961 0.058824 0.019608
0.537255 0.054902 0.023529
0.568627 0.047059 0.027451
0.596078 0.039216 0.031373
0.619608 0.027451 0.035294
0.647059 0.011765 0.039216
0.666667 0 0.043137
0.686275 0 0.047059
0.698039 0 0.05098
0.694118 0 0.054902
0.694118 0 0.062745
0.690196 0 0.066667
0.686275 0 0.07451
0.039216 0.14902 0.023529
0.05098 0.14902 0.023529
0.070588 0.14902 0.023529
0.105882 0.14902 0.023529
0.141176 0.152941 0.019608
0.176471 0.156863 0.019608
0.223529 0.156863 0.015686
0.27451 0.156863 0.007843
0.32549 0.156863 0
0.380392 0.152941 0
0.435294 0.145098 0.003922
0.482353 0.133333 0.011765
0.52549 0.109804 0.015686
0.560784 0.090196 0.019608
0.592157 0.078431 0.023529
0.619608 0.070588 0.027451
0.647059 0.062745 0.031373
0.67451 0.05098 0.035294
0.698039 0.035294 0.043137
0.717647 0.019608 0.047059
0.72549 0.007843 0.05098
0.72549 0.003922 0.054902
0.72549 0 0.062745
0.721569 0 0.070588
0.721569 0 0.082353
0.047059 0.180392 0.023529
0.054902 0.180392 0.023529
0.070588 0.180392 0.023529
0.109804 0.184314 0.019608
0.145098 0.184314 0.019608
0.184314 0.188235 0.019608
0.231373 0.192157 0.015686
0.278431 0.192157 0.003922
0.333333 0.192157 0
0.388235 0.188235 0
0.443137 0.184314 0
0.490196 0.176471 0
0.533333 0.164706 0.007843
0.572549 0.152941 0.011765
0.603922 0.133333 0.015686
0.635294 0.117647 0.019608
0.662745 0.105882 0.027451
0.686275 0.098039 0.031373
0.705882 0.090196 0.035294
0.729412 0.082353 0.039216
0.741176 0.062745 0.043137
0.741176 0.047059 0.05098
0.741176 0.027451 0.054902
0.737255 0.027451 0.062745
0.733333 0.031373 0.07451
0.054902 0.215686 0.019608
0.062745 0.215686 0.019608
0.078431 0.215686 0.019608
0.109804 0.219608 0.019608
0.14902 0.223529 0.019608
0.188235 0.227451 0.015686
0.239216 0.231373 0.007843
0.290196 0.231373 0
0.341176 0.235294 0
0.4 0.231373 0
0.454902 0.231373 0
0.501961 0.223529 0
0.545098 0.215686 0
0.580392 0.207843 0
0.615686 0.196078 0.007843
0.643137 0.188235 0.011765
0.670588 0.180392 0.015686
0.694118 0.172549 0.019608
0.717647 0.160784 0.023529
0.745098 0.156863 0.027451
0.756863 0.156863 0.035294
0.756863 0.14902 0.039216
0.756863 0.145098 0.047059
0.752941 0.137255 0.054902
0.74902 0.133333 0.062745
0.058824 0.25098 0.019608
0.066667 0.25098 0.015686
0.078431 0.254902 0.015686
0.094118 0.258824 0.015686
0.145098 0.266667 0.011765
0.196078 0.270588 0
0.247059 0.270588 0
0.301961 0.27451 0
0.352941 0.278431 0
0.411765 0.27451 0
0.462745 0.27451 0
0.509804 0.270588 0
0.552941 0.262745 0
0.588235 0.254902 0
0.619608 0.247059 0
0.65098 0.243137 0
0.678431 0.235294 0.007843
0.709804 0.231373 0.011765
0.737255 0.223529 0.015686
0.764706 0.219608 0.015686
0.772549 0.215686 0.023529
0.772549 0.211765 0.027451
0.768627 0.207843 0.035294
0.764706 0.207843 0.043137
0.764706 0.2 0.05098
0.066667 0.286275 0.011765
0.07451 0.294118 0.011765
0.082353 0.294118 0.011765
0.101961 0.298039 0.007843
0.145098 0.305882 0
0.203922 0.309804 0
0.258824 0.313725 0
0.309804 0.317647 0
0.364706 0.321569 0
0.419608 0.321569 0
0.47451 0.317647 0
0.521569 0.317647 0
0.564706 0.309804 0
0.6 0.301961 0
0.635294 0.298039 0
0.666667 0.290196 0
0.698039 0.286275 0
0.72549 0.282353 0
0.752941 0.278431 0
0.780392 0.27451 0
0.788235 0.270588 0.003922
0.784314 0.266667 0.011765
0.784314 0.266667 0.019608
0.784314 0.262745 0.027451
0.788235 0.258824 0.031373
0.078431 0.341176 0
0.086275 0.341176 0
0.090196 0.345098 0
0.105882 0.352941 0
0.141176 0.360784 0
0.219608 0.364706 0
0.27451 0.368627 0
0.329412 0.372549 0
0.388235 0.380392 0
0.447059 0.380392 0
0.498039 0.380392 0
0.54902 0.380392 0
0.592157 0.372549 0
0.627451 0.368627 0
0.662745 0.360784 0
0.694118 0.356863 0
0.721569 0.352941 0
0.74902 0.34902 0
0.780392 0.345098 0
0.811765 0.345098 0
0.819608 0.341176 0
0.819608 0.341176 0
0.819608 0.337255 0
0.823529 0.333333 0.007843
0.823529 0.329412 0.015686
0.082353 0.380392 0
0.090196 0.380392 0
0.094118 0.388235 0
0.109804 0.392157 0
0.164706 0.396078 0
0.231373 0.403922 0
0.282353 0.411765 0
0.337255 0.419608 0
0.396078 0.423529 0
0.454902 0.427451 0
0.505882 0.427451 0
0.556863 0.427451 0
0.6 0.423529 0
0.639216 0.419608 0
0.678431 0.415686 0
0.709804 0.407843 0
0.741176 0.403922 0
0.772549 0.4 0
0.803922 0.396078 0
0.839216 0.396078 0
0.843137 0.396078 0
0.843137 0.396078 0
0.843137 0.396078 0
0.843137 0.392157 0
0.843137 0.392157 0
0.078431 0.415686 0
0.082353 0.419608 0
0.090196 0.423529 0
0.113725 0.431373 0
0.164706 0.439216 0
0.239216 0.447059 0
0.290196 0.454902 0
0.345098 0.458824 0
0.407843 0.466667 0
0.462745 0.470588 0
0.517647 0.47451 0
0.568627 0.47451 0
0.615686 0.47451 0
0.658824 0.470588 0
0.694118 0.466667 0
0.729412 0.458824 0
0.760784 0.454902 0
0.792157 0.45098 0
0.823529 0.447059 0
0.854902 0.447059 0
0.854902 0.443137 0
0.858824 0.447059 0
0.862745 0.447059 0
0.862745 0.447059 0
0.862745 0.443137 0
0.066667 0.45098 0
0.066667 0.458824 0
0.086275 0.458824 0
0.117647 0.470588 0
0.188235 0.47451 0
0.247059 0.482353 0
0.298039 0.490196 0
0.352941 0.501961 0
0.411765 0.509804 0
0.470588 0.513725 0
0.52549 0.517647 0
0.576471 0.521569 0
0.627451 0.521569 0
0.666667 0.521569 0
0.705882 0.517647 0
0.741176 0.513725 0
0.776471 0.509804 0
0.811765 0.505882 0
0.847059 0.501961 0
0.87451 0.501961 0
0.87451 0.498039 0
0.87451 0.498039 0
0.878431 0.498039 0
0.882353 0.501961 0
0.882353 0.501961 0
0.047059 0.486275 0
0.066667 0.490196 0
0.090196 0.498039 0
0.152941 0.501961 0
0.207843 0.509804 0
0.254902 0.521569 0
0.305882 0.529412 0
0.360784 0.537255 0
0.423529 0.545098 0
0.478431 0.552941 0
0.533333 0.560784 0
0.588235 0.564706 0
0.635294 0.564706 0
0.682353 0.564706 0
0.721569 0.564706 0
0.760784 0.560784 0
0.796078 0.556863 0
0.827451 0.556863 0
0.862745 0.556863 0
0.886275 0.556863 0
0.886275 0.552941 0
0.886275 0.552941 0
0.886275 0.54902 0
0.886275 0.552941 0
0.886275 0.552941 0
0.082353 0.537255 0
0.121569 0.537255 0
0.152941 0.545098 0
0.196078 0.54902 0
0.235294 0.560784 0
0.282353 0.568627 0
0.333333 0.576471 0
0.388235 0.588235 0
0.447059 0.596078 0
0.501961 0.607843 0
0.556863 0.611765 0
0.607843 0.615686 0
0.658824 0.619608 0
0.701961 0.619608 0
0.741176 0.619608 0
0.780392 0.615686 0
0.811765 0.619608 0
0.843137 0.619608 0
0.87451 0.619608 0
0.894118 0.619608 0
0.894118 0.619608 0
0.894118 0.615686 0
0.894118 0.615686 0
0.894118 0.611765 0
0.894118 0.6 0
0.129412 0.576471 0
0.152941 0.576471 0
0.180392 0.576471 0
0.207843 0.588235 0
0.25098 0.592157 0
0.294118 0.6 0
0.345098 0.611765 0
0.4 0.623529 0
0.454902 0.631373 0
0.509804 0.643137 0
0.564706 0.65098 0
0.615686 0.654902 0
0.662745 0.658824 0
0.709804 0.658824 0
0.74902 0.658824 0
0.784314 0.662745 0
0.815686 0.666667 0
0.847059 0.666667 0
0.882353 0.666667 0
0.898039 0.666667 0
0.898039 0.666667 0
0.898039 0.662745 0
0.898039 0.662745 0
0.898039 0.654902 0
0.894118 0.631373 0
0.160784 0.611765 0
0.172549 0.615686 0
0.2 0.615686 0
0.227451 0.623529 0
0.262745 0.631373 0
0.305882 0.643137 0
0.356863 0.65098 0
0.407843 0.662745 0
0.462745 0.67451 0
0.517647 0.682353 0
0.572549 0.686275 0
0.623529 0.694118 0
0.670588 0.698039 0
0.717647 0.698039 0
0.756863 0.701961 0
0.788235 0.705882 0
0.819608 0.709804 0
0.854902 0.713725 0
0.890196 0.713725 0
0.898039 0.713725 0
0.898039 0.709804 0
0.898039 0.709804 0
0.898039 0.709804 0
0.898039 0.686275 0
0.898039 0.662745 0
0.176471 0.647059 0
0.188235 0.654902 0
0.203922 0.658824 0
0.239216 0.658824 0
0.270588 0.67451 0
0.317647 0.678431 0
0.368627 0.686275 0
0.419608 0.701961 0
0.470588 0.709804 0
0.52549 0.717647 0
0.580392 0.72549 0
0.631373 0.733333 0
0.678431 0.737255 0
0.72549 0.741176 0
0.756863 0.745098 0
0.788235 0.752941 0
0.823529 0.756863 0
0.858824 0.760784 0
0.894118 0.760784 0
0.898039 0.760784 0
0.898039 0.756863 0
0.898039 0.756863 0
0.898039 0.745098 0
0.898039 0.717647 0
0.898039 0.694118 0
0.184314 0.694118 0
0.203922 0.698039 0
0.219608 0.705882 0
0.247059 0.709804 0
0.286275 0.717647 0
0.333333 0.72549 0
0.376471 0.737255 0
0.423529 0.74902 0
0.478431 0.756863 0
0.533333 0.764706 0
0.588235 0.772549 0
0.639216 0.776471 0
0.686275 0.780392 0
0.72549 0.784314 0
0.760784 0.796078 0
0.792157 0.8 0
0.827451 0.803922 0
0.862745 0.807843 0
0.898039 0.807843 0
0.898039 0.807843 0
0.898039 0.807843 0
0.898039 0.803922 0
0.898039 0.776471 0
0.898039 0.74902 0
0.898039 0.72549 0
0.243137 0.74902 0
0.258824 0.74902 0
0.278431 0.74902 0
0.298039 0.760784 0
0.337255 0.764706 0
0.368627 0.776471 0
0.411765 0.784314 0
0.458824 0.792157 0
0.509804 0.8 0
0.560784 0.807843 0
0.611765 0.815686 0
0.658824 0.823529 0
0.701961 0.827451 0
0.741176 0.831373 0
0.772549 0.843137 0
0.803922 0.85098 0
0.839216 0.854902 0
0.87451 0.858824 0
0.901961 0.862745 0
0.901961 0.862745 0
0.901961 0.862745 0
0.901961 0.839216 0
0.901961 0.811765 0
0.901961 0.784314 0
0.901961 0.760784 0
0.286275 0.756863 0
0.298039 0.760784 0
0.313725 0.760784 0
0.341176 0.764706 0
0.360784 0.776471 0
0.4 0.776471 0
0.435294 0.788235 0
0.478431 0.796078 0
0.52549 0.803922 0
0.568627 0.811765 0
0.615686 0.815686 0
0.658824 0.823529 0
0.701961 0.827451 0
0.733333 0.831373 0
0.764706 0.839216 0
0.792157 0.847059 0
0.823529 0.85098 0
0.854902 0.858824 0
0.890196 0.858824 0
0.898039 0.862745 0
0.898039 0.862745 0
0.898039 0.862745 0
0.901961 0.839216 0
0.901961 0.811765 0
0.901961 0.788235 0
0.290196 0.760784 0
0.301961 0.760784 0
0.317647 0.760784 0
0.337255 0.764706 0
0.360784 0.772549 0
0.392157 0.776471 0
0.423529 0.784314 0
0.466667 0.792157 0
0.509804 0.8 0
0.552941 0.803922 0
0.596078 0.811765 0
0.635294 0.819608 0
0.678431 0.823529 0
0.717647 0.827451 0
0.745098 0.831373 0
0.768627 0.839216 0
0.8 0.847059 0
0.827451 0.854902 0
0.858824 0.858824 0
0.890196 0.858824 0
0.898039 0.858824 0
0.898039 0.858824 0
0.898039 0.858824 0
0.898039 0.839216 0
0.898039 0.815686 0
0.294118 0.756863 0
0.305882 0.756863 0
0.321569 0.756863 0
0.337255 0.764706 0
0.356863 0.772549 0
0.388235 0.772549 0
0.415686 0.784314 0
0.454902 0.788235 0
0.494118 0.796078 0
0.533333 0.803922 0
0.576471 0.811765 0
0.615686 0.815686 0
0.654902 0.819608 0
0.694118 0.823529 0
0.72549 0.827451 0
0.752941 0.839216 0
0.776471 0.843137 0
0.803922 0.85098 0
0.835294 0.854902 0
0.862745 0.854902 0
0.894118 0.858824 0
0.898039 0.858824 0
0.898039 0.858824 0
0.898039 0.858824 0
0.898039 0.839216 0
0.301961 0.756863 0
0.313725 0.756863 0
0.32549 0.760784 0
0.337255 0.764706 0
0.356863 0.772549 0
0.384314 0.772549 0
0.411765 0.784314 0
0.447059 0.784314 0
0.482353 0.792157 0
0.517647 0.8 0
0.560784 0.807843 0
0.6 0.811765 0
0.635294 0.815686 0
0.67451 0.819608 0
0.709804 0.823529 0
0.733333 0.827451 0
0.760784 0.839216 0
0.784314 0.843137 0
0.811765 0.847059 0
0.839216 0.854902 0
0.866667 0.854902 0
0.894118 0.858824 0
0.894118 0.858824 0
0.894118 0.858824 0
0.894118 0.858824 0
0.011765 0.011765 0.043137
0.035294 0.011765 0.043137
0.062745 0.011765 0.047059
0.090196 0.015686 0.047059
0.121569 0.015686 0.05098
0.156863 0.019608 0.05098
0.196078 0.019608 0.054902
0.243137 0.019608 0.054902
0.290196 0.019608 0.05098
0.341176 0.011765 0.047059
0.396078 0 0.039216
0.443137 0 0.043137
0.486275 0 0.043137
0.521569 0 0.047059
0.552941 0 0.047059
0.584314 0 0.05098
0.607843 0 0.054902
0.635294 0 0.058824
0.658824 0 0.058824
0.682353 0 0.062745
0.694118 0 0.066667
0.694118 0 0.070588
0.694118 0 0.07451
0.694118 0 0.082353
0.698039 0 0.094118
0.011765 0.039216 0.039216
0.043137 0.039216 0.043137
0.066667 0.039216 0.043137
0.090196 0.039216 0.047059
0.121569 0.039216 0.047059
0.156863 0.039216 0.05098
0.196078 0.035294 0.05098
0.243137 0.031373 0.05098
0.290196 0.027451 0.05098
0.341176 0.015686 0.043137
0.392157 0 0.039216
0.439216 0 0.039216
0.482353 0 0.043137
0.517647 0 0.043137
0.552941 0 0.047059
0.580392 0 0.05098
0.607843 0 0.05098
0.631373 0 0.054902
0.654902 0 0.058824
0.678431 0 0.062745
0.690196 0 0.066667
0.694118 0 0.070588
0.690196 0 0.07451
0.694118 0 0.082353
0.694118 0 0.090196
0.019608 0.062745 0.039216
0.043137 0.062745 0.039216
0.066667 0.062745 0.039216
0.094118 0.062745 0.043137
0.12549 0.062745 0.043137
0.160784 0.062745 0.047059
0.2 0.066667 0.047059
0.247059 0.062745 0.047059
0.298039 0.058824 0.047059
0.34902 0.047059 0.035294
0.4 0.023529 0.035294
0.447059 0.015686 0.039216
0.486275 0.011765 0.039216
0.521569 0.003922 0.043137
0.54902 0 0.043137
0.576471 0 0.047059
0.603922 0 0.05098
0.627451 0 0.054902
0.65098 0 0.058824
0.67451 0 0.058824
0.686275 0 0.062745
0.690196 0 0.066667
0.690196 0 0.07451
0.690196 0 0.078431
0.690196 0 0.086275
0.027451 0.086275 0.035294
0.05098 0.086275 0.035294
0.070588 0.086275 0.035294
0.094118 0.086275 0.039216
0.12549 0.090196 0.039216
0.160784 0.090196 0.043137
0.203922 0.090196 0.043137
0.25098 0.090196 0.043137
0.301961 0.090196 0.039216
0.352941 0.078431 0.031373
0.407843 0.058824 0.031373
0.454902 0.039216 0.035294
0.494118 0.035294 0.035294
0.529412 0.031373 0.039216
0.560784 0.023529 0.043137
0.588235 0.011765 0.043137
0.611765 0.003922 0.047059
0.635294 0 0.05098
0.658824 0 0.054902
0.678431 0 0.058824
0.682353 0 0.062745
0.686275 0 0.066667
0.686275 0 0.070588
0.686275 0 0.078431
0.686275 0 0.086275
0.035294 0.113725 0.027451
0.054902 0.113725 0.027451
0.070588 0.113725 0.027451
0.098039 0.117647 0.031373
0.129412 0.117647 0.031373
0.164706 0.117647 0.035294
0.207843 0.121569 0.035294
0.254902 0.121569 0.035294
0.305882 0.117647 0.031373
0.360784 0.113725 0.023529
0.415686 0.101961 0.027451
0.462745 0.070588 0.027451
0.505882 0.058824 0.031373
0.537255 0.054902 0.035294
0.568627 0.047059 0.035294
0.596078 0.039216 0.039216
0.623529 0.023529 0.043137
0.647059 0.011765 0.047059
0.666667 0 0.05098
0.690196 0 0.054902
0.698039 0 0.058824
0.694118 0 0.062745
0.694118 0 0.070588
0.690196 0 0.078431
0.686275 0 0.086275
0.035294 0.14902 0.023529
0.05098 0.14902 0.023529
0.070588 0.14902 0.023529
0.105882 0.14902 0.023529
0.141176 0.152941 0.027451
0.176471 0.156863 0.027451
0.223529 0.156863 0.031373
0.27451 0.160784 0.023529
0.32549 0.156863 0.019608
0.384314 0.152941 0.019608
0.435294 0.14902 0.023529
0.486275 0.133333 0.023529
0.52549 0.109804 0.027451
0.560784 0.090196 0.031373
0.596078 0.078431 0.035294
0.623529 0.070588 0.039216
0.65098 0.062745 0.043137
0.67451 0.05098 0.047059
0.694118 0.035294 0.05098
0.717647 0.019608 0.054902
0.72549 0.007843 0.058824
0.72549 0 0.062745
0.72549 0 0.070588
0.721569 0 0.082353
0.721569 0 0.094118
0.043137 0.180392 0.023529
0.054902 0.180392 0.023529
0.070588 0.180392 0.023529
0.105882 0.180392 0.019608
0.145098 0.184314 0.019608
0.180392 0.188235 0.019608
0.227451 0.188235 0.015686
0.278431 0.192157 0.011765
0.333333 0.192157 0.007843
0.388235 0.192157 0.011765
0.443137 0.188235 0.011765
0.490196 0.180392 0.015686
0.533333 0.168627 0.019608
0.572549 0.152941 0.023529
0.607843 0.133333 0.027451
0.635294 0.121569 0.031373
0.662745 0.105882 0.035294
0.686275 0.098039 0.039216
0.709804 0.094118 0.043137
0.729412 0.082353 0.047059
0.741176 0.062745 0.05098
0.741176 0.043137 0.058824
0.741176 0.039216 0.062745
0.737255 0.039216 0.07451
0.733333 0.027451 0.090196
0.05098 0.211765 0.019608
0.062745 0.215686 0.019608
0.07451 0.215686 0.019608
0.105882 0.219608 0.019608
0.145098 0.223529 0.019608
0.188235 0.227451 0.015686
0.239216 0.231373 0.007843
0.290196 0.231373 0
0.341176 0.235294 0
0.4 0.231373 0
0.454902 0.231373 0
0.501961 0.223529 0.007843
0.545098 0.215686 0.011765
0.584314 0.207843 0.015686
0.615686 0.2 0.019608
0.643137 0.188235 0.023529
0.670588 0.180392 0.027451
0.694118 0.172549 0.031373
0.721569 0.164706 0.035294
0.745098 0.156863 0.039216
0.756863 0.156863 0.043137
0.756863 0.14902 0.047059
0.752941 0.145098 0.054902
0.752941 0.141176 0.062745
0.74902 0.133333 0.078431
0.058824 0.247059 0.019608
0.066667 0.25098 0.015686
0.078431 0.254902 0.015686
0.094118 0.258824 0.015686
0.141176 0.262745 0.011765
0.192157 0.270588 0
0.247059 0.270588 0
0.298039 0.27451 0
0.352941 0.278431 0
0.407843 0.27451 0
0.462745 0.27451 0
0.509804 0.266667 0
0.552941 0.262745 0
0.588235 0.258824 0.003922
0.619608 0.25098 0.007843
0.654902 0.243137 0.011765
0.682353 0.235294 0.015686
0.709804 0.231373 0.019608
0.737255 0.223529 0.023529
0.764706 0.219608 0.023529
0.772549 0.215686 0.031373
0.772549 0.211765 0.035294
0.768627 0.211765 0.043137
0.764706 0.207843 0.05098
0.764706 0.203922 0.058824
0.066667 0.286275 0.011765
0.07451 0.290196 0.011765
0.082353 0.294118 0.011765
0.098039 0.298039 0.007843
0.145098 0.305882 0
0.203922 0.309804 0
0.254902 0.313725 0
0.305882 0.317647 0
0.360784 0.317647 0
0.419608 0.321569 0
0.470588 0.317647 0
0.517647 0.313725 0
0.564706 0.309804 0
0.6 0.301961 0
0.635294 0.298039 0
0.670588 0.294118 0
0.698039 0.286275 0
0.72549 0.282353 0.003922
0.756863 0.278431 0.007843
0.784314 0.27451 0.007843
0.788235 0.270588 0.011765
0.784314 0.266667 0.019608
0.784314 0.266667 0.027451
0.788235 0.262745 0.031373
0.788235 0.258824 0.039216
0.078431 0.341176 0
0.086275 0.341176 0
0.090196 0.345098 0
0.101961 0.352941 0
0.137255 0.360784 0
0.219608 0.364706 0
0.27451 0.368627 0
0.329412 0.372549 0
0.384314 0.380392 0
0.443137 0.380392 0
0.498039 0.380392 0
0.545098 0.376471 0
0.592157 0.372549 0
0.627451 0.368627 0
0.662745 0.360784 0
0.694118 0.356863 0
0.72549 0.352941 0
0.752941 0.34902 0
0.784314 0.34902 0
0.815686 0.345098 0
0.819608 0.345098 0
0.823529 0.341176 0
0.823529 0.337255 0.007843
0.823529 0.333333 0.011765
0.823529 0.329412 0.019608
