site/assets/luts/freshluts--0000170-industrial.cube
# LUTr-Schema-Version: 2
# LUTr-ID: freshluts--0000170-industrial
# LUTr-Title: INDUSTRIAL
# LUTr-Collection: Fresh LUTs
# LUTr-Collection-ID: freshluts-community
# LUTr-Source: https://freshluts.com
# LUTr-Retrieved: 2026-07-27
# LUTr-Source-File: submissions-raw/freshluts/cubes/170__INDUSTRIAL_33.DJI_0018.cube
# LUTr-Source-Format: CUBE
# LUTr-Source-SHA256: cd777ea7a1e479b0400b4dab8ad0de9db8a9671d2bbde95e61dcb5c998e85a12
# LUTr-License: CC0-1.0
# LUTr-License-URL: https://freshluts.com/termsandconditions
# LUTr-License-Basis: site-terms
# LUTr-Transform-Class: creative-look
# LUTr-Tags: creative, freshluts, community, cube, film-emulation, orange, low-key, dji-d-log
# LUTr-Input-Color-Space: dji-dlog-dgamut
# LUTr-Input-Gamut: dji-d-gamut
# LUTr-Input-Transfer: dji-d-log
# LUTr-Output-Color-Space: srgb
# LUTr-Output-Gamut: rec709
# LUTr-Output-Transfer: srgb
# LUTr-Color-Space-Confidence: inferred-from-source-label
# LUTr-Domain-Normalized: true
# LUTr-Shaper: none
# LUTr-Original-Grid: 33x33x33
# LUTr-Conversion-Grid: 33x33x33
# LUTr-Conversion-Interpolation: none
# LUTr-Conversion-Method: Metadata normalization; numeric LUT samples preserved
# LUTr-Conversion-Tool: LUTr scripts/convert-all-to-cube.mjs 2.0.0
# LUTr-Conversion-Date: 2026-07-28
# LUTr-Asset-URL: https://freshluts.com/luts/170
# LUTr-Author: Shamoon Abbasi
# LUTr-Author-URL: https://freshluts.com/users/1258
# LUTr-Attribution: Shamoon Abbasi via Fresh LUTs
# LUTr-Source-Labels: gamma=DJI D-log; color=Orange; key=Low Key; style=Film emulation
# LUTr-Note: Preserve this metadata and the upstream license notices when redistributing.
TITLE "INDUSTRIAL"
LUT_3D_SIZE 5
DOMAIN_MIN 0 0 0
DOMAIN_MAX 1 1 1
0.00830091 0.0140383 0.0139467
0.114046 0.0257267 0.00906386
0.453513 0.133852 0.00747692
0.601114 0.18172 0.00846876
0.659419 0.20029 0.00891127
0.0172274 0.094789 0.0774395
0.0798505 0.0795911 0.0436103
0.379858 0.133547 0.00936904
0.578653 0.186572 0.00825513
0.662913 0.211719 0.00833143
0.0630503 0.341924 0.275807
0.080415 0.319265 0.25536
0.416373 0.342107 0.12314
0.657252 0.358557 0.00190738
0.724895 0.307317 0.0043946
0.0958877 0.566506 0.46569
0.136965 0.549874 0.445411
0.283742 0.561807 0.407675
0.692943 0.567376 0.196704
0.848203 0.571969 0
0.0655222 0.712428 0.594965
0.14229 0.71136 0.586374
0.233707 0.713237 0.571603
0.53106 0.740597 0.502998
0.91014 0.762249 0.32195
0.0184482 0.057557 0.0763561
0.0896162 0.0529183 0.0774701
0.461326 0.101335 0.0237278
0.60734 0.174472 0.0210422
0.659754 0.195315 0.0236362
0.0232395 0.115084 0.11783
0.0856794 0.101244 0.101503
0.393637 0.124987 0.04654
0.584848 0.180957 0.0247196
0.666239 0.207858 0.0197299
0 0.376806 0.334356
0.019028 0.37496 0.319295
0.445579 0.358816 0.129488
0.665614 0.350652 0.00798047
0.724819 0.296971 0.0100404
0 0.583185 0.521752
0 0.581415 0.505943
0.26949 0.571603 0.432013
0.718547 0.58349 0.193652
0.849195 0.565637 0
0 0.716136 0.644404
0 0.729564 0.645304
0.240757 0.742321 0.610666
0.528145 0.756252 0.516838
0.920607 0.777798 0.346685
0.0903944 0.178576 0.240635
0.111818 0.175692 0.239963
0.332143 0.223575 0.307591
0.597848 0.188907 0.286549
0.716808 0.124376 0.211017
0.099794 0.253666 0.32871
0.123964 0.237476 0.307439
0.331563 0.24181 0.318257
0.617075 0.166262 0.253422
0.730343 0.134722 0.155169
0.0175174 0.440848 0.469993
0.0377356 0.445579 0.468315
0.434577 0.445243 0.444648
0.655482 0.401358 0.354559
0.741131 0.320577 0.249302
0 0.600244 0.571176
0 0.611017 0.579049
0.328786 0.671016 0.616953
0.716686 0.637797 0.435325
0.889769 0.604776 0.248493
0 0.740414 0.701976
0 0.759777 0.717235
0.283482 0.829847 0.758831
0.540932 0.818128 0.65243
0.919768 0.823575 0.553796
0.146563 0.275288 0.363394
0.19913 0.293721 0.386084
0.309285 0.306874 0.423865
0.449592 0.329641 0.446189
0.510491 0.336217 0.456947
0.166186 0.373053 0.480293
0.195789 0.364477 0.46685
0.337926 0.369451 0.487678
0.46038 0.348302 0.461753
0.547143 0.343374 0.460151
0.117159 0.552285 0.646159
0.159319 0.550378 0.64593
0.437263 0.566033 0.647822
0.58999 0.543053 0.619913
0.696483 0.470512 0.551415
0.0114137 0.663722 0.713924
0.0350042 0.685023 0.736263
0.427283 0.710491 0.73698
0.670253 0.695476 0.701534
0.828214 0.685328 0.655131
0 0.756237 0.751553
0 0.785092 0.773709
0.418051 0.857786 0.837827
0.637751 0.896819 0.86215
0.911437 0.885618 0.80209
0.181003 0.340215 0.444434
0.307988 0.410727 0.523293
0.355428 0.379736 0.519295
0.416251 0.370855 0.497627
0.480323 0.379797 0.505364
0.199435 0.46331 0.590524
0.254032 0.467063 0.58909
0.402792 0.474174 0.600046
0.449866 0.431586 0.566323
0.50399 0.408499 0.536004
0.170245 0.607385 0.727428
0.245136 0.616602 0.73991
0.454627 0.646159 0.766445
0.581582 0.642588 0.770733
0.652995 0.609552 0.722988
0.109148 0.714916 0.813794
0.190997 0.732433 0.834501
0.436927 0.782605 0.89044
0.618967 0.793118 0.903166
0.771969 0.775372 0.867796
0.0535897 0.806485 0.874296
0.127565 0.827756 0.893462
0.518563 0.90724 0.962478
0.714656 0.950072 0.997482
0.930129 0.978988 0.993851
