site/assets/luts/freshluts--0000922-picturefx-french-riviera-adjust-strength-or-opacity-to-taste.cube
# LUTr-Schema-Version: 2
# LUTr-ID: freshluts--0000922-picturefx-french-riviera-adjust-strength-or-opacity-to-taste
# LUTr-Title: PictureFX French Riviera - adjust strength or opacity to taste (picture sample @ 50%)
# LUTr-Collection: Fresh LUTs
# LUTr-Collection-ID: freshluts-community
# LUTr-Source: https://freshluts.com
# LUTr-Retrieved: 2026-07-27
# LUTr-Source-File: submissions-raw/freshluts/cubes/922__PictureFX-French-Riviera-3DL25.cube
# LUTr-Source-Format: CUBE
# LUTr-Source-SHA256: 5b12400062698db00d705feac5f6b2fd3146c061541d6ed8604f116215d9a0ff
# LUTr-License: CC0-1.0
# LUTr-License-URL: https://freshluts.com/termsandconditions
# LUTr-License-Basis: site-terms
# LUTr-Transform-Class: creative-look
# LUTr-Tags: creative, freshluts, community, cube
# LUTr-Input-Color-Space:
# LUTr-Input-Gamut: unspecified
# LUTr-Input-Transfer: unspecified
# LUTr-Output-Color-Space: srgb
# LUTr-Output-Gamut: rec709
# LUTr-Output-Transfer: srgb
# LUTr-Color-Space-Confidence: camera-profile-input-required
# LUTr-Domain-Normalized: true
# LUTr-Shaper: none
# LUTr-Original-Grid: 25x25x25
# LUTr-Conversion-Grid: 25x25x25
# LUTr-Conversion-Interpolation: none
# LUTr-Conversion-Method: Metadata normalization; numeric LUT samples preserved
# LUTr-Conversion-Tool: LUTr scripts/convert-all-to-cube.mjs 2.0.0
# LUTr-Conversion-Date: 2026-07-28
# LUTr-Asset-URL: https://freshluts.com/luts/922
# LUTr-Author: MarcR.
# LUTr-Author-URL: https://freshluts.com/users/86490
# LUTr-Attribution: MarcR. via Fresh LUTs
# LUTr-Source-Labels: gamma=Other; color=None; key=Neutral; style=Correction
# LUTr-Note: Preserve this metadata and the upstream license notices when redistributing.
# LUTr-Upstream-Comment: Generated with IWLTBAP LUT Generator
# LUTr-Upstream-Comment: Website: http://luts.iwltbap.com
# LUTr-Upstream-Comment: LUT size
# LUTr-Upstream-Comment: LUT data points
TITLE "PictureFX French Riviera - adjust strength or opacity to taste (picture sample @ 50%)"
LUT_3D_SIZE 9
DOMAIN_MIN 0 0 0
DOMAIN_MAX 1 1 1
0.121569 0 0.011765
0.203922 0 0
0.854902 0 0
1 0 0
1 0 0
1 0 0
1 0 0
1 0 0
1 0 0
0 0.176471 0
0.392157 0.121569 0
0.764706 0 0
1 0 0
1 0 0
1 0 0
1 0 0
1 0 0
1 0 0
0 0.482353 0
0 0.466667 0
0.615686 0.360784 0
1 0 0
1 0 0
1 0 0
1 0 0
1 0 0
1 0 0
0 0.631373 0
0 0.627451 0
0 0.596078 0
0.678431 0.482353 0
1 0 0
1 0 0
1 0 0
1 0 0
1 0 0
0 0.72549 0
0 0.721569 0
0 0.721569 0
0 0.694118 0
0.717647 0.588235 0
1 0.298039 0
1 0 0
1 0 0
1 0 0
0 0.827451 0
0 0.827451 0
0 0.827451 0
0 0.831373 0
0 0.803922 0
0.768627 0.705882 0
1 0.478431 0
1 0 0
1 0 0
0 0.945098 0
0 0.945098 0
0 0.941176 0
0 0.952941 0
0 0.960784 0
0 0.929412 0
0.827451 0.831373 0
1 0.643137 0
1 0.521569 0
0 1 0
0 1 0
0 1 0
0 1 0
0 1 0
0 1 0
0 1 0
0.92549 1 0
1 0.92549 0
0 1 0
0 1 0
0 1 0
0 1 0
0 1 0
0 1 0
0 1 0
0 1 0
0.811765 1 0
0.094118 0 0.431373
0.541176 0 0.203922
0.968627 0 0.109804
1 0 0.05098
1 0 0.003922
1 0 0
1 0 0.011765
1 0 0.05098
1 0 0.023529
0 0.231373 0.207843
0.407843 0.047059 0.258824
0.615686 0 0.054902
1 0 0
1 0 0
1 0 0
1 0 0
1 0 0.027451
1 0 0
0 0.47451 0
0.058824 0.435294 0
0.623529 0.333333 0
0.933333 0 0
1 0 0
1 0 0
1 0 0
1 0 0.011765
1 0 0
0 0.615686 0
0 0.615686 0
0 0.576471 0
0.698039 0.462745 0
1 0.05098 0
1 0 0
1 0 0
1 0 0
1 0 0
0 0.717647 0
0 0.717647 0
0 0.717647 0
0 0.682353 0
0.737255 0.576471 0
1 0.305882 0
1 0 0
1 0 0
1 0 0
0 0.827451 0
0 0.827451 0
0 0.827451 0
0 0.835294 0
0 0.803922 0
0.788235 0.705882 0
1 0.482353 0
1 0 0
1 0 0
0 0.94902 0
0 0.94902 0
0 0.94902 0
0 0.956863 0
0 0.964706 0
0 0.933333 0
0.843137 0.835294 0
1 0.647059 0
1 0.533333 0
0 1 0
0 1 0
0 1 0
0 1 0
0 1 0
0 1 0
0 1 0
0.937255 1 0
1 0.933333 0
0 1 0
0 1 0
0 1 0
0 1 0
0 1 0
0 1 0
0 1 0
0 1 0
0.8 1 0
0 0 1
0.717647 0 0.862745
1 0 0.596078
1 0 0.372549
1 0 0.27451
1 0 0.254902
1 0 0.247059
1 0 0.247059
1 0 0.239216
0 0.176471 1
0.572549 0 0.882353
1 0 0.564706
1 0 0.356863
1 0 0.258824
1 0 0.235294
1 0 0.235294
1 0 0.243137
1 0 0.231373
0 0.482353 0.490196
0 0.478431 0.458824
0.619608 0.282353 0.45098
0.772549 0.254902 0.231373
1 0 0.117647
1 0 0.156863
1 0 0.211765
1 0 0.239216
1 0 0.235294
0 0.607843 0
0 0.603922 0
0.294118 0.533333 0.101961
0.721569 0.439216 0.160784
1 0.227451 0
1 0 0
1 0 0
1 0 0.062745
1 0 0.160784
0 0.713725 0
0 0.713725 0
0 0.709804 0
0.141176 0.658824 0
0.788235 0.552941 0
1 0.321569 0
1 0 0
1 0 0
1 0 0
0 0.831373 0
0 0.831373 0
0 0.831373 0
0 0.835294 0
0 0.796078 0
0.839216 0.694118 0
1 0.482353 0
1 0 0
1 0 0
0 0.956863 0
0 0.956863 0
0 0.952941 0
0 0.964706 0
0 0.968627 0
0 0.929412 0
0.886275 0.831373 0
1 0.647059 0
1 0.541176 0
0 1 0
0 1 0
0 1 0
0 1 0
0 1 0
0 1 0
0 1 0
0.972549 1 0
1 0.933333 0
0 1 0
0 1 0
0 1 0
0 1 0
0 1 0
0 1 0
0 1 0
0 1 0
0.792157 1 0
0 0 1
0.752941 0 1
1 0 1
1 0 0.870588
1 0 0.615686
1 0 0.435294
1 0 0.368627
1 0 0.360784
1 0 0.352941
0 0 1
0.552941 0 1
1 0 1
1 0 0.85098
1 0 0.588235
1 0 0.415686
1 0 0.356863
1 0 0.356863
1 0 0.34902
0 0.494118 1
0 0.435294 1
0.784314 0 1
1 0 0.72549
1 0 0.501961
1 0 0.380392
1 0 0.352941
1 0 0.356863
1 0 0.34902
0 0.615686 0.65098
0 0.615686 0.654902
0 0.603922 0.568627
0.737255 0.396078 0.552941
0.878431 0.372549 0.341176
1 0 0.2
1 0 0.203922
1 0 0.266667
1 0 0.309804
0 0.717647 0.145098
0 0.713725 0.152941
0 0.713725 0.031373
0.443137 0.619608 0.266667
0.819608 0.537255 0.294118
1 0.396078 0
1 0 0
1 0 0
1 0 0.062745
0 0.835294 0
0 0.831373 0
0 0.835294 0
0 0.831373 0
0.384314 0.764706 0
0.913725 0.666667 0
1 0.486275 0
1 0 0
1 0 0
0 0.960784 0
0 0.960784 0
0 0.956863 0
0 0.968627 0
0 0.964706 0
0.188235 0.913725 0
0.956863 0.811765 0
1 0.635294 0
1 0.541176 0
0 1 0
0 1 0
0 1 0
0 1 0
0 1 0
0 1 0
0 1 0
1 0.980392 0
1 0.92549 0
0 1 0
0 1 0
0 1 0
0 1 0
0 1 0
0 1 0
0 1 0
0 1 0
0.831373 1 0
0 0 1
0.745098 0 1
1 0 1
1 0 1
1 0 1
1 0 0.827451
1 0 0.619608
1 0 0.54902
1 0 0.52549
0 0 1
0.396078 0 1
1 0 1
1 0 1
1 0 1
1 0 0.8
1 0 0.603922
1 0 0.533333
1 0 0.509804
0 0.403922 1
0 0.219608 1
0.741176 0 1
1 0 1
1 0 1
1 0 0.8
1 0 0.607843
1 0 0.529412
1 0 0.513725
0 0.635294 1
0 0.631373 1
0 0.556863 1
0.898039 0 1
1 0 0.819608
1 0 0.611765
1 0 0.482353
1 0 0.427451
1 0 0.462745
0 0.733333 0.792157
0 0.729412 0.792157
0 0.729412 0.772549
0 0.705882 0.662745
0.843137 0.498039 0.654902
0.992157 0.486275 0.45098
1 0 0.313725
1 0 0.254902
1 0 0.294118
0 0.843137 0.34902
0 0.839216 0.34902
0 0.839216 0.333333
0 0.839216 0.243137
0.596078 0.72549 0.419608
0.937255 0.654902 0.427451
1 0.541176 0.176471
1 0 0
1 0 0
0 0.968627 0
0 0.964706 0
0 0.960784 0
0 0.972549 0
0 0.960784 0
0.564706 0.878431 0
1 0.780392 0
1 0.639216 0
1 0.552941 0
0 1 0
0 1 0
0 1 0
0 1 0
0 1 0
0 1 0
0.482353 1 0
1 0.956863 0
1 0.909804 0
0 1 0
0 1 0
0 1 0
0 1 0
0 1 0
0 1 0
0 1 0
0.239216 1 0
0.898039 1 0
0 0 1
0.576471 0 1
1 0 1
1 0 1
1 0 1
1 0 1
1 0 1
1 0 0.952941
1 0 0.905882
0 0 1
0 0 1
1 0 1
1 0 1
1 0 1
1 0 1
1 0 1
1 0 0.92549
1 0 0.878431
0 0 1
0 0 1
0.611765 0 1
1 0 1
1 0 1
1 0 1
1 0 1
1 0 0.917647
1 0 0.882353
0 0.627451 1
0 0.603922 1
0 0.439216 1
0.854902 0 1
1 0 1
1 0 1
1 0 0.929412
1 0 0.815686
1 0 0.831373
0 0.760784 1
0 0.756863 1
0 0.74902 1
0 0.662745 1
1 0.188235 1
1 0 0.92549
1 0 0.733333
1 0 0.623529
1 0 0.643137
0 0.858824 0.945098
0 0.858824 0.945098
0 0.858824 0.94902
0 0.862745 0.890196
0 0.823529 0.768627
0.960784 0.611765 0.764706
1 0.6 0.564706
1 0 0.427451
1 0 0.415686
0 0.976471 0.533333
0 0.972549 0.533333
0 0.972549 0.533333
0 0.976471 0.478431
0 0.964706 0.384314
0.737255 0.827451 0.556863
1 0.768627 0.552941
1 0.682353 0.337255
1 0.588235 0.243137
0 1 0
0 1 0
0 1 0
0 1 0
0 1 0
0 1 0
0.752941 1 0
1 0.917647 0
1 0.894118 0
0 1 0
0 1 0
0 1 0
0 1 0
0 1 0
0 1 0
0 1 0
0.588235 1 0
0.996078 1 0
0 0 1
0 0 1
1 0 1
1 0 1
1 0 1
1 0 1
1 0 1
1 0 1
1 0 1
0 0 1
0 0 1
0.909804 0 1
1 0 1
1 0 1
1 0 1
1 0 1
1 0 1
1 0 1
0 0 1
0 0 1
0.258824 0 1
1 0 1
1 0 1
1 0 1
1 0 1
1 0 1
1 0 1
0 0.560784 1
0 0.490196 1
0 0.105882 1
0.698039 0 1
1 0 1
1 0 1
1 0 1
1 0 1
1 0 1
0 0.772549 1
0 0.772549 1
0 0.733333 1
0 0.568627 1
0.972549 0 1
1 0 1
1 0 1
1 0 1
1 0 1
0 0.886275 1
0 0.886275 1
0 0.886275 1
0 0.87451 1
0 0.772549 1
1 0.376471 1
1 0 1
1 0 0.854902
1 0 0.854902
0 0.992157 1
0 0.992157 1
0 0.988235 1
0 0.988235 1
0 0.988235 1
0 0.937255 0.87451
1 0.721569 0.87451
1 0.72549 0.690196
1 0.572549 0.643137
0 1 0.701961
0 1 0.701961
0 1 0.705882
0 1 0.694118
0 1 0.615686
0 1 0.541176
0.901961 0.964706 0.721569
1 0.917647 0.709804
1 0.913725 0.592157
0 1 0.439216
0 1 0.435294
0 1 0.423529
0 1 0.411765
0 1 0.305882
0 1 0
0 1 0
0.835294 1 0.235294
1 0.996078 0.305882
0 0 1
0.627451 0 1
1 0 1
1 0 1
1 0 1
1 0 1
1 0 1
1 0 1
1 0 1
0 0 1
0 0 1
0.937255 0 1
1 0 1
1 0 1
1 0 1
1 0 1
1 0 1
1 0 1
0 0 1
0 0 1
0.392157 0 1
1 0 1
1 0 1
1 0 1
1 0 1
1 0 1
1 0 1
0 0.388235 1
0 0.227451 1
0 0 1
0.490196 0 1
1 0 1
1 0 1
1 0 1
1 0 1
1 0 1
0 0.760784 1
0 0.756863 1
0 0.670588 1
0 0.411765 1
0.831373 0 1
1 0 1
1 0 1
1 0 1
1 0 1
0 0.909804 1
0 0.905882 1
0 0.905882 1
0 0.854902 1
0 0.682353 1
1 0 1
1 0 1
1 0 1
1 0 1
0 1 1
0 1 1
0 1 1
0 1 1
0 0.992157 1
0 0.882353 1
1 0.517647 1
1 0 1
1 0 1
0 1 1
0 1 1
0 1 1
0 1 1
0 1 1
0 1 1
0 1 1
1 0.858824 1
1 0.917647 0.866667
0 1 0.996078
0 1 0.992157
0 1 0.984314
0 1 0.968627
0 1 0.905882
0 1 0.768627
0 1 0.615686
0.964706 1 0.784314
1 0.968627 0.772549
0.811765 0 1
1 0 1
1 0 1
1 0 1
1 0 1
1 0 1
1 0 1
1 0 1
1 0 1
0 0 1
0.666667 0 1
1 0 1
1 0 1
1 0 1
1 0 1
1 0 1
1 0 1
1 0 1
0 0 1
0 0 1
0.894118 0 1
1 0 1
1 0 1
1 0 1
1 0 1
1 0 1
1 0 1
0 0 1
0 0 1
0 0 1
0.823529 0 1
1 0 1
1 0 1
1 0 1
1 0 1
1 0 1
0 0.737255 1
0 0.705882 1
0 0.596078 1
0 0.215686 1
0.964706 0 1
1 0 1
1 0 1
1 0 1
1 0 1
0 0.898039 1
0 0.898039 1
0 0.886275 1
0 0.811765 1
0 0.603922 1
1 0 1
1 0 1
1 0 1
1 0 1
0 1 1
0 1 1
0 1 1
0 1 1
0 0.964706 1
0 0.811765 1
1 0.380392 1
1 0 1
1 0 1
0 1 1
0 1 1
0 1 1
0 1 1
0 1 1
0 1 1
0 1 1
1 0.721569 1
1 0.568627 1
0 1 1
0 1 1
0 1 1
0 1 1
0 1 1
0 1 1
0 1 1
0 1 1
1 0.909804 1
