site/assets/luts/freshluts--0001659-mfahri-photo-100c-negative.cube
# LUTr-Schema-Version: 2
# LUTr-ID: freshluts--0001659-mfahri-photo-100c-negative
# LUTr-Title: M.Fahri Photo - 100c Negative
# LUTr-Collection: Fresh LUTs
# LUTr-Collection-ID: freshluts-community
# LUTr-Source: https://freshluts.com
# LUTr-Retrieved: 2026-07-27
# LUTr-Source-File: submissions-raw/freshluts/cubes/1659__---_M.Fahri_-_AnalogFilmPack_-_100c_Negative.cube
# LUTr-Source-Format: CUBE
# LUTr-Source-SHA256: aa2c3fddd8ac0263422f1692e6c6f6f200fa13234816f8c81790b07210c5de22
# LUTr-License: CC0-1.0
# LUTr-License-URL: https://freshluts.com/termsandconditions
# LUTr-License-Basis: site-terms
# LUTr-Transform-Class: creative-look
# LUTr-Tags: creative, freshluts, community, cube, film-emulation, warm, rec709
# LUTr-Input-Color-Space: rec709
# LUTr-Input-Gamut: rec709
# LUTr-Input-Transfer: rec709
# LUTr-Output-Color-Space: srgb
# LUTr-Output-Gamut: rec709
# LUTr-Output-Transfer: srgb
# LUTr-Color-Space-Confidence: declared-by-source
# LUTr-Domain-Normalized: true
# LUTr-Shaper: none
# LUTr-Original-Grid: 25x25x25
# LUTr-Conversion-Grid: 25x25x25
# LUTr-Conversion-Interpolation: none
# LUTr-Conversion-Method: Metadata normalization; numeric LUT samples preserved
# LUTr-Conversion-Tool: LUTr scripts/convert-all-to-cube.mjs 2.0.0
# LUTr-Conversion-Date: 2026-07-28
# LUTr-Asset-URL: https://freshluts.com/luts/1659
# LUTr-Author: M.Fahri
# LUTr-Author-URL: https://freshluts.com/users/223435
# LUTr-Attribution: M.Fahri via Fresh LUTs
# LUTr-Source-Labels: gamma=Rec 709; color=Warm; key=Neutral; style=Film emulation
# LUTr-Note: Preserve this metadata and the upstream license notices when redistributing.
# LUTr-Upstream-Comment: M.Fahri Analog Film Pack 2023
# LUTr-Upstream-Comment: Follow me: https://www.instagram.com/m.fahri.photo/
# LUTr-Upstream-Comment: LUT size
# LUTr-Upstream-Comment: LUT data points
TITLE "M.Fahri Photo - 100c Negative"
LUT_3D_SIZE 5
DOMAIN_MIN 0 0 0
DOMAIN_MAX 1 1 1
0.054902 0.105882 0.082353
0.12549 0.101961 0.078431
0.439216 0.039216 0.070588
0.796078 0.035294 0.090196
1 0.403922 0.164706
0.047059 0.133333 0.090196
0.152941 0.156863 0.078431
0.501961 0.184314 0.054902
0.807843 0.278431 0.054902
0.992157 0.486275 0.207843
0.035294 0.392157 0.196078
0.223529 0.415686 0.215686
0.533333 0.52549 0.105882
0.811765 0.580392 0.094118
0.988235 0.65098 0.298039
0.329412 0.682353 0.423529
0.411765 0.690196 0.447059
0.568627 0.72549 0.454902
0.8 0.792157 0.415686
0.996078 0.827451 0.454902
0.745098 0.909804 0.713725
0.760784 0.905882 0.713725
0.839216 0.909804 0.729412
0.917647 0.933333 0.741176
0.996078 0.941176 0.737255
0.070588 0.101961 0.137255
0.145098 0.098039 0.133333
0.505882 0.011765 0.180392
0.819608 0.117647 0.258824
1 0.423529 0.352941
0.047059 0.14902 0.172549
0.188235 0.168627 0.196078
0.529412 0.2 0.227451
0.815686 0.309804 0.278431
0.992157 0.505882 0.376471
0.203922 0.431373 0.32549
0.286275 0.447059 0.32549
0.552941 0.537255 0.305882
0.815686 0.592157 0.313725
0.972549 0.635294 0.392157
0.372549 0.694118 0.482353
0.435294 0.698039 0.486275
0.592157 0.729412 0.517647
0.8 0.788235 0.490196
0.988235 0.827451 0.513725
0.729412 0.905882 0.709804
0.760784 0.905882 0.717647
0.831373 0.905882 0.733333
0.917647 0.92549 0.741176
0.996078 0.941176 0.74902
0.188235 0.054902 0.415686
0.368627 0.023529 0.447059
0.619608 0.14902 0.478431
0.886275 0.282353 0.560784
0.996078 0.423529 0.580392
0.027451 0.137255 0.45098
0.317647 0.164706 0.478431
0.631373 0.329412 0.517647
0.870588 0.443137 0.580392
1 0.552941 0.611765
0.121569 0.423529 0.482353
0.282353 0.458824 0.505882
0.603922 0.568627 0.564706
0.819608 0.615686 0.588235
0.996078 0.682353 0.627451
0.443137 0.705882 0.6
0.509804 0.713725 0.607843
0.639216 0.741176 0.631373
0.823529 0.792157 0.639216
0.996078 0.823529 0.662745
0.752941 0.909804 0.741176
0.768627 0.905882 0.741176
0.839216 0.913725 0.752941
0.933333 0.92549 0.776471
1 0.941176 0.780392
0.498039 0.003922 0.694118
0.611765 0 0.709804
0.819608 0.235294 0.741176
0.92549 0.545098 0.745098
0.992157 0.639216 0.756863
0.439216 0.07451 0.701961
0.576471 0.121569 0.713725
0.8 0.388235 0.745098
0.917647 0.619608 0.745098
1 0.698039 0.764706
0.015686 0.364706 0.682353
0.07451 0.388235 0.686275
0.686275 0.545098 0.733333
0.917647 0.729412 0.760784
0.996078 0.776471 0.776471
0.235294 0.666667 0.678431
0.345098 0.686275 0.690196
0.584314 0.72549 0.717647
0.866667 0.807843 0.764706
0.996078 0.85098 0.780392
0.658824 0.909804 0.780392
0.682353 0.901961 0.780392
0.823529 0.913725 0.792157
0.941176 0.921569 0.819608
0.996078 0.937255 0.835294
0.823529 0.168627 0.890196
0.854902 0.25098 0.886275
0.941176 0.482353 0.878431
0.996078 0.705882 0.866667
1 0.803922 0.870588
0.772549 0.286275 0.882353
0.823529 0.372549 0.886275
0.921569 0.545098 0.878431
1 0.72549 0.870588
1 0.827451 0.87451
0.54902 0.411765 0.882353
0.643137 0.466667 0.882353
0.835294 0.615686 0.886275
1 0.780392 0.890196
1 0.854902 0.878431
0.007843 0.698039 0.87451
0.015686 0.670588 0.85098
0.05098 0.666667 0.870588
0.909804 0.803922 0.894118
1 0.913725 0.909804
0.568627 0.905882 0.905882
0.615686 0.913725 0.909804
0.717647 0.909804 0.909804
0.878431 0.913725 0.87451
0.992157 0.937255 0.901961
