site/assets/luts/freshluts--0000154-morning-contrast.cube
# LUTr-Schema-Version: 2
# LUTr-ID: freshluts--0000154-morning-contrast
# LUTr-Title: MORNING CONTRAST
# LUTr-Collection: Fresh LUTs
# LUTr-Collection-ID: freshluts-community
# LUTr-Source: https://freshluts.com
# LUTr-Retrieved: 2026-07-27
# LUTr-Source-File: submissions-raw/freshluts/cubes/154__MORNING__6.C0007.cube
# LUTr-Source-Format: CUBE
# LUTr-Source-SHA256: 50943c238d73786f92fe9cb613e8a7ce516bca892870baada81845d700bd3ad6
# LUTr-License: CC0-1.0
# LUTr-License-URL: https://freshluts.com/termsandconditions
# LUTr-License-Basis: site-terms
# LUTr-Transform-Class: creative-look
# LUTr-Tags: creative, freshluts, community, cube, film-emulation, low-key, rec709
# LUTr-Input-Color-Space: rec709
# LUTr-Input-Gamut: rec709
# LUTr-Input-Transfer: rec709
# LUTr-Output-Color-Space: srgb
# LUTr-Output-Gamut: rec709
# LUTr-Output-Transfer: srgb
# LUTr-Color-Space-Confidence: declared-by-source
# LUTr-Domain-Normalized: true
# LUTr-Shaper: none
# LUTr-Original-Grid: 33x33x33
# LUTr-Conversion-Grid: 33x33x33
# LUTr-Conversion-Interpolation: none
# LUTr-Conversion-Method: Metadata normalization; numeric LUT samples preserved
# LUTr-Conversion-Tool: LUTr scripts/convert-all-to-cube.mjs 2.0.0
# LUTr-Conversion-Date: 2026-07-28
# LUTr-Asset-URL: https://freshluts.com/luts/154
# LUTr-Author: Shamoon Abbasi
# LUTr-Author-URL: https://freshluts.com/users/1258
# LUTr-Attribution: Shamoon Abbasi via Fresh LUTs
# LUTr-Source-Labels: gamma=Rec 709; color=None; key=Low Key; style=Film emulation
# LUTr-Note: Preserve this metadata and the upstream license notices when redistributing.
TITLE "MORNING CONTRAST"
LUT_3D_SIZE 5
DOMAIN_MIN 0 0 0
DOMAIN_MAX 1 1 1
0 0 0
0.164385 0 0
0.539498 0 0
0.8056 0 0
0.951415 0 0
0 0.156588 0
0.162402 0.162402 0
0.560861 0.144183 0
0.877363 0.171679 0
1 0.239368 0.0226749
0 0.520974 0
0.151156 0.567819 0
0.569497 0.569497 0
0.886519 0.597513 0
1 0.652537 0.0191653
0 0.90692 0
0.232609 0.938293 0.0159152
0.62359 0.912596 0
0.900877 0.900877 0
1 0.913222 0
0.0998703 1 0.0998703
0.306508 1 0.0898299
0.664454 1 0.0310979
0.91812 1 0
1 1 0
0 0 0.165743
0.168658 0 0.168658
0.536629 0 0.119951
0.804425 0 0.0987411
0.955093 0 0.123461
0 0.156771 0.156771
0.168368 0.168368 0.168368
0.573831 0.157168 0.157168
0.893904 0.18822 0.18822
1 0.254536 0.254536
0 0.53756 0.120882
0.165789 0.582467 0.165789
0.58468 0.58468 0.168002
0.899825 0.610819 0.194141
1 0.661814 0.245136
0 0.919005 0.213321
0.239963 0.945647 0.239963
0.626169 0.91519 0.209506
0.89958 0.89958 0.193896
1 0.909026 0.203342
0.0973526 1 0.314046
0.301564 1 0.301564
0.657984 1 0.241306
0.910857 1 0.205173
1 1 0.202777
0 0 0.566308
0.153231 0 0.569909
0.519509 0 0.519509
0.790066 0 0.50106
0.946471 0 0.531518
0 0.144289 0.560967
0.162203 0.162203 0.578866
0.574197 0.157519 0.574197
0.896071 0.190387 0.607065
1 0.254704 0.671382
0 0.539162 0.539162
0.166461 0.583139 0.583139
0.585046 0.585046 0.585046
0.897566 0.60856 0.60856
1 0.654856 0.654856
0 0.915251 0.626245
0.231159 0.936843 0.647837
0.612909 0.901915 0.612909
0.882719 0.882719 0.593698
1 0.889693 0.600671
0.0794232 1 0.712779
0.281575 1 0.698253
0.636728 1 0.636728
0.889067 1 0.600046
1 1 0.597787
0 0 0.850568
0.145525 0 0.851209
0.512215 0 0.801221
0.786664 0 0.786664
0.94934 0 0.823407
0 0.143008 0.848707
0.167697 0.167697 0.873381
0.58497 0.168292 0.873976
0.906966 0.201282 0.906966
1 0.264576 0.97026
0 0.548959 0.83798
0.176516 0.593194 0.8822
0.593988 0.593988 0.882994
0.903151 0.614145 0.903151
1 0.65539 0.944396
0 0.919097 0.919097
0.229953 0.935637 0.935637
0.607538 0.896544 0.896544
0.874052 0.874052 0.874052
1 0.87895 0.87895
0.0699016 1 0.992279
0.270283 1 0.975982
0.62443 1 0.913436
0.876448 1 0.876448
1 1 0.87454
0 0 0.987198
0.149203 0 0.980835
0.517647 0 0.932601
0.797009 0 0.922957
0.96643 0 0.96643
0 0.155657 0.987289
0.18735 0.18735 1
0.608087 0.191409 1
0.928618 0.222934 1
1 0.286397 1
0 0.570184 0.985153
0.198245 0.614908 1
0.613794 0.613794 1
0.918883 0.629862 1
1 0.666072 1
0.0105287 0.932906 1
0.239002 0.944701 1
0.612726 0.901747 1
0.876371 0.876371 1
1 0.879484 1
0.0714733 1 1
0.270344 1 1
0.623713 1 1
0.875654 1 1
1 1 1
