site/assets/luts/freshluts--0000343-stranest-things.cube
# LUTr-Schema-Version: 2
# LUTr-ID: freshluts--0000343-stranest-things
# LUTr-Title: STRANEST THINGS
# LUTr-Collection: Fresh LUTs
# LUTr-Collection-ID: freshluts-community
# LUTr-Source: https://freshluts.com
# LUTr-Retrieved: 2026-07-27
# LUTr-Source-File: submissions-raw/freshluts/cubes/343__STRANGEST_THINGS.cube
# LUTr-Source-Format: CUBE
# LUTr-Source-SHA256: 6a0d59c990140a02be2b5096c8501cb6039a8d581122b53ced70dd4dfe1a2fcb
# LUTr-License: CC0-1.0
# LUTr-License-URL: https://freshluts.com/termsandconditions
# LUTr-License-Basis: site-terms
# LUTr-Transform-Class: creative-look
# LUTr-Tags: creative, freshluts, community, cube, brown, rec709, assumed-input
# LUTr-Input-Color-Space: rec709
# LUTr-Input-Gamut: rec709
# LUTr-Input-Transfer: rec709
# LUTr-Output-Color-Space: srgb
# LUTr-Output-Gamut: rec709
# LUTr-Output-Transfer: srgb
# LUTr-Color-Space-Confidence: assumed-display-referred
# LUTr-Domain-Normalized: true
# LUTr-Shaper: none
# LUTr-Original-Grid: 32x32x32
# LUTr-Conversion-Grid: 32x32x32
# LUTr-Conversion-Interpolation: none
# LUTr-Conversion-Method: Metadata normalization; numeric LUT samples preserved
# LUTr-Conversion-Tool: LUTr scripts/convert-all-to-cube.mjs 2.0.0
# LUTr-Conversion-Date: 2026-07-28
# LUTr-Asset-URL: https://freshluts.com/luts/343
# LUTr-Author: I WANT TO MAKE A FILM PODCAST
# LUTr-Author-URL: https://freshluts.com/users/15633
# LUTr-Attribution: I WANT TO MAKE A FILM PODCAST via Fresh LUTs
# LUTr-Source-Labels: gamma=Other; color=Brown; key=Neutral; style=Hipster; LUTr assumption=input Rec.709 per repository policy
# LUTr-Conversion-Warning: Input Rec.709 is a LUTr catalog assumption requested for this otherwise unspecified Fresh LUT; it is not verified by the upstream asset.
# LUTr-Note: Preserve this metadata and the upstream license notices when redistributing.
# LUTr-Upstream-Comment: Created by: Adobe Photoshop Export Color Lookup Plugin
# LUTr-Upstream-Comment: LUT size
# LUTr-Upstream-Comment: data domain
# LUTr-Upstream-Comment: LUT data points
TITLE "STRANEST THINGS"
LUT_3D_SIZE 8
DOMAIN_MIN 0.000000 0.000000 0.000000
DOMAIN_MAX 0.903226 0.903226 0.903226
0.004761 0 0.007629
0.025604 0 0.008545
0.107178 0.002075 0.016663
0.223816 0.022491 0.030945
0.376892 0.039612 0.051788
0.531738 0.060425 0.069275
0.671722 0.079803 0.091492
0.810791 0.097778 0.112732
0.021881 0.025757 0.014252
0.042694 0.020782 0.022308
0.118683 0.049133 0.028961
0.228851 0.077698 0.037567
0.37381 0.096893 0.051208
0.533112 0.11142 0.072998
0.682922 0.129456 0.104767
0.838806 0.143951 0.141663
0.04306 0.103729 0.01297
0.065063 0.09552 0.023499
0.129272 0.08786 0.035126
0.237366 0.112549 0.041962
0.378021 0.150635 0.05304
0.527466 0.193481 0.068542
0.666473 0.223206 0.090302
0.808258 0.249146 0.113159
0.088379 0.206665 0.003021
0.104889 0.201202 0.016479
0.159821 0.197968 0.037506
0.252411 0.181641 0.051727
0.391113 0.210815 0.059326
0.537964 0.25589 0.073547
0.673492 0.300507 0.093079
0.810547 0.343475 0.113464
0.151978 0.34021 0
0.166016 0.340088 0.002014
0.209839 0.344238 0.025208
0.296967 0.34259 0.05304
0.414062 0.324951 0.073914
0.55658 0.337219 0.081573
0.689606 0.379669 0.100189
0.825928 0.418793 0.119446
0.213318 0.467407 0
0.227356 0.470856 0.002991
0.265167 0.480255 0.021301
0.342865 0.487732 0.040924
0.46051 0.48645 0.071228
0.581177 0.471954 0.09668
0.710693 0.471222 0.110107
0.845856 0.497894 0.127502
0.263275 0.57132 0
0.280823 0.579224 0.005157
0.317322 0.591888 0.0242
0.389313 0.605042 0.046143
0.501221 0.612518 0.065796
0.626373 0.611603 0.098206
0.743896 0.606384 0.12558
0.866638 0.598328 0.138092
0.308411 0.664978 0
0.32962 0.676941 0.00708
0.365753 0.692566 0.026794
0.433563 0.709564 0.050293
0.539795 0.722992 0.072083
0.662506 0.730255 0.089172
0.778656 0.731171 0.121674
0.899261 0.724335 0.151917
0.00882 0 0.047302
0.029541 0 0.041168
0.097351 0 0.010132
0.205444 0 0.00946
0.352844 0.013184 0.025146
0.507996 0.036316 0.044067
0.649048 0.057434 0.068207
0.789673 0.077026 0.090668
0.027893 0.024872 0.058136
0.052307 0.030579 0.051849
0.161285 0.039856 0.029846
0.281464 0.053284 0.040955
0.43576 0.06604 0.061737
0.593353 0.078186 0.089081
0.730347 0.09613 0.109894
0.878815 0.118317 0.13501
0.047272 0.104065 0.048737
0.069916 0.105743 0.049774
0.136597 0.099396 0.06134
0.286774 0.121399 0.045197
0.429657 0.153412 0.057648
0.578003 0.17572 0.076477
0.718658 0.196686 0.10083
0.871002 0.21582 0.129974
0.091522 0.207642 0.028351
0.110443 0.211456 0.034424
0.164978 0.215179 0.053436
0.266205 0.198151 0.068665
0.442841 0.228882 0.064026
0.585205 0.266663 0.07959
0.719238 0.306732 0.098999
0.861877 0.345825 0.121033
0.154236 0.34198 0
0.170502 0.348206 0.009613
0.212433 0.355621 0.031799
0.307404 0.36319 0.058655
0.435608 0.344971 0.082916
0.604156 0.360535 0.088806
0.735809 0.395538 0.106659
0.876984 0.429565 0.126831
0.215637 0.469482 0
0.231781 0.477997 0.004456
0.268494 0.487762 0.0224
0.347595 0.501404 0.043854
0.477997 0.50882 0.077637
0.60791 0.494263 0.106567
0.742218 0.487549 0.120575
0.897766 0.516296 0.135193
0.267273 0.574799 0
0.285645 0.585846 0.007935
0.320984 0.59848 0.02655
0.392303 0.615753 0.047699
0.509491 0.631073 0.072052
0.648956 0.639465 0.106323
0.778198 0.634766 0.138397
0.909393 0.620544 0.150665
0.313904 0.669556 0
0.334534 0.683105 0.010559
0.369843 0.698303 0.030243
0.436737 0.718262 0.052704
0.545654 0.740875 0.074524
0.677795 0.758484 0.097321
0.809326 0.767151 0.130127
0.945587 0.761108 0.166321
0.021118 0 0.096832
0.044647 0 0.103729
0.109833 0 0.101562
0.206451 0 0.050262
0.334198 0 0.010651
0.472809 0 0.004791
0.612396 0.019775 0.028259
0.754639 0.041931 0.053741
0.03952 0.023407 0.114868
0.061401 0.025024 0.111786
0.143921 0.003418 0.086945
0.270233 0 0.002258
0.421112 0.012878 0.021301
0.572113 0.03891 0.047241
0.713654 0.06131 0.073212
0.862091 0.081909 0.097382
0.059753 0.101166 0.116516
0.079346 0.10376 0.113281
0.150116 0.118439 0.105194
0.324158 0.11557 0.056244
0.515778 0.097778 0.071228
0.673828 0.101013 0.108734
0.819641 0.119446 0.134918
0.973053 0.141296 0.160461
0.098755 0.206879 0.098389
0.116302 0.211517 0.096832
0.16687 0.225342 0.10437
0.265991 0.212585 0.12027
0.492249 0.244934 0.070923
0.651886 0.270203 0.088654
0.790833 0.298065 0.109344
0.943909 0.312347 0.134521
0.158905 0.343018 0.067352
0.173706 0.348999 0.066528
0.215729 0.363159 0.081604
0.305023 0.371155 0.101776
0.434296 0.356018 0.125763
0.629578 0.382141 0.104126
0.806641 0.411682 0.116699
0.95343 0.439209 0.137146
0.221344 0.472839 0.045837
0.235657 0.480865 0.045532
0.273682 0.496857 0.063721
0.3479 0.507233 0.091461
0.474121 0.514679 0.117188
0.606018 0.502197 0.144623
0.742584 0.497498 0.159485
0.965607 0.538635 0.150818
0.27301 0.57843 0.048309
0.290497 0.58963 0.049652
0.32605 0.606171 0.065613
0.393341 0.618866 0.10022
0.506073 0.633392 0.126801
0.645294 0.6427 0.15274
0.775635 0.639374 0.182281
0.907013 0.625763 0.198242
0.319885 0.673767 0.048798
0.340576 0.6875 0.05188
0.374634 0.704773 0.065369
0.438019 0.719696 0.10556
0.542603 0.739868 0.134888
0.672455 0.757507 0.159882
0.804352 0.766876 0.18634
0.942291 0.762787 0.216339
0.043335 0 0.15329
0.068542 0 0.177856
0.127167 0 0.193176
0.225861 0 0.2005
0.349487 0 0.15451
0.481506 0.002563 0.096832
0.602661 0.005768 0.064819
0.724335 0.008667 0.043335
0.069183 0.015076 0.196899
0.088837 0.019531 0.197113
0.146942 0.02832 0.208862
0.259827 0.02301 0.223083
0.414764 0 0.114594
0.540192 0.003082 0.043762
0.659393 0.005096 0.021881
0.795471 0.014618 0.025543
0.084747 0.095886 0.199066
0.10199 0.1008 0.199371
0.152191 0.110687 0.204865
0.276733 0.087616 0.205902
0.469391 0.012207 0.033478
0.61676 0.01123 0.019073
0.771637 0.042175 0.054321
0.917755 0.080231 0.107178
0.117554 0.203064 0.201019
0.133118 0.208771 0.201263
0.17746 0.220306 0.207245
0.285797 0.241272 0.200226
0.490021 0.238037 0.13382
0.695221 0.210083 0.118011
0.956451 0.149261 0.169769
0.959076 0.27533 0.209961
0.170349 0.341644 0.181488
0.184204 0.348267 0.182404
0.222229 0.362091 0.189941
0.303711 0.378143 0.199829
0.433075 0.372253 0.221649
0.647003 0.405579 0.176941
0.876434 0.420746 0.151001
0.957977 0.45755 0.213867
0.228943 0.472015 0.170959
0.242828 0.480103 0.173187
0.27771 0.495117 0.181641
0.350494 0.51239 0.196564
0.469727 0.522461 0.218445
0.604248 0.514465 0.242065
0.762604 0.52417 0.243347
0.969147 0.557159 0.232178
0.279114 0.577393 0.176941
0.296295 0.588257 0.18222
0.329224 0.604065 0.191071
0.396332 0.623108 0.205719
0.503601 0.63678 0.231201
0.639893 0.646973 0.252716
0.771729 0.645813 0.277008
0.904755 0.634552 0.291351
0.324493 0.672089 0.181793
0.344757 0.685669 0.189209
0.377075 0.702118 0.198517
0.439484 0.722412 0.212616
0.540253 0.739532 0.241669
0.666138 0.755493 0.264374
0.799194 0.76828 0.284119
0.939148 0.766479 0.309937
0.064087 0 0.198395
0.087555 0 0.231079
0.143005 0 0.259827
0.236908 0 0.269318
0.365082 0 0.274109
0.499481 0.006653 0.259949
0.620056 0.011414 0.250244
0.742462 0.015564 0.235931
0.096069 0.00705 0.265289
0.114197 0.012482 0.267303
0.166962 0.023529 0.280548
0.269745 0.027649 0.298645
0.397858 0.03595 0.302948
0.556671 0.01123 0.266663
0.67926 0.013336 0.240845
0.807312 0.016937 0.210205
0.106964 0.090851 0.2659
0.123383 0.096344 0.267395
0.169556 0.107666 0.275238
0.266418 0.115601 0.290283
0.40683 0.115356 0.306702
0.604309 0.046814 0.284515
0.753113 0.015106 0.20163
0.871552 0.032501 0.172699
0.135254 0.200287 0.268677
0.15036 0.206512 0.270721
0.192169 0.218994 0.278839
0.276123 0.230072 0.286072
0.416748 0.224762 0.295166
0.674896 0.099304 0.289398
0.830383 0.044464 0.112061
0.950531 0.112732 0.217896
0.184479 0.338989 0.264923
0.19754 0.345795 0.267029
0.234558 0.360046 0.275848
0.310089 0.374786 0.284607
0.445831 0.3909 0.295013
0.649231 0.394806 0.278656
0.849274 0.380615 0.271667
0.959656 0.421478 0.320526
0.239349 0.470825 0.258118
0.253082 0.478912 0.261292
0.28714 0.494385 0.271149
0.356323 0.51181 0.28186
0.467926 0.52594 0.297791
0.602875 0.52301 0.321045
0.789093 0.548981 0.326691
0.975006 0.574585 0.337372
0.287903 0.576599 0.264679
0.30481 0.587555 0.270508
0.337372 0.603607 0.280792
0.401672 0.622589 0.292816
0.505829 0.638733 0.30954
0.633392 0.647644 0.33313
0.766632 0.649231 0.355743
0.911865 0.647583 0.370941
0.332245 0.671509 0.269318
0.352112 0.685181 0.277832
0.384125 0.701782 0.288666
0.445129 0.722076 0.301422
0.54306 0.740173 0.318634
0.661987 0.752716 0.343964
0.791748 0.766418 0.365295
0.934906 0.768677 0.389465
0.078094 0 0.229828
0.10025 0 0.265137
0.154205 0 0.304291
0.245514 0 0.314819
0.371765 0 0.323242
0.507385 0.007507 0.324066
0.633942 0.013275 0.337311
0.757996 0.01825 0.336182
0.116028 0.000214 0.311523
0.13208 0.00708 0.314148
0.182526 0.018951 0.328796
0.278259 0.027313 0.344513
0.404968 0.036621 0.353271
0.541168 0.044647 0.353729
0.670624 0.047546 0.364868
0.824646 0.020477 0.341675
0.124115 0.086121 0.310669
0.138794 0.092468 0.312958
0.182922 0.104553 0.321991
0.277008 0.113892 0.338715
0.416473 0.114288 0.360413
0.582306 0.101898 0.388367
0.724762 0.086792 0.396729
0.886963 0.043579 0.357086
0.148895 0.19754 0.313263
0.163239 0.203979 0.31604
0.203339 0.21698 0.324982
0.284882 0.229309 0.333679
0.41452 0.236786 0.348999
0.559784 0.238953 0.358337
0.776886 0.157135 0.415985
0.953369 0.111237 0.401001
0.195282 0.336823 0.315857
0.208008 0.344086 0.318665
0.244354 0.358887 0.328674
0.318237 0.374176 0.338745
0.433624 0.385071 0.346863
0.572388 0.392365 0.354553
0.78186 0.29953 0.368347
0.973602 0.254883 0.384216
0.248047 0.469208 0.312286
0.261536 0.477417 0.316406
0.294708 0.493408 0.326996
0.362885 0.51123 0.338959
0.470642 0.525513 0.348907
0.59967 0.526581 0.369965
0.798645 0.538544 0.378082
0.974091 0.544586 0.397278
0.294922 0.575439 0.318817
0.311951 0.586456 0.325378
0.344177 0.602875 0.336456
0.407776 0.622162 0.349518
0.508423 0.638824 0.360138
0.630219 0.64444 0.382599
0.759277 0.648743 0.402863
0.942169 0.670013 0.417358
0.33844 0.670868 0.323395
0.358307 0.684326 0.332489
0.390076 0.701294 0.343964
0.450317 0.721832 0.358185
0.545471 0.740265 0.369751
0.66217 0.749939 0.392914
0.781799 0.759674 0.412994
0.925354 0.765381 0.435364
0.09906 0 0.279419
0.120239 0 0.316193
0.173096 0 0.373474
0.258881 0 0.386078
0.38147 0 0.396149
0.514679 0.007904 0.404114
0.640411 0.014435 0.415741
0.769928 0.019928 0.42749
0.147491 0 0.386139
0.161163 0 0.389343
0.205231 0.010925 0.40274
0.291199 0.025177 0.415619
0.414185 0.036316 0.425842
0.548431 0.045197 0.434235
0.67572 0.052246 0.446808
0.807037 0.059082 0.459747
0.151947 0.077209 0.382965
0.165009 0.083649 0.385742
0.204865 0.096863 0.396332
0.294739 0.107971 0.415192
0.432281 0.108887 0.440094
0.597809 0.096466 0.477295
0.725342 0.103699 0.489777
0.857513 0.110413 0.50296
0.171417 0.191711 0.384155
0.184326 0.198029 0.387146
0.22113 0.211975 0.397217
0.299316 0.22583 0.408722
0.425507 0.234619 0.425507
0.569977 0.237366 0.44397
0.712067 0.234589 0.470428
0.869537 0.224091 0.50708
0.213165 0.333496 0.387787
0.224854 0.340454 0.391083
0.259155 0.35553 0.402069
0.330811 0.37204 0.414368
0.442902 0.384094 0.424164
0.579681 0.391724 0.437744
0.71286 0.395264 0.457672
0.888733 0.359131 0.483459
0.262512 0.466125 0.3909
0.275818 0.47467 0.395599
0.308289 0.490784 0.40744
0.374603 0.509491 0.421417
0.479828 0.524475 0.43219
0.604218 0.533844 0.444916
0.731079 0.537354 0.46402
0.934418 0.483337 0.454803
0.307495 0.573425 0.396881
0.324097 0.584625 0.404419
0.355591 0.601013 0.416412
0.418152 0.621063 0.431396
0.517029 0.638367 0.443604
0.635468 0.649811 0.456512
0.753723 0.64975 0.475922
0.95639 0.661957 0.466339
0.349396 0.669067 0.401459
0.369049 0.682922 0.411438
0.40036 0.700104 0.423981
0.459808 0.721008 0.439423
0.553711 0.73996 0.453033
0.666748 0.753174 0.466278
0.780701 0.756775 0.486908
0.917755 0.763428 0.504028
0.135254 0 0.362671
0.162933 0 0.417236
0.213715 0 0.48642
0.297028 0 0.525146
0.411011 0 0.53772
0.536621 0.007294 0.547028
0.654785 0.014862 0.553955
0.781494 0.021301 0.562225
0.194855 0 0.517975
0.213593 0 0.526093
0.253479 0.003387 0.540985
0.331055 0.021057 0.556885
0.445312 0.035461 0.569855
0.571533 0.045715 0.579163
0.690247 0.053162 0.586212
0.81897 0.060669 0.595703
0.211639 0.054382 0.529297
0.230011 0.065063 0.537506
0.268524 0.078613 0.551392
0.352783 0.091034 0.575348
0.486511 0.091675 0.607117
0.620483 0.096802 0.62323
0.739655 0.104309 0.630402
0.869232 0.111816 0.640015
0.21936 0.176666 0.523682
0.237244 0.187256 0.531769
0.272675 0.201843 0.544464
0.344177 0.217621 0.559418
0.463104 0.22879 0.579529
0.600037 0.232147 0.599762
0.735535 0.228943 0.621979
0.894775 0.216461 0.658813
0.252258 0.322876 0.526947
0.269684 0.33371 0.5354
0.303223 0.349121 0.548248
0.369995 0.366943 0.563568
0.4758 0.380676 0.577362
0.605042 0.38913 0.592834
0.731018 0.392944 0.607513
0.870758 0.394714 0.627075
0.294495 0.458099 0.53006
0.311401 0.469147 0.538757
0.343048 0.485687 0.552155
0.406006 0.505127 0.568787
0.50589 0.52182 0.583435
0.628021 0.533173 0.596558
0.750183 0.539825 0.611115
0.884613 0.544434 0.627777
0.33432 0.567261 0.531586
0.350677 0.578674 0.540497
0.381195 0.595612 0.554565
0.441254 0.616821 0.572113
0.536652 0.635651 0.588348
0.65451 0.649139 0.602142
0.775391 0.657684 0.619934
0.905609 0.664001 0.637207
0.372986 0.664581 0.535156
0.392426 0.678589 0.546204
0.423004 0.696045 0.560608
0.480835 0.717743 0.578766
0.572052 0.737793 0.595917
0.684875 0.752686 0.610413
0.801941 0.762787 0.628601
0.925171 0.76651 0.646484
