site/assets/luts/freshluts--0000946-fresh-and-nut.cube
# LUTr-Schema-Version: 2
# LUTr-ID: freshluts--0000946-fresh-and-nut
# LUTr-Title: Fresh and nut
# LUTr-Collection: Fresh LUTs
# LUTr-Collection-ID: freshluts-community
# LUTr-Source: https://freshluts.com
# LUTr-Retrieved: 2026-07-27
# LUTr-Source-File: submissions-raw/freshluts/cubes/946__653_12.0154_012_A001_C012_0226G7_001-ID-145000.cube
# LUTr-Source-Format: CUBE
# LUTr-Source-SHA256: 9ab1fbbb8d8115cdd4027b0ee52ba607637fc7445c97fafe7da8f091a8dd654a
# LUTr-License: CC0-1.0
# LUTr-License-URL: https://freshluts.com/termsandconditions
# LUTr-License-Basis: site-terms
# LUTr-Transform-Class: creative-look
# LUTr-Tags: creative, freshluts, community, cube, red-logfilm
# LUTr-Input-Color-Space: red-logfilm-rwg
# LUTr-Input-Gamut: red-wide-gamut-rgb
# LUTr-Input-Transfer: red-logfilm
# LUTr-Output-Color-Space: srgb
# LUTr-Output-Gamut: rec709
# LUTr-Output-Transfer: srgb
# LUTr-Color-Space-Confidence: inferred-from-source-label
# LUTr-Domain-Normalized: true
# LUTr-Shaper: none
# LUTr-Original-Grid: 33x33x33
# LUTr-Conversion-Grid: 33x33x33
# LUTr-Conversion-Interpolation: none
# LUTr-Conversion-Method: Metadata normalization; numeric LUT samples preserved
# LUTr-Conversion-Tool: LUTr scripts/convert-all-to-cube.mjs 2.0.0
# LUTr-Conversion-Date: 2026-07-28
# LUTr-Asset-URL: https://freshluts.com/luts/946
# LUTr-Author: kosala
# LUTr-Author-URL: https://freshluts.com/users/38201
# LUTr-Attribution: kosala via Fresh LUTs
# LUTr-Source-Labels: gamma=RED Log Film; color=None; key=Neutral; style=FRESH
# LUTr-Note: Preserve this metadata and the upstream license notices when redistributing.
TITLE "Fresh and nut"
LUT_3D_SIZE 33
DOMAIN_MIN 0 0 0
DOMAIN_MAX 1 1 1
0.0473335 0.0584878 0.0750286
0.0473945 0.0585031 0.0750286
0.0473945 0.0585031 0.0750286
0.0473945 0.0585031 0.0750286
0.0474556 0.0585031 0.0750134
0.0476387 0.0585336 0.0749981
0.0483864 0.0584115 0.0746319
0.0498817 0.0585641 0.0743725
0.0525216 0.0589609 0.0740368
0.0565805 0.0601358 0.074052
0.0622416 0.0616312 0.0737469
0.070161 0.0639506 0.0737316
0.0838941 0.0665599 0.0732738
0.101671 0.069337 0.0727398
0.125261 0.0726635 0.0722515
0.156054 0.0770886 0.0713207
0.199557 0.0830396 0.0699779
0.260044 0.0885939 0.0677653
0.335317 0.0903182 0.0646677
0.416358 0.0872969 0.0614939
0.498894 0.082063 0.0616617
0.570657 0.0762798 0.0643626
0.610666 0.0731365 0.0656596
0.628275 0.0708171 0.0654917
0.643122 0.0693828 0.0657359
0.670863 0.0696727 0.0687572
0.705135 0.0717327 0.0741131
0.735744 0.0741894 0.0787366
0.760479 0.0762951 0.0819409
0.780697 0.0782483 0.0847944
0.797436 0.0801556 0.0874952
0.821607 0.0808118 0.088014
0.842145 0.0814679 0.0886091
0.0472877 0.0585489 0.0750439
0.0473487 0.0585489 0.0750439
0.0473487 0.0585489 0.0750439
0.0473487 0.0585489 0.0750439
0.0473487 0.0585489 0.0750439
0.0475166 0.0585641 0.0749371
0.0482643 0.0584421 0.0745708
0.0497749 0.0586099 0.0743877
0.0524147 0.0589914 0.074052
0.0564126 0.0602121 0.0740063
0.0621042 0.0617227 0.0737774
0.0700389 0.0640116 0.0736553
0.0837415 0.0667124 0.0732738
0.101518 0.0695506 0.0726787
0.125032 0.0728161 0.0721904
0.15584 0.0774548 0.0712902
0.199466 0.0834669 0.0700542
0.260105 0.0893111 0.0679637
0.33579 0.0912642 0.0649119
0.416739 0.0885328 0.0615702
0.499458 0.0835737 0.0618448
0.57116 0.0782788 0.0645914
0.611246 0.0753033 0.0659953
0.628779 0.0734417 0.0659037
0.643137 0.0721447 0.0662089
0.670222 0.0727245 0.0693675
0.703975 0.0751659 0.0747234
0.733791 0.07776 0.0794385
0.758373 0.080415 0.0830701
0.778317 0.0827192 0.0861524
0.794491 0.084596 0.0886091
0.815473 0.0859388 0.0899977
0.835843 0.0867475 0.0907301
0.0472877 0.0585489 0.0750439
0.0473487 0.0585489 0.0750439
0.0473335 0.0585336 0.0749523
0.0473335 0.0585336 0.0749523
0.0473335 0.0585336 0.0749523
0.0474556 0.0585489 0.0749371
0.0482032 0.0584268 0.0745861
0.0496376 0.0586404 0.074342
0.0521706 0.0590677 0.0740826
0.0562753 0.0603037 0.0740368
0.0619059 0.0617838 0.0737926
0.0699016 0.0641031 0.0736706
0.0834974 0.0668345 0.0732128
0.101259 0.0697032 0.0726787
0.124788 0.0730144 0.0721294
0.155627 0.07776 0.0713054
0.199207 0.0840314 0.0700694
0.260105 0.090135 0.0681163
0.336172 0.0924239 0.0651408
0.417365 0.0900587 0.0617227
0.499733 0.085359 0.0618906
0.571862 0.0804608 0.0650492
0.611994 0.0780957 0.0664836
0.62948 0.0763409 0.0666667
0.643442 0.075349 0.0669718
0.66952 0.0763104 0.070222
0.702861 0.0791943 0.075761
0.732067 0.0821393 0.0807202
0.75581 0.085069 0.0844739
0.775235 0.0878309 0.0877852
0.79115 0.0902724 0.0907149
0.80827 0.0920272 0.0926833
0.827375 0.092958 0.0932479
0.0472114 0.0585184 0.0749676
0.0472725 0.0585336 0.0749676
0.0473335 0.0585336 0.0749523
0.0473335 0.0585336 0.0749523
0.0473335 0.0585336 0.0749523
0.0474556 0.0585489 0.0749371
0.0481422 0.0584268 0.0745861
0.0495155 0.0586252 0.0743572
0.0520943 0.0590219 0.0740063
0.0561379 0.0602579 0.0740368
0.0617227 0.0617838 0.0737163
0.0695811 0.0641489 0.0736858
0.0832837 0.0669108 0.073228
0.10103 0.0698405 0.0726177
0.124453 0.0731975 0.0720836
0.155489 0.0780652 0.071397
0.199069 0.0843671 0.0702525
0.260044 0.0910201 0.0682841
0.336645 0.093843 0.0654154
0.418082 0.0915847 0.0620279
0.500389 0.0873579 0.06215
0.572412 0.0831769 0.0653391
0.612879 0.0812238 0.067155
0.629694 0.0798657 0.0670176
0.643275 0.0793011 0.0675669
0.668513 0.0807355 0.0709392
0.700999 0.0839246 0.0766003
0.729519 0.0875105 0.082002
0.752804 0.0911116 0.0862593
0.771359 0.0941176 0.0896925
0.786816 0.0970321 0.0929885
0.799298 0.0992599 0.0953841
0.81828 0.10074 0.0965133
0.0472572 0.0585946 0.0750591
0.0472877 0.0585946 0.0749676
0.0473335 0.0585336 0.0749523
0.0473335 0.0585336 0.0749523
0.0473335 0.0585336 0.0749523
0.0473793 0.0585336 0.074876
0.0480201 0.0584573 0.0745251
0.049424 0.0586709 0.0743725
0.051957 0.0589914 0.0740063
0.0559396 0.0602579 0.0739605
0.0615854 0.061738 0.0737163
0.0694285 0.0640879 0.0736095
0.0829938 0.0668956 0.0731518
0.10071 0.0699016 0.0725567
0.124315 0.0733043 0.0720836
0.155276 0.0783703 0.0714122
0.198596 0.0848249 0.0702068
0.260121 0.0918135 0.0685435
0.336858 0.095201 0.0656138
0.418692 0.0934005 0.0621958
0.501213 0.0895705 0.0624704
0.572854 0.0861067 0.0655528
0.613428 0.0848249 0.0675364
0.630533 0.0840467 0.0677653
0.643687 0.0838636 0.0686503
0.667155 0.0855421 0.07187
0.699428 0.089662 0.0778363
0.726787 0.093904 0.0834363
0.749187 0.0979171 0.0882582
0.767269 0.101732 0.0923476
0.782666 0.104997 0.0958419
0.794873 0.107591 0.0986648
0.808774 0.10959 0.100954
0.0470893 0.0585489 0.0749065
0.0472114 0.0585641 0.0748913
0.0472114 0.0585641 0.0748913
0.0472725 0.0585794 0.0748913
0.0472725 0.0585794 0.0748913
0.0473793 0.0585336 0.074876
0.0479591 0.0585946 0.0747234
0.0493477 0.058793 0.0744793
0.0518044 0.0590829 0.0741283
0.0557717 0.0602884 0.0740673
0.0613565 0.061738 0.0737316
0.0691386 0.0640421 0.0735332
0.0827344 0.0668193 0.0730907
0.100404 0.0699016 0.0724804
0.123903 0.0733043 0.0720378
0.154986 0.0784466 0.0713054
0.198093 0.0851301 0.070161
0.25977 0.092546 0.068574
0.337224 0.0963302 0.0659037
0.419303 0.095079 0.0623941
0.501793 0.0919356 0.0626688
0.573739 0.0892195 0.0659495
0.61442 0.0886549 0.0682689
0.631266 0.0885481 0.068574
0.643473 0.0889448 0.0691997
0.665949 0.0912795 0.0729534
0.697261 0.0959182 0.0793622
0.724285 0.100984 0.0858167
0.746548 0.106065 0.0914321
0.764065 0.11046 0.0958419
0.778607 0.114199 0.0992905
0.790799 0.11751 0.102785
0.800473 0.119997 0.105257
0.0465553 0.059144 0.0750134
0.0466468 0.0590982 0.0749828
0.0467536 0.0590982 0.0748913
0.0467536 0.0590982 0.0748913
0.0467994 0.0590372 0.074876
0.0468605 0.0590372 0.074876
0.0475013 0.0590829 0.0747845
0.0488746 0.0592813 0.0746471
0.0513008 0.0595102 0.0742809
0.0552987 0.0605325 0.0740673
0.0610056 0.0620279 0.0738842
0.0689555 0.064271 0.0737163
0.0824598 0.0669718 0.0732433
0.100069 0.0699321 0.0725567
0.123613 0.0732433 0.0719768
0.154406 0.0783551 0.071107
0.197452 0.0852064 0.0700084
0.259052 0.0929274 0.0684977
0.336934 0.097322 0.0658885
0.419394 0.0965286 0.0624094
0.50219 0.0938735 0.0628519
0.574426 0.0919966 0.0664073
0.615351 0.0925765 0.0687572
0.631647 0.0929885 0.0691691
0.6439 0.0941634 0.0704204
0.664515 0.0972152 0.0742657
0.696025 0.103227 0.0815442
0.721996 0.109468 0.0881819
0.743374 0.11516 0.0939345
0.760433 0.120302 0.0987411
0.774044 0.124544 0.102892
0.786313 0.128328 0.10692
0.795911 0.131167 0.109743
0.045655 0.060441 0.075349
0.0458076 0.0604105 0.0753338
0.0458686 0.0604105 0.0753185
0.0458839 0.0603342 0.075227
0.0458839 0.0603342 0.075227
0.0459907 0.0602884 0.0752117
0.046479 0.0602884 0.0750591
0.0478065 0.0604257 0.0749218
0.0500038 0.0605325 0.0744182
0.0540322 0.0614023 0.0741131
0.0600748 0.0629282 0.07393
0.0682383 0.0650187 0.0736706
0.081651 0.0675975 0.0730602
0.0996109 0.0705119 0.0724193
0.123049 0.07364 0.0717937
0.153887 0.0785992 0.0710765
0.196796 0.0852522 0.0699168
0.258076 0.0930037 0.0682994
0.336034 0.097734 0.0656443
0.418891 0.0974746 0.0621195
0.501747 0.095491 0.0624399
0.574411 0.0945449 0.0660868
0.616114 0.0959945 0.0689708
0.632837 0.0974289 0.0701152
0.644312 0.0995041 0.0714427
0.663752 0.103746 0.0754406
0.694347 0.110536 0.0830091
0.719783 0.117876 0.090013
0.740612 0.124651 0.0965286
0.757305 0.1308 0.10219
0.771191 0.135882 0.106844
0.782712 0.140337 0.11107
0.792157 0.143893 0.114107
0.0439155 0.0623026 0.0755779
0.0441138 0.0622721 0.0755474
0.0442206 0.0622873 0.0755474
0.0442664 0.0622416 0.0755322
0.0442969 0.0621653 0.0754253
0.0443885 0.0621195 0.0754101
0.044831 0.0621195 0.0753643
0.046067 0.0621653 0.0751354
0.0481575 0.0623636 0.0749371
0.0523537 0.0632029 0.0746319
0.0586404 0.0646067 0.0742351
0.0671092 0.0666209 0.0738079
0.0805524 0.0690623 0.0729229
0.0986496 0.0720836 0.0722972
0.122118 0.0750286 0.0717327
0.152834 0.0797436 0.0709087
0.195972 0.0862898 0.0699016
0.257542 0.0937972 0.0683604
0.335241 0.0983139 0.0654612
0.418173 0.0979782 0.0616464
0.50103 0.0962234 0.0618753
0.57435 0.0961318 0.065507
0.616663 0.0987259 0.0685283
0.63357 0.101183 0.0699321
0.644587 0.104234 0.0716411
0.662593 0.109026 0.0758373
0.693217 0.117433 0.0839857
0.718196 0.125841 0.0915694
0.738598 0.133822 0.0988022
0.755367 0.140871 0.104952
0.769146 0.147097 0.110521
0.78027 0.15201 0.114763
0.789563 0.156268 0.118318
0.0425422 0.0655833 0.0755474
0.0427405 0.0655528 0.0755322
0.0428626 0.065507 0.0755322
0.0429236 0.065507 0.0755169
0.0429389 0.0654612 0.0755169
0.0429541 0.0653697 0.0754406
0.0433356 0.0653086 0.0754101
0.0444038 0.0653086 0.0752422
0.0463569 0.0654002 0.0749828
0.0502785 0.0660716 0.0747082
0.0563363 0.0671092 0.074052
0.0650492 0.0688792 0.0734417
0.0786755 0.0715343 0.0727092
0.0969558 0.0745708 0.0718395
0.12076 0.0776074 0.0716106
0.151598 0.0823072 0.0707561
0.195224 0.0891432 0.0701457
0.256703 0.0966812 0.0686198
0.33521 0.101198 0.0657054
0.417823 0.0999313 0.0614023
0.500511 0.0974136 0.0614633
0.57377 0.096849 0.0644541
0.616281 0.0996109 0.0671855
0.633539 0.1028 0.0686656
0.64477 0.106783 0.0708782
0.662043 0.112703 0.0751202
0.692241 0.122255 0.0835737
0.717144 0.132036 0.0919814
0.737682 0.141192 0.0996414
0.754025 0.148974 0.106645
0.76759 0.156161 0.112169
0.778851 0.162005 0.117144
0.788144 0.166995 0.121477
0.0405127 0.0700542 0.075227
0.0406806 0.0699931 0.0751354
0.0409247 0.0699626 0.0751049
0.0409705 0.0699779 0.0751049
0.0410468 0.0699168 0.0751049
0.0410925 0.0697795 0.0750134
0.0413519 0.069688 0.0749981
0.0422675 0.0695964 0.0748302
0.0440681 0.069688 0.0745861
0.0476844 0.0700999 0.0742046
0.0535744 0.0710765 0.0736706
0.0619516 0.072343 0.0728008
0.0758221 0.0749371 0.0721294
0.0949721 0.0783703 0.0715801
0.119646 0.082002 0.0717784
0.150942 0.087129 0.0716106
0.194491 0.0939956 0.0710002
0.257282 0.102815 0.0699779
0.337102 0.107836 0.0666972
0.419791 0.106462 0.0619974
0.501671 0.103395 0.061326
0.574365 0.101854 0.063798
0.616693 0.102815 0.0661784
0.633402 0.104372 0.0672007
0.644739 0.107759 0.0689708
0.661997 0.113893 0.0729534
0.692073 0.123842 0.08159
0.716838 0.13463 0.0899977
0.737255 0.144625 0.0981765
0.753689 0.153368 0.105425
0.767346 0.161425 0.111696
0.778302 0.168063 0.116884
0.78735 0.173312 0.121538
0.0376898 0.0762188 0.0746624
0.0379797 0.076173 0.0746471
0.0381781 0.076173 0.0745403
0.0383612 0.0761425 0.0745251
0.0384833 0.0760815 0.0745098
0.038529 0.0759442 0.0744335
0.0387274 0.0758221 0.0743267
0.0394141 0.0756847 0.0741894
0.0410468 0.0756542 0.0739605
0.044419 0.0757916 0.0735485
0.0500038 0.0764172 0.0729839
0.057908 0.0774395 0.0723125
0.0719158 0.0797589 0.0713054
0.0920882 0.0836194 0.0709239
0.118547 0.088365 0.0720989
0.150591 0.0940261 0.072694
0.194354 0.101366 0.0726329
0.258473 0.111543 0.0717327
0.340414 0.118349 0.0686656
0.423743 0.116991 0.0632792
0.504311 0.113512 0.0618753
0.576059 0.111803 0.0638743
0.618433 0.111986 0.0660258
0.634333 0.112169 0.0669108
0.644862 0.114122 0.0681468
0.661509 0.118532 0.0716564
0.691691 0.127489 0.0796063
0.716854 0.137255 0.0873884
0.737331 0.146471 0.0950484
0.753857 0.154864 0.102235
0.767422 0.1626 0.108553
0.778561 0.169467 0.113466
0.787411 0.174853 0.117998
0.0343633 0.0845197 0.0744793
0.0346685 0.0844739 0.0744335
0.0349889 0.0844282 0.0743114
0.0352941 0.0843824 0.0742657
0.0354162 0.0843366 0.0742504
0.0355993 0.0841993 0.0741436
0.0356451 0.084062 0.0740673
0.0361028 0.0838788 0.0738384
0.0374762 0.083711 0.073518
0.0403906 0.083711 0.0729992
0.045716 0.0841077 0.0725261
0.0531167 0.0845655 0.0715648
0.0663005 0.0864576 0.0706188
0.0869459 0.0900893 0.0698405
0.116457 0.0963912 0.0713359
0.150881 0.103304 0.0732738
0.195163 0.11162 0.0746014
0.260594 0.123888 0.0745556
0.345785 0.133486 0.0720226
0.429801 0.132784 0.0658885
0.509178 0.129107 0.0633555
0.57969 0.127489 0.0650034
0.621775 0.126986 0.0672923
0.636667 0.125704 0.0679332
0.64593 0.126406 0.068986
0.660136 0.129915 0.0719158
0.690471 0.138872 0.0800793
0.715434 0.147814 0.0874037
0.736065 0.156466 0.094728
0.752865 0.164599 0.101839
0.766644 0.171542 0.107881
0.777844 0.177646 0.112871
0.787259 0.182849 0.117052
0.0300908 0.0953384 0.0744488
0.0304875 0.0952773 0.0743725
0.0308843 0.0952163 0.0742351
0.0313115 0.0951705 0.0741588
0.0315099 0.0951247 0.0741283
0.0318303 0.0949874 0.073991
0.0319982 0.094789 0.0738689
0.0321965 0.0945754 0.0736706
0.0332189 0.0943465 0.0733349
0.0355077 0.0941024 0.072755
0.0407416 0.094377 0.0721141
0.0483101 0.0948043 0.0711986
0.0598459 0.0954452 0.0698711
0.0774853 0.0972 0.0682994
0.1084 0.103853 0.0672313
0.148623 0.113695 0.0702831
0.198093 0.126543 0.0763104
0.264073 0.141024 0.0781415
0.35198 0.154803 0.0768597
0.437919 0.155886 0.0702373
0.516075 0.1523 0.0665141
0.58529 0.15053 0.06804
0.626963 0.149386 0.0705577
0.64033 0.146914 0.0709697
0.6477 0.145785 0.0717327
0.659068 0.147845 0.0743572
0.688777 0.156329 0.0822766
0.714015 0.165667 0.0903944
0.734798 0.174395 0.0978866
0.752056 0.182254 0.104753
0.766003 0.188937 0.110689
0.777417 0.194873 0.115602
0.787182 0.199985 0.120012
0.0252537 0.109621 0.0757153
0.0257115 0.109545 0.0755779
0.0262455 0.109499 0.0754864
0.0267796 0.109422 0.0753338
0.0273899 0.1093 0.0751507
0.0277562 0.109224 0.0750134
0.0280613 0.109026 0.0747845
0.0281987 0.108782 0.0745098
0.0289311 0.108461 0.0741283
0.0309453 0.108156 0.073518
0.0356146 0.108202 0.0727245
0.0429389 0.1084 0.0716411
0.0537728 0.108827 0.0700542
0.0706798 0.110124 0.0681315
0.0963607 0.113375 0.0658885
0.13959 0.123934 0.0647593
0.19678 0.141634 0.0719463
0.269322 0.163653 0.0811322
0.358785 0.18233 0.0834211
0.446647 0.187137 0.0776837
0.524208 0.184329 0.0729992
0.592508 0.182864 0.0742962
0.634485 0.181079 0.0771344
0.646464 0.176272 0.0772564
0.651789 0.173083 0.0776226
0.659358 0.172717 0.0794995
0.689174 0.181659 0.0881514
0.713924 0.190829 0.0964523
0.734981 0.199634 0.104448
0.75256 0.207446 0.11136
0.766873 0.214221 0.117235
0.778851 0.220142 0.122927
0.788388 0.224796 0.127108
0.0207675 0.127672 0.0784009
0.0212863 0.127687 0.0783093
0.0218509 0.127611 0.0781109
0.0225681 0.127535 0.0778973
0.023331 0.127413 0.0776532
0.0238651 0.127337 0.0774701
0.024445 0.127108 0.0770733
0.0246891 0.126802 0.0767224
0.0249638 0.126436 0.0762646
0.0263981 0.126085 0.0755474
0.0299535 0.125856 0.0744182
0.0361944 0.125887 0.0729839
0.045594 0.126253 0.0712444
0.0623789 0.127352 0.0687114
0.0876173 0.130144 0.0656596
0.12491 0.135912 0.0624094
0.185031 0.154147 0.0612802
0.267948 0.185092 0.0743114
0.364935 0.214984 0.0877546
0.454536 0.22623 0.0874037
0.531136 0.225513 0.0835737
0.600076 0.224964 0.0846113
0.644266 0.222858 0.0881514
0.657221 0.215473 0.0879072
0.661112 0.209522 0.0876326
0.666438 0.20679 0.0887922
0.694942 0.215625 0.0975204
0.720211 0.225132 0.1066
0.741543 0.233707 0.115145
0.759258 0.241398 0.122499
0.774151 0.24802 0.128649
0.786099 0.253681 0.133715
0.796445 0.25861 0.138415
0.0163424 0.151385 0.0845655
0.016968 0.151339 0.0843977
0.0176852 0.151278 0.084123
0.0185245 0.151125 0.0837262
0.0193637 0.15108 0.0834211
0.0202945 0.150927 0.0829175
0.0209812 0.150774 0.0825513
0.0215305 0.150454 0.0820172
0.0217441 0.150042 0.0814527
0.0224765 0.149554 0.0805829
0.0252232 0.149187 0.0790875
0.0305791 0.149157 0.0771344
0.0386816 0.149172 0.0742046
0.0540169 0.15024 0.0707561
0.0782177 0.152987 0.0667277
0.115251 0.158434 0.0619516
0.168505 0.169802 0.056672
0.250599 0.199222 0.0571756
0.356924 0.24094 0.075288
0.458549 0.26833 0.0908675
0.535622 0.272572 0.0920729
0.607248 0.275074 0.0963455
0.656626 0.274205 0.101625
0.673945 0.265705 0.102464
0.679667 0.257343 0.101411
0.685481 0.252323 0.101411
0.711971 0.259815 0.110491
0.737133 0.268498 0.120104
0.75874 0.276905 0.12842
0.77705 0.284367 0.135988
0.792416 0.291249 0.142382
0.804974 0.296712 0.147387
0.815229 0.301167 0.151095
0.0123598 0.182757 0.0961013
0.0130312 0.182712 0.0955978
0.0137942 0.182757 0.0951858
0.014725 0.18265 0.0946212
0.0158083 0.182559 0.0939193
0.016846 0.182452 0.0932326
0.0178988 0.18233 0.0923781
0.0186618 0.182086 0.0915389
0.0191196 0.181628 0.0905776
0.0193942 0.181079 0.0895857
0.0211032 0.180453 0.0877241
0.025864 0.180087 0.0849775
0.0331579 0.179919 0.0813458
0.0463874 0.180316 0.0759747
0.0686351 0.182544 0.0694133
0.105104 0.187655 0.0615244
0.160311 0.198032 0.0528267
0.235309 0.219394 0.0435035
0.34345 0.266133 0.0440375
0.444495 0.297795 0.0613413
0.535927 0.318196 0.0803998
0.611551 0.327291 0.0958114
0.669688 0.33051 0.107378
0.696422 0.323278 0.111528
0.708476 0.314122 0.112154
0.717617 0.307195 0.112673
0.743832 0.313558 0.121218
0.769268 0.321874 0.130739
0.791074 0.329778 0.139162
0.809506 0.336721 0.146166
0.825208 0.343069 0.151949
0.837888 0.348119 0.156222
0.848173 0.352087 0.159655
0.00981155 0.22501 0.113069
0.0103456 0.224659 0.112627
0.0109712 0.224292 0.112215
0.0119936 0.22417 0.111345
0.0131838 0.224048 0.110414
0.0145418 0.223697 0.108965
0.0158236 0.223438 0.107698
0.0169833 0.223163 0.106416
0.0178836 0.22266 0.105043
0.0182193 0.221881 0.103731
0.0190127 0.220996 0.101793
0.0225376 0.220203 0.0983291
0.0286259 0.219425 0.0930953
0.0399176 0.219287 0.085771
0.0598306 0.220233 0.0756085
0.104005 0.237659 0.0590829
0.169879 0.261311 0.0413519
0.252934 0.289143 0.0256962
0.342077 0.316747 0.0125582
0.433799 0.33959 0.0207675
0.522179 0.35462 0.0228122
0.610666 0.371527 0.0445563
0.681346 0.382437 0.076112
0.722713 0.380972 0.0920119
0.745266 0.374273 0.100664
0.760555 0.368246 0.105409
0.78851 0.37435 0.117128
0.814618 0.382086 0.126848
0.836866 0.388998 0.1346
0.855192 0.395041 0.140597
0.870329 0.40029 0.14548
0.882841 0.404456 0.148714
0.893263 0.408011 0.151369
0.0087892 0.280705 0.127764
0.00953689 0.280461 0.127245
0.0104982 0.279973 0.126558
0.0115969 0.279591 0.12575
0.0129091 0.27921 0.124804
0.0147097 0.278874 0.122942
0.0166171 0.278569 0.120928
0.0185397 0.278279 0.118853
0.0200198 0.277958 0.117067
0.0214694 0.278737 0.114458
0.0241093 0.283528 0.109453
0.0299229 0.289738 0.102129
0.0400549 0.297154 0.0923934
0.0575265 0.30782 0.0788586
0.0857404 0.32134 0.061677
0.131853 0.340703 0.04065
0.195773 0.361807 0.020325
0.261265 0.366522 0.0141299
0.336156 0.372747 0.0115053
0.416388 0.380896 0.0149844
0.50779 0.400931 0.0255436
0.596811 0.415076 0.0271458
0.681376 0.428489 0.0291905
0.741711 0.431449 0.0309148
0.781888 0.427787 0.0318303
0.810987 0.423682 0.0322271
0.844114 0.430472 0.0487831
0.87129 0.437247 0.0630961
0.893675 0.44329 0.0739605
0.912444 0.448905 0.0822156
0.927642 0.453468 0.0876173
0.940932 0.456657 0.0903334
0.953231 0.458701 0.0890974
0.0104677 0.388724 0.105898
0.012253 0.381338 0.109712
0.0145571 0.380194 0.109239
0.0176089 0.381674 0.106996
0.021088 0.382849 0.104952
0.0252842 0.384573 0.102205
0.0302586 0.386618 0.0988632
0.0356146 0.388891 0.0951247
0.0412757 0.392798 0.0898604
0.0460212 0.397131 0.0847334
0.0497444 0.402884 0.0786145
0.0551308 0.410086 0.0708629
0.067216 0.419364 0.059968
0.0843214 0.425193 0.0507362
0.105303 0.423743 0.0454414
0.136858 0.422736 0.0375067
0.183536 0.423316 0.0273899
0.248508 0.426581 0.018265
0.326589 0.432044 0.013962
0.408286 0.43827 0.0143893
0.494987 0.449531 0.024445
0.587854 0.469291 0.0330968
0.674464 0.48188 0.0357061
0.74873 0.489281 0.03682
0.803403 0.489815 0.0363928
0.84651 0.490196 0.0372168
0.884047 0.493904 0.0380255
0.915465 0.497978 0.0385901
0.941115 0.50222 0.0388495
0.962264 0.505928 0.0390021
0.979324 0.509148 0.038941
0.98735 0.511925 0.0388952
0.987488 0.514046 0.03888
0.0040589 0.497993 0.0721294
0.00720226 0.498024 0.0717937
0.0113069 0.497963 0.0713359
0.0163119 0.49781 0.0707713
0.0221408 0.497459 0.0700389
0.0290837 0.49723 0.0690776
0.0366979 0.497017 0.06804
0.0449531 0.496559 0.0666667
0.0528725 0.495979 0.0652628
0.0588235 0.495308 0.0641642
0.0623484 0.49453 0.0633097
0.0632334 0.493538 0.063035
0.069398 0.492195 0.0615396
0.0815747 0.4907 0.0585946
0.100755 0.489006 0.0533761
0.128389 0.487312 0.0452735
0.172122 0.486809 0.0339361
0.234913 0.488533 0.0227359
0.315785 0.493919 0.0168307
0.403128 0.501488 0.0175784
0.488701 0.509087 0.0204166
0.58294 0.523919 0.0360876
0.672419 0.541955 0.0449073
0.749737 0.552743 0.0474556
0.813931 0.557336 0.045716
0.866865 0.559869 0.041474
0.910018 0.562463 0.0383612
0.945037 0.565316 0.0382696
0.9738 0.568017 0.0381018
0.990509 0.570794 0.0379492
0.99057 0.572869 0.0378119
0.9906 0.574365 0.0377203
0.990631 0.575875 0.0376135
0.0015259 0.561563 0.0778515
0.0015259 0.561181 0.077821
0.0015259 0.561074 0.077821
0.00494392 0.560906 0.0773785
0.0117037 0.560769 0.0765087
0.0199283 0.560433 0.0754559
0.0291142 0.559976 0.0741283
0.0392767 0.559533 0.0726635
0.0495155 0.558801 0.0706188
0.0584726 0.558053 0.0688182
0.0646067 0.557397 0.0673381
0.066392 0.556329 0.066865
0.0698863 0.555093 0.0659648
0.0806134 0.553582 0.0632639
0.0978866 0.551736 0.0581979
0.12311 0.549706 0.0502937
0.163287 0.548836 0.0389715
0.223636 0.549966 0.0266575
0.305821 0.555489 0.0192264
0.398505 0.564889 0.01944
0.489052 0.574456 0.0224765
0.578485 0.5832 0.0281834
0.673228 0.59823 0.0495308
0.750286 0.612726 0.0591287
0.814725 0.622629 0.0586099
0.870298 0.627512 0.053315
0.917723 0.630335 0.0464485
0.95761 0.632517 0.0401923
0.990662 0.634363 0.0352026
0.99118 0.635767 0.0353399
0.99115 0.636683 0.0354772
0.991089 0.637827 0.0356603
0.991058 0.638514 0.0357671
0.0018616 0.620783 0.0815442
0.0018616 0.6206 0.081529
0.0018616 0.620417 0.081529
0.0018616 0.620035 0.0815137
0.0018616 0.61976 0.0814984
0.00935378 0.619394 0.080415
0.0200351 0.61886 0.0788586
0.0321202 0.618402 0.0769207
0.044831 0.61767 0.0746319
0.0565652 0.616724 0.0721904
0.0657969 0.615976 0.0699626
0.0703288 0.614969 0.0687877
0.0717174 0.613855 0.0684062
0.0809339 0.612299 0.0659495
0.0968948 0.610468 0.0611429
0.121187 0.608423 0.0536049
0.159136 0.607507 0.0425269
0.217044 0.608713 0.0299687
0.299519 0.614939 0.0214542
0.395377 0.625788 0.0201877
0.489693 0.637095 0.0235142
0.580133 0.645869 0.0283207
0.669841 0.65597 0.0426337
0.750759 0.666285 0.06392
0.813901 0.677897 0.0726635
0.866865 0.687572 0.0681773
0.914611 0.693126 0.0607004
