site/assets/luts/freshluts--0000541-yelloworange.cube
# LUTr-Schema-Version: 2
# LUTr-ID: freshluts--0000541-yelloworange
# LUTr-Title: yellow+orange
# LUTr-Collection: Fresh LUTs
# LUTr-Collection-ID: freshluts-community
# LUTr-Source: https://freshluts.com
# LUTr-Retrieved: 2026-07-27
# LUTr-Source-File: submissions-raw/freshluts/cubes/541__yellow_orange_33pt.cube_4.A008_04270543_C022.cube
# LUTr-Source-Format: CUBE
# LUTr-Source-SHA256: 9d7bcad84c4569be1faac1fa27a8557c026d197c5c6a9e0177abd885e4b57b86
# LUTr-License: CC0-1.0
# LUTr-License-URL: https://freshluts.com/termsandconditions
# LUTr-License-Basis: site-terms
# LUTr-Transform-Class: creative-look
# LUTr-Tags: creative, freshluts, community, cube, warm, bmd-film-4k
# LUTr-Input-Color-Space:
# LUTr-Input-Gamut: bmd-film-gamut
# LUTr-Input-Transfer: bmd-film-4k
# LUTr-Output-Color-Space: srgb
# LUTr-Output-Gamut: rec709
# LUTr-Output-Transfer: srgb
# LUTr-Color-Space-Confidence: camera-profile-input-required
# LUTr-Domain-Normalized: true
# LUTr-Shaper: none
# LUTr-Original-Grid: 33x33x33
# LUTr-Conversion-Grid: 33x33x33
# LUTr-Conversion-Interpolation: none
# LUTr-Conversion-Method: Metadata normalization; numeric LUT samples preserved
# LUTr-Conversion-Tool: LUTr scripts/convert-all-to-cube.mjs 2.0.0
# LUTr-Conversion-Date: 2026-07-28
# LUTr-Asset-URL: https://freshluts.com/luts/541
# LUTr-Author: sswyft
# LUTr-Author-URL: https://freshluts.com/users/10877
# LUTr-Attribution: sswyft via Fresh LUTs
# LUTr-Source-Labels: gamma=Blackmagic BMD Film 4K; color=Warm; key=Neutral; style=Colorful
# LUTr-Note: Preserve this metadata and the upstream license notices when redistributing.
TITLE "yellow+orange"
LUT_3D_SIZE 33
DOMAIN_MIN 0 0 0
DOMAIN_MAX 1 1 1
0 0 0
0.018204 0 0
0.0400549 0 0
0.0474403 0 0
0.0551308 0 0
0.0632486 0 0
0.0730755 0 0
0.085893 0 0
0.102602 0 0
0.120821 0 0
0.140658 0 0
0.1785 0 0
0.210742 0 0
0.244099 0 0
0.278676 0 0
0.314855 0 0
0.351293 0 0
0.388418 0 0
0.425162 0 0
0.461555 0 0
0.49749 0 0
0.532372 0 0
0.567163 0 0
0.600916 0 0
0.634104 0 0
0.666896 0 0
0.700236 0 0
0.733532 0 0
0.768109 0 0
0.803861 0 0
0.840131 0 0
0.877104 0 0
0.914565 0 0
0 0 0
0 0 0
0.00437934 0 0
0.0141604 0 0
0.0241398 0 0
0.0420386 0 0
0.0641489 0 0
0.0860914 0 0
0.106645 0 0
0.125811 0 0
0.147402 0 0
0.187976 0 0
0.221744 0 0
0.25658 0 0
0.292988 0 0
0.330785 0 0
0.369223 0 0
0.408606 0 0
0.447898 0 0
0.486976 0 0
0.526146 0 0
0.564004 0 0
0.600977 0 0
0.637308 0 0
0.67451 0 0
0.71133 0 0
0.748104 0 0
0.784283 0 0
0.820386 0 0
0.857862 0 0
0.895476 0 0
0.932494 0 0
0.967483 0 0
0 0.00584421 0
0 0.0069276 0
0.0077821 0.0077821 0
0.0185092 0.00866712 0
0.0278325 0.00956741 0
0.0392004 0.010071 0
0.0533303 0.00975052 0
0.0745556 0.00689708 0
0.106889 0 0
0.134401 0 0
0.158419 0 0
0.198032 0 0
0.233448 0 0
0.270161 0 0
0.308537 0 0
0.349081 0 0
0.390402 0 0
0.432425 0 0
0.475151 0 0
0.517174 0 0
0.558801 0 0
0.600473 0 0
0.64239 0 0
0.682673 0 0
0.721675 0 0
0.760159 0 0
0.798657 0 0
0.836393 0 0
0.872236 0 0
0.906386 0 0
0.938628 0 0
0.969497 0 0
0.998245 0 0
0 0.0182345 0
0.00062562 0.0189822 0
0.0121157 0.0195926 0
0.02533 0.0201267 0
0.0486 0.019379 0
0.058793 0.0208438 0
0.0576028 0.0215915 0
0.0784314 0.0197452 0
0.106325 0.0158389 0
0.140414 0.00605783 0
0.171618 0 0
0.209445 0 0
0.247196 0 0
0.286564 0 0
0.327779 0 0
0.370825 0 0
0.415457 0 0
0.460883 0 0
0.507362 0 0
0.55378 0 0
0.599207 0 0
0.643854 0 0
0.687388 0 0
0.729915 0 0
0.770459 0 0
0.80824 0 0
0.843534 0 0
0.876341 0 0
0.906538 0 0
0.935454 0 0
0.964157 0 0
0.993469 0 0
1 0 0
0 0.0306554 0
0.00254826 0.0314183 0
0.0130007 0.0323491 0
0.0316014 0.0318303 0
0.0557107 0.0312657 0
0.071397 0.0325322 0
0.0869001 0.0328374 0
0.083299 0.0322576 0
0.11284 0.0284276 0
0.146685 0.023621 0
0.184314 0.0156252 0
0.222736 0.0122225 0
0.262959 0.00669871 0
0.305074 0.000686656 0
0.350149 0 0
0.397375 0 0
0.445945 0 0
0.494896 0 0
0.544182 0 0
0.593332 0 0
0.641657 0 0
0.687556 0 0
0.730251 0 0
0.770016 0 0
0.805997 0 0
0.838727 0 0
0.869932 0 0
0.900236 0 0
0.929808 0 0
0.959289 0 0
0.98851 0 0
1 0 0
1 0.00259403 0
0 0.0439307 0
0.00288396 0.0447242 0
0.0136721 0.0457313 0
0.03093 0.0456397 0
0.0542916 0.0446937 0
0.0746624 0.0463111 0
0.0935225 0.0473182 0
0.106645 0.0465705 0
0.119768 0.0434424 0
0.155886 0.0387884 0
0.195621 0.0336461 0
0.237858 0.028275 0
0.282032 0.0236057 0
0.328099 0.0184787 0
0.376074 0.0131685 0
0.426352 0.00807202 0
0.478187 0.00366217 0
0.530373 0.000030518 0
0.581399 0 0
0.630106 0 0
0.675868 0 0
0.718135 0 0
0.756954 0 0
0.79353 0 0
0.828122 0.00236515 0
0.861097 0.00631724 0
0.892882 0.0107881 0
0.923705 0.0156863 0
0.953414 0.020676 0
0.983291 0.0260929 0
1 0.031693 0
1 0.0372473 0
1 0.0429541 0
0 0.0590982 0
0.000320439 0.0601968 0
0.0116426 0.0615396 0
0.0230259 0.0631113 0
0.0487221 0.0624552 0
0.0733501 0.0619669 0
0.095201 0.0643931 0
0.12253 0.0643015 0
0.132601 0.0638437 0
0.165438 0.059266 0
0.208591 0.0549935 0
0.254002 0.0506905 0
0.30135 0.0470588 0
0.350881 0.0436713 0
0.402152 0.0404974 0
0.454322 0.0374304 0
0.506157 0.0347906 0
0.556756 0.0328222 0
0.605325 0.031693 0
0.651392 0.0314946 0
0.695354 0.0321202 0
0.736843 0.0335393 0
0.775906 0.0356909 0
0.813016 0.0387579 0
0.848127 0.0425727 0
0.881544 0.0469673 0
0.913664 0.0518196 0
0.944778 0.057023 0
0.97496 0.062501 0
1 0.0678721 0
1 0.0735943 0
1 0.0791943 0
1 0.0848859 0
0 0.0785992 0
0 0.0803235 0
0.00410468 0.0821698 0
0.0162509 0.0843824 0
0.0296483 0.0871443 0
0.0548714 0.0882429 0
0.0910964 0.0875715 0
0.122972 0.0896468 0
0.162341 0.0887922 0
0.183322 0.0888075 0
0.218585 0.0856641 0
0.267308 0.0833448 0
0.316381 0.0812543 0
0.366598 0.0793164 0
0.417197 0.077348 0
0.468086 0.0756847 0
0.518608 0.0743725 0
0.568383 0.073518 0
0.616983 0.0732128 0
0.663645 0.0736095 0
0.70811 0.0747692 0
0.750164 0.0767681 0
0.789853 0.0794842 0
0.826993 0.0826581 0
0.862379 0.0867475 0
0.896025 0.091371 0
0.928283 0.0963912 0
0.959472 0.101686 0
0.989731 0.10724 0
1 0.112596 0
1 0.118135 0
1 0.123568 0.00376898
1 0.129076 0.00926223
0 0.103944 0
0 0.10692 0
0 0.110384 0
0.00410468 0.114321 0
0.0187991 0.118196 0
0.0359197 0.122271 0
0.0630503 0.125338 0
0.116808 0.124086 0
0.161715 0.126268 0
0.209094 0.126314 0
0.246937 0.126558 0
0.272877 0.12578 0
0.320302 0.123949 0
0.370153 0.122911 0
0.420829 0.121904 0
0.47216 0.120928 0
0.523171 0.120134 0
0.573358 0.119692 0
0.622293 0.119722 0
0.669337 0.120516 0
0.714122 0.121996 0
0.75642 0.124254 0
0.796292 0.127199 0
0.833646 0.130587 0
0.869017 0.134646 0
0.902617 0.1393 0
0.934829 0.144228 0
0.965896 0.149401 0
0.995956 0.154757 0
1 0.160159 0
1 0.165637 0.00469978
1 0.171069 0.0101472
1 0.176745 0.0158236
0 0.136675 0
0 0.140963 0
0 0.146304 0
0 0.152209 0
0.00856031 0.158358 0
0.0282444 0.164172 0
0.0523384 0.169131 0
0.0944686 0.170642 0
0.155673 0.168353 0
0.206226 0.170214 0
0.24889 0.171801 0
0.277394 0.174136 0
0.325368 0.172915 0
0.371817 0.170535 0
0.422126 0.169604 0
0.473899 0.16907 0
0.525353 0.168704 0
0.575936 0.168658 0
0.624918 0.168765 0
0.672129 0.169741 0
0.717021 0.171344 0
0.75935 0.173648 0
0.799176 0.176577 0
0.836667 0.180072 0
0.871931 0.18407 0
0.905043 0.188205 0
0.937102 0.193027 0
0.96817 0.198215 0
0.998398 0.203738 0
1 0.209415 0.00215152
1 0.215228 0.00798047
1 0.220981 0.0137636
1 0.226627 0.01944
0 0.177371 0
0 0.183719 0
0 0.190173 0
0 0.196826 0
0.000961318 0.203433 0
0.0226139 0.209689 0
0.0482185 0.215122 0
0.081651 0.218708 0
0.146304 0.216617 0
0.200092 0.2159 0
0.242496 0.219669 0
0.276936 0.223194 0
0.326665 0.222889 0
0.377371 0.222721 0
0.425971 0.221118 0
0.474968 0.219364 0
0.525963 0.218875 0
0.576623 0.218921 0
0.625864 0.219287 0
0.67277 0.219974 0
0.717556 0.221469 0
0.759716 0.223575 0
0.799329 0.226307 0
0.836713 0.229725 0
0.872038 0.233814 0
0.905638 0.238468 0
0.937682 0.243229 0
0.968948 0.248661 0
0.999344 0.254398 0
1 0.260227 0.00358587
1 0.266209 0.00959792
1 0.272114 0.0155032
1 0.278111 0.0215457
0 0.223362 0
0 0.229938 0
0 0.236637 0
0 0.243656 0
0 0.250767 0
0.0201419 0.257633 0
0.0460212 0.26334 0
0.0799725 0.26743 0
0.123293 0.269184 0
0.199145 0.265476 0
0.24506 0.266239 0
0.274662 0.272358 0
0.326848 0.273472 0
0.377417 0.273182 0
0.428901 0.273014 0
0.480156 0.272328 0
0.528725 0.270649 0
0.57702 0.26949 0
0.625559 0.269444 0
0.672572 0.270207 0
0.717006 0.271382 0
0.759243 0.27364 0
0.799115 0.276631 0
0.836728 0.280278 0
0.872282 0.284581 0
0.906065 0.289433 0
0.938582 0.294667 0
0.969665 0.299947 0
1 0.305806 0
1 0.311757 0.00483711
1 0.317815 0.010956
1 0.323781 0.0169223
1 0.329854 0.0230411
0 0.270024 0
0 0.277089 0
0 0.284382 0
0 0.291951 0
0 0.29955 0
0.0193179 0.306844 0
0.0458534 0.313207 0
0.0799878 0.317479 0
0.123018 0.319341 0
0.171023 0.320165 0
0.220218 0.320546 0
0.270619 0.320638 0
0.325216 0.322911 0
0.377829 0.323629 0
0.429053 0.323201 0
0.480735 0.322591 0
0.532113 0.32221 0
0.581064 0.321386 0
0.625559 0.319509 0
0.67274 0.3205 0
0.717708 0.322194 0
0.760037 0.324544 0
0.799878 0.327535 0
0.837659 0.331365 0
0.87335 0.335805 0
0.90724 0.340764 0
0.939803 0.346105 0
0.971099 0.351553 0
1 0.357366 0.000564584
1 0.363333 0.0065919
1 0.369406 0.0126802
1 0.375341 0.018677
1 0.381369 0.0247349
0 0.31902 0
0 0.326467 0
0 0.333974 0
0 0.341878 0
0 0.349737 0
0.0188907 0.357244 0
0.0455634 0.363745 0
0.0798962 0.368215 0
0.12282 0.36997 0
0.170077 0.370871 0
0.21976 0.371023 0
0.270054 0.370932 0
0.320012 0.370871 0
0.375143 0.372839 0
0.428519 0.373541 0
0.480369 0.373098 0
0.531823 0.372808 0
0.582254 0.372824 0
0.62565 0.37052 0
0.673014 0.371695 0
0.718135 0.373556 0
0.760708 0.37615 0
0.800534 0.379156 0
0.838376 0.383062 0
0.874113 0.387564 0
0.908034 0.392569 0
0.940612 0.397925 0
0.972061 0.403571 0
1 0.409354 0.00192264
1 0.415061 0.00766003
1 0.421042 0.0137179
1 0.426856 0.0195773
1 0.432761 0.0255436
0 0.369268 0
0 0.377066 0
0 0.384695 0
0 0.392676 0
0 0.400595 0
0.0181277 0.408087 0
0.0447395 0.414527 0
0.0789197 0.418845 0
0.121935 0.420691 0
0.168811 0.421195 0
0.218402 0.421286 0
0.268833 0.421332 0
0.319051 0.42153 0
0.370077 0.421653 0
0.426001 0.423697 0
0.48014 0.424552 0
0.531685 0.424323 0
0.580652 0.423697 0
0.625681 0.422232 0
0.673152 0.42356 0
0.718349 0.425483 0
0.760937 0.428138 0
0.801038 0.431403 0
0.838666 0.43508 0
0.874357 0.439582 0
0.908232 0.444526 0
0.940734 0.449821 0
0.972091 0.455375 0
1 0.461128 0.00231937
1 0.466835 0.00807202
1 0.472435 0.0137331
1 0.478065 0.01944
1 0.483757 0.0251926
0 0.420294 0
0 0.428107 0
0 0.435966 0
0 0.443595 0
0 0.451331 0
0.016434 0.45861 0
0.0429389 0.464942 0
0.0771649 0.469306 0
0.120378 0.471351 0
0.167727 0.472343 0
0.21738 0.472496 0
0.267964 0.472679 0
0.318349 0.47306 0
0.369421 0.473304 0
0.421424 0.473548 0
0.477836 0.475547 0
0.53164 0.4766 0
0.577386 0.474342 0
0.625513 0.474418 0
0.673045 0.475746 0
0.718196 0.477684 0
0.760769 0.480308 0
0.80087 0.483574 0
0.838453 0.487251 0
0.87393 0.491508 0
0.907652 0.496345 0
0.940002 0.501488 0
0.971176 0.506874 0
1 0.512428 0.00166323
1 0.517983 0.00729381
1 0.523552 0.0129244
1 0.528878 0.0183108
1 0.534325 0.0238041
0 0.471 0
0 0.478614 0
0 0.48629 0
0 0.494148 0
0 0.501991 0
0.0153658 0.509209 0
0.0421302 0.515801 0
0.0765698 0.520378 0
0.119966 0.522622 0
0.167514 0.523781 0
0.217548 0.524315 0
0.268193 0.52459 0
0.318486 0.524895 0
0.36965 0.525231 0
0.421424 0.525383 0
0.47425 0.525689 0
0.527352 0.526436 0
0.576303 0.525765 0
0.625742 0.52639 0
0.673167 0.527672 0
0.718242 0.529534 0
0.760708 0.532036 0
0.800671 0.53518 0
0.83827 0.538872 0
0.873594 0.543008 0
0.907088 0.547601 0
0.938979 0.552331 0
0.969909 0.557443 0
0.999802 0.562737 0.000579843
1 0.567971 0.00588998
1 0.573236 0.0112306
1 0.578241 0.0163272
1 0.583261 0.0214237
0 0.520943 0
0 0.52871 0
0 0.536645 0
0 0.544747 0
0 0.552789 0
0.0161288 0.560449 0
0.0428321 0.566949 0
0.0774243 0.571679 0
0.120958 0.574029 0
0.168582 0.575296 0
0.218677 0.575906 0
0.269474 0.576349 0
0.319692 0.576577 0
0.37084 0.576898 0
0.422583 0.57705 0
0.474815 0.57705 0
0.526604 0.577127 0
0.577417 0.577417 0
0.626825 0.578042 0
0.673808 0.578866 0
0.718685 0.580575 0
0.760952 0.582895 0
0.800671 0.585809 0
0.838041 0.589273 0
0.873167 0.59321 0
0.906416 0.597559 0
0.93817 0.602152 0
0.96875 0.606943 0
0.998291 0.611872 0
1 0.616724 0.00445563
1 0.621561 0.0093843
1 0.626154 0.0140536
1 0.630655 0.0186465
0 0.571099 0
0 0.57908 0
0 0.587198 0
0 0.595453 0
0 0.603647 0
0.0184939 0.61146 0
0.0452583 0.618021 0
0.0798657 0.622782 0
0.12343 0.625177 0
0.171054 0.626474 0
0.221149 0.62707 0
0.271916 0.627497 0
0.322347 0.627939 0
0.373129 0.627909 0
0.42475 0.627955 0
0.476844 0.627832 0
0.528466 0.627771 0
0.579095 0.627878 0
0.628305 0.62829 0
0.675334 0.629206 0
0.719966 0.63064 0
0.761639 0.63241 0
0.801099 0.635081 0
0.838087 0.638163 0
0.872847 0.641779 0
0.905699 0.645747 0
0.937087 0.649943 0
0.967224 0.654322 0
0.996323 0.658808 0
1 0.663188 0.00254826
1 0.667536 0.00698863
1 0.671611 0.0111696
1 0.675669 0.0153048
0 0.621195 0
0 0.629206 0
0 0.637415 0
0 0.645747 0
0 0.654002 0
0.0228885 0.66186 0
0.0499428 0.668681 0
0.0842908 0.673167 0
0.127794 0.675532 0
0.175372 0.676753 0
0.22536 0.677272 0
0.276005 0.677577 0
0.326299 0.677913 0
0.377172 0.678019 0
0.428321 0.677577 0
0.480186 0.677241 0
0.531579 0.676936 0
0.581918 0.676799 0
0.630823 0.676936 0
0.677546 0.677546 0
0.721843 0.67866 0
0.763439 0.680369 0
0.802472 0.682612 0
0.839078 0.685344 0
0.873426 0.688533 0
0.905821 0.692042 0
0.936706 0.695766 0
0.966354 0.699641 0
0.994949 0.703609 0
1 0.7075 0.00114443
1 0.711345 0.00508125
1 0.714916 0.00877394
1 0.718471 0.0124208
0 0.670893 0
0 0.67892 0
0 0.686961 0
0 0.695308 0
0.00605783 0.703532 0
0.0294041 0.71133 0
0.0563821 0.71809 0
0.0908064 0.722683 0
0.134112 0.724819 0
0.181415 0.725795 0
0.23122 0.726162 0
0.281651 0.726268 0
0.331731 0.726375 0
0.382376 0.726238 0
0.433524 0.725841 0
0.485084 0.725216 0
0.536141 0.724605 0
0.586145 0.724132 0
0.634485 0.723735 0
0.680949 0.724102 0
0.724697 0.724697 0
0.765774 0.725872 0
0.804288 0.727611 0
0.840665 0.730144 0
0.874495 0.732815 0
0.906386 0.735821 0
0.936767 0.73904 0
0.965896 0.742428 0
0.993988 0.745892 0
1 0.749279 0.000183108
1 0.752636 0.00364691
1 0.755734 0.00683604
1 0.758877 0.0100557
0 0.719509 0
0 0.727611 0
0 0.735531 0
0 0.743755 0
0.0146944 0.751858 0
0.0379187 0.759518 0
0.0647288 0.76614 0
0.0991073 0.770642 0
0.142275 0.772671 0
0.189456 0.773526 0
0.238743 0.773388 0
0.288853 0.773175 0
0.338598 0.772992 0
0.388907 0.772534 0
0.439704 0.771801 0
0.490867 0.770794 0
0.541512 0.769787 0
0.591073 0.768902 0
0.639139 0.768246 0
0.684962 0.767987 0
0.728313 0.7682 0
0.768978 0.768963 0
0.807004 0.770245 0
0.842603 0.772 0
0.876066 0.774304 0
0.907622 0.776989 0
0.937499 0.779721 0
0.966155 0.782605 0
0.993713 0.785595 0
1 0.788495 0
1 0.791379 0.00288396
1 0.794079 0.00570687
1 0.796902 0.00865187
0 0.76701 0
0 0.775006 0
0 0.783047 0
0.00360113 0.790921 0
0.0250858 0.798749 0
0.0480812 0.80621 0
0.0746777 0.812573 0
0.108766 0.816831 0
0.151659 0.818586 0
0.198505 0.81912 0
0.247715 0.818906 0
0.297505 0.818387 0
0.346853 0.817823 0
0.396719 0.816968 0
0.447089 0.815793 0
0.49778 0.814359 0
0.547921 0.812863 0
0.596979 0.811475 0
0.644511 0.810315 0
0.68983 0.809552 0
0.732662 0.809277 0
0.772808 0.809537 0
0.81033 0.81033 0
0.845426 0.811582 0
0.878279 0.813306 0
0.909438 0.81561 0
0.938842 0.817853 0
0.96701 0.820264 0
0.99411 0.822797 0
1 0.825238 0.000320439
1 0.827955 0.00315862
1 0.830121 0.00540169
1 0.832273 0.00766003
0 0.813184 0
0 0.820996 0
0 0.828794 0
0.0157626 0.836652 0
0.0370642 0.844297 0
0.0597696 0.851453 0
0.0860456 0.857496 0
0.11957 0.861189 0.000167849
0.16202 0.862501 0.0016022
0.208484 0.862715 0.00189212
0.257221 0.862043 0.00135805
0.306554 0.861082 0.000518807
0.355444 0.860059 0
0.404898 0.858808 0
0.454765 0.857176 0
0.505013 0.855283 0
0.554726 0.853407 0
0.603265 0.851514 0
0.650294 0.849867 0
0.695094 0.848615 0
0.737438 0.847852 0
0.777066 0.847639 0
0.814099 0.847944 0
0.848951 0.848951 0
0.881361 0.850233 0
0.911772 0.851804 0
0.940703 0.85359 0
0.968399 0.855543 0
0.995346 0.857908 0
1 0.859892 0.00155642
1 0.861875 0.00364691
1 0.8636 0.00549325
1 0.865629 0.00758373
0 0.857832 0
0 0.865354 0
0.00799573 0.872862 0
0.0286717 0.880385 0
0.0496529 0.887678 0
0.0719768 0.894453 0.00239567
0.0978256 0.900114 0.00816358
0.131151 0.903609 0.01178
0.17319 0.90454 0.0128481
0.219181 0.904234 0.0126955
0.267445 0.903105 0.0117189
0.316243 0.901656 0.0103914
0.364584 0.900114 0.00898756
0.413443 0.898283 0.00726329
0.462745 0.896117 0.00521859
0.512535 0.893782 0.00303655
0.561822 0.891493 0.000869764
0.609842 0.889128 0
0.656382 0.886992 0
0.700679 0.885267 0
0.742519 0.884016 0
0.781674 0.883345 0
0.818555 0.883482 0
0.852674 0.883803 0
0.884565 0.884565 0
0.914504 0.885664 0
0.943282 0.887297 0
0.970535 0.888823 0
0.996719 0.890455 0.00125124
1 0.892073 0.00302129
1 0.893843 0.00491341
1 0.895155 0.00628672
1 0.896452 0.00770581
0 0.901076 0
0.00112917 0.908248 0
0.0220035 0.915358 0
0.0422827 0.922469 0.00167849
0.0628214 0.929335 0.00868238
0.0846876 0.935653 0.0151522
0.110048 0.940841 0.0204471
0.142855 0.943832 0.0235599
0.184405 0.944259 0.0241398
0.229831 0.94345 0.0234379
0.277577 0.941833 0.021973
0.325872 0.939879 0.0201572
0.373709 0.93785 0.0182803
0.422049 0.935515 0.0160678
0.470863 0.932876 0.01355
0.520317 0.930251 0.0110628
0.568933 0.927306 0.00823987
0.616464 0.924468 0.00552377
0.662501 0.921859 0.00302129
0.70634 0.919676 0.000991836
0.748012 0.918273 0
0.786694 0.917144 0
0.822782 0.916533 0
0.856474 0.916396 0
0.888121 0.916945 0
0.917708 0.917693 0
0.945724 0.918608 0.00077821
0.972671 0.919814 0.00207523
0.998627 0.921187 0.00358587
1 0.922332 0.00486763
1 0.923506 0.00608835
1 0.924743 0.00747692
1 0.925704 0.00856031
0 0.942229 0
0.0150607 0.948959 0.00111391
0.0354772 0.955596 0.00790417
0.0552682 0.962219 0.0146792
0.075288 0.968582 0.0211795
0.0966354 0.974395 0.0271305
0.121599 0.979156 0.0320287
0.154116 0.981857 0.0348669
0.195132 0.981796 0.0349584
0.240055 0.980499 0.0337835
0.287282 0.978408 0.0317845
0.335073 0.975967 0.0294957
0.382422 0.973465 0.0271458
0.430304 0.970703 0.0245212
0.478889 0.967834 0.0217899
0.52755 0.964462 0.0185092
0.575677 0.961044 0.0152438
0.622736 0.957748 0.0120546
0.668544 0.95491 0.0093843
0.711971 0.952361 0.0069276
0.75288 0.95021 0.00491341
0.791119 0.948638 0.00349432
0.827085 0.94789 0.00285344
0.860304 0.947341 0.00242618
0.891295 0.947234 0.00244144
0.920638 0.947753 0.00306706
0.948302 0.948287 0.00375372
0.974746 0.948989 0.00454719
1 0.950149 0.00584421
1 0.950988 0.00674449
1 0.951827 0.00772107
1 0.952773 0.0087892
1 0.95346 0.00956741
0.00839246 0.981689 0.00840772
0.0286717 0.987915 0.014725
0.0485847 0.994049 0.0210269
0.0678569 1 0.0272831
0.0873732 1 0.0332952
0.108232 1 0.0387579
0.132753 1 0.0432288
0.164706 1 0.0455177
0.205203 1 0.0450904
