site/assets/luts/freshluts--0002164-til.cube
# LUTr-Schema-Version: 2
# LUTr-ID: freshluts--0002164-til
# LUTr-Title: Til
# LUTr-Collection: Fresh LUTs
# LUTr-Collection-ID: freshluts-community
# LUTr-Source: https://freshluts.com
# LUTr-Retrieved: 2026-07-27
# LUTr-Source-File: submissions-raw/freshluts/cubes/2164__Til_10.C0004.cube
# LUTr-Source-Format: CUBE
# LUTr-Source-SHA256: cc6b99e405fd5a0005cb18cbcfab74c9e443344aba17a478a91304c1a2eaa82b
# LUTr-License: CC0-1.0
# LUTr-License-URL: https://freshluts.com/termsandconditions
# LUTr-License-Basis: site-terms
# LUTr-Transform-Class: creative-look
# LUTr-Tags: creative, freshluts, community, cube, teal, sony-s-log1
# LUTr-Input-Color-Space:
# LUTr-Input-Gamut: sony-s-gamut
# LUTr-Input-Transfer: sony-s-log1
# LUTr-Output-Color-Space: srgb
# LUTr-Output-Gamut: rec709
# LUTr-Output-Transfer: srgb
# LUTr-Color-Space-Confidence: camera-profile-input-required
# LUTr-Domain-Normalized: true
# LUTr-Shaper: none
# LUTr-Original-Grid: 33x33x33
# LUTr-Conversion-Grid: 33x33x33
# LUTr-Conversion-Interpolation: none
# LUTr-Conversion-Method: Metadata normalization; numeric LUT samples preserved
# LUTr-Conversion-Tool: LUTr scripts/convert-all-to-cube.mjs 2.0.0
# LUTr-Conversion-Date: 2026-07-28
# LUTr-Asset-URL: https://freshluts.com/luts/2164
# LUTr-Author: lvannoeun@gmail.com
# LUTr-Author-URL: https://freshluts.com/users/57563
# LUTr-Attribution: lvannoeun@gmail.com via Fresh LUTs
# LUTr-Source-Labels: gamma=Sony S-Log; color=Teal; key=Neutral; style=Correction
# LUTr-Note: Preserve this metadata and the upstream license notices when redistributing.
TITLE "Til"
LUT_3D_SIZE 9
DOMAIN_MIN 0 0 0
DOMAIN_MAX 1 1 1
0.000274662 0.00355535 0.000747692
0.125032 0.0167544 0.0179294
0.276585 0.0632792 0.068513
0.392905 0.145846 0.159518
0.505333 0.241032 0.260365
0.621622 0.342397 0.362661
0.749447 0.444389 0.460456
0.93051 0.554696 0.55639
0.966369 0.635782 0.635523
0.0588846 0.170245 0.0652323
0.139406 0.162264 0.0695354
0.262684 0.181903 0.106157
0.377905 0.220691 0.168048
0.489891 0.278019 0.251575
0.605234 0.351614 0.346578
0.730388 0.437858 0.442084
0.891218 0.537865 0.536675
0.961242 0.623682 0.619547
0.136614 0.30602 0.145449
0.192889 0.292836 0.144259
0.275669 0.295201 0.158007
0.374166 0.30959 0.195071
0.477852 0.338445 0.257481
0.588449 0.384146 0.339666
0.710048 0.448569 0.429114
0.860166 0.532021 0.520302
0.957809 0.615106 0.603754
0.214267 0.41799 0.221149
0.255558 0.404685 0.218219
0.305043 0.398291 0.220706
0.38291 0.401053 0.231006
0.474144 0.413504 0.275303
0.576715 0.437842 0.341466
0.692592 0.479088 0.419287
0.833143 0.54107 0.50631
0.952331 0.616297 0.591089
0.298497 0.526741 0.303929
0.32369 0.511238 0.295369
0.348592 0.499779 0.289937
0.402579 0.495567 0.291798
0.47895 0.498161 0.299687
0.571603 0.508827 0.349126
0.679271 0.530434 0.414359
0.810452 0.569879 0.494377
0.947631 0.630198 0.57969
0.386297 0.634928 0.380346
0.398306 0.617746 0.369436
0.406165 0.603281 0.360693
0.437247 0.593988 0.35584
0.493706 0.59057 0.35523
0.573281 0.592874 0.358495
0.671504 0.60087 0.413794
0.792966 0.620996 0.485573
0.944686 0.662974 0.570153
0.480446 0.74847 0.452049
0.481361 0.72842 0.439826
0.477928 0.711223 0.428931
0.489601 0.698405 0.420661
0.52372 0.690303 0.41561
0.5832 0.687221 0.413169
0.669062 0.689311 0.41352
0.781415 0.695125 0.479301
0.944625 0.71899 0.564202
0.589685 0.894392 0.533532
0.5785 0.863844 0.517235
0.566003 0.838712 0.503532
0.56286 0.819379 0.492439
0.576181 0.80621 0.484291
0.612284 0.798062 0.478157
0.67599 0.794934 0.473777
0.776257 0.797406 0.471031
0.941451 0.804425 0.559472
0.676219 0.983978 0.591211
0.674083 0.98233 0.58584
0.668894 0.980575 0.581262
0.666941 0.979126 0.577371
0.672923 0.978363 0.57406
0.688411 0.970504 0.568231
0.721569 0.955398 0.559289
0.790463 0.949691 0.553033
0.933593 0.956161 0.549935
0.00935378 0.0110781 0.178897
0.160891 0.0297246 0.185412
0.314199 0.0882582 0.204166
0.413199 0.162051 0.245655
0.519905 0.254582 0.312978
0.633783 0.352926 0.394186
0.760998 0.452506 0.478538
0.934539 0.560555 0.566644
0.968322 0.640406 0.643626
0.0656291 0.173999 0.165972
0.120317 0.16524 0.162493
0.297261 0.16376 0.171923
0.40116 0.201633 0.215228
0.502388 0.260777 0.278157
0.609354 0.342779 0.361883
0.729305 0.434073 0.450919
0.8869 0.535378 0.540551
0.960327 0.622019 0.621332
0.144472 0.313359 0.226169
0.150011 0.30367 0.163119
0.272526 0.295384 0.168994
0.385336 0.30164 0.218708
0.487602 0.327031 0.274708
0.594278 0.374762 0.350805
0.712291 0.4421 0.435065
0.858961 0.527184 0.522515
0.956878 0.613092 0.605875
0.211185 0.424521 0.27985
0.217975 0.409873 0.221927
0.28513 0.398703 0.223102
0.380774 0.399283 0.234974
0.478004 0.407843 0.283528
0.580392 0.431479 0.349493
0.694026 0.472984 0.424643
0.831922 0.536461 0.508476
0.952712 0.612909 0.591913
0.278141 0.531502 0.332464
0.297566 0.515358 0.299123
0.328664 0.500557 0.291218
0.391943 0.494102 0.291371
0.476539 0.495674 0.300175
0.572656 0.504509 0.352895
0.680079 0.525612 0.41857
0.809491 0.565133 0.496773
0.948058 0.626459 0.580636
0.358877 0.641001 0.385931
0.380957 0.621698 0.373495
0.389395 0.604578 0.362814
0.424582 0.593179 0.356542
0.486763 0.588708 0.354681
0.570596 0.590112 0.357687
0.670939 0.597299 0.415702
0.791836 0.6168 0.487465
0.945052 0.659312 0.571328
0.466743 0.754437 0.457221
0.471138 0.732296 0.443626
0.466621 0.712657 0.43125
0.478416 0.697887 0.421714
0.515221 0.688716 0.415549
0.577874 0.684977 0.412406
0.666392 0.686213 0.412299
0.779599 0.691554 0.479835
0.944808 0.715511 0.565255
0.58555 0.903014 0.538933
0.574029 0.868925 0.521187
0.559533 0.840604 0.505959
0.554635 0.819242 0.493568
0.568124 0.804562 0.484337
0.6056 0.795514 0.477516
0.671412 0.791867 0.472496
0.772824 0.794064 0.469322
0.936553 0.800198 0.558541
0.671427 0.984436 0.593591
0.670161 0.982635 0.587625
0.664637 0.98088 0.582452
0.662028 0.979126 0.57818
0.667597 0.978286 0.574563
0.681224 0.96553 0.566674
0.715221 0.949859 0.557214
0.785092 0.943999 0.550439
0.927321 0.949569 0.54725
0.0248417 0.0268254 0.337163
0.150713 0.0422217 0.330007
0.338094 0.109575 0.349264
0.487572 0.224704 0.389197
0.593881 0.318471 0.422873
0.695216 0.402441 0.46952
0.818921 0.491753 0.529061
0.943511 0.583734 0.598474
0.972168 0.663233 0.673121
0.076112 0.17435 0.30132
0.129915 0.161944 0.330373
0.316533 0.164157 0.337896
0.432837 0.214969 0.332219
0.521355 0.275502 0.357259
0.62385 0.354604 0.411597
0.742123 0.443458 0.480247
0.905348 0.544625 0.558618
0.962158 0.626947 0.632746
0.145113 0.312062 0.306737
0.149706 0.303822 0.299168
0.262852 0.292332 0.294636
0.400961 0.292195 0.301366
0.51281 0.313481 0.327642
0.606989 0.362356 0.379583
0.715862 0.434028 0.450111
0.856565 0.523522 0.530755
0.955734 0.611521 0.610315
0.215641 0.428763 0.345876
0.210056 0.415152 0.303212
0.247242 0.412085 0.265156
0.379004 0.399039 0.284489
0.492149 0.401709 0.315389
0.5906 0.423224 0.369833
0.699016 0.464561 0.434821
0.832868 0.530251 0.51342
0.953597 0.609049 0.594171
0.281468 0.535348 0.382681
0.275624 0.521767 0.32903
0.294987 0.507454 0.302235
0.37557 0.497749 0.303639
0.476921 0.496239 0.309514
0.577249 0.500481 0.364996
0.682383 0.519905 0.425055
0.8094 0.559991 0.50042
0.948577 0.623026 0.582132
0.358831 0.644862 0.418997
0.362417 0.627909 0.379049
0.370275 0.608011 0.366629
0.409064 0.593576 0.358099
0.478798 0.587701 0.356207
0.569863 0.589029 0.362203
0.670756 0.593622 0.418204
0.791074 0.612818 0.489754
0.945388 0.656046 0.572427
0.455161 0.761501 0.462852
0.465248 0.738033 0.448081
0.459022 0.716121 0.434363
0.46894 0.698497 0.423133
0.507225 0.687541 0.415717
0.573114 0.682765 0.411734
0.664637 0.68452 0.413794
0.777752 0.688457 0.480156
0.944869 0.712566 0.565805
0.585443 0.913985 0.545174
0.574502 0.876585 0.525597
0.55787 0.845228 0.508812
0.550179 0.820417 0.494957
0.562249 0.80354 0.484428
0.600534 0.793393 0.476799
0.667643 0.789166 0.471412
0.770153 0.791302 0.469368
0.93138 0.796689 0.557046
0.669261 0.984939 0.595728
0.669367 0.983124 0.589288
0.663417 0.981125 0.583688
0.659617 0.979263 0.578943
0.664347 0.978241 0.574899
0.676249 0.961868 0.565286
0.710369 0.945037 0.555108
0.780667 0.938842 0.547967
0.92192 0.944259 0.54519
0.0449531 0.0457618 0.472511
0.146502 0.0594949 0.461295
0.323781 0.111406 0.464134
0.499672 0.240345 0.519066
0.662806 0.376394 0.559579
0.807248 0.482551 0.58471
0.936629 0.570871 0.620462
0.964996 0.635309 0.667704
0.96112 0.722118 0.747845
0.085832 0.167407 0.433036
0.133104 0.159136 0.444038
0.291203 0.176303 0.451286
0.459541 0.235401 0.47863
0.595285 0.331823 0.495445
0.699947 0.41207 0.515282
0.812024 0.490105 0.551003
0.940307 0.577676 0.605798
0.972412 0.650416 0.669505
0.14992 0.310552 0.414237
0.168215 0.297246 0.419211
0.256519 0.286046 0.465003
0.438468 0.279179 0.462348
0.540856 0.321675 0.440497
0.625437 0.372274 0.45626
0.73109 0.443824 0.499092
0.875059 0.53315 0.560433
0.957366 0.616449 0.628702
0.214527 0.426154 0.424964
0.214374 0.415991 0.414832
0.229984 0.411734 0.411337
0.371832 0.394522 0.400168
0.489769 0.397009 0.407172
0.603754 0.413886 0.427558
0.712337 0.453529 0.466911
0.835996 0.521767 0.529229
0.953292 0.605249 0.603937
0.284825 0.537835 0.450523
0.279438 0.524681 0.417197
0.27985 0.512612 0.390372
0.353094 0.501289 0.375982
0.472267 0.491981 0.391791
0.583078 0.495171 0.410422
0.693294 0.511742 0.449226
0.814282 0.551385 0.511376
0.950927 0.617105 0.587839
0.360311 0.646357 0.470237
0.352819 0.632609 0.427008
0.341299 0.614832 0.39884
0.372717 0.602914 0.376196
0.462379 0.591821 0.376684
0.567681 0.586435 0.395621
0.676173 0.589532 0.433875
0.793256 0.606806 0.49688
0.94699 0.651102 0.576715
0.453391 0.765774 0.493553
0.447501 0.746197 0.455116
0.44155 0.722667 0.440604
0.448722 0.702113 0.427466
0.491005 0.687907 0.418006
0.564691 0.682643 0.416297
0.663706 0.683116 0.418235
0.777935 0.684535 0.48481
0.945891 0.708461 0.568521
0.581552 0.926696 0.553017
0.573022 0.886931 0.532036
0.554864 0.852491 0.513939
0.543053 0.824399 0.498253
0.552911 0.804105 0.48603
0.59234 0.792004 0.477073
0.662593 0.786618 0.470649
0.768078 0.788937 0.470634
0.927367 0.792966 0.556664
0.665522 0.985595 0.598321
0.667948 0.983673 0.59144
0.662135 0.981781 0.585367
0.656886 0.979721 0.580163
0.660105 0.978256 0.575692
0.670436 0.959762 0.565011
0.704601 0.9411 0.553704
0.775876 0.934142 0.545739
0.916899 0.939391 0.543709
0.0747234 0.0762188 0.622522
0.143404 0.0830549 0.604791
0.314595 0.115999 0.596094
0.477378 0.249561 0.635416
0.66865 0.385092 0.704128
0.878492 0.522438 0.716716
0.954955 0.62034 0.74461
0.956588 0.717739 0.801785
0.941451 0.827207 0.916991
0.0917525 0.143633 0.567468
0.1308 0.152789 0.56582
0.277028 0.176699 0.566873
0.433692 0.250477 0.5888
0.61004 0.349187 0.639597
0.776028 0.465049 0.65301
0.933791 0.569177 0.666941
0.963623 0.634882 0.700145
0.959777 0.718181 0.765255
0.157534 0.305058 0.537835
0.173709 0.291508 0.53547
0.262181 0.288426 0.571756
0.404807 0.297337 0.5738
0.567178 0.336858 0.594141
0.700816 0.420996 0.592111
0.818143 0.498116 0.600076
0.938857 0.576974 0.630869
0.968688 0.643732 0.681468
0.209537 0.420371 0.521019
0.235233 0.41004 0.527169
0.26331 0.400275 0.536492
0.362875 0.387076 0.567559
0.527031 0.385565 0.555703
0.644388 0.413687 0.538476
0.731411 0.460822 0.544076
0.85655 0.531411 0.579614
0.954253 0.610498 0.634928
0.282628 0.533928 0.538094
0.282185 0.523644 0.527459
0.2813 0.511849 0.515297
0.329046 0.501579 0.506706
0.466789 0.487037 0.495262
0.576944 0.489921 0.499886
0.693004 0.505074 0.514549
0.826535 0.540276 0.545922
0.954421 0.607889 0.604974
0.359548 0.643763 0.545037
0.354879 0.631998 0.516533
0.343328 0.615351 0.495003
0.34995 0.60618 0.469078
0.45127 0.587564 0.468299
0.561685 0.579629 0.479912
0.672557 0.582971 0.494728
0.803906 0.598215 0.52369
0.951629 0.641901 0.588464
0.454139 0.76553 0.549279
0.443183 0.74847 0.511147
0.427558 0.727184 0.487984
0.419089 0.709361 0.464652
0.460304 0.694804 0.449378
0.553567 0.680491 0.460594
0.657725 0.676051 0.47657
0.781643 0.679332 0.504479
0.949218 0.702129 0.577386
0.578408 0.936248 0.57821
0.559457 0.898726 0.540917
0.541512 0.862852 0.522225
0.525597 0.831952 0.505333
0.532174 0.808011 0.491188
0.575448 0.792523 0.481544
0.652979 0.786435 0.47718
0.76466 0.784512 0.49012
0.925628 0.788144 0.562158
0.654994 0.986206 0.602136
0.661936 0.984344 0.594629
0.656992 0.9823 0.588403
0.650385 0.980133 0.582773
0.651743 0.978408 0.577813
0.661341 0.960494 0.566873
0.695628 0.938155 0.55346
0.769558 0.929686 0.54406
0.912459 0.935058 0.543618
0.110216 0.11043 0.791333
0.132708 0.113771 0.792264
0.30898 0.145968 0.802152
0.462989 0.246433 0.835569
0.631006 0.401816 0.883391
0.877668 0.518624 0.938201
0.947509 0.620127 0.993378
0.938827 0.773983 0.986404
0.935805 0.934661 0.947738
0.11545 0.127825 0.789578
0.120226 0.138552 0.749981
0.266377 0.167773 0.730632
0.41825 0.250446 0.73724
0.577813 0.36733 0.777554
0.78117 0.469215 0.832929
0.93724 0.589181 0.838483
0.951385 0.695155 0.881041
0.937407 0.818051 0.976394
0.166201 0.290318 0.696681
0.171527 0.285206 0.679683
0.259174 0.283299 0.698482
0.386542 0.299947 0.694835
0.532494 0.356405 0.713802
0.714733 0.432135 0.756649
0.923873 0.554131 0.745708
0.959319 0.630762 0.767391
0.955489 0.718135 0.813855
0.217456 0.415747 0.652628
0.240604 0.404517 0.65098
0.275257 0.392676 0.65626
0.365942 0.38996 0.696666
0.503746 0.395148 0.693294
0.669459 0.422553 0.706401
0.817472 0.504524 0.68333
0.939269 0.582681 0.684092
0.966445 0.641779 0.715923
0.264317 0.521385 0.631418
0.31017 0.515709 0.64622
0.318654 0.50222 0.639796
0.348333 0.491875 0.650095
0.458808 0.477485 0.661967
0.613855 0.475639 0.647242
0.738155 0.501396 0.625193
0.85214 0.546685 0.626093
0.954086 0.612055 0.658396
0.355764 0.636332 0.649378
0.354879 0.626032 0.638056
0.346151 0.611612 0.622156
0.347387 0.600366 0.610193
0.427054 0.584863 0.594842
0.555703 0.572091 0.581491
0.665751 0.575509 0.583505
0.796796 0.590799 0.594736
0.964233 0.630838 0.624384
0.451194 0.759075 0.636149
0.442634 0.743526 0.609049
0.42858 0.724132 0.588647
0.418143 0.706661 0.569375
0.443534 0.692988 0.549371
0.542245 0.673899 0.549905
0.651041 0.667033 0.559884
0.773724 0.671046 0.571786
0.960739 0.692653 0.605264
0.581155 0.937392 0.636301
0.557229 0.901244 0.599039
0.53341 0.86714 0.574929
0.51162 0.836789 0.555871
0.502983 0.815915 0.53167
0.551308 0.794797 0.525139
0.643641 0.779431 0.535363
0.757549 0.775235 0.549004
0.928878 0.781292 0.580148
0.635782 0.984634 0.621073
0.64036 0.985046 0.600671
0.638773 0.983017 0.593896
0.632166 0.981048 0.587808
0.631693 0.978973 0.582498
0.643122 0.96698 0.573068
0.678019 0.93843 0.55877
0.75787 0.927764 0.551232
0.908568 0.930938 0.54696
0.110216 0.11043 0.791333
0.110216 0.11043 0.791333
0.273884 0.139193 0.799878
0.440223 0.174075 0.811948
0.617212 0.383185 0.890562
0.850004 0.5205 0.952651
0.946456 0.627451 0.999908
0.937545 0.812009 0.977859
0.935805 0.934661 0.947738
0.110216 0.11043 0.791333
0.110216 0.11043 0.791333
0.22945 0.131334 0.797452
0.399878 0.209659 0.822812
0.560403 0.360311 0.87924
0.74255 0.480705 0.932631
0.930968 0.582635 0.982254
0.941146 0.719676 0.99649
0.935805 0.934661 0.947738
0.16492 0.257786 0.806867
0.165362 0.258778 0.806958
0.242679 0.262882 0.83331
0.373999 0.29015 0.848371
0.51371 0.359945 0.877623
0.670268 0.450309 0.91812
0.914733 0.547158 0.965469
0.945098 0.648417 0.999893
0.937804 0.800534 0.980575
0.22948 0.407446 0.831662
0.236622 0.39968 0.834073
0.281346 0.388846 0.851438
0.365835 0.388678 0.87129
0.48217 0.40061 0.851026
0.623224 0.442679 0.858396
0.833219 0.510613 0.892912
0.94493 0.608286 0.89633
0.94699 0.708888 0.925277
0.276432 0.516991 0.813153
0.321035 0.507729 0.810056
0.334646 0.493294 0.793774
0.36965 0.481361 0.792523
0.460166 0.475761 0.830137
0.593393 0.476951 0.820813
0.77348 0.499748 0.824292
0.937316 0.58613 0.782895
0.962524 0.645609 0.792203
0.355138 0.618753 0.775784
0.397299 0.610239 0.782071
0.397879 0.595834 0.766369
0.399817 0.581964 0.753902
0.435019 0.571649 0.765774
0.546746 0.557321 0.763043
0.70399 0.55726 0.743114
0.85861 0.584176 0.712566
0.960311 0.628901 0.711742
0.444602 0.744961 0.770321
0.439857 0.73135 0.754986
0.42739 0.714061 0.73547
0.416907 0.697581 0.716884
0.430243 0.684031 0.701976
0.517647 0.667735 0.682536
0.644083 0.656397 0.66659
0.765057 0.661097 0.666163
0.966018 0.678477 0.669627
0.578759 0.927855 0.735271
0.556313 0.893034 0.706004
0.53344 0.860395 0.683879
0.512657 0.831739 0.665187
0.501396 0.810575 0.644785
0.534051 0.791302 0.627573
0.63122 0.770336 0.627802
0.749203 0.763165 0.636561
0.922881 0.770077 0.642374
0.631388 0.973053 0.701442
0.629038 0.975845 0.66952
0.624125 0.975891 0.652323
0.618204 0.974594 0.64181
0.613565 0.973754 0.631067
0.619547 0.978439 0.614496
0.643412 0.946456 0.587289
0.743221 0.920882 0.598779
0.898238 0.91696 0.607828
0.110216 0.11043 0.791333
0.110216 0.11043 0.791333
0.110216 0.11043 0.791333
0.409918 0.167163 0.809354
0.582834 0.279606 0.849592
0.826474 0.503243 0.944503
0.946242 0.631006 0.999908
0.937285 0.823819 0.975006
0.935805 0.934661 0.947738
0.110216 0.11043 0.791333
0.110216 0.11043 0.791333
0.110216 0.11043 0.791333
0.363088 0.156893 0.805768
0.533608 0.285664 0.850706
0.727092 0.464942 0.925521
0.932189 0.585168 0.983551
0.940597 0.730068 0.995865
0.935805 0.934661 0.947738
0.110216 0.11043 0.791333
0.110216 0.11043 0.791333
0.110292 0.110674 0.791348
0.328069 0.189624 0.814984
0.493706 0.314641 0.859876
0.657649 0.436454 0.912139
0.916014 0.549844 0.966766
0.94435 0.6598 0.999893
0.936461 0.86067 0.966232
0.214542 0.373709 0.825528
0.211978 0.368078 0.824475
0.224628 0.356161 0.828626
0.338781 0.36199 0.873823
0.467414 0.383886 0.88658
0.606073 0.436912 0.911055
0.795544 0.51986 0.951385
0.942702 0.607156 0.994842
0.939529 0.756512 0.990234
0.275181 0.50663 0.852491
0.29662 0.497078 0.860914
0.324605 0.483009 0.872648
0.366278 0.471122 0.889036
0.454994 0.467689 0.919829
0.570748 0.476997 0.927123
0.722393 0.516335 0.948379
0.930144 0.581033 0.981399
0.942992 0.684703 0.998596
0.327001 0.606104 0.87837
0.408682 0.596979 0.90869
0.417624 0.58172 0.911208
0.423377 0.56669 0.912642
0.460975 0.554971 0.925978
0.547601 0.548928 0.95993
0.677668 0.552331 0.964523
0.907759 0.579019 0.972534
0.948577 0.642069 0.963424
0.475151 0.719142 0.936614
0.501961 0.703746 0.947402
0.499367 0.685481 0.943648
0.486046 0.670832 0.909224
0.487556 0.657526 0.892256
0.522499 0.646799 0.898466
0.632303 0.633478 0.890196
0.81178 0.635493 0.861799
0.95845 0.666728 0.820294
0.571099 0.900069 0.945098
0.55172 0.869642 0.911498
0.530495 0.840589 0.878233
0.510704 0.814725 0.848768
0.498329 0.794507 0.825452
0.519097 0.776913 0.804395
0.604593 0.759197 0.780011
0.739986 0.747997 0.759213
0.909422 0.755245 0.752804
0.622293 0.947723 0.874723
0.621622 0.953338 0.827817
0.618097 0.955764 0.79556
0.61355 0.956771 0.771084
0.609384 0.957519 0.750973
0.613123 0.961593 0.730007
0.624414 0.94406 0.699992
0.727672 0.907515 0.702586
0.885161 0.89839 0.708629
0.110216 0.11043 0.791333
0.110216 0.11043 0.791333
0.110216 0.11043 0.791333
0.181933 0.122423 0.79469
0.537469 0.19736 0.820981
0.777615 0.42121 0.908782
0.943832 0.609583 0.996078
0.937133 0.830274 0.973495
0.935805 0.934661 0.947738
0.110216 0.11043 0.791333
0.110216 0.11043 0.791333
0.110216 0.11043 0.791333
0.148867 0.116594 0.793072
0.487282 0.185122 0.816129
0.692485 0.391424 0.895552
0.9252 0.570336 0.976211
0.940398 0.734844 0.994995
0.935805 0.934661 0.947738
0.110216 0.11043 0.791333
0.110216 0.11043 0.791333
0.110216 0.11043 0.791333
0.143771 0.115801 0.792813
0.441535 0.174411 0.812009
0.630716 0.376379 0.888426
0.898909 0.535637 0.960204
0.944091 0.664012 0.999847
0.936217 0.87953 0.961578
0.115908 0.128038 0.792615
0.130007 0.167193 0.796216
0.130434 0.168307 0.796277
0.209857 0.222614 0.821118
0.425177 0.298207 0.852476
0.586191 0.400275 0.896101
0.777676 0.506905 0.945129
0.944167 0.610224 0.99646
0.938918 0.771603 0.986923
0.261295 0.477134 0.845884
0.257023 0.467887 0.8439
0.249912 0.452445 0.840635
0.312886 0.443976 0.865904
0.429725 0.445518 0.909575
0.556023 0.459648 0.919188
0.708385 0.507134 0.943969
0.931991 0.584848 0.983352
0.942123 0.701076 0.997604
0.321736 0.596109 0.875563
0.374197 0.586343 0.895888
0.392966 0.571374 0.902174
0.402152 0.556374 0.904982
0.446876 0.544778 0.920302
0.537148 0.539528 0.955108
0.663981 0.54725 0.961807
0.878096 0.583734 0.982864
0.944533 0.657053 0.999893
0.44239 0.710887 0.923293
0.494575 0.69752 0.944366
0.496269 0.678935 0.944396
0.489937 0.660502 0.940917
0.496818 0.644984 0.943267
0.535454 0.632349 0.958602
0.63003 0.622904 0.999878
0.799161 0.62327 0.999924
0.944518 0.657465 0.999893
0.577081 0.887129 0.973892
0.582101 0.85304 0.978622
0.575784 0.819501 0.976761
0.565744 0.790112 0.97319
0.559258 0.76611 0.971008
0.565606 0.747219 0.974243
0.603387 0.732265 0.991089
0.725032 0.716243 0.999924
0.941192 0.718853 0.996536
0.61622 0.931655 0.984726
0.615747 0.931487 0.984543
0.61207 0.93022 0.983291
0.607523 0.928679 0.981765
0.604364 0.927611 0.980713
0.605509 0.928023 0.98114
0.60557 0.916472 0.963012
0.693996 0.886931 0.920165
0.869734 0.871183 0.883421
