site/assets/luts/freshluts--0000626-green.cube
# LUTr-Schema-Version: 2
# LUTr-ID: freshluts--0000626-green
# LUTr-Title: GREEN
# LUTr-Collection: Fresh LUTs
# LUTr-Collection-ID: freshluts-community
# LUTr-Source: https://freshluts.com
# LUTr-Retrieved: 2026-07-27
# LUTr-Source-File: submissions-raw/freshluts/cubes/626__COOL.RED_37.A007_02270952_C026.cube
# LUTr-Source-Format: CUBE
# LUTr-Source-SHA256: 8b48fe8bdab8467a3c57378be56119321ab4603cc2c7b40f0e54653cf9e2dfa7
# LUTr-License: CC0-1.0
# LUTr-License-URL: https://freshluts.com/termsandconditions
# LUTr-License-Basis: site-terms
# LUTr-Transform-Class: creative-look
# LUTr-Tags: creative, freshluts, community, cube, cool, high-key, bmd-film
# LUTr-Input-Color-Space:
# LUTr-Input-Gamut: bmd-film-gamut
# LUTr-Input-Transfer: bmd-film
# LUTr-Output-Color-Space: srgb
# LUTr-Output-Gamut: rec709
# LUTr-Output-Transfer: srgb
# LUTr-Color-Space-Confidence: camera-profile-input-required
# LUTr-Domain-Normalized: true
# LUTr-Shaper: none
# LUTr-Original-Grid: 33x33x33
# LUTr-Conversion-Grid: 33x33x33
# LUTr-Conversion-Interpolation: none
# LUTr-Conversion-Method: Metadata normalization; numeric LUT samples preserved
# LUTr-Conversion-Tool: LUTr scripts/convert-all-to-cube.mjs 2.0.0
# LUTr-Conversion-Date: 2026-07-28
# LUTr-Asset-URL: https://freshluts.com/luts/626
# LUTr-Author: lvannoeun@gmail.com
# LUTr-Author-URL: https://freshluts.com/users/57563
# LUTr-Attribution: lvannoeun@gmail.com via Fresh LUTs
# LUTr-Source-Labels: gamma=Blackmagic BMD Film; color=Cool; key=High Key; style=Drama
# LUTr-Note: Preserve this metadata and the upstream license notices when redistributing.
TITLE "GREEN"
LUT_3D_SIZE 33
DOMAIN_MIN 0 0 0
DOMAIN_MAX 1 1 1
0.00210575 0 0
0.0329137 0 0
0.0657206 0 0
0.100114 0 0
0.1355 0 0.000991836
0.171954 0 0.002533
0.209339 0 0.00366217
0.248524 0 0.00430304
0.289281 0 0.00447089
0.329793 0 0.00445563
0.368154 0 0.004654
0.400931 0 0.00520333
0.431098 0 0.00602731
0.459693 0 0.00706493
0.486931 0 0.00825513
0.512963 0 0.00943008
0.538247 0 0.0105898
0.563195 0 0.0119478
0.588617 0 0.0133974
0.615061 0 0.0149386
0.641962 0 0.0166171
0.668376 0 0.0184329
0.694148 0 0.0203861
0.719234 0 0.0225376
0.743725 0 0.0246586
0.767758 0.00157168 0.0269932
0.791516 0.00375372 0.0294804
0.815137 0.00596628 0.0319982
0.838712 0.00819409 0.0345159
0.862303 0.0104219 0.0370336
0.885924 0.0126345 0.0395514
0.90959 0.0148318 0.0420539
0.932876 0.0170291 0.0443427
0.00720226 0.00675975 0
0.0362097 0.00968948 0
0.0672313 0.0120546 0.00140383
0.100298 0.0138552 0.00280766
0.134707 0.0152438 0.00396735
0.17026 0.0163577 0.00494392
0.206394 0.0171054 0.00556954
0.244175 0.0173648 0.00550851
0.283742 0.0171206 0.00485237
0.323888 0.0165255 0.00402838
0.362814 0.016022 0.00340276
0.39675 0.0159152 0.00337224
0.427512 0.0161593 0.00381476
0.456596 0.0166629 0.00460822
0.484291 0.0173648 0.00564584
0.510552 0.0182193 0.00688182
0.535958 0.0191501 0.00819409
0.560967 0.0201267 0.00944533
0.586404 0.0211795 0.0106813
0.613031 0.0222477 0.0123293
0.640223 0.0234684 0.0140383
0.667002 0.0248417 0.0158236
0.693156 0.0263523 0.0177768
0.718685 0.0280461 0.0198978
0.743542 0.0299229 0.0222324
0.767849 0.0319371 0.0247044
0.791745 0.0340887 0.0270542
0.815457 0.0362707 0.0296483
0.839063 0.0384833 0.0323033
0.862715 0.0406806 0.0350195
0.886412 0.0428473 0.0377508
0.910048 0.0450446 0.0403601
0.933715 0.0472419 0.0429541
0.0117647 0.0357214 0.00201419
0.04065 0.0386816 0.00479133
0.0702068 0.0415198 0.00622568
0.101671 0.0438697 0.00686656
0.134798 0.0457313 0.007187
0.169284 0.0472419 0.0074464
0.204257 0.0484169 0.00753796
0.240604 0.0491493 0.00704967
0.278767 0.0493782 0.00593576
0.318059 0.0491798 0.00424201
0.35697 0.0488136 0.00254826
0.391959 0.048661 0.00173953
0.423224 0.0488289 0.00164797
0.452796 0.0492409 0.00207523
0.480919 0.0498665 0.00289921
0.507607 0.0506447 0.00401312
0.53315 0.051545 0.00529488
0.558206 0.052491 0.00663767
0.583627 0.0534829 0.00805676
0.6103 0.0545205 0.00944533
0.637675 0.0556802 0.0111086
0.664775 0.0569619 0.0128786
0.691325 0.058381 0.0148165
0.717281 0.0599374 0.0169528
0.742596 0.061677 0.0193027
0.767269 0.0635691 0.0218357
0.79147 0.0655985 0.0245212
0.815351 0.0677348 0.0271153
0.839048 0.0699168 0.0298619
0.86276 0.0720531 0.0327611
0.886473 0.0742199 0.0356298
0.910109 0.0764019 0.0383917
0.933791 0.0785687 0.0411231
0.0139925 0.0655985 0.00509651
0.0442664 0.0680858 0.00833143
0.0737316 0.0709239 0.0101625
0.104112 0.0735943 0.0107729
0.136065 0.0758984 0.0103304
0.169421 0.0777752 0.0100862
0.203418 0.0793164 0.00972
0.238514 0.0804761 0.00880446
0.275395 0.0811627 0.00717174
0.313497 0.0813916 0.00497444
0.351843 0.0813001 0.00262455
0.387503 0.081239 0.000701915
0.419074 0.0814069 0
0.449012 0.0817884 0
0.477485 0.0823529 0.000442512
0.50454 0.0830701 0.00137331
0.530327 0.0839246 0.00257877
0.555428 0.0848554 0.00392157
0.58085 0.0858015 0.00535592
0.607477 0.0867933 0.00697337
0.635004 0.0879225 0.00839246
0.662364 0.089128 0.0101015
0.689219 0.0904402 0.0120241
0.715557 0.0919051 0.0141451
0.741283 0.0935073 0.016495
0.766384 0.0952773 0.0190738
0.790906 0.0972152 0.0218509
0.815 0.0992447 0.0247501
0.83888 0.101366 0.027512
0.862699 0.103471 0.0305486
0.886442 0.105608 0.0335546
0.910124 0.107759 0.0364843
0.933837 0.109911 0.039353
0.0140536 0.0963455 0.00588998
0.0459907 0.0983139 0.00941482
0.0764019 0.100816 0.011841
0.106722 0.103456 0.0129091
0.137881 0.105928 0.0130312
0.17026 0.108095 0.012665
0.20351 0.109987 0.0116274
0.237537 0.111482 0.0104219
0.273274 0.112566 0.00842298
0.310231 0.113207 0.00573739
0.347753 0.113466 0.00273136
0.383642 0.113603 0.000228885
0.415229 0.113848 0
0.44535 0.114244 0
0.474083 0.114794 0
0.501427 0.11548 0
0.527504 0.116289 0
0.552682 0.117189 0.00131228
0.578088 0.11812 0.00276188
0.604639 0.119081 0.00437934
0.632242 0.12015 0.0059968
0.6598 0.121324 0.00747692
0.686915 0.122576 0.00936904
0.713558 0.123934 0.0114595
0.739666 0.125429 0.0137942
0.765148 0.127092 0.0163882
0.790036 0.128908 0.0192111
0.814435 0.130846 0.0222171
0.838483 0.132876 0.0253147
0.86247 0.134936 0.028336
0.886275 0.137026 0.0314946
0.910018 0.139147 0.0345617
0.933776 0.141283 0.0375982
0.0126192 0.127672 0.00543221
0.0459602 0.129229 0.00900282
0.0775921 0.131319 0.0118257
0.108537 0.133715 0.0135653
0.13962 0.136156 0.0141909
0.17145 0.13846 0.0140078
0.204044 0.140536 0.0133211
0.237308 0.142306 0.0117037
0.272114 0.14374 0.00927749
0.308049 0.144747 0.00627146
0.344671 0.145357 0.00277714
0.380621 0.145739 0
0.411872 0.14612 0
0.441978 0.146593 0
0.470848 0.147158 0
0.498375 0.147845 0
0.524651 0.148638 0
0.54995 0.149508 0
0.575357 0.150423 0.000244144
0.601801 0.151354 0.0018616
0.629435 0.152407 0.0034638
0.657145 0.153521 0.00514229
0.684459 0.154726 0.00679026
0.71136 0.156024 0.00888075
0.737774 0.157427 0.0112001
0.763622 0.158984 0.0137789
0.788876 0.160678 0.0166323
0.813581 0.162524 0.0196994
0.837873 0.164462 0.0229343
0.862058 0.16643 0.0262913
0.885954 0.168505 0.0294041
0.909789 0.170581 0.0326543
0.933593 0.172671 0.0358434
0.0100862 0.159426 0.00407416
0.0446174 0.160632 0.00759899
0.0774243 0.162356 0.0106508
0.109224 0.164446 0.0128481
0.140719 0.166705 0.0140536
0.172442 0.168994 0.014313
0.204761 0.17116 0.0137179
0.237476 0.173098 0.0122072
0.271534 0.174762 0.00970474
0.306661 0.176089 0.00619516
0.342428 0.177035 0.00239567
0.377981 0.177691 0
0.409049 0.178256 0
0.438926 0.17882 0
0.467811 0.179461 0
0.49543 0.180163 0
0.521859 0.180941 0
0.547265 0.181811 0
0.572656 0.182696 0
0.598978 0.183627 0
0.626627 0.184649 0.0010071
0.654444 0.185733 0.00274662
0.68191 0.186892 0.00448615
0.709026 0.188128 0.00640879
0.735698 0.189471 0.0087129
0.761868 0.190921 0.0112764
0.787442 0.192523 0.0141299
0.812467 0.194263 0.0172427
0.837064 0.196109 0.0205997
0.861433 0.198001 0.024155
0.885466 0.200015 0.0274205
0.909407 0.20206 0.0307469
0.933303 0.204105 0.0341039
0.0062562 0.191699 0.00149538
0.0421454 0.192462 0.0053254
0.0760662 0.193835 0.00859083
0.108812 0.195621 0.0111238
0.140917 0.19765 0.0127413
0.172885 0.199817 0.0133364
0.205234 0.201999 0.0128634
0.237705 0.204013 0.0113985
0.271275 0.205844 0.00894179
0.30573 0.207385 0.00547799
0.34078 0.208606 0.00129702
0.375677 0.209522 0
0.406729 0.210269 0
0.436286 0.210956 0
0.465019 0.211658 0
0.492638 0.212421 0
0.519158 0.21323 0
0.54464 0.214084 0
0.570031 0.214954 0
0.596216 0.2159 0
0.623835 0.216907 0
0.651743 0.21796 0.000381476
0.679316 0.219074 0.00227359
0.7066 0.220279 0.00410468
0.733486 0.221546 0.00634775
0.759899 0.222934 0.00889601
0.785794 0.224445 0.0117647
0.811124 0.226093 0.0148928
0.836042 0.227832 0.0183566
0.860594 0.229664 0.0220035
0.88481 0.231601 0.0255436
0.908888 0.2336 0.0288853
0.932876 0.235599 0.0323949
0.000442512 0.224781 0
0.0380255 0.22501 0.0012665
0.0732891 0.22594 0.0049897
0.107103 0.227359 0.00790417
0.139986 0.229129 0.00982681
0.172488 0.231113 0.0107271
0.205112 0.233173 0.0105135
0.237613 0.235187 0.00920119
0.270954 0.237095 0.00680552
0.304967 0.238758 0.00352483
0.339483 0.240192 0
0.373785 0.241306 0
0.404791 0.242206 0
0.433982 0.243015 0
0.462486 0.243793 0
0.490013 0.244602 0
0.516579 0.245441 0
0.542107 0.246296 0
0.567483 0.24715 0
0.593545 0.248096 0
0.621088 0.249088 0
0.649073 0.250126 0
0.676738 0.251209 0.000015259
0.704143 0.252354 0.00202945
0.731197 0.25359 0.00411994
0.757839 0.254902 0.00666819
0.783993 0.256336 0.00952163
0.809598 0.257877 0.0126802
0.834791 0.259525 0.0162051
0.859586 0.261265 0.0199283
0.883986 0.263127 0.023621
0.908217 0.265049 0.0271763
0.932342 0.267002 0.0307317
0 0.25835 0
0.0320287 0.258061 0
0.0687724 0.258518 0
0.103838 0.259495 0.00277714
0.137728 0.260929 0.00512703
0.170977 0.262638 0.00636301
0.204105 0.26453 0.00646983
0.236896 0.266453 0.00541695
0.270253 0.26833 0.00328069
0.304082 0.270054 0.000122072
0.338155 0.27155 0
0.372076 0.272831 0
0.403067 0.273838 0
0.431907 0.274754 0
0.460197 0.275593 0
0.487572 0.276432 0
0.514138 0.277302 0
0.539651 0.278172 0
0.564996 0.279026 0
0.590967 0.279942 0
0.618418 0.280919 0
0.646464 0.281941 0
0.674205 0.282994 0
0.701686 0.284092 0
0.728893 0.285283 0.00210575
0.755703 0.286549 0.00459297
0.782071 0.287907 0.0074464
0.807935 0.289372 0.0106355
0.833356 0.290944 0.0141756
0.858412 0.292592 0.0179904
0.883024 0.294377 0.0217899
0.907408 0.296208 0.0256046
0.93167 0.298116 0.0291752
0 0.292149 0
0.0243687 0.291493 0
0.0625315 0.291508 0
0.0989395 0.292073 0
0.134051 0.293095 0
0.168215 0.294484 0.00015259
0.202045 0.296132 0.000671397
0.23537 0.297871 0
0.26894 0.299657 0
0.302785 0.301335 0
0.336706 0.302846 0
0.37026 0.304143 0
0.401404 0.305272 0
0.429969 0.306218 0
0.458045 0.307134 0
0.485298 0.308003 0
0.511803 0.308873 0
0.537331 0.309773 0
0.5626 0.310643 0
0.588495 0.311543 0
0.615839 0.312505 0
0.643946 0.313512 0
0.671717 0.314549 0
0.69929 0.315633 0
0.726589 0.316777 0.000289921
0.753536 0.317998 0.00270085
0.780087 0.319295 0.00556954
0.806165 0.320699 0.00877394
0.831769 0.32221 0.0122988
0.857084 0.323766 0.0162051
0.881895 0.325475 0.0201419
0.906493 0.327245 0.0240787
0.930907 0.329076 0.0278325
0 0.32575 0
0.0159915 0.325078 0
0.0550851 0.324849 0
0.0926223 0.325078 0
0.128893 0.32575 0
0.164157 0.326787 0
0.19884 0.32813 0
0.232868 0.329641 0
0.266865 0.331212 0
0.300938 0.332769 0
0.334874 0.334218 0
0.368353 0.3355 0
0.399695 0.336645 0
0.428061 0.337621 0
0.45597 0.338552 0
0.483131 0.339452 0
0.509606 0.340352 0
0.535103 0.341253 0
0.560281 0.342153 0
0.58613 0.343038 0
0.613367 0.343984 0
0.641505 0.344991 0
0.669322 0.346014 0
0.696941 0.347082 0
0.724315 0.348196 0
0.751385 0.349386 0.0010071
0.778073 0.350637 0.00389105
0.804349 0.351995 0.0071107
0.830152 0.353445 0.0106661
0.855619 0.354955 0.0145724
0.88072 0.356558 0.0186465
0.905486 0.358267 0.0226902
0.930068 0.360037 0.0266728
0 0.358831 0
0.00833143 0.358373 0
0.0476539 0.35819 0
0.0858015 0.358297 0
0.122911 0.35874 0
0.159121 0.359472 0
0.19472 0.360494 0
0.229557 0.36173 0
0.264103 0.363088 0
0.298543 0.364462 0
0.332677 0.365789 0
0.366201 0.366995 0
0.397833 0.368093 0
0.426139 0.369116 0
0.453941 0.370047 0
0.481041 0.370962 0
0.507485 0.371862 0
0.532982 0.372778 0
0.558099 0.373693 0
0.583825 0.374594 0
0.611002 0.375525 0
0.63917 0.376516 0
0.667018 0.377539 0
0.694682 0.378592 0
0.722118 0.37969 0
0.749279 0.38085 0
0.776089 0.382086 0.00242618
0.802518 0.383383 0.00569162
0.828504 0.384787 0.00927749
0.854109 0.386267 0.0131685
0.879469 0.387793 0.01738
0.904418 0.389441 0.0215152
0.929168 0.39115 0.0256657
0 0.391409 0
0.00216678 0.391241 0
0.0413977 0.39118 0
0.0796216 0.391363 0
0.117052 0.391745 0
0.153841 0.39234 0
0.190112 0.393149 0
0.225772 0.394125 0
0.260884 0.395254 0
0.295766 0.396429 0
0.330159 0.397604 0
0.363851 0.398733 0
0.395987 0.399786 0
0.424186 0.400793 0
0.451942 0.401724 0
0.479026 0.402625 0
0.50547 0.40354 0
0.530968 0.40444 0
0.556085 0.405371 0
0.581659 0.406302 0
0.608728 0.407218 0
0.636942 0.408179 0
0.66482 0.409201 0
0.692515 0.410239 0
0.720012 0.411322 0
0.747234 0.412467 0
0.774166 0.413672 0.0011902
0.800702 0.414939 0.00451667
0.826856 0.416281 0.00814832
0.852613 0.417716 0.0120699
0.87808 0.419211 0.0162814
0.903319 0.420752 0.0205844
0.928237 0.422415 0.0248112
0 0.423621 0
0 0.423697 0
0.0364233 0.423789 0
0.0745403 0.424063 0
0.112062 0.424491 0
0.149081 0.425055 0
0.185672 0.425772 0
0.221851 0.426596 0
0.257511 0.427527 0
0.29279 0.42855 0
0.327489 0.429587 0
0.361379 0.430625 0
0.394034 0.431632 0
0.422187 0.432563 0
0.449989 0.433509 0
0.477073 0.434424 0
0.503517 0.435325 0
0.529076 0.436225 0
0.554177 0.437156 0
0.57969 0.438102 0
0.606546 0.439048 0
0.634836 0.439979 0
0.662745 0.440986 0
0.690471 0.442023 0
0.717998 0.443107 0
0.745281 0.444221 0
0.77229 0.445411 0.000259403
0.798947 0.446647 0.00361639
0.825223 0.447959 0.00730907
0.851133 0.449348 0.0112764
0.876707 0.450828 0.0154574
0.902159 0.452293 0.0198825
0.927291 0.453895 0.0242161
0 0.45568 0
0 0.455955 0
0.0326238 0.456184 0
0.0705272 0.45658 0
0.107988 0.457084 0
0.145068 0.457664 0
0.181827 0.458351 0
0.218219 0.459113 0
0.254185 0.459937 0
0.28986 0.460822 0
0.324804 0.461784 0
0.358907 0.462745 0
0.391882 0.463691 0
0.420264 0.464591 0
0.448081 0.465522 0
0.475212 0.466407 0
0.501686 0.467308 0
0.527306 0.468208 0
0.552407 0.469139 0
0.577859 0.470085 0
0.604547 0.471046 0
0.632807 0.471992 0
0.660792 0.472969 0
0.688533 0.474006 0
0.716091 0.475074 0
0.74342 0.476173 0
0.770504 0.477333 0
0.797238 0.478553 0.00300603
0.823636 0.47982 0.00677501
0.849699 0.481178 0.0108034
0.875425 0.482597 0.0150301
0.900984 0.484062 0.01944
0.926345 0.485573 0.0238956
0 0.4878 0
0 0.488121 0
0.0298161 0.488441 0
0.0675059 0.48896 0
0.104799 0.48954 0
0.141817 0.490181 0
0.178592 0.490883 0
0.215106 0.49163 0
0.251209 0.492439 0
0.287053 0.493263 0
0.322271 0.494148 0
0.356542 0.495064 0
0.389685 0.495979 0
0.418433 0.496864 0
0.446265 0.497749 0
0.473457 0.498665 0
0.499977 0.499565 0
0.525658 0.500481 0
0.550759 0.501396 0
0.576181 0.502358 0
0.602762 0.503319 0
0.630915 0.504295 0
0.658961 0.505257 0
0.686732 0.506294 0
0.714305 0.507347 0
0.74168 0.508446 0
0.768795 0.509575 0
0.795621 0.510781 0.00274662
0.822126 0.512032 0.00657664
0.84831 0.513344 0.0106661
0.874189 0.514733 0.0149538
0.899886 0.516167 0.0193637
0.925429 0.517617 0.0238956
0 0.52015 0
0 0.520546 0
0.0275273 0.520912 0
0.065156 0.521447 0
0.102373 0.522072 0
0.1393 0.522759 0
0.176013 0.523491 0
0.212543 0.524269 0
0.248707 0.525078 0
0.284642 0.525887 0
0.319997 0.526726 0
0.354391 0.527611 0
0.38764 0.528511 0
0.416754 0.529397 0
0.444602 0.530266 0
0.471855 0.531197 0
0.498405 0.532097 0
0.524163 0.532998 0
0.549279 0.533913 0
0.574639 0.534859 0
0.601114 0.535836 0
0.629221 0.536812 0
0.657282 0.537758 0
0.685069 0.538781 0
0.712673 0.539834 0
0.740063 0.540902 0
0.767224 0.542016 0
0.794125 0.543206 0.00288396
0.820706 0.544427 0.00675975
0.847013 0.545693 0.0109102
0.87303 0.547036 0.0152285
0.898863 0.54844 0.0196536
0.92459 0.549844 0.0242313
0 0.552422 0
0 0.552911 0
0.0256809 0.553323 0
0.0632029 0.553918 0
0.100343 0.554574 0
0.137224 0.555276 0
0.173907 0.556023 0
0.210437 0.556802 0
0.246616 0.557626 0
0.282582 0.558434 0
0.317998 0.559258 0
0.352468 0.560143 0
0.385824 0.561028 0
0.415244 0.561913 0
0.443122 0.562799 0
0.470436 0.563714 0
0.497017 0.564599 0
0.52282 0.565499 0
0.547951 0.566415 0
0.573266 0.567346 0
0.599649 0.568307 0
0.627695 0.569284 0
0.655772 0.570214 0
0.683574 0.571221 0
0.711192 0.572244 0
0.738613 0.573312 0
0.765805 0.574395 0
0.792752 0.57554 0.00347906
0.819425 0.57673 0.00735485
0.845838 0.577966 0.0115358
0.871977 0.579278 0.0158999
0.897932 0.580621 0.020325
0.923812 0.581979 0.0249027
0 0.584329 0
0 0.584939 0
0.0243687 0.585458 0
0.0617227 0.586099 0
0.0987564 0.586801 0
0.135546 0.587549 0
0.172152 0.588327 0
0.208652 0.58912 0
0.244816 0.589944 0
0.280797 0.590753 0
0.316258 0.591577 0
0.350805 0.592447 0
0.384222 0.593347 0
0.413931 0.594217 0
0.44184 0.595087 0
0.469169 0.595972 0
0.495796 0.596872 0
0.52166 0.597757 0
0.546807 0.598657 0
0.572076 0.599573 0
0.598398 0.600534 0
0.626352 0.60148 0
0.654444 0.602396 0
0.682261 0.603372 0
0.70988 0.604379 0
0.737316 0.605417 0
0.764553 0.60647 0.000762951
0.791531 0.607569 0.00448615
0.818296 0.608728 0.00836194
0.8448 0.609918 0.0125734
0.871061 0.61117 0.0169528
0.897124 0.612482 0.0213474
0.923125 0.613779 0.0259098
0 0.615473 0
0 0.616251 0
0.0237278 0.616876 0
0.0608377 0.617624 0
0.097673 0.618387 0
0.134325 0.619181 0
0.170825 0.619989 0
0.207248 0.620798 0
0.243397 0.621637 0
0.279301 0.622461 0
0.314778 0.623285 0
0.349416 0.62414 0
0.382895 0.62501 0
0.412879 0.625879 0
0.440803 0.626734 0
0.468147 0.627588 0
0.494804 0.628489 0
0.520714 0.629358 0
0.545861 0.630228 0
0.571115 0.631128 0
0.597345 0.632059 0
0.625223 0.63299 0
0.653269 0.633906 0
0.681147 0.634836 0
0.708782 0.635813 0
0.736233 0.63682 0
0.763485 0.637842 0.00209049
0.790524 0.638926 0.00590524
0.817349 0.640055 0.00978103
0.843931 0.641215 0.014023
0.870298 0.642435 0.0183413
0.896468 0.643702 0.0227512
0.92253 0.644984 0.0272221
0 0.645914 0
0 0.646876 0
0.0238956 0.647669 0
0.0606546 0.648554 0
0.0972152 0.649424 0
0.133669 0.650294 0
0.170016 0.651164 0
0.206317 0.652018 0
0.242405 0.652888 0
0.278202 0.653758 0
0.313619 0.654627 0
0.348318 0.655467 0
0.381872 0.656352 0
0.412085 0.657206 0
0.440024 0.658076 0
0.467384 0.658946 0
0.494057 0.659831 0
0.520012 0.6607 0
0.545174 0.66157 0
0.570382 0.662455 0
0.596536 0.663371 0
0.624353 0.664302 0
0.652323 0.665248 0
0.680232 0.666148 0
0.707897 0.667109 0
0.735363 0.668086 0.000167849
0.762646 0.669093 0.00389105
0.789715 0.670161 0.0077821
0.816602 0.671275 0.0116426
0.843259 0.672404 0.0158846
0.869734 0.673609 0.0201724
0.89601 0.674846 0.0245365
0.922118 0.676143 0.0289006
0 0.676005 0
0 0.67718 0
0.0249943 0.678157 0
0.0613107 0.679194 0
0.0975204 0.680201 0
0.1337 0.681178 0
0.169818 0.682139 0
0.205936 0.68307 0
0.241917 0.683986 0
0.277623 0.684901 0
0.312932 0.685817 0
0.34757 0.686687 0
0.381216 0.687556 0
0.411612 0.688426 0
0.439551 0.689296 0
0.466926 0.690166 0
0.493599 0.691051 0
0.519585 0.69192 0
0.544747 0.69279 0
0.569909 0.693675 0
0.595987 0.694575 0
0.623743 0.695506 0
0.651713 0.696437 0
0.679545 0.697353 0
0.707271 0.698268 0
0.734737 0.699245 0.00247196
0.762036 0.700236 0.00619516
0.789151 0.701274 0.0101167
0.816083 0.702373 0.0140078
0.842832 0.703502 0.018143
0.869368 0.704677 0.0224002
0.895735 0.705898 0.0267033
0.921935 0.707164 0.0310063
0 0.70576 0
0 0.707088 0
0.0271 0.708263 0
0.0629282 0.709484 0
0.0987106 0.710643 0
0.134524 0.711772 0
0.170352 0.712825 0
0.206241 0.713848 0
0.242039 0.714839 0
0.277607 0.715816 0
0.31281 0.716762 0
0.347311 0.717708 0
0.380926 0.718593 0
0.411536 0.719463 0
0.439445 0.720333 0
0.466819 0.721218 0
0.493462 0.722103 0
0.519463 0.722972 0
0.544625 0.723842 0
0.569757 0.724727 0
0.595743 0.725612 0
0.623423 0.726543 0
0.651392 0.727474 0
0.679149 0.728405 0
0.706874 0.729305 0.00164797
0.734401 0.730251 0.00526436
0.761715 0.731243 0.00900282
0.788861 0.73228 0.0129091
0.815839 0.733364 0.0167849
0.842634 0.734493 0.0208286
0.869245 0.735637 0.0250248
0.895689 0.736843 0.0292515
0.921981 0.738094 0.0334783
0 0.735302 0
0 0.736706 0
0.0300908 0.738033 0
0.0654765 0.739406 0
0.100832 0.740719 0
0.136248 0.741985 0
0.171725 0.743175 0
0.207294 0.744305 0
0.242847 0.745403 0
0.278218 0.746456 0
0.313268 0.747463 0
0.347677 0.748455 0
0.38114 0.749401 0
0.411872 0.750286 0
0.43978 0.751171 0
0.467124 0.752056 0
0.493706 0.752941 0
0.519722 0.753841 0
0.544854 0.754711 0
0.56994 0.755596 0
0.59585 0.756481 0
0.623438 0.757412 0
0.651392 0.758343 0
0.679118 0.759274 0.00148013
0.706767 0.760189 0.00491341
0.734356 0.76112 0.00857557
0.761669 0.762112 0.0122988
0.78883 0.763149 0.016144
0.815854 0.764233 0.0199893
0.842695 0.765347 0.0239261
0.869368 0.766491 0.0280156
0.895888 0.767681 0.0321508
0.922255 0.768917 0.0363012
0 0.764691 0
0 0.76614 0
0.0337377 0.767544 0
0.0687877 0.769024 0
0.103777 0.770474 0
0.138811 0.771878 0
0.173938 0.77319 0
0.209186 0.774441 0
0.24445 0.775647 0
0.279576 0.776791 0
0.314427 0.777874 0
0.348669 0.778927 0
0.381994 0.77995 0
0.412711 0.78088 0
0.440589 0.781781 0
0.467887 0.782681 0
0.494423 0.783581 0
0.520409 0.784497 0
0.545495 0.785382 0
0.570504 0.786267 0
0.596338 0.787167 0
0.623819 0.788098 0
0.651728 0.789029 0.00216678
0.679438 0.789975 0.00537118
0.707012 0.790921 0.00872816
0.734569 0.791867 0.0123445
0.761959 0.792844 0.016022
0.78912 0.793881 0.019791
0.816159 0.794965 0.0235904
0.843046 0.796078 0.0273899
0.869764 0.797223 0.0313878
0.89633 0.798413 0.0354162
0.922774 0.799649 0.0394598
0 0.794003 0
0.00260929 0.795438 0
0.0378119 0.796918 0
0.0726329 0.798474 0
0.107347 0.8 0
0.142092 0.801495 0
0.176898 0.802915 0
0.211826 0.804288 0
0.246799 0.805585 0
0.281651 0.806821 0
0.316274 0.807996 0
0.350332 0.809125 0
0.38349 0.810193 0
0.41413 0.811215 0
0.441886 0.812146 0
0.469154 0.813062 0
0.495613 0.813993 0
0.521538 0.814923 0
0.546548 0.815824 0
0.571496 0.816739 0
0.597208 0.817655 0.00105287
0.624598 0.818601 0.00370794
0.652461 0.819547 0.00663767
0.68011 0.820508 0.00978103
0.707668 0.821485 0.013077
0.735134 0.822461 0.0165103
0.762554 0.823438 0.0201724
0.789731 0.824491 0.0238346
0.81677 0.825574 0.0275578
0.843671 0.826688 0.03122
0.870436 0.827848 0.0350958
0.897047 0.829023 0.0390173
0.923522 0.830243 0.0429541
0 0.82327 0
0.00712596 0.824689 0
0.0421607 0.8262 0
0.0767987 0.827802 0
0.111345 0.829374 0
0.145861 0.83093 0
0.180423 0.832441 0
0.215122 0.833875 0
0.249805 0.835264 0
