site/assets/luts/freshluts--0001345-cute-love.cube
# LUTr-Schema-Version: 2
# LUTr-ID: freshluts--0001345-cute-love
# LUTr-Title: cute LOVE
# LUTr-Collection: Fresh LUTs
# LUTr-Collection-ID: freshluts-community
# LUTr-Source: https://freshluts.com
# LUTr-Retrieved: 2026-07-27
# LUTr-Source-File: submissions-raw/freshluts/cubes/1345__cute.LOVE.cube
# LUTr-Source-Format: CUBE
# LUTr-Source-SHA256: 0c152b63f28b7411a276704220270af616e1a279b7f47bf095c4a5baabbb6a54
# LUTr-License: CC0-1.0
# LUTr-License-URL: https://freshluts.com/termsandconditions
# LUTr-License-Basis: site-terms
# LUTr-Transform-Class: creative-look
# LUTr-Tags: creative, freshluts, community, cube, high-key, rec709
# LUTr-Input-Color-Space: rec709
# LUTr-Input-Gamut: rec709
# LUTr-Input-Transfer: rec709
# LUTr-Output-Color-Space: srgb
# LUTr-Output-Gamut: rec709
# LUTr-Output-Transfer: srgb
# LUTr-Color-Space-Confidence: inferred-from-source-label
# LUTr-Domain-Normalized: true
# LUTr-Shaper: none
# LUTr-Original-Grid: 16x16x16
# LUTr-Conversion-Grid: 16x16x16
# LUTr-Conversion-Interpolation: none
# LUTr-Conversion-Method: Metadata normalization; numeric LUT samples preserved
# LUTr-Conversion-Tool: LUTr scripts/convert-all-to-cube.mjs 2.0.0
# LUTr-Conversion-Date: 2026-07-28
# LUTr-Asset-URL: https://freshluts.com/luts/1345
# LUTr-Author: lvannoeun@gmail.com
# LUTr-Author-URL: https://freshluts.com/users/57563
# LUTr-Attribution: lvannoeun@gmail.com via Fresh LUTs
# LUTr-Source-Labels: gamma=Rec 709; color=None; key=High Key; style=cool rain
# LUTr-Note: Preserve this metadata and the upstream license notices when redistributing.
TITLE "cute LOVE"
LUT_3D_SIZE 6
DOMAIN_MIN 0 0 0
DOMAIN_MAX 1 1 1
0.043209 0 0.011724
0.33755 -0.001108 0.011686
0.61084 -0.002153 0.011536
0.774636 -0.003037 0.011279
0.865732 -0.00363 0.011046
0.891937 -0.00381 0.010964
0.043191 0.313092 0.011571
0.342603 0.313091 0.011532
0.610839 0.309377 0.011385
0.774635 0.273251 0.011151
0.865732 0.235335 0.01095
0.891937 0.197551 0.0109
0.043114 0.580539 0.01095
0.335846 0.580539 0.010913
0.604884 0.580539 0.010752
0.774633 0.518074 0.010599
0.865731 0.446187 0.010508
0.891937 0.374563 0.010611
0.042988 0.738995 0.009808
0.298586 0.738995 0.009771
0.533918 0.738994 0.009609
0.760497 0.738994 0.009252
0.86573 0.648681 0.00948
0.891936 0.544546 0.009943
0.042869 0.828594 0.008491
0.261912 0.828594 0.008456
0.464032 0.828594 0.008299
0.658784 0.828594 0.007953
0.848745 0.828593 0.007286
0.891934 0.710044 0.008753
0.042825 0.856539 0.007962
0.226297 0.856539 0.007933
0.396032 0.856539 0.00781
0.559721 0.856539 0.00754
0.719416 0.856538 0.00709
0.876225 0.856538 0.00639
0.043208 -0.000817 0.364667
0.346542 -0.001305 0.364667
0.610839 -0.002233 0.356098
0.774636 -0.003079 0.315501
0.865732 -0.003656 0.272936
0.891937 -0.003826 0.230586
0.043188 0.317086 0.364666
0.33178 0.313606 0.371124
0.635497 0.288431 0.343623
0.802224 0.249415 0.302303
0.891764 0.223029 0.275063
0.913311 0.235924 0.284509
0.043112 0.580539 0.352446
0.235326 0.586875 0.293595
0.600165 0.583308 0.269148
0.788305 0.514042 0.255907
0.8843 0.444361 0.248054
0.912549 0.386183 0.260951
0.042986 0.738995 0.309671
0.182519 0.743049 0.247762
0.506897 0.743057 0.213634
0.757537 0.740795 0.204697
0.872932 0.649662 0.209131
0.904681 0.549299 0.222251
0.042868 0.828594 0.267525
0.162448 0.831791 0.228758
0.431556 0.832512 0.188766
0.647384 0.83131 0.184825
0.846497 0.830033 0.179429
0.896807 0.713525 0.194679
0.042824 0.856539 0.226492
0.337515 0.856539 0.343326
0.460867 0.856539 0.364661
0.591457 0.856538 0.36466
0.732906 0.856538 0.364659
0.877851 0.856538 0.364657
0.0432 -0.001588 0.652392
0.332115 -0.001823 0.652392
0.597719 -0.002536 0.652392
0.774636 -0.003255 0.590391
0.865732 -0.003764 0.509614
0.891937 -0.003893 0.429164
0.043182 0.302389 0.652392
0.317057 0.294935 0.685057
0.615086 0.275512 0.679949
0.799855 0.241338 0.606656
0.89029 0.21854 0.52351
0.913228 0.230701 0.456871
0.043101 0.573232 0.652391
0.228767 0.57544 0.660523
0.603354 0.579666 0.660243
0.791588 0.571434 0.646439
0.888462 0.563458 0.634242
0.910931 0.565336 0.633886
0.042979 0.738995 0.579367
0.180643 0.742409 0.570996
0.549625 0.746283 0.607544
0.763027 0.742025 0.613368
0.879653 0.692008 0.614048
0.908551 0.649543 0.629044
0.042863 0.828594 0.499342
0.161754 0.831538 0.491437
0.507901 0.837098 0.565474
0.686892 0.835904 0.580764
0.850073 0.832268 0.568897
0.902193 0.748682 0.592056
0.04282 0.856539 0.421447
0.337515 0.856539 0.472189
0.610833 0.856539 0.635568
0.697546 0.856538 0.652387
0.784277 0.856538 0.652387
0.885419 0.856538 0.652386
0.043185 -0.002239 0.82183
0.293384 -0.002373 0.82183
0.523919 -0.002851 0.821829
0.746106 -0.003577 0.821829
0.865732 -0.003972 0.737135
0.891937 -0.004026 0.620133
0.043166 0.262697 0.821829
0.299036 0.273817 0.85602
0.538565 0.264815 0.854953
0.764074 0.22714 0.847908
0.887605 0.21035 0.758266
0.913048 0.219395 0.642759
0.0431 0.498095 0.821828
0.226054 0.497561 0.841611
0.598173 0.567108 0.848626
0.774956 0.567008 0.845717
0.887602 0.559591 0.793744
0.910629 0.563418 0.733908
0.04296 0.724145 0.821827
0.177127 0.725496 0.826863
0.543623 0.732923 0.834085
0.766598 0.738053 0.830725
0.874026 0.735395 0.82596
0.903264 0.734043 0.82317
0.042846 0.828594 0.722192
0.160379 0.831192 0.722745
0.504579 0.835934 0.751805
0.743807 0.834108 0.808881
0.858103 0.831092 0.810514
0.896446 0.791297 0.816342
0.042814 0.856539 0.608852
0.337514 0.856539 0.632065
0.610832 0.856538 0.723284
0.774619 0.856538 0.816959
0.829486 0.856538 0.820766
0.890693 0.856538 0.821823
0.043167 -0.002677 0.928709
0.259323 -0.002758 0.928709
0.459029 -0.003074 0.928709
0.651572 -0.003604 0.928709
0.839271 -0.004276 0.928708
0.891937 -0.004225 0.806177
0.043157 0.227818 0.928709
0.337545 0.302631 0.928709
0.494479 0.313085 0.928709
0.665407 0.313082 0.928709
0.841431 0.313078 0.928708
0.912513 0.200624 0.829913
0.043107 0.431959 0.928709
0.33754 0.459636 0.928708
0.610837 0.571513 0.928708
0.725773 0.580538 0.928706
0.853597 0.580537 0.928705
0.910239 0.560196 0.859734
0.043 0.628048 0.928706
0.337531 0.638047 0.928705
0.610835 0.686192 0.928705
0.774625 0.735349 0.928704
0.863058 0.738992 0.928704
0.898949 0.734345 0.890775
0.042826 0.819018 0.928704
0.337516 0.819488 0.928703
0.610833 0.823105 0.928703
0.774621 0.826209 0.928703
0.865727 0.827923 0.928703
0.891932 0.828259 0.928703
0.042799 0.856539 0.79151
0.337513 0.856539 0.800002
0.610832 0.856538 0.835403
0.774619 0.856538 0.878301
0.865726 0.856538 0.928702
0.891931 0.856538 0.928702
0.043163 -0.00281 0.971317
0.226286 -0.00286 0.971317
0.396013 -0.003063 0.971317
0.559731 -0.003426 0.971317
0.719422 -0.003914 0.971316
0.876229 -0.004488 0.971316
0.043156 0.193912 0.971317
0.337544 0.30263 0.971317
0.452943 0.313085 0.971317
0.587238 0.313083 0.971316
0.73101 0.31308 0.971316
0.87743 0.313076 0.971316
0.043122 0.367636 0.971316
0.337541 0.415612 0.971316
0.610837 0.571513 0.971316
0.68984 0.580538 0.971315
0.780002 0.580538 0.971315
0.884252 0.580537 0.971315
0.043051 0.534574 0.971316
0.337535 0.556916 0.971316
0.610836 0.647068 0.971315
0.774625 0.735348 0.971314
0.828036 0.738992 0.971314
0.889723 0.738991 0.971314
0.042939 0.697089 0.971315
0.337525 0.705815 0.971315
0.610834 0.74462 0.971314
0.774622 0.788337 0.971313
0.865727 0.827923 0.971312
0.891932 0.828259 0.971312
0.04278 0.856538 0.971313
0.337511 0.856538 0.971313
0.610832 0.856538 0.971313
0.774619 0.856538 0.971312
0.865726 0.856538 0.971312
0.891931 0.856538 0.971312
