site/assets/luts/freshluts--0001164-thats-one-lut.cube
# LUTr-Schema-Version: 2
# LUTr-ID: freshluts--0001164-thats-one-lut
# LUTr-Title: That's one LUT
# LUTr-Collection: Fresh LUTs
# LUTr-Collection-ID: freshluts-community
# LUTr-Source: https://freshluts.com
# LUTr-Retrieved: 2026-07-27
# LUTr-Source-File: submissions-raw/freshluts/cubes/1164__Cool_red_lut_1.C0036.cube
# LUTr-Source-Format: CUBE
# LUTr-Source-SHA256: dadc727a247af454d2a3cd515dbcd746ad967287c373ad1e0db9889da5ac444e
# LUTr-License: CC0-1.0
# LUTr-License-URL: https://freshluts.com/termsandconditions
# LUTr-License-Basis: site-terms
# LUTr-Transform-Class: creative-look
# LUTr-Tags: creative, freshluts, community, cube, red, sony-s-log3
# LUTr-Input-Color-Space: sony-slog3-sgamut3
# LUTr-Input-Gamut: sony-s-gamut3
# LUTr-Input-Transfer: sony-s-log3
# LUTr-Output-Color-Space: srgb
# LUTr-Output-Gamut: rec709
# LUTr-Output-Transfer: srgb
# LUTr-Color-Space-Confidence: inferred-from-source-label
# LUTr-Domain-Normalized: true
# LUTr-Shaper: none
# LUTr-Original-Grid: 33x33x33
# LUTr-Conversion-Grid: 33x33x33
# LUTr-Conversion-Interpolation: none
# LUTr-Conversion-Method: Metadata normalization; numeric LUT samples preserved
# LUTr-Conversion-Tool: LUTr scripts/convert-all-to-cube.mjs 2.0.0
# LUTr-Conversion-Date: 2026-07-28
# LUTr-Asset-URL: https://freshluts.com/luts/1164
# LUTr-Author: lvannoeun@gmail.com
# LUTr-Author-URL: https://freshluts.com/users/57563
# LUTr-Attribution: lvannoeun@gmail.com via Fresh LUTs
# LUTr-Source-Labels: gamma=Sony S-Log 3; color=Red; key=Neutral; style=cine drama
# LUTr-Note: Preserve this metadata and the upstream license notices when redistributing.
TITLE "That's one LUT"
LUT_3D_SIZE 33
DOMAIN_MIN 0 0 0
DOMAIN_MAX 1 1 1
0 0.00976577 0.109941
0 0.00756847 0.115862
0 0.00369268 0.127443
0.0279393 0 0.150301
0.0846571 0 0.149401
0.140475 0 0.138964
0.197681 0 0.128542
0.256321 0 0.117586
0.315618 0 0.106126
0.375311 0 0.0939345
0.433143 0 0.0813764
0.487572 0 0.0686503
0.537835 0 0.0563516
0.584604 0 0.0449836
0.629221 0 0.0345617
0.671992 0 0.0250706
0.704433 0 0.01738
0.720333 0 0.0122988
0.77348 0 0.0034638
0.826627 0 0
0.879545 0 0
0.932082 0 0
0.983978 0 0
1 0 0
1 0 0
1 0 0
1 0 0
1 0 0
1 0 0
1 0 0
1 0 0
1 0 0
1 0 0
0 0.0356603 0.0943923
0 0.0343023 0.0925765
0 0.0326085 0.0917067
0.0108186 0.0301823 0.0959793
0.0531319 0.0228885 0.114946
0.107103 0.0145418 0.109972
0.168612 0.00402838 0.104402
0.228077 0 0.0937972
0.288411 0 0.0823072
0.349447 0 0.0706798
0.409644 0 0.0585031
0.467536 0 0.0465705
0.520684 0 0.0349889
0.569177 0 0.0243076
0.614969 0 0.0147097
0.6589 0 0.00611887
0.699977 0 0
0.718166 0 0
0.756664 0 0
0.809918 0 0
0.862943 0 0
0.915496 0 0
0.967361 0 0
1 0 0
1 0 0
1 0 0
1 0 0
1 0 0
1 0 0
1 0 0
1 0 0
1 0 0
1 0 0
0 0.062974 0.0882887
0 0.061326 0.0855573
0 0.0586862 0.0806439
0.0126802 0.0563363 0.0749218
0.0406348 0.055436 0.0727855
0.0737316 0.0520943 0.0798199
0.129793 0.0429541 0.0767071
0.19707 0.0311284 0.0673686
0.258 0.0213626 0.0563516
0.31986 0.011429 0.0446174
0.382422 0.00131228 0.032929
0.443061 0 0.0212558
0.499855 0 0.0107118
0.551278 0 0.00143435
0.598978 0 0
0.644068 0 0
0.687266 0 0
0.719493 0 0
0.739483 0 0
0.792782 0 0
0.845609 0 0
0.898253 0 0
0.950256 0 0
1 0 0
1 0 0
1 0 0
1 0 0
1 0 0
1 0 0
1 0 0
1 0 0
1 0 0
1 0 0
0 0.0907759 0.0833295
0 0.0893416 0.0807965
0 0.0869306 0.0776837
0.00395209 0.0835889 0.0742962
0.0390173 0.0806287 0.07187
0.0686809 0.079118 0.0712291
0.0967575 0.0788586 0.0630808
0.163043 0.0685283 0.0423133
0.226688 0.0582742 0.0290074
0.289418 0.0481727 0.0171969
0.352621 0.0379797 0.00514229
0.415381 0.027924 0
0.475196 0.0186618 0
0.529335 0.0109865 0
0.579248 0.00442512 0
0.625864 0 0
0.670253 0 0
0.711482 0 0
0.72961 0 0
0.773587 0 0
0.826963 0 0
0.879667 0 0
0.932158 0 0
0.983627 0 0
1 0 0
1 0 0
1 0 0
1 0 0
1 0 0
1 0 0
1 0 0
1 0 0
1 0 0
0 0.118456 0.077348
0 0.117006 0.074815
0 0.115221 0.0718242
0 0.112184 0.0688334
0.03299 0.107729 0.0670024
0.0726177 0.102831 0.0711986
0.0988937 0.101747 0.0772412
0.119448 0.104707 0.0606394
0.18146 0.0976883 0.0209812
0.25742 0.0854658 0
0.322942 0.0748302 0
0.387335 0.0644083 0
0.449393 0.0546273 0
0.506798 0.0460365 0
0.558984 0.03888 0
0.607721 0.0326696 0
0.653544 0.0273442 0
0.697978 0.022446 0
0.726955 0.0216068 0
0.756542 0.0207065 0
0.809934 0.0138247 0
0.863066 0.00703441 0
0.915434 0.000534066 0
0.967208 0 0
1 0 0
1 0 0
1 0 0
1 0 0
1 0 0
1 0 0
1 0 0
1 0 0
1 0 0
0 0.146273 0.0698558
0 0.144732 0.066804
0 0.142748 0.0630045
0 0.139971 0.0591897
0.029221 0.134813 0.0584421
0.0723125 0.128679 0.0658274
0.105669 0.125246 0.0755627
0.120851 0.129656 0.0616922
0.148104 0.130602 0.046891
0.196719 0.126467 0.0201877
0.2692 0.116579 0
0.350576 0.103471 0
0.421073 0.0919356 0
0.481361 0.0826886 0
0.536446 0.0747692 0
0.587243 0.0680552 0
0.635019 0.0622263 0
0.68101 0.0569619 0
0.720516 0.0534371 0
0.739345 0.0551308 0
0.792584 0.0484932 0
0.845945 0.0418555 0
0.898405 0.0355688 0
0.950515 0.0293889 0
1 0.023682 0
1 0.0184176 0
1 0.0134432 0
1 0.00880446 0
1 0.00469978 0
1 0.000961318 0
1 0 0
1 0 0
1 0 0
0 0.17406 0.060441
0 0.172244 0.0569314
0 0.169619 0.053193
0 0.166003 0.0504768
0.0287327 0.161227 0.0512703
0.0701152 0.155825 0.0578927
0.108278 0.151156 0.0672465
0.136797 0.149569 0.0751965
0.143938 0.158282 0.0444648
0.177111 0.15758 0.0311894
0.222889 0.153841 0.0115511
0.280125 0.147417 0
0.363287 0.135439 0
0.442588 0.123003 0
0.508919 0.112779 0
0.564355 0.105028 0
0.614328 0.0986496 0
0.661997 0.093019 0
0.707042 0.0881361 0
0.731777 0.0881971 0
0.774655 0.0842145 0
0.828229 0.0777447 0
0.880949 0.0715801 0
0.933211 0.0655833 0
0.984176 0.0599832 0
1 0.054902 0
1 0.0501259 0
1 0.0456397 0
1 0.0416724 0
1 0.0380255 0
1 0.0346532 0
1 0.0314031 0
1 0.0284276 0
0 0.201709 0.0497444
0 0.199435 0.0463569
0 0.196155 0.0435492
0 0.192035 0.0429541
0.0305486 0.18735 0.0459754
0.0699931 0.182712 0.0525368
0.109346 0.178149 0.0593576
0.14139 0.17557 0.0687114
0.165911 0.177523 0.0560311
0.170153 0.187015 0.0291142
0.206287 0.185351 0.0195468
0.251026 0.182025 0.00207523
0.305409 0.176593 0
0.37084 0.168673 0
0.452491 0.157015 0
0.523873 0.146593 0
0.584878 0.138048 0
0.639231 0.130968 0
0.688502 0.12517 0
0.72166 0.123095 0
0.755917 0.121111 0
0.809552 0.114824 0
0.862638 0.108751 0
0.915145 0.102937 0
0.966125 0.0975509 0
1 0.0925917 0
1 0.087892 0
1 0.08365 0
1 0.0798047 0
1 0.0762341 0
1 0.0730144 0
1 0.0699626 0
1 0.0668956 0
0 0.229191 0.0386053
0 0.22649 0.0360723
0 0.222827 0.0348516
0 0.218647 0.0362707
0.0321355 0.214221 0.0408026
0.0706035 0.210071 0.0478065
0.110491 0.205585 0.0544442
0.144854 0.202579 0.063447
0.175113 0.201007 0.0711986
0.190463 0.208453 0.0342107
0.198169 0.21619 0.0175021
0.236194 0.214282 0.00791943
0.280919 0.211093 0
0.332418 0.206607 0
0.390036 0.20058 0
0.458 0.19234 0
0.530266 0.182803 0
0.596201 0.173953 0
0.65536 0.166354 0
0.70544 0.160632 0
0.734142 0.159625 0
0.789731 0.15317 0
0.843198 0.147204 0
0.895903 0.141497 0
0.946822 0.136324 0
0.996857 0.131395 0
1 0.126848 0
1 0.122637 0
1 0.118929 0
1 0.115526 0
1 0.112306 0
1 0.109346 0
1 0.106386 0
0 0.256641 0.0280766
0 0.253712 0.0267338
0 0.250019 0.0271153
0 0.245991 0.0301823
0.0336309 0.241947 0.0356298
0.0714427 0.238178 0.0428931
0.110719 0.234119 0.0495613
0.14815 0.230472 0.0582742
0.180102 0.228473 0.0675517
0.208316 0.228885 0.064622
0.213336 0.240681 0.0178988
0.227527 0.246357 0.0055848
0.266926 0.244343 0
0.310918 0.241489 0
0.359976 0.237781 0
0.413886 0.232898 0
0.469734 0.227268 0
0.534401 0.219959 0
0.601877 0.211673 0
0.664759 0.203952 0
0.713436 0.198886 0
0.755962 0.195224 0
0.815946 0.188174 0
0.872801 0.181735 0
0.926192 0.176135 0
0.976593 0.171267 0
1 0.166873 0
1 0.162707 0
1 0.15903 0
1 0.155673 0
1 0.152529 0
1 0.149584 0
1 0.14667 0
0 0.284199 0.0185245
0 0.281315 0.0184176
0 0.277806 0.0202487
0 0.274052 0.0244297
0.0353399 0.27042 0.0304265
0.0725872 0.267033 0.0378882
0.111345 0.263355 0.0445869
0.150912 0.259373 0.0526436
0.184161 0.257191 0.0622416
0.215381 0.255802 0.0706645
0.239338 0.260105 0.0449226
0.237903 0.273518 0.00434882
0.257664 0.277684 0
0.297459 0.275792 0
0.340963 0.273228 0
0.387961 0.27013 0
0.438285 0.26627 0
0.490745 0.261692 0
0.54345 0.256825 0
0.605081 0.250309 0
0.668696 0.243137 0
0.719875 0.238071 0
0.767346 0.233738 0
0.831022 0.226322 0
0.890257 0.219806 0
0.946593 0.21384 0
0.999634 0.208606 0
1 0.203983 0
1 0.200107 0
1 0.196628 0
1 0.193515 0
1 0.190646 0
1 0.187915 0
0 0.311925 0.0104677
0 0.309316 0.0113527
0 0.306142 0.0141909
0 0.302815 0.0190585
0.037232 0.299657 0.0252842
0.0739757 0.296651 0.0328222
0.112306 0.293324 0.0396887
0.152956 0.289326 0.0469825
0.187747 0.286915 0.0567788
0.220523 0.285161 0.0664836
0.251164 0.284825 0.0693675
0.268101 0.29369 0.0221103
0.264759 0.306889 0
0.288014 0.310231 0
0.327977 0.308476 0
0.370581 0.306203 0
0.415549 0.303624 0
0.462837 0.300557 0
0.512276 0.296803 0
0.56228 0.292714 0
0.612314 0.288533 0
0.670314 0.282979 0
0.725658 0.277668 0
0.769177 0.274434 0
0.834318 0.267308 0
0.895918 0.260716 0
0.954864 0.254551 0
1 0.249104 0
1 0.244419 0
1 0.240085 0
1 0.236301 0
1 0.232959 0
1 0.229877 0
0 0.339834 0.00410468
0 0.337591 0.00596628
0 0.334844 0.00949111
0.0033875 0.332082 0.0145876
0.0399329 0.329412 0.0209201
0.0760357 0.326848 0.0282902
0.113848 0.323919 0.0350805
0.154498 0.320226 0.0416876
0.191394 0.317403 0.051606
0.225177 0.315572 0.0613413
0.257328 0.314382 0.0700847
0.285893 0.316381 0.0583047
0.294926 0.328664 0.00283818
0.293309 0.340749 0
0.318471 0.343679 0
0.35819 0.342092 0
0.399451 0.340185 0
0.442756 0.337957 0
0.488182 0.335271 0
0.534676 0.33225 0
0.581888 0.328923 0
0.629145 0.325475 0
0.676066 0.322103 0
0.728923 0.317723 0
0.764492 0.316167 0
0.828794 0.309819 0
0.891493 0.303548 0
0.951415 0.297612 0
1 0.292195 0
1 0.287236 0
1 0.282719 0
1 0.278553 0
1 0.274708 0
0 0.367697 0.000289921
0 0.365911 0.00273136
0 0.363729 0.00656138
0.00840772 0.361563 0.0116732
0.0439307 0.359457 0.0178531
0.0793927 0.357321 0.0250553
0.116625 0.354788 0.031693
0.156939 0.351446 0.0377508
0.195193 0.34844 0.0471046
0.229679 0.346563 0.0568704
0.263264 0.344991 0.0668498
0.295384 0.34432 0.0725414
0.319356 0.350088 0.0388952
0.321248 0.364248 0
0.322789 0.375006 0
0.349081 0.377646 0
0.387976 0.376318 0
0.428489 0.374502 0
0.470634 0.372457 0
0.513985 0.370169 0
0.558267 0.36762 0
0.602808 0.364965 0
0.647303 0.362249 0
0.691859 0.359472 0
0.735149 0.356924 0
0.76875 0.355947 0
0.820722 0.352132 0
0.880827 0.346822 0
0.940124 0.341482 0
0.997513 0.336309 0
1 0.331365 0
1 0.32668 0
1 0.322301 0
0 0.395666 0
0 0.394324 0.00163272
0 0.39266 0.00572213
0.0151675 0.391089 0.0107271
0.0496223 0.389502 0.0166781
0.0842298 0.387823 0.0234989
0.120699 0.385718 0.0297704
0.160372 0.382773 0.0352789
0.199207 0.379843 0.0436255
0.234623 0.377798 0.0535744
0.269047 0.376104 0.0633555
0.301991 0.37496 0.0723735
0.332769 0.375814 0.0683299
0.351049 0.385061 0.0180667
0.34786 0.399985 0
0.352819 0.4094 0
0.379568 0.411856 0
0.417746 0.410666 0
0.457649 0.408911 0
0.498573 0.407004 0
0.540185 0.40499 0
0.58204 0.402945 0
0.624277 0.400778 0
0.666667 0.39855 0
0.707988 0.396567 0
0.748074 0.39472 0
0.777935 0.394324 0
0.815412 0.393042 0
0.869444 0.389273 0
0.925032 0.385092 0
0.980987 0.380697 0
1 0.376211 0
1 0.371756 0
0 0.423713 0
0 0.422766 0.00256352
0 0.421622 0.00671397
0.023621 0.420478 0.0116884
0.0570077 0.419394 0.0174258
0.0906844 0.418173 0.0237888
0.126284 0.416495 0.0296025
0.165072 0.413977 0.0345922
0.204166 0.411154 0.0420081
0.240223 0.409033 0.0517128
0.274952 0.407355 0.0612192
0.308843 0.405921 0.0710613
0.341497 0.405173 0.07776
0.368612 0.408835 0.0571145
0.380545 0.420768 0
0.375219 0.435401 0
0.383124 0.443656 0
0.409995 0.44596 0
0.447776 0.444785 0
0.486961 0.443046 0
0.526406 0.441337 0
0.566278 0.439597 0
0.606271 0.437842 0
0.646342 0.436103 0
0.685863 0.434501 0
0.72491 0.433021 0
0.761868 0.4318 0
0.789105 0.431922 0
0.823011 0.43154 0
0.865492 0.430014 0
0.913909 0.427497 0
0.966049 0.424247 0
1 0.420676 0
0 0.45185 0.00134279
0 0.45124 0.00508125
0.000701915 0.450492 0.00936904
0.0333715 0.449775 0.0143435
0.0658732 0.449058 0.0199435
0.0987869 0.448188 0.0260624
0.133516 0.446876 0.0315251
0.171344 0.44477 0.0360418
0.210269 0.442161 0.0424811
0.246708 0.44004 0.0515908
0.281437 0.438422 0.0607919
0.315984 0.436835 0.0703899
0.348974 0.435798 0.0791333
0.380346 0.436118 0.0791485
0.402853 0.442954 0.04065
0.408377 0.456519 0
0.403159 0.470253 0
0.413535 0.477531 0
0.440909 0.479515 0
0.477836 0.478401 0
0.515999 0.476768 0
0.554238 0.475166 0
0.592248 0.473793 0
0.630747 0.472358 0
0.668589 0.471168 0
0.705974 0.47013 0
0.743053 0.469215 0
0.775845 0.468772 0
0.801373 0.469352 0
0.836789 0.469047 0
0.876112 0.468254 0
0.915557 0.467384 0
0.958587 0.465919 0
0 0.480156 0.004654
0 0.479835 0.00872816
0.0121462 0.479393 0.0131685
0.0440223 0.478981 0.0181735
0.0757458 0.478569 0.0237125
0.107912 0.478004 0.0296178
0.141848 0.476997 0.0348058
0.178729 0.475242 0.0390478
0.217227 0.472862 0.0446326
0.253635 0.470848 0.0528725
0.288472 0.469215 0.0619364
0.32314 0.467628 0.0710155
0.356756 0.466285 0.0805982
0.388769 0.465705 0.0873426
0.417334 0.468086 0.0745861
0.435035 0.477516 0.0238346
0.435538 0.491691 0
0.431449 0.504433 0
0.443915 0.510857 0
0.471305 0.512734 0
0.5075 0.511757 0
0.544671 0.510399 0
0.581476 0.509194 0
0.618463 0.508064 0
0.654978 0.507149 0
0.6907 0.506523 0
0.726329 0.505943 0
0.761013 0.505501 0
0.789502 0.505745 0
0.814908 0.506477 0
0.851484 0.506355 0
0.88893 0.506065 0
0.926726 0.505653 0
0 0.508583 0.00880446
0 0.508553 0.0130159
0.024033 0.508324 0.0176852
0.0551766 0.508156 0.0227665
0.0862135 0.507988 0.028275
0.117739 0.507637 0.0340429
0.150958 0.506874 0.0390631
0.186877 0.505394 0.0430915
0.224735 0.503258 0.0479744
0.26125 0.501259 0.0554971
0.295842 0.499672 0.0643015
0.330419 0.498116 0.0729686
0.36437 0.496651 0.0821393
0.39649 0.495796 0.0903944
0.427787 0.495796 0.092607
0.452354 0.500771 0.0654307
0.465324 0.512016 0.0104524
0.462364 0.526497 0
0.460197 0.538277 0
0.474357 0.544198 0
0.501701 0.546044 0
0.536675 0.545449 0
0.572732 0.544396 0
0.608728 0.543374 0
0.643992 0.542687 0
0.678584 0.542245 0
0.712901 0.541924 0
0.746868 0.541726 0
0.777707 0.541894 0
0.803662 0.542443 0
0.831861 0.543145 0
0.866957 0.543435 0
0.902388 0.543603 0
0 0.537041 0.0136873
0.00543221 0.537224 0.0180514
0.0362707 0.537179 0.0227665
0.0667124 0.537209 0.0279545
0.0971084 0.537209 0.0334478
0.128038 0.537041 0.0391089
0.160586 0.536446 0.0440375
0.195621 0.53521 0.0478828
0.232837 0.533242 0.0523384
0.269306 0.531243 0.0591592
0.303716 0.529671 0.0675669
0.337942 0.528176 0.0759594
0.372045 0.526696 0.0847181
0.404593 0.525658 0.0939345
0.436088 0.5252 0.100664
0.465141 0.526879 0.0937362
0.485954 0.534234 0.0547494
0.494377 0.546822 0.000579843
0.489555 0.561242 0
0.489616 0.572015 0
0.504982 0.577539 0
0.531807 0.579507 0
0.565728 0.579187 0
0.600885 0.578378 0
0.635126 0.577813 0
0.668879 0.577432 0
0.70219 0.577279 0
0.735042 0.577264 0
0.76611 0.577539 0
0.79353 0.577981 0
0.81857 0.578759 0
0.8495 0.579538 0
0.883101 0.580118 0
0 0.565438 0.0191348
0.0184939 0.565744 0.0236515
0.048661 0.565881 0.0284276
0.0784924 0.566049 0.0336004
0.108278 0.566186 0.0390326
0.138643 0.56614 0.0445869
0.17055 0.565667 0.0494087
0.204822 0.564569 0.053254
0.241382 0.562783 0.0574044
0.27776 0.560876 0.0636759
0.31223 0.559365 0.0717937
0.34609 0.558053 0.0801251
0.380209 0.556664 0.0885939
0.413169 0.55555 0.0977646
0.444648 0.555032 0.105699
0.475456 0.555123 0.109514
0.501152 0.558953 0.0914168
0.518441 0.568292 0.0436408
0.522499 0.581796 0
0.517082 0.595789 0
0.519539 0.60557 0
0.53547 0.610849 0
0.561746 0.612924 0
0.594522 0.612894 0
0.628199 0.612467 0
0.661189 0.612161 0
0.693614 0.61207 0
0.725521 0.612177 0
0.755932 0.612573 0
0.784131 0.612924 0
0.809491 0.613535 0
0.836194 0.614466 0
0.867903 0.615396 0
0.00521859 0.592615 0.0275883
0.0323186 0.593805 0.0303502
0.0612345 0.594293 0.0345006
0.0904555 0.594568 0.0396582
0.119692 0.594797 0.0450904
0.149584 0.594858 0.0505837
0.180987 0.594553 0.0554055
0.214679 0.593683 0.0593271
0.25066 0.592157 0.0633402
0.2869 0.590387 0.0691691
0.321462 0.588952 0.0769207
0.355001 0.587762 0.0852827
0.388968 0.586465 0.0935988
0.422049 0.585397 0.102327
0.453895 0.58468 0.11136
0.484611 0.584512 0.118151
0.513375 0.585916 0.11519
0.53608 0.591791 0.0857099
0.549874 0.60264 0.0331579
0.550011 0.616632 0
0.545007 0.629969 0
0.549401 0.638926 0
0.565866 0.643977 0
0.591531 0.646143 0
0.622736 0.646479 0
0.655116 0.646326 0
0.686793 0.646311 0
0.717876 0.646464 0
0.747707 0.646815 0
0.77583 0.647135 0
0.801541 0.647593 0
0.826505 0.648402 0
0.856336 0.649561 0
0.0293126 0.616419 0.0440223
0.0522316 0.61912 0.0436255
0.076997 0.62118 0.0443885
0.103639 0.622477 0.0473335
0.131685 0.623224 0.0519112
0.161151 0.623468 0.0573434
0.192142 0.623346 0.062211
0.225269 0.62269 0.0661631
0.260655 0.621393 0.0700542
0.296681 0.61976 0.0755016
0.33135 0.618326 0.082948
0.364645 0.617243 0.0912642
0.398322 0.616068 0.0994125
0.431449 0.615015 0.107927
0.463569 0.614206 0.117067
0.494118 0.613977 0.124804
0.523949 0.614282 0.129473
0.550301 0.61735 0.116899
0.569955 0.625147 0.0770275
0.579614 0.637186 0.024506
0.577173 0.651194 0
0.573114 0.663737 0
0.579248 0.671962 0
0.59617 0.676753 0
0.620768 0.679088 0
0.650339 0.679789 0
0.681498 0.679881 0
0.71191 0.680064 0
0.741115 0.680308 0
0.768826 0.680507 0
0.79469 0.680842 0
0.819699 0.681514 0
0.847578 0.682765 0
0.052842 0.640375 0.0606088
0.0766766 0.642664 0.0620432
0.0999771 0.645274 0.0624094
0.123125 0.647959 0.0624552
0.147433 0.650217 0.063386
0.174289 0.65156 0.0661173
0.203922 0.651987 0.069749
0.236408 0.65156 0.073579
0.27126 0.650446 0.077409
0.307027 0.648936 0.0825818
0.341741 0.647532 0.089662
0.37499 0.646464 0.0978256
0.408164 0.645426 0.105989
0.44123 0.644404 0.11426
0.473503 0.643549 0.123095
0.504097 0.643183 0.131777
0.533806 0.643275 0.138445
0.562493 0.644434 0.13753
0.586023 0.649332 0.114412
0.602365 0.658747 0.0675669
0.608042 0.671534 0.0184939
0.603967 0.685344 0
0.601328 0.696986 0
0.608911 0.704555 0
0.625727 0.709209 0
0.649195 0.711711 0
0.677546 0.712612 0
0.707149 0.712825 0
0.735592 0.713008 0
0.762829 0.713039 0
0.788632 0.713298 0
0.813687 0.713878 0.00775158
0.840864 0.715129 0.00489815
0.0623484 0.669993 0.0638743
0.0918593 0.670039 0.0714122
0.121523 0.670024 0.0792859
0.146151 0.672023 0.0819562
0.169482 0.674617 0.0828107
0.193408 0.677119 0.0827497
0.219547 0.678981 0.0826123
0.24947 0.679606 0.0835889
0.282841 0.679072 0.0859541
0.31812 0.677729 0.0905623
0.352804 0.676356 0.0972763
0.386053 0.675288 0.105257
0.418692 0.674372 0.113405
0.451682 0.67335 0.121508
0.483833 0.672511 0.129992
0.514763 0.671962 0.138979
0.544274 0.671992 0.146334
0.57348 0.672328 0.151247
0.599802 0.674952 0.141634
0.620478 0.681636 0.108186
0.633478 0.692302 0.0578317
0.635172 0.705577 0.0144503
0.630442 0.718883 0
0.629435 0.729564 0
0.638224 0.736538 0
0.654932 0.741009 0
0.677485 0.743496 0
0.704158 0.74435 0
0.731884 0.744366 0
0.758602 0.74435 0
0.784375 0.744564 0.00714122
0.809659 0.745159 0.0151675
0.836255 0.746502 0.0112764
0.0722972 0.699504 0.0677501
0.101701 0.699596 0.075349
0.131273 0.699611 0.083299
0.160449 0.699718 0.0914473
0.189548 0.699825 0.0998703
0.215183 0.701488 0.102983
0.240497 0.703563 0.102922
0.26772 0.705226 0.101427
0.297963 0.705943 0.100175
0.330983 0.705577 0.101534
0.364721 0.704631 0.10634
0.397696 0.703685 0.113451
0.429892 0.702861 0.121447
0.462562 0.701885 0.129412
0.494728 0.700984 0.137682
0.525734 0.700374 0.14641
0.555154 0.700236 0.154665
0.584146 0.700389 0.16112
0.612268 0.701473 0.160586
0.635859 0.705791 0.140932
0.653376 0.714122 0.0990005
0.66244 0.725689 0.0496681
0.661295 0.738979 0.0129244
0.656641 0.751644 0
0.657343 0.761349 0
0.667094 0.767681 0
0.683696 0.771649 0
0.705348 0.773648 0
0.729824 0.77438 0
0.755962 0.774456 0.00833143
0.781506 0.774731 0.0175631
0.807263 0.775723 0.0184176
0.833265 0.776944 0.0156558
0.0826734 0.728847 0.0721141
0.11191 0.728985 0.0798199
0.141375 0.729015 0.0878004
0.170459 0.729137 0.095964
0.199512 0.729213 0.104417
0.228962 0.729213 0.112566
0.259419 0.728939 0.120287
0.288029 0.729793 0.12221
0.317281 0.730724 0.121187
0.348226 0.731121 0.12047
0.379751 0.731136 0.121706
0.411093 0.730907 0.125612
0.442191 0.730526 0.131548
0.473976 0.729839 0.138384
0.505821 0.72903 0.145861
0.536751 0.728374 0.154253
0.5664 0.728023 0.162921
0.595087 0.728115 0.169726
0.62359 0.728435 0.174365
0.649454 0.730846 0.165621
0.670176 0.736858 0.136049
0.684398 0.746502 0.0890211
0.689632 0.758618 0.0434577
0.68658 0.771603 0.0132753
0.68275 0.783215 0
0.685039 0.791699 0
0.695521 0.797086 0
0.711772 0.800412 0.00537118
0.731991 0.80235 0.0130312
0.755199 0.803342 0.0207828
0.780041 0.804242 0.0239414
0.805524 0.805508 0.0210727
0.830976 0.806714 0.0183871
0.0933852 0.757992 0.0769665
0.122454 0.758129 0.0847334
0.151812 0.75816 0.0927138
0.180774 0.758267 0.100862
0.209766 0.758328 0.1093
0.239185 0.758267 0.117433
0.269627 0.757946 0.12517
0.301472 0.757229 0.13225
0.334859 0.7561 0.138842
