site/assets/luts/freshluts--0000133-s-log-to-rec709-basic.cube
# LUTr-Schema-Version: 2
# LUTr-ID: freshluts--0000133-s-log-to-rec709-basic
# LUTr-Title: S-Log to Rec709 - Basic
# LUTr-Collection: Fresh LUTs
# LUTr-Collection-ID: freshluts-community
# LUTr-Source: https://freshluts.com
# LUTr-Retrieved: 2026-07-27
# LUTr-Source-File: submissions-raw/freshluts/cubes/133__S-Log_to_Rec_709_-_Basic.cube
# LUTr-Source-Format: CUBE
# LUTr-Source-SHA256: db08922c818b015f12cde33586ca2f49f5a39c1e2fb7c2198d0b85ff49d71834
# LUTr-License: CC0-1.0
# LUTr-License-URL: https://freshluts.com/termsandconditions
# LUTr-License-Basis: site-terms
# LUTr-Transform-Class: creative-look
# LUTr-Tags: creative, freshluts, community, cube, sony-s-log1
# LUTr-Input-Color-Space: sony-slog1-sgamut
# LUTr-Input-Gamut: sony-s-gamut
# LUTr-Input-Transfer: sony-s-log1
# LUTr-Output-Color-Space: srgb
# LUTr-Output-Gamut: rec709
# LUTr-Output-Transfer: srgb
# LUTr-Color-Space-Confidence: inferred-from-source-label
# LUTr-Domain-Normalized: true
# LUTr-Shaper: none
# LUTr-Original-Grid: 33x33x33
# LUTr-Conversion-Grid: 33x33x33
# LUTr-Conversion-Interpolation: none
# LUTr-Conversion-Method: Metadata normalization; numeric LUT samples preserved
# LUTr-Conversion-Tool: LUTr scripts/convert-all-to-cube.mjs 2.0.0
# LUTr-Conversion-Date: 2026-07-28
# LUTr-Asset-URL: https://freshluts.com/luts/133
# LUTr-Author: Alex Jordan
# LUTr-Author-URL: https://freshluts.com/users/1
# LUTr-Attribution: Alex Jordan via Fresh LUTs
# LUTr-Source-Labels: gamma=Sony S-Log; color=None; key=Neutral; style=Protect highlights
# LUTr-Note: Preserve this metadata and the upstream license notices when redistributing.
TITLE "S-Log to Rec709 - Basic"
LUT_3D_SIZE 5
DOMAIN_MIN 0 0 0
DOMAIN_MAX 1 1 1
0 0 0
0 0 0
0 0 0
0 0 0
0 0 0
0 0 0
0 0 0
0.125933 0.0495766 0
0.458289 0.0715038 0
1 0.0364385 0
0 0.298497 0
0.0394751 0.384375 0
0.420386 0.420386 0
1 0.387945 0
1 0.292012 0
0 1 0
0 1 0
0.141573 1 0
0.960708 0.960693 0
1 0.854978 0
0 1 0
0 1 0
0 1 0
0.659678 1 0
1 1 0
0 0 0
0 0 0
0 0 0
0 0 0
0 0 0
0 0 0
0.0077821 0.0077821 0.0077821
0.161837 0.0593118 0.0593118
0.519112 0.0682994 0.0682994
1 0.0140688 0.0140841
0 0.321645 0.0693065
0.0130465 0.395773 0.0130312
0.415045 0.415045 0
1 0.368978 0
1 0.258289 0
0 1 0
0 1 0
0.109636 1 0
0.933104 0.933104 0
1 0.831449 0
0 1 0
0 1 0
0 1 0
0.639139 1 0
1 1 0
0 0 0
0 0 0
0 0 0
0 0 0
0 0 0
0 0 0
0.0225834 0.0225834 0.0536507
0.195377 0.0655985 0.195377
0.576944 0.060441 0.299565
1 0 0.352651
0 0.340932 0.340932
0 0.400916 0.400916
0.40502 0.40502 0.40502
1 0.344076 0.344091
1 0.221485 0.221485
0 1 0.25922
0 1 0.164019
0.0777447 0.999039 0.0777447
0.90399 0.90399 0
1 0.808423 0
0 1 0
0 1 0
0 1 0
0.617136 1 0
1 1 0
0 0 0
0 0 0
0 0 0
0 0 0
0.0723583 0 0.0501564
0 0 0
0.0346685 0.0346685 0.152163
0.22295 0.066041 0.40499
0.626749 0.0446937 0.626749
1 0 0.81857
0 0.351965 0.722042
0 0.394415 0.917906
0.384161 0.384161 1
1 0.306371 1
1 0.174914 1
0 1 1
0 1 1
0.0376593 0.960082 0.960082
0.865827 0.865827 0.865827
1 0.777691 0.777691
0 1 0.742077
0 1 0.705653
0 1 0.657481
0.586038 1 0.586023
1 1 0.504372
0 0 0
0 0 0
0 0 0
0 0 0
0.159335 0 0.159335
0 0 0
0.043061 0.043061 0.310445
0.245457 0.0609598 0.687114
0.672999 0.0207523 1
1 0 1
0 0.355688 1
0 0.379675 1
0.35523 0.355245 1
1 0.260243 1
1 0.124086 1
0 1 1
0 0.981491 1
0 0.916182 1
0.825147 0.825147 1
1 0.744183 1
0 1 1
0 1 1
0 1 1
0.55079 1 1
1 1 1
