site/assets/luts/freshluts--0000395-crizo-mzeyah-model-lut.cube
# LUTr-Schema-Version: 2
# LUTr-ID: freshluts--0000395-crizo-mzeyah-model-lut
# LUTr-Title: Crizo Mzeyah Model Lut
# LUTr-Collection: Fresh LUTs
# LUTr-Collection-ID: freshluts-community
# LUTr-Source: https://freshluts.com
# LUTr-Retrieved: 2026-07-27
# LUTr-Source-File: submissions-raw/freshluts/cubes/395__Model_Lut_1.cube
# LUTr-Source-Format: CUBE
# LUTr-Source-SHA256: a05b64db0e9ee63205c6737e071ad962ee9a83c4878d26c0c3fa8510b78e4a92
# LUTr-License: CC0-1.0
# LUTr-License-URL: https://freshluts.com/termsandconditions
# LUTr-License-Basis: site-terms
# LUTr-Transform-Class: creative-look
# LUTr-Tags: creative, freshluts, community, cube, orange, low-key, bmd-film-4k
# LUTr-Input-Color-Space:
# LUTr-Input-Gamut: bmd-film-gamut
# LUTr-Input-Transfer: bmd-film-4k
# LUTr-Output-Color-Space: srgb
# LUTr-Output-Gamut: rec709
# LUTr-Output-Transfer: srgb
# LUTr-Color-Space-Confidence: camera-profile-input-required
# LUTr-Domain-Normalized: true
# LUTr-Shaper: none
# LUTr-Original-Grid: 33x33x33
# LUTr-Conversion-Grid: 33x33x33
# LUTr-Conversion-Interpolation: none
# LUTr-Conversion-Method: Metadata normalization; numeric LUT samples preserved
# LUTr-Conversion-Tool: LUTr scripts/convert-all-to-cube.mjs 2.0.0
# LUTr-Conversion-Date: 2026-07-28
# LUTr-Asset-URL: https://freshluts.com/luts/395
# LUTr-Author: Crizo
# LUTr-Author-URL: https://freshluts.com/users/10814
# LUTr-Attribution: Crizo via Fresh LUTs
# LUTr-Source-Labels: gamma=Blackmagic BMD Film 4K; color=Orange; key=Low Key; style=Teal - Orange
# LUTr-Note: Preserve this metadata and the upstream license notices when redistributing.
TITLE "Crizo Mzeyah Model Lut"
LUT_3D_SIZE 5
DOMAIN_MIN 0 0 0
DOMAIN_MAX 1 1 1
0 0 0
0.270176 0 0
0.557366 0 0
0.801907 0 0
1 0 0
0 0.27097 0
0.271992 0.271717 0
0.558846 0.274464 0
0.802243 0.285863 0
1 0.300771 0
0 0.563104 0
0.276631 0.560723 0
0.559228 0.559228 0
0.797879 0.564416 0
1 0.571313 0
0 0.818265 0
0.294438 0.80975 0
0.567681 0.801129 0
0.799481 0.799481 0
1 0.800458 0
0 1 0
0.302907 1 0
0.571267 1 0
0.800565 1 0
1 1 0
0 0 0.270695
0.269932 0 0.269932
0.557565 0 0.272999
0.802197 0 0.285817
1 0 0.303212
0 0.27129 0.27129
0.271672 0.271672 0.271672
0.558526 0.274098 0.274098
0.801877 0.285435 0.285435
1 0.29958 0.29958
0 0.562264 0.278401
0.275441 0.559686 0.275441
0.557519 0.557519 0.272923
0.79556 0.562097 0.278202
1 0.5682 0.285206
0 0.815641 0.301137
0.290562 0.806363 0.290562
0.563638 0.797086 0.279957
0.794888 0.794888 0.27744
1 0.795651 0.278325
0 1 0.31339
0.297169 1 0.297169
0.566247 1 0.282963
0.795361 1 0.277989
1 1 0.278096
0 0 0.556115
0.270909 0 0.555764
0.558297 0 0.558297
0.803311 0 0.569772
1 0 0.584878
0 0.272145 0.556832
0.272709 0.272709 0.557321
0.559152 0.274815 0.559152
0.80209 0.285695 0.568643
1 0.299306 0.580575
0 0.562356 0.562356
0.274907 0.559228 0.559228
0.556756 0.556542 0.556512
0.796613 0.561303 0.560494
1 0.565591 0.565591
0 0.813519 0.580072
0.287022 0.80325 0.569802
0.560235 0.793683 0.560235
0.792081 0.791638 0.5579
1 0.791562 0.558099
0 1 0.58909
0.292393 1 0.574502
0.56199 1 0.56199
0.791135 1 0.557671
1 1 0.557702
0 0 0.792828
0.275257 0 0.792996
0.562203 0 0.795666
0.80708 0 0.80708
1 0 0.82182
0 0.2766 0.794156
0.276799 0.276799 0.794339
0.562509 0.27866 0.795956
0.804776 0.288777 0.804776
1 0.302159 0.816403
0 0.565118 0.798581
0.27715 0.561181 0.794644
0.558038 0.558038 0.791485
0.794293 0.560845 0.794293
1 0.565682 0.7991
0 0.814176 0.814496
0.286809 0.803067 0.803067
0.559487 0.79295 0.79295
0.79057 0.790204 0.790173
1 0.794278 0.79263
0 1 0.828626
0.290852 1 0.806592
0.560372 1 0.793835
0.789792 1 0.789792
1 1 0.798688
0 0 1
0.280964 0 1
0.567498 0 1
0.8121 0 1
1 0 1
0 0.282551 1
0.282292 0.282292 1
0.567132 0.28397 1
0.808927 0.293507 1
1 0.306065 1
0 0.56907 1
0.281056 0.564584 1
0.560586 0.560586 1
0.79617 0.562722 1
1 0.566583 1
0 0.815442 1
0.287907 0.804028 1
0.559808 0.793271 1
0.790097 0.790097 1
1 0.790066 1
0 1 1
0.290837 1 1
0.560357 1 1
0.789883 1 1
1 1 1
