site/assets/luts/freshluts--0000344-strangest-things-2.cube
# LUTr-Schema-Version: 2
# LUTr-ID: freshluts--0000344-strangest-things-2
# LUTr-Title: STRANGEST THINGS 2
# LUTr-Collection: Fresh LUTs
# LUTr-Collection-ID: freshluts-community
# LUTr-Source: https://freshluts.com
# LUTr-Retrieved: 2026-07-27
# LUTr-Source-File: submissions-raw/freshluts/cubes/344__STRANGEST_THINGS_2.cube
# LUTr-Source-Format: CUBE
# LUTr-Source-SHA256: 3b13586eeba16d0d92a00613f5d56718b6037ae1ac48a0970e176913b853eab5
# LUTr-License: CC0-1.0
# LUTr-License-URL: https://freshluts.com/termsandconditions
# LUTr-License-Basis: site-terms
# LUTr-Transform-Class: creative-look
# LUTr-Tags: creative, freshluts, community, cube, warm
# LUTr-Input-Color-Space:
# LUTr-Input-Gamut: unspecified
# LUTr-Input-Transfer: unspecified
# LUTr-Output-Color-Space: srgb
# LUTr-Output-Gamut: rec709
# LUTr-Output-Transfer: srgb
# LUTr-Color-Space-Confidence: camera-profile-input-required
# LUTr-Domain-Normalized: true
# LUTr-Shaper: none
# LUTr-Original-Grid: 32x32x32
# LUTr-Conversion-Grid: 32x32x32
# LUTr-Conversion-Interpolation: none
# LUTr-Conversion-Method: Metadata normalization; numeric LUT samples preserved
# LUTr-Conversion-Tool: LUTr scripts/convert-all-to-cube.mjs 2.0.0
# LUTr-Conversion-Date: 2026-07-28
# LUTr-Asset-URL: https://freshluts.com/luts/344
# LUTr-Author: I WANT TO MAKE A FILM PODCAST
# LUTr-Author-URL: https://freshluts.com/users/15633
# LUTr-Attribution: I WANT TO MAKE A FILM PODCAST via Fresh LUTs
# LUTr-Source-Labels: gamma=Other; color=Warm; key=Neutral; style=Hipster
# LUTr-Note: Preserve this metadata and the upstream license notices when redistributing.
# LUTr-Upstream-Comment: Created by: Adobe Photoshop Export Color Lookup Plugin
# LUTr-Upstream-Comment: LUT size
# LUTr-Upstream-Comment: data domain
# LUTr-Upstream-Comment: LUT data points
TITLE "STRANGEST THINGS 2"
LUT_3D_SIZE 5
DOMAIN_MIN 0.000000 0.000000 0.000000
DOMAIN_MAX 0.903226 0.903226 0.903226
0 0 0
0.072571 0.012726 0.0112
0.243622 0.027893 0.025177
0.451294 0.044464 0.040619
0.642578 0.058868 0.054199
0.014893 0.060608 0.016815
0.0896 0.072418 0.028381
0.265106 0.085388 0.045258
0.482971 0.096832 0.067657
0.684631 0.103546 0.091949
0.036835 0.199585 0.035919
0.112854 0.211823 0.047852
0.286499 0.227661 0.063965
0.500549 0.243042 0.08194
0.693024 0.255402 0.099213
0.069366 0.351471 0.05368
0.141754 0.367188 0.068054
0.313385 0.385986 0.085724
0.527374 0.403259 0.103271
0.716034 0.417633 0.11911
0.096313 0.457581 0.064117
0.164185 0.476685 0.081024
0.333496 0.498108 0.100555
0.546783 0.516815 0.118378
0.733582 0.531799 0.134064
0.002869 0.002747 0.026093
0.075745 0.015411 0.03714
0.24649 0.030914 0.051147
0.454834 0.047516 0.065704
0.646088 0.062134 0.078003
0.017578 0.063385 0.042572
0.093048 0.074829 0.054413
0.268188 0.088287 0.071198
0.486847 0.099701 0.092957
0.687958 0.106934 0.115631
0.040588 0.202271 0.059631
0.115997 0.215057 0.071808
0.289886 0.230957 0.087769
0.504578 0.246399 0.10495
0.69696 0.258972 0.12088
0.073059 0.355377 0.072693
0.14566 0.371094 0.086914
0.317688 0.390015 0.104584
0.531921 0.407562 0.121307
0.720581 0.422119 0.135803
0.101501 0.462006 0.076996
0.168732 0.481598 0.094543
0.338593 0.503021 0.113831
0.552185 0.521881 0.130798
0.738678 0.53717 0.14502
0.00708 0.005157 0.097382
0.080231 0.017883 0.109161
0.250214 0.033813 0.124176
0.458527 0.050476 0.13974
0.649536 0.065063 0.153107
0.022858 0.064972 0.114807
0.0979 0.076874 0.127319
0.27243 0.090881 0.14505
0.490723 0.102478 0.167999
0.691437 0.10968 0.192047
0.046051 0.203857 0.132629
0.120483 0.217224 0.146088
0.293884 0.233551 0.163055
0.508331 0.249176 0.181366
0.700317 0.261688 0.198517
0.07901 0.356384 0.148285
0.149292 0.373444 0.164215
0.320953 0.392609 0.182739
0.535034 0.410217 0.200439
0.723419 0.424713 0.216278
0.105957 0.463287 0.156281
0.172455 0.483429 0.1745
0.3414 0.505524 0.194855
0.555084 0.5242 0.212921
0.741241 0.539398 0.228333
0.025543 0.004395 0.254333
0.093903 0.020416 0.269897
0.259796 0.038788 0.288422
0.467285 0.056122 0.305969
0.657227 0.070831 0.320892
0.043549 0.063019 0.274689
0.11322 0.078308 0.290894
0.284027 0.094513 0.312714
0.501617 0.106812 0.337921
0.701019 0.114197 0.364197
0.06543 0.203003 0.293396
0.135071 0.219269 0.310455
0.303894 0.23819 0.331177
0.517578 0.254456 0.351654
0.708618 0.26709 0.370697
0.097656 0.355927 0.31192
0.1633 0.375671 0.331573
0.330933 0.397247 0.353638
0.543793 0.415649 0.373535
0.731049 0.430328 0.391083
0.122406 0.463898 0.323517
0.185364 0.486023 0.344849
0.350922 0.510132 0.368683
0.563416 0.529388 0.388916
0.748474 0.544769 0.406158
0.07132 0.000031 0.473663
0.127411 0.018494 0.528259
0.280914 0.043701 0.555115
0.484619 0.063202 0.575745
0.671783 0.078735 0.592133
0.096405 0.049408 0.532623
0.153717 0.071686 0.558075
0.312103 0.094818 0.587524
0.526917 0.10907 0.615662
0.716675 0.121246 0.636749
0.113556 0.193146 0.548828
0.170135 0.216553 0.5737
0.327728 0.241638 0.601685
0.537231 0.260223 0.624542
0.725098 0.273712 0.644348
0.1409 0.348877 0.570038
0.196899 0.374023 0.595398
0.353485 0.401733 0.623657
0.562164 0.422363 0.64566
0.746277 0.437988 0.663605
0.161987 0.458801 0.584137
0.217804 0.485046 0.609924
0.373199 0.514862 0.638947
0.580963 0.536316 0.660919
0.763275 0.552429 0.678528
