site/assets/luts/freshluts--0000131-short-film.cube
# LUTr-Schema-Version: 2
# LUTr-ID: freshluts--0000131-short-film
# LUTr-Title: Short Film
# LUTr-Collection: Fresh LUTs
# LUTr-Collection-ID: freshluts-community
# LUTr-Source: https://freshluts.com
# LUTr-Retrieved: 2026-07-27
# LUTr-Source-File: submissions-raw/freshluts/cubes/131__ShortFilm_Log_V1_CatPlectre.cube
# LUTr-Source-Format: CUBE
# LUTr-Source-SHA256: e1da04bb1c796235ac9bc1c65ba0b133331669ba2f98f928b432002ac32487cd
# LUTr-License: CC0-1.0
# LUTr-License-URL: https://freshluts.com/termsandconditions
# LUTr-License-Basis: site-terms
# LUTr-Transform-Class: creative-look
# LUTr-Tags: creative, freshluts, community, cube, warm, bmd-film, cinematic
# LUTr-Input-Color-Space: bmd-film
# LUTr-Input-Gamut: bmd-film-gamut
# LUTr-Input-Transfer: bmd-film
# LUTr-Output-Color-Space: srgb
# LUTr-Output-Gamut: rec709
# LUTr-Output-Transfer: srgb
# LUTr-Color-Space-Confidence: inferred-from-source-label
# LUTr-Domain-Normalized: true
# LUTr-Shaper: none
# LUTr-Original-Grid: 33x33x33
# LUTr-Conversion-Grid: 33x33x33
# LUTr-Conversion-Interpolation: none
# LUTr-Conversion-Method: Metadata normalization; numeric LUT samples preserved
# LUTr-Conversion-Tool: LUTr scripts/convert-all-to-cube.mjs 2.0.0
# LUTr-Conversion-Date: 2026-07-28
# LUTr-Asset-URL: https://freshluts.com/luts/131
# LUTr-Author: Steel Tone
# LUTr-Author-URL: https://freshluts.com/users/816
# LUTr-Attribution: Steel Tone via Fresh LUTs
# LUTr-Source-Labels: gamma=Blackmagic BMD Film; color=Warm; key=Neutral; style=Retro
# LUTr-Note: Preserve this metadata and the upstream license notices when redistributing.
TITLE "Short Film"
LUT_3D_SIZE 33
DOMAIN_MIN 0 0 0
DOMAIN_MAX 1 1 1
0.0217136 0.0214237 0.0230259
0.0302129 0.0233616 0.0251469
0.0404212 0.024918 0.0268254
0.0556649 0.0251316 0.0272679
0.076936 0.0236973 0.0260624
0.098558 0.0221561 0.0247349
0.121447 0.0202182 0.0233158
0.147417 0.0174411 0.0209964
0.176822 0.0137331 0.0177462
0.20853 0.00949111 0.0139925
0.242863 0.00471504 0.00970474
0.280003 0 0.00486763
0.3196 0 0
0.361059 0 0
0.404364 0 0
0.452445 0 0
0.507225 0 0
0.567208 0 0
0.630289 0 0
0.694743 0 0
0.758541 0 0
0.824948 0 0
0.893828 0 0
0.961776 0 0
1 0 0
1 0 0
1 0 0
1 0 0
1 0 0
1 0 0
1 0 0
1 0 0
1 0 0
0.0271153 0.035462 0.0285954
0.0393225 0.0365148 0.0295872
0.05037 0.0378729 0.03093
0.0662394 0.0379644 0.0298924
0.0908064 0.0356451 0.0269932
0.117205 0.0328374 0.0238499
0.143206 0.0302892 0.0207065
0.172107 0.0271611 0.0168612
0.205219 0.0231174 0.01178
0.240986 0.0183719 0.00624094
0.279026 0.0131533 0.000381476
0.320378 0.00741588 0
0.36553 0.00125124 0
0.413962 0 0
0.463874 0 0
0.515419 0 0
0.573587 0 0
0.639048 0 0
0.708324 0 0
0.777615 0 0
0.841108 0 0
0.899763 0 0
0.960662 0 0
1 0 0
1 0 0
1 0 0
1 0 0
1 0 0
1 0 0
1 0 0
1 0 0
1 0 0
1 0 0
0.0286107 0.0509804 0.030457
0.042359 0.0517891 0.0291295
0.0592966 0.0515755 0.0290227
0.0756542 0.0514229 0.031281
0.100374 0.0496834 0.0267033
0.132036 0.0461433 0.0209201
0.162173 0.0430457 0.0160678
0.194415 0.0396429 0.0109712
0.231724 0.0353399 0.00489815
0.273518 0.030396 0
0.317815 0.0251621 0
0.364385 0.0194553 0
0.413687 0.0134279 0
0.466926 0.00737011 0
0.522469 0.00138857 0
0.578485 0 0
0.637079 0 0
0.700282 0 0
0.765286 0 0
0.829725 0 0
0.886564 0 0
0.934112 0 0
0.980682 0 0
1 0 0
1 0 0
1 0 0
1 0 0
1 0 0
1 0 0
1 0 0
1 0 0
1 0 0
1 0 0
0.0254673 0.0686809 0.0274357
0.039292 0.0701915 0.0239872
0.0601358 0.0694743 0.023621
0.0833448 0.0682383 0.0216373
0.110079 0.0657359 0.0251164
0.145235 0.0625162 0.0173495
0.180606 0.0597543 0.0104372
0.217365 0.0567483 0.00404364
0.258656 0.0526589 0
0.305226 0.0477455 0
0.354955 0.0428931 0
0.407828 0.0380102 0
0.462425 0.0330053 0
0.517479 0.027863 0
0.572335 0.0230716 0
0.625483 0.0191196 0
0.678645 0.0154269 0
0.734234 0.0111849 0
0.789639 0.00689708 0
0.844053 0.00207523 0
0.894591 0 0
0.938415 0 0
0.981796 0 0
1 0 0
1 0 0
1 0 0
1 0 0
1 0 0
1 0 0
1 0 0
1 0 0
1 0 0
1 0 0
0.0140536 0.0912337 0.0166018
0.0281224 0.0938125 0.0101167
0.0509346 0.0940871 0.0077821
0.07953 0.0928206 0.00860609
0.116548 0.0896773 0.00411994
0.15816 0.0844129 0.0108949
0.198566 0.0816358 0.0037995
0.238712 0.0799878 0
0.283665 0.0775464 0
0.33402 0.0737316 0
0.386297 0.0694896 0
0.439551 0.0655375 0
0.493019 0.0616465 0
0.545678 0.0581674 0
0.596262 0.0551919 0
0.642863 0.0528878 0
0.688457 0.0503548 0
0.737255 0.0461891 0
0.789502 0.0407721 0
0.842741 0.0350195 0
0.89456 0.0294957 0
0.939559 0.0255131 0
0.981201 0.0222934 0
1 0.0179141 0
1 0.013489 0
1 0.00901808 0
1 0.00448615 0
1 0 0
1 0 0
1 0 0
1 0 0
1 0 0
1 0 0
0 0.121569 0
0.00936904 0.125414 0
0.0324254 0.127138 0
0.0628367 0.127626 0
0.104616 0.125246 0
0.163272 0.11902 0
0.213687 0.112978 0
0.25745 0.110887 0
0.300771 0.109697 0
0.348745 0.107805 0
0.399283 0.105165 0
0.448859 0.102388 0
0.497795 0.0991836 0
0.546212 0.0954147 0
0.593912 0.09131 0
0.640238 0.0875105 0
0.684977 0.0840467 0
0.732219 0.0795758 0
0.78378 0.0736248 0
0.83653 0.067155 0
0.889555 0.0605936 0
0.936919 0.0556039 0
0.978821 0.0521248 0
1 0.0477913 0
1 0.043183 0
1 0.0385595 0
1 0.0339818 0
1 0.0296025 0
1 0.0251926 0
1 0.0208438 0
1 0.0165103 0
1 0.012253 0
1 0.00814832 0
0 0.15758 0
0 0.163333 0
0.0140536 0.167788 0
0.0445106 0.16994 0
0.085359 0.169253 0
0.145708 0.162799 0
0.217273 0.154406 0
0.26392 0.149859 0
0.308675 0.147524 0
0.352712 0.145373 0
0.397467 0.142535 0
0.442313 0.139345 0
0.488106 0.13576 0
0.534844 0.131685 0
0.581827 0.127382 0
0.628183 0.122728 0
0.67277 0.118425 0
0.7187 0.113725 0
0.769512 0.107637 0
0.822675 0.100862 0
0.877012 0.093843 0
0.927398 0.0877699 0
0.971344 0.0834821 0
1 0.0793469 0
1 0.0746471 0
1 0.0700084 0
1 0.0654917 0
1 0.0609445 0
1 0.0565499 0
1 0.0523232 0
1 0.0482643 0
1 0.0442512 0
1 0.0403449 0
0 0.199237 0
0 0.204715 0
0.000503548 0.210361 0
0.0332341 0.21268 0
0.0724193 0.213046 0
0.129107 0.207889 0
0.200931 0.196902 0
0.265263 0.189288 0
0.307729 0.18378 0
0.351644 0.179461 0
0.396811 0.175296 0
0.440009 0.171756 0
0.482383 0.168414 0
0.525536 0.16495 0
0.569528 0.16112 0
0.613977 0.157 0
0.657588 0.152972 0
0.701625 0.14873 0
0.75021 0.143236 0
0.802792 0.136736 0
0.856794 0.129915 0
0.90959 0.12343 0
0.955917 0.118776 0
0.999649 0.114824 0
1 0.110018 0
1 0.105409 0
1 0.100832 0
1 0.0962997 0
1 0.0917525 0
1 0.0873274 0
1 0.0829938 0
1 0.0789349 0
1 0.0747997 0
0 0.241978 0
0 0.245747 0
0 0.251102 0
0.0266728 0.25156 0
0.0627146 0.25095 0
0.110765 0.247013 0
0.181888 0.236225 0
0.248631 0.225772 0
0.306676 0.218906 0
0.349706 0.212406 0
0.394049 0.206729 0
0.439323 0.201801 0
0.482124 0.198016 0
0.523949 0.194568 0
0.565911 0.19118 0
0.608301 0.187701 0
0.650278 0.184375 0
0.692058 0.18114 0
0.737377 0.177172 0
0.787625 0.171725 0
0.839597 0.165835 0
0.892363 0.159808 0
0.939941 0.155337 0
0.982925 0.152239 0
1 0.148302 0
1 0.143969 0
1 0.139513 0
1 0.135073 0
1 0.130587 0
1 0.126101 0
1 0.121706 0
1 0.117128 0
1 0.112505 0
0 0.279927 0
0 0.281422 0
0 0.286534 0
0.0167086 0.286702 0
0.0510567 0.285939 0
0.0926528 0.283238 0
0.157183 0.274113 0
0.231785 0.261189 0
0.288991 0.253269 0
0.345876 0.246342 0
0.391669 0.238834 0
0.436133 0.232792 0
0.481163 0.227741 0
0.5243 0.223667 0
0.566339 0.22031 0
0.608103 0.217273 0
0.649454 0.214435 0
0.689937 0.212009 0
0.732464 0.20911 0
0.780255 0.204929 0
0.830945 0.200046 0
0.88307 0.194766 0
0.932006 0.190326 0
0.975265 0.187625 0
1 0.184588 0
1 0.18085 0
1 0.177035 0
1 0.173053 0
1 0.169009 0
1 0.164858 0
1 0.160571 0
1 0.156176 0
1 0.151629 0
0 0.314809 0
0 0.315465 0
0 0.320256 0
0.00363165 0.320546 0
0.0370489 0.319707 0
0.0742657 0.317876 0
0.129305 0.311452 0
0.207568 0.298314 0
0.271626 0.287968 0
0.326192 0.281102 0
0.385534 0.273747 0
0.434348 0.265599 0
0.477378 0.2598 0
0.52311 0.25481 0
0.567025 0.250767 0
0.609766 0.247578 0
0.651682 0.24506 0
0.691981 0.24303 0
0.732906 0.240894 0
0.778027 0.237736 0
0.827085 0.23357 0
0.878004 0.228946 0
0.92781 0.224735 0
0.971786 0.221851 0
1 0.219394 0
1 0.215854 0
1 0.212177 0
1 0.208377 0
1 0.204623 0
1 0.200626 0
1 0.196506 0
1 0.19234 0
1 0.188052 0
0 0.347997 0
0 0.348135 0
0 0.35288 0
0 0.354025 0
0.0225681 0.353201 0
0.0573892 0.351858 0
0.103685 0.347829 0
0.176867 0.336904 0
0.250813 0.324941 0
0.308263 0.316854 0
0.364202 0.310277 0
0.426825 0.302251 0
0.477378 0.29427 0
0.518791 0.288945 0
0.565576 0.284108 0
0.610574 0.280308 0
0.653941 0.277119 0
0.695232 0.2748 0
0.735302 0.272984 0
0.778454 0.270451 0
0.825696 0.26685 0
0.874968 0.262821 0
0.924651 0.258381 0
0.96939 0.255177 0
1 0.252949 0
1 0.249729 0
1 0.246281 0
1 0.242679 0
1 0.238895 0
1 0.235035 0
1 0.231098 0
1 0.22707 0
1 0.223056 0
0 0.380758 0
0 0.380606 0
0 0.385107 0
0 0.387411 0
0.0096437 0.386709 0
0.0429236 0.386023 0
0.083772 0.383566 0
0.147448 0.37557 0
0.227161 0.363287 0
0.29044 0.354467 0
0.346593 0.347158 0
0.406149 0.340566 0
0.470039 0.332555 0
0.521416 0.325048 0
0.5617 0.31986 0
0.608469 0.315068 0
0.65391 0.311055 0
0.697124 0.307866 0
0.737819 0.305486 0
0.7794 0.303075 0
0.825162 0.299672 0
0.87277 0.295766 0
0.921767 0.291478 0
0.967514 0.287968 0
1 0.285725 0
1 0.283116 0
1 0.279881 0
1 0.276402 0
1 0.272831 0
1 0.269123 0
1 0.265354 0
1 0.261463 0
1 0.257633 0
0 0.413626 0
0 0.413642 0
0 0.417884 0
0 0.421485 0
0 0.420951 0
0.0307774 0.420813 0
0.0677501 0.419806 0
0.122499 0.414588 0
0.201572 0.403113 0
0.271336 0.393317 0
0.330587 0.385748 0
0.388312 0.378256 0
0.451011 0.371496 0
0.514015 0.363836 0
0.565972 0.356283 0
0.605402 0.35082 0
0.651225 0.34583 0
0.696422 0.341604 0
0.738705 0.338399 0
0.780407 0.335653 0
0.824979 0.332143 0
0.871977 0.32813 0
0.919921 0.32398 0
0.966293 0.320272 0
1 0.318074 0
1 0.31606 0
1 0.313115 0
1 0.309987 0
1 0.306661 0
1 0.303212 0
1 0.299702 0
1 0.29604 0
1 0.292195 0
0 0.447227 0
0 0.447318 0
0 0.451514 0
0 0.456382 0
0 0.456764 0
0.0200809 0.456733 0
0.0551156 0.456474 0
0.101472 0.453376 0
0.174014 0.443885 0
0.250034 0.433066 0
0.313069 0.424933 0
0.372396 0.417319 0
0.432273 0.409171 0
0.495521 0.40235 0
0.557305 0.394507 0
0.609842 0.38677 0
0.649058 0.381033 0
0.693446 0.37612 0
0.737804 0.371969 0
0.780087 0.368566 0
0.82443 0.364782 0
0.871733 0.360403 0
0.91931 0.356176 0
0.966628 0.352224 0
1 0.349737 0
1 0.348135 0
1 0.345541 0
1 0.342779 0
1 0.339818 0
1 0.336782 0
1 0.333608 0
1 0.330098 0
1 0.326513 0
0 0.48191 0
0 0.48217 0
0 0.486137 0
0 0.491753 0
0 0.493233 0
0.0102541 0.493217 0
0.0438392 0.493233 0
0.0849012 0.491402 0
0.147982 0.484138 0
0.226642 0.472786 0
0.293294 0.463981 0
0.354498 0.456046 0
0.415702 0.447486 0
0.475914 0.439323 0
0.538781 0.43267 0
0.600137 0.424689 0
0.653101 0.416907 0
0.692653 0.411063 0
0.734539 0.406332 0
0.778271 0.402243 0
0.822629 0.398184 0
0.870314 0.393393 0
0.918791 0.388769 0
0.966903 0.384298 0
1 0.381094 0
1 0.379385 0
1 0.377279 0
1 0.374716 0
1 0.372168 0
1 0.369345 0
1 0.366415 0
1 0.363287 0
1 0.360021 0
0 0.517174 0
0 0.51754 0
0 0.521263 0
0 0.527337 0
0 0.529686 0
0.000976577 0.529305 0
0.0333715 0.529397 0
0.070161 0.52845 0
0.124681 0.523171 0
0.202045 0.512367 0
0.271778 0.502907 0
0.334768 0.494652 0
0.397192 0.48603 0
0.45948 0.476982 0
0.518685 0.469352 0
0.581979 0.462867 0
0.642954 0.454887 0
0.696147 0.447089 0
0.735943 0.441138 0
0.77499 0.43679 0
0.819471 0.432334 0
0.867399 0.427298 0
0.916899 0.421958 0
0.966155 0.416861 0
1 0.412848 0
1 0.410574 0
1 0.408743 0
1 0.406302 0
1 0.4038 0
1 0.401175 0
1 0.398428 0
1 0.395575 0
1 0.392538 0
0 0.552499 0
0 0.552789 0
0 0.556176 0
0 0.562203 0
0 0.565332 0
0 0.565087 0
0.0231937 0.565103 0
0.057847 0.564538 0
0.104067 0.561303 0
0.175387 0.551843 0
0.2495 0.541497 0
0.313909 0.533196 0
0.377172 0.524681 0
0.44155 0.515389 0
0.502647 0.506691 0
0.561578 0.499565 0
0.625147 0.492882 0
0.685588 0.484962 0
0.738796 0.477226 0
0.778637 0.471443 0
0.816175 0.467216 0
0.862821 0.461875 0
0.913375 0.455894 0
0.963699 0.450187 0
1 0.445182 0
1 0.4421 0
1 0.440375 0
1 0.43772 0
1 0.435126 0
1 0.432563 0
1 0.429923 0
1 0.427207 0
1 0.424521 0
0 0.587045 0
0 0.587259 0
0 0.590295 0
0 0.596201 0
0 0.600092 0
0 0.60029 0
0.0139467 0.600137 0
0.0471962 0.600092 0
0.0881971 0.598016 0
0.150546 0.590738 0
0.226856 0.57998 0
0.29305 0.571481 0
0.356832 0.563165 0
0.422232 0.554086 0
0.486046 0.544793 0
0.545388 0.536461 0
0.604623 0.52958 0
0.668238 0.522835 0
0.728084 0.514946 0
0.780758 0.507591 0
0.821057 0.501915 0
0.859052 0.49688 0
0.907958 0.490608 0
0.959396 0.484276 0
1 0.47834 0
1 0.474296 0
1 0.471916 0
1 0.469215 0
1 0.466423 0
1 0.463706 0
1 0.461051 0
1 0.458427 0
1 0.455589 0
0 0.621576 0
0 0.62153 0
0 0.624125 0
0 0.629862 0
0 0.634409 0
0 0.635233 0
0.00587472 0.634928 0
0.0383001 0.634913 0
0.0751049 0.633875 0
0.129793 0.628443 0
0.205066 0.61799 0
0.273121 0.609171 0
0.336873 0.601267 0
0.402594 0.592279 0
0.468605 0.582712 0
0.530251 0.573877 0
0.588647 0.565896 0
0.648249 0.559258 0
0.711711 0.552621 0
0.770397 0.54493 0
0.821576 0.537926 0
0.864088 0.531701 0
0.904234 0.525597 0
0.953719 0.518975 0
1 0.512367 0
1 0.507073 0
1 0.503853 0
1 0.501076 0
1 0.497734 0
1 0.494636 0
1 0.491753 0
1 0.488853 0
1 0.485908 0
0 0.656672 0
0 0.656458 0
0 0.658671 0
0 0.664103 0
0 0.669078 0
0 0.670634 0
0 0.670024 0
0.0289616 0.669932 0
0.0637522 0.669337 0
0.110582 0.665782 0
0.181399 0.656428 0
0.253346 0.646815 0
0.317357 0.638865 0
0.382376 0.630304 0
0.450019 0.620554 0
0.514458 0.611215 0
0.574685 0.60267 0
0.632761 0.595056 0
0.692912 0.588617 0
0.75552 0.581842 0
0.812024 0.574624 0
0.863249 0.56762 0
0.908949 0.560357 0
0.950896 0.553567 0
1 0.5467 0
1 0.540139 0
1 0.535866 0
1 0.53283 0
1 0.529015 0
1 0.525521 0
1 0.521965 0
1 0.518639 0
1 0.515419 0
0 0.692622 0
0 0.692287 0
0 0.694194 0
0 0.699199 0
0 0.704692 0
0 0.706737 0
0 0.706188 0
0.0173648 0.705821 0
0.0511025 0.705379 0
0.0928511 0.702998 0
0.156237 0.695476 0
0.230671 0.68513 0
0.296117 0.67686 0
0.360647 0.668559 0
0.428824 0.658915 0
0.495995 0.649042 0
0.558785 0.640116 0
0.618372 0.631586 0
0.676249 0.624094 0
0.736828 0.617716 0
0.798001 0.611048 0
0.853284 0.604059 0
0.906844 0.596139 0
0.955001 0.587671 0
0.997086 0.580407 0
1 0.573281 0
1 0.567666 0
1 0.563973 0
1 0.559899 0
1 0.555779 0
1 0.551949 0
1 0.548302 0
1 0.544945 0
0 0.728832 0
0 0.728405 0
0 0.730114 0
0 0.734874 0
0 0.740536 0
0 0.743328 0
0 0.74313 0
0.0043946 0.742306 0
0.0371252 0.742138 0
0.0747082 0.74078 0
0.130419 0.734874 0
0.204883 0.724422 0
0.271641 0.715862 0
0.335851 0.707713 0
0.403586 0.698421 0
0.473259 0.688182 0
0.538598 0.678569 0
0.600565 0.669459 0
0.659556 0.660822 0
0.717449 0.653315 0
0.777737 0.646906 0
0.837186 0.640436 0
0.894072 0.632578 0
0.951232 0.623148 0
1 0.613947 0
1 0.606134 0
1 0.59968 0
1 0.595178 0
1 0.591058 0
1 0.586526 0
1 0.582345 0
1 0.578515 0
1 0.575189 0
0 0.76527 0
0 0.764828 0
0 0.766308 0
0 0.770565 0
0 0.776303 0
0 0.779797 0
0 0.780148 0
0 0.779034 0
0.0229343 0.778912 0
0.0579385 0.778058 0
0.105501 0.774105 0
0.17612 0.764477 0
0.245792 0.755184 0
0.309194 0.747311 0
0.37554 0.738491 0
0.445838 0.728069 0
0.513893 0.717739 0
0.578012 0.708095 0
0.639307 0.698802 0
0.69778 0.69015 0
0.755245 0.682597 0
0.813855 0.676219 0
0.873518 0.669291 0
0.9346 0.66006 0
0.994583 0.649683 0
1 0.640208 0
1 0.632807 0
1 0.62768 0
1 0.623545 0
1 0.618799 0
1 0.614481 0
1 0.61062 0
1 0.607065 0
0 0.80116 0
0 0.800839 0
0 0.802213 0
0 0.806134 0
0 0.811978 0
0 0.816129 0
0 0.817258 0
0 0.816236 0
0.00851453 0.815641 0
0.0416114 0.815198 0
0.0834211 0.812543 0
0.146517 0.804593 0
0.218814 0.794446 0
0.282658 0.786297 0
0.347219 0.777752 0
0.416571 0.767651 0
0.48658 0.756863 0
0.552544 0.746624 0
0.615671 0.736873 0
0.676112 0.72755 0
0.733791 0.718883 0
0.790036 0.711711 0
0.847593 0.705638 0
0.910765 0.697978 0
0.975982 0.6878 0
1 0.677409 0
1 0.668055 0
1 0.662135 0
1 0.658228 0
1 0.653651 0
1 0.649271 0
1 0.645335 0
1 0.641825 0
0 0.835721 0
0 0.835386 0
0 0.836789 0
0 0.840589 0
0 0.846464 0
0 0.851362 0
0 0.853147 0
0 0.852552 0
0 0.851392 0
0.0268406 0.85124 0
0.0638743 0.849607 0
0.119188 0.843473 0
0.19144 0.833127 0
0.255558 0.824628 0
0.318074 0.816388 0
0.385657 0.806653 0
0.456397 0.795834 0
0.524697 0.785367 0
0.589746 0.775311 0
0.652277 0.765621 0
0.712154 0.756451 0
0.768978 0.748211 0
0.824048 0.741741 0
0.884016 0.735714 0
0.95227 0.727321 0
1 0.717159 0
1 0.706874 0
1 0.699016 0
1 0.694728 0
1 0.691127 0
1 0.68687 0
1 0.682643 0
1 0.678904 0
0 0.869032 0
0 0.868711 0
0 0.870024 0
0 0.873686 0
0 0.879591 0
0 0.884733 0
0 0.887007 0
0 0.886824 0
0 0.885557 0
0.0158083 0.885191 0
0.0492866 0.884352 0
0.0962387 0.879988 0
0.165118 0.870237 0
0.231312 0.861204 0
0.292454 0.853452 0
0.357198 0.844709 0
0.427497 0.834379 0
0.496712 0.823972 0
0.563394 0.813962 0
0.627909 0.804395 0
0.689952 0.795316 0
0.749004 0.786908 0
0.804288 0.779812 0
0.860243 0.7738 0
0.92488 0.767254 0
0.996551 0.75877 0
1 0.748928 0
1 0.739727 0
1 0.733837 0
1 0.72987 0
1 0.725658 0
1 0.721675 0
1 0.717617 0
0 0.902525 0
0 0.9019 0
0 0.902815 0
0 0.906035 0
0 0.911498 0
0 0.916732 0
0 0.919402 0
0 0.919402 0
0 0.918044 0
