site/assets/luts/freshluts--0001168-mini-3-pro-d-cinelike-to-rec709.cube
# LUTr-Schema-Version: 2
# LUTr-ID: freshluts--0001168-mini-3-pro-d-cinelike-to-rec709
# LUTr-Title: Mini 3 pro d-cinelike to rec709
# LUTr-Collection: Fresh LUTs
# LUTr-Collection-ID: freshluts-community
# LUTr-Source: https://freshluts.com
# LUTr-Retrieved: 2026-07-27
# LUTr-Source-File: submissions-raw/freshluts/cubes/1168__jem454_d-cinelike_to_rec709_1.DJI_0022.cube
# LUTr-Source-Format: CUBE
# LUTr-Source-SHA256: e2dc26ae90b9366bf9f4562db9bc4435abfd569b28cb97803e30b1088e96f09d
# LUTr-License: CC0-1.0
# LUTr-License-URL: https://freshluts.com/termsandconditions
# LUTr-License-Basis: site-terms
# LUTr-Transform-Class: creative-look
# LUTr-Tags: creative, freshluts, community, cube, rec709, assumed-input
# LUTr-Input-Color-Space: rec709
# LUTr-Input-Gamut: rec709
# LUTr-Input-Transfer: rec709
# LUTr-Output-Color-Space: srgb
# LUTr-Output-Gamut: rec709
# LUTr-Output-Transfer: srgb
# LUTr-Color-Space-Confidence: assumed-display-referred
# LUTr-Domain-Normalized: true
# LUTr-Shaper: none
# LUTr-Original-Grid: 33x33x33
# LUTr-Conversion-Grid: 33x33x33
# LUTr-Conversion-Interpolation: none
# LUTr-Conversion-Method: Metadata normalization; numeric LUT samples preserved
# LUTr-Conversion-Tool: LUTr scripts/convert-all-to-cube.mjs 2.0.0
# LUTr-Conversion-Date: 2026-07-28
# LUTr-Asset-URL: https://freshluts.com/luts/1168
# LUTr-Author: jon
# LUTr-Author-URL: https://freshluts.com/users/124075
# LUTr-Attribution: jon via Fresh LUTs
# LUTr-Source-Labels: gamma=Other; color=None; key=Neutral; style=NEUTRAL; LUTr assumption=input Rec.709 per repository policy
# LUTr-Conversion-Warning: Input Rec.709 is a LUTr catalog assumption requested for this otherwise unspecified Fresh LUT; it is not verified by the upstream asset.
# LUTr-Note: Preserve this metadata and the upstream license notices when redistributing.
TITLE "Mini 3 pro d-cinelike to rec709"
LUT_3D_SIZE 33
DOMAIN_MIN 0 0 0
DOMAIN_MAX 1 1 1
0 0 0
0.00868238 0.00216678 0.00216678
0.0324254 0.00810254 0.00810254
0.0665904 0.0166476 0.0166476
0.101137 0.0252689 0.0252689
0.135348 0.0338293 0.0338293
0.170275 0.0425574 0.0425574
0.205417 0.0513466 0.0513466
0.239704 0.0599069 0.0599069
0.274037 0.0684977 0.0684977
0.308919 0.0772106 0.0772106
0.344991 0.0862287 0.0862287
0.381537 0.0953689 0.0953689
0.418143 0.104509 0.104509
0.453407 0.113329 0.113329
0.488106 0.121996 0.121996
0.521553 0.130358 0.130358
0.553918 0.138445 0.138445
0.585412 0.146304 0.146304
0.61561 0.153857 0.153857
0.644709 0.161135 0.161135
0.672511 0.168078 0.168078
0.699092 0.174716 0.174716
0.724254 0.181018 0.181018
0.748623 0.187106 0.187106
0.771954 0.192935 0.192935
0.790677 0.19762 0.19762
0.800046 0.199954 0.199954
0.800046 0.199954 0.199954
0.800046 0.199954 0.199954
0.800046 0.199954 0.199954
0.800046 0.199954 0.199954
0.800046 0.199954 0.199954
0.000015259 0.00433356 0.000015259
0.00494392 0.00427253 0.00114443
0.02533 0.00791943 0.0059205
0.059266 0.0152438 0.0142824
0.0945449 0.0236667 0.0235447
0.129351 0.0323186 0.0323186
0.164767 0.0411841 0.0411841
0.20032 0.0500649 0.0500649
0.235035 0.0587472 0.0587472
0.269947 0.0674754 0.0674754
0.305379 0.0763256 0.0763256
0.341833 0.0854353 0.0854353
0.378729 0.0946517 0.0946517
0.415579 0.103868 0.103868
0.451102 0.112749 0.112749
0.486015 0.121477 0.121477
0.519661 0.129885 0.129885
0.552254 0.138033 0.138033
0.583947 0.145953 0.145953
0.614374 0.153552 0.153552
0.643656 0.160861 0.160861
0.671611 0.167849 0.167849
0.698375 0.174548 0.174548
0.723674 0.180865 0.180865
0.74815 0.186984 0.186984
0.771603 0.192844 0.192844
0.790494 0.197574 0.197574
0.800046 0.199954 0.199954
0.800046 0.199954 0.199954
0.800046 0.199954 0.199954
0.800046 0.199954 0.199954
0.800046 0.199954 0.199954
0.800046 0.199954 0.199954
0.0000610361 0.0183108 0.0000610361
0.00180056 0.0168765 0.000396735
0.0177768 0.0175784 0.00268559
0.0484779 0.0207065 0.00756847
0.0819409 0.0255741 0.0139315
0.116823 0.0320287 0.0214847
0.154421 0.0409857 0.031693
0.19173 0.0499275 0.0419013
0.228122 0.0586404 0.0519875
0.264454 0.0673991 0.0620127
0.301183 0.0762188 0.0722972
0.33872 0.0852064 0.082887
0.376425 0.094255 0.0935073
0.413703 0.103395 0.103395
0.44947 0.112337 0.112337
0.484611 0.121126 0.121126
0.518486 0.12958 0.12958
0.551293 0.137789 0.137789
0.583185 0.145754 0.145754
0.613764 0.153399 0.153399
0.643198 0.160754 0.160754
0.671305 0.167773 0.167773
0.698177 0.174487 0.174487
0.723568 0.180835 0.180835
0.748119 0.186969 0.186969
0.771634 0.192859 0.192859
0.790539 0.197589 0.197589
0.800046 0.199954 0.199954
0.800046 0.199954 0.199954
0.800046 0.199954 0.199954
0.800046 0.199954 0.199954
0.800046 0.199954 0.199954
0.800046 0.199954 0.199954
0.00015259 0.0406806 0.00015259
0.000137331 0.0395056 0.000137331
0.0117952 0.0383307 0.0000762951
0.0372168 0.0371099 0.000289921
0.0670634 0.0369573 0.00169375
0.0999313 0.0387579 0.00563058
0.137255 0.0442969 0.0138705
0.175998 0.051545 0.024155
0.214588 0.0598459 0.0356146
0.253452 0.0685893 0.0476997
0.292409 0.0773938 0.0600137
0.33196 0.0862898 0.0727703
0.37142 0.0951553 0.0856184
0.41004 0.104143 0.0972915
0.446738 0.112963 0.10753
0.482582 0.121569 0.11754
0.51693 0.129854 0.127077
0.550027 0.137819 0.136324
0.582055 0.145586 0.145113
0.612726 0.15314 0.15314
0.642298 0.160525 0.160525
0.670527 0.167575 0.167575
0.69749 0.174319 0.174319
0.722972 0.180697 0.180697
0.7476 0.186847 0.186847
0.771176 0.192737 0.192737
0.79028 0.197513 0.197513
0.800046 0.199954 0.199954
0.800046 0.199954 0.199954
0.800046 0.199954 0.199954
0.800046 0.199954 0.199954
0.800046 0.199954 0.199954
0.800046 0.199954 0.199954
0.000228885 0.0650339 0.000228885
0.000228885 0.0641184 0.000228885
0.00953689 0.0632334 0.000137331
0.0316014 0.0619364 0
0.0603799 0.0605325 0
0.0903487 0.058732 0
0.122194 0.0565042 0.0000610361
0.158709 0.0587625 0.00531014
0.197238 0.0645914 0.0142824
0.237247 0.0720378 0.0253452
0.278187 0.0804608 0.0379034
0.320272 0.0895552 0.0518349
0.362097 0.0986496 0.0658274
0.40325 0.107637 0.0797284
0.442191 0.116106 0.0931563
0.479652 0.124269 0.106111
0.515114 0.132036 0.118349
0.548852 0.139452 0.129976
0.58117 0.14667 0.140764
0.611994 0.153826 0.150195
0.641718 0.161074 0.158175
0.669978 0.167971 0.165759
0.696925 0.174548 0.172992
0.722316 0.180758 0.179812
0.746807 0.18674 0.186358
0.770321 0.192538 0.192477
0.789761 0.197391 0.197391
0.800046 0.199954 0.199954
0.800046 0.199954 0.199954
0.800046 0.199954 0.199954
0.800046 0.199954 0.199954
0.800046 0.199954 0.199954
0.800046 0.199954 0.199954
0.000320439 0.0904707 0.000320439
0.000320439 0.0897078 0.000320439
0.00695811 0.0889296 0.000183108
0.0256657 0.0877699 0
0.0546578 0.0864576 0
0.0848402 0.0846723 0
0.116808 0.082826 0
0.149981 0.080705 0
0.184024 0.0789044 0.000427253
0.221363 0.0799878 0.00453193
0.262669 0.0854353 0.014313
0.307012 0.0941482 0.0285191
0.35137 0.103166 0.0434424
0.394995 0.112276 0.0585946
0.436133 0.120943 0.0730449
0.475715 0.129305 0.0871138
0.513054 0.137224 0.10042
0.548455 0.144762 0.113115
0.582193 0.151949 0.125246
0.613931 0.15874 0.13666
0.643946 0.165179 0.147433
0.672084 0.171221 0.157565
0.698573 0.176928 0.167071
0.723278 0.1823 0.17583
0.746899 0.187442 0.184192
0.76994 0.192782 0.191302
0.78967 0.197589 0.196628
0.800565 0.20029 0.199435
0.800565 0.20029 0.199435
0.800504 0.200244 0.199496
0.800565 0.200275 0.199435
0.800549 0.200275 0.199451
0.800565 0.20029 0.199435
0.000411994 0.117311 0.000411994
0.000411994 0.116411 0.000411994
0.00415045 0.115831 0.000320439
0.0190127 0.115023 0.000122072
0.0480964 0.113985 0
0.0785992 0.112535 0
0.110811 0.110811 0
0.144183 0.108843 0
0.178164 0.106889 0.000030518
0.213672 0.104952 0.000350958
0.251499 0.102922 0.00163272
0.292943 0.103487 0.00640879
0.338247 0.109041 0.0181125
0.384634 0.118105 0.0343786
0.428336 0.126818 0.0501564
0.470268 0.135256 0.0654612
0.509743 0.143282 0.0799878
0.547097 0.150927 0.0938277
0.582605 0.158221 0.107042
0.615976 0.165103 0.119539
0.647532 0.171695 0.131121
0.677058 0.177874 0.142077
0.704738 0.183673 0.152346
0.730602 0.189197 0.161715
0.755276 0.19443 0.170748
0.778683 0.199466 0.179126
0.798535 0.203754 0.186206
0.809476 0.205982 0.190524
0.808759 0.205524 0.191241
0.808484 0.205341 0.191516
0.808682 0.205463 0.191318
0.809018 0.205692 0.190982
0.809552 0.206027 0.190448
0.000518807 0.145037 0.000518807
0.000518807 0.14464 0.000518807
0.00131228 0.144503 0.000488289
0.0123751 0.143679 0.000320439
0.0414435 0.142687 0
0.0721294 0.141436 0
0.104509 0.139849 0
0.138003 0.138155 0
0.172061 0.136126 0
0.207553 0.133928 0
0.244953 0.131106 0.0000915541
0.285115 0.128481 0.000900282
0.327947 0.126543 0.00357061
0.372808 0.126314 0.00875868
0.418997 0.134264 0.0244755
0.463676 0.14258 0.0410925
0.505684 0.150637 0.0569009
0.545373 0.158328 0.0720684
0.583001 0.165728 0.0864729
0.618265 0.172747 0.0999161
0.651545 0.1794 0.112657
0.682734 0.185748 0.124483
0.71194 0.191699 0.135576
0.739101 0.197299 0.1458
0.765072 0.202701 0.155459
0.789654 0.207858 0.164523
0.810834 0.212314 0.17229
0.822934 0.214771 0.177066
0.822278 0.214328 0.177722
0.822019 0.21416 0.177981
0.822354 0.214389 0.177646
0.822934 0.214771 0.177066
0.823636 0.215228 0.176364
0.000610361 0.173846 0.000610361
0.000610361 0.173373 0.000610361
0.000656138 0.173419 0.000610361
0.00920119 0.172747 0.000427253
0.0348821 0.171725 0
0.065568 0.170962 0
0.0981308 0.169223 0
0.131685 0.167773 0
0.165835 0.165835 0
0.201419 0.163714 0
0.23888 0.161074 0
0.27895 0.157687 0
0.321111 0.154238 0.000106813
0.365347 0.150484 0.000869764
0.410788 0.150134 0.00616464
0.456886 0.15288 0.0161288
0.50135 0.159716 0.0311589
0.543725 0.167346 0.047776
0.58381 0.174853 0.0633249
0.621286 0.181918 0.0780346
0.656565 0.188663 0.0919051
0.689677 0.195148 0.104723
0.720607 0.201221 0.116777
0.749432 0.207019 0.127733
0.776776 0.212497 0.138277
0.802609 0.217731 0.14815
0.825254 0.222461 0.156451
0.8383 0.225025 0.1617
0.837751 0.224659 0.162249
0.837598 0.224537 0.162402
0.838041 0.224857 0.161959
0.838758 0.22533 0.161242
0.839673 0.22594 0.160327
0.000717174 0.203662 0.000717174
0.000717174 0.203311 0.000717174
0.000717174 0.203357 0.000717174
0.0069276 0.202914 0.000503548
0.0274052 0.202106 0
0.0582284 0.201144 0
0.0908064 0.199786 0
0.124544 0.198352 0
0.158831 0.196521 0
0.194583 0.1944 0
0.232136 0.192233 0
0.272419 0.189044 0
0.314885 0.185351 0
0.359167 0.181567 0
0.404105 0.177478 0
0.450538 0.17525 0.00291447
0.496742 0.175906 0.0101015
0.541741 0.17995 0.021561
0.584848 0.18613 0.0367132
0.625055 0.193256 0.0527504
0.662776 0.200107 0.0677806
0.697993 0.206607 0.0818799
0.730892 0.212757 0.0950484
0.761395 0.218585 0.107103
0.790372 0.224216 0.118441
0.817472 0.229404 0.129335
0.841459 0.23418 0.138552
0.855695 0.236912 0.144305
0.855131 0.23653 0.144869
0.855131 0.23653 0.144869
0.855634 0.236866 0.144366
0.85658 0.237522 0.14342
0.857557 0.238209 0.142443
0.000839246 0.234318 0.000839246
0.000839246 0.234333 0.000839246
0.000839246 0.234348 0.000839246
0.00437934 0.234195 0.000656138
0.0187533 0.233433 0.000198367
0.0495155 0.232502 0
0.0822156 0.231281 0
0.116167 0.229892 0
0.150622 0.228397 0
0.186587 0.226658 0
0.224445 0.224445 0
0.264927 0.221805 0
0.307698 0.218402 0
0.352422 0.21471 0
0.397742 0.2112 0
0.444389 0.207309 0
0.491371 0.203815 0.000335698
0.53843 0.202564 0.00460822
0.584787 0.204166 0.0129549
0.628733 0.207889 0.0247959
0.669581 0.213962 0.0399023
0.707225 0.220401 0.0553902
0.742245 0.226505 0.0698558
0.774548 0.232197 0.0833143
0.805188 0.237781 0.0957961
0.83386 0.24303 0.107607
0.859495 0.247791 0.118074
0.875303 0.250675 0.124697
0.874784 0.250309 0.125216
0.874861 0.250355 0.125139
0.875578 0.250874 0.124422
0.876616 0.251606 0.123384
0.87776 0.25243 0.12224
0.000946059 0.266484 0.000946059
0.000946059 0.266621 0.000946059
0.000946059 0.266911 0.000946059
0.00205997 0.266835 0.000885023
0.0104982 0.266361 0.000595102
0.0392004 0.265507 0
0.0721599 0.26453 0
0.106371 0.263172 0
0.141054 0.262135 0
0.177356 0.260716 0
0.215549 0.259037 0
0.256474 0.256458 0
0.29955 0.253544 0
0.344656 0.250401 0
0.390448 0.247196 0
0.437568 0.243809 0
0.485008 0.24036 0
0.532982 0.236851 0
0.581643 0.233371 0.000137331
0.629282 0.231754 0.00340276
0.67425 0.234287 0.0137331
0.716335 0.237903 0.0256504
0.75433 0.243091 0.0404517
0.788846 0.248554 0.0551614
0.821317 0.25391 0.0691844
0.851637 0.258976 0.0823377
0.879316 0.263722 0.0942245
0.897261 0.266773 0.102037
0.897261 0.266499 0.102739
0.897429 0.266621 0.102571
0.898299 0.267262 0.101701
0.899489 0.268132 0.100511
0.900816 0.269108 0.0991836
0.00106813 0.299763 0.00106813
0.00106813 0.300145 0.00106813
0.00106813 0.300649 0.00106813
0.00106813 0.300984 0.00106813
0.00553903 0.300649 0.000885023
0.0277409 0.300023 0.000015259
0.0610666 0.299397 0
0.0955825 0.298558 0
0.130648 0.297505 0
0.167285 0.296635 0
0.205982 0.295262 0
0.247349 0.293324 0
0.290852 0.290837 0
0.336278 0.28777 0
0.38233 0.285298 0
0.429816 0.282048 0
0.477577 0.278706 0
0.52578 0.275639 0
0.574685 0.272297 0
0.623606 0.269139 0
0.672786 0.265721 0.0000610361
0.721386 0.262806 0.000671397
0.764309 0.264897 0.0115969
0.802747 0.268849 0.0247807
0.838376 0.273136 0.038819
0.870924 0.277668 0.0530556
0.900664 0.282246 0.0665293
0.920913 0.285374 0.0757305
0.922927 0.285527 0.0770733
0.923049 0.285618 0.0769513
0.924239 0.286519 0.075761
0.92549 0.287449 0.0745098
0.927047 0.288624 0.0729534
0.0011902 0.334447 0.0011902
0.0011902 0.335149 0.0011902
0.0011902 0.336156 0.0011902
0.0011902 0.336507 0.0011902
0.00352483 0.336507 0.0010071
0.0160067 0.336477 0.000122072
0.0496529 0.336233 0
0.0846876 0.335927 0
0.120195 0.335531 0
0.157229 0.334859 0
0.196185 0.333944 0
0.237903 0.332143 0
0.281773 0.329809 0
0.327428 0.327428 0
0.373663 0.324895 0
0.421302 0.321767 0
0.469154 0.318761 0
0.517571 0.31548 0
0.566598 0.312459 0
0.615671 0.309468 0
0.665141 0.30605 0
0.714168 0.303181 0
0.763302 0.30013 0
0.811444 0.297475 0.000335698
0.854871 0.29752 0.00703441
0.891707 0.300099 0.0199435
0.923781 0.304219 0.0345769
0.946822 0.307317 0.0449378
0.951919 0.307668 0.0480812
0.952422 0.308064 0.0475776
0.953506 0.308904 0.0464942
0.955428 0.310414 0.0445716
0.957076 0.311696 0.0429236
0.00131228 0.370489 0.00131228
0.00132753 0.371557 0.00132753
0.00132753 0.372915 0.00132753
0.00132753 0.373953 0.00132753
0.00183108 0.374685 0.00128176
0.00614939 0.374899 0.00102235
0.039292 0.374838 0.0000762951
0.0745708 0.374823 0
0.110414 0.374746 0
0.147692 0.374533 0
0.186954 0.37348 0
0.228794 0.372015 0
0.272755 0.370031 0
0.318639 0.367605 0
0.365072 0.364858 0
0.412787 0.36202 0
0.460792 0.359152 0
0.509331 0.356207 0
0.558526 0.353155 0
0.60766 0.350439 0
0.657053 0.347402 0
0.706188 0.344427 0
0.75552 0.341146 0
0.803952 0.338476 0.000030518
0.85214 0.336202 0.000671397
0.899413 0.334127 0.00192264
0.943374 0.333196 0.0053254
0.97499 0.333669 0.0108186
0.985168 0.334447 0.0148318
0.985595 0.334844 0.0144045
0.986999 0.336156 0.0130007
0.988724 0.337758 0.0112764
0.990585 0.339513 0.00941482
0.00144961 0.408545 0.00144961
0.00144961 0.409796 0.00144961
0.00146487 0.411246 0.00146487
0.00146487 0.412787 0.00146487
0.00154116 0.414069 0.00146487
0.00340276 0.414496 0.00135805
0.0294499 0.41503 0.000106813
0.0643931 0.414954 0
0.10045 0.415076 0
0.137865 0.415229 0
0.177279 0.414328 0
0.219211 0.413169 0
0.26334 0.411124 0
0.309331 0.40882 0
0.355917 0.40621 0
0.403754 0.403525 0
0.451789 0.401129 0
0.50042 0.398276 0
0.549752 0.395132 0
0.599054 0.392157 0
0.648539 0.389242 0
0.697795 0.386328 0
0.747158 0.383536 0
0.795666 0.381094 0
0.844434 0.378485 0
0.892927 0.375753 0
0.939849 0.373587 0.000549325
0.975204 0.373434 0.00450141
0.986419 0.375113 0.0135805
0.986374 0.375723 0.0136263
0.986267 0.377646 0.0137331
0.98616 0.379675 0.0138399
0.986053 0.381903 0.0139467
0.00158694 0.447517 0.00158694
0.0016022 0.449256 0.0016022
0.0016022 0.451179 0.0016022
0.0016022 0.452949 0.0016022
0.00161746 0.454078 0.00161746
0.00260929 0.455268 0.00154116
0.0200504 0.455497 0.000122072
0.0542763 0.455695 0
0.0903487 0.456321 0
0.128038 0.456077 0
0.167529 0.455695 0
0.209689 0.454307 0
0.25391 0.452567 0
0.300099 0.450477 0
0.346746 0.448157 0
0.394766 0.445396 0
0.442939 0.442908 0
0.491661 0.440146 0
0.541054 0.437293 0
0.590448 0.434424 0
0.640024 0.431586 0
0.689342 0.428962 0
0.738842 0.425849 0
0.787457 0.423316 0
0.836255 0.420951 0
0.884779 0.418494 0
0.931853 0.416449 0.000411994
0.966949 0.415869 0.00674449
0.976486 0.41825 0.0235142
0.976303 0.418891 0.0236973
0.975723 0.420905 0.0242771
0.975158 0.422843 0.0248417
0.974365 0.425544 0.0256352
0.00173953 0.487724 0.00173953
0.00173953 0.489677 0.00173953
0.00173953 0.491783 0.00173953
0.00175479 0.493538 0.00175479
0.00175479 0.494987 0.00175479
0.00227359 0.496117 0.00170901
0.0111849 0.496757 0.000701915
0.0442969 0.497063 0.000122072
0.0803998 0.497612 0
0.118181 0.497704 0
0.157839 0.497276 0
0.200076 0.496208 0
0.244419 0.494575 0
0.290684 0.492561 0
0.337407 0.490532 0
0.385565 0.487678 0
0.433829 0.485283 0
0.482628 0.482612 0
0.532113 0.47985 0
0.581582 0.477272 0
0.631266 0.474327 0
0.680644 0.471778 0
0.730175 0.468894 0
0.778912 0.466499 0
0.827802 0.464225 0
0.876402 0.461616 0
0.92253 0.459632 0.00148013
0.955566 0.459022 0.0120699
0.963729 0.460639 0.0361791
0.963607 0.461112 0.0363928
0.963058 0.462882 0.0369421
0.962371 0.46508 0.0376287
0.961608 0.46746 0.0383917
0.00187686 0.528893 0.00187686
0.00189212 0.530983 0.00189212
0.00189212 0.533227 0.00189212
0.00190738 0.535286 0.00190738
0.00190738 0.53666 0.00190738
0.00205997 0.538079 0.00189212
0.00474556 0.538705 0.00154116
0.0348363 0.539239 0.00030518
0.0704509 0.53991 0
0.108324 0.540093 0
0.148058 0.539773 0
0.190402 0.538796 0
0.234836 0.537255 0
0.281147 0.535256 0
0.327962 0.533349 0
0.376104 0.530968 0
0.424536 0.528267 0
0.473411 0.525658 0
0.522957 0.522957 0
0.572549 0.520272 0
0.622278 0.517601 0
0.671778 0.514733 0
0.721233 0.512489 0
0.770092 0.509926 0
0.819028 0.507729 0
0.867658 0.50515 0
0.911772 0.502983 0.00381476
0.941543 0.501488 0.0191958
0.949935 0.50103 0.0467384
0.95053 0.501518 0.0494698
0.949981 0.503182 0.0500191
0.949264 0.505257 0.0507362
0.948501 0.507515 0.0514992
0.00202945 0.570504 0.00202945
0.00202945 0.572366 0.00202945
0.00204471 0.574746 0.00204471
0.00204471 0.576944 0.00204471
0.00205997 0.57879 0.00205997
0.00205997 0.579751 0.00205997
0.00205997 0.581064 0.00205997
0.0264134 0.581857 0.000411994
0.0607309 0.582483 0
0.0986496 0.582925 0
0.13846 0.582666 0
0.180926 0.581598 0
0.225422 0.580331 0
0.271778 0.578424 0
0.318746 0.576181 0
0.366918 0.57406 0
0.415412 0.571435 0
0.464347 0.568887 0
0.513909 0.566415 0
0.563516 0.56376 0
0.613367 0.560937 0
0.662867 0.558312 0
0.712474 0.55552 0
0.761257 0.553094 0
0.810178 0.550896 0
0.858778 0.548547 0.000030518
0.899901 0.545571 0.00738537
0.92517 0.54229 0.0280003
0.934768 0.539864 0.0550546
0.93727 0.539513 0.0627298
0.936706 0.541054 0.0632944
0.936065 0.54284 0.0639353
0.935286 0.544961 0.0647135
0.00218204 0.612207 0.00218204
0.00218204 0.614588 0.00218204
0.0021973 0.617121 0.0021973
0.0021973 0.619242 0.0021973
0.00221256 0.62118 0.00221256
0.00221256 0.622446 0.00221256
0.00221256 0.623499 0.00221256
0.0189517 0.624506 0.00047303
0.0513313 0.625498 0.000015259
0.0893721 0.625834 0
0.129229 0.625834 0
0.171801 0.624643 0
0.216358 0.623468 0
0.262776 0.621653 0
0.309819 0.61944 0
0.358022 0.617334 0
0.406485 0.615167 0
0.455573 0.612284 0
0.505165 0.609873 0
0.554788 0.607217 0
0.604532 0.604761 0
0.654154 0.60177 0
0.703731 0.599405 0
0.752514 0.596994 0
0.801511 0.594385 0
0.849561 0.592248 0.000640879
0.887053 0.587869 0.0123598
0.907561 0.58204 0.0385443
0.919112 0.576822 0.064271
0.923766 0.575402 0.0762341
0.923262 0.576669 0.0767376
0.922438 0.578759 0.0775616
0.921721 0.580575 0.0782788
0.00231937 0.654353 0.00231937
0.00233463 0.656977 0.00233463
0.00234989 0.659541 0.00234989
0.00234989 0.661555 0.00234989
0.00234989 0.663417 0.00234989
0.00236515 0.664958 0.00236515
0.00236515 0.666072 0.00236515
0.0117647 0.66746 0.000701915
0.0422065 0.668376 0.0000915541
0.0801862 0.668986 0
0.120134 0.668879 0
0.162737 0.667964 0
0.207477 0.666468 0
0.253895 0.664881 0
0.300893 0.662882 0
0.349172 0.660624 0
0.397818 0.658381 0
0.446876 0.655955 0
0.496513 0.65333 0
0.546105 0.65069 0
0.595941 0.647868 0
0.645563 0.645563 0
0.695155 0.642802 0
0.743893 0.640543 0
0.792844 0.638117 0
0.838636 0.634684 0.00383001
0.871839 0.628107 0.0209354
0.889693 0.619104 0.0500649
0.902861 0.612116 0.074403
0.910216 0.608743 0.0897841
0.909712 0.609934 0.0902876
0.908949 0.611704 0.0910506
0.908171 0.613504 0.0918288
0.00247196 0.696941 0.00247196
0.00248722 0.699275 0.00248722
0.00248722 0.702098 0.00248722
0.00250248 0.704341 0.00250248
0.00250248 0.706264 0.00250248
0.00251774 0.708049 0.00251774
0.00251774 0.708827 0.00251774
0.00590524 0.710201 0.00187686
0.0339055 0.711528 0.000579843
0.0714885 0.712245 0
0.111467 0.712169 0
0.154086 0.711238 0
0.198703 0.710323 0
0.245274 0.708415 0
0.292332 0.706477 0
0.340627 0.70425 0
0.389197 0.701717 0
0.438224 0.699474 0
0.487968 0.696727 0
0.537499 0.694453 0
0.587304 0.691615 0
0.636851 0.689021 0
0.686442 0.686442 0
0.735225 0.683833 0
0.784131 0.68159 0
0.824048 0.674769 0.0120241
0.852003 0.664347 0.0359503
0.871183 0.653574 0.062501
0.885985 0.645182 0.0852979
0.896635 0.639323 0.103365
0.896162 0.640345 0.103838
0.895415 0.641978 0.104585
0.894621 0.643717 0.105379
0.00262455 0.739391 0.00262455
0.00263981 0.74197 0.00263981
0.00263981 0.744686 0.00263981
0.00265507 0.747005 0.00265507
0.00265507 0.748959 0.00265507
0.00267033 0.750622 0.00267033
0.00267033 0.751812 0.00267033
0.00329595 0.752834 0.00254826
0.027451 0.754528 0.000839246
0.0634928 0.755428 0
0.103517 0.755367 0
0.146105 0.754665 0
0.190784 0.753353 0
0.237324 0.751644 0
0.284382 0.749706 0
0.332692 0.747478 0
0.381231 0.745144 0
0.430259 0.742687 0
0.479912 0.740093 0
0.529519 0.737438 0
0.579278 0.734768 0
0.628794 0.732128 0
0.678325 0.729519 0
0.727062 0.726833 0.000015259
0.771344 0.720882 0.00776684
0.806134 0.709773 0.0270237
0.832334 0.69662 0.0522316
0.852796 0.685054 0.0758984
0.868971 0.675608 0.0965744
0.881392 0.668376 0.114199
0.882429 0.668498 0.116976
0.882078 0.669581 0.117922
0.881331 0.671061 0.118669
0.00277714 0.782086 0.00277714
0.0027924 0.784726 0.0027924
0.0027924 0.787488 0.0027924
0.00280766 0.789853 0.00280766
0.00280766 0.791852 0.00280766
0.00282292 0.793561 0.00282292
0.00282292 0.794751 0.00282292
0.00282292 0.795758 0.00282292
0.0218357 0.797726 0.0009308
0.0554665 0.798795 0
0.0955215 0.798749 0
0.138094 0.798047 0
0.182757 0.796719 0
0.229252 0.794965 0
0.276402 0.793103 0
0.324681 0.790845 0
0.373175 0.788479 0
0.422141 0.785946 0
0.471794 0.783337 0
0.521416 0.780697 0
0.571099 0.777981 0
0.620539 0.775265 0
0.669978 0.772519 0.0000915541
0.714855 0.76524 0.00839246
0.753826 0.753567 0.0247807
0.785962 0.739864 0.0464179
0.812558 0.726055 0.0690471
0.834241 0.714 0.0897688
0.851591 0.703944 0.108339
0.865171 0.695949 0.124498
0.868803 0.69427 0.12987
0.868757 0.695109 0.131243
0.868009 0.696498 0.131991
0.00494392 0.823255 0.00494392
0.00572213 0.825559 0.00572213
0.00653086 0.827756 0.00653086
0.00724804 0.829236 0.00724804
0.00817884 0.830777 0.00817884
0.00920119 0.831922 0.00920119
0.00985733 0.832456 0.00985733
0.0103456 0.832883 0.0103456
0.0243687 0.834821 0.00894179
0.0536049 0.837201 0.00656138
0.0912032 0.838682 0.00424201
0.132158 0.839231 0.00254826
0.175753 0.838804 0.00132753
0.221576 0.837644 0.00047303
0.268437 0.836225 0.000106813
0.316701 0.833829 0.000015259
0.365179 0.83122 0
0.414054 0.82884 0
0.463645 0.826093 0.000137331
0.513207 0.823133 0.000488289
0.562539 0.819638 0.00181582
0.61059 0.813123 0.00726329
0.656931 0.805508 0.0144808
0.697932 0.79382 0.0288243
0.73402 0.780133 0.0474403
0.765835 0.765805 0.0668956
0.793271 0.752239 0.0860914
0.815915 0.740139 0.104082
0.834257 0.729824 0.1205
0.848753 0.721431 0.135058
0.855207 0.718029 0.142702
