site/assets/luts/freshluts--0000622-darkwarm.cube
# LUTr-Schema-Version: 2
# LUTr-ID: freshluts--0000622-darkwarm
# LUTr-Title: DARK.WARM
# LUTr-Collection: Fresh LUTs
# LUTr-Collection-ID: freshluts-community
# LUTr-Source: https://freshluts.com
# LUTr-Retrieved: 2026-07-27
# LUTr-Source-File: submissions-raw/freshluts/cubes/622__warm-lwst_24.A008_05161445_C065.cube
# LUTr-Source-Format: CUBE
# LUTr-Source-SHA256: 2253a36f28d5fff3113c1921df486697fd53493de74037b1d38e9d6989c308fa
# LUTr-License: CC0-1.0
# LUTr-License-URL: https://freshluts.com/termsandconditions
# LUTr-License-Basis: site-terms
# LUTr-Transform-Class: creative-look
# LUTr-Tags: creative, freshluts, community, cube, red, low-key, bmd-film, warm
# LUTr-Input-Color-Space: bmd-film
# LUTr-Input-Gamut: bmd-film-gamut
# LUTr-Input-Transfer: bmd-film
# LUTr-Output-Color-Space: srgb
# LUTr-Output-Gamut: rec709
# LUTr-Output-Transfer: srgb
# LUTr-Color-Space-Confidence: inferred-from-source-label
# LUTr-Domain-Normalized: true
# LUTr-Shaper: none
# LUTr-Original-Grid: 33x33x33
# LUTr-Conversion-Grid: 33x33x33
# LUTr-Conversion-Interpolation: none
# LUTr-Conversion-Method: Metadata normalization; numeric LUT samples preserved
# LUTr-Conversion-Tool: LUTr scripts/convert-all-to-cube.mjs 2.0.0
# LUTr-Conversion-Date: 2026-07-28
# LUTr-Asset-URL: https://freshluts.com/luts/622
# LUTr-Author: lvannoeun@gmail.com
# LUTr-Author-URL: https://freshluts.com/users/57563
# LUTr-Attribution: lvannoeun@gmail.com via Fresh LUTs
# LUTr-Source-Labels: gamma=Blackmagic BMD Film; color=Red; key=Low Key; style=Horror / Dark
# LUTr-Note: Preserve this metadata and the upstream license notices when redistributing.
TITLE "DARK.WARM"
LUT_3D_SIZE 9
DOMAIN_MIN 0 0 0
DOMAIN_MAX 1 1 1
0.0442054 0.0399481 0.0160525
0.134417 0.0401312 0.0148013
0.249897 0.0394446 0.0124666
0.370123 0.0386358 0.0116274
0.495048 0.037705 0.0106813
0.623148 0.0366827 0.00968948
0.744259 0.0375372 0.0115511
0.825711 0.0484321 0.0271611
0.885161 0.0645914 0.0484932
0.0766461 0.111971 0.0475776
0.132296 0.128069 0.0390021
0.249485 0.129946 0.0127565
0.370809 0.127657 0.0116121
0.497002 0.124361 0.0106813
0.626276 0.120439 0.00981155
0.747784 0.118822 0.0123751
0.826413 0.128771 0.0301671
0.886183 0.144305 0.0520943
0.117601 0.205707 0.0880446
0.175341 0.221668 0.0967727
0.242878 0.2392 0.0642557
0.367437 0.243717 0.0126955
0.495613 0.241443 0.00921645
0.625864 0.23859 0.00779736
0.75288 0.236606 0.00918593
0.847089 0.242847 0.0284886
0.911376 0.257053 0.0589914
0.162356 0.303746 0.133471
0.222827 0.319829 0.146105
0.283726 0.337392 0.145983
0.359121 0.356039 0.0971237
0.485817 0.363531 0.0220798
0.623117 0.361517 0.00819409
0.752987 0.359899 0.00741588
0.859434 0.363516 0.0263218
0.933165 0.374945 0.0644236
0.20827 0.405768 0.180056
0.270954 0.422232 0.1935
0.33286 0.440208 0.198871
0.398154 0.459144 0.187671
0.480293 0.477821 0.131502
0.606882 0.487739 0.0392157
0.747524 0.487526 0.0121462
0.862928 0.489387 0.028336
0.948043 0.497581 0.0717632
0.255436 0.511284 0.226276
0.320134 0.528115 0.240314
0.383703 0.546212 0.248692
0.449317 0.564538 0.250278
0.518059 0.584558 0.225544
0.605081 0.60293 0.165759
0.728267 0.614725 0.0644846
0.855131 0.617563 0.0496986
0.955596 0.622583 0.0871443
0.304051 0.61883 0.273198
0.370459 0.635721 0.287526
0.436164 0.653269 0.298222
0.501549 0.671626 0.301732
0.569696 0.689845 0.297856
0.641718 0.71017 0.262592
0.731014 0.728054 0.200229
0.844511 0.739971 0.123507
0.951049 0.745586 0.13283
0.354681 0.726329 0.321096
0.422415 0.742992 0.335698
0.48986 0.760006 0.347692
0.555764 0.777951 0.353216
0.623514 0.795789 0.354833
0.692119 0.814618 0.342092
0.766262 0.834669 0.299657
0.855253 0.851362 0.244053
0.955337 0.862364 0.211963
0.407187 0.833539 0.370062
0.476112 0.849744 0.384665
0.544793 0.866133 0.397406
0.611383 0.883314 0.40502
0.677836 0.900954 0.407706
0.746349 0.918074 0.407004
0.814633 0.93724 0.384665
0.889815 0.955978 0.342611
0.974792 0.970428 0.312718
0.0441291 0.0401923 0.101259
0.133654 0.0400854 0.107347
0.250233 0.0390936 0.103761
0.370871 0.0383001 0.100099
0.49601 0.0374151 0.0955673
0.624247 0.0364538 0.0905165
0.745785 0.0373388 0.0884413
0.826047 0.0486 0.102022
0.885573 0.064744 0.123308
0.0814221 0.116014 0.0937819
0.134783 0.130922 0.108263
0.250385 0.130068 0.10454
0.372107 0.127779 0.101915
0.498405 0.124559 0.0986191
0.627863 0.12079 0.0947585
0.750866 0.118898 0.0937972
0.830793 0.128634 0.108324
0.889311 0.144549 0.129198
0.101381 0.217502 0.132647
0.182376 0.225086 0.156405
0.245777 0.242222 0.142885
0.370184 0.244266 0.10222
0.497414 0.24213 0.0992752
0.627802 0.239231 0.0961624
0.75642 0.237034 0.0946517
0.855207 0.242344 0.109102
0.919173 0.256825 0.138048
0.145876 0.316533 0.174304
0.22945 0.324269 0.201678
0.290837 0.341009 0.210758
0.362387 0.359365 0.176928
0.493263 0.364385 0.103014
0.625589 0.362524 0.0969253
0.756588 0.360754 0.0948806
0.869093 0.363195 0.107836
0.945052 0.37438 0.142916
0.201007 0.415854 0.224613
0.277104 0.427482 0.247547
0.341176 0.444175 0.259815
0.405402 0.462455 0.259678
0.483894 0.481453 0.211002
0.614908 0.489601 0.118761
0.753109 0.488594 0.0962081
0.872816 0.489677 0.108186
0.962127 0.49723 0.146822
0.252644 0.519997 0.273808
0.326131 0.533684 0.294408
0.392325 0.5505 0.307973
0.456886 0.568841 0.313207
0.524666 0.5879 0.301671
0.608957 0.60676 0.245167
0.736431 0.617258 0.144396
0.8692 0.61854 0.118227
0.969619 0.623087 0.156756
0.304006 0.626688 0.322789
0.376486 0.641398 0.341924
0.444266 0.658061 0.356008
0.510231 0.675669 0.364263
0.577661 0.69366 0.365698
0.647669 0.713527 0.340764
0.734829 0.731807 0.279911
0.855558 0.743587 0.183886
0.969894 0.747616 0.184131
0.356359 0.733623 0.37229
0.428565 0.748638 0.390265
0.497475 0.765011 0.404547
0.565026 0.781979 0.414893
0.631373 0.800015 0.418296
0.699855 0.81799 0.414374
0.77142 0.837934 0.378698
0.859632 0.855558 0.316304
0.96817 0.867231 0.252247
0.4103 0.840284 0.422248
0.482216 0.85536 0.439246
0.55198 0.871199 0.453544
0.620401 0.887388 0.465278
0.686488 0.904784 0.470787
0.753826 0.922011 0.472175
0.821546 0.940169 0.459388
0.894408 0.95967 0.417044
0.980697 0.975814 0.36553
0.0442969 0.0400702 0.20647
0.133471 0.0395514 0.220203
0.248844 0.0385138 0.221088
0.370565 0.0373693 0.21828
0.495964 0.0364233 0.214023
0.624414 0.0354314 0.209155
0.751644 0.0348821 0.20473
0.84947 0.0420996 0.206912
0.907012 0.0595712 0.219333
0.0825818 0.121309 0.146304
0.134997 0.131395 0.21387
0.248402 0.13022 0.221744
0.37232 0.127306 0.220035
0.498894 0.124117 0.216938
0.628534 0.120409 0.213367
0.757046 0.11725 0.210193
0.855314 0.122759 0.213611
0.912184 0.139925 0.226795
0.133181 0.21355 0.192477
0.190097 0.229267 0.208316
0.248325 0.245167 0.223316
0.370993 0.24419 0.219348
0.498375 0.241947 0.216983
0.628977 0.2392 0.214313
0.759838 0.23653 0.211749
0.87599 0.237934 0.214679
0.947799 0.251331 0.232959
0.162234 0.317143 0.237964
0.212116 0.337072 0.246738
0.29868 0.344961 0.270329
0.365713 0.362737 0.256519
0.495735 0.36466 0.216587
0.627131 0.362814 0.214084
0.758801 0.360937 0.212009
0.884306 0.360678 0.213504
0.976364 0.368902 0.232807
0.172244 0.43212 0.269551
0.25977 0.441047 0.288441
0.348226 0.449088 0.315938
0.412985 0.466316 0.324971
0.487556 0.485145 0.290684
0.622232 0.490394 0.217136
0.755535 0.489143 0.211673
0.884489 0.488624 0.211933
0.991394 0.493172 0.230015
0.20531 0.543679 0.304402
0.318517 0.544198 0.339834
0.398733 0.555962 0.363058
0.465614 0.572808 0.375311
0.532189 0.591257 0.375021
0.612772 0.610559 0.325353
0.744366 0.618982 0.232914
0.880507 0.618616 0.213016
0.99443 0.621164 0.230747
0.268696 0.646677 0.355779
0.373754 0.650233 0.39028
0.450538 0.663569 0.41091
0.51902 0.679942 0.424338
0.585519 0.697887 0.429541
0.654292 0.716808 0.417838
0.738582 0.735515 0.360571
0.864652 0.746197 0.259846
0.99115 0.748348 0.242725
0.33135 0.750134 0.409186
0.428641 0.756527 0.440436
0.50367 0.770596 0.459266
0.57319 0.786664 0.473075
0.640238 0.803967 0.481331
0.707759 0.821653 0.482628
0.777188 0.841123 0.457465
0.86334 0.85922 0.396445
0.979843 0.871092 0.305837
0.392004 0.85452 0.46215
0.484031 0.862547 0.490593
0.558038 0.876677 0.507927
0.627939 0.892287 0.521462
0.695598 0.908675 0.531548
0.761593 0.925948 0.534798
0.829145 0.943282 0.530892
0.899428 0.962707 0.496086
0.984939 0.979919 0.43505
0.0443122 0.0395056 0.3205
0.134157 0.0383154 0.3411
0.249088 0.0376898 0.339925
0.369985 0.03682 0.337255
0.495644 0.0358129 0.33341
0.624338 0.0347295 0.328862
0.753231 0.0337224 0.324468
0.864225 0.0376287 0.321401
0.929732 0.0537575 0.323888
0.073991 0.127077 0.234363
0.135485 0.131151 0.326375
0.249622 0.129305 0.339879
0.372168 0.126879 0.339055
0.498985 0.123613 0.336294
0.628962 0.120012 0.332952
0.758968 0.116609 0.329671
0.870512 0.118776 0.327688
0.934722 0.13489 0.330999
0.143496 0.217685 0.236011
0.192081 0.235065 0.260853
0.249042 0.246067 0.329641
0.369787 0.244556 0.337865
0.499077 0.241856 0.336095
0.629908 0.239139 0.333593
0.760876 0.236545 0.331182
0.886137 0.235721 0.330053
0.974365 0.245502 0.336919
0.185672 0.316899 0.290776
0.246296 0.332937 0.307301
0.307027 0.349401 0.323644
0.368643 0.365988 0.338506
0.497063 0.36492 0.334401
0.628595 0.363088 0.33257
0.760266 0.361257 0.3308
0.890196 0.359991 0.329641
0.99707 0.364263 0.336065
0.213336 0.425376 0.339025
0.276875 0.441932 0.353292
0.329595 0.462638 0.361883
0.420935 0.470466 0.385306
0.491157 0.488762 0.371481
0.625071 0.490913 0.331273
0.757214 0.489632 0.32932
0.88809 0.488853 0.328237
0.99707 0.490486 0.332525
0.252216 0.534615 0.383062
0.288441 0.561349 0.385946
0.380529 0.570077 0.404761
0.472755 0.577951 0.431785
0.53994 0.59527 0.441047
0.616495 0.614267 0.406546
0.751751 0.619684 0.33193
0.883909 0.619181 0.327108
0.996963 0.62002 0.329824
0.24799 0.660136 0.41059
0.324437 0.674372 0.421912
0.442786 0.674098 0.456977
0.52578 0.685313 0.479789
0.594461 0.701961 0.491966
0.661845 0.720134 0.4916
0.742245 0.739132 0.44181
0.872618 0.747799 0.348501
0.996658 0.748425 0.33109
0.275837 0.77583 0.443854
0.392111 0.77673 0.474067
0.500786 0.77937 0.507698
0.579644 0.792172 0.527443
0.649104 0.808225 0.54049
0.715404 0.825833 0.545647
0.783688 0.844236 0.533913
0.866896 0.862745 0.477653
0.989075 0.873701 0.378088
0.335943 0.880858 0.491386
0.458427 0.879149 0.527184
0.558099 0.884428 0.558358
0.634226 0.897658 0.57879
0.703761 0.913085 0.594034
0.770153 0.929702 0.603204
0.836728 0.946731 0.604837
0.904891 0.965682 0.577111
0.987747 0.983215 0.513497
0.0447852 0.0399634 0.433845
0.133211 0.0385901 0.461234
0.248264 0.0379492 0.460304
0.369223 0.0370794 0.457847
0.494926 0.0360418 0.454246
0.623926 0.0349584 0.450126
0.75314 0.0338293 0.446006
0.871321 0.0357977 0.441062
0.948486 0.0493324 0.435676
0.0674601 0.12987 0.342306
0.135378 0.130953 0.440803
0.249744 0.128527 0.461112
0.371847 0.126375 0.459846
0.498817 0.123247 0.457343
0.629007 0.119615 0.454231
0.75938 0.116182 0.451148
0.877913 0.116594 0.447105
0.952895 0.13051 0.442206
0.134676 0.225559 0.298939
0.178912 0.241627 0.351797
0.24976 0.246159 0.444633
0.370947 0.244099 0.458167
0.499245 0.241718 0.45716
0.630411 0.239033 0.454887
0.761639 0.236515 0.452537
0.890288 0.234836 0.450614
0.993133 0.241093 0.450675
0.199069 0.320516 0.335454
0.257649 0.337255 0.352255
0.309361 0.355535 0.37763
0.369528 0.367102 0.447333
0.496574 0.365454 0.455344
0.629557 0.363241 0.453666
0.76141 0.36141 0.451926
0.891875 0.360082 0.450645
0.997635 0.361669 0.451514
0.238575 0.425162 0.391028
0.301656 0.441764 0.407233
0.365911 0.458289 0.423926
0.429816 0.47512 0.440116
0.494484 0.492287 0.454536
0.626596 0.491295 0.451087
0.75874 0.489998 0.449683
0.889693 0.48925 0.448798
0.997681 0.489616 0.449027
0.268345 0.536721 0.44155
0.331731 0.554314 0.456077
0.398199 0.571099 0.469963
0.453422 0.591928 0.478172
0.548196 0.599771 0.501015
0.620233 0.618006 0.487877
0.754543 0.620233 0.447761
0.88571 0.61973 0.446418
0.99765 0.620005 0.44622
0.302937 0.649271 0.486534
0.373632 0.665019 0.500572
0.411536 0.691356 0.50341
0.50721 0.699489 0.521416
0.601831 0.707057 0.547707
0.669657 0.724071 0.557244
0.745968 0.742794 0.522683
0.879744 0.748531 0.448737
0.997497 0.74873 0.444312
0.342428 0.760693 0.529366
0.370779 0.790387 0.528695
0.450141 0.803861 0.539086
0.571801 0.802731 0.575387
0.655818 0.813535 0.600656
0.724269 0.829602 0.614359
0.791089 0.84741 0.614069
0.870481 0.866255 0.558953
0.993515 0.875166 0.465797
0.331212 0.888655 0.555245
0.401434 0.905089 0.563729
0.521126 0.904585 0.596033
0.631495 0.90631 0.633799
0.710079 0.918364 0.657618
0.77882 0.933639 0.673899
0.844297 0.950545 0.680278
0.911086 0.968505 0.666239
0.990188 0.986267 0.59968
0.0455634 0.0407263 0.546975
0.132174 0.0391394 0.581033
0.247318 0.0384833 0.580407
0.368383 0.0375982 0.578027
0.494224 0.0365454 0.574624
0.623377 0.0354314 0.570794
0.752804 0.0343023 0.567117
0.873594 0.035584 0.561532
0.959381 0.0471351 0.550973
0.0638285 0.131197 0.458579
0.135302 0.130846 0.55404
0.249271 0.128008 0.581735
0.37142 0.125902 0.580591
0.498558 0.12285 0.578134
0.628931 0.119295 0.575128
0.759503 0.115953 0.572106
0.880369 0.115846 0.566903
0.963165 0.128191 0.556237
0.119036 0.232731 0.389456
0.169787 0.245151 0.46099
0.250126 0.246448 0.558694
0.371313 0.243778 0.579873
0.499336 0.241703 0.578546
0.630655 0.239033 0.576303
0.762005 0.236469 0.573816
0.891814 0.234653 0.571801
0.997879 0.23888 0.568887
0.199329 0.327413 0.386725
0.248295 0.345785 0.416541
0.295628 0.362737 0.469642
0.370626 0.367742 0.561364
0.497551 0.36556 0.576425
0.630076 0.363516 0.57554
0.762173 0.361608 0.573709
0.892958 0.360388 0.572442
0.998077 0.360845 0.572168
0.254002 0.428443 0.436744
0.31603 0.445518 0.452781
0.378073 0.46273 0.469871
0.432624 0.481498 0.495811
0.495506 0.493584 0.565866
0.626825 0.491936 0.573129
0.759945 0.49041 0.571542
0.891081 0.489647 0.570672
0.998215 0.489891 0.570779
0.294209 0.536721 0.492638
0.358206 0.554101 0.508247
0.423926 0.570916 0.523888
0.490608 0.58764 0.539712
0.557061 0.604654 0.55523
0.623804 0.621607 0.570443
0.756191 0.620722 0.56817
0.887327 0.620127 0.567452
0.99826 0.620417 0.567697
0.325948 0.649683 0.54345
0.390616 0.667048 0.558618
0.456672 0.684062 0.57409
0.525505 0.700542 0.589151
0.58201 0.721141 0.598245
0.677729 0.728527 0.623636
0.749676 0.746441 0.609155
0.882536 0.749065 0.565133
0.998215 0.74905 0.564416
0.359396 0.762554 0.593362
0.427695 0.779034 0.608774
0.500801 0.794125 0.624613
0.540169 0.820142 0.627909
0.637156 0.827619 0.649119
0.731472 0.834592 0.681315
0.798733 0.851286 0.693111
0.873976 0.869718 0.651102
0.997406 0.875639 0.567025
0.403113 0.872465 0.645762
0.469871 0.88922 0.660639
0.499229 0.918181 0.660212
0.580591 0.930663 0.67303
0.702235 0.928542 0.716335
0.785443 0.938674 0.746777
0.852888 0.954253 0.762997
0.918105 0.971435 0.76286
0.992676 0.989334 0.696971
0.0464179 0.0416114 0.669841
0.131136 0.039765 0.7187
0.246357 0.0390326 0.718639
0.367514 0.0381476 0.715557
0.493492 0.0371099 0.71107
0.622782 0.035996 0.70576
0.752132 0.0349432 0.700465
0.871962 0.0367742 0.691508
0.961669 0.0477607 0.674846
0.0620584 0.131914 0.574731
0.135271 0.130785 0.679622
0.248783 0.127504 0.721096
0.371008 0.125444 0.719982
0.498253 0.12253 0.717189
0.628748 0.119112 0.713329
0.759091 0.115785 0.709117
0.878187 0.116762 0.700313
0.964508 0.128847 0.682567
0.108415 0.237659 0.48864
0.163622 0.247059 0.577478
0.250431 0.246754 0.686885
0.371283 0.243702 0.720638
0.499428 0.241672 0.719341
0.630793 0.239124 0.716655
0.76231 0.236515 0.713817
0.892271 0.234775 0.711559
0.998138 0.238376 0.706218
0.187427 0.335912 0.458167
0.232151 0.353735 0.507698
0.286213 0.366812 0.579446
0.371328 0.368307 0.693019
0.498451 0.365652 0.718746
0.630503 0.363867 0.717464
0.762722 0.361944 0.715572
0.893706 0.360723 0.714366
0.998367 0.36083 0.714443
0.260365 0.434363 0.484291
0.316838 0.45275 0.504509
0.368704 0.471717 0.533913
0.418769 0.489235 0.588968
0.496956 0.49453 0.69723
0.627756 0.492302 0.714748
0.760678 0.490898 0.714122
0.892088 0.490089 0.713497
0.998596 0.490303 0.714244
0.311421 0.539849 0.538048
0.374655 0.557519 0.553429
0.439338 0.574655 0.57023
0.503899 0.591959 0.589166
0.560235 0.61091 0.617929
0.624887 0.622995 0.70074
0.756191 0.621515 0.710643
0.888518 0.6206 0.710185
0.998764 0.620798 0.711055
0.352193 0.649805 0.597147
0.417609 0.666911 0.614679
0.484123 0.683726 0.632319
0.551965 0.700298 0.650752
0.620111 0.716609 0.670161
0.68687 0.733104 0.689586
0.753109 0.750011 0.70837
0.884031 0.749447 0.705913
0.99884 0.74934 0.706279
0.385626 0.762158 0.657862
0.451408 0.779171 0.676188
0.518273 0.796033 0.694636
0.585977 0.812589 0.713268
0.655528 0.828382 0.73164
0.712291 0.848325 0.743099
0.807218 0.855344 0.774166
0.877455 0.873152 0.756283
0.998734 0.875883 0.703563
0.419699 0.874464 0.720119
0.487282 0.890791 0.739284
0.557351 0.906447 0.757488
0.631556 0.920623 0.775372
0.670848 0.945663 0.779385
0.767254 0.952392 0.802411
0.860624 0.95874 0.837934
0.925689 0.974868 0.849699
0.995163 0.992447 0.804746
0.047715 0.0430457 0.807462
0.131121 0.0427253 0.84892
0.244556 0.0412604 0.863233
0.365499 0.0396735 0.86772
0.491661 0.0383764 0.865675
0.620142 0.0375372 0.859464
0.745266 0.0381476 0.849317
0.857603 0.0430762 0.832166
0.945235 0.0555734 0.806577
0.0611582 0.13225 0.707393
0.135607 0.131212 0.821866
0.247898 0.128389 0.869444
0.369833 0.125948 0.874647
0.497002 0.122972 0.873518
0.626322 0.120104 0.868498
0.751247 0.119051 0.858549
0.86067 0.124102 0.839414
0.945388 0.137682 0.812573
0.100893 0.241337 0.592462
0.159808 0.248295 0.712551
0.250874 0.247181 0.836057
0.371359 0.243809 0.879805
0.499565 0.241871 0.879164
0.631006 0.239338 0.876738
0.762448 0.236942 0.873732
0.88893 0.236683 0.868208
0.996902 0.242649 0.855802
0.172961 0.343587 0.545235
0.221149 0.359319 0.610147
0.280034 0.369253 0.715679
0.372183 0.369177 0.843671
0.498939 0.366064 0.878859
0.631006 0.364233 0.877791
0.763363 0.362478 0.876234
0.894453 0.361303 0.875166
0.99855 0.361654 0.87451
0.25565 0.442451 0.542535
0.304616 0.461814 0.576135
0.351858 0.480354 0.631251
0.408911 0.494011 0.718013
0.49807 0.495674 0.849256
0.628748 0.492851 0.875532
0.761501 0.491569 0.874937
0.893019 0.490761 0.87454
0.99881 0.490852 0.875166
0.320333 0.545419 0.586572
0.381399 0.5635 0.604974
0.440528 0.582071 0.627817
0.49453 0.601267 0.66273
0.545708 0.619013 0.730495
0.626398 0.624063 0.853407
0.757977 0.621958 0.871107
0.889479 0.621256 0.871031
0.999069 0.621317 0.871748
0.370672 0.652689 0.6495
0.435355 0.669947 0.667994
0.50103 0.687114 0.687083
0.567666 0.704036 0.707042
0.63357 0.720821 0.729213
0.690455 0.739498 0.762829
0.75465 0.751659 0.854429
0.884016 0.750362 0.865568
0.999298 0.749813 0.866423
0.412177 0.762325 0.720378
0.478614 0.779126 0.74168
0.545998 0.795758 0.762524
0.613718 0.812116 0.782849
0.682094 0.82797 0.80293
0.750988 0.843595 0.823636
0.817014 0.859846 0.844282
0.880385 0.876707 0.863966
0.99942 0.87631 0.861524
0.447288 0.873716 0.793561
0.514107 0.890211 0.813504
0.581537 0.906401 0.832807
0.648997 0.922393 0.851347
0.716411 0.938064 0.869123
0.78587 0.953063 0.886137
0.84242 0.972015 0.897154
0.934768 0.978531 0.926696
0.997635 0.995789 0.910735
0.0542916 0.0508278 0.868345
0.134569 0.0505837 0.898299
0.241184 0.0495308 0.928054
0.357076 0.0479591 0.950286
0.47953 0.0466773 0.962615
0.603052 0.0470893 0.963561
0.719738 0.0506905 0.953262
0.823957 0.0586404 0.933349
0.915129 0.0699321 0.910399
0.0626383 0.133761 0.841856
0.141131 0.137774 0.889616
0.246296 0.134615 0.940627
0.364202 0.131807 0.963073
0.48838 0.128985 0.972702
0.613062 0.12755 0.970901
0.729641 0.129763 0.957671
0.831785 0.137636 0.934783
0.921065 0.149722 0.910964
0.092958 0.244099 0.723949
0.158175 0.249531 0.862181
0.253468 0.250111 0.95108
0.37116 0.245838 0.990417
0.498985 0.243458 0.996551
0.629862 0.241001 0.996872
0.758907 0.23975 0.993011
0.87982 0.24184 0.982589
0.982651 0.250431 0.962676
0.15964 0.350011 0.650645
0.213413 0.363546 0.733745
0.276417 0.371099 0.870726
0.373495 0.370489 0.975982
0.499886 0.367117 0.997314
0.631968 0.365301 0.997467
0.764385 0.363607 0.996536
0.895384 0.362539 0.995163
0.998642 0.363851 0.990692
0.24358 0.451225 0.621393
0.289525 0.470115 0.675914
0.340612 0.486412 0.755657
0.402853 0.496986 0.872786
0.499565 0.497139 0.977447
0.629953 0.494118 0.993469
0.762722 0.492821 0.992676
0.894301 0.492012 0.991608
0.998917 0.492119 0.990402
0.32221 0.55256 0.644572
0.37673 0.571878 0.672969
0.428199 0.591485 0.714199
0.477455 0.610132 0.78088
0.536583 0.623758 0.874113
0.628092 0.625727 0.976761
0.759304 0.623255 0.98854
0.89073 0.622385 0.987625
0.999191 0.622477 0.986526
0.381369 0.65771 0.706111
0.444785 0.67541 0.727474
0.508232 0.693156 0.750072
0.568429 0.711543 0.776867
0.622629 0.73051 0.81622
0.674617 0.74786 0.885832
0.756344 0.753002 0.975998
0.886122 0.751049 0.983597
0.999451 0.750835 0.982727
0.431525 0.764828 0.782055
0.497704 0.781872 0.802701
0.564324 0.798703 0.822965
0.630793 0.815457 0.842771
0.69688 0.831983 0.862165
0.762432 0.84863 0.881743
0.818662 0.866987 0.912261
0.882368 0.878538 0.972625
0.999725 0.877501 0.978775
0.47396 0.873838 0.857298
0.541329 0.890181 0.877317
0.608957 0.906233 0.896757
0.676509 0.92195 0.915694
0.743862 0.937591 0.934386
0.811536 0.952956 0.948409
0.879423 0.96791 0.95848
0.943191 0.983383 0.969345
0.999954 0.999298 0.979095
