site/assets/luts/freshluts--0000151-city.cube
# LUTr-Schema-Version: 2
# LUTr-ID: freshluts--0000151-city
# LUTr-Title: CITY
# LUTr-Collection: Fresh LUTs
# LUTr-Collection-ID: freshluts-community
# LUTr-Source: https://freshluts.com
# LUTr-Retrieved: 2026-07-27
# LUTr-Source-File: submissions-raw/freshluts/cubes/151__CITY__7.DJI_0002.cube
# LUTr-Source-Format: CUBE
# LUTr-Source-SHA256: 6e22d7741b9638e902b92302b3b0d96dc738c038104c55ee2748ebbc68ce4a4d
# LUTr-License: CC0-1.0
# LUTr-License-URL: https://freshluts.com/termsandconditions
# LUTr-License-Basis: site-terms
# LUTr-Transform-Class: creative-look
# LUTr-Tags: creative, freshluts, community, cube, film-emulation, dji-d-log
# LUTr-Input-Color-Space: dji-dlog-dgamut
# LUTr-Input-Gamut: dji-d-gamut
# LUTr-Input-Transfer: dji-d-log
# LUTr-Output-Color-Space: srgb
# LUTr-Output-Gamut: rec709
# LUTr-Output-Transfer: srgb
# LUTr-Color-Space-Confidence: inferred-from-source-label
# LUTr-Domain-Normalized: true
# LUTr-Shaper: none
# LUTr-Original-Grid: 33x33x33
# LUTr-Conversion-Grid: 33x33x33
# LUTr-Conversion-Interpolation: none
# LUTr-Conversion-Method: Metadata normalization; numeric LUT samples preserved
# LUTr-Conversion-Tool: LUTr scripts/convert-all-to-cube.mjs 2.0.0
# LUTr-Conversion-Date: 2026-07-28
# LUTr-Asset-URL: https://freshluts.com/luts/151
# LUTr-Author: Shamoon Abbasi
# LUTr-Author-URL: https://freshluts.com/users/1258
# LUTr-Attribution: Shamoon Abbasi via Fresh LUTs
# LUTr-Source-Labels: gamma=DJI D-log; color=None; key=Neutral; style=Film emulation
# LUTr-Note: Preserve this metadata and the upstream license notices when redistributing.
TITLE "CITY"
LUT_3D_SIZE 9
DOMAIN_MIN 0 0 0
DOMAIN_MAX 1 1 1
0.0131075 0.031342 0.0278935
0.0256352 0.0333257 0.0279545
0.0619059 0.0367895 0.0228122
0.170092 0.0425116 0.00166323
0.31548 0.0500038 0
0.438544 0.0572518 0
0.537423 0.0627298 0
0.624079 0.0600137 0
0.676844 0.0630961 0
0.00201419 0.0597238 0.0354162
0.0150454 0.0636454 0.0349737
0.0725414 0.0691844 0.0259556
0.207767 0.0759594 0.000167849
0.374365 0.0875868 0
0.510109 0.0973983 0
0.618235 0.104723 0
0.703624 0.105791 0
0.754437 0.110094 0
0 0.0983749 0.049485
0.00337224 0.108034 0.0481575
0.0754253 0.121141 0.0263066
0.251896 0.134585 0
0.443336 0.14873 0
0.58912 0.162753 0
0.703578 0.170443 0
0.78555 0.174563 0
0.834073 0.180621 0
0 0.164248 0.0717327
0 0.177523 0.0691386
0.028275 0.210117 0.0116579
0.262699 0.229679 0
0.47657 0.247654 0
0.638804 0.26685 0
0.762524 0.282109 0
0.843595 0.290547 0
0.886091 0.301259 0
0 0.264698 0.0952316
0 0.281773 0.0943618
0 0.330205 0.0239719
0.256565 0.370199 0
0.501945 0.395331 0
0.669993 0.417594 0
0.794766 0.438239 0
0.877974 0.444816 0
0.920485 0.449317 0
0 0.380926 0.125475
0 0.402899 0.122591
0 0.47274 0.0284581
0.290867 0.523568 0
0.552453 0.553384 0
0.716884 0.573037 0
0.83212 0.585107 0
0.912688 0.584573 0
0.946883 0.581308 0
0 0.465965 0.154086
0 0.49279 0.142687
0 0.576059 0.00741588
0.314397 0.624002 0
0.572549 0.653391 0
0.737011 0.675746 0
0.854002 0.688914 0
0.935668 0.690349 0
0.977447 0.69601 0
0 0.500374 0.172915
0 0.531685 0.154162
0.0000610361 0.615183 0
0.29897 0.671351 0
0.568475 0.711452 0
0.740414 0.738735 0
0.866835 0.758648 0
0.953338 0.767056 0
0.998016 0.775372 0
0 0.517662 0.182925
0 0.553643 0.166598
0 0.638422 0.0157015
0.283848 0.706233 0
0.575677 0.749096 0
0.7561 0.780865 0
0.888777 0.799558 0
0.973953 0.810086 0
1 0.816327 0
0.00993362 0.0348974 0.0495613
0.0215915 0.0374762 0.0521248
0.0655375 0.0400397 0.0468757
0.175769 0.0439765 0.0291142
0.347356 0.0429847 0.00137331
0.476173 0.0503853 0
0.580911 0.0524147 0
0.670542 0.0449989 0
0.734249 0.0272679 0
0.00769055 0.0627909 0.05832
0.0213474 0.067689 0.0629129
0.072694 0.074403 0.057908
0.21445 0.0812543 0.0356146
0.396475 0.0904555 0.00791943
0.53756 0.0999008 0.00523384
0.652094 0.102403 0.0019379
0.765469 0.0811322 0
0.826947 0.0690776 0
0 0.105898 0.0797589
0.0187533 0.11284 0.0831769
0.08365 0.129259 0.0717174
0.2607 0.143099 0.0361028
0.460105 0.156847 0.0162051
0.61706 0.168811 0.0117189
0.749477 0.16701 0
0.8551 0.153918 0
0.916869 0.148486 0
0 0.176608 0.102129
0.00927749 0.187106 0.106813
0.0700084 0.21294 0.0800336
0.275395 0.244694 0.0264744
0.499413 0.261006 0.0112001
0.66772 0.280324 0.00622568
0.799268 0.28986 0
0.89688 0.290684 0
0.955795 0.295689 0
0 0.282246 0.130373
0 0.299931 0.134646
0.0500343 0.337209 0.102312
0.26923 0.391455 0.0149386
0.52578 0.41735 0.00103761
0.696956 0.439948 0
0.824399 0.457832 0
0.917006 0.461753 0
0.974945 0.463264 0
0 0.403708 0.173205
0 0.42707 0.173861
0.0593576 0.484901 0.127886
0.303395 0.553658 0.0215763
0.571389 0.579599 0.00134279
0.737972 0.598245 0
0.855787 0.607965 0
0.942245 0.60734 0
0.988922 0.60264 0
0 0.490105 0.215213
0 0.514595 0.209354
0.00209049 0.59173 0.122881
0.310323 0.65481 0.0000762951
0.586587 0.679805 0
0.754452 0.698985 0
0.873304 0.712444 0
0.959121 0.719158 0
0.999969 0.721401 0
0 0.523262 0.235767
0 0.549645 0.226352
0 0.636423 0.12665
0.263523 0.708995 0
0.580575 0.740841 0
0.759441 0.765652 0
0.889586 0.783459 0
0.972107 0.793408 0
1 0.799725 0
0 0.538628 0.254261
0 0.577783 0.24773
0 0.66601 0.152316
0.221973 0.75108 0
0.582879 0.788952 0
0.778759 0.812421 0
0.924132 0.831754 0
0.999893 0.841367 0
1 0.842847 0
0.00120546 0.0431373 0.0915694
0.0178225 0.0433204 0.0953994
0.0638132 0.0436103 0.0981613
0.184634 0.0453651 0.0838178
0.367407 0.0382239 0.0628367
0.506081 0.0446784 0.0557412
0.61326 0.0425727 0.0532235
0.714885 0.0195621 0.0536049
0.788449 0 0.057023
0.000030518 0.0726177 0.10692
0.0177615 0.0769207 0.10901
0.0715038 0.0819867 0.114916
0.224033 0.0867323 0.102739
0.413474 0.0954147 0.0846418
0.565637 0.102403 0.0795148
0.70013 0.0884413 0.0747387
0.824018 0.0407568 0.0650339
0.900969 0.000564584 0.0646677
0 0.120119 0.130755
0.0206455 0.126284 0.136706
0.0928511 0.137835 0.13991
0.258656 0.15613 0.130663
0.470481 0.17052 0.115572
0.655055 0.167208 0.101198
0.807675 0.147036 0.0807813
0.925444 0.11458 0.062562
0.987915 0.0978408 0.0523842
0 0.192264 0.157153
0.0116884 0.205035 0.169039
0.0999008 0.224048 0.168276
0.278477 0.263249 0.141176
0.512245 0.279973 0.123247
0.699077 0.288991 0.101793
0.855848 0.287922 0.0711528
0.96907 0.277958 0.0350195
1 0.279011 0.0235294
0 0.303792 0.194781
0 0.323827 0.206302
0.100313 0.355306 0.205951
0.27512 0.41622 0.14345
0.535775 0.442771 0.123598
0.710216 0.4636 0.11548
0.858412 0.476112 0.0758679
0.978927 0.472267 0.00688182
1 0.467338 0
0 0.43064 0.252781
0 0.455085 0.26099
0.100023 0.507713 0.248081
0.292241 0.588174 0.144244
0.575692 0.607782 0.136645
0.741268 0.621592 0.124361
0.869368 0.631067 0.0872053
0.977783 0.627787 0.00729381
1 0.623529 0
0 0.513649 0.304311
0 0.54107 0.30753
0.0335241 0.608469 0.260731
0.251957 0.700969 0.0884565
0.586419 0.715267 0.0964828
0.759426 0.728603 0.109743
0.8804 0.738949 0.109697
0.989624 0.746822 0.0153201
1 0.749233 0
0 0.546914 0.325597
0 0.576883 0.325231
0 0.652049 0.270527
0.166537 0.759533 0.0546273
0.576577 0.78677 0.019379
0.781048 0.806622 0.0123903
0.920195 0.817853 0.0192264
0.997955 0.825513 0.0137331
1 0.830533 0
0 0.566293 0.350454
0 0.603159 0.354452
0 0.686748 0.304646
0.121386 0.790112 0.0965438
0.557351 0.830182 0.00199893
0.788815 0.854871 0
0.947173 0.867903 0
1 0.873365 0
1 0.871061 0.00573739
0 0.0648203 0.160327
0.00320439 0.0610971 0.173114
0.0545052 0.0493019 0.196201
0.189334 0.0470283 0.191974
0.379492 0.0317845 0.176989
0.519371 0.0456855 0.172442
0.630747 0.0432288 0.178561
0.737926 0.013962 0.188052
0.804242 0 0.198169
0 0.0977188 0.188266
0.00794995 0.099733 0.190631
0.0605631 0.0935225 0.218021
0.221607 0.0976272 0.223117
0.426413 0.0982528 0.214237
0.58323 0.108293 0.215274
0.723339 0.0909133 0.228
0.834989 0.0502937 0.233829
0.906249 0.00953689 0.250019
0 0.145632 0.222568
0.0132906 0.152361 0.228382
0.0975814 0.161547 0.233158
0.257786 0.172702 0.265797
0.484062 0.181323 0.259998
0.676036 0.175189 0.262058
0.837568 0.150423 0.273518
0.945586 0.114504 0.278614
0.995148 0.10576 0.28806
0 0.222217 0.258976
0.00759899 0.234852 0.271595
0.109529 0.252491 0.278523
0.283192 0.284566 0.293889
0.526406 0.298161 0.285389
0.747097 0.295323 0.270405
0.896483 0.289982 0.267628
0.985245 0.287831 0.268162
1 0.296483 0.273045
0 0.337987 0.305653
0 0.359655 0.322988
0.113222 0.387732 0.332036
0.304387 0.440558 0.333165
0.532876 0.474647 0.311482
0.743435 0.492805 0.284215
0.911269 0.496178 0.239475
0.998505 0.486641 0.217197
1 0.484108 0.204379
0 0.466041 0.375219
0.000701915 0.492424 0.392477
0.122683 0.541787 0.398505
0.285237 0.620203 0.353201
0.565209 0.645335 0.323461
0.746685 0.658335 0.321019
0.899199 0.663233 0.253422
0.999405 0.651942 0.175433
1 0.644648 0.138628
0 0.551919 0.43772
0 0.576822 0.44654
0.0461738 0.640742 0.435538
0.210864 0.733196 0.343664
0.559503 0.763546 0.269566
0.760174 0.77084 0.289052
0.892851 0.777996 0.284855
0.996216 0.782269 0.200671
1 0.78175 0.157839
0 0.587564 0.464164
0 0.614221 0.469123
0 0.68484 0.452873
0.0936904 0.793515 0.34136
0.531167 0.830381 0.248493
0.7682 0.852064 0.221088
0.926772 0.862684 0.210452
0.998322 0.860914 0.266514
1 0.863813 0.249546
0 0.608118 0.488411
0 0.643061 0.503365
0 0.716274 0.488228
0.0385138 0.827848 0.388174
0.50837 0.862516 0.298894
0.754711 0.886763 0.273289
0.923934 0.900236 0.256397
1 0.902235 0.271244
1 0.899519 0.328908
0 0.102434 0.244739
0 0.101244 0.257465
0.037171 0.0593423 0.328969
0.191562 0.0551919 0.333562
0.378134 0.0501106 0.325277
0.539208 0.0371252 0.329183
0.651469 0.0409705 0.33875
0.757031 0.00807202 0.350332
0.819928 0 0.36582
0 0.134951 0.281666
0.00474556 0.13872 0.286595
0.0386358 0.117922 0.35555
0.224262 0.109819 0.385061
0.434623 0.114366 0.378546
0.599924 0.113939 0.385077
0.731853 0.101244 0.406104
0.84918 0.0530098 0.430274
0.925719 0.00251774 0.456428
0 0.184543 0.330053
0.00941482 0.192309 0.340917
0.0870832 0.197711 0.366598
0.255726 0.190402 0.442618
0.491295 0.201572 0.437659
0.674601 0.198245 0.456306
0.837766 0.163241 0.490761
0.955795 0.115145 0.513375
0.996048 0.114839 0.525185
0 0.26183 0.380987
0.00257877 0.275853 0.396307
0.108263 0.29456 0.410712
0.264607 0.309133 0.486213
0.519539 0.325887 0.480354
0.742153 0.315267 0.501534
0.891066 0.309102 0.513039
0.980621 0.305852 0.522286
1 0.314244 0.525261
0 0.380865 0.436408
0 0.403738 0.459648
0.118181 0.433677 0.477729
0.320851 0.473213 0.492424
0.535683 0.504311 0.509483
0.748165 0.520012 0.500832
0.898314 0.523812 0.495109
0.991394 0.510964 0.484031
1 0.503975 0.474434
0 0.514321 0.519875
0.000732433 0.539086 0.538918
0.128725 0.58436 0.555779
0.315587 0.645594 0.562676
0.542077 0.687785 0.527657
0.738766 0.692973 0.533135
0.898497 0.695583 0.483314
0.993545 0.681788 0.456001
1 0.671656 0.441077
0 0.595148 0.578408
0 0.619196 0.59263
0.0588693 0.677165 0.602731
0.201572 0.760998 0.581949
0.513085 0.802808 0.51841
0.742153 0.812345 0.501534
0.883467 0.815213 0.521996
0.992706 0.816907 0.475212
1 0.816129 0.45626
0 0.63064 0.603754
0 0.657618 0.618097
0 0.720409 0.625788
0.0647746 0.822293 0.595514
0.478706 0.867506 0.528893
0.732204 0.886717 0.512947
0.897154 0.897429 0.50045
0.982483 0.895674 0.530175
1 0.897429 0.526146
0 0.648234 0.624918
0 0.684398 0.65098
0 0.754879 0.665309
0.0216526 0.859617 0.642832
0.446891 0.897704 0.573556
0.714076 0.919509 0.560586
0.889189 0.932219 0.549615
0.992218 0.935607 0.537636
1 0.933257 0.58735
0 0.137301 0.320882
0 0.138109 0.330282
0.0147097 0.0767834 0.442802
0.191241 0.0574044 0.462348
0.386954 0.0586404 0.459159
0.547494 0.0499886 0.468147
0.665797 0.0473793 0.477653
0.766094 0.0192111 0.493828
0.832776 0 0.512627
0 0.171756 0.368429
0 0.176867 0.378424
0.0052491 0.149172 0.468956
0.220447 0.120851 0.525307
0.443198 0.126604 0.521569
0.60737 0.130999 0.53167
0.734829 0.124849 0.551843
0.853437 0.0686351 0.585168
0.936461 0.000656138 0.627741
0 0.225071 0.425574
0 0.231601 0.439689
0.0617075 0.227924 0.488869
0.253132 0.198657 0.616144
0.505013 0.210605 0.604181
0.680842 0.217441 0.614481
0.836561 0.179706 0.65745
0.959213 0.118456 0.693477
0.999344 0.114153 0.708736
0 0.303731 0.484154
0 0.31632 0.503334
0.0878309 0.332387 0.52932
0.238575 0.325933 0.670085
0.535454 0.329915 0.679606
0.729015 0.341772 0.671443
0.888029 0.324514 0.704509
0.977661 0.319173 0.710491
1 0.326635 0.714122
0 0.420096 0.547372
0 0.442054 0.569436
0.115892 0.472404 0.593042
0.302312 0.509499 0.62678
0.522774 0.529717 0.69102
0.735744 0.540734 0.690196
0.882734 0.541238 0.691493
0.980636 0.528817 0.683055
1 0.520607 0.673777
0 0.553338 0.629648
0.0000915541 0.575525 0.647715
0.125292 0.619104 0.671199
0.335195 0.670665 0.691157
0.554238 0.702937 0.692393
0.72546 0.71664 0.68954
0.876295 0.71725 0.678813
0.980438 0.702678 0.65977
1 0.691402 0.649165
0 0.632914 0.686015
0 0.653147 0.697322
0.0576791 0.703609 0.718471
0.224063 0.776516 0.733013
0.475654 0.824323 0.705516
0.718944 0.835142 0.692668
0.873777 0.844083 0.694118
0.977615 0.840436 0.672602
1 0.839017 0.660182
0 0.660929 0.702724
0 0.687633 0.719249
0 0.747921 0.744427
0.052079 0.842939 0.758953
0.43624 0.891722 0.722148
0.704356 0.910033 0.707134
0.873045 0.92018 0.698817
0.97081 0.92108 0.70634
0.99968 0.922438 0.705776
0 0.678172 0.71989
0 0.712154 0.745632
0 0.783413 0.783169
0.00794995 0.879927 0.799771
0.406043 0.921767 0.755566
0.68513 0.942092 0.743938
0.864027 0.953613 0.733883
0.9729 0.958526 0.726528
1 0.956069 0.757366
0 0.16228 0.381415
0 0.166384 0.390127
0.0100404 0.108583 0.504509
0.191196 0.0644846 0.56379
0.396933 0.0590066 0.566918
0.553567 0.0636606 0.568414
0.675151 0.0597238 0.580194
0.768353 0.0480659 0.594736
0.835492 0.0132143 0.618814
0 0.197879 0.433707
0 0.205112 0.449302
0.000396735 0.163851 0.56669
0.220096 0.124056 0.639246
0.455894 0.125032 0.641413
0.619074 0.137377 0.640726
0.748302 0.128801 0.665736
0.859159 0.0800031 0.699901
0.94519 0.002121 0.751492
0 0.251392 0.49546
0 0.26096 0.516991
0.0234226 0.249577 0.592721
0.251591 0.190646 0.761868
0.526955 0.195117 0.751476
0.703593 0.205951 0.747799
0.840085 0.190356 0.772946
0.955459 0.133013 0.815503
1 0.116304 0.836912
0 0.332021 0.557275
0 0.347982 0.586496
0.0466926 0.360464 0.624704
0.20911 0.339742 0.804379
0.539651 0.334478 0.821149
0.748882 0.337758 0.820737
0.888106 0.333272 0.832837
0.976349 0.328634 0.839826
1 0.334936 0.840803
0 0.45243 0.623346
0 0.472602 0.645716
0.0971847 0.498772 0.672419
0.238315 0.539773 0.765133
0.503151 0.549523 0.831647
0.729183 0.554788 0.82681
0.875074 0.552697 0.824781
0.973022 0.542519 0.820111
1 0.532677 0.814649
0 0.578454 0.698268
0 0.599359 0.718029
0.120363 0.640482 0.746014
0.321492 0.694087 0.781888
0.498192 0.725307 0.825971
0.708568 0.731121 0.818173
0.859022 0.728954 0.810544
0.965454 0.717678 0.803113
1 0.708629 0.797879
0 0.652354 0.743862
0 0.671351 0.760143
0.0676585 0.723156 0.790784
0.241215 0.790722 0.825208
0.480842 0.834791 0.831495
0.698375 0.851102 0.82356
0.858259 0.857633 0.816251
0.960922 0.856764 0.810681
0.999969 0.855253 0.802228
0 0.680507 0.760906
0 0.706249 0.78024
0.000030518 0.765148 0.818921
0.0454414 0.859785 0.863081
0.404562 0.909834 0.8551
0.680354 0.926528 0.837629
0.85594 0.935164 0.828824
0.959869 0.938659 0.830976
0.99704 0.93962 0.827939
0 0.697246 0.777798
0 0.730892 0.805875
0 0.797955 0.850614
0 0.896925 0.900755
0.373877 0.939147 0.87924
0.667323 0.95639 0.864332
0.847517 0.96701 0.854994
0.957183 0.97319 0.851438
0.994675 0.97258 0.863081
0 0.185733 0.429587
0 0.188952 0.445426
0.00444038 0.130999 0.565759
0.196185 0.0644999 0.661219
0.40499 0.0556649 0.665202
0.564721 0.0582284 0.668177
0.682628 0.061677 0.675471
0.783963 0.0445258 0.694545
0.851881 0.00621042 0.720775
0 0.221866 0.488441
0 0.227787 0.505791
0.00180056 0.20351 0.591409
0.229618 0.106218 0.76463
0.47454 0.106935 0.764141
0.649775 0.111452 0.769146
0.772152 0.11133 0.77818
0.865278 0.090135 0.795911
0.942946 0.0246128 0.84123
0 0.275227 0.547341
0 0.283268 0.579721
0.00344854 0.266728 0.675319
0.25095 0.177127 0.882536
0.543328 0.166537 0.88304
0.736965 0.167117 0.88336
0.863783 0.171801 0.891005
0.954879 0.145418 0.909895
0.99939 0.126772 0.933364
0 0.35407 0.612879
0 0.370611 0.645365
0.00300603 0.382361 0.705623
0.179568 0.348913 0.910765
0.53782 0.340032 0.92607
0.751003 0.338369 0.92987
0.889113 0.339025 0.934661
0.974807 0.334157 0.939208
1 0.342641 0.940993
0 0.473014 0.680278
0 0.496544 0.705547
0.0480659 0.523705 0.746639
0.134737 0.558068 0.892119
0.483619 0.558312 0.938949
0.720775 0.563729 0.933486
0.870161 0.564202 0.931228
0.96463 0.548074 0.92668
1 0.536248 0.921263
0 0.59997 0.751781
0 0.62153 0.772381
0.0694896 0.661616 0.809873
0.193469 0.719036 0.888106
0.445914 0.736355 0.938201
0.689647 0.739879 0.926711
0.84892 0.736858 0.918853
0.954452 0.725505 0.91249
0.999466 0.71902 0.909087
0 0.66627 0.789014
0 0.685283 0.804074
0.0609751 0.732952 0.840986
0.216251 0.803418 0.895171
0.430793 0.851469 0.931884
0.674815 0.864347 0.923919
0.84567 0.86833 0.914687
0.949966 0.868894 0.907744
0.997055 0.86862 0.909056
0 0.693385 0.803861
0 0.719066 0.824445
0.00138857 0.778668 0.868925
0.0637217 0.86659 0.931197
0.371252 0.921492 0.944595
0.65861 0.937819 0.93193
0.842771 0.947784 0.920897
0.949706 0.951659 0.915419
0.991653 0.950561 0.917342
0 0.709865 0.813779
0 0.741909 0.845304
0 0.80914 0.896468
0 0.91046 0.969085
0.338643 0.949203 0.961685
0.646418 0.965972 0.945937
0.835904 0.977722 0.936965
0.94667 0.981704 0.934691
0.986816 0.982986 0.934112
0 0.205371 0.464927
0 0.207126 0.484932
0 0.134005 0.627894
0.204349 0.0465095 0.74374
0.420661 0.0399634 0.751965
0.588464 0.0297093 0.762051
0.704494 0.0491646 0.759884
0.806912 0.030518 0.77702
0.866957 0.00946059 0.79588
0 0.241657 0.519142
0 0.245975 0.543847
0 0.209323 0.663462
0.243977 0.0679332 0.869062
0.500008 0.06598 0.871748
0.680934 0.0709239 0.872038
0.805692 0.0726482 0.876478
0.888457 0.076051 0.877241
0.948928 0.0441444 0.905974
0 0.290272 0.580102
0 0.299901 0.612329
0 0.287892 0.711986
0.247074 0.182879 0.944076
0.553231 0.166308 0.958236
0.753841 0.149737 0.968093
0.885008 0.148028 0.971893
0.964355 0.141421 0.974624
1 0.136095 0.991653
0 0.370565 0.648341
0 0.387854 0.680079
0 0.400931 0.765316
0.158511 0.359762 0.970245
0.534783 0.347372 0.988144
0.748867 0.345312 0.991516
0.889036 0.344564 0.995361
0.972824 0.340352 0.995758
1 0.346242 0.996048
0 0.48983 0.714015
0 0.512047 0.741634
0 0.544717 0.805173
0.027039 0.572656 0.971862
0.470359 0.566995 0.997742
0.710124 0.566857 0.99585
0.862196 0.56527 0.993851
0.960143 0.547433 0.991302
0.998962 0.535195 0.990387
0 0.61059 0.780911
0 0.632166 0.802152
0 0.677378 0.856718
0.0600443 0.733028 0.960174
0.411231 0.741939 0.997635
0.673289 0.741558 0.992905
0.839338 0.739895 0.98764
0.947433 0.727993 0.981781
0.996201 0.720424 0.979385
0 0.67541 0.812299
0 0.69453 0.829267
0.0009308 0.746548 0.879515
0.0657816 0.821866 0.961563
0.375647 0.859449 0.99649
0.655192 0.86952 0.98883
0.832792 0.874556 0.980758
0.943801 0.873732 0.975158
0.9897 0.874067 0.973129
0 0.700832 0.823056
0 0.723415 0.844709
0.000015259 0.785611 0.896849
0.0413519 0.872801 0.970565
0.347829 0.927764 0.997375
0.640208 0.94435 0.987427
0.827253 0.954055 0.977874
0.942718 0.955657 0.972961
0.984558 0.958328 0.97261
0 0.71725 0.833982
0 0.747616 0.863523
0 0.815213 0.920821
0 0.911116 0.995209
0.314992 0.955779 0.999649
0.63154 0.971572 0.993149
0.823041 0.983917 0.984421
0.937499 0.987564 0.979232
0.9823 0.989166 0.978225
