site/assets/luts/freshluts--0000344-strangest-things-2.cube
# LUTr-Schema-Version: 2
# LUTr-ID: freshluts--0000344-strangest-things-2
# LUTr-Title: STRANGEST THINGS 2
# LUTr-Collection: Fresh LUTs
# LUTr-Collection-ID: freshluts-community
# LUTr-Source: https://freshluts.com
# LUTr-Retrieved: 2026-07-27
# LUTr-Source-File: submissions-raw/freshluts/cubes/344__STRANGEST_THINGS_2.cube
# LUTr-Source-Format: CUBE
# LUTr-Source-SHA256: 3b13586eeba16d0d92a00613f5d56718b6037ae1ac48a0970e176913b853eab5
# LUTr-License: CC0-1.0
# LUTr-License-URL: https://freshluts.com/termsandconditions
# LUTr-License-Basis: site-terms
# LUTr-Transform-Class: creative-look
# LUTr-Tags: creative, freshluts, community, cube, warm
# LUTr-Input-Color-Space:
# LUTr-Input-Gamut: unspecified
# LUTr-Input-Transfer: unspecified
# LUTr-Output-Color-Space: srgb
# LUTr-Output-Gamut: rec709
# LUTr-Output-Transfer: srgb
# LUTr-Color-Space-Confidence: camera-profile-input-required
# LUTr-Domain-Normalized: true
# LUTr-Shaper: none
# LUTr-Original-Grid: 32x32x32
# LUTr-Conversion-Grid: 32x32x32
# LUTr-Conversion-Interpolation: none
# LUTr-Conversion-Method: Metadata normalization; numeric LUT samples preserved
# LUTr-Conversion-Tool: LUTr scripts/convert-all-to-cube.mjs 2.0.0
# LUTr-Conversion-Date: 2026-07-28
# LUTr-Asset-URL: https://freshluts.com/luts/344
# LUTr-Author: I WANT TO MAKE A FILM PODCAST
# LUTr-Author-URL: https://freshluts.com/users/15633
# LUTr-Attribution: I WANT TO MAKE A FILM PODCAST via Fresh LUTs
# LUTr-Source-Labels: gamma=Other; color=Warm; key=Neutral; style=Hipster
# LUTr-Note: Preserve this metadata and the upstream license notices when redistributing.
# LUTr-Upstream-Comment: Created by: Adobe Photoshop Export Color Lookup Plugin
# LUTr-Upstream-Comment: LUT size
# LUTr-Upstream-Comment: data domain
# LUTr-Upstream-Comment: LUT data points
TITLE "STRANGEST THINGS 2"
LUT_3D_SIZE 32
DOMAIN_MIN 0 0 0
DOMAIN_MAX 1 1 1
0 0 0
0.005432 0.002441 0.001648
0.012878 0.003876 0.003296
0.020721 0.005829 0.005096
0.028992 0.008301 0.007019
0.041351 0.009552 0.008362
0.055847 0.010956 0.009613
0.072571 0.012726 0.0112
0.091736 0.014496 0.012848
0.112915 0.016479 0.014709
0.1362 0.018524 0.01651
0.161041 0.020782 0.018555
0.187164 0.023163 0.020782
0.214752 0.025574 0.02298
0.243622 0.027893 0.025177
0.27301 0.030396 0.027435
0.302917 0.032867 0.029755
0.332855 0.035278 0.032013
0.362823 0.037628 0.034241
0.392548 0.039978 0.036407
0.422058 0.042206 0.038513
0.451294 0.044464 0.040619
0.480255 0.046661 0.042664
0.509003 0.048798 0.044708
0.537018 0.050873 0.046661
0.564331 0.052917 0.048615
0.590912 0.054932 0.050476
0.616974 0.056946 0.052368
0.642578 0.058868 0.054199
0.667816 0.060883 0.056122
0.692566 0.062775 0.057953
0.717316 0.064728 0.059784
0 0 0
0.005432 0.002441 0.001648
0.012878 0.003876 0.003296
0.020721 0.005829 0.005096
0.028992 0.008301 0.007019
0.041351 0.009552 0.008362
0.055847 0.010956 0.009613
0.072571 0.012726 0.0112
0.091736 0.014496 0.012848
0.112915 0.016479 0.014709
0.1362 0.018524 0.01651
0.161041 0.020782 0.018555
0.187164 0.023163 0.020782
0.214752 0.025574 0.02298
0.243622 0.027893 0.025177
0.27301 0.030396 0.027435
0.302917 0.032867 0.029755
0.332855 0.035278 0.032013
0.362823 0.037628 0.034241
0.392548 0.039978 0.036407
0.422058 0.042206 0.038513
0.451294 0.044464 0.040619
0.480255 0.046661 0.042664
0.509003 0.048798 0.044708
0.537018 0.050873 0.046661
0.564331 0.052917 0.048615
0.590912 0.054932 0.050476
0.616974 0.056946 0.052368
0.642578 0.058868 0.054199
0.667816 0.060883 0.056122
0.692566 0.062775 0.057953
0.717316 0.064728 0.059784
0.001465 0.006317 0.001892
0.007782 0.008026 0.003754
0.014771 0.009888 0.005371
0.021881 0.012115 0.007385
0.031494 0.013733 0.009125
0.043121 0.015533 0.010345
0.058533 0.016266 0.011932
0.074677 0.018372 0.013336
0.094116 0.019958 0.015259
0.115967 0.021515 0.017578
0.139313 0.023499 0.019623
0.16449 0.025452 0.021973
0.19101 0.027649 0.024475
0.218964 0.029785 0.026917
0.247589 0.032288 0.029236
0.277283 0.034668 0.031433
0.307251 0.037109 0.033752
0.337311 0.039581 0.036011
0.36734 0.041901 0.038208
0.397125 0.044281 0.040436
0.426636 0.046539 0.042542
0.456024 0.048706 0.044617
0.484985 0.050903 0.046692
0.513702 0.05304 0.048706
0.541656 0.055115 0.050659
0.568939 0.057159 0.052582
0.595428 0.059174 0.054504
0.62149 0.061157 0.056396
0.647095 0.063141 0.058289
0.672272 0.065094 0.06012
0.697113 0.066986 0.061951
0.72171 0.06897 0.063812
0.004395 0.015228 0.005005
0.010071 0.017456 0.006683
0.017029 0.019226 0.00824
0.024323 0.021362 0.010162
0.033936 0.023041 0.012024
0.046356 0.024231 0.013367
0.061096 0.025543 0.014832
0.077911 0.027191 0.016541
0.097443 0.028748 0.018433
0.118713 0.03067 0.020325
0.14267 0.032227 0.022766
0.167908 0.03421 0.025208
0.194427 0.036377 0.02774
0.222534 0.038452 0.030334
0.252228 0.040283 0.033325
0.282867 0.042053 0.036499
0.313751 0.043854 0.039642
0.344086 0.046112 0.042145
0.374115 0.048492 0.044403
0.404175 0.050781 0.046539
0.433777 0.05304 0.048706
0.463226 0.055267 0.050812
0.492279 0.057404 0.052826
0.521027 0.05954 0.05484
0.548889 0.061615 0.056824
0.57608 0.06369 0.058746
0.602539 0.065704 0.060699
0.62854 0.067719 0.062622
0.654022 0.069641 0.064453
0.679169 0.071594 0.066315
0.703888 0.073547 0.068146
0.728607 0.07547 0.070038
0.006805 0.024933 0.008179
0.013367 0.026611 0.009735
0.020508 0.028381 0.011261
0.027802 0.030518 0.013184
0.037537 0.032074 0.014954
0.049927 0.033386 0.016388
0.063843 0.035126 0.017914
0.08078 0.036835 0.019348
0.099731 0.038666 0.02121
0.121643 0.040222 0.023407
0.145142 0.042114 0.025543
0.17099 0.043701 0.02832
0.197449 0.046021 0.030548
0.226196 0.047668 0.03363
0.255585 0.049683 0.036499
0.285736 0.051758 0.039307
0.316711 0.053558 0.042419
0.348297 0.055054 0.045807
0.37973 0.056641 0.049194
0.410645 0.058289 0.052246
0.441315 0.059967 0.055267
0.470825 0.062164 0.057312
0.5 0.064331 0.059387
0.528625 0.066437 0.061401
0.556458 0.068512 0.063385
0.583527 0.070587 0.065338
0.610046 0.072571 0.06723
0.635895 0.074585 0.069153
0.661407 0.076508 0.070984
0.686462 0.078522 0.072876
0.711182 0.080444 0.074707
0.735809 0.082397 0.076599
0.009277 0.035553 0.011353
0.016724 0.036713 0.013062
0.023743 0.038483 0.014679
0.031128 0.040527 0.016602
0.040894 0.042114 0.018341
0.05249 0.043884 0.019897
0.067291 0.045197 0.021393
0.084839 0.046448 0.023041
0.103241 0.048767 0.024689
0.125244 0.050232 0.026855
0.148712 0.052185 0.028992
0.174042 0.054138 0.031403
0.200684 0.056274 0.033875
0.229889 0.057739 0.037018
0.259247 0.059845 0.039886
0.289948 0.061554 0.04306
0.320465 0.063721 0.045807
0.352203 0.065186 0.049255
0.383148 0.066986 0.052277
0.414154 0.068665 0.055359
0.445648 0.069885 0.05896
0.476593 0.071198 0.062225
0.507202 0.07251 0.065399
0.536926 0.073883 0.068481
0.564606 0.075989 0.070496
0.591736 0.078033 0.072418
0.618103 0.080048 0.074341
0.643921 0.082001 0.076263
0.669281 0.083984 0.078125
0.694336 0.085968 0.080017
0.719025 0.08783 0.081848
0.74353 0.089813 0.08371
0.012573 0.046936 0.014618
0.019348 0.048553 0.016083
0.02652 0.050232 0.01767
0.032959 0.052887 0.019745
0.042816 0.054504 0.021545
0.055389 0.055695 0.022888
0.070221 0.056976 0.024353
0.087158 0.058624 0.026093
0.106842 0.06015 0.028015
0.128265 0.062073 0.029846
0.151764 0.063995 0.032013
0.177704 0.065582 0.034729
0.204376 0.067749 0.037292
0.233093 0.06958 0.0401
0.262512 0.071564 0.042938
0.292755 0.073639 0.045715
0.324341 0.075134 0.049225
0.355225 0.077179 0.052124
0.386993 0.078522 0.055603
0.418121 0.080231 0.058716
0.449036 0.081726 0.06189
0.480042 0.083038 0.065186
0.510986 0.084198 0.068665
0.541016 0.085297 0.071991
0.570435 0.086334 0.07547
0.598999 0.087341 0.078827
0.626892 0.088379 0.082214
0.65271 0.090302 0.084167
0.67807 0.092255 0.086029
0.703064 0.094238 0.087952
0.727661 0.09613 0.089783
0.752167 0.098083 0.091644
0.014893 0.060608 0.016815
0.020813 0.062744 0.018463
0.028748 0.064026 0.020264
0.037048 0.065643 0.022034
0.045197 0.068207 0.023773
0.057831 0.069427 0.025177
0.072632 0.070709 0.026611
0.0896 0.072418 0.028381
0.109222 0.073944 0.030304
0.130707 0.075867 0.032166
0.154785 0.077454 0.034698
0.179718 0.079651 0.036957
0.206909 0.081543 0.039642
0.235168 0.083588 0.042236
0.265106 0.085388 0.045258
0.295959 0.087097 0.048492
0.327057 0.088959 0.051666
0.358521 0.090637 0.054962
0.389832 0.092255 0.058075
0.420959 0.093994 0.061188
0.452454 0.095154 0.064728
0.482971 0.096832 0.067657
0.513855 0.097992 0.071045
0.543793 0.099182 0.074371
0.573151 0.100189 0.07785
0.601715 0.101166 0.081238
0.629913 0.10199 0.084778
0.657135 0.102966 0.088104
0.684631 0.103546 0.091949
0.710876 0.104584 0.095062
0.737213 0.105377 0.098602
0.761749 0.107269 0.100494
0.017181 0.076202 0.019104
0.023285 0.078247 0.020752
0.030518 0.079987 0.022369
0.038574 0.081696 0.024475
0.04776 0.08371 0.026062
0.060272 0.084961 0.027435
0.075134 0.086304 0.0289
0.092041 0.087982 0.03064
0.111664 0.0896 0.032593
0.133148 0.091553 0.034454
0.157135 0.093231 0.036865
0.182098 0.095428 0.039185
0.209198 0.097412 0.041718
0.237457 0.099487 0.044312
0.266846 0.101562 0.047028
0.297882 0.103241 0.050232
0.328949 0.105164 0.053284
0.36026 0.106934 0.056458
0.391541 0.108612 0.059509
0.422607 0.110382 0.062592
0.453583 0.111938 0.065674
0.484589 0.113281 0.06897
0.515411 0.114441 0.072388
0.54541 0.115601 0.075745
0.574829 0.116547 0.079254
0.603394 0.117554 0.082611
0.631195 0.118561 0.085999
0.658661 0.119476 0.089447
0.685638 0.120361 0.092865
0.71283 0.120758 0.096802
0.738953 0.121704 0.100098
0.765564 0.122162 0.103973
0.019318 0.093964 0.021606
0.026794 0.095215 0.023193
0.034088 0.096954 0.02478
0.041626 0.09903 0.026733
0.051453 0.100647 0.028473
0.063385 0.102325 0.029755
0.077911 0.10379 0.031494
0.094879 0.105469 0.03299
0.113953 0.107422 0.034973
0.135895 0.109131 0.037018
0.159363 0.111145 0.039185
0.184753 0.113129 0.041443
0.211761 0.115173 0.043976
0.240417 0.117065 0.046783
0.269379 0.119507 0.049225
0.299988 0.121429 0.052155
0.330841 0.123413 0.055054
0.362335 0.125153 0.058197
0.393158 0.127136 0.060974
0.424347 0.128937 0.063965
0.454803 0.130768 0.066772
0.486328 0.131836 0.070282
0.516449 0.133514 0.07312
0.545807 0.13501 0.07608
0.57486 0.1362 0.079315
0.603119 0.13736 0.082428
0.631012 0.138367 0.085785
0.658112 0.139435 0.088959
0.685211 0.140228 0.092407
0.712158 0.140839 0.096161
0.7388 0.141449 0.099915
0.765228 0.142029 0.103607
0.022339 0.112885 0.024261
0.029907 0.114136 0.025787
0.03714 0.115875 0.027405
0.044708 0.11795 0.029388
0.054688 0.119598 0.031067
0.066528 0.121307 0.03241
0.081055 0.122772 0.03418
0.098511 0.124237 0.035858
0.117035 0.126556 0.037689
0.138916 0.128265 0.039734
0.162384 0.13031 0.04187
0.187775 0.132416 0.044189
0.214783 0.134491 0.0466
0.242981 0.136719 0.049103
0.272675 0.138733 0.052002
0.302826 0.140991 0.054626
0.333618 0.143097 0.057404
0.364929 0.144897 0.060364
0.395691 0.147003 0.06311
0.426453 0.148926 0.065857
0.457458 0.150513 0.068909
0.487671 0.152405 0.071503
0.517853 0.153961 0.074402
0.547272 0.155487 0.077271
0.57605 0.15686 0.080261
0.604065 0.158234 0.08316
0.631561 0.159454 0.086182
0.658325 0.160767 0.089081
0.685394 0.161591 0.092468
0.711426 0.162811 0.095459
0.737152 0.164001 0.098389
0.76355 0.164642 0.10202
0.02536 0.133331 0.027191
0.03244 0.134918 0.028656
0.040283 0.136292 0.030273
0.047913 0.138397 0.032196
0.0578 0.140076 0.033905
0.069031 0.14212 0.035492
0.084351 0.14328 0.036835
0.101562 0.144836 0.038727
0.120667 0.146881 0.040527
0.142456 0.148682 0.042603
0.165527 0.151001 0.044769
0.190887 0.153107 0.047028
0.217865 0.155212 0.049438
0.246033 0.157501 0.051941
0.275726 0.159607 0.054718
0.305847 0.161896 0.057312
0.336884 0.16394 0.06012
0.367859 0.165985 0.062897
0.398529 0.168182 0.065552
0.429443 0.170074 0.068268
0.460083 0.171906 0.071106
0.490448 0.173676 0.073792
0.520477 0.175415 0.076477
0.550018 0.17688 0.079437
0.577972 0.17868 0.081909
0.605804 0.180176 0.084656
0.633026 0.181549 0.087463
0.659729 0.182922 0.090271
0.686249 0.184113 0.093231
0.712067 0.185455 0.096039
0.737823 0.186615 0.098938
0.763306 0.187927 0.101807
0.029633 0.154327 0.029907
0.036774 0.155853 0.031372
0.043213 0.158173 0.033325
0.051636 0.15979 0.035004
0.060913 0.161835 0.036896
0.073395 0.163269 0.03833
0.087891 0.164795 0.039856
0.104706 0.166687 0.041748
0.124115 0.168549 0.04364
0.145569 0.170624 0.045654
0.169037 0.172729 0.047729
0.194672 0.174744 0.050171
0.221375 0.177094 0.052551
0.249512 0.179352 0.054993
0.279083 0.181549 0.057587
0.309479 0.183777 0.060303
0.339935 0.186157 0.062866
0.371094 0.188202 0.065613
0.402008 0.190186 0.068359
0.432709 0.192352 0.070984
0.463135 0.194305 0.073578
0.49353 0.196167 0.076263
0.523621 0.197815 0.078979
0.552429 0.199677 0.081512
0.580719 0.201263 0.084167
0.608337 0.202881 0.086792
0.635284 0.204468 0.089417
0.661835 0.205963 0.092041
0.687836 0.207458 0.094666
0.713867 0.208679 0.097504
0.739197 0.210175 0.100098
0.764618 0.211426 0.102936
0.033112 0.176697 0.032928
0.04007 0.178284 0.034515
0.047455 0.180115 0.036224
0.055817 0.181854 0.037964
0.065125 0.183899 0.039825
0.077454 0.185333 0.04129
0.091492 0.187317 0.042969
0.108215 0.18924 0.0448
0.127655 0.191132 0.046753
0.149384 0.193054 0.048828
0.172882 0.19519 0.050964
0.198456 0.197266 0.053345
0.225128 0.199677 0.055634
0.253265 0.201965 0.058228
0.282837 0.204224 0.060822
0.312958 0.206604 0.063324
0.343658 0.208893 0.065948
0.374542 0.211121 0.068634
0.405396 0.213257 0.071228
0.436066 0.215424 0.073822
0.466797 0.217316 0.076538
0.49704 0.219269 0.079071
0.52652 0.221222 0.081512
0.555695 0.22287 0.084198
0.583649 0.224762 0.086639
0.611084 0.22644 0.089111
0.63797 0.227966 0.091675
0.664398 0.229584 0.094238
0.690338 0.23111 0.096832
0.715942 0.232635 0.099365
0.741333 0.23407 0.10199
0.766418 0.235596 0.104492
0.036835 0.199585 0.035919
0.044525 0.200897 0.037354
0.05191 0.202667 0.039001
0.059631 0.204742 0.040955
0.069794 0.20639 0.042542
0.081207 0.208405 0.044403
0.096222 0.209808 0.045898
0.112854 0.211823 0.047852
0.132111 0.213867 0.049896
0.153412 0.216095 0.051971
0.176788 0.218323 0.05423
0.202057 0.220551 0.056549
0.229004 0.222839 0.058929
0.257202 0.225281 0.061432
0.286499 0.227661 0.063965
0.316833 0.22998 0.066589
0.347717 0.232208 0.069214
0.378418 0.234589 0.071777
0.409058 0.236908 0.07428
0.440063 0.238861 0.076965
0.470306 0.241058 0.079468
0.500549 0.243042 0.08194
0.530396 0.244843 0.084534
0.559143 0.246704 0.087036
0.587067 0.248596 0.089508
0.61441 0.250366 0.091949
0.641022 0.252167 0.094299
0.667389 0.253662 0.096832
0.693024 0.255402 0.099213
0.718719 0.256897 0.101807
0.743744 0.258545 0.104156
0.768921 0.26001 0.10675
0.041992 0.222076 0.038635
0.049011 0.223816 0.040314
0.056427 0.225616 0.041992
0.064056 0.227753 0.043945
0.074249 0.229431 0.045593
0.086212 0.231171 0.047302
0.100464 0.233002 0.049011
0.116638 0.235352 0.051025
0.135925 0.237396 0.05307
0.157471 0.239471 0.055237
0.180878 0.24176 0.057404
0.205811 0.244232 0.059784
0.232758 0.246582 0.062195
0.261108 0.248871 0.064728
0.290405 0.251343 0.067261
0.320557 0.253876 0.069824
0.351257 0.256195 0.072418
0.382385 0.258423 0.075073
0.413025 0.260742 0.077545
0.444 0.262787 0.08017
0.474365 0.264954 0.082642
0.504669 0.266998 0.085175
0.534149 0.268951 0.087616
0.562622 0.270996 0.089966
0.590515 0.272797 0.092377
0.617828 0.274658 0.094788
0.644348 0.276428 0.097168
0.670502 0.278168 0.099548
0.696198 0.279877 0.101929
0.721588 0.281525 0.10434
0.746735 0.283081 0.106781
0.771698 0.284698 0.109161
0.046417 0.245148 0.041473
0.053436 0.246887 0.043213
0.060913 0.248718 0.044861
0.069427 0.250488 0.046539
0.078766 0.252594 0.048492
0.090607 0.254456 0.050262
0.104767 0.256378 0.052094
0.121155 0.258575 0.054169
0.140289 0.260681 0.056244
0.161499 0.263031 0.058441
0.184814 0.265411 0.060669
0.209778 0.267944 0.06311
0.236938 0.270233 0.065582
0.265106 0.272675 0.068024
0.294373 0.275208 0.070557
0.324524 0.27774 0.07312
0.355438 0.280029 0.075714
0.386353 0.28241 0.078308
0.416962 0.28479 0.08078
0.447784 0.286987 0.083313
0.478302 0.289062 0.085815
0.508514 0.291199 0.088287
0.537994 0.293182 0.090759
0.566528 0.295166 0.09314
0.594116 0.297119 0.095398
0.621338 0.299011 0.097778
0.647766 0.300842 0.100128
0.674011 0.302521 0.102539
0.699615 0.304321 0.104858
0.724792 0.306061 0.107178
0.749847 0.307709 0.109528
0.774689 0.309387 0.111847
0.05069 0.268097 0.044403
0.057983 0.269775 0.045929
0.065369 0.271606 0.047607
0.073334 0.273712 0.04953
0.083374 0.275543 0.051239
0.095123 0.277466 0.05307
0.108521 0.279755 0.055206
0.125366 0.28183 0.05719
0.144409 0.284058 0.059326
0.165436 0.286469 0.061646
0.188751 0.28891 0.063934
0.213989 0.291351 0.066315
0.240875 0.293762 0.068756
0.269196 0.296173 0.071289
0.298279 0.298859 0.073792
0.328674 0.3013 0.076385
0.359344 0.303802 0.078979
0.390259 0.306183 0.081482
0.421082 0.308533 0.084076
0.451874 0.31076 0.086548
0.482269 0.312958 0.088989
0.512482 0.315125 0.091461
0.541748 0.317169 0.093842
0.570099 0.319244 0.096222
0.597992 0.321106 0.098602
0.625031 0.322998 0.100891
0.651428 0.32489 0.10321
0.677429 0.326721 0.105499
0.702942 0.328583 0.107788
0.72818 0.330261 0.110107
0.753021 0.332062 0.112335
0.777954 0.33371 0.114716
0.055389 0.290375 0.046997
0.062439 0.292175 0.048676
0.070007 0.294006 0.050354
0.078735 0.295715 0.051941
0.08783 0.298035 0.054077
0.099487 0.300079 0.056
0.113281 0.302216 0.057983
0.129456 0.304626 0.060242
0.148804 0.306702 0.062286
0.169525 0.309357 0.064667
0.19281 0.311829 0.066986
0.217987 0.314392 0.069397
0.245026 0.316772 0.07193
0.272949 0.319458 0.074463
0.30246 0.32196 0.076996
0.332794 0.324432 0.07959
0.363312 0.327087 0.082153
0.394165 0.329468 0.084656
0.425049 0.331879 0.087219
0.455688 0.334229 0.089691
0.486206 0.336426 0.092163
0.516388 0.338593 0.094574
0.545563 0.340668 0.096985
0.573975 0.342743 0.099335
0.601501 0.344757 0.101562
0.628662 0.346619 0.103943
0.654968 0.348572 0.106201
0.681 0.350342 0.108521
0.70636 0.352325 0.110748
0.731476 0.354095 0.113007
0.756378 0.355835 0.115265
0.781036 0.357666 0.117523
0.060913 0.311401 0.049133
0.067596 0.313477 0.050964
0.075104 0.315338 0.052612
0.083069 0.317444 0.054565
0.092773 0.319458 0.056458
0.103638 0.32193 0.058655
0.117859 0.323944 0.060577
0.133911 0.326447 0.062927
0.15274 0.328857 0.065186
0.173706 0.33139 0.067505
0.196564 0.334137 0.070038
0.221741 0.336731 0.072449
0.248749 0.339142 0.074921
0.276855 0.341766 0.077454
0.306183 0.344421 0.080048
0.336334 0.347046 0.082611
0.367249 0.349518 0.085205
0.398132 0.35202 0.087769
0.428955 0.354401 0.090332
0.459747 0.35672 0.092773
0.490173 0.359009 0.095184
0.520111 0.361298 0.097595
0.549377 0.363373 0.099976
0.577698 0.365448 0.102295
0.605164 0.367493 0.104614
0.631989 0.369568 0.106842
0.658478 0.371429 0.109161
0.684174 0.373413 0.111359
0.709717 0.375183 0.113647
0.734802 0.377014 0.115875
0.759552 0.378815 0.118073
0.784271 0.380646 0.120392
0.065247 0.33197 0.051483
0.071899 0.334045 0.053284
0.080109 0.335571 0.05481
0.087799 0.337891 0.056854
0.097351 0.339996 0.058807
0.107727 0.342743 0.061157
0.122131 0.344696 0.063171
0.138062 0.34726 0.065521
0.156464 0.349945 0.067932
0.177704 0.352448 0.070312
0.2005 0.355194 0.072784
0.225555 0.357849 0.075287
0.25238 0.360443 0.077789
0.280487 0.363098 0.080353
0.309967 0.365692 0.082977
0.340118 0.368347 0.085541
0.370972 0.370911 0.088104
0.401917 0.373444 0.090698
0.432587 0.375946 0.093201
0.463409 0.378296 0.095642
0.493958 0.380524 0.098175
0.523743 0.382904 0.100494
0.552948 0.38501 0.102844
0.581177 0.387115 0.105133
0.608704 0.389221 0.107452
0.635437 0.391266 0.10968
0.661774 0.393188 0.111969
0.687531 0.395111 0.114197
0.713013 0.396973 0.116455
0.737915 0.398865 0.118652
0.762726 0.400726 0.12088
0.787354 0.402527 0.123077
0.069366 0.351471 0.05368
0.076569 0.353271 0.055359
0.08432 0.355042 0.056946
0.092621 0.357056 0.058807
0.10141 0.35968 0.061157
0.112579 0.362 0.063324
0.125854 0.364502 0.065613
0.141754 0.367188 0.068054
0.160065 0.369904 0.070465
0.181122 0.372467 0.072876
0.204224 0.375153 0.075348
0.229248 0.377838 0.077972
0.255798 0.380615 0.080475
0.284088 0.38324 0.083069
0.313385 0.385986 0.085724
0.343933 0.388519 0.088318
0.374451 0.391266 0.090881
0.405334 0.393768 0.093445
0.436249 0.396271 0.095978
0.466858 0.398712 0.098389
0.497437 0.401001 0.100891
0.527374 0.403259 0.103271
0.556244 0.405518 0.10556
0.584564 0.407593 0.10791
0.611908 0.40976 0.110168
0.638885 0.411713 0.112488
0.664886 0.413818 0.114655
0.690735 0.41571 0.116913
0.716034 0.417633 0.11911
0.741058 0.419556 0.121338
0.765778 0.421417 0.123505
0.790283 0.42334 0.125702
0.074188 0.369141 0.055389
0.081024 0.371185 0.057159
0.088531 0.373108 0.058868
0.096832 0.375183 0.060791
0.105469 0.377838 0.063171
0.116486 0.38031 0.06543
0.1297 0.382874 0.06778
0.145416 0.385651 0.070282
0.16391 0.388336 0.072723
0.184723 0.391113 0.075256
0.207916 0.393768 0.07782
0.232635 0.396667 0.080414
0.259369 0.399384 0.083038
0.287415 0.40213 0.085571
0.316742 0.404907 0.088226
0.347046 0.407593 0.090851
0.377716 0.410248 0.093475
0.408661 0.412781 0.096008
0.439545 0.415344 0.098572
0.470337 0.417755 0.101044
0.500793 0.420135 0.103424
0.53064 0.422424 0.105774
0.559601 0.424622 0.108185
0.587769 0.426819 0.110474
0.615143 0.428894 0.112762
0.641907 0.430969 0.11499
0.667999 0.433044 0.117218
0.693695 0.435028 0.119446
0.718933 0.437012 0.121582
0.743805 0.438965 0.123779
0.768494 0.440826 0.125946
0.793091 0.442749 0.128174
0.077728 0.386505 0.057343
0.085754 0.387878 0.058655
0.093262 0.389893 0.060455
0.100616 0.392426 0.062744
0.109772 0.394836 0.064911
0.120026 0.397705 0.067444
0.133179 0.40036 0.069885
0.149261 0.402985 0.072327
0.167267 0.405975 0.075043
0.187958 0.408813 0.077545
0.210876 0.411621 0.080109
0.235809 0.414429 0.082672
0.262451 0.417206 0.085358
0.290771 0.419922 0.087952
0.319977 0.422699 0.090576
0.350281 0.425446 0.093231
0.380829 0.428192 0.095856
0.411926 0.430756 0.098419
0.442657 0.43335 0.100952
0.473389 0.435913 0.103424
0.503937 0.438232 0.105896
0.533722 0.440552 0.108246
0.562744 0.442749 0.110626
0.590698 0.445007 0.112915
0.61795 0.447174 0.115112
0.644714 0.449188 0.117401
0.670776 0.451263 0.119537
0.696472 0.453278 0.121826
0.72168 0.455292 0.123993
0.746613 0.457214 0.12616
0.77124 0.459137 0.128326
0.795715 0.461121 0.130524
0.08255 0.401886 0.058624
0.089294 0.403992 0.060455
0.096588 0.406067 0.062256
0.103973 0.408661 0.064575
0.113098 0.411133 0.066803
0.12381 0.413757 0.069214
0.13681 0.416565 0.071747
0.152252 0.419464 0.074341
0.17041 0.422485 0.076996
0.191223 0.425232 0.079559
0.214081 0.428101 0.082184
0.238861 0.431 0.084869
0.265564 0.433807 0.087524
0.29361 0.436707 0.090179
0.322906 0.439545 0.092865
0.353027 0.442383 0.09549
0.383881 0.445007 0.098083
0.414795 0.447662 0.100677
0.445648 0.450287 0.103271
0.476471 0.452698 0.105682
0.506927 0.45517 0.108154
0.536713 0.457489 0.110535
0.565521 0.459747 0.112823
0.593536 0.461975 0.115143
0.62085 0.464142 0.117432
0.647461 0.466309 0.119629
0.673492 0.468323 0.121857
0.699036 0.470367 0.123993
0.724304 0.472382 0.126221
0.749207 0.474335 0.128357
0.773834 0.476288 0.130554
0.79837 0.47821 0.132782
0.086029 0.416931 0.06015
0.092987 0.418945 0.061951
0.100281 0.421112 0.063843
0.107635 0.423706 0.066193
0.116547 0.4263 0.068512
0.126709 0.42923 0.071106
0.140076 0.431854 0.073517
0.155487 0.434845 0.076202
0.173706 0.437775 0.078827
0.194275 0.440796 0.081512
0.216766 0.443848 0.084259
0.241638 0.446777 0.086914
0.268433 0.449554 0.0896
0.296417 0.452393 0.092224
0.325836 0.455231 0.094879
0.35614 0.458008 0.097565
0.386719 0.460815 0.100189
0.417633 0.463501 0.102814
0.448395 0.466217 0.105347
0.479218 0.468689 0.107819
0.509766 0.471069 0.11026
0.539368 0.473511 0.112671
0.568237 0.475769 0.11499
0.596222 0.477966 0.117279
0.623352 0.480164 0.119507
0.649963 0.482361 0.121765
0.675964 0.484406 0.123932
0.70163 0.48642 0.12616
0.726807 0.488495 0.128296
0.751617 0.490448 0.130493
