site/assets/luts/freshluts--0000831-cold-lut-teal-orange.cube
# LUTr-Schema-Version: 2
# LUTr-ID: freshluts--0000831-cold-lut-teal-orange
# LUTr-Title: cold LUT (Teal - Orange)
# LUTr-Collection: Fresh LUTs
# LUTr-Collection-ID: freshluts-community
# LUTr-Source: https://freshluts.com
# LUTr-Retrieved: 2026-07-27
# LUTr-Source-File: submissions-raw/freshluts/cubes/831__richtige_6.pexels-andrea-piacquadio-839586.cube
# LUTr-Source-Format: CUBE
# LUTr-Source-SHA256: f87c6a48ba8d3829d66249fd1dd5a53fed843846dead8d82e5434311ed714417
# LUTr-License: CC0-1.0
# LUTr-License-URL: https://freshluts.com/termsandconditions
# LUTr-License-Basis: site-terms
# LUTr-Transform-Class: creative-look
# LUTr-Tags: creative, freshluts, community, cube, cool, low-key, panasonic-v-log-l, warm
# LUTr-Input-Color-Space: panasonic-vlogl-vgamut
# LUTr-Input-Gamut: panasonic-v-gamut
# LUTr-Input-Transfer: panasonic-v-log-l
# LUTr-Output-Color-Space: srgb
# LUTr-Output-Gamut: rec709
# LUTr-Output-Transfer: srgb
# LUTr-Color-Space-Confidence: inferred-from-source-label
# LUTr-Domain-Normalized: true
# LUTr-Shaper: none
# LUTr-Original-Grid: 17x17x17
# LUTr-Conversion-Grid: 17x17x17
# LUTr-Conversion-Interpolation: none
# LUTr-Conversion-Method: Metadata normalization; numeric LUT samples preserved
# LUTr-Conversion-Tool: LUTr scripts/convert-all-to-cube.mjs 2.0.0
# LUTr-Conversion-Date: 2026-07-28
# LUTr-Asset-URL: https://freshluts.com/luts/831
# LUTr-Author: LutMaster
# LUTr-Author-URL: https://freshluts.com/users/57203
# LUTr-Attribution: LutMaster via Fresh LUTs
# LUTr-Source-Labels: gamma=Panasonic V-log L; color=Cool; key=Low Key; style=Teal - Orange
# LUTr-Note: Preserve this metadata and the upstream license notices when redistributing.
TITLE "cold LUT (Teal - Orange)"
LUT_3D_SIZE 5
DOMAIN_MIN 0 0 0
DOMAIN_MAX 1 1 1
0.0345312 0.0722057 0.0807813
0.0845197 0.0802625 0.0840314
0.292912 0.0857404 0.076112
0.541634 0.0823682 0.045243
0.799985 0.0734417 0.033814
0.0100252 0.130312 0.093431
0.0875563 0.118654 0.106905
0.32343 0.146029 0.0985885
0.603006 0.155627 0.0719463
0.807889 0.171069 0.0941176
0.0825971 0.27892 0.130465
0.1346 0.280293 0.157992
0.353109 0.323476 0.148119
0.662898 0.340246 0.0990311
0.891035 0.371618 0.121263
0.0801709 0.462989 0.144045
0.162432 0.472068 0.195422
0.43505 0.524025 0.253956
0.687541 0.555779 0.149905
0.90454 0.561746 0.132082
0.119066 0.670405 0.191638
0.195193 0.684825 0.226337
0.510063 0.758633 0.298238
0.785458 0.847623 0.320058
0.979629 0.85716 0.22179
0.0467536 0.0792248 0.118532
0.083299 0.0853437 0.13695
0.319615 0.0838788 0.12163
0.566796 0.0850233 0.0919661
0.787228 0.0932174 0.100252
0.0532692 0.126955 0.142809
0.0749371 0.134218 0.150866
0.325872 0.152285 0.153231
0.593835 0.161471 0.122728
0.820676 0.16643 0.134096
0.0896315 0.284932 0.178378
0.131304 0.294331 0.195026
0.35581 0.332311 0.195758
0.654673 0.347234 0.151385
0.862745 0.38378 0.189639
0.0838788 0.489708 0.198627
0.14963 0.49778 0.229816
0.433326 0.541009 0.277836
0.7131 0.583169 0.213199
0.944091 0.58883 0.179263
0.104829 0.706004 0.233326
0.188693 0.703624 0.268879
0.504082 0.761364 0.3308
0.80267 0.860014 0.38468
0.986282 0.865705 0.250858
0.028397 0.0896468 0.319921
0.0564584 0.0901045 0.323003
0.343755 0.0976577 0.303792
0.641276 0.0964523 0.265095
0.919753 0.0797436 0.244205
0.0304417 0.140688 0.336004
0.0669413 0.147982 0.332967
0.354482 0.166003 0.339437
0.689509 0.164446 0.311971
0.959564 0.149111 0.283604
0.0550088 0.330083 0.383703
0.0883497 0.348913 0.406409
0.237247 0.35848 0.412314
0.663218 0.384192 0.403204
0.883406 0.396246 0.393668
0.037171 0.584817 0.4589
0.0694591 0.590906 0.460853
0.276402 0.561044 0.430243
0.729656 0.627085 0.417838
1 0.621042 0.338598
0.111635 0.754955 0.4748
0.183429 0.760235 0.501137
0.322698 0.788983 0.458518
0.82562 0.898985 0.509224
1 0.922255 0.351614
0.022797 0.107973 0.542275
0.0523842 0.106966 0.540734
0.268223 0.101061 0.5308
0.709636 0.106905 0.481621
0.991363 0.0838941 0.445899
0.0270085 0.163485 0.556176
0.0587015 0.175326 0.573251
0.246754 0.16939 0.569345
0.725216 0.18175 0.521019
0.995407 0.163836 0.492531
0.0323186 0.363119 0.624277
0.0646067 0.382483 0.648936
0.171588 0.386938 0.663218
0.699397 0.399435 0.62414
0.981094 0.397208 0.614237
0.0350652 0.616144 0.718975
0.0666514 0.637522 0.743923
0.17116 0.676936 0.792248
0.644373 0.6813 0.760449
0.999878 0.708888 0.767437
0.0359197 0.896437 0.811643
0.0662394 0.912276 0.83125
0.170581 0.918303 0.829602
0.66482 0.906126 0.773877
1 0.970657 0.778378
0.0164797 0.119036 0.698024
0.0436866 0.118761 0.696483
0.154833 0.101106 0.683665
0.581796 0.123491 0.654108
0.923522 0.0988174 0.589151
0.0223697 0.175158 0.719951
0.0514382 0.18706 0.735256
0.147448 0.171405 0.725948
0.596231 0.192477 0.696193
0.926696 0.170642 0.635264
0.0268559 0.34461 0.749279
0.0547951 0.358923 0.767254
0.144793 0.376043 0.803876
0.529473 0.362768 0.76112
0.856367 0.368154 0.739406
0.0298619 0.548333 0.821241
0.0571908 0.563485 0.840253
0.148043 0.592264 0.879927
0.360906 0.595575 0.895567
0.855451 0.628763 0.875227
0.0317998 0.775937 0.89604
0.0583352 0.791455 0.913329
0.149767 0.818784 0.944274
0.254948 0.847501 0.966995
0.870039 0.872526 0.936706
