site/assets/luts/freshluts--0000943-picturefx-kodachrome-1961-25-asa-xprd-exposure-to-taste.cube
# LUTr-Schema-Version: 2
# LUTr-ID: freshluts--0000943-picturefx-kodachrome-1961-25-asa-xprd-exposure-to-taste
# LUTr-Title: PictureFX-Kodachrome-1961-25-ASA-XPRD (exposure to taste)
# LUTr-Collection: Fresh LUTs
# LUTr-Collection-ID: freshluts-community
# LUTr-Source: https://freshluts.com
# LUTr-Retrieved: 2026-07-27
# LUTr-Source-File: submissions-raw/freshluts/cubes/943__PictureFX-Kodachrome-1961-25-ASA-XPRD-3D25.cube
# LUTr-Source-Format: CUBE
# LUTr-Source-SHA256: 8aa460986d2f6ef0b678bcc23c892aec8c56d470cb19792014054679b1d87fa2
# LUTr-License: CC0-1.0
# LUTr-License-URL: https://freshluts.com/termsandconditions
# LUTr-License-Basis: site-terms
# LUTr-Transform-Class: creative-look
# LUTr-Tags: creative, freshluts, community, cube, film-emulation, rec709, assumed-input
# LUTr-Input-Color-Space: rec709
# LUTr-Input-Gamut: rec709
# LUTr-Input-Transfer: rec709
# LUTr-Output-Color-Space: srgb
# LUTr-Output-Gamut: rec709
# LUTr-Output-Transfer: srgb
# LUTr-Color-Space-Confidence: assumed-display-referred
# LUTr-Domain-Normalized: true
# LUTr-Shaper: none
# LUTr-Original-Grid: 25x25x25
# LUTr-Conversion-Grid: 25x25x25
# LUTr-Conversion-Interpolation: none
# LUTr-Conversion-Method: Metadata normalization; numeric LUT samples preserved
# LUTr-Conversion-Tool: LUTr scripts/convert-all-to-cube.mjs 2.0.0
# LUTr-Conversion-Date: 2026-07-28
# LUTr-Asset-URL: https://freshluts.com/luts/943
# LUTr-Author: MarcR.
# LUTr-Author-URL: https://freshluts.com/users/86490
# LUTr-Attribution: MarcR. via Fresh LUTs
# LUTr-Source-Labels: gamma=Other; color=None; key=Neutral; style=Film emulation; LUTr assumption=input Rec.709 per repository policy
# LUTr-Conversion-Warning: Input Rec.709 is a LUTr catalog assumption requested for this otherwise unspecified Fresh LUT; it is not verified by the upstream asset.
# LUTr-Note: Preserve this metadata and the upstream license notices when redistributing.
# LUTr-Upstream-Comment: Generated with IWLTBAP LUT Generator
# LUTr-Upstream-Comment: Website: http://luts.iwltbap.com
# LUTr-Upstream-Comment: LUT size
# LUTr-Upstream-Comment: LUT data points
TITLE "PictureFX-Kodachrome-1961-25-ASA-XPRD (exposure to taste)"
LUT_3D_SIZE 9
DOMAIN_MIN 0 0 0
DOMAIN_MAX 1 1 1
0 0 0
0.078431 0 0
0.164706 0 0
0.25098 0 0
0.423529 0 0
0.827451 0 0
1 0 0
1 0 0
1 0 0
0 0.07451 0
0.07451 0.07451 0
0.160784 0.070588 0
0.254902 0.070588 0
0.458824 0.094118 0
0.85098 0.12549 0
1 0.129412 0
1 0.129412 0
1 0.129412 0
0 0.160784 0
0.070588 0.164706 0
0.172549 0.172549 0
0.305882 0.196078 0
0.545098 0.25098 0
0.890196 0.278431 0
1 0.262745 0
1 0.258824 0
1 0.258824 0
0 0.364706 0
0.109804 0.368627 0
0.235294 0.384314 0
0.403922 0.407843 0
0.643137 0.466667 0
0.913725 0.490196 0
1 0.470588 0
1 0.443137 0
1 0.423529 0
0 0.690196 0
0.129412 0.694118 0
0.262745 0.694118 0
0.447059 0.698039 0
0.678431 0.701961 0
0.913725 0.701961 0
1 0.694118 0
1 0.678431 0
1 0.666667 0
0 0.929412 0
0.12549 0.929412 0
0.254902 0.92549 0
0.380392 0.92549 0
0.635294 0.917647 0
0.87451 0.898039 0
1 0.87451 0
1 0.85098 0
1 0.831373 0
0 1 0
0.113725 1 0
0.235294 1 0
0.352941 1 0
0.564706 1 0
0.792157 1 0
0.972549 0.988235 0
1 0.956863 0
1 0.937255 0
0 1 0
0.101961 1 0
0.211765 1 0
0.321569 1 0
0.505882 1 0
0.713725 1 0
0.882353 1 0
1 1 0
1 1 0
0 1 0
0.094118 1 0
0.2 1 0
0.305882 1 0
0.513725 1 0
0.686275 1 0
0.827451 1 0
0.945098 1 0
1 1 0
0 0 0.078431
0.078431 0 0.078431
0.164706 0 0.07451
0.25098 0 0.070588
0.435294 0 0.086275
0.839216 0 0.12549
1 0 0.129412
1 0 0.129412
1 0 0.129412
0 0.07451 0.07451
0.070588 0.070588 0.070588
0.160784 0.070588 0.070588
0.258824 0.070588 0.070588
0.470588 0.094118 0.094118
0.862745 0.12549 0.12549
1 0.129412 0.129412
1 0.129412 0.129412
1 0.129412 0.129412
0 0.160784 0.070588
0.070588 0.164706 0.070588
0.172549 0.172549 0.078431
0.305882 0.196078 0.090196
0.54902 0.243137 0.113725
0.898039 0.262745 0.129412
1 0.262745 0.129412
1 0.258824 0.129412
1 0.258824 0.129412
0 0.368627 0.105882
0.109804 0.372549 0.109804
0.235294 0.384314 0.113725
0.403922 0.407843 0.121569
0.647059 0.462745 0.129412
0.917647 0.482353 0.129412
1 0.462745 0.129412
1 0.431373 0.129412
1 0.407843 0.129412
0 0.694118 0.129412
0.129412 0.694118 0.129412
0.262745 0.698039 0.129412
0.443137 0.701961 0.129412
0.678431 0.701961 0.129412
0.917647 0.701961 0.129412
1 0.690196 0.12549
1 0.67451 0.12549
1 0.658824 0.121569
0 0.929412 0.12549
0.12549 0.929412 0.12549
0.254902 0.929412 0.12549
0.380392 0.92549 0.12549
0.635294 0.917647 0.12549
0.87451 0.898039 0.121569
1 0.87451 0.117647
1 0.847059 0.113725
1 0.831373 0.113725
0 1 0.113725
0.113725 1 0.113725
0.235294 1 0.113725
0.352941 1 0.113725
0.560784 1 0.113725
0.792157 1 0.109804
0.972549 0.988235 0.105882
1 0.956863 0.101961
1 0.933333 0.098039
0 1 0.101961
0.101961 1 0.101961
0.211765 1 0.101961
0.321569 1 0.101961
0.505882 1 0.098039
0.713725 1 0.098039
0.882353 1 0.094118
1 1 0.090196
1 1 0.090196
0 1 0.094118
0.094118 1 0.094118
0.2 1 0.094118
0.305882 1 0.094118
0.521569 1 0.094118
0.690196 1 0.090196
0.831373 1 0.086275
0.945098 1 0.082353
1 1 0.082353
0 0 0.176471
0.078431 0 0.172549
0.164706 0 0.164706
0.254902 0 0.160784
0.454902 0 0.207843
0.862745 0 0.27451
1 0 0.262745
1 0 0.258824
1 0 0.258824
0 0.07451 0.164706
0.070588 0.070588 0.164706
0.160784 0.070588 0.160784
0.262745 0.070588 0.168627
0.494118 0.098039 0.219608
0.890196 0.129412 0.258824
1 0.129412 0.262745
1 0.129412 0.258824
1 0.129412 0.258824
0 0.164706 0.164706
0.07451 0.168627 0.168627
0.176471 0.176471 0.176471
0.317647 0.196078 0.196078
0.572549 0.231373 0.231373
0.921569 0.262745 0.262745
1 0.262745 0.262745
1 0.258824 0.258824
1 0.258824 0.258824
0 0.372549 0.227451
0.109804 0.376471 0.227451
0.235294 0.392157 0.235294
0.407843 0.411765 0.247059
0.666667 0.458824 0.262745
0.937255 0.458824 0.262745
1 0.427451 0.258824
1 0.392157 0.258824
1 0.384314 0.254902
0 0.698039 0.262745
0.129412 0.698039 0.262745
0.262745 0.701961 0.262745
0.423529 0.701961 0.262745
0.682353 0.701961 0.258824
0.933333 0.694118 0.258824
1 0.678431 0.254902
1 0.658824 0.25098
1 0.647059 0.247059
0 0.933333 0.254902
0.12549 0.929412 0.254902
0.254902 0.929412 0.254902
0.380392 0.929412 0.254902
0.627451 0.917647 0.25098
0.878431 0.898039 0.247059
1 0.870588 0.239216
1 0.843137 0.235294
1 0.823529 0.231373
0 1 0.235294
0.113725 1 0.235294
0.235294 1 0.231373
0.352941 1 0.231373
0.556863 1 0.231373
0.792157 1 0.223529
0.976471 0.988235 0.215686
1 0.952941 0.211765
1 0.933333 0.207843
0 1 0.211765
0.101961 1 0.211765
0.211765 1 0.211765
0.321569 1 0.211765
0.513725 1 0.207843
0.721569 1 0.203922
0.886275 1 0.196078
1 1 0.192157
1 1 0.192157
0 1 0.2
0.094118 1 0.2
0.2 1 0.2
0.309804 1 0.2
0.52549 1 0.196078
0.694118 1 0.192157
0.831373 1 0.188235
0.945098 1 0.180392
1 1 0.176471
0 0 0.282353
0.07451 0 0.278431
0.168627 0 0.270588
0.270588 0 0.27451
0.486275 0 0.360784
0.886275 0 0.498039
1 0 0.501961
1 0 0.466667
1 0 0.419608
0 0.070588 0.27451
0.070588 0.070588 0.270588
0.168627 0.070588 0.270588
0.286275 0.07451 0.290196
0.52549 0.101961 0.384314
0.905882 0.129412 0.498039
1 0.129412 0.490196
1 0.129412 0.45098
1 0.129412 0.407843
0 0.176471 0.290196
0.078431 0.176471 0.294118
0.176471 0.180392 0.305882
0.341176 0.2 0.345098
0.607843 0.239216 0.427451
0.945098 0.262745 0.478431
1 0.262745 0.45098
1 0.258824 0.419608
1 0.258824 0.4
0 0.392157 0.396078
0.113725 0.396078 0.4
0.239216 0.403922 0.411765
0.415686 0.419608 0.427451
0.701961 0.423529 0.439216
0.964706 0.4 0.435294
1 0.392157 0.419608
1 0.388235 0.403922
1 0.384314 0.388235
0 0.701961 0.466667
0.129412 0.705882 0.458824
0.262745 0.709804 0.439216
0.392157 0.709804 0.423529
0.690196 0.701961 0.411765
0.94902 0.682353 0.4
1 0.662745 0.388235
1 0.643137 0.376471
1 0.635294 0.372549
0 0.933333 0.388235
0.12549 0.933333 0.384314
0.254902 0.933333 0.384314
0.380392 0.929412 0.380392
0.623529 0.917647 0.376471
0.882353 0.898039 0.368627
1 0.866667 0.360784
1 0.839216 0.352941
1 0.823529 0.34902
0 1 0.352941
0.113725 1 0.352941
0.231373 1 0.352941
0.352941 1 0.352941
0.556863 1 0.34902
0.792157 1 0.341176
0.976471 0.984314 0.329412
1 0.952941 0.321569
1 0.933333 0.317647
0 1 0.329412
0.101961 1 0.329412
0.211765 1 0.329412
0.321569 1 0.32549
0.517647 1 0.321569
0.717647 1 0.313725
0.882353 1 0.309804
1 1 0.301961
1 1 0.313725
0 1 0.384314
0.094118 1 0.384314
0.2 1 0.384314
0.32549 1 0.384314
0.529412 1 0.380392
0.690196 1 0.376471
0.827451 1 0.372549
0.937255 1 0.368627
1 1 0.368627
0 0 0.454902
0.070588 0 0.45098
0.176471 0 0.462745
0.352941 0 0.529412
0.6 0 0.635294
0.905882 0 0.733333
1 0 0.74902
1 0 0.737255
1 0 0.717647
0 0.070588 0.458824
0.070588 0.070588 0.462745
0.172549 0.07451 0.478431
0.368627 0.094118 0.560784
0.623529 0.117647 0.658824
0.921569 0.129412 0.737255
1 0.129412 0.745098
1 0.129412 0.733333
1 0.129412 0.713725
0 0.196078 0.533333
0.086275 0.188235 0.533333
0.196078 0.196078 0.560784
0.4 0.223529 0.623529
0.670588 0.25098 0.701961
0.945098 0.262745 0.741176
1 0.262745 0.737255
1 0.258824 0.721569
1 0.258824 0.709804
0 0.458824 0.705882
0.12549 0.45098 0.705882
0.25098 0.439216 0.709804
0.396078 0.419608 0.717647
0.701961 0.415686 0.745098
0.968627 0.392157 0.741176
1 0.388235 0.729412
1 0.388235 0.721569
1 0.384314 0.717647
0 0.709804 0.74902
0.129412 0.709804 0.74902
0.262745 0.709804 0.74902
0.392157 0.709804 0.74902
0.678431 0.701961 0.745098
0.941176 0.682353 0.733333
1 0.662745 0.717647
1 0.65098 0.705882
1 0.643137 0.698039
0 0.933333 0.717647
0.12549 0.929412 0.717647
0.25098 0.929412 0.713725
0.376471 0.92549 0.717647
0.615686 0.913725 0.709804
0.87451 0.894118 0.694118
1 0.866667 0.678431
1 0.839216 0.662745
1 0.823529 0.654902
0 1 0.666667
0.113725 1 0.666667
0.231373 1 0.666667
0.34902 1 0.662745
0.545098 1 0.658824
0.780392 1 0.643137
0.964706 0.980392 0.623529
1 0.94902 0.607843
1 0.929412 0.607843
0 1 0.623529
0.101961 1 0.623529
0.211765 1 0.623529
0.317647 1 0.619608
0.505882 1 0.611765
0.709804 1 0.6
0.870588 1 0.592157
1 1 0.580392
1 0.992157 0.580392
0 1 0.627451
0.094118 1 0.627451
0.2 1 0.627451
0.341176 1 0.623529
0.533333 1 0.619608
0.686275 1 0.611765
0.815686 1 0.6
0.929412 1 0.588235
1 1 0.580392
0 0 0.678431
0.078431 0 0.694118
0.184314 0 0.729412
0.384314 0 0.823529
0.654902 0 0.937255
0.92549 0 0.996078
1 0 1
1 0 0.996078
1 0 0.980392
0 0.086275 0.721569
0.086275 0.086275 0.733333
0.196078 0.094118 0.768627
0.388235 0.105882 0.847059
0.662745 0.12549 0.952941
0.929412 0.133333 0.996078
1 0.129412 1
1 0.129412 0.992157
1 0.129412 0.976471
0 0.211765 0.815686
0.101961 0.215686 0.827451
0.223529 0.223529 0.85098
0.392157 0.235294 0.905882
0.682353 0.258824 0.984314
0.945098 0.262745 1
1 0.258824 1
1 0.258824 0.992157
1 0.254902 0.976471
0 0.454902 0.980392
0.129412 0.447059 0.980392
0.258824 0.431373 0.980392
0.388235 0.423529 0.992157
0.678431 0.411765 1
0.94902 0.392157 1
1 0.388235 1
1 0.384314 0.988235
1 0.380392 0.976471
0 0.701961 1
0.129412 0.701961 1
0.262745 0.698039 1
0.392157 0.698039 1
0.658824 0.694118 1
0.921569 0.678431 1
1 0.658824 0.984314
1 0.647059 0.964706
1 0.643137 0.945098
0 0.92549 0.984314
0.12549 0.92549 0.984314
0.25098 0.921569 0.984314
0.376471 0.917647 0.980392
0.588235 0.909804 0.976471
0.854902 0.890196 0.956863
1 0.858824 0.929412
1 0.831373 0.901961
1 0.819608 0.890196
0 1 0.909804
0.113725 1 0.909804
0.231373 1 0.909804
0.345098 1 0.905882
0.517647 1 0.898039
0.760784 1 0.878431
0.945098 0.976471 0.854902
1 0.941176 0.831373
1 0.921569 0.823529
0 1 0.835294
0.098039 1 0.835294
0.207843 1 0.835294
0.317647 1 0.831373
0.494118 1 0.827451
0.694118 1 0.811765
0.858824 1 0.796078
0.988235 1 0.780392
1 0.988235 0.776471
0 1 0.811765
0.094118 1 0.815686
0.196078 1 0.815686
0.384314 1 0.815686
0.54902 1 0.807843
0.690196 1 0.796078
0.811765 1 0.780392
0.917647 1 0.768627
1 1 0.752941
0 0 0.992157
0.101961 0 1
0.219608 0 1
0.376471 0 1
0.666667 0 1
0.929412 0 1
1 0 1
1 0 1
1 0 1
0 0.101961 1
0.105882 0.105882 1
0.227451 0.109804 1
0.380392 0.117647 1
0.670588 0.129412 1
0.929412 0.129412 1
1 0.129412 1
1 0.129412 1
1 0.129412 1
0 0.235294 1
0.117647 0.235294 1
0.243137 0.243137 1
0.376471 0.25098 1
0.67451 0.262745 1
0.937255 0.262745 1
1 0.258824 1
1 0.258824 1
1 0.254902 1
0 0.439216 1
0.129412 0.435294 1
0.262745 0.431373 1
0.392157 0.423529 1
0.662745 0.403922 1
0.933333 0.392157 1
1 0.388235 1
1 0.384314 1
1 0.380392 1
0 0.694118 1
0.129412 0.694118 1
0.258824 0.694118 1
0.392157 0.694118 1
0.647059 0.690196 1
0.905882 0.67451 1
1 0.658824 1
1 0.643137 1
1 0.643137 1
0 0.913725 1
0.12549 0.913725 1
0.25098 0.913725 1
0.376471 0.909804 1
0.580392 0.898039 1
0.835294 0.878431 1
1 0.85098 1
1 0.823529 1
1 0.815686 1
0 1 1
0.109804 1 1
0.227451 1 1
0.345098 1 1
0.501961 1 1
0.745098 0.996078 1
0.929412 0.968627 1
1 0.937255 1
1 0.917647 0.996078
0 1 1
0.098039 1 1
0.207843 1 1
0.313725 1 1
0.482353 1 1
0.690196 1 0.984314
0.847059 1 0.968627
0.972549 1 0.94902
1 0.980392 0.937255
0 1 0.960784
0.094118 1 0.960784
0.196078 1 0.960784
0.4 1 0.956863
0.572549 1 0.952941
0.709804 1 0.945098
0.815686 1 0.929412
0.909804 1 0.913725
0.988235 1 0.898039
0 0 1
0.109804 0 1
0.235294 0 1
0.439216 0 1
0.682353 0 1
0.92549 0 1
1 0 1
1 0 1
1 0 1
0 0.113725 1
0.113725 0.113725 1
0.239216 0.117647 1
0.443137 0.12549 1
0.682353 0.129412 1
0.92549 0.129412 1
1 0.129412 1
1 0.129412 1
1 0.129412 1
0 0.243137 1
0.121569 0.247059 1
0.25098 0.25098 1
0.435294 0.258824 1
0.67451 0.262745 1
0.929412 0.262745 1
1 0.258824 1
1 0.254902 1
1 0.254902 1
0 0.427451 1
0.129412 0.423529 1
0.262745 0.423529 1
0.392157 0.415686 1
0.666667 0.4 1
0.92549 0.392157 1
1 0.388235 1
1 0.384314 1
1 0.380392 1
0 0.690196 1
0.129412 0.690196 1
0.258824 0.694118 1
0.388235 0.694118 1
0.654902 0.686275 1
0.898039 0.67451 1
1 0.662745 1
1 0.647059 1
1 0.643137 1
0 0.905882 1
0.12549 0.905882 1
0.25098 0.901961 1
0.376471 0.898039 1
0.6 0.890196 1
0.831373 0.87451 1
1 0.85098 1
1 0.827451 1
1 0.815686 1
0 1 1
0.113725 1 1
0.227451 1 1
0.345098 1 1
0.533333 1 1
0.752941 0.988235 1
0.921569 0.964706 1
1 0.937255 1
1 0.917647 1
0 1 1
0.098039 1 1
0.203922 1 1
0.313725 1 1
0.498039 1 1
0.694118 1 1
0.847059 1 1
0.964706 1 1
1 0.984314 1
0 1 1
0.094118 1 1
0.219608 1 1
0.419608 1 1
0.584314 1 1
0.721569 1 1
0.831373 1 0.980392
0.913725 1 0.964706
0.980392 1 0.94902
0 0 1
0.156863 0 1
0.333333 0 1
0.52549 0 1
0.729412 0 1
0.92549 0 1
1 0 1
1 0 1
1 0 1
0 0.117647 1
0.141176 0.121569 1
0.333333 0.12549 1
0.529412 0.129412 1
0.729412 0.133333 1
0.92549 0.129412 1
1 0.129412 1
1 0.129412 1
1 0.12549 1
0 0.254902 1
0.12549 0.254902 1
0.309804 0.258824 1
0.517647 0.262745 1
0.721569 0.262745 1
0.917647 0.262745 1
1 0.258824 1
1 0.254902 1
1 0.254902 1
0 0.419608 1
0.133333 0.419608 1
0.262745 0.419608 1
0.423529 0.415686 1
0.682353 0.407843 1
0.913725 0.396078 1
1 0.396078 1
1 0.4 1
1 0.415686 1
0 0.694118 1
0.129412 0.698039 1
0.258824 0.694118 1
0.415686 0.694118 1
0.678431 0.690196 1
0.890196 0.682353 1
1 0.67451 1
1 0.662745 1
1 0.662745 1
0 0.890196 1
0.12549 0.890196 1
0.25098 0.890196 1
0.403922 0.890196 1
0.654902 0.886275 1
0.839216 0.870588 1
1 0.854902 1
1 0.835294 1
1 0.819608 1
0 1 1
0.113725 1 1
0.231373 1 1
0.392157 1 1
0.615686 0.992157 1
0.788235 0.976471 1
0.917647 0.960784 1
1 0.937255 1
1 0.921569 1
0 1 1
0.101961 1 1
0.207843 1 1
0.419608 1 1
0.596078 1 1
0.74902 1 1
0.870588 1 1
0.960784 1 1
1 0.980392 1
0.141176 1 1
0.227451 1 1
0.352941 1 1
0.486275 1 1
0.619608 1 1
0.737255 1 1
0.839216 1 1
0.913725 1 1
0.976471 1 1
