site/assets/luts/freshluts--0000751-alonelut.cube
# LUTr-Schema-Version: 2
# LUTr-ID: freshluts--0000751-alonelut
# LUTr-Title: Alone(lut)
# LUTr-Collection: Fresh LUTs
# LUTr-Collection-ID: freshluts-community
# LUTr-Source: https://freshluts.com
# LUTr-Retrieved: 2026-07-27
# LUTr-Source-File: submissions-raw/freshluts/cubes/751__alone_61.A012_10161348_C005.cube
# LUTr-Source-Format: CUBE
# LUTr-Source-SHA256: c7b5701ba566a7c051f5c1e33fb1eee97956659c9f5e2ad6857b427fff3943e7
# LUTr-License: CC0-1.0
# LUTr-License-URL: https://freshluts.com/termsandconditions
# LUTr-License-Basis: site-terms
# LUTr-Transform-Class: creative-look
# LUTr-Tags: creative, freshluts, community, cube, green, low-key, bmd-film
# LUTr-Input-Color-Space: bmd-film
# LUTr-Input-Gamut: bmd-film-gamut
# LUTr-Input-Transfer: bmd-film
# LUTr-Output-Color-Space: srgb
# LUTr-Output-Gamut: rec709
# LUTr-Output-Transfer: srgb
# LUTr-Color-Space-Confidence: inferred-from-source-label
# LUTr-Domain-Normalized: true
# LUTr-Shaper: none
# LUTr-Original-Grid: 33x33x33
# LUTr-Conversion-Grid: 33x33x33
# LUTr-Conversion-Interpolation: none
# LUTr-Conversion-Method: Metadata normalization; numeric LUT samples preserved
# LUTr-Conversion-Tool: LUTr scripts/convert-all-to-cube.mjs 2.0.0
# LUTr-Conversion-Date: 2026-07-28
# LUTr-Asset-URL: https://freshluts.com/luts/751
# LUTr-Author: lvannoeun@gmail.com
# LUTr-Author-URL: https://freshluts.com/users/57563
# LUTr-Attribution: lvannoeun@gmail.com via Fresh LUTs
# LUTr-Source-Labels: gamma=Blackmagic BMD Film; color=Green; key=Low Key; style=Cinematic/Dark
# LUTr-Note: Preserve this metadata and the upstream license notices when redistributing.
TITLE "Alone(lut)"
LUT_3D_SIZE 33
DOMAIN_MIN 0 0 0
DOMAIN_MAX 1 1 1
0 0.00125124 0.0473945
0.00131228 0.000366217 0.0431525
0.0333104 0 0.0411231
0.062501 0 0.0422065
0.0936599 0 0.0446479
0.127962 0 0.0471962
0.16492 0 0.0491493
0.203418 0 0.0502937
0.24303 0 0.0507973
0.282338 0 0.050721
0.315679 0 0.0501564
0.348074 0 0.0496223
0.37998 0 0.049134
0.41146 0 0.0487221
0.441566 0 0.0484474
0.469108 0 0.0484169
0.492836 0 0.0488289
0.511162 0 0.0499428
0.522683 0 0.0520638
0.527901 0.00122072 0.0551003
0.529488 0.00885023 0.058732
0.529992 0.0166781 0.0626993
0.530755 0.0242618 0.0668193
0.532143 0.0313878 0.0709239
0.534218 0.0383459 0.0751354
0.552621 0.0406653 0.0772106
0.571954 0.0427253 0.0791791
0.591226 0.0448005 0.0811475
0.610437 0.046891 0.0831159
0.629587 0.0489967 0.0850996
0.648692 0.051133 0.0870985
0.66775 0.0532692 0.0890974
0.686748 0.0554055 0.0911421
0 0.031693 0.0522316
0.00605783 0.0297551 0.0476539
0.0374456 0.0294041 0.0450141
0.0635691 0.0304723 0.045182
0.0902571 0.0312047 0.0471656
0.12047 0.030869 0.0491798
0.154452 0.0294804 0.0505379
0.191318 0.0273289 0.0510567
0.22977 0.0247807 0.0508583
0.269215 0.0219883 0.0501259
0.308125 0.019379 0.0491188
0.341222 0.0184482 0.0485237
0.373434 0.017792 0.0480354
0.405158 0.017258 0.0476234
0.436454 0.0168307 0.0473182
0.466209 0.016846 0.0472419
0.493294 0.0176089 0.0476081
0.516426 0.019501 0.048661
0.533806 0.0229496 0.050721
0.544228 0.0281376 0.0539712
0.548867 0.0348211 0.0583047
0.550423 0.042237 0.0633097
0.551171 0.0497749 0.0685435
0.552193 0.0569009 0.0736706
0.553872 0.0638895 0.0788128
0.557061 0.0704356 0.0837568
0.576364 0.0725109 0.0856794
0.595621 0.0746014 0.0876326
0.614816 0.0766918 0.0895857
0.633951 0.0787976 0.0915999
0.65304 0.0809339 0.0936294
0.672068 0.0830701 0.0956741
0.691051 0.0852216 0.0977188
0 0.0639048 0.0575265
0.00663767 0.0605478 0.0540169
0.0422827 0.058854 0.052079
0.0703746 0.0593576 0.0522316
0.0937667 0.0610971 0.0537423
0.119631 0.06215 0.0548714
0.149432 0.0621347 0.0550546
0.183032 0.0610819 0.0543069
0.219409 0.059266 0.0528573
0.257374 0.057023 0.0509804
0.296391 0.0545052 0.0488594
0.333639 0.0524605 0.0471046
0.366247 0.0516976 0.0464485
0.398154 0.0511177 0.0459602
0.429648 0.0506447 0.0455634
0.460594 0.0503243 0.045304
0.489815 0.0504768 0.0454719
0.516243 0.0514076 0.0463111
0.538338 0.0534981 0.0481727
0.554345 0.0570687 0.0513466
0.563714 0.0623178 0.0560006
0.567941 0.0688945 0.0618296
0.56965 0.076051 0.0682231
0.570779 0.0830701 0.0745251
0.572274 0.0899825 0.080766
0.57435 0.0967422 0.0869459
0.580682 0.102342 0.092134
0.599924 0.104417 0.0941329
0.61912 0.106508 0.0961471
0.63827 0.108614 0.0981765
0.657359 0.110735 0.100221
0.676387 0.112871 0.102281
0.695354 0.115038 0.104341
0 0.0979629 0.0610361
0 0.093904 0.0593271
0.0411536 0.0901961 0.0580301
0.0741436 0.0891432 0.0591592
0.100587 0.0899367 0.0612192
0.124269 0.0916457 0.0621958
0.150134 0.0928969 0.0614481
0.179721 0.0931563 0.0594339
0.212879 0.0924544 0.0565347
0.248539 0.0910201 0.0532692
0.285786 0.0891585 0.0499275
0.324163 0.0869459 0.04654
0.358862 0.0856489 0.044892
0.391028 0.085008 0.0442664
0.422675 0.0845045 0.0438087
0.453925 0.0840925 0.043473
0.484443 0.0838941 0.0433814
0.512993 0.0842145 0.0439307
0.53843 0.0853742 0.0454108
0.558892 0.0876936 0.0482032
0.573327 0.0914778 0.0526894
0.581613 0.0968185 0.0588846
0.585489 0.103258 0.0662852
0.587549 0.109911 0.0738689
0.589258 0.116625 0.0814069
0.591363 0.123262 0.0887617
0.594003 0.129763 0.0958877
0.604196 0.134249 0.100649
0.623346 0.136355 0.102647
0.642451 0.138476 0.104662
0.661509 0.140612 0.106691
0.680522 0.142763 0.108736
0.699474 0.14493 0.110796
0 0.133654 0.0616922
0 0.129335 0.0612345
0.0323796 0.124193 0.0603494
0.0706493 0.121508 0.0619516
0.101778 0.120851 0.0644846
0.128374 0.121614 0.0663462
0.153506 0.123003 0.0662699
0.180301 0.124117 0.0641031
0.210163 0.124468 0.0604715
0.243 0.123995 0.0560922
0.277958 0.122911 0.0516365
0.314504 0.121355 0.0471962
0.351232 0.119677 0.0434424
0.383719 0.118975 0.0425116
0.415518 0.118425 0.0419318
0.446906 0.117998 0.0414893
0.477958 0.117647 0.0411841
0.507805 0.117617 0.0413672
0.53547 0.118166 0.0424964
0.559258 0.11957 0.0449226
0.577966 0.122133 0.0490272
0.590784 0.126146 0.0551308
0.598108 0.131533 0.063035
0.601923 0.137636 0.0717479
0.604395 0.143969 0.0805524
0.606806 0.150378 0.0892042
0.609613 0.15671 0.0975357
0.612924 0.162921 0.105516
0.627573 0.166201 0.109178
0.646677 0.168322 0.111192
0.665705 0.170459 0.113237
0.684703 0.17261 0.115282
0.703655 0.174777 0.117342
0 0.170397 0.059968
0 0.165927 0.0601816
0.0175784 0.160281 0.0595102
0.0605783 0.156222 0.0607919
0.0962844 0.154208 0.0634012
0.127031 0.153674 0.0657969
0.154604 0.154238 0.066743
0.181384 0.155261 0.0655528
0.209445 0.1561 0.0623331
0.239796 0.15639 0.0577859
0.272389 0.156069 0.0527352
0.306859 0.1552 0.0475166
0.34287 0.153887 0.0423438
0.37615 0.153048 0.0404059
0.408042 0.152499 0.0396582
0.439521 0.152041 0.0392004
0.47068 0.151659 0.03888
0.501305 0.151415 0.0388342
0.530404 0.151568 0.0396277
0.556542 0.152361 0.0415961
0.578531 0.15404 0.0451972
0.595438 0.156893 0.0508583
0.606653 0.16112 0.0587778
0.613199 0.1664 0.0682994
0.617182 0.172152 0.0782635
0.620356 0.178195 0.0882734
0.62359 0.184268 0.0979477
0.627176 0.190265 0.107149
0.631739 0.196048 0.115679
0.650828 0.198184 0.117708
0.669856 0.20032 0.119753
0.688838 0.202472 0.121798
0.707774 0.204639 0.123857
0 0.206653 0.057084
0 0.203418 0.0566567
0 0.19826 0.0568856
0.0457008 0.19266 0.0567941
0.0850843 0.189593 0.058854
0.119677 0.18793 0.0612039
0.150729 0.187396 0.0628061
0.179629 0.187671 0.0627298
0.208087 0.188281 0.0606699
0.237446 0.188785 0.0569467
0.268437 0.188907 0.0521706
0.301122 0.188586 0.0468605
0.335409 0.187808 0.0413977
0.368826 0.187015 0.0385443
0.400748 0.186465 0.037705
0.432288 0.185992 0.037171
0.463508 0.185611 0.03682
0.494438 0.18529 0.0366064
0.524392 0.185214 0.0370794
0.552117 0.185611 0.0386816
0.576455 0.186648 0.0418097
0.596521 0.188647 0.046952
0.61146 0.191806 0.0545357
0.621256 0.19617 0.0643015
0.627237 0.201236 0.0751202
0.631739 0.206775 0.086305
0.635721 0.212482 0.0972763
0.639811 0.218219 0.107729
0.64416 0.223926 0.117678
0.65481 0.228107 0.124071
0.673838 0.230259 0.126101
0.692805 0.23241 0.128161
0.711727 0.234577 0.130236
0 0.241291 0.0547951
0 0.239384 0.0533761
0 0.236622 0.0517739
0.0269017 0.230457 0.0508583
0.0697948 0.226444 0.0520638
0.107546 0.223896 0.0539101
0.141772 0.222416 0.0554971
0.173434 0.22179 0.0560922
0.203632 0.221759 0.0552377
0.233539 0.221973 0.0528115
0.264057 0.222141 0.0490272
0.295705 0.222065 0.0443122
0.328725 0.221637 0.0390631
0.36144 0.221027 0.0364538
0.393362 0.220493 0.0355993
0.424949 0.220005 0.03505
0.456245 0.219593 0.0346838
0.487312 0.219226 0.0344396
0.517754 0.219028 0.0346838
0.546548 0.219165 0.0359808
0.572519 0.219791 0.0387121
0.594949 0.221149 0.0433814
0.612985 0.223453 0.0504768
0.626017 0.226902 0.0602121
0.634577 0.231174 0.0715038
0.640772 0.236088 0.0837262
0.645884 0.241337 0.0959487
0.650752 0.246708 0.107683
0.655741 0.25211 0.118807
0.66096 0.257496 0.129305
0.677897 0.260136 0.132586
0.696849 0.262303 0.134646
0.71577 0.264469 0.136721
0 0.275639 0.0527504
0 0.27393 0.0512398
0 0.271687 0.0493477
0.00920119 0.267811 0.0461128
0.0518959 0.264164 0.0441596
0.0924849 0.260822 0.0454719
0.129458 0.258549 0.0469062
0.163684 0.257145 0.0477913
0.196033 0.256397 0.0476692
0.227344 0.256092 0.0462501
0.258412 0.255985 0.0435492
0.289891 0.255863 0.0396887
0.322118 0.255558 0.0355993
0.354162 0.255024 0.034226
0.385962 0.25452 0.0333867
0.417517 0.254047 0.0328069
0.448798 0.253635 0.0323949
0.479881 0.253285 0.032105
0.510552 0.253025 0.0322118
0.540032 0.25301 0.0332952
0.567147 0.253346 0.0357519
0.591318 0.254246 0.0400549
0.611704 0.255909 0.0467536
0.627665 0.258549 0.0562295
0.638895 0.262028 0.0677348
0.647089 0.26627 0.0807507
0.653773 0.270954 0.0940261
0.659724 0.275883 0.106981
0.665553 0.280903 0.11928
0.671382 0.286 0.130938
0.681804 0.290089 0.138933
0.700755 0.292256 0.141009
0.719676 0.294423 0.143099
0 0.310002 0.0504311
0 0.308431 0.0489509
0 0.306386 0.0471656
0 0.303349 0.0445106
0.0407568 0.299413 0.0410773
0.0789349 0.297078 0.0393988
0.115343 0.295216 0.0383917
0.150851 0.293538 0.0381781
0.185351 0.292119 0.0384222
0.218387 0.291234 0.037705
0.250614 0.290684 0.0358587
0.28278 0.290166 0.0340276
0.314916 0.289586 0.0328527
0.346899 0.289036 0.0319371
0.378683 0.288518 0.03122
0.410239 0.288045 0.0306706
0.441535 0.287633 0.0302586
0.472648 0.287266 0.0299687
0.503426 0.286976 0.0300298
0.533318 0.286854 0.0310369
0.561227 0.287022 0.0333562
0.586603 0.287587 0.0374304
0.608774 0.288777 0.0438239
0.627054 0.290761 0.0530251
0.640787 0.293538 0.0646677
0.651194 0.297078 0.0780957
0.659571 0.301152 0.092256
0.666865 0.305577 0.106279
0.673732 0.310185 0.119707
0.680476 0.3149 0.132387
0.687221 0.319692 0.14435
0.704768 0.322164 0.147478
0.723674 0.324346 0.149538
0 0.343648 0.0491493
0 0.342611 0.0471809
0 0.340826 0.045304
0 0.338186 0.0428626
0.0309911 0.334127 0.0390631
0.0696117 0.331716 0.0369573
0.106065 0.329885 0.035462
0.141299 0.328389 0.0343175
0.175631 0.327138 0.0333715
0.209277 0.32607 0.0325475
0.242344 0.325185 0.0317235
0.274983 0.324422 0.0309148
0.307286 0.323751 0.0301366
0.33933 0.323156 0.0294347
0.371145 0.322621 0.0288243
0.402716 0.322133 0.028336
0.434058 0.321706 0.0279393
0.465202 0.321324 0.0276493
0.49601 0.321019 0.0278019
0.526162 0.320836 0.0288396
0.55462 0.320851 0.0311589
0.580865 0.321202 0.035172
0.604349 0.322026 0.0414435
0.624491 0.323476 0.0505226
0.640467 0.325658 0.0622568
0.652979 0.328511 0.0759899
0.663218 0.331975 0.090837
0.672068 0.335836 0.105776
0.680186 0.339971 0.120195
0.687953 0.344274 0.133852
0.695521 0.34873 0.146746
0.708797 0.352071 0.153903
0.727672 0.354253 0.155978
0 0.375814 0.0496986
0 0.375814 0.0466773
0 0.374792 0.0440375
0 0.372732 0.0413825
0.0214542 0.368734 0.0374456
0.0608072 0.36614 0.0350347
0.0975509 0.364248 0.033341
0.132952 0.362707 0.0320287
0.167468 0.36141 0.0309453
0.201297 0.360311 0.0300298
0.234562 0.35935 0.029221
0.267369 0.358526 0.0284886
0.299825 0.357809 0.0278172
0.33196 0.357183 0.0272068
0.363836 0.356619 0.0266728
0.395453 0.356115 0.026215
0.426841 0.355673 0.0258488
0.458 0.355291 0.0256352
0.488807 0.35494 0.0259709
0.519112 0.354696 0.0271763
0.547982 0.35462 0.0296483
0.574838 0.354803 0.0337682
0.599268 0.355352 0.040116
0.620752 0.356405 0.0491646
0.63856 0.358099 0.0610361
0.652873 0.360388 0.0749065
0.664881 0.363287 0.0902266
0.675334 0.366613 0.105791
0.68484 0.370245 0.120974
0.693797 0.374121 0.13547
0.702373 0.378195 0.149248
0.712688 0.38201 0.160311
0.731563 0.384192 0.162417
0 0.405585 0.0533913
0 0.407233 0.0485389
0 0.407446 0.0445106
0 0.406348 0.0409094
0.0122835 0.403143 0.0363928
0.0520485 0.400504 0.0332341
0.0889906 0.398566 0.0313115
0.124605 0.396994 0.0298772
0.159258 0.395666 0.028687
0.193225 0.394522 0.0277104
0.226627 0.39353 0.0268711
0.259571 0.39266 0.0261234
0.292134 0.391913 0.0254826
0.324361 0.391241 0.0249027
0.356313 0.390661 0.0244144
0.388022 0.390127 0.0240177
0.419501 0.389654 0.0237125
0.450706 0.389212 0.0237736
0.481575 0.38883 0.0244297
0.511986 0.38851 0.0259709
0.541192 0.388327 0.0287633
0.568536 0.388357 0.0331884
0.593668 0.388693 0.0397803
0.616175 0.389441 0.0490578
0.635477 0.390723 0.0611887
0.651408 0.392508 0.0752728
0.66511 0.394842 0.0909743
0.677241 0.39762 0.106981
0.688212 0.400778 0.122759
0.698436 0.404211 0.137926
0.708186 0.407858 0.152316
0.717556 0.411704 0.165957
0.735592 0.414038 0.169024
0 0.431693 0.0623026
0 0.435599 0.0548562
0 0.437675 0.0486
0 0.438041 0.0432288
0.0071107 0.436149 0.037644
0.0458228 0.433951 0.0332036
0.0818341 0.43238 0.030396
0.117006 0.430991 0.0284123
0.151568 0.429709 0.0269474
0.18558 0.428565 0.0258335
0.219089 0.427558 0.0249485
0.252125 0.426673 0.0241855
0.284764 0.425895 0.0235294
0.317082 0.425208 0.0229496
0.349096 0.424582 0.0224765
0.38085 0.424033 0.0221714
0.412345 0.423529 0.0221256
0.443549 0.423072 0.0224918
0.474418 0.422644 0.0234684
0.50486 0.422293 0.0253605
0.534279 0.422034 0.0285801
0.561929 0.421942 0.0334936
0.587594 0.42208 0.0406348
0.610895 0.422553 0.0503853
0.631479 0.423453 0.0629282
0.648798 0.424811 0.0772259
0.664073 0.426673 0.0931411
0.67776 0.428962 0.109407
0.690196 0.431632 0.125566
0.701747 0.434623 0.141176
0.712657 0.437888 0.156069
0.723079 0.441352 0.17026
0.739528 0.443931 0.175555
0 0.453819 0.0768139
0 0.459892 0.0669871
0 0.464286 0.0579385
0 0.466712 0.0499428
0.00973526 0.466438 0.0420996
0.0443275 0.465614 0.0361486
0.0780499 0.464866 0.0320439
0.111788 0.463981 0.0290532
0.145464 0.463066 0.0268101
0.178958 0.462135 0.0251469
0.212192 0.461234 0.0238956
0.245121 0.460395 0.0229343
0.27776 0.459617 0.0222019
0.310124 0.458915 0.0216678
0.342199 0.458274 0.0213016
0.374014 0.457679 0.0211948
0.405585 0.45713 0.0214389
0.43682 0.456611 0.0221714
0.467704 0.456138 0.0236362
0.498177 0.455695 0.0261387
0.527764 0.455344 0.0300145
0.555688 0.455131 0.0356298
0.581765 0.4551 0.0434119
0.605707 0.455329 0.0538033
0.627268 0.455924 0.0667887
0.645792 0.456916 0.0813306
0.66247 0.458351 0.0972457
0.677562 0.460212 0.113649
0.691386 0.462455 0.129946
0.704234 0.465034 0.145769
0.71632 0.467903 0.160967
0.727794 0.471031 0.175509
0.743618 0.473655 0.182284
0 0.473579 0.0951095
0 0.480568 0.084596
0 0.486656 0.0736553
0 0.491096 0.0628367
0.023209 0.49308 0.0521706
0.0507515 0.49456 0.0440986
0.0801099 0.495323 0.0379339
0.110887 0.495491 0.0332494
0.142565 0.495293 0.0297246
0.174716 0.494865 0.0270848
0.20708 0.494301 0.0251011
0.239475 0.493675 0.023621
0.271778 0.493034 0.0225681
0.303944 0.492409 0.0218967
0.335943 0.491798 0.0215763
0.367697 0.491203 0.0216983
0.399222 0.490623 0.0222934
0.430442 0.490074 0.0234989
0.461326 0.489555 0.0255436
0.491783 0.489052 0.0287022
0.521508 0.488609 0.0333715
0.549645 0.488258 0.0398413
0.576028 0.488075 0.0484627
0.600473 0.488106 0.059556
0.622858 0.488441 0.0729839
0.642512 0.489128 0.0877546
0.660395 0.490211 0.103532
0.676799 0.491691 0.119814
0.691936 0.493553 0.136049
0.70605 0.495766 0.151888
0.71931 0.498283 0.167193
0.731823 0.501091 0.181903
0.747814 0.503609 0.189151
0 0.492622 0.114626
0.00436408 0.499306 0.104433
0.0175631 0.505364 0.0930495
0.0316167 0.511208 0.0815137
0.048188 0.516152 0.0699474
0.0683146 0.520073 0.0595407
0.0915847 0.522896 0.0507668
0.117693 0.524712 0.0436866
0.14583 0.525765 0.0380865
0.175433 0.526268 0.0337682
0.205966 0.526375 0.030518
0.237064 0.526223 0.0281529
0.268467 0.525917 0.0265354
0.299992 0.525505 0.0255283
0.331548 0.525032 0.0251164
0.363012 0.524514 0.0252995
0.394339 0.52398 0.0261387
0.425406 0.52343 0.0277867
0.456184 0.522866 0.0304265
0.486549 0.522316 0.0343328
0.516304 0.521782 0.0399023
0.544579 0.52134 0.0472877
0.571191 0.521004 0.0568399
0.596002 0.520882 0.068574
0.618982 0.521019 0.0822156
0.639551 0.521492 0.0970016
0.658396 0.522316 0.112398
0.675898 0.523522 0.128283
0.69218 0.525078 0.144152
0.707408 0.526986 0.159747
0.721736 0.529198 0.174914
0.735286 0.531701 0.189593
0.752056 0.534066 0.196094
0.0344091 0.511055 0.133486
0.0443732 0.517815 0.124849
0.0549935 0.524468 0.115251
0.0666819 0.530892 0.104768
0.0799115 0.536797 0.093492
0.0955215 0.542153 0.0822309
0.113527 0.546731 0.0716716
0.134325 0.550347 0.0622568
0.157717 0.553063 0.0542458
0.183352 0.554971 0.0476997
0.210758 0.556191 0.0425422
0.239536 0.556893 0.0387274
0.269169 0.557214 0.0359503
0.299382 0.557275 0.034165
0.329976 0.557137 0.0332952
0.360723 0.556863 0.0332952
0.391501 0.556466 0.0342412
0.422187 0.556008 0.0362249
0.452659 0.555489 0.0394293
0.482795 0.554925 0.0440375
0.512444 0.554345 0.0504921
0.540734 0.553826 0.0587778
0.567468 0.553414 0.0690013
0.592569 0.553185 0.0809949
0.616007 0.553201 0.0946212
0.637369 0.553536 0.108995
0.656947 0.554177 0.123857
0.675364 0.555184 0.139132
0.692622 0.556512 0.154437
0.708843 0.558175 0.169589
0.724147 0.560128 0.184421
0.738628 0.562371 0.198901
0.756542 0.564614 0.203326
0.0637064 0.53341 0.151492
0.0787823 0.538262 0.146654
0.0893111 0.544808 0.138415
0.100664 0.551202 0.12932
0.112917 0.55726 0.119356
0.126726 0.563073 0.108797
0.142061 0.568429 0.0984054
0.159396 0.573144 0.0883955
0.178729 0.577203 0.0789807
0.200305 0.580484 0.0706188
0.223957 0.583032 0.0635386
0.249424 0.584894 0.0578164
0.276356 0.586191 0.0534676
0.304402 0.58703 0.0504158
0.333272 0.587488 0.0486458
0.362676 0.587671 0.0481117
0.392416 0.587625 0.0488441
0.422263 0.587411 0.0508888
0.452049 0.58706 0.0543832
0.481605 0.586618 0.0594949
0.510781 0.586145 0.066392
0.538811 0.585687 0.0750591
0.565393 0.585336 0.0853895
0.590509 0.585138 0.0972457
0.614176 0.585168 0.110231
0.636072 0.585458 0.12398
0.656184 0.586023 0.137957
0.675288 0.586908 0.152377
0.693324 0.588098 0.166918
0.710369 0.589578 0.181415
0.726497 0.591348 0.195804
0.74226 0.593393 0.208499
0.761074 0.595605 0.210636
0.0692302 0.564691 0.158526
0.0947127 0.56585 0.159594
0.119738 0.567147 0.160784
0.133104 0.572656 0.15436
0.145037 0.578668 0.145892
0.158282 0.584512 0.136599
0.172564 0.590051 0.127337
0.188159 0.595209 0.118029
0.205264 0.599908 0.108919
0.224063 0.604044 0.100282
0.244678 0.607569 0.0924697
0.266926 0.610513 0.0855726
0.290822 0.612848 0.0799115
0.316136 0.614633 0.0756237
0.342641 0.615915 0.0727398
0.370047 0.61677 0.0713359
0.398108 0.617288 0.0714275
0.426551 0.617533 0.0730602
0.455161 0.617563 0.0763256
0.483711 0.617441 0.0812848
0.512078 0.617227 0.088014
0.539528 0.616999 0.0964065
0.565698 0.616846 0.106249
0.59057 0.616831 0.117159
0.614206 0.616968 0.129229
0.636393 0.617334 0.14197
0.656794 0.617929 0.154864
0.676356 0.618769 0.168246
0.694942 0.619883 0.181872
0.712627 0.621271 0.19556
0.729442 0.622919 0.209232
0.747173 0.624964 0.21622
0.765972 0.627176 0.218372
0.0750744 0.59617 0.166018
0.100404 0.597391 0.167117
0.125292 0.598703 0.168353
0.149905 0.600107 0.169665
0.174456 0.601526 0.170993
0.188556 0.606714 0.164111
0.202304 0.612299 0.156085
0.21709 0.617563 0.147997
0.233051 0.622507 0.13991
0.250294 0.627024 0.132036
0.26891 0.631113 0.124559
0.28896 0.634699 0.117739
0.310445 0.637781 0.111818
0.333303 0.640345 0.106966
0.357397 0.642405 0.10341
0.382574 0.643992 0.101335
0.408545 0.645212 0.100664
0.435142 0.646082 0.101579
0.462089 0.646677 0.104143
0.489174 0.647074 0.108232
0.516289 0.647318 0.114107
0.542824 0.647501 0.121523
0.568276 0.647669 0.130236
0.592676 0.647913 0.140078
0.616022 0.64828 0.150866
0.638209 0.648814 0.162371
0.658686 0.6495 0.17406
0.678462 0.650401 0.186297
0.697398 0.65153 0.198871
0.715511 0.652873 0.211673
0.733272 0.654582 0.221881
0.752102 0.656779 0.224002
0.770901 0.658991 0.226123
0.0808728 0.627619 0.173526
0.10605 0.62887 0.17467
0.130816 0.630228 0.175937
0.155322 0.631647 0.177279
0.179751 0.633097 0.178637
0.203937 0.63447 0.17995
0.227802 0.636072 0.181476
0.244907 0.640284 0.17705
0.260105 0.645335 0.170062
0.276356 0.65005 0.16321
0.293736 0.654414 0.156588
0.312291 0.658381 0.150393
0.332052 0.661936 0.144823
0.353002 0.665049 0.140093
0.375097 0.66772 0.13637
0.39823 0.669978 0.133852
0.422232 0.671824 0.132647
0.446937 0.67332 0.13286
0.472145 0.674525 0.134585
0.497673 0.675471 0.137835
0.523384 0.676234 0.142626
0.548791 0.67689 0.148867
0.573327 0.67747 0.156313
0.59704 0.678065 0.164843
0.619898 0.678721 0.174304
0.641855 0.679469 0.184543
0.662196 0.680339 0.19501
0.681987 0.681346 0.206104
0.70106 0.682536 0.217639
0.719554 0.684031 0.227741
0.73843 0.686229 0.229831
0.757259 0.688441 0.231952
0.776043 0.690669 0.234073
0.0869306 0.65893 0.181308
0.111955 0.660227 0.182498
0.136614 0.661601 0.18381
0.161028 0.663066 0.185168
0.185336 0.66453 0.186572
0.209476 0.665919 0.1879
0.233326 0.667521 0.189441
0.256794 0.669245 0.191073
0.279973 0.671031 0.192798
0.301686 0.673396 0.19321
0.318196 0.677928 0.187533
0.335622 0.682155 0.182071
0.354101 0.68603 0.177127
0.373602 0.689525 0.172824
0.39411 0.692653 0.169314
0.415549 0.695415 0.166751
0.437827 0.697795 0.165301
0.460822 0.699855 0.165042
0.484382 0.70161 0.166094
0.508354 0.703105 0.16849
0.532631 0.704402 0.172259
0.556832 0.705547 0.177371
0.580362 0.706569 0.183627
0.603265 0.707546 0.190906
0.625498 0.708522 0.1991
0.647044 0.709529 0.208103
0.66714 0.710597 0.217502
0.686763 0.711772 0.227405
0.705821 0.713497 0.2336
0.724743 0.715679 0.235706
0.743603 0.717876 0.237842
0.762417 0.720088 0.239994
0.781201 0.722301 0.242176
0.0930343 0.690211 0.189181
0.117937 0.691539 0.190448
0.142519 0.692943 0.191806
0.166842 0.694408 0.193225
0.191073 0.695903 0.194675
0.215137 0.697307 0.196017
0.238972 0.698909 0.197559
0.262409 0.700633 0.199222
0.285573 0.702434 0.200946
0.308507 0.704295 0.202731
0.331243 0.706218 0.204578
0.353811 0.708171 0.206455
0.376104 0.710231 0.208225
0.394476 0.714031 0.204425
0.413733 0.717479 0.201282
0.433768 0.720653 0.198795
0.454612 0.723476 0.197269
0.476143 0.725994 0.19675
0.498238 0.728222 0.197345
0.520821 0.730205 0.1991
0.54374 0.731975 0.202075
0.566781 0.733562 0.206241
0.589319 0.734997 0.211475
0.611399 0.736339 0.217762
0.632914 0.737652 0.224811
0.65391 0.738949 0.23267
0.67332 0.740673 0.237736
0.692287 0.742824 0.239826
0.711238 0.745007 0.241947
0.730129 0.747189 0.244068
0.748974 0.749386 0.246204
0.767788 0.751598 0.248371
0.786542 0.753826 0.250538
0.0992905 0.721416 0.197269
0.124056 0.722774 0.19855
0.148486 0.724224 0.199908
0.172702 0.725734 0.201343
0.196826 0.72726 0.202808
0.220813 0.728679 0.204196
0.244648 0.730297 0.205737
0.268055 0.732021 0.207401
0.291188 0.733822 0.20914
0.314092 0.735698 0.210941
0.336797 0.737621 0.212787
0.35935 0.73959 0.214694
0.381735 0.741588 0.216632
0.403998 0.743648 0.218616
0.426139 0.745724 0.22063
0.448157 0.747845 0.222675
0.470069 0.749981 0.224735
0.491875 0.752163 0.226856
0.513207 0.754559 0.228122
0.534524 0.756954 0.229435
0.556252 0.759136 0.2318
0.57818 0.761135 0.235218
0.599176 0.763348 0.237568
0.619684 0.76556 0.23975
0.639872 0.767773 0.241932
0.659785 0.76997 0.244099
0.678859 0.772122 0.24622
0.697826 0.774273 0.248341
0.716762 0.77644 0.250477
0.735653 0.778622 0.252598
0.754498 0.780835 0.254749
0.773281 0.783047 0.256916
0.792035 0.78526 0.259083
0.10576 0.752529 0.20557
0.130388 0.753918 0.206897
