site/assets/luts/freshluts--0000928-picturefx-louvre-paris-classic-chrome-3dl25.cube
# LUTr-Schema-Version: 2
# LUTr-ID: freshluts--0000928-picturefx-louvre-paris-classic-chrome-3dl25
# LUTr-Title: PictureFX-Louvre-Paris-Classic-Chrome-3DL25
# LUTr-Collection: Fresh LUTs
# LUTr-Collection-ID: freshluts-community
# LUTr-Source: https://freshluts.com
# LUTr-Retrieved: 2026-07-27
# LUTr-Source-File: submissions-raw/freshluts/cubes/928__PictureFX-Louvre-Paris-Classic-Chrome-3DL25.cube
# LUTr-Source-Format: CUBE
# LUTr-Source-SHA256: 2976a748d070faaa435781a498aea95be1a454b3b4a4cce2ab8cffb660b8bef0
# LUTr-License: CC0-1.0
# LUTr-License-URL: https://freshluts.com/termsandconditions
# LUTr-License-Basis: site-terms
# LUTr-Transform-Class: creative-look
# LUTr-Tags: creative, freshluts, community, cube, rec709, assumed-input
# LUTr-Input-Color-Space: rec709
# LUTr-Input-Gamut: rec709
# LUTr-Input-Transfer: rec709
# LUTr-Output-Color-Space: srgb
# LUTr-Output-Gamut: rec709
# LUTr-Output-Transfer: srgb
# LUTr-Color-Space-Confidence: assumed-display-referred
# LUTr-Domain-Normalized: true
# LUTr-Shaper: none
# LUTr-Original-Grid: 25x25x25
# LUTr-Conversion-Grid: 25x25x25
# LUTr-Conversion-Interpolation: none
# LUTr-Conversion-Method: Metadata normalization; numeric LUT samples preserved
# LUTr-Conversion-Tool: LUTr scripts/convert-all-to-cube.mjs 2.0.0
# LUTr-Conversion-Date: 2026-07-28
# LUTr-Asset-URL: https://freshluts.com/luts/928
# LUTr-Author: MarcR.
# LUTr-Author-URL: https://freshluts.com/users/86490
# LUTr-Attribution: MarcR. via Fresh LUTs
# LUTr-Source-Labels: gamma=Other; color=None; key=Neutral; style=Correction; LUTr assumption=input Rec.709 per repository policy
# LUTr-Conversion-Warning: Input Rec.709 is a LUTr catalog assumption requested for this otherwise unspecified Fresh LUT; it is not verified by the upstream asset.
# LUTr-Note: Preserve this metadata and the upstream license notices when redistributing.
# LUTr-Upstream-Comment: Generated with IWLTBAP LUT Generator
# LUTr-Upstream-Comment: Website: http://luts.iwltbap.com
# LUTr-Upstream-Comment: LUT size
# LUTr-Upstream-Comment: LUT data points
TITLE "PictureFX-Louvre-Paris-Classic-Chrome-3DL25"
LUT_3D_SIZE 25
DOMAIN_MIN 0 0 0
DOMAIN_MAX 1 1 1
0.054902 0 0
0.062745 0 0
0.082353 0.003922 0
0.109804 0.027451 0.007843
0.137255 0.054902 0.019608
0.172549 0.078431 0.039216
0.2 0.105882 0.054902
0.227451 0.133333 0.058824
0.247059 0.156863 0.062745
0.270588 0.180392 0.066667
0.298039 0.196078 0.078431
0.329412 0.211765 0.098039
0.360784 0.227451 0.113725
0.396078 0.247059 0.133333
0.427451 0.262745 0.14902
0.458824 0.278431 0.164706
0.490196 0.298039 0.184314
0.52549 0.317647 0.2
0.556863 0.337255 0.219608
0.592157 0.356863 0.239216
0.627451 0.380392 0.258824
0.662745 0.4 0.27451
0.694118 0.419608 0.290196
0.72549 0.439216 0.309804
0.760784 0.462745 0.329412
0.047059 0.035294 0.031373
0.062745 0.043137 0.043137
0.094118 0.054902 0.043137
0.12549 0.066667 0.043137
0.156863 0.082353 0.054902
0.188235 0.101961 0.066667
0.215686 0.121569 0.07451
0.239216 0.145098 0.07451
0.258824 0.168627 0.070588
0.278431 0.188235 0.07451
0.305882 0.203922 0.086275
0.333333 0.219608 0.101961
0.368627 0.235294 0.117647
0.4 0.25098 0.137255
0.431373 0.270588 0.152941
0.462745 0.286275 0.168627
0.494118 0.305882 0.188235
0.529412 0.32549 0.203922
0.560784 0.341176 0.223529
0.596078 0.364706 0.243137
0.631373 0.384314 0.262745
0.662745 0.403922 0.278431
0.694118 0.423529 0.294118
0.729412 0.443137 0.313725
0.764706 0.466667 0.333333
0.082353 0.082353 0.058824
0.094118 0.090196 0.070588
0.113725 0.094118 0.078431
0.152941 0.101961 0.062745
0.176471 0.113725 0.078431
0.203922 0.12549 0.082353
0.227451 0.141176 0.090196
0.25098 0.156863 0.090196
0.270588 0.176471 0.090196
0.290196 0.196078 0.090196
0.313725 0.215686 0.094118
0.341176 0.231373 0.109804
0.372549 0.247059 0.12549
0.403922 0.262745 0.141176
0.435294 0.278431 0.156863
0.466667 0.294118 0.176471
0.498039 0.313725 0.192157
0.533333 0.329412 0.211765
0.564706 0.34902 0.227451
0.6 0.368627 0.247059
0.631373 0.392157 0.266667
0.666667 0.407843 0.282353
0.698039 0.427451 0.298039
0.729412 0.447059 0.317647
0.764706 0.470588 0.333333
0.117647 0.129412 0.078431
0.129412 0.133333 0.082353
0.14902 0.137255 0.086275
0.172549 0.141176 0.086275
0.2 0.145098 0.090196
0.219608 0.156863 0.101961
0.243137 0.164706 0.109804
0.266667 0.176471 0.113725
0.290196 0.192157 0.113725
0.309804 0.207843 0.113725
0.329412 0.227451 0.113725
0.352941 0.243137 0.121569
0.380392 0.258824 0.133333
0.411765 0.27451 0.14902
0.439216 0.290196 0.164706
0.470588 0.305882 0.184314
0.505882 0.321569 0.2
0.537255 0.341176 0.215686
0.568627 0.360784 0.235294
0.603922 0.380392 0.25098
0.635294 0.4 0.270588
0.670588 0.415686 0.286275
0.701961 0.435294 0.301961
0.737255 0.454902 0.321569
0.768627 0.478431 0.341176
0.14902 0.172549 0.101961
0.160784 0.172549 0.101961
0.176471 0.176471 0.105882
0.196078 0.176471 0.109804
0.215686 0.180392 0.109804
0.239216 0.188235 0.117647
0.258824 0.196078 0.129412
0.282353 0.203922 0.137255
0.305882 0.211765 0.141176
0.329412 0.227451 0.141176
0.34902 0.243137 0.141176
0.368627 0.258824 0.141176
0.392157 0.270588 0.14902
0.419608 0.286275 0.160784
0.447059 0.301961 0.176471
0.478431 0.317647 0.192157
0.509804 0.337255 0.207843
0.541176 0.352941 0.223529
0.576471 0.372549 0.243137
0.607843 0.392157 0.258824
0.643137 0.411765 0.278431
0.67451 0.427451 0.294118
0.705882 0.447059 0.309804
0.741176 0.466667 0.329412
0.776471 0.486275 0.34902
0.180392 0.207843 0.117647
0.192157 0.211765 0.121569
0.2 0.211765 0.121569
0.215686 0.211765 0.12549
0.235294 0.215686 0.129412
0.254902 0.219608 0.133333
0.27451 0.223529 0.145098
0.298039 0.231373 0.156863
0.321569 0.239216 0.164706
0.345098 0.25098 0.168627
0.364706 0.262745 0.168627
0.388235 0.27451 0.168627
0.407843 0.290196 0.172549
0.435294 0.305882 0.180392
0.462745 0.321569 0.192157
0.490196 0.337255 0.207843
0.521569 0.352941 0.219608
0.552941 0.368627 0.235294
0.584314 0.388235 0.254902
0.619608 0.407843 0.270588
0.647059 0.423529 0.286275
0.678431 0.439216 0.301961
0.713725 0.458824 0.321569
0.74902 0.478431 0.337255
0.780392 0.498039 0.356863
0.211765 0.243137 0.137255
0.215686 0.247059 0.141176
0.227451 0.247059 0.141176
0.239216 0.247059 0.145098
0.254902 0.25098 0.14902
0.27451 0.254902 0.152941
0.294118 0.258824 0.160784
0.317647 0.262745 0.172549
0.337255 0.270588 0.184314
0.360784 0.278431 0.192157
0.384314 0.290196 0.196078
0.407843 0.301961 0.2
0.431373 0.313725 0.2
0.454902 0.329412 0.207843
0.478431 0.345098 0.215686
0.505882 0.360784 0.227451
0.533333 0.376471 0.239216
0.564706 0.392157 0.254902
0.596078 0.407843 0.270588
0.627451 0.423529 0.282353
0.658824 0.439216 0.298039
0.690196 0.458824 0.313725
0.721569 0.478431 0.333333
0.752941 0.494118 0.34902
0.788235 0.513725 0.364706
0.239216 0.282353 0.160784
0.247059 0.282353 0.164706
0.254902 0.282353 0.164706
0.266667 0.286275 0.168627
0.278431 0.286275 0.168627
0.298039 0.290196 0.176471
0.317647 0.294118 0.180392
0.337255 0.298039 0.188235
0.356863 0.301961 0.2
0.380392 0.309804 0.211765
0.403922 0.317647 0.219608
0.427451 0.329412 0.227451
0.45098 0.341176 0.231373
0.47451 0.352941 0.235294
0.498039 0.368627 0.239216
0.52549 0.384314 0.247059
0.552941 0.4 0.258824
0.580392 0.415686 0.270588
0.607843 0.431373 0.286275
0.639216 0.443137 0.298039
0.666667 0.458824 0.313725
0.701961 0.478431 0.329412
0.733333 0.494118 0.345098
0.764706 0.513725 0.360784
0.8 0.533333 0.376471
0.266667 0.317647 0.184314
0.27451 0.317647 0.188235
0.282353 0.321569 0.188235
0.290196 0.321569 0.192157
0.305882 0.321569 0.192157
0.321569 0.32549 0.196078
0.337255 0.329412 0.203922
0.356863 0.333333 0.211765
0.376471 0.337255 0.219608
0.4 0.345098 0.231373
0.423529 0.352941 0.239216
0.447059 0.360784 0.247059
0.470588 0.372549 0.254902
0.494118 0.380392 0.258824
0.517647 0.396078 0.266667
0.545098 0.411765 0.27451
0.572549 0.423529 0.282353
0.596078 0.439216 0.294118
0.623529 0.45098 0.301961
0.65098 0.466667 0.313725
0.682353 0.482353 0.329412
0.713725 0.498039 0.345098
0.745098 0.517647 0.360784
0.776471 0.533333 0.376471
0.811765 0.552941 0.392157
0.298039 0.356863 0.211765
0.301961 0.356863 0.211765
0.309804 0.356863 0.211765
0.317647 0.356863 0.215686
0.329412 0.360784 0.219608
0.345098 0.360784 0.223529
0.360784 0.364706 0.227451
0.380392 0.368627 0.231373
0.4 0.372549 0.239216
0.419608 0.380392 0.247059
0.443137 0.384314 0.258824
0.466667 0.392157 0.270588
0.490196 0.403922 0.278431
0.513725 0.415686 0.286275
0.541176 0.427451 0.294118
0.564706 0.439216 0.298039
0.588235 0.45098 0.305882
0.611765 0.462745 0.313725
0.639216 0.478431 0.32549
0.670588 0.494118 0.337255
0.698039 0.509804 0.34902
0.729412 0.52549 0.364706
0.760784 0.545098 0.380392
0.792157 0.560784 0.396078
0.823529 0.576471 0.411765
0.329412 0.396078 0.235294
0.333333 0.396078 0.239216
0.337255 0.396078 0.239216
0.345098 0.396078 0.243137
0.356863 0.4 0.243137
0.368627 0.4 0.247059
0.384314 0.403922 0.25098
0.403922 0.407843 0.258824
0.423529 0.411765 0.262745
0.443137 0.415686 0.270588
0.466667 0.423529 0.282353
0.490196 0.431373 0.290196
0.513725 0.439216 0.301961
0.537255 0.45098 0.309804
0.560784 0.458824 0.317647
0.584314 0.466667 0.32549
0.607843 0.478431 0.329412
0.635294 0.494118 0.337255
0.662745 0.505882 0.34902
0.686275 0.521569 0.360784
0.717647 0.537255 0.372549
0.745098 0.552941 0.384314
0.776471 0.568627 0.396078
0.803922 0.580392 0.411765
0.831373 0.596078 0.423529
0.360784 0.435294 0.266667
0.364706 0.439216 0.266667
0.372549 0.439216 0.266667
0.376471 0.439216 0.270588
0.388235 0.439216 0.27451
0.4 0.443137 0.27451
0.415686 0.447059 0.282353
0.431373 0.45098 0.286275
0.45098 0.454902 0.294118
0.470588 0.458824 0.298039
0.490196 0.462745 0.305882
0.513725 0.470588 0.313725
0.533333 0.47451 0.321569
0.556863 0.482353 0.333333
0.580392 0.490196 0.341176
0.603922 0.501961 0.34902
0.631373 0.513725 0.356863
0.654902 0.52549 0.364706
0.682353 0.537255 0.372549
0.709804 0.552941 0.384314
0.737255 0.564706 0.392157
0.760784 0.580392 0.403922
0.788235 0.592157 0.415686
0.815686 0.603922 0.427451
0.843137 0.619608 0.439216
0.396078 0.482353 0.298039
0.4 0.482353 0.298039
0.403922 0.482353 0.298039
0.411765 0.482353 0.301961
0.419608 0.482353 0.301961
0.431373 0.486275 0.305882
0.447059 0.486275 0.309804
0.458824 0.490196 0.313725
0.478431 0.494118 0.317647
0.494118 0.498039 0.321569
0.513725 0.501961 0.329412
0.537255 0.505882 0.337255
0.556863 0.513725 0.345098
0.580392 0.521569 0.356863
0.603922 0.529412 0.364706
0.627451 0.537255 0.372549
0.65098 0.54902 0.380392
0.678431 0.556863 0.392157
0.701961 0.568627 0.4
0.729412 0.580392 0.407843
0.752941 0.592157 0.415686
0.780392 0.603922 0.427451
0.803922 0.619608 0.435294
0.831373 0.631373 0.447059
0.858824 0.643137 0.454902
0.427451 0.521569 0.32549
0.431373 0.521569 0.32549
0.435294 0.521569 0.32549
0.443137 0.521569 0.329412
0.45098 0.521569 0.329412
0.458824 0.52549 0.333333
0.470588 0.52549 0.333333
0.486275 0.529412 0.337255
0.501961 0.533333 0.345098
0.521569 0.537255 0.34902
0.541176 0.541176 0.356863
0.560784 0.545098 0.364706
0.584314 0.552941 0.372549
0.603922 0.560784 0.380392
0.627451 0.568627 0.388235
0.65098 0.576471 0.4
0.67451 0.584314 0.407843
0.701961 0.596078 0.415686
0.72549 0.603922 0.423529
0.74902 0.615686 0.431373
0.772549 0.623529 0.439216
0.8 0.635294 0.45098
0.823529 0.647059 0.458824
0.847059 0.658824 0.466667
0.870588 0.666667 0.47451
0.462745 0.564706 0.356863
0.466667 0.564706 0.356863
0.470588 0.564706 0.356863
0.47451 0.564706 0.356863
0.482353 0.568627 0.360784
0.494118 0.568627 0.364706
0.505882 0.568627 0.364706
0.517647 0.572549 0.368627
0.533333 0.576471 0.372549
0.54902 0.580392 0.380392
0.568627 0.584314 0.384314
0.588235 0.588235 0.392157
0.611765 0.596078 0.4
0.631373 0.6 0.407843
0.654902 0.607843 0.415686
0.678431 0.615686 0.427451
0.701961 0.623529 0.435294
0.72549 0.631373 0.443137
0.74902 0.639216 0.45098
0.772549 0.65098 0.458824
0.796078 0.658824 0.466667
0.815686 0.666667 0.470588
0.839216 0.67451 0.478431
0.862745 0.682353 0.482353
0.882353 0.690196 0.490196
0.498039 0.607843 0.388235
0.501961 0.607843 0.388235
0.505882 0.607843 0.388235
0.509804 0.611765 0.392157
0.517647 0.611765 0.392157
0.52549 0.611765 0.396078
0.537255 0.615686 0.396078
0.54902 0.615686 0.4
0.564706 0.619608 0.403922
0.580392 0.623529 0.407843
0.6 0.627451 0.415686
0.615686 0.631373 0.419608
0.639216 0.635294 0.427451
0.658824 0.639216 0.435294
0.678431 0.647059 0.439216
0.698039 0.65098 0.447059
0.721569 0.658824 0.454902
0.745098 0.662745 0.462745
0.764706 0.670588 0.470588
0.788235 0.678431 0.478431
0.807843 0.686275 0.482353
0.827451 0.690196 0.490196
0.85098 0.698039 0.494118
0.87451 0.705882 0.501961
0.898039 0.717647 0.505882
0.533333 0.65098 0.419608
0.533333 0.65098 0.419608
0.537255 0.65098 0.419608
0.545098 0.65098 0.419608
0.54902 0.654902 0.419608
0.556863 0.654902 0.423529
0.568627 0.654902 0.423529
0.580392 0.658824 0.427451
0.592157 0.658824 0.431373
0.607843 0.662745 0.435294
0.623529 0.662745 0.439216
0.639216 0.666667 0.443137
0.658824 0.670588 0.45098
0.678431 0.67451 0.454902
0.698039 0.682353 0.462745
0.717647 0.686275 0.470588
0.737255 0.690196 0.47451
0.756863 0.694118 0.482353
0.780392 0.698039 0.486275
0.8 0.705882 0.494118
0.819608 0.713725 0.498039
0.843137 0.717647 0.505882
0.866667 0.72549 0.513725
0.886275 0.733333 0.517647
0.909804 0.741176 0.52549
0.564706 0.690196 0.443137
0.564706 0.690196 0.443137
0.568627 0.690196 0.447059
0.572549 0.690196 0.447059
0.580392 0.690196 0.447059
0.588235 0.694118 0.45098
0.596078 0.694118 0.45098
0.607843 0.694118 0.454902
0.619608 0.698039 0.458824
0.631373 0.698039 0.458824
0.647059 0.701961 0.462745
0.662745 0.705882 0.466667
0.682353 0.705882 0.470588
0.698039 0.709804 0.478431
0.717647 0.713725 0.482353
0.737255 0.717647 0.486275
0.752941 0.721569 0.494118
0.776471 0.72549 0.498039
0.796078 0.729412 0.505882
0.815686 0.737255 0.513725
0.839216 0.741176 0.517647
0.858824 0.74902 0.52549
0.882353 0.756863 0.533333
0.901961 0.764706 0.537255
0.92549 0.772549 0.545098
0.592157 0.729412 0.470588
0.596078 0.729412 0.470588
0.596078 0.729412 0.470588
0.6 0.729412 0.470588
0.607843 0.729412 0.47451
0.615686 0.729412 0.47451
0.623529 0.729412 0.478431
0.631373 0.733333 0.478431
0.643137 0.733333 0.482353
0.654902 0.733333 0.482353
0.670588 0.737255 0.486275
0.686275 0.737255 0.490196
0.701961 0.741176 0.494118
0.717647 0.745098 0.498039
0.737255 0.745098 0.501961
0.752941 0.74902 0.505882
0.772549 0.752941 0.513725
0.792157 0.756863 0.517647
0.811765 0.760784 0.52549
0.835294 0.768627 0.529412
0.854902 0.772549 0.537255
0.87451 0.780392 0.545098
0.898039 0.784314 0.552941
0.921569 0.792157 0.556863
0.945098 0.803922 0.564706
0.619608 0.764706 0.494118
0.619608 0.764706 0.494118
0.623529 0.764706 0.494118
0.627451 0.764706 0.494118
0.631373 0.764706 0.498039
0.639216 0.764706 0.498039
0.647059 0.764706 0.498039
0.654902 0.768627 0.501961
0.666667 0.768627 0.501961
0.678431 0.768627 0.505882
0.694118 0.772549 0.509804
0.705882 0.772549 0.509804
0.721569 0.776471 0.513725
0.737255 0.776471 0.517647
0.756863 0.780392 0.521569
0.772549 0.784314 0.529412
0.792157 0.784314 0.533333
0.811765 0.788235 0.537255
0.831373 0.796078 0.545098
0.85098 0.8 0.54902
0.870588 0.803922 0.556863
0.894118 0.811765 0.564706
0.917647 0.819608 0.572549
0.937255 0.827451 0.580392
0.960784 0.835294 0.588235
0.647059 0.796078 0.517647
0.647059 0.796078 0.517647
0.65098 0.8 0.517647
0.654902 0.8 0.517647
0.658824 0.8 0.517647
0.662745 0.8 0.517647
0.670588 0.8 0.521569
0.678431 0.8 0.521569
0.690196 0.8 0.52549
0.701961 0.803922 0.52549
0.713725 0.803922 0.529412
0.72549 0.807843 0.533333
0.741176 0.807843 0.537255
0.756863 0.811765 0.541176
0.776471 0.811765 0.545098
0.792157 0.815686 0.54902
0.811765 0.819608 0.552941
0.831373 0.823529 0.560784
0.85098 0.827451 0.564706
0.870588 0.835294 0.572549
0.894118 0.839216 0.580392
0.913725 0.847059 0.588235
0.937255 0.854902 0.596078
0.960784 0.862745 0.603922
0.984314 0.866667 0.611765
0.670588 0.831373 0.537255
0.67451 0.831373 0.541176
0.67451 0.831373 0.541176
0.678431 0.831373 0.541176
0.682353 0.835294 0.541176
0.690196 0.835294 0.541176
0.698039 0.835294 0.545098
0.705882 0.835294 0.545098
0.713725 0.835294 0.54902
0.72549 0.839216 0.54902
0.737255 0.839216 0.552941
0.752941 0.843137 0.556863
0.764706 0.843137 0.560784
0.780392 0.847059 0.564706
0.8 0.85098 0.568627
0.815686 0.854902 0.572549
0.835294 0.858824 0.580392
0.854902 0.862745 0.584314
0.87451 0.866667 0.592157
0.894118 0.870588 0.596078
0.913725 0.878431 0.603922
0.937255 0.882353 0.611765
0.956863 0.890196 0.619608
0.980392 0.894118 0.623529
1 0.901961 0.631373
0.701961 0.870588 0.564706
0.701961 0.870588 0.564706
0.705882 0.870588 0.564706
0.705882 0.870588 0.564706
0.709804 0.870588 0.568627
0.717647 0.870588 0.568627
0.72549 0.87451 0.568627
0.733333 0.87451 0.572549
0.741176 0.87451 0.572549
0.752941 0.878431 0.576471
0.764706 0.878431 0.580392
0.776471 0.882353 0.580392
0.792157 0.882353 0.584314
0.807843 0.886275 0.588235
0.823529 0.890196 0.596078
0.839216 0.890196 0.6
0.858824 0.894118 0.603922
0.878431 0.898039 0.607843
0.898039 0.901961 0.615686
0.917647 0.905882 0.619608
0.937255 0.913725 0.627451
0.956863 0.917647 0.631373
0.976471 0.921569 0.639216
1 0.929412 0.647059
1 0.933333 0.654902
0.733333 0.909804 0.592157
0.733333 0.909804 0.592157
0.733333 0.909804 0.592157
0.737255 0.909804 0.592157
0.741176 0.909804 0.596078
0.74902 0.909804 0.596078
0.752941 0.913725 0.596078
0.760784 0.913725 0.6
0.772549 0.913725 0.6
0.780392 0.913725 0.603922
0.792157 0.917647 0.603922
0.803922 0.917647 0.607843
0.819608 0.921569 0.611765
0.831373 0.92549 0.615686
0.847059 0.92549 0.619608
0.862745 0.929412 0.623529
0.882353 0.933333 0.627451
0.898039 0.933333 0.631373
0.917647 0.937255 0.639216
0.937255 0.941176 0.643137
0.956863 0.945098 0.647059
0.976471 0.94902 0.654902
0.996078 0.956863 0.658824
1 0.960784 0.666667
1 0.964706 0.670588
0.760784 0.94902 0.619608
0.760784 0.94902 0.619608
0.764706 0.94902 0.619608
0.768627 0.94902 0.619608
0.772549 0.94902 0.619608
0.776471 0.94902 0.619608
0.780392 0.94902 0.623529
0.788235 0.94902 0.623529
0.796078 0.952941 0.623529
0.807843 0.952941 0.627451
0.815686 0.952941 0.631373
0.827451 0.956863 0.631373
0.843137 0.956863 0.635294
0.854902 0.960784 0.639216
0.870588 0.960784 0.643137
0.886275 0.964706 0.647059
0.901961 0.964706 0.65098
0.917647 0.968627 0.654902
0.937255 0.972549 0.658824
0.952941 0.976471 0.662745
0.972549 0.976471 0.666667
0.992157 0.980392 0.670588
1 0.984314 0.67451
1 0.988235 0.682353
1 0.988235 0.686275
0.066667 0 0
0.070588 0 0
0.086275 0.007843 0.003922
0.113725 0.031373 0.023529
0.141176 0.054902 0.039216
0.172549 0.078431 0.058824
0.203922 0.105882 0.070588
0.231373 0.133333 0.07451
0.25098 0.156863 0.07451
0.27451 0.176471 0.078431
0.298039 0.196078 0.086275
0.329412 0.215686 0.101961
0.360784 0.231373 0.121569
0.392157 0.247059 0.137255
0.423529 0.262745 0.156863
0.454902 0.282353 0.172549
0.490196 0.301961 0.192157
0.521569 0.317647 0.207843
0.556863 0.337255 0.227451
0.592157 0.360784 0.247059
0.627451 0.380392 0.266667
0.658824 0.4 0.282353
0.690196 0.419608 0.298039
0.72549 0.439216 0.317647
0.760784 0.462745 0.337255
0.078431 0.031373 0
0.086275 0.047059 0.031373
0.101961 0.058824 0.05098
0.12549 0.070588 0.058824
0.156863 0.082353 0.070588
0.188235 0.101961 0.078431
0.215686 0.121569 0.086275
0.239216 0.145098 0.086275
0.258824 0.164706 0.086275
0.278431 0.188235 0.086275
0.305882 0.207843 0.094118
0.333333 0.223529 0.105882
0.364706 0.239216 0.12549
0.396078 0.254902 0.141176
0.427451 0.270588 0.160784
0.458824 0.290196 0.176471
0.494118 0.305882 0.196078
0.52549 0.32549 0.211765
0.560784 0.345098 0.231373
0.592157 0.364706 0.25098
0.627451 0.384314 0.266667
0.662745 0.403922 0.286275
0.694118 0.423529 0.301961
0.72549 0.443137 0.317647
0.760784 0.466667 0.337255
0.086275 0.086275 0.070588
0.094118 0.090196 0.086275
0.105882 0.098039 0.098039
0.145098 0.101961 0.086275
0.176471 0.113725 0.090196
0.203922 0.12549 0.094118
0.231373 0.141176 0.098039
0.25098 0.156863 0.101961
0.270588 0.176471 0.101961
0.290196 0.196078 0.098039
0.313725 0.215686 0.101961
0.337255 0.235294 0.113725
0.368627 0.25098 0.129412
0.4 0.266667 0.145098
0.431373 0.282353 0.164706
0.462745 0.298039 0.184314
0.498039 0.313725 0.2
0.529412 0.333333 0.219608
0.564706 0.352941 0.235294
0.596078 0.372549 0.254902
0.631373 0.392157 0.270588
0.662745 0.411765 0.290196
0.694118 0.427451 0.305882
0.729412 0.45098 0.321569
0.764706 0.470588 0.341176
0.117647 0.129412 0.094118
0.129412 0.133333 0.098039
0.145098 0.137255 0.105882
0.172549 0.141176 0.101961
0.2 0.145098 0.101961
0.223529 0.156863 0.109804
0.247059 0.164706 0.117647
0.266667 0.176471 0.121569
0.290196 0.192157 0.121569
0.305882 0.211765 0.121569
0.32549 0.227451 0.117647
0.34902 0.247059 0.12549
0.376471 0.262745 0.137255
0.407843 0.278431 0.152941
0.435294 0.290196 0.172549
0.470588 0.309804 0.188235
0.501961 0.32549 0.207843
0.533333 0.341176 0.223529
0.568627 0.360784 0.239216
0.6 0.380392 0.258824
0.635294 0.4 0.278431
0.666667 0.419608 0.294118
0.698039 0.435294 0.309804
0.733333 0.458824 0.329412
0.768627 0.478431 0.345098
0.152941 0.172549 0.113725
0.160784 0.172549 0.113725
0.176471 0.176471 0.117647
0.196078 0.176471 0.121569
0.219608 0.180392 0.121569
0.239216 0.188235 0.12549
0.262745 0.192157 0.133333
0.282353 0.203922 0.141176
0.305882 0.211765 0.14902
0.32549 0.227451 0.14902
0.345098 0.243137 0.145098
0.364706 0.258824 0.145098
0.388235 0.27451 0.152941
0.415686 0.290196 0.164706
0.443137 0.305882 0.180392
0.47451 0.321569 0.196078
0.505882 0.337255 0.215686
0.541176 0.352941 0.231373
0.572549 0.372549 0.247059
0.607843 0.392157 0.266667
0.639216 0.411765 0.282353
0.670588 0.427451 0.298039
0.705882 0.447059 0.317647
0.741176 0.466667 0.337255
0.772549 0.486275 0.352941
0.180392 0.207843 0.129412
0.188235 0.211765 0.133333
0.2 0.211765 0.133333
0.215686 0.211765 0.137255
0.235294 0.215686 0.141176
0.254902 0.219608 0.145098
0.278431 0.223529 0.152941
0.298039 0.231373 0.160784
0.321569 0.239216 0.172549
0.345098 0.25098 0.176471
0.364706 0.262745 0.176471
0.384314 0.278431 0.176471
0.407843 0.294118 0.176471
0.431373 0.309804 0.184314
0.458824 0.32549 0.196078
0.486275 0.341176 0.211765
0.517647 0.356863 0.227451
0.54902 0.372549 0.243137
0.584314 0.392157 0.258824
0.615686 0.407843 0.278431
0.647059 0.423529 0.294118
0.678431 0.443137 0.309804
0.713725 0.462745 0.32549
0.745098 0.478431 0.341176
0.780392 0.501961 0.360784
0.207843 0.247059 0.14902
0.215686 0.247059 0.152941
0.227451 0.247059 0.152941
0.239216 0.247059 0.156863
0.254902 0.25098 0.160784
0.27451 0.254902 0.164706
0.298039 0.258824 0.172549
0.317647 0.262745 0.180392
0.337255 0.270588 0.192157
0.360784 0.278431 0.203922
0.384314 0.290196 0.207843
0.407843 0.301961 0.207843
0.431373 0.313725 0.207843
0.45098 0.329412 0.211765
0.478431 0.345098 0.219608
0.505882 0.360784 0.231373
0.533333 0.376471 0.243137
0.564706 0.392157 0.258824
0.596078 0.411765 0.27451
0.627451 0.427451 0.290196
0.654902 0.443137 0.305882
0.686275 0.458824 0.317647
0.721569 0.478431 0.337255
0.752941 0.494118 0.352941
0.788235 0.513725 0.368627
0.239216 0.282353 0.172549
0.247059 0.282353 0.172549
0.254902 0.282353 0.176471
0.266667 0.286275 0.176471
0.278431 0.286275 0.180392
0.298039 0.290196 0.184314
0.317647 0.294118 0.192157
0.337255 0.298039 0.2
0.356863 0.305882 0.207843
0.380392 0.309804 0.223529
0.403922 0.321569 0.231373
0.427451 0.329412 0.235294
0.45098 0.341176 0.239216
0.47451 0.356863 0.243137
0.498039 0.368627 0.247059
0.521569 0.384314 0.254902
0.54902 0.4 0.262745
0.580392 0.415686 0.278431
0.607843 0.431373 0.290196
0.635294 0.447059 0.301961
0.666667 0.462745 0.317647
0.698039 0.478431 0.333333
0.729412 0.494118 0.34902
0.764706 0.513725 0.364706
0.796078 0.533333 0.380392
0.266667 0.317647 0.196078
0.27451 0.321569 0.196078
0.282353 0.321569 0.196078
0.290196 0.321569 0.2
