site/assets/luts/freshluts--0001533-just-like-a-mango.cube
# LUTr-Schema-Version: 2
# LUTr-ID: freshluts--0001533-just-like-a-mango
# LUTr-Title: Just like a Mango
# LUTr-Collection: Fresh LUTs
# LUTr-Collection-ID: freshluts-community
# LUTr-Source: https://freshluts.com
# LUTr-Retrieved: 2026-07-27
# LUTr-Source-File: submissions-raw/freshluts/cubes/1533__mango.cube
# LUTr-Source-Format: CUBE
# LUTr-Source-SHA256: 02e19cef73084d0f1d00af7a785cd6ef3d4381150c78934534d8f0ccceff9a77
# LUTr-License: CC0-1.0
# LUTr-License-URL: https://freshluts.com/termsandconditions
# LUTr-License-Basis: site-terms
# LUTr-Transform-Class: creative-look
# LUTr-Tags: creative, freshluts, community, cube, warm, rec709, assumed-input
# LUTr-Input-Color-Space: rec709
# LUTr-Input-Gamut: rec709
# LUTr-Input-Transfer: rec709
# LUTr-Output-Color-Space: srgb
# LUTr-Output-Gamut: rec709
# LUTr-Output-Transfer: srgb
# LUTr-Color-Space-Confidence: assumed-display-referred
# LUTr-Domain-Normalized: true
# LUTr-Shaper: none
# LUTr-Original-Grid: 16x16x16
# LUTr-Conversion-Grid: 16x16x16
# LUTr-Conversion-Interpolation: none
# LUTr-Conversion-Method: Metadata normalization; numeric LUT samples preserved
# LUTr-Conversion-Tool: LUTr scripts/convert-all-to-cube.mjs 2.0.0
# LUTr-Conversion-Date: 2026-07-28
# LUTr-Asset-URL: https://freshluts.com/luts/1533
# LUTr-Author: Gina
# LUTr-Author-URL: https://freshluts.com/users/90727
# LUTr-Attribution: Gina via Fresh LUTs
# LUTr-Source-Labels: gamma=Other; color=Warm; key=Neutral; style=sun dwon; LUTr assumption=input Rec.709 per repository policy
# LUTr-Duplicate-Assets: 1534:https://freshluts.com/luts/1534
# LUTr-Conversion-Warning: Input Rec.709 is a LUTr catalog assumption requested for this otherwise unspecified Fresh LUT; it is not verified by the upstream asset.
# LUTr-Note: Preserve this metadata and the upstream license notices when redistributing.
TITLE "Just like a Mango"
LUT_3D_SIZE 16
DOMAIN_MIN 0 0 0
DOMAIN_MAX 1 1 1
0.027451 0.027451 0.035294
0.049412 0.023529 0.032157
0.077647 0.025882 0.035294
0.112941 0.029804 0.037647
0.161569 0.028235 0.042353
0.219608 0.027451 0.05098
0.290196 0.014117 0.043921
0.370196 0.001569 0.043137
0.453333 0.002353 0.047059
0.534118 0 0.04
0.607843 0 0.031373
0.682353 0.000784 0.035294
0.756863 0.020392 0.018039
0.82902 0.073725 0.021176
0.898824 0.13098 0.015686
0.956745 0.172471 0.011765
0.025882 0.04 0.036078
0.048471 0.040784 0.042353
0.079372 0.041255 0.032471
0.118275 0.043921 0.044235
0.16047 0.044706 0.042667
0.229804 0.04 0.049411
0.294745 0.032785 0.041098
0.377725 0.016784 0.045961
0.455372 0.006588 0.040941
0.537255 0.003451 0.042039
0.615686 0.001569 0.036078
0.692549 0.020392 0.031216
0.759059 0.06149 0.02149
0.82949 0.099137 0.01302
0.895686 0.144941 0.01349
0.960588 0.192039 0.011687
0.033726 0.065098 0.054118
0.043451 0.064314 0.051137
0.069177 0.071216 0.049568
0.11451 0.076706 0.048157
0.174118 0.072314 0.049882
0.235294 0.071373 0.046274
0.305726 0.066196 0.045804
0.387451 0.063216 0.04549
0.465726 0.058196 0.043137
0.542745 0.060706 0.038588
0.618823 0.069804 0.032941
0.691137 0.087373 0.019608
0.764706 0.109333 0.013804
0.832941 0.139765 0.012079
0.89647 0.177569 0.007059
0.960627 0.216392 0.006259
0.029804 0.093333 0.072941
0.040941 0.093804 0.070431
0.061961 0.102117 0.067608
0.100235 0.10651 0.062902
0.170196 0.126117 0.057569
0.240784 0.123137 0.047059
0.326274 0.118431 0.051765
0.395137 0.115922 0.041412
0.473882 0.121255 0.034353
0.551216 0.126431 0.03153
0.628235 0.134902 0.021961
0.697098 0.151059 0.013804
0.765647 0.166431 0.003922
0.832314 0.190588 0
0.896941 0.218823 0.000784
0.959843 0.251686 0
0.011765 0.142745 0.080784
0.023373 0.141961 0.084706
0.051294 0.142274 0.089412
0.088627 0.153726 0.084078
0.149961 0.164862 0.073098
0.238432 0.195294 0.061176
0.318431 0.196078 0.043137
0.407843 0.191058 0.036863
0.485961 0.187294 0.025255
0.563921 0.186667 0.013961
0.630589 0.197647 0.001569
0.704 0.209412 0.000941
0.76847 0.225883 0
0.838275 0.243137 0
0.903059 0.26353 0.003765
0.960627 0.295584 0.003106
0 0.2 0.101961
0 0.203922 0.105882
0.014117 0.203922 0.104314
0.065882 0.210196 0.098824
0.12549 0.230589 0.094118
0.211765 0.243137 0.090196
0.311372 0.268236 0.058824
0.409412 0.27451 0.038431
0.49647 0.272941 0.017255
0.568627 0.257255 0
0.643137 0.262745 0
0.716862 0.270588 0.003138
0.778823 0.283922 0
0.838431 0.296471 0
0.906667 0.316863 0
0.96847 0.341137 0.003922
0.003138 0.270589 0.12549
0.000628 0.271373 0.118745
0.00549 0.272 0.118745
0.028706 0.275608 0.126274
0.104 0.286118 0.115137
0.190588 0.30353 0.110588
0.279216 0.318431 0.103843
0.392314 0.345098 0.068706
0.492078 0.355922 0.027922
0.568784 0.355138 0.001725
0.647843 0.34902 0
0.716862 0.334588 0.003138
0.785569 0.343372 0.000314
0.846274 0.358431 0
0.912314 0.377098 0.000157
0.971623 0.394471 0
0 0.343529 0.138039
0.005961 0.342275 0.140392
0.005334 0.341961 0.13851
0.004392 0.340549 0.145098
0.086432 0.352784 0.143059
0.173333 0.366274 0.132549
0.260235 0.38149 0.130353
0.359373 0.39451 0.109804
0.46902 0.42102 0.081255
0.575373 0.43953 0.033255
0.647843 0.437647 0.003922
0.723138 0.432627 0
0.786666 0.420235 0.000941
0.853491 0.420863 0
0.912313 0.432941 0.002353
0.974745 0.451702 0.001553
0.001569 0.41098 0.161569
0.000784 0.410196 0.160784
0.000628 0.409412 0.166588
0.000628 0.411294 0.165961
0.078902 0.411451 0.175372
0.172549 0.422745 0.162353
0.250666 0.435765 0.155451
0.341333 0.453647 0.14698
0.436706 0.470588 0.139294
0.541961 0.494588 0.105255
0.646274 0.52 0.064314
0.712941 0.522196 0.011294
0.783373 0.515137 0.000941
0.850981 0.507294 0.004863
0.91451 0.501961 0
0.981804 0.508964 0.003922
0 0.479216 0.193725
0.000628 0.479843 0.195137
0.001883 0.479686 0.195451
0.002981 0.476863 0.197961
0.091921 0.475451 0.199372
0.172549 0.483922 0.206274
0.251294 0.496314 0.198431
0.334274 0.512314 0.186353
0.420079 0.527372 0.182745
0.509647 0.547765 0.168784
0.604706 0.563922 0.149019
0.718118 0.601726 0.118431
0.782588 0.6 0.079529
0.848941 0.595294 0.031843
0.911215 0.591686 0.001255
0.973255 0.592125 0.000777
0.003922 0.54902 0.231373
0 0.54902 0.231373
0 0.54902 0.231373
0.013334 0.545098 0.236863
0.111372 0.54902 0.24
0.188235 0.54902 0.247059
0.262745 0.561568 0.247059
0.330981 0.572549 0.233726
0.412549 0.590588 0.236079
0.501176 0.599216 0.231373
0.584314 0.615686 0.219608
0.671373 0.636078 0.2
0.774118 0.671373 0.198431
0.840785 0.676863 0.163137
0.907451 0.678431 0.138039
0.976275 0.682314 0.113725
0 0.621961 0.286275
0.003294 0.617726 0.286118
0.005961 0.623843 0.281882
0.090039 0.619294 0.29051
0.15953 0.62353 0.292392
0.221961 0.618039 0.304314
0.284235 0.624314 0.304941
0.352 0.637647 0.303373
0.420392 0.647843 0.295372
0.494745 0.661804 0.294745
0.574118 0.676863 0.290196
0.654117 0.684863 0.283765
0.731137 0.701804 0.27498
0.833098 0.741961 0.284392
0.902117 0.754039 0.261961
0.957553 0.763874 0.25102
0.098039 0.692549 0.347451
0.118432 0.690196 0.352157
0.153098 0.686745 0.352
0.186196 0.692706 0.360314
0.23451 0.688627 0.359843
0.276079 0.692549 0.37098
0.324706 0.693333 0.374431
0.382118 0.702745 0.376314
0.442353 0.709177 0.374118
0.50698 0.723608 0.372549
0.575686 0.73647 0.37098
0.643608 0.746196 0.372706
0.716706 0.756863 0.365804
0.791843 0.771294 0.364392
0.884236 0.809882 0.379137
0.947349 0.829741 0.369451
0.243922 0.764706 0.433725
0.25051 0.763608 0.435294
0.266667 0.760941 0.436549
0.288627 0.767059 0.441568
0.32 0.763608 0.447687
0.351372 0.763921 0.452549
0.38902 0.763608 0.46102
0.433412 0.767843 0.465882
0.482196 0.777098 0.465726
0.537569 0.785883 0.465882
0.59451 0.8 0.46353
0.650353 0.80753 0.465412
0.719059 0.817882 0.46949
0.783529 0.832314 0.465255
0.847373 0.840785 0.461961
0.93233 0.871294 0.483075
0.372549 0.839215 0.531765
0.375529 0.84 0.533333
0.382432 0.838431 0.531294
0.400471 0.842196 0.543059
0.419608 0.84 0.545726
0.443137 0.843137 0.552941
0.479216 0.839372 0.553726
0.505098 0.844706 0.563137
0.546196 0.846118 0.558117
0.588549 0.858353 0.569726
0.636863 0.86353 0.564706
0.685647 0.873412 0.563764
0.73851 0.882667 0.562666
0.792471 0.893804 0.565333
0.849255 0.900863 0.561412
0.911976 0.911325 0.56469
0.50549 0.921334 0.631099
0.516486 0.920604 0.634251
0.517231 0.921334 0.635027
0.523616 0.923726 0.633545
0.54007 0.920596 0.638981
0.548824 0.921373 0.646863
0.581694 0.922189 0.643788
0.609137 0.923726 0.662431
0.642032 0.929192 0.668682
0.671075 0.936275 0.664808
0.705725 0.941019 0.658667
0.747247 0.9496 0.666393
0.787294 0.956706 0.664079
0.834353 0.963004 0.667192
0.880659 0.96847 0.673428
0.925255 0.980235 0.670274
0.027451 0.026667 0.05804
0.047843 0.027608 0.056314
0.073255 0.027765 0.058981
0.109647 0.030118 0.061647
0.162039 0.034353 0.069176
0.226667 0.032157 0.076079
0.292236 0.01898 0.072157
0.374588 0.001726 0.072157
0.45851 0.002353 0.070588
0.538039 0.000628 0.065726
0.615686 0.003138 0.060393
0.686902 0.001412 0.067294
0.76 0.032941 0.059608
0.826667 0.083138 0.051765
0.896941 0.131137 0.049412
0.960596 0.180314 0.058808
0.028235 0.041883 0.060863
0.052894 0.045333 0.064314
0.080439 0.045302 0.064941
0.120313 0.051388 0.06971
0.163106 0.051137 0.067828
0.231373 0.047373 0.072
0.299326 0.040722 0.071968
0.381553 0.0224 0.071937
0.461459 0.014024 0.070463
0.539953 0.008439 0.069459
0.615843 0.009255 0.063059
0.689569 0.032314 0.059922
0.763702 0.070902 0.05509
0.829804 0.111278 0.049976
0.895655 0.148643 0.044016
0.95875 0.193616 0.053744
0.047843 0.066981 0.078274
0.057349 0.067106 0.076769
0.076518 0.070933 0.072784
0.122102 0.075294 0.06789
0.178102 0.074761 0.06811
0.240941 0.073725 0.073882
0.313255 0.072879 0.072502
0.389553 0.068047 0.073412
0.466165 0.065098 0.07131
0.545004 0.066008 0.065192
0.619608 0.076863 0.062588
0.697381 0.094651 0.054965
0.765459 0.118776 0.048565
0.836361 0.146071 0.048816
0.896565 0.180957 0.046212
0.959871 0.219068 0.04406
0.047686 0.100235 0.091608
0.051733 0.102117 0.085239
0.072533 0.100863 0.083953
0.110149 0.1088 0.078933
0.180957 0.122729 0.07931
0.25051 0.120941 0.069647
0.328314 0.120564 0.070306
0.402165 0.122667 0.06513
0.479341 0.123294 0.064251
0.553914 0.128314 0.058039
0.628863 0.140078 0.050196
0.699765 0.152973 0.049192
0.7696 0.169694 0.044392
0.83131 0.193537 0.036957
0.895937 0.222682 0.030306
0.958441 0.254385 0.034662
0.023843 0.151216 0.092235
0.038588 0.153569 0.097443
0.058918 0.152722 0.104376
0.101239 0.15771 0.099482
0.158023 0.169161 0.096408
0.242667 0.193725 0.081255
0.327812 0.198432 0.069961
0.414714 0.189333 0.062275
0.490416 0.184377 0.046777
0.565333 0.192972 0.049067
0.634039 0.202667 0.045177
0.702431 0.209694 0.033318
0.770165 0.227671 0.025851
0.83953 0.243043 0.020862
0.900486 0.268204 0.0192
0.963765 0.298883 0.01911
0 0.213334 0.112157
0.001569 0.21051 0.111529
0.032 0.210981 0.120628
0.080941 0.214902 0.12
0.133019 0.230589 0.111216
0.215686 0.246275 0.10353
0.32251 0.268863 0.089726
0.412079 0.279216 0.067921
0.498824 0.271372 0.045804
0.572706 0.255843 0.029804
0.65098 0.266667 0.021177
0.716078 0.271372 0.013334
0.776941 0.284079 0.003137
0.83953 0.300706 0.001882
0.909804 0.323922 0.000784
0.963012 0.34502 0.007044
0 0.279059 0.131137
0 0.280565 0.130134
0.002635 0.277679 0.130761
0.051828 0.28229 0.141365
0.120596 0.29189 0.132831
0.200157 0.303843 0.127215
0.286902 0.317804 0.116549
0.404925 0.346886 0.091922
0.496094 0.360094 0.07062
0.571326 0.351467 0.029521
0.649882 0.342745 0.00251
0.716612 0.334369 0
0.786196 0.345004 0.000094
0.847373 0.359216 0.005271
0.911843 0.377224 0.000031
0.965383 0.39605 0
0 0.350118 0.152941
0 0.35131 0.153663
0.002918 0.348392 0.154322
0.018227 0.349804 0.157647
0.111247 0.353129 0.159153
0.190588 0.36549 0.152628
0.272189 0.382306 0.147137
0.36753 0.400815 0.127529
0.47429 0.424314 0.109019
0.578447 0.438808 0.066541
0.652392 0.438902 0.030275
0.716173 0.429553 0.000251
0.789082 0.420643 0.001506
0.855875 0.418949 0.0016
0.909929 0.432565 0.000471
0.976954 0.455162 0.00251
0 0.413804 0.175373
0.000251 0.417066 0.179577
0.001694 0.413647 0.178416
0.006149 0.411922 0.178479
0.104784 0.414526 0.189145
0.180079 0.422745 0.17898
0.262996 0.43978 0.177098
0.346008 0.456628 0.162478
0.437459 0.472565 0.152314
0.54902 0.497726 0.13029
0.647059 0.521255 0.094588
0.721161 0.517459 0.0512
0.786259 0.512377 0.014871
0.847529 0.50993 0
0.916392 0.503843 0.000377
0.973089 0.510567 0.000489
0.00251 0.483138 0.203138
0 0.481977 0.207153
0.001255 0.481004 0.202886
0.008816 0.480659 0.206024
0.110306 0.479843 0.215561
0.187765 0.486588 0.216
0.263122 0.496941 0.207561
0.341051 0.516235 0.202761
0.421836 0.529882 0.193412
0.513098 0.548392 0.184063
0.608314 0.566431 0.169726
0.720314 0.598996 0.142369
0.780988 0.600973 0.1136
0.844706 0.595608 0.070181
0.911121 0.595953 0.021929
0.971509 0.593101 0
0.000784 0.549804 0.24
0.003294 0.553569 0.243137
0.004235 0.552314 0.243921
0.035922 0.55451 0.245804
0.131294 0.553569 0.248627
0.193726 0.552941 0.253333
0.274353 0.562196 0.264471
0.341804 0.577255 0.248157
0.417725 0.590275 0.245176
0.501176 0.602353 0.236549
0.588235 0.618824 0.232942
0.672785 0.634353 0.221804
0.777882 0.67451 0.210196
0.845019 0.675294 0.180392
0.907294 0.675922 0.158745
0.968525 0.682314 0.137247
0.000941 0.622275 0.290196
0.003012 0.6224 0.291106
0.040188 0.621773 0.283922
0.118557 0.623122 0.302055
0.179921 0.620455 0.3056
0.236392 0.622588 0.312471
0.289757 0.628047 0.31658
0.358996 0.637741 0.314416
0.426447 0.648126 0.305914
0.499639 0.661522 0.306384
0.571921 0.675608 0.300236
0.657349 0.689412 0.297161
0.731921 0.704345 0.287686
0.835671 0.741804 0.300235
0.90011 0.750306 0.278212
0.963765 0.75936 0.261812
0.121725 0.69349 0.350745
0.141427 0.689726 0.354353
0.167247 0.688941 0.362322
0.199874 0.692832 0.367122
0.245177 0.690949 0.36891
0.287373 0.691294 0.377725
0.332078 0.696094 0.384157
0.387828 0.701773 0.384126
0.447279 0.711655 0.383122
0.507639 0.724612 0.383718
0.576941 0.735686 0.381647
0.644831 0.745882 0.379294
0.719498 0.758714 0.379388
0.793286 0.773678 0.378259
0.882573 0.810949 0.385067
0.948744 0.829005 0.378841
0.249569 0.763921 0.439215
0.259106 0.7648 0.440408
0.278149 0.761192 0.447184
0.294055 0.765741 0.449757
0.323357 0.763043 0.4512
0.359529 0.762666 0.459921
0.399216 0.766275 0.463686
0.439498 0.769726 0.471027
0.487247 0.77989 0.473757
0.539702 0.785255 0.474478
0.596078 0.797647 0.47451
0.652769 0.808753 0.470055
0.718055 0.819074 0.472941
0.781145 0.831184 0.471341
0.847498 0.84229 0.468832
0.933321 0.87315 0.492756
0.377412 0.84251 0.537411
0.376125 0.840502 0.533867
0.390525 0.841694 0.538572
0.404612 0.837929 0.540706
0.422055 0.840878 0.547326
0.446274 0.84 0.552941
0.482479 0.84251 0.556862
0.509114 0.845427 0.572831
0.548894 0.848502 0.567718
0.590714 0.857945 0.567027
0.64 0.866666 0.567843
0.689788 0.874133 0.572486
0.739106 0.883451 0.567529
0.792533 0.892612 0.568157
0.849255 0.901961 0.567216
0.907659 0.914463 0.571633
0.511741 0.918267 0.637428
0.510268 0.923068 0.633652
0.518079 0.92187 0.635525
0.528811 0.921683 0.638981
0.544808 0.917769 0.643057
0.559717 0.924447 0.64989
0.584799 0.924491 0.655319
0.610712 0.923432 0.665258
0.641633 0.930579 0.664501
0.668803 0.933151 0.664039
0.707239 0.940204 0.666393
0.747253 0.948986 0.669264
0.787346 0.954365 0.668759
0.834363 0.961388 0.670301
0.881746 0.97313 0.676688
0.926024 0.980196 0.670314
0.030588 0.031373 0.087843
0.048628 0.031059 0.087843
0.073882 0.031843 0.09004
0.110431 0.036079 0.08753
0.155451 0.033255 0.092079
0.227451 0.019608 0.09647
0.296 0.012235 0.097098
0.38102 0.007687 0.103843
0.461804 0.00251 0.108078
0.545098 0.000784 0.101961
0.621176 0.001569 0.102745
0.691451 0.006902 0.103843
0.764235 0.05302 0.09898
0.832941 0.096 0.097883
0.89851 0.144314 0.100079
0.962165 0.18891 0.108181
0.032157 0.047843 0.092549
0.054682 0.049725 0.094243
0.078871 0.052204 0.090322
0.116361 0.052267 0.095435
0.164894 0.047027 0.091734
0.232157 0.048627 0.102745
0.307231 0.045584 0.102525
0.386667 0.032408 0.105035
0.468392 0.023875 0.107137
0.547608 0.020392 0.101522
0.617568 0.030902 0.104314
0.694494 0.054839 0.098039
0.763357 0.085396 0.09898
0.832596 0.12298 0.093804
0.894243 0.159655 0.096565
0.959203 0.203661 0.103628
0.041098 0.070745 0.092706
0.060267 0.074792 0.094902
0.08753 0.076392 0.098824
0.128722 0.078557 0.101365
0.178259 0.083169 0.104659
0.245333 0.081569 0.10102
0.315859 0.078777 0.104031
0.395325 0.077051 0.101553
0.476706 0.07498 0.102745
0.551341 0.0784 0.104251
0.622745 0.084706 0.10149
0.698761 0.105349 0.096063
0.767216 0.126808 0.093773
0.831529 0.15542 0.096031
0.897412 0.188016 0.095028
0.965339 0.225642 0.099892
0.056314 0.110588 0.110588
0.074541 0.108078 0.114133
0.094714 0.110776 0.110149
0.122071 0.116392 0.108549
0.190055 0.125647 0.108894
0.252863 0.124549 0.103529
0.32891 0.125208 0.10309
0.405239 0.127498 0.101804
0.481349 0.133961 0.101647
0.559373 0.138353 0.101961
0.633412 0.146667 0.096314
0.701176 0.159247 0.091828
0.773082 0.174055 0.089318
0.834447 0.198588 0.089192
0.899263 0.227733 0.090039
0.959235 0.258421 0.09598
0.064784 0.162824 0.125961
0.06742 0.159937 0.120941
0.083483 0.158368 0.12069
0.111498 0.165584 0.126149
0.16709 0.175843 0.115608
0.255529 0.197804 0.116235
0.338133 0.19429 0.100769
0.42262 0.184031 0.094902
0.493616 0.192439 0.092361
0.567561 0.198557 0.091733
0.639059 0.206431 0.085961
0.707859 0.218165 0.083953
0.77371 0.232094 0.082667
0.83909 0.251231 0.078682
0.903718 0.271373 0.080188
0.962249 0.299586 0.088311
0.032941 0.225882 0.138823
0.038118 0.220392 0.137255
0.06353 0.223529 0.141961
0.103372 0.223686 0.136157
0.151059 0.238589 0.13302
0.226667 0.25098 0.126275
0.328157 0.27796 0.117961
0.420236 0.27498 0.099608
0.505255 0.269961 0.087843
0.577725 0.259608 0.073882
0.647059 0.270588 0.075294
0.716862 0.276863 0.076706
0.779765 0.28753 0.063686
0.840941 0.305255 0.069647
0.907921 0.325804 0.071373
0.968486 0.347428 0.0768
0.000314 0.286431 0.150274
0.0032 0.28982 0.154008
0.029145 0.289349 0.155859
0.092831 0.288596 0.157773
0.144408 0.295122 0.158243
0.212706 0.30949 0.151059
0.299357 0.326745 0.149396
0.415435 0.352973 0.125616
0.500925 0.358275 0.105788
0.579263 0.350682 0.08229
0.649568 0.339137 0.06353
0.720972 0.335278 0.046871
0.787671 0.3488 0.043043
0.845365 0.363639 0.04571
0.908925 0.380581 0.045773
0.96909 0.402894 0.061893
0.002353 0.35451 0.172078
0.002008 0.355859 0.174149
0.00433 0.354479 0.178604
0.072408 0.356016 0.179294
0.139388 0.354698 0.183373
0.207529 0.369726 0.174902
0.285992 0.385851 0.173898
0.378886 0.400784 0.158086
0.483765 0.429741 0.145819
0.580988 0.441569 0.111937
0.654118 0.435765 0.088157
0.720596 0.428581 0.05829
0.787984 0.419137 0.024282
0.853428 0.423937 0.008973
0.913662 0.435733 0.014369
0.973368 0.456259 0.026962
0.001569 0.420863 0.193255
0.000941 0.422118 0.193568
0.000251 0.423028 0.201161
0.061208 0.421992 0.198933
0.136376 0.4192 0.205177
0.20502 0.427294 0.202353
0.276329 0.442541 0.197114
0.357647 0.45851 0.19131
0.444894 0.475263 0.182212
0.552377 0.498729 0.162729
0.649725 0.521725 0.137725
0.723545 0.517772 0.108549
0.788706 0.514196 0.078745
0.854494 0.502996 0.037208
0.916392 0.498039 0.003859
0.981183 0.514742 0.001255
0.003765 0.484863 0.221804
0 0.487373 0.224502
0.001129 0.489757 0.223153
0.072941 0.488941 0.227765
0.143184 0.48571 0.236894
0.204863 0.491765 0.23451
0.278024 0.500863 0.233537
0.350024 0.516737 0.224847
0.433035 0.530008 0.223028
0.517773 0.550525 0.21029
0.615529 0.567843 0.199059
0.717333 0.599436 0.173459
0.783184 0.598777 0.150463
0.849506 0.594447 0.120596
0.911874 0.594259 0.087247
0.973994 0.59073 0.044602
0 0.555294 0.260392
0 0.556863 0.258824
0.020863 0.555922 0.263686
0.102275 0.55749 0.271529
0.165333 0.555294 0.26949
0.220392 0.555294 0.278431
0.281098 0.568941 0.274039
0.349804 0.578039 0.27247
0.429804 0.590902 0.270745
0.507137 0.606274 0.256941
0.587451 0.618039 0.258039
0.68 0.64 0.249725
0.778667 0.67498 0.241725
0.84 0.678117 0.213176
0.907921 0.677647 0.18902
0.968486 0.682314 0.173325
0.020706 0.625412 0.305255
0.056471 0.624659 0.3088
0.103718 0.625349 0.314886
0.155733 0.624219 0.315451
0.201568 0.625694 0.323043
0.258353 0.625412 0.328627
0.306008 0.627451 0.331074
0.36778 0.63749 0.330635
0.433632 0.652141 0.327279
0.504847 0.663749 0.324643
0.576471 0.677334 0.322196
0.657286 0.688126 0.316329
0.737506 0.705788 0.3168
0.838306 0.742776 0.319718
0.898385 0.748926 0.30309
0.962988 0.759153 0.291276
0.156863 0.692549 0.370196
0.165302 0.69189 0.373145
0.191435 0.690886 0.375749
0.221051 0.694934 0.380392
0.262682 0.692643 0.385192
0.299765 0.695843 0.391216
0.341302 0.695655 0.395733
0.397835 0.700392 0.398463
0.455938 0.710525 0.399404
0.513255 0.724298 0.400063
0.583529 0.734118 0.403921
0.646243 0.746792 0.397145
0.721882 0.760126 0.396235
0.794541 0.774023 0.392565
0.88411 0.808345 0.405302
0.951567 0.827733 0.403931
0.263686 0.763294 0.450666
0.273569 0.765114 0.451828
0.289819 0.764706 0.454525
0.311937 0.766651 0.458008
0.340204 0.766651 0.466886
0.368784 0.765333 0.471059
0.404894 0.765616 0.471529
0.446118 0.767655 0.4848
0.492831 0.778259 0.487373
0.546824 0.786635 0.485773
0.601726 0.796079 0.485961
0.659859 0.806933 0.483138
0.722039 0.820926 0.487027
0.781679 0.830683 0.485082
0.849066 0.841631 0.481632
0.932685 0.871912 0.496439
0.379765 0.842353 0.544785
0.387796 0.840188 0.541804
0.395231 0.838808 0.543529
0.40869 0.841255 0.549679
0.431498 0.840627 0.553192
0.452863 0.840314 0.557176
0.48549 0.840188 0.564611
0.513631 0.843137 0.575404
0.551843 0.849568 0.57098
0.594604 0.857569 0.574871
0.64047 0.866353 0.576
0.688063 0.873224 0.578635
0.741114 0.884581 0.573302
0.795671 0.893051 0.577663
0.850416 0.902055 0.578196
0.907503 0.915873 0.573355
0.514964 0.919059 0.632777
0.517315 0.921392 0.638165
0.521248 0.92058 0.644408
0.529743 0.920451 0.642748
0.545439 0.922127 0.646483
0.566698 0.923718 0.649208
0.588765 0.925895 0.658573
0.609807 0.923431 0.664102
0.642407 0.92674 0.666889
0.670518 0.933661 0.668342
0.707231 0.942572 0.667992
0.748181 0.948711 0.672659
0.789327 0.95635 0.673925
0.829545 0.96454 0.675658
0.878657 0.974695 0.676459
0.926832 0.978643 0.673537
0.027451 0.035294 0.123922
0.046274 0.034823 0.122667
0.078588 0.034353 0.128157
0.117333 0.032 0.12298
0.153255 0.040314 0.124549
0.211765 0.032941 0.130196
0.290824 0.012549 0.127686
0.381804 0 0.127059
0.466039 0.000941 0.136
0.550274 0.002824 0.145255
0.621176 0.022745 0.150588
0.701333 0.045647 0.151373
0.764863 0.081412 0.154823
0.832941 0.115922 0.150431
0.897569 0.155137 0.151843
0.959851 0.202196 0.163067
0.027922 0.055373 0.129098
0.051043 0.050792 0.125678
0.084518 0.052517 0.130165
0.122384 0.054463 0.130886
0.160847 0.057914 0.128439
0.224627 0.05098 0.136314
0.304251 0.029992 0.134306
0.389459 0.005365 0.132204
0.474573 0.01989 0.145945
0.554667 0.046808 0.152282
0.623529 0.057726 0.150588
0.700549 0.079624 0.15018
0.767435 0.107106 0.149521
0.832188 0.134682 0.1488
0.896314 0.17302 0.149898
0.960483 0.216213 0.157617
0.035294 0.082981 0.130039
0.054149 0.080314 0.132831
0.087624 0.081945 0.134965
0.128314 0.082259 0.140455
0.172769 0.084643 0.142525
0.244863 0.079372 0.139294
0.322353 0.07269 0.142777
0.400408 0.083388 0.144596
0.481788 0.090918 0.149929
0.558274 0.095059 0.150871
0.636392 0.10651 0.153569
0.698604 0.121318 0.150526
0.769851 0.141208 0.147859
0.829773 0.170792 0.147231
0.899232 0.199373 0.15062
0.965015 0.235688 0.155446
0.045333 0.116392 0.139608
0.062494 0.11793 0.138635
0.095404 0.119027 0.142212
0.140173 0.124329 0.1488
0.198871 0.126557 0.149114
0.263686 0.134431 0.146823
0.335655 0.136565 0.148047
0.413396 0.136784 0.147984
0.487247 0.141898 0.14422
0.563482 0.147294 0.148988
0.637647 0.159373 0.148235
0.703906 0.171012 0.144973
0.773114 0.189239 0.145412
0.836832 0.208094 0.150055
0.899451 0.236486 0.145569
0.962684 0.268312 0.1623
0.059608 0.168157 0.149804
0.080471 0.170133 0.156016
0.114729 0.172706 0.155953
0.142965 0.177851 0.158996
0.189082 0.187043 0.154196
0.270274 0.196078 0.148706
0.350808 0.191655 0.146447
0.426541 0.195294 0.146227
0.499514 0.199781 0.147043
