site/assets/luts/freshluts--0002079-flora-portrait-cned.cube
# LUTr-Schema-Version: 2
# LUTr-ID: freshluts--0002079-flora-portrait-cned
# LUTr-Title: Flora Portrait (CNED)
# LUTr-Collection: Fresh LUTs
# LUTr-Collection-ID: freshluts-community
# LUTr-Source: https://freshluts.com
# LUTr-Retrieved: 2026-07-27
# LUTr-Source-File: submissions-raw/freshluts/cubes/2079__Panasonic_CNED_LUT_Flora_Portra.cube
# LUTr-Source-Format: CUBE
# LUTr-Source-SHA256: 1060d6b5cd8331b50411503e590901f5112c40248041c6063aeb082d0cbc6eb5
# LUTr-License: CC0-1.0
# LUTr-License-URL: https://freshluts.com/termsandconditions
# LUTr-License-Basis: site-terms
# LUTr-Transform-Class: creative-look
# LUTr-Tags: creative, freshluts, community, cube, green, low-key, panasonic-cinelike-d
# LUTr-Input-Color-Space: panasonic-cinelike-d
# LUTr-Input-Gamut: rec709
# LUTr-Input-Transfer: panasonic-cinelike-d
# LUTr-Output-Color-Space: srgb
# LUTr-Output-Gamut: rec709
# LUTr-Output-Transfer: srgb
# LUTr-Color-Space-Confidence: inferred-from-source-label
# LUTr-Domain-Normalized: true
# LUTr-Shaper: none
# LUTr-Original-Grid: 33x33x33
# LUTr-Conversion-Grid: 33x33x33
# LUTr-Conversion-Interpolation: none
# LUTr-Conversion-Method: Metadata normalization; numeric LUT samples preserved
# LUTr-Conversion-Tool: LUTr scripts/convert-all-to-cube.mjs 2.0.0
# LUTr-Conversion-Date: 2026-07-28
# LUTr-Asset-URL: https://freshluts.com/luts/2079
# LUTr-Author: DennisVanHeygen
# LUTr-Author-URL: https://freshluts.com/users/9278
# LUTr-Attribution: DennisVanHeygen via Fresh LUTs
# LUTr-Source-Labels: gamma=Panasonic Cinelike-D; color=Green; key=Low Key; style=Fresh look
# LUTr-Note: Preserve this metadata and the upstream license notices when redistributing.
TITLE "Flora Portrait (CNED)"
LUT_3D_SIZE 33
DOMAIN_MIN 0 0 0
DOMAIN_MAX 1 1 1
0 0 0.0209201
0 0 0.020798
0 0 0.021088
0 0 0.0215152
0.00939956 0 0.0223239
0.0307164 0 0.0231327
0.0527962 0 0.0236515
0.0759289 0 0.0236667
0.100389 0 0.0230106
0.126986 0 0.021149
0.155367 0 0.0189212
0.185367 0 0.0163424
0.216464 0 0.0137331
0.249104 0 0.0108034
0.282246 0 0.00759899
0.315496 0 0.00434882
0.348074 0 0.00117494
0.379919 0 0
0.409049 0 0
0.436866 0 0
0.463172 0 0
0.492897 0 0
0.528923 0 0.0173648
0.553277 0 0.0172732
0.577295 0 0.0166323
0.601755 0 0.0161288
0.626352 0 0.0159609
0.650233 0 0.0158236
0.673915 0 0.0157778
0.697292 0 0.0160372
0.719982 0 0.0162356
0.742031 0 0.0166934
0.76405 0 0.0175479
0 0 0.0213931
0 0 0.0214237
0 0 0.0218051
0 0 0.0218662
0.00889601 0 0.0223239
0.0294957 0 0.0229038
0.0512551 0 0.0231785
0.0749218 0 0.0234531
0.100038 0 0.0229191
0.127779 0 0.0213931
0.156619 0 0.0193637
0.186618 0 0.0168612
0.217456 0 0.0140688
0.249928 0 0.0110475
0.282979 0 0.00784314
0.316091 0 0.00448615
0.348531 0 0.00123598
0.380606 0 0
0.409659 0 0
0.437369 0 0
0.463859 0 0
0.489708 0 0
0.526711 0 0.0104067
0.554925 0 0.0168307
0.57911 0 0.0164034
0.603754 0 0.0160983
0.628428 0 0.0159457
0.652628 0 0.0161135
0.676509 0 0.0162661
0.700053 0 0.0166781
0.723384 0 0.0175174
0.745708 0 0.0184024
0.767803 0 0.0193484
0 0.0149081 0.0223545
0 0.0151217 0.0225223
0 0.0151217 0.0232547
0 0.015198 0.02327
0.00970474 0.0157778 0.0231632
0.0297246 0.0162814 0.0238193
0.051194 0.0161898 0.024155
0.0745098 0.0155947 0.0240024
0.0999466 0.0146639 0.0233768
0.128099 0.0128023 0.0216068
0.157275 0.0106661 0.0193027
0.187289 0.00851453 0.0168765
0.218143 0.00601205 0.0141756
0.250538 0.00399786 0.0111391
0.28365 0.00123598 0.00802625
0.316869 0 0.00483711
0.349371 0 0.00163272
0.381247 0 0
0.410513 0 0
0.438315 0 0
0.46479 0 0
0.490181 0 0
0.523033 0 0.00184634
0.557122 0 0.016907
0.581521 0 0.0166934
0.606577 0 0.0167849
0.631525 0 0.0170138
0.656016 0 0.0174868
0.680446 0 0.018204
0.704219 0 0.0188754
0.727626 0 0.0198215
0.750805 0 0.0214084
0.773648 0 0.0231022
0 0.0329137 0.0227665
0 0.0330968 0.0229648
0 0.0336767 0.0235142
0 0.0339666 0.0225223
0.0113375 0.0340734 0.0239261
0.0300603 0.0345006 0.0244144
0.0506294 0.034638 0.0245518
0.0732738 0.0340429 0.0239109
0.0983291 0.0328679 0.0226749
0.127001 0.0310521 0.020798
0.156909 0.028748 0.0184176
0.186969 0.0263676 0.0160067
0.218021 0.0239567 0.0135348
0.250492 0.0211337 0.0106355
0.283574 0.0181125 0.00755322
0.316777 0.0150454 0.0043946
0.34963 0.012253 0.00154116
0.381735 0.0093843 0
0.411032 0.00668345 0
0.4392 0.00495918 0
0.465827 0.00334173 0
0.491188 0.0016022 0
0.519112 0 0
0.557885 0 0.0147402
0.584497 0 0.0175937
0.609827 0 0.0179446
0.635279 0 0.0185855
0.660105 0 0.0193942
0.684977 0 0.0205692
0.709773 0 0.0222324
0.733913 0 0.0239261
0.757382 0 0.0257877
0.780819 0 0.0280766
0 0.0513924 0.0239414
0 0.0513619 0.0243687
0 0.0515297 0.0246586
0 0.0517433 0.0241703
0.011841 0.0519265 0.0244297
0.0310369 0.052079 0.0252537
0.0508583 0.0521553 0.0252079
0.0730449 0.0519417 0.0244755
0.097734 0.0508888 0.0228885
0.126284 0.0489204 0.0205081
0.156847 0.0466773 0.0181277
0.187335 0.0442359 0.0158236
0.218402 0.0417029 0.0134127
0.251225 0.0390784 0.0108797
0.284627 0.0362554 0.00810254
0.318074 0.033341 0.00521859
0.350912 0.0304875 0.00239567
0.383368 0.0278935 0
0.412818 0.025391 0
0.441108 0.023331 0
0.46836 0.0218357 0
0.494087 0.0204623 0
0.519051 0.019089 0
0.557137 0.00949111 0.0103914
0.589166 0.00440986 0.0201724
0.615228 0.00381476 0.0211643
0.641428 0.00363165 0.0225223
0.667018 0.0037995 0.0242008
0.692317 0.00390631 0.0257877
0.717205 0.00425727 0.0275578
0.742016 0.00521859 0.0299077
0.766033 0.00630198 0.0323033
0.789792 0.00761425 0.0349126
0 0.0696422 0.0243839
0 0.0692149 0.0248264
0 0.0691691 0.0254978
0 0.0690471 0.0256657
0.0126345 0.0692454 0.0258335
0.0320745 0.0695964 0.0262608
0.0518196 0.0697185 0.0260777
0.0732891 0.0694743 0.0250095
0.0977188 0.0688029 0.0233616
0.126146 0.0670176 0.020737
0.156909 0.0647135 0.0181125
0.18822 0.0625315 0.0161746
0.219623 0.0601205 0.0140841
0.252537 0.057435 0.0116579
0.286122 0.0546731 0.00909438
0.320104 0.0521706 0.00674449
0.353384 0.0496681 0.00437934
0.385946 0.047303 0.00209049
0.415946 0.0453193 0.000183108
0.444511 0.0434882 0
0.471839 0.0420996 0
0.498253 0.0414435 0
0.523613 0.0409857 0
0.557214 0.0356146 0.00726329
0.596078 0.0275731 0.0250553
0.622797 0.0274357 0.0265965
0.64921 0.0274815 0.0282139
0.675273 0.027985 0.0302434
0.701335 0.028809 0.0325628
0.726802 0.0296941 0.0348974
0.751751 0.0307469 0.0373693
0.776318 0.0323339 0.040177
0.800336 0.0338445 0.0426642
0 0.0879683 0.0239261
0 0.08748 0.0243534
0 0.0871443 0.0250401
0 0.0868849 0.0257115
0.0131533 0.0869306 0.0261845
0.032578 0.0871595 0.0264286
0.0526589 0.0875868 0.0263981
0.074052 0.0875868 0.025452
0.0980087 0.087068 0.0236973
0.126436 0.0857404 0.02121
0.157321 0.0835737 0.0185092
0.188968 0.0812848 0.016495
0.221103 0.0792859 0.0150607
0.254612 0.0769665 0.0131838
0.288731 0.0745708 0.0111391
0.322881 0.0721447 0.00898756
0.356695 0.0700847 0.00717174
0.389395 0.0680705 0.0053254
0.419898 0.0664683 0.00387579
0.449424 0.0656291 0.00318914
0.47747 0.0649119 0.00259403
0.50399 0.0644999 0.00230411
0.529839 0.0645304 0.00244144
0.558907 0.0627298 0.00679026
0.60177 0.0533608 0.0276341
0.631525 0.0525216 0.0325475
0.658579 0.0531624 0.0348058
0.684886 0.0538643 0.0370794
0.710918 0.0547341 0.0394598
0.736904 0.0561227 0.0423285
0.762173 0.057496 0.0451514
0.786816 0.059144 0.0481575
0.811399 0.0612192 0.0515602
0 0.106554 0.0222782
0 0.106233 0.0226749
0 0.105943 0.0233158
0 0.105608 0.0240177
0.0122988 0.105776 0.0249485
0.0324407 0.106035 0.0254978
0.0527352 0.10631 0.0255283
0.074464 0.106615 0.0250248
0.0983597 0.106371 0.0236057
0.126574 0.105303 0.0212863
0.158022 0.103822 0.0191653
0.190326 0.101854 0.0175174
0.222766 0.0998398 0.0162661
0.256718 0.0977493 0.0148165
0.291722 0.095964 0.0135348
0.326696 0.0941787 0.0122072
0.361151 0.092668 0.011017
0.394507 0.0914931 0.0101472
0.425406 0.0902571 0.00915541
0.454963 0.0894789 0.00857557
0.483589 0.0893873 0.00869764
0.510597 0.0894942 0.0089723
0.536751 0.0898909 0.00953689
0.563317 0.0905013 0.0107271
0.605447 0.0826886 0.028687
0.640589 0.0790265 0.0392157
0.667979 0.0799573 0.0418097
0.694697 0.0811322 0.0445869
0.721157 0.0823072 0.0473182
0.747112 0.0836194 0.0501411
0.772869 0.0854505 0.0534218
0.797711 0.0872206 0.0565957
0.822126 0.08925 0.0599832
0 0.125902 0.0195621
0 0.125917 0.0198367
0 0.125978 0.0204471
0 0.125704 0.0209506
0.00933852 0.125795 0.0217746
0.030518 0.126345 0.0228275
0.0517281 0.126864 0.0234073
0.073991 0.127321 0.0234531
0.0984817 0.127581 0.0228885
0.126711 0.126802 0.0211032
0.158053 0.12546 0.0191958
0.191318 0.124224 0.0183719
0.224887 0.122911 0.0180362
0.259892 0.121477 0.0174411
0.295384 0.119966 0.0166171
0.331106 0.11873 0.0159915
0.365927 0.117494 0.0152132
0.399176 0.116472 0.0146029
0.430961 0.116075 0.0145418
0.461021 0.115785 0.0145418
0.489723 0.11577 0.0148013
0.517082 0.11635 0.0156252
0.543557 0.11696 0.0164187
0.570016 0.117784 0.0174563
0.607095 0.11397 0.0285039
0.649516 0.107271 0.0456092
0.676951 0.108186 0.0482338
0.703716 0.109377 0.0510567
0.730694 0.111025 0.0543069
0.75697 0.112596 0.0574044
0.782635 0.114412 0.0607156
0.808026 0.116747 0.0644694
0.832715 0.118868 0.0679789
0 0.146593 0.0150759
0 0.14696 0.0150454
0 0.147494 0.0155337
0 0.147875 0.0161288
0.00442512 0.148394 0.0170138
0.0259861 0.148989 0.0179751
0.048127 0.149874 0.0190738
0.0711986 0.150591 0.0197452
0.096376 0.151156 0.0200198
0.125704 0.151354 0.0197299
0.157717 0.150713 0.0189212
0.191257 0.149676 0.018555
0.225498 0.148623 0.018616
0.261387 0.147677 0.018677
0.297612 0.146609 0.0184939
0.333837 0.145663 0.018265
0.369558 0.145113 0.0183566
0.40296 0.14435 0.0181277
0.434714 0.143847 0.0180667
0.465309 0.144045 0.0186465
0.494285 0.144335 0.0192874
0.521752 0.144961 0.0202029
0.548745 0.14609 0.0216068
0.575525 0.147082 0.022858
0.606256 0.146593 0.0271916
0.65333 0.138628 0.0467384
0.684215 0.138384 0.0526436
0.711376 0.139803 0.0557412
0.738216 0.141344 0.0589303
0.76495 0.143343 0.0625162
0.79086 0.145235 0.0659495
0.816022 0.147417 0.0695811
0.841276 0.150072 0.07364
0 0.16878 0.010193
0 0.169665 0.0104677
0 0.170581 0.0107576
0 0.171359 0.0110323
0 0.172717 0.0121767
0.0213321 0.17409 0.0135348
0.0441444 0.175525 0.0150149
0.0683757 0.177035 0.0166171
0.0941634 0.177935 0.0175326
0.123659 0.178103 0.017731
0.156359 0.178103 0.0180667
0.19057 0.177569 0.0185245
0.22562 0.176974 0.0190433
0.262043 0.176226 0.0194095
0.299016 0.175555 0.0197452
0.335592 0.174731 0.0198062
0.37145 0.174136 0.0199741
0.405478 0.173953 0.0204623
0.437644 0.173739 0.0207828
0.468193 0.173846 0.0213779
0.497673 0.174548 0.0225071
0.525246 0.175326 0.0236515
0.552254 0.176379 0.0250401
0.579721 0.177935 0.0269169
0.607645 0.179294 0.0286412
0.651499 0.173236 0.0435187
0.68986 0.16968 0.0551308
0.717464 0.171557 0.0587472
0.744579 0.173251 0.0621195
0.771176 0.175128 0.0656596
0.797604 0.177508 0.0696117
0.823011 0.179736 0.0733349
0.847913 0.182147 0.0771954
0 0.192447 0.0049897
0 0.193988 0.00601205
0 0.195743 0.00723278
0 0.197314 0.00828565
0 0.199069 0.00958267
0.0184634 0.201144 0.0112612
0.0413367 0.203006 0.0128328
0.0655833 0.204776 0.0144503
0.0922408 0.206531 0.0162203
0.122271 0.207233 0.0171817
0.155001 0.207279 0.0178378
0.189578 0.20708 0.0184939
0.225193 0.206836 0.0192874
0.262074 0.206271 0.0198215
0.299489 0.205753 0.0203555
0.336812 0.205402 0.0209964
0.372976 0.204929 0.0213779
0.406897 0.204578 0.0217594
0.439643 0.204807 0.0226749
0.470527 0.205142 0.0235752
0.500008 0.205814 0.0247501
0.528191 0.20708 0.0264591
0.555367 0.20824 0.0280461
0.582742 0.209583 0.0297704
0.611109 0.211383 0.0319524
0.647837 0.209186 0.0402075
0.694286 0.202716 0.0564584
0.722438 0.204074 0.0604257
0.750027 0.206149 0.0642557
0.776699 0.208057 0.0678874
0.80293 0.210147 0.0716106
0.828702 0.212818 0.0758373
0.853849 0.215259 0.0797742
0 0.218708 0.0016022
0 0.220523 0.00296025
0 0.222522 0.00448615
0 0.224704 0.00624094
0 0.226993 0.0081178
0.0168002 0.229435 0.010193
0.0403449 0.23209 0.0125734
0.0646677 0.234226 0.0144656
0.0909895 0.235996 0.0161288
0.121355 0.237308 0.0175174
0.154223 0.237766 0.0182956
0.188968 0.237827 0.018967
0.224842 0.237812 0.019791
0.262211 0.237552 0.0205386
0.29984 0.237064 0.021088
0.337407 0.236728 0.0217746
0.374273 0.236713 0.0227054
0.408515 0.236576 0.0234073
0.441215 0.236637 0.0242313
0.472618 0.237385 0.0256199
0.502266 0.238148 0.0269322
0.530312 0.239261 0.0285496
0.558114 0.240955 0.0307164
0.585763 0.242481 0.0326543
0.614008 0.244099 0.0346532
0.645182 0.244511 0.0386969
0.694179 0.238102 0.0547036
0.727138 0.237659 0.0616922
0.754482 0.239551 0.0653544
0.781643 0.241917 0.0694285
0.80798 0.244099 0.0732433
0.833463 0.246509 0.0771649
0.8589 0.249348 0.0814984
0 0.247013 0
0 0.2495 0.000488289
0 0.25211 0.00265507
0 0.254505 0.00457771
0 0.25742 0.00708019
0.0155489 0.260151 0.0093843
0.0389105 0.262898 0.0118105
0.0638132 0.265782 0.0144198
0.0902571 0.267964 0.0163729
0.120287 0.269276 0.0175937
0.153307 0.270176 0.018616
0.18819 0.270588 0.0194095
0.224109 0.27071 0.0201724
0.261784 0.270741 0.0209964
0.299977 0.270649 0.0218814
0.337728 0.270344 0.0225681
0.374624 0.270161 0.0233463
0.4094 0.270451 0.024506
0.442405 0.270665 0.0255436
0.473762 0.271275 0.0268406
0.50396 0.272511 0.0286717
0.532189 0.273716 0.0304112
0.559792 0.275135 0.0323339
0.587915 0.277058 0.0347295
0.616312 0.278782 0.0368505
0.644785 0.280461 0.0392615
0.690791 0.275334 0.0515145
0.730922 0.272786 0.0620279
0.758328 0.274647 0.0657206
0.785229 0.276661 0.0694743
0.811872 0.279179 0.07364
0.837415 0.281544 0.0776074
0.862547 0.284047 0.0816052
0 0.277607 0
0 0.280278 0
0 0.283452 0.00117494
0 0.286183 0.00349432
0 0.289204 0.00607309
0.0148318 0.292576 0.00906386
0.0382849 0.295537 0.0116732
0.0628672 0.298314 0.0141604
0.0897231 0.30106 0.0166629
0.119844 0.302739 0.0181277
0.152758 0.303777 0.0191501
0.187793 0.30457 0.0201419
0.223835 0.304997 0.0209812
0.261387 0.305013 0.0216373
0.299748 0.305074 0.0224765
0.337972 0.305135 0.0234531
0.375158 0.305135 0.0243687
0.409857 0.305196 0.0252995
0.443351 0.305806 0.0267338
0.474861 0.306447 0.0281224
0.504891 0.307393 0.0297246
0.533593 0.309026 0.0318914
0.561349 0.310521 0.0339055
0.589273 0.312154 0.0360571
0.617823 0.313954 0.0383307
0.646235 0.31603 0.0408179
0.687694 0.312917 0.0493477
0.733318 0.308156 0.0610666
0.761425 0.310201 0.0652628
0.788342 0.312169 0.0690318
0.814603 0.314305 0.0728771
0.840467 0.316915 0.0771038
0.865614 0.319234 0.0809796
0 0.309651 0
0 0.312703 0
0 0.315816 0.00015259
0 0.319051 0.00297551
0 0.322255 0.00578317
0.0141604 0.325567 0.00869764
0.0382086 0.329183 0.0119936
0.062974 0.33228 0.0147402
0.0895399 0.33492 0.0171206
0.119921 0.337041 0.018967
0.152819 0.338308 0.0201267
0.18764 0.339132 0.0210117
0.223865 0.339925 0.0220493
0.261631 0.340276 0.0228428
0.299886 0.340307 0.0235142
0.337987 0.340291 0.0242466
0.375677 0.340673 0.0254978
0.410483 0.34081 0.0264439
0.443839 0.341161 0.0276188
0.475822 0.342199 0.0293736
0.505974 0.343175 0.0310216
0.534432 0.344457 0.0329137
0.56257 0.346273 0.0352483
0.590524 0.347875 0.0373693
0.619043 0.349554 0.0395514
0.647288 0.351415 0.0419165
0.682887 0.350912 0.0472725
0.729412 0.34609 0.0576028
0.761791 0.34609 0.0631418
0.79057 0.347646 0.0678111
0.816968 0.349538 0.0716411
0.842466 0.351705 0.0754864
0.867796 0.354299 0.0796674
0 0.34226 0
0 0.345785 0
0 0.349172 0.000747692
0 0.352407 0.00315862
0 0.356191 0.00657664
0.0150301 0.359655 0.00968948
0.0387427 0.363088 0.0127718
0.06392 0.366659 0.0159915
0.0906081 0.369528 0.018616
0.120775 0.371603 0.0204013
0.153964 0.373327 0.0219425
0.188754 0.374319 0.0228733
0.224643 0.375006 0.0236973
0.262486 0.375601 0.0245823
0.300847 0.37586 0.0253452
0.33901 0.375952 0.0260319
0.376394 0.376074 0.0268864
0.411582 0.376577 0.0281682
0.444984 0.376928 0.0292973
0.476661 0.377584 0.0306706
0.507164 0.378882 0.0325933
0.535668 0.380118 0.0344549
0.563546 0.381537 0.0364385
0.591638 0.383246 0.0386969
0.620325 0.385031 0.041001
0.648432 0.386664 0.0431525
0.67837 0.387732 0.046067
0.716152 0.386313 0.0520333
0.750713 0.385534 0.0575265
0.782773 0.385443 0.0627298
0.813443 0.386114 0.0681315
0.841794 0.386969 0.0728771
0.868467 0.388281 0.077348
0 0.375952 0
0 0.379431 0
0 0.38323 0.00170901
0 0.386557 0.00422675
0 0.390158 0.00746166
0.0164645 0.394156 0.0111696
0.0403449 0.397742 0.0144656
0.0652323 0.401099 0.0175479
0.0922713 0.404379 0.0205539
0.122393 0.406516 0.0224002
0.155215 0.408026 0.0237583
0.190265 0.40943 0.0250095
0.226139 0.410269 0.0259098
0.263615 0.410712 0.0265049
0.301793 0.410925 0.0271
0.34023 0.411383 0.0280156
0.377554 0.41149 0.0287938
0.412299 0.411643 0.0295872
0.446067 0.412299 0.0309758
0.47776 0.412955 0.0323033
0.507958 0.413825 0.0337987
0.536721 0.41529 0.0358587
0.564492 0.416556 0.0377356
0.592386 0.417945 0.0396735
0.620966 0.419547 0.0418555
0.64921 0.421256 0.0440986
0.676768 0.422843 0.0461891
0.704982 0.424186 0.0487221
0.736095 0.424628 0.0523842
0.767788 0.424475 0.0564736
0.799191 0.424292 0.0611582
0.830045 0.424598 0.0664225
0.859449 0.424781 0.0713817
0 0.409644 0
0 0.413214 0
0 0.416968 0.00341802
0 0.420722 0.00642405
0 0.424399 0.00981155
0.018616 0.428077 0.0132448
0.0428626 0.432074 0.016968
0.0678111 0.435492 0.0201572
0.0944991 0.438514 0.0229496
0.125002 0.441077 0.0252537
0.157733 0.442649 0.0265812
0.19237 0.443763 0.0275731
0.228367 0.444892 0.0286717
0.265736 0.44538 0.0292515
0.303746 0.445609 0.0297246
0.341695 0.445731 0.0302281
0.379309 0.446189 0.0311894
0.413886 0.446281 0.0318761
0.447181 0.44651 0.0327153
0.479072 0.447333 0.0341802
0.509163 0.448066 0.0355535
0.53756 0.449088 0.037171
0.565484 0.450477 0.0391241
0.593393 0.451835 0.0410315
0.621683 0.453071 0.0428473
0.649699 0.454475 0.044831
0.677272 0.456001 0.046891
0.704021 0.457527 0.0489052
0.730434 0.459037 0.0508736
0.757214 0.46067 0.0534218
0.78555 0.461204 0.0563516
0.814649 0.461326 0.0599985
0.844343 0.46154 0.0644694
0 0.443015 0
0 0.44686 0.00314336
0 0.450568 0.00622568
0 0.454139 0.00950637
0 0.458137 0.0132906
0.022446 0.461875 0.0168307
0.0463722 0.465522 0.0203098
0.0716411 0.469276 0.0238499
0.0982834 0.472282 0.0266423
0.128298 0.474449 0.0286107
0.161318 0.476326 0.0303044
0.195804 0.477455 0.03122
0.231342 0.478264 0.0319982
0.268498 0.478721 0.0324712
0.306661 0.47924 0.0331273
0.344381 0.479255 0.0334783
0.381369 0.479271 0.033875
0.416007 0.479606 0.0347143
0.44921 0.479744 0.0354314
0.480674 0.480171 0.0363775
0.510918 0.481071 0.0379034
0.539132 0.481865 0.0392615
0.566659 0.48278 0.0407416
0.594522 0.484031 0.0425422
0.622827 0.485222 0.0443427
0.650584 0.486336 0.0459602
0.677943 0.487587 0.0477607
0.704555 0.48893 0.0496223
0.730694 0.490135 0.0513619
0.756268 0.491478 0.0531624
0.781521 0.493233 0.0553445
0.806088 0.494652 0.0574044
0.83209 0.49543 0.0600443
0 0.475822 0.00383001
0 0.479622 0.00743114
0 0.483574 0.0107424
0 0.487098 0.0140841
0.00364691 0.490791 0.0176242
0.0275273 0.494804 0.0215152
0.0513619 0.498375 0.0249638
0.0762188 0.501701 0.0281834
0.103166 0.504952 0.0313268
0.133089 0.507088 0.0332647
0.165576 0.508598 0.0345464
0.200275 0.509926 0.0357519
0.235508 0.510658 0.0363165
0.272419 0.511009 0.0366217
0.310018 0.511116 0.0368658
0.347875 0.511421 0.0374151
0.384558 0.511345 0.0375982
0.418509 0.511208 0.0379034
0.451774 0.511452 0.0386358
0.482979 0.511666 0.0393378
0.512734 0.512093 0.0402838
0.541085 0.513008 0.0417639
0.568521 0.513802 0.0430915
0.595972 0.51458 0.0444495
0.624109 0.515526 0.0459449
0.651698 0.516442 0.0474403
0.678752 0.517372 0.0488594
0.705104 0.518395 0.0504158
0.73138 0.519692 0.0522621
0.756725 0.520745 0.0538033
0.781415 0.521889 0.0553902
0.805707 0.523445 0.0574502
0.829297 0.524834 0.0592966
0 0.508049 0.00923171
0 0.51165 0.012253
0 0.515419 0.0159457
0 0.519036 0.0194858
0.00955215 0.522637 0.0230106
0.0330205 0.526238 0.026566
0.0571756 0.530053 0.0303502
0.0819104 0.533303 0.0335088
0.108324 0.53608 0.0361944
0.138399 0.538399 0.0383307
0.170718 0.539773 0.0395209
0.204852 0.540734 0.0402838
0.239979 0.541421 0.0408637
0.276951 0.541939 0.0413062
0.314153 0.541894 0.0412299
0.351278 0.541695 0.0411688
0.387793 0.541741 0.041474
0.421561 0.541497 0.0415808
0.454322 0.541329 0.0417945
0.485618 0.541634 0.0425727
0.515038 0.541802 0.0432288
0.542824 0.542184 0.0440375
0.570275 0.542947 0.0453803
0.597635 0.543618 0.0465553
0.625452 0.544228 0.0476844
0.652964 0.545037 0.0490578
0.679835 0.545769 0.0502632
0.705943 0.546532 0.0515297
0.731762 0.547356 0.0528572
0.757321 0.548577 0.054612
0.781949 0.549661 0.0561685
0.805936 0.550881 0.0578012
0.82977 0.552438 0.0598764
0 0.539284 0.0145266
0 0.542977 0.0181888
0 0.546593 0.0217594
0 0.549981 0.0250553
0.0159457 0.553841 0.028809
0.0392462 0.557351 0.0322576
0.0628519 0.560739 0.0355688
0.0878462 0.564218 0.0390173
0.114107 0.566979 0.0416266
0.143679 0.568917 0.0433356
0.176135 0.570489 0.0447242
0.209949 0.571237 0.0452583
0.244678 0.571694 0.0455177
0.281102 0.571847 0.0455787
0.318364 0.571954 0.0456245
0.355184 0.571603 0.0454108
0.390799 0.57116 0.0451209
0.424521 0.570916 0.0451209
0.456931 0.570474 0.0450294
0.487678 0.570321 0.0452583
0.51725 0.570626 0.0460212
0.544854 0.570855 0.0466468
0.571832 0.57116 0.0473945
0.599145 0.571756 0.0485237
0.626749 0.572168 0.049424
0.653925 0.572656 0.0503548
0.68069 0.573205 0.0514382
0.707042 0.574197 0.0529335
0.732799 0.574945 0.0541695
0.758007 0.57583 0.0555123
0.782879 0.577127 0.0573129
0.806821 0.578317 0.0589303
0.830335 0.579614 0.0606699
0 0.570413 0.0205234
0 0.574151 0.0241093
0 0.577844 0.0276951
0 0.581186 0.0308995
0.0218967 0.584726 0.0342412
0.0454566 0.588571 0.0379644
0.068925 0.591959 0.0411841
0.0932937 0.595041 0.0440681
0.119661 0.597971 0.0468299
0.148974 0.599771 0.0483558
0.180835 0.600931 0.0492409
0.214557 0.601694 0.0497749
0.249256 0.602213 0.0500801
0.285206 0.60206 0.0497749
0.321782 0.601633 0.0493019
0.358465 0.601282 0.049012
0.393637 0.600656 0.0485084
0.426856 0.59997 0.0480812
0.459327 0.599634 0.0480354
0.489784 0.599207 0.0479591
0.51873 0.598947 0.0480507
0.54641 0.599252 0.0487526
0.573266 0.599435 0.0493477
0.600259 0.599741 0.0500649
0.628061 0.600305 0.0511635
0.655207 0.600748 0.0520333
0.681865 0.601251 0.0530404
0.707897 0.601907 0.0541543
0.733898 0.602914 0.0556344
0.759091 0.603784 0.0569467
0.783673 0.604761 0.0583352
0.807828 0.606165 0.0601816
0.831296 0.607416 0.061799
0 0.602121 0.0267338
0 0.605722 0.030045
0 0.609293 0.0334478
0.00521859 0.612924 0.0368353
0.0282292 0.616358 0.0399939
0.0511177 0.619715 0.0431678
0.0747539 0.623285 0.04654
0.0989395 0.626276 0.0493172
0.124743 0.628809 0.0515908
0.154147 0.630701 0.0532387
0.185611 0.631586 0.0538338
0.218814 0.631952 0.0539559
0.253056 0.632166 0.0538949
0.289006 0.632059 0.0536812
0.325246 0.631464 0.0529946
0.361379 0.630716 0.0522621
0.396262 0.63006 0.051667
0.429129 0.629114 0.0509346
0.461082 0.628305 0.0503853
0.491691 0.628077 0.0504311
0.520546 0.627771 0.0504921
0.54786 0.62771 0.0507973
0.574914 0.628107 0.0515755
0.601892 0.628336 0.0521859
0.629358 0.628626 0.0528878
0.656458 0.628992 0.0537423
0.683375 0.629725 0.0549477
0.709316 0.63032 0.0559396
0.734997 0.630976 0.057023
0.760403 0.632059 0.0585184
0.784924 0.63299 0.0599374
0.808789 0.634089 0.0614176
0.832441 0.635554 0.0632334
0 0.633967 0.0327001
0 0.637385 0.0358282
0 0.640726 0.0390326
0.0108797 0.643854 0.0419471
0.0340581 0.647471 0.045304
0.0568093 0.65066 0.0483253
0.0797436 0.653666 0.0511482
0.103899 0.656657 0.0539254
0.129381 0.658885 0.0559243
0.158145 0.660304 0.0570382
0.189639 0.661219 0.0576791
0.222736 0.66157 0.0578164
0.256519 0.661448 0.0573892
0.291936 0.660975 0.0567483
0.328008 0.660349 0.0560006
0.363821 0.659419 0.0550393
0.398215 0.658457 0.0541543
0.431266 0.657755 0.0536049
0.463096 0.656886 0.0529335
0.493309 0.656306 0.0526284
0.522316 0.656229 0.0528267
0.549584 0.656153 0.0530709
0.576333 0.656229 0.0534676
0.603525 0.656672 0.0543679
0.630945 0.656901 0.0549783
0.657938 0.657191 0.0556344
0.68455 0.657572 0.0564889
0.710735 0.658412 0.0577707
