site/assets/luts/freshluts--0001225-yatna-color.cube
# LUTr-Schema-Version: 2
# LUTr-ID: freshluts--0001225-yatna-color
# LUTr-Title: YATNA COLOR
# LUTr-Collection: Fresh LUTs
# LUTr-Collection-ID: freshluts-community
# LUTr-Source: https://freshluts.com
# LUTr-Retrieved: 2026-07-27
# LUTr-Source-File: submissions-raw/freshluts/cubes/1225__Yatna_COLOR.cube
# LUTr-Source-Format: CUBE
# LUTr-Source-SHA256: 7199fecb90a682da24f3f5f2460329a620a375b2c92ae8949d94aed508d7ba55
# LUTr-License: CC0-1.0
# LUTr-License-URL: https://freshluts.com/termsandconditions
# LUTr-License-Basis: site-terms
# LUTr-Transform-Class: creative-look
# LUTr-Tags: creative, freshluts, community, cube, orange, sony-s-log2
# LUTr-Input-Color-Space: sony-slog2-sgamut
# LUTr-Input-Gamut: sony-s-gamut
# LUTr-Input-Transfer: sony-s-log2
# LUTr-Output-Color-Space: srgb
# LUTr-Output-Gamut: rec709
# LUTr-Output-Transfer: srgb
# LUTr-Color-Space-Confidence: inferred-from-source-label
# LUTr-Domain-Normalized: true
# LUTr-Shaper: none
# LUTr-Original-Grid: 33x33x33
# LUTr-Conversion-Grid: 33x33x33
# LUTr-Conversion-Interpolation: none
# LUTr-Conversion-Method: Metadata normalization; numeric LUT samples preserved
# LUTr-Conversion-Tool: LUTr scripts/convert-all-to-cube.mjs 2.0.0
# LUTr-Conversion-Date: 2026-07-28
# LUTr-Asset-URL: https://freshluts.com/luts/1225
# LUTr-Author: Antony Eliezer
# LUTr-Author-URL: https://freshluts.com/users/32961
# LUTr-Attribution: Antony Eliezer via Fresh LUTs
# LUTr-Source-Labels: gamma=Sony S-Log 2; color=Orange; key=Neutral; style=Teal - Orange
# LUTr-Note: Preserve this metadata and the upstream license notices when redistributing.
# LUTr-Upstream-Comment: VEGAS Pro LUT
TITLE "YATNA COLOR"
LUT_3D_SIZE 9
DOMAIN_MIN 0 0 0
DOMAIN_MAX 1 1 1
0.02690452 0.03932709 0.05487014
0.0321953 0.04317447 0.05501922
0.07158451 0.04915904 0.05638349
0.20970851 0.07951003 0.05072037
0.52961797 0.11443761 0.00678304
0.71824384 0.15544352 0.00158243
0.81137079 0.2459259 0.00332445
0.85110873 0.28005669 0.00413612
0.88820314 0.31970492 0.00434642
0.05019271 0.04735725 0.05639944
0.03756554 0.05173787 0.05879656
0.06610214 0.06144281 0.06164322
0.17367969 0.10215749 0.05076353
0.52656484 0.13890268 0.00124611
0.71514964 0.19100046 0.00194189
0.8364293 0.17245032 0.00370901
0.87422204 0.22201221 0.00455796
0.89149785 0.2846342 0.04394976
0.07930975 0.07803153 0.06045093
0.042856 0.08187807 0.0871326
0.07407617 0.09741732 0.08528046
0.28267866 0.13484935 0.06108037
0.59236634 0.09904338 0.0329643
0.75059497 0.11223793 0.00495088
0.83565539 0.21122755 0.00408701
0.87335008 0.25620076 0.00496823
0.89421982 0.30980811 0.04417554
0.16332106 0.18944493 0.09026004
0.07407226 0.23022956 0.19032262
0.12401804 0.26446193 0.19719015
0.27632543 0.30803093 0.17177854
0.56211662 0.31705406 0.04918533
0.7475661 0.31781569 0.00425662
0.83784306 0.32501218 0.00501284
0.87756288 0.30763543 0.00527918
0.88849723 0.36587009 0.05936036
0.3735536 0.46386871 0.32781708
0.31279179 0.48868063 0.3845776
0.33396846 0.49778157 0.38912547
0.42032591 0.52274799 0.4094826
0.56748801 0.53982705 0.32398483
0.70266557 0.49620724 0.13602106
0.82620507 0.48251444 0.06994834
0.87498093 0.42799738 0.00623313
0.87628287 0.42870218 0.09655517
0.49873111 0.62649268 0.53211588
0.51555091 0.63403785 0.5411253
0.53734332 0.64555764 0.5507192
0.57583815 0.65969306 0.56420958
0.65087926 0.68724394 0.5941478
0.68352568 0.65983921 0.47123528
0.787516 0.61095411 0.27169511
0.86763018 0.56810057 0.14384796
0.85452431 0.57381481 0.23331171
0.60185599 0.72546321 0.64108247
0.61853379 0.73412085 0.64793599
0.63957578 0.74237585 0.6609444
0.66705084 0.75435627 0.67389619
0.69558197 0.76573521 0.68476063
0.74192959 0.78457528 0.70464373
0.76515979 0.75566739 0.59128147
0.82701313 0.68818057 0.36960739
0.83923638 0.6773392 0.37210548
0.64240319 0.74039525 0.68533188
0.66114318 0.75074553 0.6956166
0.68520945 0.76343119 0.70647919
0.71156293 0.77762741 0.72531372
0.74129456 0.7977249 0.74405378
0.75933951 0.80341905 0.74232918
0.76491535 0.78762954 0.68907982
0.81769001 0.75710493 0.59772372
0.87569398 0.7513116 0.55861378
0.67870009 0.78374922 0.72537243
0.69651371 0.79371077 0.73430216
0.71575123 0.80290532 0.74552625
0.74038976 0.81543386 0.76081347
0.76595217 0.827999 0.77470577
0.79021704 0.84155262 0.78933215
0.79396313 0.83297265 0.75764441
0.81758714 0.80051947 0.65859967
0.87566817 0.81436431 0.66444534
0.02935457 0.04678137 0.06216063
0.03443739 0.04692044 0.0623933
0.05012337 0.05464847 0.06666907
0.19647442 0.09705068 0.05993474
0.52960914 0.12974863 0.01808321
0.71814311 0.16730981 0.00582814
0.81143862 0.25374275 0.0073647
0.85048652 0.28442419 0.00790283
0.88725972 0.31772366 0.00800327
0.03782167 0.05744277 0.06598771
0.0345028 0.05729325 0.06654087
0.05475023 0.06710227 0.07373995
0.18380308 0.11283077 0.06038692
0.52470857 0.15101901 0.0136849
0.7137236 0.20414312 0.00655033
0.83239478 0.18377072 0.03388875
0.87043744 0.23046531 0.02818576
0.8877126 0.29340607 0.08671149
0.09311032 0.08239838 0.06835683
0.04304515 0.08525258 0.09889988
0.07404109 0.10245773 0.10397914
0.28256005 0.13894334 0.08330423
0.58738834 0.10610734 0.06103266
0.74581653 0.12403841 0.03790296
0.83156425 0.21967545 0.0390358
0.8664766 0.26311868 0.04079774
0.89292771 0.30968481 0.06841452
0.1708512 0.19606219 0.10846487
0.0669437 0.22225371 0.20842364
0.10959109 0.26518536 0.21369851
0.27809253 0.3120659 0.20931223
0.55915827 0.32247907 0.09327871
0.74126136 0.32372606 0.05910859
0.83396596 0.33711648 0.04855618
0.8740139 0.31939393 0.03747721
0.88161945 0.37510797 0.12017001
0.36054409 0.46157831 0.35987243
0.29703924 0.47687742 0.39499721
0.31206858 0.48521489 0.39888769
0.3956154 0.51792419 0.41596541
0.56494588 0.54374915 0.3630974
0.70106494 0.50218755 0.17926858
0.82436377 0.48754999 0.13779442
0.8745544 0.44229579 0.06979335
0.90344656 0.39255151 0.02758237
0.48569983 0.61856419 0.53889734
0.50158083 0.6254124 0.54670352
0.5251888 0.63643736 0.55624574
0.55959451 0.65079194 0.56429607
0.64106411 0.68117291 0.59873676
0.68194205 0.66118395 0.49458233
0.78617758 0.61528581 0.3093169
0.86632812 0.57686645 0.19469637
0.84533447 0.58878452 0.29152551
0.58706075 0.71680671 0.64002675
0.60461712 0.72505188 0.64870179
0.62676179 0.73308724 0.65873516
0.65319347 0.74642128 0.6707747
0.68610865 0.76014972 0.68587959
0.73782939 0.78156954 0.70906222
0.76312107 0.75604606 0.6070956
0.82449645 0.69114894 0.40408906
0.83838904 0.68200976 0.40030515
0.62220985 0.72390568 0.67720473
0.64339423 0.73473442 0.6866498
0.66556036 0.74944806 0.69898295
0.69172812 0.76495057 0.7128427
0.72285354 0.7822963 0.73517907
0.75944668 0.8038286 0.75581145
0.7615431 0.78737563 0.70165288
0.81788266 0.76140225 0.61442554
0.87212503 0.75363535 0.57769263
0.66186762 0.77160251 0.72023296
0.68073398 0.77960557 0.72808033
0.70052755 0.79058594 0.73840332
0.72292864 0.80570251 0.75246096
0.75303757 0.81928772 0.76947737
0.78077388 0.83657223 0.78632587
0.79423928 0.83418626 0.76838034
0.81743836 0.8014707 0.67118752
0.87445688 0.81501979 0.67772573
0.0271503 0.04717691 0.07091451
0.030775 0.04727995 0.0724924
0.04629289 0.05911655 0.08255024
0.18914215 0.10252964 0.08939136
0.51852006 0.14015041 0.07928515
0.7100336 0.17940916 0.04815342
0.80731404 0.26261842 0.01349246
0.84609121 0.28966397 0.01354244
0.8826347 0.31342676 0.01322703
0.04326903 0.06338081 0.07139079
0.03230657 0.06189006 0.08039973
0.04711172 0.07602473 0.09012239
0.18029085 0.12145481 0.09194284
0.51533037 0.15666576 0.08146057
0.70638621 0.21526904 0.03639242
0.82190448 0.19857201 0.12909091
0.86297286 0.24368902 0.12349357
0.88077366 0.30405775 0.1621854
0.10413767 0.0812082 0.09032392
0.05033417 0.10162364 0.12346508
0.07190271 0.11486687 0.13734826
0.25768536 0.1353904 0.1532423
0.56081426 0.1094792 0.14271092
0.72794592 0.1465739 0.1407489
0.81796169 0.24066098 0.15556225
0.85757911 0.27851349 0.16167603
0.8861146 0.31840676 0.17306544
0.18433107 0.2096912 0.14979649
0.084519 0.21881598 0.23055179
0.09119297 0.25040796 0.24385484
0.26272309 0.31759566 0.28856349
0.54836965 0.31971407 0.18904538
0.72679526 0.31817174 0.17279442
0.82220763 0.3469106 0.1707173
0.86128694 0.35600349 0.17905438
0.86431313 0.40686899 0.25141177
0.34278464 0.45792356 0.39934739
0.25128898 0.45078248 0.40868708
0.26852247 0.46292186 0.41484076
0.36248812 0.49999928 0.43497092
0.55614167 0.54818523 0.43861979
0.69351006 0.50497377 0.27855915
0.8106994 0.49577409 0.25204915
0.86395192 0.4645592 0.21183276
0.85343432 0.49344933 0.29872584
0.46073955 0.60508072 0.54440606
0.4771882 0.61105454 0.55067664
0.50284559 0.62095475 0.56072527
0.53839111 0.63509339 0.56859267
0.61709356 0.6677863 0.60049969
0.67565703 0.66273934 0.53970885
0.780101 0.62319708 0.38169345
0.85718888 0.58997357 0.30258209
0.83318257 0.61182469 0.39503479
0.56561601 0.70295733 0.64031971
0.5833298 0.70868558 0.64594883
0.6060943 0.71959019 0.65576649
0.63233876 0.73297912 0.66611809
0.6674884 0.74867439 0.67997211
0.73195916 0.77803719 0.71488345
0.76055944 0.75998485 0.62952065
0.82086176 0.70014274 0.46061051
0.8382206 0.68942052 0.45146599
0.60004312 0.70190281 0.66674316
0.61681831 0.71154523 0.67699224
0.64235383 0.72666681 0.68799174
0.66999096 0.74366128 0.70298672
0.69888818 0.76496488 0.71916556
0.73814607 0.78981924 0.74628097
0.75983089 0.78302324 0.70903176
0.81637228 0.76259661 0.6372261
0.87158567 0.75955653 0.60849398
0.6396969 0.75373125 0.71101218
0.65894955 0.76413238 0.72080547
0.68255347 0.77709609 0.73172998
0.70512301 0.78993857 0.74390143
0.73248249 0.805188 0.75965911
0.76749432 0.827209 0.78049248
0.79589319 0.83719581 0.78056359
0.81742883 0.80370981 0.69056207
0.87510842 0.81944901 0.69630843
0.03086918 0.05658309 0.0892214
0.0342955 0.05759054 0.09039254
0.04683043 0.07034943 0.10704724
0.14092571 0.12430194 0.16518596
0.49771962 0.14480403 0.17297548
0.69745839 0.19025733 0.1629115
0.79685444 0.27764836 0.13391572
0.83872926 0.29971412 0.09352003
0.87800825 0.3205401 0.03016189
0.05643221 0.0768609 0.07652505
0.03181152 0.06796443 0.09740778
0.04747284 0.07959005 0.11275374
0.14728993 0.14023153 0.16147423
0.48627791 0.17420918 0.17872021
0.69291371 0.22810805 0.167045
0.8040483 0.22564857 0.23090594
0.85165888 0.26223671 0.21493468
0.86861509 0.31713724 0.2433435
0.07648495 0.11809701 0.1424167
0.06892877 0.15089123 0.19625139
0.1010332 0.17473969 0.21844573
0.17313844 0.20898299 0.23009339
0.50420266 0.18891405 0.27931541
0.70241112 0.17534181 0.25101721
0.79730815 0.26324579 0.25859258
0.84292006 0.29389232 0.24882381
0.88354158 0.318683 0.23210402
0.20071676 0.22322388 0.22480446
0.13040276 0.27429676 0.30535477
0.1387272 0.27269077 0.29703692
0.23318458 0.31224841 0.32867411
0.49746433 0.31795877 0.32610798
0.69514692 0.33239311 0.306988
0.79720598 0.37471932 0.30415136
0.84169275 0.3973929 0.30301011
0.85893524 0.42925635 0.3282221
0.31699818 0.43798095 0.41653484
0.25122172 0.42950526 0.42138183
0.27334571 0.44032061 0.43004745
0.32334918 0.46128181 0.44560069
0.53679651 0.54396099 0.50468099
0.67399037 0.51169974 0.39929172
0.7915501 0.51059544 0.37407801
0.83974916 0.50017858 0.3541716
0.83027697 0.54279411 0.43069357
0.41651377 0.57759756 0.54370683
0.43412817 0.58432347 0.55097562
0.4604525 0.59577709 0.55917722
0.50244039 0.61168146 0.56901211
0.58416873 0.6444627 0.59449732
0.66777319 0.66705126 0.5898782
0.76795322 0.62993819 0.46654117
0.84014601 0.60617381 0.41773343
0.82443345 0.63236588 0.48744139
0.54178041 0.68129987 0.63723487
0.55687267 0.68982899 0.64297748
0.57951641 0.700472 0.64999294
0.60588008 0.71397221 0.66046965
0.6441558 0.73208505 0.67738789
0.71854669 0.76874852 0.7171945
0.75819755 0.76108187 0.66606241
0.81537986 0.70946354 0.52644992
0.85513127 0.69207966 0.48879313
0.61424118 0.70497459 0.67889774
0.62174642 0.7070204 0.68055212
0.63081241 0.71122229 0.68269509
0.64000607 0.71616685 0.68601632
0.67117459 0.73821425 0.70427024
0.71048552 0.76528126 0.7269069
0.75585306 0.77796221 0.72350472
0.81491452 0.76536345 0.67398185
0.86778772 0.76433712 0.65164459
0.62397665 0.73454416 0.70197123
0.63313633 0.7388854 0.70596653
0.65451998 0.75426924 0.71947545
0.68073946 0.76958746 0.73308289
0.7101959 0.78691012 0.74894369
0.74224496 0.80906826 0.77045071
0.79637897 0.83797437 0.79637045
0.81690621 0.80852169 0.72138226
0.87230301 0.82097089 0.72830492
0.04985068 0.07775317 0.1016975
0.02335527 0.0896294 0.14396359
0.048391 0.11944471 0.18153745
0.16705669 0.19070713 0.2426632
0.38263845 0.26827753 0.32997477
0.66188657 0.23607504 0.2941376
0.77658397 0.2936455 0.25850829
0.82831675 0.31189463 0.21164332
0.86993426 0.32523912 0.16435005
0.07976735 0.09531152 0.08033878
0.02301029 0.10463487 0.15238363
0.04467147 0.13235724 0.18410252
0.15718524 0.20915629 0.26088774
0.38753548 0.26679099 0.31910717
0.65348637 0.28183037 0.30195218
0.77485943 0.26035023 0.34307164
0.8290531 0.28561661 0.31338292
0.85260177 0.33442751 0.32330775
0.11984966 0.17435488 0.20089632
0.15771988 0.25119025 0.32213295
0.1948072 0.27585128 0.34420508
0.29185206 0.30564138 0.35193491
0.36403495 0.36303425 0.38077882
0.61663193 0.38230032 0.45110476
0.76351559 0.2990604 0.37523064
0.81930113 0.31446642 0.34347987
0.86784261 0.33393678 0.31202212
0.22625427 0.28258976 0.30331579
0.23871206 0.36991489 0.41660482
0.24998486 0.36946315 0.41270047
0.33296329 0.4031494 0.43950447
0.42742926 0.42734697 0.43198958
0.61919767 0.43833581 0.47668958
0.76331508 0.3892312 0.40920958
0.82147378 0.4088335 0.38961855
0.82984406 0.44970569 0.42112133
0.37393382 0.43352368 0.43393484
0.34425461 0.46872824 0.47976252
0.36129272 0.47367641 0.48400846
0.38914633 0.49052382 0.49699649
0.49650869 0.51961744 0.51682562
0.63111269 0.50856286 0.49878725
0.76455808 0.51837975 0.47465456
0.82356125 0.53224355 0.46654895
0.81461132 0.57289147 0.51851058
0.44753966 0.57351339 0.55935192
0.45996213 0.57729661 0.56413913
0.47478676 0.58226377 0.56671852
0.48852289 0.58834153 0.57114846
0.53922272 0.60717511 0.58576787
0.66002262 0.66429657 0.63368487
0.75379574 0.63887829 0.54491162
0.8255294 0.62948138 0.51972389
0.82850689 0.65050733 0.55090535
0.51979488 0.65830499 0.6328063
0.52970427 0.66383749 0.63562244
0.54641253 0.67158026 0.64420891
0.57228291 0.6863631 0.65360558
0.61690032 0.70892018 0.67069632
0.69556415 0.75151467 0.70983696
0.75268716 0.7640838 0.69784194
0.8091594 0.71874607 0.58762491
0.85740882 0.71020252 0.54517341
0.63213313 0.72032839 0.70436019
0.64030176 0.72059226 0.70414817
0.64587128 0.72061127 0.70299441
0.65444201 0.72070962 0.70152199
0.66635227 0.72463185 0.70299155
0.69750965 0.74356842 0.72070777
0.74520278 0.76600957 0.72695035
0.81355762 0.768053 0.70786011
0.86051434 0.7662856 0.69092816
0.63859129 0.73983073 0.71615148
0.64578086 0.74259269 0.71881217
0.65296268 0.7457419 0.72047126
0.66379589 0.74972278 0.72444761
0.68138146 0.76268393 0.73503906
0.73372352 0.79724342 0.76713371
0.79671621 0.83532643 0.80442953
0.81951195 0.81199187 0.7516343
0.8733151 0.82595217 0.75871241
0.10976999 0.10997865 0.11028552
0.01566385 0.2002909 0.29032031
0.09249757 0.23847805 0.33326083
0.27038065 0.3087621 0.39214292
0.35467437 0.34745291 0.38000172
0.51751274 0.44546631 0.47977519
0.69459623 0.45910218 0.52931279
0.79561251 0.34869313 0.38927433
0.83780932 0.35755226 0.3291989
0.11467003 0.15076432 0.14463322
0.01875826 0.2193065 0.29773408
0.0740811 0.24822186 0.33255348
0.23331641 0.32500407 0.40090877
0.40160081 0.38660735 0.41830897
0.51971972 0.48268414 0.50215721
0.67029649 0.50052214 0.55287647
0.77892059 0.39129594 0.47453088
0.81686646 0.37937617 0.43383303
0.24393848 0.28153637 0.32841095
0.31496832 0.37708843 0.45589647
0.34327656 0.39506537 0.47074553
0.4104991 0.41560125 0.48157412
0.46137348 0.44287691 0.46736753
0.5237928 0.49243131 0.50727016
0.66093564 0.54205316 0.57964021
0.7689476 0.44215 0.51076376
0.83708835 0.36046252 0.41953611
0.33668676 0.37031919 0.40593717
0.38081434 0.46900332 0.52091134
0.38799629 0.46954319 0.51909095
0.44334248 0.48776099 0.53340238
0.524692 0.51154757 0.53560841
0.55578178 0.53481227 0.54072428
0.67257565 0.56985384 0.59592128
0.78065705 0.48105374 0.52881998
0.78770572 0.50161225 0.53350532
0.44296098 0.4835481 0.50161111
0.42808634 0.52352059 0.54918528
0.44569436 0.5305506 0.55315208
0.46618837 0.53960496 0.56236005
0.54671669 0.56971169 0.58548635
0.59835356 0.58552063 0.58211452
0.7021755 0.58315992 0.60098863
0.79257941 0.53095096 0.53315449
0.79002583 0.56802976 0.56602657
0.49954462 0.60548735 0.60758716
0.50929099 0.60838586 0.61072046
0.51855087 0.6106959 0.61563241
0.53277439 0.61612856 0.61831492
0.57049769 0.6246922 0.62460214
0.62785679 0.64251661 0.63610345
0.72253567 0.63376689 0.61160165
0.80039203 0.6363458 0.5911501
0.83581197 0.64928043 0.58779794
0.55035049 0.66458744 0.65284747
0.55889678 0.66878128 0.65672094
0.57006252 0.67399806 0.66029882
0.58262223 0.67903298 0.66354311
0.60063994 0.68615723 0.67091048
0.66164201 0.71776438 0.69682223
0.74733245 0.76255172 0.73201823
0.80120957 0.72828847 0.64853823
0.84610426 0.72716141 0.6310302
0.65461016 0.74228501 0.73853827
0.6616264 0.74550426 0.7384634
0.6676504 0.74537045 0.73809522
0.67531466 0.74495536 0.73679143
0.68704438 0.74833727 0.73697275
0.7188139 0.75874823 0.74632764
0.74186468 0.76390773 0.74836951
0.8030327 0.75734109 0.73426646
0.85063833 0.76300287 0.72809231
0.6592654 0.75924677 0.74584907
0.66604954 0.7596854 0.74575168
0.67342508 0.76051712 0.74566031
0.68217176 0.76247907 0.74743247
0.69515431 0.76612496 0.7491706
0.73053485 0.7833932 0.76556903
0.7866686 0.82126337 0.80404913
0.82366312 0.8151561 0.78232807
0.8716141 0.82990557 0.78909755
0.1680731 0.21763466 0.27799988
0.25180176 0.38923019 0.49438682
0.31244782 0.40904227 0.50808638
0.40925926 0.44715542 0.53641468
0.50176102 0.47664309 0.54525328
0.54374295 0.50550622 0.53442001
0.61497235 0.56762284 0.59258264
0.65894634 0.59640157 0.62223047
0.73336685 0.54353321 0.5981673
0.31124219 0.36143437 0.43902868
0.39676386 0.45096052 0.54279011
0.45182759 0.47352037 0.56534266
0.50466204 0.49629223 0.57356584
0.54978925 0.51333809 0.56693542
0.57100445 0.53625429 0.55969614
0.61429936 0.57298005 0.59444708
0.65955746 0.61432749 0.63426965
0.73827261 0.54540932 0.59939784
0.40972242 0.41766581 0.47863874
0.46326098 0.49687275 0.5723564
0.48261133 0.51023543 0.58209127
0.52221394 0.52842069 0.59862036
0.577869 0.55192578 0.60261869
0.59927052 0.56881869 0.59304959
0.62294376 0.58727217 0.60511792
0.66555917 0.6250577 0.64178032
0.71591431 0.59850717 0.63512892
0.46952319 0.48365313 0.53453428
0.50642341 0.55508995 0.61168426
0.51329458 0.55935359 0.61476612
0.54628158 0.57685006 0.62897521
0.59361917 0.58998382 0.63515186
0.62836164 0.60469311 0.6274541
0.63989395 0.6136806 0.62491304
0.68064332 0.65086007 0.66086656
0.72121865 0.630889 0.65551323
0.51181793 0.54407769 0.58139426
0.5152446 0.59022164 0.6299513
0.52831024 0.59610188 0.63629907
0.54444605 0.60576993 0.64327145
0.60515279 0.62862027 0.66231507
0.64968246 0.64151669 0.66368937
0.6607191 0.64599425 0.64911413
0.7142598 0.657803 0.67356604
0.74823809 0.64772427 0.66519159
0.53342766 0.62358922 0.64801192
0.53905928 0.62869692 0.65242189
0.54940695 0.63283956 0.6565643
0.56503487 0.64121163 0.6648044
0.60170406 0.65761381 0.67835075
0.65955436 0.68431395 0.69768649
0.68737936 0.68427318 0.6807521
0.75576198 0.66232944 0.6741572
0.81720728 0.64286202 0.63187814
0.58241826 0.69303221 0.70208734
0.59085435 0.69797331 0.70388573
0.59934837 0.70021349 0.7049287
0.61043906 0.70360577 0.70935398
0.62816894 0.70913005 0.71348315
0.67225075 0.72284228 0.72312671
0.71091884 0.72911298 0.72353476
0.78300494 0.72522223 0.70397013
0.82575417 0.72836351 0.69696206
0.67518812 0.76881438 0.77452248
0.68227243 0.76976043 0.7752341
0.68912166 0.76954067 0.77474421
0.69773704 0.77284801 0.77486253
0.70870966 0.77654666 0.77793717
0.74111176 0.78804684 0.78943485
0.7577734 0.78360623 0.77587408
0.77553177 0.79556358 0.78849453
0.82597613 0.77936357 0.7813881
0.68613917 0.78387475 0.78170258
0.69282842 0.78390467 0.78478074
0.70048994 0.78780925 0.78418559
0.70796674 0.79017156 0.78543681
0.71921015 0.79329991 0.78826851
0.75278717 0.80672896 0.80072111
0.7860505 0.81679958 0.81055391
0.81115639 0.81730521 0.81230539
0.86170822 0.81883258 0.80946553
0.47325933 0.53890508 0.62937862
0.49356756 0.54599267 0.6354183
0.50977093 0.55422592 0.64080548
0.56393349 0.57163405 0.65576023
0.60718727 0.58305424 0.65552068
0.63582718 0.59773123 0.65232259
0.64598233 0.60685563 0.63862252
0.67238498 0.62942296 0.6576739
0.69116271 0.64522254 0.67559999
0.55219024 0.57172924 0.65650707
0.56035793 0.57661003 0.65996808
0.56967926 0.58243114 0.66570306
0.58967346 0.59146696 0.67137289
0.61888027 0.6036666 0.67305928
0.64368081 0.61269462 0.66769314
0.65081477 0.61995608 0.64876956
0.67557389 0.63647586 0.66309077
0.69593763 0.65621293 0.68170345
0.56894892 0.6002568 0.67554879
0.57915395 0.60713834 0.68252271
0.58949369 0.61261171 0.68717462
0.60488075 0.62036508 0.69382608
0.63277972 0.62909067 0.69286484
0.65642387 0.63622266 0.68722773
0.66718858 0.63847977 0.66663992
0.68042582 0.64721817 0.67003542
0.70180613 0.66614133 0.6898486
0.58734941 0.62984675 0.69706661
0.59500802 0.63284451 0.6990692
0.60311252 0.64113927 0.7070154
0.62254781 0.65304327 0.71453571
0.64705509 0.65638018 0.71413261
0.66998369 0.66160178 0.70904839
0.68310916 0.66276336 0.68665767
0.69333124 0.66997546 0.68607038
0.71349579 0.6889888 0.70416802
0.58988684 0.65319026 0.71130651
0.59629416 0.65755844 0.71515775
0.60424423 0.66389656 0.71997601
0.62086791 0.67338777 0.72729492
0.65864414 0.68476957 0.73215765
0.68593234 0.69109982 0.72862935
0.69908726 0.6917401 0.71233052
0.70815367 0.69510895 0.70663947
0.72715986 0.71117014 0.72180158
0.5894928 0.67339957 0.71931708
0.5921579 0.67545462 0.72275317
0.60040802 0.68081141 0.72513282
0.61014819 0.68663168 0.72755319
0.64710534 0.70400077 0.74446535
0.69319361 0.72183466 0.75059342
0.72081566 0.72454482 0.73976463
0.72710389 0.72610331 0.73021126
0.74980605 0.74052882 0.74975359
0.59850097 0.70593607 0.73427331
0.60656208 0.70782065 0.73567677
0.614052 0.71334046 0.74194556
0.62708199 0.72061533 0.74656165
0.65056652 0.73143542 0.75421226
0.69213474 0.74663198 0.76527077
0.74073696 0.76809049 0.77997208
0.75046402 0.76223111 0.76321346
0.78816777 0.76016271 0.77041149
0.68897843 0.7892614 0.80839854
0.69895631 0.79453832 0.81359577
0.70834267 0.79729724 0.81350219
0.71674275 0.79874057 0.81696135
0.7266165 0.80181676 0.81768233
0.75836372 0.81435716 0.82737094
0.7801612 0.80931854 0.81357145
0.78512657 0.80807513 0.80654693
0.80536658 0.82426739 0.82357287
0.70292383 0.80695915 0.81788957
0.70947319 0.80848998 0.81920129
0.71816897 0.8108471 0.81935406
0.72628474 0.81326145 0.82151657
0.7375223 0.81603307 0.82552975
0.77066702 0.82986039 0.83650351
0.804676 0.84133446 0.84344918
0.81522185 0.84166151 0.83755904
0.84000546 0.86241394 0.86000961
0.60990608 0.63010669 0.72025275
0.61498731 0.6316812 0.72186828
0.62051231 0.63255906 0.72288901
0.62786818 0.63489825 0.72208047
0.64719611 0.63933283 0.7216301
0.67025244 0.64501053 0.71566802
0.68532628 0.64934063 0.69916373
0.69641471 0.65938371 0.69470006
0.71174091 0.67254275 0.70867813
0.61515725 0.64077306 0.72764111
0.62056524 0.64310014 0.72999585
0.62878853 0.6450451 0.73205394
0.63480419 0.64701915 0.7320689
0.65336895 0.6508801 0.72966415
0.6743983 0.65351111 0.72289771
0.69243485 0.66115856 0.7092545
0.70274663 0.67172688 0.70281804
0.71721846 0.68205136 0.71449262
0.62231892 0.65606511 0.73917919
0.62770867 0.65841854 0.73816627
0.63529736 0.66410065 0.74242252
0.64531291 0.66936797 0.74492812
0.66460735 0.67140633 0.74385095
0.68500525 0.67388928 0.73700297
0.70258933 0.67910779 0.7220763
0.71016181 0.68374509 0.71107858
0.72216231 0.69065028 0.71993512
0.63137001 0.67749375 0.74944091
0.63619643 0.67957222 0.75117511
0.64377147 0.68294692 0.75406426
0.66021311 0.69303757 0.76182514
0.67627054 0.69350415 0.75930107
0.69584066 0.69553167 0.75259227
0.71244675 0.6988588 0.73698044
0.7191751 0.70397669 0.72398293
0.73034084 0.70953447 0.73185831
0.63183469 0.69363773 0.75942028
0.63708109 0.69570655 0.76141149
0.64079773 0.69752246 0.76241869
0.65341341 0.70516723 0.76643723
0.68553305 0.71786284 0.77196079
0.70630491 0.72032422 0.76679099
0.72833204 0.72377688 0.75794077
0.73357773 0.72644937 0.74147987
0.74130565 0.73132461 0.74753642
0.62508577 0.71326655 0.76857471
0.63099962 0.71499789 0.76942968
0.63553536 0.71805745 0.76957965
0.64291835 0.72277904 0.77367061
0.67250979 0.72920096 0.77660644
0.71746516 0.74725598 0.78638846
0.74464041 0.75535625 0.78112859
0.74908429 0.75339729 0.7643292
0.7580148 0.76071423 0.77170664
0.62713683 0.73459065 0.772789
0.63261259 0.73527247 0.77476728
0.6401915 0.73858887 0.77768314
0.65051287 0.74405092 0.78238958
0.67315763 0.75485915 0.78900725
0.71454549 0.77256173 0.80157238
0.7617541 0.79348063 0.81496024
0.77647531 0.78929579 0.79875332
0.78321773 0.79430866 0.80134654
0.6522792 0.7803058 0.80445445
0.67341453 0.7886765 0.81280106
0.69725394 0.79898828 0.82314438
0.72326219 0.81217903 0.83662122
0.74420881 0.82222271 0.84457052
0.77661353 0.83012879 0.85222596
0.80111921 0.82971585 0.84414935
0.80534047 0.82830155 0.83128333
0.81836706 0.83796376 0.84105057
0.72276294 0.8291319 0.84774774
0.72914708 0.83065802 0.84912533
0.73625708 0.83082432 0.84914953
0.74324203 0.83487469 0.85042626
0.7536217 0.83609653 0.85358351
0.78735799 0.84889126 0.86329991
0.82370269 0.86058557 0.87123418
0.83618855 0.86096203 0.86206096
0.85111958 0.8735199 0.87528688
