site/assets/luts/freshluts--0000342-vintasia.cube
# LUTr-Schema-Version: 2
# LUTr-ID: freshluts--0000342-vintasia
# LUTr-Title: Vintasia
# LUTr-Collection: Fresh LUTs
# LUTr-Collection-ID: freshluts-community
# LUTr-Source: https://freshluts.com
# LUTr-Retrieved: 2026-07-27
# LUTr-Source-File: submissions-raw/freshluts/cubes/342__vintasia.cube
# LUTr-Source-Format: CUBE
# LUTr-Source-SHA256: c4395f887bf1be162174cecb48a0fe5191227f20aa28b435e0df1100cab7b70e
# LUTr-License: CC0-1.0
# LUTr-License-URL: https://freshluts.com/termsandconditions
# LUTr-License-Basis: site-terms
# LUTr-Transform-Class: creative-look
# LUTr-Tags: creative, freshluts, community, cube, faded, vintage, warm
# LUTr-Input-Color-Space:
# LUTr-Input-Gamut: unspecified
# LUTr-Input-Transfer: unspecified
# LUTr-Output-Color-Space: srgb
# LUTr-Output-Gamut: rec709
# LUTr-Output-Transfer: srgb
# LUTr-Color-Space-Confidence: camera-profile-input-required
# LUTr-Domain-Normalized: true
# LUTr-Shaper: none
# LUTr-Original-Grid: 32x32x32
# LUTr-Conversion-Grid: 32x32x32
# LUTr-Conversion-Interpolation: none
# LUTr-Conversion-Method: Metadata normalization; numeric LUT samples preserved
# LUTr-Conversion-Tool: LUTr scripts/convert-all-to-cube.mjs 2.0.0
# LUTr-Conversion-Date: 2026-07-28
# LUTr-Asset-URL: https://freshluts.com/luts/342
# LUTr-Author: I WANT TO MAKE A FILM PODCAST
# LUTr-Author-URL: https://freshluts.com/users/15633
# LUTr-Attribution: I WANT TO MAKE A FILM PODCAST via Fresh LUTs
# LUTr-Source-Labels: gamma=Other; color=Warm; key=Neutral; style=Faded
# LUTr-Note: Preserve this metadata and the upstream license notices when redistributing.
# LUTr-Upstream-Comment: Created by: Adobe Photoshop Export Color Lookup Plugin
# LUTr-Upstream-Comment: LUT size
# LUTr-Upstream-Comment: data domain
# LUTr-Upstream-Comment: LUT data points
TITLE "Vintasia"
LUT_3D_SIZE 32
DOMAIN_MIN 0 0 0
DOMAIN_MAX 1 1 1
0.147614 0.091217 0.104767
0.1474 0.091492 0.104492
0.14743 0.091553 0.104431
0.147705 0.091217 0.104767
0.150909 0.090973 0.10495
0.156799 0.090424 0.105316
0.166229 0.089691 0.105988
0.179779 0.088562 0.106812
0.198029 0.087067 0.108032
0.221191 0.085175 0.109467
0.248749 0.082947 0.111237
0.279968 0.080444 0.11322
0.314301 0.077698 0.115448
0.351166 0.074799 0.117798
0.389832 0.071777 0.120331
0.429688 0.069122 0.122894
0.470001 0.065826 0.125549
0.507538 0.058319 0.131714
0.544464 0.050293 0.138397
0.580597 0.042389 0.144836
0.610565 0.040619 0.153473
0.637878 0.040009 0.161987
0.663086 0.03949 0.169861
0.68634 0.039001 0.177063
0.707794 0.038513 0.183777
0.727722 0.038086 0.190002
0.746277 0.037659 0.195801
0.763702 0.037262 0.201263
0.780151 0.036865 0.206451
0.795868 0.03656 0.211426
0.811066 0.036163 0.216248
0.825989 0.035858 0.220978
0.147522 0.090393 0.104797
0.14682 0.090393 0.104797
0.146637 0.090454 0.104736
0.147614 0.090393 0.104797
0.150879 0.090057 0.105286
0.156799 0.089569 0.105682
0.166168 0.088837 0.106293
0.179749 0.087677 0.107086
0.197998 0.086212 0.108276
0.221191 0.084351 0.109802
0.248749 0.082153 0.111481
0.279968 0.079712 0.113495
0.314331 0.076965 0.115753
0.351166 0.074158 0.118103
0.389832 0.071136 0.120605
0.429718 0.068634 0.123169
0.470032 0.065247 0.125763
0.507568 0.0578 0.131958
0.544495 0.049774 0.13855
0.580627 0.041931 0.145111
0.610229 0.040619 0.153748
0.637512 0.040039 0.162354
0.662811 0.03949 0.170074
0.686096 0.039001 0.177338
0.707581 0.038513 0.184052
0.72757 0.038086 0.190094
0.746094 0.037659 0.195923
0.763519 0.037262 0.201385
0.780029 0.036896 0.206573
0.795746 0.03656 0.211548
0.810974 0.036163 0.2164
0.825897 0.035858 0.221161
0.147522 0.09021 0.104797
0.146759 0.09024 0.104767
0.146606 0.09024 0.104767
0.147614 0.09021 0.104797
0.150879 0.089874 0.105347
0.156769 0.089386 0.105743
0.166168 0.088623 0.106323
0.179779 0.087524 0.107208
0.197998 0.085999 0.108337
0.221191 0.084167 0.109863
0.248749 0.082001 0.111603
0.279968 0.079529 0.113556
0.314301 0.076813 0.115753
0.351166 0.074005 0.118134
0.389862 0.071045 0.120667
0.429688 0.068481 0.123138
0.470032 0.065186 0.125824
0.507568 0.057678 0.131958
0.544464 0.049683 0.138611
0.580627 0.041809 0.145142
0.610138 0.040619 0.1539
0.637451 0.040039 0.162323
0.662781 0.03949 0.170197
0.686005 0.039001 0.177307
0.70752 0.038513 0.184021
0.727509 0.038086 0.190247
0.746094 0.037659 0.196075
0.763489 0.037262 0.201355
0.779968 0.036896 0.206543
0.795715 0.03656 0.211548
0.810944 0.036163 0.21637
0.825867 0.035858 0.2211
0.147766 0.091339 0.104736
0.147644 0.091583 0.10437
0.147614 0.091675 0.104309
0.147766 0.091309 0.104736
0.15097 0.090973 0.104828
0.15683 0.090424 0.105164
0.16626 0.089691 0.105804
0.179779 0.088562 0.106689
0.198029 0.087036 0.107758
0.221191 0.085175 0.109314
0.248779 0.082947 0.111115
0.279968 0.080444 0.113068
0.314301 0.077698 0.115356
0.351166 0.074799 0.117676
0.389862 0.071808 0.120209
0.429718 0.069092 0.122711
0.470032 0.065826 0.125427
0.507538 0.058319 0.131622
0.544464 0.050293 0.138306
0.580627 0.042389 0.144745
0.610565 0.040619 0.15332
0.637878 0.040009 0.161835
0.663086 0.03949 0.169708
0.68634 0.039001 0.176941
0.707825 0.038513 0.183594
0.727722 0.038086 0.190002
0.746277 0.037659 0.195801
0.763702 0.037262 0.201263
0.780151 0.036865 0.206451
0.795868 0.03656 0.211426
0.811066 0.036163 0.216248
0.825989 0.035858 0.220978
0.150818 0.093414 0.103821
0.151917 0.094452 0.103485
0.152161 0.094696 0.103363
0.150848 0.093414 0.103821
0.151947 0.093506 0.103668
0.157318 0.091614 0.102509
0.16687 0.089691 0.101105
0.180389 0.088531 0.10199
0.198608 0.087067 0.10321
0.221771 0.085175 0.104767
0.249298 0.082916 0.106659
0.280487 0.080475 0.108765
0.314819 0.077698 0.111115
0.351654 0.074829 0.113586
0.390289 0.071808 0.116272
0.430145 0.069122 0.118958
0.470398 0.065796 0.121704
0.507874 0.058258 0.128113
0.544739 0.050232 0.134979
0.580872 0.042389 0.141632
0.610779 0.040588 0.150452
0.638062 0.040009 0.159119
0.6633 0.03949 0.167175
0.686523 0.039001 0.174591
0.707916 0.038513 0.181335
0.727814 0.038086 0.187805
0.746368 0.037659 0.193726
0.763794 0.037262 0.199341
0.780243 0.036865 0.204407
0.795959 0.03656 0.209503
0.811127 0.036163 0.214478
0.825989 0.035858 0.219208
0.156342 0.097137 0.102295
0.157318 0.098175 0.101959
0.157532 0.098389 0.101837
0.156342 0.097107 0.102295
0.157501 0.097321 0.102112
0.159576 0.097595 0.101776
0.167145 0.093567 0.100006
0.181305 0.090942 0.09726
0.199646 0.087006 0.094757
0.222778 0.085175 0.096497
0.250305 0.082947 0.098541
0.281464 0.080444 0.10083
0.315735 0.077728 0.103424
0.352448 0.074799 0.106079
0.391083 0.071777 0.109009
0.430847 0.069153 0.111969
0.471069 0.065796 0.11499
0.508423 0.058197 0.121857
0.545258 0.050201 0.128967
0.581329 0.042358 0.135834
0.611176 0.040588 0.145111
0.638397 0.040009 0.154053
0.663605 0.03949 0.162476
0.686829 0.039001 0.170166
0.708191 0.038513 0.177094
0.728027 0.038086 0.183777
0.746521 0.037659 0.189728
0.763916 0.037262 0.195557
0.780334 0.036865 0.200958
0.796021 0.03656 0.206177
0.811249 0.036163 0.211273
0.82608 0.035858 0.216278
0.164856 0.102814 0.099854
0.165649 0.103943 0.099609
0.165863 0.104126 0.099518
0.164825 0.102753 0.099884
0.166016 0.102966 0.099701
0.168152 0.103394 0.099335
0.171448 0.103851 0.098816
0.181183 0.096741 0.096405
0.200348 0.093323 0.092621
0.224426 0.088531 0.087952
0.251831 0.082947 0.085632
0.282959 0.080414 0.088257
0.317139 0.077728 0.091125
0.353821 0.074829 0.094177
0.392365 0.071808 0.097534
0.432007 0.069153 0.10083
0.472168 0.065765 0.104309
0.509338 0.058075 0.111664
0.546112 0.050079 0.119232
0.582123 0.042236 0.126587
0.611786 0.040588 0.136444
0.638977 0.039978 0.146118
0.664093 0.039459 0.154938
0.687256 0.038971 0.162964
0.708588 0.038483 0.170441
0.728394 0.038055 0.177216
0.746826 0.037628 0.183685
0.764191 0.037231 0.189697
0.780518 0.036865 0.195312
0.796204 0.03653 0.200714
0.81134 0.036163 0.206085
0.826111 0.035858 0.211395
0.176514 0.110413 0.096558
0.177155 0.111664 0.096313
0.177399 0.111969 0.096252
0.176514 0.110352 0.096588
0.177765 0.110657 0.096344
0.179993 0.111206 0.095978
0.18338 0.111908 0.095398
0.188324 0.112885 0.094604
0.19989 0.101349 0.091553
0.224396 0.097107 0.086609
0.252899 0.091583 0.081238
0.285645 0.084534 0.074646
0.319214 0.077728 0.073212
0.355774 0.074829 0.076813
0.394196 0.071808 0.080597
0.433716 0.069153 0.084595
0.473694 0.065735 0.088654
0.510681 0.057922 0.096893
0.547302 0.049927 0.105072
0.583221 0.042084 0.113068
0.612732 0.040588 0.12384
0.639771 0.039978 0.134247
0.664795 0.039429 0.143738
0.687866 0.038971 0.152466
0.709137 0.038483 0.160339
0.728882 0.038055 0.167847
0.747253 0.037628 0.174683
0.764496 0.037231 0.181
0.780792 0.036865 0.187073
0.796387 0.03653 0.192902
0.811493 0.036163 0.198456
0.826233 0.035858 0.203949
0.191467 0.119598 0.092224
0.192078 0.12088 0.092041
0.192261 0.121185 0.09201
0.191498 0.119568 0.092224
0.192719 0.120026 0.092041
0.195099 0.120789 0.091644
0.19873 0.121887 0.091003
0.203857 0.12326 0.090179
0.210693 0.124847 0.08902
0.223236 0.107574 0.085541
0.252289 0.102783 0.079773
0.285004 0.096191 0.073181
0.320831 0.088562 0.066071
0.359039 0.080414 0.060089
0.396637 0.071808 0.058868
0.435974 0.069153 0.062225
0.47583 0.065704 0.067078
0.512451 0.057709 0.076385
0.54895 0.049744 0.085541
0.584686 0.041931 0.094513
0.613953 0.040558 0.106415
0.6409 0.039948 0.117889
0.665833 0.039429 0.128296
0.688721 0.03894 0.137787
0.709869 0.038452 0.146484
0.729523 0.038025 0.15451
0.747803 0.037628 0.161987
0.764984 0.037231 0.168884
0.781189 0.036865 0.175354
0.796722 0.03653 0.181824
0.811707 0.036163 0.187897
0.826385 0.035858 0.193787
0.209045 0.129791 0.087128
0.209686 0.131104 0.086914
0.209808 0.131409 0.086853
0.209106 0.129852 0.087097
0.210419 0.130371 0.086884
0.212891 0.131409 0.086517
0.216736 0.132843 0.085815
0.222198 0.134857 0.0849
0.229492 0.137207 0.083679
0.238495 0.139709 0.082153
0.251953 0.117279 0.078156
0.283539 0.110077 0.071747
0.319275 0.103058 0.06488
0.357605 0.094849 0.059082
0.398132 0.085663 0.054077
0.439606 0.076263 0.049591
0.478241 0.065369 0.048706
0.514679 0.057434 0.054382
0.551025 0.04953 0.060852
0.586578 0.041718 0.070007
0.61554 0.040497 0.083527
0.642303 0.039917 0.096466
0.667023 0.039398 0.108032
0.689789 0.03891 0.118652
0.710846 0.038422 0.128143
0.730347 0.037994 0.137115
0.748505 0.037598 0.145355
0.765564 0.037231 0.152985
0.781677 0.036835 0.160004
0.797089 0.03653 0.167114
0.811981 0.036163 0.173767
0.826569 0.035858 0.180267
0.227936 0.139709 0.081482
0.228546 0.1409 0.081299
0.228638 0.141144 0.081238
0.227997 0.13974 0.081482
0.22937 0.140411 0.081238
0.232025 0.141693 0.08078
0.236115 0.143616 0.080109
0.241943 0.146271 0.079102
0.249756 0.149597 0.07785
0.25946 0.153259 0.076202
0.270844 0.156982 0.074341
0.285095 0.130798 0.069885
0.317078 0.11911 0.063019
0.355194 0.111816 0.057892
0.395325 0.103271 0.05304
0.43689 0.09375 0.048492
0.47879 0.084229 0.044556
0.517761 0.068604 0.042389
0.553497 0.049225 0.039917
0.588837 0.041473 0.045563
0.617371 0.040466 0.055206
0.643951 0.039886 0.065002
0.668518 0.039337 0.076508
0.691162 0.038879 0.087952
0.711975 0.038391 0.098389
0.731354 0.037964 0.107941
0.749329 0.037567 0.116699
0.766266 0.037231 0.125092
0.782288 0.036835 0.132751
0.797546 0.036499 0.140045
0.812317 0.036133 0.147308
0.826782 0.035828 0.154266
0.246643 0.147827 0.075653
0.247253 0.148987 0.07547
0.247375 0.149292 0.075439
0.246704 0.147827 0.075653
0.248291 0.148773 0.075378
0.251068 0.15036 0.074921
0.255463 0.152863 0.074188
0.261688 0.156219 0.07312
0.27005 0.160583 0.071747
0.280518 0.165588 0.070007
0.292725 0.170898 0.067993
0.306396 0.175964 0.065796
0.32132 0.147339 0.061157
0.35141 0.130249 0.056793
0.391205 0.123138 0.052002
0.432678 0.114471 0.047333
0.474274 0.105316 0.043304
0.51239 0.092804 0.041321
0.55072 0.077942 0.038391
0.587524 0.064301 0.035309
0.618408 0.056274 0.035309
0.646454 0.046844 0.035309
0.670197 0.039307 0.039246
0.692596 0.038818 0.047485
0.713257 0.038361 0.055573
0.732452 0.037933 0.063263
0.750305 0.037537 0.070923
0.76709 0.037201 0.078735
0.782928 0.036804 0.086578
0.798035 0.036499 0.094177
0.812714 0.036133 0.10141
0.827057 0.035828 0.108429
0.264252 0.153107 0.069855
0.264771 0.154297 0.069702
0.264832 0.15448 0.069641
0.264313 0.153137 0.069855
0.265991 0.154297 0.06955
0.268982 0.15625 0.069061
0.273651 0.159302 0.068298
0.280396 0.163574 0.0672
0.289368 0.169098 0.065704
0.300598 0.175537 0.063904
0.313782 0.182556 0.061768
0.32843 0.189545 0.059418
0.344238 0.196228 0.057495
0.359467 0.165649 0.05481
0.386749 0.142151 0.050903
0.427673 0.135101 0.046356
0.468536 0.127319 0.042572
0.50766 0.116119 0.039825
0.544769 0.102539 0.03717
0.579041 0.091461 0.035309
0.6091 0.08374 0.035309
0.637573 0.076538 0.035309
0.664276 0.070068 0.035309
0.688934 0.064087 0.035309
0.711731 0.058472 0.035309
0.733063 0.053436 0.035309
0.75174 0.046875 0.035309
0.768005 0.038147 0.035309
0.78363 0.036774 0.040833
0.798615 0.036469 0.04718
0.813171 0.036133 0.053528
0.827301 0.035828 0.059937
0.279846 0.154419 0.064301
0.280304 0.155487 0.064117
0.280457 0.155792 0.064087
0.279877 0.154419 0.064301
0.281677 0.155792 0.063995
0.284882 0.158203 0.063446
0.289917 0.161896 0.062622
0.297089 0.167084 0.061646
0.306702 0.173798 0.060394
0.318787 0.181915 0.058868
0.332825 0.190735 0.057159
0.348572 0.19989 0.055267
0.365509 0.208832 0.053375
0.383301 0.217133 0.051483
0.398468 0.185303 0.049042
0.423645 0.15744 0.045624
0.462341 0.148254 0.041931
0.501892 0.139526 0.038879
0.538483 0.126801 0.036163
0.570374 0.117615 0.035309
0.599579 0.110199 0.035309
0.627441 0.103394 0.035309
0.65329 0.09729 0.035309
0.677338 0.091644 0.035309
0.699585 0.086273 0.035309
0.720337 0.081696 0.035309
0.739777 0.077209 0.035309
0.758057 0.072937 0.035309
0.775391 0.069122 0.035309
0.792114 0.065247 0.035309
0.808136 0.061401 0.035309
0.824005 0.057892 0.035309
0.298981 0.15451 0.05957
0.298492 0.15506 0.05957
0.29837 0.155182 0.05957
0.299011 0.154572 0.05957
0.300262 0.155823 0.059387
0.302734 0.158112 0.059113
0.306549 0.161621 0.058624
0.312134 0.166687 0.057892
0.321198 0.174011 0.056793
0.334137 0.183716 0.055267
0.349182 0.19458 0.053528
0.365997 0.205963 0.051727
0.384125 0.217377 0.049835
0.403107 0.228302 0.048004
0.422638 0.238312 0.046234
0.4375 0.205811 0.044067
0.462769 0.178101 0.041138
0.495941 0.161346 0.038086
0.532013 0.149963 0.035431
0.561676 0.142273 0.035309
0.590179 0.135498 0.035309
0.617157 0.129089 0.035309
0.642395 0.12326 0.035309
0.665771 0.118103 0.035309
0.687378 0.113007 0.035309
0.707642 0.108551 0.035309
0.726624 0.104462 0.035309
0.744446 0.100403 0.035309
0.761444 0.09668 0.035309
0.777618 0.093292 0.035309
0.793488 0.089691 0.035309
0.808929 0.086365 0.035309
0.320435 0.152527 0.055115
0.320007 0.153046 0.055115
0.319885 0.153229 0.055115
0.320496 0.152557 0.055084
0.321747 0.153992 0.054932
0.324036 0.156494 0.054688
0.327667 0.160431 0.05426
0.333038 0.166046 0.053619
0.340393 0.173462 0.052795
0.350128 0.182678 0.051727
0.36203 0.193268 0.050476
0.380035 0.207001 0.048676
0.399353 0.220947 0.046875
0.419617 0.234589 0.045074
0.440399 0.247467 0.043427
0.461365 0.259216 0.041901
0.475739 0.226501 0.040131
0.500671 0.199585 0.037659
0.524689 0.171936 0.035309
0.553253 0.165192 0.035309
0.580902 0.158783 0.035309
0.607178 0.152924 0.035309
0.631714 0.147522 0.035309
0.654449 0.142548 0.035309
0.675507 0.138031 0.035309
0.69519 0.133789 0.035309
0.713745 0.129974 0.035309
0.73114 0.126343 0.035309
0.747711 0.122803 0.035309
0.76355 0.11969 0.035309
0.778931 0.116241 0.035309
0.794098 0.113068 0.035309
0.341492 0.146851 0.050934
0.341034 0.147278 0.050934
0.340973 0.147461 0.050934
0.341492 0.146851 0.050934
0.342743 0.148407 0.050812
0.344879 0.151215 0.050568
0.348358 0.155609 0.050232
0.353455 0.161774 0.049683
0.360474 0.170044 0.048981
0.369751 0.180267 0.048065
0.381104 0.192078 0.047028
0.394562 0.205078 0.045776
0.410828 0.219208 0.044403
0.432404 0.235687 0.042725
0.454468 0.251465 0.041199
0.476685 0.266235 0.039795
0.498749 0.279572 0.038574
0.512177 0.246979 0.03717
0.533691 0.218109 0.035309
0.5495 0.192566 0.035309
0.57196 0.17981 0.035309
0.597626 0.174438 0.035309
0.62146 0.169647 0.035309
0.643555 0.1651 0.035309
0.664093 0.161102 0.035309
0.68335 0.157196 0.035309
0.701263 0.153717 0.035309
0.718262 0.150299 0.035309
0.734436 0.147125 0.035309
0.749878 0.144012 0.035309
0.764923 0.140961 0.035309
0.779663 0.137939 0.035309
0.361816 0.137299 0.047089
0.361389 0.137787 0.047058
0.361328 0.137939 0.047058
0.361847 0.13736 0.047089
0.363007 0.139099 0.046997
0.365051 0.14212 0.046814
0.368347 0.146942 0.046478
0.373199 0.153748 0.046051
0.379883 0.162903 0.045471
0.388641 0.174194 0.044739
0.399506 0.187286 0.043823
0.412323 0.201599 0.042847
0.427032 0.216858 0.041748
0.443542 0.232544 0.040619
0.464661 0.25 0.039368
0.48819 0.267792 0.038116
0.511505 0.28418 0.037109
0.532867 0.297363 0.03653
0.543579 0.264038 0.035309
0.558655 0.23819 0.035309
0.573792 0.214935 0.035309
0.588776 0.194214 0.035309
0.611786 0.189453 0.035309
0.633331 0.185425 0.035309
0.65329 0.181732 0.035309
0.671967 0.178223 0.035309
0.689514 0.175049 0.035309
0.706055 0.171967 0.035309
0.72171 0.169006 0.035309
0.736847 0.166321 0.035309
0.751587 0.163605 0.035309
0.766022 0.16098 0.035309
0.389008 0.159088 0.042908
0.38858 0.159485 0.042877
0.388458 0.159546 0.042877
0.389038 0.159088 0.042877
0.389984 0.160645 0.042847
0.391846 0.163574 0.042664
0.394714 0.167877 0.04245
0.398987 0.174164 0.042145
0.404938 0.182495 0.041718
0.41272 0.19278 0.041199
0.422424 0.204773 0.040588
0.43396 0.217865 0.039856
0.447235 0.231628 0.039062
0.464325 0.24707 0.038116
0.485352 0.263702 0.037201
0.5065 0.27951 0.036407
0.52655 0.292847 0.035797
0.545258 0.303589 0.035309
0.561493 0.312317 0.035309
0.567291 0.280945 0.035309
0.581787 0.257568 0.035309
0.596069 0.236664 0.035309
0.609741 0.21817 0.035309
0.623718 0.2034 0.035309
0.643158 0.199982 0.035309
0.661469 0.19696 0.035309
0.678497 0.194122 0.035309
0.694641 0.191315 0.035309
0.710022 0.188812 0.035309
0.724762 0.186249 0.035309
0.739136 0.183685 0.035309
0.753204 0.181305 0.035309
0.416077 0.184814 0.039368
0.41568 0.185181 0.039337
0.415588 0.185303 0.039337
0.416077 0.184814 0.039368
0.416962 0.186249 0.039307
0.418488 0.188751 0.039215
0.42099 0.19278 0.039093
0.424713 0.198456 0.038879
0.429901 0.205963 0.038574
0.436768 0.21524 0.038208
0.445374 0.226044 0.037811
0.455566 0.237701 0.037323
0.472534 0.25296 0.036591
0.490631 0.268219 0.035919
0.509155 0.282806 0.035431
0.525421 0.295074 0.035309
0.540558 0.305115 0.035309
0.555481 0.313721 0.035309
0.569885 0.320465 0.035309
0.58374 0.325653 0.035309
0.589172 0.296967 0.035309
0.602875 0.27597 0.035309
0.616028 0.257446 0.035309
0.62854 0.241119 0.035309
0.64035 0.22644 0.035309
0.651764 0.21344 0.035309
0.668427 0.210754 0.035309
0.684174 0.208374 0.035309
0.699097 0.206146 0.035309
0.713562 0.203766 0.035309
0.72757 0.201599 0.035309
0.741394 0.199524 0.035309
0.442261 0.212585 0.03656
0.441833 0.212982 0.03656
0.441772 0.213013 0.03656
0.442261 0.212677 0.03656
0.442963 0.213959 0.03653
0.444275 0.216217 0.036469
0.446442 0.219757 0.036407
0.449646 0.224915 0.036255
0.454102 0.231659 0.036102
0.461182 0.240662 0.035889
0.473816 0.253174 0.035431
0.486786 0.266235 0.035309
0.500275 0.279419 0.035309
0.514313 0.292114 0.035309
0.527924 0.303162 0.035309
0.54129 0.312683 0.035309
0.554688 0.320862 0.035309
0.567719 0.327454 0.035309
0.580444 0.332489 0.035309
0.592621 0.335938 0.035309
0.604126 0.337982 0.035309
0.609131 0.311829 0.035309
0.621796 0.293396 0.035309
0.63385 0.2771 0.035309
0.645264 0.26239 0.035309
0.656067 0.249115 0.035309
0.666412 0.237 0.035309
0.6763 0.225952 0.035309
0.68927 0.221039 0.035309
0.703369 0.219208 0.035309
0.717133 0.217316 0.035309
0.73053 0.215332 0.035309
0.464752 0.241425 0.035309
0.464905 0.242157 0.035309
0.464966 0.242249 0.035309
0.464844 0.241516 0.035309
0.466064 0.243042 0.035309
0.468323 0.24588 0.035309
0.471893 0.250214 0.035309
0.476929 0.256226 0.035309
0.483673 0.264252 0.035309
0.492035 0.273712 0.035309
0.501801 0.284363 0.035309
0.512634 0.295593 0.035309
0.524384 0.306458 0.035309
0.536102 0.316193 0.035309
0.548035 0.325104 0.035309
0.559845 0.332886 0.035309
0.571472 0.339294 0.035309
0.582672 0.344208 0.035309
0.593323 0.347504 0.035309
0.603302 0.349335 0.035309
0.61319 0.349792 0.035309
0.622559 0.348938 0.035309
0.627045 0.325653 0.035309
0.638641 0.309296 0.035309
0.649719 0.294678 0.035309
0.660187 0.281647 0.035309
0.670197 0.269592 0.035309
0.679749 0.258545 0.035309
0.688965 0.248077 0.035309
0.697937 0.238403 0.035309
0.707611 0.230621 0.035309
0.720825 0.228912 0.035309
0.49707 0.278473 0.035309
0.497162 0.279083 0.035309
0.497162 0.279144 0.035309
0.497101 0.278473 0.035309
0.498199 0.279816 0.035309
0.500122 0.282318 0.035309
0.503143 0.286102 0.035309
0.507477 0.291412 0.035309
0.513367 0.298279 0.035309
0.52121 0.306702 0.035309
0.52951 0.315247 0.035309
0.538757 0.324158 0.035309
0.548584 0.332886 0.035309
0.558716 0.341034 0.035309
0.569061 0.34848 0.035309
0.579193 0.354492 0.035309
0.589203 0.359375 0.035309
0.598724 0.36264 0.035309
0.607819 0.364471 0.035309
0.616241 0.364838 0.035309
0.624023 0.363922 0.035309
0.6315 0.361786 0.035309
0.638977 0.358704 0.035309
0.642914 0.337891 0.035309
0.653656 0.323395 0.035309
0.663818 0.310242 0.035309
0.673553 0.29834 0.035309
0.682831 0.287415 0.035309
0.691803 0.277191 0.035309
0.7005 0.267548 0.035309
0.709045 0.258301 0.035309
0.717529 0.249359 0.035309
0.528442 0.313934 0.035309
0.528595 0.314453 0.035309
0.528564 0.314545 0.035309
0.528442 0.313934 0.035309
0.529388 0.315094 0.035309
0.531097 0.317108 0.035309
0.533752 0.320221 0.035309
0.537537 0.324615 0.035309
0.542633 0.330353 0.035309
0.548859 0.337097 0.035309
0.556122 0.344635 0.035309
0.564087 0.352203 0.035309
0.572571 0.359711 0.035309
0.581299 0.366516 0.035309
0.590088 0.372375 0.035309
0.598785 0.377045 0.035309
0.607269 0.380402 0.035309
0.615326 0.382355 0.035309
0.622925 0.382782 0.035309
0.629974 0.381744 0.035309
0.636414 0.379486 0.035309
0.642181 0.376099 0.035309
0.647644 0.371948 0.035309
0.653503 0.36731 0.035309
0.657135 0.34848 0.035309
0.667084 0.335602 0.035309
0.676514 0.323761 0.035309
0.685577 0.312866 0.035309
0.694275 0.302765 0.035309
0.702728 0.29306 0.035309
0.711121 0.284088 0.035309
0.719391 0.275238 0.035309
0.558105 0.346771 0.035309
0.558258 0.347321 0.035309
0.558258 0.347443 0.035309
0.558136 0.346771 0.035309
0.55896 0.347839 0.035309
0.560425 0.349609 0.035309
0.562714 0.352386 0.035309
0.565979 0.356232 0.035309
0.570374 0.361328 0.035309
0.575745 0.367157 0.035309
0.582001 0.373627 0.035309
0.588898 0.38031 0.035309
0.59613 0.386444 0.035309
0.603607 0.39209 0.035309
0.611053 0.396606 0.035309
0.618378 0.400055 0.035309
0.625488 0.402069 0.035309
0.632141 0.402618 0.035309
0.638458 0.401825 0.035309
0.644226 0.399567 0.035309
0.649414 0.396118 0.035309
0.654083 0.391815 0.035309
0.658112 0.386597 0.035309
0.661926 0.38092 0.035309
0.666473 0.374939 0.035309
0.669983 0.358002 0.035309
0.67923 0.346283 0.035309
0.68808 0.33551 0.035309
0.696533 0.32547 0.035309
0.704834 0.31601 0.035309
0.712982 0.306946 0.035309
0.721039 0.298248 0.035309
0.586731 0.378998 0.035309
0.586853 0.379486 0.035309
0.586823 0.379456 0.035309
0.586761 0.379028 0.035309
0.587494 0.379944 0.035309
0.588745 0.38147 0.035309
0.590729 0.383942 0.035309
0.593597 0.387451 0.035309
0.59729 0.391785 0.035309
0.601868 0.396912 0.035309
0.607269 0.402557 0.035309
0.613037 0.40799 0.035309
0.619202 0.413177 0.035309
0.625488 0.417633 0.035309
0.631714 0.42099 0.035309
0.637848 0.423218 0.035309
0.643616 0.424011 0.035309
0.649078 0.423462 0.035309
0.654144 0.421387 0.035309
0.658691 0.41806 0.035309
0.662842 0.413727 0.035309
0.666382 0.408203 0.035309
0.669495 0.402161 0.035309
0.67215 0.395599 0.035309
0.674622 0.388824 0.035309
0.678162 0.381805 0.035309
0.68161 0.366455 0.035309
0.690247 0.355865 0.035309
0.698547 0.345917 0.035309
