site/assets/luts/freshluts--0000627-coolgreen.cube
# LUTr-Schema-Version: 2
# LUTr-ID: freshluts--0000627-coolgreen
# LUTr-Title: COOL.GREEN
# LUTr-Collection: Fresh LUTs
# LUTr-Collection-ID: freshluts-community
# LUTr-Source: https://freshluts.com
# LUTr-Retrieved: 2026-07-27
# LUTr-Source-File: submissions-raw/freshluts/cubes/627__HIGTH.GREEN_42.A007_02270900_C016.cube
# LUTr-Source-Format: CUBE
# LUTr-Source-SHA256: 85dfcef394b4d3a9d1bf99a46149c6660ea3eb110703e1c21e9825dd1a81cf34
# LUTr-License: CC0-1.0
# LUTr-License-URL: https://freshluts.com/termsandconditions
# LUTr-License-Basis: site-terms
# LUTr-Transform-Class: creative-look
# LUTr-Tags: creative, freshluts, community, cube, green, low-key, rec709, cool
# LUTr-Input-Color-Space: rec709
# LUTr-Input-Gamut: rec709
# LUTr-Input-Transfer: rec709
# LUTr-Output-Color-Space: srgb
# LUTr-Output-Gamut: rec709
# LUTr-Output-Transfer: srgb
# LUTr-Color-Space-Confidence: inferred-from-source-label
# LUTr-Domain-Normalized: true
# LUTr-Shaper: none
# LUTr-Original-Grid: 33x33x33
# LUTr-Conversion-Grid: 33x33x33
# LUTr-Conversion-Interpolation: none
# LUTr-Conversion-Method: Metadata normalization; numeric LUT samples preserved
# LUTr-Conversion-Tool: LUTr scripts/convert-all-to-cube.mjs 2.0.0
# LUTr-Conversion-Date: 2026-07-28
# LUTr-Asset-URL: https://freshluts.com/luts/627
# LUTr-Author: lvannoeun@gmail.com
# LUTr-Author-URL: https://freshluts.com/users/57563
# LUTr-Attribution: lvannoeun@gmail.com via Fresh LUTs
# LUTr-Source-Labels: gamma=Rec 709; color=Green; key=Low Key; style=Drama
# LUTr-Note: Preserve this metadata and the upstream license notices when redistributing.
TITLE "COOL.GREEN"
LUT_3D_SIZE 5
DOMAIN_MIN 0 0 0
DOMAIN_MAX 1 1 1
0.0637064 0 0
0.261341 0.000671397 0.00448615
0.487678 0.00173953 0.00706493
0.688518 0.0124971 0.0185397
0.894118 0.0254673 0.0399329
0.0243229 0.223743 0.000427253
0.205158 0.2542 0.00793469
0.42504 0.274846 0
0.631907 0.284077 0
0.858763 0.290776 0.018143
0 0.490196 0
0.167742 0.515938 0
0.402502 0.532647 0
0.607156 0.542092 0
0.840452 0.546822 0.00988785
0 0.737423 0
0.166537 0.765637 0
0.399817 0.783322 0
0.603861 0.792599 0
0.837659 0.796689 0.0267033
0.0146639 0.970428 0.0177768
0.203769 0.978225 0.0202792
0.426368 0.988312 0.0242313
0.623835 0.997345 0.0373083
0.854597 1 0.0602426
0.0678264 0 0.256199
0.257496 0 0.295033
0.477913 0.0000610361 0.327626
0.685252 0.00514229 0.338399
0.901106 0.0144808 0.339406
0.0181735 0.217029 0.218097
0.206058 0.245304 0.247593
0.394873 0.272374 0.274586
0.613519 0.27834 0.279606
0.862684 0.280262 0.281376
0 0.481331 0.20621
0.171054 0.501411 0.242023
0.404425 0.517174 0.278889
0.594919 0.53283 0.275914
0.839078 0.537758 0.263157
0 0.732998 0.211292
0.147417 0.760067 0.23386
0.386007 0.776379 0.250782
0.593652 0.785855 0.261143
0.833051 0.790219 0.265782
0.000656138 0.965087 0.251759
0.178286 0.982696 0.26804
0.40116 0.993515 0.274464
0.604837 1 0.282032
0.843961 1 0.289311
0.0681315 0 0.590204
0.26598 0 0.619532
0.475319 0 0.636088
0.678157 0.00387579 0.64268
0.896757 0.012604 0.635706
0 0.220462 0.527153
0.188571 0.246082 0.542397
0.404379 0.268223 0.544488
0.606378 0.277089 0.570871
0.85977 0.27631 0.586038
0 0.477455 0.506783
0.157778 0.500908 0.532708
0.411154 0.513954 0.541909
0.580682 0.534142 0.559121
0.813748 0.539971 0.570062
0 0.729152 0.507958
0.140795 0.756374 0.536522
0.392782 0.768551 0.560052
0.611292 0.773083 0.59115
0.822873 0.785611 0.596414
0 0.963729 0.536599
0.163882 0.983749 0.55996
0.391836 0.993179 0.57438
0.601602 0.998505 0.58703
0.841489 1 0.597284
0.0652018 0 0.82977
0.257725 0 0.863691
0.463813 0.000488289 0.883894
0.662028 0.00717174 0.890181
0.883833 0.0167849 0.88513
0 0.218387 0.794141
0.18294 0.24419 0.82916
0.41297 0.260471 0.847944
0.617792 0.270268 0.856733
0.856931 0.27512 0.859083
0 0.473777 0.778408
0.148348 0.500786 0.812207
0.387869 0.517632 0.825223
0.590585 0.531014 0.813062
0.81677 0.538613 0.825147
0 0.723583 0.77847
0.141085 0.753613 0.812909
0.379263 0.77052 0.83093
0.609674 0.775128 0.827726
0.818128 0.788846 0.830274
0 0.960784 0.801358
0.167346 0.980377 0.83151
0.388678 0.991424 0.84979
0.606943 0.99501 0.860822
0.861097 0.997253 0.882261
0.0657816 0 1
0.254139 0 1
0.455604 0.00341802 1
0.651957 0.0120546 1
0.879103 0.0198978 1
0.00105287 0.218708 1
0.187549 0.245823 1
0.41117 0.262669 1
0.614176 0.272221 1
0.849424 0.278279 1
0 0.470909 0.997009
0.158434 0.499321 1
0.386313 0.517601 1
0.592554 0.52752 1
0.832074 0.532097 1
0 0.720424 1
0.156542 0.750195 1
0.377981 0.770626 1
0.587366 0.780407 1
0.824948 0.787717 1
0 0.961151 1
0.181842 0.975921 1
0.391073 0.989639 1
0.596246 0.99733 1
0.855268 1 1
