site/assets/luts/freshluts--0000342-vintasia.cube
# LUTr-Schema-Version: 2
# LUTr-ID: freshluts--0000342-vintasia
# LUTr-Title: Vintasia
# LUTr-Collection: Fresh LUTs
# LUTr-Collection-ID: freshluts-community
# LUTr-Source: https://freshluts.com
# LUTr-Retrieved: 2026-07-27
# LUTr-Source-File: submissions-raw/freshluts/cubes/342__vintasia.cube
# LUTr-Source-Format: CUBE
# LUTr-Source-SHA256: c4395f887bf1be162174cecb48a0fe5191227f20aa28b435e0df1100cab7b70e
# LUTr-License: CC0-1.0
# LUTr-License-URL: https://freshluts.com/termsandconditions
# LUTr-License-Basis: site-terms
# LUTr-Transform-Class: creative-look
# LUTr-Tags: creative, freshluts, community, cube, faded, vintage, warm
# LUTr-Input-Color-Space:
# LUTr-Input-Gamut: unspecified
# LUTr-Input-Transfer: unspecified
# LUTr-Output-Color-Space: srgb
# LUTr-Output-Gamut: rec709
# LUTr-Output-Transfer: srgb
# LUTr-Color-Space-Confidence: camera-profile-input-required
# LUTr-Domain-Normalized: true
# LUTr-Shaper: none
# LUTr-Original-Grid: 32x32x32
# LUTr-Conversion-Grid: 32x32x32
# LUTr-Conversion-Interpolation: none
# LUTr-Conversion-Method: Metadata normalization; numeric LUT samples preserved
# LUTr-Conversion-Tool: LUTr scripts/convert-all-to-cube.mjs 2.0.0
# LUTr-Conversion-Date: 2026-07-28
# LUTr-Asset-URL: https://freshluts.com/luts/342
# LUTr-Author: I WANT TO MAKE A FILM PODCAST
# LUTr-Author-URL: https://freshluts.com/users/15633
# LUTr-Attribution: I WANT TO MAKE A FILM PODCAST via Fresh LUTs
# LUTr-Source-Labels: gamma=Other; color=Warm; key=Neutral; style=Faded
# LUTr-Note: Preserve this metadata and the upstream license notices when redistributing.
# LUTr-Upstream-Comment: Created by: Adobe Photoshop Export Color Lookup Plugin
# LUTr-Upstream-Comment: LUT size
# LUTr-Upstream-Comment: data domain
# LUTr-Upstream-Comment: LUT data points
TITLE "Vintasia"
LUT_3D_SIZE 8
DOMAIN_MIN 0.000000 0.000000 0.000000
DOMAIN_MAX 0.903226 0.903226 0.903226
0.147614 0.091217 0.104767
0.150909 0.090973 0.10495
0.198029 0.087067 0.108032
0.314301 0.077698 0.115448
0.470001 0.065826 0.125549
0.610565 0.040619 0.153473
0.707794 0.038513 0.183777
0.780151 0.036865 0.206451
0.150818 0.093414 0.103821
0.151947 0.093506 0.103668
0.198608 0.087067 0.10321
0.314819 0.077698 0.111115
0.470398 0.065796 0.121704
0.610779 0.040588 0.150452
0.707916 0.038513 0.181335
0.780243 0.036865 0.204407
0.191467 0.119598 0.092224
0.192719 0.120026 0.092041
0.210693 0.124847 0.08902
0.320831 0.088562 0.066071
0.47583 0.065704 0.067078
0.613953 0.040558 0.106415
0.709869 0.038452 0.146484
0.781189 0.036865 0.175354
0.264252 0.153107 0.069855
0.265991 0.154297 0.06955
0.289368 0.169098 0.065704
0.344238 0.196228 0.057495
0.468536 0.127319 0.042572
0.6091 0.08374 0.035309
0.711731 0.058472 0.035309
0.78363 0.036774 0.040833
0.341492 0.146851 0.050934
0.342743 0.148407 0.050812
0.360474 0.170044 0.048981
0.410828 0.219208 0.044403
0.498749 0.279572 0.038574
0.57196 0.17981 0.035309
0.664093 0.161102 0.035309
0.734436 0.147125 0.035309
0.442261 0.212585 0.03656
0.442963 0.213959 0.03653
0.454102 0.231659 0.036102
0.500275 0.279419 0.035309
0.554688 0.320862 0.035309
0.604126 0.337982 0.035309
0.645264 0.26239 0.035309
0.68927 0.221039 0.035309
0.558105 0.346771 0.035309
0.55896 0.347839 0.035309
0.570374 0.361328 0.035309
0.59613 0.386444 0.035309
0.625488 0.402069 0.035309
0.649414 0.396118 0.035309
0.666473 0.374939 0.035309
0.696533 0.32547 0.035309
0.666809 0.471863 0.035309
0.667175 0.472443 0.035309
0.673004 0.480286 0.035309
0.68515 0.492035 0.035309
0.697113 0.490692 0.035309
0.704071 0.468628 0.035309
0.706024 0.43457 0.035309
0.707214 0.398621 0.035309
0.147827 0.091614 0.107513
0.150604 0.091522 0.107635
0.197845 0.087372 0.111542
0.314178 0.078033 0.118622
0.469879 0.066132 0.128174
0.610718 0.040588 0.155212
0.708038 0.038513 0.184998
0.780426 0.036865 0.207245
0.150299 0.095734 0.106415
0.15097 0.094666 0.107483
0.197906 0.090607 0.110382
0.314178 0.080811 0.117584
0.469849 0.068298 0.127289
0.61203 0.040588 0.1539
0.708923 0.038483 0.184113
0.780975 0.036865 0.206696
0.195007 0.125671 0.094421
0.191925 0.121216 0.09552
0.209869 0.125916 0.092438
0.320557 0.090118 0.069336
0.47525 0.068176 0.072571
0.615173 0.040527 0.109497
0.710846 0.038422 0.149017
0.781952 0.036835 0.177612
0.267334 0.159729 0.071747
0.265259 0.155396 0.072418
0.288696 0.170135 0.068512
0.343506 0.197144 0.05957
0.468079 0.128845 0.043823
0.610779 0.082794 0.035309
0.713196 0.057556 0.035309
0.784393 0.036774 0.042358
0.340332 0.151306 0.052185
0.342072 0.149475 0.052216
0.359924 0.171021 0.050232
0.410309 0.220215 0.045471
0.498291 0.280396 0.039215
0.57373 0.179962 0.035309
0.665466 0.160889 0.035309
0.735443 0.146698 0.035309
0.440918 0.216278 0.037231
0.442322 0.214813 0.037231
0.453552 0.232544 0.036774
0.501984 0.280884 0.035309
0.556213 0.321991 0.035309
0.60553 0.338776 0.035309
0.646362 0.262421 0.035309
0.690277 0.221039 0.035309
0.56076 0.351257 0.035309
0.560333 0.349365 0.035309
0.571716 0.362762 0.035309
0.597443 0.387939 0.035309
0.626709 0.40332 0.035309
0.650574 0.397217 0.035309
0.667542 0.375702 0.035309
0.697388 0.325806 0.035309
0.668488 0.47522 0.035309
0.668335 0.473999 0.035309
0.674042 0.48172 0.035309
0.686188 0.493347 0.035309
0.69809 0.491852 0.035309
0.704956 0.469452 0.035309
0.706879 0.435333 0.035309
0.708038 0.399017 0.035309
0.151611 0.097168 0.146179
0.154236 0.097168 0.146179
0.192169 0.095612 0.147919
0.312256 0.08252 0.164917
0.468353 0.070496 0.166748
0.613495 0.040588 0.182404
0.71109 0.038452 0.203766
0.78363 0.036774 0.220337
0.152466 0.100891 0.145752
0.154724 0.100189 0.146149
0.192474 0.098724 0.147827
0.312256 0.085449 0.164368
0.468323 0.072754 0.165894
0.614166 0.041473 0.181549
0.712128 0.038422 0.202972
0.784363 0.036774 0.219818
0.190338 0.157349 0.125824
0.190552 0.156372 0.127167
0.197968 0.14267 0.145721
0.312256 0.126465 0.149078
0.467651 0.105255 0.153534
0.613251 0.066345 0.172211
0.726593 0.038086 0.189636
0.794373 0.03656 0.210907
0.327515 0.239349 0.090759
0.323944 0.236053 0.092316
0.280396 0.18689 0.111572
0.335236 0.21225 0.101349
0.468323 0.147369 0.065369
0.618103 0.088409 0.049744
0.731415 0.037964 0.039032
0.796814 0.03653 0.065002
0.355988 0.230469 0.069519
0.354309 0.22702 0.070221
0.351318 0.186646 0.077942
0.403809 0.235077 0.068024
0.49292 0.292999 0.05246
0.585693 0.189301 0.04306
0.687103 0.156952 0.035309
0.753174 0.141296 0.035309
0.463593 0.289307 0.042755
0.462433 0.286591 0.04303
0.446625 0.246918 0.046875
0.499969 0.295685 0.041962
0.561646 0.336395 0.040131
0.615234 0.351379 0.039398
0.664062 0.263702 0.035309
0.707031 0.222382 0.035309
0.598083 0.414978 0.035309
0.597839 0.41333 0.035309
0.593414 0.387054 0.035309
0.61853 0.411163 0.035309
0.646606 0.423584 0.035309
0.669037 0.412872 0.035309
0.684631 0.386749 0.035309
0.71109 0.329712 0.035309
0.694366 0.51535 0.035309
0.694153 0.514954 0.035309
0.691437 0.505402 0.035309
0.703033 0.515656 0.035309
0.714081 0.511505 0.035309
0.720001 0.485504 0.035309
0.721008 0.44754 0.035309
0.721313 0.407928 0.035309
0.16098 0.110992 0.243774
0.163574 0.111023 0.243774
0.199371 0.110565 0.244385
0.295776 0.105927 0.249786
0.456787 0.089325 0.255951
0.611542 0.051147 0.277679
0.71875 0.038239 0.273956
0.791718 0.036621 0.274963
0.161774 0.114624 0.242981
0.164062 0.114014 0.243805
0.200043 0.113861 0.244049
0.296021 0.108978 0.249634
0.456787 0.09201 0.256012
0.61145 0.053375 0.276794
0.720154 0.038239 0.273041
0.792786 0.036591 0.274048
0.172913 0.176483 0.237732
0.175018 0.174286 0.23764
0.207428 0.156189 0.243683
0.299652 0.152771 0.247864
0.460358 0.126282 0.257568
0.610321 0.08432 0.265472
0.728424 0.050995 0.261902
0.807465 0.036285 0.262512
0.318878 0.304901 0.139435
0.317688 0.304047 0.141541
0.305206 0.291412 0.17157
0.315857 0.261444 0.243439
0.462036 0.218292 0.216583
0.607635 0.160645 0.201111
0.725311 0.111023 0.189941
0.813507 0.07251 0.18158
0.503113 0.426819 0.093811
0.503052 0.426117 0.094177
0.487335 0.392181 0.107971
0.394257 0.283722 0.176178
0.484711 0.336029 0.153656
0.590088 0.240662 0.114532
0.70401 0.187408 0.082581
0.791412 0.144012 0.059296
0.584656 0.450165 0.048492
0.583344 0.448822 0.049255
0.560211 0.426483 0.062561
0.499329 0.343597 0.107086
0.561249 0.379303 0.096954
0.614166 0.388855 0.092957
0.673828 0.286926 0.069
0.746643 0.239197 0.051178
0.68985 0.530182 0.036743
0.688995 0.529175 0.036865
0.674103 0.51413 0.038879
0.627289 0.459717 0.058533
0.65802 0.468353 0.057129
0.682709 0.452545 0.057678
0.698334 0.420776 0.059387
0.742126 0.349091 0.047333
0.763489 0.596832 0.035309
0.763672 0.596771 0.035309
0.766479 0.596222 0.035309
0.743744 0.567627 0.039825
0.748627 0.56778 0.040375
0.754089 0.534149 0.04184
0.754486 0.487579 0.043335
0.752441 0.439819 0.044678
0.17392 0.129913 0.380585
0.176422 0.129944 0.380585
0.212494 0.130066 0.380585
0.300812 0.125092 0.386536
0.43634 0.120209 0.392517
0.587585 0.091461 0.377808
0.717926 0.051666 0.393127
0.802704 0.036407 0.400726
0.174622 0.133453 0.379517
0.176971 0.132904 0.380585
0.213013 0.133057 0.380585
0.301117 0.128113 0.386505
0.436523 0.123291 0.392456
0.588409 0.09317 0.378235
0.717834 0.054016 0.393372
0.80423 0.036346 0.400848
0.185547 0.182648 0.36496
0.187714 0.182129 0.365997
0.220337 0.174652 0.38089
0.308502 0.172455 0.383911
0.439087 0.16684 0.391083
0.590759 0.12796 0.381165
0.719513 0.082611 0.394714
0.813965 0.049774 0.393066
0.221191 0.367828 0.362488
0.222412 0.368134 0.364777
0.245789 0.338989 0.370178
0.328918 0.278961 0.381714
0.452789 0.274933 0.387634
0.598297 0.228485 0.38797
0.719635 0.187653 0.375763
0.807312 0.160065 0.353882
0.507935 0.491577 0.143341
0.505127 0.490143 0.145874
0.476135 0.479553 0.181305
0.451813 0.455261 0.261902
0.477814 0.422058 0.384705
0.60318 0.337463 0.304596
0.71579 0.265106 0.244781
0.804291 0.20929 0.200073
0.653534 0.618683 0.08725
0.653076 0.61795 0.088409
0.647736 0.607452 0.106293
0.661713 0.582306 0.147705
0.56662 0.463928 0.270508
0.622589 0.475861 0.284424
0.684082 0.378052 0.222198
0.764282 0.329498 0.179199
0.806976 0.708862 0.042786
0.806366 0.707642 0.043304
0.7966 0.687622 0.051849
0.747528 0.618896 0.088531
0.674866 0.544098 0.161377
0.69751 0.536957 0.181671
0.715118 0.507629 0.20639
0.747925 0.425323 0.170776
0.874023 0.739136 0.035889
0.873627 0.738647 0.036072
0.866119 0.73053 0.038452
0.828735 0.684662 0.054108
0.777191 0.627075 0.099396
0.772675 0.615234 0.117706
0.774689 0.571747 0.138184
0.774078 0.526459 0.158203
0.174927 0.139984 0.528412
0.177551 0.139984 0.528412
0.214172 0.140167 0.528412
0.302765 0.137848 0.531189
0.43045 0.126587 0.543182
0.57135 0.123505 0.546875
0.681915 0.108429 0.515717
0.778137 0.080597 0.539337
0.175812 0.143707 0.527649
0.17804 0.142975 0.528473
0.214722 0.143158 0.528473
0.303345 0.140869 0.531219
0.430664 0.12973 0.543152
0.571503 0.126648 0.546814
0.681976 0.111145 0.51593
0.778107 0.083008 0.539307
0.188568 0.194641 0.517212
0.190582 0.193878 0.518036
0.221832 0.184723 0.529266
0.312256 0.185242 0.529266
0.433441 0.173889 0.541748
0.573242 0.170593 0.545868
0.68457 0.146851 0.52063
0.779907 0.11441 0.542816
0.219879 0.356598 0.525696
0.221161 0.354553 0.526031
0.246552 0.32666 0.523193
0.331451 0.28891 0.531342
0.452026 0.284851 0.536865
0.579926 0.279724 0.54361
0.690857 0.249176 0.532898
0.784729 0.21524 0.552582
0.299469 0.507538 0.450775
0.299866 0.508362 0.453339
0.30777 0.52005 0.488495
0.366608 0.509491 0.540649
0.481995 0.432098 0.535126
0.606506 0.428253 0.540497
0.710388 0.397156 0.548279
0.792053 0.36795 0.56369
0.527466 0.645386 0.333588
0.526001 0.644897 0.335358
0.507751 0.637695 0.359741
0.505951 0.620178 0.40799
0.548981 0.598358 0.473938
0.625549 0.576294 0.548584
0.730713 0.526276 0.503967
0.803284 0.487305 0.474823
0.735504 0.745392 0.168152
0.734589 0.744934 0.169189
0.720764 0.738831 0.184967
0.688385 0.729401 0.236145
0.739899 0.715332 0.356903
0.72757 0.643494 0.461517
0.737885 0.620697 0.486542
0.792053 0.561279 0.447357
0.791016 0.847809 0.126251
0.790833 0.847534 0.126801
0.789703 0.84317 0.133759
0.813232 0.827576 0.167877
0.877411 0.812531 0.28656
0.823029 0.718018 0.379761
0.808624 0.694855 0.418762
0.808136 0.64856 0.440918
0.169342 0.143341 0.647522
0.172089 0.143372 0.647522
0.209503 0.143524 0.647522
0.301544 0.143921 0.647522
0.424561 0.132874 0.658661
0.566376 0.121735 0.669739
0.679749 0.122131 0.669739
0.762573 0.111389 0.653931
0.170258 0.147034 0.647095
0.172546 0.146362 0.647583
0.210083 0.146515 0.647583
0.302094 0.146942 0.647583
0.424896 0.135925 0.658661
0.566589 0.124939 0.669708
0.67981 0.125336 0.669708
0.762604 0.114258 0.65387
0.182617 0.198547 0.6409
0.184753 0.197845 0.641418
0.217133 0.188385 0.648651
0.309601 0.188965 0.648651
0.430328 0.180176 0.657928
0.568268 0.16922 0.669098
0.680847 0.16983 0.669098
0.763031 0.154022 0.653381
0.21106 0.34549 0.654968
0.21347 0.343872 0.653809
0.241425 0.320068 0.64682
0.328827 0.293457 0.651398
0.452148 0.292267 0.65387
0.577606 0.280975 0.666138
0.683411 0.280396 0.667816
0.764282 0.262787 0.651886
0.278961 0.59433 0.696655
0.279602 0.592743 0.696655
0.291412 0.565521 0.69101
0.358582 0.491364 0.669647
0.482178 0.437866 0.655182
0.604919 0.43338 0.661621
0.706573 0.430817 0.665955
0.777405 0.415863 0.656219
0.371857 0.645081 0.559601
0.371735 0.644684 0.560272
0.374115 0.645721 0.577728
0.419312 0.661652 0.639984
0.513824 0.649872 0.68576
0.628113 0.583008 0.668427
0.729797 0.580719 0.666718
0.809265 0.564758 0.67627
0.50592 0.75 0.526428
0.506165 0.750977 0.52774
0.502075 0.747498 0.537201
0.518188 0.736511 0.567993
0.575012 0.722687 0.60849
0.658875 0.709076 0.649933
0.746735 0.698395 0.680237
0.827789 0.67395 0.658051
0.654388 0.820862 0.434723
0.653839 0.820709 0.435547
0.643951 0.816956 0.449402
0.65509 0.810608 0.463013
0.694763 0.804199 0.474731
0.774628 0.80246 0.552002
0.84259 0.771606 0.633087
0.8284 0.733307 0.647522
0.165131 0.145935 0.734497
0.167877 0.145966 0.734497
0.205902 0.146118 0.734497
0.299561 0.146515 0.734497
0.421417 0.136261 0.744263
0.561707 0.124481 0.755219
0.67746 0.120789 0.75882
0.762115 0.121094 0.75882
0.166016 0.149719 0.734283
0.168335 0.148956 0.734558
0.206512 0.149109 0.734558
0.300018 0.149536 0.734558
0.422058 0.140686 0.743134
0.561554 0.128998 0.753998
0.677612 0.123993 0.758789
0.762146 0.124298 0.758789
0.17807 0.201447 0.73114
0.180359 0.200928 0.731476
0.213562 0.191254 0.73584
0.307556 0.191803 0.73584
0.429932 0.185089 0.742676
0.563568 0.173218 0.753998
0.678589 0.168762 0.758514
0.762604 0.16922 0.758514
0.206207 0.340088 0.747559
0.207672 0.338165 0.747253
0.238403 0.316589 0.736206
0.326843 0.297028 0.738953
0.452881 0.297302 0.739929
0.576721 0.286194 0.751312
0.681122 0.280029 0.757843
0.763916 0.280884 0.757843
0.26709 0.575409 0.799408
0.267914 0.574127 0.799194
0.281708 0.549957 0.791351
0.355286 0.483826 0.762024
0.48233 0.442291 0.743317
0.606354 0.439972 0.747437
0.706573 0.432159 0.756256
0.780975 0.4328 0.756958
0.346588 0.768799 0.813019
0.346954 0.769043 0.814209
0.353638 0.771942 0.830139
0.407959 0.723969 0.819275
0.510162 0.63623 0.779388
0.630219 0.588165 0.755096
0.730042 0.585541 0.75415
0.806854 0.584106 0.757324
0.414978 0.754883 0.675659
0.415375 0.756317 0.677673
0.418701 0.759796 0.691315
0.459076 0.766235 0.730774
0.542694 0.775635 0.781952
0.647522 0.745239 0.788574
0.75058 0.704071 0.766296
0.826813 0.70282 0.758087
0.497498 0.81369 0.648834
0.497711 0.814484 0.649933
0.501312 0.824188 0.662384
0.524689 0.817108 0.686005
0.586731 0.808258 0.715393
0.671326 0.800049 0.743561
0.757996 0.793884 0.763397
0.837555 0.789642 0.774597
