site/assets/luts/freshluts--0001160-red-teal-correctlut.cube
# LUTr-Schema-Version: 2
# LUTr-ID: freshluts--0001160-red-teal-correctlut
# LUTr-Title: Red teal correct+lut
# LUTr-Collection: Fresh LUTs
# LUTr-Collection-ID: freshluts-community
# LUTr-Source: https://freshluts.com
# LUTr-Retrieved: 2026-07-27
# LUTr-Source-File: submissions-raw/freshluts/cubes/1160__RED_TEAL_2.C0023.cube
# LUTr-Source-Format: CUBE
# LUTr-Source-SHA256: 024c191ace1fdf047bb1070ab9693e62afc65cc53ef60e27bfc62f3ef9f47830
# LUTr-License: CC0-1.0
# LUTr-License-URL: https://freshluts.com/termsandconditions
# LUTr-License-Basis: site-terms
# LUTr-Transform-Class: creative-look
# LUTr-Tags: creative, freshluts, community, cube, red, low-key, sony-s-log3, correction
# LUTr-Input-Color-Space: sony-slog3-sgamut3
# LUTr-Input-Gamut: sony-s-gamut3
# LUTr-Input-Transfer: sony-s-log3
# LUTr-Output-Color-Space: srgb
# LUTr-Output-Gamut: rec709
# LUTr-Output-Transfer: srgb
# LUTr-Color-Space-Confidence: inferred-from-source-label
# LUTr-Domain-Normalized: true
# LUTr-Shaper: none
# LUTr-Original-Grid: 33x33x33
# LUTr-Conversion-Grid: 33x33x33
# LUTr-Conversion-Interpolation: none
# LUTr-Conversion-Method: Metadata normalization; numeric LUT samples preserved
# LUTr-Conversion-Tool: LUTr scripts/convert-all-to-cube.mjs 2.0.0
# LUTr-Conversion-Date: 2026-07-28
# LUTr-Asset-URL: https://freshluts.com/luts/1160
# LUTr-Author: lvannoeun@gmail.com
# LUTr-Author-URL: https://freshluts.com/users/57563
# LUTr-Attribution: lvannoeun@gmail.com via Fresh LUTs
# LUTr-Source-Labels: gamma=Sony S-Log 3; color=Red; key=Low Key; style=cine drama
# LUTr-Note: Preserve this metadata and the upstream license notices when redistributing.
TITLE "Red teal correct+lut"
LUT_3D_SIZE 33
DOMAIN_MIN 0 0 0
DOMAIN_MAX 1 1 1
0 0 0
0 0 0
0 0 0
0 0 0
0 0 0
0 0 0
0 0 0
0 0 0
0 0 0
0 0 0
0 0 0
0 0 0
0.0367437 0 0
0.0849622 0 0
0.140398 0 0
0.200977 0 0
0.263478 0 0
0.320195 0 0
0.36643 0 0
0.406607 0 0
0.446418 0 0
0.488411 0 0
0.529549 0 0
0.567773 0 0
0.599115 0 0
0.620462 0 0
0.628962 0 0
0.628565 0 0
0.626337 0 0
0.625971 0 0
0.628244 0 0
0.656489 0 0
0.688121 0 0
0 0 0
0 0 0
0 0 0
0 0 0
0 0 0
0 0 0
0 0 0
0 0 0
0 0 0
0 0 0
0 0 0
0 0 0
0.0355383 0 0
0.0840162 0 0
0.142214 0 0
0.204074 0 0
0.267002 0 0
0.323995 0 0
0.370932 0 0
0.41117 0 0
0.451987 0 0
0.493523 0 0
0.535424 0 0
0.574289 0 0
0.606302 0 0
0.628031 0 0
0.63682 0 0
0.636561 0 0
0.634256 0 0
0.633738 0 0
0.635508 0 0
0.662242 0 0
0.692775 0 0
0 0 0
0 0 0
0 0 0
0 0 0
0 0 0
0 0 0
0 0 0
0 0 0
0 0 0
0 0 0
0 0 0
0.00131228 0 0
0.0415961 0 0
0.0917525 0 0
0.14873 0 0
0.210941 0 0
0.274083 0 0
0.33019 0 0
0.376242 0 0
0.415976 0 0
0.456428 0 0
0.497856 0 0
0.539269 0 0
0.577508 0 0
0.609506 0 0
0.631388 0 0
0.640574 0 0
0.64007 0 0
0.635981 0 0
0.635203 0 0
0.637232 0 0
0.662684 0 0
0.695064 0 0
0 0 0
0 0 0
0 0 0
0 0 0
0 0 0
0 0 0
0 0 0
0 0 0
0 0 0
0 0 0
0 0 0
0.00161746 0 0
0.041886 0 0
0.0918898 0 0
0.14902 0 0
0.210941 0 0
0.274647 0 0
0.331487 0 0
0.377539 0 0
0.417288 0 0
0.457588 0 0
0.498741 0 0
0.539788 0 0
0.578164 0 0
0.609827 0 0
0.6309 0 0
0.641611 0 0
0.642832 0 0
0.641642 0 0
0.641688 0 0
0.644617 0 0
0.666773 0 0
0.699901 0 0
0 0 0
0 0 0
0 0 0
0 0 0
0 0 0
0 0 0
0 0 0
0 0 0
0 0 0
0 0 0
0 0 0
0.0000457771 0 0
0.0386358 0 0
0.0885023 0 0
0.145968 0 0
0.208209 0 0
0.271977 0 0
0.329534 0 0
0.376272 0 0
0.415869 0 0
0.455665 0 0
0.495186 0 0
0.535317 0 0
0.573983 0 0
0.60766 0 0
0.632685 0 0
0.646006 0 0
0.649134 0 0
0.64889 0 0
0.649454 0 0
0.652689 0 0
0.671183 0 0
0.704921 0 0
0 0 0
0 0 0
0 0 0
0 0 0
0 0 0
0 0 0
0 0 0
0 0 0
0 0 0
0 0 0
0 0 0
0 0 0
0.0354009 0 0
0.0840009 0 0
0.140856 0 0
0.202533 0 0
0.266926 0 0
0.32517 0 0
0.370703 0 0
0.410773 0 0
0.450217 0 0
0.491936 0 0
0.533608 0 0
0.573785 0 0
0.60885 0 0
0.635798 0 0
0.651194 0 0
0.656397 0 0
0.656916 0 0
0.658152 0 0
0.661891 0 0
0.676448 0 0
0.710628 0 0
0 0 0
0 0 0
0 0 0
0 0 0
0 0 0
0 0 0
0 0 0
0 0 0
0 0 0
0 0 0
0 0 0
0 0 0
0.0305943 0 0
0.0771038 0 0
0.13315 0 0
0.193057 0 0
0.257633 0 0
0.317983 0 0
0.367727 0 0
0.408774 0 0
0.449012 0 0
0.490806 0 0
0.532967 0 0
0.574395 0 0
0.610513 0 0
0.639338 0 0
0.65716 0 0
0.664225 0 0
0.666056 0 0
0.667872 0 0
0.671168 0 0
0.680629 0 0
0.714794 0 0
0 0 0
0 0 0
0 0 0
0 0 0
0 0 0
0 0 0
0 0 0
0 0 0
0 0 0
0 0 0
0 0 0
0 0 0
0.019913 0 0
0.0677195 0 0
0.124056 0 0
0.185489 0 0
0.25182 0 0
0.314199 0 0
0.36614 0 0
0.408499 0 0
0.448905 0 0
0.490944 0 0
0.533883 0 0
0.575463 0 0
0.61297 0 0
0.643671 0 0
0.663249 0 0
0.671595 0 0
0.674083 0 0
0.676051 0 0
0.679789 0 0
0.68629 0 0
0.720974 0 0
0 0 0
0 0 0
0 0 0
0 0 0
0 0 0
0 0 0
0 0 0
0 0 0
0 0 0
0 0 0
0 0 0
0 0 0
0.00062562 0 0
0.0547799 0 0
0.116609 0 0
0.18114 0 0
0.247227 0 0
0.312291 0 0
0.365896 0 0
0.409796 0 0
0.450233 0 0
0.49279 0 0
0.535622 0 0
0.577493 0 0
0.614984 0 0
0.646387 0 0
0.668009 0 0
0.678965 0 0
0.682963 0 0
0.68661 0 0
0.69192 0 0
0.699825 0 0
0.732052 0 0
0 0 0
0 0 0
0 0 0
0 0 0
0 0 0
0 0 0
0 0 0
0 0 0
0 0 0
0 0 0
0 0 0
0 0 0
0 0 0
0.0244907 0 0
0.0926223 0 0
0.169253 0 0
0.242741 0 0
0.312001 0 0
0.368872 0 0
0.413458 0 0
0.452964 0 0
0.494362 0 0
0.536614 0 0
0.578775 0 0
0.617487 0 0
0.650782 0 0
0.675181 0 0
0.689448 0 0
0.696376 0 0
0.701854 0 0
0.709117 0 0
0.719142 0 0
0.749981 0 0
0 0 0
0 0 0
0 0 0
0 0 0
0 0 0
0 0 0
0 0 0
0 0 0
0 0 0
0 0 0
0 0 0
0 0 0
0 0 0
0 0 0
0.049424 0 0
0.134264 0 0
0.222675 0 0
0.301625 0 0
0.366751 0 0
0.415564 0 0
0.457038 0 0
0.499641 0 0
0.542824 0 0
0.586007 0 0
0.625513 0 0
0.660456 0 0
0.687572 0 0
0.705089 0 0
0.715297 0 0
0.723705 0 0
0.733577 0 0
0.746593 0 0
0.777066 0 0
0 0 0
0 0 0
0 0 0
0 0 0
0 0 0
0 0 0
0 0 0
0 0.00140383 0
0 0.00534066 0
0 0.00741588 0
0 0.00749218 0
0 0.0065919 0
0 0.00851453 0
0 0.0108034 0
0 0.0123445 0
0.068101 0 0
0.175845 0 0
0.273106 0 0
0.354528 0 0
0.413565 0 0
0.4607 0 0
0.505074 0 0
0.550408 0 0
0.596399 0 0
0.639719 0 0
0.678386 0 0
0.709316 0 0
0.730678 0 0
0.744457 0 0
0.75581 0 0
0.768933 0 0
0.785138 0 0
0.815641 0.00173953 0
0 0.015259 0
0 0.0174716 0
0 0.0188296 0
0 0.0202945 0
0 0.0218814 0
0 0.0242924 0
0 0.0270695 0
0 0.0307317 0
0 0.0354467 0
0 0.0388037 0
0 0.0396429 0
0 0.0385595 0
0 0.0370489 0
0 0.0386664 0
0 0.0422065 0
0 0.0450599 0
0.0805829 0.023209 0
0.224353 0 0
0.324102 0 0
0.406088 0 0
0.461891 0 0
0.51191 0 0
0.562371 0 0
0.611063 0 0
0.657572 0 0
0.700908 0 0
0.736507 0 0
0.762798 0 0
0.781628 0.00251774 0
0.797559 0.0178073 0
0.815213 0.0347601 0
0.83473 0.051667 0
0.866407 0.0665599 0
0 0.0444648 0
0 0.0473487 0
0 0.0490883 0
0 0.0510872 0
0 0.0531624 0
0 0.0558633 0
0 0.0586252 0
0 0.0619211 0
0 0.0659953 0
0 0.0709544 0
0 0.0741283 0
0 0.0749981 0
0 0.0746624 0
0 0.0749676 0
0 0.0787366 0
0 0.0843671 0
0 0.0888533 0
0.0906844 0.0681163 0
0.275441 0.0268101 0
0.379538 0.013489 0
0.459953 0.00869764 0
0.518853 0.0112001 0
0.575311 0.0140841 0
0.631617 0.0171206 0
0.683955 0.0220798 0
0.731273 0.0293584 0
0.772259 0.0394598 0
0.803906 0.0523842 0
0.827329 0.0682383 0
0.847349 0.0860609 0
0.867735 0.104433 0
0.889601 0.122835 0
0.921126 0.139345 0
0 0.0783551 0
0 0.0819104 0
0 0.0843061 0
0 0.0857099 0
0 0.0874189 0
0 0.0896468 0
0 0.0929274 0
0 0.096849 0
0 0.102007 0
0 0.108019 0
0 0.114229 0
0 0.118318 0
0 0.120272 0
0 0.121447 0
0 0.12462 0
0 0.131334 0
0 0.140444 0
0 0.148333 0
0.0949111 0.133715 0
0.325338 0.0829786 0
0.443778 0.0690623 0
0.521904 0.070222 0
0.589837 0.075761 0
0.652659 0.0827192 0
0.712978 0.0904097 0
0.76733 0.0995956 0
0.813718 0.111299 0
0.849577 0.1252 0
0.876692 0.141619 0
0.899168 0.159762 0
0.920806 0.178042 0
0.943633 0.19585 0
0.971725 0.211109 0
0 0.114992 0
0 0.118273 0
0 0.120317 0
0 0.122225 0
0 0.124865 0
0 0.128099 0
0 0.132235 0
0 0.137438 0
0 0.143694 0
0 0.151324 0
0 0.160037 0
0 0.16791 0
0 0.173892 0
0 0.178317 0
0 0.182589 0
0 0.189731 0
0 0.200656 0
0 0.214069 0
0.013611 0.225834 0
0.10486 0.220676 0
0.370398 0.163928 0
0.515633 0.145769 0
0.59173 0.151537 0
0.668589 0.15845 0
0.738155 0.167666 0
0.799695 0.17821 0
0.852049 0.189807 0
0.892561 0.203296 0
0.922454 0.218418 0
0.945449 0.233936 0
0.967147 0.249836 0
0.98967 0.265476 0
1 0.280552 0
0 0.153429 0
0 0.157214 0
0 0.160327 0
0 0.163638 0
0 0.167712 0
0 0.172534 0
0 0.178424 0
0 0.185611 0
0 0.194217 0
0 0.203845 0
0 0.215061 0
0 0.22681 0
0 0.237049 0
0 0.24622 0
0 0.254231 0
0 0.262486 0
0 0.274342 0
0 0.291005 0
0.013077 0.307164 0
0.0500954 0.321996 0
0.127703 0.325399 0
0.40824 0.267536 0
0.584237 0.240772 0
0.664622 0.245457 0
0.744305 0.251743 0
0.819043 0.258457 0
0.87924 0.267887 0
0.924056 0.278706 0
0.956298 0.291798 0
0.981216 0.306844 0
1 0.322164 0
1 0.337804 0
1 0.353231 0.0290532
0 0.197101 0
0 0.202487 0
0 0.207111 0
0 0.212222 0
0 0.218158 0
0 0.225437 0
0 0.233707 0
0 0.24329 0
0 0.254124 0
0 0.26688 0
0 0.280842 0
0 0.295903 0
0 0.311284 0
0 0.324895 0
0 0.336858 0
0 0.348287 0
0 0.36083 0
0 0.37644 0
0.0230869 0.394369 0
0.0538949 0.411826 0
0.092546 0.426596 0
0.161807 0.432944 0
0.427176 0.379095 0
0.634104 0.339696 0
0.72784 0.336233 0.00492866
0.803098 0.341375 0
0.882109 0.346502 0
0.945785 0.355367 0
0.98938 0.368399 0
1 0.383734 0
1 0.399542 0
1 0.414862 0.0239109
1 0.429282 0.0563668
0 0.246052 0
0 0.253361 0
0 0.260304 0
0 0.267567 0
0 0.276432 0
0 0.286564 0
0 0.29749 0
0 0.309728 0
0 0.324117 0
0 0.339315 0
0 0.355901 0
0 0.37406 0
0 0.392294 0
0 0.409583 0
0 0.425193 0
0 0.439231 0
0 0.452705 0
0.0027924 0.466636 0
0.0357366 0.481437 0
0.0649119 0.497688 0
0.0952621 0.512825 0
0.133516 0.526131 0
0.19823 0.532174 0
0.42005 0.491218 0
0.663142 0.44152 0.0119326
0.783001 0.429725 0.045716
0.860502 0.43418 0.0339513
0.937789 0.44007 0.00817884
1 0.447654 0
1 0.460166 0
1 0.47631 0.0133669
1 0.492271 0.0460517
1 0.50695 0.078233
0 0.30164 0
0 0.311116 0
0 0.320806 0
0 0.331472 0
0 0.343603 0
0 0.356451 0
0 0.370596 0
0 0.386114 0
0 0.402396 0
0 0.419776 0
0 0.438178 0
0 0.457237 0
0 0.476722 0
0 0.495399 0
0 0.511955 0
0 0.526223 0
0 0.539361 0
0.0077821 0.551095 0
0.0463874 0.56289 0
0.0781109 0.57734 0
0.109743 0.592859 0
0.141878 0.608148 0
0.181704 0.622538 0
0.246464 0.629938 0
0.414893 0.607095 0
0.678187 0.552941 0.0223697
0.824033 0.531746 0.0731518
0.917906 0.528374 0.0844434
0.992081 0.533837 0.0643931
1 0.540108 0.0459449
1 0.549325 0.0458381
1 0.563333 0.0712749
1 0.577859 0.101137
0 0.364813 0
0 0.376959 0
0 0.38999 0
0 0.403662 0
0 0.418189 0
0 0.433936 0
0 0.450156 0
0 0.46746 0
0 0.484794 0
0 0.502754 0
0 0.521019 0
0 0.539437 0
0 0.557717 0
0 0.575128 0
0 0.590997 0
0 0.606455 0
0 0.621118 0
0.0186465 0.633631 0
0.0602884 0.645106 0
0.0999466 0.657725 0
0.132433 0.672541 0.0043183
0.165347 0.68806 0.0193027
0.199359 0.703288 0.0336919
0.240055 0.716991 0.0407568
0.301564 0.724727 0.0395819
0.417945 0.716747 0.0293278
0.679271 0.664363 0.0340887
0.840986 0.636713 0.0838636
0.959152 0.623011 0.115831
1 0.62324 0.111437
1 0.626383 0.0937819
1 0.631418 0.0922713
1 0.640894 0.118395
0 0.435264 0
0 0.450767 0
0 0.466819 0
0 0.48304 0
0 0.499626 0
0 0.516167 0
0 0.533211 0
0 0.550011 0
0 0.566751 0
0 0.583383 0
0 0.599603 0
0 0.616022 0
0 0.633112 0
0 0.65153 0
0 0.669734 0
0 0.687236 0
0 0.702419 0
0.0344701 0.715496 0
0.0780652 0.727352 0
0.121172 0.738628 0.0121157
0.160311 0.751217 0.0366827
0.193378 0.765759 0.0551614
0.226413 0.779995 0.0687724
0.260731 0.793286 0.0817273
0.30042 0.805264 0.0875563
0.359365 0.811582 0.0846265
0.455497 0.806989 0.0728466
0.665492 0.768185 0.0573739
0.844236 0.733455 0.0882887
0.974365 0.711971 0.125933
1 0.701564 0.140368
1 0.701518 0.129488
1 0.703319 0.127275
0 0.511986 0
0 0.529519 0
0 0.546456 0
0 0.563363 0
0 0.579934 0
0 0.595865 0
0 0.611612 0
0 0.627024 0
0 0.64271 0
0 0.658991 0
0 0.676127 0
0 0.69398 0
0 0.712322 0
0 0.731762 0
0 0.751003 0
0 0.768673 0
0.0114443 0.783444 0
0.0504921 0.796933 0
0.0931411 0.808392 0.0140536
0.137591 0.818555 0.0366522
0.181079 0.828031 0.061738
0.217334 0.839521 0.0846113
0.250278 0.851545 0.099855
0.282734 0.863462 0.111513
0.31574 0.874434 0.122026
0.353338 0.883772 0.125841
0.408423 0.887617 0.120943
0.492439 0.883024 0.107897
0.640528 0.859266 0.0877852
0.836194 0.818769 0.0931868
0.977234 0.790875 0.126604
1 0.771649 0.151553
1 0.763821 0.15671
0 0.587793 0
0 0.605585 0
0 0.622232 0
0 0.6383 0
0 0.654124 0
0 0.670085 0
0 0.686397 0
0 0.703014 0
0 0.719799 0
0 0.736812 0
0 0.754192 0
0 0.772442 0
0 0.79176 0
0 0.809995 0.0011902
0 0.828397 0.00852979
0.00190738 0.845304 0.0144656
0.0333104 0.860639 0.0214389
0.0684672 0.87364 0.0298772
0.107607 0.884794 0.0422065
0.149493 0.893477 0.0586404
0.192142 0.900923 0.0789654
0.232746 0.908568 0.101213
0.265705 0.917754 0.12079
0.296956 0.927092 0.132815
0.327092 0.936248 0.141543
0.359228 0.944427 0.149523
0.395117 0.950835 0.151385
0.446113 0.95288 0.145342
0.522026 0.947341 0.131014
0.62565 0.933639 0.112398
0.824948 0.890486 0.0996719
0.974334 0.858335 0.125658
1 0.83328 0.154696
0 0.65507 0
0 0.672282 0
0 0.689952 0
0 0.707454 0
0 0.724865 0
0 0.742412 0
0 0.760204 0
0 0.777539 0
0 0.795102 0
0 0.813016 0
0 0.830808 0.00846876
0 0.849073 0.0246738
0 0.8663 0.0373693
0 0.883101 0.0468605
0.00361639 0.89958 0.0532845
0.0287022 0.915343 0.0574044
0.056733 0.929458 0.0609598
0.0874495 0.94168 0.064683
0.121706 0.952041 0.070634
0.158923 0.960403 0.0802167
0.198642 0.966842 0.0941482
0.237812 0.972168 0.11136
0.274159 0.977493 0.130083
0.304341 0.984405 0.146273
0.333165 0.991623 0.155108
0.361852 0.998352 0.16144
0.392538 1 0.166918
0.426841 1 0.167437
0.476036 1 0.160601
0.544549 1 0.1458
0.637446 0.990326 0.126131
0.800931 0.957046 0.104921
0.962402 0.920378 0.123125
0 0.717357 0
0 0.736339 0
0 0.755398 0
0 0.774563 0
0 0.793057 0
0 0.811337 0
0 0.829557 0
0 0.847593 0.0138094
0 0.865263 0.0293431
0 0.882902 0.0461433
0 0.900252 0.0616159
0 0.916548 0.0744793
0 0.932433 0.0852216
0.0141451 0.947616 0.0931868
0.0361334 0.961944 0.0982986
0.0586557 0.975311 0.100298
0.0828412 0.987793 0.101045
0.109575 0.999191 0.101244
0.138537 1 0.102083
0.170031 1 0.104692
0.204303 1 0.111147
0.239918 1 0.121553
0.275624 1 0.135897
0.30695 1 0.15079
0.334356 1 0.163165
0.36112 1 0.169238
0.388846 1 0.173648
0.419348 1 0.177462
0.454078 1 0.177203
0.501045 1 0.169696
0.567514 1 0.15462
0.654108 1 0.135058
0.777874 1 0.11368
0 0.779599 0
0 0.798856 0.00306706
0 0.818128 0.0148013
0 0.837217 0.0267491
0 0.856001 0.0386816
0 0.874403 0.0512856
0 0.892302 0.0641642
0 0.909957 0.0778973
0 0.926802 0.0928511
0 0.942718 0.105486
0 0.958343 0.116732
0.0141299 0.973205 0.126314
0.0330053 0.987305 0.134173
0.0524453 1 0.140337
0.0722667 1 0.143709
0.092546 1 0.144823
0.114031 1 0.144015
0.136278 1 0.141176
0.160494 1 0.138018
0.186099 1 0.135012
0.214237 1 0.134249
0.244251 1 0.136995
0.275731 1 0.144091
0.306645 1 0.154574
0.333196 1 0.167041
0.360021 1 0.176364
0.385733 1 0.180667
0.412741 1 0.183658
0.44387 1 0.186145
0.479164 1 0.184955
0.526925 1 0.176989
0.59176 1 0.162661
0.675303 1 0.144488
0 0.841962 0.0594949
0 0.860517 0.0717937
0 0.878508 0.083238
0 0.896223 0.0945296
0 0.913802 0.105928
0 0.930892 0.117601
0 0.947097 0.129381
0 0.96286 0.142855
0.0136416 0.978103 0.153964
