site/assets/luts/freshluts--0001101-v-log-purple-flowers.cube
# LUTr-Schema-Version: 2
# LUTr-ID: freshluts--0001101-v-log-purple-flowers
# LUTr-Title: V-Log_Purple Flowers
# LUTr-Collection: Fresh LUTs
# LUTr-Collection-ID: freshluts-community
# LUTr-Source: https://freshluts.com
# LUTr-Retrieved: 2026-07-27
# LUTr-Source-File: submissions-raw/freshluts/cubes/1101__V-Log_DA_Purple_Flowers.cube
# LUTr-Source-Format: CUBE
# LUTr-Source-SHA256: 58a0ba6120d1c457718ed266a6094099cb569c7c8a66cf03d618912adbc83ec2
# LUTr-License: CC0-1.0
# LUTr-License-URL: https://freshluts.com/termsandconditions
# LUTr-License-Basis: site-terms
# LUTr-Transform-Class: creative-look
# LUTr-Tags: creative, freshluts, community, cube, panasonic-v-log
# LUTr-Input-Color-Space:
# LUTr-Input-Gamut: panasonic-v-gamut
# LUTr-Input-Transfer: panasonic-v-log
# LUTr-Output-Color-Space: srgb
# LUTr-Output-Gamut: rec709
# LUTr-Output-Transfer: srgb
# LUTr-Color-Space-Confidence: camera-profile-input-required
# LUTr-Domain-Normalized: true
# LUTr-Shaper: none
# LUTr-Original-Grid: 35x35x35
# LUTr-Conversion-Grid: 35x35x35
# LUTr-Conversion-Interpolation: none
# LUTr-Conversion-Method: Metadata normalization; numeric LUT samples preserved
# LUTr-Conversion-Tool: LUTr scripts/convert-all-to-cube.mjs 2.0.0
# LUTr-Conversion-Date: 2026-07-28
# LUTr-Asset-URL: https://freshluts.com/luts/1101
# LUTr-Author: Camera Head Studios LUTS
# LUTr-Author-URL: https://freshluts.com/users/107973
# LUTr-Attribution: Camera Head Studios LUTS via Fresh LUTs
# LUTr-Source-Labels: gamma=Panasonic V-log; color=None; key=Neutral; style=NEUTRAL
# LUTr-Note: Preserve this metadata and the upstream license notices when redistributing.
# LUTr-Upstream-Comment: Created by: Pixelmator Pro
# LUTr-Upstream-Comment: Color profile: "sRGB IEC61966-2.1"
# LUTr-Upstream-Comment: Data domain
# LUTr-Upstream-Comment: LUT size
TITLE "V-Log_Purple Flowers"
LUT_3D_SIZE 7
DOMAIN_MIN 0.000000 0.000000 0.000000
DOMAIN_MAX 0.882353 0.882353 0.882353
0 0 0
0 0 0
0.064 0 0
0.279 0 0
0.66 0 0
1 0.019 0.019
1 0.087 0.087
0 0 0
0 0 0
0.054 0 0
0.272 0 0
0.657 0 0
1 0.019 0.019
1 0.087 0.087
0 0.004 0
0 0.003 0
0.01 0.007 0
0.283 0 0
0.653 0 0
1 0.019 0.019
1 0.087 0.087
0 0.133 0.016
0.008 0.129 0.033
0.056 0.126 0.057
0.152 0.15 0.003
0.661 0.006 0
1 0.018 0.018
1 0.087 0.087
0.043 0.438 0.196
0.083 0.436 0.207
0.138 0.432 0.225
0.275 0.425 0.284
0.471 0.466 0.027
1 0.084 0.022
1 0.086 0.086
0.27 0.867 0.549
0.293 0.867 0.554
0.327 0.866 0.561
0.435 0.862 0.588
0.66 0.853 0.675
0.909 0.895 0.143
1 0.322 0.139
0.66 1 0.989
0.668 1 0.99
0.681 1 0.992
0.727 1 0.999
0.861 1 1
1 1 1
1 1 0.412
0 0 0
0 0 0
0.056 0 0
0.274 0 0
0.658 0 0
1 0.019 0.019
1 0.087 0.087
0 0 0
0 0 0
0.035 0 0
0.265 0 0
0.655 0 0
1 0.019 0.019
1 0.087 0.087
0 0.01 0
0 0.004 0
0.008 0.006 0
0.263 0 0
0.65 0 0
1 0.019 0.019
1 0.087 0.087
0 0.139 0.014
0 0.133 0.03
0.047 0.127 0.057
0.15 0.148 0.005
0.653 0.005 0
1 0.018 0.018
1 0.087 0.087
0.02 0.44 0.194
0.062 0.438 0.205
0.122 0.434 0.223
0.27 0.426 0.284
0.47 0.464 0.03
1 0.083 0.022
1 0.086 0.086
0.257 0.868 0.549
0.281 0.867 0.553
0.316 0.866 0.56
0.428 0.863 0.587
0.658 0.853 0.675
0.909 0.895 0.144
1 0.326 0.14
0.656 1 0.989
0.664 1 0.99
0.677 1 0.992
0.723 1 0.999
0.859 1 1
1 1 1
1 1 0.412
0 0 0.003
0 0 0.005
0.047 0 0.013
0.266 0 0.008
0.655 0 0
1 0.019 0.019
1 0.087 0.087
0 0 0.009
0 0 0.004
0.027 0 0.007
0.257 0 0.005
0.652 0 0
1 0.019 0.019
1 0.087 0.087
0 0.019 0.01
0 0.01 0.007
0.006 0.004 0.004
0.242 0 0.001
0.647 0 0
1 0.019 0.019
1 0.087 0.087
0 0.15 0.015
0 0.143 0.027
0.019 0.133 0.053
0.148 0.144 0.01
0.641 0.006 0
1 0.018 0.018
1 0.087 0.087
0 0.444 0.192
0.025 0.441 0.203
0.091 0.438 0.22
0.26 0.427 0.283
0.469 0.463 0.033
1 0.088 0.022
1 0.086 0.086
0.234 0.869 0.548
0.26 0.868 0.552
0.298 0.867 0.559
0.415 0.864 0.586
0.655 0.853 0.675
0.909 0.894 0.147
1 0.333 0.142
0.649 1 0.989
0.657 1 0.99
0.67 1 0.992
0.717 1 0.998
0.856 1 1
1 1 1
1 1 0.412
0 0 0.128
0 0 0.127
0.016 0 0.136
0.242 0 0.165
0.644 0 0.147
1 0.019 0.028
1 0.087 0.087
0 0 0.134
0 0 0.129
0.007 0 0.13
0.231 0 0.161
0.641 0 0.142
1 0.019 0.024
1 0.087 0.087
0 0.002 0.152
0 0 0.141
0.001 0 0.13
0.213 0 0.155
0.635 0 0.133
1 0.018 0.023
1 0.087 0.087
0 0.183 0.154
0 0.177 0.152
0 0.168 0.148
0.136 0.13 0.134
0.614 0.012 0.092
1 0.017 0.019
1 0.086 0.086
0 0.463 0.191
0 0.46 0.2
0 0.455 0.215
0.187 0.437 0.274
0.467 0.456 0.124
1 0.11 0.02
1 0.086 0.086
0.121 0.873 0.545
0.157 0.872 0.549
0.208 0.871 0.555
0.357 0.867 0.582
0.64 0.855 0.674
0.908 0.892 0.165
1 0.353 0.146
0.617 1 0.988
0.626 1 0.989
0.641 1 0.991
0.692 1 0.997
0.841 1 1
1 1 1
1 1 0.413
0 0 0.429
0 0 0.427
0 0 0.426
0.162 0 0.437
0.608 0 0.491
1 0.019 0.445
1 0.088 0.16
0 0 0.431
0 0 0.429
0 0 0.427
0.152 0 0.435
0.604 0 0.489
1 0.019 0.443
1 0.088 0.157
0 0 0.435
0 0 0.433
0 0 0.429
0.138 0 0.431
0.597 0 0.487
1 0.018 0.44
1 0.088 0.152
0 0.094 0.462
0 0.09 0.458
0 0.085 0.45
0.084 0.072 0.431
0.57 0.002 0.477
1 0.017 0.426
1 0.087 0.132
0 0.518 0.472
0 0.516 0.471
0 0.512 0.469
0 0.497 0.463
0.426 0.435 0.439
1 0.124 0.354
1 0.086 0.086
0 0.895 0.542
0 0.894 0.545
0 0.892 0.551
0.01 0.887 0.573
0.528 0.867 0.661
0.907 0.884 0.381
1 0.397 0.154
0.437 1 0.984
0.453 1 0.985
0.478 1 0.987
0.56 1 0.994
0.77 1 1
1 1 1
1 1 0.427
0 0 0.857
0 0 0.857
0 0 0.856
0.004 0 0.854
0.48 0 0.866
1 0.013 0.897
1 0.103 0.738
0 0 0.858
0 0 0.857
0 0 0.857
0.004 0 0.854
0.476 0 0.866
1 0.013 0.897
1 0.103 0.738
0 0 0.859
0 0 0.858
0 0 0.857
0.003 0 0.855
0.47 0 0.864
1 0.013 0.897
1 0.103 0.737
0 0 0.863
0 0 0.863
0 0 0.862
0 0 0.858
0.444 0 0.86
1 0.012 0.896
1 0.103 0.734
0 0.356 0.894
0 0.355 0.892
0 0.352 0.89
0 0.342 0.882
0.334 0.314 0.86
0.984 0.042 0.891
1 0.102 0.721
0 0.952 0.903
0 0.952 0.902
0 0.951 0.902
0 0.947 0.9
0 0.93 0.893
0.855 0.859 0.871
1 0.402 0.732
0.219 1 0.983
0.219 1 0.984
0.219 1 0.985
0.218 1 0.989
0.227 1 1
0.96 1 1
1 1 0.795
0.019 0.019 1
0.019 0.019 1
0.019 0.019 1
0.018 0.018 1
0.039 0.019 1
0.782 0.059 1
1 0.107 1
0.019 0.019 1
0.019 0.019 1
0.019 0.019 1
0.018 0.018 1
0.034 0.019 1
0.781 0.059 1
1 0.107 1
0.019 0.019 1
0.019 0.019 1
0.019 0.019 1
0.018 0.018 1
0.025 0.019 1
0.779 0.059 1
1 0.107 1
0.019 0.019 1
0.019 0.019 1
0.019 0.019 1
0.019 0.019 1
0.018 0.018 1
0.774 0.059 1
1 0.107 1
0.019 0.019 1
0.019 0.019 1
0.019 0.019 1
0.019 0.019 1
0.019 0.019 1
0.751 0.057 1
1 0.106 1
0.141 0.738 1
0.141 0.738 1
0.141 0.737 1
0.14 0.734 1
0.135 0.723 1
0.729 0.71 1
1 0.229 1
0.262 1 1
0.262 1 1
0.261 1 1
0.261 1 1
0.259 1 1
0.251 1 1
1 1 1
