site/assets/luts/freshluts--0000693-rec-709-to-sony-s-log-3-conversion.cube
# LUTr-Schema-Version: 2
# LUTr-ID: freshluts--0000693-rec-709-to-sony-s-log-3-conversion
# LUTr-Title: REC 709 to Sony S-Log 3 (conversion)
# LUTr-Collection: Fresh LUTs
# LUTr-Collection-ID: freshluts-community
# LUTr-Source: https://freshluts.com
# LUTr-Retrieved: 2026-07-27
# LUTr-Source-File: submissions-raw/freshluts/cubes/693__REC709_to_Sony_S-Log_3.cube
# LUTr-Source-Format: CUBE
# LUTr-Source-SHA256: 4eb03521ccc9e52dab5bc4ea1db80b1444c678f23c1f26395e9eda181d84af7d
# LUTr-License: CC0-1.0
# LUTr-License-URL: https://freshluts.com/termsandconditions
# LUTr-License-Basis: site-terms
# LUTr-Transform-Class: creative-look
# LUTr-Tags: creative, freshluts, community, cube, rec709
# LUTr-Input-Color-Space: rec709
# LUTr-Input-Gamut: rec709
# LUTr-Input-Transfer: rec709
# LUTr-Output-Color-Space: srgb
# LUTr-Output-Gamut: rec709
# LUTr-Output-Transfer: srgb
# LUTr-Color-Space-Confidence: inferred-from-source-label
# LUTr-Domain-Normalized: true
# LUTr-Shaper: none
# LUTr-Original-Grid: 33x33x33
# LUTr-Conversion-Grid: 33x33x33
# LUTr-Conversion-Interpolation: none
# LUTr-Conversion-Method: Metadata normalization; numeric LUT samples preserved
# LUTr-Conversion-Tool: LUTr scripts/convert-all-to-cube.mjs 2.0.0
# LUTr-Conversion-Date: 2026-07-28
# LUTr-Asset-URL: https://freshluts.com/luts/693
# LUTr-Author: François Bélanger
# LUTr-Author-URL: https://freshluts.com/users/7358
# LUTr-Attribution: François Bélanger via Fresh LUTs
# LUTr-Source-Labels: gamma=Rec 709; color=None; key=Neutral; style=Correction
# LUTr-Note: Preserve this metadata and the upstream license notices when redistributing.
# LUTr-Upstream-Comment: INPUTGAMMA Rec709
# LUTr-Upstream-Comment: IMAGEPROFILE sRGB
# LUTr-Upstream-Comment: OUTPUTGAMMA SLog3
# LUTr-Upstream-Comment: 64BLOB
# LUTr-Upstream-Comment: TFVUQwAAAAAzAAAAAAAAAEN0clYsAgAAigAAAAAAwP8AAAA/AAAAPwAAAD8A
# LUTr-Upstream-Comment: AAA/AAAAP+Q4jj8AAIA/AACAPwAAAAAAAAA/AAAAAAAAAAAAAAAAAAAAAAAA
# LUTr-Upstream-Comment: AAAAAAAAAACAPwAAAD8AAAA/sPgKPwAAAAAAAAA/AAAAP7D4Cj++914/AACA
# LUTr-Upstream-Comment: PwAAAAAAAAAAAAAAPwAAAD8AAAAAAACAPwAAAAAAAAAAAAAAPwghhD4AAAAA
# LUTr-Upstream-Comment: AAAAAAAAAAAAAAAAAAAAAAAAAAAAAAAAAADA/wAAAAAAAEA/AAAAAAAAAAAA
# LUTr-Upstream-Comment: AEA/AABAPwAAQD8AAAAAAAAAPwAAAAAAAAA/AAAAPwAAgD8AAAAAAAAAPwAA
# LUTr-Upstream-Comment: QD8AAMD/AACAPwAAgD8AAIA/AAAAAAAAAAAAAAA/AAAAPwAAAD8AAAAAAACA
# LUTr-Upstream-Comment: PwAAAABrrbU+AABAPwAAgD8AAAAAAADA/wAAAAAAAAAAAACAPwAAgD8AAIA/
# LUTr-Upstream-Comment: AACAPwAAwP8AAMD/AADA/wAAwP8AAMD/AADA/wAAAD8AAAAAAAAAPwAAAD8A
# LUTr-Upstream-Comment: AAA/AAAAPwAAAD8AAAA/AAAAPwAAAD8AAAA/AAAAAAAAAD8AAIA/AAAAPwAA
# LUTr-Upstream-Comment: AAAAAAA/AAAAAAAAgD8AAMD/AADA/wAAwP8AAMD/AADA/wAAwP8AAAAAAADA
# LUTr-Upstream-Comment: /wAAwP8AAMD/AADA/wAAwP8AAMD/AADA/wAAwP8AAMD/AADA/wAAwP8AAMD/
# LUTr-Upstream-Comment: AADA/wAAwP8AAMD/AADA/wAAwP8AAMD/AADA/wAAwP8AAMD/AAAAAERHUkQC
# LUTr-Upstream-Comment: EAICBhVmYmJvaXNjbGFpckBnbWFpbC5jb20JA277A277A5IEA5IEAggCCAIy
# LUTr-Upstream-Comment: AAAAAAAAAAAAAAAAAAAAAAAAAAAAAAAAAAAAAAAAAAABAAABAAAAAAAAAAAA
# LUTr-Upstream-Comment: AAAAAAAAAAAAAAAAAAAAAAAAAAAAAAAAAAAAAAAAAAAAAAAAAAEAAAElSRI+
# LUTr-Upstream-Comment: AAAAAAAAAAAAAAAAAAAAAAAAAAAAAAAAAAAAAAAAAAAAAAAAAAAAAAAAAQAA
# LUTr-Upstream-Comment: ASVJkj4AAAAAAAAAAAAAAAAAAAAAAAAAAAAAAAAAAAAAAAAAAAAAAAAAAAAA
# LUTr-Upstream-Comment: AAABAAABt23bPgAAAAAAAAAAAAAAAAAAAAAAAAAAAAAAAAAAAAAAAAAAAAAA
# LUTr-Upstream-Comment: AAAAAAAAAAEAAAElSRI/AAAAAAAAAAAAAAAAAAAAAAAAAAAAAAAAAAAAAAAA
# LUTr-Upstream-Comment: AAAAAAAAAAAAAAAAAQAAAW7bNj8AAAAAAAAAAAAAAAAAAAAAAAAAAAAAAAAA
# LUTr-Upstream-Comment: AAAAAAAAAAAAAAAAAAAAAAABAAABt21bPwAAAAAAAAAAAAAAAAAAAAAAAAAA
# LUTr-Upstream-Comment: AAAAAAAAAAAAAAAAAAAAAAAAAAAAAAEAAAEAAIA/AAAAAAAAAAAAAAAAAACn
# LUTr-Upstream-Comment: AAAAAAAAAAAAAAAAAAAAAAAAAAAAAAAAAAAAAAAAAQAAAAAlSRI+AAAAAAAA
# LUTr-Upstream-Comment: dgAAAHYAAAAAAAAAAAAAAAAAAAAAAAAAAAAAAAAAAAAAAAABJUkSPiVJEj4A
# LUTr-Upstream-Comment: AAAAAACnAAAAAAAAAAAAAAAAAAAAAAAAAAAAAAAAAAAAAAAAAAAAAAElSZI+
TITLE "REC 709 to Sony S-Log 3 (conversion)"
LUT_3D_SIZE 33
DOMAIN_MIN 0 0 0
DOMAIN_MAX 1 1 1
0.093011 0.093011 0.093011
0.138882 0.09259 0.09259
0.180474 0.093011 0.093011
0.209098 0.093011 0.093011
0.235403 0.093011 0.093011
0.260196 0.09259 0.09259
0.283444 0.093011 0.093011
0.305373 0.093011 0.093011
0.325577 0.093011 0.093011
0.344381 0.093011 0.093011
0.362118 0.093011 0.093011
0.378765 0.093011 0.093011
0.394563 0.093011 0.093011
0.409195 0.09259 0.09259
0.423291 0.09259 0.09259
0.436749 0.093011 0.093011
0.449409 0.093011 0.093011
0.461566 0.093011 0.093011
0.473053 0.093011 0.093011
0.4842 0.093011 0.093011
0.494699 0.093011 0.093011
0.504925 0.093011 0.093011
0.514642 0.093011 0.093011
0.524069 0.093011 0.093011
0.533348 0.093011 0.093011
0.542069 0.093011 0.093011
0.55044 0.093011 0.093011
0.558595 0.093011 0.093011
0.5666 0.093011 0.093011
0.574188 0.093011 0.093011
0.581704 0.093011 0.093011
0.589044 0.093011 0.093011
0.596058 0.093011 0.093011
0.093011 0.138882 0.093011
0.138882 0.138882 0.09259
0.180474 0.138882 0.093011
0.209098 0.138882 0.093011
0.235403 0.138882 0.093011
0.260196 0.138882 0.09259
0.283444 0.138882 0.093011
0.305253 0.138882 0.093011
0.325577 0.138882 0.093011
0.344381 0.138882 0.093011
0.362118 0.138882 0.093011
0.378765 0.138882 0.093011
0.394474 0.138882 0.093011
0.409195 0.138882 0.09259
0.423291 0.138882 0.09259
0.436749 0.138882 0.093011
0.449334 0.138882 0.093011
0.461566 0.138882 0.093011
0.473053 0.138882 0.093011
0.4842 0.138882 0.093011
0.494699 0.138882 0.093011
0.504925 0.138882 0.093011
0.514642 0.138882 0.093011
0.524069 0.138882 0.093011
0.533287 0.138882 0.093011
0.542069 0.138882 0.093011
0.55044 0.138882 0.093011
0.558595 0.138882 0.093011
0.5666 0.138882 0.093011
0.574188 0.138882 0.093011
0.581704 0.138882 0.093011
0.589044 0.138882 0.093011
0.596005 0.138882 0.093011
0.093011 0.180474 0.093011
0.138882 0.180255 0.09259
0.180474 0.180474 0.093011
0.209098 0.180255 0.093011
0.235403 0.180255 0.093011
0.260196 0.180255 0.09259
0.283444 0.180255 0.093011
0.305253 0.180474 0.093011
0.325465 0.180474 0.093011
0.344381 0.180255 0.093011
0.36202 0.180255 0.093011
0.378672 0.180255 0.093011
0.394474 0.180255 0.093011
0.409449 0.180474 0.093011
0.423453 0.180474 0.093011
0.436671 0.180255 0.093011
0.449334 0.180255 0.093011
0.461493 0.180255 0.093011
0.472982 0.180255 0.093011
0.484131 0.180255 0.093011
0.494699 0.180255 0.093011
0.504925 0.180255 0.093011
0.514578 0.180255 0.093011
0.524069 0.180255 0.093011
0.533287 0.180474 0.093011
0.542009 0.180474 0.093011
0.550381 0.180255 0.093011
0.558537 0.180255 0.093011
0.566544 0.180255 0.093011
0.574188 0.180255 0.093011
0.581649 0.180255 0.093011
0.58899 0.180255 0.093011
0.596005 0.180255 0.093011
0.093011 0.209098 0.093011
0.138882 0.209098 0.09259
0.180474 0.209098 0.093011
0.209098 0.209098 0.093011
0.235403 0.209098 0.093011
0.260196 0.209098 0.09259
0.283444 0.209098 0.093011
0.305253 0.209098 0.093011
0.325465 0.209098 0.093011
0.344381 0.209098 0.093011
0.36202 0.209098 0.093011
0.378765 0.209098 0.093011
0.394474 0.209098 0.093011
0.409449 0.209098 0.093011
0.423453 0.209098 0.093011
0.436671 0.209098 0.093011
0.449334 0.209098 0.093011
0.461493 0.209098 0.093011
0.473053 0.209098 0.093011
0.484131 0.209098 0.093011
0.494699 0.209098 0.093011
0.504925 0.209098 0.093011
0.514642 0.209098 0.093011
0.524069 0.209098 0.093011
0.533287 0.209098 0.093011
0.542009 0.209098 0.093011
0.550381 0.209098 0.093011
0.558595 0.209098 0.093011
0.566544 0.209098 0.093011
0.574188 0.209098 0.093011
0.581649 0.209098 0.093011
0.58899 0.209098 0.093011
0.596005 0.209098 0.093011
0.093011 0.235403 0.093011
0.138882 0.235567 0.093011
0.180255 0.235403 0.093011
0.209098 0.235403 0.093011
0.235403 0.235403 0.09259
0.260341 0.235567 0.093011
0.283444 0.235403 0.09259
0.305132 0.235403 0.093011
0.325465 0.235403 0.093011
0.344276 0.235403 0.093011
0.362217 0.235567 0.093011
0.378858 0.235567 0.093011
0.394474 0.235403 0.093011
0.409365 0.235567 0.093011
0.423453 0.235567 0.093011
0.436827 0.235567 0.093011
0.449484 0.235567 0.093011
0.461493 0.235403 0.093011
0.473194 0.235567 0.093011
0.484131 0.235403 0.093011
0.494833 0.235567 0.093011
0.50486 0.235403 0.093011
0.514769 0.235567 0.093011
0.524194 0.235567 0.093011
0.533226 0.235403 0.093011
0.542009 0.235403 0.093011
0.550556 0.235567 0.093011
0.558709 0.235567 0.093011
0.566544 0.235403 0.093011
0.574354 0.235567 0.093011
0.581813 0.235567 0.093011
0.588937 0.235403 0.093011
0.595952 0.235403 0.093011
0.093011 0.260196 0.093011
0.138882 0.260341 0.093011
0.180255 0.260196 0.093011
0.209098 0.260196 0.093011
0.235567 0.260341 0.093011
0.260341 0.260341 0.093011
0.283576 0.260341 0.093011
0.305132 0.260196 0.093011
0.325353 0.260196 0.093011
0.344276 0.260196 0.093011
0.362217 0.260341 0.093011
0.378858 0.260341 0.093011
0.394651 0.260341 0.093011
0.409365 0.260196 0.093011
0.423372 0.260196 0.093011
0.436827 0.260341 0.093011
0.449484 0.260341 0.093011
0.461639 0.260341 0.093011
0.473123 0.260341 0.093011
0.484268 0.260341 0.093011
0.494766 0.260341 0.093011
0.50499 0.260341 0.093011
0.514705 0.260196 0.093011
0.524194 0.260196 0.093011
0.533165 0.260196 0.093011
0.54195 0.260196 0.093011
0.550498 0.260341 0.093011
0.558709 0.260196 0.093011
0.566657 0.260341 0.093011
0.574298 0.260196 0.093011
0.581758 0.260341 0.093011
0.588937 0.260196 0.093011
0.595952 0.260196 0.093011
0.093011 0.283444 0.093011
0.138882 0.283576 0.093011
0.180255 0.283444 0.093011
0.209098 0.283576 0.093011
0.235567 0.283576 0.093011
0.260196 0.283444 0.093011
0.283576 0.283576 0.093011
0.305132 0.283444 0.093011
0.325353 0.283444 0.093011
0.344381 0.283576 0.093011
0.362118 0.283576 0.093011
0.378765 0.283576 0.093011
0.394563 0.283576 0.093011
0.409365 0.283444 0.093011
0.423372 0.283444 0.093011
0.436749 0.283576 0.093011
0.449484 0.283444 0.093011
0.461566 0.283576 0.093011
0.473123 0.283576 0.093011
0.4842 0.283576 0.093011
0.494766 0.283576 0.093011
0.50499 0.283576 0.093011
0.514705 0.283444 0.093011
0.524131 0.283444 0.093011
0.533165 0.283444 0.093011
0.54195 0.283444 0.093011
0.550498 0.283576 0.093011
0.558652 0.283444 0.093011
0.5666 0.283576 0.093011
0.574298 0.283444 0.093011
0.581758 0.283576 0.093011
0.589044 0.283576 0.093011
0.596058 0.283576 0.093011
0.093011 0.305132 0.093011
0.138882 0.305253 0.093011
0.180255 0.305132 0.093011
0.209098 0.305253 0.093011
0.235567 0.305253 0.093011
0.260196 0.305132 0.093011
0.283576 0.305253 0.093011
0.305132 0.305132 0.093011
0.325353 0.305132 0.093011
0.344381 0.305253 0.093011
0.362118 0.305253 0.093011
0.378765 0.305253 0.093011
0.394563 0.305253 0.093011
0.409365 0.305132 0.093011
0.423372 0.305132 0.093011
0.436827 0.305253 0.093011
0.449484 0.305132 0.093011
0.461566 0.305253 0.093011
0.473123 0.305253 0.093011
0.4842 0.305253 0.093011
0.494766 0.305132 0.093011
0.50499 0.305253 0.093011
0.514705 0.305132 0.093011
0.524194 0.305132 0.093011
0.533165 0.305132 0.093011
0.54195 0.305132 0.093011
0.550498 0.305132 0.093011
0.558652 0.305132 0.093011
0.566657 0.305253 0.093011
0.574298 0.305132 0.093011
0.581758 0.305132 0.093011
0.588937 0.305132 0.093011
0.596058 0.305253 0.093011
0.093011 0.325465 0.093011
0.138882 0.325465 0.093011
0.180255 0.325465 0.093011
0.209098 0.325353 0.093011
0.235403 0.325353 0.093011
0.260341 0.325465 0.093011
0.283444 0.325353 0.093011
0.305132 0.325465 0.093011
0.325465 0.325465 0.093011
0.344276 0.325353 0.093011
0.362217 0.325465 0.093011
0.378858 0.325465 0.093011
0.394474 0.325353 0.093011
0.409365 0.325465 0.093011
0.423453 0.325465 0.093011
0.436827 0.325465 0.093011
0.449484 0.325465 0.093011
0.461493 0.325353 0.093011
0.473123 0.325465 0.093011
0.484131 0.325353 0.093011
0.494833 0.325465 0.093011
0.50486 0.325353 0.093011
0.514769 0.325465 0.093011
0.524194 0.325465 0.093011
0.533226 0.325465 0.093011
0.542009 0.325465 0.093011
0.550498 0.325465 0.093011
0.558709 0.325465 0.093011
0.566544 0.325353 0.093011
0.574298 0.325465 0.093011
0.581758 0.325465 0.093011
0.58899 0.325465 0.093011
0.595952 0.325465 0.093011
0.093011 0.344381 0.093011
0.138882 0.344381 0.093011
0.180255 0.344381 0.093011
0.209098 0.344276 0.093011
0.235567 0.344381 0.093011
0.260196 0.344381 0.093011
0.283576 0.344381 0.093011
0.305132 0.344381 0.093011
0.325465 0.344381 0.093011
0.344276 0.344276 0.093011
0.362118 0.344381 0.093011
0.378858 0.344381 0.093011
0.394563 0.344381 0.093011
0.409365 0.344381 0.093011
0.423372 0.344381 0.093011
0.436827 0.344381 0.093011
0.449484 0.344381 0.093011
0.461566 0.344381 0.093011
0.473123 0.344381 0.093011
0.484268 0.344381 0.093011
0.494766 0.344381 0.093011
0.50499 0.344381 0.093011
0.514705 0.344381 0.093011
0.524194 0.344381 0.093011
0.533165 0.344381 0.093011
0.54195 0.344381 0.093011
0.550498 0.344381 0.093011
0.558652 0.344381 0.093011
0.566657 0.344381 0.093011
0.574298 0.344381 0.093011
0.581758 0.344381 0.093011
0.588937 0.344381 0.093011
0.595952 0.344276 0.093011
0.093011 0.362217 0.093011
0.138882 0.362118 0.093011
0.180255 0.36202 0.093011
0.209098 0.362118 0.093011
0.235403 0.362118 0.093011
0.260196 0.362118 0.093011
0.283576 0.362118 0.093011
0.305132 0.36202 0.093011
0.325465 0.362217 0.093011
0.344381 0.362118 0.093011
0.362118 0.362118 0.093011
0.378765 0.362118 0.093011
0.394563 0.362118 0.093011
0.409365 0.362118 0.093011
0.423372 0.362118 0.093011
0.436749 0.362118 0.093011
0.449409 0.362118 0.093011
0.461566 0.362118 0.093011
0.473053 0.362118 0.093011
0.4842 0.362118 0.093011
0.494766 0.362118 0.093011
0.504925 0.362118 0.093011
0.514705 0.362118 0.093011
0.524131 0.362118 0.093011
0.533165 0.362118 0.093011
0.542069 0.362118 0.093011
0.55044 0.362118 0.093011
0.558652 0.362118 0.093011
0.5666 0.362118 0.093011
0.574243 0.362118 0.093011
0.581704 0.362118 0.093011
0.589044 0.362118 0.093011
0.596058 0.362118 0.093011
0.093011 0.378765 0.093011
0.138882 0.378858 0.093011
0.180255 0.378765 0.093011
0.209098 0.378765 0.093011
0.235567 0.378858 0.093011
0.260341 0.378765 0.093011
0.283576 0.378858 0.093011
0.305132 0.378765 0.093011
0.325465 0.378765 0.093011
0.344276 0.378765 0.093011
0.362118 0.378858 0.093011
0.378858 0.378858 0.093011
0.394563 0.378858 0.093011
0.409365 0.378765 0.093011
0.423372 0.378765 0.093011
0.436827 0.378858 0.093011
0.449484 0.378765 0.093011
0.461493 0.378765 0.093011
0.473123 0.378858 0.093011
0.484268 0.378858 0.093011
0.494766 0.378765 0.093011
0.50499 0.378858 0.093011
0.514705 0.378765 0.093011
0.524194 0.378765 0.093011
0.533226 0.378765 0.093011
0.542009 0.378765 0.093011
0.550498 0.378765 0.093011
0.558652 0.378765 0.093011
0.566544 0.378765 0.093011
0.574298 0.378765 0.093011
0.581758 0.378765 0.093011
0.588937 0.378765 0.093011
0.595952 0.378765 0.093011
0.093011 0.394474 0.093011
0.138882 0.394563 0.093011
0.180255 0.394563 0.093011
0.209098 0.394474 0.093011
0.235567 0.394563 0.093011
0.260196 0.394563 0.093011
0.283576 0.394563 0.093011
0.305132 0.394563 0.093011
0.325465 0.394474 0.093011
0.344276 0.394474 0.093011
0.362118 0.394563 0.093011
0.378858 0.394563 0.093011
0.394563 0.394563 0.093011
0.409365 0.394563 0.093011
0.423372 0.394563 0.093011
0.436827 0.394563 0.093011
0.449484 0.394563 0.093011
0.461566 0.394563 0.093011
0.473123 0.394563 0.093011
0.484268 0.394563 0.093011
0.494766 0.394563 0.093011
0.50499 0.394563 0.093011
0.514705 0.394563 0.093011
0.524194 0.394563 0.093011
0.533165 0.394563 0.093011
0.54195 0.394563 0.093011
0.550498 0.394563 0.093011
0.558652 0.394563 0.093011
0.566657 0.394563 0.093011
0.574298 0.394563 0.093011
0.581758 0.394563 0.093011
0.588937 0.394474 0.093011
0.595952 0.394474 0.093011
0.093011 0.409365 0.093011
0.138882 0.409365 0.093011
0.180474 0.409365 0.093011
0.209098 0.409365 0.093011
0.235403 0.409365 0.093011
0.260196 0.409365 0.093011
0.283444 0.409365 0.093011
0.305253 0.409365 0.093011
0.325465 0.409365 0.093011
0.344381 0.409365 0.093011
0.362118 0.409365 0.093011
0.378765 0.409365 0.093011
0.394563 0.409365 0.093011
0.409365 0.409365 0.093011
0.423453 0.409365 0.093011
0.436749 0.409365 0.093011
0.449409 0.409365 0.093011
0.461566 0.409365 0.093011
0.473053 0.409365 0.093011
0.4842 0.409365 0.093011
0.494699 0.409365 0.093011
0.504925 0.409365 0.093011
0.514642 0.409365 0.093011
0.524131 0.409365 0.093011
0.533226 0.409365 0.093011
0.542009 0.409365 0.093011
0.55044 0.409365 0.093011
0.558595 0.409365 0.093011
0.5666 0.409365 0.093011
0.574243 0.409365 0.093011
0.581704 0.409365 0.093011
0.58899 0.409365 0.093011
0.596005 0.409365 0.093011
0.093011 0.423453 0.093011
0.138882 0.423372 0.093011
0.180474 0.423453 0.093011
0.209098 0.423372 0.093011
0.235403 0.423372 0.093011
0.260341 0.423453 0.093011
0.283444 0.423372 0.093011
0.305132 0.423453 0.093011
0.325465 0.423453 0.093011
0.344381 0.423372 0.093011
0.362118 0.423372 0.093011
0.378765 0.423372 0.093011
0.394474 0.423372 0.093011
0.409365 0.423453 0.093011
0.423453 0.423453 0.093011
0.436749 0.423372 0.093011
0.449484 0.423453 0.093011
0.461566 0.423372 0.093011
0.473053 0.423372 0.093011
0.4842 0.423372 0.093011
0.494699 0.423372 0.093011
0.504925 0.423372 0.093011
0.514769 0.423453 0.093011
0.524194 0.423453 0.093011
0.533226 0.423453 0.093011
0.542009 0.423453 0.093011
0.55044 0.423372 0.093011
0.558595 0.423372 0.093011
0.566544 0.423372 0.093011
0.574298 0.423453 0.093011
0.581704 0.423372 0.093011
0.58899 0.423372 0.093011
0.596005 0.423372 0.093011
0.093011 0.436749 0.093011
0.138882 0.436749 0.093011
0.180474 0.436749 0.093011
0.209098 0.436749 0.093011
0.235403 0.436749 0.093011
0.260341 0.436827 0.093011
0.283444 0.436749 0.093011
0.305132 0.436749 0.093011
0.325465 0.436749 0.093011
0.344381 0.436749 0.093011
0.362118 0.436749 0.093011
0.378765 0.436749 0.093011
0.394474 0.436749 0.093011
0.409365 0.436827 0.093011
0.423453 0.436827 0.093011
0.436749 0.436749 0.093011
0.449484 0.436827 0.093011
0.461493 0.436749 0.093011
0.473053 0.436749 0.093011
0.484131 0.436749 0.093011
0.494699 0.436749 0.093011
0.504925 0.436749 0.093011
0.514769 0.436827 0.093011
0.524194 0.436827 0.093011
0.533226 0.436749 0.093011
0.542009 0.436749 0.093011
0.550498 0.436827 0.093011
0.558709 0.436827 0.093011
0.566544 0.436749 0.093011
0.574298 0.436827 0.093011
0.581704 0.436749 0.093011
0.58899 0.436749 0.093011
0.596005 0.436749 0.093011
0.093011 0.449409 0.093011
0.138882 0.449484 0.093011
0.180255 0.449409 0.093011
0.209098 0.449484 0.093011
0.235567 0.449484 0.093011
0.260196 0.449484 0.093011
0.283576 0.449484 0.093011
0.305132 0.449409 0.093011
0.325465 0.449409 0.093011
0.344276 0.449409 0.093011
0.362118 0.449484 0.093011
0.378765 0.449484 0.093011
0.394563 0.449484 0.093011
0.409365 0.449484 0.093011
0.423372 0.449484 0.093011
0.436749 0.449484 0.093011
0.449484 0.449484 0.093011
0.461566 0.449484 0.093011
0.473123 0.449484 0.093011
0.4842 0.449484 0.093011
0.494766 0.449484 0.093011
0.50499 0.449484 0.093011
0.514705 0.449484 0.093011
0.524194 0.449484 0.093011
0.533165 0.449484 0.093011
0.54195 0.449409 0.093011
0.550498 0.449484 0.093011
0.558652 0.449484 0.093011
0.5666 0.449484 0.093011
0.574298 0.449484 0.093011
0.581758 0.449484 0.093011
0.588937 0.449409 0.093011
0.595952 0.449409 0.093011
0.093011 0.461566 0.093011
0.138882 0.461493 0.093011
0.180474 0.461566 0.093011
0.209098 0.461566 0.093011
0.235403 0.461493 0.093011
0.260341 0.461566 0.093011
0.283444 0.461493 0.093011
0.305132 0.461566 0.093011
0.325465 0.461566 0.093011
0.344381 0.461566 0.093011
0.362118 0.461493 0.093011
0.378765 0.461493 0.093011
0.394474 0.461493 0.093011
0.409365 0.461566 0.093011
0.423453 0.461566 0.093011
0.436749 0.461493 0.093011
0.449484 0.461566 0.093011
0.461566 0.461566 0.093011
0.473053 0.461493 0.093011
0.4842 0.461493 0.093011
0.494699 0.461493 0.093011
0.504925 0.461493 0.093011
0.514769 0.461566 0.093011
0.524194 0.461566 0.093011
0.533226 0.461566 0.093011
0.542009 0.461566 0.093011
0.55044 0.461493 0.093011
0.558709 0.461566 0.093011
0.566544 0.461566 0.093011
0.574298 0.461566 0.093011
0.581704 0.461493 0.093011
0.58899 0.461566 0.093011
0.596005 0.461566 0.093011
0.093011 0.473123 0.093011
0.138882 0.473053 0.093011
0.180474 0.473123 0.093011
0.209098 0.473053 0.093011
0.235403 0.473053 0.093011
0.260196 0.473053 0.093011
0.283444 0.473053 0.093011
0.305253 0.473123 0.093011
0.325465 0.473123 0.093011
0.344381 0.473053 0.093011
0.362118 0.473053 0.093011
0.378765 0.473053 0.093011
0.394563 0.473053 0.093011
0.409365 0.473123 0.093011
0.423453 0.473123 0.093011
0.436749 0.473053 0.093011
0.449409 0.473053 0.093011
0.461566 0.473053 0.093011
0.473053 0.473053 0.093011
0.4842 0.473053 0.093011
0.494699 0.473053 0.093011
0.504925 0.473053 0.093011
0.514705 0.473053 0.093011
0.524131 0.473053 0.093011
0.533226 0.473123 0.093011
0.542009 0.473123 0.093011
0.55044 0.473053 0.093011
0.558595 0.473053 0.093011
0.5666 0.473053 0.093011
0.574243 0.473053 0.093011
0.581704 0.473053 0.093011
0.58899 0.473053 0.093011
0.596005 0.473053 0.093011
0.093011 0.4842 0.093011
0.138882 0.484131 0.093011
0.180474 0.4842 0.093011
0.209098 0.4842 0.093011
0.235403 0.4842 0.093011
0.260196 0.484131 0.093011
0.283444 0.4842 0.093011
0.305132 0.4842 0.093011
0.325465 0.4842 0.093011
0.344381 0.4842 0.093011
0.362118 0.4842 0.093011
0.378765 0.484131 0.093011
0.394474 0.4842 0.093011
0.409365 0.4842 0.093011
0.423453 0.4842 0.093011
0.436749 0.4842 0.093011
0.449484 0.4842 0.093011
0.461566 0.4842 0.093011
0.473053 0.4842 0.093011
0.4842 0.4842 0.093011
0.494699 0.484131 0.093011
0.504925 0.4842 0.093011
0.514642 0.484131 0.093011
0.524194 0.4842 0.093011
0.533226 0.4842 0.093011
0.542009 0.4842 0.093011
0.55044 0.484131 0.093011
0.558595 0.484131 0.093011
0.5666 0.4842 0.093011
0.574298 0.4842 0.093011
0.581704 0.4842 0.093011
0.58899 0.4842 0.093011
0.596005 0.4842 0.093011
0.093011 0.494699 0.093011
0.138882 0.494766 0.093011
0.180255 0.494699 0.093011
0.209098 0.494766 0.093011
0.235403 0.494766 0.093011
0.260196 0.494766 0.093011
0.283576 0.494766 0.093011
0.305132 0.494699 0.093011
0.325465 0.494699 0.093011
0.344381 0.494766 0.093011
0.362118 0.494766 0.093011
0.378765 0.494766 0.093011
0.394563 0.494766 0.093011
0.409365 0.494766 0.093011
0.423372 0.494766 0.093011
0.436749 0.494766 0.093011
0.449484 0.494766 0.093011
0.461566 0.494766 0.093011
0.473123 0.494766 0.093011
0.4842 0.494766 0.093011
0.494766 0.494766 0.093011
0.50499 0.494766 0.093011
0.514705 0.494766 0.093011
0.524194 0.494766 0.093011
0.533165 0.494766 0.093011
0.54195 0.494699 0.093011
0.550498 0.494766 0.093011
0.558652 0.494766 0.093011
0.5666 0.494766 0.093011
0.574298 0.494766 0.093011
0.581758 0.494766 0.093011
0.588937 0.494699 0.093011
0.596058 0.494766 0.093011
0.093011 0.50499 0.093011
0.138882 0.504925 0.093011
0.180474 0.50499 0.093011
0.209098 0.504925 0.093011
0.235403 0.504925 0.093011
0.260196 0.504925 0.093011
0.283444 0.504925 0.093011
0.305132 0.50499 0.093011
0.325465 0.504925 0.093011
0.344381 0.504925 0.093011
0.362118 0.504925 0.093011
0.378765 0.504925 0.093011
0.394474 0.504925 0.093011
0.409365 0.50499 0.093011
0.423453 0.50499 0.093011
0.436749 0.504925 0.093011
0.449484 0.50499 0.093011
0.461566 0.504925 0.093011
0.473053 0.504925 0.093011
0.4842 0.504925 0.093011
0.494699 0.504925 0.093011
0.504925 0.504925 0.093011
0.514705 0.504925 0.093011
0.524194 0.50499 0.093011
0.533226 0.50499 0.093011
0.542009 0.504925 0.093011
0.55044 0.504925 0.093011
0.558595 0.504925 0.093011
0.5666 0.504925 0.093011
0.574298 0.50499 0.093011
0.581704 0.504925 0.093011
0.58899 0.504925 0.093011
0.596005 0.504925 0.093011
0.093011 0.514705 0.093011
0.138882 0.514705 0.093011
0.180255 0.514705 0.093011
0.209098 0.514769 0.093011
0.235403 0.514705 0.093011
0.260196 0.514705 0.093011
0.283576 0.514705 0.093011
0.305132 0.514705 0.093011
0.325465 0.514705 0.093011
0.344381 0.514769 0.093011
0.362118 0.514705 0.093011
0.378765 0.514705 0.093011
0.394563 0.514705 0.093011
0.409365 0.514705 0.093011
0.423372 0.514705 0.093011
0.436749 0.514705 0.093011
