site/assets/luts/freshluts--0000605-stormy.cube
# LUTr-Schema-Version: 2
# LUTr-ID: freshluts--0000605-stormy
# LUTr-Title: STORMY
# LUTr-Collection: Fresh LUTs
# LUTr-Collection-ID: freshluts-community
# LUTr-Source: https://freshluts.com
# LUTr-Retrieved: 2026-07-27
# LUTr-Source-File: submissions-raw/freshluts/cubes/605__STORMY__23.DJI_0002.cube
# LUTr-Source-Format: CUBE
# LUTr-Source-SHA256: 0a8235eecccf714f9d003714f3ad9fe0131be1435df01a138b72fb279acb1d66
# LUTr-License: CC0-1.0
# LUTr-License-URL: https://freshluts.com/termsandconditions
# LUTr-License-Basis: site-terms
# LUTr-Transform-Class: creative-look
# LUTr-Tags: creative, freshluts, community, cube, film-emulation, dji-d-log
# LUTr-Input-Color-Space: dji-dlog-dgamut
# LUTr-Input-Gamut: dji-d-gamut
# LUTr-Input-Transfer: dji-d-log
# LUTr-Output-Color-Space: srgb
# LUTr-Output-Gamut: rec709
# LUTr-Output-Transfer: srgb
# LUTr-Color-Space-Confidence: inferred-from-source-label
# LUTr-Domain-Normalized: true
# LUTr-Shaper: none
# LUTr-Original-Grid: 33x33x33
# LUTr-Conversion-Grid: 33x33x33
# LUTr-Conversion-Interpolation: none
# LUTr-Conversion-Method: Metadata normalization; numeric LUT samples preserved
# LUTr-Conversion-Tool: LUTr scripts/convert-all-to-cube.mjs 2.0.0
# LUTr-Conversion-Date: 2026-07-28
# LUTr-Asset-URL: https://freshluts.com/luts/605
# LUTr-Author: Shamoon Abbasi
# LUTr-Author-URL: https://freshluts.com/users/1258
# LUTr-Attribution: Shamoon Abbasi via Fresh LUTs
# LUTr-Source-Labels: gamma=DJI D-log; color=None; key=Neutral; style=Film emulation
# LUTr-Note: Preserve this metadata and the upstream license notices when redistributing.
TITLE "STORMY"
LUT_3D_SIZE 5
DOMAIN_MIN 0 0 0
DOMAIN_MAX 1 1 1
0 0 0
0.25034 0 0
0.609339 0 0
0.902968 0 0
1 0 0
0 0.228489 0
0.231281 0.231281 0
0.614832 0.218784 0
0.936294 0.230732 0
1 0.262379 0
0 0.581247 0
0.203479 0.599512 0
0.592966 0.592966 0
0.912993 0.603464 0
1 0.628992 0
0 0.927398 0
0.232197 0.937743 0
0.605234 0.914748 0
0.902464 0.902464 0
1 0.90341 0
0 1 0
0.254917 1 0
0.609186 1 0
0.894591 1 0
1 1 0
0 0 0.255344
0.245991 0 0.245991
0.605264 0 0.209232
0.901152 0 0.19559
1 0 0.210803
0 0.227863 0.227863
0.234134 0.234134 0.234134
0.620432 0.224384 0.224399
0.94258 0.237018 0.237018
1 0.267979 0.267994
0 0.587274 0.191226
0.209354 0.605402 0.209354
0.598779 0.598779 0.202731
0.917586 0.608072 0.212024
1 0.631266 0.235218
0 0.931289 0.225727
0.233433 0.938994 0.233433
0.603815 0.913329 0.207767
0.898604 0.898604 0.193057
1 0.897978 0.192416
0 1 0.263798
0.249119 1 0.249119
0.602884 1 0.206836
0.888579 1 0.183017
1 1 0.178729
0 0 0.639887
0.23267 0 0.628702
0.59295 0 0.59295
0.89163 0 0.582116
1 0 0.600793
0 0.219577 0.61561
0.229343 0.229343 0.625391
0.617685 0.221653 0.6177
0.939818 0.234257 0.630304
1 0.265049 0.661082
0 0.584054 0.584054
0.206531 0.602564 0.602564
0.595483 0.595483 0.595483
0.912703 0.603189 0.603189
1 0.623774 0.623774
0 0.925551 0.616037
0.224948 0.93051 0.620996
0.592721 0.902235 0.592721
0.885328 0.885328 0.575814
1 0.883391 0.573877
0 1 0.645991
0.234241 1 0.630289
0.587777 1 0.587777
0.873457 1 0.563928
1 1 0.559777
0 0 0.943099
0.225849 0 0.931411
0.587747 0 0.897261
0.889632 0 0.889632
1 0 0.911833
0 0.218845 0.924407
0.231876 0.231876 0.937438
0.621546 0.225513 0.931075
0.943008 0.237446 0.943008
1 0.268589 0.974151
0 0.587274 0.896788
0.210056 0.606088 0.915602
0.598154 0.598154 0.907683
0.91342 0.603906 0.91342
1 0.621729 0.931243
0 0.925277 0.925277
0.221927 0.927489 0.927489
0.587167 0.896681 0.896681
0.877882 0.877882 0.877882
1 0.874922 0.874922
0 1 0.947601
0.225589 1 0.931151
0.579156 1 0.88867
0.864866 1 0.864866
1 1 0.860685
0 0 1
0.226215 0 1
0.590372 0 1
0.895644 0 1
1 0 1
0 0.226154 1
0.241901 0.241917 1
0.632227 0.236194 1
0.953033 0.247471 1
1 0.27895 1
0 0.597559 1
0.220233 0.616281 1
0.607126 0.607126 1
0.920043 0.610529 1
1 0.625605 1
0 0.930877 1
0.224857 0.930419 1
0.587686 0.8972 1
0.876829 0.876829 1
1 0.873106 1
0 1 1
0.223682 1 1
0.577539 1 1
0.863111 1 1
1 1 1
