site/assets/luts/freshluts--0001160-red-teal-correctlut.cube
# LUTr-Schema-Version: 2
# LUTr-ID: freshluts--0001160-red-teal-correctlut
# LUTr-Title: Red teal correct+lut
# LUTr-Collection: Fresh LUTs
# LUTr-Collection-ID: freshluts-community
# LUTr-Source: https://freshluts.com
# LUTr-Retrieved: 2026-07-27
# LUTr-Source-File: submissions-raw/freshluts/cubes/1160__RED_TEAL_2.C0023.cube
# LUTr-Source-Format: CUBE
# LUTr-Source-SHA256: 024c191ace1fdf047bb1070ab9693e62afc65cc53ef60e27bfc62f3ef9f47830
# LUTr-License: CC0-1.0
# LUTr-License-URL: https://freshluts.com/termsandconditions
# LUTr-License-Basis: site-terms
# LUTr-Transform-Class: creative-look
# LUTr-Tags: creative, freshluts, community, cube, red, low-key, sony-s-log3, correction
# LUTr-Input-Color-Space: sony-slog3-sgamut3
# LUTr-Input-Gamut: sony-s-gamut3
# LUTr-Input-Transfer: sony-s-log3
# LUTr-Output-Color-Space: srgb
# LUTr-Output-Gamut: rec709
# LUTr-Output-Transfer: srgb
# LUTr-Color-Space-Confidence: inferred-from-source-label
# LUTr-Domain-Normalized: true
# LUTr-Shaper: none
# LUTr-Original-Grid: 33x33x33
# LUTr-Conversion-Grid: 33x33x33
# LUTr-Conversion-Interpolation: none
# LUTr-Conversion-Method: Metadata normalization; numeric LUT samples preserved
# LUTr-Conversion-Tool: LUTr scripts/convert-all-to-cube.mjs 2.0.0
# LUTr-Conversion-Date: 2026-07-28
# LUTr-Asset-URL: https://freshluts.com/luts/1160
# LUTr-Author: lvannoeun@gmail.com
# LUTr-Author-URL: https://freshluts.com/users/57563
# LUTr-Attribution: lvannoeun@gmail.com via Fresh LUTs
# LUTr-Source-Labels: gamma=Sony S-Log 3; color=Red; key=Low Key; style=cine drama
# LUTr-Note: Preserve this metadata and the upstream license notices when redistributing.
TITLE "Red teal correct+lut"
LUT_3D_SIZE 9
DOMAIN_MIN 0 0 0
DOMAIN_MAX 1 1 1
0 0 0
0 0 0
0 0 0
0.0367437 0 0
0.263478 0 0
0.446418 0 0
0.599115 0 0
0.626337 0 0
0.688121 0 0
0 0 0
0 0 0
0 0 0
0.0386358 0 0
0.271977 0 0
0.455665 0 0
0.60766 0 0
0.64889 0 0
0.704921 0 0
0 0 0
0 0 0
0 0 0
0.00062562 0 0
0.247227 0 0
0.450233 0 0
0.614984 0 0
0.682963 0 0
0.732052 0 0
0 0.015259 0
0 0.0218814 0
0 0.0354467 0
0 0.0370489 0
0.0805829 0.023209 0
0.461891 0 0
0.657572 0 0
0.781628 0.00251774 0
0.866407 0.0665599 0
0 0.153429 0
0 0.167712 0
0 0.194217 0
0 0.237049 0
0 0.274342 0
0.127703 0.325399 0
0.744305 0.251743 0
0.956298 0.291798 0
1 0.353231 0.0290532
0 0.364813 0
0 0.418189 0
0 0.484794 0
0 0.557717 0
0 0.621118 0
0.132433 0.672541 0.0043183
0.301564 0.724727 0.0395819
0.959152 0.623011 0.115831
1 0.640894 0.118395
0 0.65507 0
0 0.724865 0
0 0.795102 0
0 0.8663 0.0373693
0.056733 0.929458 0.0609598
0.198642 0.966842 0.0941482
0.333165 0.991623 0.155108
0.476036 1 0.160601
0.962402 0.920378 0.123125
0 0.901946 0.123125
0.00344854 0.966217 0.166171
0.0636301 1 0.207202
0.120211 1 0.229297
0.183017 1 0.230243
0.258824 1 0.20737
0.345937 1 0.192111
0.440772 1 0.212467
0.593744 1 0.201785
0.00621042 1 0.232013
0.0777905 1 0.270802
0.14612 1 0.308339
0.217029 1 0.340398
0.286275 1 0.358099
0.359503 1 0.353506
0.451987 1 0.354055
0.525795 1 0.349798
0.606973 1 0.344823
0 0 0
0 0 0
0 0 0
0.0369573 0 0
0.266407 0 0
0.449973 0 0
0.610452 0 0
0.654169 0 0
0.691051 0 0
0 0 0
0 0 0
0 0 0
0.037171 0 0
0.2766 0 0
0.457465 0 0
0.620401 0 0
0.684977 0 0
0.712398 0 0
0 0 0
0 0 0
0 0 0
0.0183719 0 0
0.251377 0 0
0.454017 0 0
0.624323 0 0
0.724437 0 0
0.744808 0 0
0 0.0138094 0
0 0.0162661 0
0 0.0211795 0
0 0.0300145 0
0.183398 0.000946059 0
0.476066 0 0
0.675746 0 0
0.8383 0.00917067 0
0.910246 0.0816968 0
0 0.151186 0
0 0.164248 0
0 0.188022 0
0 0.235843 0
0.00535592 0.284199 0
0.373022 0.278569 0
0.788785 0.268132 0
1 0.301549 0
1 0.363653 0.0977646
0 0.374746 0
0 0.430014 0
0 0.494438 0
0 0.56228 0
0.0269627 0.630777 0
0.184283 0.682918 0.0894484
0.420676 0.715572 0.107347
1 0.629587 0.162432
1 0.654139 0.149035
0 0.676463 0
0 0.743206 0
0 0.809262 0.0428626
0.00894179 0.874678 0.112642
0.106783 0.933944 0.142596
0.24239 0.969848 0.171511
0.382971 0.989593 0.231159
0.573098 0.991104 0.219547
1 0.887678 0.221225
0 0.924483 0.17026
0.00701915 0.987564 0.207691
0.064744 1 0.236301
0.119829 1 0.25182
0.180255 1 0.254765
0.258091 1 0.23534
0.361547 1 0.240024
0.488502 1 0.269047
0.685588 1 0.252384
0.033875 1 0.290272
0.106294 1 0.327352
0.184863 1 0.362692
0.255726 1 0.391333
0.309773 1 0.400076
0.37409 1 0.392752
0.449607 1 0.374441
0.519448 1 0.367041
0.636179 1 0.345861
0 0 0
0 0 0
0 0 0
0.0370184 0 0
0.267689 0 0
0.452674 0 0
0.618418 0 0
0.68455 0 0
0.692958 0 0
0 0 0
0 0 0
0 0 0
0.0350042 0 0
0.27776 0 0
0.458335 0 0
0.627253 0 0
0.720058 0 0
0.721447 0 0
0 0 0
0 0 0
0 0 0
0.0124056 0 0
0.254871 0 0
0.457801 0 0
0.630915 0 0
0.764233 0 0
0.786114 0 0
0 0.0140078 0
0 0.0157168 0
0 0.0127565 0
0 0.0247807 0
0.229953 0 0
0.485649 0 0
0.689982 0 0
0.885649 0.0169375 0
0.969375 0.0907149 0.0183871
0 0.151522 0
0 0.164904 0
0 0.185809 0
0 0.230747 0
0.0667582 0.290318 0.0314641
0.535546 0.257267 0.0795911
0.820844 0.281849 0.0425116
1 0.310735 0.0819409
1 0.369924 0.178637
0 0.387152 0
0 0.44332 0
0 0.503639 0
0 0.565927 0.049897
0.0865644 0.636652 0.0979629
0.251759 0.686641 0.17641
0.687694 0.658717 0.189181
1 0.636591 0.181842
1 0.657206 0.196887
0 0.694942 0
0 0.758801 0.053666
0 0.821714 0.124041
0.0747234 0.876631 0.194049
0.178866 0.929091 0.240497
0.28957 0.968826 0.259693
0.45774 0.978729 0.306371
0.698466 0.964614 0.278248
1 0.868269 0.298863
0 0.946822 0.23032
0.0043183 1 0.260288
0.0644083 1 0.274418
0.134066 1 0.288075
0.207874 1 0.304448
0.283024 1 0.294194
0.395758 1 0.311742
0.580621 1 0.338186
0.801999 1 0.315633
0.0569314 1 0.357183
0.134035 1 0.389929
0.208423 1 0.412573
0.258289 1 0.416251
0.307393 1 0.418555
0.366461 1 0.413275
0.441016 1 0.395346
0.524422 1 0.391577
0.716045 1 0.376471
0 0 0.164126
0 0 0.147356
0 0 0.125063
0.0343938 0 0.0943465
0.265309 0 0.0281987
0.453132 0 0
0.623682 0 0
0.708858 0 0
0.698146 0 0
0 0 0.15613
0 0 0.148775
0 0 0.13228
0.0392309 0 0.103761
0.274357 0 0.0344549
0.458595 0 0
0.630701 0 0
0.746944 0 0
0.746792 0 0
0 0 0.133959
0 0 0.124132
0 0 0.0977035
0.017258 0 0.0681315
0.25301 0 0.0209812
0.458747 0 0
0.63418 0 0
0.789944 0 0
0.824918 0 0
0 0.0109102 0.0740063
0 0.0149844 0.0740368
0 0.0132753 0.0602731
0.0214847 0.0209659 0.0539101
0.235874 0.000976577 0.0342412
0.496651 0 0.00914015
0.705684 0 0.0178378
0.920592 0.0278325 0.0443122
1 0.0986343 0.111788
0 0.152453 0
0 0.16849 0
0 0.192706 0.00364691
0.0091249 0.233768 0.0626383
0.155413 0.286931 0.136202
0.593881 0.26807 0.119966
0.84242 0.293538 0.165118
1 0.322362 0.205676
1 0.372427 0.273106
0 0.401679 0
0 0.459785 0
0 0.517098 0.0593576
0.0462043 0.571283 0.130449
0.161456 0.636271 0.20325
0.355688 0.679683 0.257343
0.843305 0.631708 0.293645
1 0.644755 0.243977
1 0.654261 0.282383
0 0.712688 0.0908827
0 0.774884 0.144717
0 0.833082 0.207401
0.135012 0.879225 0.268025
0.256062 0.921798 0.325124
0.347448 0.964263 0.344717
0.56846 0.95697 0.367086
0.877913 0.921309 0.337804
1 0.865003 0.316579
0 0.965927 0.303777
0.000610361 1 0.325933
0.0688029 1 0.330282
0.166827 1 0.342565
0.267994 1 0.367056
0.342031 1 0.377646
0.457282 1 0.391333
0.699809 1 0.399496
0.914488 1 0.379385
0.0728466 1 0.430777
0.15642 1 0.458961
0.204959 1 0.454658
0.253223 1 0.441901
0.308598 1 0.435157
0.372824 1 0.439292
0.443519 1 0.436439
0.577585 1 0.437491
0.834928 1 0.431693
0 0 0.404059
0 0 0.394461
0 0 0.384207
0.0240787 0 0.363134
0.254002 0 0.300069
0.444724 0 0.239567
0.61857 0 0.1785
0.735897 0 0.10576
0.727642 0 0.0344854
0 0 0.408682
0 0 0.406485
0 0 0.39762
0.0288548 0 0.377035
0.261418 0 0.310155
0.449088 0 0.245624
0.623972 0 0.186603
0.77348 0 0.12549
0.787427 0 0.0670634
0 0 0.403525
0 0 0.394781
0 0 0.380529
0.0127871 0 0.359167
0.241871 0 0.294774
0.449851 0 0.227832
0.628656 0 0.173327
0.809171 0 0.129198
0.883238 0 0.101717
0 0 0.356985
0 0.00077821 0.355489
0 0.00230411 0.344152
0.00993362 0.011841 0.334081
0.2318 0 0.289418
0.499199 0 0.243366
0.714885 0.00369268 0.227726
0.944152 0.0371252 0.226703
1 0.099321 0.244495
0 0.142779 0.224643
0 0.162509 0.238651
0 0.191348 0.260029
0.0243687 0.237903 0.29807
0.266346 0.271305 0.311757
0.614023 0.276371 0.315923
0.863066 0.302373 0.330861
1 0.332631 0.351324
1 0.375616 0.387915
0 0.410834 0.151843
0 0.470512 0.204273
0 0.525612 0.249058
0.0728618 0.579293 0.293202
0.252461 0.626612 0.358633
0.490227 0.655756 0.407935
0.899046 0.637751 0.343084
1 0.650263 0.368139
1 0.654658 0.389822
0 0.726818 0.234089
0 0.788388 0.285466
0.00630198 0.844221 0.338537
0.169604 0.883894 0.382681
0.315618 0.915969 0.438697
0.43917 0.943938 0.472618
0.693401 0.926467 0.477409
1 0.874128 0.486213
1 0.864897 0.34255
0 0.98175 0.394766
0 1 0.412009
0.0745556 1 0.413596
0.195331 1 0.424399
0.326146 1 0.457115
0.419898 1 0.500435
0.558663 1 0.478843
0.824216 1 0.496559
1 1 0.473732
0.0824903 1 0.504326
0.155093 1 0.520165
0.198154 1 0.506737
0.247868 1 0.482444
0.331228 1 0.480003
0.416907 1 0.512657
0.494759 1 0.512871
0.692821 1 0.502983
0.94815 1 0.523171
0 0 0.560662
0 0 0.553994
0 0 0.549447
0.0189364 0 0.538277
0.246754 0 0.492149
0.439399 0 0.454994
0.606363 0 0.420645
0.7178 0 0.351797
0.73431 0 0.262318
0 0 0.570138
0 0 0.569574
0 0 0.564981
0.0231479 0 0.552819
0.252216 0 0.498634
0.442771 0 0.458778
0.616815 0 0.428489
0.763439 0 0.38175
0.801984 0 0.304723
0 0 0.572198
0 0 0.565469
0 0 0.556786
0.00672923 0 0.548318
0.232486 0 0.501091
0.44303 0 0.459846
0.622415 0 0.434577
0.807065 0 0.412436
0.923217 0 0.377493
0 0 0.55317
0 0 0.553445
0 0 0.551537
0.00691234 0.00511177 0.557473
0.228519 0 0.537346
0.500679 0 0.517861
0.718379 0.00561532 0.52752
0.949859 0.0400397 0.54287
1 0.0884565 0.548455
0 0.135012 0.473198
0 0.157855 0.494499
0 0.190784 0.530388
0.0370947 0.24033 0.586847
0.270954 0.275196 0.629908
0.623255 0.275105 0.635126
0.870665 0.30135 0.656962
1 0.332998 0.674037
1 0.366491 0.682902
0 0.413336 0.458213
0 0.472663 0.514412
0 0.525902 0.564141
0.0805829 0.579049 0.613367
0.271626 0.624674 0.653254
0.637644 0.620951 0.638102
0.909697 0.63357 0.643473
1 0.645563 0.642695
1 0.647684 0.632624
0 0.722972 0.553368
0 0.788434 0.606928
0.00872816 0.843565 0.648768
0.174578 0.881666 0.669581
0.33547 0.90927 0.679408
0.589776 0.898039 0.685969
0.803983 0.88925 0.69691
1 0.868711 0.551766
1 0.861418 0.514412
0 0.978851 0.639872
0.000442512 1 0.661357
0.0690166 1 0.660868
0.200275 1 0.655406
0.34789 1 0.662821
0.518975 1 0.694102
0.697429 1 0.688426
0.916289 1 0.711238
1 1 0.730419
0.0848402 1 0.674601
0.145251 1 0.683558
0.177127 1 0.669337
0.227665 1 0.641184
0.347723 1 0.641871
0.477089 1 0.69041
0.629587 1 0.7234
0.82092 1 0.679164
1 1 0.732479
0 0 0.692485
0 0 0.702998
0 0 0.708614
0.0135805 0 0.705028
0.24065 0 0.661936
0.433402 0 0.620371
0.586206 0 0.570092
0.676997 0 0.478859
0.713924 0 0.387854
0 0 0.714244
0 0 0.726345
0 0 0.730175
0.0176547 0 0.722698
0.245304 0 0.669718
0.440314 0 0.629343
0.607385 0 0.591394
0.736202 0 0.526604
0.782879 0 0.437446
0 0 0.722301
0 0 0.726879
0 0 0.725475
0.00270085 0 0.719585
0.225605 0 0.672038
0.440803 0 0.630777
0.622019 0 0.606012
0.802029 0 0.581918
0.917479 0 0.537896
0 0 0.715236
0 0 0.723491
0 0 0.726055
0.00822461 0.00317388 0.733379
0.230808 0 0.715969
0.509483 0 0.697948
0.730236 0.0153506 0.712642
0.961257 0.0522774 0.734493
1 0.0984054 0.739437
0 0.131914 0.650919
0 0.158663 0.680766
0 0.195682 0.720226
0.0557107 0.248554 0.779751
0.287678 0.284031 0.823926
0.640009 0.281834 0.83035
0.886824 0.308339 0.861051
1 0.339544 0.891203
1 0.370993 0.914397
0 0.419471 0.640558
0 0.481117 0.704753
0 0.533669 0.757153
0.0963149 0.586969 0.811856
0.288808 0.631525 0.863432
0.652232 0.62417 0.866804
0.923247 0.632639 0.889555
1 0.639796 0.911482
1 0.638086 0.921828
0 0.718013 0.740307
0 0.790127 0.809644
0.0217899 0.8477 0.863523
0.181155 0.882841 0.894286
0.33901 0.907073 0.913954
0.619455 0.887922 0.890272
0.890043 0.86392 0.864897
1 0.857862 0.847227
1 0.849592 0.829618
0.0160678 0.966598 0.839292
0.0545663 1 0.877821
0.0924086 1 0.901518
0.20032 1 0.908568
0.348638 1 0.910216
0.568765 1 0.896361
0.856062 1 0.890181
0.993057 1 0.914977
1 1 0.798428
0.0848402 1 0.879393
0.170184 1 0.896925
0.196857 1 0.905425
0.228611 1 0.897642
0.352071 1 0.891768
0.519738 1 0.902708
0.788571 1 0.908583
0.938186 1 0.905913
1 1 0.9402
0 0 0.699657
0 0 0.728511
0 0 0.758999
0 0 0.78793
0.216281 0 0.788037
0.400397 0 0.743206
0.530938 0 0.67454
0.617594 0 0.578195
0.689509 0 0.503716
0 0 0.734493
0 0 0.768612
0 0 0.802915
0.00753796 0 0.829923
0.229831 0 0.819272
0.422477 0 0.778943
0.574228 0 0.72575
0.681361 0 0.639338
0.747875 0 0.553552
0 0 0.760296
0 0 0.796445
0 0 0.833478
0 0 0.85716
0.217639 0 0.84097
0.436927 0 0.802258
0.614572 0 0.773053
0.779736 0 0.733806
0.890929 0 0.676158
0 0 0.781537
0 0 0.82649
0 0 0.866712
0.0114443 0.00363165 0.896742
0.233265 0 0.898466
0.518257 0 0.882795
0.742382 0.0256657 0.899016
0.966415 0.0654765 0.913512
1 0.11577 0.901991
0 0.125216 0.767849
0 0.158938 0.838224
0 0.201862 0.905669
0.0745403 0.257115 0.973678
0.304067 0.292256 1
0.65594 0.28864 1
0.903639 0.317128 1
1 0.348806 1
1 0.381064 1
0 0.416876 0.778347
0 0.484154 0.871321
0 0.542382 0.943114
0.11342 0.595148 1
0.306249 0.638804 1
0.669398 0.629755 1
0.93959 0.63476 1
1 0.640162 1
1 0.636179 1
0 0.712032 0.875059
0 0.785672 0.95877
0.0556191 0.848661 1
0.191241 0.886351 1
0.345571 0.908644 1
0.622431 0.888029 1
0.898604 0.862806 1
1 0.856413 1
1 0.846983 1
0.0684367 0.961196 0.968688
0.115526 1 1
0.143557 1 1
0.214298 1 1
0.353536 1 1
0.574044 1 1
0.89839 1 1
1 1 1
1 1 0.999176
0.0888228 1 1
0.18175 1 1
0.237842 1 1
0.257557 1 1
0.359899 1 1
0.531121 1 1
0.85893 1 1
1 1 1
1 1 1
0 0 0.754772
0 0 0.756634
0 0 0.756512
0 0 0.774731
0.166857 0 0.795743
0.334707 0 0.772992
0.45977 0 0.723629
0.560723 0 0.653437
0.690562 0 0.63241
0 0 0.777859
0 0 0.781064
0 0 0.791821
0 0 0.818463
0.189532 0 0.847974
0.368048 0 0.831891
0.506035 0 0.785306
0.617975 0 0.715404
0.719676 0 0.660319
0 0 0.781628
0 0 0.791913
0 0 0.82771
0 0 0.86363
0.194308 0 0.916655
0.410056 0 0.911635
0.578714 0 0.883085
0.728771 0 0.834821
0.853483 0 0.787366
0 0 0.789349
0 0 0.829877
0 0 0.882506
0.0247196 0.0139925 0.941131
0.232792 0.0099794 1
0.52195 0.00759899 1
0.743618 0.0429084 1
0.954513 0.0870985 1
1 0.143114 1
0 0.122499 0.80798
0 0.161822 0.891096
0 0.211368 0.995773
0.109239 0.26865 1
0.32047 0.301762 1
0.672831 0.297246 1
0.920027 0.326238 1
1 0.359075 1
1 0.396307 1
0 0.41529 0.868681
0 0.480537 0.969665
0.0130465 0.544594 1
0.143542 0.602548 1
0.324147 0.646204 1
0.685481 0.63476 1
0.95491 0.636973 1
1 0.639933 1
1 0.634379 1
0 0.71014 0.986343
0.0618143 0.779431 1
0.13138 0.840558 1
0.218219 0.885634 1
0.352102 0.909102 1
0.625452 0.887816 1
0.902831 0.859968 1
1 0.853925 1
1 0.846006 1
0.0752575 0.967941 1
0.170443 0.999115 1
0.216052 1 1
0.252598 1 1
0.360678 1 1
0.576898 1 1
0.894667 1 1
1 1 1
1 1 1
0.0929122 1 1
0.186923 1 1
0.289036 1 1
0.312444 1 1
0.375967 1 1
0.535943 1 1
0.865614 1 1
1 1 1
1 1 1
