site/assets/luts/freshluts--0001114-a-slight-touch-of-sepia.cube
# LUTr-Schema-Version: 2
# LUTr-ID: freshluts--0001114-a-slight-touch-of-sepia
# LUTr-Title: A slight touch of Sepia
# LUTr-Collection: Fresh LUTs
# LUTr-Collection-ID: freshluts-community
# LUTr-Source: https://freshluts.com
# LUTr-Retrieved: 2026-07-27
# LUTr-Source-File: submissions-raw/freshluts/cubes/1114__RR_ASlightTouchOfSepia.cube
# LUTr-Source-Format: CUBE
# LUTr-Source-SHA256: 1fff113de3fb8ed8e684610246a36f951a4a261513e2d625fafe87fdc2fca62f
# LUTr-License: CC0-1.0
# LUTr-License-URL: https://freshluts.com/termsandconditions
# LUTr-License-Basis: site-terms
# LUTr-Transform-Class: creative-look
# LUTr-Tags: creative, freshluts, community, cube, vintage, warm, dji-d-log
# LUTr-Input-Color-Space: dji-dlog-dgamut
# LUTr-Input-Gamut: dji-d-gamut
# LUTr-Input-Transfer: dji-d-log
# LUTr-Output-Color-Space: srgb
# LUTr-Output-Gamut: rec709
# LUTr-Output-Transfer: srgb
# LUTr-Color-Space-Confidence: inferred-from-source-label
# LUTr-Domain-Normalized: true
# LUTr-Shaper: none
# LUTr-Original-Grid: 33x33x33
# LUTr-Conversion-Grid: 33x33x33
# LUTr-Conversion-Interpolation: none
# LUTr-Conversion-Method: Metadata normalization; numeric LUT samples preserved
# LUTr-Conversion-Tool: LUTr scripts/convert-all-to-cube.mjs 2.0.0
# LUTr-Conversion-Date: 2026-07-28
# LUTr-Asset-URL: https://freshluts.com/luts/1114
# LUTr-Author: Tobias Reimer
# LUTr-Author-URL: https://freshluts.com/users/119677
# LUTr-Attribution: Tobias Reimer via Fresh LUTs
# LUTr-Source-Labels: gamma=DJI D-log; color=Warm; key=Neutral; style=Vintage
# LUTr-Note: Preserve this metadata and the upstream license notices when redistributing.
TITLE "A slight touch of Sepia"
LUT_3D_SIZE 9
DOMAIN_MIN 0 0 0
DOMAIN_MAX 1 1 1
0 0 0
0.13669 0 0
0.279713 0 0
0.436179 0 0
0.593668 0 0
0.751812 0 0
0.910857 0 0
1 0 0
1 0 0
0.0338598 0.0321202 0
0.11429 0.0316014 0
0.270481 0 0
0.428214 0 0
0.58706 0 0
0.746258 0 0
0.906386 0 0
1 0 0
1 0 0
0 0.171923 0
0 0.17142 0
0.238972 0.171664 0
0.396338 0.160311 0
0.555108 0.134569 0
0.71635 0.0733806 0
0.890242 0 0
1 0 0
1 0 0
0 0.313542 0
0 0.3131 0
0.184222 0.316411 0
0.369406 0.312016 0
0.530327 0.302617 0
0.690547 0.287251 0
0.852003 0.264393 0
1 0.230167 0
1 0.174502 0
0 0.455085 0
0 0.454505 0
0 0.453666 0
0.328313 0.457115 0
0.502876 0.451392 0
0.666072 0.44242 0
0.828107 0.429709 0
0.990753 0.412879 0
1 0.390738 0
0 0.596109 0
0 0.595819 0
0 0.594675 0
0.254643 0.600458 0
0.4663 0.596567 0
0.638056 0.590372 0
0.80296 0.581537 0
0.966842 0.569787 0
1 0.555596 0
0 0.737438 0
0 0.736934 0
0 0.736171 0
0 0.735943 0
0.413367 0.740658 0
0.603845 0.735485 0
0.775357 0.728756 0
0.941619 0.719982 0
1 0.708873 0
0 0.878508 0
0 0.87834 0
0 0.877272 0
0 0.87602 0
0.329244 0.883238 0
0.559655 0.879759 0
0.742199 0.874037 0
0.913573 0.866957 0
1 0.858122 0
0 1 0
0 1 0
0 1 0
0 1 0
0 1 0
0.498421 1 0
0.701854 1 0
0.881697 1 0
1 1 0
0.0332189 0 0.00743114
0.12665 0 0.00721752
0.278874 0 0.00204471
0.433829 0 0
0.591928 0 0
0.750622 0 0
0.909606 0 0
1 0 0
1 0 0
0.0301976 0.0355993 0
0.115648 0.0357214 0
0.270985 0 0
0.426642 0 0
0.585595 0 0
0.745296 0 0
0.90518 0 0
1 0 0
1 0 0
0 0.173678 0
0 0.173236 0
0.238575 0.173587 0
0.395514 0.162387 0
0.553903 0.137118 0
0.715343 0.0785382 0
0.889097 0 0
1 0 0
1 0 0
0 0.31426 0
0 0.313603 0
0.182895 0.317372 0
0.368887 0.312612 0
0.530053 0.30309 0
0.690105 0.288273 0
0.851484 0.265415 0
1 0.231235 0
1 0.176059 0
0 0.455116 0
0 0.454719 0
0 0.454124 0
0.328054 0.457557 0
0.50248 0.451865 0
0.665507 0.442618 0
0.827787 0.430228 0
0.990326 0.413321 0
1 0.391287 0
0 0.596292 0
0 0.596033 0
0 0.594903 0
0.253834 0.600381 0
0.465827 0.596826 0
0.637644 0.590433 0
0.802533 0.581628 0
0.966613 0.570031 0
1 0.555901 0
0 0.73724 0
0 0.737057 0
0 0.736278 0
0 0.735912 0
0.413397 0.740414 0
0.603662 0.735653 0
0.775082 0.728832 0
0.94107 0.71986 0
1 0.709072 0
0 0.878538 0
0 0.878386 0
0 0.877317 0
0 0.876081 0
0.328664 0.883101 0
0.559426 0.87982 0
0.742321 0.874037 0
0.913176 0.866835 0
1 0.857923 0
0 1 0
0 1 0
0 1 0
0 1 0
0 1 0
0.498192 1 0
0.701595 1 0
0.881544 1 0
1 1 0
0.0137331 0 0.116167
0.0490425 0 0.114839
0.278325 0 0.11249
0.434806 0 0.105196
0.593591 0 0.0939498
0.752499 0 0.0766613
0.912139 0 0.0480812
1 0 0
1 0 0
0.00366217 0 0.107424
0.0377356 0 0.106905
0.273579 0 0.106249
0.429923 0 0.100053
0.587991 0 0.0895094
0.74815 0 0.0729381
0.907881 0 0.0433967
1 0 0
1 0 0
0 0.178729 0.0729076
0 0.17821 0.0724193
0.242069 0.179294 0.0748455
0.400656 0.168673 0.0690929
0.558495 0.143954 0.0591135
0.719692 0.0854353 0.0420233
0.891539 0 0.0179599
1 0 0
1 0 0
0 0.321828 0.0364691
0 0.321523 0.0360418
0.184939 0.325048 0.0391089
0.374395 0.320714 0.0329137
0.534768 0.311009 0.0187839
0.691661 0.292927 0
0.850416 0.267811 0
1 0.233249 0
1 0.178759 0
0 0.456779 0
0 0.456443 0
0 0.455665 0
0.327169 0.459083 0
0.501671 0.453147 0
0.665034 0.444053 0
0.826474 0.43154 0
0.988907 0.414542 0
1 0.392615 0
0 0.596841 0
0 0.596597 0
0 0.595499 0
0.251164 0.600946 0
0.464698 0.597482 0
0.636728 0.591226 0
0.801968 0.582345 0
0.965316 0.570733 0
1 0.556649 0
0 0.737697 0
0 0.737408 0
0 0.736355 0
0 0.736217 0
0.412329 0.740841 0
0.602548 0.735973 0
0.77409 0.729198 0
0.940215 0.720424 0
1 0.709667 0
0 0.878477 0
0 0.878248 0
0 0.877577 0
0 0.876234 0
0.326543 0.883146 0
0.558068 0.87985 0
0.741604 0.874342 0
0.912871 0.867002 0
1 0.858183 0
0 1 0
0 1 0
0 1 0
0 1 0
0 1 0
0.496803 1 0
0.701228 1 0
0.880827 1 0
1 1 0
0 0 0.251102
0 0 0.24979
0.267521 0 0.250202
0.428061 0 0.243626
0.58703 0 0.234394
0.747066 0 0.222873
0.90753 0 0.20882
1 0 0.191669
1 0 0.169711
0 0 0.244923
0 0 0.243854
0.263722 0 0.244984
0.423987 0 0.238788
0.582864 0 0.230335
0.743374 0 0.219715
0.904479 0 0.206058
1 0 0.189014
1 0 0.16701
0 0.158556 0.21062
0 0.157916 0.209903
0.229725 0.159823 0.213077
0.396551 0.148775 0.208835
0.555779 0.121386 0.201785
0.724865 0 0.201007
0.891096 0 0.193057
1 0 0.177493
1 0 0.156069
0 0.319188 0.182574
0 0.318578 0.182177
0.162844 0.322621 0.186328
0.37142 0.319188 0.183383
0.533776 0.310613 0.176867
0.694347 0.295811 0.167452
0.855497 0.274128 0.154726
1 0.240269 0.137911
1 0.184604 0.115984
0 0.463859 0.148592
0 0.463584 0.148241
0 0.462913 0.147341
0.33022 0.467063 0.151019
0.507759 0.461799 0.145006
0.671641 0.453101 0.135256
0.833356 0.44065 0.121157
0.995789 0.424109 0.102388
1 0.401999 0.0744945
0 0.60589 0.100023
0 0.6056 0.0995804
0 0.604501 0.0977951
0.252705 0.610269 0.102632
0.471244 0.607004 0.0956741
0.644022 0.600351 0.0844587
0.808698 0.591318 0.0664073
0.971588 0.579324 0.0376135
1 0.559442 0
0 0.74493 0.00741588
0 0.74461 0.00633249
0 0.743648 0.00178531
0 0.742336 0
0.411734 0.743572 0
0.601984 0.737575 0
0.773251 0.730495 0
0.939452 0.721309 0
1 0.710384 0
0 0.878599 0
0 0.878416 0
0 0.877592 0
0 0.876143 0
0.32224 0.883406 0
0.556313 0.880079 0
0.739696 0.874647 0
0.911315 0.867292 0
1 0.858503 0
0 1 0
0 1 0
0 1 0
0 1 0
0 1 0
0.49514 1 0
0.699413 1 0
0.879683 1 0
1 1 0
0 0 0.400961
0 0 0.399786
0.239017 0 0.401877
0.415381 0 0.396078
0.577005 0 0.387686
0.737606 0 0.377539
0.899062 0 0.365377
1 0 0.351354
1 0 0.335454
0 0 0.396017
0 0 0.395102
0.235172 0 0.397635
0.412924 0 0.392248
0.574075 0 0.383902
0.734859 0 0.37435
0.89633 0 0.362524
1 0 0.348837
1 0 0.333196
0 0.0889143 0.365026
0 0.0879988 0.364492
0.195972 0.0863355 0.36788
0.389029 0.0574807 0.365347
0.560632 0 0.368246
0.723369 0 0.361089
0.885725 0 0.35108
1 0 0.338491
1 0 0.324071
0 0.30428 0.336507
0 0.304051 0.336126
0.0012665 0.304509 0.336843
0.360494 0.305089 0.33756
0.527749 0.296895 0.331868
0.689021 0.282338 0.324041
0.851331 0.25977 0.314458
1 0.224552 0.302876
1 0.163699 0.289586
0 0.45803 0.307317
0 0.457786 0.306966
0 0.456992 0.305882
0.318791 0.461845 0.309941
0.502297 0.456962 0.305547
0.667628 0.448646 0.298451
0.830167 0.436942 0.289128
0.992813 0.420691 0.27718
1 0.399527 0.263188
0 0.603876 0.273411
0 0.603586 0.273075
0 0.602609 0.271809
0.234867 0.608713 0.277394
0.467018 0.605859 0.273854
0.641352 0.599863 0.267063
0.807263 0.591455 0.257786
0.971054 0.580575 0.24596
1 0.566613 0.231647
0 0.746914 0.231083
0 0.746715 0.230793
0 0.745937 0.229633
0 0.745296 0.228763
0.41352 0.750881 0.233097
0.60798 0.746502 0.226139
0.780285 0.739788 0.217227
0.947021 0.731167 0.204639
1 0.720577 0.188571
0 0.888777 0.175387
0 0.888304 0.174746
0 0.887587 0.173388
0 0.886366 0.170794
0.323613 0.893446 0.175555
0.563226 0.890394 0.168872
0.747662 0.884932 0.158389
0.919524 0.877745 0.142992
1 0.868894 0.122759
0 1 0.0873732
0 1 0.0868238
0 1 0.0840162
0 1 0.0787823
0 1 0.0737011
0.50013 1 0.0702678
0.705699 1 0.0494087
0.884978 1 0.0135958
1 1 0
0 0 0.561166
0 0 0.560189
0.160586 0 0.562982
0.396597 0 0.558648
0.563317 0 0.550744
0.725765 0 0.541192
0.88777 0 0.52987
1 0 0.517235
1 0 0.502937
0 0 0.557397
0 0 0.55671
0.146151 0 0.558831
0.393881 0 0.555428
0.56112 0 0.547555
0.723171 0 0.538384
0.885634 0 0.527123
1 0 0.515175
1 0 0.500893
0 0 0.54168
0 0 0.541085
0.0131533 0 0.540902
0.382055 0 0.541512
0.551644 0 0.535424
0.714351 0 0.526558
0.876783 0 0.516869
1 0 0.505257
1 0 0.492287
0 0.27393 0.500633
0 0.273564 0.50013
0 0.272679 0.498955
0.34052 0.274968 0.502449
0.516991 0.266148 0.497307
0.680919 0.250675 0.489479
0.843427 0.225559 0.480705
1 0.183001 0.470542
1 0.088365 0.461219
0 0.444724 0.472755
0 0.444434 0.472435
0 0.443381 0.471427
0.295827 0.448814 0.475746
0.491615 0.444327 0.471733
0.659876 0.436377 0.464897
0.823835 0.424689 0.45655
0.98703 0.408789 0.446754
1 0.387182 0.435019
0 0.596368 0.442405
0 0.596201 0.442069
0 0.595331 0.440436
0.191974 0.601282 0.445777
0.456428 0.598993 0.443442
0.634638 0.593622 0.437675
0.801648 0.585595 0.42974
0.966262 0.574929 0.420111
1 0.560906 0.409064
0 0.742611 0.40824
0 0.742397 0.40795
0 0.741451 0.406653
0 0.740978 0.405112
0.402075 0.746822 0.410697
0.601633 0.742733 0.405676
0.775738 0.736645 0.398535
0.943175 0.728252 0.389654
1 0.717906 0.378302
0 0.886442 0.368063
0 0.886198 0.367742
0 0.885527 0.366766
0 0.884321 0.365087
0.307393 0.891447 0.371649
0.556939 0.888808 0.36701
0.744381 0.883589 0.360571
0.91693 0.876921 0.351568
1 0.868498 0.340352
0 1 0.32015
0 1 0.31986
0 1 0.318578
0 1 0.316411
0 1 0.315373
0.495247 1 0.319966
0.704036 1 0.312581
0.885786 1 0.303883
1 1 0.291569
0 0 0.729595
0 0 0.728939
0 0 0.727337
0.366857 0 0.728939
0.545144 0 0.721874
0.710933 0 0.71281
0.874311 0 0.702663
1 0 0.690135
1 0 0.67657
0 0 0.726574
0 0 0.726131
0 0 0.724254
0.364813 0 0.726253
0.543481 0 0.719265
0.708766 0 0.710369
0.872618 0 0.700053
1 0 0.688258
1 0 0.674601
0 0 0.713634
0 0 0.713069
0 0 0.711666
0.353048 0 0.714595
0.535393 0 0.708446
0.70135 0 0.700298
0.865385 0 0.6907
1 0 0.6795
1 0 0.667094
0 0.219043 0.673686
0 0.218677 0.673182
0 0.216297 0.671672
0.307881 0.218524 0.675822
0.501396 0.206943 0.671107
0.669978 0.185504 0.664286
0.834958 0.147799 0.656062
1 0 0.657115
1 0 0.650324
0 0.421912 0.64625
0 0.421622 0.645838
0 0.420615 0.644358
0.252979 0.426154 0.649271
0.474861 0.422004 0.64564
0.648569 0.413901 0.639078
0.813947 0.402365 0.630915
0.977935 0.386191 0.621469
1 0.363867 0.61088
0 0.583398 0.617044
0 0.583185 0.6168
0 0.582132 0.615305
0 0.583566 0.616022
0.438163 0.586679 0.618372
0.623438 0.581079 0.612879
0.793057 0.57351 0.605524
0.958709 0.562936 0.596811
1 0.549416 0.586007
0 0.734066 0.585336
0 0.733913 0.585107
0 0.732952 0.58378
0 0.732204 0.582376
0.381933 0.738872 0.5888
0.590478 0.735073 0.583841
0.767666 0.728954 0.577218
0.936217 0.720806 0.569177
1 0.710719 0.559121
0 0.880568 0.550713
0 0.880446 0.550515
0 0.87953 0.54931
0 0.87837 0.547539
0.27715 0.885817 0.554482
0.546365 0.883452 0.551293
0.736553 0.87866 0.545281
0.910399 0.872007 0.537301
1 0.863874 0.52784
0 1 0.511818
0 1 0.511559
0 1 0.510704
0 1 0.508858
0 1 0.508217
0.482506 1 0.513481
0.697124 1 0.508202
0.879942 1 0.500908
1 1 0.491447
0 0 0.905303
0 0 0.904723
0 0 0.902754
0.322179 0 0.905821
0.521874 0 0.899687
0.69279 0 0.891218
0.858534 0 0.881529
1 0 0.869688
1 0 0.857176
0 0 0.902617
0 0 0.902007
0 0 0.899916
0.319432 0 0.903304
0.520363 0 0.897414
0.691524 0 0.889174
0.857114 0 0.879423
1 0 0.867399
1 0 0.855222
0 0 0.891859
0 0 0.890974
0 0 0.889601
0.305058 0 0.893553
0.513146 0 0.888167
0.685267 0 0.880461
0.850797 0 0.870436
1 0 0.860059
1 0 0.847807
0 0.0887617 0.856611
0 0.0872206 0.85626
0 0.0750591 0.855283
0.257633 0.0581369 0.860609
0.493599 0 0.8663
0.670085 0 0.861067
0.837949 0 0.853468
1 0 0.843824
1 0 0.833356
0 0.387106 0.826825
0 0.386908 0.826459
0 0.385794 0.824613
0.159319 0.390936 0.828977
0.451255 0.38764 0.826596
0.632898 0.379217 0.820279
0.801511 0.36672 0.812436
0.967437 0.349111 0.803037
1 0.324941 0.792752
0 0.563455 0.798352
0 0.563302 0.798077
0 0.562264 0.796536
0 0.561868 0.795346
0.412848 0.566964 0.800198
0.608225 0.562295 0.794339
0.780941 0.554452 0.787305
0.948089 0.543938 0.778836
1 0.530739 0.768704
0 0.720913 0.768139
0 0.72076 0.767865
0 0.71986 0.766537
0 0.718868 0.764797
0.35024 0.725917 0.770855
0.574914 0.722347 0.766888
0.756298 0.716716 0.760372
0.926711 0.708873 0.752194
1 0.699138 0.742733
0 0.871122 0.735668
0 0.870939 0.735393
0 0.870069 0.734157
0 0.86891 0.732372
0.220951 0.876051 0.738872
0.52958 0.874601 0.736019
0.725567 0.869856 0.730694
0.901732 0.863691 0.72343
1 0.85565 0.714458
0 1 0.700603
0 1 0.700359
0 1 0.699229
0 1 0.697368
0 1 0.696437
0.464042 1 0.702983
0.685176 1 0.697581
0.871473 1 0.690913
1 1 0.682719
0 0 1
0 0 1
0 0 1
0.241978 0 1
0.492241 0 1
0.67155 0 1
0.840497 0 1
1 0 1
1 0 1
0 0 1
0 0 1
0 0 1
0.236698 0 1
0.490379 0 1
0.670314 0 1
0.839353 0 1
1 0 1
1 0 1
0 0 1
0 0 1
0 0 1
0.209613 0 1
0.482506 0 1
0.664652 0 1
0.83418 0 1
0.999817 0 1
1 0 1
0 0 1
0 0 1
0 0 1
0.02533 0 1
0.466529 0 1
0.652552 0 1
0.823117 0 1
0.990097 0 1
1 0 1
0 0.336477 1
0 0.336172 1
0 0.334524 1
0 0.332723 1
0.418509 0.335714 1
0.613642 0.326116 1
0.786679 0.31136 1
0.954498 0.290105 0.991363
1 0.260227 0.981201
0 0.535988 0.985168
0 0.535851 0.984848
0 0.534844 0.983642
0 0.533578 0.981628
0.375357 0.540002 0.987182
0.587762 0.535012 0.982422
0.766018 0.527001 0.975433
0.935088 0.51693 0.966308
1 0.502663 0.957061
0 0.702541 0.956207
0 0.702403 0.955962
0 0.701488 0.954559
0 0.700343 0.95259
0.301671 0.707881 0.959091
0.554299 0.70489 0.954971
0.741161 0.699092 0.948653
0.914488 0.69163 0.941009
1 0.68191 0.93164
0 0.857694 0.924956
0 0.85742 0.924559
0 0.856855 0.923629
0 0.855604 0.921645
0 0.857328 0.922362
0.507362 0.861738 0.925643
0.710384 0.857496 0.920043
0.889769 0.851041 0.913024
1 0.843458 0.904616
0 1 0.891859
0 1 0.891691
0 1 0.890288
0 1 0.888441
0 1 0.886809
0.43714 1 0.893858
0.671 1 0.889525
0.859892 1 0.882628
1 0.997406 0.874876
