site/assets/luts/freshluts--0001250-capea-lut.cube
# LUTr-Schema-Version: 2
# LUTr-ID: freshluts--0001250-capea-lut
# LUTr-Title: CAPEA LUT
# LUTr-Collection: Fresh LUTs
# LUTr-Collection-ID: freshluts-community
# LUTr-Source: https://freshluts.com
# LUTr-Retrieved: 2026-07-27
# LUTr-Source-File: submissions-raw/freshluts/cubes/1250__CAPEA_LUT.cube
# LUTr-Source-Format: CUBE
# LUTr-Source-SHA256: 9ddc02a0efd9ef7325c1c244beccc02b910bb06492334529928230207a1ddbaf
# LUTr-License: CC0-1.0
# LUTr-License-URL: https://freshluts.com/termsandconditions
# LUTr-License-Basis: site-terms
# LUTr-Transform-Class: creative-look
# LUTr-Tags: creative, freshluts, community, cube, orange, sony-s-log3
# LUTr-Input-Color-Space:
# LUTr-Input-Gamut: sony-s-gamut3
# LUTr-Input-Transfer: sony-s-log3
# LUTr-Output-Color-Space: srgb
# LUTr-Output-Gamut: rec709
# LUTr-Output-Transfer: srgb
# LUTr-Color-Space-Confidence: camera-profile-input-required
# LUTr-Domain-Normalized: true
# LUTr-Shaper: none
# LUTr-Original-Grid: 33x33x33
# LUTr-Conversion-Grid: 33x33x33
# LUTr-Conversion-Interpolation: none
# LUTr-Conversion-Method: Metadata normalization; numeric LUT samples preserved
# LUTr-Conversion-Tool: LUTr scripts/convert-all-to-cube.mjs 2.0.0
# LUTr-Conversion-Date: 2026-07-28
# LUTr-Asset-URL: https://freshluts.com/luts/1250
# LUTr-Author: Antony Eliezer
# LUTr-Author-URL: https://freshluts.com/users/32961
# LUTr-Attribution: Antony Eliezer via Fresh LUTs
# LUTr-Source-Labels: gamma=Sony S-Log 3; color=Orange; key=Neutral; style=Teal - Orange
# LUTr-Duplicate-Assets: 1251:https://freshluts.com/luts/1251
# LUTr-Note: Preserve this metadata and the upstream license notices when redistributing.
# LUTr-Upstream-Comment: VEGAS Pro LUT
TITLE "CAPEA LUT"
LUT_3D_SIZE 33
DOMAIN_MIN 0 0 0
DOMAIN_MAX 1 1 1
0.00611738 0.06562687 0.04544822
0.00956996 0.06499647 0.04468245
0.01304524 0.06433722 0.04388086
0.01672771 0.06355507 0.04307745
0.02096055 0.06268314 0.04219009
0.03254031 0.06111388 0.04050285
0.05718466 0.05802359 0.03715163
0.10695893 0.05261771 0.03439813
0.16650492 0.04399918 0.03200337
0.22679006 0.03106884 0.02952231
0.28587615 0.01657898 0.02310332
0.35023025 0.0029862 0.0172678
0.41833794 -0.0041547 0.01157965
0.48889503 -0.00781804 0.006902
0.5575223 -0.01079424 0.00563291
0.62166315 -0.01368161 0.00803791
0.68119776 -0.01642869 0.01253991
0.736709 -0.01905738 0.01834429
0.78439301 -0.02150707 0.02571806
0.82543904 -0.02381774 0.03574919
0.86209154 -0.02599908 0.04581426
0.89455384 -0.02801455 0.05513899
0.92112839 -0.02982338 0.06315739
0.94494861 -0.03151827 0.07066585
0.96451902 -0.03306402 0.07776099
0.97589719 -0.03399093 0.08157352
0.97957158 -0.03447831 0.08102587
0.98325741 -0.03495988 0.08047503
0.98695493 -0.03543583 0.07991988
0.99066436 -0.03590635 0.07935932
0.99438602 -0.0363717 0.07879242
0.99811983 -0.03683186 0.07821819
1.0018666 -0.03728728 0.07763578
0.00495138 0.06839739 0.04417089
0.00844536 0.06773158 0.04346421
0.01186422 0.06712023 0.04263707
0.01545985 0.06638085 0.0418627
0.01932364 0.06547403 0.04094784
0.02575077 0.06448234 0.03991805
0.04802975 0.06169377 0.03688129
0.08671603 0.05734102 0.03381159
0.14679784 0.05079009 0.0312638
0.20716058 0.03804605 0.02920145
0.26655355 0.02400007 0.02385046
0.32976425 0.00993485 0.01775421
0.3974092 0.00008608 0.01199794
0.46769163 -0.0041732 0.00687325
0.53811461 -0.00715148 0.00420134
0.60378665 -0.01006245 0.00567177
0.66524172 -0.01285029 0.00976849
0.72241729 -0.01550897 0.01537379
0.77201962 -0.01799713 0.02262116
0.81529021 -0.0203379 0.03186556
0.85347992 -0.02255028 0.04216525
0.88682121 -0.02460285 0.05175937
0.91501492 -0.02644959 0.06014308
0.94023371 -0.02817339 0.06779873
0.96020639 -0.0297354 0.07504191
0.97489929 -0.03087492 0.08036303
0.97884613 -0.03135872 0.08000628
0.98255533 -0.03182954 0.07944588
0.98627669 -0.03229511 0.0788791
0.99001038 -0.03275559 0.07830509
0.99375665 -0.03321125 0.07772289
0.99751562 -0.03366219 0.07713188
1.0012875 -0.03410849 0.07653142
0.00347483 0.07165612 0.04339291
0.00716284 0.07057954 0.04223388
0.01063834 0.06988909 0.04137939
0.0141844 0.06915305 0.04060209
0.01796571 0.0683261 0.03976752
0.02243938 0.06750822 0.03893732
0.03944725 0.06535749 0.03660416
0.06841916 0.06190832 0.03320063
0.12717713 0.05573705 0.03072304
0.18804097 0.04478671 0.02852222
0.24866927 0.03111515 0.0244854
0.31019503 0.01674482 0.01820769
0.37733725 0.00430951 0.01238982
0.44745335 -0.00052497 0.0068326
0.5194301 -0.00349911 0.00281324
0.58622766 -0.00642449 0.00347292
0.6493032 -0.00925232 0.00738921
0.70789725 -0.01194141 0.01277937
0.75984472 -0.01446645 0.01956968
0.8054406 -0.01684428 0.02807457
0.84496123 -0.01908703 0.03862024
0.87912458 -0.02116173 0.04839056
0.90919369 -0.02306588 0.05722015
0.93478805 -0.02479779 0.06499118
0.95605862 -0.02639212 0.07237571
0.97328866 -0.02771747 0.07861321
0.97816718 -0.02821836 0.07896592
0.98190051 -0.02867921 0.07839208
0.98564661 -0.02913509 0.07781015
0.98940527 -0.02958627 0.07721937
0.99317676 -0.03003282 0.07661919
0.99696106 -0.03047488 0.07600916
1.000758 -0.0309126 0.07538916
0.00129851 0.07658453 0.0447357
0.00505985 0.07520612 0.04314476
0.00878051 0.07409444 0.04175343
0.01249723 0.0732932 0.0401383
0.01645826 0.07203741 0.03891227
0.02091711 0.07072254 0.03779449
0.0323156 0.06894507 0.03619889
0.05750696 0.0658589 0.03289514
0.10894673 0.06038042 0.03018715
0.16989514 0.0513711 0.0278562
0.23145872 0.03811004 0.02509035
0.29202813 0.02334151 0.01859296
0.35822916 0.00967255 0.01279019
0.42816702 0.00352433 0.00707281
0.50033689 0.00015763 0.00258771
0.56944585 -0.00279883 0.00214076
0.63371342 -0.0056432 0.00523244
0.6936897 -0.00835866 0.01022888
0.74819672 -0.01092988 0.01661218
0.79576766 -0.01333459 0.02433221
0.83625305 -0.01560561 0.03514904
0.87181228 -0.01771482 0.04513115
0.90349716 -0.01966343 0.0543277
0.92963773 -0.02141522 0.06226588
0.95207453 -0.02303538 0.06975401
0.97178072 -0.02454179 0.07688297
0.97753626 -0.02505876 0.07789751
0.98129463 -0.02551025 0.07730695
0.98506588 -0.02595702 0.07670705
0.98884988 -0.02639936 0.07609731
0.99264657 -0.0268373 0.07547757
0.99645603 -0.02727099 0.07484777
1.0002776 -0.02770049 0.07420823
-0.00113172 0.08240216 0.04750849
0.0026524 0.08109365 0.04592519
0.00644509 0.07981222 0.04439064
0.01039092 0.07893394 0.04243013
0.01442392 0.07812899 0.03996048
0.01894325 0.07619362 0.03783764
0.02753923 0.07461753 0.03592401
0.05399351 0.07283176 0.03248878
0.09603669 0.0672221 0.0295391
0.15506105 0.05752145 0.02730912
0.21606681 0.04461002 0.02519634
0.27565581 0.03021006 0.01917405
0.34036487 0.01622811 0.01317472
0.40975961 0.00772155 0.00739888
0.48186991 0.00381791 0.00249904
0.55265522 0.00085361 0.00081989
0.61879575 -0.00203111 0.00313148
0.67994416 -0.00476767 0.00773028
0.73692101 -0.00738478 0.01371234
0.78578341 -0.00981819 0.02129724
0.82768208 -0.01211038 0.03169935
0.86490411 -0.01426472 0.0419788
0.8980729 -0.01625324 0.05150536
0.92473716 -0.01802453 0.05959633
0.94835067 -0.01967316 0.06720592
0.9683578 -0.02118993 0.07443187
0.9769547 -0.02188108 0.07679503
0.9807384 -0.02232364 0.07618558
0.98453486 -0.02276189 0.07556611
0.98834395 -0.0231958 0.07493663
0.99216533 -0.02362556 0.07429732
0.99599856 -0.02405111 0.07364877
0.9998433 -0.02447261 0.0729917
-0.007922 0.09431256 0.04982328
-0.00116644 0.08902103 0.04887928
0.00407184 0.08583368 0.04762891
0.00795305 0.08485076 0.04607737
0.0123128 0.08453646 0.04335144
0.01665526 0.08386389 0.04018279
0.02234059 0.08250786 0.03785727
0.05087947 0.08425218 0.03410636
0.09091252 0.08288322 0.02998173
0.14752081 0.07395221 0.02658857
0.20650791 0.05889582 0.02440402
0.26604211 0.04029563 0.01935619
0.32985398 0.0217476 0.01324086
0.39821658 0.01150882 0.00722378
0.46923035 0.00729191 0.00210578
0.54011053 0.00435108 -0.00044378
0.60619009 0.0014926 0.00117695
0.66799605 -0.00123785 0.00540817
0.72568589 -0.00383942 0.01108494
0.77593839 -0.00629848 0.01861337
0.81960893 -0.00861579 0.02837004
0.85820758 -0.01080311 0.03886569
0.89207411 -0.01282144 0.04858841
0.92006117 -0.01462575 0.05696706
0.94489491 -0.01630728 0.06472866
0.96515924 -0.0178314 0.07203346
0.97642297 -0.01868633 0.07565477
0.9802317 -0.01912048 0.07502554
0.98405278 -0.01955048 0.07438653
0.98788589 -0.01997635 0.0737382
0.99173033 -0.02039811 0.07308134
0.99558556 -0.02081584 0.07241703
0.99945086 -0.02122952 0.07174666
-0.02552536 0.12197393 0.05140416
-0.018995 0.11630983 0.04933324
-0.01212951 0.1109183 0.04840052
-0.00557586 0.10607888 0.04751506
0.00192972 0.10304373 0.04587525
0.00983705 0.10023281 0.04309404
0.01769946 0.09708805 0.03983774
0.0430501 0.09465978 0.03660446
0.08705401 0.10074954 0.03177192
0.14121173 0.09325165 0.02727539
0.19789147 0.08252396 0.02421931
0.25738734 0.06768311 0.01939891
0.3206645 0.04915864 0.01335273
0.39013281 0.03010888 0.00790796
0.46208483 0.01704762 0.00261948
0.53366101 0.00987134 -0.00052523
0.59994334 0.00650756 0.00034867
0.66228276 0.0032877 0.00413978
0.72032183 0.00019524 0.00960553
0.77098364 -0.00272814 0.01673601
0.81529313 -0.00535875 0.02601876
0.85405815 -0.00749997 0.03646441
0.88804424 -0.00950236 0.04621409
0.91658604 -0.01129953 0.05467591
0.94205606 -0.01297635 0.06244514
0.96241289 -0.01449096 0.06976876
0.97595698 -0.01547871 0.07447349
0.97977293 -0.0159014 0.07382774
0.98361707 -0.01632341 0.07317109
0.98747218 -0.0167414 0.07250696
0.99133724 -0.01715533 0.07183671
0.99521136 -0.01756517 0.07116199
0.99909353 -0.01797102 0.07048482
-0.04111994 0.15205969 0.06032983
-0.03562541 0.14647081 0.05634714
-0.02992512 0.14092165 0.0527596
-0.02411029 0.13559446 0.04965869
-0.01786732 0.1317651 0.0472408
-0.00570565 0.12888022 0.04516036
0.00631746 0.12519595 0.04213766
0.02527004 0.12447871 0.03888719
0.06828694 0.12318877 0.03541237
0.12692147 0.12020098 0.02840382
0.188399 0.10935225 0.02356626
0.24758443 0.09560767 0.02004451
0.31048915 0.08041099 0.01332546
0.3805373 0.06036935 0.00852161
0.45471022 0.04043107 0.00295657
0.52884281 0.02316999 -0.00001805
0.59643209 0.01402308 0.00134685
0.6578393 0.01051513 0.00423745
0.71561211 0.00735323 0.0093137
0.76650894 0.00437317 0.01579028
0.81167316 0.00152922 0.02449892
0.85116017 -0.0011434 0.03477259
0.88519049 -0.00356869 0.04431928
0.91448259 -0.00578039 0.0528217
0.94028294 -0.00784805 0.06049222
0.96092802 -0.00979775 0.06785444
0.97606027 -0.01135787 0.07312757
0.97987652 -0.01224755 0.07249576
0.9837032 -0.01312803 0.07185741
0.98751318 -0.01357524 0.07119438
0.99132884 -0.01396784 0.07052643
0.99515212 -0.01435651 0.06985813
0.99898171 -0.01474125 0.06919203
-0.04555691 0.1807476 0.07633609
-0.04192235 0.1758828 0.07144138
-0.03846401 0.17104271 0.06664411
-0.03517348 0.16622658 0.06193816
-0.03186552 0.16272764 0.05848679
-0.02338143 0.15957677 0.05240848
-0.0092103 0.15516077 0.04469976
0.01036772 0.15427406 0.04200762
0.0470703 0.15239047 0.03872206
0.10254682 0.15091798 0.03164714
0.17351314 0.14745285 0.02138223
0.23851064 0.12802505 0.01786068
0.30027771 0.11236385 0.01299055
0.36985624 0.09507108 0.00895522
0.44579819 0.07099174 0.00343647
0.52185625 0.03959619 0.00065321
0.59213573 0.02295072 0.0031798
0.65416712 0.01842092 0.00520334
0.71099699 0.01520358 0.00973186
0.76231486 0.01221746 0.0161197
0.80755317 0.00939247 0.02388491
0.84731662 0.00670405 0.03345338
0.88148808 0.0042289 0.04266077
0.91173166 0.00192348 0.05100723
0.93764806 -0.00015505 0.05849695
0.95889467 -0.00208226 0.06571117
0.97581685 -0.00372961 0.07162558
0.97977775 -0.00465995 0.07103878
0.98364294 -0.0055772 0.07036653
0.98751521 -0.00648439 0.06969389
0.99139327 -0.00738137 0.06902342
0.99525881 -0.00822267 0.06837942
0.99912435 -0.00904623 0.06774682
-0.05020653 0.20990627 0.09598852
-0.04700159 0.20467804 0.08963206
-0.04261355 0.20010397 0.08473019
-0.03840823 0.19554545 0.0799133
-0.03444485 0.19189878 0.07619421
-0.0302996 0.18897474 0.07142255
-0.01758677 0.18472762 0.06216139
-0.0049311 0.18209881 0.05264299
0.02613534 0.18106943 0.04615488
0.07528433 0.17819029 0.04206036
0.14925334 0.18320952 0.02766185
0.22495046 0.16436291 0.01722928
0.29139993 0.14545718 0.01263396
0.35937694 0.13144989 0.00894997
0.43645039 0.11417207 0.00402142
0.51406133 0.08962771 0.00193491
0.5856024 0.06459218 0.00350906
0.64910328 0.04591832 0.00572704
0.70600623 0.0315156 0.01022569
0.75749391 0.02048627 0.0166881
0.80334443 0.01766536 0.02418414
0.84283113 0.01502448 0.03282443
0.87736976 0.01255796 0.0417104
0.90819782 0.01032657 0.05022031
0.93464798 0.00836418 0.0579299
0.95672649 0.00905655 0.0647263
0.97509593 0.00904067 0.0706545
0.97966987 0.00721081 0.07038507
0.98351884 0.0052497 0.06954809
0.98737264 0.00331213 0.06871802
0.99122959 0.00139886 0.06789798
0.99510092 -0.00017803 0.06713197
0.99899858 -0.00106757 0.06646921
-0.04595796 0.24099073 0.12144463
-0.04408443 0.23582718 0.11488394
-0.04223641 0.23080622 0.10846253
-0.04041469 0.22590959 0.10215984
-0.03839561 0.22164249 0.09670313
-0.03589833 0.21867803 0.09182199
-0.02693969 0.21532819 0.08388168
-0.01310162 0.21102561 0.07260768
0.00650564 0.20999482 0.06316616
0.05557458 0.20661998 0.05546128
0.11118151 0.20459279 0.04885117
0.18905222 0.20089813 0.03475641
0.26943341 0.1918444 0.01773814
0.34662136 0.17520623 0.00949025
0.42513636 0.15828402 0.00558225
0.50515187 0.14158382 0.00349449
0.57851022 0.12223554 0.00378559
0.64303976 0.10086701 0.0054561
0.70082438 0.0815531 0.00977124
0.75288093 0.06544667 0.01676779
0.79870343 0.0527766 0.02464445
0.8380037 0.04248435 0.03273959
0.87322932 0.03367809 0.04126564
0.90459365 0.02555176 0.04967063
0.9314549 0.01755609 0.05791425
0.95444626 0.02116474 0.06476973
0.9743185 0.02680815 0.07073528
0.97971451 0.02580478 0.07096832
0.98357862 0.02381615 0.07010549
0.98744398 0.0218563 0.06925818
0.99130934 0.01992307 0.06842808
0.9951728 0.01801699 0.06761883
0.99903262 0.01613905 0.06683403
-0.04140861 0.273096 0.1483594
-0.03909663 0.26795641 0.14187057
-0.03683724 0.26288861 0.13544631
-0.03461495 0.25794485 0.12913147
-0.03236893 0.25329784 0.12315498
-0.02950706 0.25047603 0.11905935
-0.02668991 0.24757817 0.11209684
-0.01873948 0.24159552 0.0966752
-0.00485872 0.24032532 0.08542221
0.03855746 0.23870733 0.07665024
0.08960198 0.2352442 0.06887939
0.14978236 0.23206562 0.0578958
0.24377792 0.23369576 0.03071192
0.33381018 0.22466776 0.01020832
0.41319519 0.20502725 0.0078201
0.49415061 0.18919069 0.00625499
0.57082278 0.17339471 0.00614803
0.63695335 0.15526202 0.00756611
0.69572896 0.13530327 0.01087093
0.74870133 0.11525106 0.01751503
0.79351068 0.09931666 0.02569387
0.83309489 0.08713961 0.03336433
0.86909688 0.07806042 0.04148835
0.90137273 0.07110046 0.04979263
0.92786497 0.06733548 0.05729342
0.95143652 0.0648962 0.06391981
0.97208607 0.06530333 0.06971227
0.97916484 0.06216339 0.07093673
0.9831298 0.0572012 0.07023741
0.9870916 0.05231048 0.06955685
0.99104148 0.04762162 0.06892505
0.99498147 0.04307342 0.06833251
0.99891293 0.03859973 0.06776869
-0.04864363 0.30992579 0.17093156
-0.04372944 0.30431247 0.16536739
-0.03862667 0.29877466 0.16000544
-0.03334032 0.29330975 0.15483487
-0.02878749 0.28777295 0.14967476
-0.02542804 0.28416806 0.1460748
-0.02174732 0.28154859 0.14136426
-0.0176243 0.27522355 0.12690412
-0.01077946 0.27331266 0.11157481
0.01680925 0.27272531 0.09913681
0.07311019 0.26984659 0.09048405
0.12793845 0.26607534 0.08251002
0.19723983 0.26351398 0.0686213
0.30067474 0.26605403 0.03438087
0.40071678 0.26159912 0.00934241
0.48353273 0.24340001 0.00700445
0.56256568 0.22558485 0.00863747
0.63090879 0.20977226 0.01095518
0.69079053 0.19160178 0.0143952
0.74399853 0.1714344 0.020082
0.78871155 0.1547841 0.02786
0.82788146 0.14092644 0.03560291
0.86380851 0.12950115 0.04333946
0.89696282 0.12097768 0.05127623
0.92414898 0.11775655 0.05804843
0.9482004 0.11620852 0.06410643
0.96883249 0.1153024 0.0689119
0.97811913 0.11253907 0.07065277
0.98208624 0.10752039 0.06994244
0.98604631 0.10258016 0.06925881
0.98999768 0.097721 0.06860523
0.99393857 0.09294459 0.06798504
0.99786687 0.08826078 0.06740329
-0.05263552 0.34994781 0.1978209
-0.04890675 0.3440401 0.19123638
-0.04490281 0.33843374 0.18495698
-0.04069971 0.33289805 0.17887102
-0.03630212 0.32743031 0.1729684
-0.03195915 0.32333052 0.16866624
-0.02713869 0.32134548 0.16499282
-0.01983712 0.31568447 0.15422048
-0.01110282 0.31193495 0.13836381
0.00212832 0.31183136 0.12336395
0.0409022 0.31001928 0.1132017
0.10762501 0.30655813 0.1028826
0.16811271 0.30201322 0.09502684
0.24585773 0.30055654 0.07945158
0.38206059 0.31678548 0.01803861
0.47897744 0.30315983 0.00480672
0.55456477 0.2791155 0.01022472
0.62299114 0.26237175 0.01350774
0.68394411 0.24567431 0.01786734
0.73725355 0.22716524 0.02290771
0.78249568 0.21081328 0.03004482
0.82228702 0.19705157 0.03828445
0.85771245 0.18602058 0.04652004
0.89123154 0.17660978 0.05431225
0.92001575 0.16983958 0.06103166
0.9454627 0.16525759 0.06723943
0.96586376 0.16223469 0.07309831
0.97726619 0.15916345 0.07628255
0.98129952 0.15478247 0.07515962
0.98520356 0.15044169 0.07398596
0.98909611 0.14617753 0.07285874
0.99297583 0.141992 0.07178087
0.99684155 0.13788594 0.07075491
-0.05135296 0.39906311 0.23128872
-0.04803225 0.39185634 0.22430807
-0.04466862 0.3849355 0.21733841
-0.04129063 0.37813553 0.21034096
-0.03782041 0.37180629 0.20329902
-0.03425799 0.36675119 0.19759968
-0.03028487 0.36448357 0.19424084
-0.02511067 0.35937089 0.18451621
-0.01828318 0.35332292 0.16791143
-0.00849237 0.35467157 0.14877093
0.00627688 0.35414135 0.13590339
0.07702668 0.35046688 0.12569982
0.15193973 0.34556812 0.11588374
0.21790296 0.34162819 0.10710073
0.31014192 0.34511578 0.08441944
0.45535785 0.36280057 0.01727842
0.5520246 0.3447524 0.0039874
0.61785555 0.32087106 0.01328009
0.67622876 0.30121282 0.02171319
0.72953886 0.28328329 0.02668017
0.77474415 0.26700222 0.03234465
0.81461012 0.25154653 0.04035838
0.85136282 0.23880199 0.05002712
0.88418067 0.22839934 0.0581566
0.9140231 0.22109899 0.06607394
0.94105476 0.21573178 0.07347325
0.96334511 0.21218918 0.07976118
0.97646528 0.20831111 0.08343647
0.98170334 0.20394446 0.08323843
0.98529208 0.19944634 0.08181192
0.98888832 0.19517976 0.08053394
0.99247473 0.19099689 0.07931507
0.99605078 0.18689819 0.07815682
-0.04943936 0.45050189 0.26624477
-0.04616163 0.44375676 0.25845945
-0.04285679 0.43703467 0.25106865
-0.03948486 0.43045196 0.24399167
-0.03609329 0.42366287 0.23726647
-0.03264609 0.41752869 0.23129724
-0.02889447 0.4148728 0.22826529
-0.02424376 0.41120803 0.22230567
-0.01796429 0.4015815 0.20441529
-0.00852097 0.40153062 0.18669876
0.00648991 0.40156537 0.16770409
0.04560645 0.39879891 0.15173274
0.12369467 0.39353785 0.14210236
0.19996572 0.38905817 0.13163489
0.27058992 0.38781533 0.12162367
0.39012659 0.40204531 0.07976257
0.53464204 0.41022879 0.01675834
0.61713433 0.38312772 0.01273618
0.67281932 0.35818112 0.02495971
0.72266251 0.33869943 0.03269378
0.76784301 0.32179004 0.03901546
0.80820626 0.30653739 0.04659412
0.84447891 0.29270768 0.05585643
0.8769657 0.28131276 0.06355721
0.90701675 0.27267712 0.07168788
0.93463385 0.26719463 0.08096285
0.95958239 0.26330429 0.08868685
0.97616363 0.25965801 0.09329383
0.98404545 0.25573486 0.0942901
0.9877677 0.25138569 0.09284909
0.99131233 0.24700639 0.09150698
0.99484652 0.24271737 0.09023044
0.99836981 0.23851861 0.08901995
-0.04723163 0.49893647 0.30415925
-0.04388511 0.49264452 0.29760659
-0.04052846 0.48648295 0.29090726
-0.03716173 0.48044851 0.28406137
-0.03383928 0.47427681 0.27565262
-0.03045618 0.46845517 0.26769653
-0.0268076 0.46600124 0.2639997
-0.02262666 0.46534422 0.26171651
-0.01660349 0.45394397 0.24133179
-0.00782844 0.45086384 0.22316523
0.00355074 0.45068252 0.20295221
0.02659063 0.44920096 0.18355119
0.08910203 0.44445026 0.17169422
0.18252027 0.44018283 0.15865645
0.25747359 0.43560344 0.14867188
0.33066136 0.43555567 0.14153416
0.46224728 0.45414281 0.09238116
0.59767914 0.4562102 0.03076015
0.66879284 0.42863131 0.02371934
0.71780491 0.40154719 0.0353845
0.76045907 0.37904298 0.04615247
0.80069882 0.36168608 0.05461402
0.8369562 0.34773928 0.06421058
0.86987174 0.3356688 0.07208173
0.89994508 0.32567164 0.07876875
0.92721117 0.31872314 0.08826286
0.95231068 0.31344962 0.09812559
0.97019035 0.30917829 0.1054206
0.97938478 0.30483931 0.10858211
0.98349226 0.30083352 0.10708177
0.9875766 0.29691181 0.10565221
0.99163795 0.29307356 0.10429307
0.99567646 0.28931779 0.10300353
-0.04511365 0.5421623 0.33752748
-0.04175479 0.53649592 0.33048916
-0.03837273 0.53096616 0.32367474
-0.03496767 0.52557057 0.31707901
-0.03153984 0.52030629 0.31069738
-0.02808653 0.51521146 0.30456862
-0.02440114 0.51295984 0.30142221
-0.02046948 0.51386011 0.30175686
-0.01470448 0.50535572 0.28696978
-0.006316 0.50161219 0.26666936
0.00458269 0.500727 0.24506535
0.01914639 0.50050777 0.21994312
0.04644396 0.49692383 0.20629247
0.16475086 0.49172917 0.19362839
0.24632394 0.48674428 0.17911208
0.3191486 0.48396778 0.17300564
0.39816219 0.48713535 0.16394246
0.52323645 0.50065398 0.11219502
0.63913763 0.4965862 0.06159228
0.70831776 0.47038829 0.04774807
0.75533324 0.44081214 0.05593398
0.79307348 0.41798985 0.06485406
0.8283965 0.40247682 0.07414477
0.86165726 0.39110419 0.08428741
0.89274871 0.38187343 0.09442697
0.92009866 0.37416279 0.10338221
0.94583988 0.36782253 0.11300136
0.96600372 0.36268085 0.12165476
0.97536641 0.35763249 0.12525886
0.98005402 0.35330412 0.12434384
0.98394084 0.34927735 0.12281104
0.98781186 0.34538311 0.12138606
0.99166489 0.34157315 0.12003106
-0.0080017 0.5816707 0.37391779
-0.01422672 0.57773751 0.3675794
-0.0211937 0.57355869 0.36034232
-0.02758142 0.56906331 0.35243464
-0.02911492 0.56413788 0.34487736
-0.02569117 0.55872273 0.33774209
-0.02205286 0.55585295 0.33357677
-0.01810865 0.55670613 0.33373603
-0.01307937 0.54995233 0.3219592
-0.00328336 0.54492277 0.30722284
0.00541096 0.54450965 0.29198119
0.01961322 0.5449568 0.26902971
0.04678432 0.54480684 0.24852708
0.14977024 0.54048467 0.23624323
0.24201147 0.53427756 0.22162965
0.31365785 0.5302673 0.2101651
0.38162056 0.52795559 0.20716855
0.4567011 0.53277957 0.19515793
0.56902117 0.54398823 0.14457297
0.67709589 0.54186141 0.08870476
0.74555498 0.51786876 0.07290142
0.78831166 0.48562318 0.08321024
0.82408905 0.4628318 0.09167652
0.85663331 0.44603449 0.10056993
0.88683444 0.43381089 0.11041828
0.91284138 0.427255 0.12056489
0.93699187 0.42256939 0.13079715
0.95869738 0.41919968 0.14166555
0.96842927 0.41439858 0.14563234
0.97527391 0.40987641 0.14648561
0.97947377 0.40568891 0.14458694
0.98364925 0.40159082 0.14276676
0.98780191 0.39757872 0.14102085
0.07126295 0.61338341 0.40312344
0.06617898 0.60974413 0.39814591
0.06112445 0.60613418 0.39303187
0.055929 0.60247868 0.38762605
0.05072151 0.59883589 0.38205108
0.04554013 0.59522283 0.37634936
0.04326483 0.59288812 0.37222764
0.04766547 0.59320813 0.37179095
0.03976917 0.59012097 0.36335865
0.03355121 0.58607668 0.34780279
0.03787976 0.58478492 0.33116597
0.03882958 0.58539408 0.31173748
0.07006016 0.58639592 0.29155949
0.1547327 0.583781 0.2785435
0.24279004 0.57831281 0.26597258
0.31231558 0.57407886 0.25273696
0.37956971 0.57118028 0.24776562
0.44035602 0.56945634 0.24696827
0.50275868 0.57155555 0.23684613
0.5998897 0.58217907 0.19470841
0.710491 0.58411378 0.12756702
0.77533185 0.56132799 0.11063965
0.81633055 0.53173661 0.11620717
0.84794581 0.50998402 0.12441407
0.87634212 0.49378279 0.13338958
0.90223038 0.48344973 0.14279844
0.92418814 0.4779703 0.15223561
0.94504386 0.47467822 0.16311947
0.95633107 0.47060084 0.16841869
0.96599275 0.46646327 0.17275652
0.97150528 0.46283004 0.17246291
0.97558695 0.45938593 0.17061608
0.97965038 0.45601094 0.16883695
0.13275343 0.64117914 0.42787093
0.12847504 0.63813484 0.42302737
0.12475699 0.6351186 0.41825563
0.12159143 0.63213044 0.41355845
0.11896972 0.62917024 0.40893948
0.11675414 0.62616605 0.40426993
0.11655202 0.62398672 0.40071946
0.12074643 0.624102 0.40013769
0.12312922 0.62300122 0.39755651
0.12770602 0.6206286 0.39008117
0.1286674 0.61944085 0.37552536
0.11745214 0.62048244 0.35528257
