site/assets/luts/freshluts--0001103-avengers-going-camping-2.cube
# LUTr-Schema-Version: 2
# LUTr-ID: freshluts--0001103-avengers-going-camping-2
# LUTr-Title: Avengers Going Camping_2
# LUTr-Collection: Fresh LUTs
# LUTr-Collection-ID: freshluts-community
# LUTr-Source: https://freshluts.com
# LUTr-Retrieved: 2026-07-27
# LUTr-Source-File: submissions-raw/freshluts/cubes/1103__Avengers_going_Camping_2.cube
# LUTr-Source-Format: CUBE
# LUTr-Source-SHA256: 7fbce304e752279a7090944723ceceeb1b879cba72225b146d810d1f48a83fdf
# LUTr-License: CC0-1.0
# LUTr-License-URL: https://freshluts.com/termsandconditions
# LUTr-License-Basis: site-terms
# LUTr-Transform-Class: creative-look
# LUTr-Tags: creative, freshluts, community, cube, panasonic-v-log
# LUTr-Input-Color-Space: panasonic-vlog-vgamut
# LUTr-Input-Gamut: panasonic-v-gamut
# LUTr-Input-Transfer: panasonic-v-log
# LUTr-Output-Color-Space: srgb
# LUTr-Output-Gamut: rec709
# LUTr-Output-Transfer: srgb
# LUTr-Color-Space-Confidence: inferred-from-source-label
# LUTr-Domain-Normalized: true
# LUTr-Shaper: none
# LUTr-Original-Grid: 35x35x35
# LUTr-Conversion-Grid: 35x35x35
# LUTr-Conversion-Interpolation: none
# LUTr-Conversion-Method: Metadata normalization; numeric LUT samples preserved
# LUTr-Conversion-Tool: LUTr scripts/convert-all-to-cube.mjs 2.0.0
# LUTr-Conversion-Date: 2026-07-28
# LUTr-Asset-URL: https://freshluts.com/luts/1103
# LUTr-Author: Camera Head Studios LUTS
# LUTr-Author-URL: https://freshluts.com/users/107973
# LUTr-Attribution: Camera Head Studios LUTS via Fresh LUTs
# LUTr-Source-Labels: gamma=Panasonic V-log; color=None; key=Neutral; style=Adventure
# LUTr-Note: Preserve this metadata and the upstream license notices when redistributing.
# LUTr-Upstream-Comment: Created by: Pixelmator Pro
# LUTr-Upstream-Comment: Color profile: "sRGB IEC61966-2.1"
# LUTr-Upstream-Comment: Data domain
# LUTr-Upstream-Comment: LUT size
TITLE "Avengers Going Camping_2"
LUT_3D_SIZE 5
DOMAIN_MIN 0.000000 0.000000 0.000000
DOMAIN_MAX 0.823529 0.823529 0.823529
0 0 0
0 0 0
0 0 0
0.209 0 0
0.521 0.013 0.013
0 0 0
0.037 0.037 0
0.15 0.063 0
0.315 0.082 0
0.568 0.106 0.018
0 0.21 0
0.103 0.228 0
0.251 0.251 0
0.421 0.249 0.007
0.626 0.24 0.015
0.01 0.446 0.01
0.126 0.446 0.013
0.269 0.447 0.017
0.468 0.468 0.022
0.719 0.49 0.031
0.041 0.76 0.041
0.179 0.769 0.043
0.39 0.787 0.049
0.632 0.816 0.057
0.865 0.865 0.07
0 0 0
0 0 0
0.081 0 0.03
0.246 0 0.062
0.524 0.017 0.096
0 0.032 0.032
0.057 0.057 0.057
0.195 0.038 0.038
0.36 0.048 0.048
0.599 0.07 0.07
0 0.226 0.102
0.061 0.265 0.061
0.267 0.267 0.067
0.449 0.245 0.067
0.645 0.222 0.071
0.013 0.446 0.126
0.075 0.465 0.075
0.259 0.466 0.078
0.484 0.484 0.086
0.734 0.495 0.094
0.043 0.767 0.178
0.117 0.787 0.117
0.361 0.805 0.124
0.631 0.831 0.135
0.875 0.875 0.153
0 0 0.018
0.043 0 0.11
0.169 0 0.169
0.344 0 0.202
0.574 0.019 0.219
0 0.07 0.164
0.052 0.052 0.265
0.251 0.055 0.251
0.427 0.057 0.228
0.615 0.073 0.213
0 0.247 0.247
0.067 0.267 0.267
0.265 0.265 0.265
0.484 0.21 0.21
0.677 0.175 0.175
0.016 0.446 0.268
0.077 0.465 0.258
0.209 0.504 0.209
0.51 0.51 0.214
0.764 0.496 0.21
0.048 0.783 0.385
0.123 0.802 0.358
0.262 0.841 0.262
0.615 0.86 0.278
0.89 0.89 0.306
0 0 0.282
0.087 0 0.334
0.232 0 0.397
0.416 0.002 0.416
0.627 0.013 0.404
0 0.099 0.379
0.06 0.06 0.486
0.267 0.067 0.485
0.459 0.069 0.459
0.664 0.067 0.417
0.006 0.263 0.443
0.072 0.264 0.478
0.225 0.225 0.546
0.496 0.204 0.496
0.72 0.188 0.44
0.02 0.46 0.46
0.083 0.478 0.478
0.213 0.508 0.508
0.524 0.524 0.524
0.795 0.456 0.456
0.054 0.807 0.62
0.132 0.825 0.622
0.275 0.857 0.611
0.534 0.894 0.534
0.906 0.906 0.554
0.001 0.001 0.664
0.119 0.004 0.674
0.267 0.01 0.681
0.446 0.016 0.68
0.696 0.024 0.696
0.008 0.123 0.68
0.073 0.073 0.723
0.257 0.075 0.714
0.471 0.08 0.717
0.73 0.091 0.73
0.017 0.271 0.683
0.079 0.26 0.716
0.21 0.21 0.773
0.514 0.217 0.781
0.789 0.227 0.789
0.032 0.512 0.734
0.101 0.525 0.754
0.233 0.539 0.801
0.513 0.513 0.88
0.876 0.51 0.876
0.066 0.851 0.851
0.148 0.864 0.864
0.3 0.884 0.884
0.551 0.904 0.904
0.915 0.915 0.915
