site/assets/luts/freshluts--0001281-picturefx-js-style-mystical-dusk-photographer-js-style-color.cube
# LUTr-Schema-Version: 2
# LUTr-ID: freshluts--0001281-picturefx-js-style-mystical-dusk-photographer-js-style-color
# LUTr-Title: PictureFX J.S. Style Mystical Dusk - Photographer J.S. Style - color palette and tonal repartition - add bloom, exposure, blur to taste - more info on website
# LUTr-Collection: Fresh LUTs
# LUTr-Collection-ID: freshluts-community
# LUTr-Source: https://freshluts.com
# LUTr-Retrieved: 2026-07-27
# LUTr-Source-File: submissions-raw/freshluts/cubes/1281__PictureFX_J.S._Style_Mystical_Dusk_.cube
# LUTr-Source-Format: CUBE
# LUTr-Source-SHA256: aa9b33c3d185c9ad6a0564c00547d23d0ce820c348e419d06826ce6405fb1258
# LUTr-License: CC0-1.0
# LUTr-License-URL: https://freshluts.com/termsandconditions
# LUTr-License-Basis: site-terms
# LUTr-Transform-Class: creative-look
# LUTr-Tags: creative, freshluts, community, cube, film-emulation, low-key
# LUTr-Input-Color-Space:
# LUTr-Input-Gamut: unspecified
# LUTr-Input-Transfer: unspecified
# LUTr-Output-Color-Space: srgb
# LUTr-Output-Gamut: rec709
# LUTr-Output-Transfer: srgb
# LUTr-Color-Space-Confidence: camera-profile-input-required
# LUTr-Domain-Normalized: true
# LUTr-Shaper: none
# LUTr-Original-Grid: 25x25x25
# LUTr-Conversion-Grid: 25x25x25
# LUTr-Conversion-Interpolation: none
# LUTr-Conversion-Method: Metadata normalization; numeric LUT samples preserved
# LUTr-Conversion-Tool: LUTr scripts/convert-all-to-cube.mjs 2.0.0
# LUTr-Conversion-Date: 2026-07-28
# LUTr-Asset-URL: https://freshluts.com/luts/1281
# LUTr-Author: MarcR.
# LUTr-Author-URL: https://freshluts.com/users/86490
# LUTr-Attribution: MarcR. via Fresh LUTs
# LUTr-Source-Labels: gamma=Other; color=None; key=Low Key; style=Film emulation
# LUTr-Note: Preserve this metadata and the upstream license notices when redistributing.
# LUTr-Upstream-Comment: Generated by lutCreator.js
# LUTr-Upstream-Comment: Coded by SirSerch
# LUTr-Upstream-Comment: https://github.com/SirSerch/LutCreatorJs
TITLE "PictureFX J.S. Style Mystical Dusk - Photographer J.S. Style - color palette and tonal repartition - add bloom, exposure, blur to taste - more info on website"
LUT_3D_SIZE 25
DOMAIN_MIN 0 0 0
DOMAIN_MAX 1 1 1
0 0.015686 0
0 0.007843 0.011765
0 0 0.023529
0.023529 0 0.011765
0.070588 0 0
0.101961 0 0
0.12549 0 0
0.145098 0.023529 0
0.184314 0.054902 0.003922
0.207843 0.062745 0
0.231373 0.07451 0
0.258824 0.082353 0
0.286275 0.090196 0
0.309804 0.101961 0.003922
0.337255 0.113725 0.003922
0.368627 0.12549 0.007843
0.396078 0.137255 0.011765
0.427451 0.14902 0.019608
0.458824 0.160784 0.023529
0.490196 0.176471 0.027451
0.521569 0.188235 0.031373
0.54902 0.2 0.039216
0.580392 0.211765 0.039216
0.611765 0.223529 0.043137
0.639216 0.235294 0.047059
0 0.019608 0.007843
0 0.015686 0.015686
0 0.007843 0.054902
0 0 0.003922
0.054902 0 0
0.090196 0 0
0.117647 0.011765 0
0.14902 0.05098 0
0.176471 0.058824 0
0.2 0.066667 0
0.223529 0.07451 0
0.25098 0.086275 0
0.278431 0.094118 0
0.305882 0.105882 0
0.333333 0.113725 0
0.364706 0.12549 0.007843
0.392157 0.137255 0.011765
0.423529 0.14902 0.015686
0.454902 0.164706 0.023529
0.486275 0.176471 0.027451
0.517647 0.188235 0.031373
0.54902 0.203922 0.035294
0.576471 0.215686 0.039216
0.607843 0.227451 0.043137
0.639216 0.239216 0.047059
0 0.027451 0.003922
0 0.023529 0.007843
0 0.015686 0.019608
0 0.007843 0.011765
0.035294 0.011765 0
0.078431 0.019608 0
0.121569 0.058824 0
0.145098 0.066667 0
0.168627 0.070588 0
0.196078 0.078431 0
0.219608 0.086275 0
0.247059 0.094118 0
0.27451 0.101961 0
0.301961 0.109804 0
0.329412 0.121569 0
0.360784 0.133333 0.007843
0.392157 0.145098 0.011765
0.419608 0.156863 0.019608
0.45098 0.168627 0.023529
0.482353 0.180392 0.027451
0.513725 0.196078 0.031373
0.545098 0.207843 0.035294
0.576471 0.219608 0.039216
0.607843 0.231373 0.043137
0.635294 0.243137 0.047059
0 0.05098 0
0 0.05098 0.003922
0 0.047059 0.035294
0 0.047059 0.07451
0.027451 0.054902 0.054902
0.090196 0.078431 0.043137
0.117647 0.082353 0.019608
0.145098 0.086275 0.011765
0.172549 0.090196 0.003922
0.196078 0.098039 0
0.223529 0.101961 0
0.25098 0.109804 0
0.278431 0.117647 0.003922
0.305882 0.12549 0.003922
0.333333 0.137255 0.007843
0.364706 0.145098 0.011765
0.392157 0.156863 0.019608
0.423529 0.168627 0.023529
0.454902 0.180392 0.027451
0.486275 0.192157 0.031373
0.517647 0.203922 0.035294
0.54902 0.215686 0.039216
0.576471 0.227451 0.043137
0.607843 0.239216 0.047059
0.635294 0.25098 0.047059
0 0.105882 0.027451
0 0.101961 0.035294
0.007843 0.101961 0.05098
0.043137 0.101961 0.070588
0.070588 0.101961 0.078431
0.094118 0.105882 0.070588
0.121569 0.109804 0.054902
0.14902 0.113725 0.039216
0.176471 0.117647 0.027451
0.203922 0.121569 0.023529
0.231373 0.129412 0.019608
0.258824 0.133333 0.019608
0.286275 0.141176 0.019608
0.313725 0.14902 0.019608
0.341176 0.156863 0.023529
0.368627 0.168627 0.027451
0.4 0.176471 0.031373
0.431373 0.188235 0.035294
0.462745 0.2 0.039216
0.494118 0.211765 0.043137
0.521569 0.219608 0.047059
0.552941 0.231373 0.047059
0.580392 0.239216 0.05098
0.611765 0.25098 0.05098
0.639216 0.262745 0.054902
0 0.133333 0.047059
0.019608 0.133333 0.05098
0.039216 0.133333 0.054902
0.062745 0.133333 0.066667
0.086275 0.137255 0.07451
0.109804 0.137255 0.078431
0.133333 0.141176 0.07451
0.160784 0.145098 0.066667
0.184314 0.14902 0.054902
0.211765 0.152941 0.047059
0.239216 0.156863 0.043137
0.266667 0.160784 0.039216
0.290196 0.168627 0.039216
0.321569 0.176471 0.039216
0.34902 0.184314 0.039216
0.376471 0.192157 0.043137
0.407843 0.2 0.043137
0.439216 0.207843 0.047059
0.470588 0.219608 0.05098
0.498039 0.231373 0.05098
0.529412 0.239216 0.054902
0.556863 0.25098 0.054902
0.588235 0.258824 0.058824
0.615686 0.266667 0.062745
0.647059 0.278431 0.062745
0.007843 0.152941 0.039216
0.023529 0.152941 0.043137
0.039216 0.152941 0.047059
0.062745 0.152941 0.05098
0.086275 0.156863 0.058824
0.109804 0.156863 0.066667
0.133333 0.160784 0.070588
0.156863 0.164706 0.066667
0.184314 0.168627 0.062745
0.207843 0.172549 0.058824
0.235294 0.176471 0.054902
0.262745 0.180392 0.05098
0.290196 0.188235 0.047059
0.321569 0.196078 0.047059
0.34902 0.203922 0.047059
0.380392 0.211765 0.05098
0.407843 0.219608 0.05098
0.439216 0.227451 0.054902
0.470588 0.235294 0.054902
0.498039 0.247059 0.058824
0.529412 0.254902 0.058824
0.556863 0.262745 0.062745
0.588235 0.27451 0.062745
0.615686 0.282353 0.066667
0.647059 0.294118 0.066667
0.011765 0.180392 0.043137
0.027451 0.180392 0.043137
0.047059 0.180392 0.047059
0.066667 0.180392 0.05098
0.090196 0.180392 0.058824
0.113725 0.184314 0.062745
0.137255 0.184314 0.070588
0.160784 0.188235 0.070588
0.188235 0.192157 0.070588
0.211765 0.196078 0.070588
0.239216 0.2 0.066667
0.266667 0.203922 0.062745
0.294118 0.211765 0.058824
0.321569 0.219608 0.058824
0.352941 0.223529 0.058824
0.380392 0.231373 0.058824
0.411765 0.239216 0.058824
0.443137 0.247059 0.062745
0.470588 0.258824 0.062745
0.501961 0.266667 0.062745
0.529412 0.27451 0.066667
0.560784 0.282353 0.066667
0.588235 0.290196 0.070588
0.619608 0.298039 0.070588
0.647059 0.309804 0.07451
0.023529 0.207843 0.05098
0.039216 0.207843 0.054902
0.054902 0.207843 0.054902
0.078431 0.211765 0.058824
0.098039 0.211765 0.062745
0.121569 0.211765 0.066667
0.14902 0.215686 0.07451
0.172549 0.215686 0.078431
0.196078 0.219608 0.082353
0.223529 0.223529 0.082353
0.247059 0.231373 0.078431
0.27451 0.235294 0.078431
0.301961 0.239216 0.07451
0.329412 0.247059 0.07451
0.360784 0.25098 0.07451
0.388235 0.258824 0.07451
0.415686 0.266667 0.07451
0.447059 0.27451 0.07451
0.47451 0.282353 0.07451
0.505882 0.286275 0.07451
0.533333 0.294118 0.07451
0.560784 0.301961 0.07451
0.592157 0.309804 0.078431
0.619608 0.317647 0.078431
0.647059 0.32549 0.078431
0.047059 0.243137 0.062745
0.058824 0.243137 0.062745
0.07451 0.243137 0.066667
0.094118 0.243137 0.070588
0.113725 0.247059 0.070588
0.137255 0.247059 0.078431
0.160784 0.25098 0.082353
0.184314 0.25098 0.086275
0.207843 0.254902 0.090196
0.235294 0.258824 0.094118
0.258824 0.262745 0.094118
0.286275 0.266667 0.094118
0.313725 0.27451 0.094118
0.341176 0.278431 0.094118
0.368627 0.282353 0.090196
0.4 0.290196 0.090196
0.427451 0.294118 0.090196
0.454902 0.301961 0.086275
0.482353 0.305882 0.086275
0.509804 0.313725 0.086275
0.537255 0.321569 0.086275
0.568627 0.32549 0.086275
0.596078 0.333333 0.086275
0.623529 0.341176 0.086275
0.65098 0.34902 0.086275
0.078431 0.286275 0.082353
0.086275 0.286275 0.082353
0.101961 0.286275 0.082353
0.117647 0.286275 0.086275
0.133333 0.286275 0.086275
0.156863 0.286275 0.090196
0.180392 0.290196 0.094118
0.203922 0.290196 0.098039
0.227451 0.294118 0.105882
0.25098 0.298039 0.109804
0.278431 0.301961 0.109804
0.301961 0.301961 0.113725
0.329412 0.309804 0.109804
0.356863 0.313725 0.109804
0.380392 0.317647 0.109804
0.407843 0.321569 0.105882
0.435294 0.32549 0.105882
0.462745 0.333333 0.101961
0.490196 0.337255 0.101961
0.521569 0.345098 0.101961
0.54902 0.34902 0.101961
0.576471 0.356863 0.101961
0.603922 0.360784 0.101961
0.635294 0.368627 0.101961
0.662745 0.376471 0.101961
0.094118 0.317647 0.090196
0.101961 0.317647 0.090196
0.113725 0.317647 0.090196
0.129412 0.317647 0.094118
0.145098 0.317647 0.094118
0.164706 0.317647 0.098039
0.188235 0.321569 0.101961
0.211765 0.321569 0.105882
0.235294 0.32549 0.109804
0.258824 0.32549 0.113725
0.286275 0.329412 0.117647
0.309804 0.333333 0.117647
0.333333 0.337255 0.117647
0.360784 0.341176 0.117647
0.388235 0.345098 0.117647
0.411765 0.34902 0.117647
0.439216 0.352941 0.113725
0.466667 0.356863 0.113725
0.494118 0.364706 0.113725
0.52549 0.368627 0.113725
0.552941 0.372549 0.109804
0.580392 0.380392 0.109804
0.607843 0.388235 0.109804
0.639216 0.392157 0.109804
0.666667 0.4 0.113725
0.113725 0.34902 0.098039
0.121569 0.34902 0.098039
0.129412 0.34902 0.098039
0.141176 0.34902 0.101961
0.160784 0.34902 0.101961
0.176471 0.34902 0.105882
0.2 0.352941 0.105882
0.219608 0.352941 0.109804
0.243137 0.352941 0.113725
0.266667 0.356863 0.117647
0.294118 0.356863 0.121569
0.317647 0.360784 0.12549
0.341176 0.364706 0.12549
0.368627 0.368627 0.12549
0.392157 0.372549 0.12549
0.419608 0.376471 0.12549
0.447059 0.380392 0.12549
0.47451 0.384314 0.12549
0.501961 0.388235 0.121569
0.529412 0.396078 0.121569
0.556863 0.4 0.121569
0.584314 0.403922 0.121569
0.611765 0.411765 0.121569
0.643137 0.415686 0.121569
0.670588 0.423529 0.121569
0.133333 0.380392 0.105882
0.137255 0.380392 0.105882
0.145098 0.380392 0.105882
0.156863 0.380392 0.109804
0.172549 0.380392 0.109804
0.192157 0.380392 0.113725
0.211765 0.384314 0.113725
0.231373 0.384314 0.117647
0.254902 0.384314 0.121569
0.278431 0.388235 0.12549
0.301961 0.388235 0.129412
0.32549 0.392157 0.129412
0.34902 0.396078 0.133333
0.376471 0.396078 0.133333
0.4 0.4 0.137255
0.427451 0.403922 0.137255
0.454902 0.407843 0.137255
0.478431 0.411765 0.133333
0.505882 0.415686 0.133333
0.533333 0.419608 0.133333
0.560784 0.427451 0.133333
0.588235 0.431373 0.129412
0.615686 0.435294 0.129412
0.643137 0.439216 0.12549
0.670588 0.447059 0.12549
0.14902 0.411765 0.113725
0.156863 0.411765 0.117647
0.164706 0.411765 0.117647
0.176471 0.415686 0.117647
0.188235 0.415686 0.117647
0.203922 0.415686 0.121569
0.223529 0.415686 0.121569
0.243137 0.415686 0.12549
0.266667 0.419608 0.129412
0.290196 0.419608 0.133333
0.313725 0.419608 0.133333
0.337255 0.423529 0.137255
0.360784 0.423529 0.141176
0.384314 0.427451 0.141176
0.411765 0.431373 0.145098
0.435294 0.435294 0.145098
0.462745 0.435294 0.145098
0.486275 0.439216 0.145098
0.513725 0.443137 0.145098
0.537255 0.447059 0.141176
0.564706 0.45098 0.141176
0.592157 0.454902 0.137255
0.615686 0.458824 0.137255
0.643137 0.462745 0.133333
0.670588 0.466667 0.129412
0.176471 0.45098 0.129412
0.180392 0.45098 0.129412
0.188235 0.45098 0.133333
0.2 0.45098 0.133333
0.211765 0.45098 0.133333
0.227451 0.454902 0.133333
0.243137 0.454902 0.137255
0.262745 0.454902 0.137255
0.282353 0.454902 0.141176
0.305882 0.458824 0.145098
0.329412 0.458824 0.145098
0.352941 0.458824 0.14902
0.376471 0.462745 0.152941
0.4 0.462745 0.156863
0.423529 0.466667 0.156863
0.45098 0.470588 0.160784
0.47451 0.47451 0.160784
0.501961 0.47451 0.160784
0.52549 0.478431 0.160784
0.552941 0.482353 0.156863
0.580392 0.486275 0.156863
0.603922 0.490196 0.156863
0.631373 0.494118 0.152941
0.658824 0.498039 0.152941
0.682353 0.501961 0.14902
0.196078 0.486275 0.141176
0.2 0.486275 0.141176
0.203922 0.486275 0.141176
0.215686 0.486275 0.141176
0.227451 0.486275 0.141176
0.239216 0.486275 0.145098
0.258824 0.486275 0.145098
0.27451 0.486275 0.145098
0.298039 0.486275 0.14902
0.317647 0.490196 0.152941
0.341176 0.490196 0.152941
0.364706 0.494118 0.156863
0.388235 0.494118 0.160784
0.411765 0.498039 0.164706
0.435294 0.498039 0.164706
0.458824 0.501961 0.168627
0.486275 0.501961 0.168627
0.509804 0.505882 0.168627
0.533333 0.509804 0.168627
0.560784 0.509804 0.168627
0.584314 0.513725 0.168627
0.611765 0.517647 0.164706
0.639216 0.521569 0.164706
0.662745 0.52549 0.164706
0.690196 0.529412 0.160784
0.211765 0.517647 0.14902
0.215686 0.517647 0.14902
0.223529 0.517647 0.14902
0.231373 0.517647 0.14902
0.243137 0.517647 0.14902
0.254902 0.517647 0.152941
0.270588 0.517647 0.152941
0.290196 0.517647 0.152941
0.309804 0.521569 0.156863
0.329412 0.521569 0.156863
0.34902 0.521569 0.160784
0.372549 0.521569 0.164706
0.396078 0.52549 0.164706
0.419608 0.52549 0.168627
0.443137 0.529412 0.172549
0.466667 0.529412 0.172549
0.490196 0.533333 0.172549
0.517647 0.533333 0.176471
0.541176 0.537255 0.176471
0.564706 0.541176 0.176471
0.592157 0.541176 0.172549
0.615686 0.545098 0.172549
0.643137 0.54902 0.172549
0.666667 0.54902 0.168627
0.694118 0.552941 0.168627
0.231373 0.54902 0.156863
0.235294 0.54902 0.156863
0.239216 0.54902 0.156863
0.247059 0.54902 0.156863
0.254902 0.54902 0.156863
0.270588 0.54902 0.156863
0.282353 0.54902 0.156863
0.301961 0.54902 0.160784
0.317647 0.54902 0.160784
0.337255 0.54902 0.160784
0.356863 0.54902 0.164706
0.380392 0.552941 0.168627
0.403922 0.552941 0.168627
0.423529 0.552941 0.168627
0.447059 0.552941 0.172549
0.470588 0.556863 0.176471
0.494118 0.556863 0.176471
0.517647 0.556863 0.176471
0.541176 0.560784 0.176471
0.568627 0.564706 0.176471
0.592157 0.564706 0.176471
0.615686 0.564706 0.176471
0.643137 0.568627 0.172549
0.666667 0.572549 0.172549
0.690196 0.572549 0.168627
0.243137 0.576471 0.160784
0.247059 0.576471 0.160784
0.25098 0.576471 0.160784
0.258824 0.576471 0.160784
0.266667 0.576471 0.160784
0.278431 0.572549 0.160784
0.294118 0.576471 0.160784
0.309804 0.576471 0.160784
0.32549 0.576471 0.160784
0.345098 0.576471 0.164706
0.364706 0.576471 0.164706
0.384314 0.576471 0.168627
0.403922 0.576471 0.168627
0.427451 0.576471 0.168627
0.45098 0.576471 0.172549
0.47451 0.576471 0.172549
0.494118 0.580392 0.172549
0.517647 0.580392 0.172549
0.541176 0.580392 0.172549
0.564706 0.580392 0.172549
0.588235 0.584314 0.172549
0.611765 0.584314 0.172549
0.635294 0.584314 0.168627
0.658824 0.588235 0.168627
0.686275 0.588235 0.164706
0.258824 0.603922 0.164706
0.262745 0.603922 0.164706
0.266667 0.603922 0.164706
0.27451 0.607843 0.168627
0.282353 0.607843 0.168627
0.294118 0.607843 0.168627
0.305882 0.607843 0.168627
0.321569 0.607843 0.168627
0.341176 0.607843 0.172549
0.356863 0.607843 0.172549
0.376471 0.607843 0.172549
0.396078 0.607843 0.176471
0.419608 0.611765 0.176471
0.443137 0.611765 0.180392
0.462745 0.611765 0.180392
0.486275 0.615686 0.184314
0.509804 0.615686 0.184314
0.533333 0.615686 0.188235
0.556863 0.619608 0.188235
0.580392 0.619608 0.188235
0.607843 0.623529 0.192157
0.631373 0.623529 0.192157
0.654902 0.627451 0.188235
0.682353 0.627451 0.188235
0.701961 0.631373 0.184314
0.278431 0.639216 0.176471
0.282353 0.639216 0.176471
0.286275 0.639216 0.176471
0.294118 0.643137 0.176471
0.301961 0.643137 0.180392
0.313725 0.643137 0.180392
0.32549 0.643137 0.180392
0.341176 0.643137 0.180392
0.356863 0.643137 0.184314
0.376471 0.643137 0.184314
0.392157 0.643137 0.184314
0.415686 0.647059 0.188235
0.435294 0.647059 0.188235
0.454902 0.647059 0.192157
0.478431 0.647059 0.192157
0.501961 0.647059 0.196078
0.52549 0.65098 0.196078
0.54902 0.65098 0.2
0.572549 0.654902 0.2
0.592157 0.654902 0.2
0.619608 0.654902 0.2
0.639216 0.654902 0.2
0.662745 0.658824 0.2
0.686275 0.658824 0.196078
0.709804 0.658824 0.196078
0.298039 0.67451 0.184314
0.301961 0.67451 0.184314
0.305882 0.67451 0.188235
0.313725 0.67451 0.188235
0.321569 0.67451 0.188235
0.329412 0.67451 0.188235
0.341176 0.67451 0.188235
0.356863 0.67451 0.188235
0.372549 0.67451 0.192157
0.388235 0.67451 0.192157
0.407843 0.678431 0.192157
0.427451 0.678431 0.196078
0.447059 0.678431 0.196078
0.466667 0.678431 0.2
0.486275 0.678431 0.2
0.509804 0.678431 0.2
0.529412 0.678431 0.2
0.552941 0.678431 0.2
0.572549 0.678431 0.2
0.596078 0.678431 0.2
0.619608 0.678431 0.2
0.643137 0.678431 0.2
0.666667 0.682353 0.2
0.690196 0.682353 0.2
0.713725 0.682353 0.196078
0.313725 0.701961 0.188235
0.313725 0.701961 0.188235
0.317647 0.701961 0.188235
0.321569 0.698039 0.188235
0.329412 0.698039 0.188235
0.337255 0.698039 0.188235
0.34902 0.698039 0.188235
0.360784 0.698039 0.188235
0.376471 0.698039 0.188235
0.392157 0.698039 0.188235
0.407843 0.698039 0.188235
0.427451 0.698039 0.188235
0.443137 0.698039 0.188235
0.466667 0.698039 0.192157
0.486275 0.698039 0.192157
0.505882 0.694118 0.192157
0.529412 0.698039 0.192157
0.54902 0.698039 0.192157
0.572549 0.698039 0.192157
0.596078 0.698039 0.192157
0.615686 0.698039 0.196078
0.639216 0.698039 0.192157
0.662745 0.698039 0.192157
0.686275 0.701961 0.196078
0.709804 0.701961 0.192157
0.313725 0.717647 0.180392
0.317647 0.717647 0.180392
0.317647 0.717647 0.180392
0.321569 0.717647 0.180392
0.329412 0.713725 0.180392
0.337255 0.713725 0.176471
0.34902 0.713725 0.176471
0.360784 0.713725 0.176471
0.372549 0.713725 0.176471
0.388235 0.713725 0.180392
0.403922 0.713725 0.180392
0.423529 0.709804 0.180392
0.439216 0.709804 0.176471
0.458824 0.709804 0.180392
0.478431 0.709804 0.180392
0.501961 0.713725 0.180392
0.521569 0.709804 0.180392
0.545098 0.713725 0.184314
0.564706 0.709804 0.180392
0.588235 0.713725 0.184314
0.611765 0.713725 0.184314
0.635294 0.713725 0.184314
0.654902 0.713725 0.184314
0.682353 0.717647 0.188235
0.709804 0.72549 0.192157
0 0.019608 0
0 0.007843 0
0 0 0.027451
0.023529 0 0.035294
0.066667 0 0.019608
0.101961 0 0.015686
0.121569 0 0.007843
0.145098 0.019608 0.003922
0.180392 0.054902 0.031373
0.203922 0.062745 0.027451
0.231373 0.070588 0.027451
0.254902 0.082353 0.027451
0.282353 0.090196 0.031373
0.309804 0.101961 0.031373
0.337255 0.109804 0.035294
0.364706 0.121569 0.039216
0.396078 0.133333 0.043137
0.423529 0.14902 0.047059
0.454902 0.160784 0.05098
0.486275 0.172549 0.054902
0.517647 0.188235 0.058824
0.54902 0.2 0.062745
0.580392 0.211765 0.062745
0.607843 0.223529 0.066667
0.639216 0.235294 0.066667
0 0.023529 0.015686
0 0.015686 0
0 0.007843 0.019608
0.003922 0 0.019608
0.05098 0 0
0.086275 0 0
0.113725 0.007843 0
0.14902 0.05098 0.019608
0.172549 0.058824 0.019608
0.196078 0.066667 0.015686
0.219608 0.07451 0.015686
0.247059 0.082353 0.019608
0.27451 0.094118 0.023529
0.301961 0.101961 0.027451
0.329412 0.113725 0.031373
0.360784 0.12549 0.035294
0.392157 0.137255 0.039216
0.419608 0.14902 0.043137
0.45098 0.160784 0.047059
0.482353 0.176471 0.05098
0.513725 0.188235 0.054902
0.545098 0.2 0.058824
0.576471 0.215686 0.062745
0.607843 0.227451 0.062745
0.635294 0.239216 0.066667
0 0.027451 0.015686
0 0.023529 0.007843
0 0.015686 0.019608
0 0.003922 0.023529
0.031373 0.007843 0.003922
0.07451 0.015686 0
0.117647 0.054902 0.019608
0.141176 0.062745 0.015686
0.164706 0.066667 0.015686
0.192157 0.07451 0.015686
0.215686 0.082353 0.015686
0.243137 0.090196 0.015686
0.270588 0.098039 0.019608
0.298039 0.109804 0.023529
0.329412 0.117647 0.027451
0.356863 0.129412 0.035294
0.388235 0.141176 0.039216
0.419608 0.152941 0.043137
0.45098 0.168627 0.047059
0.482353 0.180392 0.05098
0.513725 0.192157 0.054902
0.545098 0.203922 0.058824
0.576471 0.219608 0.062745
0.603922 0.231373 0.062745
0.635294 0.243137 0.066667
0 0.05098 0.003922
0 0.047059 0.011765
0 0.043137 0.035294
0 0.043137 0.078431
0.019608 0.05098 0.058824
0.086275 0.07451 0.054902
0.113725 0.078431 0.039216
0.141176 0.082353 0.031373
0.168627 0.090196 0.027451
0.192157 0.094118 0.027451
0.219608 0.101961 0.023529
0.247059 0.109804 0.027451
0.27451 0.117647 0.031373
0.301961 0.12549 0.031373
0.329412 0.133333 0.035294
0.360784 0.145098 0.043137
0.392157 0.156863 0.047059
0.423529 0.168627 0.047059
0.45098 0.180392 0.05098
0.482353 0.192157 0.054902
0.513725 0.203922 0.058824
0.545098 0.215686 0.062745
0.576471 0.227451 0.062745
0.603922 0.239216 0.066667
0.635294 0.25098 0.066667
0 0.101961 0.047059
0 0.101961 0.054902
0 0.101961 0.066667
0.035294 0.098039 0.086275
0.062745 0.098039 0.105882
0.090196 0.101961 0.090196
0.117647 0.105882 0.07451
0.145098 0.109804 0.058824
0.172549 0.117647 0.05098
0.2 0.121569 0.047059
0.227451 0.12549 0.047059
0.254902 0.133333 0.047059
0.282353 0.141176 0.047059
0.309804 0.14902 0.047059
0.337255 0.156863 0.05098
0.368627 0.164706 0.05098
0.4 0.176471 0.054902
0.427451 0.188235 0.058824
0.458824 0.196078 0.058824
0.490196 0.207843 0.062745
0.521569 0.219608 0.066667
0.54902 0.231373 0.066667
0.580392 0.239216 0.070588
0.607843 0.25098 0.070588
0.639216 0.258824 0.070588
0 0.133333 0.066667
0.011765 0.133333 0.070588
0.035294 0.133333 0.07451
0.058824 0.133333 0.082353
0.082353 0.133333 0.094118
0.105882 0.137255 0.101961
0.129412 0.137255 0.098039
0.156863 0.141176 0.086275
0.180392 0.145098 0.07451
0.207843 0.14902 0.070588
0.235294 0.156863 0.066667
0.262745 0.160784 0.062745
0.290196 0.168627 0.062745
0.317647 0.172549 0.062745
0.34902 0.180392 0.062745
0.376471 0.188235 0.062745
0.407843 0.2 0.066667
0.435294 0.207843 0.066667
0.466667 0.219608 0.070588
0.498039 0.227451 0.070588
0.529412 0.239216 0.07451
0.556863 0.247059 0.07451
0.588235 0.258824 0.078431
0.615686 0.266667 0.078431
0.647059 0.278431 0.082353
0 0.152941 0.062745
0.015686 0.152941 0.062745
0.035294 0.152941 0.066667
0.058824 0.152941 0.07451
0.082353 0.152941 0.082353
0.105882 0.152941 0.090196
0.129412 0.156863 0.094118
0.152941 0.160784 0.090196
0.180392 0.164706 0.086275
0.203922 0.168627 0.078431
0.231373 0.176471 0.07451
0.258824 0.180392 0.070588
0.290196 0.188235 0.066667
0.317647 0.192157 0.066667
0.345098 0.2 0.066667
0.376471 0.207843 0.066667
0.407843 0.215686 0.070588
0.435294 0.227451 0.070588
0.466667 0.235294 0.07451
0.498039 0.247059 0.07451
0.52549 0.254902 0.078431
0.556863 0.262745 0.078431
0.588235 0.27451 0.082353
0.615686 0.282353 0.082353
0.647059 0.294118 0.086275
0.007843 0.176471 0.062745
0.019608 0.176471 0.062745
0.039216 0.176471 0.066667
0.062745 0.176471 0.070588
0.086275 0.180392 0.07451
0.109804 0.180392 0.082353
0.133333 0.180392 0.090196
0.156863 0.184314 0.094118
0.184314 0.188235 0.090196
0.207843 0.192157 0.086275
0.235294 0.2 0.082353
0.262745 0.203922 0.078431
0.290196 0.211765 0.078431
0.321569 0.215686 0.07451
0.34902 0.223529 0.07451
0.380392 0.231373 0.07451
0.407843 0.239216 0.078431
0.439216 0.247059 0.078431
0.470588 0.254902 0.078431
0.498039 0.262745 0.082353
0.529412 0.27451 0.082353
0.556863 0.282353 0.082353
0.588235 0.290196 0.086275
0.615686 0.298039 0.086275
0.647059 0.309804 0.090196
0.019608 0.207843 0.066667
0.031373 0.207843 0.070588
0.05098 0.207843 0.070588
0.07451 0.207843 0.07451
0.094118 0.207843 0.078431
0.121569 0.211765 0.086275
0.145098 0.211765 0.090196
0.168627 0.215686 0.094118
0.192157 0.219608 0.098039
0.219608 0.223529 0.098039
0.243137 0.227451 0.098039
0.270588 0.235294 0.094118
0.298039 0.239216 0.090196
0.329412 0.243137 0.090196
0.356863 0.25098 0.090196
0.384314 0.258824 0.090196
0.415686 0.266667 0.086275
0.443137 0.27451 0.090196
0.47451 0.278431 0.090196
0.501961 0.286275 0.090196
0.533333 0.294118 0.090196
0.560784 0.301961 0.090196
0.588235 0.309804 0.090196
