site/assets/luts/freshluts--0000132-music-clip.cube
# LUTr-Schema-Version: 2
# LUTr-ID: freshluts--0000132-music-clip
# LUTr-Title: Music Clip
# LUTr-Collection: Fresh LUTs
# LUTr-Collection-ID: freshluts-community
# LUTr-Source: https://freshluts.com
# LUTr-Retrieved: 2026-07-27
# LUTr-Source-File: submissions-raw/freshluts/cubes/132__MusicClip_Log_V1_CatPlectre.cube
# LUTr-Source-Format: CUBE
# LUTr-Source-SHA256: 811248f7744f2d00c98d68a06d20dc0f99d74a32f396bc65b521df8cffe3b5af
# LUTr-License: CC0-1.0
# LUTr-License-URL: https://freshluts.com/termsandconditions
# LUTr-License-Basis: site-terms
# LUTr-Transform-Class: creative-look
# LUTr-Tags: creative, freshluts, community, cube, high-contrast, blue, high-key, bmd-film
# LUTr-Input-Color-Space:
# LUTr-Input-Gamut: bmd-film-gamut
# LUTr-Input-Transfer: bmd-film
# LUTr-Output-Color-Space: srgb
# LUTr-Output-Gamut: rec709
# LUTr-Output-Transfer: srgb
# LUTr-Color-Space-Confidence: camera-profile-input-required
# LUTr-Domain-Normalized: true
# LUTr-Shaper: none
# LUTr-Original-Grid: 33x33x33
# LUTr-Conversion-Grid: 33x33x33
# LUTr-Conversion-Interpolation: none
# LUTr-Conversion-Method: Metadata normalization; numeric LUT samples preserved
# LUTr-Conversion-Tool: LUTr scripts/convert-all-to-cube.mjs 2.0.0
# LUTr-Conversion-Date: 2026-07-28
# LUTr-Asset-URL: https://freshluts.com/luts/132
# LUTr-Author: Steel Tone
# LUTr-Author-URL: https://freshluts.com/users/816
# LUTr-Attribution: Steel Tone via Fresh LUTs
# LUTr-Source-Labels: gamma=Blackmagic BMD Film; color=Blue; key=High Key; style=High contrast
# LUTr-Note: Preserve this metadata and the upstream license notices when redistributing.
TITLE "Music Clip"
LUT_3D_SIZE 5
DOMAIN_MIN 0 0 0
DOMAIN_MAX 1 1 1
0.134829 0.139605 0.13994
0.271138 0.122179 0.113359
0.44625 0.0941634 0.0941634
0.537743 0.0912184 0.0912184
0.556985 0.0902724 0.0935836
0.0921798 0.206165 0.117525
0.208103 0.211048 0.14696
0.542626 0.211307 0.071519
0.670512 0.174929 0.0738537
0.66247 0.148928 0.0816052
0.0610361 0.422522 0.125765
0.0958572 0.424979 0.112871
0.550835 0.497444 0.186816
0.822416 0.491051 0.0984207
0.91046 0.46891 0.0623636
0.0326696 0.595132 0.120745
0.0563363 0.613169 0.104448
0.544182 0.730938 0.0995499
0.848951 0.771832 0.310246
0.904875 0.77203 0.31046
0.0250553 0.672801 0.155001
0.0543984 0.708095 0.150179
0.538628 0.810162 0.130419
0.858518 0.842725 0.351324
0.916442 0.850263 0.372152
0.127214 0.128344 0.259236
0.24773 0.120211 0.304921
0.473411 0.0876478 0.250294
0.567559 0.0873121 0.213275
0.581079 0.088014 0.186007
0.0905013 0.217578 0.23444
0.203815 0.221485 0.229358
0.539178 0.204196 0.193027
0.559503 0.13492 0.149416
0.602152 0.128893 0.142931
0.053254 0.441154 0.21413
0.0878004 0.445243 0.20502
0.55108 0.502556 0.263249
0.826368 0.483986 0.12372
0.913664 0.462058 0.100572
0.0268406 0.611139 0.196094
0.0503853 0.636057 0.204852
0.534966 0.742657 0.188739
0.840055 0.767452 0.325902
0.9066 0.776211 0.35848
0.0189364 0.692332 0.248386
0.0581979 0.733562 0.279927
0.542214 0.831144 0.314549
0.863813 0.860304 0.52134
0.925704 0.877531 0.592233
0.120439 0.122255 0.36936
0.229297 0.101122 0.396292
0.46244 0.091249 0.58648
0.603693 0.0777142 0.603967
0.635096 0.0746014 0.570581
0.088838 0.19086 0.420966
0.154192 0.214511 0.468025
0.50837 0.19585 0.606958
0.601205 0.117021 0.51989
0.656931 0.110384 0.493584
0.0258183 0.500908 0.5897
0.0594186 0.50605 0.579446
0.564889 0.551827 0.570367
0.863554 0.51696 0.529595
0.935378 0.500511 0.523339
0.0157778 0.680507 0.563287
0.046479 0.702327 0.569497
0.501534 0.793271 0.572457
0.852964 0.820218 0.665141
0.928756 0.829679 0.662242
0.0196078 0.744015 0.57557
0.0631266 0.784527 0.602411
0.529229 0.866194 0.629313
0.87599 0.901808 0.741802
0.935286 0.918151 0.818219
0.117647 0.119768 0.408789
0.212528 0.100465 0.441596
0.460517 0.0944076 0.631769
0.585138 0.0850843 0.749615
0.622751 0.0810864 0.753338
0.0847028 0.15584 0.422751
0.144793 0.18938 0.526299
0.504036 0.169863 0.651041
0.579965 0.123888 0.732143
0.645243 0.113588 0.746456
0.0221866 0.497063 0.788846
0.0539712 0.502922 0.794141
0.531106 0.559274 0.82089
0.82884 0.533944 0.899184
0.921874 0.512184 0.906432
0.0170291 0.703578 0.821103
0.0478981 0.724849 0.827192
0.452796 0.814404 0.825788
0.862348 0.855268 0.845975
0.947875 0.86099 0.850706
0.0214694 0.764675 0.812024
0.0672618 0.804303 0.824781
0.512123 0.88365 0.829541
0.881071 0.927306 0.87422
0.945815 0.940429 0.916228
0.11751 0.119646 0.410681
0.20148 0.101701 0.440497
0.465248 0.0918441 0.613092
0.575219 0.0872816 0.774609
0.615549 0.0836194 0.792432
0.0847334 0.149233 0.427268
0.140749 0.177646 0.530541
0.485206 0.166125 0.680262
0.564736 0.126513 0.776913
0.632181 0.116823 0.806806
0.0244755 0.484672 0.834821
0.0556649 0.489036 0.843061
0.508385 0.550912 0.886091
0.812848 0.537148 0.951064
0.891997 0.517555 0.997269
0.0167391 0.70045 0.891066
0.0485237 0.723659 0.899001
0.432883 0.813962 0.897993
0.859342 0.859388 0.916182
0.944213 0.865995 0.932784
0.021622 0.765911 0.885267
0.0702525 0.807065 0.89482
0.515297 0.886168 0.893538
0.884642 0.930846 0.920378
0.950042 0.945525 0.938903
