site/assets/luts/freshluts--0000340-tealing-blue.cube
# LUTr-Schema-Version: 2
# LUTr-ID: freshluts--0000340-tealing-blue
# LUTr-Title: Tealing Blue
# LUTr-Collection: Fresh LUTs
# LUTr-Collection-ID: freshluts-community
# LUTr-Source: https://freshluts.com
# LUTr-Retrieved: 2026-07-27
# LUTr-Source-File: submissions-raw/freshluts/cubes/340__TEAL.cube
# LUTr-Source-Format: CUBE
# LUTr-Source-SHA256: c3a14dad459e41cc5d5a8d8447420209723fbf77376ad295988d3cb5e55ed2ca
# LUTr-License: CC0-1.0
# LUTr-License-URL: https://freshluts.com/termsandconditions
# LUTr-License-Basis: site-terms
# LUTr-Transform-Class: creative-look
# LUTr-Tags: creative, freshluts, community, cube, cinematic, blockbuster, warm, cool, rec709, assumed-input
# LUTr-Input-Color-Space: rec709
# LUTr-Input-Gamut: rec709
# LUTr-Input-Transfer: rec709
# LUTr-Output-Color-Space: srgb
# LUTr-Output-Gamut: rec709
# LUTr-Output-Transfer: srgb
# LUTr-Color-Space-Confidence: assumed-display-referred
# LUTr-Domain-Normalized: true
# LUTr-Shaper: none
# LUTr-Original-Grid: 32x32x32
# LUTr-Conversion-Grid: 32x32x32
# LUTr-Conversion-Interpolation: none
# LUTr-Conversion-Method: Metadata normalization; numeric LUT samples preserved
# LUTr-Conversion-Tool: LUTr scripts/convert-all-to-cube.mjs 2.0.0
# LUTr-Conversion-Date: 2026-07-28
# LUTr-Asset-URL: https://freshluts.com/luts/340
# LUTr-Author: I WANT TO MAKE A FILM PODCAST
# LUTr-Author-URL: https://freshluts.com/users/15633
# LUTr-Attribution: I WANT TO MAKE A FILM PODCAST via Fresh LUTs
# LUTr-Source-Labels: gamma=Other; color=Warm; key=Neutral; style=Blockbuster; LUTr assumption=input Rec.709 per repository policy
# LUTr-Conversion-Warning: Input Rec.709 is a LUTr catalog assumption requested for this otherwise unspecified Fresh LUT; it is not verified by the upstream asset.
# LUTr-Note: Preserve this metadata and the upstream license notices when redistributing.
# LUTr-Upstream-Comment: Created by: Adobe Photoshop Export Color Lookup Plugin
# LUTr-Upstream-Comment: LUT size
# LUTr-Upstream-Comment: data domain
# LUTr-Upstream-Comment: LUT data points
TITLE "Tealing Blue"
LUT_3D_SIZE 5
DOMAIN_MIN 0.000000 0.000000 0.000000
DOMAIN_MAX 0.903226 0.903226 0.903226
0.037384 0.049469 0.059326
0.229767 0.079712 0.087341
0.72171 0.220428 0.196075
0.979828 0.381622 0.30777
0.981598 0.421783 0.321686
0.066498 0.139587 0.060608
0.236969 0.155273 0.083374
0.745209 0.331299 0.207947
0.986664 0.476471 0.311249
0.9823 0.500793 0.320953
0.178406 0.42038 0.131805
0.260559 0.457642 0.154053
0.721893 0.494141 0.28595
0.966583 0.614532 0.374878
0.964722 0.63205 0.384674
0.345673 0.711487 0.259125
0.366028 0.743408 0.274933
0.782471 0.724884 0.393036
0.944305 0.745422 0.457825
0.958984 0.762665 0.468689
0.396362 0.790314 0.298462
0.415405 0.819061 0.31311
0.850098 0.828918 0.428864
0.951599 0.804504 0.482269
0.97287 0.818817 0.494446
0.032257 0.075653 0.113403
0.085754 0.044525 0.171234
0.637299 0.188416 0.267792
0.961975 0.36026 0.385651
0.968536 0.38504 0.392426
0.058563 0.122589 0.144501
0.110413 0.149506 0.157227
0.646332 0.289154 0.218567
0.977173 0.453674 0.339478
0.984344 0.490662 0.355194
0.170868 0.406128 0.141785
0.191742 0.451019 0.141449
0.639587 0.467773 0.267822
0.957855 0.610046 0.371857
0.965118 0.630127 0.383331
0.346069 0.712189 0.259491
0.368713 0.747589 0.276978
0.785339 0.765961 0.389008
0.93634 0.751251 0.45755
0.960297 0.768219 0.471161
0.398987 0.79425 0.300476
0.419586 0.825562 0.316467
0.843964 0.856781 0.426971
0.945435 0.812103 0.483368
0.974731 0.826019 0.497833
0.015533 0.179932 0.300568
0.013184 0.187714 0.32785
0.430756 0.108063 0.546509
0.877167 0.256287 0.626831
0.938904 0.300995 0.645477
0.021454 0.180573 0.322693
0.016998 0.202087 0.2836
0.406921 0.178864 0.51825
0.891968 0.364655 0.608612
0.953918 0.413147 0.62796
0.101837 0.33551 0.413544
0.134613 0.351532 0.431427
0.448792 0.51123 0.475677
0.916656 0.636322 0.5466
0.980103 0.66687 0.56073
0.315613 0.67984 0.498322
0.344757 0.730957 0.494293
0.558624 0.812012 0.462646
0.895752 0.771057 0.500488
0.962524 0.784851 0.521851
0.380005 0.789246 0.510193
0.405304 0.830292 0.503143
0.595734 0.890106 0.471069
0.916351 0.840942 0.505249
0.978668 0.843506 0.52124
0 0.401642 0.648529
0 0.396423 0.639923
0.107666 0.13205 0.730408
0.805756 0.248688 0.891022
0.900909 0.276855 0.900208
0.010895 0.388885 0.640106
0 0.375305 0.598511
0.101685 0.121063 0.709167
0.808228 0.293701 0.868469
0.903931 0.340668 0.875916
0.038086 0.436981 0.619049
0.04776 0.479523 0.611511
0.340759 0.496674 0.678284
0.847046 0.597137 0.836731
0.937927 0.637543 0.842255
0.27774 0.626556 0.749664
0.310242 0.647552 0.757111
0.540863 0.768127 0.780029
0.893127 0.861877 0.821655
0.987091 0.88913 0.829956
0.353149 0.713562 0.774353
0.381866 0.75647 0.770721
0.566254 0.851898 0.785858
0.931152 0.94342 0.818146
0.987396 0.924133 0.818909
0.004486 0.400818 0.651215
0.003693 0.400879 0.650787
0.110748 0.164551 0.748962
0.804169 0.253357 0.941071
0.888763 0.281097 0.945557
0.016479 0.398529 0.657318
0.000854 0.401398 0.649384
0.107513 0.175842 0.741974
0.805054 0.275787 0.941223
0.891296 0.323792 0.946167
0.039368 0.434052 0.670197
0.041718 0.483612 0.672729
0.290436 0.481293 0.750305
0.79599 0.546173 0.937927
0.922058 0.621368 0.958954
0.258057 0.677795 0.810791
0.289429 0.695618 0.829498
0.526398 0.785645 0.871124
0.870636 0.888641 0.921082
0.981171 0.902954 0.946808
0.336029 0.722809 0.858856
0.364105 0.73941 0.877228
0.569458 0.836151 0.89444
0.901306 0.945831 0.936249
0.995087 0.964905 0.942749
