site/assets/luts/freshluts--0000872-picturefx-acros-400-infrared.cube
# LUTr-Schema-Version: 2
# LUTr-ID: freshluts--0000872-picturefx-acros-400-infrared
# LUTr-Title: PictureFX Acros 400 InfraRed
# LUTr-Collection: Fresh LUTs
# LUTr-Collection-ID: freshluts-community
# LUTr-Source: https://freshluts.com
# LUTr-Retrieved: 2026-07-27
# LUTr-Source-File: submissions-raw/freshluts/cubes/872__PictureFX-Acros-400-IR.cube
# LUTr-Source-Format: CUBE
# LUTr-Source-SHA256: 799441fc3a52522963fa500339394bc8a5bbb09f9943a91b2b1ad23ca8663dba
# LUTr-License: CC0-1.0
# LUTr-License-URL: https://freshluts.com/termsandconditions
# LUTr-License-Basis: site-terms
# LUTr-Transform-Class: creative-look
# LUTr-Tags: creative, freshluts, community, cube, film-emulation, black-and-white, rec709, assumed-input
# LUTr-Input-Color-Space: rec709
# LUTr-Input-Gamut: rec709
# LUTr-Input-Transfer: rec709
# LUTr-Output-Color-Space: srgb
# LUTr-Output-Gamut: rec709
# LUTr-Output-Transfer: srgb
# LUTr-Color-Space-Confidence: assumed-display-referred
# LUTr-Domain-Normalized: true
# LUTr-Shaper: none
# LUTr-Original-Grid: 25x25x25
# LUTr-Conversion-Grid: 25x25x25
# LUTr-Conversion-Interpolation: none
# LUTr-Conversion-Method: Metadata normalization; numeric LUT samples preserved
# LUTr-Conversion-Tool: LUTr scripts/convert-all-to-cube.mjs 2.0.0
# LUTr-Conversion-Date: 2026-07-28
# LUTr-Asset-URL: https://freshluts.com/luts/872
# LUTr-Author: MarcR.
# LUTr-Author-URL: https://freshluts.com/users/86490
# LUTr-Attribution: MarcR. via Fresh LUTs
# LUTr-Source-Labels: gamma=Other; color=None; key=Neutral; style=Film emulation; LUTr assumption=input Rec.709 per repository policy
# LUTr-Conversion-Warning: Input Rec.709 is a LUTr catalog assumption requested for this otherwise unspecified Fresh LUT; it is not verified by the upstream asset.
# LUTr-Note: Preserve this metadata and the upstream license notices when redistributing.
# LUTr-Upstream-Comment: Generated with IWLTBAP LUT Generator
# LUTr-Upstream-Comment: Website: http://luts.iwltbap.com
# LUTr-Upstream-Comment: LUT size
# LUTr-Upstream-Comment: LUT data points
TITLE "PictureFX Acros 400 InfraRed"
LUT_3D_SIZE 25
DOMAIN_MIN 0 0 0
DOMAIN_MAX 1 1 1
0 0 0
0 0 0
0 0 0
0 0 0
0 0 0
0.007843 0.007843 0.007843
0.019608 0.019608 0.019608
0.027451 0.027451 0.027451
0.094118 0.094118 0.094118
0.203922 0.203922 0.203922
0.305882 0.305882 0.305882
0.372549 0.372549 0.372549
0.4 0.4 0.4
0.4 0.4 0.4
0.4 0.4 0.4
0.4 0.4 0.4
0.4 0.4 0.4
0.4 0.4 0.4
0.4 0.4 0.4
0.4 0.4 0.4
0.4 0.4 0.4
0.4 0.4 0.4
0.4 0.4 0.4
0.4 0.4 0.4
0.4 0.4 0.4
0 0 0
0 0 0
0.003922 0.003922 0.003922
0.003922 0.003922 0.003922
0.011765 0.011765 0.011765
0.023529 0.023529 0.023529
0.054902 0.054902 0.054902
0.090196 0.090196 0.090196
0.101961 0.101961 0.101961
0.211765 0.211765 0.211765
0.313725 0.313725 0.313725
0.372549 0.372549 0.372549
0.4 0.4 0.4
0.4 0.4 0.4
0.4 0.4 0.4
0.4 0.4 0.4
0.4 0.4 0.4
0.4 0.4 0.4
0.4 0.4 0.4
0.4 0.4 0.4
0.4 0.4 0.4
0.4 0.4 0.4
0.4 0.4 0.4
0.4 0.4 0.4
0.4 0.4 0.4
0.019608 0.019608 0.019608
0.019608 0.019608 0.019608
0.023529 0.023529 0.023529
0.027451 0.027451 0.027451
0.035294 0.035294 0.035294
0.05098 0.05098 0.05098
0.086275 0.086275 0.086275
0.133333 0.133333 0.133333
0.192157 0.192157 0.192157
0.219608 0.219608 0.219608
0.317647 0.317647 0.317647
0.376471 0.376471 0.376471
0.4 0.4 0.4
0.4 0.4 0.4
0.4 0.4 0.4
0.4 0.4 0.4
0.4 0.4 0.4
0.4 0.4 0.4
0.4 0.4 0.4
0.4 0.4 0.4
0.4 0.4 0.4
0.4 0.4 0.4
0.4 0.4 0.4
0.4 0.4 0.4
0.4 0.4 0.4
0.058824 0.058824 0.058824
0.058824 0.058824 0.058824
0.062745 0.062745 0.062745
0.066667 0.066667 0.066667
0.07451 0.07451 0.07451
0.086275 0.086275 0.086275
0.129412 0.129412 0.129412
0.184314 0.184314 0.184314
0.270588 0.270588 0.270588
0.290196 0.290196 0.290196
0.329412 0.329412 0.329412
0.380392 0.380392 0.380392
0.4 0.4 0.4
0.4 0.4 0.4
0.4 0.4 0.4
0.4 0.4 0.4
0.4 0.4 0.4
0.4 0.4 0.4
0.4 0.4 0.4
0.4 0.4 0.4
0.4 0.4 0.4
0.4 0.4 0.4
0.4 0.4 0.4
0.4 0.4 0.4
0.4 0.4 0.4
0.117647 0.117647 0.117647
0.121569 0.121569 0.121569
0.121569 0.121569 0.121569
0.12549 0.12549 0.12549
0.133333 0.133333 0.133333
0.14902 0.14902 0.14902
0.184314 0.184314 0.184314
0.247059 0.247059 0.247059
0.345098 0.345098 0.345098
0.407843 0.407843 0.407843
0.360784 0.360784 0.360784
0.384314 0.384314 0.384314
0.4 0.4 0.4
0.4 0.4 0.4
0.4 0.4 0.4
0.4 0.4 0.4
0.4 0.4 0.4
0.4 0.4 0.4
0.4 0.4 0.4
0.4 0.4 0.4
0.4 0.4 0.4
0.4 0.4 0.4
0.4 0.4 0.4
0.4 0.4 0.4
0.4 0.4 0.4
0.196078 0.196078 0.196078
0.196078 0.196078 0.196078
0.2 0.2 0.2
0.203922 0.203922 0.203922
0.203922 0.203922 0.203922
0.223529 0.223529 0.223529
0.247059 0.247059 0.247059
0.333333 0.333333 0.333333
0.431373 0.431373 0.431373
0.490196 0.490196 0.490196
0.509804 0.509804 0.509804
0.462745 0.462745 0.462745
0.4 0.4 0.4
0.4 0.4 0.4
0.4 0.4 0.4
0.4 0.4 0.4
0.4 0.4 0.4
0.4 0.4 0.4
0.4 0.4 0.4
0.4 0.4 0.4
0.4 0.4 0.4
0.4 0.4 0.4
0.4 0.4 0.4
0.4 0.4 0.4
0.4 0.4 0.4
0.290196 0.290196 0.290196
0.294118 0.294118 0.294118
0.294118 0.294118 0.294118
0.298039 0.298039 0.298039
0.301961 0.301961 0.301961
0.321569 0.321569 0.321569
0.341176 0.341176 0.341176
0.454902 0.454902 0.454902
0.541176 0.541176 0.541176
0.584314 0.584314 0.584314
0.592157 0.592157 0.596078
0.584314 0.584314 0.584314
0.529412 0.529412 0.529412
0.4 0.4 0.4
0.4 0.4 0.4
0.4 0.4 0.4
0.4 0.4 0.4
0.4 0.4 0.4
0.4 0.4 0.4
0.4 0.4 0.4
0.4 0.4 0.4
0.4 0.4 0.4
0.4 0.4 0.4
0.4 0.4 0.4
0.4 0.4 0.4
0.454902 0.454902 0.454902
0.454902 0.454902 0.454902
0.454902 0.454902 0.454902
0.454902 0.454902 0.454902
0.466667 0.466667 0.466667
0.486275 0.486275 0.486275
0.517647 0.517647 0.517647
0.623529 0.623529 0.623529
0.686275 0.686275 0.686275
0.709804 0.709804 0.709804
0.694118 0.694118 0.698039
0.670588 0.670588 0.670588
0.623529 0.623529 0.623529
0.572549 0.572549 0.572549
0.521569 0.521569 0.521569
0.419608 0.419608 0.419608
0.4 0.4 0.4
0.4 0.4 0.4
0.4 0.4 0.4
0.4 0.4 0.4
0.4 0.4 0.4
0.4 0.4 0.4
0.4 0.4 0.4
0.4 0.4 0.4
0.4 0.4 0.4
0.65098 0.65098 0.65098
0.65098 0.65098 0.65098
0.65098 0.65098 0.65098
0.65098 0.65098 0.65098
0.666667 0.670588 0.670588
0.698039 0.698039 0.698039
0.729412 0.729412 0.729412
0.796078 0.796078 0.796078
0.839216 0.839216 0.839216
0.847059 0.847059 0.847059
0.827451 0.827451 0.827451
0.780392 0.780392 0.780392
0.717647 0.717647 0.717647
0.666667 0.666667 0.666667
0.623529 0.623529 0.623529
0.588235 0.588235 0.588235
0.556863 0.556863 0.556863
0.533333 0.533333 0.533333
0.509804 0.509804 0.509804
0.486275 0.486275 0.486275
0.470588 0.470588 0.470588
0.470588 0.470588 0.470588
0.486275 0.486275 0.486275
0.505882 0.505882 0.505882
0.52549 0.52549 0.52549
0.823529 0.823529 0.823529
0.823529 0.823529 0.823529
0.823529 0.823529 0.823529
0.839216 0.839216 0.839216
0.858824 0.862745 0.862745
0.886275 0.886275 0.886275
0.913725 0.913725 0.913725
0.956863 0.956863 0.956863
0.976471 0.976471 0.976471
0.972549 0.972549 0.972549
0.952941 0.952941 0.952941
0.909804 0.909804 0.909804
0.847059 0.847059 0.847059
0.780392 0.780392 0.780392
0.729412 0.729412 0.729412
0.690196 0.690196 0.690196
0.658824 0.658824 0.658824
0.639216 0.639216 0.639216
0.623529 0.623529 0.623529
0.611765 0.611765 0.611765
0.607843 0.607843 0.607843
0.603922 0.603922 0.603922
0.607843 0.607843 0.607843
0.611765 0.611765 0.611765
0.619608 0.619608 0.619608
0.996078 0.996078 0.996078
1 1 1
1 1 1
1 1 1
1 1 1
1 1 1
1 1 1
1 1 1
1 1 1
1 1 1
1 1 1
1 1 1
0.964706 0.964706 0.964706
0.913725 0.913725 0.913725
0.866667 0.866667 0.866667
0.819608 0.819608 0.819608
0.784314 0.784314 0.784314
0.752941 0.752941 0.752941
0.733333 0.733333 0.733333
0.721569 0.721569 0.721569
0.709804 0.709804 0.709804
0.705882 0.705882 0.705882
0.705882 0.705882 0.705882
0.709804 0.709804 0.709804
0.713725 0.713725 0.713725
1 1 1
1 1 1
1 1 1
1 1 1
1 1 1
1 1 1
1 1 1
1 1 1
1 1 1
1 1 1
1 1 1
1 1 1
1 1 1
1 1 1
0.988235 0.988235 0.988235
0.952941 0.952941 0.952941
0.92549 0.92549 0.92549
0.898039 0.898039 0.898039
0.878431 0.878431 0.878431
0.858824 0.858824 0.858824
0.847059 0.847059 0.847059
0.839216 0.839216 0.839216
0.835294 0.835294 0.835294
0.835294 0.835294 0.835294
0.839216 0.839216 0.839216
1 1 1
1 1 1
1 1 1
1 1 1
1 1 1
1 1 1
1 1 1
1 1 1
1 1 1
1 1 1
1 1 1
1 1 1
1 1 1
1 1 1
1 1 1
1 1 1
1 1 1
1 1 1
0.996078 0.996078 0.996078
0.984314 0.984314 0.984314
0.972549 0.972549 0.972549
0.964706 0.964706 0.964706
0.960784 0.960784 0.960784
0.956863 0.956863 0.956863
0.960784 0.960784 0.960784
1 1 1
1 1 1
1 1 1
1 1 1
1 1 1
1 1 1
1 1 1
1 1 1
1 1 1
1 1 1
1 1 1
1 1 1
1 1 1
1 1 1
1 1 1
1 1 1
1 1 1
1 1 1
1 1 1
1 1 1
1 1 1
1 1 1
1 1 1
1 1 1
1 1 1
1 1 1
1 1 1
1 1 1
1 1 1
1 1 1
1 1 1
1 1 1
1 1 1
1 1 1
1 1 1
1 1 1
1 1 1
1 1 1
1 1 1
1 1 1
1 1 1
1 1 1
1 1 1
1 1 1
1 1 1
1 1 1
1 1 1
1 1 1
1 1 1
1 1 1
1 1 1
1 1 1
1 1 1
1 1 1
1 1 1
1 1 1
1 1 1
1 1 1
1 1 1
1 1 1
1 1 1
1 1 1
1 1 1
1 1 1
1 1 1
1 1 1
1 1 1
1 1 1
1 1 1
1 1 1
1 1 1
1 1 1
1 1 1
1 1 1
1 1 1
1 1 1
1 1 1
1 1 1
1 1 1
1 1 1
1 1 1
1 1 1
1 1 1
1 1 1
1 1 1
1 1 1
1 1 1
1 1 1
1 1 1
1 1 1
1 1 1
1 1 1
1 1 1
1 1 1
1 1 1
1 1 1
1 1 1
1 1 1
1 1 1
1 1 1
1 1 1
1 1 1
1 1 1
1 1 1
1 1 1
1 1 1
1 1 1
1 1 1
1 1 1
1 1 1
1 1 1
1 1 1
1 1 1
1 1 1
1 1 1
1 1 1
1 1 1
1 1 1
1 1 1
1 1 1
1 1 1
1 1 1
1 1 1
1 1 1
1 1 1
1 1 1
1 1 1
1 1 1
1 1 1
1 1 1
1 1 1
1 1 1
1 1 1
1 1 1
1 1 1
1 1 1
1 1 1
1 1 1
1 1 1
1 1 1
1 1 1
1 1 1
1 1 1
1 1 1
1 1 1
1 1 1
1 1 1
1 1 1
1 1 1
1 1 1
1 1 1
1 1 1
1 1 1
1 1 1
1 1 1
1 1 1
1 1 1
1 1 1
1 1 1
1 1 1
1 1 1
1 1 1
1 1 1
1 1 1
1 1 1
1 1 1
1 1 1
1 1 1
1 1 1
1 1 1
1 1 1
1 1 1
1 1 1
1 1 1
1 1 1
1 1 1
1 1 1
1 1 1
1 1 1
1 1 1
1 1 1
1 1 1
1 1 1
1 1 1
1 1 1
1 1 1
1 1 1
1 1 1
1 1 1
1 1 1
1 1 1
1 1 1
1 1 1
1 1 1
1 1 1
1 1 1
1 1 1
1 1 1
1 1 1
1 1 1
1 1 1
1 1 1
1 1 1
1 1 1
1 1 1
1 1 1
1 1 1
1 1 1
1 1 1
1 1 1
1 1 1
1 1 1
1 1 1
1 1 1
1 1 1
1 1 1
1 1 1
1 1 1
1 1 1
1 1 1
1 1 1
1 1 1
1 1 1
1 1 1
1 1 1
1 1 1
1 1 1
1 1 1
1 1 1
1 1 1
1 1 1
1 1 1
1 1 1
1 1 1
1 1 1
1 1 1
1 1 1
1 1 1
1 1 1
1 1 1
1 1 1
1 1 1
1 1 1
1 1 1
1 1 1
1 1 1
1 1 1
1 1 1
1 1 1
1 1 1
1 1 1
1 1 1
1 1 1
1 1 1
1 1 1
1 1 1
1 1 1
1 1 1
1 1 1
1 1 1
1 1 1
1 1 1
1 1 1
1 1 1
1 1 1
1 1 1
1 1 1
1 1 1
1 1 1
1 1 1
1 1 1
1 1 1
1 1 1
1 1 1
1 1 1
1 1 1
1 1 1
1 1 1
1 1 1
1 1 1
1 1 1
1 1 1
1 1 1
1 1 1
1 1 1
1 1 1
1 1 1
1 1 1
1 1 1
1 1 1
1 1 1
1 1 1
1 1 1
1 1 1
1 1 1
1 1 1
1 1 1
1 1 1
1 1 1
1 1 1
0 0 0
0 0 0
0 0 0
0 0 0
0 0 0
0 0 0
0.003922 0.003922 0.003922
0.027451 0.027451 0.027451
0.098039 0.098039 0.098039
0.211765 0.211765 0.211765
0.309804 0.309804 0.309804
0.372549 0.372549 0.372549
0.4 0.4 0.4
0.4 0.4 0.4
0.4 0.4 0.4
0.4 0.4 0.4
0.4 0.4 0.4
0.4 0.4 0.4
0.4 0.4 0.4
0.4 0.4 0.4
0.4 0.4 0.4
0.4 0.4 0.4
0.4 0.4 0.4
0.4 0.4 0.4
0.4 0.4 0.4
0 0 0
0 0 0
0 0 0
0 0 0
0.007843 0.007843 0.007843
0.015686 0.015686 0.015686
0.035294 0.035294 0.035294
0.035294 0.035294 0.035294
0.109804 0.109804 0.109804
0.215686 0.215686 0.215686
0.317647 0.317647 0.317647
0.376471 0.376471 0.376471
0.4 0.4 0.4
0.4 0.4 0.4
0.4 0.4 0.4
0.4 0.4 0.4
0.4 0.4 0.4
0.4 0.4 0.4
0.4 0.4 0.4
0.4 0.4 0.4
0.4 0.4 0.4
0.4 0.4 0.4
0.4 0.4 0.4
0.4 0.4 0.4
0.4 0.4 0.4
0.011765 0.011765 0.011765
0.011765 0.011765 0.011765
0.015686 0.015686 0.015686
0.023529 0.023529 0.023529
0.027451 0.027451 0.027451
0.043137 0.043137 0.043137
0.082353 0.082353 0.082353
0.117647 0.117647 0.117647
0.121569 0.121569 0.121569
0.223529 0.223529 0.223529
0.321569 0.321569 0.321569
0.376471 0.376471 0.376471
0.4 0.4 0.4
0.4 0.4 0.4
0.4 0.4 0.4
0.4 0.4 0.4
0.4 0.4 0.4
0.4 0.4 0.4
0.4 0.4 0.4
0.4 0.4 0.4
0.4 0.4 0.4
0.4 0.4 0.4
0.4 0.4 0.4
0.4 0.4 0.4
0.4 0.4 0.4
0.039216 0.039216 0.039216
0.043137 0.043137 0.043137
0.05098 0.05098 0.05098
0.058824 0.058824 0.058824
0.066667 0.066667 0.066667
0.086275 0.086275 0.086275
0.129412 0.129412 0.129412
0.180392 0.180392 0.180392
0.25098 0.25098 0.25098
0.235294 0.235294 0.235294
0.329412 0.329412 0.329412
0.380392 0.380392 0.380392
0.4 0.4 0.4
0.4 0.4 0.4
0.4 0.4 0.4
0.4 0.4 0.4
0.4 0.4 0.4
0.4 0.4 0.4
0.4 0.4 0.4
0.4 0.4 0.4
0.4 0.4 0.4
0.4 0.4 0.4
0.4 0.4 0.4
0.4 0.4 0.4
0.4 0.4 0.4
0.105882 0.105882 0.105882
0.113725 0.113725 0.113725
0.121569 0.121569 0.121569
0.129412 0.129412 0.129412
0.133333 0.133333 0.133333
0.14902 0.14902 0.14902
0.184314 0.184314 0.184314
0.243137 0.243137 0.243137
0.333333 0.333333 0.333333
0.388235 0.388235 0.388235
0.337255 0.337255 0.337255
0.384314 0.384314 0.384314
0.4 0.4 0.4
0.4 0.4 0.4
0.4 0.4 0.4
0.4 0.4 0.4
0.4 0.4 0.4
0.4 0.4 0.4
0.4 0.4 0.4
0.4 0.4 0.4
0.4 0.4 0.4
0.4 0.4 0.4
0.4 0.4 0.4
0.4 0.4 0.4
0.4 0.4 0.4
0.196078 0.196078 0.196078
0.2 0.2 0.2
0.2 0.2 0.2
0.203922 0.203922 0.203922
0.207843 0.207843 0.207843
0.227451 0.227451 0.227451
0.25098 0.25098 0.25098
0.333333 0.333333 0.333333
0.423529 0.423529 0.423529
0.478431 0.478431 0.478431
0.490196 0.490196 0.490196
0.403922 0.403922 0.403922
0.4 0.4 0.4
0.4 0.4 0.4
0.4 0.4 0.4
0.4 0.4 0.4
0.4 0.4 0.4
0.4 0.4 0.4
0.4 0.4 0.4
0.4 0.4 0.4
0.4 0.4 0.4
0.4 0.4 0.4
0.4 0.4 0.4
0.4 0.4 0.4
0.4 0.4 0.4
0.294118 0.294118 0.294118
0.294118 0.294118 0.294118
0.298039 0.298039 0.298039
0.298039 0.298039 0.298039
0.301961 0.301961 0.301961
0.321569 0.321569 0.321569
0.345098 0.345098 0.345098
0.454902 0.454902 0.454902
0.533333 0.533333 0.533333
0.572549 0.572549 0.572549
0.580392 0.580392 0.580392
0.568627 0.568627 0.568627
0.505882 0.505882 0.505882
0.4 0.4 0.4
0.4 0.4 0.4
0.4 0.4 0.4
0.4 0.4 0.4
0.4 0.4 0.4
0.4 0.4 0.4
0.4 0.4 0.4
0.4 0.4 0.4
0.4 0.4 0.4
0.4 0.4 0.4
0.4 0.4 0.4
0.4 0.4 0.4
0.454902 0.454902 0.454902
0.458824 0.458824 0.458824
0.458824 0.458824 0.458824
0.458824 0.458824 0.458824
0.466667 0.466667 0.466667
0.490196 0.490196 0.490196
0.521569 0.521569 0.521569
0.619608 0.619608 0.619608
0.678431 0.678431 0.678431
0.694118 0.694118 0.694118
0.682353 0.682353 0.682353
0.658824 0.658824 0.658824
0.611765 0.611765 0.611765
0.560784 0.560784 0.560784
0.501961 0.501961 0.501961
0.4 0.4 0.4
0.4 0.4 0.4
0.4 0.4 0.4
0.4 0.4 0.4
0.4 0.4 0.4
0.4 0.4 0.4
0.4 0.4 0.4
0.4 0.4 0.4
0.4 0.4 0.4
0.4 0.4 0.4
0.654902 0.654902 0.654902
0.65098 0.65098 0.65098
0.65098 0.65098 0.65098
0.65098 0.65098 0.65098
0.670588 0.670588 0.670588
0.698039 0.698039 0.698039
0.729412 0.729412 0.729412
0.792157 0.792157 0.792157
0.831373 0.835294 0.835294
0.839216 0.839216 0.839216
0.815686 0.815686 0.815686
0.768627 0.768627 0.768627
0.705882 0.705882 0.705882
0.654902 0.654902 0.654902
0.615686 0.615686 0.615686
0.580392 0.580392 0.580392
0.552941 0.552941 0.552941
0.52549 0.52549 0.52549
0.501961 0.501961 0.501961
0.482353 0.482353 0.482353
0.466667 0.466667 0.466667
0.470588 0.470588 0.470588
0.490196 0.490196 0.490196
0.509804 0.509804 0.509804
0.533333 0.533333 0.533333
0.827451 0.827451 0.827451
0.823529 0.823529 0.823529
0.823529 0.823529 0.823529
0.839216 0.839216 0.839216
0.862745 0.862745 0.862745
0.886275 0.886275 0.886275
0.913725 0.913725 0.913725
0.956863 0.956863 0.956863
0.972549 0.972549 0.972549
0.968627 0.968627 0.968627
0.945098 0.945098 0.945098
0.898039 0.898039 0.898039
0.835294 0.835294 0.835294
0.772549 0.772549 0.772549
0.721569 0.721569 0.721569
0.682353 0.682353 0.682353
0.654902 0.654902 0.654902
0.635294 0.635294 0.635294
0.623529 0.623529 0.623529
0.611765 0.611765 0.611765
0.607843 0.607843 0.607843
0.607843 0.607843 0.607843
0.607843 0.607843 0.607843
0.615686 0.615686 0.615686
0.623529 0.623529 0.623529
0.996078 0.996078 0.996078
1 1 1
1 1 1
1 1 1
1 1 1
1 1 1
1 1 1
1 1 1
1 1 1
1 1 1
1 1 1
1 1 1
0.960784 0.960784 0.960784
0.909804 0.909804 0.909804
0.862745 0.862745 0.862745
0.815686 0.815686 0.815686
0.780392 0.780392 0.780392
0.752941 0.752941 0.752941
0.733333 0.733333 0.733333
0.721569 0.721569 0.721569
0.709804 0.709804 0.713725
0.709804 0.709804 0.709804
0.709804 0.709804 0.709804
0.709804 0.709804 0.713725
0.721569 0.721569 0.721569
