site/assets/luts/freshluts--0002098-double-coconut.cube
# LUTr-Schema-Version: 2
# LUTr-ID: freshluts--0002098-double-coconut
# LUTr-Title: Double Coconut
# LUTr-Collection: Fresh LUTs
# LUTr-Collection-ID: freshluts-community
# LUTr-Source: https://freshluts.com
# LUTr-Retrieved: 2026-07-27
# LUTr-Source-File: submissions-raw/freshluts/cubes/2098__Coconut.cube
# LUTr-Source-Format: CUBE
# LUTr-Source-SHA256: 96199134fa0e4a279cdf6a528cfa16847f69b70561a5653a8b89deeb7534c6c9
# LUTr-License: CC0-1.0
# LUTr-License-URL: https://freshluts.com/termsandconditions
# LUTr-License-Basis: site-terms
# LUTr-Transform-Class: creative-look
# LUTr-Tags: creative, freshluts, community, cube, green, high-key, bmd-film-4k
# LUTr-Input-Color-Space: bmd-film-4k
# LUTr-Input-Gamut: bmd-film-gamut
# LUTr-Input-Transfer: bmd-film-4k
# LUTr-Output-Color-Space: srgb
# LUTr-Output-Gamut: rec709
# LUTr-Output-Transfer: srgb
# LUTr-Color-Space-Confidence: inferred-from-source-label
# LUTr-Domain-Normalized: true
# LUTr-Shaper: none
# LUTr-Original-Grid: 16x16x16
# LUTr-Conversion-Grid: 16x16x16
# LUTr-Conversion-Interpolation: none
# LUTr-Conversion-Method: Metadata normalization; numeric LUT samples preserved
# LUTr-Conversion-Tool: LUTr scripts/convert-all-to-cube.mjs 2.0.0
# LUTr-Conversion-Date: 2026-07-28
# LUTr-Asset-URL: https://freshluts.com/luts/2098
# LUTr-Author: Gina
# LUTr-Author-URL: https://freshluts.com/users/90727
# LUTr-Attribution: Gina via Fresh LUTs
# LUTr-Source-Labels: gamma=Blackmagic BMD Film 4K; color=Green; key=High Key; style=color change
# LUTr-Note: Preserve this metadata and the upstream license notices when redistributing.
TITLE "Double Coconut"
LUT_3D_SIZE 6
DOMAIN_MIN 0 0 0
DOMAIN_MAX 1 1 1
0.023529 0.023529 0.023529
0.152941 0.02902 0.029804
0.393725 0.000784 0.020392
0.68549 0.003922 0
0.915294 0 0
1 0.003922 0.003922
0.01098 0.137255 0.046274
0.149176 0.148235 0.044706
0.430745 0.147451 0.004392
0.705255 0.100392 0
0.921098 0.101961 0
0.996117 0.188941 0.001553
0 0.320784 0.078431
0.106666 0.316862 0.086745
0.406431 0.370667 0.053647
0.730196 0.41302 0
0.934588 0.428235 0.000627
0.999223 0.447019 0
0.000784 0.521568 0.122353
0.064471 0.513255 0.130823
0.342902 0.536471 0.141176
0.661961 0.623373 0.143216
0.919216 0.659294 0.055059
0.996855 0.665875 0
0.020392 0.731764 0.209412
0.179451 0.729255 0.222745
0.356706 0.714666 0.251608
0.610353 0.767216 0.283451
0.860235 0.82102 0.340863
1 0.824338 0.393836
0.470157 0.941019 0.489922
0.502392 0.944941 0.504039
0.583278 0.93869 0.525882
0.711992 0.948793 0.563537
0.863451 0.964573 0.593435
0.999883 0.976315 0.631099
0.001569 0.031373 0.15451
0.142745 0.02902 0.151216
0.363294 0.009882 0.156706
0.671059 0 0.153726
0.905412 0.000628 0.157961
0.993765 0.003883 0.158479
0.000628 0.160471 0.164706
0.164737 0.159529 0.161663
0.414432 0.150212 0.164047
0.693239 0.119718 0.159874
0.917773 0.13349 0.160345
0.999052 0.219828 0.157016
0.00502 0.356235 0.188392
0.161255 0.342808 0.184565
0.418228 0.381208 0.198337
0.726274 0.419325 0.14811
0.935592 0.431718 0.138039
0.997645 0.458 0.154489
0.001883 0.544941 0.214275
0.144565 0.5344 0.220173
0.358086 0.541082 0.232376
0.66698 0.625569 0.265381
0.915608 0.664283 0.242291
0.996561 0.670732 0.204863
0.098039 0.745569 0.281255
0.210855 0.741365 0.291012
0.372706 0.727247 0.306259
0.613083 0.766149 0.346886
0.859012 0.819922 0.412957
0.998602 0.834044 0.462975
0.478769 0.950416 0.522047
0.503675 0.94699 0.528019
0.585216 0.941345 0.546543
0.709146 0.946181 0.584082
0.863436 0.962219 0.619334
0.999945 0.973961 0.658542
0 0.038432 0.36549
0.012235 0.031844 0.369412
0.388235 0.00251 0.395451
0.593255 0.089412 0.386824
0.862431 0.004078 0.415686
0.999961 0.035145 0.412518
0.001883 0.182431 0.371294
0.046369 0.156329 0.376533
0.405239 0.154729 0.398212
0.612486 0.216471 0.400784
0.878996 0.188518 0.41713
0.999987 0.264951 0.418489
0.003138 0.398902 0.392157
0.137035 0.396392 0.40138
0.42858 0.401663 0.410259
0.687153 0.414526 0.416565
0.89829 0.440282 0.424784
0.996886 0.48091 0.436121
0.086275 0.608157 0.409568
0.25189 0.600722 0.41302
0.414933 0.577443 0.414934
0.666447 0.634824 0.45829
0.904251 0.673663 0.474478
0.999379 0.686419 0.464622
0.19702 0.775686 0.438274
0.28182 0.769192 0.444141
0.416596 0.753412 0.441945
0.607969 0.761412 0.472282
0.852486 0.824408 0.551969
0.998136 0.843758 0.594061
0.466416 0.9536 0.578659
0.500585 0.954182 0.584398
0.586461 0.948267 0.601333
0.69523 0.947403 0.636909
0.861222 0.960654 0.6679
0.995309 0.976353 0.711945
0 0.051764 0.595294
0.001883 0.038431 0.604549
0.317804 0.003765 0.620863
0.647843 0.000157 0.639216
0.830118 0.159686 0.626196
0.996713 0.349702 0.661129
0.002353 0.169412 0.598745
0.002259 0.152847 0.6
0.341992 0.137004 0.623592
0.660298 0.134212 0.642071
0.825286 0.289914 0.625004
0.99192 0.408739 0.663348
0.000784 0.399059 0.575843
0.001694 0.401161 0.591906
0.35018 0.377631 0.621929
0.667294 0.412392 0.636863
0.818729 0.498008 0.646588
0.996837 0.527975 0.66117
0.003765 0.63749 0.625569
0.094431 0.639561 0.626071
0.423467 0.643325 0.636173
0.664408 0.64571 0.643545
0.86742 0.668737 0.65509
1 0.694745 0.667188
0.266824 0.816 0.636706
0.339106 0.818196 0.638055
0.498761 0.805051 0.638431
0.626604 0.777569 0.624377
0.852392 0.828361 0.692831
0.999978 0.856175 0.718854
0.493914 0.967694 0.695592
0.52033 0.961929 0.693745
0.576013 0.962529 0.682133
0.700844 0.955903 0.705239
0.850102 0.96099 0.742
0.993632 0.977153 0.787318
0 0.056471 0.796078
0.000628 0.037177 0.799372
0.222274 0.001255 0.816314
0.620863 0.001255 0.82698
0.870274 0 0.837961
0.998321 0.328376 0.824251
0.002981 0.153569 0.797647
0.001412 0.152376 0.797396
0.243075 0.130447 0.812894
0.626416 0.094651 0.826855
0.868236 0.194918 0.833632
0.998511 0.408612 0.821338
0.003138 0.423373 0.788078
0.000188 0.403012 0.790965
0.232753 0.353663 0.806871
0.620737 0.380141 0.820141
0.860675 0.447153 0.829835
0.984392 0.563657 0.824916
0.004079 0.631686 0.779138
0.000753 0.626259 0.776031
0.239184 0.614933 0.785663
0.588141 0.605804 0.808502
0.84982 0.658792 0.829365
0.963382 0.725145 0.826971
0 0.835137 0.808314
0.190526 0.836832 0.810604
0.432941 0.831153 0.811671
0.648753 0.83131 0.815749
0.842981 0.837365 0.829898
0.997415 0.858039 0.85406
0.441404 0.985765 0.825898
0.487848 0.982631 0.829592
0.587514 0.978737 0.827487
0.711614 0.97898 0.831631
0.827222 0.968903 0.829525
0.995176 0.98262 0.879921
0 0.062745 0.992
0 0.035247 0.98807
0.13418 0 0.990432
0.595255 0 0.995913
0.860353 0.00233 0.997435
0.996117 0.270352 0.992078
0.000024 0.16938 0.985741
0.00233 0.161397 0.989476
0.147641 0.135054 0.995609
0.596138 0.098795 0.991874
0.855586 0.153073 0.99221
0.994564 0.355976 0.99669
0.000063 0.419615 0.986549
0.005148 0.387133 0.985384
0.033387 0.35627 0.983831
0.582638 0.371581 0.991843
0.851125 0.416493 0.993914
0.996893 0.525427 0.988917
0.000031 0.670526 0.972431
0.003883 0.658823 0.976283
0.179454 0.642124 0.984077
0.522215 0.591349 0.987418
0.824119 0.627944 0.986869
0.999835 0.698738 0.991153
0 0.857953 0.975529
0.000932 0.854226 0.978791
0.025042 0.850425 0.974303
0.483351 0.830563 0.977857
0.773992 0.803769 0.982253
0.989756 0.847781 0.985664
0.235021 0.996156 0.984118
0.314439 0.999906 0.985671
0.465866 0.99607 0.979536
0.636964 0.99989 0.981191
0.815043 0.993561 0.984119
0.984351 0.988194 0.995882
