site/assets/luts/freshluts--0001343-warm-more-bright.cube
# LUTr-Schema-Version: 2
# LUTr-ID: freshluts--0001343-warm-more-bright
# LUTr-Title: Warm more bright
# LUTr-Collection: Fresh LUTs
# LUTr-Collection-ID: freshluts-community
# LUTr-Source: https://freshluts.com
# LUTr-Retrieved: 2026-07-27
# LUTr-Source-File: submissions-raw/freshluts/cubes/1343__Warm.more_bright.cube
# LUTr-Source-Format: CUBE
# LUTr-Source-SHA256: 69dc7c27917afa145382d706762a8c9c45169f284a110f0ea9e47c7dc779666c
# LUTr-License: CC0-1.0
# LUTr-License-URL: https://freshluts.com/termsandconditions
# LUTr-License-Basis: site-terms
# LUTr-Transform-Class: creative-look
# LUTr-Tags: creative, freshluts, community, cube, cool, high-key, rec709, warm
# LUTr-Input-Color-Space: rec709
# LUTr-Input-Gamut: rec709
# LUTr-Input-Transfer: rec709
# LUTr-Output-Color-Space: srgb
# LUTr-Output-Gamut: rec709
# LUTr-Output-Transfer: srgb
# LUTr-Color-Space-Confidence: declared-by-source
# LUTr-Domain-Normalized: true
# LUTr-Shaper: none
# LUTr-Original-Grid: 16x16x16
# LUTr-Conversion-Grid: 16x16x16
# LUTr-Conversion-Interpolation: none
# LUTr-Conversion-Method: Metadata normalization; numeric LUT samples preserved
# LUTr-Conversion-Tool: LUTr scripts/convert-all-to-cube.mjs 2.0.0
# LUTr-Conversion-Date: 2026-07-28
# LUTr-Asset-URL: https://freshluts.com/luts/1343
# LUTr-Author: lvannoeun@gmail.com
# LUTr-Author-URL: https://freshluts.com/users/57563
# LUTr-Attribution: lvannoeun@gmail.com via Fresh LUTs
# LUTr-Source-Labels: gamma=Rec 709; color=Cool; key=High Key; style=Drama
# LUTr-Note: Preserve this metadata and the upstream license notices when redistributing.
TITLE "Warm more bright"
LUT_3D_SIZE 16
DOMAIN_MIN 0 0 0
DOMAIN_MAX 1 1 1
0.098778 0 0
0.177196 -0.00025 -0.00025
0.251244 -0.0005 -0.0005
0.319293 -0.00075 -0.00075
0.383209 -0.001 -0.001
0.444107 -0.00125 -0.00125
0.502638 -0.0015 -0.0015
0.559185 -0.00175 -0.00175
0.614103 -0.002 -0.002
0.667631 -0.00225 -0.00225
0.719868 -0.002499 -0.002499
0.77101 -0.00275 -0.00275
0.821106 -0.003 -0.003
0.870473 -0.00325 -0.00325
0.918744 -0.003499 -0.003499
0.96267 -0.003747 -0.003747
0.098778 0.077031 -0.000399
0.177195 0.077031 -0.000449
0.251244 0.077027 -0.000605
0.319293 0.077036 -0.000815
0.383209 0.077026 -0.001044
0.444107 0.077026 -0.001283
0.502638 0.077032 -0.001526
0.559185 0.077026 -0.00177
0.614103 0.077015 -0.002017
0.667631 0.077019 -0.002264
0.719868 0.077013 -0.002512
0.77101 0.077007 -0.00276
0.821106 0.077011 -0.003009
0.870473 0.077001 -0.003259
0.918744 0.076989 -0.003507
0.96267 0.076929 -0.003754
0.098776 0.156248 -0.000798
0.177195 0.156248 -0.000818
0.251244 0.156247 -0.000897
0.319293 0.156261 -0.001034
0.383209 0.156247 -0.00121
0.444107 0.156253 -0.001412
0.502638 0.156258 -0.001629
0.559185 0.15625 -0.001856
0.614103 0.156236 -0.002089
0.667631 0.15625 -0.002326
0.719868 0.15625 -0.002565
0.77101 0.156228 -0.002808
0.821106 0.156251 -0.003051
0.870473 0.156241 -0.003296
0.918744 0.156216 -0.003541
0.96267 0.156114 -0.003784
0.098773 0.233297 -0.001197
0.177202 0.233297 -0.001208
0.251272 0.233296 -0.001256
0.319293 0.233296 -0.001346
0.383209 0.233265 -0.001474
0.44413 0.233256 -0.001633
0.502637 0.233295 -0.001816
0.559185 0.233271 -0.002014
0.614103 0.23324 -0.002225
0.667631 0.233266 -0.002444
0.719868 0.233255 -0.002669
0.77101 0.233256 -0.002899
0.821106 0.233298 -0.003133
0.870473 0.233251 -0.00337
0.918744 0.233269 -0.003608
0.96267 0.233083 -0.003846
0.098768 0.303478 -0.001596
0.177187 0.303478 -0.001603
0.251279 0.303478 -0.001636
0.319269 0.303489 -0.001699
0.383208 0.303489 -0.001795
0.444129 0.303463 -0.001919
0.50268 0.303511 -0.002068
0.559185 0.303487 -0.002236
0.614102 0.303478 -0.00242
0.667631 0.303483 -0.002618
0.719868 0.303472 -0.002824
0.77101 0.303473 -0.003038
0.821106 0.303519 -0.003259
0.870473 0.303472 -0.003483
0.918744 0.30347 -0.003711
0.96267 0.303282 -0.00394
0.098774 0.369116 -0.001995
0.177184 0.369116 -0.002
0.251245 0.369116 -0.002024
0.319273 0.369115 -0.002072
0.383218 0.369115 -0.002145
0.444129 0.369115 -0.002243
0.502679 0.369185 -0.002365
0.559185 0.369168 -0.002507
0.614102 0.369128 -0.002665
0.667631 0.369164 -0.00284
0.719868 0.369129 -0.003026
0.77101 0.369123 -0.003222
0.821106 0.369199 -0.003426
0.870473 0.36913 -0.003637
0.918744 0.369121 -0.003852
0.962669 0.36892 -0.00407
0.098769 0.431538 -0.002394
0.177188 0.431538 -0.002398
0.251266 0.431538 -0.002417
0.319291 0.431537 -0.002454
0.383263 0.431537 -0.002512
0.444121 0.431537 -0.002592
0.502678 0.431537 -0.002692
0.559184 0.431536 -0.002811
0.614102 0.431495 -0.002948
0.66763 0.431538 -0.003101
0.719868 0.431528 -0.003267
0.77101 0.431492 -0.003444
0.821105 0.431535 -0.003631
0.870473 0.43153 -0.003826
0.918744 0.431491 -0.004028
0.962669 0.431211 -0.004233
0.09877 0.491287 -0.002793
0.177169 0.491287 -0.002796
0.25125 0.491287 -0.002811
0.319279 0.491287 -0.002841
0.383238 0.491287 -0.002889
0.444133 0.491287 -0.002955
0.502629 0.491287 -0.003039
0.559184 0.491286 -0.003141
0.614101 0.491271 -0.003259
0.66763 0.491279 -0.003392
0.719867 0.491257 -0.003539
0.771009 0.491264 -0.003699
0.821105 0.49134 -0.003869
0.870473 0.491261 -0.004049
0.918744 0.491264 -0.004236
0.962669 0.490973 -0.004427
0.098756 0.548948 -0.003191
0.177147 0.548948 -0.003194
0.251261 0.548948 -0.003207
0.31926 0.548948 -0.003232
0.383195 0.548948 -0.003272
0.44413 0.548948 -0.003327
0.502605 0.548948 -0.003399
0.559185 0.548948 -0.003486
0.614101 0.548948 -0.003589
0.66763 0.548977 -0.003707
0.719867 0.548962 -0.003837
0.771009 0.548943 -0.00398
0.821105 0.549045 -0.004135
0.870472 0.548966 -0.004299
0.918743 0.548944 -0.004472
0.962669 0.54865 -0.00465
0.098746 0.604957 -0.00359
0.177165 0.604957 -0.003593
0.251276 0.604957 -0.003604
0.319277 0.604957 -0.003625
0.383232 0.604956 -0.003659
0.444127 0.604956 -0.003707
0.502622 0.604956 -0.003768
0.559179 0.604956 -0.003844
0.614136 0.604956 -0.003934
0.667629 0.604956 -0.004038
0.719867 0.604958 -0.004154
0.771009 0.604937 -0.004283
0.821104 0.604971 -0.004423
0.870472 0.604962 -0.004573
0.918743 0.604938 -0.004732
0.962669 0.604565 -0.004897
0.098743 0.659385 -0.003989
0.177143 0.659385 -0.003991
0.251265 0.659385 -0.004001
0.319271 0.659385 -0.004019
0.383221 0.659385 -0.004049
0.444114 0.659385 -0.00409
0.502602 0.659385 -0.004144
0.559199 0.659385 -0.00421
0.614124 0.659384 -0.00429
0.667617 0.659384 -0.004382
0.719866 0.659384 -0.004487
0.771008 0.659255 -0.004602
0.821104 0.659455 -0.00473
0.870472 0.659387 -0.004867
0.918743 0.659255 -0.005013
0.962668 0.658912 -0.005164
0.098714 0.712598 -0.004388
0.177115 0.712598 -0.00439
0.251255 0.712598 -0.004398
0.319253 0.712597 -0.004414
0.383186 0.712597 -0.00444
0.444123 0.712597 -0.004477
0.502595 0.712597 -0.004524
0.55918 0.712597 -0.004583
0.614096 0.712597 -0.004654
0.667618 0.712597 -0.004737
0.719805 0.712597 -0.00483
0.771008 0.712597 -0.004935
0.821103 0.712649 -0.005051
0.870471 0.712611 -0.005176
0.918742 0.712598 -0.005311
0.962668 0.712186 -0.005451
0.09871 0.764514 -0.004787
0.177114 0.764514 -0.004789
0.251273 0.764514 -0.004796
0.319284 0.764514 -0.004811
0.383263 0.764514 -0.004833
0.444126 0.764514 -0.004866
0.50265 0.764514 -0.004908
0.559231 0.764514 -0.004961
0.61415 0.764514 -0.005024
0.667631 0.764514 -0.005099
0.719875 0.764514 -0.005184
0.77101 0.764513 -0.005279
0.821103 0.764513 -0.005384
0.870471 0.764484 -0.005499
0.918742 0.764388 -0.005622
0.962668 0.764035 -0.005751
0.098705 0.815558 -0.005186
0.177098 0.815558 -0.005188
0.251256 0.815558 -0.005194
0.319263 0.815558 -0.005207
0.383215 0.815558 -0.005228
0.444111 0.815558 -0.005257
0.5026 0.815558 -0.005295
0.559199 0.815558 -0.005342
0.614125 0.815558 -0.0054
0.667619 0.815558 -0.005467
0.719869 0.815558 -0.005544
0.771067 0.815558 -0.00563
0.821082 0.815557 -0.005727
0.87047 0.815557 -0.005833
0.918741 0.81548 -0.005946
0.962667 0.814993 -0.006066
0.09869 0.865444 -0.005584
0.177083 0.865444 -0.005585
0.251235 0.865444 -0.005591
0.319244 0.865444 -0.005603
0.383216 0.865444 -0.005621
0.444117 0.865444 -0.005648
0.50259 0.865443 -0.005682
0.559177 0.865443 -0.005725
0.614095 0.865443 -0.005777
0.667618 0.865443 -0.005839
0.719805 0.865443 -0.005909
0.771008 0.865443 -0.005989
0.821115 0.865443 -0.006077
0.87043 0.865443 -0.006174
0.918741 0.865443 -0.00628
0.962667 0.864997 -0.00639
0.098678 0.914139 -0.005979
0.176986 0.914139 -0.00598
0.251115 0.914139 -0.005986
0.319077 0.914139 -0.005996
0.383007 0.914139 -0.006013
0.44385 0.914139 -0.006037
0.502326 0.914139 -0.006068
0.558888 0.914139 -0.006108
0.613758 0.914139 -0.006155
0.66729 0.914139 -0.006211
0.719463 0.914138 -0.006276
0.770544 0.914138 -0.006349
0.820548 0.914138 -0.00643
0.870008 0.914138 -0.00652
0.918259 0.914138 -0.006619
0.962666 0.914138 -0.006724
0.098778 -0.000148 0.021801
0.177196 -0.000277 0.021801
0.251244 -0.000511 0.021796
0.319293 -0.000756 0.021807
0.383209 -0.001004 0.021797
0.444107 -0.001253 0.021797
0.502638 -0.001502 0.021801
0.559185 -0.001752 0.021797
0.614103 -0.002001 0.021784
0.667631 -0.002251 0.021786
0.719868 -0.002501 0.02178
0.77101 -0.002751 0.021768
0.821106 -0.003001 0.021779
0.870473 -0.003251 0.021764
0.918744 -0.0035 0.021755
0.96267 -0.003747 0.021684
0.098778 0.077031 0.021801
0.177887 0.076895 0.020703
0.26121 0.06713 0.009833
0.329072 0.056887 0
0.390941 0.050518 0
0.450115 0.046895 0
0.507322 0.044863 0
0.562975 0.043779 0
0.617178 0.043296 0
0.670155 0.043189 0
0.721906 0.04336 0
0.772866 0.043732 0
0.822658 0.044283 0
0.871787 0.044957 0
0.919942 0.045758 0
0.963537 0.046636 0
0.098776 0.156248 0.021796
0.159684 0.158746 0
0.252265 0.156608 0
0.323718 0.153898 0
0.388107 0.15154 0
0.448595 0.149897 0
0.506473 0.148831 0
0.56246 0.148104 0
0.616829 0.147654 0
0.669908 0.147393 0
0.721823 0.147237 0
0.772781 0.147166 0
0.82265 0.147178 0
0.871689 0.147225 0
0.919931 0.147307 0
0.963515 0.147345 0
0.098773 0.233297 0.021804
0.151674 0.23501 0
0.247474 0.234448 0
0.319885 0.233553 0
0.38538 0.232488 0
0.446773 0.231541 0
0.505342 0.230798 0
0.561674 0.230238 0
0.616351 0.22977 0
0.669615 0.229501 0
0.721677 0.229302 0
0.772533 0.229154 0
0.822451 0.229059 0
0.8717 0.229042 0
0.919865 0.228997 0
0.963462 0.228863 0
0.098768 0.303478 0.021789
0.148738 0.304614 0
0.245418 0.30444 0
0.317861 0.30411 0
0.383615 0.303668 0
0.445368 0.303179 0
0.50424 0.30274 0
0.56092 0.3023 0
0.615751 0.301985 0
0.669158 0.301775 0
0.721194 0.301527 0
0.772355 0.301364 0
0.82238 0.301327 0
0.871478 0.301233 0
0.919767 0.301154 0
0.963503 0.300937 0
0.098774 0.369116 0.021787
0.147742 0.369967 0
0.244521 0.369918 0
0.316831 0.369746 0
0.382595 0.369524 0
0.444434 0.369286 0
0.503438 0.36903 0
0.560163 0.368755 0
0.615242 0.368471 0
0.668787 0.368314 0
0.720944 0.368145 0
0.771983 0.367997 0
0.822145 0.367948 0
0.871412 0.367864 0
0.9196 0.367742 0
0.963276 0.367512 0
0.098769 0.431538 0.02179
0.147656 0.432157 0
0.244116 0.43211 0
0.316295 0.431999 0
0.382036 0.431945 0
0.4438 0.431767 0
0.502863 0.431648 0
0.559748 0.431413 0
0.614773 0.431254 0
0.668468 0.431124 0
0.720622 0.431014 0
0.771802 0.430834 0
0.821931 0.430824 0
0.871247 0.430736 0
0.919513 0.430604 0
0.963276 0.430352 0
0.09877 0.491287 0.021777
0.148069 0.491786 0
0.243961 0.491719 0
0.316003 0.491701 0
0.381656 0.491608 0
0.443426 0.491485 0
0.502462 0.491412 0
0.559375 0.491347 0
0.614461 0.491193 0
0.668139 0.491154 0
0.720392 0.49102 0
0.77164 0.490966 0
0.821795 0.49093 0
0.871086 0.490793 0
0.919389 0.490716 0
0.963187 0.490379 0
0.098756 0.548948 0.02176
0.148852 0.549319 0
0.24396 0.549295 0
0.315868 0.5493 0
0.381431 0.549248 0
0.443194 0.549218 0
0.502152 0.54917 0
0.559021 0.549081 0
0.614228 0.549005 0
0.667958 0.548936 0
0.720132 0.548878 0
0.771429 0.548805 0
0.821644 0.548832 0
0.870879 0.548692 0
0.919178 0.548633 0
0.963027 0.548275 0
0.098746 0.604957 0.021755
0.149885 0.605251 0
0.244096 0.605238 0
0.31585 0.605212 0
0.381348 0.605171 0
0.443027 0.60517 0
0.50198 0.605172 0
0.558918 0.605095 0
0.614064 0.6051 0
0.667761 0.604973 0
0.720085 0.604958 0
0.771239 0.604823 0
0.82155 0.604881 0
0.87079 0.604818 0
0.919151 0.604665 0
0.962981 0.604326 0
0.098743 0.659385 0.021741
0.151149 0.6596 0
0.244284 0.659595 0
0.315884 0.659585 0
0.381287 0.65957 0
0.442938 0.659548 0
0.50192 0.659522 0
0.558783 0.659506 0
0.61395 0.659472 0
0.667619 0.659473 0
0.719876 0.659417 0
0.771113 0.65925 0
0.821373 0.659396 0
0.870739 0.65923 0
0.919025 0.65921 0
0.962891 0.658787 0
0.098714 0.712598 0.021722
0.152598 0.712726 0
0.244555 0.71272 0
0.315948 0.712647 0
0.381281 0.712629 0
0.442944 0.712736 0
0.501823 0.712704 0
0.558731 0.712712 0
0.613839 0.712669 0
0.667462 0.71262 0
0.719777 0.712571 0
0.771043 0.712582 0
0.821292 0.712647 0
0.870682 0.712562 0
0.918987 0.7125 0
0.962793 0.712111 0
0.09871 0.764514 0.02172
0.154207 0.764749 0
0.244886 0.764744 0
0.316113 0.764734 0
0.381385 0.764719 0
0.442937 0.764696 0
0.501871 0.76467 0
0.558708 0.764722 0
0.61382 0.764685 0
0.66748 0.764642 0
0.719803 0.764645 0
0.771055 0.764601 0
0.821231 0.764558 0
0.870589 0.764477 0
0.918973 0.76435 0
0.962782 0.763957 0
0.098705 0.815558 0.021692
0.155951 0.81566 0
0.245245 0.815657 0
0.316251 0.815652 0
0.381425 0.815644 0
0.442949 0.815664 0
0.50183 0.81565 0
0.558671 0.815632 0
0.613772 0.815612 0
0.667439 0.81559 0
0.719679 0.815646 0
0.771037 0.815621 0
0.821079 0.81561 0
0.870486 0.815585 0.000359
0.918852 0.815483 0.000747
0.962797 0.814974 0.001167
0.09869 0.865444 0.021668
0.157843 0.865535 0
0.245689 0.865533 0
0.316453 0.865528 0
0.381483 0.865522 0
0.442955 0.865544 0
0.501831 0.865532 0
0.55865 0.865517 0
0.613704 0.8655 0.000319
0.667337 0.865481 0.000359
0.719591 0.865517 0.000405
0.770939 0.865479 0.000996
0.821061 0.865513 0.001183
0.870434 0.86549 0.001883
0.91876 0.865468 0.002415
0.962705 0.865002 0.003229
0.098678 0.914139 0.021581
0.159833 0.914242 0.000969
0.246085 0.91424 0.000985
0.316563 0.914237 0.001019
0.381479 0.914231 0.001066
0.442846 0.914222 0.001117
0.501615 0.914246 0.001171
0.558352 0.914234 0.001315
0.613457 0.914219 0.001708
0.66697 0.914203 0.002115
0.719249 0.914185 0.002397
0.770427 0.914166 0.002909
0.820501 0.914146 0.003471
0.869988 0.914126 0.004004
0.918266 0.914169 0.004724
0.962656 0.914161 0.005439
0.098778 -0.000295 0.102176
0.177197 -0.000366 0.102176
0.251244 -0.000555 0.102175
0.319293 -0.000782 0.102204
0.383209 -0.001022 0.102175
0.444107 -0.001266 0.102178
0.502638 -0.001512 0.102202
0.559185 -0.00176 0.102186
0.614103 -0.002008 0.102168
0.667631 -0.002257 0.102181
0.719868 -0.002506 0.102176
0.77101 -0.002755 0.102161
0.821106 -0.003005 0.102191
0.870473 -0.003254 0.102171
0.918744 -0.003503 0.102163
0.96267 -0.00375 0.102043
0.098778 0.077027 0.102175
0.175363 0.074045 0.116212
0.260294 0.064302 0.111341
0.329013 0.053914 0.103399
0.39127 0.046806 0.098053
0.450404 0.042437 0.094984
0.507667 0.039849 0.093233
0.563252 0.038404 0.092187
0.617422 0.037687 0.091523
0.670413 0.037468 0.091161
0.722189 0.037616 0.090948
0.772917 0.038035 0.090844
0.822927 0.038652 0.090855
0.871925 0.039441 0.090886
0.920047 0.040369 0.090977
0.963635 0.041392 0.09103
0.098776 0.156248 0.102175
0.155194 0.158343 0.103367
0.252578 0.155952 0.099907
0.331452 0.148022 0.090856
0.400729 0.136159 0.077344
0.462409 0.124805 0.064475
0.519706 0.115376 0.053727
0.57449 0.108045 0.045227
0.62757 0.102467 0.03867
0.679463 0.098261 0.033659
0.730231 0.095102 0.029866
0.780128 0.092731 0.026992
0.829266 0.090988 0.024859
0.877619 0.089714 0.023291
0.925261 0.088802 0.022181
0.967517 0.088185 0.021424
0.098773 0.233297 0.102203
0.144339 0.235138 0.095184
0.234371 0.237318 0.074158
0.321458 0.233876 0.06835
0.392364 0.229395 0.061094
0.455938 0.22484 0.053545
0.515094 0.220692 0.046571
0.571259 0.217187 0.040571
0.62525 0.214385 0.035629
0.67781 0.212254 0.031655
0.729083 0.210535 0.02853
0.779292 0.209239 0.026117
0.828694 0.208248 0.024263
0.877203 0.207449 0.022898
0.92486 0.206831 0.021942
0.967282 0.206284 0.021287
0.098768 0.303478 0.102173
0.139635 0.30483 0.091907
0.219224 0.30773 0.05344
0.312271 0.306192 0.050832
0.384958 0.304111 0.047299
0.450004 0.301784 0.04327
0.510373 0.2995 0.039199
0.567661 0.297343 0.035393
0.622553 0.295488 0.032015
0.675813 0.29396 0.029164
0.727496 0.292677 0.026815
0.778107 0.291587 0.024956
0.827769 0.29082 0.023499
0.876531 0.290096 0.022398
0.924392 0.289545 0.021614
0.96696 0.288958 0.021117
0.098773 0.369116 0.102175
0.137773 0.370162 0.090491
0.209846 0.372731 0.040305
0.306355 0.371966 0.03909
0.379841 0.370928 0.037342
0.445524 0.369681 0.035245
0.50664 0.368325 0.032966
0.564474 0.366949 0.030682
0.620019 0.365685 0.028576
0.673772 0.364601 0.026658
0.725947 0.363603 0.025045
0.776892 0.362728 0.023708
0.826757 0.362069 0.022632
0.875726 0.361447 0.021848
0.923786 0.360896 0.021271
0.966538 0.360329 0.02094
0.098769 0.431538 0.102191
0.137358 0.432221 0.089867
0.204121 0.434433 0.03208
0.302748 0.434028 0.031496
0.376556 0.433487 0.030601
0.442341 0.432756 0.029501
0.503703 0.431989 0.028249
0.561967 0.431121 0.02695
0.617843 0.430212 0.025677
0.671973 0.429415 0.024491
0.724428 0.428651 0.023452
0.775571 0.427951 0.022557
0.825833 0.427468 0.021865
0.87486 0.42689 0.021331
0.923109 0.426457 0.020991
0.966064 0.425795 0.020805
0.09877 0.491287 0.102177
0.137776 0.491857 0.089645
0.200619 0.493666 0.026955
0.300508 0.493448 0.026644
0.37435 0.493059 0.02621
0.440217 0.492652 0.025618
0.501622 0.49212 0.024952
0.560028 0.491618 0.024215
0.616117 0.491017 0.0235
0.670444 0.490461 0.022791
0.723017 0.489924 0.022183
0.774489 0.489352 0.021652
0.824791 0.488955 0.021241
0.874114 0.488507 0.020965
0.922363 0.488089 0.020804
0.965578 0.487459 0.020767
0.098756 0.548948 0.102168
0.138743 0.549402 0.089625
0.198492 0.550882 0.023797
0.299042 0.550785 0.023649
0.372913 0.550583 0.023423
0.438757 0.550344 0.02312
0.500116 0.549992 0.022759
0.55859 0.549659 0.022389
0.614778 0.549241 0.02201
0.669176 0.548829 0.021627
0.721891 0.548455 0.021302
0.773508 0.548039 0.021056
0.823836 0.547743 0.020875
0.873288 0.547307 0.02078
0.921701 0.547017 0.020776
0.965154 0.546378 0.020865
0.098745 0.604957 0.102168
0.140096 0.60531 0.089787
0.197239 0.606611 0.021959
0.29817 0.606528 0.021887
0.371936 0.606388 0.021774
0.437721 0.606192 0.021627
0.49911 0.605997 0.021466
0.557606 0.605758 0.021287
0.613769 0.605471 0.021129
0.668208 0.605181 0.020979
0.721064 0.60486 0.020861
0.77262 0.604536 0.020785
0.823188 0.604328 0.020767
0.872649 0.604012 0.020812
0.921013 0.603713 0.020935
0.964697 0.603125 0.021117
0.098743 0.659385 0.102169
0.141733 0.659626 0.090065
0.196577 0.660744 0.021029
0.29758 0.660697 0.021005
0.371355 0.660573 0.020965
0.437026 0.660496 0.02092
0.498374 0.660354 0.02087
0.556761 0.660188 0.02082
0.612968 0.66003 0.020782
0.667454 0.659788 0.020767
0.720353 0.659548 0.020777
0.771894 0.659231 0.020831
0.822433 0.659139 0.020932
0.872034 0.658893 0.021077
0.920583 0.658665 0.021278
0.964287 0.658072 0.02155
0.098714 0.712598 0.102147
0.143585 0.71262 0.090425
0.196313 0.713769 0.020766
0.297237 0.713719 0.020767
0.370823 0.713608 0.02077
0.436482 0.713518 0.020777
0.497782 0.713448 0.020792
0.556193 0.713225 0.02082
0.612371 0.713235 0.020868
0.666767 0.712982 0.020935
0.719659 0.71279 0.021034
0.771405 0.712734 0.021167
0.821906 0.712628 0.021346
0.871485 0.712388 0.021573
0.920132 0.712116 0.021867
0.963921 0.711607 0.022195
0.098709 0.764514 0.102163
0.145621 0.76477 0.090904
0.196384 0.765584 0.021
0.297066 0.765525 0.021011
0.370618 0.765517 0.02104
0.436212 0.765455 0.021077
0.497452 0.7654 0.021134
0.555769 0.765257 0.021205
0.611991 0.76526 0.021299
0.66641 0.765056 0.021432
0.719339 0.764909 0.021591
0.771054 0.764756 0.021796
0.821491 0.764698 0.022041
0.871149 0.764484 0.022315
0.919636 0.764288 0.02263
0.96354 0.763822 0.023007
0.098705 0.815558 0.102145
0.147799 0.815633 0.091423
0.196691 0.81632 0.021611
0.297024 0.816287 0.021638
0.370425 0.816361 0.021683
0.435914 0.816289 0.021749
0.497127 0.816291 0.02183
0.555457 0.816262 0.021941
0.611607 0.816174 0.022076
0.665979 0.816042 0.022238
0.718935 0.815916 0.022428
0.770569 0.815744 0.02265
0.821055 0.815702 0.022929
0.87071 0.81564 0.02326
0.919304 0.815502 0.023619
0.963261 0.814914 0.023998
0.09869 0.865444 0.102127
0.150088 0.865599 0.092014
0.197215 0.866236 0.022551
0.297028 0.86624 0.022578
0.370287 0.866195 0.022626
0.435749 0.866224 0.0227
0.496885 0.866143 0.022795
0.555169 0.866098 0.022926
0.611299 0.865982 0.023085
0.66568 0.865944 0.023276
0.718497 0.865799 0.023497
0.770299 0.865737 0.023749
0.820725 0.865731 0.024034
0.870458 0.865612 0.02438
0.919032 0.865529 0.024774
0.963061 0.864975 0.02517
0.098678 0.914139 0.102002
0.152467 0.91431 0.092584
0.197877 0.91483 0.02374
0.297045 0.914805 0.023774
0.37016 0.914828 0.023826
0.43547 0.914772 0.023901
0.496517 0.914699 0.024007
0.554768 0.914722 0.024137
0.610818 0.914688 0.024312
0.665065 0.914567 0.024519
0.717976 0.914498 0.024756
0.769638 0.914495 0.025024
0.820012 0.914476 0.025318
0.869685 0.914314 0.02568
0.918293 0.914352 0.026079
0.962799 0.914252 0.026505
0.098778 -0.000443 0.183983
0.177206 -0.000487 0.183983
0.251274 -0.000631 0.183983
0.319293 -0.000832 0.183983
0.383209 -0.001057 0.183929
0.444107 -0.001292 0.183937
0.502638 -0.001533 0.183982
0.559185 -0.001776 0.183968
0.614103 -0.002022 0.18392
0.667631 -0.002269 0.183964
0.719868 -0.002516 0.183941
0.77101 -0.002764 0.183915
0.821106 -0.003012 0.183983
0.870473 -0.003261 0.183937
0.918744 -0.003509 0.183922
0.96267 -0.003756 0.183759
0.098777 0.077036 0.183983
0.169947 0.067995 0.207176
0.257941 0.060404 0.201145
0.327663 0.052148 0.193264
0.390577 0.04604 0.187501
0.450106 0.0421 0.183971
0.507478 0.039699 0.181846
0.563118 0.038339 0.180476
0.617349 0.037665 0.179593
0.670309 0.03747 0.179024
0.722137 0.037627 0.17868
0.772884 0.038052 0.17845
0.822891 0.038669 0.178308
0.871969 0.039466 0.178209
0.920128 0.040395 0.178172
0.96362 0.041414 0.178051
0.098776 0.156261 0.183983
0.153354 0.156978 0.193876
0.250837 0.153769 0.199325
0.330609 0.145682 0.194952
0.40058 0.133285 0.18735
0.462784 0.121066 0.178378
0.520488 0.110562 0.170525
0.57533 0.102101 0.164338
0.628415 0.095426 0.159671
0.680319 0.090274 0.156194
0.730981 0.086288 0.153601
0.7808 0.083243 0.151639
0.829997 0.080929 0.150177
0.878283 0.079196 0.149043
0.925752 0.077923 0.148182
0.968011 0.077038 0.147417
0.098773 0.233296 0.183982
0.143855 0.234737 0.184985
0.230934 0.2366 0.185314
0.321124 0.232877 0.180589
0.396112 0.226358 0.172454
0.464436 0.216564 0.160242
0.526881 0.2051 0.14634
0.58454 0.193864 0.133001
0.638961 0.183577 0.120943
0.691208 0.174542 0.110443
0.741754 0.166825 0.101459
0.791092 0.160361 0.093874
0.839647 0.154981 0.087504
0.887451 0.150545 0.082182
0.934116 0.146889 0.077755
0.974174 0.143878 0.074085
0.098768 0.303478 0.183928
0.139496 0.304688 0.18105
0.211972 0.307845 0.169214
0.304688 0.30789 0.155043
0.386179 0.304085 0.147871
0.455957 0.29927 0.139187
0.519306 0.293903 0.129757
0.578104 0.288455 0.120358
0.633718 0.28345 0.111461
0.68699 0.2789 0.103371
0.738509 0.274952 0.096195
0.788605 0.271593 0.08994
0.837704 0.268756 0.084554
0.885891 0.2664 0.079958
0.932817 0.264412 0.076063
0.97345 0.262641 0.072809
0.098773 0.369116 0.183934
0.137743 0.370027 0.179211
0.198892 0.373066 0.15869
0.287573 0.375015 0.129497
0.375074 0.372784 0.125275
0.446966 0.369992 0.119993
0.511613 0.366937 0.114022
0.571573 0.363629 0.107769
0.628237 0.360414 0.101602
0.682579 0.357489 0.095696
0.734907 0.354745 0.090287
0.785694 0.35234 0.085401
0.835383 0.350315 0.081059
0.883885 0.348464 0.077285
0.931429 0.346942 0.074002
0.972488 0.345454 0.071228
0.098769 0.431538 0.183978
0.137357 0.432238 0.178312
0.19022 0.434866 0.152283
0.274476 0.437241 0.110002
0.366329 0.436009 0.107542
0.439593 0.43428 0.104377
0.50504 0.432371 0.100654
0.565855 0.430237 0.096606
0.623299 0.428117 0.092435
0.67833 0.426059 0.088308
0.731335 0.424102 0.084373
0.782754 0.422272 0.080701
0.832933 0.420715 0.077363
0.881896 0.419268 0.074361
