site/assets/luts/freshluts--0000216-golden-gate.cube
# LUTr-Schema-Version: 2
# LUTr-ID: freshluts--0000216-golden-gate
# LUTr-Title: GOLDEN GATE
# LUTr-Collection: Fresh LUTs
# LUTr-Collection-ID: freshluts-community
# LUTr-Source: https://freshluts.com
# LUTr-Retrieved: 2026-07-27
# LUTr-Source-File: submissions-raw/freshluts/cubes/216__GoldenGate.cube
# LUTr-Source-Format: CUBE
# LUTr-Source-SHA256: 9d780d4def106ea5ead3573d30d6d133be6a2b774b9ca63ff5c65f880215770e
# LUTr-License: CC0-1.0
# LUTr-License-URL: https://freshluts.com/termsandconditions
# LUTr-License-Basis: site-terms
# LUTr-Transform-Class: creative-look
# LUTr-Tags: creative, freshluts, community, cube, warm, rec709
# LUTr-Input-Color-Space: rec709
# LUTr-Input-Gamut: rec709
# LUTr-Input-Transfer: rec709
# LUTr-Output-Color-Space: srgb
# LUTr-Output-Gamut: rec709
# LUTr-Output-Transfer: srgb
# LUTr-Color-Space-Confidence: declared-by-source
# LUTr-Domain-Normalized: true
# LUTr-Shaper: none
# LUTr-Original-Grid: 16x16x16
# LUTr-Conversion-Grid: 16x16x16
# LUTr-Conversion-Interpolation: none
# LUTr-Conversion-Method: Metadata normalization; numeric LUT samples preserved
# LUTr-Conversion-Tool: LUTr scripts/convert-all-to-cube.mjs 2.0.0
# LUTr-Conversion-Date: 2026-07-28
# LUTr-Asset-URL: https://freshluts.com/luts/216
# LUTr-Author: Andy
# LUTr-Author-URL: https://freshluts.com/users/1003
# LUTr-Attribution: Andy via Fresh LUTs
# LUTr-Source-Labels: gamma=Rec 709; color=Warm; key=Neutral; style=Retro
# LUTr-Note: Preserve this metadata and the upstream license notices when redistributing.
TITLE "GOLDEN GATE"
LUT_3D_SIZE 6
DOMAIN_MIN 0 0 0
DOMAIN_MAX 1 1 1
0.022547 0.032952 0.033465
0.169205 0.028619 0.002439
0.36311 0.013593 0.000001
0.512093 0.001883 0
0.56347 0.002363 0
0.58039 0.002266 0
0.0326 0.109492 0.02808
0.196266 0.136521 0.002867
0.397596 0.143001 0.000003
0.570033 0.114752 0
0.649098 0.10998 0
0.671239 0.106632 0
0.109058 0.192495 0.01129
0.241581 0.232868 0.002434
0.410852 0.263968 0.000265
0.598205 0.253087 0
0.703855 0.242114 0
0.730933 0.232155 0
0.210296 0.314903 0.003009
0.343057 0.353828 0.000291
0.428433 0.390007 0.000049
0.612095 0.422704 0
0.752274 0.417472 0
0.802007 0.437968 0
0.25818 0.381628 0.000175
0.325757 0.414256 0.000054
0.459092 0.500458 0.000443
0.641001 0.523147 0.000006
0.776411 0.504312 0
0.823106 0.502311 0
0.297356 0.387832 0.000001
0.33516 0.419124 0
0.464882 0.462224 0
0.661842 0.51477 0
0.801763 0.543385 0
0.8497 0.619192 0.000086
0.007828 0.039063 0.165104
0.141367 0.042557 0.119214
0.30492 0.033665 0.06342
0.456027 0.006435 0.015157
0.557925 0.000875 0.0016
0.574873 0.00084 0.000239
0.009698 0.126542 0.215637
0.13021 0.143461 0.149759
0.313575 0.143621 0.067783
0.511528 0.122541 0.013374
0.640526 0.104023 0.000756
0.665079 0.105356 0.000036
0.045386 0.232411 0.210293
0.157118 0.248821 0.149497
0.326763 0.271797 0.084411
0.550721 0.270561 0.015946
0.703942 0.263334 0.000632
0.742738 0.272444 0.000021
0.111112 0.349927 0.147187
0.202738 0.368428 0.106925
0.356699 0.408843 0.062946
0.579653 0.448532 0.017051
0.751643 0.456195 0.000716
0.810915 0.482871 0.000039
0.160352 0.440883 0.078394
0.258286 0.468652 0.043634
0.403214 0.524283 0.031241
0.608876 0.58007 0.005567
0.772736 0.588679 0.000232
0.844912 0.624977 0.000003
0.180987 0.464086 0.019679
0.256631 0.491438 0.00878
0.41175 0.550451 0.001726
0.64594 0.63749 0.000224
0.808993 0.679751 0.000154
0.866344 0.727389 0.016201
0.004525 0.073389 0.33974
0.126095 0.07001 0.292367
0.282582 0.055536 0.230948
0.434133 0.031621 0.156553
0.573728 0.016746 0.089671
0.583339 0.002365 0.047119
0.005251 0.146604 0.411513
0.099522 0.165876 0.368887
0.268741 0.175182 0.292163
0.478283 0.164581 0.189224
0.671888 0.135464 0.098819
0.703628 0.125189 0.051277
0.015066 0.24985 0.472402
0.126076 0.279242 0.406651
0.290024 0.291801 0.311458
0.516799 0.296162 0.198115
0.736126 0.295697 0.095071
0.784308 0.305223 0.045029
0.054776 0.394927 0.449756
0.140102 0.412366 0.393124
0.29669 0.435059 0.311271
0.547194 0.476874 0.19817
0.772547 0.500176 0.085796
0.842826 0.535669 0.028657
0.069209 0.493668 0.366527
0.164069 0.51089 0.30522
0.32685 0.548956 0.242348
0.582193 0.616741 0.149374
0.789306 0.662178 0.06304
0.872664 0.727699 0.033702
0.050478 0.51331 0.240344
0.167422 0.547522 0.188561
0.377261 0.621125 0.132934
0.580615 0.699727 0.088779
0.823529 0.789432 0.064834
0.878067 0.836719 0.181146
0.010943 0.100158 0.542615
0.095116 0.095515 0.509381
0.260557 0.089417 0.446685
0.415324 0.068759 0.368774
0.587002 0.047347 0.288555
0.602247 0.013552 0.196094
0.003075 0.163676 0.626535
0.071025 0.176641 0.600386
0.219927 0.185493 0.547813
0.445331 0.197636 0.452989
0.669619 0.176143 0.33434
0.727704 0.156168 0.260627
0.001729 0.240757 0.706714
0.086347 0.292476 0.687904
0.239594 0.315112 0.618219
0.495511 0.349963 0.509192
0.752338 0.355715 0.381478
0.843557 0.361225 0.300021
0.016639 0.427538 0.810994
0.095808 0.453171 0.763953
0.27528 0.483861 0.662108
0.551458 0.537285 0.538637
0.80443 0.570775 0.408222
0.906536 0.603156 0.299857
0.023144 0.534308 0.807798
0.075775 0.5699 0.766035
0.27887 0.61597 0.66781
0.581699 0.69714 0.552151
0.814343 0.751153 0.427602
0.945758 0.827018 0.382384
0.009357 0.57077 0.702983
0.084198 0.632485 0.676421
0.388925 0.732767 0.580665
0.669729 0.824527 0.523082
0.875691 0.883284 0.507376
0.96431 0.925889 0.538181
0.00141 0.074511 0.657935
0.069677 0.068547 0.629331
0.185677 0.059321 0.606582
0.358056 0.056154 0.549867
0.546942 0.041516 0.453581
0.596133 0.005285 0.370148
0.01487 0.198291 0.846982
0.06368 0.177732 0.793564
0.197762 0.189517 0.769732
0.413547 0.21006 0.700892
0.639565 0.20971 0.584391
0.724147 0.161074 0.489005
0.001757 0.232887 0.905759
0.070188 0.289552 0.911708
0.2109 0.31379 0.869668
0.45742 0.358475 0.801414
0.721232 0.388115 0.681534
0.859487 0.38567 0.575254
0.00557 0.41724 0.996203
0.053404 0.455612 0.989407
0.225884 0.495917 0.952738
0.521401 0.564705 0.868058
0.79313 0.620627 0.754271
0.940883 0.663169 0.645049
0.007647 0.553568 1.000265
0.050477 0.602301 0.998464
0.24513 0.656046 0.977512
0.57465 0.74587 0.904815
0.848367 0.834078 0.811082
0.975444 0.907741 0.783569
0.00075 0.611279 1.000183
0.028104 0.696658 0.998367
0.367912 0.795264 0.962776
0.694168 0.883446 0.926343
0.878422 0.939199 0.903681
1.00028 0.982579 0.845622
0.001124 0.06482 0.714887
0.048357 0.056411 0.691243
0.155071 0.049275 0.687112
0.316385 0.034709 0.648585
0.49155 0.013672 0.563484
0.595004 0.009142 0.495146
0.000089 0.123368 0.843159
0.041633 0.157816 0.886478
0.28602 0.246448 0.942548
0.526441 0.273082 0.895384
0.582638 0.156723 0.745708
0.70264 0.136181 0.668238
0.000997 0.229054 0.98255
0.045851 0.298525 0.994875
0.21979 0.326145 0.98986
0.481602 0.363054 0.973242
0.649335 0.327527 0.888853
0.821371 0.330099 0.807644
0.001564 0.401065 1.001008
0.049339 0.446025 1.001016
0.21573 0.491744 1.001012
0.475176 0.548949 1.000828
0.729017 0.563706 0.975114
0.94989 0.732664 0.905648
0.000011 0.488614 1.001021
0.013682 0.575894 1.001021
0.216477 0.681125 1.001021
0.592047 0.78783 1.001021
0.849165 0.889233 0.999261
0.983839 0.948171 0.985756
0 0.609811 1.001021
0.050824 0.725815 0.997377
0.40817 0.839943 0.999432
0.739095 0.921029 1.001021
0.907117 0.976109 1.001021
1.001001 1.001021 1.001017
