site/assets/luts/freshluts--0001409-africa.cube
# LUTr-Schema-Version: 2
# LUTr-ID: freshluts--0001409-africa
# LUTr-Title: AFRICA
# LUTr-Collection: Fresh LUTs
# LUTr-Collection-ID: freshluts-community
# LUTr-Source: https://freshluts.com
# LUTr-Retrieved: 2026-07-27
# LUTr-Source-File: submissions-raw/freshluts/cubes/1409__AFRICA_.cube
# LUTr-Source-Format: CUBE
# LUTr-Source-SHA256: 7f834ba138cf138464fccfbebe5704c8839965d6c6148673f5bb4cba2defffcf
# LUTr-License: CC0-1.0
# LUTr-License-URL: https://freshluts.com/termsandconditions
# LUTr-License-Basis: site-terms
# LUTr-Transform-Class: creative-look
# LUTr-Tags: creative, freshluts, community, cube, film-emulation, warm, bmd-film-4k
# LUTr-Input-Color-Space:
# LUTr-Input-Gamut: bmd-film-gamut
# LUTr-Input-Transfer: bmd-film-4k
# LUTr-Output-Color-Space: srgb
# LUTr-Output-Gamut: rec709
# LUTr-Output-Transfer: srgb
# LUTr-Color-Space-Confidence: camera-profile-input-required
# LUTr-Domain-Normalized: true
# LUTr-Shaper: none
# LUTr-Original-Grid: 33x33x33
# LUTr-Conversion-Grid: 33x33x33
# LUTr-Conversion-Interpolation: none
# LUTr-Conversion-Method: Metadata normalization; numeric LUT samples preserved
# LUTr-Conversion-Tool: LUTr scripts/convert-all-to-cube.mjs 2.0.0
# LUTr-Conversion-Date: 2026-07-28
# LUTr-Asset-URL: https://freshluts.com/luts/1409
# LUTr-Author: lanre
# LUTr-Author-URL: https://freshluts.com/users/157411
# LUTr-Attribution: lanre via Fresh LUTs
# LUTr-Source-Labels: gamma=Blackmagic BMD Film 4K; color=Warm; key=Neutral; style=Film emulation
# LUTr-Note: Preserve this metadata and the upstream license notices when redistributing.
TITLE "AFRICA"
LUT_3D_SIZE 5
DOMAIN_MIN 0 0 0
DOMAIN_MAX 1 1 1
0.131701 0.135668 0.135012
0.40473 0.221149 0.186999
0.404746 0.221149 0.186999
0.404746 0.221149 0.186999
0.404746 0.221149 0.186999
0.132097 0.139467 0.136248
0.151034 0.149477 0.14435
0.475227 0.244541 0.202258
0.48014 0.247074 0.203983
0.492851 0.254032 0.208438
0.160876 0.223377 0.177829
0.158877 0.215961 0.174533
0.766506 0.6851 0.516793
0.790478 0.690547 0.523781
0.803342 0.708263 0.539132
0.163409 0.233021 0.182055
0.16492 0.238636 0.184543
0.676539 0.661616 0.494896
0.910796 0.848844 0.653635
0.911528 0.849867 0.654643
0.163409 0.233021 0.182055
0.17995 0.293919 0.209293
0.745541 0.71133 0.534447
0.910521 0.848447 0.653254
0.911528 0.849867 0.654643
0.158267 0.21387 0.330037
0.479103 0.288457 0.411307
0.426734 0.229541 0.211292
0.413687 0.223743 0.188968
0.408667 0.222263 0.18764
0.134157 0.143816 0.146075
0.147753 0.147875 0.145205
0.468605 0.241825 0.200244
0.472862 0.2439 0.201633
0.478004 0.244984 0.20267
0.159915 0.219745 0.176211
0.157855 0.212207 0.172854
0.748455 0.665263 0.500893
0.776669 0.671168 0.506813
0.791074 0.691386 0.524498
0.163409 0.233021 0.182055
0.16556 0.241077 0.185611
0.66479 0.652934 0.488243
0.910613 0.848585 0.653391
0.911528 0.849867 0.654643
0.165393 0.240375 0.185504
0.180026 0.294148 0.20943
0.726223 0.69691 0.523354
0.910048 0.847822 0.652613
0.912184 0.850721 0.655314
0.158267 0.21387 0.330037
0.396277 0.28751 0.450004
0.561624 0.322087 0.474632
0.558831 0.320867 0.472251
0.525185 0.305165 0.439414
0.170001 0.267124 0.411582
0.175174 0.282506 0.433265
0.634867 0.363149 0.539376
0.600183 0.339849 0.501396
0.603296 0.340063 0.497124
0.204776 0.42501 0.500481
0.200504 0.408286 0.481788
0.688838 0.693553 0.648875
0.74284 0.616953 0.538796
0.760357 0.647578 0.565164
0.199435 0.409552 0.455207
0.198062 0.404623 0.443442
0.352972 0.63389 0.518502
0.935714 0.887037 0.715846
0.934478 0.887968 0.725353
0.204028 0.426444 0.483635
0.209766 0.454582 0.48809
0.425727 0.672709 0.565682
0.934066 0.888365 0.730129
0.933486 0.888518 0.732341
0.158297 0.213962 0.330266
0.176623 0.235401 0.38616
0.561624 0.322087 0.474632
0.561624 0.322087 0.474632
0.561624 0.322087 0.474632
0.174197 0.285161 0.426825
0.175082 0.287251 0.433524
0.650523 0.380072 0.560296
0.650767 0.376425 0.556451
0.657649 0.384344 0.564752
0.209842 0.440589 0.525887
0.207919 0.432319 0.520851
0.543923 0.665995 0.69836
0.784787 0.662089 0.703853
0.792111 0.680598 0.712169
0.215015 0.462882 0.539544
0.21622 0.467781 0.543008
0.280583 0.6542 0.662379
0.894224 0.8766 0.835264
0.897078 0.877577 0.834806
0.215015 0.462882 0.539544
0.225269 0.504448 0.568078
0.30988 0.675074 0.678325
0.892683 0.875853 0.834379
0.897276 0.877745 0.834379
0.158297 0.213962 0.330266
0.162951 0.22771 0.365774
0.561624 0.322087 0.474632
0.561624 0.322087 0.474632
0.561624 0.322087 0.474632
0.174228 0.285283 0.426627
0.173358 0.280186 0.4271
0.648783 0.382956 0.563699
0.656413 0.38323 0.56318
0.666117 0.39556 0.574548
0.209796 0.440436 0.52578
0.207965 0.432578 0.520989
0.522759 0.667826 0.697734
0.789654 0.674174 0.709545
0.796475 0.69131 0.717266
0.215015 0.462882 0.539544
0.217563 0.47332 0.546883
0.279713 0.652842 0.66154
0.893339 0.876509 0.837171
0.896834 0.877821 0.836988
0.215015 0.462882 0.539544
0.226658 0.509896 0.571756
0.316548 0.678843 0.681666
0.888212 0.873869 0.835447
0.896849 0.877974 0.837232
