site/assets/luts/freshluts--0000152-rest-sony-a7s2.cube
# LUTr-Schema-Version: 2
# LUTr-ID: freshluts--0000152-rest-sony-a7s2
# LUTr-Title: REST SONY A7S2
# LUTr-Collection: Fresh LUTs
# LUTr-Collection-ID: freshluts-community
# LUTr-Source: https://freshluts.com
# LUTr-Retrieved: 2026-07-27
# LUTr-Source-File: submissions-raw/freshluts/cubes/152__REST_33.C0075.cube
# LUTr-Source-Format: CUBE
# LUTr-Source-SHA256: ab15ee9aa3d5513d11baa779b7062abd556507ad08e4318f004cfaba641abd43
# LUTr-License: CC0-1.0
# LUTr-License-URL: https://freshluts.com/termsandconditions
# LUTr-License-Basis: site-terms
# LUTr-Transform-Class: creative-look
# LUTr-Tags: creative, freshluts, community, cube, film-emulation, blue, low-key, rec709
# LUTr-Input-Color-Space: rec709
# LUTr-Input-Gamut: rec709
# LUTr-Input-Transfer: rec709
# LUTr-Output-Color-Space: srgb
# LUTr-Output-Gamut: rec709
# LUTr-Output-Transfer: srgb
# LUTr-Color-Space-Confidence: inferred-from-source-label
# LUTr-Domain-Normalized: true
# LUTr-Shaper: none
# LUTr-Original-Grid: 33x33x33
# LUTr-Conversion-Grid: 33x33x33
# LUTr-Conversion-Interpolation: none
# LUTr-Conversion-Method: Metadata normalization; numeric LUT samples preserved
# LUTr-Conversion-Tool: LUTr scripts/convert-all-to-cube.mjs 2.0.0
# LUTr-Conversion-Date: 2026-07-28
# LUTr-Asset-URL: https://freshluts.com/luts/152
# LUTr-Author: Shamoon Abbasi
# LUTr-Author-URL: https://freshluts.com/users/1258
# LUTr-Attribution: Shamoon Abbasi via Fresh LUTs
# LUTr-Source-Labels: gamma=Rec 709; color=Blue; key=Low Key; style=Film emulation
# LUTr-Note: Preserve this metadata and the upstream license notices when redistributing.
TITLE "REST SONY A7S2"
LUT_3D_SIZE 5
DOMAIN_MIN 0 0 0
DOMAIN_MAX 1 1 1
0.0434424 0.0638743 0.0654154
0.0896315 0.0839246 0.0833448
0.268467 0.0797436 0.0856184
0.544533 0.0454719 0.0807355
0.847166 0.0437171 0.0537575
0.143343 0.197955 0.157565
0.248295 0.266499 0.193454
0.475349 0.316426 0.171298
0.782162 0.303044 0.156497
0.983169 0.322438 0.13193
0.264363 0.435508 0.243503
0.475761 0.525948 0.276112
0.67599 0.612818 0.274403
0.853956 0.666224 0.250248
1 0.666484 0.222873
0.524636 0.71516 0.343694
0.676738 0.755657 0.394995
0.80177 0.810788 0.411582
0.924025 0.853468 0.390158
0.989929 0.868864 0.339513
0.733883 0.897093 0.557168
0.821454 0.900923 0.599664
0.895979 0.917021 0.575036
0.98204 0.9346 0.502815
1 0.938918 0.468376
0.0486458 0.072221 0.0851911
0.0980545 0.0936446 0.108156
0.236439 0.109987 0.13962
0.475624 0.119524 0.156344
0.78201 0.142794 0.156435
0.158297 0.219043 0.198062
0.270848 0.290105 0.240757
0.408194 0.356069 0.289265
0.733181 0.340627 0.304021
0.931029 0.389288 0.287892
0.303029 0.464805 0.33051
0.548806 0.545449 0.402304
0.671168 0.621698 0.455741
0.822843 0.679026 0.452888
0.987503 0.683391 0.445289
0.526406 0.728985 0.431479
0.690425 0.756451 0.531472
0.805508 0.813428 0.584741
0.90602 0.857557 0.598611
0.969406 0.876112 0.579965
0.72018 0.903853 0.611765
0.828061 0.901961 0.678981
0.897353 0.920714 0.678294
0.97702 0.938872 0.656794
0.99086 0.94139 0.651438
0.0257572 0.0874037 0.179385
0.114275 0.115312 0.200427
0.264347 0.11754 0.239567
0.521355 0.0690776 0.256977
0.820462 0 0.236225
0.0601663 0.249577 0.28777
0.294255 0.313497 0.290684
0.436667 0.377096 0.338506
0.673838 0.387747 0.38146
0.87425 0.425864 0.380835
0.193698 0.518578 0.383749
0.572351 0.567788 0.452293
0.686702 0.641245 0.513359
0.76965 0.698466 0.580163
0.952956 0.705684 0.611307
0.481498 0.753414 0.515267
0.702571 0.76199 0.626627
0.835767 0.8224 0.686046
0.895171 0.863493 0.727153
0.959014 0.888853 0.71899
0.677562 0.914382 0.655344
0.827176 0.907637 0.736767
0.902663 0.926268 0.768566
0.976028 0.944823 0.783246
0.975174 0.945052 0.790311
0 0.107988 0.331441
0.131472 0.142473 0.352636
0.323217 0.181827 0.396414
0.547387 0.147982 0.434287
0.829358 0.0529641 0.457649
0.00169375 0.268544 0.397177
0.283879 0.329488 0.429618
0.479118 0.379049 0.456672
0.689113 0.38085 0.473716
0.893126 0.359808 0.471077
0 0.530694 0.513237
0.496513 0.594461 0.546792
0.700282 0.659998 0.569512
0.782742 0.717021 0.629709
0.934493 0.723278 0.691035
0.156985 0.783597 0.586755
0.678325 0.790188 0.672724
0.845884 0.835081 0.720897
0.901564 0.874311 0.76492
0.949569 0.907637 0.80557
0.471687 0.93669 0.672068
0.799344 0.919661 0.778347
0.907469 0.931029 0.835035
0.966751 0.94873 0.869902
0.964782 0.95024 0.892363
0 0.141421 0.517784
0.151125 0.179446 0.538582
0.430274 0.25153 0.583093
0.649592 0.287282 0.638056
0.830945 0.242237 0.669413
0 0.328786 0.575051
0.274449 0.354223 0.598169
0.551354 0.449668 0.633783
0.71632 0.485466 0.673182
0.874372 0.480354 0.692668
0 0.542626 0.649607
0.38349 0.579889 0.660365
0.682399 0.662684 0.700481
0.798825 0.689433 0.698573
0.916259 0.710826 0.710338
0 0.786297 0.723201
0.483726 0.810773 0.730602
0.812726 0.837858 0.788937
0.907958 0.885191 0.801587
0.956268 0.920684 0.837507
0 0.948989 0.814496
0.623041 0.942168 0.824491
0.900023 0.932464 0.880827
0.964538 0.950408 0.895003
0.9626 0.95201 0.917998
