site/assets/luts/freshluts--0000266-dusty-orange.cube
# LUTr-Schema-Version: 2
# LUTr-ID: freshluts--0000266-dusty-orange
# LUTr-Title: Dusty Orange
# LUTr-Collection: Fresh LUTs
# LUTr-Collection-ID: freshluts-community
# LUTr-Source: https://freshluts.com
# LUTr-Retrieved: 2026-07-27
# LUTr-Source-File: submissions-raw/freshluts/cubes/266__Dusty_Orange.cube
# LUTr-Source-Format: CUBE
# LUTr-Source-SHA256: ab706ea8b873a4d0e6a009420ffd93ef627fa44b290cb0f70e467b2be2829604
# LUTr-License: CC0-1.0
# LUTr-License-URL: https://freshluts.com/termsandconditions
# LUTr-License-Basis: site-terms
# LUTr-Transform-Class: creative-look
# LUTr-Tags: creative, freshluts, community, cube, orange, low-key, rec709, warm
# LUTr-Input-Color-Space: rec709
# LUTr-Input-Gamut: rec709
# LUTr-Input-Transfer: rec709
# LUTr-Output-Color-Space: srgb
# LUTr-Output-Gamut: rec709
# LUTr-Output-Transfer: srgb
# LUTr-Color-Space-Confidence: declared-by-source
# LUTr-Domain-Normalized: true
# LUTr-Shaper: none
# LUTr-Original-Grid: 16x16x16
# LUTr-Conversion-Grid: 16x16x16
# LUTr-Conversion-Interpolation: none
# LUTr-Conversion-Method: Metadata normalization; numeric LUT samples preserved
# LUTr-Conversion-Tool: LUTr scripts/convert-all-to-cube.mjs 2.0.0
# LUTr-Conversion-Date: 2026-07-28
# LUTr-Asset-URL: https://freshluts.com/luts/266
# LUTr-Author: FinnYoutube
# LUTr-Author-URL: https://freshluts.com/users/5419
# LUTr-Attribution: FinnYoutube via Fresh LUTs
# LUTr-Source-Labels: gamma=Rec 709; color=Orange; key=Low Key; style=Dusty Light
# LUTr-Note: Preserve this metadata and the upstream license notices when redistributing.
TITLE "Dusty Orange"
LUT_3D_SIZE 16
DOMAIN_MIN 0 0 0
DOMAIN_MAX 1 1 1
0 0 0
0.021349 -0.000154 -0.000154
0.070951 -0.000382 -0.000382
0.140164 -0.00064 -0.00064
0.213698 -0.000912 -0.000912
0.286241 -0.001195 -0.001195
0.357518 -0.001476 -0.001476
0.427706 -0.001764 -0.001764
0.497559 -0.002051 -0.002051
0.565849 -0.002339 -0.002339
0.63681 -0.002641 -0.002641
0.717157 -0.002992 -0.002992
0.81165 -0.003408 -0.003408
0.919955 -0.003895 -0.003895
1.039774 -0.004358 -0.004358
1.113062 -0.00464 -0.00464
0.009759 0.015279 0.009759
0.021349 0.016719 -0.00025
0.070951 0.022151 -0.00044
0.140164 0.025659 -0.000678
0.213698 0.028088 -0.000942
0.286241 0.029813 -0.001218
0.357518 0.031057 -0.001496
0.427706 0.032013 -0.00178
0.497559 0.032814 -0.002069
0.565849 0.033396 -0.002354
0.63681 0.034138 -0.002654
0.717157 0.03544 -0.003002
0.81165 0.03752 -0.003425
0.919954 0.040211 -0.003895
1.039774 0.042482 -0.004383
1.113062 0.042084 -0.004662
0.032423 0.050785 0.032423
0.030228 0.05503 0.011802
0.070951 0.055564 -0.000619
0.140164 0.064365 -0.000823
0.213698 0.070465 -0.001051
0.286241 0.074781 -0.001305
0.357518 0.077919 -0.001569
0.427706 0.080308 -0.001843
0.497559 0.082332 -0.00212
0.565848 0.083807 -0.002397
0.63681 0.085667 -0.00269
0.717157 0.08893 -0.003033
0.81165 0.094167 -0.003442
0.919954 0.10094 -0.003923
1.039774 0.106646 -0.004407
1.113062 0.105642 -0.004684
0.06432 0.100729 0.06432
0.076254 0.099607 0.0729
0.082194 0.110221 -0.000948
0.140163 0.110221 -0.001037
0.213697 0.120658 -0.001244
0.28624 0.12797 -0.001461
0.357518 0.133196 -0.001702
0.427706 0.137121 -0.00196
0.497559 0.140405 -0.002218
0.565848 0.142772 -0.002487
0.63681 0.145758 -0.002773
0.717157 0.150926 -0.003113
0.81165 0.159117 -0.003509
0.919954 0.169394 -0.003993
1.039774 0.177915 -0.004455
1.113062 0.17646 -0.004729
0.103144 0.159315 0.103144
0.114521 0.158132 0.11136
0.096158 0.171334 0.037551
0.152561 0.172824 -0.001381
0.213697 0.172823 -0.00148
0.28624 0.182181 -0.001684
0.357518 0.188857 -0.001898
0.427706 0.193883 -0.002129
0.497558 0.198092 -0.002369
0.565848 0.201146 -0.002617
0.63681 0.204965 -0.002896
0.717157 0.211616 -0.003218
0.811649 0.222109 -0.003623
0.919954 0.235324 -0.004089
1.039774 0.246274 -0.004549
1.113062 0.244392 -0.004815
0.146212 0.217553 0.146212
0.155529 0.216563 0.152884
0.174319 0.216947 0.163531
0.161147 0.234552 -0.001746
0.224705 0.234551 -0.001833
0.28624 0.234551 -0.001938
0.357518 0.242682 -0.002135
0.427706 0.248794 -0.002346
0.497558 0.25391 -0.002573
0.565848 0.257608 -0.002796
0.63681 0.262256 -0.003053
0.717157 0.270318 -0.003373
0.811649 0.283071 -0.003762
0.919954 0.299176 -0.00422
1.039774 0.312495 -0.004684
1.113062 0.310166 -0.004941
0.188749 0.274651 0.188749
0.196259 0.273866 0.194075
0.218415 0.272167 0.21026
0.177475 0.292897 0.071145
0.232555 0.29519 -0.002191
0.295787 0.295189 -0.002285
0.357517 0.295189 -0.002397
0.427705 0.302313 -0.002586
0.497558 0.308336 -0.002793
0.565848 0.312662 -0.003011
0.63681 0.318146 -0.003246
0.717156 0.3276 -0.003542
0.811649 0.342588 -0.003938
0.919954 0.361476 -0.004382
1.039774 0.377113 -0.004836
1.113062 0.374419 -0.005082
0.230533 0.330815 0.230533
0.236687 0.330198 0.234894
0.257373 0.328245 0.250105
0.260126 0.334945 0.235239
0.238453 0.354829 -0.002568
0.302977 0.354829 -0.002645
0.36591 0.354829 -0.002742
0.427705 0.354828 -0.00286
0.497558 0.361711 -0.003052
0.565848 0.366664 -0.003256
0.63681 0.372935 -0.003486
0.717156 0.383755 -0.003774
0.811649 0.400938 -0.004142
0.919954 0.42258 -0.004594
1.039774 0.440529 -0.005042
1.113062 0.437429 -0.005256
0.272059 0.38677 0.272059
0.277218 0.386197 0.275693
0.295853 0.384305 0.289315
0.31793 0.383943 0.304223
0.257042 0.411146 0.110107
0.308998 0.414163 -0.00302
0.372959 0.414163 -0.003112
0.435788 0.414163 -0.003209
0.497557 0.414162 -0.003329
0.565848 0.419777 -0.00352
0.636809 0.426837 -0.003728
0.717156 0.439059 -0.004005
0.811649 0.458331 -0.004396
0.919954 0.482714 -0.004829
1.039773 0.502935 -0.005271
1.113062 0.499458 -0.005492
0.312525 0.441314 0.312525
0.316947 0.440841 0.315625
0.33354 0.439129 0.327698
0.3569 0.437599 0.344754
0.339089 0.451418 0.294484
0.313324 0.47212 -0.003392
0.378078 0.47212 -0.003479
0.441637 0.47212 -0.003563
0.504207 0.47212 -0.003676
0.565848 0.47212 -0.003788
0.636809 0.479972 -0.004005
0.717155 0.493509 -0.004271
0.811649 0.514962 -0.004654
0.919953 0.541992 -0.005097
1.039773 0.56443 -0.005528
1.113061 0.56055 -0.005718
0.354648 0.498048 0.354648
0.358446 0.497616 0.35732
0.373249 0.496103 0.368022
0.396389 0.494167 0.3851
0.411042 0.496863 0.389302
0.335841 0.528602 0.152504
0.384546 0.532417 -0.003874
0.449021 0.532417 -0.003946
0.512473 0.532416 -0.004059
0.575073 0.532416 -0.004167
0.636809 0.532416 -0.004284
0.717155 0.547263 -0.004562
0.811648 0.570819 -0.004914
0.919953 0.600566 -0.005365
1.039773 0.625157 -0.005802
1.113061 0.620894 -0.005964
0.402141 0.56217 0.402141
0.405519 0.561805 0.404506
0.419065 0.5604 0.414192
0.441402 0.558324 0.430723
0.463958 0.557911 0.446095
0.42475 0.578903 0.355375
0.395696 0.600514 -0.004334
0.461797 0.600514 -0.004408
0.526877 0.600514 -0.004505
0.591015 0.600514 -0.004599
0.654363 0.600514 -0.004734
0.717154 0.600514 -0.004851
0.811648 0.626127 -0.005215
0.919953 0.658498 -0.005667
1.039773 0.685244 -0.006089
1.113061 0.680745 -0.006241
0.458082 0.637747 0.458082
0.461212 0.637426 0.460296
0.473737 0.636132 0.469217
0.495334 0.633978 0.485117
0.519975 0.632568 0.502948
0.520381 0.640839 0.484889
0.434608 0.675964 0.205512
0.481987 0.68083 -0.00497
0.549614 0.68083 -0.005052
0.616253 0.68083 -0.005152
0.682077 0.68083 -0.005268
0.747304 0.680829 -0.005399
0.811648 0.680829 -0.005528
0.919952 0.715639 -0.005964
1.039773 0.74463 -0.006418
1.113061 0.739829 -0.006559
0.522125 0.724135 0.522125
0.525017 0.723891 0.524132
0.536814 0.722644 0.532471
0.557737 0.720515 0.547878
0.583504 0.718546 0.566899
0.604193 0.719812 0.578444
0.541164 0.749065 0.438479
0.507501 0.772653 -0.005632
0.578317 0.772652 -0.005701
0.648104 0.772652 -0.005819
0.717175 0.772652 -0.005917
0.785431 0.772652 -0.006045
0.852956 0.772652 -0.006169
0.919952 0.772652 -0.006301
1.039772 0.803758 -0.00677
1.113061 0.798377 -0.006856
0.584416 0.808428 0.584416
0.58714 0.808145 0.586308
0.598127 0.806937 0.594137
0.618243 0.804849 0.608761
0.644274 0.802683 0.628076
0.669099 0.802225 0.645009
0.650409 0.817659 0.59496
0.555161 0.856147 0.27008
0.602079 0.862098 -0.006349
0.674521 0.862098 -0.006437
0.746146 0.862098 -0.00655
0.816964 0.862097 -0.006662
0.887055 0.862097 -0.006797
0.957236 0.862097 -0.006955
1.039772 0.862097 -0.007108
1.11306 0.856371 -0.007207
0.620652 0.857394 0.620652
0.623041 0.857068 0.622329
0.633021 0.855949 0.629341
0.65141 0.854127 0.642745
0.676265 0.85183 0.661076
0.702106 0.850575 0.67975
0.71376 0.85537 0.678006
0.634571 0.889651 0.499167
0.598015 0.914089 -0.006716
0.670054 0.914089 -0.006797
0.741029 0.914089 -0.006903
0.81154 0.914089 -0.007006
0.881165 0.914088 -0.007133
0.949657 0.914088 -0.007256
1.031702 0.914088 -0.0074
1.11306 0.914088 -0.007541
-0.000075 -0.000075 0.01477
0.021349 -0.000165 0.01477
0.070951 -0.000386 0.019571
0.140164 -0.000643 0.022667
0.213698 -0.000916 0.024812
0.286241 -0.001195 0.026333
0.357518 -0.001483 0.027441
0.427706 -0.001764 0.028284
0.497559 -0.002051 0.028991
0.565849 -0.002339 0.029503
0.63681 -0.002641 0.030155
0.717157 -0.002992 0.031307
0.81165 -0.003408 0.03315
0.919955 -0.003895 0.035522
1.039774 -0.004358 0.037525
1.113062 -0.00464 0.037173
-0.000221 0.016719 0.01477
0.022586 0.016357 0.013578
0.075828 0.011795 0.008541
0.143663 0.00989 0.006358
0.215859 0.009371 0.005749
0.287705 0.009322 0.005737
0.35852 0.009497 0.006006
0.428457 0.009803 0.006457
0.498179 0.010226 0.007041
0.566285 0.010734 0.007725
0.637158 0.011358 0.008529
0.71735 0.012171 0.009538
0.811763 0.01327 0.010853
0.919991 0.014692 0.012496
1.039774 0.01664 0.014685
1.113062 0.016628 0.014671
0.02378 0.053019 0.029693
0.038829 0.051025 0.037371
0.071872 0.055445 0.006561
0.141919 0.061025 0.005897
0.215165 0.065313 0.005697
0.28742 0.068593 0.005802
0.35837 0.071069 0.006115
0.428357 0.07305 0.006576
0.498101 0.074795 0.007165
0.566256 0.076108 0.007843
0.637136 0.077826 0.008638
0.717313 0.080823 0.009651
0.811749 0.085633 0.010961
0.91998 0.091852 0.01261
1.039774 0.09727 0.014683
1.113062 0.096388 0.01467
0.058743 0.102385 0.061893
0.068419 0.100818 0.067408
0.078426 0.110492 0.005738
0.140679 0.110152 0.005698
0.214464 0.118791 0.005757
0.286992 0.125095 0.00597
0.358177 0.12968 0.006336
0.428241 0.133224 0.006816
0.498045 0.13626 0.007404
0.566177 0.138468 0.00807
0.637137 0.141339 0.008864
0.717243 0.146372 0.009863
0.81178 0.154359 0.01118
0.919959 0.164444 0.012833
1.039774 0.172853 0.01468
1.113062 0.171438 0.014666
0.098829 0.160501 0.101106
0.106008 0.159369 0.105275
0.104393 0.168131 0.070767
0.150676 0.172922 0.005873
0.213982 0.172791 0.005994
0.286668 0.181169 0.006299
0.357922 0.187205 0.006695
0.428095 0.191856 0.007186
0.497969 0.19579 0.007775
0.566122 0.198668 0.008434
0.637083 0.202385 0.009214
0.717226 0.208881 0.010216
0.811746 0.219224 0.011532
0.919931 0.232293 0.013188
1.039774 0.243124 0.014676
1.113062 0.241253 0.014661
0.142907 0.218416 0.144626
0.14823 0.217571 0.147723
0.175031 0.215989 0.166512
0.157997 0.234692 0.006396
0.22367 0.23462 0.006549
0.28642 0.234543 0.006774
0.357736 0.242043 0.007196
0.427973 0.247749 0.007693
0.497843 0.252594 0.008279
0.566056 0.256099 0.008928
0.637055 0.260618 0.009697
0.717189 0.268561 0.010689
0.811705 0.281175 0.012013
0.919896 0.297134 0.013674
1.039774 0.310323 0.01467
1.113062 0.308039 0.014656
0.18623 0.275328 0.187513
0.190243 0.274652 0.189848
0.215647 0.272373 0.208439
0.181583 0.291253 0.09675
0.230759 0.295227 0.00732
0.29516 0.295198 0.007539
0.3576 0.295167 0.007834
0.427856 0.301915 0.008338
0.497748 0.30762 0.008918
0.56598 0.31177 0.009551
0.636897 0.317096 0.010308
0.717153 0.326455 0.011295
0.811736 0.341292 0.012626
0.919972 0.360019 0.014298
1.039774 0.375612 0.014662
1.113062 0.372923 0.014646
0.228508 0.331348 0.229554
0.231692 0.33082 0.231401
0.254292 0.328593 0.247873
0.264567 0.333074 0.243903
0.236215 0.354881 0.008252
0.301828 0.354878 0.008473
0.365544 0.354855 0.008749
0.427788 0.35481 0.009103
0.497707 0.361396 0.009679
0.565936 0.366155 0.010294
0.636874 0.37228 0.011034
0.717186 0.383014 0.012027
0.811696 0.400029 0.013367
0.919954 0.421564 0.014674
1.039773 0.439372 0.014649
1.113062 0.436277 0.014638
0.270402 0.387209 0.271246
0.273018 0.386766 0.27278
0.292819 0.384671 0.287128
0.3169 0.383798 0.303914
0.25956 0.410121 0.130539
0.30753 0.414221 0.009551
0.372239 0.414197 0.009817
0.435488 0.414174 0.010152
0.497632 0.414153 0.010542
0.565897 0.41954 0.01115
0.636866 0.426461 0.011882
0.717181 0.43853 0.01287
0.811662 0.457726 0.014225
0.919954 0.481981 0.014661
1.039773 0.502083 0.014636
1.113062 0.498567 0.014624
0.311151 0.441684 0.311833
0.313361 0.441306 0.313125
0.330721 0.439506 0.325637
0.355477 0.437662 0.343783
0.343007 0.449927 0.302934
0.311659 0.472158 0.010731
0.377119 0.472146 0.010984
0.441068 0.472135 0.011297
0.503936 0.472124 0.011671
0.565871 0.472116 0.012113
0.636836 0.479789 0.012832
0.717115 0.493221 0.013824
0.811649 0.514501 0.014672
0.919953 0.541451 0.014647
1.039773 0.563796 0.014619
1.113062 0.55992 0.014606
0.353426 0.498373 0.354054
0.355259 0.498031 0.35515
0.370701 0.496412 0.36613
0.394721 0.4943 0.383925
0.412143 0.496212 0.391713
0.337716 0.527834 0.168219
0.383356 0.532374 0.012319
0.448281 0.532366 0.012625
0.512055 0.532359 0.012977
0.574891 0.532418 0.013398
0.636817 0.532415 0.013872
0.717155 0.547139 0.014675
0.811648 0.570544 0.014656
0.919953 0.600203 0.014629
1.039773 0.624691 0.014598
1.113061 0.620426 0.014587
0.401049 0.562469 0.401599
0.402744 0.562156 0.402567
0.416595 0.560667 0.4125
0.439648 0.55844 0.429451
0.463212 0.557835 0.445755
0.427983 0.577697 0.363179
0.394413 0.600518 0.013992
0.460896 0.600516 0.014275
0.526269 0.600514 0.014628
0.590666 0.600514 0.014675
0.654248 0.600514 0.014666
0.717154 0.600514 0.01466
0.811648 0.626019 0.01464
0.919953 0.658253 0.01461
1.039773 0.684991 0.014577
1.113061 0.680285 0.014565
0.457124 0.638014 0.457617
0.45862 0.637728 0.458489
0.471417 0.636383 0.467599
0.493569 0.634192 0.483826
0.51896 0.632598 0.502344
0.522245 0.639936 0.488572
0.43613 0.6754 0.218808
0.480969 0.68083 0.014654
0.548868 0.68083 0.014648
0.615775 0.68083 0.014643
0.681776 0.68083 0.014636
0.747098 0.680829 0.014628
0.811648 0.680829 0.014619
0.919952 0.715664 0.014587
1.039773 0.74463 0.014551
1.113061 0.73951 0.01454
0.521239 0.724536 0.521681
0.5225 0.724105 0.522441
0.534549 0.722913 0.530914
0.555917 0.720627 0.546527
0.582294 0.71865 0.566051
0.604129 0.71951 0.579
0.543972 0.747996 0.445903
0.506271 0.772653 0.014613
0.57744 0.772653 0.014608
0.647539 0.772652 0.014598
0.716644 0.772652 0.014591
0.785102 0.772652 0.01458
0.852749 0.772652 0.014571
0.919952 0.772652 0.01456
1.039772 0.803645 0.014525
1.113061 0.798179 0.014513
0.583615 0.808631 0.584037
0.584781 0.808411 0.584701
0.596011 0.807179 0.592632
0.61639 0.805088 0.607428
0.64291 0.802782 0.627125
0.668406 0.802162 0.644639
0.652631 0.816702 0.599224
0.556504 0.855578 0.281729
0.601096 0.862098 0.014557
0.673791 0.862098 0.01455
0.745639 0.862098 0.014541
0.81661 0.862097 0.014531
0.886764 0.862097 0.014518
0.957139 0.862097 0.014503
1.039772 0.862097 0.014489
1.11306 0.856337 0.01448
0.61989 0.857487 0.620273
0.620941 0.857376 0.620893
0.631074 0.856249 0.627987
0.649734 0.854312 0.641582
0.6749 0.851909 0.660171
0.701333 0.850515 0.679304
0.714665 0.854916 0.679687
0.636862 0.888791 0.505797
0.596995 0.914089 0.014526
0.669245 0.914089 0.014518
0.740479 0.914089 0.014508
0.811097 0.914089 0.014499
0.88085 0.914088 0.014488
0.949535 0.914088 0.014475
1.031595 0.914088 0.01446
1.11306 0.914088 0.014445
-0.000186 -0.000186 0.049089
0.02829 -0.000252 0.049089
0.070951 -0.000408 0.049089
0.140164 -0.000657 0.056864
0.213698 -0.000926 0.062246
0.286241 -0.001204 0.066064
0.357518 -0.001482 0.068842
0.427706 -0.001769 0.07095
0.497559 -0.00206 0.072746
0.565849 -0.002347 0.074042
0.63681 -0.002654 0.075689
0.717157 -0.002992 0.078568
0.81165 -0.003408 0.083204
0.919955 -0.003895 0.089165
1.039774 -0.004383 0.09421
1.113062 -0.004639 0.093342
-0.000307 0.022151 0.049089
0.021357 0.014732 0.056473
0.076078 0.010042 0.051204
0.144244 0.007457 0.053926
0.216303 0.006596 0.057088
0.288011 0.006442 0.059785
0.358823 0.006632 0.061934
0.428671 0.007012 0.063662
0.498378 0.007545 0.065218
0.566419 0.008179 0.066395
0.637323 0.008946 0.067955
0.717299 0.00991 0.07065
0.811886 0.011187 0.074987
0.920121 0.012799 0.080583
1.039774 0.01664 0.085941
1.113062 0.016628 0.085156
-0.000546 0.055564 0.049089
0.012363 0.056579 0.049025
0.075085 0.054377 0.045131
0.153659 0.046463 0.036273
0.226576 0.039776 0.029001
0.29676 0.035724 0.024449
0.36586 0.033431 0.021774
0.43442 0.032146 0.020246
0.503075 0.031427 0.019402
0.570403 0.031065 0.019001
0.640671 0.03094 0.018906
0.720172 0.031002 0.019073
0.814239 0.031298 0.019562
0.922067 0.031853 0.020409
1.039774 0.055533 0.049061
1.113062 0.055532 0.049056
0.008501 0.110005 0.057457
0.028212 0.109471 0.057057
0.068341 0.11104 0.043343
0.144179 0.109554 0.028398
0.220532 0.111608 0.025046
0.293182 0.113236 0.022537
0.363773 0.114672 0.020858
0.433163 0.116032 0.019807
0.502286 0.11749 0.01921
0.569888 0.118609 0.018943
0.640286 0.120493 0.018922
0.720067 0.12431 0.019141
0.814128 0.130692 0.019664
0.921922 0.138964 0.020543
1.039774 0.153302 0.049059
1.113062 0.152134 0.049053
0.07564 0.165691 0.094447
0.084658 0.164673 0.097294
0.124798 0.160128 0.119886
0.144481 0.173827 0.02322
0.216229 0.172459 0.022193
0.290169 0.177274 0.020907
0.361727 0.18085 0.019979
0.431774 0.183682 0.019369
0.501319 0.186312 0.019018
0.569221 0.188208 0.018905
0.639866 0.191065 0.018975
0.719596 0.196692 0.019262
0.813864 0.205932 0.019836
0.921726 0.217803 0.020758
1.039774 0.231587 0.049056
1.113062 0.229807 0.04905
0.126779 0.222165 0.138789
0.132229 0.221489 0.140709
0.162403 0.21787 0.158658
0.146246 0.235729 0.020591
0.220668 0.235054 0.020207
0.287978 0.234355 0.019797
0.360005 0.239641 0.01934
0.430509 0.243755 0.019042
0.500387 0.247396 0.018913
0.568543 0.25001 0.018931
0.639343 0.253789 0.019092
0.719342 0.260942 0.019453
0.813567 0.272694 0.02009
0.921563 0.287742 0.02106
1.039774 0.302576 0.049055
1.113062 0.300318 0.049046
0.174257 0.278274 0.18248
0.178315 0.277711 0.184282
0.200906 0.27486 0.197944
0.20614 0.283172 0.174267
0.224551 0.29585 0.01924
0.293478 0.295433 0.019103
0.358769 0.295016 0.018988
0.429441 0.300261 0.018909
0.499569 0.304895 0.018932
0.567881 0.308201 0.019055
0.63879 0.312805 0.019304
0.718931 0.321461 0.019727
0.813279 0.335576 0.02043
0.921368 0.35354 0.021469
1.039774 0.370048 0.049049
1.113062 0.367304 0.049047
0.219186 0.333743 0.225367
0.222356 0.333275 0.226883
0.239978 0.330989 0.237631
0.272141 0.329358 0.259884
0.227903 0.355531 0.018914
0.29802 0.355244 0.018905
0.364435 0.354966 0.018916
0.428648 0.354714 0.018963
0.49889 0.360238 0.019096
0.567281 0.364161 0.019305
0.638356 0.369604 0.019612
0.718428 0.379712 0.020107
0.812985 0.396102 0.02088
0.921116 0.416984 0.021983
1.039773 0.435338 0.049049
1.113062 0.432138 0.04904
0.262814 0.38919 0.267726
0.265393 0.388753 0.269029
0.279635 0.386868 0.277733
0.31183 0.384191 0.301225
0.27339 0.405416 0.194008
0.302257 0.414666 0.019058
0.36969 0.414462 0.01914
0.434827 0.414283 0.019256
0.49838 0.414052 0.019413
0.566824 0.418665 0.019672
0.637968 0.424932 0.02004
0.718281 0.436475 0.020589
0.812728 0.455063 0.021433
0.920822 0.47877 0.022606
1.039773 0.499047 0.049039
1.113062 0.495466 0.04903
0.304822 0.443342 0.308882
0.306991 0.442984 0.309998
0.318784 0.441421 0.317223
0.349017 0.43854 0.339383
0.35603 0.444947 0.328851
0.305367 0.472549 0.019483
0.373527 0.472452 0.019597
0.439313 0.472341 0.019741
0.503504 0.472208 0.019935
0.566436 0.47206 0.020173
0.637594 0.479106 0.020573
0.717879 0.491986 0.021177
0.812499 0.512792 0.022094
0.920766 0.539246 0.023344
1.039773 0.56159 0.049028
1.113061 0.557605 0.049026
0.34803 0.499807 0.351454
0.349822 0.49947 0.352376
0.359854 0.498085 0.358511
0.387716 0.495337 0.378947
0.412797 0.495075 0.395486
0.346444 0.524676 0.218881
0.378959 0.532716 0.020281
0.445671 0.532555 0.020449
0.51074 0.532491 0.020666
0.574577 0.532421 0.020923
0.63732 0.532309 0.021221
0.717741 0.546564 0.021876
0.812271 0.569504 0.022866
0.920542 0.598663 0.024198
1.039773 0.623064 0.049027
1.113061 0.61865 0.049022
0.39631 0.563727 0.399331
0.397946 0.563437 0.400192
0.406504 0.56222 0.405409
0.432382 0.559543 0.424197
0.459817 0.557999 0.443996
0.439743 0.573457 0.389278
0.389152 0.600792 0.021288
0.457514 0.60076 0.02148
0.524239 0.600694 0.021711
0.589619 0.600612 0.021987
0.653947 0.600562 0.02231
0.717442 0.600467 0.02268
0.812129 0.625516 0.023738
0.92036 0.657335 0.02516
1.039773 0.68394 0.049015
1.113061 0.679011 0.049015
0.452837 0.639147 0.455522
0.454297 0.638879 0.456305
0.461715 0.63779 0.460809
0.486093 0.635244 0.478402
0.514558 0.633011 0.49939
0.528204 0.637173 0.500028
0.442817 0.672775 0.263328
0.476803 0.681026 0.022963
0.546124 0.681041 0.023213
0.614058 0.680891 0.023515
0.680881 0.680826 0.023861
0.746884 0.680847 0.02426
0.81195 0.680782 0.024707
0.920282 0.715112 0.026219
1.039773 0.743847 0.04901
1.113061 0.73862 0.048999
0.517259 0.725535 0.51971
0.51854 0.725204 0.520487
0.525144 0.72418 0.524389
0.548241 0.721846 0.540985
0.577148 0.719277 0.562412
0.602263 0.719317 0.578816
0.554802 0.744126 0.472646
0.501401 0.772868 0.024964
0.574022 0.772823 0.025239
0.645208 0.772775 0.025559
0.715097 0.772739 0.02594
0.784282 0.772714 0.02636
0.852455 0.772663 0.02684
0.920072 0.772613 0.027379
1.039772 0.803288 0.048999
1.113061 0.797615 0.048991
0.579948 0.809627 0.58222
0.581134 0.809414 0.582901
0.586993 0.808446 0.58636
0.608838 0.806169 0.601972
0.637413 0.803405 0.623058
0.66538 0.802226 0.642931
0.660288 0.813494 0.614228
0.562172 0.853278 0.323357
0.597106 0.862254 0.027463
0.670939 0.862213 0.027793
0.743541 0.862169 0.028185
0.81533 0.862125 0.028625
0.886003 0.862147 0.029128
0.956674 0.862097 0.048986
1.039772 0.862097 0.048984
1.11306 0.855986 0.048986
0.616588 0.858438 0.618672
0.617727 0.858215 0.619277
0.622993 0.857343 0.622434
0.64273 0.855267 0.636501
0.669559 0.852639 0.656197
0.697879 0.850801 0.677005
0.716736 0.853426 0.684687
0.645997 0.885593 0.530495
0.592779 0.91415 0.028783
0.666131 0.914225 0.029108
0.738215 0.914188 0.029476
0.809535 0.914146 0.0299
0.879785 0.914169 0.030372
0.949535 0.91413 0.030898
1.031235 0.914088 0.04898
1.11306 0.914088 0.04897
-0.000311 -0.000311 0.097386
0.032768 -0.000358 0.097386
0.059251 0.033892 0.066388
0.140164 -0.000683 0.097386
0.213698 -0.000946 0.106615
0.286241 -0.001218 0.113154
0.357518 -0.001496 0.117894
0.427706 -0.00178 0.121521
0.497559 -0.002069 0.12455
0.565849 -0.002354 0.12674
0.63681 -0.002654 0.129495
0.717157 -0.003002 0.134269
0.81165 -0.003425 0.141802
0.919954 -0.003895 0.15131
1.039774 -0.004383 0.159191
1.113062 -0.004662 0.157835
-0.000405 0.025659 0.097386
0.018691 0.011623 0.10956
0.071399 0.026566 0.086229
0.143768 0.007311 0.099136
0.216133 0.006566 0.105362
0.287971 0.006446 0.110437
0.358783 0.006647 0.114367
0.428648 0.007029 0.117502
0.498361 0.007562 0.120257
0.566413 0.008197 0.122288
0.637318 0.008964 0.124947
0.717291 0.009929 0.129625
0.811884 0.011206 0.137043
0.920119 0.012817 0.14642
1.039774 0.016639 0.154499
1.113062 0.016628 0.153168
-0.000641 0.064365 0.097386
0.011162 0.062283 0.101554
0.073824 0.052718 0.107853
0.154446 0.04366 0.101877
0.228452 0.035021 0.099133
0.298699 0.029338 0.097723
0.36762 0.025854 0.097494
0.435919 0.023746 0.097935
0.504341 0.022486 0.098806
0.571508 0.021788 0.099598
0.641597 0.021456 0.101159
0.721096 0.02142 0.104594
0.814952 0.021711 0.110545
0.922606 0.022384 0.118408
1.039774 0.055533 0.136465
1.113062 0.055532 0.135376
-0.000918 0.110221 0.097386
0.008986 0.110946 0.097437
0.057246 0.112978 0.095754
0.147816 0.107849 0.089529
0.232492 0.098075 0.078356
0.307892 0.088041 0.067492
0.378161 0.080107 0.058861
0.446171 0.074333 0.052435
0.513796 0.070213 0.047742
0.579925 0.067356 0.044407
0.649046 0.065245 0.041921
0.72759 0.063615 0.039983
0.820464 0.062409 0.038558
0.927213 0.061662 0.037727
