site/assets/luts/freshluts--0002079-flora-portrait-cned.cube
# LUTr-Schema-Version: 2
# LUTr-ID: freshluts--0002079-flora-portrait-cned
# LUTr-Title: Flora Portrait (CNED)
# LUTr-Collection: Fresh LUTs
# LUTr-Collection-ID: freshluts-community
# LUTr-Source: https://freshluts.com
# LUTr-Retrieved: 2026-07-27
# LUTr-Source-File: submissions-raw/freshluts/cubes/2079__Panasonic_CNED_LUT_Flora_Portra.cube
# LUTr-Source-Format: CUBE
# LUTr-Source-SHA256: 1060d6b5cd8331b50411503e590901f5112c40248041c6063aeb082d0cbc6eb5
# LUTr-License: CC0-1.0
# LUTr-License-URL: https://freshluts.com/termsandconditions
# LUTr-License-Basis: site-terms
# LUTr-Transform-Class: creative-look
# LUTr-Tags: creative, freshluts, community, cube, green, low-key, panasonic-cinelike-d
# LUTr-Input-Color-Space: panasonic-cinelike-d
# LUTr-Input-Gamut: rec709
# LUTr-Input-Transfer: panasonic-cinelike-d
# LUTr-Output-Color-Space: srgb
# LUTr-Output-Gamut: rec709
# LUTr-Output-Transfer: srgb
# LUTr-Color-Space-Confidence: inferred-from-source-label
# LUTr-Domain-Normalized: true
# LUTr-Shaper: none
# LUTr-Original-Grid: 33x33x33
# LUTr-Conversion-Grid: 33x33x33
# LUTr-Conversion-Interpolation: none
# LUTr-Conversion-Method: Metadata normalization; numeric LUT samples preserved
# LUTr-Conversion-Tool: LUTr scripts/convert-all-to-cube.mjs 2.0.0
# LUTr-Conversion-Date: 2026-07-28
# LUTr-Asset-URL: https://freshluts.com/luts/2079
# LUTr-Author: DennisVanHeygen
# LUTr-Author-URL: https://freshluts.com/users/9278
# LUTr-Attribution: DennisVanHeygen via Fresh LUTs
# LUTr-Source-Labels: gamma=Panasonic Cinelike-D; color=Green; key=Low Key; style=Fresh look
# LUTr-Note: Preserve this metadata and the upstream license notices when redistributing.
TITLE "Flora Portrait (CNED)"
LUT_3D_SIZE 9
DOMAIN_MIN 0 0 0
DOMAIN_MAX 1 1 1
0 0 0.0209201
0.00939956 0 0.0223239
0.100389 0 0.0230106
0.216464 0 0.0137331
0.348074 0 0.00117494
0.463172 0 0
0.577295 0 0.0166323
0.673915 0 0.0157778
0.76405 0 0.0175479
0 0.0513924 0.0239414
0.011841 0.0519265 0.0244297
0.097734 0.0508888 0.0228885
0.218402 0.0417029 0.0134127
0.350912 0.0304875 0.00239567
0.46836 0.0218357 0
0.589166 0.00440986 0.0201724
0.692317 0.00390631 0.0257877
0.789792 0.00761425 0.0349126
0 0.125902 0.0195621
0.00933852 0.125795 0.0217746
0.0984817 0.127581 0.0228885
0.224887 0.122911 0.0180362
0.365927 0.117494 0.0152132
0.489723 0.11577 0.0148013
0.607095 0.11397 0.0285039
0.730694 0.111025 0.0543069
0.832715 0.118868 0.0679789
0 0.218708 0.0016022
0 0.226993 0.0081178
0.0909895 0.235996 0.0161288
0.224842 0.237812 0.019791
0.374273 0.236713 0.0227054
0.502266 0.238148 0.0269322
0.614008 0.244099 0.0346532
0.754482 0.239551 0.0653544
0.8589 0.249348 0.0814984
0 0.34226 0
0 0.356191 0.00657664
0.0906081 0.369528 0.018616
0.224643 0.375006 0.0236973
0.376394 0.376074 0.0268864
0.507164 0.378882 0.0325933
0.620325 0.385031 0.041001
0.750713 0.385534 0.0575265
0.868467 0.388281 0.077348
0 0.475822 0.00383001
0.00364691 0.490791 0.0176242
0.103166 0.504952 0.0313268
0.235508 0.510658 0.0363165
0.384558 0.511345 0.0375982
0.512734 0.512093 0.0402838
0.624109 0.515526 0.0459449
0.73138 0.519692 0.0522621
0.829297 0.524834 0.0592966
0 0.602121 0.0267338
0.0282292 0.616358 0.0399939
0.124743 0.628809 0.0515908
0.253056 0.632166 0.0538949
0.396262 0.63006 0.051667
0.520546 0.627771 0.0504921
0.629358 0.628626 0.0528878
0.734997 0.630976 0.057023
0.832441 0.635554 0.0632334
0 0.723766 0.0483558
0.0487068 0.734829 0.0586404
0.141497 0.744228 0.067277
0.266545 0.74548 0.0674449
0.405982 0.741909 0.0633402
0.52874 0.739101 0.0609445
0.636591 0.73904 0.0620279
0.741039 0.740261 0.0646067
0.837079 0.743221 0.0690623
0 0.833539 0.0679789
0.0687572 0.843183 0.0768749
0.160494 0.851896 0.0848402
0.28368 0.852155 0.0839857
0.419821 0.847578 0.0786908
0.540063 0.843305 0.0744182
0.646708 0.842054 0.0738689
0.749737 0.841962 0.0749371
0.844144 0.843366 0.0774853
0 0 0.0603799
0.0141909 0 0.0600443
0.104387 0 0.0605478
0.222721 0 0.0504768
0.35407 0 0.0369421
0.468071 0 0.0251926
0.58024 0 0.0512398
0.677012 0 0.0504921
0.76733 0 0.0528267
0 0.055024 0.0611429
0.015259 0.0549325 0.061387
0.100572 0.0540169 0.060029
0.224994 0.0441596 0.0502937
0.357595 0.0332494 0.0386816
0.474418 0.025391 0.0304417
0.593698 0.0099794 0.0560006
0.697871 0.00984207 0.0628672
0.795758 0.014435 0.072694
0 0.129381 0.0571298
0.0141299 0.129396 0.0599985
0.103059 0.13164 0.0631266
0.233433 0.127779 0.0559701
0.374899 0.123125 0.0533913
0.497551 0.122057 0.0532998
0.606165 0.125658 0.0583047
0.737438 0.118975 0.0928511
0.839353 0.127184 0.106706
0 0.224933 0.0391852
0 0.234287 0.0465095
0.0965744 0.243671 0.0541238
0.233234 0.245304 0.0573129
0.383459 0.244388 0.0607462
0.510231 0.246235 0.0653391
0.62208 0.252491 0.0732586
0.760967 0.248722 0.103212
0.864942 0.258656 0.119326
0 0.351019 0.0330205
0 0.364996 0.0453346
0.0975204 0.378531 0.0572518
0.233234 0.38378 0.0617075
0.385367 0.38471 0.0647898
0.514961 0.387549 0.0706493
0.628046 0.393561 0.078996
0.758999 0.393561 0.0954757
0.874189 0.396735 0.114351
0 0.48452 0.0428168
0.0108034 0.499489 0.0570993
0.110903 0.513313 0.0703593
0.244404 0.518502 0.0746014
0.392721 0.518822 0.0753338
0.519966 0.519387 0.0778058
0.631067 0.522454 0.0831617
0.737728 0.526253 0.089189
0.835172 0.531334 0.0961624
0 0.610651 0.0660716
0.0350195 0.624521 0.0789349
0.131853 0.636439 0.0898604
0.261173 0.639216 0.0914168
0.403479 0.636591 0.0884871
0.526925 0.634287 0.0872053
0.635813 0.635126 0.0896162
0.741146 0.637415 0.0937819
0.838132 0.641917 0.0999924
0 0.731243 0.0869612
0.0545968 0.741772 0.0965744
0.148013 0.750896 0.104829
0.274174 0.751766 0.104417
0.413108 0.748043 0.100053
0.534936 0.745205 0.0975509
0.642771 0.745052 0.0985275
0.746929 0.746212 0.101091
0.842451 0.749096 0.105531
0 0.840101 0.105943
0.0746471 0.849714 0.114672
0.166964 0.858106 0.122255
0.291218 0.857893 0.120867
0.426734 0.853117 0.11519
0.546075 0.848829 0.110933
0.652628 0.847456 0.110201
0.755261 0.847227 0.11107
0.849195 0.848585 0.113603
0 0 0.130922
0.0168307 0 0.131167
0.105425 0 0.129412
0.224796 0 0.117769
0.356359 0 0.102739
0.469932 0 0.0904097
0.57879 0 0.11545
0.675608 0 0.11458
0.766583 0 0.117235
0 0.0561379 0.131136
0.0161135 0.0557259 0.128115
0.10248 0.0545663 0.126925
0.227924 0.0446632 0.118685
0.361181 0.0344396 0.105699
0.477638 0.0271458 0.0970779
0.584756 0.0213779 0.104936
0.699397 0.0145876 0.129702
0.797635 0.0197147 0.139696
0 0.130373 0.126223
0.0151217 0.131472 0.127367
0.105898 0.134081 0.131609
0.237751 0.130739 0.126818
0.381308 0.126818 0.122774
0.503182 0.126375 0.122347
0.611658 0.130663 0.126818
0.740322 0.125231 0.160937
0.842298 0.133776 0.174762
0 0.228748 0.108751
0.00151064 0.239002 0.11722
0.101106 0.248631 0.126177
0.239155 0.25066 0.128328
0.390341 0.249622 0.130022
0.516701 0.251911 0.134859
0.628733 0.258366 0.142687
0.749767 0.261891 0.160922
0.868086 0.265721 0.187213
0 0.356924 0.102937
0.00209049 0.371237 0.115496
0.102113 0.385046 0.127291
0.238605 0.390402 0.130755
0.391653 0.391165 0.133532
0.521035 0.393637 0.139467
0.634272 0.399359 0.147723
0.743084 0.406531 0.156771
0.87657 0.402975 0.18114
0 0.490715 0.113008
0.0160678 0.505669 0.127245
0.116106 0.519341 0.140154
0.24979 0.524346 0.143587
0.397787 0.524208 0.143359
0.524742 0.524361 0.145541
0.636088 0.527016 0.150759
0.742321 0.530388 0.156481
0.845869 0.533318 0.164569
0 0.616602 0.135637
0.039704 0.630228 0.148211
0.136172 0.641642 0.158495
0.265675 0.644251 0.159518
0.407294 0.641154 0.155642
0.530495 0.638712 0.154086
0.639826 0.639353 0.156466
0.74519 0.641505 0.160693
0.842191 0.645823 0.166827
0 0.735866 0.155367
0.058381 0.746288 0.164904
0.151827 0.755291 0.172869
0.278202 0.755993 0.172076
0.416831 0.752316 0.1673
0.538186 0.749249 0.164477
0.646296 0.748867 0.165164
0.750423 0.749828 0.167651
0.846021 0.752544 0.172
0 0.844297 0.174136
0.0782177 0.853803 0.182712
0.170626 0.862043 0.190036
0.295033 0.861662 0.18822
0.43003 0.856687 0.182086
0.548852 0.852338 0.177493
0.655665 0.850797 0.176608
0.75816 0.850294 0.177249
0.85211 0.851408 0.179614
0 0 0.241886
0.0121157 0 0.243519
0.0994278 0 0.243137
0.220096 0 0.232532
0.353368 0 0.216602
0.467765 0 0.203326
0.570703 0 0.226719
0.668315 0 0.225681
0.759625 0 0.228046
0 0.0530098 0.244511
0.012665 0.0527352 0.246509
0.100587 0.0511635 0.246632
0.22359 0.0424811 0.236011
0.359716 0.032517 0.221653
0.477485 0.025864 0.212207
0.579873 0.0252232 0.210101
0.694881 0.0168917 0.243565
0.793652 0.0224613 0.2533
0 0.12723 0.242145
0.0112764 0.129946 0.247242
0.104829 0.133288 0.251987
0.237476 0.130404 0.249073
0.383413 0.126986 0.242634
0.505821 0.12723 0.240513
0.614618 0.131975 0.244312
0.734585 0.130465 0.271992
0.839643 0.13753 0.290166
0 0.228656 0.227863
0.00350958 0.239246 0.238956
0.101991 0.249653 0.249821
0.240665 0.251942 0.253758
0.394888 0.250675 0.251118
0.521004 0.253513 0.254047
0.632929 0.260304 0.261097
0.742153 0.269368 0.270481
0.865934 0.269535 0.303136
0 0.358801 0.221851
0.00373846 0.373495 0.235386
0.102815 0.387671 0.24799
0.238117 0.393622 0.250507
0.39411 0.393744 0.250736
0.525063 0.39556 0.256641
0.638254 0.401114 0.264836
0.746624 0.407935 0.273381
0.845991 0.416175 0.282887
0 0.493248 0.231235
0.0177615 0.508263 0.245777
0.116976 0.521874 0.258793
0.249653 0.527016 0.261387
0.39791 0.526604 0.258961
0.526162 0.525811 0.260136
0.63827 0.527977 0.265446
0.744518 0.530877 0.271015
0.841779 0.535698 0.277974
0 0.618738 0.252705
0.0404822 0.632166 0.265339
0.136095 0.64329 0.27538
0.264622 0.64567 0.275502
0.406226 0.642557 0.270207
0.530312 0.639811 0.267674
0.640482 0.640055 0.269795
0.746624 0.64213 0.274281
0.843565 0.646021 0.280308
0 0.736889 0.27097
0.0580606 0.74728 0.280598
0.151171 0.756283 0.288594
0.277089 0.757 0.287297
0.415564 0.753307 0.281483
0.537301 0.750072 0.277684
0.64593 0.749386 0.277928
0.750576 0.749966 0.280171
0.846433 0.752407 0.284489
0 0.84506 0.289219
0.0776074 0.854475 0.297932
0.169635 0.862608 0.30515
0.293645 0.862226 0.302907
0.428443 0.857221 0.295872
0.547387 0.852628 0.290394
0.654505 0.85095 0.288991
0.757305 0.850065 0.289158
0.851469 0.850797 0.291386
0 0 0.37673
0.00614939 0 0.378302
0.0924239 0 0.379095
0.212131 0 0.370184
0.346807 0 0.355169
0.463004 0 0.341466
0.558328 0 0.363134
0.656962 0 0.361822
0.749294 0 0.364172
0 0.0486915 0.38027
0.00807202 0.0487526 0.382025
0.0940566 0.0479438 0.382727
0.215564 0.0397192 0.374929
0.354192 0.0297856 0.362631
0.474876 0.0238499 0.353613
0.57847 0.023682 0.351324
0.686366 0.018265 0.383658
0.785931 0.0243839 0.393301
0 0.123171 0.380377
0.0101167 0.126528 0.385718
0.102693 0.131472 0.392874
0.233295 0.129824 0.39321
0.380667 0.126558 0.388251
0.505455 0.126879 0.385458
0.615305 0.131945 0.388403
0.723827 0.138277 0.397498
0.833356 0.140169 0.431998
0 0.226932 0.370947
0.00648508 0.237705 0.383551
0.104112 0.248524 0.396475
0.240223 0.251743 0.403662
0.394659 0.250629 0.402823
0.522774 0.253468 0.401724
0.635157 0.260533 0.406455
0.744396 0.269688 0.414191
0.846448 0.279866 0.425559
0 0.358511 0.3664
0.00619516 0.373419 0.381674
0.105089 0.387625 0.396063
0.238376 0.393774 0.402594
0.394217 0.393851 0.403586
0.528069 0.39501 0.40412
0.641474 0.400534 0.409491
0.749096 0.407324 0.416205
0.847761 0.415259 0.42414
0 0.493812 0.375494
0.0190127 0.508782 0.390814
0.117327 0.522286 0.404196
0.24799 0.527474 0.407538
0.394965 0.527276 0.403983
0.525795 0.52546 0.402289
0.639689 0.526665 0.405921
0.745983 0.529381 0.411246
0.843046 0.534188 0.417731
0 0.618845 0.395407
0.0400854 0.631983 0.407813
0.134813 0.642939 0.417716
0.261707 0.645182 0.417716
0.402213 0.642451 0.411292
0.527276 0.639582 0.406439
0.639506 0.639109 0.407858
0.746746 0.64065 0.412436
0.844022 0.644282 0.418463
0 0.736095 0.41149
0.0564584 0.74641 0.420996
0.148974 0.755428 0.42887
0.274022 0.756283 0.427588
0.411841 0.752758 0.421103
0.533654 0.749477 0.415793
0.643275 0.748425 0.414984
0.749035 0.748486 0.416938
0.845502 0.750469 0.421195
0 0.843976 0.428458
0.0754406 0.853376 0.436988
0.166949 0.861418 0.443976
0.290166 0.861051 0.441611
0.424582 0.856153 0.43418
0.54342 0.851514 0.42768
0.650828 0.849515 0.425238
0.754437 0.848264 0.424857
0.849241 0.8486 0.426795
0 0 0.500359
0.00164797 0 0.502144
0.0869764 0 0.50309
0.205325 0 0.495399
0.340108 0 0.482567
0.457847 0 0.470451
0.555825 0 0.462318
0.648325 0 0.478401
0.739208 0 0.495262
0 0.0448768 0.504082
0.00389105 0.0451514 0.505745
0.089189 0.0448768 0.506859
0.209613 0.0374304 0.500862
0.348638 0.0279393 0.491371
0.471809 0.022858 0.484764
0.576761 0.0231785 0.483436
0.678172 0.0217746 0.510002
0.778058 0.0268711 0.525307
0 0.120058 0.505974
0.00900282 0.124437 0.511742
0.101305 0.130297 0.519066
0.230701 0.130068 0.520806
0.377615 0.127291 0.518486
0.50396 0.127504 0.517098
0.615091 0.132769 0.520134
0.723369 0.13814 0.534569
0.826764 0.143374 0.562936
0 0.22594 0.501076
0.00915541 0.237217 0.513466
0.10692 0.2486 0.526131
0.241016 0.252537 0.532799
0.392248 0.252506 0.53489
0.521965 0.254841 0.535576
0.635843 0.261601 0.539406
0.745754 0.270634 0.545739
0.846876 0.281178 0.554131
0 0.358648 0.499321
0.00996414 0.373678 0.514321
0.1093 0.387884 0.528801
0.242954 0.393729 0.536782
0.394705 0.394415 0.541863
0.528466 0.39527 0.542855
0.642969 0.400366 0.544503
0.750759 0.407019 0.548333
0.849088 0.414649 0.554131
0 0.494484 0.508339
0.0220951 0.509499 0.523354
0.119982 0.52253 0.536492
0.249989 0.527214 0.541466
0.394308 0.526909 0.541787
0.525093 0.524819 0.53959
0.639765 0.52546 0.540398
0.747936 0.527779 0.542596
0.844541 0.532769 0.547402
0 0.619043 0.526162
0.0410773 0.631678 0.537926
0.135332 0.64242 0.547753
0.261097 0.644358 0.54873
0.399908 0.64181 0.544244
0.525185 0.638712 0.540078
0.638376 0.637964 0.540047
0.748043 0.638987 0.540932
0.845243 0.642435 0.546532
0 0.735363 0.540078
0.0561074 0.745602 0.54934
0.148165 0.754528 0.557183
0.272389 0.755383 0.556619
0.409079 0.752087 0.550896
0.529595 0.749111 0.544656
0.639689 0.747906 0.541451
0.747662 0.747219 0.542641
0.845228 0.748608 0.546929
0 0.843 0.555627
0.0746624 0.852476 0.56408
0.165438 0.860258 0.570733
0.2878 0.859831 0.56875
0.4215 0.855009 0.561669
0.539528 0.850568 0.55465
0.646647 0.848478 0.550744
0.751217 0.846784 0.549249
0.847211 0.846616 0.550912
0 0 0.608652
0 0 0.610666
0.0830701 0 0.61149
0.200519 0 0.603647
0.335073 0 0.590982
0.453819 0 0.579446
0.552514 0 0.571954
0.650309 0 0.567971
0.740826 0 0.576425
0 0.0421454 0.612589
0.000991836 0.042649 0.614252
0.0859236 0.042771 0.615595
0.206088 0.0361791 0.610193
0.345403 0.0275578 0.601801
0.469749 0.0230869 0.596429
0.575921 0.0242008 0.596231
0.681544 0.0285344 0.599145
0.777447 0.0343481 0.616815
0 0.118227 0.615839
0.00906386 0.123827 0.622858
0.101427 0.130465 0.630991
0.230365 0.131167 0.633494
0.376822 0.129122 0.632349
0.503792 0.129809 0.632441
0.615381 0.134905 0.636164
0.724666 0.142565 0.642267
0.82356 0.150179 0.666453
0 0.226383 0.613855
0.0121614 0.238148 0.6271
0.110079 0.250095 0.640589
0.243198 0.254566 0.647425
0.392569 0.255238 0.650248
0.521889 0.257725 0.65272
0.636439 0.264195 0.657664
0.747173 0.272938 0.664378
0.848539 0.283101 0.673167
0 0.360189 0.613931
0.0145571 0.37528 0.629801
0.114031 0.389593 0.645243
0.247395 0.395438 0.653483
0.396902 0.396689 0.658305
0.527565 0.397848 0.661494
0.642557 0.402213 0.6645
0.751461 0.408118 0.667811
0.850172 0.415351 0.672816
0 0.496178 0.623758
0.026276 0.510918 0.639628
0.124056 0.52369 0.653696
0.253941 0.527932 0.659556
0.397665 0.526909 0.661311
0.525444 0.525154 0.663249
0.64033 0.5252 0.66334
0.748928 0.527428 0.663493
0.845853 0.532418 0.666178
0 0.62005 0.641688
0.0437324 0.632227 0.654017
0.137514 0.642496 0.6645
0.263066 0.64419 0.666514
0.401617 0.641321 0.664179
0.524239 0.638605 0.662318
0.638148 0.637736 0.660029
0.747555 0.638544 0.662181
0.847532 0.641245 0.664866
0 0.735485 0.654963
0.057496 0.745632 0.664973
0.149355 0.754452 0.673579
0.27303 0.755154 0.673747
0.409155 0.751858 0.669352
0.528054 0.748898 0.664378
0.638941 0.747051 0.662364
0.746685 0.746288 0.662882
0.846723 0.74728 0.662028
0 0.842878 0.670588
0.0752575 0.852216 0.679591
0.165682 0.859892 0.686793
0.287465 0.859358 0.685267
0.420371 0.854429 0.678569
0.537469 0.850248 0.671824
0.642939 0.84831 0.666651
0.74789 0.846433 0.662486
0.845975 0.845457 0.663264
0 0 0.711559
0 0 0.713802
0.0800793 0 0.714427
0.196948 0 0.706859
0.331182 0 0.694728
0.450538 0 0.683925
0.550011 0 0.677302
0.648768 0 0.674189
0.742733 0 0.675883
0 0.040116 0.715602
0 0.0409247 0.717464
0.0837873 0.0414282 0.719066
0.203861 0.035584 0.714366
0.343877 0.0281987 0.707607
0.468803 0.0243076 0.70338
0.575753 0.0260014 0.70428
0.6822 0.0307622 0.707897
0.781842 0.0390021 0.715053
0 0.117388 0.720394
0.00993362 0.124163 0.728466
0.102739 0.13167 0.737285
0.231342 0.132982 0.740215
0.377417 0.131579 0.739971
0.504402 0.132708 0.7411
0.616403 0.137926 0.745663
0.726238 0.145678 0.752224
0.828138 0.156008 0.761379
0 0.227863 0.721431
0.0156405 0.239963 0.734936
0.11368 0.25243 0.74876
0.246326 0.25742 0.755734
0.394369 0.258549 0.758862
0.522957 0.261265 0.762295
0.637568 0.267628 0.768032
0.748638 0.276097 0.775097
0.850278 0.28603 0.783444
0 0.362615 0.723232
0.0195315 0.377844 0.739315
0.118975 0.392187 0.754772
0.251896 0.398123 0.762966
0.399634 0.399512 0.7673
0.528252 0.400946 0.770779
0.642466 0.405051 0.77499
0.751598 0.410193 0.778714
0.850996 0.417166 0.78381
0 0.498543 0.73373
0.0311284 0.513024 0.749538
0.128557 0.525444 0.763516
0.258137 0.529412 0.769451
0.400992 0.528008 0.770916
0.526604 0.52636 0.77258
0.6392 0.526696 0.774868
0.747875 0.52871 0.775876
0.846067 0.533196 0.778149
0 0.62153 0.750866
0.0471809 0.633387 0.76318
0.140551 0.643229 0.773617
0.266026 0.644694 0.776135
0.404623 0.64152 0.774838
0.526787 0.638636 0.774884
0.638193 0.637812 0.777401
0.748821 0.638331 0.777951
0.848325 0.641108 0.779019
0 0.736233 0.763348
0.0598764 0.746227 0.77351
0.151568 0.754955 0.782422
0.27509 0.755444 0.7832
0.411017 0.751827 0.780011
0.529992 0.748455 0.777325
0.637568 0.747234 0.777005
0.746578 0.746197 0.773754
0.844892 0.747433 0.776684
0 0.843381 0.778531
0.0768444 0.852506 0.787594
0.166979 0.860029 0.794995
0.288487 0.859327 0.794018
0.420966 0.85417 0.788281
0.53756 0.849729 0.78291
0.641443 0.847868 0.779446
0.748379 0.844953 0.777432
0.844556 0.844175 0.778363
0 0 0.802518
0 0 0.804608
0.0783703 0 0.805051
0.194766 0 0.797589
0.328969 0 0.786023
0.448646 0 0.775738
0.54876 0 0.770047
0.648661 0 0.768215
0.743481 0 0.770718
0 0.0390478 0.806302
0 0.0401923 0.808454
0.0831159 0.0412451 0.810559
0.203296 0.035996 0.806485
0.344091 0.0298466 0.801068
0.469566 0.0267185 0.798062
0.576898 0.028809 0.799634
0.683925 0.0339666 0.803998
0.784161 0.0425574 0.811704
0 0.118059 0.81323
0.0118715 0.125536 0.821866
0.105348 0.133989 0.831571
0.23389 0.135882 0.835004
0.379599 0.13489 0.835264
0.506432 0.136492 0.837217
0.618708 0.141955 0.842405
0.728786 0.149767 0.849485
0.831052 0.160128 0.85893
0 0.230503 0.816831
0.0200504 0.243015 0.830533
0.118151 0.255848 0.844587
0.250568 0.26128 0.851835
0.39762 0.26273 0.855177
0.52549 0.265629 0.858991
0.640024 0.271977 0.865278
0.750988 0.280186 0.872618
0.85275 0.28983 0.881041
0 0.36614 0.819974
0.0252079 0.381521 0.83621
0.124468 0.39588 0.851606
0.256962 0.401846 0.859663
0.403311 0.40325 0.863615
0.53051 0.404654 0.866926
0.643961 0.408667 0.871626
0.752651 0.413321 0.8757
0.851987 0.419699 0.880781
0 0.501976 0.830945
0.0365759 0.516152 0.846555
0.133623 0.528222 0.860258
0.262654 0.531838 0.865858
0.404532 0.530266 0.866941
0.528725 0.528542 0.867903
0.63975 0.529183 0.870481
0.747707 0.531167 0.872755
0.846311 0.535317 0.875746
0 0.623957 0.847196
0.0512703 0.635416 0.859297
0.144427 0.645014 0.869657
0.269734 0.646326 0.872374
0.408042 0.642969 0.87126
0.529992 0.640009 0.871214
0.639811 0.63949 0.873777
0.748486 0.640162 0.876341
0.847684 0.642802 0.877989
0 0.737957 0.859068
0.0632792 0.747784 0.869261
0.15491 0.756359 0.878279
0.278218 0.756725 0.879408
0.413947 0.752804 0.876753
0.533165 0.74905 0.874846
0.640116 0.747707 0.876158
0.74699 0.746563 0.877745
0.846906 0.74728 0.878187
0 0.844816 0.873854
0.0795758 0.853742 0.882918
0.169528 0.861036 0.890379
0.290745 0.860151 0.889708
0.42298 0.854749 0.884657
0.53959 0.849943 0.880308
0.643442 0.847623 0.878676
0.746731 0.845548 0.877363
0.844755 0.844419 0.873869
