site/assets/luts/freshluts--0001155-wt-for-clip-over-exposure-mood.cube
# LUTr-Schema-Version: 2
# LUTr-ID: freshluts--0001155-wt-for-clip-over-exposure-mood
# LUTr-Title: WT for clip over exposure mood
# LUTr-Collection: Fresh LUTs
# LUTr-Collection-ID: freshluts-community
# LUTr-Source: https://freshluts.com
# LUTr-Retrieved: 2026-07-27
# LUTr-Source-File: submissions-raw/freshluts/cubes/1155__Warm_TEAL_over_exposure.cube
# LUTr-Source-Format: CUBE
# LUTr-Source-SHA256: 6bcd4caeb1105b9fe33b463ef0fb960c1858f1424e69d72ab1a47a5ef560eeca
# LUTr-License: CC0-1.0
# LUTr-License-URL: https://freshluts.com/termsandconditions
# LUTr-License-Basis: site-terms
# LUTr-Transform-Class: creative-look
# LUTr-Tags: creative, freshluts, community, cube, warm, high-key, sony-s-log3
# LUTr-Input-Color-Space: sony-slog3-sgamut3
# LUTr-Input-Gamut: sony-s-gamut3
# LUTr-Input-Transfer: sony-s-log3
# LUTr-Output-Color-Space: srgb
# LUTr-Output-Gamut: rec709
# LUTr-Output-Transfer: srgb
# LUTr-Color-Space-Confidence: inferred-from-source-label
# LUTr-Domain-Normalized: true
# LUTr-Shaper: none
# LUTr-Original-Grid: 16x16x16
# LUTr-Conversion-Grid: 16x16x16
# LUTr-Conversion-Interpolation: none
# LUTr-Conversion-Method: Metadata normalization; numeric LUT samples preserved
# LUTr-Conversion-Tool: LUTr scripts/convert-all-to-cube.mjs 2.0.0
# LUTr-Conversion-Date: 2026-07-28
# LUTr-Asset-URL: https://freshluts.com/luts/1155
# LUTr-Author: lvannoeun@gmail.com
# LUTr-Author-URL: https://freshluts.com/users/57563
# LUTr-Attribution: lvannoeun@gmail.com via Fresh LUTs
# LUTr-Source-Labels: gamma=Sony S-Log 3; color=Warm; key=High Key; style=Correction
# LUTr-Note: Preserve this metadata and the upstream license notices when redistributing.
TITLE "WT for clip over exposure mood"
LUT_3D_SIZE 6
DOMAIN_MIN 0 0 0
DOMAIN_MAX 1 1 1
0 0.000003 0.04174
0 0.000003 0.04174
0.075546 0 0.04174
0.466371 0 0.04174
0.755175 0 0.04174
0.993861 0.060862 0.04174
0 0.000003 0.04174
0 0.000003 0.04174
0.083394 0.028048 0.04174
0.503079 0.078499 0.04174
0.79262 0.115667 0.04174
1.00002 0.16097 0.04174
0.000009 0.085043 0.065144
0.000874 0.09462 0.059685
0.079401 0.128017 0.049404
0.610149 0.303801 0.041301
0.906876 0.396097 0.04174
1.00002 0.391578 0.06671
0.008557 0.502617 0.346411
0.00829 0.520226 0.351257
0.109499 0.610141 0.165276
0.358514 0.658512 0.038749
0.757324 0.804506 0
0.90478 0.690944 0.0622
0.136918 0.920214 0.642125
0.159882 0.930899 0.628642
0.22074 0.984731 0.483949
0.454584 1.057097 0.224185
0.631375 1.07021 0.128364
0.750428 0.939872 0.100101
0.268255 0.991557 0.68186
0.285572 0.992583 0.668168
0.345309 0.999133 0.586896
0.445978 1.028339 0.387407
0.56101 1.069612 0.270063
0.69524 1.090271 0.221106
0 0.000003 0.04174
0 0.000003 0.04174
0.075078 0 0.055565
0.481065 0 0.096142
0.758971 0 0.111106
0.997518 0 0.141441
0 0.000003 0.04174
0 0.000003 0.04174
0.081137 0.004343 0.04174
0.509122 0.008074 0.04174
0.788323 0.04793 0.04174
1.00002 0.079432 0.04174
0.000009 0.087941 0.078018
0.000012 0.09554 0.076993
0.080058 0.12791 0.049187
0.618901 0.298002 0.041743
0.914678 0.379571 0.04174
1.00002 0.375641 0.088873
0.008181 0.508228 0.363724
0.008868 0.521242 0.36649
0.068985 0.602124 0.207478
0.361249 0.659618 0.037769
0.78215 0.796567 0.0061
0.917772 0.679663 0.085821
0.139686 0.92217 0.664923
0.158307 0.929633 0.65187
0.231727 0.980606 0.531094
0.454408 1.053387 0.243764
0.638409 1.068868 0.137647
0.756668 0.935028 0.112751
0.27008 0.991433 0.700275
0.284688 0.991986 0.686569
0.350238 0.99744 0.611473
0.447142 1.025049 0.411202
0.56385 1.067579 0.282346
0.701092 1.089152 0.230162
0.000004 0.000003 0.113922
0.013919 0.000003 0.111334
0.076672 0.000003 0.102556
0.514248 0 0.22288
0.769957 0 0.282584
1.00002 0 0.345332
0 0.028847 0.113844
0 0.000002 0.113177
0.082176 0 0.10671
0.547719 0 0.233485
0.813447 0 0.298751
1.00002 0 0.337907
0 0.112492 0.128842
0 0.117855 0.133766
0.100988 0.118707 0.127473
0.6337 0.152579 0.115675
0.968323 0.200348 0.16127
1.00002 0.247403 0.22032
0.001298 0.538806 0.427604
0.001428 0.548028 0.435188
0.151308 0.574293 0.41039
0.434256 0.647443 0.141433
0.903177 0.711598 0.130915
0.974321 0.628086 0.23096
0.130498 0.937842 0.7443
0.154841 0.942221 0.74255
0.285607 0.962772 0.689606
0.481252 1.030636 0.402159
0.692349 1.053983 0.215103
0.792464 0.911542 0.195944
0.267041 0.99383 0.766372
0.285721 0.993585 0.759874
0.38653 0.994315 0.713219
0.500216 1.009692 0.567915
0.598347 1.053331 0.38445
0.743999 1.079397 0.307278
0 0.000006 0.440091
0.065681 0 0.45924
0.238444 0 0.474605
0.484536 0 0.433508
0.782996 0 0.526658
1.00002 0 0.591818
0.000009 0.07619 0.46148
0 0.000005 0.476235
0.246479 0 0.498608
0.526631 0 0.471206
0.836446 0.00001 0.565401
1.00002 0.006933 0.591574
0 0.275069 0.502093
0.000012 0.278711 0.522223
0.100823 0.126237 0.549564
0.630038 0.12032 0.55793
1.00002 0.167545 0.641147
1.00002 0.234424 0.583226
0 0.566805 0.561046
0.000015 0.578436 0.572437
0.150512 0.594934 0.588838
0.643062 0.593037 0.55831
1.00002 0.608913 0.569707
1.00002 0.624991 0.593237
0.095631 0.97049 0.825237
0.115658 0.975617 0.82775
0.291455 0.972872 0.822181
0.645069 0.957488 0.75604
0.864771 0.997254 0.551213
0.919495 0.867337 0.542706
0.224477 0.997587 0.817574
0.244601 0.997583 0.818045
0.408507 0.997827 0.819986
0.688316 0.999204 0.807705
0.75854 1.017651 0.710739
0.863968 1.037549 0.611145
0 0.000008 0.676445
0.082149 0 0.678247
0.268169 0.000006 0.702824
0.543096 0 0.684334
0.787435 0 0.730645
1.00002 0 0.804191
0.000012 0.092207 0.692888
0.00077 0.000009 0.694141
0.281927 0 0.74522
0.5868 0 0.739584
0.823561 0 0.767309
1.00002 0.023811 0.805242
0 0.335988 0.762944
0 0.335827 0.786822
0.119172 0.123195 0.89926
0.705146 0.135274 0.924976
0.99615 0.185886 0.932802
1.00002 0.248557 0.835877
0 0.676821 0.865501
0 0.683699 0.884649
0.167834 0.682834 0.956192
0.658582 0.595082 0.93689
1.00002 0.616804 0.925617
1.00002 0.643967 0.844702
0.114876 0.973325 0.98181
0.133111 0.978102 0.986008
0.268186 0.985551 0.989474
0.691791 0.950646 0.943849
0.994486 0.944745 0.919397
1.00002 0.922829 0.911048
0.216848 1.00002 0.903864
0.231518 1.00002 0.902752
0.368784 1.000007 0.891613
0.745453 1.00002 0.912459
0.954521 1.000626 0.962369
0.973703 1.003177 0.915726
0 0.000007 0.885183
0.089073 0 0.887518
0.281385 0 0.878253
0.568205 0 0.873651
0.825165 0 0.922013
1.00002 0 0.96128
0.000015 0.098542 0.902801
0 0.004593 0.903979
0.292771 0.000011 0.904209
0.59915 0 0.916421
0.853753 0 0.955682
1.00002 0.047541 0.961903
0.000015 0.360941 0.967033
0 0.35597 0.975488
0.146623 0.142077 1.000021
0.633274 0.158078 1.000021
0.896774 0.203993 1.000021
1.00002 0.277562 0.992804
0 0.661112 1.000021
0.019322 0.654095 1.000021
0.198265 0.604855 1.000021
0.6467 0.60027 1.000021
0.908534 0.623335 1.000021
1.00002 0.650768 0.996234
0.122128 0.866302 1.000021
0.150361 0.865009 1.000021
0.277989 0.865457 1.000021
0.685737 0.858452 1.000021
0.960686 0.942473 1.000021
1.00002 0.944691 0.992714
0.23794 1.00002 0.997448
0.251888 1.00002 0.997442
0.369595 1.00002 0.997805
0.727124 1.00002 0.996518
1.00002 1.00002 1.000021
1.00002 1.00002 1.000021
