site/assets/luts/freshluts--0000201-nightcity.cube
# LUTr-Schema-Version: 2
# LUTr-ID: freshluts--0000201-nightcity
# LUTr-Title: NightCity
# LUTr-Collection: Fresh LUTs
# LUTr-Collection-ID: freshluts-community
# LUTr-Source: https://freshluts.com
# LUTr-Retrieved: 2026-07-27
# LUTr-Source-File: submissions-raw/freshluts/cubes/201__NightCity_1.H004_C006_1211TB.cube
# LUTr-Source-Format: CUBE
# LUTr-Source-SHA256: eaf94fbb09555fe289858dfddeab25fd032164036beea7bd5f64488ba8a93514
# LUTr-License: CC0-1.0
# LUTr-License-URL: https://freshluts.com/termsandconditions
# LUTr-License-Basis: site-terms
# LUTr-Transform-Class: creative-look
# LUTr-Tags: creative, freshluts, community, cube, cinematic, blockbuster, low-key, red-logfilm
# LUTr-Input-Color-Space:
# LUTr-Input-Gamut: red-wide-gamut-rgb
# LUTr-Input-Transfer: red-logfilm
# LUTr-Output-Color-Space: srgb
# LUTr-Output-Gamut: rec709
# LUTr-Output-Transfer: srgb
# LUTr-Color-Space-Confidence: camera-profile-input-required
# LUTr-Domain-Normalized: true
# LUTr-Shaper: none
# LUTr-Original-Grid: 33x33x33
# LUTr-Conversion-Grid: 33x33x33
# LUTr-Conversion-Interpolation: none
# LUTr-Conversion-Method: Metadata normalization; numeric LUT samples preserved
# LUTr-Conversion-Tool: LUTr scripts/convert-all-to-cube.mjs 2.0.0
# LUTr-Conversion-Date: 2026-07-28
# LUTr-Asset-URL: https://freshluts.com/luts/201
# LUTr-Author: escapes
# LUTr-Author-URL: https://freshluts.com/users/117
# LUTr-Attribution: escapes via Fresh LUTs
# LUTr-Source-Labels: gamma=RED Log Film; color=None; key=Low Key; style=Blockbuster
# LUTr-Note: Preserve this metadata and the upstream license notices when redistributing.
TITLE "NightCity"
LUT_3D_SIZE 33
DOMAIN_MIN 0 0 0
DOMAIN_MAX 1 1 1
0.00392157 0 0
0.00392157 0 0
0.00392157 0 0
0.00392157 0 0
0.00392157 0 0
0.00392157 0 0
0.0049897 0.000213626 0
0.0141909 0.00205997 0
0.0229191 0.0037995 0
0.0350042 0.00720226 0.00328069
0.0479744 0.0109102 0.00698863
0.0627756 0.0134432 0.0112154
0.0807813 0.0156863 0.0159457
0.106691 0.0156863 0.0188296
0.137316 0.0156863 0.0196078
0.172656 0.0121004 0.0213931
0.21474 0.00517281 0.0235294
0.261936 0 0.0243687
0.304952 0 0.0276493
0.350896 0 0.0307164
0.39411 0 0.033463
0.433433 0 0.035874
0.469627 0 0.0380102
0.5037 0 0.0399634
0.537346 0 0.0418402
0.570977 0 0.0447395
0.606485 0 0.0503548
0.641367 0 0.0555734
0.674723 0 0.0592813
0.708492 0 0.0632029
0.74078 0 0.0689097
0.772686 0 0.0745861
0.789502 0 0.0839246
0.00392157 0 0
0.00392157 0 0
0.00392157 0 0
0.00392157 0 0
0.00392157 0 0
0.00392157 0 0
0.005066 0.000228885 0
0.0141909 0.00205997 0
0.0229191 0.0037995 0
0.0350042 0.00720226 0.00328069
0.0480812 0.0109407 0.00701915
0.0627756 0.0134432 0.0112154
0.0809186 0.0156863 0.0159609
0.106828 0.0156863 0.0188449
0.137469 0.0156863 0.0196078
0.172824 0.0120699 0.0214084
0.214954 0.00514229 0.0235294
0.262135 0 0.0243839
0.30518 0 0.0276646
0.351141 0 0.0307317
0.394369 0 0.0334783
0.433692 0 0.0358892
0.469886 0 0.0380255
0.50399 0 0.0399786
0.537621 0 0.0418555
0.570977 0 0.0447395
0.607355 0 0.0504921
0.642466 0 0.0556954
0.676371 0 0.0594644
0.709789 0 0.0634318
0.741558 0 0.0690471
0.772824 0 0.0746624
0.789502 0 0.0839246
0.00392157 0 0
0.00392157 0 0
0.00392157 0 0
0.00392157 0 0
0.00392157 0 0
0.00392157 0 0
0.005066 0.000228885 0
0.0142672 0.00207523 0
0.0229953 0.00381476 0
0.035111 0.00723278 0.00331121
0.048188 0.0109712 0.00704967
0.0628824 0.0134585 0.0112459
0.0810559 0.0156863 0.0159762
0.106828 0.0156863 0.0188449
0.137621 0.0156863 0.0196078
0.172992 0.0120394 0.0214237
0.215167 0.00511177 0.0235294
0.262333 0 0.0243992
0.305409 0 0.0276799
0.35137 0 0.0307469
0.394614 0 0.0334936
0.433951 0 0.0359045
0.470146 0 0.0380407
0.504814 0 0.0400244
0.53872 0 0.0419165
0.572717 0 0.0450141
0.608515 0 0.0506752
0.643015 0 0.0557565
0.676661 0 0.0594949
0.709789 0 0.0634318
0.741299 0 0.0690013
0.772686 0 0.0745861
0.789364 0 0.0838483
0.00392157 0 0
0.00392157 0 0
0.00392157 0 0
0.00392157 0 0
0.00392157 0 0
0.00392157 0 0
0.00514229 0.000244144 0
0.0142672 0.00207523 0
0.0229953 0.00381476 0
0.035111 0.00723278 0.00331121
0.048188 0.0109712 0.00704967
0.0629892 0.0134737 0.0112764
0.0811933 0.0156863 0.0159915
0.106966 0.0156863 0.0188602
0.137774 0.0156863 0.0196078
0.173327 0.0119783 0.0214542
0.215381 0.00508125 0.0235294
0.262531 0 0.0244144
0.305638 0 0.0276951
0.351598 0 0.0307622
0.39559 0 0.0335546
0.435248 0 0.0359808
0.471443 0 0.038117
0.505638 0 0.0400702
0.539284 0 0.0419471
0.573007 0 0.0450599
0.608225 0 0.0506294
0.643015 0 0.0557565
0.676371 0 0.0594644
0.709529 0 0.063386
0.741039 0 0.0689555
0.772549 0 0.0745098
0.789364 0 0.0838483
0.00392157 0 0
0.00392157 0 0
0.00392157 0 0
0.00392157 0 0
0.00392157 0 0
0.00392157 0 0
0.00521859 0.000259403 0
0.0143435 0.00209049 0
0.0230716 0.00383001 0
0.0352178 0.00726329 0.00334173
0.0482948 0.0110018 0.00708019
0.0629892 0.0134737 0.0112764
0.0813306 0.0156863 0.0160067
0.107103 0.0156863 0.0188754
0.138079 0.0156863 0.0196078
0.173495 0.0119478 0.0214694
0.216022 0.0049897 0.0235294
0.263523 0 0.0244907
0.306783 0 0.0277714
0.352743 0 0.0308385
0.396323 0 0.0336004
0.435508 0 0.035996
0.471443 0 0.038117
0.505364 0 0.0400549
0.538994 0 0.0419318
0.572427 0 0.0449683
0.607935 0 0.0505837
0.642741 0 0.0557259
0.676097 0 0.0594339
0.709529 0 0.063386
0.741299 0 0.0690013
0.772961 0 0.0747387
0.789776 0 0.0840772
0.00392157 0 0
0.00392157 0 0
0.00392157 0 0
0.00392157 0 0
0.00392157 0 0
0.00392157 0 0
0.00521859 0.000259403 0
0.0144198 0.00210575 0
0.0231479 0.00384527 0
0.0352178 0.00726329 0.00334173
0.0484016 0.0110323 0.0071107
0.0629892 0.0134737 0.0112764
0.0814679 0.0156863 0.016022
0.107515 0.0156863 0.0189212
0.138689 0.0156863 0.0196078
0.174334 0.0117952 0.0215457
0.216876 0.00486763 0.0235294
0.26392 0 0.0245212
0.30724 0 0.0278019
0.352972 0 0.0308537
0.396078 0 0.0335851
0.435248 0 0.0359808
0.471183 0 0.0381018
0.505089 0 0.0400397
0.53872 0 0.0419165
0.572427 0 0.0449683
0.608225 0 0.0506294
0.643015 0 0.0557565
0.676936 0 0.0595254
0.710567 0 0.0635691
0.742855 0 0.069276
0.77406 0 0.075349
0.79144 0 0.085008
0.00483711 0.00114443 0.000686656
0.00477607 0.00106813 0.000640879
0.00477607 0.00106813 0.000640879
0.00471504 0.000991836 0.000595102
0.00471504 0.000991836 0.000595102
0.00471504 0.000991836 0.000595102
0.0059968 0.00120546 0.000549325
0.0148165 0.00303655 0.000503548
0.0233005 0.00476081 0.000457771
0.0356909 0.00834669 0.00395209
0.0490578 0.0119783 0.00770581
0.063859 0.0139925 0.0116426
0.0821546 0.0156863 0.0160983
0.10808 0.0156863 0.0189822
0.139147 0.0156863 0.0196078
0.174685 0.0117342 0.0215915
0.21709 0.00483711 0.0235294
0.26392 0 0.0245212
0.30724 0 0.0278019
0.352743 0 0.0308385
0.396078 0 0.0335851
0.435248 0 0.0359808
0.471183 0 0.0381018
0.505364 0 0.0400549
0.539284 0 0.0419471
0.573587 0 0.0451667
0.609674 0 0.0508583
0.645228 0 0.0560006
0.679683 0 0.0598306
0.713954 0 0.0641642
0.747021 0 0.0700084
0.776822 0 0.0768902
0.794614 0 0.0867628
0.0118868 0.00996414 0.00598154
0.0118257 0.00988785 0.00593576
0.0118257 0.00988785 0.00593576
0.0118257 0.00988785 0.00593576
0.0117647 0.00979629 0.00587472
0.0117647 0.00979629 0.00587472
0.0127108 0.0102846 0.00593576
0.0191806 0.0130617 0.00593576
0.0253758 0.0157931 0.00598154
0.038407 0.0184329 0.00939956
0.0524605 0.0209964 0.0130312
0.0678416 0.021973 0.0152743
0.086656 0.0220951 0.0177005
0.11165 0.019913 0.020264
0.140749 0.0178988 0.0199435
0.174792 0.0128328 0.0217441
0.216083 0.00502022 0.0235599
0.263127 0 0.0244602
0.306096 0 0.0277256
0.352056 0 0.0307927
0.395346 0 0.0335393
0.434989 0 0.0359655
0.471183 0 0.0381018
0.505913 0 0.0400854
0.540658 0 0.0420233
0.575341 0 0.0454414
0.612299 0 0.0512703
0.648524 0 0.0563668
0.684092 0 0.0603189
0.719158 0 0.065095
0.753536 0 0.0711528
0.780957 0 0.0791791
0.799435 0 0.0894484
0.0188144 0.018616 0.0111696
0.0187533 0.0185397 0.0111238
0.0188144 0.018616 0.0111696
0.0188754 0.0186923 0.0112154
0.0189364 0.0187686 0.0112612
0.0189364 0.0187686 0.0112612
0.0196231 0.0193942 0.0112612
0.0235142 0.0229038 0.0112154
0.0272374 0.0263218 0.0112154
0.041001 0.0280766 0.0146334
0.0556497 0.0298009 0.018204
0.0720531 0.0297704 0.0188602
0.0917983 0.0287785 0.0194095
0.116625 0.0253147 0.0219577
0.144823 0.021973 0.0205844
0.178439 0.0162966 0.0226139
0.220188 0.0071107 0.0252842
0.266972 0 0.0254978
0.310994 0 0.0278019
0.356344 0 0.0308843
0.399145 0 0.0336614
0.438483 0 0.0361028
0.475563 0 0.0383001
0.511467 0 0.0403296
0.547066 0 0.042298
0.583841 0 0.0464942
0.622156 0 0.0525063
0.659937 0 0.0573892
0.696773 0 0.0614633
0.732555 0 0.0670634
0.767697 0 0.0734112
0.790311 0 0.083238
0.810727 0 0.0938888
0.0259251 0.0306554 0.0180819
0.0259861 0.0307622 0.018143
0.0259861 0.0307622 0.018143
0.0259861 0.0307622 0.018143
0.0259251 0.0306554 0.0180819
0.025864 0.0305486 0.0180209
0.0264744 0.0309758 0.0180972
0.0300603 0.033814 0.0187381
0.0334936 0.0365148 0.0193484
0.0433509 0.0388495 0.0207523
0.054078 0.0411078 0.0222477
0.0721447 0.0409094 0.0217288
0.0948959 0.0390326 0.0211337
0.121248 0.0339971 0.0237278
0.149676 0.028336 0.0218051
0.183139 0.0200046 0.023682
0.225055 0.00900282 0.0270848
0.273579 0 0.0269017
0.321294 0 0.0279698
0.368719 0 0.0310826
0.412863 0 0.0339055
0.453803 0 0.036408
0.492241 0 0.0386664
0.529839 0 0.0407568
0.567559 0 0.0428168
0.605676 0 0.0482795
0.644846 0 0.0545815
0.681941 0 0.0588846
0.718944 0 0.0633402
0.752468 0 0.0698253
0.782376 0 0.0775006
0.804776 0 0.0886702
0.816754 0 0.0946517
0.0331426 0.0433051 0.0252995
0.0330816 0.0431983 0.0252384
0.0330205 0.0430915 0.0251774
0.0329595 0.0429847 0.0251164
0.0328985 0.0428779 0.0250553
0.0328374 0.042771 0.0249943
0.0332647 0.0429541 0.0251316
0.0368505 0.0449531 0.0266117
0.0402838 0.0469062 0.027985
0.0454719 0.0500649 0.0272526
0.051194 0.0534066 0.0263066
0.0707103 0.0534676 0.024506
0.09691 0.0517891 0.0229648
0.124926 0.0468299 0.0256046
0.155261 0.041474 0.0248722
0.190921 0.0321965 0.0256504
0.233417 0.0184482 0.027451
0.283131 0.00495918 0.027863
0.334569 0 0.0291447
0.384237 0 0.032105
0.430274 0 0.0349126
0.472847 0 0.0375219
0.511696 0 0.0399176
0.551949 0 0.0423133
0.590845 0 0.0454719
0.628595 0 0.0520027
0.667323 0 0.0583505
0.705974 0 0.0640879
0.742672 0 0.0707256
0.77789 0 0.0778821
0.802243 0 0.0873884
0.821942 0 0.0972457
0.822766 0 0.0976577
0.0404364 0.0573587 0.0338903
0.0403754 0.0572366 0.033814
0.0403143 0.0571145 0.0337377
0.0402533 0.0569924 0.0336614
0.0402533 0.0569924 0.0336614
0.0401923 0.0568551 0.0335851
0.0401923 0.0568551 0.0335851
0.0432136 0.0579995 0.0353246
0.0463264 0.0594492 0.0372473
0.0502785 0.0622263 0.0371099
0.0547189 0.0654459 0.0364233
0.0701457 0.0675975 0.0327764
0.0940414 0.0683299 0.0278782
0.126329 0.0645457 0.0280461
0.160266 0.0579843 0.0283665
0.199237 0.0468757 0.0277867
0.243381 0.0312505 0.027451
0.295247 0.0129549 0.0288396
0.351507 0 0.0318608
0.403021 0 0.0349889
0.450736 0 0.0379644
0.492088 0 0.0406806
0.531167 0 0.0432746
0.572717 0 0.0457923
0.611597 0 0.0505531
0.64947 0 0.0576638
0.689479 0 0.064683
0.729778 0 0.0713359
0.765393 0 0.078294
0.797513 0.000396735 0.0860761
0.816022 0.00285344 0.0967422
0.825956 0.00483711 0.102876
0.826337 0.00560006 0.103639
0.0483406 0.073167 0.0437629
0.0482795 0.0730449 0.0436866
0.0482185 0.0729229 0.0436103
0.0482185 0.0729229 0.0436103
0.0482795 0.0730449 0.0436866
0.0483406 0.073167 0.0437629
0.0484016 0.0732891 0.0438392
0.0500801 0.0737469 0.0453346
0.0523537 0.074464 0.0474403
0.0563668 0.0760662 0.0492256
0.0622416 0.0786603 0.0510872
0.0711833 0.0833143 0.0470436
0.0845655 0.0893416 0.0369726
0.122988 0.0899062 0.0319219
0.162524 0.083772 0.0324407
0.205814 0.074052 0.0314946
0.253849 0.060853 0.0300145
0.308934 0.0416419 0.0315099
0.36672 0.0198978 0.0349279
0.41825 0.00527962 0.0381933
0.466865 0.000274662 0.0412604
0.509865 0 0.045655
0.55172 0 0.0493935
0.594461 0 0.0522469
0.632914 0 0.0586252
0.669963 0 0.0659648
0.70988 0 0.0712749
0.747692 0 0.0776837
0.783078 0 0.0855879
0.810101 0.00367742 0.0968032
0.830564 0.0112764 0.111421
0.835111 0.0135805 0.11545
0.836759 0.0148318 0.117525
0.0568704 0.0931411 0.0558785
0.0569314 0.0932937 0.0559701
0.0569924 0.0934462 0.0560616
0.0571145 0.0937514 0.0562448
0.0572366 0.0940566 0.0564279
0.0574807 0.094667 0.0567941
0.0577249 0.0952773 0.0571756
0.0586557 0.0960403 0.0579843
0.0609445 0.0971237 0.0595712
0.0642405 0.0985733 0.0614023
0.0710002 0.100877 0.0641489
0.0781567 0.104051 0.0639048
0.0859693 0.109041 0.0575113
0.111345 0.116579 0.0489509
0.159503 0.11841 0.0417792
0.212131 0.111772 0.0368811
0.266712 0.0999313 0.0347143
0.325567 0.0828412 0.0361944
0.382025 0.0588388 0.0395972
0.434211 0.0348821 0.0429541
0.482902 0.022797 0.0462959
0.528435 0.0108492 0.0522316
0.571145 0.00381476 0.0570993
0.612253 0.000274662 0.0616465
0.651255 0 0.0679179
0.69041 0 0.0745098
0.728923 0 0.0840314
0.765927 0 0.0923629
0.802258 0.00396735 0.0992905
0.827008 0.0187686 0.115114
0.846723 0.0375372 0.131472
0.848005 0.0439612 0.133608
0.849256 0.0501717 0.135683
0.0661173 0.116274 0.0697642
0.0663005 0.116732 0.0700389
0.0665446 0.117342 0.0704051
0.0668498 0.118105 0.0708171
0.067216 0.11902 0.0712749
0.0676432 0.120104 0.071809
0.0681926 0.121477 0.0724956
0.0688182 0.123003 0.0732738
0.0718242 0.125353 0.0749676
0.0752422 0.128084 0.0772106
0.0830854 0.130877 0.0806897
0.0916304 0.133639 0.0835431
0.0996567 0.135164 0.0831769
0.108888 0.144976 0.0750896
0.149737 0.15552 0.0617838
0.213291 0.158495 0.049546
0.280507 0.150378 0.0440681
0.344045 0.136217 0.0444343
0.401556 0.118593 0.0477455
0.457374 0.099855 0.0519417
0.504891 0.0826123 0.0558175
0.551003 0.0598764 0.0622568
0.592584 0.0515908 0.0679484
0.631098 0.0486152 0.0729839
0.672145 0.0496376 0.0801862
0.711666 0.0483253 0.0887922
0.749294 0.0459449 0.0998703
0.78555 0.0437018 0.110536
0.821561 0.0459144 0.121965
0.842298 0.0826734 0.138659
0.857939 0.116854 0.153185
0.859174 0.13257 0.156497
0.860365 0.147707 0.159686
0.0762798 0.141695 0.0826123
0.0767224 0.142763 0.0831464
0.0771496 0.143847 0.0836805
0.07776 0.145373 0.0844587
0.0784924 0.147219 0.0853742
0.0792248 0.14905 0.0862898
0.0800793 0.151202 0.0873579
0.0810101 0.15349 0.0885176
0.0847334 0.157549 0.0925002
0.0903792 0.163424 0.0988937
0.0996872 0.169772 0.104097
0.11078 0.175158 0.108492
0.124331 0.174716 0.1131
0.130739 0.180591 0.109941
0.146151 0.193011 0.0975052
0.200076 0.207324 0.0786908
0.283345 0.212085 0.0640879
0.356191 0.202747 0.0592355
0.420752 0.188876 0.0612497
0.481315 0.176226 0.0668498
0.529198 0.166629 0.0715038
0.576165 0.157885 0.078584
0.616907 0.151141 0.0843671
0.655451 0.148287 0.0903792
0.694804 0.148714 0.0997024
0.731624 0.153124 0.110109
0.764736 0.162676 0.121996
0.797818 0.173465 0.133577
0.831296 0.185657 0.145403
0.853437 0.22182 0.167437
0.869245 0.24889 0.184192
0.87039 0.258473 0.18764
0.871534 0.26804 0.191089
0.090074 0.174884 0.103059
0.0910811 0.177234 0.104753
0.0922866 0.180026 0.106737
0.0937514 0.183459 0.109194
0.0952163 0.186892 0.111635
0.096788 0.190539 0.114244
0.0985275 0.194614 0.117159
0.100374 0.198901 0.120226
0.103914 0.204761 0.124285
0.11014 0.213596 0.129824
0.119341 0.221714 0.13518
0.131792 0.22887 0.140688
0.150408 0.231937 0.148058
0.175769 0.235264 0.155688
0.180575 0.240436 0.148684
0.188235 0.254322 0.12726
0.25655 0.271641 0.104509
0.35111 0.277409 0.0877394
0.424979 0.270604 0.0837262
0.485191 0.258015 0.0850538
0.544854 0.25098 0.0915999
0.590448 0.249332 0.0989548
0.634134 0.249165 0.106844
0.677073 0.249241 0.115358
0.712306 0.253483 0.125246
0.7458 0.260777 0.135897
0.778958 0.270695 0.147936
0.81117 0.28249 0.161303
0.842313 0.295766 0.175631
0.863706 0.320409 0.199496
0.879088 0.33933 0.2177
0.879454 0.347036 0.220996
0.879805 0.354437 0.22417
0.11017 0.219059 0.134127
0.112779 0.223484 0.136995
0.115526 0.228168 0.140032
0.118441 0.233112 0.143236
0.121508 0.238331 0.146593
0.124727 0.243793 0.150134
0.128252 0.24979 0.154009
0.131472 0.255253 0.157549
0.136736 0.263096 0.163043
0.146883 0.276036 0.173327
0.156664 0.286122 0.180346
0.164981 0.291356 0.181537
0.184375 0.297948 0.189639
0.211398 0.299168 0.197604
0.237354 0.300908 0.203418
0.240131 0.312535 0.195132
0.248463 0.328832 0.168719
0.318502 0.341009 0.142977
0.410727 0.347082 0.12462
0.484932 0.346014 0.116976
0.543938 0.344488 0.117784
0.590509 0.342901 0.125338
0.637949 0.342382 0.135576
0.683711 0.344381 0.14728
0.716762 0.350286 0.156878
0.750118 0.355474 0.167559
0.78584 0.361486 0.181964
0.818006 0.370657 0.196918
0.847974 0.381003 0.211704
0.867399 0.398856 0.232334
0.882353 0.415946 0.252338
0.882353 0.422995 0.256947
0.882353 0.429694 0.261311
0.142794 0.274525 0.170016
0.146197 0.280262 0.173648
0.150057 0.286702 0.177508
0.154101 0.293446 0.181552
0.158511 0.300801 0.185962
0.162936 0.308156 0.190387
0.167529 0.315816 0.19498
0.172122 0.323461 0.199573
0.178363 0.332662 0.205814
0.188296 0.344228 0.215747
0.200412 0.353796 0.22446
0.217029 0.362448 0.233371
0.232105 0.366888 0.242405
0.251362 0.366918 0.246357
0.281498 0.364385 0.253025
0.3028 0.367514 0.256046
0.296559 0.383917 0.238254
0.308537 0.399939 0.210803
0.374609 0.409842 0.187533
0.462135 0.418997 0.168078
0.534569 0.422583 0.158434
0.588891 0.425956 0.162295
0.636637 0.430518 0.171817
0.679026 0.435264 0.182925
0.714275 0.438087 0.192767
0.749996 0.4421 0.205325
0.786023 0.446891 0.221851
0.817517 0.452781 0.237385
0.846006 0.458228 0.25182
0.865446 0.47538 0.276707
0.882353 0.494163 0.303349
0.882124 0.499565 0.306874
0.881392 0.504479 0.310063
0.182788 0.341238 0.210239
0.186831 0.347982 0.214282
0.191424 0.355642 0.218875
0.196872 0.362936 0.224994
0.20267 0.370367 0.231617
0.208026 0.377264 0.237751
0.214038 0.384985 0.244602
0.219821 0.392432 0.251225
0.226688 0.400244 0.258976
0.233707 0.40679 0.26685
0.245167 0.415625 0.276005
0.2598 0.426261 0.285939
0.274342 0.433112 0.28925
0.296986 0.433906 0.296269
0.327535 0.431449 0.304509
0.360052 0.427909 0.312413
0.361471 0.43566 0.302831
0.348394 0.452552 0.27744
0.375051 0.467491 0.253788
0.438224 0.480583 0.232868
0.51046 0.491325 0.216159
0.582879 0.498482 0.209171
0.630945 0.503105 0.213626
0.672526 0.507713 0.220188
0.709377 0.51162 0.231739
0.74432 0.515923 0.244358
0.777371 0.520409 0.259648
0.807416 0.525887 0.27602
0.83592 0.532143 0.294102
0.855451 0.544137 0.317754
0.871595 0.556603 0.342153
0.872892 0.561151 0.346899
0.872282 0.565133 0.349493
0.228824 0.404013 0.261524
0.234623 0.41146 0.268132
0.240406 0.418906 0.274754
0.246418 0.426627 0.281621
0.252201 0.434806 0.288243
0.258427 0.443687 0.295338
0.264637 0.452567 0.302449
0.270436 0.460853 0.309071
0.27837 0.469413 0.316426
0.2878 0.477684 0.323522
0.29984 0.487205 0.332647
0.31136 0.494636 0.340612
0.323629 0.498955 0.346578
0.344991 0.501274 0.355215
0.372992 0.499306 0.36318
0.405158 0.494667 0.36997
0.426871 0.495888 0.373007
0.412985 0.506889 0.35288
0.407141 0.520729 0.325368
0.436255 0.533333 0.305791
0.489525 0.544442 0.290944
0.553903 0.558114 0.278752
0.612284 0.564981 0.271168
0.662043 0.571008 0.269398
0.698817 0.574197 0.277577
0.733989 0.578058 0.286717
0.765469 0.581735 0.29958
0.794949 0.586877 0.315923
0.823316 0.593423 0.335576
0.84332 0.60235 0.358618
0.859129 0.612451 0.383536
0.862562 0.616602 0.390982
0.862074 0.619058 0.393057
0.276875 0.470039 0.316426
0.282872 0.478614 0.323278
0.289097 0.487495 0.330388
0.295094 0.496071 0.337255
0.30132 0.504967 0.344366
0.309407 0.513741 0.352544
0.317128 0.521889 0.360265
0.324956 0.530037 0.367987
0.33637 0.538476 0.375982
0.347311 0.546914 0.384512
0.356878 0.554192 0.393713
0.367941 0.559228 0.402075
0.382055 0.56144 0.409155
0.405798 0.565484 0.417151
0.423316 0.562341 0.421775
0.451835 0.557427 0.427878
0.481804 0.553368 0.440681
0.479042 0.561227 0.430167
0.464668 0.570031 0.404242
0.471412 0.580941 0.380743
0.500847 0.592325 0.362905
0.541085 0.602289 0.349157
0.59028 0.611124 0.341543
0.636088 0.619532 0.337041
0.684627 0.626139 0.334127
0.725246 0.630869 0.336049
0.755596 0.631968 0.343114
0.784558 0.635904 0.356939
0.812482 0.641642 0.374731
0.832715 0.650065 0.397848
0.847944 0.659236 0.423056
0.85275 0.662943 0.432105
0.852506 0.663859 0.433082
0.330632 0.536156 0.37377
0.338903 0.544884 0.38204
0.346624 0.553033 0.389761
0.35462 0.561471 0.397757
0.362615 0.569909 0.405753
0.370336 0.578058 0.413474
0.378683 0.58529 0.422126
0.387884 0.591913 0.430808
0.397864 0.598779 0.439811
0.40621 0.604532 0.448508
0.41294 0.60914 0.455985
0.426413 0.613535 0.46508
0.442023 0.616037 0.472465
0.45919 0.615915 0.477592
0.475425 0.613794 0.48072
0.495369 0.608362 0.484367
0.523217 0.602335 0.494285
0.538369 0.60734 0.495659
0.519661 0.612924 0.474266
0.511971 0.623774 0.447044
0.525078 0.632807 0.427497
0.550988 0.640543 0.414755
0.590143 0.649134 0.40618
0.629145 0.655497 0.3991
0.669337 0.660197 0.393225
0.707561 0.664622 0.391684
0.746654 0.669001 0.391913
0.77908 0.673777 0.400778
0.807828 0.67895 0.415412
0.826535 0.685512 0.435325
0.839185 0.692622 0.457923
0.843992 0.695796 0.467155
0.84387 0.696269 0.467643
0.392767 0.596567 0.436912
0.401343 0.603433 0.44593
0.410239 0.610544 0.455253
0.418814 0.617395 0.464256
0.427085 0.624018 0.472953
0.435355 0.63064 0.481636
0.443336 0.637003 0.489998
0.45098 0.643137 0.498039
0.456794 0.648173 0.504921
0.462089 0.652232 0.510887
0.470588 0.657099 0.518349
0.4822 0.662364 0.52723
0.494163 0.661845 0.531716
0.507668 0.660349 0.534401
0.521691 0.658122 0.536583
0.536889 0.652659 0.53872
0.560922 0.646998 0.543481
0.582025 0.64683 0.549706
0.570748 0.650721 0.53782
0.552605 0.661707 0.507195
0.553704 0.66772 0.487785
0.569314 0.673823 0.474937
0.597162 0.680949 0.464927
0.626963 0.685466 0.456886
0.656825 0.68867 0.449683
0.694865 0.694194 0.444617
0.736843 0.700343 0.439399
0.770077 0.705486 0.444663
0.800061 0.710277 0.454429
0.818601 0.71519 0.470771
0.831067 0.720546 0.491218
0.835966 0.722652 0.49926
0.835966 0.722652 0.49926
0.457679 0.648417 0.50544
0.465537 0.654627 0.514122
0.473396 0.660838 0.522805
0.480674 0.666575 0.530846
0.488228 0.672557 0.539208
0.495216 0.678065 0.546929
0.500435 0.683574 0.553765
0.502983 0.688411 0.55874
0.509178 0.693233 0.564904
0.516747 0.698054 0.571344
0.523812 0.702159 0.578759
0.530175 0.704097 0.584237
0.539849 0.702235 0.585763
0.550515 0.700694 0.586877
0.561578 0.698436 0.588998
0.578164 0.69337 0.591943
0.596582 0.685878 0.5944
0.609949 0.681468 0.596994
0.614359 0.683558 0.592767
0.596918 0.691447 0.568276
0.590555 0.697307 0.547753
0.59762 0.702708 0.532891
0.613474 0.707912 0.521859
0.634989 0.711955 0.51458
0.656916 0.715541 0.50837
0.687007 0.720333 0.501625
0.719341 0.725185 0.494057
0.752499 0.730297 0.493111
0.786191 0.735409 0.494087
0.807233 0.739315 0.506264
0.822583 0.742367 0.523201
0.828367 0.743557 0.529656
0.828428 0.743389 0.529412
0.517632 0.69575 0.57171
0.52491 0.701503 0.579751
0.531273 0.706462 0.587152
0.537896 0.711604 0.594873
0.543969 0.716335 0.601938
0.549111 0.720745 0.608331
0.549523 0.724132 0.611765
0.551019 0.72697 0.615381
0.556527 0.729366 0.62089
0.561959 0.732174 0.626368
0.567544 0.736263 0.631281
0.575372 0.738231 0.635782
0.585184 0.737194 0.639216
0.589136 0.733364 0.635508
0.59791 0.7299 0.63621
0.611185 0.725307 0.638025
0.624918 0.718822 0.638788
0.638972 0.713664 0.640955
0.647425 0.713085 0.639536
0.635462 0.717052 0.623117
0.623713 0.723217 0.602487
0.624002 0.728328 0.587167
0.630503 0.732677 0.575463
0.645136 0.736248 0.568582
0.660609 0.73994 0.563256
0.684413 0.743832 0.555322
0.709712 0.747631 0.546456
0.740581 0.752392 0.541375
0.772839 0.757397 0.537285
0.795224 0.760296 0.544945
0.812955 0.762463 0.557748
0.81976 0.763149 0.562203
0.819852 0.762997 0.561883
0.572641 0.738628 0.635401
0.578149 0.742916 0.64184
0.584222 0.747646 0.648905
0.589731 0.751934 0.655344
0.594705 0.755795 0.661143
0.595346 0.757855 0.663798
0.593149 0.758663 0.664439
0.59443 0.758984 0.666804
0.597635 0.75938 0.670146
0.602029 0.76199 0.673396
0.606394 0.765026 0.67599
0.613687 0.765805 0.67985
