site/assets/luts/freshluts--0000505-purple-sunset.cube
# LUTr-Schema-Version: 2
# LUTr-ID: freshluts--0000505-purple-sunset
# LUTr-Title: purple sunset
# LUTr-Collection: Fresh LUTs
# LUTr-Collection-ID: freshluts-community
# LUTr-Source: https://freshluts.com
# LUTr-Retrieved: 2026-07-27
# LUTr-Source-File: submissions-raw/freshluts/cubes/505__purple_sunset_33pt.cube_1.A003_07200606_C003_S000.cube
# LUTr-Source-Format: CUBE
# LUTr-Source-SHA256: 3edb662ded85a664ec87c5d451f09f59379f6d4d2ff62a33290ce18b182a7376
# LUTr-License: CC0-1.0
# LUTr-License-URL: https://freshluts.com/termsandconditions
# LUTr-License-Basis: site-terms
# LUTr-Transform-Class: creative-look
# LUTr-Tags: creative, freshluts, community, cube, warm, bmd-film-4k
# LUTr-Input-Color-Space: bmd-film-4k
# LUTr-Input-Gamut: bmd-film-gamut
# LUTr-Input-Transfer: bmd-film-4k
# LUTr-Output-Color-Space: srgb
# LUTr-Output-Gamut: rec709
# LUTr-Output-Transfer: srgb
# LUTr-Color-Space-Confidence: inferred-from-source-label
# LUTr-Domain-Normalized: true
# LUTr-Shaper: none
# LUTr-Original-Grid: 33x33x33
# LUTr-Conversion-Grid: 33x33x33
# LUTr-Conversion-Interpolation: none
# LUTr-Conversion-Method: Metadata normalization; numeric LUT samples preserved
# LUTr-Conversion-Tool: LUTr scripts/convert-all-to-cube.mjs 2.0.0
# LUTr-Conversion-Date: 2026-07-28
# LUTr-Asset-URL: https://freshluts.com/luts/505
# LUTr-Author: sswyft
# LUTr-Author-URL: https://freshluts.com/users/10877
# LUTr-Attribution: sswyft via Fresh LUTs
# LUTr-Source-Labels: gamma=Blackmagic BMD Film 4K; color=Warm; key=Neutral; style=Colorful
# LUTr-Note: Preserve this metadata and the upstream license notices when redistributing.
TITLE "purple sunset"
LUT_3D_SIZE 33
DOMAIN_MIN 0 0 0
DOMAIN_MAX 1 1 1
0.0241855 0 0
0.0387427 0 0
0.0531014 0 0
0.0672923 0 0
0.0818647 0 0
0.0973068 0 0
0.114137 0 0
0.132937 0 0
0.154513 0 0
0.179431 0 0
0.208164 0 0
0.241169 0 0
0.278019 0 0
0.317342 0 0
0.357748 0 0
0.397803 0 0
0.436896 0 0
0.476982 0 0
0.517586 0 0
0.557839 0 0
0.596948 0 0
0.634058 0 0
0.66833 0 0
0.699321 0 0
0.727245 0 0
0.752392 0 0
0.775051 0 0
0.795499 0 0
0.814267 0 0
0.831739 0 0
0.848264 0 0
0.864134 0 0
0.879683 0 0
0.0242161 0.0083772 0
0.0388647 0.00836194 0
0.0530709 0.00840772 0
0.0671397 0.00846876 0
0.08159 0.00839246 0
0.0969406 0.0080415 0
0.113725 0.00729381 0
0.132464 0.0059968 0
0.154025 0.00395209 0
0.178943 0.000991836 0
0.207691 0 0
0.240726 0 0
0.277623 0 0
0.317037 0 0
0.357534 0 0
0.397726 0 0
0.436957 0 0
0.477211 0 0
0.517998 0 0
0.558465 0 0
0.597787 0 0
0.635157 0 0
0.669688 0 0
0.700969 0 0
0.729213 0 0
0.754696 0 0
0.777707 0 0
0.798535 0 0
0.817685 0 0
0.835615 0 0
0.852613 0 0
0.869017 0 0
0.88513 0 0
0.0243992 0.0227054 0
0.038941 0.0225834 0
0.0530709 0.0225528 0
0.0670787 0.0225528 0
0.0814832 0.0224308 0
0.0968185 0.0220645 0
0.113588 0.0213169 0
0.132372 0.0200504 0
0.153979 0.0180514 0
0.178958 0.0151675 0
0.207782 0.0112917 0
0.240925 0.00628672 0
0.277974 0.00030518 0
0.317525 0 0
0.358206 0 0
0.398581 0 0
0.438025 0 0
0.478523 0 0
0.519554 0 0
0.560296 0 0
0.599939 0 0
0.637613 0 0
0.672496 0 0
0.704143 0 0
0.732754 0 0
0.758648 0 0
0.782116 0 0
0.803449 0 0
0.823133 0 0
0.841627 0 0
0.85922 0 0
0.876234 0 0
0.892973 0 0
0.0243992 0.0367285 0
0.0389258 0.0365759 0
0.0530404 0.0365454 0
0.0670634 0.0365454 0
0.0814984 0.0364538 0
0.0968948 0.0361486 0
0.113741 0.0354772 0
0.132601 0.0343023 0
0.15433 0.0324102 0
0.179446 0.0296635 0
0.208438 0.0259556 0
0.241764 0.0211337 0
0.278996 0.0153506 0
0.318776 0.0089723 0
0.359701 0.00239567 0
0.400336 0 0
0.44007 0 0
0.480873 0 0
0.52224 0 0
0.563333 0 0
0.603326 0 0
0.641398 0 0
0.676707 0 0
0.708827 0 0
0.737957 0 0
0.764416 0 0
0.788449 0 0
0.810376 0 0
0.830686 0 0
0.849805 0 0
0.868055 0 0
0.88574 0 0
0.903166 0 0
0.024033 0.0508888 0
0.0385748 0.050782 0
0.0527657 0.0507973 0
0.066865 0.0508888 0
0.0814069 0.0509041 0
0.0969253 0.0507057 0
0.113909 0.0501869 0
0.132952 0.0491798 0
0.154849 0.0474708 0
0.180179 0.0449378 0
0.2094 0.0414588 0
0.242985 0.0368963 0
0.280491 0.0313726 0
0.320562 0.0252995 0
0.361791 0.019028 0
0.402777 0.0129549 0
0.442863 0.00727855 0
0.484031 0.00144961 0
0.525795 0 0
0.567346 0 0
0.607828 0 0
0.646433 0 0
0.682307 0 0
0.715007 0 0
0.744747 0 0
0.771817 0 0
0.79649 0 0
0.819074 0 0
0.84007 0 0
0.859892 0 0
0.878843 0 0
0.897276 0 0
0.91545 0 0
0.0230259 0.0655985 0
0.0376898 0.0655985 0
0.0520027 0.0657511 0
0.0662547 0.0659953 0
0.0809796 0.0661784 0
0.0966812 0.0661784 0
0.113893 0.0658732 0
0.133165 0.065095 0
0.155337 0.0636606 0
0.180941 0.0614023 0
0.210468 0.0582132 0
0.244358 0.0539712 0
0.282216 0.0487984 0
0.322652 0.0430762 0
0.364263 0.0372015 0
0.405661 0.0315404 0
0.446204 0.0263218 0
0.487892 0.0210117 0
0.530205 0.0157321 0
0.572305 0.0107424 0
0.613382 0.0062562 0
0.652598 0.00251774 0
0.689097 0 0
0.722454 0 0
0.75285 0 0
0.780606 0 0
0.805997 0 0
0.829297 0.00129702 0
0.851041 0.00415045 0
0.871626 0.00761425 0
0.891371 0.0115969 0
0.910597 0.0160372 0
0.929595 0.0208591 0
0.0211948 0.0812695 0
0.0360266 0.0814527 0
0.0505531 0.0818189 0
0.0650187 0.0822766 0
0.0799878 0.0827039 0
0.095964 0.0829786 0
0.113466 0.0829633 0
0.133043 0.0824903 0
0.155535 0.0813764 0
0.181491 0.0794842 0
0.211383 0.0766613 0
0.245686 0.0728161 0
0.283955 0.0680705 0
0.324865 0.0628367 0
0.36701 0.0574655 0
0.408972 0.052369 0
0.45008 0.0477302 0
0.492363 0.0429999 0
0.535302 0.0383459 0
0.578042 0.0339818 0
0.619776 0.0301671 0
0.659648 0.0271 0
0.696849 0.0250248 0
0.730907 0.0240787 0
0.762051 0.0242008 0
0.790555 0.02533 0
0.816709 0.0274052 0
0.840803 0.0303197 0
0.863355 0.0339818 0
0.884764 0.0382696 0
0.905364 0.0431067 0
0.925444 0.0484169 0
0.945281 0.0540627 0
0.0182345 0.0983597 0
0.033341 0.0988022 0
0.048127 0.0994278 0
0.0628977 0.100191 0
0.078172 0.100938 0
0.0944839 0.101549 0
0.112337 0.101884 0
0.132311 0.101808 0
0.1552 0.101091 0
0.181613 0.0996262 0
0.211994 0.0973068 0
0.246815 0.0939956 0
0.285664 0.0898299 0
0.327169 0.0851606 0
0.369909 0.0803998 0
0.412482 0.0759289 0
0.454246 0.071931 0
0.497185 0.0678721 0
0.540795 0.0638895 0
0.584237 0.0602426 0
0.626688 0.0571298 0
0.667308 0.0547951 0
0.705272 0.0534829 0
0.740108 0.053315 0
0.772045 0.0542458 0
0.801373 0.0561837 0
0.828351 0.0590829 0
0.853315 0.0628672 0
0.876707 0.0673838 0
0.898939 0.0724956 0
0.920317 0.0780957 0
0.9411 0.0841077 0
0.961593 0.090425 0
0.0136721 0.117403 0
0.029099 0.118166 0
0.0442359 0.119142 0
0.0593729 0.120256 0
0.0750439 0.121401 0
0.0917678 0.122423 0
0.110079 0.123232 0
0.130556 0.123659 0
0.154009 0.123491 0
0.180972 0.122606 0
0.211948 0.120867 0
0.247395 0.118181 0
0.28687 0.114626 0
0.329015 0.110613 0
0.372427 0.106523 0
0.415686 0.102739 0
0.458152 0.0994583 0
0.501823 0.0961166 0
0.546181 0.0928817 0
0.590402 0.0899977 0
0.633631 0.0876631 0
0.675059 0.0861524 0
0.713832 0.0856641 0
0.749508 0.0863355 0
0.782315 0.0881208 0
0.812467 0.090898 0
0.840284 0.0946059 0
0.86598 0.0991379 0
0.890059 0.104341 0
0.912932 0.110094 0
0.934874 0.116274 0
0.956191 0.122805 0
0.977142 0.12958 0
0.00723278 0.138827 0
0.0230564 0.139986 0
0.0386206 0.14139 0
0.0542458 0.143008 0
0.0704356 0.144656 0
0.0877241 0.146242 0
0.106615 0.147631 0
0.127687 0.148653 0
0.151751 0.149111 0
0.17937 0.148867 0
0.211002 0.147784 0
0.24712 0.145754 0
0.287297 0.142916 0
0.330144 0.13962 0
0.374289 0.136263 0
0.418311 0.133227 0
0.461555 0.130709 0
0.50602 0.128161 0
0.551186 0.12575 0
0.596216 0.12369 0
0.640299 0.12221 0
0.682582 0.121538 0
0.722194 0.121874 0
0.758663 0.123354 0
0.792187 0.125856 0
0.823026 0.12932 0
0.851438 0.133639 0
0.877699 0.138735 0
0.902281 0.144427 0
0.925597 0.150622 0
0.947921 0.157183 0
0.969558 0.164034 0
0.990784 0.171069 0
0 0.163134 0
0.0151827 0.164828 0
0.0313268 0.166812 0
0.0475319 0.168994 0
0.064332 0.171267 0
0.0822309 0.17348 0
0.101778 0.175494 0
0.123507 0.177188 0
0.148257 0.178332 0
0.176577 0.17879 0
0.208942 0.178424 0
0.245792 0.177142 0
0.286717 0.175051 0
0.330358 0.172534 0
0.375296 0.16997 0
0.420142 0.167773 0
0.46421 0.166079 0
0.509529 0.164401 0
0.55555 0.162829 0
0.601404 0.161593 0
0.646265 0.160876 0
0.68925 0.160906 0
0.729519 0.161913 0
0.766567 0.163958 0
0.800626 0.16701 0
0.831937 0.170947 0
0.860777 0.175692 0
0.887404 0.18114 0
0.912291 0.187152 0
0.935836 0.193576 0
0.958358 0.200336 0
0.980117 0.207309 0
1 0.21442 0
0 0.19089 0
0.00541695 0.19321 0
0.0221866 0.195819 0
0.0390478 0.198657 0
0.0565194 0.201587 0
0.0751202 0.204501 0
0.0953689 0.207218 0
0.11783 0.209644 0
0.143328 0.211536 0
0.172412 0.212757 0
0.205554 0.213184 0
0.243214 0.212711 0
0.284962 0.211444 0
0.329442 0.209766 0
0.37525 0.208072 0
0.42092 0.206699 0
0.465812 0.205814 0
0.511864 0.204868 0
0.558572 0.203998 0
0.605066 0.203372 0
0.650492 0.20325 0
0.693996 0.2038 0
0.734707 0.205249 0
0.772168 0.207706 0
0.806561 0.211078 0
0.838163 0.215305 0
0.867216 0.220264 0
0.894011 0.225879 0
0.91899 0.231983 0
0.942596 0.238468 0
0.965103 0.245212 0
0.986801 0.252125 0
1 0.259113 0.004654
0 0.222187 0
0 0.225177 0
0.0118257 0.228473 0
0.0294041 0.232044 0
0.0476081 0.235706 0
0.0669718 0.239368 0
0.0879988 0.242863 0
0.111254 0.246082 0
0.13756 0.248783 0
0.167468 0.250828 0
0.201465 0.252125 0
0.239979 0.252491 0
0.282567 0.252064 0
0.327825 0.251164 0
0.37435 0.250187 0
0.420706 0.249485 0
0.466194 0.24921 0
0.512795 0.248829 0
0.559991 0.248432 0
0.606928 0.248264 0
0.65272 0.248493 0
0.696544 0.249363 0
0.737514 0.251072 0
0.775174 0.253727 0
0.80972 0.257267 0
0.841398 0.26157 0
0.870481 0.26656 0
0.897246 0.272145 0
0.922148 0.278157 0
0.945602 0.284489 0
0.96791 0.291035 0
0.989334 0.297688 0.000213626
1 0.304341 0.00686656
0 0.256718 0
0 0.260456 0
0.00172427 0.264515 0
0.0200656 0.268864 0
0.0390784 0.273335 0
0.0592508 0.277806 0
0.081117 0.282155 0
0.105226 0.286213 0
0.132387 0.289769 0
0.163119 0.292638 0
0.197879 0.294682 0
0.237095 0.295766 0
0.280324 0.295964 0
0.326177 0.295674 0
0.373236 0.295216 0
0.420035 0.294987 0
0.46595 0.295125 0
0.512917 0.295094 0
0.560418 0.295003 0
0.607569 0.295064 0
0.653559 0.295491 0
0.69749 0.296468 0
0.738537 0.298253 0
0.776211 0.300908 0
0.810697 0.304387 0
0.842268 0.308583 0
0.871183 0.313405 0
0.897704 0.318761 0
0.922332 0.324498 0
0.945464 0.330495 0
0.967544 0.336828 0
0.988952 0.343465 0
1 0.350301 0.00666819
0 0.294224 0
0 0.298756 0
0 0.303655 0
0.0125429 0.308843 0
0.0324102 0.314168 0
0.0534218 0.319478 0
0.0760815 0.32462 0
0.100938 0.329427 0
0.128771 0.333669 0
0.160128 0.337148 0
0.195453 0.339773 0
0.235172 0.341344 0
0.278859 0.342016 0
0.325109 0.342107 0
0.372503 0.341985 0
0.419577 0.342031 0
0.465705 0.342382 0
0.512825 0.342519 0
0.560433 0.342519 0
0.60763 0.342626 0
0.653605 0.343038 0
0.697475 0.343954 0
0.738384 0.345602 0
0.77586 0.348074 0
0.810101 0.351293 0
0.841367 0.355184 0
0.869978 0.359701 0
0.896361 0.36492 0
0.921035 0.370703 0
0.944396 0.376944 0
0.966751 0.383536 0
0.988388 0.390387 0
1 0.397421 0.00628672
0 0.334386 0
0 0.339757 0
0 0.345495 0
0.0081178 0.351446 0
0.0287022 0.357504 0
0.05037 0.36347 0
0.07364 0.369223 0
0.0990311 0.374578 0
0.127352 0.379294 0
0.159152 0.383215 0
0.194842 0.386191 0
0.234882 0.388098 0
0.278813 0.389013 0
0.325261 0.389303 0
0.372778 0.389319 0
0.419959 0.389456 0
0.466102 0.389822 0
0.513176 0.389914 0
0.560693 0.389838 0
0.607736 0.389776 0
0.653498 0.389975 0
0.697093 0.390631 0
0.737682 0.391943 0
0.774899 0.394156 0
0.809079 0.397314 0
0.840452 0.401328 0
0.869337 0.406104 0
0.895979 0.411582 0
0.920851 0.417578 0
0.944396 0.424002 0
0.966903 0.430732 0
0.988663 0.43772 0
1 0.444816 0.00663767
0 0.376898 0
0 0.382986 0
0 0.389349 0
0.00679026 0.395895 0
0.0278935 0.402457 0
0.0500496 0.408911 0
0.0737163 0.415061 0
0.0994583 0.420752 0
0.128084 0.425772 0
0.160098 0.429923 0
0.195972 0.433082 0
0.236118 0.435096 0
0.28011 0.436072 0
0.326558 0.436362 0
0.374029 0.436332 0
0.421088 0.436332 0
0.467063 0.436545 0
0.513909 0.436408 0
0.56112 0.436027 0
0.607843 0.435645 0
0.653407 0.43566 0
0.697017 0.436301 0
0.737789 0.437812 0
0.77528 0.440299 0
0.809689 0.443687 0
0.841276 0.447913 0
0.870329 0.452857 0
0.897093 0.458457 0
0.922072 0.464561 0
0.945693 0.471046 0
0.968215 0.477821 0
0.98996 0.484779 0.000839246
1 0.491859 0.00791943
0 0.421897 0
0 0.428473 0
0 0.435279 0
0.00611887 0.442222 0
0.0275578 0.449119 0
0.049958 0.455833 0
0.0738537 0.462196 0
0.0997482 0.468055 0
0.12845 0.473152 0
0.16051 0.477348 0
0.196368 0.480491 0
0.236439 0.482429 0
0.280293 0.483268 0
0.326558 0.48336 0
0.37377 0.48307 0
0.420508 0.482765 0
0.466178 0.482673 0
0.512917 0.482399 0
0.560189 0.482109 0
0.607172 0.481971 0
0.652995 0.482246 0
0.696818 0.483116 0
0.737789 0.48481 0
0.775433 0.487449 0
0.809964 0.490974 0
0.841642 0.495277 0
0.870741 0.500282 0
0.89752 0.505898 0
0.922499 0.511986 0
0.946059 0.518425 0
0.968505 0.525109 0
0.990127 0.53196 0.0010071
1 0.538872 0.00791943
0 0.468513 0
0 0.475395 0
0 0.48246 0
0.00588998 0.489586 0
0.027451 0.49662 0
0.0499428 0.50341 0
0.0738537 0.509789 0
0.0997177 0.515602 0
0.128328 0.520607 0
0.16022 0.524636 0
0.19585 0.527565 0
0.23566 0.529229 0
0.279194 0.529732 0
0.325185 0.529595 0
0.372351 0.529244 0
0.419242 0.529076 0
0.465187 0.529274 0
0.512169 0.529244 0
0.559655 0.529152 0
0.606806 0.529198 0
0.652781 0.52961 0
0.696712 0.530587 0
0.737743 0.532372 0
0.775448 0.535058 0
0.809979 0.538567 0
0.841627 0.542855 0
0.870665 0.547784 0
0.897353 0.553307 0
0.922194 0.559258 0
0.945586 0.56553 0
0.967834 0.572015 0
0.989212 0.578622 0.0000915541
1 0.585275 0.00674449
0 0.515801 0
0 0.522789 0
0 0.5299 0
0.00624094 0.537026 0
0.0277409 0.543999 0
0.0501106 0.550668 0
0.0738384 0.556863 0
0.0994583 0.562448 0
0.127779 0.567163 0
0.15935 0.570871 0
0.194797 0.573617 0
0.234623 0.575296 0
0.278355 0.576013 0
0.324636 0.576135 0
0.37203 0.576028 0
0.41912 0.576059 0
0.465217 0.57641 0
0.512337 0.576516 0
0.55993 0.576516 0
0.607141 0.576638 0
0.653132 0.577066 0
0.697063 0.578042 0
0.738064 0.579782 0
0.775677 0.582391 0
0.810101 0.585809 0
0.841611 0.589929 0
0.870466 0.59469 0
0.896941 0.6 0
0.921538 0.605707 0
0.94464 0.611688 0
0.966567 0.617868 0
0.98761 0.624125 0
1 0.630381 0.00474556
0 0.562783 0
0 0.569696 0
0 0.576669 0
0.00723278 0.583597 0
0.0284886 0.590295 0
0.0505379 0.596658 0
0.0739757 0.602564 0
0.0994888 0.608042 0
0.127886 0.612833 0
0.159731 0.616815 0
0.195438 0.619806 0
0.235477 0.621714 0
0.279408 0.622614 0
0.325826 0.622889 0
0.373342 0.622904 0
0.420508 0.623026 0
0.466682 0.623423 0
0.513802 0.623545 0
0.561379 0.623529 0
0.60853 0.62359 0
0.654444 0.623926 0
0.698238 0.624796 0
0.739086 0.626368 0
0.776516 0.628779 0
0.810712 0.631968 0
0.841962 0.635843 0
0.870512 0.640299 0
0.896666 0.645289 0
0.920897 0.650629 0
0.943603 0.656214 0
0.965103 0.661952 0
0.985672 0.66775 0
1 0.673518 0.00231937
0 0.608515 0
0 0.615152 0
0 0.62179 0
0.00918593 0.628489 0
0.030396 0.635157 0
0.0525978 0.641672 0
0.0763104 0.647868 0
0.102068 0.653574 0
0.130694 0.658579 0
0.162692 0.66273 0
0.19855 0.665873 0
0.238697 0.667872 0
0.282689 0.668849 0
0.329168 0.669169 0
0.376669 0.669184 0
0.423819 0.669276 0
0.469902 0.669596 0
0.51693 0.669627 0
0.56437 0.669474 0
0.611368 0.669367 0
0.657069 0.669505 0
0.700633 0.670115 0
0.741207 0.671427 0
0.778317 0.673533 0
0.812177 0.676387 0
0.843046 0.679866 0
0.871199 0.683925 0
0.896895 0.688457 0
0.920638 0.693324 0
0.94284 0.698405 0
0.96379 0.703593 0
0.98378 0.708797 0
1 0.713939 0
0 0.652323 0
0 0.658991 0
0 0.665858 0
0.0142519 0.672816 0
0.0356909 0.679728 0
0.0581064 0.686427 0
0.0819715 0.69279 0
0.107866 0.698634 0
0.136568 0.703731 0
0.168643 0.707942 0
0.204517 0.711101 0
0.244648 0.7131 0
0.288609 0.714031 0
0.334997 0.71426 0
0.382391 0.714168 0
0.429389 0.714107 0
0.475303 0.71426 0
0.522103 0.714061 0
0.569299 0.713664 0
0.615991 0.713268 0
0.661387 0.7131 0
0.704585 0.713359 0
0.744778 0.714275 0
0.781476 0.715953 0
0.814862 0.718334 0
0.845243 0.72134 0
0.872862 0.724865 0
0.898009 0.728847 0
0.921157 0.73312 0
0.942733 0.73756 0
0.963027 0.742092 0
0.982361 0.746639 0
1 0.751125 0
0 0.695537 0
0 0.702434 0
0.00189212 0.709468 0
0.0230106 0.716579 0
0.0445716 0.723613 0
0.0670481 0.730388 0
0.0909743 0.736797 0
0.116869 0.742641 0
0.145556 0.747738 0
0.177569 0.751873 0
0.213352 0.754955 0
0.253361 0.756817 0
0.297169 0.757595 0
0.343359 0.757641 0
0.390524 0.757305 0
0.437263 0.756985 0
0.482872 0.756832 0
0.529351 0.756313 0
0.576165 0.755535 0
0.622477 0.754742 0
0.667414 0.754131 0
0.710155 0.753933 0
0.749844 0.754345 0
0.785992 0.755474 0
0.818814 0.75729 0
0.848585 0.759686 0
0.875563 0.762585 0
0.900053 0.765896 0
0.922545 0.769497 0
0.94345 0.773297 0
0.963119 0.777188 0
0.981811 0.781109 0
0.999863 0.78497 0
0 0.738201 0
0 0.745205 0
0.0137179 0.752316 0
0.0348821 0.759457 0
0.0564279 0.766476 0
0.0788891 0.773236 0
0.102739 0.779568 0
0.128527 0.785321 0
0.157076 0.790265 0
0.188907 0.794232 0
0.224491 0.797101 0
0.264271 0.798733 0
0.307774 0.799237 0
0.353674 0.798962 0
0.400488 0.798291 0
0.446845 0.797589 0
0.492042 0.797024 0
0.538064 0.796048 0
0.584405 0.794797 0
0.630198 0.793484 0
0.674586 0.792325 0
0.716747 0.791531 0
0.75581 0.791318 0
0.791302 0.791821 0
0.823468 0.792966 0
0.852583 0.794705 0
0.878904 0.796933 0
0.902754 0.799619 0
0.92462 0.802594 0
0.94493 0.805768 0
0.963973 0.809064 0
0.982086 0.81239 0
0.999557 0.815686 0
0 0.780056 0
0.00691234 0.787045 0
0.0281224 0.79411 0
0.0492103 0.801175 0
0.0706493 0.808072 0
0.0929427 0.814664 0
0.116609 0.820813 0
0.142184 0.826352 0
0.170489 0.831037 0
0.202029 0.834714 0
0.237293 0.837263 0
0.276692 0.838544 0
0.319829 0.838651 0
0.365286 0.837949 0
0.411643 0.83682 0
0.457496 0.835615 0
0.502174 0.834531 0
0.547631 0.83299 0
0.593378 0.831144 0
0.638529 0.82919 0
0.682261 0.827375 0
0.723766 0.825925 0
0.762158 0.825055 0
0.797024 0.824903 0
0.82855 0.825422 0
0.857038 0.826535 0
0.882765 0.828168 0
0.906004 0.830243 0
0.927291 0.832639 0
0.947021 0.835233 0
0.965499 0.837964 0
0.983063 0.840742 0
0.999985 0.843488 0
0.00189212 0.820783 0
0.0234073 0.827634 0
0.04448 0.834546 0
0.0653544 0.841413 0
0.0865644 0.848081 0
0.108598 0.854414 0
0.13196 0.860258 0
0.157198 0.865461 0
0.185122 0.86978 0
0.216266 0.87306 0.00215152
0.251087 0.875166 0.00425727
0.290028 0.875959 0.005066
0.332647 0.875563 0.004654
0.377554 0.874327 0.00341802
0.423346 0.872602 0.00170901
0.468589 0.870802 0
0.512612 0.869062 0
0.557412 0.866865 0
0.602502 0.864363 0
0.646998 0.861753 0
0.690105 0.859297 0
0.730953 0.857206 0
0.76875 0.855726 0
0.803006 0.854978 0
0.833936 0.854902 0
0.861845 0.855421 0
0.886992 0.856489 0
0.909682 0.858 0
0.930404 0.859846 0
0.949599 0.861921 0
0.967559 0.864118 0
0.984604 0.866377 0
1 0.86862 0
0.0200504 0.860121 0
0.0413214 0.866728 0
0.0621042 0.87335 0
0.0826734 0.879896 0
0.103532 0.886229 0
0.125185 0.89218 0.000106813
0.148135 0.897597 0.00552377
0.172915 0.902342 0.0102693
0.200351 0.906188 0.0140993
