site/assets/luts/freshluts--0000878-picturefx-velvia.cube
# LUTr-Schema-Version: 2
# LUTr-ID: freshluts--0000878-picturefx-velvia
# LUTr-Title: PictureFX Velvia
# LUTr-Collection: Fresh LUTs
# LUTr-Collection-ID: freshluts-community
# LUTr-Source: https://freshluts.com
# LUTr-Retrieved: 2026-07-27
# LUTr-Source-File: submissions-raw/freshluts/cubes/878__PictureFX-Velvia.cube
# LUTr-Source-Format: CUBE
# LUTr-Source-SHA256: cef82367677e86b25732557c5ff4baf234c3a26620431032b0bfff8812740dda
# LUTr-License: CC0-1.0
# LUTr-License-URL: https://freshluts.com/termsandconditions
# LUTr-License-Basis: site-terms
# LUTr-Transform-Class: creative-look
# LUTr-Tags: creative, freshluts, community, cube, film-emulation
# LUTr-Input-Color-Space:
# LUTr-Input-Gamut: unspecified
# LUTr-Input-Transfer: unspecified
# LUTr-Output-Color-Space: srgb
# LUTr-Output-Gamut: rec709
# LUTr-Output-Transfer: srgb
# LUTr-Color-Space-Confidence: camera-profile-input-required
# LUTr-Domain-Normalized: true
# LUTr-Shaper: none
# LUTr-Original-Grid: 25x25x25
# LUTr-Conversion-Grid: 25x25x25
# LUTr-Conversion-Interpolation: none
# LUTr-Conversion-Method: Metadata normalization; numeric LUT samples preserved
# LUTr-Conversion-Tool: LUTr scripts/convert-all-to-cube.mjs 2.0.0
# LUTr-Conversion-Date: 2026-07-28
# LUTr-Asset-URL: https://freshluts.com/luts/878
# LUTr-Author: MarcR.
# LUTr-Author-URL: https://freshluts.com/users/86490
# LUTr-Attribution: MarcR. via Fresh LUTs
# LUTr-Source-Labels: gamma=Other; color=None; key=Neutral; style=Film emulation
# LUTr-Note: Preserve this metadata and the upstream license notices when redistributing.
# LUTr-Upstream-Comment: Generated with IWLTBAP LUT Generator
# LUTr-Upstream-Comment: Website: http://luts.iwltbap.com
# LUTr-Upstream-Comment: LUT size
# LUTr-Upstream-Comment: LUT data points
TITLE "PictureFX Velvia"
LUT_3D_SIZE 5
DOMAIN_MIN 0 0 0
DOMAIN_MAX 1 1 1
0 0 0
0.14902 0 0
0.631373 0 0
0.996078 0 0
1 0 0
0 0.243137 0
0.258824 0.258824 0
0.658824 0.298039 0
1 0.223529 0
1 0 0
0 0.678431 0
0.192157 0.678431 0
0.654902 0.67451 0
0.976471 0.615686 0
1 0.545098 0
0 0.929412 0
0 0.929412 0
0.576471 0.913725 0
0.894118 0.898039 0
1 0.839216 0
0.141176 1 0
0.317647 1 0
0.568627 1 0
0.815686 1 0.027451
1 1 0.101961
0 0 0.207843
0.243137 0 0.243137
0.690196 0 0.278431
1 0 0.231373
1 0 0.231373
0 0.266667 0.270588
0.262745 0.262745 0.262745
0.705882 0.211765 0.231373
1 0.121569 0.223529
1 0.101961 0.235294
0 0.690196 0.152941
0 0.686275 0.141176
0.662745 0.67451 0.145098
0.980392 0.615686 0.192157
1 0.564706 0.231373
0 0.929412 0.164706
0 0.92549 0.156863
0.576471 0.913725 0.152941
0.894118 0.898039 0.14902
1 0.843137 0.266667
0.278431 1 0.32549
0.388235 1 0.329412
0.6 1 0.333333
0.823529 1 0.32549
1 1 0.337255
0 0 0.686275
0.290196 0 0.67451
0.694118 0 0.698039
1 0 0.65098
1 0 0.588235
0 0.247059 0.733333
0.231373 0.227451 0.721569
0.701961 0.176471 0.701961
1 0.109804 0.639216
1 0.278431 0.6
0 0.678431 0.686275
0 0.678431 0.682353
0.666667 0.670588 0.666667
0.972549 0.623529 0.623529
1 0.615686 0.615686
0 0.92549 0.607843
0.239216 0.921569 0.607843
0.603922 0.909804 0.6
0.894118 0.894118 0.588235
1 0.85098 0.611765
0.419608 1 0.619608
0.490196 1 0.619608
0.647059 1 0.619608
0.839216 1 0.619608
1 1 0.607843
0 0 1
0.133333 0 1
0.627451 0 0.984314
0.972549 0 0.976471
1 0 0.905882
0 0.239216 1
0.211765 0.235294 0.992157
0.607843 0.231373 0.988235
0.960784 0.196078 0.960784
1 0.286275 0.898039
0 0.619608 0.960784
0.27451 0.623529 0.956863
0.635294 0.627451 0.945098
0.929412 0.623529 0.92549
1 0.635294 0.878431
0.117647 0.905882 0.905882
0.345098 0.901961 0.901961
0.627451 0.898039 0.898039
0.890196 0.890196 0.890196
1 0.862745 0.858824
0.470588 1 0.843137
0.533333 1 0.843137
0.682353 1 0.843137
0.85098 1 0.843137
1 1 0.831373
0 0 1
0.239216 0 1
0.568627 0 1
0.843137 0.082353 1
1 0.231373 1
0.168627 0.290196 1
0.333333 0.294118 1
0.592157 0.313725 1
0.85098 0.34902 1
1 0.415686 1
0.415686 0.627451 1
0.494118 0.631373 1
0.658824 0.635294 1
0.862745 0.643137 1
1 0.662745 1
0.494118 0.847059 1
0.552941 0.85098 1
0.698039 0.854902 1
0.866667 0.858824 1
1 0.858824 1
0.603922 1 1
0.643137 1 1
0.745098 1 1
0.87451 1 1
1 1 1
