site/assets/luts/freshluts--0000871-picturefx-faux-infrared-viii.cube
# LUTr-Schema-Version: 2
# LUTr-ID: freshluts--0000871-picturefx-faux-infrared-viii
# LUTr-Title: PictureFX Faux Infrared vIII
# LUTr-Collection: Fresh LUTs
# LUTr-Collection-ID: freshluts-community
# LUTr-Source: https://freshluts.com
# LUTr-Retrieved: 2026-07-27
# LUTr-Source-File: submissions-raw/freshluts/cubes/871__PictureFX-Faux-Infrared-vIII.cube
# LUTr-Source-Format: CUBE
# LUTr-Source-SHA256: 7f01a6d8d20a187b5d12ff86785d6c32dec0823fae8d80304d0e42a180a845ec
# LUTr-License: CC0-1.0
# LUTr-License-URL: https://freshluts.com/termsandconditions
# LUTr-License-Basis: site-terms
# LUTr-Transform-Class: creative-look
# LUTr-Tags: creative, freshluts, community, cube, film-emulation
# LUTr-Input-Color-Space:
# LUTr-Input-Gamut: unspecified
# LUTr-Input-Transfer: unspecified
# LUTr-Output-Color-Space: srgb
# LUTr-Output-Gamut: rec709
# LUTr-Output-Transfer: srgb
# LUTr-Color-Space-Confidence: camera-profile-input-required
# LUTr-Domain-Normalized: true
# LUTr-Shaper: none
# LUTr-Original-Grid: 25x25x25
# LUTr-Conversion-Grid: 25x25x25
# LUTr-Conversion-Interpolation: none
# LUTr-Conversion-Method: Metadata normalization; numeric LUT samples preserved
# LUTr-Conversion-Tool: LUTr scripts/convert-all-to-cube.mjs 2.0.0
# LUTr-Conversion-Date: 2026-07-28
# LUTr-Asset-URL: https://freshluts.com/luts/871
# LUTr-Author: MarcR.
# LUTr-Author-URL: https://freshluts.com/users/86490
# LUTr-Attribution: MarcR. via Fresh LUTs
# LUTr-Source-Labels: gamma=Other; color=None; key=Neutral; style=Film emulation
# LUTr-Note: Preserve this metadata and the upstream license notices when redistributing.
# LUTr-Upstream-Comment: Generated with IWLTBAP LUT Generator
# LUTr-Upstream-Comment: Website: http://luts.iwltbap.com
# LUTr-Upstream-Comment: LUT size
# LUTr-Upstream-Comment: LUT data points
TITLE "PictureFX Faux Infrared vIII"
LUT_3D_SIZE 9
DOMAIN_MIN 0 0 0
DOMAIN_MAX 1 1 1
0 0 0
0.329412 0.282353 0.2
0.603922 0.517647 0.380392
0.858824 0.745098 0.54902
1 0.933333 0.705882
1 0.968627 0.811765
1 0.984314 0.905882
1 0.988235 0.933333
1 0.988235 0.933333
0.196078 0.035294 0.12549
0.411765 0.184314 0.25098
0.647059 0.478431 0.403922
0.882353 0.72549 0.564706
1 0.921569 0.717647
1 0.964706 0.815686
1 0.980392 0.905882
1 0.988235 0.937255
1 0.988235 0.937255
0.356863 0.090196 0.243137
0.505882 0.145098 0.321569
0.729412 0.372549 0.458824
0.933333 0.670588 0.6
1 0.894118 0.737255
1 0.94902 0.827451
1 0.976471 0.913725
1 0.984314 0.945098
1 0.984314 0.945098
0.513725 0.14902 0.356863
0.615686 0.184314 0.411765
0.827451 0.258824 0.529412
1 0.54902 0.654902
1 0.831373 0.772549
1 0.921569 0.847059
1 0.968627 0.92549
1 0.980392 0.952941
1 0.980392 0.952941
0.670588 0.203922 0.470588
0.74902 0.231373 0.509804
0.913725 0.290196 0.6
1 0.360784 0.721569
1 0.709804 0.807843
1 0.890196 0.87451
1 0.964706 0.945098
1 0.980392 0.968627
1 0.980392 0.968627
0.827451 0.262745 0.584314
0.882353 0.282353 0.611765
1 0.32549 0.682353
1 0.380392 0.784314
1 0.419608 0.827451
1 0.827451 0.878431
1 0.964706 0.964706
1 0.984314 0.984314
1 0.984314 0.984314
0.968627 0.313725 0.694118
1 0.32549 0.713725
1 0.360784 0.768627
1 0.403922 0.847059
1 0.407843 0.839216
1 0.552941 0.839216
1 0.933333 0.952941
1 1 1
1 1 1
1 0.356863 0.796078
1 0.368627 0.811765
1 0.392157 0.85098
1 0.407843 0.866667
1 0.407843 0.85098
1 0.407843 0.835294
1 0.701961 0.870588
1 0.85098 0.917647
1 0.85098 0.917647
1 0.396078 0.886275
1 0.403922 0.898039
1 0.407843 0.894118
1 0.407843 0.87451
1 0.407843 0.858824
1 0.407843 0.843137
1 0.407843 0.831373
1 0.407843 0.827451
1 0.407843 0.827451
0 0.141176 0.129412
0.168627 0.317647 0.231373
0.537255 0.52549 0.380392
0.823529 0.74902 0.54902
1 0.937255 0.709804
1 0.976471 0.815686
1 0.984314 0.909804
1 0.988235 0.937255
1 0.988235 0.937255
0.027451 0.082353 0.184314
0.278431 0.207843 0.247059
0.580392 0.486275 0.4
0.847059 0.729412 0.564706
1 0.92549 0.717647
1 0.968627 0.819608
1 0.984314 0.909804
1 0.988235 0.941176
1 0.988235 0.941176
0.219608 0.101961 0.258824
0.423529 0.117647 0.321569
0.678431 0.384314 0.454902
0.901961 0.678431 0.6
1 0.898039 0.741176
1 0.952941 0.831373
1 0.980392 0.917647
1 0.988235 0.945098
1 0.988235 0.945098
0.431373 0.121569 0.356863
0.556863 0.164706 0.411765
0.788235 0.247059 0.52549
0.988235 0.556863 0.654902
1 0.839216 0.776471
1 0.929412 0.85098
1 0.972549 0.929412
1 0.984314 0.956863
1 0.984314 0.956863
0.615686 0.188235 0.466667
0.705882 0.219608 0.509804
0.882353 0.282353 0.6
1 0.352941 0.72549
1 0.717647 0.815686
1 0.894118 0.878431
1 0.964706 0.945098
1 0.984314 0.968627
1 0.984314 0.968627
0.788235 0.25098 0.584314
0.85098 0.270588 0.611765
0.984314 0.317647 0.686275
1 0.376471 0.784314
1 0.431373 0.839216
1 0.831373 0.882353
1 0.968627 0.964706
1 0.988235 0.988235
1 0.988235 0.988235
0.941176 0.305882 0.694118
0.984314 0.317647 0.713725
1 0.352941 0.772549
1 0.4 0.85098
1 0.407843 0.847059
1 0.564706 0.843137
1 0.937255 0.956863
1 1 1
1 1 1
1 0.352941 0.796078
1 0.364706 0.811765
1 0.388235 0.854902
1 0.407843 0.878431
1 0.407843 0.854902
1 0.407843 0.839216
1 0.709804 0.87451
1 0.858824 0.921569
1 0.858824 0.921569
1 0.392157 0.886275
1 0.4 0.898039
1 0.407843 0.901961
1 0.407843 0.882353
1 0.407843 0.862745
1 0.407843 0.847059
1 0.407843 0.835294
1 0.407843 0.831373
1 0.407843 0.831373
0 0.254902 0.235294
0 0.384314 0.301961
0.380392 0.572549 0.423529
0.74902 0.768627 0.568627
0.992157 0.941176 0.713725
1 0.988235 0.827451
1 0.992157 0.913725
1 0.992157 0.945098
1 0.992157 0.945098
0.05098 0.137255 0.27451
0 0.305882 0.305882
0.427451 0.521569 0.419608
0.768627 0.741176 0.568627
1 0.929412 0.721569
1 0.980392 0.831373
1 0.988235 0.917647
1 0.992157 0.945098
1 0.992157 0.945098
0.07451 0.164706 0.32549
0.145098 0.180392 0.364706
0.537255 0.4 0.45098
0.827451 0.686275 0.6
1 0.901961 0.745098
1 0.964706 0.843137
1 0.984314 0.92549
1 0.988235 0.952941
1 0.988235 0.952941
0.196078 0.2 0.4
0.403922 0.180392 0.427451
0.694118 0.215686 0.52549
0.92549 0.572549 0.658824
1 0.847059 0.780392
1 0.937255 0.858824
1 0.976471 0.937255
1 0.988235 0.960784
1 0.988235 0.960784
0.486275 0.196078 0.482353
0.584314 0.180392 0.505882
0.807843 0.254902 0.603922
1 0.337255 0.729412
1 0.733333 0.827451
1 0.905882 0.886275
1 0.972549 0.952941
1 0.988235 0.976471
1 0.988235 0.976471
0.694118 0.219608 0.580392
0.768627 0.243137 0.611765
0.92549 0.298039 0.686275
1 0.364706 0.788235
1 0.462745 0.858824
1 0.843137 0.894118
1 0.972549 0.972549
1 0.992157 0.992157
1 0.992157 0.992157
0.87451 0.282353 0.694118
0.92549 0.301961 0.717647
1 0.341176 0.772549
1 0.392157 0.854902
1 0.407843 0.866667
1 0.588235 0.854902
1 0.945098 0.960784
1 1 1
1 1 1
1 0.337255 0.796078
1 0.34902 0.815686
1 0.376471 0.854902
1 0.407843 0.898039
1 0.407843 0.870588
1 0.407843 0.85098
1 0.72549 0.882353
1 0.866667 0.92549
1 0.866667 0.92549
1 0.384314 0.890196
1 0.392157 0.901961
1 0.407843 0.92549
1 0.407843 0.901961
1 0.407843 0.878431
1 0.407843 0.858824
1 0.407843 0.843137
1 0.431373 0.843137
1 0.431373 0.843137
0 0.368627 0.341176
0 0.458824 0.384314
0 0.639216 0.482353
0.596078 0.807843 0.611765
0.92549 0.960784 0.741176
1 1 0.843137
1 1 0.929412
1 1 0.956863
1 1 0.956863
0 0.309804 0.364706
0 0.403922 0.388235
0 0.596078 0.482353
0.619608 0.784314 0.611765
0.933333 0.94902 0.741176
1 1 0.847059
1 0.996078 0.929412
1 0.996078 0.956863
1 0.996078 0.956863
0.101961 0.211765 0.411765
0.086275 0.247059 0.439216
0.109804 0.482353 0.490196
0.67451 0.713725 0.611765
0.960784 0.909804 0.74902
1 0.988235 0.854902
1 0.992157 0.937255
1 0.996078 0.964706
1 0.996078 0.964706
0.121569 0.247059 0.466667
0.129412 0.258824 0.494118
0.498039 0.247059 0.556863
0.796078 0.596078 0.654902
1 0.858824 0.784314
1 0.956863 0.87451
1 0.984314 0.94902
1 0.992157 0.972549
1 0.992157 0.972549
0.14902 0.286275 0.541176
0.352941 0.282353 0.560784
0.647059 0.247059 0.615686
0.94902 0.337255 0.729412
1 0.74902 0.835294
1 0.921569 0.898039
1 0.980392 0.960784
1 0.992157 0.984314
1 0.992157 0.984314
0.517647 0.290196 0.623529
0.607843 0.282353 0.639216
0.8 0.258824 0.686275
1 0.341176 0.792157
1 0.509804 0.890196
1 0.862745 0.905882
1 0.980392 0.980392
1 1 1
1 1 1
0.74902 0.290196 0.705882
0.807843 0.278431 0.721569
0.94902 0.309804 0.772549
1 0.372549 0.858824
1 0.407843 0.898039
1 0.623529 0.878431
1 0.956863 0.968627
1 1 1
1 1 1
0.937255 0.309804 0.796078
0.980392 0.321569 0.815686
1 0.356863 0.858824
1 0.4 0.92549
1 0.407843 0.901961
1 0.407843 0.870588
1 0.74902 0.898039
1 0.882353 0.937255
1 0.882353 0.937255
1 0.364706 0.890196
1 0.372549 0.905882
1 0.396078 0.937255
1 0.407843 0.933333
1 0.407843 0.901961
1 0.407843 0.878431
1 0.407843 0.858824
1 0.486275 0.858824
1 0.486275 0.858824
0 0.478431 0.447059
0 0.54902 0.478431
0 0.698039 0.556863
0.023529 0.866667 0.666667
0.792157 0.996078 0.780392
0.972549 1 0.866667
1 1 0.945098
1 1 0.972549
1 1 0.972549
0 0.439216 0.462745
0 0.501961 0.482353
0 0.666667 0.556863
0.12549 0.843137 0.666667
0.803922 0.980392 0.780392
0.980392 1 0.870588
1 1 0.94902
1 1 0.972549
1 1 0.972549
0.05098 0.313725 0.505882
0 0.407843 0.521569
0 0.576471 0.564706
0.32549 0.780392 0.666667
0.835294 0.945098 0.784314
1 1 0.878431
1 1 0.952941
1 1 0.976471
1 1 0.976471
0.152941 0.294118 0.552941
0.160784 0.305882 0.572549
0 0.423529 0.619608
0.52549 0.654902 0.678431
0.890196 0.87451 0.788235
1 0.988235 0.890196
1 0.996078 0.964706
1 1 0.984314
1 1 0.984314
0.172549 0.329412 0.611765
0.180392 0.341176 0.631373
0.313725 0.356863 0.678431
0.760784 0.431373 0.741176
0.996078 0.772549 0.835294
1 0.945098 0.913725
1 0.992157 0.976471
1 1 0.996078
1 1 0.996078
0.196078 0.368627 0.682353
0.207843 0.376471 0.698039
0.592157 0.352941 0.737255
0.901961 0.305882 0.796078
1 0.556863 0.898039
1 0.886275 0.92549
1 0.992157 0.992157
1 1 1
1 1 1
0.513725 0.380392 0.756863
0.607843 0.372549 0.768627
0.796078 0.34902 0.8
1 0.337255 0.858824
1 0.407843 0.952941
1 0.670588 0.905882
1 0.972549 0.980392
1 1 1
1 1 1
0.792157 0.372549 0.831373
0.843137 0.364706 0.839216
0.964706 0.341176 0.866667
1 0.376471 0.92549
1 0.407843 0.945098
1 0.407843 0.901961
1 0.784314 0.913725
1 0.905882 0.952941
1 0.905882 0.952941
0.984314 0.364706 0.901961
1 0.360784 0.909804
1 0.368627 0.941176
1 0.407843 0.984314
1 0.407843 0.941176
1 0.407843 0.905882
1 0.407843 0.878431
1 0.54902 0.882353
1 0.54902 0.882353
0 0.592157 0.552941
0 0.647059 0.576471
0 0.768627 0.639216
0 0.921569 0.729412
0.490196 1 0.827451
0.905882 1 0.898039
0.988235 1 0.968627
1 1 0.992157
1 1 0.992157
0 0.560784 0.564706
0 0.611765 0.580392
0 0.741176 0.639216
0 0.901961 0.729412
0.521569 1 0.827451
0.913725 1 0.901961
0.992157 1 0.968627
1 1 0.992157
1 1 0.992157
0 0.478431 0.6
0 0.537255 0.611765
0 0.670588 0.647059
0 0.854902 0.729412
0.580392 0.996078 0.831373
0.933333 1 0.905882
0.996078 1 0.972549
1 1 0.996078
1 1 0.996078
0.184314 0.34902 0.647059
0.184314 0.360784 0.662745
0 0.54902 0.690196
0 0.760784 0.741176
0.670588 0.929412 0.831373
0.968627 1 0.917647
1 1 0.984314
1 1 1
1 1 1
0.2 0.376471 0.694118
0.203922 0.384314 0.709804
0.219608 0.407843 0.745098
0.329412 0.592157 0.792157
0.796078 0.811765 0.843137
1 0.988235 0.937255
1 1 0.996078
1 1 1
1 1 1
0.219608 0.407843 0.74902
0.223529 0.415686 0.764706
0.235294 0.435294 0.796078
0.67451 0.415686 0.847059
0.976471 0.615686 0.898039
1 0.913725 0.952941
1 1 1
1 1 1
1 1 1
0.239216 0.447059 0.811765
0.243137 0.45098 0.823529
0.486275 0.447059 0.85098
0.85098 0.403922 0.894118
1 0.376471 0.956863
1 0.729412 0.94902
1 0.992157 0.996078
1 1 1
1 1 1
0.47451 0.466667 0.878431
0.572549 0.458824 0.886275
0.776471 0.435294 0.909804
0.996078 0.396078 0.945098
1 0.403922 1
1 0.407843 0.94902
1 0.827451 0.941176
1 0.933333 0.968627
1 0.933333 0.968627
0.811765 0.45098 0.941176
0.862745 0.443137 0.94902
0.976471 0.423529 0.964706
1 0.392157 0.996078
1 0.407843 0.996078
1 0.407843 0.945098
1 0.407843 0.909804
1 0.623529 0.909804
1 0.623529 0.909804
0 0.705882 0.658824
0 0.745098 0.67451
0 0.843137 0.72549
0 0.968627 0.796078
0 1 0.854902
0.8 1 0.901961
0.992157 1 0.992157
1 1 1
1 1 1
0 0.682353 0.666667
0 0.717647 0.678431
0 0.819608 0.72549
0 0.952941 0.796078
0 1 0.866667
0.811765 1 0.905882
0.996078 1 0.996078
1 1 1
1 1 1
0 0.619608 0.690196
0 0.662745 0.701961
0 0.760784 0.729412
0 0.913725 0.796078
0 1 0.882353
0.831373 1 0.917647
1 1 1
1 1 1
1 1 1
0.031373 0.482353 0.733333
0 0.541176 0.741176
0 0.670588 0.764706
0 0.835294 0.803922
0 1 0.882353
0.870588 1 0.933333
1 1 1
1 1 1
1 1 1
0.227451 0.423529 0.776471
0.231373 0.431373 0.788235
0.211765 0.470588 0.815686
0 0.713725 0.85098
0.305882 0.901961 0.894118
0.913725 1 0.960784
1 1 1
1 1 1
1 1 1
0.243137 0.45098 0.823529
0.247059 0.454902 0.831373
0.254902 0.470588 0.858824
0.270588 0.498039 0.901961
0.705882 0.745098 0.941176
0.992157 0.945098 0.980392
1 1 1
1 1 1
1 1 1
0.262745 0.482353 0.87451
0.266667 0.486275 0.882353
0.27451 0.498039 0.905882
0.470588 0.505882 0.945098
0.960784 0.447059 0.992157
1 0.792157 1
1 1 1
1 1 1
1 1 1
0.282353 0.513725 0.929412
0.282353 0.517647 0.937255
0.290196 0.529412 0.956863
0.768627 0.490196 0.988235
1 0.439216 1
1 0.407843 1
1 0.87451 0.968627
1 0.964706 0.984314
1 0.964706 0.984314
0.356863 0.541176 0.984314
0.494118 0.533333 0.988235
0.72549 0.509804 1
0.972549 0.47451 1
1 0.423529 1
1 0.407843 1
1 0.45098 0.94902
1 0.705882 0.945098
1 0.705882 0.945098
0 0.807843 0.752941
0 0.839216 0.768627
0 0.917647 0.807843
0 1 0.862745
0 1 0.87451
0.254902 1 0.870588
0.996078 1 1
1 1 1
1 1 1
0 0.788235 0.760784
0 0.819608 0.768627
0 0.898039 0.807843
0 1 0.862745
0 1 0.886275
0.305882 1 0.87451
1 1 1
1 1 1
1 1 1
0 0.745098 0.780392
0 0.776471 0.788235
0 0.85098 0.807843
0 0.972549 0.862745
0 1 0.905882
0.396078 1 0.890196
1 1 1
1 1 1
1 1 1
0 0.643137 0.815686
0 0.686275 0.819608
0 0.780392 0.839216
0 0.909804 0.870588
0 1 0.937255
0.505882 1 0.917647
1 1 1
1 1 1
1 1 1
0.254902 0.470588 0.858824
0.239216 0.490196 0.866667
0 0.635294 0.882353
0 0.815686 0.905882
0 0.980392 0.945098
0.619608 1 0.956863
1 1 1
1 1 1
1 1 1
0.270588 0.494118 0.894118
0.270588 0.498039 0.901961
0.278431 0.509804 0.92549
0.12549 0.611765 0.956863
0 0.870588 0.984314
0.752941 1 1
1 1 1
1 1 1
1 1 1
0.282353 0.517647 0.937255
0.286275 0.521569 0.945098
0.294118 0.533333 0.964706
0.301961 0.54902 0.996078
0.556863 0.611765 1
0.92549 0.87451 1
1 1 1
1 1 1
1 1 1
0.298039 0.541176 0.980392
0.301961 0.545098 0.988235
0.305882 0.556863 1
0.313725 0.572549 1
0.815686 0.52549 1
1 0.545098 1
1 0.921569 0.996078
1 1 1
1 1 1
0.313725 0.568627 1
0.317647 0.572549 1
0.321569 0.580392 1
0.603922 0.556863 1
0.952941 0.490196 1
1 0.427451 1
1 0.592157 1
1 0.784314 0.980392
1 0.784314 0.980392
0 0.901961 0.843137
0 0.92549 0.854902
0 0.988235 0.882353
0 1 0.929412
0 1 0.894118
0 1 0.862745
0.760784 1 0.921569
0.94902 1 0.976471
0.94902 1 0.976471
0 0.890196 0.847059
0 0.909804 0.854902
0 0.972549 0.882353
0 1 0.929412
0 1 0.901961
0 1 0.870588
0.772549 1 0.92549
0.952941 1 0.980392
0.952941 1 0.980392
0 0.854902 0.862745
0 0.878431 0.870588
0 0.937255 0.886275
0 1 0.929412
0 1 0.921569
0 1 0.886275
0.796078 1 0.937255
0.968627 1 0.988235
0.968627 1 0.988235
0 0.780392 0.890196
0 0.811765 0.894118
0 0.882353 0.909804
0 0.980392 0.933333
0 1 0.960784
0 1 0.913725
0.835294 1 0.94902
0.992157 1 0.996078
0.992157 1 0.996078
0 0.631373 0.929412
0 0.67451 0.933333
0 0.772549 0.945098
0 0.905882 0.964706
0 1 0.992157
0 1 0.956863
0.890196 1 0.968627
1 1 1
1 1 1
0.294118 0.533333 0.964706
0.294118 0.537255 0.972549
0.298039 0.54902 0.988235
0 0.756863 1
0 0.945098 1
0 1 1
0.94902 1 0.992157
1 1 1
1 1 1
0.305882 0.552941 0.996078
0.305882 0.556863 1
0.309804 0.564706 1
0.321569 0.580392 1
0 0.741176 1
0.513725 0.921569 1
1 1 1
1 1 1
1 1 1
0.317647 0.572549 1
0.317647 0.576471 1
0.321569 0.580392 1
0.321569 0.580392 1
0.321569 0.580392 1
0.811765 0.717647 1
0.996078 0.972549 1
1 1 1
1 1 1
0.321569 0.580392 1
0.321569 0.580392 1
0.321569 0.580392 1
0.321569 0.580392 1
0.545098 0.564706 1
0.952941 0.494118 1
1 0.721569 1
1 0.858824 1
1 0.858824 1
