site/assets/luts/freshluts--0000221-cinema-5.cube
# LUTr-Schema-Version: 2
# LUTr-ID: freshluts--0000221-cinema-5
# LUTr-Title: CINEMA 5
# LUTr-Collection: Fresh LUTs
# LUTr-Collection-ID: freshluts-community
# LUTr-Source: https://freshluts.com
# LUTr-Retrieved: 2026-07-27
# LUTr-Source-File: submissions-raw/freshluts/cubes/221__CINEMA_5.cube
# LUTr-Source-Format: CUBE
# LUTr-Source-SHA256: b662cf85d5bfdbf003e9b1ca0a2aa2ebe57f84b294e30efb8946b520d4125af7
# LUTr-License: CC0-1.0
# LUTr-License-URL: https://freshluts.com/termsandconditions
# LUTr-License-Basis: site-terms
# LUTr-Transform-Class: creative-look
# LUTr-Tags: creative, freshluts, community, cube, cinematic, blockbuster, blue, rec709
# LUTr-Input-Color-Space: rec709
# LUTr-Input-Gamut: rec709
# LUTr-Input-Transfer: rec709
# LUTr-Output-Color-Space: srgb
# LUTr-Output-Gamut: rec709
# LUTr-Output-Transfer: srgb
# LUTr-Color-Space-Confidence: declared-by-source
# LUTr-Domain-Normalized: true
# LUTr-Shaper: none
# LUTr-Original-Grid: 16x16x16
# LUTr-Conversion-Grid: 16x16x16
# LUTr-Conversion-Interpolation: none
# LUTr-Conversion-Method: Metadata normalization; numeric LUT samples preserved
# LUTr-Conversion-Tool: LUTr scripts/convert-all-to-cube.mjs 2.0.0
# LUTr-Conversion-Date: 2026-07-28
# LUTr-Asset-URL: https://freshluts.com/luts/221
# LUTr-Author: Andy
# LUTr-Author-URL: https://freshluts.com/users/1003
# LUTr-Attribution: Andy via Fresh LUTs
# LUTr-Source-Labels: gamma=Rec 709; color=Blue; key=Neutral; style=Blockbuster
# LUTr-Note: Preserve this metadata and the upstream license notices when redistributing.
TITLE "CINEMA 5"
LUT_3D_SIZE 6
DOMAIN_MIN 0 0 0
DOMAIN_MAX 1 1 1
0 0 0
0.186382 0.031532 0.024567
0.372701 0.04447 0.04641
0.561209 0.061849 0.072575
0.812837 0.093519 0.104518
0.958452 0.121303 0.128647
0.00037 0.152507 0.017329
0.169053 0.176403 0.020711
0.391688 0.183207 0.010863
0.609241 0.196943 0.03317
0.868939 0.238178 0.054219
0.980248 0.26846 0.096477
0.000347 0.302547 0.045665
0.082716 0.319965 0.031243
0.378837 0.363705 0.043893
0.61379 0.360629 0.02059
0.884282 0.413559 0.025977
0.987367 0.441778 0.055396
0.002038 0.470791 0.06379
0.072899 0.48559 0.04234
0.30013 0.530789 0.043173
0.608932 0.567805 0.058785
0.889221 0.608208 0.035734
0.992191 0.618123 0.059082
0.004908 0.690096 0.091449
0.07846 0.704096 0.069953
0.224807 0.743044 0.061504
0.64332 0.785285 0.090025
0.891726 0.805331 0.096821
0.994009 0.788342 0.091421
0.006883 0.80889 0.11865
0.078045 0.819544 0.105634
0.191624 0.843131 0.076276
0.572873 0.875564 0.101451
0.839721 0.901097 0.120496
0.994191 0.914187 0.125235
0.000837 0.004599 0.221612
0.197157 0.006311 0.25224
0.407787 0.017942 0.203711
0.56133 0.039359 0.175409
0.795492 0.071341 0.205783
0.941406 0.094945 0.224661
0 0.192468 0.237974
0.119139 0.190794 0.230095
0.395972 0.219871 0.225964
0.621436 0.251986 0.239605
0.883691 0.292335 0.261476
0.975598 0.345567 0.311017
0 0.345939 0.225275
0.081442 0.34989 0.230225
0.345309 0.375823 0.245197
0.642966 0.399729 0.235541
0.92381 0.451335 0.211674
0.989049 0.483656 0.280776
0.000003 0.511611 0.233822
0.081608 0.521866 0.245587
0.225703 0.541827 0.252848
0.584549 0.584961 0.263316
0.904374 0.638054 0.249064
0.993829 0.653594 0.275145
0.003251 0.711519 0.244381
0.086496 0.729201 0.250311
0.186517 0.753911 0.250009
0.621337 0.796152 0.284261
0.891746 0.817989 0.280656
0.995319 0.805241 0.294498
0.005582 0.821014 0.233678
0.09233 0.836609 0.246957
0.195326 0.855125 0.250768
0.579686 0.884827 0.26629
0.846513 0.913297 0.297211
0.995036 0.925716 0.301712
0.000701 0.01115 0.370646
0.099948 0.015588 0.404239
0.382271 0.012716 0.425467
0.60662 0.01365 0.398376
0.821718 0.046292 0.379291
0.945497 0.061179 0.350933
0 0.184315 0.412499
0.080904 0.206137 0.42003
0.346915 0.206972 0.430444
0.616835 0.221012 0.388176
0.868953 0.25684 0.367801
0.966803 0.311015 0.396887
0 0.382871 0.431956
0.080684 0.396457 0.433994
0.256702 0.393377 0.428878
0.602923 0.429584 0.424801
0.897492 0.482472 0.436545
0.983228 0.541145 0.494422
0 0.551158 0.424662
0.080684 0.57247 0.426643
0.160744 0.567401 0.423478
0.541494 0.596077 0.442412
0.908182 0.668655 0.440913
0.993414 0.687668 0.473993
0.000508 0.743786 0.426059
0.083107 0.756405 0.418043
0.153243 0.764654 0.407002
0.567439 0.803087 0.456428
0.877228 0.832913 0.470586
0.994888 0.826508 0.484054
0.003456 0.840178 0.386523
0.08571 0.85082 0.391522
0.179158 0.865569 0.404113
0.56975 0.894132 0.424137
0.843041 0.922953 0.463731
0.995087 0.939272 0.483852
0.001511 0.014614 0.501614
0.078363 0.018147 0.571963
0.278972 0.017072 0.586161
0.562526 0.014948 0.597113
0.847502 0.016973 0.61283
0.96521 0.063206 0.562693
0 0.180077 0.583795
0.080747 0.21541 0.591931
0.224448 0.203413 0.604949
0.551578 0.212973 0.615694
0.876022 0.240628 0.620211
0.972685 0.287273 0.564816
0 0.3743 0.600145
0.080684 0.396856 0.607924
0.155529 0.398977 0.617248
0.525429 0.412431 0.627308
0.881399 0.43892 0.604454
0.976486 0.485896 0.581802
0 0.57669 0.614462
0.080684 0.605799 0.621503
0.145485 0.604579 0.619849
0.440948 0.617565 0.623634
0.890594 0.675754 0.634177
0.986845 0.72341 0.677079
0 0.782381 0.632383
0.080684 0.796498 0.627742
0.145483 0.801379 0.620704
0.375355 0.812779 0.614046
0.851234 0.848423 0.644873
0.993044 0.847595 0.665134
0.00004 0.875058 0.586005
0.081866 0.879694 0.578281
0.148305 0.882116 0.568829
0.472405 0.898353 0.575974
0.817514 0.930632 0.610894
0.992571 0.954343 0.658524
0.00257 0.015846 0.678696
0.100967 0.020588 0.755585
0.250235 0.019024 0.756079
0.525703 0.021532 0.771825
0.806362 0.021383 0.775742
0.968738 0.043516 0.754636
0.000546 0.174254 0.767909
0.080931 0.208579 0.772655
0.155513 0.204103 0.775272
0.520687 0.20059 0.789566
0.823317 0.220182 0.792196
0.974966 0.254009 0.76728
0 0.381178 0.775021
0.080684 0.401941 0.780162
0.146368 0.400072 0.784746
0.476912 0.397125 0.806857
0.828834 0.4245 0.806572
0.979926 0.463835 0.778025
0 0.594556 0.787854
0.080684 0.62499 0.794426
0.145483 0.626629 0.799303
0.252819 0.609153 0.814251
0.828929 0.640638 0.820597
0.98303 0.676937 0.783663
0 0.795209 0.799267
0.080684 0.815365 0.805927
0.145483 0.828269 0.809817
0.220623 0.840491 0.815267
0.820508 0.864427 0.831338
0.984292 0.886714 0.843841
0 0.904475 0.775049
0.080684 0.911231 0.774587
0.145483 0.917451 0.776181
0.291467 0.928085 0.778607
0.864804 0.957193 0.831933
0.991502 0.976646 0.853301
0.003441 0.017564 0.793491
0.099911 0.022506 0.852324
0.231682 0.022467 0.852076
0.434281 0.028487 0.858784
0.71797 0.022826 0.861288
0.952668 0.043203 0.864298
0 0.164345 0.86011
0.080722 0.2023 0.862429
0.151201 0.195755 0.866003
0.432802 0.188591 0.871654
0.729964 0.198071 0.872978
0.958227 0.232518 0.876869
0 0.358889 0.860845
0.080684 0.375319 0.866592
0.146022 0.382854 0.872412
0.350551 0.362351 0.884253
0.735815 0.390357 0.887105
0.960522 0.432287 0.888696
0 0.551991 0.866746
0.080684 0.574558 0.872882
0.145483 0.578583 0.877677
0.207802 0.56781 0.890914
0.746103 0.600614 0.902472
0.970825 0.63046 0.904826
0 0.738162 0.871264
0.080684 0.760278 0.877965
0.145483 0.7876 0.889814
0.207327 0.800852 0.902433
0.815359 0.85702 0.91612
0.97958 0.871683 0.926538
0 0.895913 0.884827
0.080684 0.904667 0.889698
0.145483 0.916082 0.896046
0.206037 0.931021 0.906058
0.815348 0.958373 0.922711
0.992469 0.988521 0.959448
