site/assets/luts/freshluts--0001344-natural-love.cube
# LUTr-Schema-Version: 2
# LUTr-ID: freshluts--0001344-natural-love
# LUTr-Title: Natural LOVE
# LUTr-Collection: Fresh LUTs
# LUTr-Collection-ID: freshluts-community
# LUTr-Source: https://freshluts.com
# LUTr-Retrieved: 2026-07-27
# LUTr-Source-File: submissions-raw/freshluts/cubes/1344__natural.cube
# LUTr-Source-Format: CUBE
# LUTr-Source-SHA256: 3f19d5d909cac52a85ef85f8b55fc54c6a5b128b3aeb66cf3c61ee89778f960a
# LUTr-License: CC0-1.0
# LUTr-License-URL: https://freshluts.com/termsandconditions
# LUTr-License-Basis: site-terms
# LUTr-Transform-Class: creative-look
# LUTr-Tags: creative, freshluts, community, cube, red, high-key, rec709
# LUTr-Input-Color-Space: rec709
# LUTr-Input-Gamut: rec709
# LUTr-Input-Transfer: rec709
# LUTr-Output-Color-Space: srgb
# LUTr-Output-Gamut: rec709
# LUTr-Output-Transfer: srgb
# LUTr-Color-Space-Confidence: declared-by-source
# LUTr-Domain-Normalized: true
# LUTr-Shaper: none
# LUTr-Original-Grid: 16x16x16
# LUTr-Conversion-Grid: 16x16x16
# LUTr-Conversion-Interpolation: none
# LUTr-Conversion-Method: Metadata normalization; numeric LUT samples preserved
# LUTr-Conversion-Tool: LUTr scripts/convert-all-to-cube.mjs 2.0.0
# LUTr-Conversion-Date: 2026-07-28
# LUTr-Asset-URL: https://freshluts.com/luts/1344
# LUTr-Author: lvannoeun@gmail.com
# LUTr-Author-URL: https://freshluts.com/users/57563
# LUTr-Attribution: lvannoeun@gmail.com via Fresh LUTs
# LUTr-Source-Labels: gamma=Rec 709; color=Red; key=High Key; style=Colorful
# LUTr-Note: Preserve this metadata and the upstream license notices when redistributing.
TITLE "Natural LOVE"
LUT_3D_SIZE 6
DOMAIN_MIN 0 0 0
DOMAIN_MAX 1 1 1
0.011657 0 0.023932
0.114806 -0.000605 0.023931
0.401717 -0.001495 0.023929
0.667168 -0.00251 0.023918
0.852179 -0.00341 0.023908
0.96577 -0.004041 0.023895
0.011655 0.094777 0.02393
0.114987 0.094777 0.023929
0.401716 0.179022 0.023926
0.667168 0.201685 0.023917
0.852178 0.192131 0.023904
0.96577 0.170944 0.023891
0.011643 0.384661 0.023919
0.195572 0.38466 0.023917
0.401735 0.384659 0.023917
0.66729 0.425584 0.023905
0.852178 0.408307 0.02389
0.965769 0.370067 0.02388
0.011607 0.633572 0.023891
0.217318 0.633572 0.02389
0.444152 0.633571 0.023887
0.66689 0.633571 0.023879
0.852176 0.609364 0.023866
0.965767 0.555011 0.023859
0.01155 0.801157 0.023852
0.208057 0.801157 0.023851
0.426147 0.801157 0.023845
0.640177 0.801157 0.023839
0.851654 0.801156 0.023822
0.965765 0.731649 0.023822
0.011495 0.902378 0.023807
0.187683 0.902378 0.023806
0.386425 0.902377 0.023802
0.581464 0.902377 0.023795
0.774089 0.902377 0.023786
0.965141 0.902376 0.02377
0.011657 -0.000387 0.139773
0.115189 -0.000684 0.139772
0.401717 -0.001535 0.220701
0.667168 -0.002536 0.242569
0.852179 -0.003428 0.233348
0.96577 -0.004053 0.212978
0.011655 0.094968 0.139772
0.114751 0.094781 0.139862
0.420496 0.071674 0.115343
0.68397 0.035895 0.074961
0.863158 0.02077 0.05718
0.968958 0.070598 0.113802
0.011643 0.384661 0.220709
0.056272 0.389163 0.079237
0.402658 0.385698 0.06985
0.673992 0.406447 0.055691
0.858713 0.382596 0.048579
0.96896 0.346785 0.101099
0.011607 0.633572 0.242466
0.030982 0.635762 0.053046
0.42061 0.635142 0.046979
0.667387 0.634017 0.045218
0.854798 0.602052 0.043303
0.968927 0.545233 0.06127
0.01155 0.801157 0.233204
0.026029 0.802244 0.047778
0.396494 0.802164 0.041975
0.630747 0.801745 0.041792
0.851924 0.801404 0.041694
0.96718 0.728268 0.041698
0.011495 0.902378 0.212844
0.025867 0.903195 0.047094
0.356974 0.903137 0.041911
0.569202 0.903004 0.042054
0.769629 0.902787 0.04233
0.965394 0.902538 0.042806
0.011655 -0.000958 0.425085
0.195621 -0.00115 0.425084
0.401785 -0.001691 0.425084
0.667168 -0.002641 0.46681
0.852178 -0.003501 0.44918
0.96577 -0.004105 0.410199
0.011654 0.179074 0.425084
0.107169 0.087662 0.445753
0.418352 0.064149 0.441537
0.682317 0.033337 0.453196
0.862526 0.019974 0.425089
0.968959 0.069564 0.388128
0.011641 0.384731 0.425081
0.053728 0.38785 0.428379
0.401491 0.384737 0.425301
0.686016 0.370802 0.411045
0.878499 0.346138 0.386005
0.96896 0.379324 0.419342
0.011604 0.633571 0.466626
0.030636 0.635524 0.444144
0.346084 0.640305 0.371111
0.668496 0.635263 0.355502
0.867718 0.587471 0.336169
0.968927 0.557712 0.413674
0.011547 0.801157 0.448941
0.025986 0.802194 0.420244
0.281921 0.807778 0.308218
0.601454 0.805607 0.3
0.853149 0.802651 0.288935
0.968773 0.731322 0.394546
0.011493 0.902378 0.409925
0.025881 0.903178 0.381434
0.371115 0.903838 0.394761
0.572507 0.903838 0.387756
0.768242 0.903838 0.366957
0.966459 0.903663 0.260619
0.011653 -0.001608 0.683441
0.217283 -0.00174 0.683441
0.444046 -0.002191 0.68344
0.666674 -0.002839 0.68344
0.852178 -0.003644 0.657994
0.96577 -0.004206 0.601031
0.011648 0.201502 0.68344
0.08365 0.065277 0.712789
0.435463 0.046265 0.705409
0.67925 0.029154 0.69558
0.861381 0.018559 0.655292
0.96896 0.067407 0.592858
0.011633 0.425267 0.68344
0.044445 0.409361 0.694548
0.396671 0.379865 0.704974
0.683789 0.365927 0.700199
0.87777 0.340184 0.652079
0.968959 0.378798 0.606065
0.011601 0.633391 0.683439
0.029993 0.63486 0.684981
0.340336 0.638362 0.688827
0.666948 0.633594 0.683626
0.867536 0.626151 0.675548
0.9689 0.631699 0.681166
0.011543 0.801157 0.657735
0.025919 0.80212 0.648967
0.278992 0.807029 0.622688
0.638163 0.806145 0.655666
0.853149 0.802475 0.646792
0.968778 0.761985 0.675857
0.01149 0.902377 0.600646
0.025922 0.903177 0.589
0.368658 0.903838 0.59381
0.656165 0.903838 0.672432
0.803469 0.903838 0.667037
0.966648 0.903469 0.639927
0.011646 -0.002185 0.861503
0.207943 -0.002277 0.861503
0.425839 -0.002624 0.861503
0.639834 -0.003179 0.861503
0.851172 -0.003857 0.861502
0.965769 -0.004362 0.787723
0.011643 0.191909 0.861503
0.061862 0.044533 0.886965
0.406876 0.034332 0.881309
0.639977 0.023943 0.874342
0.858876 0.016764 0.869061
0.96896 0.063709 0.786237
0.011626 0.40784 0.861503
0.039516 0.38537 0.873536
0.388355 0.371714 0.891357
0.640156 0.357117 0.888883
0.875176 0.331048 0.884761
0.968956 0.378052 0.791077
0.011593 0.608623 0.861501
0.028921 0.602663 0.86586
0.333414 0.595328 0.882211
0.664158 0.630881 0.879307
0.865629 0.623537 0.87523
0.968882 0.631329 0.821945
0.011539 0.800754 0.861499
0.025833 0.801507 0.862406
0.274693 0.805385 0.866579
0.634944 0.804802 0.865782
0.851941 0.801178 0.861748
0.968826 0.800174 0.860425
0.011486 0.902377 0.787294
0.025983 0.903082 0.783222
0.364097 0.903838 0.784901
0.654437 0.903838 0.81668
0.846755 0.903716 0.856479
0.966483 0.903222 0.845993
0.011641 -0.002589 0.970512
0.187601 -0.002654 0.970512
0.386173 -0.002909 0.970512
0.581106 -0.003349 0.970512
0.773623 -0.003919 0.970512
0.964656 -0.00457 0.970512
0.011638 0.170686 0.970512
0.114222 0.09415 0.970512
0.366902 0.094048 0.970512
0.572751 0.093675 0.970512
0.770435 0.092927 0.970512
0.964604 0.091556 0.970512
0.011623 0.369603 0.970512
0.113594 0.35083 0.970512
0.401466 0.384207 0.970512
0.588238 0.38441 0.970512
0.776473 0.38425 0.970512
0.964762 0.383897 0.970512
0.011594 0.554275 0.970512
0.11171 0.546414 0.970512
0.401058 0.56055 0.970512
0.667007 0.633241 0.970512
0.809945 0.633394 0.970512
0.965144 0.633256 0.970512
0.011546 0.730915 0.970512
0.105784 0.727743 0.970512
0.399822 0.733014 0.970512
0.666631 0.762943 0.970512
0.85217 0.801 0.970512
0.965588 0.80093 0.970512
0.011477 0.901834 0.970512
0.070717 0.901869 0.970512
0.392196 0.901818 0.970512
0.663641 0.902116 0.970512
0.850344 0.902257 0.970512
0.965549 0.902283 0.970512
