site/assets/luts/freshluts--0002289-picturefx-channel-swap-for-ir-use-with-550590665-720nm-camer.cube
# LUTr-Schema-Version: 2
# LUTr-ID: freshluts--0002289-picturefx-channel-swap-for-ir-use-with-550590665-720nm-camer
# LUTr-Title: PictureFX Channel Swap for IR - Use with 550,590,665 & 720nm camera IR filter
# LUTr-Collection: Fresh LUTs
# LUTr-Collection-ID: freshluts-community
# LUTr-Source: https://freshluts.com
# LUTr-Retrieved: 2026-07-27
# LUTr-Source-File: submissions-raw/freshluts/cubes/2289__PictureFX_Channel_Swap_for_IR.cube
# LUTr-Source-Format: CUBE
# LUTr-Source-SHA256: 6eee0e8f4d8c3e06f6997176fa4b11f4874cdf0ab94c13b49e6a2bb47815e65c
# LUTr-License: CC0-1.0
# LUTr-License-URL: https://freshluts.com/termsandconditions
# LUTr-License-Basis: site-terms
# LUTr-Transform-Class: creative-look
# LUTr-Tags: creative, freshluts, community, cube, film-emulation
# LUTr-Input-Color-Space:
# LUTr-Input-Gamut: unspecified
# LUTr-Input-Transfer: unspecified
# LUTr-Output-Color-Space: srgb
# LUTr-Output-Gamut: rec709
# LUTr-Output-Transfer: srgb
# LUTr-Color-Space-Confidence: camera-profile-input-required
# LUTr-Domain-Normalized: true
# LUTr-Shaper: none
# LUTr-Original-Grid: 25x25x25
# LUTr-Conversion-Grid: 25x25x25
# LUTr-Conversion-Interpolation: none
# LUTr-Conversion-Method: Metadata normalization; numeric LUT samples preserved
# LUTr-Conversion-Tool: LUTr scripts/convert-all-to-cube.mjs 2.0.0
# LUTr-Conversion-Date: 2026-07-28
# LUTr-Asset-URL: https://freshluts.com/luts/2289
# LUTr-Author: MarcR.
# LUTr-Author-URL: https://freshluts.com/users/86490
# LUTr-Attribution: MarcR. via Fresh LUTs
# LUTr-Source-Labels: gamma=Other; color=None; key=Neutral; style=Film emulation
# LUTr-Note: Preserve this metadata and the upstream license notices when redistributing.
# LUTr-Upstream-Comment: Generated with IWLTBAP LUT Generator
# LUTr-Upstream-Comment: Website: http://luts.iwltbap.com
# LUTr-Upstream-Comment: LUT size
# LUTr-Upstream-Comment: LUT data points
TITLE "PictureFX Channel Swap for IR - Use with 550,590,665 & 720nm camera IR filter"
LUT_3D_SIZE 9
DOMAIN_MIN 0 0 0
DOMAIN_MAX 1 1 1
0 0 0
0 0.039216 0.062745
0 0.101961 0.141176
0 0.164706 0.219608
0 0.223529 0.298039
0 0.286275 0.376471
0 0.34902 0.454902
0 0.411765 0.533333
0 0.47451 0.607843
0 0.047059 0.062745
0 0.07451 0.101961
0 0.121569 0.164706
0 0.176471 0.235294
0 0.235294 0.309804
0 0.294118 0.384314
0 0.356863 0.458824
0 0.415686 0.537255
0 0.478431 0.615686
0 0.117647 0.145098
0 0.133333 0.168627
0 0.164706 0.211765
0 0.207843 0.266667
0 0.258824 0.333333
0 0.313725 0.403922
0 0.372549 0.47451
0 0.427451 0.54902
0 0.490196 0.623529
0 0.192157 0.227451
0 0.2 0.243137
0 0.223529 0.27451
0 0.254902 0.317647
0 0.298039 0.372549
0 0.345098 0.435294
0 0.396078 0.501961
0 0.45098 0.572549
0 0.505882 0.643137
0 0.262745 0.309804
0 0.270588 0.321569
0 0.286275 0.345098
0 0.313725 0.380392
0 0.345098 0.427451
0 0.388235 0.482353
0 0.431373 0.541176
0 0.482353 0.603922
0 0.533333 0.67451
0 0.333333 0.396078
0 0.341176 0.403922
0 0.352941 0.419608
0 0.372549 0.447059
0 0.4 0.486275
0 0.435294 0.533333
0 0.47451 0.588235
0 0.521569 0.647059
0 0.568627 0.709804
0 0.407843 0.478431
0 0.411765 0.486275
0 0.423529 0.498039
0 0.439216 0.521569
0 0.462745 0.552941
0 0.490196 0.596078
0 0.52549 0.643137
0 0.564706 0.694118
0 0.607843 0.752941
0 0.478431 0.560784
0 0.482353 0.564706
0 0.490196 0.576471
0 0.505882 0.596078
0 0.52549 0.623529
0 0.54902 0.658824
0 0.580392 0.701961
0 0.615686 0.74902
0 0.654902 0.8
0 0.533333 0.623529
0 0.537255 0.631373
0 0.545098 0.639216
0 0.556863 0.658824
0 0.576471 0.682353
0 0.596078 0.713725
0 0.623529 0.74902
0 0.658824 0.796078
0 0.694118 0.843137
0.207843 0.105882 0.023529
0.196078 0.121569 0.082353
0.172549 0.156863 0.152941
0.113725 0.203922 0.227451
0 0.254902 0.301961
0 0.309804 0.380392
0 0.368627 0.454902
0 0.427451 0.533333
0 0.486275 0.611765
0.203922 0.12549 0.078431
0.196078 0.141176 0.113725
0.168627 0.172549 0.172549
0.113725 0.215686 0.239216
0 0.262745 0.313725
0 0.317647 0.388235
0 0.372549 0.462745
0 0.431373 0.537255
0 0.490196 0.615686
0.203922 0.168627 0.152941
0.192157 0.180392 0.176471
0.164706 0.203922 0.215686
0.105882 0.239216 0.27451
0 0.286275 0.337255
0 0.333333 0.407843
0 0.388235 0.478431
0 0.443137 0.552941
0 0.501961 0.627451
0.196078 0.223529 0.235294
0.188235 0.235294 0.247059
0.160784 0.25098 0.278431
0.094118 0.282353 0.321569
0 0.317647 0.376471
0 0.364706 0.439216
0 0.411765 0.505882
0 0.462745 0.576471
0 0.517647 0.647059
0.188235 0.286275 0.313725
0.176471 0.294118 0.32549
0.14902 0.309804 0.34902
0.078431 0.333333 0.384314
0 0.364706 0.427451
0 0.403922 0.482353
0 0.447059 0.541176
0 0.494118 0.607843
0 0.545098 0.67451
0.176471 0.352941 0.396078
0.164706 0.360784 0.403922
0.133333 0.372549 0.423529
0.043137 0.392157 0.45098
0 0.415686 0.490196
0 0.45098 0.537255
0 0.490196 0.588235
0 0.533333 0.647059
0 0.576471 0.709804
0.156863 0.423529 0.482353
0.145098 0.427451 0.486275
0.105882 0.435294 0.501961
0 0.45098 0.52549
0 0.47451 0.556863
0 0.501961 0.596078
0 0.537255 0.643137
0 0.576471 0.694118
0 0.619608 0.752941
0.133333 0.490196 0.564706
0.113725 0.494118 0.568627
0.066667 0.501961 0.580392
0 0.517647 0.6
0 0.537255 0.627451
0 0.560784 0.662745
0 0.592157 0.701961
0 0.623529 0.74902
0 0.662745 0.803922
0.101961 0.545098 0.627451
0.082353 0.54902 0.631373
0.003922 0.556863 0.643137
0 0.568627 0.658824
0 0.584314 0.682353
0 0.607843 0.713725
0 0.635294 0.752941
0 0.666667 0.796078
0 0.701961 0.843137
0.407843 0.227451 0.086275
0.403922 0.239216 0.121569
0.392157 0.254902 0.176471
0.372549 0.286275 0.243137
0.345098 0.321569 0.313725
0.298039 0.364706 0.388235
0.219608 0.415686 0.462745
0 0.466667 0.541176
0 0.521569 0.615686
0.407843 0.239216 0.117647
0.403922 0.247059 0.145098
0.392157 0.266667 0.192157
0.372549 0.294118 0.254902
0.345098 0.329412 0.32549
0.298039 0.372549 0.396078
0.219608 0.419608 0.470588
0 0.470588 0.545098
0 0.52549 0.619608
0.407843 0.262745 0.176471
0.4 0.270588 0.196078
0.392157 0.286275 0.235294
0.372549 0.313725 0.286275
0.341176 0.345098 0.34902
0.294118 0.388235 0.415686
0.215686 0.431373 0.486275
0 0.482353 0.556863
0 0.533333 0.631373
0.403922 0.301961 0.25098
0.4 0.305882 0.262745
0.388235 0.321569 0.290196
0.368627 0.345098 0.333333
0.337255 0.372549 0.388235
0.290196 0.411765 0.447059
0.211765 0.454902 0.513725
0 0.501961 0.580392
0 0.552941 0.65098
0.4 0.34902 0.32549
0.396078 0.352941 0.337255
0.384314 0.364706 0.356863
0.364706 0.384314 0.392157
0.333333 0.411765 0.435294
0.286275 0.447059 0.490196
0.2 0.486275 0.54902
0 0.529412 0.611765
0 0.576471 0.678431
0.396078 0.403922 0.407843
0.392157 0.407843 0.415686
0.380392 0.419608 0.431373
0.360784 0.435294 0.458824
0.329412 0.458824 0.494118
0.278431 0.486275 0.541176
0.188235 0.521569 0.596078
0 0.564706 0.65098
0 0.607843 0.713725
0.388235 0.462745 0.486275
0.384314 0.466667 0.494118
0.372549 0.47451 0.505882
0.352941 0.490196 0.529412
0.317647 0.509804 0.560784
0.266667 0.537255 0.6
0.172549 0.568627 0.647059
0 0.603922 0.701961
0 0.643137 0.756863
0.380392 0.52549 0.568627
0.376471 0.529412 0.572549
0.364706 0.537255 0.584314
0.341176 0.54902 0.603922
0.309804 0.568627 0.631373
0.254902 0.588235 0.666667
0.14902 0.619608 0.705882
0 0.65098 0.752941
0 0.686275 0.807843
0.372549 0.576471 0.631373
0.364706 0.580392 0.635294
0.352941 0.584314 0.647059
0.333333 0.596078 0.662745
0.298039 0.611765 0.686275
0.239216 0.635294 0.717647
0.12549 0.658824 0.756863
0 0.690196 0.8
0 0.72549 0.847059
0.607843 0.352941 0.145098
0.607843 0.356863 0.168627
0.6 0.368627 0.211765
0.588235 0.388235 0.270588
0.572549 0.415686 0.333333
0.54902 0.45098 0.403922
0.517647 0.486275 0.478431
0.47451 0.529412 0.54902
0.411765 0.576471 0.627451
0.607843 0.360784 0.168627
0.607843 0.364706 0.188235
0.6 0.376471 0.227451
0.588235 0.396078 0.282353
0.572549 0.419608 0.345098
0.54902 0.454902 0.411765
0.517647 0.490196 0.482353
0.470588 0.533333 0.556863
0.411765 0.580392 0.631373
0.607843 0.372549 0.215686
0.603922 0.380392 0.231373
0.6 0.392157 0.262745
0.588235 0.407843 0.309804
0.572549 0.435294 0.364706
0.54902 0.466667 0.431373
0.513725 0.501961 0.498039
0.470588 0.545098 0.568627
0.407843 0.588235 0.639216
0.607843 0.4 0.27451
0.603922 0.403922 0.286275
0.596078 0.415686 0.313725
0.588235 0.431373 0.352941
0.568627 0.454902 0.403922
0.545098 0.486275 0.458824
0.513725 0.521569 0.521569
0.470588 0.560784 0.588235
0.407843 0.603922 0.658824
0.603922 0.435294 0.345098
0.603922 0.439216 0.356863
0.596078 0.447059 0.376471
0.584314 0.462745 0.407843
0.568627 0.486275 0.45098
0.545098 0.513725 0.501961
0.509804 0.545098 0.560784
0.466667 0.584314 0.619608
0.403922 0.627451 0.686275
0.6 0.478431 0.423529
0.6 0.482353 0.427451
0.592157 0.490196 0.447059
0.580392 0.505882 0.470588
0.564706 0.52549 0.509804
0.541176 0.54902 0.552941
0.505882 0.580392 0.603922
0.462745 0.615686 0.662745
0.4 0.654902 0.721569
0.596078 0.529412 0.498039
0.596078 0.533333 0.505882
0.588235 0.537255 0.517647
0.576471 0.552941 0.541176
0.560784 0.568627 0.572549
0.537255 0.592157 0.611765
0.501961 0.619608 0.654902
0.454902 0.65098 0.709804
0.392157 0.690196 0.764706
0.592157 0.584314 0.580392
0.588235 0.584314 0.584314
0.584314 0.592157 0.596078
0.572549 0.603922 0.615686
0.552941 0.619608 0.639216
0.529412 0.639216 0.67451
0.494118 0.666667 0.713725
0.45098 0.694118 0.760784
0.384314 0.729412 0.811765
0.588235 0.627451 0.639216
0.584314 0.631373 0.647059
0.580392 0.635294 0.654902
0.568627 0.647059 0.670588
0.54902 0.658824 0.694118
0.52549 0.678431 0.72549
0.490196 0.701961 0.764706
0.443137 0.729412 0.807843
0.376471 0.760784 0.854902
0.811765 0.478431 0.207843
0.807843 0.482353 0.223529
0.803922 0.490196 0.258824
0.796078 0.501961 0.305882
0.784314 0.521569 0.364706
0.772549 0.54902 0.427451
0.74902 0.580392 0.494118
0.72549 0.615686 0.568627
0.690196 0.654902 0.639216
0.811765 0.482353 0.223529
0.807843 0.486275 0.239216
0.803922 0.494118 0.270588
0.796078 0.505882 0.317647
0.784314 0.52549 0.372549
0.768627 0.552941 0.435294
0.74902 0.580392 0.501961
0.721569 0.615686 0.572549
0.690196 0.654902 0.643137
0.811765 0.490196 0.258824
0.807843 0.494118 0.270588
0.803922 0.501961 0.298039
0.796078 0.517647 0.341176
0.784314 0.537255 0.392157
0.768627 0.560784 0.45098
0.74902 0.592157 0.517647
0.721569 0.623529 0.584314
0.690196 0.662745 0.654902
0.807843 0.509804 0.309804
0.807843 0.513725 0.321569
0.803922 0.521569 0.345098
0.796078 0.533333 0.380392
0.784314 0.552941 0.427451
0.768627 0.576471 0.478431
0.74902 0.603922 0.541176
0.721569 0.639216 0.603922
0.686275 0.67451 0.670588
0.807843 0.537255 0.372549
0.803922 0.541176 0.384314
0.8 0.54902 0.4
0.792157 0.560784 0.431373
0.784314 0.576471 0.470588
0.768627 0.6 0.521569
0.745098 0.627451 0.576471
0.721569 0.658824 0.635294
0.686275 0.694118 0.698039
0.803922 0.572549 0.443137
0.803922 0.572549 0.45098
0.8 0.580392 0.466667
0.792157 0.592157 0.490196
0.780392 0.607843 0.52549
0.764706 0.627451 0.568627
0.745098 0.654902 0.619608
0.717647 0.686275 0.67451
0.682353 0.721569 0.733333
0.803922 0.611765 0.517647
0.8 0.615686 0.521569
0.796078 0.619608 0.537255
0.788235 0.631373 0.556863
0.776471 0.647059 0.588235
0.760784 0.666667 0.623529
0.741176 0.690196 0.670588
0.713725 0.717647 0.721569
0.678431 0.74902 0.776471
0.8 0.658824 0.596078
0.796078 0.658824 0.6
0.792157 0.666667 0.607843
0.784314 0.67451 0.627451
0.772549 0.690196 0.654902
0.756863 0.705882 0.686275
0.737255 0.729412 0.72549
0.709804 0.756863 0.772549
0.67451 0.788235 0.823529
0.796078 0.694118 0.654902
0.796078 0.698039 0.658824
0.788235 0.701961 0.666667
0.784314 0.713725 0.682353
0.772549 0.72549 0.705882
0.756863 0.741176 0.737255
0.733333 0.764706 0.772549
0.705882 0.788235 0.815686
0.670588 0.815686 0.862745
1 0.6 0.270588
1 0.603922 0.282353
1 0.607843 0.309804
1 0.619608 0.34902
0.992157 0.635294 0.4
0.984314 0.654902 0.458824
0.968627 0.678431 0.521569
0.94902 0.709804 0.588235
0.92549 0.741176 0.658824
1 0.603922 0.282353
1 0.607843 0.294118
1 0.611765 0.317647
1 0.623529 0.356863
0.992157 0.639216 0.407843
0.984314 0.658824 0.462745
0.968627 0.682353 0.52549
0.94902 0.713725 0.592157
0.92549 0.745098 0.662745
1 0.611765 0.309804
1 0.615686 0.321569
1 0.619608 0.341176
1 0.631373 0.380392
0.992157 0.647059 0.423529
0.980392 0.666667 0.478431
0.968627 0.690196 0.541176
0.94902 0.717647 0.603922
0.92549 0.752941 0.670588
1 0.627451 0.352941
1 0.627451 0.360784
1 0.635294 0.380392
1 0.643137 0.411765
0.992157 0.658824 0.454902
0.980392 0.678431 0.505882
0.964706 0.701961 0.564706
0.94902 0.729412 0.623529
0.92549 0.760784 0.690196
1 0.647059 0.407843
1 0.65098 0.415686
1 0.654902 0.431373
1 0.666667 0.458824
0.992157 0.678431 0.498039
0.980392 0.698039 0.545098
0.964706 0.721569 0.596078
0.945098 0.74902 0.654902
0.921569 0.776471 0.713725
1 0.67451 0.470588
1 0.678431 0.478431
1 0.682353 0.494118
1 0.690196 0.517647
0.988235 0.705882 0.54902
0.980392 0.721569 0.588235
0.964706 0.745098 0.639216
0.945098 0.768627 0.690196
0.921569 0.8 0.74902
1 0.705882 0.541176
1 0.709804 0.545098
1 0.713725 0.560784
0.996078 0.721569 0.580392
0.988235 0.737255 0.607843
0.976471 0.752941 0.643137
0.960784 0.772549 0.686275
0.941176 0.8 0.737255
0.917647 0.827451 0.788235
1 0.745098 0.615686
1 0.74902 0.619608
1 0.752941 0.627451
0.992157 0.760784 0.647059
0.984314 0.772549 0.670588
0.972549 0.788235 0.701961
0.956863 0.807843 0.741176
0.941176 0.831373 0.788235
0.917647 0.858824 0.835294
1 0.780392 0.670588
1 0.780392 0.67451
0.996078 0.784314 0.686275
0.992157 0.792157 0.701961
0.984314 0.803922 0.721569
0.972549 0.819608 0.752941
0.956863 0.839216 0.788235
0.937255 0.858824 0.831373
0.913725 0.886275 0.87451
1 0.682353 0.309804
1 0.682353 0.321569
1 0.690196 0.345098
1 0.698039 0.380392
1 0.709804 0.423529
1 0.729412 0.478431
1 0.74902 0.541176
1 0.776471 0.603922
1 0.803922 0.670588
1 0.682353 0.321569
1 0.686275 0.329412
1 0.690196 0.352941
1 0.701961 0.388235
1 0.713725 0.431373
1 0.729412 0.486275
1 0.752941 0.545098
1 0.776471 0.607843
1 0.807843 0.67451
1 0.690196 0.345098
1 0.694118 0.352941
1 0.698039 0.372549
1 0.705882 0.407843
1 0.721569 0.45098
1 0.737255 0.501961
1 0.760784 0.556863
1 0.784314 0.619608
1 0.811765 0.686275
1 0.701961 0.384314
1 0.705882 0.392157
1 0.709804 0.407843
1 0.717647 0.439216
1 0.733333 0.478431
1 0.74902 0.52549
1 0.768627 0.580392
1 0.796078 0.639216
1 0.823529 0.701961
1 0.721569 0.435294
1 0.721569 0.443137
1 0.729412 0.458824
1 0.737255 0.482353
1 0.74902 0.517647
1 0.764706 0.560784
1 0.784314 0.611765
1 0.811765 0.666667
1 0.839216 0.729412
1 0.745098 0.494118
1 0.745098 0.498039
1 0.752941 0.513725
1 0.760784 0.537255
1 0.772549 0.568627
1 0.788235 0.607843
1 0.807843 0.65098
1 0.831373 0.705882
1 0.858824 0.760784
1 0.772549 0.560784
1 0.776471 0.564706
1 0.780392 0.576471
1 0.788235 0.596078
1 0.8 0.623529
1 0.815686 0.658824
1 0.835294 0.701961
1 0.854902 0.74902
1 0.882353 0.8
1 0.807843 0.631373
1 0.811765 0.635294
1 0.815686 0.643137
1 0.823529 0.662745
1 0.831373 0.686275
1 0.847059 0.717647
1 0.866667 0.752941
1 0.886275 0.8
1 0.909804 0.847059
1 0.839216 0.686275
1 0.839216 0.690196
1 0.843137 0.698039
1 0.85098 0.713725
1 0.862745 0.737255
1 0.87451 0.764706
1 0.894118 0.8
1 0.913725 0.839216
1 0.937255 0.886275
1 0.682353 0.309804
1 0.682353 0.321569
1 0.690196 0.345098
1 0.698039 0.380392
1 0.709804 0.423529
1 0.729412 0.478431
1 0.74902 0.541176
1 0.776471 0.603922
1 0.803922 0.670588
1 0.682353 0.321569
1 0.686275 0.329412
1 0.690196 0.352941
1 0.701961 0.388235
1 0.713725 0.431373
1 0.729412 0.486275
1 0.752941 0.545098
1 0.776471 0.607843
1 0.807843 0.67451
1 0.690196 0.345098
1 0.694118 0.352941
1 0.698039 0.372549
1 0.705882 0.407843
1 0.721569 0.45098
1 0.737255 0.501961
1 0.760784 0.556863
1 0.784314 0.619608
1 0.811765 0.686275
1 0.701961 0.384314
1 0.705882 0.392157
1 0.709804 0.407843
1 0.717647 0.439216
1 0.733333 0.478431
1 0.74902 0.52549
1 0.768627 0.580392
1 0.796078 0.639216
1 0.823529 0.701961
1 0.721569 0.435294
1 0.721569 0.443137
1 0.729412 0.458824
1 0.737255 0.482353
1 0.74902 0.517647
1 0.764706 0.560784
1 0.784314 0.611765
1 0.811765 0.666667
1 0.839216 0.729412
1 0.745098 0.494118
1 0.745098 0.498039
1 0.752941 0.513725
1 0.760784 0.537255
1 0.772549 0.568627
1 0.788235 0.607843
1 0.807843 0.65098
1 0.831373 0.705882
1 0.858824 0.760784
1 0.772549 0.560784
1 0.776471 0.564706
1 0.780392 0.576471
1 0.788235 0.596078
1 0.8 0.623529
1 0.815686 0.658824
1 0.835294 0.701961
1 0.854902 0.74902
1 0.882353 0.8
1 0.807843 0.631373
1 0.811765 0.635294
1 0.815686 0.643137
1 0.823529 0.662745
1 0.831373 0.686275
1 0.847059 0.717647
1 0.866667 0.752941
1 0.886275 0.8
1 0.909804 0.847059
1 0.839216 0.686275
1 0.839216 0.690196
1 0.843137 0.698039
1 0.85098 0.713725
1 0.862745 0.737255
1 0.87451 0.764706
1 0.894118 0.8
1 0.913725 0.839216
1 0.937255 0.886275
1 0.682353 0.309804
1 0.682353 0.321569
1 0.690196 0.345098
1 0.698039 0.380392
1 0.709804 0.423529
1 0.729412 0.478431
1 0.74902 0.541176
1 0.776471 0.603922
1 0.803922 0.670588
1 0.682353 0.321569
1 0.686275 0.329412
1 0.690196 0.352941
1 0.701961 0.388235
1 0.713725 0.431373
1 0.729412 0.486275
1 0.752941 0.545098
1 0.776471 0.607843
1 0.807843 0.67451
1 0.690196 0.345098
1 0.694118 0.352941
1 0.698039 0.372549
1 0.705882 0.407843
1 0.721569 0.45098
1 0.737255 0.501961
1 0.760784 0.556863
1 0.784314 0.619608
1 0.811765 0.686275
1 0.701961 0.384314
1 0.705882 0.392157
1 0.709804 0.407843
1 0.717647 0.439216
1 0.733333 0.478431
1 0.74902 0.52549
1 0.768627 0.580392
1 0.796078 0.639216
1 0.823529 0.701961
1 0.721569 0.435294
1 0.721569 0.443137
1 0.729412 0.458824
1 0.737255 0.482353
1 0.74902 0.517647
1 0.764706 0.560784
1 0.784314 0.611765
1 0.811765 0.666667
1 0.839216 0.729412
1 0.745098 0.494118
1 0.745098 0.498039
1 0.752941 0.513725
1 0.760784 0.537255
1 0.772549 0.568627
1 0.788235 0.607843
1 0.807843 0.65098
1 0.831373 0.705882
1 0.858824 0.760784
1 0.772549 0.560784
1 0.776471 0.564706
1 0.780392 0.576471
1 0.788235 0.596078
1 0.8 0.623529
1 0.815686 0.658824
1 0.835294 0.701961
1 0.854902 0.74902
1 0.882353 0.8
1 0.807843 0.631373
1 0.811765 0.635294
1 0.815686 0.643137
1 0.823529 0.662745
1 0.831373 0.686275
1 0.847059 0.717647
1 0.866667 0.752941
1 0.886275 0.8
1 0.909804 0.847059
1 0.839216 0.686275
1 0.839216 0.690196
1 0.843137 0.698039
1 0.85098 0.713725
1 0.862745 0.737255
1 0.87451 0.764706
1 0.894118 0.8
1 0.913725 0.839216
1 0.937255 0.886275
