site/assets/luts/freshluts--0001166-teal-and-orange.cube
# LUTr-Schema-Version: 2
# LUTr-ID: freshluts--0001166-teal-and-orange
# LUTr-Title: teal and orange
# LUTr-Collection: Fresh LUTs
# LUTr-Collection-ID: freshluts-community
# LUTr-Source: https://freshluts.com
# LUTr-Retrieved: 2026-07-27
# LUTr-Source-File: submissions-raw/freshluts/cubes/1166__teal___orange_2.Sony_F3_-_Short_film_Insect_selects.cube
# LUTr-Source-Format: CUBE
# LUTr-Source-SHA256: 0274e91d42841f5d36cffa60d9d849b75f0bbf4eff9d4607ae2188bf6ad8a7a8
# LUTr-License: CC0-1.0
# LUTr-License-URL: https://freshluts.com/termsandconditions
# LUTr-License-Basis: site-terms
# LUTr-Transform-Class: creative-look
# LUTr-Tags: creative, freshluts, community, cube, green, high-key, sony-s-log1, warm
# LUTr-Input-Color-Space: sony-slog1-sgamut
# LUTr-Input-Gamut: sony-s-gamut
# LUTr-Input-Transfer: sony-s-log1
# LUTr-Output-Color-Space: srgb
# LUTr-Output-Gamut: rec709
# LUTr-Output-Transfer: srgb
# LUTr-Color-Space-Confidence: inferred-from-source-label
# LUTr-Domain-Normalized: true
# LUTr-Shaper: none
# LUTr-Original-Grid: 33x33x33
# LUTr-Conversion-Grid: 33x33x33
# LUTr-Conversion-Interpolation: none
# LUTr-Conversion-Method: Metadata normalization; numeric LUT samples preserved
# LUTr-Conversion-Tool: LUTr scripts/convert-all-to-cube.mjs 2.0.0
# LUTr-Conversion-Date: 2026-07-28
# LUTr-Asset-URL: https://freshluts.com/luts/1166
# LUTr-Author: henryimmanuel
# LUTr-Author-URL: https://freshluts.com/users/120774
# LUTr-Attribution: henryimmanuel via Fresh LUTs
# LUTr-Source-Labels: gamma=Sony S-Log; color=Green; key=High Key; style=Teal - Orange
# LUTr-Note: Preserve this metadata and the upstream license notices when redistributing.
TITLE "teal and orange"
LUT_3D_SIZE 9
DOMAIN_MIN 0 0 0
DOMAIN_MAX 1 1 1
0 0.00866712 0.00517281
0.0557259 0.00140383 0
0.208164 0 0
0.393713 0 0
0.593454 0 0
0.787381 0 0
0.9505 0 0
1 0 0
1 0 0
0 0.103655 0
0.0265049 0.106661 0
0.184848 0.0982071 0
0.387366 0.076936 0
0.595514 0.0559701 0
0.796414 0.0391699 0
0.96611 0.0333715 0
1 0.0410773 0
1 0.061799 0
0 0.234409 0
0.00834669 0.240162 0
0.119539 0.252293 0
0.313115 0.246418 0
0.554162 0.222797 0
0.77322 0.20647 0
0.953109 0.203433 0
1 0.21445 0
1 0.238407 0
0 0.397177 0
0 0.407919 0
0.101793 0.418723 0
0.239948 0.434562 0
0.442878 0.433082 0
0.67602 0.419409 0
0.877394 0.413199 0
1 0.422248 0
1 0.444694 0
0 0.580926 0
0 0.594903 0
0.0878004 0.603922 0
0.2159 0.622293 0
0.376379 0.634867 0
0.568215 0.637644 0
0.752377 0.639506 0
0.89926 0.648554 0
0.997696 0.668223 0
0 0.769757 0
0 0.78468 0
0.0789044 0.791913 0
0.224231 0.803281 0
0.354162 0.819913 0
0.516472 0.82826 0
0.67274 0.835325 0
0.798718 0.846708 0
0.884657 0.864942 0
0 0.946349 0
0 0.959304 0
0.0905318 0.963073 0
0.246708 0.966384 0
0.366598 0.978195 0
0.503304 0.986496 0
0.640421 0.992004 0
0.749966 1 0
0.822889 1 0
0 1 0
0 1 0
0.123156 1 0
0.280522 1 0
0.398276 1 0
0.516579 1 0
0.637644 1 0
0.735134 1 0
0.797513 1 0
0 1 0
0.0224308 1 0
0.172534 1 0
0.325612 1 0
0.439948 1 0
0.546517 1 0
0.65568 1 0
0.743252 1 0
0.797238 1 0
0 0.00578317 0.116258
0.0523232 0 0.110033
0.205234 0 0.0955367
0.391562 0 0.0746014
0.591913 0 0.051194
0.786542 0 0.0313115
0.950454 0 0.0217288
1 0 0.0252384
1 0 0.0417792
0 0.102861 0.0979934
0.041001 0.102022 0.0977493
0.20032 0.0923323 0.0897078
0.393423 0.0754864 0.0750744
0.600702 0.0557412 0.0577554
0.801511 0.0395972 0.0437171
0.971908 0.0342718 0.0399176
1 0.0423896 0.0490272
1 0.0633402 0.0702068
0 0.235737 0.0636912
0.0131533 0.241047 0.0695506
0.148882 0.24625 0.068452
0.351308 0.237125 0.0322118
0.58024 0.217151 0.029572
0.790463 0.204532 0.0240177
0.966812 0.203403 0.0258946
1 0.215412 0.0390631
1 0.23949 0.0632486
0 0.400504 0.0194247
0 0.411017 0.0306249
0.134432 0.415076 0.0393683
0.270298 0.43061 0.0197757
0.478004 0.427298 0
0.716411 0.411505 0
0.912734 0.406592 0
1 0.416999 0
1 0.440375 0.013962
0 0.585519 0
0 0.599496 0
0.108324 0.604944 0.00474556
0.253697 0.617548 0.0162356
0.406973 0.631144 0
0.601328 0.633326 0
0.790188 0.63299 0
0.939757 0.640421 0
1 0.65951 0
0 0.774762 0
0 0.789487 0
0.0937057 0.794385 0
0.260517 0.799054 0
0.387304 0.814801 0
0.546304 0.823636 0
0.702998 0.829984 0
0.83035 0.839857 0
0.916869 0.857389 0
0 0.950683 0
0 0.963302 0
0.101991 0.964828 0
0.275456 0.9626 0
0.401999 0.970901 0
0.532464 0.979858 0
0.667796 0.985061 0
0.776822 0.99295 0
0.849653 1 0
0 1 0.01178
0 1 0.0206149
0.131548 1 0.0196841
0.303822 1 0.0193179
0.432776 1 0.0157015
0.545007 1 0
0.662837 1 0
0.759182 1 0
0.820951 1 0
0 1 0.069688
0.0225071 1 0.0721904
0.178042 1 0.0644541
0.344976 1 0.0563058
0.471763 1 0.0466011
0.573358 1 0.00881972
0.67866 1 0
0.765057 1 0
0.818372 1 0
0 0.000106813 0.273808
0.045243 0 0.268223
0.19855 0 0.254276
0.385534 0 0.233906
0.586679 0 0.211032
0.781674 0 0.191806
0.94641 0 0.183017
1 0 0.187152
1 0 0.204089
0 0.0987869 0.257786
0.035996 0.0984817 0.25803
0.195956 0.0894331 0.250431
0.389502 0.0733043 0.236454
0.597284 0.0542458 0.219791
0.798901 0.0387579 0.206363
0.969818 0.0339361 0.203037
1 0.0424964 0.212573
1 0.0637522 0.234043
0 0.233692 0.225483
0.0105135 0.239414 0.231952
0.176562 0.236606 0.230076
0.376913 0.226154 0.221668
0.590051 0.212222 0.209857
0.796918 0.201694 0.201434
0.972717 0.201236 0.202518
1 0.213611 0.215686
1 0.237934 0.240375
0 0.400168 0.182879
0 0.411276 0.194705
0.144732 0.41326 0.197681
0.309102 0.419348 0.192065
0.528618 0.411383 0.150683
0.759533 0.396674 0.154696
0.942855 0.396124 0.162722
1 0.408377 0.178729
1 0.43267 0.205051
0 0.586358 0.145006
0 0.600839 0.160449
0.114214 0.605158 0.166171
0.301595 0.605798 0.172747
0.445655 0.620432 0.143038
0.644465 0.620829 0.0906081
0.841215 0.616602 0.0807813
0.991638 0.622019 0.0965133
1 0.64126 0.122835
0 0.77586 0.127077
0 0.790784 0.14345
0.0976272 0.794751 0.148592
0.293202 0.791165 0.151049
0.431891 0.801694 0.151568
0.583429 0.811612 0.100359
0.741283 0.816892 0.0573739
0.871672 0.824918 0.0439002
0.96022 0.840909 0.0533913
0 0.951446 0.138354
0 0.963699 0.151797
0.103792 0.964233 0.153536
0.298085 0.955596 0.150301
0.449027 0.955566 0.153445
0.569848 0.965377 0.12018
0.702281 0.970611 0.0722362
0.811231 0.977737 0.0449226
0.884062 0.990539 0.0412451
0 1 0.175021
0 1 0.183246
0.130892 1 0.179187
0.320363 1 0.169192
0.476219 1 0.166339
0.583276 1 0.141558
0.695445 1 0.0932479
0.790524 1 0.0589914
0.851591 1 0.0475319
0 1 0.230716
0.0177615 1 0.232441
0.175006 1 0.221622
0.35787 1 0.204395
0.511467 1 0.19408
0.611078 1 0.168429
0.709773 1 0.11809
0.794018 1 0.078233
0.84651 1 0.0602884
0 0 0.467323
0.0346227 0 0.462394
0.188937 0 0.44947
0.376791 0 0.43006
0.578073 0 0.408347
0.773541 0 0.390173
0.938933 0 0.382223
1 0 0.386908
1 0 0.403952
0 0.0918898 0.453681
0.0278019 0.0921492 0.45478
0.188464 0.0837873 0.447929
0.382635 0.0682841 0.434623
0.590463 0.0496376 0.418387
0.792966 0.0349737 0.406348
0.964477 0.0307622 0.403677
1 0.0398108 0.413489
1 0.0614633 0.434806
0 0.228855 0.424216
0.0043183 0.235248 0.430915
0.171008 0.232868 0.429786
0.371801 0.223011 0.421866
0.585184 0.209522 0.410697
0.792599 0.199588 0.403052
0.968521 0.199496 0.404486
1 0.211933 0.417395
1 0.2365 0.441764
0 0.39707 0.384192
0 0.408637 0.396201
0.140963 0.410986 0.399496
0.346639 0.405127 0.395315
0.563958 0.394858 0.387243
0.774212 0.387396 0.382055
0.952056 0.389013 0.385214
1 0.401877 0.398856
1 0.427893 0.417197
0 0.584421 0.348074
0 0.599191 0.363653
0.111116 0.603632 0.369467
0.318303 0.599084 0.366186
0.490867 0.603494 0.355657
0.702358 0.598611 0.315969
0.899046 0.592111 0.324926
1 0.600137 0.341787
1 0.620706 0.365988
0 0.774289 0.330724
0 0.789044 0.346792
0.0943313 0.792752 0.351705
0.300084 0.786435 0.34667
0.488869 0.781659 0.347906
0.62681 0.793423 0.312169
0.787884 0.796551 0.270542
0.92517 0.801221 0.263783
1 0.814923 0.278386
0 0.949035 0.341115
0 0.960845 0.353964
0.0991836 0.960937 0.355306
0.300298 0.950271 0.345708
0.49601 0.937057 0.339834
0.616358 0.943923 0.327306
0.742473 0.949508 0.281239
0.851942 0.955947 0.253895
0.926375 0.967376 0.250645
0 1 0.375601
0 1 0.383078
0.123964 1 0.378454
0.319203 1 0.362966
0.512139 1 0.349081
0.632959 1 0.34049
0.73547 1 0.300298
0.828077 1 0.265995
0.888609 1 0.253437
0 1 0.427893
0.00950637 1 0.428916
0.165499 1 0.417487
0.353811 1 0.395224
0.540795 1 0.374228
0.660578 1 0.36144
0.748547 1 0.321675
0.829404 1 0.28246
0.880842 1 0.263859
0 0 0.676326
0.0229038 0 0.671962
0.17789 0 0.659617
0.366613 0 0.640909
0.568383 0 0.619471
0.764569 0 0.60206
0.930449 0 0.594629
1 0 0.59968
1 0 0.617517
0 0.0834669 0.664698
0.0183261 0.0847028 0.666377
0.179477 0.0771344 0.660258
0.374685 0.0622416 0.647395
0.58291 0.0441444 0.631815
0.785794 0.0299992 0.620203
0.957778 0.0263218 0.617975
1 0.0355688 0.627939
1 0.0579843 0.649958
0 0.222583 0.637186
0 0.229908 0.644755
0.164233 0.228077 0.64416
0.365454 0.218769 0.636347
0.579263 0.205646 0.62562
0.786999 0.196139 0.61828
0.963256 0.196414 0.62002
1 0.208881 0.632959
1 0.233783 0.657618
0 0.392798 0.598932
0 0.404913 0.61146
0.135637 0.407568 0.615061
0.341299 0.401679 0.610803
0.558984 0.392035 0.603067
0.769223 0.384741 0.59791
0.947036 0.386343 0.601053
1 0.399115 0.614633
1 0.42356 0.63946
0 0.581338 0.564187
0 0.596262 0.579767
0.106508 0.600778 0.585595
0.31368 0.596017 0.582208
0.532311 0.586542 0.574334
0.741558 0.578698 0.567437
0.91722 0.57879 0.567971
1 0.589288 0.578592
1 0.610407 0.599695
0 0.771374 0.547234
0 0.785992 0.562966
0.0893568 0.78938 0.567544
0.294881 0.782681 0.562295
0.510872 0.770474 0.551736
0.672007 0.772641 0.537194
0.843656 0.770855 0.504799
0.986389 0.771511 0.514794
1 0.78471 0.534447
0 0.94522 0.556603
0 0.956558 0.568887
0.0924239 0.955962 0.569451
0.293553 0.944854 0.559762
0.504677 0.927413 0.543801
0.671748 0.91873 0.539284
0.784726 0.926131 0.504219
0.89633 0.930816 0.477287
0.973678 0.940169 0.476143
0 1 0.588952
0 1 0.595865
0.115358 1 0.5906
0.310323 1 0.574716
0.514794 1 0.552117
0.686534 1 0.540688
0.778347 1 0.519661
0.866743 1 0.486229
0.928054 1 0.473259
0 1 0.639094
0 1 0.639506
0.154726 1 0.627497
0.34229 1 0.604623
0.539712 1 0.575006
0.707637 1 0.555718
0.792279 1 0.53637
0.865904 1 0.500786
0.916945 1 0.4813
0 0 0.872999
0.0126802 0 0.869291
0.168048 0 0.857527
0.357809 0 0.839246
0.560037 0 0.81857
0.756848 0 0.801801
0.923323 0 0.794919
1 0 0.800366
1 0 0.818753
0 0.0766308 0.863386
0.0101778 0.0784009 0.865888
0.172198 0.071397 0.860273
0.367956 0.0570687 0.847883
0.576822 0.0398413 0.833005
0.780346 0.0261997 0.821759
0.952529 0.0230411 0.819959
1 0.0327001 0.830259
1 0.0555276 0.852659
0 0.217823 0.837751
0 0.22562 0.846082
0.15877 0.22446 0.845975
0.360265 0.21532 0.838453
0.574777 0.20293 0.828275
0.782712 0.19379 0.821149
0.958862 0.19411 0.822889
1 0.207065 0.836301
1 0.232059 0.860975
0 0.389761 0.801358
0 0.402335 0.814328
0.131563 0.405325 0.818265
0.337484 0.399619 0.814298
0.555444 0.390127 0.806622
0.765591 0.382971 0.801312
0.942916 0.384237 0.804074
1 0.397192 0.818006
1 0.421469 0.842466
0 0.579385 0.76762
0 0.594324 0.78349
0.102953 0.598947 0.789181
0.31014 0.594156 0.785748
0.528649 0.584527 0.777783
0.737881 0.576226 0.771588
0.9131 0.575601 0.772427
1 0.585702 0.783948
1 0.606317 0.805127
0 0.769406 0.750698
0 0.783856 0.766262
0.085008 0.786679 0.770291
0.290562 0.779919 0.764996
0.506249 0.767178 0.753964
0.711467 0.755108 0.743206
0.881865 0.750134 0.739116
1 0.755489 0.744778
1 0.770397 0.759686
0 0.942321 0.759167
0 0.953216 0.770993
0.0865949 0.951949 0.770779
0.28751 0.940246 0.760693
0.49807 0.922194 0.744228
0.697154 0.904311 0.727779
0.824628 0.904631 0.712963
0.942855 0.905684 0.691371
1 0.91104 0.700328
0 1 0.789776
0 1 0.795972
0.107622 1 0.789944
0.301839 1 0.77351
0.506096 1 0.750332
0.698314 1 0.727459
0.824353 1 0.719615
0.903304 1 0.692027
0.965042 1 0.67863
0 1 0.837629
0 1 0.837201
0.14464 1 0.824613
0.331701 1 0.801175
0.528557 1 0.770993
0.713848 1 0.740902
0.839765 1 0.727367
0.901473 1 0.703929
0.95053 1 0.684291
0 0 1
0.00604257 0 1
0.162066 0 1
0.352468 0 1
0.555352 0 0.979782
0.752789 0 0.963577
0.919951 0 0.957321
1 0 0.963363
1 0 0.982238
0 0.073106 1
0.00576791 0.0755016 1
0.168353 0.0690318 1
0.364691 0.0551614 1
0.574228 0.0386511 0.996643
0.778164 0.0256809 0.985443
0.950881 0.0228122 0.983886
1 0.0330053 0.994659
1 0.0560922 1
0 0.216327 1
0 0.224643 1
0.156741 0.22388 1
0.359075 0.215228 1
0.573617 0.203464 0.993027
0.782193 0.194537 0.986114
0.958434 0.19501 0.987915
1 0.208179 1
1 0.233341 1
0 0.389899 0.96585
0 0.402762 0.97937
0.131014 0.405859 0.983413
0.337194 0.400702 0.979675
0.555077 0.391363 0.972122
0.76553 0.384176 0.96669
0.942962 0.385321 0.969558
1 0.398245 0.983215
1 0.422278 1
0 0.580423 0.933272
0 0.595529 0.948989
0.10248 0.599771 0.95433
0.31017 0.595148 0.951385
0.528298 0.585412 0.943343
0.737102 0.576669 0.936324
0.912291 0.57586 0.937163
1 0.585534 0.948058
1 0.6056 0.968811
0 0.770367 0.916289
0 0.784619 0.93138
0.0840162 0.787243 0.935195
0.28925 0.780133 0.92958
0.504692 0.766888 0.918059
0.708995 0.753933 0.9066
0.87921 0.748516 0.902785
1 0.753124 0.908598
1 0.767346 0.923552
0 0.942275 0.923476
0 0.952667 0.934859
0.0844434 0.950896 0.934295
0.284657 0.938643 0.923506
0.494545 0.91986 0.90634
0.69276 0.901091 0.889067
0.856428 0.889555 0.878584
0.974441 0.887816 0.877104
1 0.895354 0.884642
0 1 0.952346
0 1 0.957717
0.10309 1 0.951247
0.296773 1 0.933974
0.500114 1 0.910155
0.692042 1 0.886732
0.848219 0.992981 0.869535
0.933639 0.992325 0.857511
0.999054 0.994629 0.846265
0 1 0.99852
0 1 0.997177
0.137469 1 0.983474
0.324071 1 0.95935
0.520409 1 0.928557
0.704875 1 0.898039
0.854154 1 0.874281
0.933684 1 0.864881
0.977707 1 0.847028
0 0 1
0.00396735 0 1
0.160784 0 1
0.351781 0 1
0.555444 0 1
0.753475 0 1
0.920943 0 1
1 0 1
1 0 1
0 0.0735943 1
0.00598154 0.0766918 1
0.168963 0.0709392 1
0.365759 0.0575875 1
0.576379 0.0413825 1
0.780652 0.0290074 1
0.953674 0.0264591 1
1 0.0372778 1
1 0.0607462 1
0 0.218906 1
0 0.227741 1
0.159289 0.22742 1
0.361807 0.219287 1
0.577295 0.207721 1
0.785992 0.199222 1
0.962448 0.199893 1
1 0.213031 1
1 0.238376 1
0 0.394064 1
0 0.407309 1
0.134615 0.410529 1
0.341283 0.405631 1
0.559579 0.396292 1
0.76968 0.388998 1
0.947021 0.39028 1
1 0.40296 1
1 0.426749 1
0 0.585458 1
0 0.600504 1
0.106798 0.604776 1
0.314153 0.600061 1
0.53228 0.590005 1
0.740673 0.580896 1
0.915465 0.579889 1
1 0.58912 1
1 0.608484 1
0 0.775189 1
0 0.788968 1
0.0877241 0.791348 1
0.292546 0.78381 1
0.507469 0.770153 1
0.711192 0.756741 1
0.880766 0.750744 1
1 0.754589 1
1 0.76791 1
0 0.945785 1
0 0.955459 1
0.0861219 0.95346 1
0.285695 0.940719 1
0.495079 0.921111 1
0.692729 0.901762 1
0.855512 0.889464 0.99089
0.97293 0.8869 0.98938
1 0.893706 0.99733
0 1 1
0 1 1
0.102831 1 1
0.295583 1 1
0.498146 1 1
0.689479 1 0.997711
0.844938 0.9906 0.979339
0.955245 0.981323 0.971023
1 0.981491 0.971756
0 1 1
0 1 1
0.134707 1 1
0.320546 1 1
0.515999 1 1
0.70016 1 1
0.848844 1 0.98201
0.952071 1 0.967056
0.997024 1 0.958816
0 0 1
0.00668345 0 1
0.163912 0 1
0.355489 0 1
0.55993 0 1
0.758724 0 1
0.926772 0 1
1 0 1
1 0 1
0 0.0780957 1
0.0106661 0.0818189 1
0.174258 0.0764019 1
0.371542 0.0640269 1
0.582864 0.0483253 1
0.787701 0.036347 1
0.961151 0.0341802 1
1 0.0454261 1
1 0.0691539 1
0 0.225467 1
0 0.234958 1
0.166308 0.234882 1
0.369162 0.227329 1
0.585168 0.216007 1
0.793896 0.207385 1
0.971099 0.208591 1
1 0.221897 1
1 0.247211 1
0 0.402258 1
0 0.415793 1
0.143175 0.41915 1
0.349737 0.414435 1
0.567941 0.405188 1
0.778195 0.397543 1
0.955764 0.39884 1
1 0.411353 1
1 0.434791 1
0 0.594247 1
0 0.609262 1
0.115526 0.613611 1
0.32285 0.608652 1
0.540505 0.598291 1
0.748699 0.588739 1
0.923171 0.587335 1
1 0.596201 1
1 0.614923 1
0 0.783764 1
0 0.797116 1
0.0954299 0.799359 1
0.299901 0.791211 1
0.514076 0.776867 1
0.717525 0.763027 1
0.886549 0.756512 1
1 0.759869 1
1 0.772427 1
0 0.953094 1
0 0.962249 1
0.0923934 0.959533 1
0.291188 0.946166 1
0.499748 0.925917 1
0.696895 0.906035 1
0.858961 0.89308 1
0.97528 0.889723 1
1 0.89575 1
0 1 1
0 1 1
0.106432 1 1
0.298772 1 1
0.500526 1 1
0.690959 1 1
0.846036 0.991714 1
0.955215 0.981704 1
1 0.981414 1
0 1 1
0 1 1
0.136172 1 1
0.320989 1 1
0.51603 1 1
0.699367 1 1
0.847364 1 1
0.950011 1 1
1 1 1
