site/assets/luts/freshluts--0000399-african-cinema-luts.cube
# LUTr-Schema-Version: 2
# LUTr-ID: freshluts--0000399-african-cinema-luts
# LUTr-Title: African Cinema Luts
# LUTr-Collection: Fresh LUTs
# LUTr-Collection-ID: freshluts-community
# LUTr-Source: https://freshluts.com
# LUTr-Retrieved: 2026-07-27
# LUTr-Source-File: submissions-raw/freshluts/cubes/399__African_Cinema_Luts.cube
# LUTr-Source-Format: CUBE
# LUTr-Source-SHA256: e1f1a3012d7464a1421e0c0101c4643b8dcdf18c001cba61cea1d51ce3e2b41e
# LUTr-License: CC0-1.0
# LUTr-License-URL: https://freshluts.com/termsandconditions
# LUTr-License-Basis: site-terms
# LUTr-Transform-Class: creative-look
# LUTr-Tags: creative, freshluts, community, cube, cinematic, blockbuster, warm, high-key, bmd-film-4k
# LUTr-Input-Color-Space: bmd-film-4k
# LUTr-Input-Gamut: bmd-film-gamut
# LUTr-Input-Transfer: bmd-film-4k
# LUTr-Output-Color-Space: srgb
# LUTr-Output-Gamut: rec709
# LUTr-Output-Transfer: srgb
# LUTr-Color-Space-Confidence: inferred-from-source-label
# LUTr-Domain-Normalized: true
# LUTr-Shaper: none
# LUTr-Original-Grid: 33x33x33
# LUTr-Conversion-Grid: 33x33x33
# LUTr-Conversion-Interpolation: none
# LUTr-Conversion-Method: Metadata normalization; numeric LUT samples preserved
# LUTr-Conversion-Tool: LUTr scripts/convert-all-to-cube.mjs 2.0.0
# LUTr-Conversion-Date: 2026-07-28
# LUTr-Asset-URL: https://freshluts.com/luts/399
# LUTr-Author: digdio
# LUTr-Author-URL: https://freshluts.com/users/20080
# LUTr-Attribution: digdio via Fresh LUTs
# LUTr-Source-Labels: gamma=Blackmagic BMD Film 4K; color=Warm; key=High Key; style=Blockbuster
# LUTr-Note: Preserve this metadata and the upstream license notices when redistributing.
# LUTr-Upstream-Comment: Created with CameraBag | Cinema, www.nevercenter.com
TITLE "African Cinema Luts"
LUT_3D_SIZE 5
DOMAIN_MIN 0 0 0
DOMAIN_MAX 1 1 1
0 0.000015 0.002693
0.522914 0.000309 0.001679
0.689028 0.000603 0.000013
0.781275 0.000915 0.000011
1 0.00284 0.000582
0.011007 0.44225 0.000096
0.397749 0.377069 0.000148
0.591923 0.336612 0.000119
0.694754 0.311791 0.000134
0.999876 0.166075 0.000014
0.027357 0.581236 0.000014
0.333306 0.52924 0.000105
0.529909 0.494994 0.00019
0.63404 0.47349 0.000331
0.999304 0.34332 0.001084
0.035794 0.657411 0.000026
0.291737 0.610193 0.000233
0.489186 0.578694 0.00054
0.594243 0.558783 0.000861
0.997882 0.436507 0.003059
0.03886 0.99962 0.009224
0.051053 0.999594 0.008457
0.244773 0.986536 0.015315
0.347158 0.971755 0.018993
0.861345 0.878716 0.03898
0.000161 0.000051 0.608515
0.488939 0.000614 0.486754
0.664819 0.001132 0.423874
0.761393 0.001586 0.38674
1 0.003358 0.200721
0.016628 0.415741 0.3975
0.380114 0.355151 0.319122
0.574964 0.316713 0.273506
0.678008 0.292926 0.247315
0.999684 0.151766 0.104939
0.032613 0.560748 0.293045
0.316231 0.510746 0.234653
0.513048 0.477692 0.19917
0.617617 0.456887 0.178001
0.999337 0.33001 0.051216
0.038279 0.638909 0.238549
0.275259 0.59324 0.189804
0.473227 0.562699 0.15869
0.578807 0.543361 0.139605
0.998073 0.42385 0.022177
0.038242 0.999621 0.008897
0.040209 0.997995 0.007848
0.236421 0.975741 0.013698
0.339409 0.961199 0.017322
0.853089 0.869132 0.037874
0.000351 0.000072 0.796259
0.467172 0.000785 0.689931
0.648644 0.001466 0.629514
0.747844 0.002018 0.593186
1 0.00412 0.410504
0.019398 0.397894 0.604074
0.367123 0.340072 0.529246
0.56277 0.302939 0.485652
0.666217 0.279845 0.460555
0.99981 0.141858 0.321037
0.035327 0.546558 0.503382
0.304267 0.497905 0.44872
0.501226 0.465627 0.414902
0.606029 0.445277 0.39449
0.998977 0.320723 0.270444
0.039595 0.62603 0.452018
0.263746 0.581411 0.40566
0.461869 0.551484 0.375797
0.567697 0.532521 0.357249
0.997253 0.414864 0.24317
0.033828 0.999453 0.222797
0.034835 0.98955 0.188966
0.223939 0.967341 0.182477
0.32694 0.952927 0.17847
0.845243 0.86205 0.128146
0.000505 0.000091 0.899157
0.453709 0.000888 0.799654
0.638294 0.001662 0.740587
0.738944 0.002263 0.704805
1 0.004516 0.524688
0.020747 0.386529 0.716011
0.358181 0.330324 0.643468
0.554412 0.293995 0.600989
0.658177 0.271335 0.576486
0.99988 0.135323 0.438886
0.036418 0.537339 0.617816
0.29622 0.489555 0.565052
0.493421 0.457776 0.532095
0.598429 0.437718 0.512093
0.998742 0.314639 0.389768
0.040054 0.617644 0.568107
0.256113 0.573706 0.522955
0.454461 0.544179 0.493734
0.560455 0.525452 0.475515
0.99673 0.408965 0.363695
0.030565 0.999335 0.345903
0.032775 0.983977 0.311013
0.215759 0.961825 0.305436
0.318676 0.947486 0.301682
0.839215 0.857406 0.249419
0.000691 0.000107 0.999224
0.368136 0.000845 0.993072
0.564673 0.001781 0.983979
0.671796 0.002537 0.977036
0.999968 0.006049 0.956225
0.018066 0.314247 0.97985
0.290656 0.266633 0.967513
0.494308 0.235231 0.959351
0.601527 0.215223 0.956871
0.999754 0.091695 0.954005
0.036854 0.476928 0.958626
0.240975 0.434524 0.955216
0.441532 0.405879 0.954073
0.548259 0.387607 0.954268
0.997329 0.273754 0.95785
0.040508 0.562376 0.954511
0.205088 0.522655 0.954077
0.405729 0.495618 0.954711
0.512923 0.47834 0.955513
0.99328 0.369155 0.968979
0.014632 0.973876 0.962789
0.020258 0.946233 0.926461
0.168155 0.92515 0.920117
0.272054 0.911483 0.916229
0.803894 0.826261 0.854576
