site/assets/luts/freshluts--0000695-crizo-mzeyah.cube
# LUTr-Schema-Version: 2
# LUTr-ID: freshluts--0000695-crizo-mzeyah
# LUTr-Title: Crizo Mzeyah
# LUTr-Collection: Fresh LUTs
# LUTr-Collection-ID: freshluts-community
# LUTr-Source: https://freshluts.com
# LUTr-Retrieved: 2026-07-27
# LUTr-Source-File: submissions-raw/freshluts/cubes/695__Crizo_Mzeyah__1.A020_12040508_C074.cube
# LUTr-Source-Format: CUBE
# LUTr-Source-SHA256: 3eedf0c25f4a2f5dea5a81a896587732e2b64fce6865ffe85796d420fa9339d9
# LUTr-License: CC0-1.0
# LUTr-License-URL: https://freshluts.com/termsandconditions
# LUTr-License-Basis: site-terms
# LUTr-Transform-Class: creative-look
# LUTr-Tags: creative, freshluts, community, cube, warm, bmd-film-4k
# LUTr-Input-Color-Space:
# LUTr-Input-Gamut: bmd-film-gamut
# LUTr-Input-Transfer: bmd-film-4k
# LUTr-Output-Color-Space: srgb
# LUTr-Output-Gamut: rec709
# LUTr-Output-Transfer: srgb
# LUTr-Color-Space-Confidence: camera-profile-input-required
# LUTr-Domain-Normalized: true
# LUTr-Shaper: none
# LUTr-Original-Grid: 33x33x33
# LUTr-Conversion-Grid: 33x33x33
# LUTr-Conversion-Interpolation: none
# LUTr-Conversion-Method: Metadata normalization; numeric LUT samples preserved
# LUTr-Conversion-Tool: LUTr scripts/convert-all-to-cube.mjs 2.0.0
# LUTr-Conversion-Date: 2026-07-28
# LUTr-Asset-URL: https://freshluts.com/luts/695
# LUTr-Author: Crizo
# LUTr-Author-URL: https://freshluts.com/users/10814
# LUTr-Attribution: Crizo via Fresh LUTs
# LUTr-Source-Labels: gamma=Blackmagic BMD Film 4K; color=Warm; key=Neutral; style=Adventure
# LUTr-Note: Preserve this metadata and the upstream license notices when redistributing.
TITLE "Crizo Mzeyah"
LUT_3D_SIZE 33
DOMAIN_MIN 0 0 0
DOMAIN_MAX 1 1 1
0 0 0
0 0 0
0.0010071 0 0
0.0604257 0 0
0.121447 0 0
0.183337 0 0
0.245823 0 0
0.308766 0 0
0.372213 0 0
0.435554 0 0
0.497642 0 0
0.558862 0 0
0.619165 0 0
0.677668 0 0
0.733059 0 0
0.788617 0 0
0.844297 0 0
0.900114 0 0
0.956039 0 0
1 0 0
1 0 0
1 0 0
1 0 0
1 0 0
1 0 0
1 0 0
1 0 0
1 0 0
1 0 0
1 0 0
1 0 0
1 0 0
1 0 0
0 0 0
0 0 0
0 0 0
0.0390326 0 0
0.100053 0 0
0.161929 0 0
0.224414 0 0
0.287358 0 0
0.350805 0 0
0.41416 0 0
0.476249 0 0
0.537469 0 0
0.597787 0 0
0.656321 0 0
0.711727 0 0
0.767269 0 0
0.82295 0 0
0.878767 0 0
0.934691 0 0
0.990723 0 0
1 0 0
1 0 0
1 0 0
1 0 0
1 0 0
1 0 0
1 0 0
1 0 0
1 0 0
1 0 0
1 0 0
1 0 0
1 0 0
0 0 0
0 0 0
0 0 0
0.0176394 0 0
0.0786603 0 0
0.140536 0 0
0.203006 0 0
0.265949 0 0
0.329381 0 0
0.392752 0 0
0.454841 0 0
0.516075 0 0
0.57641 0 0
0.634989 0 0
0.690379 0 0
0.745922 0 0
0.801602 0 0
0.85742 0 0
0.913344 0 0
0.969375 0 0
1 0 0
1 0 0
1 0 0
1 0 0
1 0 0
1 0 0
1 0 0
1 0 0
1 0 0
1 0 0
1 0 0
1 0 0
1 0 0
0 0.024094 0
0 0.0184024 0
0 0.0131228 0
0 0.0138552 0
0.0613565 0.00199893 0
0.119036 0 0
0.181506 0 0
0.24445 0 0
0.307881 0 0
0.371252 0 0
0.433356 0 0
0.494591 0 0
0.554925 0 0
0.613565 0 0
0.668925 0 0
0.724483 0 0
0.780163 0 0
0.835966 0 0
0.89189 0 0
0.947921 0 0
1 0 0
1 0 0
1 0 0
1 0 0
1 0 0
1 0 0
1 0 0
1 0 0
1 0 0
1 0 0
1 0 0
1 0 0
1 0 0
0 0.0756237 0
0 0.0699474 0
0 0.0646525 0
0 0.0590524 0
0.038117 0.0616617 0
0.110384 0.0495155 0
0.160128 0.0415503 0
0.223056 0.0356146 0
0.286488 0.029633 0
0.349874 0.0236515 0
0.411994 0.0177768 0
0.473228 0.0120089 0
0.533578 0.00631724 0
0.592248 0.000762951 0
0.647623 0 0
0.703166 0 0
0.758846 0 0
0.814649 0 0
0.870573 0 0
0.926604 0 0
0.982727 0 0
1 0 0
1 0 0
1 0 0
1 0 0
1 0 0
1 0 0
1 0 0
1 0 0
1 0 0
1 0 0
1 0 0
1 0 0
0 0.126986 0
0 0.121309 0
0 0.116014 0
0 0.110414 0
0.0145113 0.104662 0
0.0791028 0.10927 0
0.157305 0.0976883 0
0.204211 0.0870069 0
0.265171 0.0809949 0
0.328557 0.0750134 0
0.390692 0.0691539 0
0.451942 0.0633707 0
0.512291 0.0576791 0
0.571008 0.0521401 0
0.626368 0.0469062 0
0.68191 0.0416724 0
0.737591 0.0364233 0
0.793393 0.0311589 0
0.849317 0.0258793 0
0.905333 0.0205844 0
0.961471 0.0152895 0
1 0.00999466 0
1 0.00466926 0
1 0 0
1 0 0
1 0 0
1 0 0
1 0 0
1 0 0
1 0 0
1 0 0
1 0 0
1 0 0
0 0.178241 0
0 0.172564 0
0 0.167269 0
0 0.161669 0
0 0.155917 0
0.0551003 0.150088 0
0.120958 0.156771 0
0.202335 0.145693 0
0.252506 0.132769 0
0.307301 0.126284 0
0.369436 0.120409 0
0.430686 0.114626 0
0.491051 0.108934 0
0.549828 0.10338 0
0.605173 0.0981613 0
0.660716 0.0929274 0
0.716396 0.0876631 0
0.772183 0.082414 0
0.828107 0.0771344 0
0.884138 0.0718395 0
0.940261 0.0665446 0
0.996475 0.0612345 0
1 0.0559243 0
1 0.0506142 0
1 0.0452735 0
1 0.0399481 0
1 0.0345922 0
1 0.0292515 0
1 0.0238956 0
1 0.0185245 0
1 0.0132296 0
1 0.0078584 0
1 0.00247196 0
0 0.229419 0
0 0.223743 0
0 0.218448 0
0 0.212848 0
0 0.207095 0
0.033875 0.201251 0
0.0960403 0.195758 0
0.163516 0.204196 0
0.246845 0.193439 0
0.302647 0.179217 0
0.349722 0.171572 0
0.409476 0.165805 0
0.469841 0.160113 0
0.528664 0.154559 0
0.583993 0.14934 0
0.639536 0.144091 0
0.695216 0.138842 0
0.751019 0.133577 0
0.806928 0.128298 0
0.862959 0.123018 0
0.919081 0.117723 0
0.975311 0.112413 0
1 0.107103 0
1 0.101778 0
1 0.0964523 0
1 0.0911116 0
1 0.085771 0
1 0.080415 0
1 0.0750591 0
1 0.069688 0
1 0.0643931 0
1 0.0590219 0
1 0.0536507 0
0 0.280705 0
0 0.275029 0
0 0.269718 0
0 0.264134 0
0 0.258381 0
0.012604 0.252552 0
0.0750591 0.246647 0
0.136995 0.242267 0
0.206607 0.251698 0
0.290776 0.24126 0
0.351873 0.226734 0
0.394507 0.217258 0
0.448585 0.211398 0
0.507454 0.205844 0
0.562783 0.200626 0
0.618326 0.195377 0
0.673991 0.190127 0
0.729793 0.184863 0
0.785718 0.179583 0
0.841733 0.174304 0
0.897856 0.168994 0
0.954086 0.163699 0
1 0.158389 0
1 0.153063 0
1 0.147738 0
1 0.142397 0
1 0.137041 0
1 0.131701 0
1 0.126345 0
1 0.120974 0
1 0.115679 0
1 0.110307 0
1 0.104936 0
0 0.330953 0
0 0.325261 0
0 0.319966 0
0 0.314366 0
0 0.308614 0
0 0.302785 0
0.0542 0.29688 0
0.117113 0.290944 0
0.178607 0.288594 0
0.250629 0.298177 0
0.333577 0.288045 0
0.398947 0.273625 0
0.441093 0.262455 0
0.488273 0.256046 0
0.541985 0.250843 0
0.597528 0.245609 0
0.653208 0.240345 0
0.70901 0.23508 0
0.76492 0.229816 0
0.820951 0.224521 0
0.877073 0.219226 0
0.933288 0.213916 0
0.989593 0.208606 0
1 0.203281 0
1 0.197955 0
1 0.192615 0
1 0.187274 0
1 0.181918 0
1 0.176562 0
1 0.171191 0
1 0.165896 0
1 0.160525 0
1 0.155138 0
0 0.380102 0
0 0.374426 0
0 0.369116 0
0 0.363531 0
0 0.357778 0
0 0.351934 0
0.0337835 0.346044 0
0.0966964 0.340108 0
0.160098 0.334127 0
0.220706 0.334798 0
0.293812 0.343618 0
0.375906 0.333684 0
0.444022 0.319615 0
0.487892 0.307271 0
0.52784 0.300114 0
0.577386 0.294743 0
0.632853 0.289494 0
0.688655 0.28423 0
0.744564 0.27895 0
0.800595 0.273671 0
0.856718 0.268376 0
0.912932 0.263066 0
0.969238 0.257755 0
1 0.25243 0
1 0.247105 0
1 0.241764 0
1 0.236423 0
1 0.231067 0
1 0.225711 0
1 0.22034 0
1 0.215045 0
1 0.209674 0
1 0.204288 0
0 0.428336 0
0 0.422644 0
0 0.417334 0
0 0.411749 0
0 0.405997 0
0 0.400168 0
0.0137484 0.394278 0
0.0766613 0.388327 0
0.140047 0.382345 0
0.20351 0.376364 0
0.262272 0.38056 0
0.336614 0.388144 0
0.4177 0.378378 0
0.486961 0.364828 0
0.532311 0.352285 0
0.570031 0.343572 0
0.615244 0.337697 0
0.668666 0.332448 0
0.72459 0.327169 0
0.780606 0.321889 0
0.836728 0.316594 0
0.892943 0.311284 0
0.949264 0.305974 0
1 0.300649 0
1 0.295308 0
1 0.289982 0
1 0.284627 0
1 0.279271 0
1 0.273915 0
1 0.268559 0
1 0.263249 0
1 0.257877 0
1 0.252506 0
0 0.475624 0
0 0.469932 0
0 0.464622 0
0 0.459037 0
0 0.4533 0
0 0.447456 0
0 0.441566 0
0.0569924 0.43563 0
0.120378 0.429633 0
0.183841 0.423651 0
0.245701 0.418189 0
0.303777 0.425696 0
0.378988 0.431785 0
0.458427 0.422217 0
0.525505 0.409796 0
0.575982 0.396658 0
0.613794 0.386511 0
0.655406 0.379812 0
0.705394 0.374441 0
0.761013 0.369162 0
0.817121 0.363867 0
0.87335 0.358557 0
0.929656 0.353246 0
0.986053 0.347921 0
1 0.342596 0
1 0.337255 0
1 0.331914 0
1 0.326558 0
1 0.321202 0
1 0.315831 0
1 0.310536 0
1 0.305165 0
1 0.299779 0
0 0.520027 0
0 0.514336 0
0 0.509026 0
0 0.503441 0
0 0.497704 0
0 0.491859 0
0 0.485969 0
0.0385138 0.480034 0
0.101884 0.474037 0
0.165362 0.46804 0
0.227543 0.462165 0
0.287602 0.458274 0
0.346273 0.468589 0
0.422034 0.472511 0
0.496422 0.463401 0
0.564996 0.451087 0
0.618723 0.437781 0
0.657877 0.426673 0
0.697368 0.419165 0
0.744579 0.41352 0
0.798703 0.408255 0
0.854917 0.402945 0
0.911223 0.39762 0
0.96762 0.392294 0
1 0.386969 0
1 0.381628 0
1 0.376287 0
1 0.370932 0
1 0.36556 0
1 0.360204 0
1 0.35491 0
1 0.349523 0
1 0.344152 0
0 0.563577 0
0 0.557885 0
0 0.55256 0
0 0.54699 0
0 0.541238 0
0 0.535393 0
0 0.529503 0
0.0203708 0.523568 0
0.0837415 0.517571 0
0.147219 0.511589 0
0.209415 0.505714 0
0.270741 0.499916 0
0.328695 0.498604 0
0.388449 0.510658 0
0.460578 0.512657 0
0.535393 0.503502 0
0.604852 0.49131 0
0.661067 0.477928 0
0.701976 0.466117 0
0.7402 0.457801 0
0.785016 0.451774 0
0.836957 0.446464 0
0.893141 0.441154 0
0.949538 0.435828 0
1 0.430503 0
1 0.425162 0
1 0.419821 0
1 0.414466 0
1 0.409094 0
1 0.403738 0
1 0.398428 0
1 0.393057 0
1 0.387686 0
0 0.60708 0
0 0.601389 0
0 0.596063 0
0 0.590494 0
0 0.584741 0
0 0.578912 0
0 0.573007 0
0.00224308 0.567071 0
0.0655985 0.56109 0
0.129107 0.555093 0
0.191287 0.549218 0
0.252613 0.543435 0
0.313039 0.537743 0
0.368658 0.539651 0
0.426429 0.551614 0
0.499535 0.552743 0
0.574548 0.543557 0
0.644739 0.531441 0
0.703075 0.518044 0
0.746059 0.505684 0
0.783658 0.496574 0
0.826383 0.490074 0
0.876127 0.484642 0
0.931472 0.479347 0
0.987945 0.474006 0
1 0.468666 0
1 0.463325 0
1 0.457969 0
1 0.452613 0
1 0.447242 0
1 0.441932 0
1 0.436561 0
1 0.431189 0
0 0.650568 0
0 0.644877 0
0 0.639551 0
0 0.633982 0
0 0.628229 0
0 0.6224 0
0 0.61651 0
0 0.610559 0
0.0474708 0.604578 0
0.110979 0.598581 0
0.17319 0.592706 0
0.234516 0.586923 0
0.294957 0.581216 0
0.353796 0.576165 0
0.405127 0.580484 0
0.464881 0.592508 0
0.538674 0.592782 0
0.61387 0.583551 0
0.684688 0.571511 0
0.744808 0.558129 0
0.790387 0.545419 0
0.827619 0.535485 0
0.868544 0.52845 0
0.916197 0.522789 0
0.969879 0.517494 0
1 0.512154 0
1 0.506813 0
1 0.501457 0
1 0.496086 0
1 0.49073 0
1 0.48542 0
1 0.480049 0
1 0.474678 0
0 0.694041 0
0 0.688334 0
0 0.683024 0
0 0.677455 0
0 0.671702 0
0 0.665873 0
0 0.659968 0
0 0.654032 0
0.0293584 0.648051 0
0.0928664 0.642054 0
0.155093 0.636179 0
0.216419 0.630381 0
0.27686 0.624689 0
0.336156 0.619074 0
0.390417 0.615244 0
0.442039 0.621546 0
0.503624 0.633295 0
0.578012 0.632807 0
0.653376 0.623499 0
0.724681 0.611521 0
0.786358 0.598184 0
0.833738 0.585107 0
0.871839 0.574548 0
0.911391 0.566903 0
0.957061 0.560952 0
1 0.555596 0
1 0.550271 0
1 0.544915 0
1 0.539559 0
1 0.534188 0
1 0.528893 0
1 0.523522 0
1 0.518135 0
0 0.737484 0
0 0.731792 0
0 0.726467 0
0 0.720897 0
0 0.71516 0
0 0.709316 0
0 0.703426 0
0 0.69749 0
0.0112459 0.691508 0
0.0747692 0.685512 0
0.13698 0.679637 0
0.198337 0.673838 0
0.258778 0.668132 0
0.31812 0.662531 0
0.373342 0.657313 0
0.427161 0.654688 0
0.479255 0.662776 0
0.542611 0.673961 0
0.617517 0.67277 0
0.693019 0.663401 0
0.764782 0.651484 0
0.827771 0.638193 0
0.877226 0.624903 0
0.916259 0.613718 0
0.954757 0.605447 0
0.998688 0.599145 0
1 0.593683 0
1 0.588357 0
1 0.583001 0
1 0.57763 0
1 0.572335 0
1 0.566964 0
1 0.561578 0
0 0.780926 0
0 0.775219 0
0 0.769894 0
0 0.764324 0
0 0.758587 0
0 0.752758 0
0 0.746853 0
0 0.740917 0
0 0.734936 0
0.0566873 0.728939 0
0.118898 0.723064 0
0.180255 0.717266 0
0.240711 0.711559 0
0.300084 0.705943 0
0.355306 0.70074 0
0.410849 0.695491 0
0.463966 0.694438 0
0.516793 0.704112 0
0.581842 0.714565 0
0.65716 0.712688 0
0.73283 0.703273 0
0.804944 0.691386 0
0.869093 0.678172 0
0.92047 0.664714 0
0.960739 0.652995 0
0.998596 0.644114 0
1 0.6374 0
1 0.631754 0
1 0.626429 0
1 0.621057 0
1 0.615763 0
1 0.610391 0
1 0.605005 0
0 0.824338 0
0 0.818631 0
0 0.813306 0
0 0.807736 0
0 0.801999 0
0 0.79617 0
0 0.790265 0
0 0.784329 0
0 0.778347 0
0.0386053 0.772351 0
0.100816 0.766476 0
0.162188 0.760678 0
0.222644 0.754971 0
0.282063 0.749355 0
0.337285 0.744152 0
0.392813 0.738903 0
0.448386 0.733776 0
0.500832 0.734539 0
0.554681 0.745464 0
0.621286 0.755047 0
0.696986 0.752575 0
0.772763 0.743099 0
0.845197 0.731258 0
0.910323 0.718074 0
0.9635 0.704524 0
1 0.692363 0
1 0.682872 0
1 0.6757 0
1 0.669825 0
1 0.664454 0
1 0.659159 0
1 0.653803 0
1 0.648417 0
0 0.86772 0
0 0.862028 0
0 0.856687 0
0 0.851133 0
0 0.845396 0
0 0.839567 0
0 0.833661 0
0 0.827726 0
0 0.821744 0
0.0205234 0.815747 0
0.0827497 0.809873 0
0.144121 0.804074 0
0.204593 0.798367 0
0.264042 0.792752 0
0.319265 0.787533 0
0.374792 0.7823 0
0.430457 0.777035 0
0.485817 0.772335 0
0.53782 0.774945 0
0.592905 0.78674 0
0.660914 0.795468 0
0.73695 0.792432 0
0.812833 0.782879 0
0.885573 0.771069 0
0.951522 0.757946 0
1 0.744335 0
1 0.731838 0
1 0.721736 0
1 0.714076 0
1 0.707942 0
1 0.702464 0
1 0.697185 0
1 0.691814 0
0 0.911101 0
0 0.905394 0
0 0.900069 0
0 0.894514 0
0 0.888777 0
0 0.882933 0
0 0.877043 0
0 0.871107 0
0 0.865125 0
0.00244144 0.859129 0
0.064683 0.853239 0
0.126055 0.847456 0
0.186542 0.841749 0
0.246021 0.836118 0
0.301259 0.830915 0
0.356786 0.825666 0
0.412451 0.820417 0
0.468238 0.815152 0
0.523125 0.811246 0
0.57496 0.81561 0
0.631449 0.827909 0
0.700725 0.835798 0
0.777035 0.832273 0
0.85301 0.822629 0
0.926009 0.810849 0
0.992706 0.797772 0
1 0.784115 0
1 0.771328 0
1 0.760693 0
1 0.752544 0
1 0.746075 0
1 0.74052 0
1 0.73518 0
0 0.954467 0
0 0.94876 0
0 0.943435 0
0 0.937881 0
0 0.932128 0
0 0.926299 0
0 0.920409 0
0 0.914473 0
0 0.908492 0
0 0.902495 0
0.0466316 0.89662 0
0.108003 0.890822 0
0.16849 0.8851 0
0.228 0.879484 0
0.283238 0.874266 0
0.338766 0.869032 0
0.39443 0.863767 0
0.450217 0.858503 0
0.506127 0.853223 0
0.560418 0.850462 0
0.612284 0.856519 0
0.670237 0.869383 0
0.740703 0.876066 0
0.817258 0.872053 0
0.893324 0.862348 0
0.966552 0.850584 0
1 0.837552 0
1 0.823896 0
1 0.810819 0
1 0.799741 0
1 0.791089 0
1 0.784344 0
1 0.778531 0
0 0.997818 0
0 0.992111 0
0 0.98677 0
0 0.981231 0
0 0.975479 0
0 0.96965 0
0 0.96376 0
0 0.957824 0
0 0.951843 0
0 0.945846 0
0.0285801 0.939956 0
0.0899672 0.934173 0
0.150454 0.92845 0
0.209979 0.922835 0
0.265248 0.917617 0
0.320775 0.912367 0
0.376425 0.907118 0
0.432212 0.901854 0
0.488121 0.896574 0
0.544121 0.89131 0
0.597711 0.889967 0
0.649851 0.897627 0
0.709331 0.910597 0
0.780835 0.916243 0
0.857603 0.911803 0
0.933745 0.902022 0
1 0.890288 0
1 0.877302 0
1 0.86363 0
1 0.85037 0
1 0.838849 0
1 0.829816 0
1 0.822599 0
0 1 0
0 1 0
0 1 0
0 1 0
0 1 0
0 1 0
0 1 0
0 1 0
0 0.995193 0
0 0.989181 0
0.0105135 0.983307 0
0.071931 0.977493 0
0.132418 0.971786 0
0.191974 0.966171 0
0.247242 0.960952 0
0.30277 0.955703 0
0.358434 0.950454 0
0.414206 0.94519 0
0.470115 0.93991 0
0.526131 0.934615 0
0.582055 0.929549 0
0.635004 0.929778 0
0.687648 0.938857 0
0.748684 0.95169 0
0.821103 0.956374 0
0.898054 0.951522 0
0.974289 0.94168 0
1 0.929946 0
1 0.917021 0
1 0.903349 0
1 0.889921 0
1 0.878187 0
1 0.868544 0
0 1 0
0 1 0
0 1 0
0 1 0
0 1 0
0 1 0
0 1 0
0 1 0
0 1 0
0 1 0
0 1 0
0.0538796 1 0
0.114397 1 0
0.173968 1 0
0.229252 1 0
0.284779 0.999023 0
0.340429 0.993774 0
0.396216 0.98851 0
0.452125 0.98323 0
0.508141 0.977935 0
0.564248 0.972641 0
0.619883 0.968063 0
0.672358 0.969879 0
0.725719 0.980209 0
0.788296 0.992676 0
0.861509 0.996429 0
0.938628 0.991211 0
1 0.981308 0
1 0.969573 0
1 0.956695 0
1 0.943038 0
1 0.929671 0
1 0.917433 0
0 1 0
0 1 0
0 1 0
0 1 0
0 1 0
0 1 0
0 1 0
0 1 0
0 1 0
