site/assets/luts/freshluts--0001218-lut-1-ig-antonyeliezerfilms.cube
# LUTr-Schema-Version: 2
# LUTr-ID: freshluts--0001218-lut-1-ig-antonyeliezerfilms
# LUTr-Title: (Lut 1)  IG @AntonyEliezerFilms
# LUTr-Collection: Fresh LUTs
# LUTr-Collection-ID: freshluts-community
# LUTr-Source: https://freshluts.com
# LUTr-Retrieved: 2026-07-27
# LUTr-Source-File: submissions-raw/freshluts/cubes/1218___28Lut_1_29__IG__AntonyEliezerFilms.cube
# LUTr-Source-Format: CUBE
# LUTr-Source-SHA256: f850d511f1f228c0c497e62a2b62dfdae7c5a9f61a74e2613762775a1e771b9f
# LUTr-License: CC0-1.0
# LUTr-License-URL: https://freshluts.com/termsandconditions
# LUTr-License-Basis: site-terms
# LUTr-Transform-Class: creative-look
# LUTr-Tags: creative, freshluts, community, cube, blue, rec709
# LUTr-Input-Color-Space: rec709
# LUTr-Input-Gamut: rec709
# LUTr-Input-Transfer: rec709
# LUTr-Output-Color-Space: srgb
# LUTr-Output-Gamut: rec709
# LUTr-Output-Transfer: srgb
# LUTr-Color-Space-Confidence: inferred-from-source-label
# LUTr-Domain-Normalized: true
# LUTr-Shaper: none
# LUTr-Original-Grid: 33x33x33
# LUTr-Conversion-Grid: 33x33x33
# LUTr-Conversion-Interpolation: none
# LUTr-Conversion-Method: Metadata normalization; numeric LUT samples preserved
# LUTr-Conversion-Tool: LUTr scripts/convert-all-to-cube.mjs 2.0.0
# LUTr-Conversion-Date: 2026-07-28
# LUTr-Asset-URL: https://freshluts.com/luts/1218
# LUTr-Author: Antony Eliezer
# LUTr-Author-URL: https://freshluts.com/users/32961
# LUTr-Attribution: Antony Eliezer via Fresh LUTs
# LUTr-Source-Labels: gamma=Rec 709; color=Blue; key=Neutral; style=Colorful
# LUTr-Note: Preserve this metadata and the upstream license notices when redistributing.
# LUTr-Upstream-Comment: VEGAS Pro LUT
TITLE "(Lut 1)  IG @AntonyEliezerFilms"
LUT_3D_SIZE 5
DOMAIN_MIN 0 0 0
DOMAIN_MAX 1 1 1
0.11467963 0.09441194 0.0874785
0.14125092 0.08931152 0.08363397
0.24165708 0.04120939 0.0532406
0.36087641 -0.03283267 0.02057823
0.49715114 -0.09875613 -0.026765
0.1127475 0.11756828 0.09810396
0.15918782 0.11952727 0.07993326
0.28507346 0.08358503 0.02045739
0.47351307 -0.04437003 -0.03537081
0.68136746 -0.11851899 -0.08741392
0.15404862 0.22966705 0.16966256
0.17406191 0.23819411 0.17405848
0.29554769 0.24914806 0.11858916
0.50140804 0.34037429 -0.05475586
0.72535837 0.3440266 -0.16659434
0.1665577 0.27679625 0.20519084
0.17969799 0.29677358 0.22079395
0.22300014 0.3144545 0.21825427
0.37563923 0.3363061 0.1782251
0.558743 0.41610187 0.02943683
0.32619968 0.67727917 0.54391396
0.35471225 0.7055406 0.56993634
0.37512374 0.71573472 0.57848704
0.55201167 0.7246626 0.54837459
0.74672961 0.73030168 0.5110414
0.11497017 0.09850925 0.10098305
0.15425853 0.0948002 0.09981523
0.31672433 -0.00150709 0.08080578
0.51688182 -0.10146431 -0.02496833
0.73022312 -0.14300627 -0.07043726
0.11177143 0.11152609 0.10313967
0.14070144 0.1095555 0.10199457
0.21895446 0.09131919 0.08202949
0.33141702 0.04991158 0.04362347
0.46585071 -0.04018001 -0.01127293
0.17842014 0.25611222 0.20963953
0.21027568 0.27385226 0.22601707
0.33121675 0.28343481 0.18416683
0.57652915 0.39731783 0.04068863
0.81660527 0.35350099 -0.08747961
0.193376 0.3663255 0.29404852
0.21860528 0.38119525 0.30404899
0.27619469 0.3895438 0.30241537
0.43083245 0.40462607 0.27505758
0.6152193 0.48111579 0.18122226
0.29459542 0.61171281 0.49775481
0.32786494 0.65012324 0.54023516
0.39713418 0.6773144 0.57475948
0.54123604 0.6913653 0.56248534
0.70130605 0.70256478 0.55716562
0.10723776 0.12621717 0.17235224
0.1400319 0.11732232 0.17787223
0.25863743 0.12383543 0.20231457
0.48242614 0.00104322 0.28156042
0.74135888 -0.13252738 0.30465975
0.12990534 0.16222288 0.18720064
0.15236409 0.1533763 0.18932302
0.2680847 0.1622472 0.2112636
0.44863465 0.09356222 0.27305979
0.66709131 -0.08618226 0.30883822
0.16509561 0.22061536 0.20930821
0.19873022 0.23890069 0.22627541
0.28571647 0.2559661 0.24530558
0.4736231 0.24371248 0.24170117
0.67929971 0.19835794 0.22991666
0.27023035 0.56057131 0.50001293
0.35895574 0.5864808 0.5407064
0.46938825 0.5924648 0.54880083
0.58128053 0.59361452 0.53553557
0.76367378 0.69775242 0.57569414
0.23045312 0.48035005 0.41505918
0.29097176 0.48012763 0.41804868
0.33709982 0.47570094 0.41246551
0.38358659 0.4908756 0.41585252
0.49588463 0.48765445 0.4022769
0.09241709 0.14360993 0.20734653
0.11004916 0.13830818 0.21378751
0.20649426 0.14262626 0.22013249
0.30945778 0.14530693 0.25522977
0.4543533 0.15889627 0.34696031
0.14217135 0.28590116 0.41358566
0.1517064 0.26845431 0.41943312
0.33795148 0.2588163 0.41240925
0.45434165 0.30486596 0.43854237
0.64106262 0.36851078 0.57317972
0.1484279 0.31233731 0.33531764
0.16719118 0.3178992 0.34080049
0.26839682 0.28443649 0.32847464
0.36571088 0.29301891 0.33480659
0.49330699 0.31864026 0.4179216
0.27915949 0.57717711 0.57028604
0.31642586 0.60909617 0.60577643
0.47483543 0.61432171 0.62093395
0.59021252 0.62186772 0.63559526
0.76995814 0.67062455 0.70402634
0.46055382 0.7524938 0.71675146
0.53547549 0.762196 0.73259562
0.61686516 0.77272999 0.75498325
0.67564631 0.77091902 0.76048088
0.71058297 0.74009973 0.73243636
0.14602734 0.27951989 0.47274697
0.15598549 0.27218503 0.47347456
0.17839555 0.19337626 0.43475378
0.38647678 0.24500409 0.43051901
0.45948935 0.25977761 0.43983021
0.16861387 0.32952607 0.50590378
0.18697865 0.33170211 0.52667224
0.24486941 0.27425891 0.51257867
0.47133642 0.34378767 0.54026043
0.55489349 0.39240474 0.56517583
0.27916035 0.57075959 0.68374866
0.30438602 0.58418006 0.69944572
0.42166609 0.55129111 0.68496221
0.59473288 0.55642068 0.69047809
0.67550904 0.59747714 0.71097434
0.23547643 0.48539856 0.51446408
0.26726231 0.52198333 0.55942869
0.29067335 0.54309738 0.58195096
0.47047567 0.52737689 0.59035617
0.57091796 0.55133438 0.60243958
0.59751081 0.83439744 0.83962971
0.67052335 0.85223985 0.85883397
0.75321925 0.87031871 0.88122118
0.81080598 0.87714368 0.89128184
0.83798212 0.86802197 0.89015627
