site/assets/luts/freshluts--0000712-gremerta.cube
# LUTr-Schema-Version: 2
# LUTr-ID: freshluts--0000712-gremerta
# LUTr-Title: Gremerta
# LUTr-Collection: Fresh LUTs
# LUTr-Collection-ID: freshluts-community
# LUTr-Source: https://freshluts.com
# LUTr-Retrieved: 2026-07-27
# LUTr-Source-File: submissions-raw/freshluts/cubes/712__Gremerta.cube
# LUTr-Source-Format: CUBE
# LUTr-Source-SHA256: 0f6cc5931db0fa24ab11d0cd3dce4c4e6809cc9b2226962774c0d21c1fc20ee6
# LUTr-License: CC0-1.0
# LUTr-License-URL: https://freshluts.com/termsandconditions
# LUTr-License-Basis: site-terms
# LUTr-Transform-Class: creative-look
# LUTr-Tags: creative, freshluts, community, cube, green, rec709
# LUTr-Input-Color-Space: rec709
# LUTr-Input-Gamut: rec709
# LUTr-Input-Transfer: rec709
# LUTr-Output-Color-Space: srgb
# LUTr-Output-Gamut: rec709
# LUTr-Output-Transfer: srgb
# LUTr-Color-Space-Confidence: inferred-from-source-label
# LUTr-Domain-Normalized: true
# LUTr-Shaper: none
# LUTr-Original-Grid: 16x16x16
# LUTr-Conversion-Grid: 16x16x16
# LUTr-Conversion-Interpolation: none
# LUTr-Conversion-Method: Metadata normalization; numeric LUT samples preserved
# LUTr-Conversion-Tool: LUTr scripts/convert-all-to-cube.mjs 2.0.0
# LUTr-Conversion-Date: 2026-07-28
# LUTr-Asset-URL: https://freshluts.com/luts/712
# LUTr-Author: InAvision
# LUTr-Author-URL: https://freshluts.com/users/64078
# LUTr-Attribution: InAvision via Fresh LUTs
# LUTr-Source-Labels: gamma=Rec 709; color=Green; key=Neutral; style=cine drama
# LUTr-Note: Preserve this metadata and the upstream license notices when redistributing.
TITLE "Gremerta"
LUT_3D_SIZE 6
DOMAIN_MIN 0 0 0
DOMAIN_MAX 1 1 1
-0.076277 -0.081082 -0.070565
0.12544 -0.081082 -0.070565
0.273951 -0.081082 -0.070565
0.431865 -0.081082 -0.070565
0.597101 -0.081082 -0.070565
0.761899 -0.081082 -0.070565
-0.076277 0.133492 -0.070565
0.125586 0.133492 -0.070565
0.273951 0.136086 -0.070565
0.431865 0.141882 -0.070565
0.597101 0.146824 -0.070565
0.761899 0.149519 -0.070565
-0.076277 0.292457 -0.070565
0.128577 0.292457 -0.070565
0.275142 0.292457 -0.070565
0.431865 0.303339 -0.070565
0.597101 0.313767 -0.070565
0.761899 0.319857 -0.070565
-0.076277 0.461894 -0.070565
0.134292 0.461894 -0.070565
0.28711 0.461894 -0.070565
0.434525 0.461894 -0.070565
0.597101 0.474824 -0.070565
0.761899 0.484122 -0.070565
-0.076277 0.639187 -0.070565
0.139091 0.639187 -0.070565
0.297235 0.639187 -0.070565
0.449832 0.639187 -0.070565
0.601317 0.639187 -0.070565
0.761899 0.647185 -0.070565
-0.076277 0.815652 -0.070565
0.14165 0.815652 -0.070565
0.303016 0.815652 -0.070565
0.458645 0.815652 -0.070565
0.613084 0.815652 -0.070565
0.767243 0.815652 -0.070565
-0.076277 -0.081082 0.115899
0.12544 -0.081082 0.116057
0.273951 -0.081082 0.118446
0.431865 -0.081082 0.123491
0.597101 -0.081082 0.12779
0.761899 -0.081082 0.130144
-0.076277 0.133492 0.116189
0.125458 0.133492 0.115899
0.273951 0.134569 0.115899
0.431865 0.135986 0.115899
0.597101 0.137334 0.115899
0.761899 0.138492 0.115899
-0.076277 0.292457 0.11896
0.126168 0.292457 0.115899
0.274948 0.292457 0.115899
0.431865 0.3021 0.115899
0.597101 0.311183 0.115899
0.761899 0.316621 0.115899
-0.076277 0.461894 0.124246
0.12703 0.461894 0.115899
0.285369 0.461894 0.115899
0.43431 0.461894 0.115899
0.597101 0.474061 0.115899
0.761899 0.482761 0.115899
-0.076277 0.639187 0.128691
0.127828 0.639187 0.115899
0.294053 0.639187 0.115899
0.448637 0.639187 0.115899
0.601117 0.639187 0.115899
0.761899 0.646718 0.115899
-0.076277 0.815652 0.131055
0.128506 0.815652 0.115899
0.299063 0.815652 0.115899
0.456815 0.815652 0.115899
0.612274 0.815652 0.115899
0.767118 0.815652 0.115899
-0.076277 -0.081082 0.252191
0.127378 -0.081082 0.252191
0.273951 -0.081082 0.253468
0.431865 -0.081082 0.264004
0.597101 -0.081082 0.273087
0.761899 -0.081082 0.27839
-0.076277 0.135404 0.252191
0.12544 0.13392 0.252191
0.273951 0.133492 0.253128
0.431865 0.133492 0.26143
0.597101 0.133492 0.268421
0.761899 0.133492 0.272389
-0.076277 0.292457 0.254556
0.12544 0.292457 0.254006
0.274124 0.292457 0.252191
0.431865 0.294698 0.252191
0.597101 0.297172 0.252191
0.761899 0.299358 0.252191
-0.076277 0.461894 0.26563
0.12544 0.461894 0.263049
0.275645 0.461894 0.252191
0.433459 0.461894 0.252191
0.597101 0.469853 0.252191
0.761899 0.475693 0.252191
-0.076277 0.639187 0.275003
0.12544 0.639187 0.270583
0.277139 0.639187 0.252191
0.44258 0.639187 0.252191
0.600319 0.639187 0.252191
0.761899 0.644436 0.252191
-0.076277 0.815652 0.280347
0.12544 0.815652 0.274825
0.278419 0.815652 0.252191
0.447741 0.815652 0.252191
0.608373 0.815652 0.252191
0.766349 0.815652 0.252191
-0.076277 -0.081082 0.396564
0.132472 -0.081082 0.396564
0.28322 -0.081082 0.396564
0.431865 -0.081082 0.399546
0.597101 -0.081082 0.413262
0.761899 -0.081082 0.421363
-0.076277 0.140817 0.396564
0.12544 0.134541 0.396564
0.281589 0.133492 0.396564
0.431865 0.133492 0.399174
0.597101 0.133492 0.411498
0.761899 0.133492 0.418597
-0.076277 0.301053 0.396564
0.12544 0.299963 0.396564
0.273951 0.293248 0.396564
0.431865 0.292457 0.397743
0.597101 0.292457 0.403361
0.761899 0.292457 0.405891
-0.076277 0.461894 0.402015
0.12544 0.461894 0.401426
0.273951 0.461894 0.399082
0.432179 0.461894 0.396564
0.597101 0.46443 0.396564
0.761899 0.467227 0.396564
-0.076277 0.639187 0.416182
0.12544 0.639187 0.414361
0.273951 0.639187 0.405871
0.434057 0.639187 0.396564
0.599044 0.639187 0.396564
0.761899 0.641904 0.396564
-0.076277 0.815652 0.424317
0.12544 0.815652 0.421689
0.273951 0.815652 0.409258
0.435713 0.815652 0.396564
0.603132 0.815652 0.396564
0.765161 0.815652 0.396564
-0.076277 -0.081082 0.547685
0.136933 -0.081082 0.547685
0.292608 -0.081082 0.547685
0.44285 -0.081082 0.547685
0.597101 -0.081082 0.552462
0.761899 -0.081082 0.563265
-0.076277 0.145561 0.547685
0.12544 0.135163 0.547685
0.289115 0.133492 0.547685
0.44183 0.133492 0.547685
0.597101 0.133492 0.552092
0.761899 0.133492 0.562015
-0.076277 0.311048 0.547685
0.12544 0.308396 0.547685
0.273951 0.29436 0.547685
0.43694 0.292457 0.547685
0.597101 0.292457 0.550726
0.761899 0.292457 0.556378
-0.076277 0.470742 0.547685
0.12544 0.47014 0.547685
0.273951 0.466735 0.547685
0.431865 0.462668 0.547685
0.597101 0.461894 0.54872
0.761899 0.461894 0.548981
-0.076277 0.639187 0.55632
0.12544 0.639187 0.555804
0.273951 0.639187 0.553569
0.431865 0.639187 0.550269
0.597614 0.639187 0.547685
0.761899 0.641452 0.547685
-0.076277 0.815652 0.567226
0.12544 0.815652 0.565937
0.273951 0.815652 0.559984
0.431865 0.815652 0.551763
0.599408 0.815652 0.547685
0.763787 0.815652 0.547685
-0.076277 -0.081082 0.698528
0.13939 -0.081082 0.698528
0.298161 -0.081082 0.698528
0.451299 -0.081082 0.698528
0.603305 -0.081082 0.698528
0.761899 -0.081082 0.704926
-0.076277 0.148165 0.698528
0.12544 0.135713 0.698528
0.293496 0.133492 0.698528
0.449371 0.133492 0.698528
0.60272 0.133492 0.698528
0.761899 0.133492 0.70461
-0.076277 0.316956 0.698528
0.12544 0.313428 0.698528
0.273951 0.295356 0.698528
0.440339 0.292457 0.698528
0.600012 0.292457 0.698528
0.761899 0.292457 0.703279
-0.076277 0.479728 0.698528
0.12544 0.478375 0.698528
0.273951 0.471539 0.698528
0.431865 0.463902 0.698528
0.596976 0.461894 0.698528
0.761899 0.461894 0.701349
-0.076277 0.641307 0.698528
0.12544 0.641072 0.698528
0.273951 0.639537 0.698528
0.431865 0.638424 0.698528
0.597101 0.639668 0.698528
0.761899 0.639187 0.699323
-0.076277 0.815652 0.709957
0.12544 0.815652 0.709373
0.273951 0.815652 0.707362
0.431865 0.815652 0.704245
0.597101 0.815652 0.700629
0.762366 0.815652 0.698528
