site/assets/luts/freshluts--0000224-eterna-for-flog.cube
# LUTr-Schema-Version: 2
# LUTr-ID: freshluts--0000224-eterna-for-flog
# LUTr-Title: ETERNA for Flog
# LUTr-Collection: Fresh LUTs
# LUTr-Collection-ID: freshluts-community
# LUTr-Source: https://freshluts.com
# LUTr-Retrieved: 2026-07-27
# LUTr-Source-File: submissions-raw/freshluts/cubes/224__ETERNA_for_Flog.cube
# LUTr-Source-Format: CUBE
# LUTr-Source-SHA256: b7fb3f447a333365a45a98c2932cacd91b4128ca12c6c3c5761673319142d3d3
# LUTr-License: CC0-1.0
# LUTr-License-URL: https://freshluts.com/termsandconditions
# LUTr-License-Basis: site-terms
# LUTr-Transform-Class: creative-look
# LUTr-Tags: creative, freshluts, community, cube, film-emulation, rec709
# LUTr-Input-Color-Space: rec709
# LUTr-Input-Gamut: rec709
# LUTr-Input-Transfer: rec709
# LUTr-Output-Color-Space: srgb
# LUTr-Output-Gamut: rec709
# LUTr-Output-Transfer: srgb
# LUTr-Color-Space-Confidence: declared-by-source
# LUTr-Domain-Normalized: true
# LUTr-Shaper: none
# LUTr-Original-Grid: 16x16x16
# LUTr-Conversion-Grid: 16x16x16
# LUTr-Conversion-Interpolation: none
# LUTr-Conversion-Method: Metadata normalization; numeric LUT samples preserved
# LUTr-Conversion-Tool: LUTr scripts/convert-all-to-cube.mjs 2.0.0
# LUTr-Conversion-Date: 2026-07-28
# LUTr-Asset-URL: https://freshluts.com/luts/224
# LUTr-Author: Andy
# LUTr-Author-URL: https://freshluts.com/users/1003
# LUTr-Attribution: Andy via Fresh LUTs
# LUTr-Source-Labels: gamma=Rec 709; color=None; key=Neutral; style=Film emulation
# LUTr-Note: Preserve this metadata and the upstream license notices when redistributing.
TITLE "ETERNA for Flog"
LUT_3D_SIZE 16
DOMAIN_MIN 0 0 0
DOMAIN_MAX 1 1 1
0.007876 0.007876 0.007876
0.017369 0.008843 0.007471
0.116433 0.010431 0.012692
0.215953 0.011558 0.018182
0.344056 0.013339 0.029512
0.516859 0.016444 0.053963
0.688672 0.019045 0.083742
0.846716 0.023213 0.111284
0.982378 0.027155 0.134255
0.982378 0.027155 0.134255
0.982378 0.027155 0.134255
0.982378 0.027155 0.134255
0.982378 0.027155 0.134255
0.982378 0.027155 0.134255
0.982378 0.027155 0.134255
0.982378 0.027155 0.134255
0.005311 0.008731 0.006168
0.007817 0.008731 0.006478
0.086199 0.009807 0.011536
0.182592 0.011156 0.016154
0.287086 0.012522 0.023506
0.426206 0.014731 0.039741
0.589123 0.017357 0.066462
0.750212 0.020733 0.094393
0.898387 0.024151 0.119948
0.982378 0.027155 0.134255
0.982378 0.027155 0.134255
0.982378 0.027155 0.134255
0.982378 0.027155 0.134255
0.982378 0.027155 0.134255
0.982378 0.027155 0.134255
0.982378 0.027155 0.134255
0.001962 0.035082 0.001981
0.000088 0.047008 0.000861
0.051708 0.029593 0.006856
0.148713 0.016796 0.013254
0.241195 0.011777 0.020065
0.358343 0.013444 0.030634
0.508456 0.015987 0.0527
0.667547 0.019046 0.079931
0.816951 0.022422 0.105991
0.950831 0.025728 0.128626
0.982378 0.027155 0.134255
0.982378 0.027155 0.134255
0.982378 0.027155 0.134255
0.982378 0.027155 0.134255
0.982378 0.027155 0.134255
0.982378 0.027155 0.134255
0 0.100617 0.000035
0 0.122928 0.000043
0.012675 0.108604 0.000177
0.118815 0.095217 0.003208
0.213884 0.071249 0.009991
0.316893 0.039285 0.022108
0.451251 0.017306 0.042943
0.603395 0.017707 0.068603
0.752936 0.020733 0.094862
0.891535 0.024097 0.118692
0.982248 0.027155 0.134255
0.982378 0.027155 0.134255
0.982378 0.027155 0.134255
0.982378 0.027155 0.134255
0.982378 0.027155 0.134255
0.982378 0.027155 0.134255
0 0.161174 0.000056
0 0.191163 0.000067
0 0.179599 0.000063
0.071837 0.168374 0.000019
0.185161 0.15679 0.00042
0.28938 0.141516 0.004921
0.417459 0.120016 0.017583
0.56119 0.071018 0.048844
0.705204 0.023702 0.085578
0.84126 0.022843 0.110334
0.96214 0.026386 0.130698
0.982476 0.027155 0.134255
0.982378 0.027155 0.134255
0.982378 0.027155 0.134255
0.982378 0.027155 0.134255
0.982378 0.027155 0.134255
0 0.225961 0.000079
0 0.263225 0.000092
0 0.256496 0.00009
0.016017 0.24426 0.000075
0.151682 0.233567 0.000006
0.2626 0.224636 0
0.390248 0.213049 0.000895
0.533548 0.197566 0.012202
0.679772 0.168744 0.046459
0.817677 0.094322 0.091133
0.943579 0.025625 0.127438
0.98321 0.027155 0.134255
0.982805 0.027155 0.134255
0.982543 0.027155 0.134255
0.982378 0.027155 0.134255
0.982661 0.027155 0.134255
0 0.307481 0.000107
0 0.358484 0.000125
0 0.356829 0.000125
0 0.341622 0.000119
0.068641 0.328964 0.000073
0.231551 0.31849 0.000001
0.366305 0.310679 0
0.515474 0.298514 0
0.664518 0.280769 0.005224
0.80469 0.249774 0.044615
0.931785 0.185897 0.091304
0.986988 0.067818 0.127231
0.983672 0.027155 0.134254
0.983209 0.027155 0.134255
0.982952 0.027155 0.134255
0.983184 0.027155 0.134255
0 0.414952 0.000145
0 0.47781 0.000166
0 0.481414 0.000168
0 0.465101 0.000162
0.000304 0.452274 0.000157
0.145255 0.441251 0.000066
0.332129 0.433974 0
0.495297 0.423875 0
0.648539 0.410656 0
0.789899 0.387903 0.000642
0.917695 0.348291 0.026835
0.997281 0.278224 0.077981
0.993861 0.186075 0.104211
0.985859 0.05007 0.130324
0.983516 0.027155 0.134254
0.983876 0.027155 0.134254
0 0.541131 0.000188
0 0.608479 0.000212
0 0.615592 0.000215
0 0.602488 0.00021
0 0.59118 0.000206
0 0.581829 0.000203
0.270605 0.573262 0.000036
0.462029 0.567843 0
0.624139 0.558262 0
0.767299 0.542394 0
0.893488 0.51454 0
0.988035 0.459924 0.000973
0.997881 0.369454 0.037954
0.997312 0.276286 0.078037
0.993533 0.173401 0.107119
0.994587 0.201719 0.100934
0 0.669873 0.000234
0 0.733808 0.000256
0 0.745276 0.00026
0 0.734097 0.000256
0 0.724611 0.000253
0 0.716177 0.00025
0.148546 0.708517 0.000157
0.419821 0.701362 0.000006
0.590464 0.695996 0
0.734869 0.685302 0
0.860595 0.666887 0
0.962195 0.631941 0
0.982699 0.557748 0
0.991994 0.461668 0.001812
0.997798 0.347945 0.047953
0.997901 0.349198 0.047463
0 0.785664 0.000274
0 0.838134 0.000292
0 0.850552 0.000297
0 0.842127 0.000294
0 0.834528 0.000291
0 0.827534 0.000289
0 0.821637 0.000287
0.355791 0.816215 0.000068
0.552752 0.810508 0
0.697281 0.804974 0
0.825961 0.792545 0
0.935212 0.769538 0
0.963835 0.714456 0
0.973938 0.635098 0
0.985524 0.530183 0
0.987479 0.51111 0
0 0.880355 0.000307
0 0.924687 0.000323
0 0.936875 0.000327
0 0.930195 0.000325
0 0.924612 0.000323
0 0.919426 0.000321
0 0.914889 0.000319
0.268011 0.910782 0.000155
0.50099 0.905864 0.000014
0.659311 0.899859 0
0.786365 0.89282 0
0.902454 0.876792 0
0.946218 0.838149 0
0.955126 0.77667 0
0.966634 0.693056 0
0.970785 0.660965 0
0 0.958219 0.000334
0 0.980615 0.000342
0 0.984119 0.000343
0 0.983156 0.000343
0 0.981445 0.000342
0 0.980655 0.000342
0 0.981044 0.000342
0.147248 0.981661 0.000253
0.43376 0.982312 0.000079
0.605722 0.97829 0
0.742674 0.971704 0
0.85735 0.962249 0
0.92933 0.937959 0
0.938215 0.890492 0
0.948312 0.82389 0
0.953889 0.786618 0
0 0.984192 0.000343
0 0.984192 0.000343
0 0.984192 0.000343
0 0.984192 0.000343
0 0.984192 0.000343
0 0.984922 0.000344
0 0.987408 0.000344
0 0.990377 0.000345
0.31793 0.993733 0.000154
0.517153 0.997766 0.000035
0.67089 0.999946 0
0.800877 0.999935 0
0.902177 0.997246 0
0.919809 0.978985 0
0.932124 0.925607 0
0.938605 0.888336 0
0 0.984192 0.000343
0 0.984192 0.000343
0 0.984192 0.000343
0 0.984192 0.000343
0 0.984192 0.000343
0 0.984235 0.000343
0 0.985832 0.000344
0 0.988616 0.000345
0.124131 0.991845 0.00027
0.397213 0.995134 0.000106
0.566312 0.998951 0.000013
0.711723 0.999943 0
0.840111 0.999931 0
0.914203 0.999925 0
0.916592 0.992209 0
0.922004 0.970454 0
0 0.984192 0.000343
0 0.984192 0.000343
0 0.984192 0.000343
0 0.984192 0.000343
0 0.984192 0.000343
0 0.984192 0.000343
0 0.984588 0.000343
0 0.986753 0.000344
0.000123 0.9898 0.000345
0.248952 0.992982 0.000195
0.443729 0.996092 0.000078
0.599344 0.999501 0.000003
0.745892 0.999939 0
0.87421 0.999928 0
0.915342 0.999925 0
0.915359 0.999827 0
0.005426 0.008731 0.007292
0.01365 0.008844 0.006717
0.112334 0.010431 0.012695
0.211077 0.011559 0.017804
0.336997 0.013339 0.028364
0.49987 0.015881 0.051442
0.669497 0.019046 0.08029
0.827807 0.022421 0.108261
0.96909 0.026473 0.131641
0.982378 0.027155 0.134255
0.982378 0.027155 0.134255
0.982378 0.027155 0.134255
0.982378 0.027155 0.134255
0.982378 0.027155 0.134255
0.982378 0.027155 0.134255
0.982378 0.027155 0.134255
0.005426 0.008731 0.007977
0.009137 0.008363 0.008137
0.081859 0.009796 0.011538
0.176149 0.011156 0.016014
0.277849 0.012522 0.022711
0.412598 0.014274 0.037823
0.573259 0.017358 0.063683
0.734137 0.020628 0.091796
0.882705 0.024093 0.117473
0.981331 0.027077 0.134021
0.982378 0.027155 0.134255
0.982378 0.027155 0.134255
0.982378 0.027155 0.134255
0.982378 0.027155 0.134255
0.982378 0.027155 0.134255
0.982378 0.027155 0.134255
0.000748 0.039012 0.004167
0 0.055399 0.001964
0.045176 0.038344 0.005815
0.144013 0.020709 0.012745
0.234871 0.013012 0.018971
0.348544 0.013445 0.029523
0.495886 0.01579 0.050367
0.654356 0.018974 0.077958
0.803991 0.021675 0.103814
0.939959 0.025729 0.12686
0.982378 0.027155 0.134255
0.982378 0.027155 0.134255
0.982378 0.027155 0.134255
0.982378 0.027155 0.134255
0.982378 0.027155 0.134255
0.982378 0.027155 0.134255
0 0.106497 0.001781
0 0.131004 0.000845
0.009974 0.118083 0.000035
0.113885 0.105438 0.002218
0.208993 0.086513 0.00859
0.311673 0.052564 0.019222
0.443673 0.025831 0.039475
0.593569 0.017636 0.067153
0.742784 0.020734 0.093242
0.8814 0.024098 0.117006
0.980077 0.02696 0.133762
0.982378 0.027155 0.134255
0.982378 0.027155 0.134255
0.982378 0.027155 0.134255
0.982378 0.027155 0.134255
0.982378 0.027155 0.134255
0 0.168803 0.001094
0 0.200083 0.000119
0 0.189325 0.000066
0.060478 0.178631 0.000029
0.17986 0.168225 0
0.28449 0.153949 0.002923
0.411713 0.134337 0.014645
0.556505 0.096392 0.04201
0.699521 0.045565 0.079904
0.835216 0.022844 0.109234
0.959046 0.026139 0.130062
0.982545 0.027155 0.134255
0.982378 0.027155 0.134255
0.982378 0.027155 0.134255
0.982378 0.027155 0.134255
0.982378 0.027155 0.134255
0 0.235738 0.000161
0 0.275128 0.000096
0 0.269215 0.000094
0.007855 0.256608 0.000085
0.142299 0.245459 0.000009
0.257537 0.236297 0
0.385961 0.224694 0
0.530116 0.209768 0.008577
0.67686 0.182964 0.041365
0.815746 0.119424 0.085098
0.940358 0.025449 0.126825
0.983257 0.027155 0.134255
0.98288 0.027155 0.134255
0.982543 0.027155 0.134255
0.982392 0.027155 0.134255
0.982721 0.027155 0.134255
0 0.320802 0.000112
0 0.373716 0.00013
0 0.373171 0.00013
0 0.357163 0.000125
0.055294 0.343797 0.000086
0.222776 0.332202 0.000004
0.361698 0.324141 0
0.512626 0.311959 0
0.661773 0.294573 0.003701
0.802503 0.264346 0.038687
0.929885 0.207121 0.085553
0.988838 0.094781 0.122366
0.983848 0.027155 0.134254
0.983222 0.027155 0.134255
0.982956 0.027155 0.134255
0.983184 0.027155 0.134255
0 0.430826 0.000151
0 0.495062 0.000173
0 0.498114 0.000174
0 0.48132 0.000168
0 0.469084 0.000164
0.115992 0.458071 0.000089
0.33001 0.447501 0
0.491168 0.439889 0
0.645505 0.426217 0
0.78776 0.402909 0.000272
0.915806 0.363649 0.017312
0.99759 0.293899 0.071801
0.994635 0.202743 0.099981
0.986518 0.05849 0.128548
0.983664 0.027155 0.134254
0.984057 0.027155 0.134254
0 0.557424 0.000194
0 0.623805 0.000217
0 0.631562 0.00022
0 0.618441 0.000216
0 0.60746 0.000212
0 0.597636 0.000208
0.255092 0.588602 0.000051
0.455304 0.583048 0
0.62046 0.572461 0
0.764305 0.556079 0
0.890755 0.527522 0
0.986272 0.47356 0
0.997364 0.381404 0.032404
0.997453 0.286249 0.074642
0.993931 0.183347 0.104846
0.994995 0.208375 0.099216
0 0.683585 0.000238
0 0.746453 0.000261
0 0.758227 0.000264
0 0.746931 0.000261
0 0.737459 0.000257
0 0.728386 0.000254
0.125857 0.720164 0.000175
0.411627 0.711944 0.000008
0.584637 0.706025 0
0.731637 0.694694 0
0.858649 0.675832 0
0.960608 0.640583 0
0.981761 0.566115 0
0.991294 0.468926 0
0.997669 0.354845 0.045006
0.997757 0.356479 0.043912
0 0.795307 0.000277
0 0.84772 0.000296
0 0.859657 0.0003
0 0.850938 0.000297
0 0.843226 0.000294
0 0.835884 0.000292
0 0.829096 0.00029
0.344829 0.823052 0.000078
0.546993 0.816142 0
0.694877 0.809536 0
0.823686 0.797478 0
0.933987 0.775013 0
0.963095 0.720456 0
0.973119 0.641759 0
0.984799 0.537172 0
0.986788 0.518617 0
0 0.888169 0.00031
0 0.931653 0.000325
0 0.942766 0.000329
0 0.936068 0.000326
0 0.9299 0.000324
0 0.924173 0.000322
0 0.919186 0.000321
0.249679 0.914322 0.000167
0.493599 0.908883 0.000019
0.654545 0.902902 0
0.78243 0.896235 0
0.900454 0.881139 0
0.94543 0.843345 0
0.954505 0.78228 0
0.965888 0.69922 0
0.970053 0.667727 0
0 0.963585 0.000336
0 0.982476 0.000343
0 0.984172 0.000343
0 0.984085 0.000343
0 0.982691 0.000343
0 0.98159 0.000342
0 0.981671 0.000342
0.107756 0.982209 0.000277
0.423424 0.983525 0.000086
0.598532 0.98018 0
0.737561 0.973754 0
0.853512 0.964605 0
0.928297 0.941753 0
0.937456 0.894947 0
0.947701 0.828653 0
0.952762 0.793863 0
0 0.984078 0.000343
0 0.984192 0.000343
0 0.984192 0.000343
0 0.984192 0.000343
0 0.984192 0.000343
0 0.984722 0.000344
0 0.987003 0.000344
0 0.990206 0.000345
0.305395 0.993651 0.000161
0.508351 0.997537 0.00004
0.664408 0.999947 0
0.798071 0.999935 0
0.900254 0.997826 0
0.918914 0.982561 0
0.930473 0.932444 0
0.937184 0.897371 0
0 0.984132 0.000343
0 0.984192 0.000343
0 0.984192 0.000343
0 0.984192 0.000343
0 0.984192 0.000343
0 0.984192 0.000343
0 0.985578 0.000344
0 0.988352 0.000345
0.093399 0.991803 0.000289
0.390199 0.99508 0.00011
0.55827 0.998824 0.000016
0.703191 0.999944 0
0.832763 0.999932 0
0.912508 0.999925 0
0.915798 0.995766 0
0.920598 0.975711 0
0 0.984192 0.000343
0 0.984192 0.000343
0 0.984192 0.000343
0 0.984192 0.000343
0 0.984192 0.000343
0 0.984192 0.000343
0 0.984392 0.000343
0 0.986537 0.000344
0.00012 0.98953 0.000345
0.241535 0.992606 0.0002
0.432362 0.995841 0.000085
0.586481 0.999276 0.000006
0.732084 0.99994 0
0.860842 0.999929 0
0.915342 0.999925 0
0.915347 0.999875 0
0.008135 0.008963 0.060469
0.011487 0.008931 0.039464
0.107654 0.010265 0.020569
0.206705 0.011559 0.017394
0.32915 0.01334 0.027524
0.484865 0.015652 0.048743
0.653101 0.018878 0.077464
0.81199 0.022408 0.105211
0.955591 0.025733 0.129255
0.982378 0.027155 0.134255
0.982378 0.027155 0.134255
0.982378 0.027155 0.134255
0.982378 0.027155 0.134255
0.982378 0.027155 0.134255
0.982378 0.027155 0.134255
0.982378 0.027155 0.134255
0.00814 0.008964 0.067666
0.008767 0.008962 0.05277
0.075999 0.009498 0.031518
0.170714 0.010744 0.016933
0.270682 0.012462 0.022249
0.401875 0.01424 0.036208
0.560293 0.016786 0.061357
0.721658 0.019941 0.089505
0.86966 0.023359 0.114926
0.98016 0.027077 0.133846
0.982378 0.027155 0.134255
0.982378 0.027155 0.134255
0.982378 0.027155 0.134255
0.982378 0.027155 0.134255
0.982378 0.027155 0.134255
0.982378 0.027155 0.134255
0.002329 0.033882 0.065941
0.000011 0.052003 0.052241
0.035851 0.037378 0.036991
0.139075 0.021069 0.020666
0.229724 0.013282 0.018779
0.34139 0.013445 0.028819
0.486523 0.01569 0.048942
0.643786 0.018296 0.075835
0.793675 0.02163 0.102108
0.931647 0.025096 0.1255
0.982378 0.027155 0.134255
0.982378 0.027155 0.134255
0.982378 0.027155 0.134255
0.982378 0.027155 0.134255
0.982378 0.027155 0.134255
0.982378 0.027155 0.134255
0.000002 0.102515 0.058118
0 0.12863 0.047693
0.007374 0.116395 0.033872
0.108062 0.105477 0.018433
0.204319 0.08802 0.009711
0.306659 0.055505 0.018383
0.437415 0.028468 0.0384
0.58595 0.01738 0.065661
0.735276 0.020258 0.092065
0.873251 0.023692 0.115613
0.978137 0.02696 0.133416
0.982378 0.027155 0.134255
0.982378 0.027155 0.134255
0.982378 0.027155 0.134255
0.982378 0.027155 0.134255
0.982378 0.027155 0.134255
0 0.166224 0.053658
0 0.198138 0.044273
0 0.188203 0.031521
0.052502 0.17858 0.017824
0.175464 0.169304 0.005974
0.280041 0.156059 0.002506
0.40718 0.137339 0.013531
0.55152 0.102729 0.039701
0.694437 0.051151 0.077549
0.830698 0.022844 0.108558
0.956953 0.026139 0.129833
0.982545 0.027155 0.134255
0.982378 0.027155 0.134255
0.982378 0.027155 0.134255
0.982378 0.027155 0.134255
0.982378 0.027155 0.134255
0 0.23435 0.049271
0 0.274408 0.036075
0 0.269152 0.022255
0.006516 0.257249 0.012571
0.137457 0.247139 0.007649
0.252411 0.239214 0.000338
0.381359 0.227787 0
0.526959 0.212881 0.007306
0.675128 0.186818 0.03976
0.814024 0.126596 0.083057
0.938454 0.026172 0.126388
0.983358 0.027155 0.134254
0.982944 0.027155 0.134255
0.982543 0.027155 0.134255
0.982484 0.027155 0.134255
0.982721 0.027155 0.134255
0 0.321179 0.036478
0 0.374632 0.016187
0 0.374011 0.00954
0 0.358769 0.006499
0.050115 0.346453 0.003931
0.216513 0.336538 0.000115
0.356569 0.329074 0
0.510018 0.316354 0
0.660473 0.298594 0.003142
0.801266 0.269148 0.036024
0.928779 0.213596 0.083369
0.989488 0.105992 0.120366
0.983877 0.027155 0.134254
0.98323 0.027155 0.134255
0.982978 0.027155 0.134255
0.983184 0.027155 0.134255
0 0.433168 0.013903
0 0.497218 0.002844
0 0.500037 0.000388
0 0.484114 0.000179
0 0.473024 0.000165
0.107418 0.463349 0.000097
0.322585 0.454264 0.000001
0.486375 0.446912 0
0.643847 0.432419 0
0.786778 0.409439 0.000227
0.914843 0.370215 0.0134
0.997803 0.301205 0.068994
0.995046 0.211038 0.097974
0.988174 0.080549 0.124826
0.98367 0.027155 0.134254
0.984057 0.027155 0.134254
0 0.560332 0.000196
0 0.626817 0.000218
0 0.634082 0.000221
0 0.621196 0.000217
0 0.6111 0.000213
0 0.602265 0.00021
0.241822 0.594835 0.000061
0.456217 0.586436 0
0.616581 0.578972 0
0.762134 0.562885 0
0.889232 0.534953 0
0.985214 0.48135 0
0.997164 0.389514 0.027939
0.997654 0.294333 0.071332
0.994297 0.192299 0.102977
0.995234 0.214287 0.097604
0 0.686464 0.000239
0 0.747086 0.00026
0 0.75794 0.000264
0 0.747791 0.000261
0 0.738903 0.000258
0 0.730858 0.000255
0.102614 0.724501 0.00019
0.401768 0.717453 0.00001
0.57985 0.711123 0
0.727985 0.700308 0
0.856928 0.68224 0
0.959475 0.647744 0
0.980961 0.573999 0
0.990577 0.476324 0
0.997482 0.361334 0.041864
0.997651 0.363077 0.040552
0 0.795555 0.000277
0 0.8463 0.000295
0 0.858122 0.000299
0 0.849874 0.000297
0 0.842892 0.000294
0 0.836798 0.000292
0 0.831893 0.00029
0.330234 0.826523 0.000088
0.540181 0.819902 0
0.690362 0.813397 0
0.819878 0.801721 0
0.932983 0.780422 0
0.962195 0.726599 0
0.972331 0.648112 0
0.984051 0.544274 0
0.985967 0.525973 0
0 0.886495 0.000309
0 0.929661 0.000324
0 0.94066 0.000328
0 0.934392 0.000326
0 0.9291 0.000324
0 0.924801 0.000323
0 0.920627 0.000321
0.226676 0.916437 0.000182
0.484252 0.911664 0.000025
0.648761 0.905753 0
0.780166 0.898395 0
0.897342 0.884526 0
0.94468 0.848369 0
0.953699 0.78765 0
0.965036 0.70535 0
0.969079 0.674288 0
0 0.960901 0.000335
0 0.97993 0.000342
0 0.982228 0.000343
0 0.982455 0.000343
0 0.981985 0.000342
0 0.981236 0.000342
0 0.981781 0.000342
0.047713 0.982938 0.000314
0.409864 0.984209 0.000095
0.590217 0.981917 0.000002
0.732112 0.97551 0
0.848861 0.966523 0
0.926717 0.944898 0
0.936632 0.899503 0
0.946877 0.833052 0
0.951928 0.799625 0
0 0.980816 0.000342
0 0.982098 0.000343
0 0.982786 0.000343
0 0.983167 0.000343
0 0.983568 0.000343
0 0.984043 0.000343
0 0.986326 0.000344
0 0.98953 0.000345
0.29187 0.993405 0.000169
0.498758 0.997304 0.000046
0.656622 0.999947 0
0.792076 0.999936 0
0.897984 0.998333 0
0.918322 0.985331 0
0.929718 0.936144 0
0.936419 0.902135 0
0 0.981198 0.000342
0 0.982608 0.000343
0 0.983518 0.000343
0 0.983611 0.000343
0 0.983776 0.000343
0 0.984054 0.000343
0 0.985264 0.000344
0 0.987753 0.000345
0.042975 0.990436 0.000319
0.386849 0.994582 0.000112
0.549387 0.998615 0.000019
0.695112 0.999944 0
0.829758 0.999932 0
0.911226 0.999925 0
0.915395 0.997073 0
0.920097 0.977661 0
0 0.98165 0.000343
0 0.983623 0.000343
0 0.983861 0.000343
0 0.983988 0.000343
0 0.984167 0.000343
0 0.984192 0.000343
0 0.984197 0.000343
0 0.986273 0.000344
0.000116 0.988667 0.000345
0.250221 0.990472 0.000193
0.427236 0.995444 0.000088
0.578318 0.999181 0.000009
0.724309 0.999941 0
0.855919 0.99993 0
0.915342 0.999925 0
0.915344 0.999887 0
0.009318 0.010768 0.134766
0.01064 0.010587 0.118323
0.10064 0.008959 0.106141
0.2023 0.010951 0.065118
0.318907 0.013182 0.029157
0.470983 0.015426 0.046711
0.638143 0.018255 0.075099
0.797232 0.021629 0.102836
0.942117 0.025734 0.127154
0.982378 0.027155 0.134255
0.982378 0.027155 0.134255
0.982378 0.027155 0.134255
0.982378 0.027155 0.134255
0.982378 0.027155 0.134255
0.982378 0.027155 0.134255
0.982378 0.027155 0.134255
0.009595 0.011174 0.140797
0.009178 0.010768 0.129283
0.06095 0.009138 0.115823
0.165518 0.010352 0.088573
0.263026 0.012114 0.03821
0.391315 0.014164 0.034885
0.548889 0.016665 0.059539
0.709478 0.019942 0.087606
0.857298 0.023315 0.113055
0.978754 0.026789 0.133567
0.982378 0.027155 0.134255
0.982378 0.027155 0.134255
0.982378 0.027155 0.134255
0.982378 0.027155 0.134255
0.982378 0.027155 0.134255
0.982378 0.027155 0.134255
0.004845 0.028577 0.141797
0.000299 0.047292 0.128423
0.024564 0.033571 0.113405
0.134132 0.020056 0.104919
0.2252 0.012824 0.067393
0.33368 0.013359 0.032819
0.477745 0.015691 0.047583
0.634289 0.018269 0.074347
0.784652 0.02163 0.100666
0.922947 0.024958 0.123962
0.982378 0.027155 0.134255
0.982378 0.027155 0.134255
0.982378 0.027155 0.134255
0.982378 0.027155 0.134255
0.982378 0.027155 0.134255
0.982378 0.027155 0.134255
0.000038 0.098648 0.134028
0.000021 0.1266 0.125419
0.002951 0.114818 0.109913
0.10171 0.103741 0.103118
0.20235 0.087412 0.082933
0.302139 0.056404 0.043918
0.430949 0.029582 0.037357
0.579634 0.01738 0.064864
0.728629 0.020237 0.091048
0.866632 0.023346 0.114552
0.976596 0.026843 0.133216
0.982378 0.027155 0.134255
0.982378 0.027155 0.134255
0.982378 0.027155 0.134255
0.982378 0.027155 0.134255
0.982378 0.027155 0.134255
0.000011 0.164417 0.132557
0.000002 0.197307 0.125852
0.000001 0.187869 0.111233
0.044689 0.178372 0.103396
0.174168 0.169054 0.090061
0.278043 0.157019 0.057856
0.402355 0.139537 0.021418
0.54698 0.106727 0.037973
0.69003 0.053931 0.076072
0.827859 0.022709 0.107889
0.95521 0.026139 0.129546
0.982545 0.027155 0.134255
0.982378 0.027155 0.134255
0.982378 0.027155 0.134255
0.982378 0.027155 0.134255
0.982378 0.027155 0.134255
0 0.234634 0.132969
0 0.275495 0.125882
0 0.270281 0.112758
0.00417 0.258387 0.103314
0.133427 0.248191 0.094269
0.253454 0.240011 0.074938
0.379141 0.230496 0.032919
0.523979 0.216283 0.006134
0.673271 0.190013 0.038347
0.812518 0.131927 0.081663
0.937261 0.033649 0.124566
0.983384 0.027155 0.134254
0.982963 0.027155 0.134255
0.982543 0.027155 0.134255
0.982484 0.027155 0.134255
0.982721 0.027155 0.134255
0 0.32328 0.130975
0 0.377473 0.119501
0 0.376473 0.105102
0 0.361515 0.094738
0.042314 0.349488 0.089829
0.216533 0.33913 0.074617
0.357331 0.332234 0.037366
0.507156 0.3216 0.00151
0.658782 0.30386 0.002655
0.800252 0.273646 0.034369
0.927876 0.219311 0.081335
0.990008 0.114956 0.118692
0.983914 0.027155 0.134254
0.983392 0.027155 0.134254
0.982978 0.027155 0.134255
0.983184 0.027155 0.134255
0 0.436569 0.12254
0 0.501626 0.100191
0 0.50321 0.080862
0 0.488867 0.067642
0 0.477902 0.059935
0.105562 0.467759 0.044685
0.323735 0.458516 0.026592
0.483946 0.452976 0.002202
0.640814 0.439331 0
0.785307 0.416019 0.000181
0.91399 0.376624 0.011575
0.997859 0.308249 0.065826
0.995373 0.218505 0.096187
0.989235 0.098972 0.12192
0.983766 0.027155 0.134254
0.984057 0.027155 0.134254
0 0.564578 0.105096
0 0.630551 0.061485
0 0.637814 0.034332
0 0.625522 0.026281
