site/assets/luts/freshluts--0000675-sad-cinestylelut.cube
# LUTr-Schema-Version: 2
# LUTr-ID: freshluts--0000675-sad-cinestylelut
# LUTr-Title: SAD Cinestyle(LUT)
# LUTr-Collection: Fresh LUTs
# LUTr-Collection-ID: freshluts-community
# LUTr-Source: https://freshluts.com
# LUTr-Retrieved: 2026-07-27
# LUTr-Source-File: submissions-raw/freshluts/cubes/675__SAD.HOPE_28.00068.cube
# LUTr-Source-Format: CUBE
# LUTr-Source-SHA256: 7a1da6d19289317ade10c63c160e71521f2c7bd3be81e0082298d22d36891871
# LUTr-License: CC0-1.0
# LUTr-License-URL: https://freshluts.com/termsandconditions
# LUTr-License-Basis: site-terms
# LUTr-Transform-Class: creative-look
# LUTr-Tags: creative, freshluts, community, cube, magenta, low-key, canon-cinestyle
# LUTr-Input-Color-Space: canon-cinestyle
# LUTr-Input-Gamut: rec709
# LUTr-Input-Transfer: canon-cinestyle
# LUTr-Output-Color-Space: srgb
# LUTr-Output-Gamut: rec709
# LUTr-Output-Transfer: srgb
# LUTr-Color-Space-Confidence: inferred-from-source-label
# LUTr-Domain-Normalized: true
# LUTr-Shaper: none
# LUTr-Original-Grid: 33x33x33
# LUTr-Conversion-Grid: 33x33x33
# LUTr-Conversion-Interpolation: none
# LUTr-Conversion-Method: Metadata normalization; numeric LUT samples preserved
# LUTr-Conversion-Tool: LUTr scripts/convert-all-to-cube.mjs 2.0.0
# LUTr-Conversion-Date: 2026-07-28
# LUTr-Asset-URL: https://freshluts.com/luts/675
# LUTr-Author: lvannoeun@gmail.com
# LUTr-Author-URL: https://freshluts.com/users/57563
# LUTr-Attribution: lvannoeun@gmail.com via Fresh LUTs
# LUTr-Source-Labels: gamma=Canon Cinestyle; color=Magenta; key=Low Key; style=Cinematic/Dark
# LUTr-Note: Preserve this metadata and the upstream license notices when redistributing.
TITLE "SAD Cinestyle(LUT)"
LUT_3D_SIZE 33
DOMAIN_MIN 0 0 0
DOMAIN_MAX 1 1 1
0.0465095 0.00813306 0.0597391
0.046479 0.00820935 0.059617
0.0465095 0.0075227 0.0585641
0.0465553 0.00666819 0.0574655
0.0466468 0.00523384 0.0557565
0.0471199 0.0031281 0.0532387
0.0647746 0 0.0483101
0.107683 0 0.04477
0.147372 0 0.0424811
0.185397 0 0.040589
0.222446 0 0.0390784
0.25864 0 0.0378576
0.29427 0 0.0368048
0.329686 0 0.0360266
0.364904 0 0.0355383
0.399619 0 0.03505
0.434073 0 0.0347448
0.470283 0 0.0345006
0.50692 0 0.0343786
0.544915 0 0.0345312
0.584955 0 0.0348363
0.625452 0 0.0351263
0.665644 0 0.0355383
0.705699 0 0.0361028
0.745632 0 0.0368963
0.785306 0 0.0376135
0.824704 0 0.0383917
0.864057 0 0.0392615
0.903471 0 0.0403754
0.915557 0 0.0406043
0.915343 0 0.0403143
0.915129 0 0.0400244
0.9149 0 0.0397192
0.043946 0.0340734 0.0649577
0.0439002 0.0345769 0.0647288
0.043946 0.0340734 0.0637217
0.0440528 0.0330053 0.0623789
0.0442054 0.0313573 0.0605325
0.0470741 0.0286564 0.0577249
0.071931 0.0241703 0.0529793
0.114565 0.0216373 0.0498665
0.153933 0.0198062 0.0476234
0.191684 0.0181888 0.0458076
0.228656 0.0168917 0.0443275
0.26482 0.0157778 0.0431373
0.300587 0.014847 0.0421759
0.335912 0.0141604 0.0415503
0.371115 0.0135195 0.041001
0.405661 0.0129091 0.0405432
0.440299 0.0123445 0.0401923
0.476692 0.011841 0.0399634
0.513649 0.0115053 0.0400244
0.55172 0.0110933 0.0401617
0.592004 0.0107271 0.0403601
0.632517 0.0103304 0.0406653
0.672786 0.0100557 0.0412299
0.712917 0.00968948 0.0419165
0.752773 0.00918593 0.0426184
0.792508 0.00854505 0.0433509
0.83209 0.00798047 0.0442359
0.871534 0.00721752 0.0452277
0.910872 0.00634775 0.0464179
0.9196 0.00503548 0.0464485
0.919493 0.00366217 0.0461738
0.919387 0.00228885 0.0459144
0.91928 0.000915541 0.0456397
0.0408484 0.0650492 0.0690623
0.0408179 0.0654154 0.0686809
0.0408789 0.0648508 0.0675975
0.0409857 0.0638437 0.0661784
0.0411688 0.0620584 0.0642405
0.0473487 0.0590524 0.0612192
0.0778363 0.0545357 0.0567788
0.119646 0.0514382 0.0537881
0.158816 0.049073 0.0515908
0.196384 0.0472267 0.049897
0.233249 0.0454871 0.0485389
0.269474 0.0442359 0.0475471
0.305028 0.0429541 0.0467384
0.340429 0.0418097 0.0460517
0.375494 0.0406958 0.0455177
0.41001 0.0397345 0.0451362
0.444999 0.0389715 0.0449378
0.481514 0.0382239 0.0448615
0.51841 0.0375372 0.0449378
0.556619 0.0368963 0.0450599
0.597116 0.0363928 0.0453193
0.637598 0.035996 0.0457771
0.677958 0.0357977 0.0464485
0.718059 0.035462 0.0470893
0.757855 0.0352026 0.0477913
0.797574 0.0350958 0.048661
0.837324 0.0350652 0.0497139
0.876829 0.03505 0.050782
0.916091 0.0350652 0.0518654
0.921599 0.033875 0.0518502
0.921569 0.0323644 0.0516365
0.921523 0.0308385 0.0514382
0.921477 0.0291905 0.0512093
0.0374762 0.0964065 0.0724498
0.0374456 0.0966659 0.071931
0.0375219 0.0959335 0.0707866
0.037644 0.0948959 0.0693523
0.0378271 0.0932174 0.0674296
0.0478828 0.0899367 0.0641794
0.0825055 0.0854658 0.0597848
0.123812 0.0825208 0.0569467
0.162631 0.0802319 0.0548562
0.200153 0.0783093 0.0532387
0.236942 0.0768444 0.0520485
0.27303 0.0755169 0.0511177
0.30869 0.0742962 0.0502937
0.343954 0.073167 0.0496529
0.378958 0.0720684 0.0491646
0.413413 0.0711681 0.0488746
0.448722 0.0704967 0.0487831
0.4851 0.0696574 0.0487678
0.522103 0.0690166 0.0488136
0.560418 0.0682536 0.0489509
0.601099 0.0680095 0.0493935
0.641596 0.0676738 0.0499428
0.681865 0.0673686 0.0505531
0.721843 0.0670024 0.051194
0.761822 0.0668345 0.0520027
0.801633 0.0668193 0.0529946
0.841215 0.0667582 0.0540627
0.88069 0.0666972 0.0551003
0.920043 0.0667124 0.0562142
0.922316 0.0652476 0.0561074
0.922316 0.0638437 0.0559396
0.922301 0.0621653 0.0557412
0.922271 0.0606394 0.0555428
0.0338903 0.128023 0.075227
0.033875 0.128161 0.0745861
0.0339513 0.127443 0.0734417
0.0340734 0.126421 0.0720378
0.0342718 0.12462 0.0699931
0.0487831 0.120989 0.0664073
0.0864729 0.11667 0.062211
0.127398 0.113848 0.0595254
0.166018 0.111711 0.0576181
0.203494 0.109957 0.0561685
0.240146 0.108461 0.0550088
0.276081 0.107073 0.0540627
0.311604 0.105882 0.0532998
0.346822 0.104814 0.0527504
0.381949 0.103822 0.0523995
0.416342 0.102983 0.0521859
0.451637 0.102129 0.0520485
0.488029 0.101396 0.0520333
0.525032 0.100633 0.0521248
0.563653 0.100237 0.0524147
0.604517 0.0998245 0.0529335
0.644877 0.0995346 0.0534371
0.685054 0.0990921 0.0540322
0.725139 0.0989242 0.0547646
0.765148 0.0988479 0.0557259
0.804944 0.0988022 0.0567025
0.844434 0.0986648 0.0576944
0.883848 0.0986343 0.0588083
0.922469 0.0987259 0.060029
0.922484 0.0971695 0.0598611
0.922499 0.095613 0.0596933
0.922515 0.0940566 0.0595254
0.922499 0.0925154 0.0593423
0.0301366 0.159854 0.0777752
0.0301213 0.159991 0.0771191
0.0301823 0.159396 0.0760052
0.0303349 0.158129 0.0744793
0.0305791 0.156115 0.0722362
0.0500954 0.152178 0.0683604
0.0901045 0.148089 0.0643626
0.130602 0.14548 0.0618906
0.169024 0.143465 0.0601053
0.206332 0.141833 0.0586709
0.242863 0.1402 0.057496
0.278706 0.138842 0.0565805
0.314153 0.137713 0.0558938
0.349477 0.136736 0.0554513
0.384497 0.135805 0.0551461
0.418662 0.134936 0.0549325
0.454246 0.134173 0.0548104
0.4907 0.133318 0.0547951
0.52784 0.132784 0.0549935
0.566629 0.132342 0.0554055
0.607462 0.13196 0.055848
0.647761 0.131533 0.0563668
0.687999 0.131319 0.0570993
0.728084 0.131106 0.0579385
0.767941 0.131029 0.0589151
0.807706 0.130907 0.0598459
0.847257 0.1308 0.0608988
0.886748 0.130846 0.0621042
0.922087 0.130938 0.0633555
0.922118 0.129381 0.0632334
0.922148 0.127947 0.0631113
0.922164 0.126253 0.0629282
0.922179 0.124697 0.0627756
0.026215 0.191989 0.0802625
0.026215 0.191989 0.0794842
0.0263066 0.191318 0.0782788
0.0264439 0.190082 0.0766613
0.0267338 0.187732 0.0742351
0.0517128 0.183551 0.0701152
0.0932937 0.179797 0.0664378
0.133379 0.177356 0.0641337
0.171725 0.175311 0.0623178
0.208713 0.173678 0.0608988
0.245167 0.172091 0.0597543
0.280995 0.171023 0.0589914
0.316457 0.169833 0.0583505
0.351614 0.168856 0.057908
0.386526 0.167865 0.057557
0.420829 0.166995 0.0573281
0.456504 0.166262 0.0572366
0.493019 0.165667 0.0573892
0.530205 0.165057 0.0576181
0.5691 0.164538 0.057969
0.609873 0.164141 0.0583963
0.650339 0.163806 0.0590066
0.6907 0.163714 0.0598764
0.730617 0.163455 0.0606699
0.770367 0.163287 0.0615549
0.810056 0.16321 0.0625467
0.84979 0.163256 0.0637522
0.889265 0.163333 0.0649882
0.921431 0.163119 0.06598
0.921477 0.161685 0.0658732
0.921508 0.160128 0.0657359
0.921538 0.158572 0.0656138
0.921584 0.156878 0.0654765
0.0221714 0.224353 0.0824903
0.0221866 0.224186 0.0815442
0.0222782 0.223453 0.080293
0.022446 0.222019 0.0786145
0.0227665 0.219577 0.076112
0.0537118 0.215244 0.0718242
0.0961776 0.211704 0.0683452
0.135836 0.209277 0.0660716
0.173968 0.207263 0.0643015
0.211002 0.205676 0.0629282
0.247272 0.204395 0.0619669
0.28307 0.203235 0.0612345
0.318425 0.20206 0.0606088
0.353552 0.201038 0.0601358
0.388479 0.200168 0.0598001
0.422614 0.199313 0.0596017
0.458549 0.198642 0.0596933
0.494987 0.198077 0.0598764
0.532204 0.197391 0.0600595
0.571267 0.196857 0.0603799
0.612116 0.196521 0.0608835
0.652552 0.196323 0.0616617
0.692821 0.196109 0.0624094
0.73286 0.19585 0.0632181
0.772656 0.19585 0.0641642
0.812345 0.195712 0.0652018
0.851926 0.195956 0.0664988
0.891432 0.195941 0.0676432
0.920516 0.195453 0.0685283
0.920562 0.194018 0.0684215
0.920607 0.192447 0.0682994
0.920653 0.19089 0.0681773
0.920699 0.189197 0.06804
0.0180056 0.25655 0.0843671
0.0180209 0.256382 0.0834058
0.0181277 0.255619 0.0821241
0.0182956 0.254261 0.0805219
0.0187533 0.251545 0.07776
0.0560922 0.246998 0.0732586
0.0988022 0.243641 0.0699779
0.138125 0.241291 0.0677806
0.175982 0.239506 0.0661021
0.213046 0.237949 0.0648814
0.24918 0.236713 0.0639963
0.284855 0.235477 0.0631876
0.32018 0.234455 0.0625925
0.355215 0.233448 0.0621347
0.390158 0.232578 0.0619516
0.424201 0.231815 0.0618448
0.460197 0.231144 0.0619364
0.496651 0.230472 0.0620127
0.534127 0.229923 0.0622263
0.573388 0.229496 0.0626688
0.614221 0.229099 0.0632486
0.654597 0.228855 0.0639811
0.694713 0.228641 0.0647135
0.734691 0.228428 0.0655833
0.774701 0.228595 0.0667124
0.814389 0.22858 0.0677653
0.853819 0.228504 0.0688945
0.893202 0.22855 0.0700999
0.919249 0.228077 0.0708934
0.91931 0.226505 0.0707866
0.919371 0.224933 0.0706645
0.919432 0.223362 0.0705577
0.919493 0.22179 0.0704356
0.0137179 0.288914 0.0860151
0.0137331 0.288808 0.0850996
0.0138247 0.28806 0.0838331
0.0140078 0.286625 0.0821546
0.0165408 0.283406 0.0789502
0.0590982 0.278904 0.0743725
0.101198 0.2757 0.0713512
0.140291 0.273686 0.0693523
0.177844 0.271885 0.0678111
0.21471 0.270375 0.0666514
0.250858 0.269062 0.0656901
0.286366 0.267842 0.0649271
0.321538 0.26685 0.0643778
0.356741 0.26598 0.0640574
0.391577 0.265187 0.0639353
0.425589 0.264424 0.0638437
0.461631 0.26363 0.0638437
0.498207 0.262959 0.0639506
0.535714 0.262516 0.0642405
0.575357 0.262226 0.0648356
0.616037 0.261784 0.0653849
0.656397 0.261585 0.066041
0.696483 0.261387 0.0668345
0.736431 0.261341 0.0678416
0.776333 0.261311 0.0689097
0.815915 0.261265 0.0699626
0.855543 0.261204 0.0710918
0.894804 0.26128 0.0723735
0.917998 0.26096 0.0732891
0.918044 0.259495 0.0731823
0.918105 0.257908 0.0730602
0.918181 0.256184 0.0729381
0.918242 0.254597 0.0728313
0.00924697 0.321508 0.0876173
0.00926223 0.321401 0.0866865
0.00936904 0.320592 0.0853742
0.0096437 0.31899 0.0835431
0.0158999 0.315389 0.0798657
0.0619059 0.310872 0.0753643
0.103227 0.308125 0.0726787
0.142077 0.306127 0.0708019
0.179675 0.304356 0.069276
0.216236 0.302937 0.068101
0.252186 0.301503 0.0671397
0.287694 0.300343 0.066453
0.322988 0.299489 0.066041
0.358053 0.298665 0.0657816
0.39263 0.29778 0.065568
0.426795 0.296986 0.0654765
0.463081 0.296376 0.0655375
0.499672 0.295796 0.0657359
0.537331 0.295308 0.0661326
0.577035 0.294911 0.0666056
0.61767 0.294606 0.0672007
0.657954 0.294316 0.0679179
0.698054 0.294224 0.0688029
0.738094 0.294179 0.0698253
0.777783 0.294072 0.0708324
0.817365 0.294072 0.0719615
0.857069 0.294148 0.073228
0.896483 0.294438 0.0745861
0.916472 0.29366 0.0752117
0.916548 0.29221 0.0751202
0.916625 0.290623 0.0750286
0.916701 0.289036 0.0749371
0.916777 0.287327 0.0748455
0.00450141 0.354269 0.0892348
0.00454719 0.354025 0.0881971
0.00468452 0.353155 0.0868086
0.00588998 0.351278 0.0847334
0.0177462 0.347402 0.0807507
0.0643473 0.343038 0.0764935
0.105119 0.340597 0.0739757
0.14374 0.338567 0.0720989
0.180972 0.336843 0.0706035
0.217487 0.335439 0.0694438
0.253452 0.334142 0.0686046
0.288899 0.333074 0.0679942
0.324056 0.33225 0.0676127
0.358999 0.33135 0.0672618
0.393622 0.330449 0.0670329
0.428016 0.329702 0.0669718
0.464302 0.329198 0.0671397
0.500893 0.328695 0.0674296
0.538643 0.328115 0.0677348
0.578485 0.327703 0.0681926
0.619028 0.327428 0.0688029
0.659525 0.327306 0.0696574
0.699489 0.327214 0.0705577
0.739406 0.327016 0.071458
0.779095 0.326925 0.0724651
0.818738 0.327062 0.0737011
0.858259 0.327321 0.0750439
0.897704 0.327367 0.0762798
0.914809 0.326436 0.0768139
0.914885 0.324987 0.0767376
0.914961 0.3234 0.0766613
0.915038 0.321813 0.076585
0.915129 0.320089 0.0765087
0.000946059 0.387076 0.0907301
0.00103761 0.386786 0.0896468
0.00114443 0.385855 0.0881971
0.00360113 0.383734 0.085893
0.0207065 0.379477 0.0816205
0.0662547 0.375525 0.0776684
0.106798 0.372961 0.0751507
0.145037 0.370962 0.0733043
0.182071 0.369451 0.0718853
0.218616 0.368002 0.0708171
0.254536 0.366949 0.0700847
0.289937 0.365881 0.0694896
0.325002 0.364981 0.0690166
0.359991 0.364065 0.0686809
0.394476 0.363226 0.0685283
0.428992 0.362585 0.068574
0.465187 0.362112 0.0687572
0.5019 0.361425 0.068986
0.539712 0.360983 0.0693065
0.579705 0.360601 0.0698253
0.620264 0.360449 0.0705425
0.660639 0.360311 0.071397
0.700664 0.360159 0.072221
0.740581 0.359945 0.0731212
0.780301 0.359945 0.0742351
0.820005 0.360174 0.0755474
0.85948 0.360311 0.0767681
0.898711 0.360357 0.0780346
0.912886 0.359319 0.0784466
0.912978 0.357855 0.0783703
0.913069 0.356268 0.078294
0.913161 0.354681 0.0782177
0.913252 0.353079 0.0781415
0 0.419791 0.0920577
0 0.419516 0.0909743
0 0.418585 0.0895552
0.00337224 0.416129 0.0869154
0.0231785 0.411765 0.082414
0.0679026 0.407996 0.0786145
0.107973 0.405539 0.0762188
0.146258 0.403616 0.0744488
0.183246 0.402106 0.0731518
0.219623 0.40087 0.0721447
0.255467 0.399619 0.0713817
0.290852 0.39852 0.0707408
0.325811 0.397635 0.0702983
0.360784 0.396796 0.0700236
0.395239 0.396078 0.0700084
0.429786 0.395468 0.0700694
0.466056 0.394888 0.070161
0.50277 0.394171 0.0703593
0.540688 0.39379 0.0707561
0.580987 0.393576 0.0714122
0.621485 0.393408 0.0721141
0.661738 0.393149 0.0728771
0.701595 0.393011 0.0737316
0.741543 0.393088 0.0747845
0.781384 0.393179 0.0759899
0.821012 0.393072 0.0771038
0.860349 0.39321 0.0783398
0.899672 0.393347 0.0796979
0.910887 0.39237 0.0800641
0.910994 0.390768 0.0799878
0.91107 0.389303 0.0799115
0.911177 0.387579 0.0798352
0.911284 0.385977 0.0797589
0 0.452735 0.0932784
0 0.452476 0.0922255
0 0.451347 0.0907301
0.00376898 0.4486 0.0877089
0.0252995 0.444007 0.0831006
0.069337 0.440452 0.0794995
0.109163 0.438117 0.0772259
0.147265 0.436362 0.0755932
0.184314 0.434867 0.074342
0.220478 0.4336 0.0733196
0.256184 0.432456 0.0725109
0.291508 0.431388 0.0719158
0.326513 0.430564 0.0715343
0.361456 0.429725 0.0713817
0.395819 0.429114 0.0713359
0.430564 0.428412 0.0713054
0.466835 0.42771 0.0714122
0.503532 0.427207 0.0717021
0.541711 0.426902 0.0721752
0.582055 0.426657 0.0728161
0.622507 0.426291 0.0734569
0.662593 0.4262 0.0742504
0.702602 0.425986 0.0751812
0.742596 0.4262 0.0763561
0.782177 0.426154 0.0774243
0.821866 0.426169 0.0785382
0.86128 0.426261 0.0798657
0.900664 0.426535 0.0813458
0.908919 0.425406 0.0815747
0.908995 0.423941 0.0815137
0.909102 0.422339 0.0814374
0.909194 0.420722 0.0813764
0.9093 0.418982 0.0812848
0 0.485664 0.0943923
0 0.485313 0.0932326
0 0.484001 0.0915694
0.0037995 0.480919 0.0882124
0.0273289 0.476524 0.08365
0.0707256 0.473228 0.0803235
0.110323 0.471 0.0781262
0.148196 0.469276 0.076524
0.185092 0.46772 0.075227
0.221195 0.466361 0.0742351
0.25684 0.465278 0.0735027
0.292073 0.464286 0.0729686
0.327138 0.463523 0.0726635
0.361975 0.462791 0.0724804
0.39617 0.461967 0.0723735
0.431159 0.46128 0.0723888
0.467414 0.460792 0.0725872
0.504417 0.460487 0.0730297
0.542489 0.459968 0.0734417
0.58294 0.459617 0.0740063
0.623362 0.459403 0.0746929
0.663554 0.459327 0.0755932
0.703593 0.459342 0.076585
0.743297 0.45922 0.0775921
0.782971 0.459327 0.0786908
0.822416 0.459266 0.079881
0.862104 0.459648 0.0813001
0.901305 0.459754 0.0826581
0.906737 0.458518 0.0827955
0.906844 0.456916 0.0827344
0.90695 0.455314 0.0826886
0.907057 0.453712 0.0826276
0.907179 0.45211 0.0825666
0 0.5187 0.0952316
0 0.51812 0.0939803
0 0.516869 0.0922408
0.00347906 0.513451 0.0885634
0.0291447 0.509102 0.0841688
0.0721752 0.506004 0.0810101
0.111437 0.503792 0.0788434
0.149004 0.502037 0.0772259
0.185733 0.500526 0.0759747
0.22182 0.499367 0.0750286
0.257389 0.498405 0.074403
0.292699 0.497475 0.07393
0.327626 0.496513 0.0735637
0.362402 0.495705 0.0733196
0.396567 0.495033 0.0732128
0.431632 0.494423 0.0733043
0.468025 0.494011 0.0737011
0.504784 0.493523 0.073991
0.543069 0.493141 0.074403
0.58352 0.492836 0.0749828
0.623926 0.492561 0.0757305
0.664118 0.492683 0.0767376
0.704173 0.492424 0.0776074
0.743999 0.492424 0.0786145
0.783566 0.492409 0.0797284
0.823224 0.492729 0.0811475
0.862577 0.49279 0.0824445
0.90193 0.492866 0.083772
0.904448 0.491493 0.0838178
0.904555 0.490028 0.083772
0.904662 0.488426 0.0837262
0.904768 0.486824 0.0836805
0.904891 0.485222 0.0836194
0 0.551598 0.0960708
0 0.55111 0.094789
0 0.549813 0.0930037
0.00271611 0.546029 0.0890974
0.0308995 0.541726 0.0847181
0.0731212 0.538689 0.0816358
0.112154 0.536568 0.0795453
0.149615 0.53489 0.0780041
0.186236 0.533471 0.0768292
0.222324 0.532403 0.0759899
0.257923 0.531411 0.075349
0.293034 0.530419 0.0748302
0.327947 0.52961 0.074464
0.362615 0.528847 0.0742809
0.396735 0.528069 0.0742046
0.432059 0.527687 0.0744945
0.468299 0.527047 0.0746777
0.505211 0.526543 0.0749828
0.543587 0.526207 0.0754253
0.584436 0.526131 0.0762341
0.624628 0.525979 0.0769665
0.664668 0.52578 0.0777905
0.704555 0.525704 0.0787213
0.744442 0.525689 0.0798199
0.784207 0.525658 0.0810254
0.823682 0.525902 0.0822766
0.862959 0.526085 0.0835584
0.901839 0.526162 0.0848859
0.901946 0.524681 0.0848402
0.902068 0.523079 0.0847791
0.90219 0.521477 0.0847334
0.902312 0.519875 0.0846876
0.902434 0.518257 0.0846418
0 0.584588 0.096849
0 0.58407 0.0955367
0 0.582773 0.0937667
0.00143435 0.578561 0.0894331
0.0322271 0.574334 0.0851453
0.0738842 0.571481 0.0822309
0.112734 0.569436 0.0802167
0.15021 0.567895 0.0787976
0.186908 0.566705 0.0776989
0.222843 0.565438 0.0767987
0.258076 0.564401 0.0761425
0.293187 0.563439 0.0756237
0.328115 0.562661 0.0753033
0.362905 0.562081 0.075288
0.396857 0.561379 0.0753033
0.432319 0.560754 0.0753643
0.468544 0.560128 0.0755474
0.505531 0.559655 0.0758831
0.544244 0.559487 0.0764935
0.584939 0.559289 0.0771954
0.625101 0.559121 0.0779278
0.665217 0.558953 0.0787671
0.705089 0.558907 0.0797284
0.744884 0.55903 0.0809644
0.784497 0.55903 0.0821088
0.824033 0.559106 0.0832837
0.863294 0.559289 0.0845808
0.899397 0.559487 0.0860304
0.899504 0.557992 0.0859846
0.899611 0.556374 0.0859236
0.899733 0.554757 0.0858625
0.899855 0.553124 0.0858015
0.899962 0.551507 0.0857557
0 0.617746 0.0976577
0 0.617227 0.0963455
0 0.615671 0.0943465
0.0000457771 0.611124 0.0896773
0.0335851 0.607034 0.0855116
0.0746929 0.604334 0.0827497
0.113359 0.602487 0.0809033
0.150774 0.600931 0.0794842
0.187213 0.599557 0.0783551
0.223041 0.598444 0.0774701
0.258366 0.597452 0.0768292
0.293339 0.596521 0.0763714
0.328374 0.595895 0.0762036
0.36289 0.595239 0.076112
0.396948 0.594491 0.0760662
0.432502 0.593881 0.0761425
0.468681 0.593271 0.0763714
0.505882 0.59295 0.0768292
0.544762 0.592752 0.0774243
0.585351 0.592477 0.0780346
0.625483 0.592325 0.0787823
0.665675 0.592294 0.0797589
0.705455 0.59234 0.080827
0.745205 0.592279 0.0818799
0.78471 0.592264 0.0830243
0.824247 0.592416 0.0842908
0.863661 0.592706 0.0856947
0.896834 0.592706 0.0869459
0.896956 0.591226 0.0869154
0.897078 0.589624 0.0868696
0.8972 0.588144 0.0868391
0.897337 0.586404 0.0867933
0.897459 0.584787 0.0867475
0 0.65069 0.0982528
0 0.650095 0.0968643
0 0.648417 0.0947433
0 0.643687 0.0899214
0.0352483 0.639841 0.0858015
0.0755627 0.6374 0.0832837
0.113924 0.635538 0.0814374
0.151019 0.633982 0.0800183
0.187411 0.632593 0.0788891
0.223072 0.631556 0.0780652
0.258534 0.630533 0.0775158
0.293645 0.629862 0.0771801
0.328328 0.628992 0.0769207
0.362951 0.628244 0.0767681
0.396841 0.627649 0.0767376
0.432471 0.6271 0.0768749
0.468803 0.626688 0.0772717
0.505943 0.626322 0.0777295
0.544839 0.625879 0.0782025
0.585473 0.625757 0.0788434
0.625681 0.625559 0.0796826
0.665858 0.625666 0.0806744
0.705715 0.625483 0.0816358
0.745403 0.625528 0.0826886
0.784909 0.625574 0.0838636
0.824445 0.625849 0.0852369
0.863859 0.626093 0.0866102
0.894163 0.625879 0.0876631
0.894286 0.624399 0.0876326
0.894408 0.622782 0.087602
0.894545 0.621164 0.0875715
0.894667 0.619562 0.0875257
0.894804 0.617945 0.0874952
0 0.683757 0.0986191
0 0.68307 0.0971542
0 0.681346 0.0949722
0 0.676478 0.090013
0.0365911 0.672709 0.0860609
0.0762036 0.670253 0.0835279
0.114305 0.668421 0.0817121
0.151278 0.666911 0.0803235
0.187579 0.665721 0.0792706
0.223239 0.664652 0.0785229
0.25864 0.663813 0.0780041
0.293477 0.662943 0.0775921
0.328206 0.662181 0.0773022
0.362799 0.661463 0.0771649
0.396612 0.660777 0.0771801
0.432441 0.66038 0.0774548
0.468757 0.660014 0.0777752
0.506035 0.659434 0.0781415
0.545129 0.659159 0.0786297
0.585672 0.659007 0.0793927
0.625986 0.659022 0.0803082
0.665949 0.658885 0.0812085
0.705776 0.658824 0.0821698
0.745586 0.658915 0.0832837
0.785153 0.659098 0.0846113
0.824552 0.659266 0.0859083
0.863844 0.659312 0.0872206
0.891402 0.658946 0.0881666
0.891524 0.657465 0.0881514
0.891661 0.655985 0.0881361
0.891783 0.654368 0.0881056
0.89192 0.65275 0.0880903
0.892058 0.651148 0.0880751
0 0.716747 0.0989242
0 0.715984 0.0973678
0 0.714015 0.0949874
0.000732433 0.709377 0.0901045
0.0370031 0.705592 0.0861677
0.0765393 0.703319 0.0837873
0.114473 0.701518 0.0820325
0.151461 0.700023 0.0806592
0.187701 0.699001 0.0798505
0.223346 0.697948 0.079057
0.258381 0.697047 0.0784772
0.293309 0.696147 0.0780499
0.328008 0.695277 0.0777905
0.362585 0.694682 0.07776
0.396506 0.694301 0.0779431
0.432319 0.693736 0.0780652
0.468666 0.693156 0.0783093
0.506035 0.692714 0.0786908
0.545357 0.692531 0.0793011
0.585946 0.69247 0.0801251
0.626017 0.692226 0.0809186
0.66601 0.69221 0.0818036
0.705791 0.692195 0.0828107
0.74551 0.692317 0.0840314
0.785107 0.692363 0.0852369
0.82446 0.692485 0.0865034
0.863752 0.692699 0.0878309
0.888472 0.692256 0.0887312
0.888609 0.690761 0.0887007
0.888762 0.689143 0.0886702
0.888884 0.687663 0.0886397
0.889052 0.685908 0.0886091
0.889204 0.684276 0.0885634
0 0.749981 0.0993362
0 0.749233 0.0978103
0 0.746899 0.0950637
0.00341802 0.742199 0.0902419
0.0373693 0.738445 0.0863355
0.0769055 0.736217 0.0840314
0.114672 0.734554 0.0823682
0.15172 0.733425 0.0812085
0.187655 0.732189 0.0802167
0.223194 0.731044 0.0794232
0.258167 0.730144 0.0788739
0.29305 0.729274 0.0784772
0.327733 0.728634 0.078294
0.362234 0.728161 0.0783856
0.396139 0.727443 0.0784009
0.432166 0.726879 0.0785382
0.468482 0.726452 0.0787976
0.505959 0.72607 0.0792096
0.545464 0.725902 0.079942
0.585901 0.725689 0.0806439
0.626062 0.725567 0.0814374
0.665965 0.72549 0.0823835
0.705791 0.725612 0.0835279
0.745464 0.72575 0.0846571
0.78497 0.72575 0.0858167
0.824384 0.725856 0.087068
0.863645 0.726101 0.0885634
0.885557 0.725536 0.0893568
0.885695 0.724041 0.0893263
0.885817 0.72256 0.0892958
0.885954 0.720928 0.0892653
0.886091 0.71931 0.08925
0.886229 0.717678 0.0892195
0 0.783307 0.0997177
0 0.782284 0.0979477
0 0.779675 0.0949264
0.00575265 0.775128 0.0902571
0.0375677 0.771542 0.0865034
0.0770886 0.769421 0.0842756
0.11487 0.767956 0.0827955
0.151324 0.766567 0.081529
0.187335 0.765286 0.0805066
0.222782 0.764324 0.0797894
0.257939 0.76347 0.0792554
0.292897 0.762829 0.0790723
0.327352 0.762142 0.0788739
0.361685 0.761456 0.0787518
0.395819 0.760769 0.0787671
0.431815 0.760204 0.0789197
0.46836 0.759854 0.0793774
0.505745 0.759518 0.0798352
