site/assets/luts/freshluts--0000987-urban-square.cube
# LUTr-Schema-Version: 2
# LUTr-ID: freshluts--0000987-urban-square
# LUTr-Title: Urban Square
# LUTr-Collection: Fresh LUTs
# LUTr-Collection-ID: freshluts-community
# LUTr-Source: https://freshluts.com
# LUTr-Retrieved: 2026-07-27
# LUTr-Source-File: submissions-raw/freshluts/cubes/987__Urban_Square_-_2.cube
# LUTr-Source-Format: CUBE
# LUTr-Source-SHA256: d74f3362a4652cd30798a4b443c0b03d45fd84b103828037827782859787150f
# LUTr-License: CC0-1.0
# LUTr-License-URL: https://freshluts.com/termsandconditions
# LUTr-License-Basis: site-terms
# LUTr-Transform-Class: creative-look
# LUTr-Tags: creative, freshluts, community, cube, high-contrast, high-key, rec709, assumed-input
# LUTr-Input-Color-Space: rec709
# LUTr-Input-Gamut: rec709
# LUTr-Input-Transfer: rec709
# LUTr-Output-Color-Space: srgb
# LUTr-Output-Gamut: rec709
# LUTr-Output-Transfer: srgb
# LUTr-Color-Space-Confidence: assumed-display-referred
# LUTr-Domain-Normalized: true
# LUTr-Shaper: none
# LUTr-Original-Grid: 32x32x32
# LUTr-Conversion-Grid: 32x32x32
# LUTr-Conversion-Interpolation: none
# LUTr-Conversion-Method: Metadata normalization; numeric LUT samples preserved
# LUTr-Conversion-Tool: LUTr scripts/convert-all-to-cube.mjs 2.0.0
# LUTr-Conversion-Date: 2026-07-28
# LUTr-Asset-URL: https://freshluts.com/luts/987
# LUTr-Author: ButterflyBD
# LUTr-Author-URL: https://freshluts.com/users/53416
# LUTr-Attribution: ButterflyBD via Fresh LUTs
# LUTr-Source-Labels: gamma=Other; color=None; key=High Key; style=High contrast; LUTr assumption=input Rec.709 per repository policy
# LUTr-Conversion-Warning: Input Rec.709 is a LUTr catalog assumption requested for this otherwise unspecified Fresh LUT; it is not verified by the upstream asset.
# LUTr-Note: Preserve this metadata and the upstream license notices when redistributing.
# LUTr-Upstream-Comment: Created by: Adobe Photoshop Export Color Lookup Plugin
# LUTr-Upstream-Comment: LUT size
# LUTr-Upstream-Comment: data domain
# LUTr-Upstream-Comment: LUT data points
TITLE "Urban Square"
LUT_3D_SIZE 32
DOMAIN_MIN 0 0 0
DOMAIN_MAX 1 1 1
0 0 0
0.028717 0 0
0.072479 0 0
0.115204 0 0
0.158264 0 0
0.20166 0 0
0.245026 0 0
0.288422 0 0
0.331268 0 0
0.373535 0 0
0.414856 0 0
0.455109 0 0
0.494232 0 0
0.531769 0 0
0.567902 0 0
0.603058 0 0
0.637787 0 0
0.671814 0 0
0.70517 0 0
0.73761 0 0
0.769196 0 0
0.799866 0 0
0.829163 0 0
0.85733 0 0
0.884247 0 0
0.909546 0 0
0.93338 0 0
0.955505 0 0
0.975647 0 0
0.993805 0 0
1 0 0
1 0 0
0 0.04248 0
0.028717 0.04248 0
0.072479 0.04248 0
0.115204 0.04248 0
0.158264 0.04248 0
0.20166 0.04248 0
0.245026 0.04248 0
0.288422 0.04248 0
0.331268 0.04248 0
0.373535 0.04248 0
0.414856 0.04248 0
0.455109 0.04248 0
0.494232 0.04248 0
0.531769 0.04248 0
0.567902 0.04248 0
0.603058 0.04248 0
0.637787 0.04248 0
0.671814 0.04248 0
0.70517 0.04248 0
0.73761 0.04248 0
0.769196 0.04248 0
0.799866 0.04248 0
0.829163 0.04248 0
0.85733 0.04248 0
0.884247 0.04248 0
0.909546 0.04248 0
0.93338 0.04248 0
0.955505 0.04248 0
0.975647 0.04248 0
0.993805 0.04248 0
1 0.04248 0
1 0.04248 0
0 0.083649 0
0.028717 0.083649 0
0.072479 0.083649 0
0.115204 0.083649 0
0.158264 0.083649 0
0.20166 0.083649 0
0.245026 0.083649 0
0.288422 0.083649 0
0.331268 0.083649 0
0.373535 0.083649 0
0.414856 0.083649 0
0.455109 0.083649 0
0.494232 0.083649 0
0.531769 0.083649 0
0.567902 0.083649 0
0.603058 0.083649 0
0.637787 0.083649 0
0.671814 0.083649 0
0.70517 0.083649 0
0.73761 0.083649 0
0.769196 0.083649 0
0.799866 0.083649 0
0.829163 0.083649 0
0.85733 0.083649 0
0.884247 0.083649 0
0.909546 0.083649 0
0.93338 0.083649 0
0.955505 0.083649 0
0.975647 0.083649 0
0.993805 0.083649 0
1 0.083649 0
1 0.083649 0
0 0.125977 0
0.028717 0.125977 0
0.072479 0.125977 0
0.115204 0.125977 0
0.158264 0.125977 0
0.20166 0.125977 0
0.245026 0.125977 0
0.288422 0.125977 0
0.331268 0.125977 0
0.373535 0.125977 0
0.414856 0.125977 0
0.455109 0.125977 0
0.494232 0.125977 0
0.531769 0.125977 0
0.567902 0.125977 0
0.603058 0.125977 0
0.637787 0.125977 0
0.671814 0.125977 0
0.70517 0.125977 0
0.73761 0.125977 0
0.769196 0.125977 0
0.799866 0.125977 0
0.829163 0.125977 0
0.85733 0.125977 0
0.884247 0.125977 0
0.909546 0.125977 0
0.93338 0.125977 0
0.955505 0.125977 0
0.975647 0.125977 0
0.993805 0.125977 0
1 0.125977 0
1 0.125977 0
0 0.170776 0
0.028717 0.170776 0
0.072479 0.170776 0
0.115204 0.170776 0
0.158264 0.170776 0
0.20166 0.170776 0
0.245026 0.170776 0
0.288422 0.170776 0
0.331268 0.170776 0
0.373535 0.170776 0
0.414856 0.170776 0
0.455109 0.170776 0
0.494232 0.170776 0
0.531769 0.170776 0
0.567902 0.170776 0
0.603058 0.170776 0
0.637787 0.170776 0
0.671814 0.170776 0
0.70517 0.170776 0
0.73761 0.170776 0
0.769196 0.170776 0
0.799866 0.170776 0
0.829163 0.170776 0
0.85733 0.170776 0
0.884247 0.170776 0
0.909546 0.170776 0
0.93338 0.170776 0
0.955505 0.170776 0
0.975647 0.170776 0
0.993805 0.170776 0
1 0.170776 0
1 0.170776 0
0 0.217773 0
0.028717 0.217773 0
0.072479 0.217773 0
0.115204 0.217773 0
0.158264 0.217773 0
0.20166 0.217773 0
0.245026 0.217773 0
0.288422 0.217773 0
0.331268 0.217773 0
0.373535 0.217773 0
0.414856 0.217773 0
0.455109 0.217773 0
0.494232 0.217773 0
0.531769 0.217773 0
0.567902 0.217773 0
0.603058 0.217773 0
0.637787 0.217773 0
0.671814 0.217773 0
0.70517 0.217773 0
0.73761 0.217773 0
0.769196 0.217773 0
0.799866 0.217773 0
0.829163 0.217773 0
0.85733 0.217773 0
0.884247 0.217773 0
0.909546 0.217773 0
0.93338 0.217773 0
0.955505 0.217773 0
0.975647 0.217773 0
0.993805 0.217773 0
1 0.217773 0
1 0.217773 0
0 0.264832 0
0.028717 0.264832 0
0.072479 0.264832 0
0.115204 0.264832 0
0.158264 0.264832 0
0.20166 0.264832 0
0.245026 0.264832 0
0.288422 0.264832 0
0.331268 0.264832 0
0.373535 0.264832 0
0.414856 0.264832 0
0.455109 0.264832 0
0.494232 0.264832 0
0.531769 0.264832 0
0.567902 0.264832 0
0.603058 0.264832 0
0.637787 0.264832 0
0.671814 0.264832 0
0.70517 0.264832 0
0.73761 0.264832 0
0.769196 0.264832 0
0.799866 0.264832 0
0.829163 0.264832 0
0.85733 0.264832 0
0.884247 0.264832 0
0.909546 0.264832 0
0.93338 0.264832 0
0.955505 0.264832 0
0.975647 0.264832 0
0.993805 0.264832 0
1 0.264832 0
1 0.264832 0
0 0.309387 0
0.028717 0.309387 0
0.072479 0.309387 0
0.115204 0.309387 0
0.158264 0.309387 0
0.20166 0.309387 0
0.245026 0.309387 0
0.288422 0.309387 0
0.331268 0.309387 0
0.373535 0.309387 0
0.414856 0.309387 0
0.455109 0.309387 0
0.494232 0.309387 0
0.531769 0.309387 0
0.567902 0.309387 0
0.603058 0.309387 0
0.637787 0.309387 0
0.671814 0.309387 0
0.70517 0.309387 0
0.73761 0.309387 0
0.769196 0.309387 0
0.799866 0.309387 0
0.829163 0.309387 0
0.85733 0.309387 0
0.884247 0.309387 0
0.909546 0.309387 0
0.93338 0.309387 0
0.955505 0.309387 0
0.975647 0.309387 0
0.993805 0.309387 0
1 0.309387 0
1 0.309387 0
0 0.349457 0
0.028717 0.349457 0
0.072479 0.349457 0
0.115204 0.349457 0
0.158264 0.349457 0
0.20166 0.349457 0
0.245026 0.349457 0
0.288422 0.349457 0
0.331268 0.349457 0
0.373535 0.349457 0
0.414856 0.349457 0
0.455109 0.349457 0
0.494232 0.349457 0
0.531769 0.349457 0
0.567902 0.349457 0
0.603058 0.349457 0
0.637787 0.349457 0
0.671814 0.349457 0
0.70517 0.349457 0
0.73761 0.349457 0
0.769196 0.349457 0
0.799866 0.349457 0
0.829163 0.349457 0
0.85733 0.349457 0
0.884247 0.349457 0
0.909546 0.349457 0
0.93338 0.349457 0
0.955505 0.349457 0
0.975647 0.349457 0
0.993805 0.349457 0
1 0.349457 0
1 0.349457 0
0 0.383392 0
0.028717 0.383392 0
0.072479 0.383392 0
0.115204 0.383392 0
0.158264 0.383392 0
0.20166 0.383392 0
0.245026 0.383392 0
0.288422 0.383392 0
0.331268 0.383392 0
0.373535 0.383392 0
0.414856 0.383392 0
0.455109 0.383392 0
0.494232 0.383392 0
0.531769 0.383392 0
0.567902 0.383392 0
0.603058 0.383392 0
0.637787 0.383392 0
0.671814 0.383392 0
0.70517 0.383392 0
0.73761 0.383392 0
0.769196 0.383392 0
0.799866 0.383392 0
0.829163 0.383392 0
0.85733 0.383392 0
0.884247 0.383392 0
0.909546 0.383392 0
0.93338 0.383392 0
0.955505 0.383392 0
0.975647 0.383392 0
0.993805 0.383392 0
1 0.383392 0
1 0.383392 0
0 0.412354 0
0.028717 0.412354 0
0.072479 0.412354 0
0.115204 0.412354 0
0.158264 0.412354 0
0.20166 0.412354 0
0.245026 0.412354 0
0.288422 0.412354 0
0.331268 0.412354 0
0.373535 0.412354 0
0.414856 0.412354 0
0.455109 0.412354 0
0.494232 0.412354 0
0.531769 0.412354 0
0.567902 0.412354 0
0.603058 0.412354 0
0.637787 0.412354 0
0.671814 0.412354 0
0.70517 0.412354 0
0.73761 0.412354 0
0.769196 0.412354 0
0.799866 0.412354 0
0.829163 0.412354 0
0.85733 0.412354 0
0.884247 0.412354 0
0.909546 0.412354 0
0.93338 0.412354 0
0.955505 0.412354 0
0.975647 0.412354 0
0.993805 0.412354 0
1 0.412354 0
1 0.412354 0
0 0.438721 0
0.028717 0.438721 0
0.072479 0.438721 0
0.115204 0.438721 0
0.158264 0.438721 0
0.20166 0.438721 0
0.245026 0.438721 0
0.288422 0.438721 0
0.331268 0.438721 0
0.373535 0.438721 0
0.414856 0.438721 0
0.455109 0.438721 0
0.494232 0.438721 0
0.531769 0.438721 0
0.567902 0.438721 0
0.603058 0.438721 0
0.637787 0.438721 0
0.671814 0.438721 0
0.70517 0.438721 0
0.73761 0.438721 0
0.769196 0.438721 0
0.799866 0.438721 0
0.829163 0.438721 0
0.85733 0.438721 0
0.884247 0.438721 0
0.909546 0.438721 0
0.93338 0.438721 0
0.955505 0.438721 0
0.975647 0.438721 0
0.993805 0.438721 0
1 0.438721 0
1 0.438721 0
0 0.464752 0
0.028717 0.464752 0
0.072479 0.464752 0
0.115204 0.464752 0
0.158264 0.464752 0
0.20166 0.464752 0
0.245026 0.464752 0
0.288422 0.464752 0
0.331268 0.464752 0
0.373535 0.464752 0
0.414856 0.464752 0
0.455109 0.464752 0
0.494232 0.464752 0
0.531769 0.464752 0
0.567902 0.464752 0
0.603058 0.464752 0
0.637787 0.464752 0
0.671814 0.464752 0
0.70517 0.464752 0
0.73761 0.464752 0
0.769196 0.464752 0
0.799866 0.464752 0
0.829163 0.464752 0
0.85733 0.464752 0
0.884247 0.464752 0
0.909546 0.464752 0
0.93338 0.464752 0
0.955505 0.464752 0
0.975647 0.464752 0
0.993805 0.464752 0
1 0.464752 0
1 0.464752 0
0 0.491425 0
0.028717 0.491425 0
0.072479 0.491425 0
0.115204 0.491425 0
0.158264 0.491425 0
0.20166 0.491425 0
0.245026 0.491425 0
0.288422 0.491425 0
0.331268 0.491425 0
0.373535 0.491425 0
0.414856 0.491425 0
0.455109 0.491425 0
0.494232 0.491425 0
0.531769 0.491425 0
0.567902 0.491425 0
0.603058 0.491425 0
0.637787 0.491425 0
0.671814 0.491425 0
0.70517 0.491425 0
0.73761 0.491425 0
0.769196 0.491425 0
0.799866 0.491425 0
0.829163 0.491425 0
0.85733 0.491425 0
0.884247 0.491425 0
0.909546 0.491425 0
0.93338 0.491425 0
0.955505 0.491425 0
0.975647 0.491425 0
0.993805 0.491425 0
1 0.491425 0
1 0.491425 0
0 0.518799 0
0.028717 0.518799 0
0.072479 0.518799 0
0.115204 0.518799 0
0.158264 0.518799 0
0.20166 0.518799 0
0.245026 0.518799 0
0.288422 0.518799 0
0.331268 0.518799 0
0.373535 0.518799 0
0.414856 0.518799 0
0.455109 0.518799 0
0.494232 0.518799 0
0.531769 0.518799 0
0.567902 0.518799 0
0.603058 0.518799 0
0.637787 0.518799 0
0.671814 0.518799 0
0.70517 0.518799 0
0.73761 0.518799 0
0.769196 0.518799 0
0.799866 0.518799 0
0.829163 0.518799 0
0.85733 0.518799 0
0.884247 0.518799 0
0.909546 0.518799 0
0.93338 0.518799 0
0.955505 0.518799 0
0.975647 0.518799 0
0.993805 0.518799 0
1 0.518799 0
1 0.518799 0
0 0.547211 0
0.028717 0.547211 0
0.072479 0.547211 0
0.115204 0.547211 0
0.158264 0.547211 0
0.20166 0.547211 0
0.245026 0.547211 0
0.288422 0.547211 0
0.331268 0.547211 0
0.373535 0.547211 0
0.414856 0.547211 0
0.455109 0.547211 0
0.494232 0.547211 0
0.531769 0.547211 0
0.567902 0.547211 0
0.603058 0.547211 0
0.637787 0.547211 0
0.671814 0.547211 0
0.70517 0.547211 0
0.73761 0.547211 0
0.769196 0.547211 0
0.799866 0.547211 0
0.829163 0.547211 0
0.85733 0.547211 0
0.884247 0.547211 0
0.909546 0.547211 0
0.93338 0.547211 0
0.955505 0.547211 0
0.975647 0.547211 0
0.993805 0.547211 0
1 0.547211 0
1 0.547211 0
0 0.576965 0
0.028717 0.576965 0
0.072479 0.576965 0
0.115204 0.576965 0
0.158264 0.576965 0
0.20166 0.576965 0
0.245026 0.576965 0
0.288422 0.576965 0
0.331268 0.576965 0
0.373535 0.576965 0
0.414856 0.576965 0
0.455109 0.576965 0
0.494232 0.576965 0
0.531769 0.576965 0
0.567902 0.576965 0
0.603058 0.576965 0
0.637787 0.576965 0
0.671814 0.576965 0
0.70517 0.576965 0
0.73761 0.576965 0
0.769196 0.576965 0
0.799866 0.576965 0
0.829163 0.576965 0
0.85733 0.576965 0
0.884247 0.576965 0
0.909546 0.576965 0
0.93338 0.576965 0
0.955505 0.576965 0
0.975647 0.576965 0
0.993805 0.576965 0
1 0.576965 0
1 0.576965 0
0 0.607727 0
0.028717 0.607727 0
0.072479 0.607727 0
0.115204 0.607727 0
0.158264 0.607727 0
0.20166 0.607727 0
0.245026 0.607727 0
0.288422 0.607727 0
0.331268 0.607727 0
0.373535 0.607727 0
0.414856 0.607727 0
0.455109 0.607727 0
0.494232 0.607727 0
0.531769 0.607727 0
0.567902 0.607727 0
0.603058 0.607727 0
0.637787 0.607727 0
0.671814 0.607727 0
0.70517 0.607727 0
0.73761 0.607727 0
0.769196 0.607727 0
0.799866 0.607727 0
0.829163 0.607727 0
0.85733 0.607727 0
0.884247 0.607727 0
0.909546 0.607727 0
0.93338 0.607727 0
0.955505 0.607727 0
0.975647 0.607727 0
0.993805 0.607727 0
1 0.607727 0
1 0.607727 0
0 0.639465 0
0.028717 0.639465 0
0.072479 0.639465 0
0.115204 0.639465 0
0.158264 0.639465 0
0.20166 0.639465 0
0.245026 0.639465 0
0.288422 0.639465 0
0.331268 0.639465 0
0.373535 0.639465 0
0.414856 0.639465 0
0.455109 0.639465 0
0.494232 0.639465 0
0.531769 0.639465 0
0.567902 0.639465 0
0.603058 0.639465 0
0.637787 0.639465 0
0.671814 0.639465 0
0.70517 0.639465 0
0.73761 0.639465 0
0.769196 0.639465 0
0.799866 0.639465 0
0.829163 0.639465 0
0.85733 0.639465 0
0.884247 0.639465 0
0.909546 0.639465 0
0.93338 0.639465 0
0.955505 0.639465 0
0.975647 0.639465 0
0.993805 0.639465 0
1 0.639465 0
1 0.639465 0
0 0.671722 0
0.028717 0.671722 0
0.072479 0.671722 0
0.115204 0.671722 0
0.158264 0.671722 0
0.20166 0.671722 0
0.245026 0.671722 0
0.288422 0.671722 0
0.331268 0.671722 0
0.373535 0.671722 0
0.414856 0.671722 0
0.455109 0.671722 0
0.494232 0.671722 0
0.531769 0.671722 0
0.567902 0.671722 0
0.603058 0.671722 0
0.637787 0.671722 0
0.671814 0.671722 0
0.70517 0.671722 0
0.73761 0.671722 0
0.769196 0.671722 0
0.799866 0.671722 0
0.829163 0.671722 0
0.85733 0.671722 0
0.884247 0.671722 0
0.909546 0.671722 0
0.93338 0.671722 0
0.955505 0.671722 0
0.975647 0.671722 0
0.993805 0.671722 0
1 0.671722 0
1 0.671722 0
0 0.704376 0
0.028717 0.704376 0
0.072479 0.704376 0
0.115204 0.704376 0
0.158264 0.704376 0
0.20166 0.704376 0
0.245026 0.704376 0
0.288422 0.704376 0
0.331268 0.704376 0
0.373535 0.704376 0
0.414856 0.704376 0
0.455109 0.704376 0
0.494232 0.704376 0
0.531769 0.704376 0
0.567902 0.704376 0
0.603058 0.704376 0
0.637787 0.704376 0
0.671814 0.704376 0
0.70517 0.704376 0
0.73761 0.704376 0
0.769196 0.704376 0
0.799866 0.704376 0
0.829163 0.704376 0
0.85733 0.704376 0
0.884247 0.704376 0
0.909546 0.704376 0
0.93338 0.704376 0
0.955505 0.704376 0
0.975647 0.704376 0
0.993805 0.704376 0
1 0.704376 0
1 0.704376 0
0 0.737091 0
0.028717 0.737091 0
0.072479 0.737091 0
0.115204 0.737091 0
0.158264 0.737091 0
0.20166 0.737091 0
0.245026 0.737091 0
0.288422 0.737091 0
0.331268 0.737091 0
0.373535 0.737091 0
0.414856 0.737091 0
0.455109 0.737091 0
0.494232 0.737091 0
0.531769 0.737091 0
0.567902 0.737091 0
0.603058 0.737091 0
0.637787 0.737091 0
0.671814 0.737091 0
0.70517 0.737091 0
0.73761 0.737091 0
0.769196 0.737091 0
0.799866 0.737091 0
0.829163 0.737091 0
0.85733 0.737091 0
0.884247 0.737091 0
0.909546 0.737091 0
0.93338 0.737091 0
0.955505 0.737091 0
0.975647 0.737091 0
0.993805 0.737091 0
1 0.737091 0
1 0.737091 0
0 0.769592 0
0.028717 0.769592 0
0.072479 0.769592 0
0.115204 0.769592 0
0.158264 0.769592 0
0.20166 0.769592 0
0.245026 0.769592 0
0.288422 0.769592 0
0.331268 0.769592 0
0.373535 0.769592 0
0.414856 0.769592 0
0.455109 0.769592 0
0.494232 0.769592 0
0.531769 0.769592 0
0.567902 0.769592 0
0.603058 0.769592 0
0.637787 0.769592 0
0.671814 0.769592 0
0.70517 0.769592 0
0.73761 0.769592 0
0.769196 0.769592 0
0.799866 0.769592 0
0.829163 0.769592 0
0.85733 0.769592 0
0.884247 0.769592 0
0.909546 0.769592 0
0.93338 0.769592 0
0.955505 0.769592 0
0.975647 0.769592 0
0.993805 0.769592 0
1 0.769592 0
1 0.769592 0
0 0.801544 0
0.028717 0.801544 0
0.072479 0.801544 0
0.115204 0.801544 0
0.158264 0.801544 0
0.20166 0.801544 0
0.245026 0.801544 0
0.288422 0.801544 0
0.331268 0.801544 0
0.373535 0.801544 0
0.414856 0.801544 0
0.455109 0.801544 0
0.494232 0.801544 0
0.531769 0.801544 0
0.567902 0.801544 0
0.603058 0.801544 0
0.637787 0.801544 0
0.671814 0.801544 0
0.70517 0.801544 0
0.73761 0.801544 0
0.769196 0.801544 0
0.799866 0.801544 0
0.829163 0.801544 0
0.85733 0.801544 0
0.884247 0.801544 0
0.909546 0.801544 0
0.93338 0.801544 0
0.955505 0.801544 0
0.975647 0.801544 0
0.993805 0.801544 0
1 0.801544 0
1 0.801544 0
0 0.832642 0
0.028717 0.832642 0
0.072479 0.832642 0
0.115204 0.832642 0
0.158264 0.832642 0
0.20166 0.832642 0
0.245026 0.832642 0
0.288422 0.832642 0
0.331268 0.832642 0
0.373535 0.832642 0
0.414856 0.832642 0
0.455109 0.832642 0
0.494232 0.832642 0
0.531769 0.832642 0
0.567902 0.832642 0
0.603058 0.832642 0
0.637787 0.832642 0
0.671814 0.832642 0
0.70517 0.832642 0
0.73761 0.832642 0
0.769196 0.832642 0
0.799866 0.832642 0
0.829163 0.832642 0
0.85733 0.832642 0
0.884247 0.832642 0
0.909546 0.832642 0
0.93338 0.832642 0
0.955505 0.832642 0
0.975647 0.832642 0
0.993805 0.832642 0
1 0.832642 0
1 0.832642 0
0 0.862518 0
0.028717 0.862518 0
0.072479 0.862518 0
0.115204 0.862518 0
0.158264 0.862518 0
0.20166 0.862518 0
0.245026 0.862518 0
0.288422 0.862518 0
0.331268 0.862518 0
0.373535 0.862518 0
0.414856 0.862518 0
0.455109 0.862518 0
0.494232 0.862518 0
0.531769 0.862518 0
0.567902 0.862518 0
0.603058 0.862518 0
0.637787 0.862518 0
0.671814 0.862518 0
0.70517 0.862518 0
0.73761 0.862518 0
0.769196 0.862518 0
0.799866 0.862518 0
0.829163 0.862518 0
0.85733 0.862518 0
0.884247 0.862518 0
0.909546 0.862518 0
0.93338 0.862518 0
0.955505 0.862518 0
0.975647 0.862518 0
0.993805 0.862518 0
1 0.862518 0
1 0.862518 0
0 0.890991 0
0.028717 0.890991 0
0.072479 0.890991 0
0.115204 0.890991 0
0.158264 0.890991 0
0.20166 0.890991 0
0.245026 0.890991 0
0.288422 0.890991 0
0.331268 0.890991 0
0.373535 0.890991 0
0.414856 0.890991 0
0.455109 0.890991 0
0.494232 0.890991 0
0.531769 0.890991 0
0.567902 0.890991 0
0.603058 0.890991 0
0.637787 0.890991 0
0.671814 0.890991 0
0.70517 0.890991 0
0.73761 0.890991 0
0.769196 0.890991 0
0.799866 0.890991 0
0.829163 0.890991 0
0.85733 0.890991 0
0.884247 0.890991 0
0.909546 0.890991 0
0.93338 0.890991 0
0.955505 0.890991 0
0.975647 0.890991 0
0.993805 0.890991 0
1 0.890991 0
1 0.890991 0
0 0.917542 0
0.028717 0.917542 0
0.072479 0.917542 0
0.115204 0.917542 0
0.158264 0.917542 0
0.20166 0.917542 0
0.245026 0.917542 0
0.288422 0.917542 0
0.331268 0.917542 0
0.373535 0.917542 0
0.414856 0.917542 0
0.455109 0.917542 0
0.494232 0.917542 0
0.531769 0.917542 0
0.567902 0.917542 0
0.603058 0.917542 0
0.637787 0.917542 0
0.671814 0.917542 0
0.70517 0.917542 0
0.73761 0.917542 0
0.769196 0.917542 0
0.799866 0.917542 0
0.829163 0.917542 0
0.85733 0.917542 0
0.884247 0.917542 0
0.909546 0.917542 0
0.93338 0.917542 0
0.955505 0.917542 0
0.975647 0.917542 0
0.993805 0.917542 0
1 0.917542 0
1 0.917542 0
0 0.942017 0
0.028717 0.942017 0
0.072479 0.942017 0
0.115204 0.942017 0
