site/assets/luts/freshluts--0000605-stormy.cube
# LUTr-Schema-Version: 2
# LUTr-ID: freshluts--0000605-stormy
# LUTr-Title: STORMY
# LUTr-Collection: Fresh LUTs
# LUTr-Collection-ID: freshluts-community
# LUTr-Source: https://freshluts.com
# LUTr-Retrieved: 2026-07-27
# LUTr-Source-File: submissions-raw/freshluts/cubes/605__STORMY__23.DJI_0002.cube
# LUTr-Source-Format: CUBE
# LUTr-Source-SHA256: 0a8235eecccf714f9d003714f3ad9fe0131be1435df01a138b72fb279acb1d66
# LUTr-License: CC0-1.0
# LUTr-License-URL: https://freshluts.com/termsandconditions
# LUTr-License-Basis: site-terms
# LUTr-Transform-Class: creative-look
# LUTr-Tags: creative, freshluts, community, cube, film-emulation, dji-d-log
# LUTr-Input-Color-Space: dji-dlog-dgamut
# LUTr-Input-Gamut: dji-d-gamut
# LUTr-Input-Transfer: dji-d-log
# LUTr-Output-Color-Space: srgb
# LUTr-Output-Gamut: rec709
# LUTr-Output-Transfer: srgb
# LUTr-Color-Space-Confidence: inferred-from-source-label
# LUTr-Domain-Normalized: true
# LUTr-Shaper: none
# LUTr-Original-Grid: 33x33x33
# LUTr-Conversion-Grid: 33x33x33
# LUTr-Conversion-Interpolation: none
# LUTr-Conversion-Method: Metadata normalization; numeric LUT samples preserved
# LUTr-Conversion-Tool: LUTr scripts/convert-all-to-cube.mjs 2.0.0
# LUTr-Conversion-Date: 2026-07-28
# LUTr-Asset-URL: https://freshluts.com/luts/605
# LUTr-Author: Shamoon Abbasi
# LUTr-Author-URL: https://freshluts.com/users/1258
# LUTr-Attribution: Shamoon Abbasi via Fresh LUTs
# LUTr-Source-Labels: gamma=DJI D-log; color=None; key=Neutral; style=Film emulation
# LUTr-Note: Preserve this metadata and the upstream license notices when redistributing.
TITLE "STORMY"
LUT_3D_SIZE 9
DOMAIN_MIN 0 0 0
DOMAIN_MAX 1 1 1
0 0 0
0.106722 0 0
0.25034 0 0
0.429389 0 0
0.609339 0 0
0.773083 0 0
0.902968 0 0
1 0 0
1 0 0
0 0.100511 0
0.0975052 0.0975052 0
0.241016 0.0901198 0
0.422827 0.0745098 0
0.607874 0.0609293 0
0.778485 0.0544137 0
0.916442 0.0599985 0
1 0.0730602 0
1 0.0881361 0
0 0.228489 0
0.080415 0.231296 0
0.231281 0.231281 0
0.421439 0.224002 0
0.614832 0.218784 0
0.792813 0.219623 0
0.936294 0.230732 0
1 0.246815 0
1 0.262379 0
0 0.3944 0
0.0569772 0.405295 0
0.214664 0.412085 0
0.409461 0.409461 0
0.604944 0.406317 0
0.782727 0.406958 0
0.925582 0.417441 0
1 0.433143 0
1 0.448859 0
0 0.581247 0
0.0463874 0.593301 0
0.203479 0.599512 0
0.397711 0.596323 0
0.592966 0.592966 0
0.770977 0.593835 0
0.912993 0.603464 0
1 0.616907 0
1 0.628992 0
0 0.761837 0
0.0498207 0.773877 0
0.206928 0.780102 0
0.399786 0.77554 0
0.592279 0.769421 0
0.766155 0.76614 0
0.902708 0.770336 0
1 0.777462 0
1 0.782849 0
0 0.927398 0
0.0797284 0.936172 0
0.232197 0.937743 0
0.419242 0.927367 0
0.605234 0.914748 0
0.772396 0.904768 0
0.902464 0.902464 0
1 0.903456 0
1 0.90341 0
0 1 0
0.10695 1 0
0.25275 1 0
0.433402 1 0
0.613489 1 0
0.775509 1 0
0.901411 1 0
1 1 0
1 1 0
0 1 0
0.113924 1 0
0.254917 1 0
0.431815 1 0
0.609186 1 0
0.769467 1 0
0.894591 1 0
1 1 0
1 1 0
0 0 0.106676
0.106126 0 0.106126
0.249134 0 0.0982376
0.428061 0 0.0797589
0.608179 0 0.0612497
0.77232 0 0.0482643
0.902846 0 0.0464027
1 0 0.0518196
1 0 0.0599222
0 0.0992294 0.0992142
0.0964675 0.0964675 0.0964675
0.240452 0.0895705 0.0895705
0.422995 0.0746777 0.0746777
0.608865 0.0619364 0.0619364
0.780362 0.0562905 0.0562905
0.919219 0.0627604 0.0627756
1 0.076524 0.076524
1 0.0920424 0.0920424
0 0.228962 0.0780804
0.0817273 0.232609 0.0817273
0.233478 0.233478 0.0825971
0.424491 0.22707 0.076173
0.618479 0.222446 0.0715496
0.796811 0.223621 0.0727398
0.940383 0.234821 0.0839399
1 0.250736 0.099855
1 0.266072 0.11519
0 0.397711 0.0493935
0.0607919 0.40911 0.0607919
0.218708 0.416144 0.0678264
0.41352 0.413504 0.0652018
0.608728 0.410117 0.061799
0.786496 0.410742 0.0624247
0.929488 0.421363 0.0730449
1 0.437034 0.0887312
1 0.452598 0.104295
0 0.585245 0.0383154
0.0500496 0.596979 0.0500496
0.207324 0.603372 0.0564431
0.401633 0.600244 0.053315
0.596826 0.596826 0.049897
0.774624 0.597482 0.0505531
0.916289 0.606775 0.0598459
1 0.619715 0.0728008
1 0.631174 0.0842451
0 0.765743 0.0416724
0.0536049 0.777676 0.0536049
0.210452 0.783642 0.0595712
0.40293 0.778683 0.054612
0.594888 0.77203 0.0479591
0.768078 0.768078 0.044007
0.903944 0.771557 0.0474861
1 0.778027 0.0539559
1 0.782773 0.0587015
0 0.930358 0.0739147
0.0821088 0.938552 0.0821088
0.23386 0.939422 0.0829786
0.420233 0.928359 0.0719158
0.605554 0.915068 0.0586252
0.772091 0.904463 0.0480201
0.901549 0.901549 0.0451057
1 0.902083 0.0456397
1 0.901671 0.0452277
0 1 0.105531
0.107042 1 0.107042
0.252216 1 0.101335
0.432319 1 0.0840009
0.611978 1 0.0650492
0.773663 1 0.0495918
0.899336 1 0.0428931
1 1 0.0406958
1 1 0.0385138
0 1 0.116167
0.112276 1 0.112276
0.252979 1 0.102098
0.429694 1 0.0813764
0.606973 1 0.060029
0.767254 1 0.043183
0.892485 1 0.0360418
0.999222 1 0.0337987
1 1 0.0318456
0 0 0.255344
0.103365 0 0.254246
0.245991 0 0.245991
0.424903 0 0.227481
0.605264 0 0.209232
0.769894 0 0.196719
0.901152 0 0.19559
1 0 0.201831
1 0 0.210803
0 0.0961318 0.247013
0.0937057 0.0937057 0.244587
0.238254 0.0873579 0.238254
0.421592 0.0732738 0.224155
0.608316 0.061387 0.212268
0.780682 0.056611 0.207507
0.920394 0.0639506 0.214832
1 0.0783246 0.229206
1 0.0941787 0.24506
0 0.227863 0.227863
0.0814832 0.232364 0.232364
0.234134 0.234134 0.234134
0.425925 0.228504 0.228504
0.620432 0.224384 0.224399
0.799008 0.225834 0.225834
0.94258 0.237018 0.237018
1 0.252674 0.252689
1 0.267979 0.267994
0 0.399359 0.201938
0.0628672 0.411185 0.213748
0.220935 0.418372 0.220935
0.415656 0.415656 0.218219
0.610544 0.411917 0.214496
0.788479 0.412726 0.215305
0.931548 0.423423 0.226001
1 0.439048 0.241611
1 0.454414 0.256977
0 0.587274 0.191226
0.0518959 0.598825 0.202777
0.209354 0.605402 0.209354
0.403693 0.602304 0.206256
0.598779 0.598779 0.202731
0.776318 0.599176 0.203128
0.917586 0.608072 0.212024
1 0.620493 0.224445
1 0.631266 0.235218
0 0.767788 0.194598
0.0554818 0.779538 0.206363
0.212024 0.785199 0.212024
0.404044 0.779797 0.206622
0.595422 0.772564 0.199374
0.76791 0.76791 0.19472
0.90309 0.770703 0.197528
1 0.776501 0.203326
1 0.780621 0.207446
0 0.931289 0.225727
0.0823835 0.938827 0.23328
0.233433 0.938994 0.233433
0.419135 0.92726 0.221698
0.603815 0.913329 0.207767
0.769711 0.902083 0.196536
0.898604 0.898604 0.193057
1 0.898726 0.193164
1 0.897978 0.192416
0 1 0.255085
0.105058 1 0.25594
0.249622 1 0.249622
0.429206 1 0.231785
0.608484 1 0.212436
0.769879 1 0.196689
0.895369 1 0.189807
1 1 0.187503
1 0.999863 0.185336
0 1 0.263798
0.108659 1 0.259556
0.249119 1 0.249119
0.425666 1 0.228244
0.602884 1 0.206836
0.76321 1 0.190021
0.888579 1 0.183017
0.995224 1 0.180682
1 1 0.178729
0 0 0.447257
0.0969863 0 0.445289
0.239368 0 0.436805
0.418387 0 0.418387
0.599069 0 0.400458
0.764248 0 0.388495
0.896284 0 0.388159
1 0 0.395254
1 0 0.405097
0 0.0896925 0.43801
0.0876783 0.0876783 0.435996
0.232868 0.0819867 0.430304
0.417029 0.0687114 0.417029
0.604608 0.0576791 0.405997
0.777874 0.0538033 0.402121
0.918379 0.0619364 0.410254
1 0.0768292 0.425147
1 0.0929427 0.44126
0 0.223606 0.421042
0.0781109 0.228992 0.426413
0.231647 0.231647 0.429084
0.42414 0.226703 0.42414
0.619058 0.223011 0.420447
0.797818 0.224628 0.422065
0.941283 0.235721 0.433158
1 0.251057 0.448493
1 0.266545 0.463966
0 0.397757 0.397757
0.0615854 0.409903 0.409903
0.21973 0.417166 0.417166
0.414267 0.414267 0.414267
0.608957 0.410346 0.410346
0.787076 0.411322 0.411322
0.930175 0.422049 0.422049
1 0.437552 0.437568
1 0.452674 0.452674
0 0.585763 0.387152
0.0504005 0.59733 0.398718
0.20798 0.604028 0.405402
0.402304 0.600916 0.402304
0.597208 0.597208 0.398596
0.774456 0.597314 0.398703
0.915282 0.605768 0.407156
1 0.617609 0.418982
1 0.62768 0.429068
0 0.766339 0.390585
0.0538338 0.777905 0.402136
0.21001 0.7832 0.407446
0.401541 0.777295 0.401541
0.592294 0.769436 0.393683
0.764065 0.764065 0.388312
0.898573 0.766186 0.390433
1 0.771344 0.39559
1 0.774838 0.399084
0 0.928573 0.420432
0.078996 0.935439 0.427314
0.229358 0.93492 0.42678
0.414374 0.922499 0.414374
0.598413 0.907927 0.399802
0.763699 0.896071 0.387945
0.892088 0.892088 0.383948
1 0.891798 0.383673
1 0.890761 0.382635
0 1 0.447517
0.0994278 1 0.447745
0.243397 1 0.440833
0.422522 1 0.422522
0.601434 1 0.402823
0.762585 1 0.386831
0.887907 0.996887 0.379782
0.994522 0.994522 0.377417
1 0.992386 0.37528
0 1 0.454398
0.101518 1 0.449836
0.241749 1 0.439185
0.418173 1 0.418173
0.595376 1 0.39675
0.755764 1 0.380011
0.881285 1 0.373159
0.987793 1 0.370687
1 1 0.368704
0 0 0.639887
0.0903944 0 0.637324
0.23267 0 0.628702
0.411856 0 0.610468
0.59295 0 0.59295
0.758755 0 0.581628
0.89163 0 0.582116
1 0 0.590051
1 0 0.600793
0 0.0832837 0.630213
0.0817578 0.0817578 0.628687
0.22768 0.0767987 0.623728
0.41268 0.0643626 0.611292
0.601129 0.0542 0.601129
0.77528 0.0512245 0.598154
0.916487 0.0600443 0.606973
1 0.0753643 0.622293
1 0.0916457 0.638575
0 0.219577 0.61561
0.0749371 0.225834 0.621866
0.229343 0.229343 0.625391
0.422431 0.22501 0.621042
0.617685 0.221653 0.6177
0.796521 0.223331 0.619379
0.939818 0.234257 0.630304
1 0.249393 0.645441
1 0.265049 0.661082
0 0.396201 0.594812
0.0602731 0.408591 0.607202
0.218402 0.415839 0.61445
0.41268 0.41268 0.611292
0.60737 0.408743 0.60737
0.785611 0.409857 0.608469
0.92871 0.420569 0.619196
1 0.43592 0.634531
1 0.450736 0.649348
0 0.584054 0.584054
0.0488594 0.595789 0.595789
0.206531 0.602564 0.602564
0.400778 0.59939 0.59939
0.595483 0.595483 0.595483
0.772381 0.595239 0.595239
0.912703 0.603189 0.603189
1 0.614404 0.614404
1 0.623774 0.623774
0 0.764767 0.587625
0.0519875 0.776059 0.598917
0.207767 0.780957 0.603815
0.398764 0.774517 0.597375
0.58883 0.765972 0.58883
0.759915 0.759915 0.582773
0.893736 0.761364 0.584222
1 0.765866 0.588739
1 0.76875 0.591608
0 0.925551 0.616037
0.075288 0.931731 0.622202
0.224948 0.93051 0.620996
0.409308 0.917449 0.607919
0.592721 0.902235 0.592721
0.757397 0.889784 0.580255
0.885328 0.885328 0.575814
0.993667 0.884688 0.575174
1 0.883391 0.573877
0 1 0.640833
0.0935073 1 0.640436
0.236912 1 0.632959
0.415625 1 0.614237
0.594217 1 0.594217
0.755138 0.99649 0.577996
0.880339 0.989319 0.570825
0.986923 0.986923 0.568429
1 0.984848 0.566354
0 1 0.645991
0.0942092 1 0.641138
0.234241 1 0.630289
0.41059 1 0.609201
0.587777 1 0.587777
0.748272 1 0.57113
0.873457 1 0.563928
0.980255 1 0.561761
1 1 0.559777
0 0 0.812314
0.0852979 0 0.809369
0.227573 0 0.800763
0.407019 0 0.782773
0.588586 0 0.765728
0.755138 0 0.755138
0.888838 0 0.756451
1 0 0.76527
1 0 0.776913
0 0.0785992 0.80267
0.0776379 0.0776379 0.801709
0.224353 0.0734722 0.797543
0.410193 0.0618753 0.785946
0.599527 0.0525978 0.776669
0.774548 0.0504768 0.774548
0.91635 0.0599069 0.783978
1 0.0755779 0.799649
1 0.0919509 0.816007
0 0.217411 0.790585
0.0736706 0.224567 0.797742
0.228855 0.228855 0.802045
0.422446 0.225025 0.798199
0.61796 0.221912 0.795102
0.79678 0.22359 0.79678
0.939834 0.234272 0.807446
1 0.249378 0.822553
1 0.265156 0.838346
0 0.396338 0.772091
0.0605631 0.408881 0.784634
0.218601 0.416037 0.791791
0.412543 0.412543 0.788296
0.607416 0.408804 0.784558
0.785748 0.409995 0.785748
0.928771 0.42063 0.796399
1 0.435782 0.811536
1 0.450248 0.826001
0 0.583978 0.761105
0.0489662 0.595895 0.773037
0.206653 0.602686 0.779828
0.400778 0.59939 0.776532
0.595224 0.595224 0.772366
0.771725 0.594583 0.771725
0.911528 0.602014 0.779156
1 0.612543 0.789685
1 0.62121 0.798352
0 0.764691 0.764691
0.051606 0.775677 0.775677
0.206943 0.780133 0.780118
0.397345 0.773114 0.773098
0.586709 0.763851 0.763851
0.757107 0.757107 0.757107
0.890272 0.7579 0.7579
1 0.761776 0.761776
1 0.76405 0.76405
0 0.923888 0.791516
0.0729076 0.929351 0.796979
0.221897 0.927459 0.795087
0.405615 0.913741 0.781369
0.588403 0.897917 0.76553
0.752514 0.884901 0.752514
0.880018 0.880018 0.747646
0.988037 0.879057 0.74667
1 0.877531 0.745159
0 1 0.814054
0.0889754 1 0.813031
0.231876 1 0.805051
0.410193 1 0.785946
0.588479 1 0.765621
0.749218 0.99057 0.749218
0.874327 0.983307 0.741955
0.980926 0.980911 0.739559
1 0.978943 0.737591
0 1 0.817578
0.0883955 1 0.812467
0.228275 1 0.801465
0.404562 1 0.780316
0.581796 1 0.758938
0.742428 1 0.742428
0.867506 1 0.735134
0.974319 1 0.732952
1 1 0.730968
0 0 0.943099
0.0834821 0 0.939941
0.225849 0 0.931411
0.405615 0 0.913756
0.587747 0 0.897261
0.755093 0 0.887465
0.889632 0 0.889632
1 0 0.899336
1 0 0.911833
0 0.0773785 0.933822
0.0770733 0.0770733 0.933516
0.224613 0.0737316 0.930175
0.411307 0.0630045 0.919448
0.601541 0.054612 0.911055
0.77734 0.0532845 0.909728
0.919661 0.0632181 0.919676
1 0.0791485 0.935592
1 0.0955062 0.951949
0 0.218845 0.924407
0.0760052 0.226886 0.932448
0.231876 0.231876 0.937438
0.425879 0.228458 0.93402
0.621546 0.225513 0.931075
0.800275 0.2271 0.932662
0.943008 0.237446 0.943008
1 0.25272 0.958282
1 0.268589 0.974151
0 0.399863 0.907988
0.0641489 0.412467 0.920607
0.222019 0.41944 0.927565
0.415763 0.415763 0.923888
0.610819 0.412192 0.920333
0.789166 0.413413 0.921553
0.932082 0.423957 0.932082
1 0.438834 0.946975
1 0.452903 0.961044
0 0.587274 0.896788
0.0523842 0.599313 0.908827
0.210056 0.606088 0.915602
0.404013 0.60264 0.912154
0.598154 0.598154 0.907683
0.774212 0.59707 0.906584
0.91342 0.603906 0.91342
1 0.613748 0.923262
1 0.621729 0.931243
0 0.767834 0.900206
0.0543832 0.778454 0.910826
0.209232 0.782422 0.914794
0.399008 0.774762 0.907134
0.587655 0.764797 0.897169
0.757382 0.757382 0.889754
0.889891 0.757519 0.889891
1 0.760769 0.893141
1 0.762478 0.89485
0 0.925277 0.925277
0.0736095 0.930053 0.930053
0.221927 0.927489 0.927489
0.405005 0.91313 0.91313
0.587167 0.896681 0.896681
0.75079 0.883162 0.883162
0.877882 0.877882 0.877882
0.985611 0.876631 0.876631
1 0.874922 0.874922
0 1 0.945586
0.087541 1 0.943984
0.229984 1 0.935531
0.407935 1 0.91606
0.585992 1 0.895506
0.746563 0.987915 0.878935
0.871611 0.980591 0.871611
0.978241 0.978241 0.869261
1 0.976394 0.86743
0 1 0.947601
0.085832 1 0.942275
0.225589 1 0.931151
0.401846 1 0.909972
0.579156 1 0.88867
0.739956 1 0.872328
0.864866 1 0.864866
0.971664 1 0.862684
1 1 0.860685
0 0 1
0.0833906 0 1
0.22594 0 1
0.406119 0 1
0.588891 0 1
0.757061 0 0.998413
0.892454 0 1
1 0 1
1 0 1
0 0.0780804 1
0.0785077 0.0785077 1
0.226886 0.0760052 1
0.41445 0.0661326 1
0.60557 0.0586404 1
0.782071 0.0579995 1
0.924819 0.0683757 1
1 0.0844587 1
1 0.10074 1
0 0.222309 1
0.0803235 0.23122 1
0.236789 0.236789 1
0.431128 0.233692 1
0.626871 0.230823 1
0.805417 0.232242 1
0.947951 0.24239 1
1 0.257847 1
1 0.273747 1
0 0.405158 1
0.0694438 0.417762 1
0.227024 0.42446 1
0.420783 0.420798 1
0.615961 0.41735 1
0.794308 0.418555 1
0.937057 0.428916 1
1 0.443503 1
1 0.45713 1
0 0.592371 1
0.0575418 0.604471 1
0.215137 0.611185 1
0.408896 0.607507 1
0.602686 0.602686 1
0.778241 0.601099 1
0.916823 0.607309 1
1 0.616434 1
1 0.623743 1
0 0.772595 1
0.0587472 0.782818 1
0.213046 0.786236 1
0.402136 0.77789 1
0.590097 0.767239 1
0.759152 0.759152 1
0.89102 0.758648 1
1 0.761288 1
1 0.762478 1
0 0.928161 1
0.0758068 0.93225 1
0.223468 0.92903 1
0.405905 0.914046 1
0.587472 0.896986 1
0.750637 0.883009 0.991989
0.877379 0.877379 0.986358
0.984833 0.875853 0.984833
1 0.873991 0.982971
0 1 1
0.0876631 1 1
0.229679 1 1
0.407324 1 1
0.585138 1 1
0.745602 0.986954 0.986954
0.870619 0.979599 0.979599
0.977325 0.977325 0.977325
1 0.975647 0.975647
0 1 1
0.0849317 1 1
0.224613 1 1
0.40087 1 1
0.578286 1 0.99678
0.73872 1 0.980072
0.863951 1 0.97293
0.970733 1 0.970733
1 1 0.968719
0 0 1
0.0834058 0 1
0.226215 0 1
0.406867 0 1
0.590372 0 1
0.75938 0 1
0.895644 0 1
1 0 1
1 0 1
0 0.0790723 1
0.080293 0.080293 1
0.229526 0.078645 1
0.417975 0.0696574 1
0.609949 0.0630198 1
0.787045 0.062974 1
0.930129 0.0736858 1
1 0.0898604 1
1 0.105959 1
0 0.226154 1
0.084947 0.235843 1
0.241901 0.241917 1
0.4365 0.239078 1
0.632227 0.236194 1
0.810513 0.237339 1
0.953033 0.247471 1
1 0.263066 1
1 0.27895 1
0 0.410559 1
0.0747234 0.423041 1
0.231998 0.429419 1
0.42594 0.42594 1
0.621195 0.422583 1
0.799466 0.423713 1
0.942 0.433875 1
1 0.448112 1
1 0.46125 1
0 0.597559 1
0.0627604 0.609705 1
0.220233 0.616281 1
0.413733 0.612345 1
0.607126 0.607126 1
0.782147 0.605005 1
0.920043 0.610529 1
1 0.618967 1
1 0.625605 1
0 0.77731 1
0.0630045 0.787076 1
0.216724 0.789899 1
0.405112 0.780865 1
0.592386 0.769528 1
0.760769 0.760769 1
0.892012 0.75964 1
1 0.761669 1
1 0.762402 1
0 0.930877 1
0.0778363 0.934295 1
0.224857 0.930419 1
0.406668 0.914809 1
0.587686 0.8972 1
0.750408 0.882795 1
0.876829 0.876829 1
0.98407 0.875105 1
1 0.873106 1
0 1 1
0.0877089 1 1
0.229343 1 1
0.406683 1 1
0.584329 1 1
0.744686 0.986038 1
0.869703 0.978683 1
0.976516 0.976516 1
1 0.974487 1
0 1 1
0.084062 1 1
0.223682 1 1
0.4 1 1
0.577539 1 1
0.737881 1 1
0.863111 1 1
0.969879 1 1
1 1 1
