site/assets/luts/freshluts--0001006-picturefx-superia-sakura-vii-full-lut-adjust-only-exposure-u.cube
# LUTr-Schema-Version: 2
# LUTr-ID: freshluts--0001006-picturefx-superia-sakura-vii-full-lut-adjust-only-exposure-u
# LUTr-Title: PictureFX Superia Sakura v.II - full lut, adjust only exposure - used on Olympus/Panasonic sensor
# LUTr-Collection: Fresh LUTs
# LUTr-Collection-ID: freshluts-community
# LUTr-Source: https://freshluts.com
# LUTr-Retrieved: 2026-07-27
# LUTr-Source-File: submissions-raw/freshluts/cubes/1006__PictureFX-Superia-Sakura-vII-Oly-Pana.cube
# LUTr-Source-Format: CUBE
# LUTr-Source-SHA256: 9596651a9d5f773b2c630b5b3b268f15a8aa2bca1e91decb41f717ce08298d54
# LUTr-License: CC0-1.0
# LUTr-License-URL: https://freshluts.com/termsandconditions
# LUTr-License-Basis: site-terms
# LUTr-Transform-Class: creative-look
# LUTr-Tags: creative, freshluts, community, cube, film-emulation, rec709, assumed-input
# LUTr-Input-Color-Space: rec709
# LUTr-Input-Gamut: rec709
# LUTr-Input-Transfer: rec709
# LUTr-Output-Color-Space: srgb
# LUTr-Output-Gamut: rec709
# LUTr-Output-Transfer: srgb
# LUTr-Color-Space-Confidence: assumed-display-referred
# LUTr-Domain-Normalized: true
# LUTr-Shaper: none
# LUTr-Original-Grid: 25x25x25
# LUTr-Conversion-Grid: 25x25x25
# LUTr-Conversion-Interpolation: none
# LUTr-Conversion-Method: Metadata normalization; numeric LUT samples preserved
# LUTr-Conversion-Tool: LUTr scripts/convert-all-to-cube.mjs 2.0.0
# LUTr-Conversion-Date: 2026-07-28
# LUTr-Asset-URL: https://freshluts.com/luts/1006
# LUTr-Author: MarcR.
# LUTr-Author-URL: https://freshluts.com/users/86490
# LUTr-Attribution: MarcR. via Fresh LUTs
# LUTr-Source-Labels: gamma=Other; color=None; key=Neutral; style=Film emulation; LUTr assumption=input Rec.709 per repository policy
# LUTr-Conversion-Warning: Input Rec.709 is a LUTr catalog assumption requested for this otherwise unspecified Fresh LUT; it is not verified by the upstream asset.
# LUTr-Note: Preserve this metadata and the upstream license notices when redistributing.
# LUTr-Upstream-Comment: Generated with IWLTBAP LUT Generator
# LUTr-Upstream-Comment: Website: http://luts.iwltbap.com
# LUTr-Upstream-Comment: LUT size
# LUTr-Upstream-Comment: LUT data points
TITLE "PictureFX Superia Sakura v.II - full lut, adjust only exposure - used on Olympus/Panasonic sensor"
LUT_3D_SIZE 25
DOMAIN_MIN 0 0 0
DOMAIN_MAX 1 1 1
0 0 0
0 0 0
0 0 0
0.003922 0 0
0.011765 0 0
0.031373 0 0
0.058824 0 0
0.086275 0 0
0.113725 0 0
0.145098 0 0
0.180392 0 0
0.223529 0 0
0.278431 0 0.003922
0.341176 0 0.003922
0.407843 0 0.003922
0.478431 0 0.003922
0.552941 0 0.003922
0.627451 0 0.003922
0.701961 0 0.003922
0.772549 0 0
0.839216 0 0
0.890196 0 0.054902
0.933333 0 0.098039
0.980392 0.027451 0.133333
1 0.094118 0.168627
0 0 0
0 0 0
0 0 0
0.003922 0 0
0.015686 0 0
0.039216 0.003922 0
0.062745 0.003922 0
0.090196 0.003922 0
0.117647 0.003922 0
0.145098 0.003922 0
0.184314 0.003922 0
0.227451 0.003922 0.003922
0.282353 0 0.003922
0.34902 0 0.003922
0.411765 0 0.003922
0.482353 0 0.003922
0.556863 0 0.003922
0.631373 0 0.003922
0.701961 0 0.003922
0.772549 0 0
0.839216 0 0.003922
0.890196 0 0.058824
0.937255 0 0.098039
0.980392 0.066667 0.137255
1 0.117647 0.168627
0 0 0
0 0.003922 0
0.003922 0.003922 0
0.011765 0.003922 0
0.023529 0.007843 0
0.043137 0.007843 0
0.070588 0.011765 0
0.094118 0.011765 0
0.121569 0.011765 0
0.14902 0.011765 0
0.188235 0.015686 0
0.235294 0.015686 0.003922
0.290196 0.019608 0.003922
0.352941 0.019608 0.003922
0.419608 0.019608 0.003922
0.490196 0.015686 0.003922
0.560784 0.007843 0.003922
0.635294 0 0.003922
0.705882 0 0
0.776471 0 0
0.839216 0 0.007843
0.890196 0.003922 0.062745
0.937255 0.058824 0.101961
0.980392 0.101961 0.137255
1 0.141176 0.172549
0 0.011765 0
0 0.011765 0
0.007843 0.015686 0
0.015686 0.015686 0
0.031373 0.019608 0
0.05098 0.019608 0
0.07451 0.023529 0
0.098039 0.023529 0
0.12549 0.027451 0
0.156863 0.031373 0
0.196078 0.035294 0
0.243137 0.039216 0.003922
0.301961 0.047059 0.003922
0.364706 0.054902 0.003922
0.427451 0.058824 0.003922
0.498039 0.062745 0.003922
0.568627 0.062745 0.003922
0.639216 0.058824 0.003922
0.713725 0.05098 0
0.780392 0.043137 0
0.843137 0.05098 0.015686
0.890196 0.078431 0.066667
0.937255 0.109804 0.105882
0.980392 0.141176 0.141176
1 0.172549 0.176471
0 0.031373 0
0 0.031373 0
0.007843 0.031373 0
0.019608 0.035294 0
0.035294 0.035294 0
0.054902 0.039216 0
0.078431 0.043137 0
0.101961 0.047059 0
0.133333 0.05098 0
0.168627 0.054902 0
0.207843 0.062745 0.003922
0.258824 0.07451 0.003922
0.317647 0.082353 0.003922
0.376471 0.090196 0.003922
0.439216 0.098039 0.003922
0.509804 0.105882 0.003922
0.576471 0.109804 0.003922
0.65098 0.109804 0
0.717647 0.109804 0
0.788235 0.109804 0
0.843137 0.121569 0.027451
0.890196 0.137255 0.07451
0.937255 0.160784 0.113725
0.980392 0.184314 0.14902
1 0.207843 0.180392
0 0.054902 0
0 0.058824 0
0.007843 0.058824 0
0.019608 0.058824 0
0.039216 0.062745 0
0.062745 0.062745 0
0.086275 0.066667 0
0.113725 0.070588 0
0.145098 0.078431 0
0.180392 0.086275 0.003922
0.223529 0.098039 0.003922
0.278431 0.109804 0.003922
0.333333 0.117647 0.003922
0.392157 0.129412 0.003922
0.454902 0.137255 0.003922
0.521569 0.14902 0.003922
0.592157 0.152941 0
0.658824 0.160784 0
0.729412 0.160784 0
0.796078 0.164706 0
0.847059 0.176471 0.043137
0.894118 0.188235 0.086275
0.937255 0.207843 0.121569
0.980392 0.227451 0.156863
1 0.247059 0.188235
0 0.082353 0
0 0.082353 0
0.007843 0.086275 0
0.023529 0.086275 0
0.043137 0.090196 0
0.066667 0.094118 0
0.094118 0.098039 0
0.12549 0.105882 0
0.156863 0.113725 0
0.2 0.12549 0.003922
0.247059 0.137255 0.003922
0.298039 0.14902 0.003922
0.34902 0.160784 0.003922
0.407843 0.172549 0.003922
0.470588 0.184314 0
0.537255 0.192157 0
0.603922 0.2 0
0.670588 0.207843 0
0.737255 0.211765 0
0.8 0.219608 0.007843
0.847059 0.227451 0.058824
0.894118 0.239216 0.098039
0.937255 0.254902 0.129412
0.980392 0.270588 0.164706
1 0.286275 0.196078
0 0.117647 0
0 0.117647 0
0.007843 0.117647 0
0.023529 0.121569 0
0.05098 0.12549 0
0.078431 0.129412 0
0.105882 0.137255 0
0.141176 0.145098 0
0.176471 0.156863 0
0.219608 0.168627 0
0.266667 0.180392 0
0.317647 0.192157 0
0.372549 0.203922 0
0.427451 0.215686 0
0.490196 0.227451 0
0.552941 0.239216 0
0.619608 0.247059 0
0.686275 0.254902 0
0.74902 0.262745 0
0.8 0.270588 0.027451
0.85098 0.278431 0.07451
0.894118 0.286275 0.109804
0.941176 0.301961 0.141176
0.980392 0.313725 0.172549
1 0.329412 0.203922
0 0.160784 0
0 0.160784 0
0.003922 0.164706 0
0.023529 0.168627 0
0.054902 0.172549 0
0.090196 0.180392 0
0.121569 0.188235 0
0.160784 0.196078 0
0.2 0.207843 0
0.243137 0.219608 0
0.290196 0.231373 0
0.337255 0.243137 0
0.392157 0.254902 0
0.45098 0.266667 0
0.509804 0.278431 0
0.572549 0.290196 0
0.635294 0.298039 0
0.698039 0.305882 0
0.752941 0.313725 0.007843
0.803922 0.321569 0.05098
0.85098 0.329412 0.090196
0.898039 0.337255 0.121569
0.941176 0.34902 0.152941
0.980392 0.360784 0.184314
1 0.372549 0.215686
0 0.219608 0
0 0.219608 0
0 0.223529 0
0.023529 0.227451 0
0.062745 0.231373 0
0.101961 0.239216 0
0.137255 0.247059 0
0.176471 0.254902 0
0.219608 0.262745 0
0.262745 0.27451 0
0.309804 0.286275 0
0.360784 0.298039 0
0.415686 0.309804 0
0.470588 0.321569 0
0.529412 0.333333 0
0.588235 0.341176 0
0.65098 0.34902 0
0.709804 0.356863 0
0.760784 0.364706 0.031373
0.807843 0.368627 0.070588
0.854902 0.376471 0.105882
0.898039 0.384314 0.137255
0.941176 0.396078 0.164706
0.980392 0.407843 0.196078
1 0.419608 0.227451
0 0.282353 0
0 0.286275 0
0 0.286275 0
0.011765 0.290196 0
0.062745 0.294118 0
0.105882 0.301961 0
0.14902 0.305882 0
0.192157 0.313725 0
0.235294 0.32549 0
0.282353 0.333333 0
0.329412 0.345098 0
0.380392 0.356863 0
0.435294 0.364706 0
0.490196 0.376471 0
0.545098 0.388235 0
0.603922 0.396078 0
0.662745 0.403922 0
0.713725 0.407843 0.019608
0.760784 0.415686 0.058824
0.811765 0.419608 0.090196
0.854902 0.427451 0.121569
0.898039 0.435294 0.152941
0.941176 0.443137 0.180392
0.980392 0.454902 0.211765
1 0.466667 0.239216
0 0.352941 0
0 0.352941 0
0 0.356863 0
0 0.356863 0
0.05098 0.360784 0
0.109804 0.368627 0
0.156863 0.372549 0
0.203922 0.380392 0
0.25098 0.388235 0
0.298039 0.4 0
0.345098 0.407843 0
0.4 0.415686 0
0.45098 0.427451 0
0.505882 0.435294 0
0.560784 0.447059 0
0.615686 0.45098 0
0.666667 0.454902 0.011765
0.717647 0.462745 0.05098
0.764706 0.466667 0.082353
0.811765 0.470588 0.109804
0.854902 0.478431 0.141176
0.898039 0.482353 0.168627
0.941176 0.490196 0.196078
0.980392 0.501961 0.227451
1 0.509804 0.254902
0 0.423529 0
0 0.427451 0
0 0.427451 0
0 0.431373 0
0.019608 0.435294 0
0.101961 0.439216 0
0.156863 0.443137 0
0.211765 0.45098 0
0.258824 0.454902 0
0.309804 0.462745 0
0.360784 0.470588 0
0.411765 0.482353 0
0.466667 0.490196 0
0.521569 0.498039 0
0.572549 0.501961 0
0.623529 0.505882 0.011765
0.67451 0.509804 0.043137
0.721569 0.513725 0.07451
0.768627 0.517647 0.105882
0.815686 0.521569 0.133333
0.858824 0.529412 0.160784
0.898039 0.533333 0.188235
0.941176 0.541176 0.215686
0.980392 0.54902 0.243137
1 0.556863 0.270588
0 0.498039 0
0 0.498039 0
0 0.501961 0
0 0.501961 0
0 0.505882 0
0.078431 0.509804 0
0.152941 0.513725 0
0.211765 0.517647 0
0.266667 0.52549 0
0.317647 0.533333 0
0.372549 0.537255 0
0.423529 0.545098 0
0.47451 0.54902 0
0.52549 0.552941 0
0.576471 0.556863 0.015686
0.627451 0.560784 0.043137
0.678431 0.564706 0.07451
0.72549 0.564706 0.101961
0.772549 0.568627 0.12549
0.815686 0.572549 0.152941
0.858824 0.576471 0.180392
0.898039 0.584314 0.207843
0.941176 0.588235 0.235294
0.976471 0.596078 0.262745
1 0.603922 0.290196
0 0.572549 0
0 0.572549 0
0 0.572549 0
0 0.576471 0
0 0.576471 0
0.035294 0.580392 0
0.137255 0.584314 0
0.207843 0.588235 0
0.266667 0.592157 0
0.321569 0.592157 0
0.372549 0.596078 0
0.427451 0.6 0
0.478431 0.603922 0.015686
0.529412 0.603922 0.039216
0.580392 0.607843 0.058824
0.631373 0.611765 0.078431
0.682353 0.615686 0.101961
0.72549 0.615686 0.12549
0.772549 0.619608 0.14902
0.815686 0.623529 0.176471
0.858824 0.627451 0.2
0.898039 0.631373 0.227451
0.937255 0.635294 0.254902
0.976471 0.643137 0.282353
1 0.647059 0.309804
0 0.635294 0
0 0.635294 0
0 0.639216 0
0 0.639216 0
0 0.639216 0
0.003922 0.639216 0
0.129412 0.639216 0
0.203922 0.643137 0
0.266667 0.643137 0.003922
0.32549 0.647059 0.019608
0.376471 0.647059 0.035294
0.431373 0.65098 0.054902
0.482353 0.654902 0.070588
0.533333 0.654902 0.086275
0.584314 0.658824 0.101961
0.635294 0.662745 0.117647
0.682353 0.666667 0.133333
0.729412 0.666667 0.152941
0.772549 0.670588 0.176471
0.815686 0.670588 0.2
0.858824 0.67451 0.223529
0.898039 0.678431 0.25098
0.937255 0.682353 0.278431
0.972549 0.686275 0.301961
1 0.694118 0.329412
0 0.690196 0.019608
0 0.690196 0.019608
0 0.690196 0.023529
0 0.690196 0.027451
0 0.690196 0.031373
0.007843 0.690196 0.039216
0.133333 0.694118 0.047059
0.207843 0.694118 0.058824
0.270588 0.694118 0.070588
0.329412 0.698039 0.078431
0.384314 0.698039 0.090196
0.435294 0.701961 0.101961
0.486275 0.701961 0.117647
0.537255 0.705882 0.129412
0.588235 0.705882 0.141176
0.635294 0.709804 0.156863
0.682353 0.713725 0.172549
0.729412 0.713725 0.184314
0.776471 0.717647 0.203922
0.819608 0.717647 0.227451
0.858824 0.721569 0.25098
0.898039 0.721569 0.27451
0.937255 0.72549 0.301961
0.972549 0.729412 0.32549
1 0.733333 0.352941
0 0.741176 0.086275
0 0.741176 0.090196
0 0.741176 0.090196
0 0.741176 0.094118
0 0.741176 0.098039
0.039216 0.741176 0.101961
0.14902 0.741176 0.105882
0.219608 0.741176 0.113725
0.282353 0.745098 0.121569
0.337255 0.745098 0.129412
0.392157 0.745098 0.137255
0.443137 0.74902 0.14902
0.494118 0.74902 0.160784
0.541176 0.752941 0.172549
0.592157 0.752941 0.184314
0.639216 0.756863 0.196078
0.686275 0.756863 0.207843
0.729412 0.760784 0.223529
0.776471 0.760784 0.235294
0.819608 0.764706 0.254902
0.858824 0.764706 0.278431
0.898039 0.768627 0.301961
0.933333 0.768627 0.32549
0.968627 0.772549 0.352941
1 0.776471 0.376471
0 0.788235 0.141176
0 0.788235 0.141176
0 0.788235 0.145098
0 0.788235 0.145098
0 0.788235 0.14902
0.094118 0.788235 0.152941
0.176471 0.788235 0.156863
0.239216 0.788235 0.164706
0.298039 0.788235 0.168627
0.34902 0.792157 0.176471
0.4 0.792157 0.184314
0.45098 0.792157 0.192157
0.501961 0.796078 0.203922
0.54902 0.796078 0.211765
0.596078 0.796078 0.223529
0.643137 0.8 0.235294
0.686275 0.8 0.247059
0.729412 0.803922 0.262745
0.772549 0.803922 0.27451
0.815686 0.807843 0.290196
0.858824 0.807843 0.305882
0.898039 0.807843 0.329412
0.933333 0.811765 0.352941
0.968627 0.811765 0.376471
1 0.815686 0.403922
0 0.831373 0.192157
0 0.831373 0.192157
0 0.831373 0.192157
0 0.831373 0.196078
0.066667 0.831373 0.196078
0.14902 0.831373 0.2
0.211765 0.831373 0.203922
0.266667 0.831373 0.211765
0.317647 0.835294 0.215686
0.368627 0.835294 0.223529
0.415686 0.835294 0.231373
0.462745 0.835294 0.239216
0.509804 0.835294 0.247059
0.556863 0.839216 0.254902
0.6 0.839216 0.266667
0.647059 0.839216 0.278431
0.690196 0.843137 0.290196
0.733333 0.843137 0.301961
0.776471 0.843137 0.313725
0.815686 0.847059 0.329412
0.854902 0.847059 0.345098
0.894118 0.85098 0.356863
0.929412 0.85098 0.380392
0.964706 0.85098 0.407843
0.996078 0.854902 0.431373
0 0.87451 0.239216
0 0.87451 0.239216
0.031373 0.87451 0.243137
0.098039 0.87451 0.243137
0.152941 0.87451 0.247059
0.203922 0.87451 0.247059
0.25098 0.87451 0.25098
0.298039 0.87451 0.258824
0.345098 0.87451 0.262745
0.392157 0.87451 0.266667
0.435294 0.87451 0.27451
0.478431 0.87451 0.282353
0.52549 0.878431 0.290196
0.568627 0.878431 0.298039
0.611765 0.878431 0.309804
0.654902 0.878431 0.321569
0.694118 0.882353 0.333333
0.737255 0.882353 0.345098
0.776471 0.882353 0.356863
0.815686 0.882353 0.368627
0.854902 0.886275 0.384314
0.894118 0.886275 0.396078
0.929412 0.890196 0.411765
0.960784 0.890196 0.435294
0.992157 0.890196 0.458824
0.121569 0.913725 0.286275
0.141176 0.913725 0.290196
0.160784 0.913725 0.290196
0.188235 0.913725 0.290196
0.223529 0.913725 0.294118
0.258824 0.913725 0.294118
0.298039 0.913725 0.298039
0.337255 0.913725 0.301961
0.376471 0.913725 0.309804
0.415686 0.913725 0.313725
0.458824 0.913725 0.321569
0.498039 0.913725 0.329412
0.541176 0.913725 0.337255
0.580392 0.913725 0.345098
0.623529 0.917647 0.352941
0.662745 0.917647 0.364706
0.701961 0.917647 0.376471
0.741176 0.917647 0.384314
0.780392 0.917647 0.4
0.819608 0.921569 0.411765
0.854902 0.921569 0.423529
0.890196 0.921569 0.439216
0.92549 0.921569 0.45098
0.960784 0.92549 0.466667
0.992157 0.92549 0.486275
0.215686 0.94902 0.337255
0.227451 0.94902 0.337255
0.239216 0.94902 0.337255
0.258824 0.94902 0.337255
0.282353 0.94902 0.341176
0.309804 0.94902 0.345098
0.341176 0.94902 0.345098
0.376471 0.94902 0.34902
0.407843 0.94902 0.356863
0.447059 0.94902 0.360784
0.482353 0.94902 0.368627
0.521569 0.94902 0.372549
0.560784 0.94902 0.380392
0.596078 0.952941 0.388235
0.635294 0.952941 0.4
0.67451 0.952941 0.407843
0.713725 0.952941 0.419608
0.74902 0.952941 0.427451
0.784314 0.952941 0.439216
0.823529 0.952941 0.45098
0.858824 0.952941 0.466667
0.890196 0.952941 0.478431
0.92549 0.956863 0.490196
0.956863 0.956863 0.505882
0.988235 0.956863 0.521569
0.290196 0.984314 0.384314
0.298039 0.984314 0.384314
0.309804 0.984314 0.384314
0.321569 0.984314 0.388235
0.341176 0.984314 0.388235
0.360784 0.984314 0.392157
0.388235 0.984314 0.396078
0.415686 0.984314 0.396078
0.447059 0.984314 0.403922
0.478431 0.984314 0.407843
0.513725 0.984314 0.411765
0.545098 0.984314 0.419608
0.580392 0.984314 0.427451
0.615686 0.984314 0.435294
0.65098 0.984314 0.443137
0.690196 0.984314 0.45098
0.72549 0.984314 0.462745
0.760784 0.984314 0.470588
0.792157 0.984314 0.482353
0.827451 0.984314 0.494118
0.862745 0.984314 0.505882
0.894118 0.984314 0.517647
0.92549 0.984314 0.533333
0.952941 0.984314 0.545098
0.984314 0.984314 0.556863
0.356863 1 0.431373
0.360784 1 0.431373
0.368627 1 0.431373
0.380392 1 0.435294
0.396078 1 0.435294
0.411765 1 0.439216
0.435294 1 0.443137
0.458824 1 0.443137
0.486275 1 0.45098
0.513725 1 0.454902
0.545098 1 0.458824
0.572549 1 0.466667
0.607843 1 0.470588
0.639216 1 0.478431
0.670588 1 0.486275
0.705882 1 0.498039
0.737255 1 0.505882
0.768627 1 0.513725
0.803922 1 0.52549
0.835294 1 0.537255
0.866667 1 0.54902
0.898039 1 0.556863
0.92549 1 0.572549
0.952941 1 0.584314
0.980392 1 0.596078
0 0 0
0 0 0
0 0 0
0.003922 0 0
0.015686 0 0
0.035294 0 0
0.062745 0 0.003922
0.090196 0 0.003922
0.113725 0 0.003922
0.145098 0 0.007843
0.180392 0 0.007843
0.227451 0 0.011765
0.282353 0 0.015686
0.345098 0 0.019608
0.411765 0 0.023529
0.482353 0 0.023529
0.552941 0 0.027451
0.627451 0 0.031373
0.701961 0 0.031373
0.772549 0 0.031373
0.839216 0 0.039216
0.890196 0 0.078431
0.937255 0 0.117647
0.980392 0.031373 0.14902
1 0.098039 0.180392
0 0 0
0 0 0
0 0 0
0.007843 0 0
0.019608 0 0
0.043137 0.003922 0.003922
0.066667 0.003922 0.003922
0.090196 0.003922 0.003922
0.117647 0.003922 0.003922
0.14902 0.003922 0.007843
0.184314 0.003922 0.007843
0.231373 0.003922 0.011765
0.286275 0 0.015686
0.352941 0 0.019608
0.415686 0 0.023529
0.486275 0 0.023529
0.556863 0 0.027451
0.631373 0 0.031373
0.705882 0 0.031373
0.776471 0 0.031373
0.839216 0 0.043137
0.890196 0 0.082353
0.937255 0.003922 0.117647
0.980392 0.070588 0.14902
1 0.117647 0.180392
0 0.003922 0
0 0.003922 0
0.003922 0.003922 0
0.011765 0.003922 0
0.027451 0.007843 0.003922
0.047059 0.007843 0.003922
0.070588 0.011765 0.003922
0.094118 0.011765 0.003922
0.121569 0.011765 0.007843
0.152941 0.011765 0.007843
0.192157 0.015686 0.007843
0.239216 0.015686 0.011765
0.294118 0.019608 0.015686
0.356863 0.019608 0.019608
0.423529 0.019608 0.023529
0.490196 0.015686 0.023529
0.564706 0.007843 0.027451
0.635294 0 0.027451
0.709804 0 0.031373
0.780392 0 0.031373
0.839216 0 0.047059
0.890196 0.007843 0.086275
0.937255 0.058824 0.121569
0.980392 0.101961 0.152941
1 0.141176 0.184314
0 0.011765 0
0 0.015686 0.003922
0.007843 0.015686 0.003922
0.015686 0.015686 0.003922
0.031373 0.019608 0.003922
0.05098 0.019608 0.003922
0.07451 0.023529 0.003922
0.098039 0.023529 0.003922
0.12549 0.027451 0.007843
0.160784 0.031373 0.007843
0.2 0.035294 0.011765
0.247059 0.043137 0.011765
0.305882 0.05098 0.015686
0.368627 0.054902 0.019608
0.431373 0.058824 0.023529
0.498039 0.062745 0.027451
0.572549 0.062745 0.027451
0.643137 0.058824 0.027451
0.713725 0.05098 0.031373
0.784314 0.043137 0.031373
0.843137 0.05098 0.054902
0.890196 0.082353 0.090196
0.937255 0.113725 0.12549
0.980392 0.141176 0.156863
1 0.172549 0.188235
0 0.031373 0.003922
0 0.031373 0.003922
0.007843 0.035294 0.003922
0.019608 0.035294 0.003922
0.035294 0.039216 0.003922
0.058824 0.039216 0.003922
0.078431 0.043137 0.003922
0.105882 0.047059 0.007843
0.133333 0.05098 0.007843
0.168627 0.054902 0.007843
0.211765 0.062745 0.011765
0.262745 0.07451 0.015686
0.317647 0.082353 0.019608
0.380392 0.090196 0.019608
0.443137 0.098039 0.023529
0.509804 0.105882 0.027451
0.580392 0.109804 0.027451
0.65098 0.109804 0.027451
0.721569 0.109804 0.031373
0.788235 0.109804 0.031373
0.843137 0.121569 0.062745
0.890196 0.141176 0.098039
0.937255 0.160784 0.129412
0.980392 0.184314 0.160784
1 0.207843 0.192157
0 0.058824 0.003922
0 0.058824 0.003922
0.007843 0.058824 0.003922
0.019608 0.058824 0.003922
0.039216 0.062745 0.003922
0.062745 0.062745 0.007843
0.086275 0.066667 0.007843
0.113725 0.07451 0.007843
0.145098 0.078431 0.007843
0.184314 0.086275 0.011765
0.227451 0.098039 0.015686
0.278431 0.109804 0.015686
0.333333 0.121569 0.019608
0.396078 0.129412 0.023529
0.458824 0.141176 0.023529
0.52549 0.14902 0.027451
0.592157 0.152941 0.027451
0.662745 0.160784 0.027451
0.729412 0.164706 0.031373
0.796078 0.164706 0.031373
0.847059 0.176471 0.070588
0.894118 0.192157 0.105882
0.937255 0.207843 0.137255
0.980392 0.227451 0.168627
1 0.247059 0.196078
0 0.082353 0.007843
0 0.086275 0.007843
0.007843 0.086275 0.007843
0.023529 0.086275 0.007843
0.043137 0.090196 0.007843
0.070588 0.094118 0.007843
0.098039 0.098039 0.007843
0.12549 0.105882 0.011765
0.160784 0.113725 0.011765
0.2 0.12549 0.011765
0.247059 0.137255 0.015686
0.298039 0.14902 0.019608
0.352941 0.160784 0.019608
0.411765 0.172549 0.023529
0.47451 0.184314 0.023529
0.537255 0.192157 0.023529
0.607843 0.2 0.027451
0.67451 0.207843 0.027451
0.741176 0.211765 0.031373
0.8 0.219608 0.047059
0.847059 0.227451 0.082353
0.894118 0.239216 0.113725
0.937255 0.254902 0.145098
0.980392 0.270588 0.176471
1 0.290196 0.203922
0 0.117647 0.007843
0 0.117647 0.007843
0.007843 0.121569 0.007843
0.023529 0.12549 0.007843
0.05098 0.12549 0.007843
0.078431 0.133333 0.011765
0.109804 0.141176 0.011765
0.141176 0.14902 0.011765
0.180392 0.160784 0.015686
0.223529 0.172549 0.015686
0.270588 0.184314 0.015686
0.317647 0.196078 0.019608
0.372549 0.207843 0.019608
0.431373 0.219608 0.019608
0.494118 0.231373 0.023529
0.556863 0.239216 0.023529
0.619608 0.247059 0.027451
0.686275 0.254902 0.027451
0.74902 0.262745 0.027451
0.8 0.270588 0.062745
0.85098 0.278431 0.094118
0.894118 0.290196 0.12549
0.941176 0.301961 0.156863
0.980392 0.313725 0.184314
1 0.329412 0.215686
0 0.160784 0.011765
0 0.164706 0.011765
0.003922 0.164706 0.011765
0.027451 0.168627 0.011765
0.058824 0.176471 0.011765
0.090196 0.180392 0.011765
0.12549 0.188235 0.011765
0.160784 0.2 0.015686
0.2 0.211765 0.015686
0.243137 0.219608 0.015686
0.290196 0.231373 0.015686
0.341176 0.243137 0.019608
0.396078 0.254902 0.019608
0.45098 0.266667 0.019608
0.509804 0.278431 0.023529
0.572549 0.290196 0.023529
0.635294 0.298039 0.023529
0.698039 0.305882 0.023529
0.756863 0.313725 0.047059
0.803922 0.321569 0.078431
0.85098 0.329412 0.109804
0.898039 0.337255 0.137255
0.941176 0.34902 0.164706
0.980392 0.360784 0.196078
1 0.376471 0.223529
0 0.219608 0.011765
0 0.223529 0.011765
0 0.223529 0.011765
0.023529 0.227451 0.011765
0.062745 0.235294 0.011765
0.101961 0.239216 0.011765
0.141176 0.247059 0.011765
0.180392 0.254902 0.015686
0.219608 0.266667 0.015686
0.262745 0.27451 0.015686
0.309804 0.286275 0.015686
0.360784 0.298039 0.019608
0.415686 0.309804 0.019608
0.470588 0.321569 0.019608
0.529412 0.333333 0.019608
0.592157 0.341176 0.023529
0.65098 0.352941 0.023529
0.709804 0.356863 0.035294
0.760784 0.364706 0.066667
0.807843 0.368627 0.094118
0.854902 0.376471 0.121569
0.898039 0.384314 0.14902
0.941176 0.396078 0.180392
0.980392 0.407843 0.207843
1 0.419608 0.235294
0 0.286275 0.011765
0 0.286275 0.011765
0 0.290196 0.011765
0.011765 0.290196 0.011765
0.062745 0.298039 0.011765
0.109804 0.301961 0.011765
0.14902 0.309804 0.011765
0.192157 0.317647 0.011765
0.235294 0.32549 0.015686
0.282353 0.337255 0.015686
0.329412 0.345098 0.015686
0.380392 0.356863 0.015686
0.435294 0.368627 0.015686
0.490196 0.376471 0.015686
0.54902 0.388235 0.015686
0.607843 0.396078 0.015686
0.662745 0.403922 0.027451
0.713725 0.411765 0.058824
0.764706 0.415686 0.086275
0.811765 0.419608 0.109804
0.854902 0.427451 0.137255
0.898039 0.435294 0.164706
0.941176 0.443137 0.192157
0.980392 0.454902 0.219608
1 0.466667 0.247059
