site/assets/luts/freshluts--0000220-cinema-4.cube
# LUTr-Schema-Version: 2
# LUTr-ID: freshluts--0000220-cinema-4
# LUTr-Title: CINEMA 4
# LUTr-Collection: Fresh LUTs
# LUTr-Collection-ID: freshluts-community
# LUTr-Source: https://freshluts.com
# LUTr-Retrieved: 2026-07-27
# LUTr-Source-File: submissions-raw/freshluts/cubes/220__CINEMA_4.cube
# LUTr-Source-Format: CUBE
# LUTr-Source-SHA256: 2908696361ebd601720c38768ba4cb7bc6be2e538ceb4dba3b0a3a797186f6bc
# LUTr-License: CC0-1.0
# LUTr-License-URL: https://freshluts.com/termsandconditions
# LUTr-License-Basis: site-terms
# LUTr-Transform-Class: creative-look
# LUTr-Tags: creative, freshluts, community, cube, brown, rec709
# LUTr-Input-Color-Space: rec709
# LUTr-Input-Gamut: rec709
# LUTr-Input-Transfer: rec709
# LUTr-Output-Color-Space: srgb
# LUTr-Output-Gamut: rec709
# LUTr-Output-Transfer: srgb
# LUTr-Color-Space-Confidence: inferred-from-source-label
# LUTr-Domain-Normalized: true
# LUTr-Shaper: none
# LUTr-Original-Grid: 16x16x16
# LUTr-Conversion-Grid: 16x16x16
# LUTr-Conversion-Interpolation: none
# LUTr-Conversion-Method: Metadata normalization; numeric LUT samples preserved
# LUTr-Conversion-Tool: LUTr scripts/convert-all-to-cube.mjs 2.0.0
# LUTr-Conversion-Date: 2026-07-28
# LUTr-Asset-URL: https://freshluts.com/luts/220
# LUTr-Author: Andy
# LUTr-Author-URL: https://freshluts.com/users/1003
# LUTr-Attribution: Andy via Fresh LUTs
# LUTr-Source-Labels: gamma=Rec 709; color=Brown; key=Neutral; style=Cinematic light
# LUTr-Note: Preserve this metadata and the upstream license notices when redistributing.
TITLE "CINEMA 4"
LUT_3D_SIZE 6
DOMAIN_MIN 0 0 0
DOMAIN_MAX 1 1 1
0.001055 0.001055 0.001055
0.101212 0.004332 0.004395
0.319195 0.021431 0.020988
0.520576 0.037359 0.036226
0.767915 0.058294 0.056767
0.941554 0.071809 0.070715
0.00584 0.103059 0.005553
0.104386 0.104844 0.007289
0.319831 0.095564 0.021661
0.520842 0.099234 0.036651
0.768061 0.124866 0.05731
0.941568 0.128395 0.070957
0.02691 0.319757 0.024816
0.099819 0.320127 0.025258
0.328196 0.325127 0.031342
0.52592 0.314476 0.045856
0.770185 0.342546 0.067013
0.942329 0.336525 0.082879
0.046689 0.514499 0.044171
0.107362 0.514601 0.044367
0.318334 0.516967 0.049306
0.530098 0.520486 0.055932
0.775808 0.557555 0.082961
0.944465 0.54166 0.092119
0.071743 0.762847 0.072677
0.137582 0.763106 0.073643
0.358728 0.76687 0.08225
0.573463 0.769266 0.081833
0.780901 0.771096 0.082666
0.945301 0.739706 0.091803
0.108108 0.947961 0.092218
0.163669 0.947968 0.092199
0.361767 0.948238 0.092013
0.558676 0.948476 0.092013
0.753241 0.948744 0.092759
0.946398 0.949344 0.098551
0.002523 0.0025 0.07912
0.101473 0.004557 0.081225
0.319232 0.021481 0.080311
0.520576 0.037359 0.087111
0.767921 0.058312 0.110776
0.941554 0.071809 0.120331
0.006082 0.103264 0.082325
0.10604 0.106469 0.085415
0.322088 0.121999 0.100449
0.523281 0.138141 0.116135
0.769699 0.158151 0.136233
0.942983 0.171636 0.150519
0.02698 0.319805 0.084124
0.125844 0.322115 0.10374
0.329751 0.326683 0.109237
0.527532 0.326245 0.124027
0.771652 0.354859 0.145175
0.943814 0.355403 0.162974
0.046689 0.514499 0.095056
0.14474 0.516403 0.122852
0.330225 0.518539 0.127268
0.531525 0.521972 0.133518
0.777472 0.56299 0.159805
0.945773 0.550045 0.16882
0.071797 0.762864 0.126684
0.171624 0.765218 0.153643
0.371912 0.768488 0.159106
0.578656 0.770598 0.15868
0.78219 0.772407 0.159518
0.946533 0.743824 0.168659
0.108108 0.947961 0.141834
0.204895 0.949264 0.168896
0.378801 0.949488 0.168866
0.567044 0.949713 0.168866
0.757228 0.94998 0.169875
0.947592 0.950564 0.17569
0.014282 0.013894 0.252021
0.087321 0.014306 0.252322
0.320144 0.022628 0.259436
0.521332 0.038667 0.251661
0.768209 0.059334 0.279927
0.941627 0.072837 0.27542
0.015043 0.088008 0.252539
0.11547 0.115795 0.255866
0.324488 0.124594 0.263594
0.52546 0.1409 0.265577
0.771353 0.160553 0.294202
0.944404 0.174058 0.294093
0.028506 0.320887 0.262819
0.128671 0.324571 0.266498
0.339972 0.336967 0.279226
0.537485 0.350815 0.293974
0.781022 0.369429 0.314188
0.952963 0.387838 0.332358
0.047669 0.515079 0.258244
0.147028 0.518339 0.271079
0.354951 0.528564 0.296456
0.542506 0.533227 0.303812
0.787731 0.575003 0.323283
0.954241 0.567879 0.33229
0.075277 0.763943 0.295294
0.176528 0.767567 0.310323
0.389367 0.778233 0.322621
0.589372 0.779331 0.322278
0.790905 0.781094 0.323148
0.95481 0.756201 0.33229
0.109712 0.948049 0.292438
0.207445 0.950585 0.308433
0.40702 0.957887 0.332494
0.584795 0.958063 0.332494
0.769311 0.958318 0.335206
0.955722 0.958847 0.340779
0.027914 0.027378 0.455583
0.088735 0.027526 0.455658
0.303507 0.031426 0.457682
0.522431 0.040646 0.464429
0.768594 0.060841 0.498465
0.941747 0.074398 0.47759
0.028266 0.08918 0.455753
0.129223 0.129396 0.459065
0.318575 0.133707 0.461686
0.526545 0.142805 0.468677
0.771743 0.162059 0.506712
0.944518 0.175549 0.489795
0.037366 0.305163 0.460317
0.13799 0.319402 0.464048
0.351736 0.348853 0.478855
0.54232 0.356152 0.486073
0.786362 0.377527 0.528405
0.957187 0.394942 0.519964
0.049117 0.515971 0.469012
0.148376 0.519202 0.472439
0.360387 0.533782 0.487952
0.557613 0.548405 0.503365
0.799284 0.567937 0.516576
0.964973 0.578708 0.525865
0.080607 0.765444 0.510826
0.181585 0.768884 0.517979
0.395932 0.782827 0.530574
0.581833 0.790411 0.515862
0.801966 0.792158 0.516726
0.965368 0.767105 0.526338
0.111581 0.948145 0.488897
0.209105 0.950666 0.499182
0.412153 0.961898 0.520135
0.595567 0.968758 0.526925
0.779846 0.968966 0.530194
0.966096 0.96941 0.534558
0.046417 0.045665 0.722473
0.112116 0.045944 0.72255
0.332067 0.050684 0.723881
0.551029 0.056146 0.725563
0.769089 0.062633 0.729352
0.941876 0.076209 0.698781
0.047039 0.112451 0.722635
0.148004 0.147976 0.725478
0.347878 0.153071 0.727404
0.558473 0.157334 0.72886
0.772234 0.163811 0.732776
0.944651 0.177321 0.705262
0.057226 0.333669 0.725553
0.156939 0.34788 0.728634
0.368927 0.36632 0.741462
0.575364 0.370177 0.743604
0.787852 0.381376 0.749391
0.957554 0.397566 0.724824
0.064574 0.544568 0.728509
0.163813 0.551593 0.731613
0.379518 0.570462 0.746945
0.576925 0.566325 0.757385
0.802774 0.57166 0.759544
0.967847 0.582178 0.734225
0.086727 0.766923 0.735469
0.187728 0.770245 0.737962
0.397546 0.783255 0.74911
0.586626 0.794464 0.759636
0.816544 0.80695 0.771652
0.979356 0.816881 0.782371
0.113592 0.948241 0.704643
0.21091 0.95076 0.710073
0.413164 0.961971 0.725116
0.599873 0.972388 0.736498
0.826583 0.98305 0.784381
0.979918 0.983399 0.78606
0.057709 0.05683 0.887931
0.113454 0.056927 0.887943
0.322128 0.061712 0.888568
0.529963 0.066358 0.889225
0.735373 0.070341 0.88986
0.942007 0.077804 0.893458
0.05795 0.113513 0.88796
0.159423 0.159282 0.890509
0.343052 0.16406 0.891605
0.540976 0.167619 0.892172
0.741388 0.171523 0.892835
0.94485 0.179834 0.896568
0.067268 0.323615 0.889197
0.167093 0.343052 0.892031
0.379256 0.376784 0.903913
0.566698 0.381544 0.905167
0.761916 0.390011 0.906245
0.957782 0.399054 0.908935
0.074262 0.524455 0.890463
0.173602 0.534981 0.893268
0.391089 0.562667 0.906437
0.58844 0.576824 0.91608
0.776429 0.578472 0.916146
0.967916 0.582697 0.918873
0.094271 0.732709 0.892701
0.195623 0.739035 0.895192
0.40488 0.755931 0.90641
0.59375 0.766939 0.916935
0.824308 0.814959 0.929453
0.980798 0.818653 0.93282
0.115228 0.948338 0.895607
0.212375 0.950854 0.89805
0.414053 0.962048 0.909386
0.600368 0.972463 0.920479
0.828745 0.985165 0.934279
0.988163 0.991678 0.941319
