site/assets/luts/freshluts--0000632-yellowpurple.cube
# LUTr-Schema-Version: 2
# LUTr-ID: freshluts--0000632-yellowpurple
# LUTr-Title: YELLOW&PURPLE
# LUTr-Collection: Fresh LUTs
# LUTr-Collection-ID: freshluts-community
# LUTr-Source: https://freshluts.com
# LUTr-Retrieved: 2026-07-27
# LUTr-Source-File: submissions-raw/freshluts/cubes/632__33_9.A008_02281607_C037.cube
# LUTr-Source-Format: CUBE
# LUTr-Source-SHA256: 17af8f9f96be18338d31663027dfda26ba6fd5b759e9c93243ddad90e150c2ac
# LUTr-License: CC0-1.0
# LUTr-License-URL: https://freshluts.com/termsandconditions
# LUTr-License-Basis: site-terms
# LUTr-Transform-Class: creative-look
# LUTr-Tags: creative, freshluts, community, cube, purple, bmd-film
# LUTr-Input-Color-Space:
# LUTr-Input-Gamut: bmd-film-gamut
# LUTr-Input-Transfer: bmd-film
# LUTr-Output-Color-Space: srgb
# LUTr-Output-Gamut: rec709
# LUTr-Output-Transfer: srgb
# LUTr-Color-Space-Confidence: camera-profile-input-required
# LUTr-Domain-Normalized: true
# LUTr-Shaper: none
# LUTr-Original-Grid: 33x33x33
# LUTr-Conversion-Grid: 33x33x33
# LUTr-Conversion-Interpolation: none
# LUTr-Conversion-Method: Metadata normalization; numeric LUT samples preserved
# LUTr-Conversion-Tool: LUTr scripts/convert-all-to-cube.mjs 2.0.0
# LUTr-Conversion-Date: 2026-07-28
# LUTr-Asset-URL: https://freshluts.com/luts/632
# LUTr-Author: lvannoeun@gmail.com
# LUTr-Author-URL: https://freshluts.com/users/57563
# LUTr-Attribution: lvannoeun@gmail.com via Fresh LUTs
# LUTr-Source-Labels: gamma=Blackmagic BMD Film; color=Purple; key=Neutral; style=cine drama
# LUTr-Note: Preserve this metadata and the upstream license notices when redistributing.
TITLE "YELLOW&PURPLE"
LUT_3D_SIZE 33
DOMAIN_MIN 0 0 0
DOMAIN_MAX 1 1 1
0.0059205 0 0.0869612
0.00537118 0 0.0806592
0.0536049 0 0.0776226
0.107057 0 0.0797284
0.161852 0 0.0818799
0.217395 0 0.0831769
0.275959 0 0.0835126
0.335866 0 0.0827649
0.389929 0 0.0810407
0.435477 0 0.0788739
0.47689 0 0.0766461
0.514809 0 0.0746319
0.5505 0 0.0727398
0.58616 0 0.0707866
0.623407 0 0.069337
0.660853 0 0.0681315
0.697002 0 0.067155
0.731609 0 0.0664836
0.764843 0.000564584 0.0661784
0.79704 0.00350958 0.0663157
0.828733 0.00660716 0.0665904
0.860182 0.00968948 0.0670176
0.891615 0.0127718 0.0673838
0.922972 0.0157778 0.0679179
0.934081 0.0168612 0.0666209
0.933944 0.0168917 0.0642557
0.933822 0.016907 0.0618753
0.9337 0.0169223 0.059556
0.933577 0.0169375 0.0572519
0.933455 0.0169528 0.0551003
0.933349 0.016968 0.0529335
0.933227 0.0169833 0.0508278
0.93312 0.0169985 0.0487678
0.00898756 0.0173953 0.0835279
0.00839246 0.0111696 0.0771954
0.0482948 0.00856031 0.072694
0.099321 0.00653086 0.0746014
0.153231 0.00393683 0.076524
0.208377 0.00317388 0.0772869
0.266575 0.00199893 0.0772564
0.327321 0.000610361 0.0762798
0.383795 0 0.0745403
0.429709 0 0.0722972
0.471458 0 0.0700999
0.509682 0 0.0679789
0.545495 0 0.0660868
0.580972 0 0.0643015
0.61796 0 0.0627909
0.655451 0 0.0616007
0.691646 0 0.0606699
0.726375 0 0.0600748
0.759686 0.000228885 0.0597696
0.791943 0.00317388 0.0599527
0.823697 0.00624094 0.0602884
0.855161 0.00932326 0.0607767
0.886595 0.0123751 0.0612955
0.917967 0.0153811 0.0619211
0.933791 0.016907 0.0611276
0.933654 0.0169223 0.0587015
0.933532 0.0169375 0.0564279
0.93341 0.016968 0.0541695
0.933288 0.0169833 0.0520027
0.933181 0.0169833 0.0498512
0.933059 0.0169985 0.0476844
0.932937 0.0170138 0.0455787
0.932876 0.0170291 0.0443427
0.012726 0.0496681 0.0820478
0.012314 0.0433967 0.0756847
0.0451514 0.0394141 0.0702831
0.0923323 0.0388952 0.0713512
0.143557 0.0368048 0.0724956
0.197223 0.0339971 0.0722972
0.252415 0.0305638 0.0711681
0.310933 0.025742 0.0690471
0.369436 0.0204013 0.0661021
0.418296 0.016083 0.0632944
0.462013 0.012665 0.060914
0.501747 0.00999466 0.0588693
0.538293 0.00790417 0.0570535
0.573892 0.00585946 0.0556497
0.610819 0.00546273 0.0544137
0.648615 0.00529488 0.0534981
0.685252 0.00459297 0.0527962
0.720424 0.00303655 0.0524453
0.753826 0.00103761 0.0524758
0.78613 0.00276188 0.0528115
0.817868 0.00581369 0.0532387
0.849409 0.00889601 0.0536812
0.880842 0.0119326 0.0543069
0.912215 0.0149386 0.0550088
0.933455 0.0169528 0.0549325
0.933333 0.016968 0.0526284
0.933211 0.0169833 0.0504158
0.933089 0.0169985 0.0481422
0.932967 0.0170138 0.0459907
0.932876 0.0170291 0.0443427
0.932876 0.0170291 0.0443427
0.932876 0.0170291 0.0443427
0.932876 0.0170291 0.0443427
0.0154421 0.0822309 0.0816968
0.0153506 0.0758984 0.0755016
0.0431525 0.0704662 0.0706798
0.0887007 0.0705577 0.0711376
0.136004 0.06981 0.0705425
0.18761 0.0678111 0.0686961
0.240284 0.0652018 0.0662852
0.296025 0.0615854 0.0627604
0.353628 0.0569009 0.0584115
0.405066 0.0522927 0.0542153
0.450507 0.0485084 0.0509346
0.491691 0.0453803 0.0484779
0.529244 0.0430457 0.0466011
0.565042 0.0408484 0.0451057
0.601556 0.0388647 0.0439155
0.639658 0.0372015 0.0429694
0.676997 0.0358434 0.0424353
0.712947 0.0348516 0.0422065
0.74728 0.034226 0.0424048
0.780179 0.0340581 0.0428473
0.812146 0.0340734 0.0437018
0.843763 0.0342107 0.0448157
0.875242 0.0344396 0.0459907
0.906691 0.0345769 0.0472267
0.933761 0.0343786 0.0480507
0.933593 0.0316167 0.0460212
0.933394 0.0291905 0.0441444
0.933288 0.0267033 0.0441749
0.933181 0.0243229 0.0442206
0.933089 0.0219577 0.0442664
0.932982 0.0195773 0.0442969
0.932891 0.017258 0.0443427
0.932876 0.0170291 0.0443427
0.0155795 0.115816 0.079942
0.0158541 0.109331 0.0740978
0.0375677 0.102663 0.0695201
0.0869001 0.101595 0.070985
0.131533 0.101732 0.0696422
0.180087 0.100877 0.0661173
0.23064 0.0990921 0.0621805
0.283619 0.0964065 0.0576028
0.339101 0.0927596 0.0519112
0.391959 0.088426 0.046067
0.438422 0.0845655 0.0415808
0.480888 0.0813153 0.0384833
0.51957 0.0786908 0.0361791
0.555642 0.0764935 0.034226
0.591775 0.0744945 0.0331731
0.629709 0.0726482 0.0322728
0.667674 0.0710765 0.031693
0.704311 0.0698711 0.0313573
0.739544 0.068986 0.0316625
0.77319 0.0686351 0.0324102
0.805646 0.0684215 0.0335851
0.8374 0.0685435 0.0346838
0.868986 0.0686503 0.0361639
0.900389 0.0687724 0.0376898
0.931868 0.0689708 0.0414435
0.933761 0.066392 0.041825
0.933761 0.0637064 0.0419776
0.933761 0.0610819 0.0421302
0.933745 0.0585031 0.0422827
0.933745 0.0559396 0.0424353
0.93373 0.0533608 0.0425879
0.93373 0.0508583 0.0427405
0.933715 0.0483406 0.0428931
0.01355 0.150317 0.0759136
0.014023 0.143755 0.0701915
0.0280003 0.136507 0.0649271
0.0818189 0.133883 0.0670329
0.127901 0.133593 0.0668498
0.174243 0.133394 0.0629892
0.222751 0.132326 0.0581979
0.273472 0.130541 0.0528267
0.326757 0.127779 0.0460212
0.379995 0.124132 0.0387274
0.426657 0.120378 0.0327764
0.469902 0.117189 0.0284733
0.509453 0.114519 0.0256199
0.546059 0.112245 0.0237583
0.581979 0.110048 0.022446
0.619516 0.108202 0.0215
0.657801 0.106569 0.020798
0.695033 0.10515 0.0204471
0.730953 0.104173 0.0205844
0.765423 0.103441 0.0214389
0.79852 0.103105 0.0227665
0.830793 0.102983 0.0264286
0.862745 0.102983 0.0305791
0.894408 0.103075 0.0347448
0.925917 0.103197 0.0387427
0.933822 0.101152 0.0398413
0.933822 0.0985275 0.0399939
0.933822 0.0958877 0.0401465
0.933822 0.0932631 0.0402991
0.933822 0.0906844 0.0404364
0.933806 0.0881208 0.040589
0.933806 0.0856031 0.0407263
0.933806 0.0831006 0.0408637
0.0099794 0.185565 0.0696269
0.0105745 0.178958 0.0639048
0.0157473 0.171344 0.0578622
0.0728618 0.16791 0.0597238
0.122148 0.166445 0.0605631
0.168658 0.166064 0.0581826
0.215991 0.16553 0.053315
0.264866 0.16434 0.0474708
0.316152 0.16228 0.0400702
0.368826 0.15938 0.031342
0.415564 0.1561 0.0239414
0.459022 0.153017 0.018616
0.499336 0.150317 0.0149081
0.536492 0.147921 0.0128023
0.572198 0.1458 0.011368
0.609201 0.143755 0.0103151
0.647639 0.142061 0.00962844
0.685283 0.140688 0.00914015
0.721828 0.139406 0.0110323
0.757198 0.138445 0.0146334
0.791165 0.137881 0.0186465
0.824002 0.137591 0.0229953
0.856245 0.137423 0.0273289
0.888075 0.137438 0.0317082
0.919676 0.137499 0.0359503
0.933791 0.13608 0.0378882
0.933791 0.133379 0.0380407
0.933791 0.130739 0.0381781
0.933806 0.128115 0.0383307
0.933806 0.125536 0.038468
0.933806 0.122957 0.0386206
0.933822 0.120455 0.0387579
0.933822 0.117937 0.0388952
0.00451667 0.221668 0.0610056
0.00540169 0.215 0.0554665
0.00645457 0.207156 0.0492103
0.0614939 0.202762 0.0504158
0.113664 0.200443 0.0514076
0.161837 0.199405 0.050248
0.209155 0.19884 0.0464637
0.257038 0.197986 0.0404669
0.306844 0.196567 0.032578
0.358083 0.194278 0.0232395
0.405463 0.191485 0.0146792
0.448676 0.188678 0.00953689
0.489174 0.186007 0.00656138
0.526818 0.183688 0.00430304
0.562478 0.181628 0.00210575
0.598871 0.179522 0.00015259
0.637293 0.177737 0.00216678
0.675258 0.176135 0.00476081
0.712413 0.174762 0.00762951
0.748425 0.173602 0.0110933
0.783169 0.172824 0.0150301
0.816663 0.17232 0.0194095
0.849302 0.172015 0.0240635
0.881422 0.171939 0.0285649
0.913176 0.171923 0.033051
0.933608 0.171008 0.035935
0.933623 0.168322 0.0360876
0.933639 0.165682 0.0362402
0.933654 0.163043 0.0363928
0.933669 0.160464 0.0365301
0.9337 0.157885 0.0366827
0.933715 0.155383 0.03682
0.933715 0.152865 0.0369573
0 0.258701 0.0496071
0.0000762951 0.251972 0.0441901
0.0000762951 0.244099 0.0378576
0.0474403 0.238468 0.0386969
0.102647 0.235325 0.0402838
0.152911 0.233631 0.0397803
0.201236 0.232746 0.0368048
0.248951 0.232013 0.0311894
0.298009 0.230793 0.0231937
0.34818 0.229099 0.01355
0.396063 0.22681 0.00675975
0.438727 0.224231 0.00282292
0.47924 0.221759 0.000411994
0.517113 0.219486 0
0.55288 0.217258 0
0.588769 0.215244 0
0.626719 0.213413 0.000030518
0.665034 0.211734 0.00172427
0.702525 0.210193 0.00445563
0.739086 0.208942 0.00772107
0.774533 0.207904 0.0115206
0.808759 0.207202 0.0158541
0.841917 0.20679 0.0205844
0.874434 0.206546 0.0254978
0.906386 0.206485 0.030045
0.933272 0.206012 0.0339971
0.933318 0.203372 0.0341497
0.933333 0.200671 0.034287
0.933364 0.198093 0.0344396
0.933394 0.195514 0.0345769
0.933425 0.192935 0.0347295
0.933455 0.190417 0.0348669
0.933471 0.1879 0.0350042
0 0.296361 0.0353704
0 0.289601 0.0298009
0 0.281773 0.0234073
0.0297551 0.275319 0.023331
0.0886397 0.271077 0.0258183
0.141512 0.268574 0.026154
0.191394 0.26717 0.0239109
0.239933 0.266224 0.0183871
0.288869 0.265324 0.0105287
0.33843 0.263874 0.00315862
0.387015 0.261906 0
0.428855 0.259678 0
0.469017 0.257343 0
0.507179 0.255085 0
0.543221 0.252949 0
0.578744 0.250935 0
0.616114 0.249027 0
0.654627 0.247318 0.000015259
0.692393 0.245747 0.00155642
0.729381 0.244358 0.00453193
0.765377 0.243244 0.00820935
0.80029 0.242359 0.0124208
0.833997 0.241703 0.0171206
0.866987 0.241321 0.0222477
0.89926 0.241123 0.0271
0.931136 0.241062 0.0318608
0.93283 0.238483 0.0322423
0.932876 0.235843 0.0323796
0.932906 0.233204 0.032517
0.932952 0.23061 0.0326543
0.932982 0.228031 0.0327916
0.933028 0.225498 0.032929
0.933059 0.22298 0.0330663
0 0.334249 0.019379
0 0.327535 0.0136263
0 0.319692 0.00823987
0.00918593 0.313405 0.00544747
0.0711223 0.308019 0.00816358
0.127077 0.304662 0.00994888
0.179187 0.302449 0.00743114
0.229175 0.301183 0.00256352
0.278599 0.299901 0
0.327901 0.298421 0
0.376272 0.296696 0
0.418891 0.294667 0
0.459022 0.2925 0
0.497307 0.290303 0
0.533639 0.288243 0
0.568948 0.286152 0
0.605524 0.284306 0
0.644114 0.282597 0
0.682078 0.28101 0
0.719432 0.27953 0.00166323
0.755886 0.278325 0.00508125
0.791302 0.277317 0.00918593
0.82565 0.276524 0.0138247
0.859113 0.276005 0.018967
0.891752 0.275669 0.0241703
0.923949 0.275532 0.0290227
0.932204 0.273518 0.030396
0.932265 0.270893 0.0305333
0.932311 0.268284 0.0306706
0.932372 0.265721 0.0307927
0.932403 0.263142 0.03093
0.932448 0.260639 0.0310674
0.932494 0.258137 0.0312047
0 0.371664 0.00485237
0 0.364965 0.00323491
0 0.357305 0.000366217
0 0.351431 0
0.0515145 0.34583 0.000015259
0.110002 0.341726 0.000564584
0.164614 0.338704 0
0.216724 0.3364 0
0.266911 0.334707 0
0.316579 0.33315 0
0.365026 0.331441 0
0.409079 0.329473 0
0.449012 0.327382 0
0.487434 0.325261 0
0.524086 0.323232 0
0.559289 0.321233 0
0.595315 0.319371 0
0.633585 0.317571 0
0.671763 0.315969 0
0.709285 0.314504 0
0.74609 0.313161 0.00222782
0.781979 0.312032 0.00616464
0.816846 0.311147 0.0107118
0.850813 0.31046 0.0157931
0.883894 0.309972 0.0211795
0.916411 0.309728 0.0263828
0.931426 0.308232 0.0287175
0.931487 0.305623 0.0288396
0.931548 0.303014 0.0289464
0.931609 0.300481 0.0290684
0.93167 0.297993 0.0291752
0.931731 0.295445 0.0293126
0.931792 0.293019 0.0294194
0 0.408377 0.000396735
0 0.401755 0
0 0.394171 0
0 0.388647 0
0.0326696 0.383337 0
0.0923934 0.37879 0
0.148882 0.375082 0
0.20267 0.372259 0
0.25417 0.370077 0
0.304479 0.3682 0
0.353384 0.366308 0
0.399115 0.36437 0
0.439078 0.362341 0
0.477638 0.360235 0
0.514534 0.358221 0
0.549798 0.356268 0
0.58529 0.354284 0
0.623102 0.352544 0
0.661402 0.350896 0
0.699092 0.349325 0
0.736141 0.347967 0.000015259
0.772442 0.346746 0.00341802
0.807752 0.345739 0.00784314
0.842161 0.344915 0.0128328
0.875776 0.344289 0.0183108
0.908598 0.343908 0.023743
0.930541 0.342855 0.0272831
0.930602 0.340261 0.0273899
0.930678 0.337652 0.0274968
0.930739 0.335119 0.0275883
0.930816 0.332647 0.0276951
0.930877 0.330098 0.0277867
0.930938 0.327688 0.0278935
0 0.444587 0
0 0.437995 0
0 0.430396 0
0 0.42475 0
0.0162051 0.419837 0
0.0757305 0.415457 0
0.132784 0.411719 0
0.187732 0.40853 0
0.240513 0.405859 0
0.291676 0.403647 0
0.341253 0.401602 0
0.388403 0.399542 0
0.429084 0.397482 0
0.467857 0.395438 0
0.505074 0.393362 0
0.540429 0.391348 0
0.575555 0.389502 0
0.612619 0.387686 0
0.651057 0.385946 0
0.688869 0.38439 0
0.726116 0.382895 0
0.762722 0.381582 0.000900282
0.798459 0.380468 0.00526436
0.833249 0.379522 0.0101625
0.867247 0.378775 0.0155795
0.900526 0.378241 0.02121
0.929549 0.377569 0.0260929
0.929625 0.374945 0.0261692
0.929702 0.372396 0.0262608
0.929778 0.369802 0.0263523
0.929854 0.367315 0.0264286
0.929931 0.364828 0.0265202
0.930007 0.362341 0.0265965
0 0.48069 0
0 0.474022 0
0 0.466316 0
0 0.460685 0
0.00477607 0.455985 0
0.0603647 0.451835 0
0.117418 0.448127 0
0.172717 0.444846 0
0.226444 0.441962 0
0.278401 0.439445 0
0.32874 0.437125 0
0.376867 0.435004 0
0.418982 0.432837 0
0.458015 0.430716 0
0.495476 0.428687 0
0.531212 0.426703 0
0.566003 0.42475 0
0.602396 0.422873 0
0.640772 0.42118 0
0.678691 0.419532 0
0.716091 0.418051 0
0.752895 0.416693 0
0.788968 0.415488 0.00297551
0.82414 0.414405 0.00781262
0.858488 0.413565 0.0131228
0.89218 0.412879 0.0188449
0.925292 0.41236 0.024506
0.928618 0.409949 0.0251316
0.928695 0.407324 0.0251926
0.928771 0.404761 0.0252689
0.928847 0.402197 0.0253452
0.928923 0.399695 0.0254215
0.928985 0.397253 0.0254826
0 0.516991 0
0 0.510216 0
0 0.502449 0
0 0.496757 0
0 0.492073 0
0.0462654 0.487953 0
0.103166 0.484367 0
0.158373 0.481117 0
0.212421 0.478172 0
0.265034 0.475456 0
0.315999 0.472969 0
0.364767 0.470726 0
0.408911 0.468513 0
0.448188 0.466346 0
0.485878 0.464271 0
0.522011 0.462257 0
0.556802 0.460288 0
0.59234 0.458442 0
0.630533 0.456657 0
0.668605 0.454963 0
0.706111 0.453452 0
0.743053 0.452003 0
0.77937 0.450736 0.00105287
0.814878 0.449546 0.00578317
0.849607 0.448585 0.0110475
0.883604 0.447822 0.0167086
0.917113 0.44712 0.0225376
0.92755 0.445136 0.0243534
0.927626 0.442496 0.0243992
0.927718 0.439902 0.024445
0.927779 0.437385 0.0244907
0.927871 0.434806 0.0245518
0.927932 0.432349 0.0245975
0 0.55317 0
0 0.546502 0
0 0.538705 0
0 0.533089 0
0 0.528298 0
0.0330053 0.524224 0
0.0897536 0.520714 0
0.14493 0.517525 0
0.198947 0.514534 0
0.251743 0.511772 0
0.303212 0.509209 0
0.352682 0.506798 0
0.398596 0.504509 0
0.43827 0.502327 0
0.476356 0.50016 0
0.512947 0.498116 0
0.547784 0.496162 0
0.582895 0.494301 0
0.620325 0.492439 0
0.658549 0.49073 0
0.696147 0.489097 0
0.733288 0.487602 0
0.769757 0.486244 0
0.80557 0.484993 0.00415045
0.84062 0.48397 0.00936904
0.874907 0.483009 0.0149386
0.908751 0.482277 0.0208133
0.926482 0.480613 0.0239261
0.926558 0.478004 0.0239414
0.926635 0.47541 0.0239567
0.926711 0.472801 0.0239872
0.926787 0.470268 0.0240024
0.926863 0.46772 0.024033
0 0.588937 0
0 0.582345 0
0 0.574701 0
0 0.569116 0
0 0.564355 0
0.0202335 0.560433 0
0.076936 0.557 0
0.131991 0.55378 0
0.185962 0.550881 0
0.238926 0.54815 0
0.290669 0.545556 0
0.340612 0.543099 0
0.388006 0.54081 0
0.428519 0.538552 0
0.466911 0.536431 0
0.503746 0.534386 0
0.538949 0.532387 0
0.573648 0.530434 0
0.610269 0.528634 0
0.648646 0.526894 0
0.686336 0.525216 0
0.723507 0.523674 0
0.760159 0.522225 0
0.79617 0.520897 0.00289921
0.83151 0.519722 0.00808728
0.866163 0.51873 0.0136568
0.900221 0.51783 0.01944
0.92546 0.516548 0.0238956
0.925521 0.513863 0.0238804
0.925582 0.511223 0.0238651
0.925658 0.508659 0.0238499
0.925719 0.50602 0.0238346
0.92578 0.503517 0.0238193
0 0.623697 0
0 0.617319 0
0 0.609934 0
0 0.604501 0
0 0.599771 0
0.00810254 0.59617 0
0.064683 0.592813 0
0.11957 0.589776 0
0.173434 0.586969 0
0.226444 0.584283 0
0.278325 0.58172 0
0.328588 0.579278 0
0.376654 0.577005 0
0.41886 0.574762 0
0.457557 0.572625 0
0.494713 0.570596 0
0.53019 0.568612 0
0.564767 0.566644 0
0.600565 0.564843 0
0.638849 0.563104 0
0.676631 0.561395 0
0.713878 0.559808 0
0.750668 0.558343 0
0.786847 0.556954 0.00222782
0.822416 0.555718 0.00726329
0.857359 0.554635 0.0128023
0.891676 0.553674 0.0185397
0.924498 0.552743 0.0242771
0.92459 0.550027 0.0242313
0.924636 0.547387 0.0241855
0.924697 0.544823 0.0241398
0.924743 0.542184 0.024094
0.924804 0.539666 0.0240482
0 0.657771 0
0 0.651514 0
0 0.64419 0
0 0.638911 0
0 0.634165 0
0.00291447 0.630823 0
0.0532235 0.627802 0
0.107851 0.624979 0
0.161425 0.622278 0
0.214313 0.61973 0
0.266178 0.617288 0
0.316869 0.614908 0
0.365408 0.61268 0
0.4094 0.61059 0
0.44828 0.608377 0
0.48574 0.606439 0
0.521691 0.604471 0
0.556161 0.602594 0
0.59144 0.600778 0
0.62916 0.599054 0
0.667079 0.597314 0
0.704387 0.595728 0
0.741268 0.594247 0
0.777584 0.592813 0.00205997
0.813352 0.591608 0.0069276
0.848554 0.590402 0.0124208
0.883131 0.58938 0.0180972
0.917357 0.588464 0.0239567
0.92369 0.586175 0.0250095
0.923766 0.583535 0.0249332
0.923827 0.580911 0.0248722
0.923873 0.578347 0.0247959
0.923919 0.575784 0.0247196
0 0.691447 0
0 0.685222 0
0 0.67805 0
0 0.672786 0
0 0.668101 0
0 0.664912 0
0.0428168 0.66212 0
0.0968948 0.659541 0
0.150164 0.657038 0
0.202731 0.654612 0
0.25449 0.652201 0
0.305257 0.649943 0
0.354269 0.647715 0
0.400214 0.645579 0
0.439261 0.643534 0
0.476997 0.64155 0
0.513252 0.639582 0
0.54789 0.63772 0
0.582605 0.63595 0
0.619669 0.634211 0
0.657694 0.632517 0
0.695125 0.630991 0
0.732082 0.629511 0
0.768505 0.628077 0.00228885
0.80444 0.626795 0.00717174
0.839826 0.625666 0.0125277
0.874647 0.624582 0.018143
0.909026 0.623667 0.0238651
0.922927 0.621744 0.0261845
0.922988 0.619165 0.0260929
0.923049 0.616602 0.0260014
0.92311 0.614084 0.0259251
0.923156 0.611627 0.0258183
0 0.724697 0
0 0.718578 0
0 0.711421 0
0 0.706279 0
0 0.70164 0
0 0.698329 0
0.033875 0.695964 0
0.087129 0.693721 0
0.139818 0.691463 0
0.191943 0.689158 0
0.243519 0.686931 0
0.294194 0.684779 0
0.343435 0.682612 0
0.390356 0.680491 0
0.430503 0.678477 0
0.468513 0.676448 0
0.505043 0.674556 0
0.539895 0.672679 0
0.574319 0.670893 0
0.610544 0.669169 0
0.648463 0.667552 0
0.686046 0.665919 0
0.723079 0.664347 0.000015259
0.759594 0.662943 0.00308232
0.795651 0.661616 0.0080415
0.831174 0.660426 0.0131838
0.866239 0.659312 0.0186923
0.900816 0.658351 0.0242924
0.922316 0.656809 0.0277867
0.922362 0.654246 0.0276646
0.922408 0.651698 0.0275425
0.922454 0.649195 0.0274205
0.922499 0.646693 0.0272984
0 0.757809 0
0 0.75172 0
0 0.744656 0
0 0.739498 0
0 0.734905 0
0 0.731273 0
0.0264439 0.729229 0
0.0787366 0.727275 0
0.130617 0.725399 0
0.182193 0.723339 0
0.233402 0.721294 0
0.283803 0.71928 0
0.333104 0.71725 0
0.380499 0.71519 0
0.42211 0.713191 0
0.460304 0.711192 0
0.497032 0.709316 0
0.532219 0.707485 0
0.566415 0.705699 0
0.601984 0.703944 0
0.639719 0.702358 0
0.677165 0.70074 0
0.714305 0.699123 0.000366217
0.750912 0.697704 0.00447089
0.78706 0.69633 0.00941482
0.822782 0.695125 0.0144198
0.857984 0.69398 0.0197604
0.89279 0.692973 0.0252537
0.921996 0.691798 0.0299229
0.922011 0.68925 0.0297551
0.922042 0.686702 0.0295872
0.922057 0.684215 0.0294194
0.922072 0.681727 0.0292668
0 0.79086 0
0 0.784741 0
0 0.777691 0
0 0.772534 0
0 0.768017 0
0 0.763943 0
0.0200046 0.762051 0
0.0717327 0.760403 0
0.122805 0.758801 0
0.173556 0.757076 0
0.224186 0.755291 0
0.274296 0.753399 0
0.323461 0.751507 0
0.370901 0.749599 0
0.414191 0.747662 0
0.452537 0.745754 0
0.489418 0.743908 0
0.52491 0.742046 0
0.55903 0.740291 0
0.593851 0.738598 0
0.631251 0.73695 0
0.668666 0.735348 0
0.705837 0.733791 0.00199893
0.742519 0.732296 0.00654612
0.778759 0.730922 0.0113375
0.814588 0.729686 0.0162661
0.849943 0.728511 0.0214084
0.884855 0.727474 0.0267491
0.919432 0.726513 0.032105
0.921935 0.724102 0.0323033
0.921935 0.72163 0.032105
0.921935 0.719081 0.0319066
0.921935 0.716655 0.0317235
0 0.823789 0
0 0.817731 0
0 0.810636 0
0 0.805554 0
0 0.800977 0
0 0.79675 0
0.0142519 0.79472 0
0.0656291 0.793194 0
0.116121 0.79173 0
0.166186 0.790265 0
0.21619 0.788724 0
0.265766 0.787121 0
0.314778 0.785367 0
0.362264 0.783658 0
0.406653 0.781872 0
0.445258 0.779965 0
0.482322 0.778164 0
0.518044 0.77641 0
0.552148 0.774685 0
0.586511 0.772961 0
0.623133 0.771328 0
0.660578 0.769741 0.000839246
0.697658 0.768231 0.00477607
0.734447 0.766766 0.00926223
0.770718 0.765408 0.013901
0.806638 0.764096 0.0187228
0.842115 0.762982 0.0235904
0.877211 0.761913 0.028748
0.911894 0.760922 0.0339513
0.922148 0.758877 0.0353399
0.922118 0.756344 0.035111
0.922087 0.753887 0.0348669
0.922072 0.751415 0.0346532
0 0.856703 0.00103761
0 0.850614 0.000167849
0 0.843595 0.0000762951
0 0.838514 0.000015259
0 0.833951 0
0 0.829725 0
0.00889601 0.827253 0
0.0601358 0.825772 0
0.110262 0.82443 0
0.159838 0.823148 0
0.209186 0.821805 0
0.258305 0.820371 0
0.306874 0.81886 0
0.354299 0.817319 0
0.399771 0.815641 0
0.438605 0.813916 0
0.475807 0.812177 0
0.51165 0.810483 0
0.545846 0.808743 0
0.579736 0.807111 0
0.615503 0.805508 0.000900282
0.652964 0.803983 0.0043946
0.689967 0.802502 0.00830091
0.726696 0.801022 0.0125887
0.763073 0.799649 0.0170596
0.798978 0.798398 0.0217136
0.834577 0.797223 0.0263371
0.869749 0.796139 0.0312657
0.904601 0.795193 0.0363012
0.922652 0.793469 0.0388037
0.922606 0.791012 0.0385443
0.92256 0.788556 0.0382849
0.922499 0.786099 0.0380255
0 0.889601 0.00747692
0 0.883497 0.00627146
0 0.876493 0.00491341
0 0.871351 0.00392157
0 0.86685 0.0030518
0 0.862638 0.00221256
0.00619516 0.859754 0.000823987
0.054902 0.858259 0.0000457771
0.104829 0.856962 0
0.154086 0.855772 0
0.202991 0.854582 0
0.251698 0.853315 0
0.299886 0.851987 0
0.347143 0.850614 0
0.39266 0.849104 0
0.432624 0.847517 0
0.469871 0.845869 0
0.505714 0.84419 0
0.540078 0.842588 0.000442512
0.573632 0.841016 0.00270085
0.608606 0.83946 0.0056611
0.645808 0.83798 0.00885023
0.682719 0.836561 0.0125277
0.719326 0.835157 0.0164645
0.755764 0.833768 0.0207828
0.791745 0.832547 0.0252079
0.827329 0.831357 0.0296788
0.862577 0.830304 0.0343023
0.89752 0.829343 0.0391241
0.923461 0.82797 0.0426795
0.9234 0.825528 0.0424048
0.923323 0.823087 0.0421149
0.923262 0.82063 0.041825
0 0.922942 0.0126497
0 0.916671 0.0120394
0 0.909407 0.0111849
0 0.904311 0.0102541
0 0.899748 0.00941482
0 0.895521 0.00863661
0.000762951 0.892195 0.00720226
0.0499275 0.890669 0.00476081
0.0997482 0.889403 0.00283818
