site/assets/luts/freshluts--0001659-mfahri-photo-100c-negative.cube
# LUTr-Schema-Version: 2
# LUTr-ID: freshluts--0001659-mfahri-photo-100c-negative
# LUTr-Title: M.Fahri Photo - 100c Negative
# LUTr-Collection: Fresh LUTs
# LUTr-Collection-ID: freshluts-community
# LUTr-Source: https://freshluts.com
# LUTr-Retrieved: 2026-07-27
# LUTr-Source-File: submissions-raw/freshluts/cubes/1659__---_M.Fahri_-_AnalogFilmPack_-_100c_Negative.cube
# LUTr-Source-Format: CUBE
# LUTr-Source-SHA256: aa2c3fddd8ac0263422f1692e6c6f6f200fa13234816f8c81790b07210c5de22
# LUTr-License: CC0-1.0
# LUTr-License-URL: https://freshluts.com/termsandconditions
# LUTr-License-Basis: site-terms
# LUTr-Transform-Class: creative-look
# LUTr-Tags: creative, freshluts, community, cube, film-emulation, warm, rec709
# LUTr-Input-Color-Space: rec709
# LUTr-Input-Gamut: rec709
# LUTr-Input-Transfer: rec709
# LUTr-Output-Color-Space: srgb
# LUTr-Output-Gamut: rec709
# LUTr-Output-Transfer: srgb
# LUTr-Color-Space-Confidence: declared-by-source
# LUTr-Domain-Normalized: true
# LUTr-Shaper: none
# LUTr-Original-Grid: 25x25x25
# LUTr-Conversion-Grid: 25x25x25
# LUTr-Conversion-Interpolation: none
# LUTr-Conversion-Method: Metadata normalization; numeric LUT samples preserved
# LUTr-Conversion-Tool: LUTr scripts/convert-all-to-cube.mjs 2.0.0
# LUTr-Conversion-Date: 2026-07-28
# LUTr-Asset-URL: https://freshluts.com/luts/1659
# LUTr-Author: M.Fahri
# LUTr-Author-URL: https://freshluts.com/users/223435
# LUTr-Attribution: M.Fahri via Fresh LUTs
# LUTr-Source-Labels: gamma=Rec 709; color=Warm; key=Neutral; style=Film emulation
# LUTr-Note: Preserve this metadata and the upstream license notices when redistributing.
# LUTr-Upstream-Comment: M.Fahri Analog Film Pack 2023
# LUTr-Upstream-Comment: Follow me: https://www.instagram.com/m.fahri.photo/
# LUTr-Upstream-Comment: LUT size
# LUTr-Upstream-Comment: LUT data points
TITLE "M.Fahri Photo - 100c Negative"
LUT_3D_SIZE 9
DOMAIN_MIN 0 0 0
DOMAIN_MAX 1 1 1
0.054902 0.105882 0.082353
0.054902 0.101961 0.078431
0.12549 0.101961 0.078431
0.239216 0.090196 0.07451
0.439216 0.039216 0.070588
0.647059 0.035294 0.07451
0.796078 0.035294 0.090196
0.92549 0.243137 0.090196
1 0.403922 0.164706
0.054902 0.109804 0.086275
0.066667 0.113725 0.082353
0.137255 0.113725 0.082353
0.266667 0.109804 0.078431
0.462745 0.070588 0.07451
0.65098 0.066667 0.066667
0.8 0.152941 0.062745
0.92549 0.294118 0.098039
0.992157 0.431373 0.184314
0.047059 0.133333 0.090196
0.07451 0.137255 0.094118
0.152941 0.156863 0.078431
0.329412 0.196078 0.062745
0.501961 0.184314 0.054902
0.67451 0.215686 0.058824
0.807843 0.278431 0.054902
0.921569 0.384314 0.098039
0.992157 0.486275 0.207843
0.031373 0.243137 0.12549
0.094118 0.247059 0.141176
0.176471 0.266667 0.121569
0.34902 0.329412 0.062745
0.541176 0.380392 0.011765
0.686275 0.388235 0.015686
0.807843 0.423529 0.058824
0.905882 0.494118 0.137255
0.984314 0.564706 0.247059
0.035294 0.392157 0.196078
0.129412 0.4 0.211765
0.223529 0.415686 0.215686
0.337255 0.454902 0.188235
0.533333 0.52549 0.105882
0.705882 0.576471 0.011765
0.811765 0.580392 0.094118
0.909804 0.615686 0.192157
0.988235 0.65098 0.298039
0.160784 0.545098 0.298039
0.203922 0.54902 0.305882
0.298039 0.552941 0.32549
0.384314 0.580392 0.32549
0.513725 0.627451 0.298039
0.670588 0.678431 0.27451
0.835294 0.717647 0.207843
0.92549 0.72549 0.278431
0.992157 0.737255 0.364706
0.329412 0.682353 0.423529
0.356863 0.686275 0.427451
0.411765 0.690196 0.447059
0.482353 0.701961 0.462745
0.568627 0.72549 0.454902
0.666667 0.756863 0.45098
0.8 0.792157 0.415686
0.937255 0.823529 0.411765
0.996078 0.827451 0.454902
0.513725 0.803922 0.556863
0.52549 0.803922 0.560784
0.560784 0.807843 0.572549
0.611765 0.811765 0.588235
0.666667 0.823529 0.6
0.729412 0.843137 0.588235
0.815686 0.866667 0.588235
0.921569 0.882353 0.580392
0.996078 0.898039 0.576471
0.745098 0.909804 0.713725
0.733333 0.901961 0.701961
0.760784 0.905882 0.713725
0.796078 0.905882 0.721569
0.839216 0.909804 0.729412
0.870588 0.917647 0.733333
0.917647 0.933333 0.741176
0.960784 0.937255 0.733333
0.996078 0.941176 0.737255
0.05098 0.101961 0.090196
0.070588 0.105882 0.094118
0.133333 0.101961 0.094118
0.262745 0.078431 0.094118
0.454902 0.023529 0.101961
0.65098 0.023529 0.121569
0.803922 0.058824 0.137255
0.92549 0.25098 0.168627
0.996078 0.388235 0.219608
0.05098 0.109804 0.094118
0.07451 0.113725 0.094118
0.137255 0.113725 0.094118
0.282353 0.098039 0.101961
0.478431 0.066667 0.113725
0.658824 0.082353 0.12549
0.803922 0.164706 0.137255
0.921569 0.305882 0.172549
0.992157 0.419608 0.227451
0.07451 0.14902 0.113725
0.094118 0.145098 0.113725
0.180392 0.164706 0.109804
0.345098 0.188235 0.105882
0.517647 0.2 0.109804
0.67451 0.211765 0.121569
0.807843 0.290196 0.145098
0.92549 0.392157 0.184314
0.976471 0.470588 0.243137
0.078431 0.254902 0.160784
0.117647 0.258824 0.168627
0.2 0.27451 0.168627
0.356863 0.337255 0.12549
0.545098 0.384314 0.086275
0.690196 0.384314 0.113725
0.803922 0.431373 0.160784
0.909804 0.501961 0.215686
0.992157 0.572549 0.286275
0.090196 0.403922 0.231373
0.152941 0.411765 0.243137
0.247059 0.423529 0.254902
0.34902 0.462745 0.239216
0.529412 0.52549 0.172549
0.705882 0.576471 0.141176
0.815686 0.584314 0.188235
0.917647 0.611765 0.25098
0.972549 0.635294 0.298039
0.188235 0.552941 0.32549
0.235294 0.560784 0.337255
0.313725 0.564706 0.34902
0.403922 0.584314 0.352941
0.513725 0.627451 0.337255
0.666667 0.67451 0.301961
0.823529 0.709804 0.282353
0.929412 0.72549 0.329412
0.996078 0.737255 0.4
0.321569 0.686275 0.431373
0.360784 0.682353 0.443137
0.415686 0.690196 0.454902
0.490196 0.698039 0.47451
0.568627 0.72549 0.47451
0.670588 0.756863 0.462745
0.8 0.792157 0.443137
0.945098 0.823529 0.427451
0.988235 0.827451 0.470588
0.521569 0.803922 0.572549
0.533333 0.803922 0.572549
0.560784 0.807843 0.580392
0.619608 0.807843 0.596078
0.67451 0.823529 0.603922
0.729412 0.847059 0.603922
0.823529 0.862745 0.596078
0.917647 0.882353 0.592157
0.996078 0.894118 0.584314
0.733333 0.905882 0.705882
0.745098 0.905882 0.709804
0.760784 0.905882 0.713725
0.792157 0.905882 0.721569
0.843137 0.913725 0.737255
0.858824 0.913725 0.72549
0.909804 0.92549 0.733333
0.952941 0.929412 0.729412
0.992157 0.937255 0.72549
0.070588 0.101961 0.137255
0.101961 0.098039 0.137255
0.145098 0.098039 0.133333
0.290196 0.07451 0.156863
0.505882 0.011765 0.180392
0.67451 0.007843 0.215686
0.819608 0.117647 0.258824
0.929412 0.290196 0.301961
1 0.423529 0.352941
0.031373 0.109804 0.141176
0.090196 0.109804 0.156863
0.180392 0.109804 0.164706
0.321569 0.094118 0.176471
0.513725 0.019608 0.188235
0.686275 0.054902 0.223529
0.815686 0.192157 0.266667
0.929412 0.329412 0.305882
0.988235 0.443137 0.356863
0.047059 0.14902 0.172549
0.090196 0.14902 0.172549
0.188235 0.168627 0.196078
0.364706 0.196078 0.211765
0.529412 0.2 0.227451
0.682353 0.223529 0.247059
0.815686 0.309804 0.278431
0.92549 0.415686 0.317647
0.992157 0.505882 0.376471
0.12549 0.27451 0.243137
0.160784 0.278431 0.247059
0.247059 0.298039 0.258824
0.392157 0.345098 0.25098
0.556863 0.380392 0.247059
0.694118 0.392157 0.258824
0.811765 0.447059 0.290196
0.917647 0.517647 0.329412
0.992157 0.580392 0.392157
0.203922 0.431373 0.32549
0.239216 0.439216 0.329412
0.286275 0.447059 0.32549
0.388235 0.470588 0.329412
0.552941 0.537255 0.305882
0.698039 0.568627 0.298039
0.815686 0.592157 0.313725
0.917647 0.619608 0.356863
0.972549 0.635294 0.392157
0.262745 0.568627 0.392157
0.294118 0.576471 0.396078
0.34902 0.580392 0.403922
0.439216 0.596078 0.411765
0.545098 0.631373 0.407843
0.678431 0.67451 0.396078
0.811765 0.705882 0.388235
0.929412 0.72549 0.407843
0.988235 0.733333 0.454902
0.372549 0.694118 0.482353
0.380392 0.698039 0.47451
0.435294 0.698039 0.486275
0.509804 0.705882 0.509804
0.592157 0.729412 0.517647
0.678431 0.760784 0.509804
0.8 0.788235 0.490196
0.945098 0.823529 0.490196
0.988235 0.827451 0.513725
0.521569 0.803922 0.584314
0.533333 0.807843 0.588235
0.572549 0.807843 0.596078
0.619608 0.811765 0.611765
0.686275 0.823529 0.623529
0.741176 0.843137 0.627451
0.819608 0.862745 0.623529
0.92549 0.886275 0.619608
0.996078 0.894118 0.611765
0.729412 0.905882 0.709804
0.741176 0.905882 0.713725
0.760784 0.905882 0.717647
0.8 0.909804 0.729412
0.831373 0.905882 0.733333
0.87451 0.913725 0.737255
0.917647 0.92549 0.741176
0.964706 0.937255 0.745098
0.996078 0.941176 0.74902
0.121569 0.090196 0.247059
0.160784 0.086275 0.258824
0.266667 0.07451 0.278431
0.368627 0.062745 0.286275
0.529412 0.043137 0.317647
0.733333 0.023529 0.372549
0.858824 0.078431 0.384314
0.94902 0.258824 0.415686
0.996078 0.423529 0.47451
0.07451 0.101961 0.278431
0.141176 0.101961 0.286275
0.266667 0.094118 0.294118
0.384314 0.117647 0.309804
0.54902 0.101961 0.337255
0.729412 0.101961 0.376471
0.854902 0.188235 0.392157
0.937255 0.337255 0.439216
0.996078 0.458824 0.482353
0.015686 0.152941 0.301961
0.027451 0.156863 0.309804
0.235294 0.180392 0.333333
0.423529 0.231373 0.34902
0.580392 0.243137 0.376471
0.717647 0.278431 0.4
0.839216 0.337255 0.415686
0.929412 0.431373 0.45098
0.980392 0.494118 0.482353
0.035294 0.270588 0.345098
0.105882 0.278431 0.341176
0.25098 0.317647 0.376471
0.431373 0.364706 0.4
0.576471 0.396078 0.403922
0.709804 0.431373 0.427451
0.819608 0.478431 0.447059
0.921569 0.537255 0.462745
0.988235 0.584314 0.501961
0.196078 0.427451 0.403922
0.247059 0.447059 0.415686
0.337255 0.470588 0.427451
0.45098 0.501961 0.443137
0.572549 0.545098 0.439216
0.705882 0.572549 0.443137
0.815686 0.592157 0.462745
0.917647 0.623529 0.482353
0.992157 0.662745 0.52549
0.34902 0.588235 0.482353
0.372549 0.592157 0.486275
0.419608 0.603922 0.486275
0.486275 0.615686 0.498039
0.568627 0.643137 0.501961
0.686275 0.686275 0.494118
0.815686 0.709804 0.494118
0.92549 0.721569 0.513725
0.992157 0.733333 0.537255
0.439216 0.705882 0.541176
0.443137 0.705882 0.545098
0.47451 0.709804 0.541176
0.529412 0.721569 0.552941
0.611765 0.733333 0.568627
0.694118 0.764706 0.572549
0.811765 0.792157 0.564706
0.937255 0.819608 0.568627
0.996078 0.827451 0.596078
0.545098 0.807843 0.615686
0.556863 0.815686 0.619608
0.580392 0.815686 0.623529
0.623529 0.819608 0.631373
0.690196 0.823529 0.65098
0.752941 0.843137 0.662745
0.839216 0.862745 0.662745
0.933333 0.882353 0.654902
1 0.901961 0.658824
0.741176 0.909804 0.721569
0.745098 0.909804 0.721569
0.760784 0.905882 0.72549
0.803922 0.909804 0.737255
0.835294 0.909804 0.745098
0.87451 0.913725 0.74902
0.92549 0.92549 0.760784
0.968627 0.933333 0.760784
0.992157 0.941176 0.756863
0.188235 0.054902 0.415686
0.243137 0.039216 0.423529
0.368627 0.023529 0.447059
0.521569 0.011765 0.47451
0.619608 0.14902 0.478431
0.72549 0.188235 0.498039
0.886275 0.282353 0.560784
0.976471 0.384314 0.572549
0.996078 0.423529 0.580392
0.164706 0.078431 0.431373
0.227451 0.062745 0.439216
0.364706 0.058824 0.458824
0.517647 0.094118 0.482353
0.619608 0.219608 0.494118
0.721569 0.254902 0.509804
0.878431 0.341176 0.560784
0.968627 0.415686 0.568627
1 0.494118 0.596078
0.027451 0.137255 0.45098
0.109804 0.141176 0.458824
0.317647 0.164706 0.478431
0.52549 0.231373 0.505882
0.631373 0.329412 0.517647
0.745098 0.376471 0.537255
0.870588 0.443137 0.580392
0.956863 0.478431 0.576471
1 0.552941 0.611765
0.007843 0.258824 0.462745
0.027451 0.266667 0.466667
0.160784 0.290196 0.486275
0.45098 0.360784 0.521569
0.611765 0.447059 0.537255
0.733333 0.494118 0.564706
0.843137 0.529412 0.584314
0.937255 0.560784 0.592157
0.992157 0.603922 0.611765
0.121569 0.423529 0.482353
0.176471 0.435294 0.486275
0.282353 0.458824 0.505882
0.447059 0.498039 0.533333
0.603922 0.568627 0.564706
0.713725 0.592157 0.576471
0.819608 0.615686 0.588235
0.921569 0.647059 0.603922
0.996078 0.682353 0.627451
0.290196 0.572549 0.537255
0.32549 0.584314 0.541176
0.4 0.603922 0.552941
0.517647 0.631373 0.576471
0.607843 0.662745 0.592157
0.717647 0.698039 0.592157
0.819608 0.709804 0.6
0.92549 0.729412 0.611765
0.988235 0.74902 0.635294
0.443137 0.705882 0.6
0.454902 0.705882 0.6
0.509804 0.713725 0.607843
0.568627 0.729412 0.619608
0.639216 0.741176 0.631373
0.713725 0.764706 0.639216
0.823529 0.792157 0.639216
0.941176 0.815686 0.635294
0.996078 0.823529 0.662745
0.572549 0.811765 0.662745
0.576471 0.811765 0.662745
0.6 0.815686 0.662745
0.647059 0.819608 0.670588
0.694118 0.831373 0.678431
0.768627 0.847059 0.690196
0.847059 0.862745 0.698039
0.937255 0.882353 0.698039
0.996078 0.898039 0.701961
0.752941 0.909804 0.741176
0.756863 0.909804 0.745098
0.768627 0.905882 0.741176
0.792157 0.909804 0.745098
0.839216 0.913725 0.752941
0.890196 0.917647 0.764706
0.933333 0.92549 0.776471
0.968627 0.933333 0.772549
1 0.941176 0.780392
0.329412 0 0.568627
0.376471 0 0.576471
0.490196 0.003922 0.588235
0.623529 0.003922 0.611765
0.729412 0.219608 0.631373
0.796078 0.360784 0.635294
0.847059 0.403922 0.639216
0.968627 0.498039 0.678431
1 0.580392 0.705882
0.313725 0.027451 0.572549
0.364706 0.011765 0.584314
0.47451 0.007843 0.596078
0.619608 0.054902 0.615686
0.729412 0.282353 0.639216
0.796078 0.403922 0.643137
0.85098 0.439216 0.643137
0.972549 0.52549 0.686275
1 0.584314 0.698039
0.235294 0.121569 0.580392
0.290196 0.117647 0.588235
0.427451 0.145098 0.6
0.596078 0.227451 0.623529
0.721569 0.380392 0.65098
0.784314 0.486275 0.654902
0.858824 0.521569 0.662745
0.968627 0.584314 0.694118
0.996078 0.635294 0.709804
0.011765 0.239216 0.584314
0.031373 0.235294 0.584314
0.27451 0.282353 0.6
0.517647 0.360784 0.631373
0.698039 0.478431 0.654902
0.780392 0.576471 0.670588
0.854902 0.6 0.678431
0.972549 0.65098 0.709804
0.996078 0.670588 0.709804
0.003922 0.403922 0.580392
0.015686 0.411765 0.580392
0.14902 0.431373 0.592157
0.368627 0.466667 0.615686
0.615686 0.556863 0.654902
0.764706 0.654902 0.682353
0.866667 0.682353 0.701961
0.952941 0.694118 0.701961
0.988235 0.701961 0.705882
0.203922 0.564706 0.592157
0.25098 0.568627 0.596078
0.333333 0.588235 0.607843
0.462745 0.615686 0.623529
0.584314 0.647059 0.65098
0.741176 0.713725 0.686275
0.847059 0.741176 0.694118
0.945098 0.756863 0.701961
0.988235 0.760784 0.709804
0.364706 0.686275 0.635294
0.388235 0.694118 0.639216
0.439216 0.698039 0.647059
0.54902 0.721569 0.666667
0.65098 0.745098 0.678431
0.745098 0.776471 0.698039
0.847059 0.807843 0.709804
0.945098 0.819608 0.705882
0.992157 0.827451 0.72549
0.517647 0.8 0.694118
0.529412 0.8 0.694118
0.568627 0.807843 0.698039
0.635294 0.819608 0.709804
0.721569 0.831373 0.721569
0.780392 0.843137 0.72549
0.858824 0.862745 0.737255
0.956863 0.886275 0.741176
0.996078 0.901961 0.745098
0.733333 0.909804 0.756863
0.72549 0.905882 0.756863
0.764706 0.905882 0.760784
0.796078 0.909804 0.760784
0.847059 0.917647 0.768627
0.882353 0.913725 0.780392
0.933333 0.921569 0.792157
0.960784 0.917647 0.772549
1 0.941176 0.803922
0.498039 0.003922 0.694118
0.545098 0 0.701961
0.611765 0 0.709804
0.72549 0.011765 0.72549
0.819608 0.235294 0.741176
0.886275 0.466667 0.752941
0.92549 0.545098 0.745098
0.960784 0.572549 0.741176
0.992157 0.639216 0.756863
0.482353 0.007843 0.698039
0.529412 0.007843 0.705882
0.615686 0.003922 0.713725
0.713725 0.058824 0.72549
0.811765 0.298039 0.745098
0.878431 0.494118 0.74902
0.921569 0.568627 0.745098
0.94902 0.596078 0.741176
0.996078 0.658824 0.756863
0.439216 0.07451 0.701961
0.466667 0.086275 0.701961
0.576471 0.121569 0.713725
0.690196 0.231373 0.72549
0.8 0.388235 0.745098
0.870588 0.556863 0.74902
0.917647 0.619608 0.745098
0.968627 0.65098 0.752941
1 0.698039 0.764706
0.207843 0.227451 0.694118
0.321569 0.247059 0.698039
0.47451 0.282353 0.709804
0.631373 0.356863 0.721569
0.760784 0.478431 0.741176
0.854902 0.615686 0.752941
0.901961 0.670588 0.74902
0.968627 0.701961 0.756863
1 0.733333 0.768627
0.015686 0.364706 0.682353
0.015686 0.364706 0.682353
0.07451 0.388235 0.686275
0.443137 0.443137 0.709804
0.686275 0.545098 0.733333
0.819608 0.662745 0.752941
0.917647 0.729412 0.760784
0.972549 0.74902 0.768627
0.996078 0.776471 0.776471
0.011765 0.529412 0.67451
0.011765 0.541176 0.67451
0.066667 0.556863 0.678431
0.27451 0.564706 0.690196
0.482353 0.596078 0.709804
0.756863 0.701961 0.74902
0.898039 0.772549 0.768627
0.980392 0.8 0.776471
0.996078 0.819608 0.788235
0.235294 0.666667 0.678431
0.270588 0.670588 0.678431
0.345098 0.686275 0.690196
0.454902 0.694118 0.698039
0.584314 0.72549 0.717647
0.717647 0.760784 0.745098
0.866667 0.807843 0.764706
0.968627 0.835294 0.776471
0.996078 0.85098 0.780392
0.396078 0.788235 0.721569
0.419608 0.792157 0.721569
0.470588 0.788235 0.72549
0.545098 0.803922 0.733333
0.662745 0.823529 0.745098
0.776471 0.843137 0.756863
0.886275 0.866667 0.772549
0.968627 0.890196 0.780392
0.992157 0.890196 0.796078
0.658824 0.909804 0.780392
0.666667 0.905882 0.780392
0.682353 0.901961 0.780392
0.745098 0.909804 0.784314
0.823529 0.913725 0.792157
0.898039 0.921569 0.803922
0.941176 0.921569 0.819608
0.988235 0.933333 0.835294
0.996078 0.937255 0.835294
0.686275 0.011765 0.8
0.698039 0.003922 0.8
0.74902 0.003922 0.8
0.819608 0.086275 0.807843
0.890196 0.329412 0.811765
0.94902 0.505882 0.815686
0.980392 0.658824 0.811765
0.996078 0.698039 0.803922
0.996078 0.713725 0.807843
0.67451 0.007843 0.8
0.694118 0.003922 0.8
0.74902 0.007843 0.803922
0.811765 0.168627 0.807843
0.886275 0.364706 0.811765
0.94902 0.533333 0.815686
0.984314 0.662745 0.815686
0.992157 0.709804 0.807843
0.996078 0.721569 0.803922
0.631373 0.082353 0.8
0.662745 0.109804 0.803922
0.717647 0.192157 0.803922
0.788235 0.290196 0.807843
0.862745 0.431373 0.811765
0.937255 0.576471 0.815686
0.984314 0.698039 0.815686
0.992157 0.737255 0.811765
1 0.756863 0.807843
0.494118 0.258824 0.792157
0.54902 0.270588 0.796078
0.619608 0.313725 0.796078
0.737255 0.396078 0.803922
0.827451 0.501961 0.807843
0.917647 0.619608 0.811765
0.968627 0.72549 0.815686
0.984314 0.760784 0.815686
1 0.780392 0.811765
0.05098 0.309804 0.784314
0.113725 0.32549 0.788235
0.372549 0.376471 0.792157
0.592157 0.454902 0.796078
0.745098 0.556863 0.803922
0.882353 0.666667 0.811765
0.972549 0.760784 0.819608
0.992157 0.796078 0.819608
1 0.819608 0.823529
0.035294 0.486275 0.768627
0.019608 0.498039 0.772549
0.015686 0.501961 0.772549
0.070588 0.521569 0.776471
0.54902 0.572549 0.792157
0.807843 0.686275 0.803922
0.941176 0.780392 0.819608
1 0.847059 0.831373
1 0.858824 0.843137
0.023529 0.662745 0.764706
0.007843 0.670588 0.768627
0.015686 0.67451 0.764706
0.164706 0.678431 0.768627
0.372549 0.682353 0.780392
0.6 0.705882 0.788235
0.886275 0.8 0.815686
0.988235 0.87451 0.847059
1 0.890196 0.858824
0.258824 0.780392 0.764706
0.278431 0.780392 0.764706
0.34902 0.788235 0.772549
0.447059 0.792157 0.772549
0.564706 0.8 0.776471
0.698039 0.823529 0.796078
0.831373 0.839216 0.815686
0.976471 0.894118 0.85098
1 0.905882 0.858824
0.545098 0.913725 0.823529
0.545098 0.901961 0.815686
0.584314 0.913725 0.823529
0.65098 0.901961 0.819608
0.72549 0.913725 0.827451
0.819608 0.913725 0.831373
0.921569 0.921569 0.847059
0.984314 0.933333 0.87451
1 0.945098 0.886275
0.823529 0.168627 0.890196
0.831373 0.180392 0.886275
0.854902 0.25098 0.886275
0.894118 0.360784 0.882353
0.941176 0.482353 0.878431
0.988235 0.611765 0.882353
0.996078 0.705882 0.866667
1 0.792157 0.870588
1 0.803922 0.870588
0.807843 0.184314 0.882353
0.823529 0.235294 0.886275
0.847059 0.305882 0.886275
0.886275 0.388235 0.882353
0.933333 0.501961 0.87451
0.980392 0.611765 0.878431
0.996078 0.717647 0.87451
1 0.792157 0.870588
1 0.807843 0.87451
0.772549 0.286275 0.882353
0.796078 0.317647 0.886275
0.823529 0.372549 0.886275
0.862745 0.447059 0.882353
0.921569 0.545098 0.878431
0.980392 0.647059 0.882353
1 0.72549 0.870588
1 0.807843 0.882353
1 0.827451 0.87451
0.698039 0.368627 0.87451
0.717647 0.384314 0.878431
0.729412 0.403922 0.858824
0.827451 0.498039 0.878431
0.894118 0.588235 0.882353
0.964706 0.678431 0.882353
0.992157 0.756863 0.878431
1 0.819608 0.886275
1 0.819608 0.870588
0.54902 0.411765 0.882353
0.580392 0.427451 0.882353
0.643137 0.466667 0.882353
0.741176 0.533333 0.882353
0.835294 0.615686 0.886275
0.933333 0.698039 0.886275
1 0.780392 0.890196
1 0.839216 0.886275
1 0.854902 0.878431
0.019608 0.494118 0.862745
0.015686 0.494118 0.878431
0.062745 0.494118 0.87451
0.447059 0.513725 0.882353
0.713725 0.619608 0.886275
0.854902 0.705882 0.882353
0.968627 0.796078 0.890196
1 0.862745 0.901961
1 0.890196 0.898039
0.007843 0.698039 0.87451
0.011765 0.686275 0.854902
0.015686 0.670588 0.85098
0.011765 0.666667 0.862745
0.05098 0.666667 0.870588
0.627451 0.713725 0.870588
0.909804 0.803922 0.894118
0.996078 0.878431 0.898039
1 0.913725 0.909804
0.031373 0.823529 0.886275
0.078431 0.815686 0.870588
0.145098 0.815686 0.878431
0.305882 0.815686 0.886275
0.431373 0.807843 0.87451
0.572549 0.807843 0.886275
0.737255 0.815686 0.890196
0.984314 0.894118 0.913725
0.996078 0.933333 0.921569
0.568627 0.905882 0.905882
0.592157 0.909804 0.909804
0.615686 0.913725 0.909804
0.65098 0.909804 0.905882
0.717647 0.909804 0.909804
0.768627 0.909804 0.890196
0.878431 0.913725 0.87451
0.972549 0.933333 0.901961
0.992157 0.937255 0.901961
