site/assets/luts/freshluts--0000701-london-nights.cube
# LUTr-Schema-Version: 2
# LUTr-ID: freshluts--0000701-london-nights
# LUTr-Title: London Nights
# LUTr-Collection: Fresh LUTs
# LUTr-Collection-ID: freshluts-community
# LUTr-Source: https://freshluts.com
# LUTr-Retrieved: 2026-07-27
# LUTr-Source-File: submissions-raw/freshluts/cubes/701__London_Nights.cube
# LUTr-Source-Format: CUBE
# LUTr-Source-SHA256: 0e11aa8b99917139adb361944b8580136482e4854d9edac3638f8981a50b105c
# LUTr-License: CC0-1.0
# LUTr-License-URL: https://freshluts.com/termsandconditions
# LUTr-License-Basis: site-terms
# LUTr-Transform-Class: creative-look
# LUTr-Tags: creative, freshluts, community, cube, noir, cinematic, warm, low-key, bmd-film
# LUTr-Input-Color-Space: bmd-film
# LUTr-Input-Gamut: bmd-film-gamut
# LUTr-Input-Transfer: bmd-film
# LUTr-Output-Color-Space: srgb
# LUTr-Output-Gamut: rec709
# LUTr-Output-Transfer: srgb
# LUTr-Color-Space-Confidence: inferred-from-source-label
# LUTr-Domain-Normalized: true
# LUTr-Shaper: none
# LUTr-Original-Grid: 16x16x16
# LUTr-Conversion-Grid: 16x16x16
# LUTr-Conversion-Interpolation: none
# LUTr-Conversion-Method: Metadata normalization; numeric LUT samples preserved
# LUTr-Conversion-Tool: LUTr scripts/convert-all-to-cube.mjs 2.0.0
# LUTr-Conversion-Date: 2026-07-28
# LUTr-Asset-URL: https://freshluts.com/luts/701
# LUTr-Author: InAvision
# LUTr-Author-URL: https://freshluts.com/users/64078
# LUTr-Attribution: InAvision via Fresh LUTs
# LUTr-Source-Labels: gamma=Blackmagic BMD Film; color=Warm; key=Low Key; style=Noir
# LUTr-Note: Preserve this metadata and the upstream license notices when redistributing.
TITLE "London Nights"
LUT_3D_SIZE 16
DOMAIN_MIN 0 0 0
DOMAIN_MAX 1 1 1
-0.008657 -0.001742 0.001249
-0.024461 0.001682 0.001831
0.151235 -0.001987 0.000884
0.293467 -0.003918 -0.000621
0.408217 -0.004367 -0.000354
0.479519 -0.003933 -0.000098
0.53539 -0.002817 0
0.572227 -0.001501 0
0.601761 -0.000257 0
0.628686 0 0
0.645893 0 0
0.661154 0 0
0.675021 0 0
0.68873 0 0
0.700129 0 0
0.706404 0 0
-0.005572 -0.002916 0.001871
-0.026389 -0.004533 0.00202
-0.054836 -0.000867 0.002523
0.04453 0.006438 0.002089
0.186659 0.005039 0.00033
0.318109 -0.014849 -0.000159
0.432384 -0.018533 0
0.515023 -0.018257 0
0.577506 -0.015039 0
0.627242 -0.011203 0
0.663838 -0.007385 0
0.698337 -0.004248 0
0.72257 -0.002015 0
0.740026 -0.000531 0
0.754063 0 0
0.762411 0 0
-0.000871 0.021499 0.002562
-0.005982 0.01543 0.002686
-0.017443 0.023194 0.002906
0.076207 0.035506 0.002377
0.179152 0.051066 0.000358
0.301405 0.062587 -0.000163
0.422591 0.064603 0
0.524966 0.052755 0
0.596473 0.03374 0
0.653556 -0.025993 0
0.700401 -0.037256 0
0.733664 -0.038769 0
0.764109 -0.037626 0
0.787883 -0.035236 0
0.801242 -0.032339 0
0.807245 -0.029724 0
-0.000112 0.06735 0.001821
-0.003357 0.057909 0.002252
-0.020196 0.068539 0.00218
0.05793 0.087077 0.000936
0.162754 0.10653 -0.000444
0.284928 0.126304 -0.000105
0.411284 0.140818 0
0.517016 0.146059 0
0.609839 0.145796 0
0.668018 0.141741 0
0.723485 0.135105 0
0.764069 0.128339 0
0.793035 0.120846 0
0.819747 0.111589 0
0.839316 0.101443 0
0.845034 0.086615 0
0 0.119038 -0.00059
-0.000764 0.108402 0.000648
-0.013396 0.119353 0.000262
-0.026646 0.142063 -0.00042
0.140655 0.165291 -0.000179
0.267857 0.190735 0
0.391885 0.212346 0
0.511866 0.227157 0
0.609433 0.234767 0
0.683425 0.237293 0
0.737315 0.236756 0
0.78966 0.234282 0
0.820449 0.230128 0
0.846227 0.22425 0
0.868162 0.216305 0
0.879668 0.201206 0
0 0.171519 -0.000133
0 0.161593 -0.000195
-0.006226 0.172411 -0.000177
-0.032999 0.199475 -0.000099
0.09728 0.226546 0
0.244671 0.257354 0
0.374567 0.283953 0
0.499847 0.304997 0
0.604793 0.318554 0
0.692446 0.326467 0
0.749446 0.328619 0
0.801413 0.328509 0
0.84461 0.326025 0
0.869825 0.320637 0
0.891295 0.312609 0
0.902765 0.295752 0
0 0.220045 0
0 0.210279 0
-0.00143 0.221916 0
-0.019802 0.251945 0
-0.05343 0.282798 0
0.20728 0.316427 0
0.354845 0.350833 0
0.484855 0.37688 0
0.596227 0.395653 0
0.689886 0.407716 0
0.758343 0.413689 0
0.809564 0.415561 0
0.857719 0.41536 0
0.890423 0.411653 0
0.911432 0.404139 0
0.923375 0.387631 0
0 0.262289 0
0 0.256339 0
0 0.268726 0
-0.006887 0.301278 0
-0.048399 0.336464 0
0.142598 0.373042 0
0.326582 0.412423 0
0.463173 0.444782 0
0.584443 0.468673 0
0.682844 0.484293 0
0.761499 0.493784 0
0.815085 0.496833 0
0.863996 0.497426 0
0.903836 0.493757 0
0.926008 0.485016 0
0.937368 0.465355 0
0 0.299632 0
0 0.294007 0
0 0.307197 0
0 0.341466 0
-0.03035 0.379643 0
-0.033769 0.418194 0
0.285421 0.460966 0
0.432416 0.497557 0
0.569656 0.530728 0
0.670079 0.549275 0
0.758838 0.562859 0
0.816848 0.568803 0
0.865274 0.571207 0
0.909619 0.570638 0
0.93898 0.565188 0
0.950339 0.544059 0
0 0.335052 0
0 0.331789 0
0 0.34561 0
0 0.380421 0
-0.014716 0.421067 0
-0.064361 0.462004 0
0.22291 0.506523 0
0.397776 0.546902 0
0.54446 0.583306 0
0.655258 0.609199 0
0.748828 0.624502 0
0.815522 0.63205 0
0.863685 0.634286 0
0.908966 0.633562 0
0.943885 0.627887 0
0.958888 0.609035 0
0 0.360546 0
0 0.360594 0
0 0.375651 0
0 0.411722 0
-0.005665 0.455506 0
-0.050954 0.49866 0
0.138559 0.54474 0
0.358483 0.589173 0
0.50903 0.627594 0
0.63234 0.658378 0
0.734481 0.682727 0
0.812931 0.694402 0
0.861225 0.697828 0
0.906655 0.697675 0
0.944558 0.691893 0
0.96602 0.671386 0
0 0.383932 0
0 0.384364 0
0 0.399824 0
0 0.435326 0
-0.00028 0.480121 0
-0.031738 0.524106 0
-0.009607 0.570703 0
0.313574 0.618172 0
0.469442 0.657528 0
0.606136 0.692873 0
0.708661 0.718331 0
0.807494 0.741889 0
0.855477 0.746704 0
0.901345 0.749287 0
0.941911 0.748199 0
0.971093 0.731626 0
0 0.405777 0
0 0.407443 0
0 0.423103 0
0 0.457313 0
0 0.502538 0
-0.015295 0.54692 0
-0.078608 0.593688 0
0.254549 0.642988 0
0.426238 0.68325 0
0.575237 0.721683 0
0.68073 0.748403 0
0.779142 0.772365 0
0.848967 0.789295 0
0.893744 0.790913 0
0.934376 0.788979 0
0.96487 0.775761 0
0 0.423947 0
0 0.42725 0
0 0.443211 0
0 0.476427 0
0 0.522244 0
-0.001554 0.567525 0
-0.0567 0.614028 0
0.159292 0.663219 0
0.377163 0.705592 0
0.53463 0.745292 0
0.649893 0.775139 0
0.74858 0.799608 0
0.831431 0.819662 0
0.887048 0.833654 0
0.926917 0.830633 0
0.956397 0.815709 0
0 0.435249 0
0 0.44042 0
0 0.456709 0
0 0.488535 0
0 0.53499 0
0 0.580598 0
-0.034439 0.626541 0
-0.024099 0.675225 0
0.32125 0.720125 0
0.483878 0.759798 0
0.613209 0.793367 0
0.714853 0.819611 0
0.803644 0.841554 0
0.865971 0.857017 0
0.920096 0.871441 0
0.948929 0.855699 0
-0.009514 0.452757 -0.007221
-0.033469 0.457977 -0.012698
-0.065905 0.473458 -0.016623
-0.100795 0.502454 -0.018285
-0.130355 0.547904 -0.018639
-0.152151 0.592865 -0.018684
-0.168252 0.637724 -0.018861
-0.186418 0.686091 -0.019397
0.131865 0.732828 -0.020305
0.39757 0.773936 -0.02161
0.551014 0.811643 -0.023315
0.663975 0.840593 -0.02528
0.760069 0.865272 -0.027285
0.840991 0.885182 -0.029129
0.894178 0.899056 -0.03047
0.949793 0.91326 -0.031052
-0.012703 -0.131474 0.007694
0.048177 -0.133427 0.043138
0.197686 -0.138303 0.06141
0.340377 -0.147116 0.065371
0.463419 -0.159105 0.06581
0.530554 -0.172115 0.065697
0.590745 -0.185391 0.065874
0.621926 -0.198967 0.067928
0.651019 -0.212117 0.070923
0.671601 -0.224073 0.075309
0.681768 -0.234508 0.081374
0.690654 -0.243127 0.088335
0.698655 -0.250173 0.095529
0.705048 -0.255771 0.101934
0.709654 -0.260112 0.107428
0.712075 -0.262983 0.108559
-0.009542 -0.003384 -0.00679
-0.033644 -0.003558 -0.01177
-0.063096 0.003018 -0.014435
0.067401 0.00586 -0.012967
0.210888 -0.008599 -0.00511
0.345848 -0.016083 0.010104
0.463853 -0.018713 0.013107
0.544258 -0.016416 0.018657
0.608123 -0.01237 0.024193
0.656635 -0.007997 0.030734
0.69299 -0.004057 0.037678
0.726045 -0.001371 0.045306
0.75033 -0.000139 0.055521
0.767095 0 0.066599
0.7818 0 0.077465
0.79136 0 0.085136
-0.001089 0.016364 0.003839
-0.007409 0.016233 0.006127
-0.018709 0.024652 0.009052
0.087701 0.037504 0.012483
0.198912 0.053129 0.015131
0.326007 0.062109 0.01511
0.44734 0.060436 0.014815
0.55141 0.042223 0.016025
0.621885 -0.016628 0.018969
0.681848 -0.03803 0.023148
0.726713 -0.040549 0.028676
0.759013 -0.038942 0.035084
0.789385 -0.036813 0.041762
0.811339 -0.034416 0.050251
0.823483 -0.03164 0.061167
0.829858 -0.02916 0.069285
-0.000151 0.059356 0.003748
-0.004073 0.057934 0.006134
-0.022736 0.070828 0.008561
0.0663 0.089876 0.011161
0.177693 0.109974 0.012807
0.304676 0.129117 0.011951
0.434825 0.142388 0.010878
0.542504 0.145978 0.010526
0.63377 0.144453 0.010887
0.692863 0.139475 0.013874
0.748255 0.132019 0.017944
0.786287 0.124902 0.024298
0.815603 0.116958 0.031567
0.842383 0.107611 0.038556
0.8602 0.098074 0.045864
0.86549 0.083811 0.052521
0 0.111436 0.002344
-0.001005 0.109269 0.004932
-0.015084 0.123453 0.006928
-0.025302 0.146547 0.008424
0.152084 0.170774 0.008793
0.284014 0.196245 0.008246
0.413233 0.21745 0.006487
0.533039 0.231194 0.004042
0.635391 0.238695 -0.001122
0.704766 0.240501 0.002277
0.760379 0.239639 0.005839
0.812394 0.236909 0.010107
0.840309 0.232843 0.01831
0.866728 0.226996 0.026757
0.888285 0.219039 0.034633
0.898062 0.204012 0.041066
0 0.166161 -0.000887
-0.000038 0.163455 0.002283
-0.007024 0.178154 0.00382
-0.035152 0.205653 0.004603
0.102865 0.233493 0.004974
0.257959 0.264922 0.003192
0.391585 0.291404 -0.001345
0.52048 0.312205 -0.001484
0.626324 0.325272 -0.00123
0.712825 0.332338 -0.001597
0.768813 0.334178 -0.002489
0.822425 0.33406 -0.003995
0.862097 0.331328 -0.003879
0.887252 0.326003 0.010569
0.908917 0.317936 0.020396
0.920706 0.301175 0.028621
0 0.216 -0.000461
0 0.213802 -0.000559
-0.001569 0.228675 0.001352
-0.020556 0.260268 0.001373
-0.059296 0.291806 -0.000718
0.216708 0.326538 -0.001138
0.367522 0.360476 -0.000678
0.501042 0.386298 -0.000288
0.613987 0.404688 -0.000082
0.708683 0.416415 0
0.774642 0.421731 -0.000174
0.827219 0.423765 -0.000876
0.875562 0.423534 -0.002263
0.905169 0.41952 -0.004298
0.92669 0.412108 -0.004018
0.939265 0.39573 0.011233
0 0.261638 -0.000114
0 0.261696 -0.000294
0 0.277099 -0.000442
-0.006389 0.311654 -0.000475
-0.049554 0.347256 -0.000376
0.142343 0.384806 -0.000203
0.334856 0.423873 0
0.477687 0.456706 0
0.598903 0.47955 0
0.699643 0.494824 0
0.776264 0.503381 0
0.829274 0.506246 0
0.879116 0.506518 -0.000161
0.917985 0.502779 -0.000941
0.938414 0.493894 -0.00228
0.950892 0.474241 -0.003247
0 0.299959 0
0 0.300634 0
0 0.316888 0
0 0.353313 0
-0.030451 0.392136 0
-0.041286 0.431867 0
0.292843 0.475052 0
0.442933 0.510737 0
0.580551 0.542671 0
0.683535 0.561186 0
0.770646 0.574137 0
0.828229 0.579857 0
0.878286 0.582346 0
0.922077 0.581732 -0.000078
0.949901 0.576156 -0.000183
0.963443 0.554661 -0.000262
0 0.337248 0
0 0.33898 0
0 0.356014 0
0 0.393484 0
-0.014349 0.434564 0
-0.066975 0.475694 0
0.224081 0.520513 0
0.404426 0.559947 0
0.553502 0.59583 0
0.665446 0.621402 0
0.761348 0.636622 0
0.824774 0.64347 0
0.873764 0.645669 0
0.919709 0.644902 0
0.953701 0.638905 0
0.970054 0.62003 0
0 0.364676 0
0 0.369305 0
0 0.38741 0
0 0.426154 0
-0.005005 0.469652 0
-0.050331 0.512867 0
0.132936 0.55939 0
0.360735 0.603204 0
0.517906 0.641834 0
0.639998 0.671536 0
0.744257 0.695721 0
0.819889 0.706302 0
0.868999 0.709362 0
0.915475 0.709144 0
0.95317 0.703151 0
0.975403 0.682115 0
0 0.388577 0
0 0.393684 0
0 0.411688 0
0 0.449704 0
0 0.494308 0
-0.029991 0.538574 0
-0.056268 0.585712 0
0.311812 0.632413 0
0.475242 0.671895 0
0.61152 0.706025 0
0.716411 0.731341 0
0.812638 0.753852 0
0.861476 0.758641 0
0.908097 0.761285 0
0.949453 0.760474 0
0.980627 0.743332 0
0 0.411246 0
0 0.416993 0
0 0.434808 0
0 0.471861 0
0 0.516917 0
-0.013376 0.56143 0
-0.077764 0.608334 0
0.250846 0.657166 0
0.429072 0.696897 0
0.578972 0.734236 0
0.686456 0.761013 0
0.786528 0.784886 0
0.853289 0.800876 0
0.89916 0.802782 0
0.94037 0.800891 0
0.973923 0.787804 0
0 0.430178 0
0 0.437237 0
0 0.455347 0
0 0.491258 0
0 0.536771 0
0 0.581668 0
-0.055402 0.628195 0
0.152651 0.67735 0
0.377071 0.718855 0
0.538141 0.758172 0
0.653954 0.78726 0
0.754175 0.811701 0
0.834852 0.831178 0
0.890787 0.845038 0
0.931613 0.841931 0
0.962488 0.827371 0
0 0.441894 0
0 0.451153 0
0 0.469366 0
0 0.504022 0
0 0.549649 0
0 0.594722 0
-0.032498 0.640384 0
-0.057617 0.689055 0
0.317898 0.733248 0
0.487143 0.772961 0
0.616467 0.805671 0
0.718928 0.831525 0
0.807376 0.85307 0
0.868696 0.868402 0
0.923716 0.882548 0
0.953556 0.866876 0
-0.01269 0.459372 -0.025335
-0.036984 0.46927 -0.037792
-0.070194 0.486584 -0.046507
-0.105989 0.51827 -0.051011
-0.135934 0.562762 -0.053335
-0.157514 0.607326 -0.054481
-0.173181 0.652198 -0.055137
-0.191012 0.700308 -0.05567
0.083456 0.746717 -0.05621
0.396944 0.787634 -0.056829
0.553864 0.82477 -0.057538
0.666159 0.853159 -0.058294
0.764161 0.877558 -0.059042
0.842843 0.896937 -0.059736
0.896621 0.910674 -0.060045
0.952801 0.924617 -0.05986
-0.01695 -0.133763 0.057393
0.071773 -0.136507 0.137153
0.212969 -0.14218 0.166759
0.358698 -0.151423 0.181039
0.484466 -0.163417 0.188765
0.548777 -0.176329 0.191499
0.607964 -0.189544 0.193557
0.638163 -0.203089 0.194961
0.66756 -0.216148 0.196589
0.685269 -0.227997 0.198406
0.694981 -0.238294 0.200656
0.703508 -0.246774 0.203114
0.710469 -0.253708 0.205372
0.71549 -0.259205 0.207685
0.719386 -0.26346 0.209627
0.721248 -0.266284 0.207009
-0.012723 -0.003222 -0.024115
-0.037297 -0.00252 -0.032043
-0.065069 0.003089 -0.025612
0.093761 -0.005155 0.040863
0.234537 -0.013279 0.066098
0.370192 -0.018185 0.083781
0.487129 -0.019303 0.098376
0.564585 -0.015967 0.109882
0.626769 -0.011341 0.121215
0.673058 -0.006669 0.132502
0.70866 -0.002808 0.143777
0.740051 -0.00087 0.154633
0.762124 -0.000699 0.164842
0.777954 -0.000665 0.173817
0.791696 -0.000646 0.180622
0.800303 -0.000641 0.18131
-0.001161 0.017924 0.010073
-0.008514 0.021407 0.019385
-0.023216 0.030898 0.031962
0.098306 0.044376 0.048438
0.218073 0.059195 0.064825
0.348868 0.065299 0.078543
0.469302 0.060368 0.090603
0.573152 0.036656 0.102208
0.641735 -0.029281 0.114126
0.701526 -0.041776 0.124683
0.74413 -0.041805 0.135976
0.776823 -0.040001 0.147834
0.807266 -0.038113 0.159683
0.828484 -0.036121 0.171446
0.841533 -0.034036 0.182186
0.850073 -0.03231 0.189394
0 0.060847 0.010338
-0.004249 0.064732 0.018737
-0.024735 0.079713 0.029195
0.069017 0.098668 0.043236
0.19097 0.118619 0.057506
0.322728 0.136586 0.069467
0.455814 0.148363 0.079173
0.56408 0.150288 0.088275
0.651531 0.147828 0.098245
0.711216 0.142348 0.110504
0.765995 0.134896 0.122364
0.801789 0.128322 0.134311
0.8316 0.121183 0.146074
0.857461 0.113322 0.157647
0.874421 0.106579 0.168591
0.880789 0.097267 0.176668
0 0.112773 0.009262
-0.000816 0.116577 0.017553
-0.015617 0.133455 0.026289
-0.031757 0.156751 0.038193
0.159875 0.181161 0.050511
0.298032 0.20611 0.060595
0.432581 0.226756 0.068405
0.550942 0.239081 0.07523
0.656014 0.245831 0.082053
0.720545 0.247143 0.093155
0.777341 0.246331 0.105539
0.826698 0.243843 0.118672
0.854489 0.240236 0.132009
0.88109 0.234951 0.14386
0.902341 0.227878 0.154963
0.91203 0.215068 0.163696
0 0.167638 0.006024
0 0.171287 0.014654
-0.006894 0.189339 0.022225
-0.036188 0.216939 0.03189
0.100683 0.244951 0.041853
0.267717 0.276337 0.049566
0.406092 0.302248 0.055279
0.536464 0.321941 0.058858
0.643514 0.334342 0.064034
0.727519 0.34077 0.072018
0.783051 0.342511 0.085098
0.837959 0.342568 0.098316
0.874464 0.33998 0.113635
0.89965 0.334918 0.128117
0.921488 0.327254 0.140145
0.933728 0.311853 0.149621
0 0.2183 -0.002347
0 0.222155 0.010353
-0.001297 0.241068 0.017264
-0.019832 0.272779 0.024747
-0.067552 0.304529 0.032137
0.222618 0.33954 0.036933
0.377776 0.372423 0.039335
0.514389 0.397584 0.039338
0.628088 0.41522 0.041559
0.72324 0.426568 0.046995
0.786674 0.431577 0.060053
0.840329 0.433693 0.075016
0.887768 0.433343 0.090426
0.915761 0.429492 0.107817
0.937464 0.422559 0.122348
0.950589 0.406866 0.13352
0 0.266137 -0.002156
0 0.270402 0.004667
0 0.289971 0.011558
-0.003869 0.325478 0.01692
-0.049454 0.360932 0.021826
0.135176 0.398721 0.023824
0.341013 0.436922 0.022066
0.488805 0.469296 0.017409
0.610256 0.491336 0.015231
0.712041 0.506142 0.016839
0.786701 0.514056 0.027192
0.839914 0.516837 0.04576
0.890058 0.517063 0.064459
0.927035 0.513209 0.083983
0.947826 0.504632 0.102376
0.961552 0.48552 0.115787
0 0.304761 -0.000977
0 0.309983 -0.002112
0 0.330478 0.006514
0 0.368138 0.010373
-0.029734 0.406687 0.013373
-0.046952 0.44662 0.013495
0.296044 0.489073 0.008334
0.451662 0.524458 -0.003446
0.589249 0.555301 -0.005103
0.694479 0.573604 -0.006121
0.779917 0.585827 -0.009179
0.837073 0.591439 0.011837
0.887865 0.593983 0.033406
0.931198 0.593396 0.055556
0.957896 0.587729 0.077306
0.973502 0.566665 0.094568
0 0.342872 -0.000274
0 0.348847 -0.001262
0 0.370316 0.001264
0 0.408705 0.004184
-0.013927 0.449269 0.005753
-0.06861 0.490509 0.004839
0.225264 0.53538 -0.002565
0.409679 0.57371 0.000502
0.560202 0.608539 0.0019
0.673731 0.633761 0.002191
0.769399 0.648566 -0.002034
0.831267 0.654978 -0.006855
0.881226 0.657232 0.003744
0.927791 0.6566 0.030759
0.961523 0.650416 0.054377
0.97903 0.631678 0.074629
0 0.371524 0
0 0.379762 -0.000434
0 0.402736 -0.000577
0 0.442271 -0.000794
-0.004451 0.485192 0.00062
-0.049843 0.528113 0.000876
0.128934 0.574758 0.001404
0.362538 0.617519 0.001718
0.524936 0.655782 0.001797
0.646116 0.684567 0.001977
0.75241 0.708773 0.002203
0.825139 0.718332 0.001546
0.874971 0.721102 -0.005535
0.922177 0.720821 -0.001298
0.9604 0.714531 0.028723
0.983445 0.693544 0.051652
0 0.395468 0
0 0.403931 -0.000218
0 0.427064 0.000729
0 0.466339 0.000839
0 0.510137 0.000997
-0.02831 0.553976 0.001364
-0.07442 0.60109 0.001547
0.309974 0.646734 0.001656
0.480746 0.686238 0.001745
0.615922 0.718888 0.001884
0.722942 0.744399 0.002022
0.81617 0.765824 0.002254
0.866004 0.770739 0.001829
0.913481 0.773513 -0.004545
0.954597 0.772324 0.00771
0.987217 0.754878 0.026557
0 0.418365 0
0 0.426908 -0.000213
0 0.450319 0.000721
0 0.48871 0.000857
0 0.532598 0.00099
-0.011111 0.576666 0.001364
-0.0765 0.623612 0.001553
0.245409 0.671479 0.001653
0.432255 0.711069 0.001767
0.582406 0.747303 0.001863
0.691425 0.773635 0.001952
0.79244 0.797198 0.002142
0.856482 0.812416 0.002439
0.903217 0.81407 0.002294
0.94501 0.812049 0.008614
0.981754 0.799215 0.017599
0 0.437532 0
0 0.447063 -0.000213
0 0.47119 0.000714
0 0.508829 0.00081
0 0.552938 0.000855
0 0.596868 0.001237
-0.054047 0.643326 0.001489
0.146504 0.69227 0.001652
0.377745 0.732779 0.001811
0.541152 0.771002 0.001863
0.657624 0.799664 0.001937
0.759092 0.824037 0.002108
0.837186 0.84211 0.002343
0.893756 0.855292 0.003115
0.935267 0.85218 0.009958
0.967895 0.837847 0.018178
0 0.449595 0
0 0.460523 -0.000218
0 0.48609 0.000714
0 0.52258 0.000896
0 0.566489 0.002005
0 0.610276 0.002789
-0.030705 0.655923 0.002689
-0.073441 0.704305 0.001676
0.315792 0.747157 0.001852
0.490464 0.786374 0.001914
0.619467 0.818114 0.001959
0.722618 0.843662 0.002142
0.810359 0.864193 0.002339
0.870947 0.878506 -0.00327
0.926425 0.892098 0.016101
0.957024 0.876637 0.021275
-0.015821 0.46685 -0.046588
-0.040694 0.478215 -0.059579
-0.073948 0.504789 -0.070156
-0.109416 0.538682 -0.076372
-0.139024 0.580944 -0.079934
-0.160315 0.624281 -0.081759
-0.175702 0.6688 -0.082777
-0.193379 0.716456 -0.083496
-0.040893 0.761808 -0.084003
0.399195 0.801894 -0.084446
0.558191 0.838583 -0.084875
0.66923 0.86603 -0.085269
0.76859 0.889797 -0.085598
0.844458 0.907586 -0.085849
0.898707 0.920709 -0.085441
0.955373 0.93435 -0.081637
-0.020984 -0.136079 0.139019
0.093244 -0.139732 0.214077
0.228431 -0.146959 0.249152
0.372026 -0.156944 0.269971
0.494651 -0.168686 0.282082
0.558679 -0.181256 0.286619
0.615974 -0.194326 0.289765
0.64672 -0.207679 0.291173
0.676504 -0.220509 0.292634
0.692815 -0.232143 0.293648
0.702639 -0.24223 0.294807
0.710953 -0.250506 0.295911
0.717962 -0.257165 0.29668
0.722131 -0.26234 0.297487
0.72591 -0.266397 0.297819
0.72749 -0.269138 0.293092
-0.01587 -0.00441 -0.021796
-0.041105 -0.006272 0.05847
-0.062454 -0.009181 0.094517
0.12149 -0.012731 0.127228
0.259834 -0.01637 0.15636
0.393051 -0.019452 0.18001
0.506193 -0.017782 0.198828
0.579912 -0.013406 0.213434
0.640468 -0.008176 0.226281
0.684342 -0.003861 0.237976
0.719895 -0.001104 0.248865
0.749688 -0.000689 0.25868
0.770065 -0.000637 0.266118
0.785659 -0.000594 0.271767
0.799063 -0.000576 0.274929
0.807549 -0.000573 0.270935
-0.001538 0.022466 0.037783
-0.010336 0.028398 0.066088
-0.027622 0.038072 0.093737
0.111392 0.050082 0.121632
0.237532 0.061631 0.148172
0.369344 0.062923 0.170584
0.489032 0.051475 0.190011
0.590651 -0.020225 0.206678
0.655997 -0.041996 0.220525
0.71488 -0.044474 0.232378
0.75427 -0.04303 0.24363
0.786974 -0.041674 0.254415
0.816714 -0.040472 0.264551
0.83558 -0.039498 0.273557
0.848026 -0.038974 0.279986
0.855731 -0.038823 0.279813
0 0.067976 0.036463
-0.00454 0.076407 0.060952
-0.026899 0.091621 0.086018
0.070319 0.109307 0.11137
0.205936 0.12817 0.136383
0.34062 0.143923 0.158806
0.473049 0.153527 0.17802
0.582021 0.154002 0.194254
0.665428 0.150818 0.20947
0.725759 0.145145 0.224331
0.779582 0.138518 0.238365
0.814242 0.133807 0.251741
0.844412 0.129064 0.264112
0.871082 0.125104 0.275193
0.888726 0.123953 0.285202
0.896793 0.124335 0.291888
0 0.120279 0.034683
-0.000355 0.128946 0.056147
-0.015973 0.147678 0.07885
-0.038322 0.170459 0.103346
0.167909 0.194088 0.126058
0.312919 0.217786 0.147113
0.452033 0.237024 0.165866
0.567422 0.24774 0.181747
0.672765 0.253685 0.195565
0.733417 0.254748 0.209647
0.790999 0.254136 0.223504
0.837241 0.252294 0.237448
0.865474 0.249931 0.251422
0.892511 0.246518 0.264366
0.913914 0.242065 0.275213
0.924422 0.234253 0.282372
0 0.175328 0.031541
0 0.183865 0.051542
-0.006581 0.205072 0.072104
-0.037083 0.232425 0.095048
0.094456 0.260051 0.116639
0.276797 0.290138 0.136167
0.420727 0.315032 0.153263
0.551059 0.333341 0.168283
0.65909 0.344813 0.182166
0.739164 0.350443 0.194985
0.794998 0.352001 0.20856
0.850664 0.352346 0.221898
0.88359 0.350035 0.235777
0.909314 0.346119 0.249384
0.931473 0.340096 0.261892
0.944466 0.327701 0.271335
0 0.226448 0.026909
0 0.235386 0.04624
-0.000693 0.25803 0.065033
-0.019108 0.289668 0.08668
-0.07121 0.320762 0.106444
0.22766 0.355627 0.125146
0.387995 0.38684 0.140849
0.527592 0.411021 0.154288
0.641613 0.427586 0.167602
0.736096 0.438163 0.17994
0.796454 0.442402 0.193068
0.850873 0.444502 0.206323
0.897167 0.444149 0.219726
0.923617 0.440722 0.233697
0.945915 0.434607 0.246674
0.960473 0.421028 0.257173
0 0.27486 0.020958
0 0.284457 0.040253
0 0.30787 0.057669
-0.000936 0.343809 0.078483
-0.049203 0.378372 0.096709
0.125335 0.416237 0.113976
0.34691 0.452907 0.128557
0.49927 0.484087 0.140334
0.620919 0.504918 0.152361
0.723227 0.519008 0.164346
0.795305 0.525991 0.17682
0.848881 0.528511 0.190354
0.899106 0.528505 0.203658
0.933509 0.524557 0.217543
0.955064 0.516602 0.231142
0.970846 0.499075 0.242329
0 0.314111 0.015138
0 0.324499 0.034296
0 0.348341 0.050846
-0.000109 0.38779 0.070953
