site/assets/luts/freshluts--0000134-s-log-to-rec709-contrasty.cube
# LUTr-Schema-Version: 2
# LUTr-ID: freshluts--0000134-s-log-to-rec709-contrasty
# LUTr-Title: S-Log to Rec709 - Contrasty
# LUTr-Collection: Fresh LUTs
# LUTr-Collection-ID: freshluts-community
# LUTr-Source: https://freshluts.com
# LUTr-Retrieved: 2026-07-27
# LUTr-Source-File: submissions-raw/freshluts/cubes/134__S-Log_to_Rec_709_-_Contrasty.cube
# LUTr-Source-Format: CUBE
# LUTr-Source-SHA256: 53fb78d952a8813a25c9410a78caf0a9c50cf24892e661686f68e84679722326
# LUTr-License: CC0-1.0
# LUTr-License-URL: https://freshluts.com/termsandconditions
# LUTr-License-Basis: site-terms
# LUTr-Transform-Class: creative-look
# LUTr-Tags: creative, freshluts, community, cube, high-contrast, sony-s-log1
# LUTr-Input-Color-Space:
# LUTr-Input-Gamut: sony-s-gamut
# LUTr-Input-Transfer: sony-s-log1
# LUTr-Output-Color-Space: srgb
# LUTr-Output-Gamut: rec709
# LUTr-Output-Transfer: srgb
# LUTr-Color-Space-Confidence: camera-profile-input-required
# LUTr-Domain-Normalized: true
# LUTr-Shaper: none
# LUTr-Original-Grid: 33x33x33
# LUTr-Conversion-Grid: 33x33x33
# LUTr-Conversion-Interpolation: none
# LUTr-Conversion-Method: Metadata normalization; numeric LUT samples preserved
# LUTr-Conversion-Tool: LUTr scripts/convert-all-to-cube.mjs 2.0.0
# LUTr-Conversion-Date: 2026-07-28
# LUTr-Asset-URL: https://freshluts.com/luts/134
# LUTr-Author: Alex Jordan
# LUTr-Author-URL: https://freshluts.com/users/1
# LUTr-Attribution: Alex Jordan via Fresh LUTs
# LUTr-Source-Labels: gamma=Sony S-Log; color=None; key=Neutral; style=High contrast
# LUTr-Note: Preserve this metadata and the upstream license notices when redistributing.
TITLE "S-Log to Rec709 - Contrasty"
LUT_3D_SIZE 9
DOMAIN_MIN 0 0 0
DOMAIN_MAX 1 1 1
0 0 0
0 0 0
0 0 0
0 0 0
0 0 0
0 0 0
0 0 0
0 0 0
0 0 0
0 0 0
0 0 0
0 0 0
0 0 0
0 0 0
0 0 0
0.0187381 0.00364691 0.000717174
0.0897993 0.0111391 0
0.202365 0.0110628 0
0 0 0
0 0 0
0 0 0
0.0192264 0.0135042 0.00183108
0.0626078 0.0308995 0.000839246
0.130587 0.0444953 0
0.243229 0.0479591 0
0.477104 0.0202792 0
0.69276 0 0
0.00210575 0.0297551 0.00210575
0.0204166 0.0560464 0.0000457771
0.0523537 0.0809186 0
0.102754 0.102754 0
0.183139 0.118517 0
0.355383 0.111727 0
0.592981 0.0895705 0
0.823484 0.0723125 0
1 0.052079 0
0 0.157366 0
0.0104982 0.186572 0
0.0577707 0.216297 0
0.130236 0.241794 0
0.255528 0.255512 0
0.522347 0.235431 0
0.771893 0.229877 0
1 0.232578 0
1 0.245045 0
0 0.37879 0
0 0.411643 0
0 0.446464 0
0.0277409 0.487205 0
0.203387 0.534905 0
0.553887 0.553872 0
0.88426 0.566751 0
1 0.562097 0
1 0.544091 0
0 0.660471 0
0 0.732433 0
0 0.807065 0
0.0343633 0.859693 0
0.23006 0.89131 0
0.510643 0.890883 0
0.865385 0.86537 0
1 0.849744 0
1 0.832197 0
0 1 0
0 1 0
0 1 0
0.0199741 1 0
0.222187 1 0
0.448035 1 0
0.816342 1 0
1 1 0
1 1 0
0 1 0
0 1 0
0 1 0
0.0555123 1 0
0.242496 1 0
0.435142 1 0
0.758038 1 0
1 1 0
1 1 0
0 0 0
0 0 0
0 0 0
0 0 0
0 0 0
0 0 0
0 0 0
0 0 0
0 0 0
0 0 0
0 0 0
0 0 0
0 0 0
0 0 0
0 0 0
0.0316472 0.00578317 0.00578317
0.108476 0.0124056 0.0124056
0.234577 0.00843824 0.00843824
0 0 0
0 0 0
0.000503548 0.000503548 0.000320439
0.0258335 0.0179599 0.0106203
0.0719615 0.0347753 0.0187076
0.143404 0.0471809 0.0218051
0.269139 0.0467384 0.0120089
0.50573 0.0181125 0
0.725475 0 0
0.00183108 0.0364691 0.0143893
0.0216373 0.062211 0.0216373
0.0550698 0.0864271 0.0260777
0.107469 0.107469 0.0265202
0.191165 0.122072 0.01944
0.376333 0.111131 0
0.612039 0.0893721 0
0.843397 0.0717021 0
1 0.0518654 0
0 0.165026 0.0174105
0.00668345 0.193576 0.00668345
0.0553597 0.22237 0
0.130861 0.246509 0
0.259663 0.259663 0
0.531029 0.239414 0
0.788312 0.235431 0
1 0.24181 0
1 0.255406 0
0 0.387411 0
0 0.418204 0
0 0.454551 0
0.0327001 0.497993 0
0.216739 0.550744 0
0.567697 0.567697 0
0.899001 0.574304 0
1 0.566217 0
1 0.545861 0
0 0.677897 0
0 0.751614 0
0 0.820676 0
0.0412299 0.868589 0
0.2374 0.896864 0
0.507256 0.898131 0
0.869108 0.869093 0
1 0.853086 0
1 0.836194 0
0 1 0
0 1 0
0 1 0
0.0281376 1 0
0.231983 1 0
0.455863 1 0
0.820279 1 0
1 1 0
1 1 0
0 1 0
0 1 0
0 1 0
0.0668498 1 0
0.249104 1 0
0.44123 1 0
0.75996 1 0
1 1 0
1 1 0
0 0 0
0 0 0
0 0 0
0 0 0
0 0 0
0 0 0
0 0 0
0 0 0
0 0 0
0 0 0
0 0 0
0 0 0
0 0 0
0 0 0
0 0 0
0.0465095 0.00801099 0.0144503
0.129244 0.01355 0.028687
0.27953 0.00297551 0.0270848
0 0 0
0 0 0
0.0043183 0.0043183 0.0043183
0.0330205 0.0228428 0.0228428
0.0821088 0.0390326 0.0390326
0.157717 0.0501564 0.0501564
0.302312 0.0444343 0.0444343
0.535698 0.0162661 0.0162814
0.761578 0 0
0.00144961 0.0436866 0.0298314
0.0230869 0.0690166 0.0452888
0.0583047 0.092607 0.0583047
0.112886 0.112886 0.0673838
0.200244 0.12604 0.0689097
0.399161 0.111406 0.0415198
0.632166 0.0899367 0.00827039
0.8645 0.0723583 0
1 0.0528878 0
0 0.173571 0.0610056
0.00254826 0.201526 0.0590219
0.0533303 0.22948 0.0533303
0.132799 0.25272 0.0466621
0.265095 0.265095 0.0380255
0.542748 0.245182 0.00173953
0.808164 0.243488 0
1 0.2542 0
1 0.267323 0
0 0.397345 0
0 0.427466 0
0 0.465156 0
0.0402838 0.51313 0
0.231937 0.569436 0
0.582315 0.582315 0
0.914916 0.584039 0
1 0.572885 0
1 0.550927 0
0 0.698955 0
0 0.772732 0
0 0.835996 0
0.0491493 0.879057 0
0.24625 0.904784 0
0.509117 0.906218 0
0.875395 0.875395 0
1 0.858885 0
1 0.842573 0
0 1 0
0 1 0
0 1 0
0.0382086 1 0
0.243565 1 0
0.465751 1 0
0.826795 1 0
1 1 0
1 1 0
0 1 0
0 1 0
0 1 0
0.0774395 1 0
0.256931 1 0
0.448783 1 0
0.764752 1 0
1 1 0
1 1 0
0 0 0
0 0 0
0 0 0
0 0 0
0 0 0
0 0 0
0 0 0
0 0 0
0 0 0
0 0 0
0 0 0
0 0 0
0 0 0
0 0 0
0.00427253 0.00109865 0.00248722
0.0619516 0.0101472 0.027985
0.150561 0.0142061 0.0503548
0.33283 0 0.0500191
0 0 0
0 0 0
0.00901808 0.00901808 0.0128023
0.0401465 0.0274815 0.0401465
0.0921035 0.0429084 0.0654307
0.171878 0.0526589 0.0856336
0.337362 0.0407568 0.0846876
0.564965 0.014023 0.0691844
0.796872 0 0.0555276
0.000762951 0.0507362 0.0507362
0.0243076 0.0754253 0.0754253
0.0609598 0.0982528 0.0982528
0.11754 0.11754 0.11754
0.209018 0.129488 0.129488
0.419074 0.111269 0.111284
0.650309 0.0903182 0.0903182
0.883803 0.0733196 0.0733196
1 0.0539254 0.0539254
0 0.181476 0.114061
0 0.20882 0.122698
0.0514839 0.235889 0.12932
0.134325 0.257984 0.134325
0.270253 0.270253 0.136172
0.554406 0.251179 0.109392
0.828992 0.25275 0.1037
1 0.267781 0.11165
1 0.278202 0.11519
0 0.406424 0.0188449
0 0.436164 0.0192264
0 0.476219 0.0268864
0.0496223 0.528893 0.0496223
0.246525 0.586297 0.0865339
0.594842 0.594827 0.0888075
0.929107 0.591852 0.0966049
1 0.578119 0.111864
1 0.555505 0.131899
0 0.720592 0
0 0.791745 0.00143435
0 0.84918 0.0306706
0.0571603 0.888228 0.0571603
0.254612 0.911299 0.08159
0.510689 0.91339 0.0928206
0.880583 0.880583 0.0757916
1 0.86421 0.0844282
1 0.848402 0.100679
0 1 0
0 1 0
0 1 0.0158541
0.0486305 1 0.0486305
0.255253 1 0.0884108
0.475288 1 0.12726
0.832639 1 0.121096
1 1 0.118273
1 1 0.115831
0 1 0
0 1 0.0015259
0 1 0.0496223
0.0849012 1 0.0849012
0.264469 1 0.107683
0.456031 1 0.12871
0.768551 1 0.117968
1 1 0.110857
1 1 0.109026
0 0 0
0 0 0
0 0 0
0 0 0
0 0 0
0 0 0
0 0 0
0 0 0
0 0 0
0 0 0
0 0 0
0 0 0
0 0 0
0 0 0
0.0148928 0.00357061 0.0116732
0.0772564 0.0118563 0.0475471
0.171786 0.0139315 0.0799725
0.379965 0 0.08542
0 0 0
0 0 0
0.0136263 0.0136263 0.0263066
0.0466621 0.0315709 0.0643626
0.101076 0.0459449 0.101076
0.185031 0.0540169 0.133455
0.367941 0.0368963 0.142214
0.591485 0.0103304 0.143465
0.828916 0 0.145205
0 0.0570382 0.0793622
0.0244144 0.0808728 0.115923
0.0625162 0.1028 0.15227
0.120958 0.120958 0.186755
0.215534 0.130922 0.215534
0.433799 0.109865 0.214054
0.664195 0.0889754 0.208576
0.898604 0.0721904 0.201022
1 0.0532387 0.189151
0 0.1879 0.1879
0 0.214115 0.214115
0.0477455 0.239445 0.239445
0.134264 0.260563 0.260563
0.273243 0.273243 0.273243
0.563104 0.25536 0.25536
0.848417 0.261402 0.261402
1 0.278737 0.278737
1 0.285924 0.285924
0 0.412116 0.143069
0 0.442573 0.153933
0 0.485695 0.174868
0.0591135 0.542794 0.212802
0.259907 0.599374 0.259907
0.604074 0.604074 0.268421
0.941695 0.596323 0.279973
1 0.580194 0.299413
1 0.557595 0.318715
0 0.739849 0.132036
0 0.80618 0.170947
0 0.858351 0.205661
0.0640116 0.894148 0.235889
0.261997 0.915618 0.261997
0.509392 0.918486 0.275547
0.883787 0.883787 0.257298
1 0.867674 0.26453
1 0.852399 0.275319
0 1 0.140383
0 1 0.16669
0 1 0.196811
0.0589151 1 0.229419
0.266041 1 0.266041
0.482811 1 0.298802
0.835172 1 0.285222
1 1 0.282383
1 1 0.279988
0 1 0.136217
0 1 0.17792
0 1 0.219242
0.0914473 1 0.248219
0.271077 1 0.271077
0.462257 1 0.292302
0.769589 1 0.283055
1 1 0.275166
1 1 0.273411
0 0 0
0 0 0
0 0 0
0 0 0
0 0 0
0 0 0
0 0 0
0 0 0
0.0130312 0.00015259 0.00758373
0 0 0
0 0 0
0 0 0
0 0 0
0 0 0
0.026215 0.00590524 0.026215
0.0924697 0.013138 0.0737774
0.193729 0.0129091 0.118242
0.42034 0 0.135058
0 0 0
0 0 0
0.0180667 0.0180667 0.0456245
0.0529335 0.0353094 0.0962081
0.10956 0.0484474 0.147204
0.197345 0.0544137 0.197345
0.393393 0.0317235 0.229496
0.613535 0.00282292 0.278889
0.853117 0 0.333455
0 0.062974 0.116457
0.024094 0.0855879 0.16875
0.0629282 0.105959 0.227512
0.120974 0.120989 0.302907
0.215579 0.126223 0.395468
0.438331 0.100618 0.438331
0.667277 0.0787366 0.461189
0.903838 0.0619974 0.471946
1 0.0427558 0.476097
0 0.190265 0.321538
0 0.212192 0.40885
0.0361639 0.234333 0.47747
0.125399 0.253574 0.525673
0.266102 0.266102 0.55845
0.561578 0.250217 0.561578
0.85626 0.259525 0.586145
1 0.277699 0.610086
1 0.28307 0.606256
0 0.408133 0.408133
0 0.439216 0.439216
0 0.484581 0.484581
0.0593729 0.545754 0.545754
0.262303 0.599588 0.599573
0.601663 0.601663 0.601663
0.946197 0.591485 0.591485
1 0.575387 0.575387
1 0.556207 0.556222
0 0.748028 0.446265
0 0.809171 0.479759
0 0.857603 0.506859
0.0639353 0.891814 0.519661
0.264332 0.913817 0.515877
0.506661 0.919676 0.506661
0.884306 0.884306 0.472068
1 0.869093 0.468803
1 0.854719 0.469688
0 1 0.370016
0 1 0.383261
0 1 0.407904
0.0682536 1 0.435599
0.275212 1 0.464439
0.488762 1 0.488762
0.836423 1 0.467704
1 1 0.46157
1 1 0.457038
0 1 0.332311
0 1 0.367025
0 1 0.40238
0.0971695 1 0.426551
0.276997 1 0.447807
0.467781 1 0.467765
0.768521 1 0.459312
1 1 0.4495
1 1 0.447257
0 0 0
0 0 0
0 0 0
0 0 0
0 0 0
0 0 0
0 0 0
0 0 0
0.0319219 0.000030518 0.0228122
0 0 0
0 0 0
0 0 0
0 0 0
0 0 0
0.0375525 0.00787366 0.0464942
0.107576 0.0139467 0.107576
0.21709 0.0105592 0.167742
0.454719 0 0.211582
0 0 0
0.002121 0.00349432 0.0104829
0.0222782 0.0222782 0.0712749
0.0586862 0.0385443 0.136934
0.116991 0.049836 0.209949
0.206455 0.0510262 0.312856
0.410529 0.0210269 0.410529
0.630228 0 0.484306
0.875013 0 0.541939
0 0.0682383 0.164523
0.022034 0.088716 0.246509
0.0577249 0.103639 0.38143
0.11577 0.115785 0.498817
0.214389 0.120394 0.591348
0.44303 0.0936599 0.638621
0.67248 0.0722515 0.67248
0.912551 0.0551766 0.697459
1 0.0363928 0.722698
0 0.188266 0.522286
0 0.209857 0.60882
0.0276951 0.231235 0.682826
0.120668 0.250065 0.74049
0.263798 0.263798 0.7906
0.564141 0.249775 0.816678
0.868482 0.262837 0.868482
1 0.278889 0.914046
1 0.279469 0.929458
0 0.40705 0.633616
0 0.438956 0.683116
0 0.488548 0.753323
0.0634165 0.551095 0.839475
0.266331 0.599313 0.912352
0.598337 0.598337 0.935988
0.948455 0.581872 0.948455
1 0.563104 0.962386
1 0.54377 0.958984
0 0.754772 0.754757
0 0.809735 0.80972
0 0.852888 0.852872
0.0587472 0.88365 0.88365
0.257618 0.902449 0.902449
0.493065 0.908156 0.908156
0.87219 0.87219 0.87219
1 0.857557 0.857572
1 0.844358 0.844358
0 1 0.770184
0 1 0.787228
0 1 0.80885
0.0653697 1 0.829297
0.27187 1 0.845853
0.482292 1 0.857114
0.825223 1 0.825223
1 1 0.806256
1 1 0.785153
0 1 0.707805
0 1 0.727367
0 1 0.752224
0.0917678 1 0.769985
0.272419 1 0.78027
0.463874 1 0.785306
0.758175 1 0.758175
1 1 0.719234
1 1 0.686473
0 0 0
0 0 0
0 0 0
0 0 0
0 0 0
0 0 0
0 0 0
0 0 0
0.051667 0 0.044007
0 0 0
0 0 0
0 0 0
0 0 0
0.00105287 0.000320439 0.00192264
0.0490883 0.00965896 0.0733959
0.122469 0.013962 0.15111
0.242145 0.00537118 0.242145
0.481682 0 0.368566
0 0 0
0.004654 0.00794995 0.0289769
0.0260624 0.0260624 0.104433
0.0635386 0.0408789 0.190997
0.120653 0.0472877 0.328588
0.212482 0.0442817 0.480369
0.428321 0.0122683 0.566049
0.649454 0 0.649454
0.897231 0 0.722393
0 0.0721752 0.233585
0.0145571 0.0865492 0.400671
0.0524605 0.101259 0.539544
0.113146 0.113146 0.656184
0.214878 0.116594 0.762203
0.447242 0.0881056 0.827314
0.676951 0.0665293 0.877485
0.921889 0.0489815 0.921889
1 0.0309911 0.97142
0 0.1888 0.68455
0 0.209171 0.787106
0.0206302 0.228916 0.87924
0.116823 0.247135 0.954452
0.261433 0.261433 1
0.567086 0.250797 1
0.879789 0.266377 1
1 0.278813 1
1 0.276722 1
0 0.406729 0.854887
0 0.440253 0.93022
0 0.493156 1
0.0682841 0.555291 1
0.271931 0.598306 1
0.595026 0.595026 1
0.953399 0.573846 1
1 0.555016 1
1 0.537972 1
0 0.761044 1
0 0.809674 1
0 0.849287 1
0.056733 0.877928 1
0.256474 0.895827 1
0.487068 0.901869 1
0.865934 0.865934 1
1 0.851942 1
1 0.839017 1
0 1 1
0 1 1
0 1 1
0.068986 1 1
0.273625 1 1
0.480079 1 1
0.817868 1 1
1 1 1
1 1 1
0 1 1
0 1 1
0 1 1
0.0894484 1 1
0.26978 1 1
0.460349 1 1
0.744274 1 1
1 1 1
1 1 1
0 0 0
0 0 0
0 0 0
0 0 0
0 0 0
0 0 0
0 0 0
0 0 0
0.0719158 0 0.0719158
0 0 0
0 0 0
0 0 0
0 0 0
0.00965896 0.00280766 0.0210117
0.0605478 0.011017 0.108156
0.136721 0.0129397 0.211063
0.267659 0 0.386954
0.508324 0 0.508324
0 0 0
0.00686656 0.0122683 0.0539101
0.0293126 0.0293126 0.147097
0.0659648 0.0407721 0.282185
0.122377 0.0427558 0.480034
0.221027 0.0395972 0.617014
0.446159 0.00459297 0.712215
0.667613 0 0.821378
0.917144 0 0.917144
0 0.071397 0.370825
0.00834669 0.0855268 0.541146
0.0486763 0.100267 0.678248
0.110719 0.110719 0.81416
0.214099 0.111894 0.946975
0.449348 0.0821851 1
0.680339 0.0605783 1
0.931334 0.0426795 1
1 0.025864 1
0 0.189273 0.852567
0 0.207187 0.980102
0.0131228 0.225544 1
0.112139 0.243458 1
0.25922 0.259236 1
0.570199 0.252918 1
0.888914 0.268894 1
1 0.27718 1
1 0.272877 1
0 0.405661 1
0 0.440787 1
0 0.497154 1
0.0725261 0.55697 1
0.276722 0.594491 1
0.590509 0.590524 1
0.958556 0.564675 1
1 0.54728 1
1 0.531731 1
0 0.764813 1
0 0.808225 1
0 0.844282 1
0.0546426 0.871092 1
0.254932 0.887831 1
0.482155 0.894881 1
0.859342 0.859342 1
1 0.84622 1
1 0.833509 1
0 1 1
0 1 1
0 1 1
0.0728313 1 1
0.275044 1 1
0.476982 1 1
0.810101 1 1
1 1 1
1 1 1
0 1 1
0 1 1
0 1 1
0.0877699 1 1
0.268177 1 1
0.458412 1 1
0.731853 1 1
1 1 1
1 1 1
