site/assets/luts/freshluts--0000632-yellowpurple.cube
# LUTr-Schema-Version: 2
# LUTr-ID: freshluts--0000632-yellowpurple
# LUTr-Title: YELLOW&PURPLE
# LUTr-Collection: Fresh LUTs
# LUTr-Collection-ID: freshluts-community
# LUTr-Source: https://freshluts.com
# LUTr-Retrieved: 2026-07-27
# LUTr-Source-File: submissions-raw/freshluts/cubes/632__33_9.A008_02281607_C037.cube
# LUTr-Source-Format: CUBE
# LUTr-Source-SHA256: 17af8f9f96be18338d31663027dfda26ba6fd5b759e9c93243ddad90e150c2ac
# LUTr-License: CC0-1.0
# LUTr-License-URL: https://freshluts.com/termsandconditions
# LUTr-License-Basis: site-terms
# LUTr-Transform-Class: creative-look
# LUTr-Tags: creative, freshluts, community, cube, purple, bmd-film
# LUTr-Input-Color-Space:
# LUTr-Input-Gamut: bmd-film-gamut
# LUTr-Input-Transfer: bmd-film
# LUTr-Output-Color-Space: srgb
# LUTr-Output-Gamut: rec709
# LUTr-Output-Transfer: srgb
# LUTr-Color-Space-Confidence: camera-profile-input-required
# LUTr-Domain-Normalized: true
# LUTr-Shaper: none
# LUTr-Original-Grid: 33x33x33
# LUTr-Conversion-Grid: 33x33x33
# LUTr-Conversion-Interpolation: none
# LUTr-Conversion-Method: Metadata normalization; numeric LUT samples preserved
# LUTr-Conversion-Tool: LUTr scripts/convert-all-to-cube.mjs 2.0.0
# LUTr-Conversion-Date: 2026-07-28
# LUTr-Asset-URL: https://freshluts.com/luts/632
# LUTr-Author: lvannoeun@gmail.com
# LUTr-Author-URL: https://freshluts.com/users/57563
# LUTr-Attribution: lvannoeun@gmail.com via Fresh LUTs
# LUTr-Source-Labels: gamma=Blackmagic BMD Film; color=Purple; key=Neutral; style=cine drama
# LUTr-Note: Preserve this metadata and the upstream license notices when redistributing.
TITLE "YELLOW&PURPLE"
LUT_3D_SIZE 5
DOMAIN_MIN 0 0 0
DOMAIN_MAX 1 1 1
0.0059205 0 0.0869612
0.389929 0 0.0810407
0.697002 0 0.067155
0.934081 0.0168612 0.0666209
0.93312 0.0169985 0.0487678
0 0.258701 0.0496071
0.298009 0.230793 0.0231937
0.626719 0.213413 0.000030518
0.906386 0.206485 0.030045
0.933471 0.1879 0.0350042
0 0.55317 0
0.198947 0.514534 0
0.547784 0.496162 0
0.84062 0.48397 0.00936904
0.926863 0.46772 0.024033
0 0.823789 0
0.116121 0.79173 0
0.482322 0.778164 0
0.770718 0.765408 0.013901
0.922072 0.751415 0.0346532
0 0.971267 0.0176242
0.0603342 0.972763 0.0189975
0.436713 0.988785 0.0246738
0.717296 1 0.0455024
0.933654 1 0.0697948
0.00428779 0 0.418769
0.386786 0 0.377066
0.694102 0 0.359686
0.94432 0.0124208 0.341009
0.943908 0.0127108 0.319432
0 0.257542 0.32636
0.2822 0.230091 0.281926
0.614557 0.208804 0.278859
0.917403 0.197101 0.267781
0.947158 0.179294 0.249775
0 0.546563 0.247852
0.205386 0.501915 0.2224
0.539467 0.489433 0.205814
0.84181 0.477531 0.179736
0.93611 0.461173 0.166674
0 0.822187 0.18822
0.0998398 0.789685 0.135561
0.47483 0.774334 0.112154
0.767422 0.76173 0.104829
0.924926 0.747417 0.103731
0 0.970474 0.140246
0.0531319 0.97261 0.0990768
0.429404 0.989822 0.0725567
0.71284 1 0.0700542
0.933669 1 0.0769207
0.00149538 0 0.734859
0.380926 0 0.712535
0.681544 0 0.688685
0.941573 0.0118868 0.660609
0.942321 0.0117342 0.638819
0 0.252918 0.668238
0.287236 0.217365 0.624537
0.610834 0.200412 0.609689
0.915404 0.188266 0.596933
0.952651 0.169924 0.574716
0 0.538201 0.580697
0.191424 0.49691 0.534005
0.523827 0.486137 0.511803
0.824842 0.472633 0.503456
0.937499 0.452781 0.481697
0 0.816388 0.502464
0.0850538 0.783597 0.450843
0.478294 0.761822 0.440894
0.759243 0.753613 0.422141
0.927153 0.740307 0.392599
0 0.971237 0.434791
0.0332341 0.974456 0.387152
0.4065 0.994079 0.350622
0.697612 1 0.335256
0.931334 1 0.326253
0.00198367 0 0.998657
0.361578 0 0.981094
0.656779 0 0.968734
0.929046 0.0158846 0.951003
0.929107 0.0157778 0.931517
0 0.245472 0.946548
0.279576 0.210285 0.941741
0.605371 0.192676 0.93077
0.901213 0.183948 0.910323
0.941741 0.166369 0.887587
0 0.526696 0.885405
0.172107 0.491798 0.864759
0.529 0.475792 0.833661
0.82089 0.464897 0.824689
0.933944 0.445624 0.81268
0 0.805554 0.819547
0.0818799 0.774136 0.783123
0.476921 0.754299 0.759396
0.751705 0.746868 0.749325
0.898299 0.73962 0.738796
0 0.968429 0.755779
0.0269627 0.971862 0.713451
0.395605 0.992523 0.689815
0.701671 0.996963 0.687633
0.930068 1 0.678187
0.00192264 0 1
0.35433 0 1
0.647456 0.00047303 1
0.928862 0.0157473 1
0.928862 0.0157473 1
0 0.239933 1
0.273869 0.206195 1
0.594156 0.190112 1
0.884672 0.182818 1
0.928786 0.165743 1
0 0.519112 1
0.173922 0.484428 1
0.524529 0.467765 1
0.821805 0.455344 1
0.932982 0.438834 1
0 0.798169 1
0.0946059 0.762966 1
0.452995 0.751995 1
0.746639 0.741146 1
0.909331 0.732097 1
0 0.96788 1
0.028336 0.968765 1
0.388373 0.990433 0.999146
0.696818 0.996628 0.990295
0.942794 0.997024 0.982422
