site/assets/luts/freshluts--0000549-red-window-film-4k-green-shadow.cube
# LUTr-Schema-Version: 2
# LUTr-ID: freshluts--0000549-red-window-film-4k-green-shadow
# LUTr-Title: Red Window Film 4K Green Shadow
# LUTr-Collection: Fresh LUTs
# LUTr-Collection-ID: freshluts-community
# LUTr-Source: https://freshluts.com
# LUTr-Retrieved: 2026-07-27
# LUTr-Source-File: submissions-raw/freshluts/cubes/549__Green_Shadow_1.000_1209__2841_29.cube
# LUTr-Source-Format: CUBE
# LUTr-Source-SHA256: 2ad94e672c7f190ef9b5c1a536c2b53a2acfb6176c0545deb48151583aadac0f
# LUTr-License: CC0-1.0
# LUTr-License-URL: https://freshluts.com/termsandconditions
# LUTr-License-Basis: site-terms
# LUTr-Transform-Class: creative-look
# LUTr-Tags: creative, freshluts, community, cube, green, low-key, sony-s-log2, cinematic
# LUTr-Input-Color-Space: sony-slog2-sgamut
# LUTr-Input-Gamut: sony-s-gamut
# LUTr-Input-Transfer: sony-s-log2
# LUTr-Output-Color-Space: srgb
# LUTr-Output-Gamut: rec709
# LUTr-Output-Transfer: srgb
# LUTr-Color-Space-Confidence: inferred-from-source-label
# LUTr-Domain-Normalized: true
# LUTr-Shaper: none
# LUTr-Original-Grid: 33x33x33
# LUTr-Conversion-Grid: 33x33x33
# LUTr-Conversion-Interpolation: none
# LUTr-Conversion-Method: Metadata normalization; numeric LUT samples preserved
# LUTr-Conversion-Tool: LUTr scripts/convert-all-to-cube.mjs 2.0.0
# LUTr-Conversion-Date: 2026-07-28
# LUTr-Asset-URL: https://freshluts.com/luts/549
# LUTr-Author: Hussain Khan
# LUTr-Author-URL: https://freshluts.com/users/46536
# LUTr-Attribution: Hussain Khan via Fresh LUTs
# LUTr-Source-Labels: gamma=Sony S-Log 2; color=Green; key=Low Key; style=Cinematic/Dark
# LUTr-Note: Preserve this metadata and the upstream license notices when redistributing.
TITLE "Red Window Film 4K Green Shadow"
LUT_3D_SIZE 5
DOMAIN_MIN 0 0 0
DOMAIN_MAX 1 1 1
0 0 0
0.371954 0 0
0.914061 0 0
1 0 0
1 0 0
0 0.229313 0
0.181048 0.23946 0
0.926406 0.320104 0
1 0.304784 0
1 0.280247 0
0 0.564126 0
0.167971 0.569146 0
0.578424 0.59472 0
1 0.737896 0
1 0.768902 0
0 0.902174 0
0.183444 0.90573 0
0.554696 0.894377 0
0.909056 0.929274 0
1 1 0
0 1 0
0.190768 1 0
0.554452 1 0
0.865995 1 0
1 1 0
0 0.0069276 0.221454
0.17583 0 0.25594
0.556588 0 0.258137
0.877592 0 0.265614
1 0 0.291447
0 0.149828 0.0621958
0.163592 0.244846 0.233768
0.839521 0.304067 0.34226
1 0.297353 0.34609
1 0.28806 0.347066
0 0.483116 0.146853
0.172885 0.58088 0.259251
0.571176 0.595056 0.262089
1 0.790265 0.196994
1 0.779309 0.158953
0 0.87953 0.222553
0.184833 0.913527 0.272755
0.550988 0.89781 0.263981
0.902159 0.930022 0.268513
1 1 0.141405
0 1 0.263264
0.188922 1 0.279835
0.552865 1 0.269413
0.859998 1 0.262226
1 1 0.266957
0 0 0.584894
0.165026 0 0.594263
0.544381 0 0.597223
0.862455 0 0.604593
1 0 0.61941
0 0.17351 0.207462
0.0973983 0.185367 0.529198
0.557382 0.246128 0.613519
0.886717 0.254749 0.631769
1 0.270039 0.656336
0 0.295781 0.152636
0 0.306676 0.237095
0.54638 0.592935 0.600168
1 0.772427 0.81471
1 0.752819 0.806119
0 0.666957 0.3196
0.0883955 0.836164 0.519203
0.555886 0.910491 0.616495
0.887922 0.924804 0.621027
1 1 0.676356
0 1 0.474861
0.167559 1 0.604395
0.551858 1 0.615381
0.851987 1 0.601007
1 1 0.623911
0 0 0.907713
0.155245 0 0.9178
0.53611 0 0.921981
0.854322 0 0.930083
1 0 0.94522
0 0.181582 0.578225
0.0772564 0.169924 0.848905
0.551034 0.249073 0.939101
0.878035 0.256992 0.955917
1 0.267918 0.975341
0 0.304982 0.218143
0 0.228916 0.33756
0.456703 0.493477 0.849607
0.877089 0.600015 0.956024
1 0.611826 0.975555
0 0.448875 0.24654
0 0.378851 0.251911
0.093431 0.516655 0.447807
0.85568 0.919753 0.929778
1 1 1
0 0.811734 0.465751
0 0.933989 0.62681
0.452674 1 0.84918
0.862013 1 0.943664
1 1 0.958236
0 0 1
0.145525 0 1
0.529778 0 1
0.848936 0 1
1 0 1
0 0.171862 0.95758
0.0726482 0.171725 1
0.540825 0.24715 1
0.873289 0.261158 1
1 0.272557 1
0 0.329061 0.505196
0 0.270924 0.778454
0.407889 0.449882 1
0.870008 0.601251 1
1 0.611093 1
0 0.440467 0.24596
0 0.351125 0.309483
0 0.310628 0.4486
0.732555 0.782223 1
1 0.921675 1
0 0.606012 0.345357
0 0.537255 0.351919
0 0.481422 0.357565
0.282902 0.700969 0.631998
1 1 1
