site/assets/luts/freshluts--0002289-picturefx-channel-swap-for-ir-use-with-550590665-720nm-camer.cube
# LUTr-Schema-Version: 2
# LUTr-ID: freshluts--0002289-picturefx-channel-swap-for-ir-use-with-550590665-720nm-camer
# LUTr-Title: PictureFX Channel Swap for IR - Use with 550,590,665 & 720nm camera IR filter
# LUTr-Collection: Fresh LUTs
# LUTr-Collection-ID: freshluts-community
# LUTr-Source: https://freshluts.com
# LUTr-Retrieved: 2026-07-27
# LUTr-Source-File: submissions-raw/freshluts/cubes/2289__PictureFX_Channel_Swap_for_IR.cube
# LUTr-Source-Format: CUBE
# LUTr-Source-SHA256: 6eee0e8f4d8c3e06f6997176fa4b11f4874cdf0ab94c13b49e6a2bb47815e65c
# LUTr-License: CC0-1.0
# LUTr-License-URL: https://freshluts.com/termsandconditions
# LUTr-License-Basis: site-terms
# LUTr-Transform-Class: creative-look
# LUTr-Tags: creative, freshluts, community, cube, film-emulation
# LUTr-Input-Color-Space:
# LUTr-Input-Gamut: unspecified
# LUTr-Input-Transfer: unspecified
# LUTr-Output-Color-Space: srgb
# LUTr-Output-Gamut: rec709
# LUTr-Output-Transfer: srgb
# LUTr-Color-Space-Confidence: camera-profile-input-required
# LUTr-Domain-Normalized: true
# LUTr-Shaper: none
# LUTr-Original-Grid: 25x25x25
# LUTr-Conversion-Grid: 25x25x25
# LUTr-Conversion-Interpolation: none
# LUTr-Conversion-Method: Metadata normalization; numeric LUT samples preserved
# LUTr-Conversion-Tool: LUTr scripts/convert-all-to-cube.mjs 2.0.0
# LUTr-Conversion-Date: 2026-07-28
# LUTr-Asset-URL: https://freshluts.com/luts/2289
# LUTr-Author: MarcR.
# LUTr-Author-URL: https://freshluts.com/users/86490
# LUTr-Attribution: MarcR. via Fresh LUTs
# LUTr-Source-Labels: gamma=Other; color=None; key=Neutral; style=Film emulation
# LUTr-Note: Preserve this metadata and the upstream license notices when redistributing.
# LUTr-Upstream-Comment: Generated with IWLTBAP LUT Generator
# LUTr-Upstream-Comment: Website: http://luts.iwltbap.com
# LUTr-Upstream-Comment: LUT size
# LUTr-Upstream-Comment: LUT data points
TITLE "PictureFX Channel Swap for IR - Use with 550,590,665 & 720nm camera IR filter"
LUT_3D_SIZE 25
DOMAIN_MIN 0 0 0
DOMAIN_MAX 1 1 1
0 0 0
0 0.007843 0.015686
0 0.019608 0.039216
0 0.039216 0.062745
0 0.058824 0.090196
0 0.082353 0.117647
0 0.101961 0.141176
0 0.121569 0.168627
0 0.141176 0.196078
0 0.164706 0.219608
0 0.184314 0.247059
0 0.203922 0.270588
0 0.223529 0.298039
0 0.247059 0.32549
0 0.266667 0.34902
0 0.286275 0.376471
0 0.309804 0.403922
0 0.329412 0.427451
0 0.34902 0.454902
0 0.368627 0.478431
0 0.392157 0.505882
0 0.411765 0.533333
0 0.431373 0.556863
0 0.45098 0.584314
0 0.47451 0.607843
0 0.007843 0.011765
0 0.019608 0.031373
0 0.031373 0.05098
0 0.05098 0.07451
0 0.066667 0.098039
0 0.086275 0.121569
0 0.105882 0.14902
0 0.12549 0.172549
0 0.145098 0.2
0 0.168627 0.223529
0 0.188235 0.25098
0 0.207843 0.27451
0 0.227451 0.301961
0 0.247059 0.32549
0 0.270588 0.352941
0 0.290196 0.376471
0 0.309804 0.403922
0 0.329412 0.431373
0 0.34902 0.454902
0 0.372549 0.482353
0 0.392157 0.505882
0 0.411765 0.533333
0 0.431373 0.560784
0 0.454902 0.584314
0 0.47451 0.611765
0 0.023529 0.035294
0 0.035294 0.05098
0 0.047059 0.066667
0 0.062745 0.086275
0 0.078431 0.109804
0 0.094118 0.129412
0 0.113725 0.152941
0 0.133333 0.180392
0 0.152941 0.203922
0 0.172549 0.227451
0 0.192157 0.254902
0 0.211765 0.278431
0 0.231373 0.301961
0 0.25098 0.329412
0 0.270588 0.352941
0 0.290196 0.380392
0 0.313725 0.407843
0 0.333333 0.431373
0 0.352941 0.458824
0 0.372549 0.482353
0 0.392157 0.509804
0 0.415686 0.533333
0 0.435294 0.560784
0 0.454902 0.584314
0 0.47451 0.611765
0 0.047059 0.062745
0 0.054902 0.07451
0 0.062745 0.086275
0 0.07451 0.101961
0 0.090196 0.121569
0 0.105882 0.141176
0 0.121569 0.164706
0 0.141176 0.188235
0 0.160784 0.211765
0 0.176471 0.235294
0 0.196078 0.258824
0 0.215686 0.282353
0 0.235294 0.309804
0 0.254902 0.333333
0 0.27451 0.356863
0 0.294118 0.384314
0 0.313725 0.407843
0 0.337255 0.435294
0 0.356863 0.458824
0 0.376471 0.486275
0 0.396078 0.509804
0 0.415686 0.537255
0 0.435294 0.560784
0 0.458824 0.588235
0 0.478431 0.615686
0 0.070588 0.090196
0 0.078431 0.098039
0 0.086275 0.109804
0 0.094118 0.121569
0 0.105882 0.141176
0 0.121569 0.156863
0 0.137255 0.176471
0 0.152941 0.2
0 0.168627 0.219608
0 0.188235 0.243137
0 0.203922 0.266667
0 0.223529 0.290196
0 0.243137 0.313725
0 0.262745 0.341176
0 0.282353 0.364706
0 0.301961 0.388235
0 0.321569 0.415686
0 0.341176 0.439216
0 0.360784 0.462745
0 0.380392 0.490196
0 0.4 0.513725
0 0.419608 0.541176
0 0.439216 0.564706
0 0.458824 0.592157
0 0.482353 0.615686
0 0.094118 0.117647
0 0.098039 0.12549
0 0.105882 0.133333
0 0.113725 0.145098
0 0.12549 0.156863
0 0.137255 0.176471
0 0.14902 0.192157
0 0.164706 0.211765
0 0.180392 0.235294
0 0.196078 0.254902
0 0.215686 0.278431
0 0.231373 0.301961
0 0.25098 0.32549
0 0.270588 0.34902
0 0.286275 0.372549
0 0.305882 0.396078
0 0.32549 0.419608
0 0.345098 0.443137
0 0.364706 0.470588
0 0.384314 0.494118
0 0.403922 0.521569
0 0.423529 0.545098
0 0.443137 0.568627
0 0.462745 0.596078
0 0.482353 0.619608
0 0.117647 0.145098
0 0.121569 0.152941
0 0.129412 0.156863
0 0.133333 0.168627
0 0.145098 0.180392
0 0.152941 0.196078
0 0.164706 0.211765
0 0.180392 0.227451
0 0.196078 0.247059
0 0.207843 0.266667
0 0.227451 0.290196
0 0.243137 0.309804
0 0.258824 0.333333
0 0.278431 0.356863
0 0.294118 0.380392
0 0.313725 0.403922
0 0.333333 0.427451
0 0.352941 0.45098
0 0.372549 0.47451
0 0.392157 0.501961
0 0.411765 0.52549
0 0.427451 0.54902
0 0.447059 0.576471
0 0.470588 0.6
0 0.490196 0.623529
0 0.141176 0.172549
0 0.145098 0.176471
0 0.14902 0.184314
0 0.156863 0.192157
0 0.164706 0.203922
0 0.172549 0.215686
0 0.184314 0.231373
0 0.196078 0.247059
0 0.207843 0.262745
0 0.223529 0.282353
0 0.239216 0.301961
0 0.254902 0.32549
0 0.270588 0.345098
0 0.286275 0.368627
0 0.305882 0.392157
0 0.321569 0.411765
0 0.341176 0.435294
0 0.360784 0.458824
0 0.380392 0.482353
0 0.396078 0.509804
0 0.415686 0.533333
0 0.435294 0.556863
0 0.454902 0.580392
0 0.47451 0.607843
0 0.494118 0.631373
0 0.164706 0.2
0 0.168627 0.203922
0 0.172549 0.211765
0 0.180392 0.215686
0 0.184314 0.227451
0 0.192157 0.239216
0 0.203922 0.25098
0 0.215686 0.266667
0 0.227451 0.282353
0 0.239216 0.301961
0 0.254902 0.317647
0 0.266667 0.337255
0 0.282353 0.360784
0 0.301961 0.380392
0 0.317647 0.403922
0 0.333333 0.423529
0 0.352941 0.447059
0 0.368627 0.470588
0 0.388235 0.494118
0 0.403922 0.517647
0 0.423529 0.541176
0 0.443137 0.564706
0 0.462745 0.588235
0 0.482353 0.611765
0 0.501961 0.639216
0 0.192157 0.227451
0 0.192157 0.231373
0 0.196078 0.235294
0 0.2 0.243137
0 0.207843 0.25098
0 0.215686 0.262745
0 0.223529 0.27451
0 0.231373 0.286275
0 0.243137 0.301961
0 0.254902 0.317647
0 0.270588 0.337255
0 0.282353 0.352941
0 0.298039 0.372549
0 0.313725 0.396078
0 0.329412 0.415686
0 0.345098 0.435294
0 0.360784 0.458824
0 0.380392 0.482353
0 0.396078 0.501961
0 0.415686 0.52549
0 0.431373 0.54902
0 0.45098 0.572549
0 0.470588 0.596078
0 0.490196 0.619608
0 0.505882 0.643137
0 0.215686 0.254902
0 0.215686 0.258824
0 0.219608 0.262745
0 0.223529 0.270588
0 0.227451 0.278431
0 0.235294 0.286275
0 0.243137 0.298039
0 0.25098 0.309804
0 0.262745 0.321569
0 0.27451 0.337255
0 0.286275 0.352941
0 0.298039 0.372549
0 0.313725 0.392157
0 0.329412 0.407843
0 0.341176 0.427451
0 0.356863 0.45098
0 0.372549 0.470588
0 0.392157 0.494118
0 0.407843 0.513725
0 0.423529 0.537255
0 0.443137 0.560784
0 0.458824 0.584314
0 0.478431 0.607843
0 0.498039 0.627451
0 0.513725 0.654902
0 0.239216 0.282353
0 0.239216 0.286275
0 0.243137 0.290196
0 0.247059 0.294118
0 0.25098 0.301961
0 0.258824 0.309804
0 0.266667 0.321569
0 0.27451 0.333333
0 0.282353 0.345098
0 0.294118 0.356863
0 0.305882 0.372549
0 0.317647 0.392157
0 0.329412 0.407843
0 0.341176 0.427451
0 0.356863 0.443137
0 0.372549 0.462745
0 0.388235 0.486275
0 0.403922 0.505882
0 0.419608 0.52549
0 0.435294 0.54902
0 0.454902 0.572549
0 0.470588 0.592157
0 0.490196 0.615686
0 0.505882 0.639216
0 0.52549 0.662745
0 0.262745 0.309804
0 0.266667 0.313725
0 0.266667 0.317647
0 0.270588 0.321569
0 0.27451 0.329412
0 0.278431 0.337255
0 0.286275 0.345098
0 0.294118 0.356863
0 0.301961 0.368627
0 0.313725 0.380392
0 0.321569 0.396078
0 0.333333 0.411765
0 0.345098 0.427451
0 0.360784 0.443137
0 0.372549 0.462745
0 0.388235 0.482353
0 0.4 0.501961
0 0.415686 0.521569
0 0.431373 0.541176
0 0.447059 0.560784
0 0.466667 0.584314
0 0.482353 0.603922
0 0.498039 0.627451
0 0.517647 0.65098
0 0.533333 0.67451
0 0.286275 0.341176
0 0.290196 0.341176
0 0.290196 0.345098
0 0.294118 0.34902
0 0.298039 0.352941
0 0.301961 0.360784
0 0.309804 0.368627
0 0.313725 0.380392
0 0.321569 0.388235
0 0.333333 0.403922
0 0.341176 0.415686
0 0.352941 0.431373
0 0.364706 0.447059
0 0.376471 0.462745
0 0.388235 0.478431
0 0.403922 0.498039
0 0.415686 0.517647
0 0.431373 0.537255
0 0.447059 0.556863
0 0.462745 0.576471
0 0.478431 0.596078
0 0.494118 0.619608
0 0.509804 0.639216
0 0.529412 0.662745
0 0.545098 0.682353
0 0.309804 0.368627
0 0.313725 0.368627
0 0.313725 0.372549
0 0.317647 0.376471
0 0.321569 0.380392
0 0.32549 0.388235
0 0.329412 0.396078
0 0.337255 0.403922
0 0.345098 0.415686
0 0.352941 0.423529
0 0.360784 0.439216
0 0.372549 0.45098
0 0.384314 0.466667
0 0.392157 0.482353
0 0.407843 0.498039
0 0.419608 0.513725
0 0.431373 0.533333
0 0.447059 0.552941
0 0.462745 0.572549
0 0.47451 0.592157
0 0.490196 0.611765
0 0.505882 0.631373
0 0.521569 0.65098
0 0.541176 0.67451
0 0.556863 0.694118
0 0.333333 0.396078
0 0.337255 0.396078
0 0.337255 0.4
0 0.341176 0.403922
0 0.345098 0.407843
0 0.34902 0.411765
0 0.352941 0.419608
0 0.360784 0.427451
0 0.364706 0.439216
0 0.372549 0.447059
0 0.380392 0.458824
0 0.392157 0.47451
0 0.4 0.486275
0 0.411765 0.501961
0 0.423529 0.517647
0 0.435294 0.533333
0 0.447059 0.552941
0 0.462745 0.568627
0 0.47451 0.588235
0 0.490196 0.607843
0 0.505882 0.627451
0 0.521569 0.647059
0 0.537255 0.666667
0 0.552941 0.686275
0 0.568627 0.709804
0 0.360784 0.423529
0 0.360784 0.423529
0 0.360784 0.427451
0 0.364706 0.431373
0 0.368627 0.435294
0 0.372549 0.439216
0 0.376471 0.447059
0 0.380392 0.454902
0 0.388235 0.462745
0 0.396078 0.47451
0 0.403922 0.482353
0 0.411765 0.494118
0 0.419608 0.509804
0 0.431373 0.521569
0 0.443137 0.537255
0 0.454902 0.552941
0 0.466667 0.568627
0 0.478431 0.588235
0 0.490196 0.603922
0 0.505882 0.623529
0 0.521569 0.643137
0 0.533333 0.662745
0 0.54902 0.682353
0 0.564706 0.701961
0 0.580392 0.721569
0 0.384314 0.45098
0 0.384314 0.45098
0 0.384314 0.454902
0 0.388235 0.458824
0 0.392157 0.462745
0 0.396078 0.466667
0 0.4 0.470588
0 0.403922 0.478431
0 0.407843 0.486275
0 0.415686 0.498039
0 0.423529 0.505882
0 0.431373 0.517647
0 0.439216 0.529412
0 0.45098 0.545098
0 0.462745 0.556863
0 0.470588 0.572549
0 0.482353 0.588235
0 0.494118 0.603922
0 0.509804 0.623529
0 0.521569 0.639216
0 0.537255 0.658824
0 0.54902 0.678431
0 0.564706 0.698039
0 0.580392 0.717647
0 0.596078 0.737255
0 0.407843 0.478431
0 0.407843 0.478431
0 0.411765 0.482353
0 0.411765 0.486275
0 0.415686 0.486275
0 0.419608 0.494118
0 0.423529 0.498039
0 0.427451 0.505882
0 0.431373 0.513725
0 0.439216 0.521569
0 0.447059 0.533333
0 0.454902 0.541176
0 0.462745 0.552941
0 0.470588 0.564706
0 0.482353 0.580392
0 0.490196 0.596078
0 0.501961 0.607843
0 0.513725 0.623529
0 0.52549 0.643137
0 0.537255 0.658824
0 0.552941 0.67451
0 0.564706 0.694118
0 0.580392 0.713725
0 0.596078 0.733333
0 0.607843 0.752941
0 0.431373 0.505882
0 0.431373 0.505882
0 0.435294 0.509804
0 0.435294 0.513725
0 0.439216 0.513725
0 0.439216 0.521569
0 0.443137 0.52549
0 0.45098 0.529412
0 0.454902 0.537255
0 0.458824 0.545098
0 0.466667 0.556863
0 0.47451 0.564706
0 0.482353 0.576471
0 0.490196 0.588235
0 0.501961 0.603922
0 0.509804 0.615686
0 0.521569 0.631373
0 0.533333 0.647059
0 0.545098 0.662745
0 0.556863 0.678431
0 0.568627 0.694118
0 0.580392 0.713725
0 0.596078 0.729412
0 0.607843 0.74902
0 0.623529 0.768627
0 0.454902 0.533333
0 0.454902 0.533333
0 0.458824 0.537255
0 0.458824 0.537255
0 0.462745 0.541176
0 0.462745 0.545098
0 0.466667 0.552941
0 0.470588 0.556863
0 0.478431 0.564706
0 0.482353 0.572549
0 0.490196 0.580392
0 0.494118 0.592157
0 0.501961 0.6
0 0.513725 0.611765
0 0.521569 0.623529
0 0.529412 0.639216
0 0.541176 0.65098
0 0.54902 0.666667
0 0.560784 0.682353
0 0.572549 0.698039
0 0.584314 0.713725
0 0.6 0.729412
0 0.611765 0.74902
0 0.623529 0.764706
0 0.639216 0.784314
0 0.478431 0.560784
0 0.482353 0.564706
0 0.482353 0.564706
0 0.482353 0.564706
0 0.486275 0.568627
0 0.486275 0.572549
0 0.490196 0.576471
0 0.494118 0.584314
0 0.501961 0.592157
0 0.505882 0.596078
0 0.509804 0.603922
0 0.517647 0.615686
0 0.52549 0.623529
0 0.533333 0.635294
0 0.541176 0.647059
0 0.54902 0.658824
0 0.560784 0.67451
0 0.568627 0.686275
0 0.580392 0.701961
0 0.592157 0.717647
0 0.603922 0.733333
0 0.615686 0.74902
0 0.627451 0.764706
0 0.643137 0.784314
0 0.654902 0.8
0 0.501961 0.588235
0 0.505882 0.592157
0 0.505882 0.592157
0 0.505882 0.592157
0 0.509804 0.596078
0 0.509804 0.6
0 0.513725 0.603922
0 0.517647 0.611765
0 0.521569 0.615686
0 0.529412 0.623529
0 0.533333 0.631373
0 0.541176 0.639216
0 0.545098 0.65098
0 0.552941 0.658824
0 0.560784 0.670588
0 0.572549 0.682353
0 0.580392 0.694118
0 0.588235 0.709804
0 0.6 0.721569
0 0.611765 0.737255
0 0.623529 0.752941
0 0.635294 0.768627
0 0.647059 0.784314
0 0.658824 0.803922
0 0.670588 0.819608
0 0.529412 0.615686
0 0.529412 0.619608
0 0.529412 0.619608
0 0.529412 0.623529
0 0.533333 0.623529
0 0.537255 0.627451
0 0.537255 0.631373
0 0.541176 0.635294
0 0.545098 0.643137
0 0.54902 0.65098
0 0.556863 0.654902
0 0.560784 0.666667
0 0.568627 0.67451
0 0.576471 0.682353
0 0.584314 0.694118
0 0.592157 0.705882
0 0.6 0.717647
0 0.607843 0.729412
0 0.619608 0.745098
0 0.631373 0.756863
0 0.639216 0.772549
0 0.65098 0.788235
0 0.662745 0.803922
0 0.67451 0.819608
0 0.690196 0.839216
0 0.533333 0.623529
0 0.537255 0.627451
0 0.537255 0.627451
0 0.537255 0.631373
0 0.541176 0.631373
0 0.541176 0.635294
0 0.545098 0.639216
0 0.54902 0.643137
0 0.552941 0.65098
0 0.556863 0.658824
0 0.564706 0.662745
0 0.568627 0.67451
0 0.576471 0.682353
0 0.580392 0.690196
0 0.588235 0.701961
0 0.596078 0.713725
0 0.607843 0.72549
0 0.615686 0.737255
0 0.623529 0.74902
0 0.635294 0.764706
0 0.647059 0.780392
0 0.658824 0.796078
0 0.670588 0.811765
0 0.682353 0.827451
0 0.694118 0.843137
0.070588 0.023529 0.003922
0.066667 0.035294 0.023529
0.054902 0.047059 0.043137
0.039216 0.062745 0.066667
0.015686 0.078431 0.094118
0 0.094118 0.117647
0 0.113725 0.145098
0 0.133333 0.168627
0 0.152941 0.196078
0 0.172549 0.219608
0 0.192157 0.247059
0 0.211765 0.27451
0 0.231373 0.298039
0 0.25098 0.32549
0 0.270588 0.34902
0 0.290196 0.376471
0 0.313725 0.403922
0 0.333333 0.427451
0 0.352941 0.454902
0 0.372549 0.478431
0 0.392157 0.505882
0 0.415686 0.533333
0 0.435294 0.556863
0 0.454902 0.584314
0 0.47451 0.611765
0.070588 0.035294 0.019608
0.062745 0.047059 0.035294
0.054902 0.054902 0.054902
0.039216 0.070588 0.078431
0.015686 0.082353 0.101961
0 0.101961 0.12549
0 0.117647 0.14902
0 0.137255 0.172549
0 0.156863 0.2
0 0.172549 0.223529
0 0.192157 0.25098
0 0.211765 0.27451
0 0.231373 0.301961
0 0.254902 0.32549
0 0.27451 0.352941
0 0.294118 0.376471
0 0.313725 0.403922
0 0.333333 0.431373
0 0.352941 0.454902
0 0.372549 0.482353
0 0.396078 0.505882
0 0.415686 0.533333
0 0.435294 0.560784
0 0.454902 0.584314
0 0.478431 0.611765
0.070588 0.047059 0.039216
0.062745 0.058824 0.054902
0.054902 0.066667 0.070588
0.039216 0.078431 0.090196
0.015686 0.094118 0.109804
0 0.105882 0.133333
0 0.12549 0.156863
0 0.141176 0.180392
0 0.160784 0.203922
0 0.180392 0.227451
0 0.196078 0.254902
0 0.215686 0.278431
0 0.235294 0.305882
0 0.254902 0.329412
0 0.27451 0.356863
0 0.294118 0.380392
0 0.317647 0.407843
0 0.337255 0.431373
0 0.356863 0.458824
0 0.376471 0.482353
0 0.396078 0.509804
0 0.415686 0.533333
0 0.435294 0.560784
0 0.458824 0.588235
0 0.478431 0.611765
0.070588 0.066667 0.066667
0.062745 0.07451 0.078431
0.05098 0.082353 0.090196
0.035294 0.090196 0.105882
0.011765 0.101961 0.12549
0 0.117647 0.145098
0 0.133333 0.164706
0 0.14902 0.188235
0 0.168627 0.211765
0 0.184314 0.235294
0 0.203922 0.258824
0 0.223529 0.286275
0 0.239216 0.309804
0 0.258824 0.333333
0 0.278431 0.360784
0 0.298039 0.384314
0 0.317647 0.411765
0 0.337255 0.435294
0 0.360784 0.458824
0 0.380392 0.486275
0 0.4 0.513725
0 0.419608 0.537255
0 0.439216 0.564706
0 0.458824 0.588235
0 0.478431 0.615686
0.066667 0.086275 0.090196
0.058824 0.090196 0.101961
0.05098 0.098039 0.109804
0.031373 0.105882 0.12549
0.007843 0.117647 0.141176
0 0.129412 0.160784
0 0.145098 0.180392
0 0.160784 0.2
0 0.176471 0.223529
0 0.192157 0.243137
0 0.211765 0.266667
0 0.227451 0.290196
0 0.247059 0.317647
0 0.266667 0.341176
0 0.286275 0.364706
0 0.305882 0.388235
0 0.32549 0.415686
0 0.345098 0.439216
0 0.364706 0.466667
0 0.384314 0.490196
0 0.403922 0.513725
0 0.423529 0.541176
0 0.443137 0.564706
0 0.462745 0.592157
0 0.482353 0.615686
0.062745 0.105882 0.117647
0.054902 0.113725 0.12549
0.047059 0.117647 0.133333
0.027451 0.12549 0.145098
0.003922 0.133333 0.160784
0 0.145098 0.176471
0 0.156863 0.196078
0 0.172549 0.215686
0 0.188235 0.235294
0 0.203922 0.254902
0 0.219608 0.278431
0 0.239216 0.301961
0 0.254902 0.32549
0 0.27451 0.34902
0 0.290196 0.372549
0 0.309804 0.396078
0 0.329412 0.419608
0 0.34902 0.447059
0 0.368627 0.470588
0 0.388235 0.494118
0 0.407843 0.521569
0 0.427451 0.545098
0 0.447059 0.568627
0 0.466667 0.596078
0 0.486275 0.619608
0.058824 0.129412 0.145098
0.05098 0.133333 0.152941
0.043137 0.137255 0.160784
0.023529 0.145098 0.168627
0 0.152941 0.180392
0 0.160784 0.196078
0 0.172549 0.211765
0 0.188235 0.231373
0 0.2 0.25098
0 0.215686 0.270588
0 0.231373 0.290196
0 0.247059 0.313725
0 0.266667 0.333333
0 0.282353 0.356863
0 0.301961 0.380392
0 0.317647 0.403922
0 0.337255 0.427451
0 0.356863 0.45098
0 0.372549 0.478431
0 0.392157 0.501961
0 0.411765 0.52549
0 0.431373 0.54902
0 0.45098 0.576471
0 0.470588 0.6
0 0.490196 0.627451
0.054902 0.152941 0.172549
0.047059 0.152941 0.180392
0.035294 0.160784 0.184314
0.015686 0.164706 0.192157
0 0.172549 0.203922
0 0.180392 0.215686
0 0.192157 0.231373
0 0.203922 0.247059
0 0.215686 0.266667
0 0.231373 0.286275
0 0.243137 0.305882
0 0.258824 0.32549
0 0.27451 0.345098
0 0.294118 0.368627
0 0.309804 0.392157
0 0.32549 0.415686
0 0.345098 0.435294
0 0.364706 0.458824
0 0.380392 0.486275
0 0.4 0.509804
0 0.419608 0.533333
0 0.439216 0.556863
0 0.458824 0.580392
0 0.478431 0.607843
0 0.498039 0.631373
0.05098 0.172549 0.2
0.039216 0.176471 0.207843
0.027451 0.180392 0.211765
0.007843 0.184314 0.219608
0 0.192157 0.227451
0 0.2 0.239216
0 0.207843 0.25098
0 0.219608 0.266667
0 0.231373 0.282353
0 0.243137 0.301961
0 0.258824 0.321569
0 0.27451 0.341176
0 0.290196 0.360784
0 0.305882 0.380392
0 0.321569 0.403922
0 0.337255 0.423529
0 0.352941 0.447059
0 0.372549 0.470588
0 0.392157 0.494118
0 0.407843 0.517647
0 0.427451 0.541176
0 0.447059 0.564706
0 0.462745 0.588235
0 0.482353 0.611765
0 0.501961 0.639216
0.043137 0.196078 0.227451
0.031373 0.2 0.231373
0.019608 0.203922 0.239216
0 0.207843 0.243137
0 0.211765 0.25098
0 0.219608 0.262745
0 0.227451 0.27451
0 0.239216 0.286275
0 0.25098 0.301961
0 0.262745 0.317647
0 0.27451 0.337255
0 0.286275 0.356863
0 0.301961 0.376471
0 0.317647 0.396078
0 0.333333 0.415686
0 0.34902 0.435294
0 0.364706 0.458824
0 0.384314 0.482353
0 0.4 0.501961
0 0.415686 0.52549
0 0.435294 0.54902
0 0.454902 0.572549
0 0.470588 0.596078
0 0.490196 0.619608
0 0.509804 0.643137
0.031373 0.219608 0.258824
0.019608 0.223529 0.258824
0.007843 0.227451 0.262745
0 0.231373 0.270588
0 0.235294 0.278431
0 0.239216 0.286275
0 0.247059 0.298039
0 0.258824 0.309804
0 0.266667 0.32549
0 0.278431 0.337255
0 0.290196 0.356863
0 0.301961 0.372549
0 0.317647 0.392157
0 0.329412 0.411765
0 0.345098 0.431373
0 0.360784 0.45098
0 0.376471 0.470588
0 0.392157 0.494118
0 0.411765 0.513725
0 0.427451 0.537255
0 0.447059 0.560784
0 0.462745 0.584314
0 0.482353 0.607843
0 0.498039 0.631373
0 0.517647 0.654902
