site/assets/luts/freshluts--0001006-picturefx-superia-sakura-vii-full-lut-adjust-only-exposure-u.cube
# LUTr-Schema-Version: 2
# LUTr-ID: freshluts--0001006-picturefx-superia-sakura-vii-full-lut-adjust-only-exposure-u
# LUTr-Title: PictureFX Superia Sakura v.II - full lut, adjust only exposure - used on Olympus/Panasonic sensor
# LUTr-Collection: Fresh LUTs
# LUTr-Collection-ID: freshluts-community
# LUTr-Source: https://freshluts.com
# LUTr-Retrieved: 2026-07-27
# LUTr-Source-File: submissions-raw/freshluts/cubes/1006__PictureFX-Superia-Sakura-vII-Oly-Pana.cube
# LUTr-Source-Format: CUBE
# LUTr-Source-SHA256: 9596651a9d5f773b2c630b5b3b268f15a8aa2bca1e91decb41f717ce08298d54
# LUTr-License: CC0-1.0
# LUTr-License-URL: https://freshluts.com/termsandconditions
# LUTr-License-Basis: site-terms
# LUTr-Transform-Class: creative-look
# LUTr-Tags: creative, freshluts, community, cube, film-emulation, rec709, assumed-input
# LUTr-Input-Color-Space: rec709
# LUTr-Input-Gamut: rec709
# LUTr-Input-Transfer: rec709
# LUTr-Output-Color-Space: srgb
# LUTr-Output-Gamut: rec709
# LUTr-Output-Transfer: srgb
# LUTr-Color-Space-Confidence: assumed-display-referred
# LUTr-Domain-Normalized: true
# LUTr-Shaper: none
# LUTr-Original-Grid: 25x25x25
# LUTr-Conversion-Grid: 25x25x25
# LUTr-Conversion-Interpolation: none
# LUTr-Conversion-Method: Metadata normalization; numeric LUT samples preserved
# LUTr-Conversion-Tool: LUTr scripts/convert-all-to-cube.mjs 2.0.0
# LUTr-Conversion-Date: 2026-07-28
# LUTr-Asset-URL: https://freshluts.com/luts/1006
# LUTr-Author: MarcR.
# LUTr-Author-URL: https://freshluts.com/users/86490
# LUTr-Attribution: MarcR. via Fresh LUTs
# LUTr-Source-Labels: gamma=Other; color=None; key=Neutral; style=Film emulation; LUTr assumption=input Rec.709 per repository policy
# LUTr-Conversion-Warning: Input Rec.709 is a LUTr catalog assumption requested for this otherwise unspecified Fresh LUT; it is not verified by the upstream asset.
# LUTr-Note: Preserve this metadata and the upstream license notices when redistributing.
# LUTr-Upstream-Comment: Generated with IWLTBAP LUT Generator
# LUTr-Upstream-Comment: Website: http://luts.iwltbap.com
# LUTr-Upstream-Comment: LUT size
# LUTr-Upstream-Comment: LUT data points
TITLE "PictureFX Superia Sakura v.II - full lut, adjust only exposure - used on Olympus/Panasonic sensor"
LUT_3D_SIZE 9
DOMAIN_MIN 0 0 0
DOMAIN_MAX 1 1 1
0 0 0
0.003922 0 0
0.058824 0 0
0.145098 0 0
0.278431 0 0.003922
0.478431 0 0.003922
0.701961 0 0.003922
0.890196 0 0.054902
1 0.094118 0.168627
0 0.011765 0
0.015686 0.015686 0
0.07451 0.023529 0
0.156863 0.031373 0
0.301961 0.047059 0.003922
0.498039 0.062745 0.003922
0.713725 0.05098 0
0.890196 0.078431 0.066667
1 0.172549 0.176471
0 0.082353 0
0.023529 0.086275 0
0.094118 0.098039 0
0.2 0.12549 0.003922
0.34902 0.160784 0.003922
0.537255 0.192157 0
0.737255 0.211765 0
0.894118 0.239216 0.098039
1 0.286275 0.196078
0 0.219608 0
0.023529 0.227451 0
0.137255 0.247059 0
0.262745 0.27451 0
0.415686 0.309804 0
0.588235 0.341176 0
0.760784 0.364706 0.031373
0.898039 0.384314 0.137255
1 0.419608 0.227451
0 0.423529 0
0 0.431373 0
0.156863 0.443137 0
0.309804 0.462745 0
0.466667 0.490196 0
0.623529 0.505882 0.011765
0.768627 0.517647 0.105882
0.898039 0.533333 0.188235
1 0.556863 0.270588
0 0.635294 0
0 0.639216 0
0.129412 0.639216 0
0.32549 0.647059 0.019608
0.482353 0.654902 0.070588
0.635294 0.662745 0.117647
0.772549 0.670588 0.176471
0.898039 0.678431 0.25098
1 0.694118 0.329412
0 0.788235 0.141176
0 0.788235 0.145098
0.176471 0.788235 0.156863
0.34902 0.792157 0.176471
0.501961 0.796078 0.203922
0.643137 0.8 0.235294
0.772549 0.803922 0.27451
0.898039 0.807843 0.329412
1 0.815686 0.403922
0.121569 0.913725 0.286275
0.188235 0.913725 0.290196
0.298039 0.913725 0.298039
0.415686 0.913725 0.313725
0.541176 0.913725 0.337255
0.662745 0.917647 0.364706
0.780392 0.917647 0.4
0.890196 0.921569 0.439216
0.992157 0.92549 0.486275
0.356863 1 0.431373
0.380392 1 0.435294
0.435294 1 0.443137
0.513725 1 0.454902
0.607843 1 0.470588
0.705882 1 0.498039
0.803922 1 0.52549
0.898039 1 0.556863
0.980392 1 0.596078
0 0 0
0.007843 0 0.007843
0.070588 0 0.019608
0.152941 0 0.031373
0.294118 0 0.054902
0.490196 0 0.082353
0.709804 0 0.101961
0.890196 0 0.141176
1 0.105882 0.215686
0 0.015686 0.015686
0.019608 0.019608 0.019608
0.078431 0.023529 0.023529
0.168627 0.035294 0.035294
0.317647 0.05098 0.062745
0.509804 0.062745 0.086275
0.721569 0.05098 0.105882
0.890196 0.086275 0.14902
1 0.176471 0.219608
0 0.090196 0.031373
0.023529 0.094118 0.031373
0.101961 0.105882 0.039216
0.211765 0.133333 0.054902
0.360784 0.164706 0.07451
0.545098 0.196078 0.094118
0.745098 0.215686 0.109804
0.894118 0.243137 0.164706
1 0.290196 0.235294
0 0.231373 0.058824
0.023529 0.235294 0.062745
0.145098 0.254902 0.066667
0.270588 0.282353 0.078431
0.419608 0.313725 0.094118
0.596078 0.345098 0.105882
0.760784 0.364706 0.133333
0.898039 0.388235 0.192157
1 0.419608 0.262745
0 0.431373 0.086275
0 0.439216 0.086275
0.160784 0.45098 0.090196
0.313725 0.470588 0.094118
0.470588 0.494118 0.101961
0.627451 0.505882 0.129412
0.768627 0.517647 0.172549
0.901961 0.533333 0.231373
1 0.560784 0.301961
0 0.639216 0.105882
0 0.639216 0.109804
0.137255 0.643137 0.117647
0.32549 0.647059 0.133333
0.482353 0.654902 0.156863
0.635294 0.662745 0.184314
0.776471 0.670588 0.223529
0.898039 0.678431 0.286275
1 0.694118 0.356863
0 0.788235 0.2
0 0.788235 0.203922
0.180392 0.788235 0.211765
0.352941 0.792157 0.227451
0.501961 0.796078 0.247059
0.643137 0.8 0.27451
0.776471 0.803922 0.309804
0.898039 0.811765 0.356863
1 0.815686 0.423529
0.129412 0.913725 0.321569
0.196078 0.913725 0.321569
0.301961 0.913725 0.329412
0.419608 0.913725 0.345098
0.541176 0.913725 0.360784
0.662745 0.917647 0.388235
0.780392 0.917647 0.419608
0.890196 0.921569 0.458824
0.992157 0.92549 0.505882
0.360784 1 0.45098
0.384314 1 0.454902
0.439216 1 0.462745
0.517647 1 0.47451
0.607843 1 0.490196
0.705882 1 0.513725
0.803922 1 0.541176
0.898039 1 0.572549
0.980392 1 0.607843
0 0 0.062745
0.019608 0 0.070588
0.082353 0 0.086275
0.180392 0 0.109804
0.333333 0 0.152941
0.521569 0 0.192157
0.72549 0 0.227451
0.894118 0 0.258824
1 0.12549 0.301961
0 0.023529 0.078431
0.023529 0.027451 0.082353
0.094118 0.031373 0.098039
0.2 0.047059 0.12549
0.34902 0.062745 0.164706
0.537255 0.066667 0.2
0.737255 0.054902 0.231373
0.894118 0.105882 0.262745
1 0.192157 0.309804
0 0.105882 0.109804
0.031373 0.113725 0.113725
0.121569 0.129412 0.129412
0.239216 0.152941 0.156863
0.388235 0.180392 0.184314
0.568627 0.203922 0.215686
0.752941 0.219608 0.239216
0.898039 0.25098 0.270588
1 0.298039 0.321569
0 0.254902 0.164706
0.027451 0.262745 0.168627
0.156863 0.278431 0.176471
0.286275 0.301961 0.192157
0.439216 0.329412 0.215686
0.607843 0.352941 0.231373
0.764706 0.368627 0.254902
0.901961 0.392157 0.290196
1 0.427451 0.341176
0 0.45098 0.211765
0 0.454902 0.215686
0.164706 0.466667 0.219608
0.321569 0.482353 0.227451
0.478431 0.498039 0.239216
0.631373 0.513725 0.254902
0.772549 0.521569 0.282353
0.901961 0.537255 0.321569
1 0.564706 0.372549
0 0.643137 0.247059
0 0.643137 0.247059
0.145098 0.647059 0.25098
0.329412 0.65098 0.258824
0.490196 0.658824 0.27451
0.639216 0.666667 0.290196
0.776471 0.67451 0.317647
0.898039 0.682353 0.360784
1 0.694118 0.415686
0 0.788235 0.301961
0 0.788235 0.301961
0.192157 0.792157 0.309804
0.356863 0.792157 0.317647
0.505882 0.796078 0.333333
0.643137 0.8 0.352941
0.776471 0.807843 0.380392
0.898039 0.811765 0.419608
1 0.819608 0.47451
0.152941 0.913725 0.388235
0.211765 0.913725 0.392157
0.309804 0.913725 0.396078
0.423529 0.913725 0.407843
0.545098 0.917647 0.423529
0.666667 0.917647 0.443137
0.784314 0.921569 0.470588
0.890196 0.921569 0.505882
0.988235 0.92549 0.545098
0.372549 1 0.501961
0.396078 1 0.501961
0.447059 1 0.509804
0.521569 1 0.517647
0.611765 1 0.533333
0.709804 1 0.552941
0.803922 1 0.576471
0.898039 1 0.607843
0.980392 1 0.639216
0 0 0.172549
0.027451 0 0.180392
0.117647 0 0.207843
0.235294 0 0.247059
0.384314 0 0.290196
0.564706 0 0.333333
0.752941 0 0.364706
0.898039 0.011765 0.388235
1 0.156863 0.419608
0 0.043137 0.196078
0.035294 0.047059 0.203922
0.133333 0.054902 0.227451
0.25098 0.066667 0.258824
0.4 0.07451 0.298039
0.576471 0.07451 0.337255
0.752941 0.070588 0.368627
0.898039 0.133333 0.392157
1 0.215686 0.423529
0 0.14902 0.243137
0.039216 0.152941 0.247059
0.152941 0.164706 0.266667
0.278431 0.180392 0.290196
0.427451 0.2 0.321569
0.6 0.215686 0.352941
0.760784 0.231373 0.376471
0.901961 0.262745 0.4
1 0.313725 0.431373
0 0.294118 0.301961
0.011765 0.298039 0.305882
0.172549 0.309804 0.317647
0.313725 0.32549 0.333333
0.462745 0.34902 0.352941
0.623529 0.364706 0.372549
0.768627 0.380392 0.388235
0.901961 0.4 0.411765
1 0.435294 0.447059
0 0.47451 0.352941
0 0.478431 0.356863
0.168627 0.486275 0.360784
0.333333 0.498039 0.372549
0.486275 0.509804 0.380392
0.639216 0.517647 0.392157
0.776471 0.529412 0.407843
0.901961 0.545098 0.435294
1 0.568627 0.470588
0 0.65098 0.388235
0 0.65098 0.388235
0.156863 0.654902 0.392157
0.337255 0.658824 0.396078
0.494118 0.662745 0.407843
0.643137 0.670588 0.419608
0.780392 0.678431 0.439216
0.901961 0.686275 0.466667
1 0.701961 0.505882
0 0.792157 0.423529
0 0.792157 0.427451
0.207843 0.796078 0.431373
0.368627 0.796078 0.439216
0.513725 0.8 0.447059
0.647059 0.803922 0.462745
0.780392 0.811765 0.482353
0.898039 0.815686 0.509804
0.996078 0.823529 0.552941
0.188235 0.913725 0.490196
0.235294 0.917647 0.490196
0.32549 0.917647 0.494118
0.435294 0.917647 0.501961
0.552941 0.917647 0.513725
0.670588 0.921569 0.529412
0.784314 0.921569 0.552941
0.890196 0.92549 0.576471
0.988235 0.929412 0.611765
0.388235 1 0.576471
0.411765 1 0.576471
0.458824 1 0.584314
0.533333 1 0.592157
0.619608 1 0.603922
0.713725 1 0.619608
0.807843 1 0.639216
0.898039 1 0.662745
0.976471 1 0.690196
0 0 0.368627
0.019608 0 0.376471
0.156863 0 0.396078
0.290196 0 0.427451
0.439216 0 0.462745
0.607843 0 0.494118
0.764706 0 0.513725
0.901961 0.094118 0.529412
1 0.203922 0.54902
0 0.07451 0.388235
0.019608 0.078431 0.392157
0.164706 0.082353 0.411765
0.298039 0.086275 0.439216
0.447059 0.090196 0.470588
0.611765 0.086275 0.498039
0.764706 0.113725 0.517647
0.901961 0.172549 0.533333
1 0.25098 0.552941
0 0.192157 0.423529
0.007843 0.192157 0.431373
0.176471 0.2 0.443137
0.313725 0.211765 0.462745
0.466667 0.219608 0.490196
0.623529 0.231373 0.509804
0.772549 0.25098 0.521569
0.905882 0.286275 0.537255
1 0.337255 0.560784
0 0.337255 0.470588
0 0.337255 0.47451
0.180392 0.345098 0.486275
0.333333 0.356863 0.498039
0.486275 0.368627 0.513725
0.635294 0.376471 0.52549
0.776471 0.392157 0.533333
0.905882 0.415686 0.54902
1 0.454902 0.572549
0 0.501961 0.513725
0 0.501961 0.513725
0.172549 0.505882 0.517647
0.341176 0.513725 0.52549
0.498039 0.52549 0.537255
0.647059 0.529412 0.541176
0.780392 0.541176 0.54902
0.905882 0.556863 0.564706
1 0.584314 0.592157
0 0.658824 0.537255
0 0.662745 0.537255
0.168627 0.662745 0.541176
0.345098 0.666667 0.545098
0.501961 0.67451 0.552941
0.65098 0.682353 0.560784
0.784314 0.686275 0.572549
0.901961 0.694118 0.588235
1 0.709804 0.619608
0 0.8 0.560784
0.019608 0.8 0.564706
0.231373 0.8 0.564706
0.380392 0.803922 0.572549
0.521569 0.807843 0.580392
0.654902 0.811765 0.588235
0.780392 0.815686 0.603922
0.898039 0.819608 0.623529
0.992157 0.827451 0.654902
0.227451 0.917647 0.607843
0.266667 0.917647 0.607843
0.345098 0.917647 0.611765
0.45098 0.921569 0.615686
0.560784 0.921569 0.623529
0.67451 0.921569 0.635294
0.788235 0.92549 0.65098
0.890196 0.929412 0.670588
0.984314 0.929412 0.698039
0.415686 1 0.670588
0.435294 1 0.670588
0.478431 1 0.67451
0.545098 1 0.682353
0.627451 1 0.690196
0.717647 1 0.701961
0.807843 1 0.717647
0.894118 1 0.737255
0.972549 1 0.756863
0 0 0.596078
0 0 0.6
0.164706 0 0.611765
0.321569 0 0.627451
0.470588 0.003922 0.643137
0.623529 0.035294 0.654902
0.772549 0.082353 0.666667
0.905882 0.164706 0.67451
1 0.258824 0.690196
0 0.101961 0.603922
0 0.101961 0.611765
0.168627 0.101961 0.619608
0.32549 0.105882 0.635294
0.47451 0.121569 0.643137
0.627451 0.137255 0.658824
0.776471 0.160784 0.670588
0.905882 0.219608 0.678431
1 0.294118 0.690196
0 0.223529 0.627451
0 0.227451 0.631373
0.172549 0.231373 0.635294
0.333333 0.239216 0.643137
0.482353 0.247059 0.65098
0.631373 0.258824 0.662745
0.780392 0.278431 0.67451
0.905882 0.317647 0.682353
1 0.372549 0.694118
0 0.364706 0.647059
0 0.364706 0.647059
0.180392 0.368627 0.65098
0.341176 0.376471 0.658824
0.490196 0.384314 0.666667
0.643137 0.396078 0.67451
0.784314 0.411765 0.682353
0.905882 0.439216 0.690196
1 0.478431 0.705882
0 0.513725 0.666667
0 0.517647 0.666667
0.184314 0.517647 0.670588
0.34902 0.52549 0.67451
0.501961 0.533333 0.682353
0.65098 0.541176 0.690196
0.784314 0.552941 0.694118
0.905882 0.572549 0.701961
1 0.6 0.717647
0 0.670588 0.686275
0 0.670588 0.686275
0.188235 0.67451 0.690196
0.360784 0.678431 0.694118
0.513725 0.686275 0.701961
0.658824 0.694118 0.709804
0.784314 0.694118 0.709804
0.898039 0.705882 0.717647
1 0.721569 0.737255
0 0.807843 0.701961
0.113725 0.807843 0.701961
0.258824 0.807843 0.705882
0.396078 0.811765 0.705882
0.533333 0.815686 0.713725
0.662745 0.819608 0.721569
0.784314 0.823529 0.729412
0.894118 0.827451 0.741176
0.988235 0.835294 0.760784
0.27451 0.921569 0.729412
0.309804 0.921569 0.729412
0.376471 0.921569 0.729412
0.470588 0.921569 0.733333
0.576471 0.92549 0.741176
0.682353 0.92549 0.74902
0.792157 0.929412 0.760784
0.890196 0.933333 0.772549
0.976471 0.933333 0.792157
0.447059 1 0.772549
0.466667 1 0.772549
0.505882 1 0.776471
0.568627 1 0.780392
0.643137 1 0.784314
0.729412 1 0.792157
0.811765 1 0.803922
0.894118 1 0.815686
0.968627 1 0.827451
0 0.094118 0.772549
0 0.098039 0.772549
0.176471 0.109804 0.776471
0.337255 0.121569 0.780392
0.482353 0.141176 0.788235
0.631373 0.164706 0.796078
0.772549 0.196078 0.803922
0.909804 0.235294 0.815686
1 0.317647 0.819608
0 0.160784 0.776471
0 0.164706 0.776471
0.184314 0.168627 0.780392
0.341176 0.180392 0.784314
0.486275 0.196078 0.788235
0.631373 0.215686 0.796078
0.772549 0.239216 0.807843
0.909804 0.27451 0.815686
1 0.34902 0.819608
0 0.266667 0.784314
0 0.266667 0.784314
0.196078 0.27451 0.784314
0.34902 0.282353 0.788235
0.494118 0.290196 0.796078
0.639216 0.305882 0.803922
0.776471 0.32549 0.811765
0.909804 0.356863 0.819608
1 0.415686 0.823529
0 0.392157 0.792157
0.007843 0.396078 0.792157
0.215686 0.4 0.796078
0.360784 0.403922 0.796078
0.505882 0.411765 0.803922
0.647059 0.423529 0.807843
0.780392 0.443137 0.815686
0.909804 0.466667 0.823529
1 0.509804 0.831373
0 0.533333 0.803922
0.062745 0.533333 0.803922
0.231373 0.537255 0.803922
0.376471 0.541176 0.807843
0.513725 0.54902 0.811765
0.65098 0.560784 0.819608
0.784314 0.572549 0.827451
0.905882 0.592157 0.831373
1 0.623529 0.839216
0 0.678431 0.815686
0.117647 0.678431 0.815686
0.258824 0.682353 0.819608
0.396078 0.682353 0.819608
0.529412 0.690196 0.823529
0.658824 0.698039 0.831373
0.788235 0.709804 0.839216
0.898039 0.721569 0.843137
0.996078 0.741176 0.85098
0.156863 0.815686 0.831373
0.211765 0.815686 0.831373
0.313725 0.815686 0.835294
0.427451 0.819608 0.835294
0.54902 0.823529 0.839216
0.670588 0.827451 0.847059
0.792157 0.835294 0.85098
0.894118 0.835294 0.854902
0.984314 0.847059 0.862745
0.333333 0.92549 0.843137
0.356863 0.92549 0.847059
0.415686 0.929412 0.847059
0.498039 0.929412 0.85098
0.596078 0.929412 0.85098
0.698039 0.929412 0.858824
0.796078 0.933333 0.862745
0.890196 0.937255 0.870588
0.972549 0.937255 0.882353
0.490196 1 0.870588
0.501961 1 0.870588
0.537255 1 0.870588
0.592157 1 0.87451
0.662745 1 0.878431
0.741176 1 0.882353
0.819608 1 0.890196
0.894118 1 0.894118
0.964706 1 0.901961
0 0.219608 0.905882
0.109804 0.219608 0.909804
0.243137 0.227451 0.909804
0.376471 0.239216 0.913725
0.509804 0.254902 0.917647
0.647059 0.278431 0.921569
0.776471 0.305882 0.92549
0.898039 0.345098 0.933333
1 0.388235 0.937255
0 0.254902 0.909804
0.12549 0.254902 0.909804
0.25098 0.262745 0.909804
0.380392 0.27451 0.913725
0.513725 0.286275 0.917647
0.647059 0.309804 0.921569
0.776471 0.337255 0.92549
0.898039 0.372549 0.933333
1 0.411765 0.937255
0.066667 0.329412 0.913725
0.152941 0.333333 0.913725
0.266667 0.337255 0.913725
0.392157 0.345098 0.917647
0.521569 0.360784 0.921569
0.65098 0.376471 0.92549
0.780392 0.4 0.929412
0.898039 0.431373 0.933333
1 0.466667 0.941176
0.12549 0.439216 0.917647
0.188235 0.439216 0.917647
0.286275 0.443137 0.921569
0.407843 0.45098 0.921569
0.533333 0.458824 0.92549
0.658824 0.47451 0.929412
0.784314 0.494118 0.933333
0.898039 0.517647 0.937255
1 0.54902 0.945098
0.180392 0.560784 0.92549
0.227451 0.564706 0.92549
0.313725 0.568627 0.92549
0.427451 0.572549 0.929412
0.545098 0.580392 0.929412
0.666667 0.592157 0.933333
0.784314 0.607843 0.937255
0.898039 0.627451 0.941176
1 0.654902 0.945098
0.239216 0.694118 0.933333
0.27451 0.694118 0.933333
0.352941 0.698039 0.933333
0.45098 0.701961 0.933333
0.564706 0.709804 0.937255
0.678431 0.717647 0.941176
0.788235 0.72549 0.945098
0.894118 0.741176 0.94902
0.988235 0.760784 0.952941
0.321569 0.819608 0.941176
0.34902 0.819608 0.941176
0.407843 0.823529 0.941176
0.490196 0.823529 0.941176
0.588235 0.827451 0.945098
0.690196 0.831373 0.94902
0.796078 0.839216 0.94902
0.894118 0.847059 0.956863
0.976471 0.858824 0.956863
0.411765 0.929412 0.94902
0.431373 0.929412 0.94902
0.47451 0.929412 0.94902
0.541176 0.933333 0.952941
0.623529 0.933333 0.952941
0.713725 0.933333 0.956863
0.803922 0.937255 0.960784
0.894118 0.941176 0.960784
0.968627 0.941176 0.964706
0.533333 1 0.956863
0.54902 1 0.956863
0.576471 1 0.960784
0.623529 1 0.960784
0.686275 1 0.960784
0.752941 1 0.964706
0.823529 1 0.964706
0.894118 1 0.968627
0.960784 1 0.972549
0.235294 0.333333 1
0.270588 0.333333 1
0.345098 0.341176 1
0.443137 0.352941 1
0.556863 0.368627 1
0.67451 0.392157 1
0.792157 0.419608 1
0.898039 0.454902 1
1 0.494118 1
0.247059 0.356863 1
0.278431 0.360784 1
0.352941 0.364706 1
0.45098 0.376471 1
0.560784 0.392157 1
0.678431 0.411765 1
0.792157 0.439216 1
0.901961 0.47451 1
1 0.513725 1
0.266667 0.411765 1
0.298039 0.415686 1
0.364706 0.419608 1
0.458824 0.427451 1
0.568627 0.443137 1
0.682353 0.462745 1
0.796078 0.486275 1
0.901961 0.517647 1
0.996078 0.552941 1
0.298039 0.498039 1
0.32549 0.501961 1
0.388235 0.505882 1
0.478431 0.513725 1
0.580392 0.52549 1
0.690196 0.541176 1
0.796078 0.560784 1
0.901961 0.588235 1
0.992157 0.619608 1
0.337255 0.607843 1
0.364706 0.607843 1
0.419608 0.611765 1
0.501961 0.619608 1
0.596078 0.627451 1
0.698039 0.643137 1
0.8 0.658824 1
0.898039 0.678431 1
0.988235 0.701961 1
0.388235 0.72549 1
0.407843 0.72549 1
0.458824 0.729412 1
0.529412 0.733333 1
0.615686 0.741176 1
0.709804 0.74902 1
0.803922 0.760784 1
0.898039 0.772549 1
0.980392 0.788235 1
0.45098 0.839216 1
0.466667 0.839216 1
0.505882 0.839216 1
0.568627 0.843137 1
0.643137 0.847059 1
0.729412 0.85098 1
0.811765 0.858824 1
0.894118 0.866667 1
0.972549 0.87451 1
0.521569 0.933333 1
0.537255 0.933333 1
0.564706 0.937255 1
0.615686 0.937255 1
0.678431 0.937255 1
0.74902 0.941176 1
0.823529 0.941176 1
0.894118 0.945098 1
0.964706 0.94902 1
0.588235 1 1
0.6 1 1
0.623529 1 1
0.658824 1 1
0.709804 1 1
0.768627 1 1
0.835294 1 1
0.898039 1 1
0.960784 1 1
