site/assets/luts/freshluts--0000882-picturefx-cross-process-methode-2-rgb-curves.cube
# LUTr-Schema-Version: 2
# LUTr-ID: freshluts--0000882-picturefx-cross-process-methode-2-rgb-curves
# LUTr-Title: PictureFX Cross Process Methode 2 – RGB Curves
# LUTr-Collection: Fresh LUTs
# LUTr-Collection-ID: freshluts-community
# LUTr-Source: https://freshluts.com
# LUTr-Retrieved: 2026-07-27
# LUTr-Source-File: submissions-raw/freshluts/cubes/882__PictureFX-Cross-Process-Methode-2.cube
# LUTr-Source-Format: CUBE
# LUTr-Source-SHA256: 5fbb252695a1cb323d10c70c5a544ecd029eb4396b5bb5255463753e31b32653
# LUTr-License: CC0-1.0
# LUTr-License-URL: https://freshluts.com/termsandconditions
# LUTr-License-Basis: site-terms
# LUTr-Transform-Class: creative-look
# LUTr-Tags: creative, freshluts, community, cube, cross-process, rec709, assumed-input
# LUTr-Input-Color-Space: rec709
# LUTr-Input-Gamut: rec709
# LUTr-Input-Transfer: rec709
# LUTr-Output-Color-Space: srgb
# LUTr-Output-Gamut: rec709
# LUTr-Output-Transfer: srgb
# LUTr-Color-Space-Confidence: assumed-display-referred
# LUTr-Domain-Normalized: true
# LUTr-Shaper: none
# LUTr-Original-Grid: 25x25x25
# LUTr-Conversion-Grid: 25x25x25
# LUTr-Conversion-Interpolation: none
# LUTr-Conversion-Method: Metadata normalization; numeric LUT samples preserved
# LUTr-Conversion-Tool: LUTr scripts/convert-all-to-cube.mjs 2.0.0
# LUTr-Conversion-Date: 2026-07-28
# LUTr-Asset-URL: https://freshluts.com/luts/882
# LUTr-Author: MarcR.
# LUTr-Author-URL: https://freshluts.com/users/86490
# LUTr-Attribution: MarcR. via Fresh LUTs
# LUTr-Source-Labels: gamma=Other; color=None; key=Neutral; style=Cross Process; LUTr assumption=input Rec.709 per repository policy
# LUTr-Conversion-Warning: Input Rec.709 is a LUTr catalog assumption requested for this otherwise unspecified Fresh LUT; it is not verified by the upstream asset.
# LUTr-Note: Preserve this metadata and the upstream license notices when redistributing.
# LUTr-Upstream-Comment: Generated with IWLTBAP LUT Generator
# LUTr-Upstream-Comment: Website: http://luts.iwltbap.com
# LUTr-Upstream-Comment: LUT size
# LUTr-Upstream-Comment: LUT data points
TITLE "PictureFX Cross Process Methode 2 – RGB Curves"
LUT_3D_SIZE 9
DOMAIN_MIN 0 0 0
DOMAIN_MAX 1 1 1
0 0 0
0 0 0
0 0 0
0.105882 0 0.003922
0.501961 0.027451 0.090196
0.768627 0.14902 0.156863
0.952941 0.243137 0.211765
1 0.313725 0.27451
1 0.317647 0.27451
0 0 0
0 0 0
0 0 0
0.137255 0 0.015686
0.517647 0.003922 0.098039
0.780392 0.145098 0.160784
0.956863 0.243137 0.215686
1 0.313725 0.27451
1 0.317647 0.270588
0 0.047059 0.015686
0 0.05098 0.015686
0.043137 0.066667 0.023529
0.278431 0.137255 0.047059
0.564706 0.192157 0.109804
0.796078 0.223529 0.168627
0.964706 0.25098 0.219608
1 0.313725 0.270588
1 0.313725 0.262745
0 0.392157 0.047059
0 0.396078 0.047059
0.011765 0.403922 0.047059
0.380392 0.419608 0.058824
0.615686 0.435294 0.109804
0.815686 0.45098 0.176471
0.964706 0.454902 0.235294
1 0.454902 0.278431
1 0.45098 0.262745
0.2 0.647059 0.14902
0.2 0.65098 0.14902
0.2 0.65098 0.14902
0.419608 0.654902 0.152941
0.635294 0.658824 0.164706
0.815686 0.65098 0.203922
0.960784 0.631373 0.266667
1 0.615686 0.32549
1 0.619608 0.329412
0.34902 0.811765 0.290196
0.352941 0.811765 0.290196
0.352941 0.811765 0.290196
0.447059 0.811765 0.294118
0.627451 0.811765 0.309804
0.796078 0.807843 0.32549
0.945098 0.792157 0.356863
1 0.768627 0.396078
1 0.772549 0.4
0.431373 0.92549 0.407843
0.431373 0.92549 0.407843
0.431373 0.92549 0.407843
0.486275 0.92549 0.411765
0.627451 0.92549 0.419608
0.772549 0.921569 0.427451
0.913725 0.913725 0.439216
1 0.898039 0.458824
1 0.901961 0.462745
0.482353 1 0.490196
0.482353 1 0.490196
0.482353 1 0.486275
0.556863 1 0.490196
0.666667 0.996078 0.494118
0.784314 0.988235 0.498039
0.901961 0.984314 0.501961
1 0.976471 0.509804
1 0.976471 0.509804
0.54902 1 0.501961
0.564706 1 0.505882
0.607843 1 0.505882
0.67451 1 0.509804
0.756863 1 0.513725
0.85098 1 0.521569
0.945098 1 0.529412
0.992157 1 0.533333
0.992157 1 0.533333
0 0 0
0 0 0
0 0 0
0.129412 0 0.066667
0.517647 0 0.172549
0.780392 0.090196 0.223529
0.952941 0.247059 0.282353
1 0.329412 0.329412
1 0.333333 0.329412
0 0 0
0 0 0
0.007843 0 0.015686
0.156863 0 0.082353
0.533333 0 0.180392
0.784314 0.098039 0.227451
0.956863 0.25098 0.286275
1 0.329412 0.329412
1 0.333333 0.32549
0 0.058824 0.062745
0 0.062745 0.066667
0.031373 0.07451 0.078431
0.301961 0.105882 0.117647
0.580392 0.152941 0.176471
0.8 0.207843 0.235294
0.960784 0.258824 0.282353
1 0.329412 0.32549
1 0.329412 0.313725
0 0.396078 0.152941
0 0.4 0.152941
0 0.407843 0.156863
0.380392 0.419608 0.172549
0.619608 0.439216 0.207843
0.815686 0.454902 0.254902
0.964706 0.462745 0.294118
1 0.462745 0.329412
1 0.458824 0.317647
0.2 0.647059 0.231373
0.2 0.65098 0.231373
0.203922 0.65098 0.231373
0.423529 0.654902 0.235294
0.639216 0.658824 0.243137
0.815686 0.65098 0.270588
0.960784 0.635294 0.309804
1 0.619608 0.345098
1 0.623529 0.329412
0.352941 0.811765 0.294118
0.352941 0.811765 0.294118
0.352941 0.811765 0.294118
0.454902 0.811765 0.294118
0.631373 0.811765 0.309804
0.8 0.807843 0.32549
0.945098 0.792157 0.356863
1 0.768627 0.396078
1 0.772549 0.4
0.431373 0.92549 0.407843
0.431373 0.92549 0.407843
0.431373 0.92549 0.407843
0.490196 0.92549 0.411765
0.631373 0.92549 0.419608
0.772549 0.921569 0.427451
0.917647 0.913725 0.439216
1 0.898039 0.458824
1 0.901961 0.462745
0.482353 1 0.490196
0.482353 1 0.490196
0.482353 1 0.486275
0.560784 1 0.490196
0.666667 0.996078 0.494118
0.784314 0.988235 0.498039
0.905882 0.984314 0.501961
1 0.976471 0.509804
1 0.976471 0.509804
0.54902 1 0.501961
0.568627 1 0.505882
0.607843 1 0.505882
0.67451 1 0.509804
0.756863 1 0.513725
0.85098 1 0.521569
0.945098 1 0.529412
0.992157 1 0.533333
0.992157 1 0.533333
0 0 0.039216
0 0 0.039216
0.011765 0 0.066667
0.196078 0 0.180392
0.537255 0 0.301961
0.784314 0.109804 0.345098
0.94902 0.282353 0.388235
1 0.364706 0.423529
1 0.368627 0.419608
0 0.003922 0.082353
0 0.003922 0.082353
0.027451 0.003922 0.109804
0.219608 0 0.196078
0.552941 0 0.305882
0.792157 0.117647 0.345098
0.952941 0.286275 0.388235
1 0.364706 0.419608
1 0.364706 0.415686
0 0.109804 0.2
0 0.109804 0.203922
0.003922 0.101961 0.223529
0.32549 0.101961 0.262745
0.592157 0.156863 0.309804
0.803922 0.223529 0.352941
0.960784 0.290196 0.384314
1 0.364706 0.415686
1 0.360784 0.407843
0 0.403922 0.298039
0 0.407843 0.298039
0 0.411765 0.298039
0.392157 0.423529 0.309804
0.623529 0.443137 0.337255
0.815686 0.462745 0.364706
0.960784 0.47451 0.392157
1 0.486275 0.415686
1 0.478431 0.407843
0.219608 0.65098 0.345098
0.219608 0.65098 0.345098
0.223529 0.65098 0.345098
0.443137 0.654902 0.34902
0.647059 0.658824 0.352941
0.819608 0.65098 0.372549
0.956863 0.639216 0.4
1 0.627451 0.423529
1 0.631373 0.411765
0.368627 0.807843 0.380392
0.368627 0.811765 0.380392
0.368627 0.811765 0.380392
0.47451 0.811765 0.380392
0.639216 0.811765 0.384314
0.803922 0.807843 0.388235
0.94902 0.792157 0.403922
1 0.768627 0.427451
1 0.776471 0.419608
0.435294 0.92549 0.415686
0.435294 0.92549 0.411765
0.435294 0.92549 0.411765
0.498039 0.92549 0.411765
0.635294 0.921569 0.419608
0.780392 0.921569 0.427451
0.921569 0.913725 0.439216
1 0.898039 0.458824
1 0.901961 0.462745
0.482353 1 0.490196
0.482353 1 0.486275
0.482353 1 0.486275
0.568627 1 0.490196
0.67451 0.996078 0.494118
0.788235 0.988235 0.498039
0.909804 0.984314 0.501961
1 0.976471 0.509804
1 0.976471 0.509804
0.556863 1 0.505882
0.576471 1 0.505882
0.615686 1 0.505882
0.682353 1 0.509804
0.764706 1 0.513725
0.854902 1 0.521569
0.945098 1 0.529412
0.992157 1 0.533333
0.992157 1 0.533333
0.039216 0.027451 0.258824
0.039216 0.027451 0.258824
0.090196 0.027451 0.278431
0.309804 0 0.356863
0.568627 0 0.419608
0.796078 0.141176 0.454902
0.952941 0.305882 0.482353
1 0.407843 0.513725
1 0.407843 0.509804
0.031373 0.043137 0.290196
0.035294 0.043137 0.290196
0.113725 0.035294 0.305882
0.32549 0 0.364706
0.580392 0 0.419608
0.803922 0.14902 0.454902
0.952941 0.309804 0.482353
1 0.407843 0.513725
1 0.407843 0.505882
0 0.137255 0.364706
0 0.141176 0.364706
0.078431 0.133333 0.376471
0.376471 0.129412 0.403922
0.611765 0.168627 0.431373
0.815686 0.235294 0.454902
0.960784 0.313725 0.478431
1 0.407843 0.509804
1 0.403922 0.501961
0 0.411765 0.419608
0 0.415686 0.419608
0.109804 0.419608 0.423529
0.423529 0.427451 0.431373
0.639216 0.45098 0.45098
0.819608 0.47451 0.470588
0.956863 0.494118 0.490196
1 0.509804 0.509804
1 0.505882 0.498039
0.235294 0.65098 0.45098
0.235294 0.65098 0.45098
0.243137 0.654902 0.45098
0.470588 0.654902 0.454902
0.658824 0.658824 0.462745
0.823529 0.654902 0.47451
0.956863 0.647059 0.494118
1 0.643137 0.509804
1 0.647059 0.501961
0.396078 0.807843 0.478431
0.396078 0.807843 0.478431
0.396078 0.807843 0.47451
0.509804 0.807843 0.478431
0.658824 0.807843 0.478431
0.811765 0.807843 0.482353
0.94902 0.792157 0.494118
1 0.776471 0.509804
1 0.784314 0.505882
0.466667 0.92549 0.498039
0.466667 0.92549 0.498039
0.466667 0.92549 0.498039
0.537255 0.92549 0.498039
0.662745 0.921569 0.498039
0.792157 0.917647 0.501961
0.92549 0.913725 0.505882
1 0.898039 0.513725
1 0.905882 0.509804
0.501961 1 0.521569
0.501961 1 0.521569
0.513725 1 0.521569
0.592157 0.996078 0.521569
0.690196 0.992157 0.52549
0.803922 0.988235 0.52549
0.913725 0.980392 0.529412
1 0.976471 0.533333
1 0.976471 0.529412
0.584314 1 0.533333
0.6 1 0.533333
0.639216 1 0.533333
0.698039 1 0.537255
0.776471 1 0.541176
0.866667 1 0.54902
0.952941 1 0.552941
0.992157 1 0.556863
0.992157 1 0.560784
0.129412 0.07451 0.443137
0.133333 0.07451 0.443137
0.192157 0.066667 0.454902
0.384314 0 0.498039
0.611765 0 0.533333
0.815686 0.176471 0.556863
0.960784 0.32549 0.564706
1 0.423529 0.584314
1 0.423529 0.580392
0.117647 0.086275 0.454902
0.121569 0.086275 0.454902
0.207843 0.070588 0.466667
0.4 0 0.501961
0.619608 0 0.533333
0.819608 0.184314 0.556863
0.964706 0.32549 0.564706
1 0.423529 0.584314
1 0.423529 0.580392
0 0.164706 0.494118
0 0.168627 0.494118
0.196078 0.164706 0.501961
0.431373 0.172549 0.521569
0.643137 0.184314 0.541176
0.831373 0.25098 0.556863
0.968627 0.333333 0.560784
1 0.423529 0.580392
1 0.423529 0.576471
0.035294 0.427451 0.533333
0.035294 0.427451 0.533333
0.25098 0.435294 0.537255
0.470588 0.443137 0.541176
0.666667 0.458824 0.552941
0.827451 0.486275 0.564706
0.956863 0.52549 0.584314
1 0.545098 0.596078
1 0.545098 0.592157
0.25098 0.654902 0.552941
0.25098 0.654902 0.552941
0.317647 0.654902 0.552941
0.513725 0.658824 0.556863
0.682353 0.658824 0.560784
0.827451 0.662745 0.576471
0.952941 0.662745 0.588235
1 0.666667 0.6
1 0.670588 0.592157
0.439216 0.807843 0.572549
0.439216 0.807843 0.572549
0.443137 0.807843 0.572549
0.556863 0.807843 0.572549
0.686275 0.807843 0.576471
0.827451 0.807843 0.576471
0.94902 0.796078 0.588235
1 0.788235 0.6
1 0.792157 0.596078
0.509804 0.921569 0.588235
0.509804 0.921569 0.588235
0.509804 0.921569 0.588235
0.592157 0.921569 0.588235
0.698039 0.917647 0.588235
0.811765 0.917647 0.588235
0.933333 0.913725 0.592157
1 0.901961 0.6
1 0.905882 0.596078
0.545098 0.996078 0.603922
0.545098 0.996078 0.603922
0.576471 0.996078 0.603922
0.643137 0.992157 0.603922
0.72549 0.992157 0.603922
0.823529 0.984314 0.603922
0.92549 0.980392 0.607843
1 0.976471 0.607843
1 0.976471 0.607843
0.635294 1 0.607843
0.647059 1 0.611765
0.678431 1 0.611765
0.733333 1 0.611765
0.8 1 0.615686
0.882353 1 0.619608
0.956863 1 0.623529
0.992157 1 0.623529
0.992157 1 0.627451
0.2 0.109804 0.580392
0.2 0.109804 0.580392
0.286275 0.098039 0.592157
0.458824 0.043137 0.619608
0.658824 0.070588 0.643137
0.839216 0.219608 0.65098
0.972549 0.345098 0.647059
1 0.431373 0.647059
1 0.431373 0.647059
0.192157 0.117647 0.584314
0.192157 0.113725 0.584314
0.305882 0.094118 0.596078
0.47451 0.039216 0.619608
0.666667 0.078431 0.643137
0.843137 0.227451 0.65098
0.976471 0.34902 0.643137
1 0.431373 0.647059
1 0.431373 0.647059
0.105882 0.2 0.611765
0.12549 0.2 0.611765
0.313725 0.203922 0.619608
0.498039 0.211765 0.631373
0.686275 0.219608 0.647059
0.85098 0.270588 0.647059
0.980392 0.352941 0.643137
1 0.431373 0.647059
1 0.431373 0.643137
0.176471 0.443137 0.639216
0.2 0.447059 0.639216
0.364706 0.454902 0.639216
0.529412 0.458824 0.647059
0.701961 0.470588 0.65098
0.847059 0.498039 0.65098
0.964706 0.533333 0.654902
1 0.564706 0.666667
1 0.568627 0.662745
0.278431 0.654902 0.647059
0.278431 0.654902 0.647059
0.403922 0.658824 0.647059
0.564706 0.658824 0.65098
0.709804 0.662745 0.654902
0.839216 0.670588 0.662745
0.956863 0.682353 0.670588
1 0.686275 0.678431
1 0.694118 0.67451
0.454902 0.807843 0.647059
0.454902 0.807843 0.647059
0.505882 0.807843 0.65098
0.611765 0.807843 0.658824
0.721569 0.807843 0.658824
0.843137 0.807843 0.662745
0.952941 0.8 0.670588
1 0.796078 0.67451
1 0.803922 0.67451
0.54902 0.917647 0.666667
0.54902 0.917647 0.666667
0.572549 0.917647 0.666667
0.643137 0.917647 0.666667
0.733333 0.917647 0.666667
0.835294 0.913725 0.666667
0.945098 0.913725 0.670588
1 0.901961 0.67451
1 0.909804 0.67451
0.588235 0.992157 0.67451
0.6 0.992157 0.67451
0.635294 0.992157 0.67451
0.690196 0.992157 0.67451
0.760784 0.988235 0.678431
0.847059 0.984314 0.678431
0.941176 0.980392 0.678431
1 0.976471 0.678431
1 0.976471 0.678431
0.682353 1 0.682353
0.694118 1 0.682353
0.721569 1 0.682353
0.768627 1 0.682353
0.827451 1 0.686275
0.898039 1 0.686275
0.964706 1 0.690196
0.996078 1 0.690196
0.996078 1 0.694118
0.254902 0.141176 0.694118
0.278431 0.137255 0.698039
0.384314 0.121569 0.705882
0.529412 0.113725 0.721569
0.698039 0.176471 0.733333
0.866667 0.266667 0.741176
0.988235 0.372549 0.72549
1 0.435294 0.717647
1 0.435294 0.717647
0.254902 0.141176 0.698039
0.298039 0.137255 0.698039
0.396078 0.121569 0.709804
0.541176 0.113725 0.721569
0.705882 0.180392 0.733333
0.870588 0.270588 0.741176
0.988235 0.372549 0.72549
1 0.435294 0.717647
1 0.435294 0.717647
0.243137 0.235294 0.709804
0.301961 0.239216 0.713725
0.415686 0.243137 0.717647
0.560784 0.25098 0.72549
0.721569 0.262745 0.733333
0.87451 0.294118 0.737255
0.992157 0.376471 0.721569
1 0.435294 0.717647
1 0.435294 0.713725
0.317647 0.466667 0.72549
0.364706 0.466667 0.72549
0.462745 0.47451 0.729412
0.588235 0.478431 0.733333
0.733333 0.490196 0.737255
0.870588 0.509804 0.733333
0.980392 0.545098 0.729412
1 0.568627 0.729412
1 0.576471 0.729412
0.372549 0.654902 0.733333
0.419608 0.654902 0.733333
0.509804 0.658824 0.733333
0.623529 0.666667 0.733333
0.741176 0.670588 0.733333
0.858824 0.682353 0.737255
0.964706 0.698039 0.741176
1 0.709804 0.74902
1 0.717647 0.745098
0.466667 0.807843 0.72549
0.498039 0.807843 0.72549
0.564706 0.807843 0.729412
0.654902 0.807843 0.733333
0.752941 0.807843 0.733333
0.862745 0.807843 0.737255
0.960784 0.807843 0.745098
1 0.807843 0.74902
1 0.815686 0.745098
0.568627 0.917647 0.729412
0.588235 0.917647 0.733333
0.635294 0.917647 0.737255
0.694118 0.917647 0.741176
0.768627 0.913725 0.741176
0.858824 0.913725 0.741176
0.956863 0.913725 0.741176
1 0.905882 0.745098
1 0.913725 0.745098
0.65098 0.988235 0.745098
0.662745 0.988235 0.745098
0.690196 0.988235 0.745098
0.737255 0.988235 0.745098
0.8 0.984314 0.74902
0.87451 0.980392 0.74902
0.952941 0.976471 0.74902
1 0.972549 0.74902
1 0.976471 0.74902
0.733333 1 0.752941
0.741176 1 0.752941
0.764706 1 0.752941
0.803922 1 0.752941
0.858824 1 0.756863
0.917647 1 0.756863
0.972549 1 0.756863
0.996078 1 0.760784
0.996078 1 0.760784
0.34902 0.168627 0.796078
0.384314 0.168627 0.8
0.466667 0.168627 0.803922
0.588235 0.203922 0.811765
0.729412 0.262745 0.819608
0.878431 0.32549 0.823529
1 0.4 0.811765
1 0.447059 0.8
1 0.447059 0.8
0.360784 0.168627 0.796078
0.4 0.168627 0.8
0.478431 0.172549 0.803922
0.596078 0.207843 0.811765
0.737255 0.262745 0.819608
0.882353 0.32549 0.823529
1 0.4 0.811765
1 0.447059 0.8
1 0.447059 0.796078
0.384314 0.27451 0.803922
0.419608 0.278431 0.803922
0.501961 0.282353 0.807843
0.615686 0.294118 0.811765
0.745098 0.309804 0.819608
0.890196 0.333333 0.823529
1 0.403922 0.807843
1 0.447059 0.8
1 0.447059 0.796078
0.443137 0.490196 0.811765
0.47451 0.490196 0.811765
0.541176 0.494118 0.811765
0.639216 0.501961 0.815686
0.756863 0.513725 0.815686
0.890196 0.52549 0.819608
0.996078 0.556863 0.807843
1 0.572549 0.803922
1 0.588235 0.8
0.505882 0.662745 0.811765
0.537255 0.666667 0.811765
0.596078 0.670588 0.811765
0.678431 0.678431 0.811765
0.772549 0.682353 0.815686
0.882353 0.686275 0.815686
0.980392 0.701961 0.811765
1 0.713725 0.811765
1 0.72549 0.811765
0.54902 0.803922 0.811765
0.572549 0.803922 0.811765
0.623529 0.807843 0.811765
0.698039 0.807843 0.811765
0.788235 0.807843 0.811765
0.878431 0.811765 0.815686
0.968627 0.819608 0.819608
1 0.823529 0.819608
1 0.831373 0.819608
0.619608 0.917647 0.803922
0.635294 0.917647 0.807843
0.67451 0.917647 0.807843
0.737255 0.913725 0.811765
0.803922 0.913725 0.815686
0.882353 0.913725 0.815686
0.964706 0.909804 0.819608
1 0.909804 0.819608
1 0.917647 0.819608
0.701961 0.988235 0.815686
0.713725 0.984314 0.819608
0.741176 0.984314 0.819608
0.780392 0.984314 0.823529
0.835294 0.980392 0.823529
0.898039 0.976471 0.823529
0.964706 0.976471 0.823529
1 0.972549 0.823529
1 0.976471 0.827451
0.780392 1 0.831373
0.788235 1 0.831373
0.807843 1 0.831373
0.839216 1 0.831373
0.886275 1 0.831373
0.933333 1 0.835294
0.976471 1 0.835294
0.996078 1 0.835294
0.996078 1 0.839216
0.411765 0.243137 0.917647
0.443137 0.25098 0.917647
0.509804 0.270588 0.921569
0.611765 0.301961 0.92549
0.72549 0.34902 0.929412
0.854902 0.4 0.933333
0.984314 0.443137 0.933333
1 0.466667 0.933333
1 0.466667 0.937255
0.423529 0.247059 0.917647
0.454902 0.254902 0.917647
0.517647 0.27451 0.921569
0.615686 0.305882 0.92549
0.733333 0.352941 0.929412
0.858824 0.4 0.933333
0.988235 0.447059 0.933333
1 0.466667 0.933333
1 0.466667 0.937255
0.45098 0.333333 0.921569
0.478431 0.333333 0.921569
0.541176 0.341176 0.92549
0.631373 0.352941 0.92549
0.741176 0.372549 0.929412
0.862745 0.403922 0.933333
0.988235 0.447059 0.933333
1 0.466667 0.937255
1 0.470588 0.937255
0.513725 0.521569 0.92549
0.533333 0.521569 0.92549
0.584314 0.52549 0.92549
0.662745 0.533333 0.929412
0.760784 0.545098 0.929412
0.870588 0.560784 0.933333
0.984314 0.576471 0.933333
1 0.588235 0.933333
1 0.603922 0.937255
0.592157 0.686275 0.929412
0.611765 0.690196 0.929412
0.647059 0.690196 0.929412
0.705882 0.694118 0.929412
0.784314 0.698039 0.933333
0.878431 0.705882 0.933333
0.976471 0.713725 0.933333
1 0.721569 0.933333
1 0.733333 0.933333
0.627451 0.803922 0.933333
0.643137 0.803922 0.933333
0.682353 0.807843 0.933333
0.741176 0.815686 0.933333
0.807843 0.819608 0.933333
0.882353 0.823529 0.937255
0.964706 0.823529 0.937255
1 0.831373 0.937255
1 0.843137 0.937255
0.662745 0.909804 0.941176
0.67451 0.909804 0.941176
0.709804 0.909804 0.941176
0.760784 0.909804 0.941176
0.823529 0.913725 0.941176
0.894118 0.913725 0.941176
0.952941 0.917647 0.945098
1 0.921569 0.94902
1 0.929412 0.94902
0.713725 0.984314 0.952941
0.72549 0.984314 0.952941
0.752941 0.984314 0.952941
0.796078 0.980392 0.956863
0.85098 0.976471 0.956863
0.905882 0.976471 0.960784
0.952941 0.972549 0.964706
0.988235 0.976471 0.968627
1 0.976471 0.972549
0.788235 1 0.984314
0.8 1 0.984314
0.819608 1 0.984314
0.85098 1 0.988235
0.890196 1 0.988235
0.929412 1 0.992157
0.960784 1 0.996078
0.984314 1 1
1 1 1
