site/assets/luts/freshluts--0001101-v-log-purple-flowers.cube
# LUTr-Schema-Version: 2
# LUTr-ID: freshluts--0001101-v-log-purple-flowers
# LUTr-Title: V-Log_Purple Flowers
# LUTr-Collection: Fresh LUTs
# LUTr-Collection-ID: freshluts-community
# LUTr-Source: https://freshluts.com
# LUTr-Retrieved: 2026-07-27
# LUTr-Source-File: submissions-raw/freshluts/cubes/1101__V-Log_DA_Purple_Flowers.cube
# LUTr-Source-Format: CUBE
# LUTr-Source-SHA256: 58a0ba6120d1c457718ed266a6094099cb569c7c8a66cf03d618912adbc83ec2
# LUTr-License: CC0-1.0
# LUTr-License-URL: https://freshluts.com/termsandconditions
# LUTr-License-Basis: site-terms
# LUTr-Transform-Class: creative-look
# LUTr-Tags: creative, freshluts, community, cube, panasonic-v-log
# LUTr-Input-Color-Space:
# LUTr-Input-Gamut: panasonic-v-gamut
# LUTr-Input-Transfer: panasonic-v-log
# LUTr-Output-Color-Space: srgb
# LUTr-Output-Gamut: rec709
# LUTr-Output-Transfer: srgb
# LUTr-Color-Space-Confidence: camera-profile-input-required
# LUTr-Domain-Normalized: true
# LUTr-Shaper: none
# LUTr-Original-Grid: 35x35x35
# LUTr-Conversion-Grid: 35x35x35
# LUTr-Conversion-Interpolation: none
# LUTr-Conversion-Method: Metadata normalization; numeric LUT samples preserved
# LUTr-Conversion-Tool: LUTr scripts/convert-all-to-cube.mjs 2.0.0
# LUTr-Conversion-Date: 2026-07-28
# LUTr-Asset-URL: https://freshluts.com/luts/1101
# LUTr-Author: Camera Head Studios LUTS
# LUTr-Author-URL: https://freshluts.com/users/107973
# LUTr-Attribution: Camera Head Studios LUTS via Fresh LUTs
# LUTr-Source-Labels: gamma=Panasonic V-log; color=None; key=Neutral; style=NEUTRAL
# LUTr-Note: Preserve this metadata and the upstream license notices when redistributing.
# LUTr-Upstream-Comment: Created by: Pixelmator Pro
# LUTr-Upstream-Comment: Color profile: "sRGB IEC61966-2.1"
# LUTr-Upstream-Comment: Data domain
# LUTr-Upstream-Comment: LUT size
TITLE "V-Log_Purple Flowers"
LUT_3D_SIZE 35
DOMAIN_MIN 0 0 0
DOMAIN_MAX 1 1 1
0 0 0
0 0 0
0 0 0
0 0 0
0 0 0
0 0 0
0 0 0
0.005 0 0
0.018 0 0
0.038 0 0
0.064 0 0
0.093 0 0
0.129 0 0
0.172 0 0
0.221 0 0
0.279 0 0
0.343 0 0
0.414 0 0
0.492 0 0
0.574 0 0
0.66 0 0
0.748 0 0
0.836 0 0
0.924 0 0
0.988 0.006 0.006
1 0.019 0.019
1 0.036 0.036
1 0.051 0.051
1 0.065 0.065
1 0.077 0.077
1 0.087 0.087
1 0.095 0.095
1 0.101 0.101
1 0.106 0.106
1 0.109 0.109
0 0 0
0 0 0
0 0 0
0 0 0
0 0 0
0 0 0
0 0 0
0.003 0 0
0.014 0 0
0.034 0 0
0.06 0 0
0.091 0 0
0.127 0 0
0.17 0 0
0.22 0 0
0.277 0 0
0.342 0 0
0.413 0 0
0.491 0 0
0.573 0 0
0.659 0 0
0.747 0 0
0.836 0 0
0.924 0 0
0.988 0.006 0.006
1 0.019 0.019
1 0.036 0.036
1 0.051 0.051
1 0.065 0.065
1 0.077 0.077
1 0.087 0.087
1 0.095 0.095
1 0.101 0.101
1 0.106 0.106
1 0.109 0.109
0 0 0
0 0 0
0 0 0
0 0 0
0 0 0
0 0 0
0 0 0
0.003 0 0
0.013 0 0
0.032 0 0
0.058 0 0
0.089 0 0
0.125 0 0
0.168 0 0
0.218 0 0
0.276 0 0
0.34 0 0
0.412 0 0
0.49 0 0
0.572 0 0
0.658 0 0
0.747 0 0
0.836 0 0
0.924 0 0
0.988 0.006 0.006
1 0.019 0.019
1 0.036 0.036
1 0.051 0.051
1 0.065 0.065
1 0.077 0.077
1 0.087 0.087
1 0.095 0.095
1 0.101 0.101
1 0.106 0.106
1 0.109 0.109
0 0 0
0 0 0
0 0 0
0 0 0
0 0 0
0 0 0
0 0 0
0.001 0 0
0.011 0 0
0.033 0 0
0.06 0 0
0.09 0 0
0.124 0 0
0.166 0 0
0.216 0 0
0.274 0 0
0.339 0 0
0.411 0 0
0.489 0 0
0.572 0 0
0.658 0 0
0.746 0 0
0.835 0 0
0.923 0 0
0.988 0.006 0.006
1 0.019 0.019
1 0.036 0.036
1 0.051 0.051
1 0.065 0.065
1 0.077 0.077
1 0.087 0.087
1 0.095 0.095
1 0.101 0.101
1 0.106 0.106
1 0.109 0.109
0 0 0
0 0 0
0 0 0
0 0 0
0 0 0
0 0 0
0 0 0
0 0 0
0.007 0 0
0.028 0 0
0.06 0 0
0.094 0 0
0.125 0 0
0.166 0 0
0.215 0 0
0.273 0 0
0.338 0 0
0.41 0 0
0.488 0 0
0.571 0 0
0.657 0 0
0.746 0 0
0.835 0 0
0.923 0 0
0.988 0.006 0.006
1 0.019 0.019
1 0.036 0.036
1 0.051 0.051
1 0.065 0.065
1 0.077 0.077
1 0.087 0.087
1 0.095 0.095
1 0.101 0.101
1 0.106 0.106
1 0.109 0.109
0 0 0
0 0 0
0 0 0
0 0 0
0 0 0
0 0 0
0 0 0
0 0 0
0.004 0 0
0.021 0 0
0.054 0 0
0.093 0 0
0.13 0 0
0.166 0 0
0.215 0 0
0.272 0 0
0.337 0 0
0.409 0 0
0.487 0 0
0.57 0 0
0.657 0 0
0.745 0 0
0.835 0 0
0.923 0 0
0.988 0.006 0.006
1 0.019 0.019
1 0.036 0.036
1 0.051 0.051
1 0.065 0.065
1 0.077 0.077
1 0.087 0.087
1 0.095 0.095
1 0.101 0.101
1 0.106 0.106
1 0.109 0.109
0 0 0
0 0 0
0 0 0
0 0 0
0 0 0
0 0 0
0 0 0
0 0 0
0.001 0 0
0.015 0 0
0.046 0 0
0.088 0 0
0.131 0 0
0.171 0 0
0.215 0 0
0.271 0 0
0.336 0 0
0.408 0 0
0.486 0 0
0.57 0 0
0.656 0 0
0.745 0 0
0.834 0 0
0.923 0 0
0.988 0.006 0.006
1 0.019 0.019
1 0.036 0.036
1 0.051 0.051
1 0.065 0.065
1 0.077 0.077
1 0.087 0.087
1 0.095 0.095
1 0.101 0.101
1 0.106 0.106
1 0.109 0.109
0 0 0
0 0 0
0 0 0
0 0 0
0 0 0
0 0 0
0 0 0
0 0 0
0 0 0
0.01 0 0
0.037 0 0
0.079 0 0
0.127 0 0
0.174 0 0
0.218 0 0
0.271 0 0
0.335 0 0
0.407 0 0
0.485 0 0
0.569 0 0
0.656 0 0
0.745 0 0
0.834 0 0
0.922 0 0
0.987 0.006 0.006
1 0.019 0.019
1 0.035 0.035
1 0.051 0.051
1 0.065 0.065
1 0.077 0.077
1 0.087 0.087
1 0.095 0.095
1 0.101 0.101
1 0.106 0.106
1 0.109 0.109
0 0 0
0 0 0
0 0 0
0 0 0
0 0 0
0 0 0
0 0 0
0 0 0
0 0 0
0.006 0 0
0.027 0 0
0.067 0 0
0.118 0 0
0.172 0 0
0.223 0 0
0.273 0 0
0.334 0 0
0.406 0 0
0.484 0 0
0.568 0 0
0.655 0 0
0.744 0 0
0.834 0 0
0.922 0 0
0.987 0.006 0.006
1 0.019 0.019
1 0.035 0.035
1 0.051 0.051
1 0.065 0.065
1 0.077 0.077
1 0.087 0.087
1 0.095 0.095
1 0.101 0.101
1 0.106 0.106
1 0.109 0.109
0 0 0
0 0 0
0 0 0
0 0 0
0 0 0
0 0 0
0 0 0
0 0 0
0 0 0
0.002 0.001 0
0.017 0.001 0
0.053 0 0
0.104 0 0
0.162 0 0
0.224 0 0
0.279 0 0
0.335 0 0
0.405 0 0
0.483 0 0
0.567 0 0
0.654 0 0
0.743 0 0
0.833 0 0
0.922 0 0
0.987 0.006 0.006
1 0.019 0.019
1 0.035 0.035
1 0.051 0.051
1 0.065 0.065
1 0.077 0.077
1 0.087 0.087
1 0.095 0.095
1 0.101 0.101
1 0.106 0.106
1 0.109 0.109
0 0.004 0
0 0.003 0
0 0.003 0
0 0.003 0
0 0.003 0
0 0.003 0
0 0.003 0
0 0.003 0
0 0.005 0
0 0.006 0
0.01 0.007 0
0.038 0.007 0
0.085 0.005 0
0.145 0.002 0
0.213 0 0
0.283 0 0
0.342 0 0
0.405 0 0
0.482 0 0
0.565 0 0
0.653 0 0
0.742 0 0
0.832 0 0
0.921 0 0
0.987 0.006 0.006
1 0.019 0.019
1 0.035 0.035
1 0.051 0.051
1 0.065 0.065
1 0.077 0.077
1 0.087 0.087
1 0.095 0.095
1 0.101 0.101
1 0.106 0.106
1 0.109 0.109
0 0.016 0
0 0.015 0
0 0.014 0
0 0.013 0
0 0.013 0
0 0.013 0
0 0.013 0
0 0.014 0
0.001 0.016 0
0.001 0.019 0
0.007 0.022 0
0.026 0.023 0
0.065 0.021 0
0.122 0.015 0
0.193 0.007 0
0.272 0.001 0
0.348 0 0
0.411 0 0
0.482 0 0
0.564 0 0
0.651 0 0
0.741 0 0
0.831 0 0
0.92 0 0
0.986 0.006 0.006
1 0.019 0.019
1 0.035 0.035
1 0.051 0.051
1 0.065 0.065
1 0.077 0.077
1 0.087 0.087
1 0.095 0.095
1 0.101 0.101
1 0.106 0.106
1 0.109 0.109
0 0.036 0
0 0.035 0
0 0.034 0
0 0.033 0
0 0.032 0
0 0.032 0
0 0.032 0.001
0.002 0.032 0.002
0.004 0.033 0.003
0.008 0.035 0.003
0.012 0.039 0.002
0.023 0.044 0
0.049 0.046 0
0.097 0.042 0
0.166 0.032 0
0.25 0.016 0
0.338 0.006 0
0.419 0 0
0.487 0 0
0.564 0 0
0.65 0 0
0.739 0 0
0.83 0 0
0.919 0 0
0.986 0.006 0.006
1 0.019 0.019
1 0.035 0.035
1 0.051 0.051
1 0.065 0.065
1 0.077 0.077
1 0.087 0.087
1 0.095 0.095
1 0.101 0.101
1 0.106 0.106
1 0.109 0.109
0 0.062 0
0 0.061 0
0 0.06 0.001
0 0.059 0.001
0 0.058 0.002
0 0.058 0.004
0.003 0.057 0.006
0.007 0.057 0.009
0.013 0.057 0.012
0.019 0.058 0.014
0.025 0.061 0.012
0.031 0.066 0.008
0.044 0.071 0.004
0.077 0.074 0
0.136 0.069 0
0.218 0.056 0
0.313 0.032 0
0.411 0.01 0
0.495 0.001 0
0.568 0 0
0.65 0 0
0.738 0 0
0.828 0 0
0.918 0 0
0.985 0.005 0.005
1 0.019 0.019
1 0.035 0.035
1 0.051 0.051
1 0.065 0.065
1 0.077 0.077
1 0.087 0.087
1 0.095 0.095
1 0.101 0.101
1 0.106 0.106
1 0.109 0.109
0 0.095 0.002
0 0.094 0.003
0 0.093 0.006
0 0.092 0.009
0 0.091 0.012
0.003 0.09 0.016
0.008 0.089 0.019
0.014 0.089 0.023
0.023 0.088 0.027
0.032 0.088 0.031
0.041 0.09 0.035
0.049 0.093 0.033
0.056 0.098 0.022
0.072 0.105 0.007
0.111 0.108 0.001
0.182 0.103 0
0.278 0.086 0
0.384 0.056 0
0.489 0.015 0
0.576 0.003 0
0.653 0 0
0.737 0 0
0.827 0 0
0.916 0 0
0.985 0.005 0.005
1 0.019 0.019
1 0.035 0.035
1 0.05 0.05
1 0.064 0.064
1 0.077 0.077
1 0.087 0.087
1 0.095 0.095
1 0.101 0.101
1 0.106 0.106
1 0.109 0.109
0 0.133 0.016
0 0.132 0.019
0 0.132 0.022
0 0.131 0.026
0.002 0.13 0.029
0.008 0.129 0.033
0.015 0.128 0.036
0.022 0.128 0.04
0.032 0.127 0.045
0.044 0.126 0.051
0.056 0.126 0.057
0.068 0.127 0.062
0.078 0.131 0.061
0.087 0.137 0.044
0.105 0.146 0.012
0.152 0.15 0.003
0.235 0.144 0
0.344 0.123 0
0.461 0.085 0
0.572 0.028 0
0.661 0.006 0
0.741 0.001 0
0.826 0 0
0.915 0 0
0.984 0.005 0.005
1 0.018 0.018
1 0.035 0.035
1 0.05 0.05
1 0.064 0.064
1 0.076 0.076
1 0.087 0.087
1 0.095 0.095
1 0.101 0.101
1 0.106 0.106
1 0.109 0.109
0 0.18 0.039
0 0.179 0.042
0 0.178 0.045
0.002 0.177 0.048
0.009 0.176 0.051
0.016 0.176 0.055
0.023 0.175 0.058
0.032 0.174 0.062
0.043 0.173 0.067
0.055 0.172 0.073
0.07 0.172 0.08
0.086 0.171 0.088
0.102 0.172 0.095
0.114 0.176 0.095
0.125 0.183 0.077
0.144 0.194 0.028
0.199 0.2 0.003
0.296 0.192 0
0.418 0.167 0
0.542 0.12 0
0.658 0.048 0
0.749 0.01 0
0.829 0.001 0
0.914 0 0
0.983 0.005 0.005
1 0.018 0.018
1 0.035 0.035
1 0.05 0.05
1 0.064 0.064
1 0.076 0.076
1 0.087 0.087
1 0.095 0.095
1 0.101 0.101
1 0.106 0.106
1 0.109 0.109
0 0.233 0.067
0 0.233 0.07
0.004 0.232 0.073
0.011 0.231 0.076
0.019 0.231 0.079
0.027 0.23 0.083
0.035 0.229 0.086
0.044 0.228 0.089
0.054 0.228 0.094
0.068 0.227 0.099
0.084 0.225 0.107
0.103 0.224 0.116
0.123 0.224 0.126
0.142 0.224 0.135
0.158 0.229 0.136
0.17 0.237 0.117
0.19 0.25 0.051
0.253 0.257 0
0.364 0.247 0
0.497 0.218 0
0.628 0.163 0
0.747 0.075 0
0.838 0.015 0
0.917 0 0
0.983 0.005 0.005
1 0.018 0.018
1 0.034 0.034
1 0.05 0.05
1 0.064 0.064
1 0.076 0.076
1 0.086 0.086
1 0.095 0.095
1 0.101 0.101
1 0.106 0.106
1 0.109 0.108
0.002 0.295 0.103
0.009 0.294 0.106
0.017 0.294 0.108
0.025 0.293 0.111
0.034 0.292 0.114
0.042 0.292 0.117
0.049 0.291 0.12
0.058 0.29 0.123
0.069 0.29 0.127
0.083 0.289 0.132
0.099 0.287 0.139
0.119 0.286 0.148
0.142 0.285 0.159
0.166 0.284 0.171
0.19 0.285 0.182
0.209 0.289 0.184
0.224 0.299 0.163
0.245 0.313 0.086
0.319 0.32 0.005
0.44 0.309 0
0.58 0.276 0
0.715 0.212 0
0.835 0.113 0
0.925 0.028 0
0.986 0.005 0.005
1 0.017 0.017
1 0.034 0.034
1 0.05 0.05
1 0.064 0.064
1 0.076 0.076
1 0.086 0.086
1 0.095 0.095
1 0.101 0.101
1 0.106 0.106
1 0.108 0.108
0.019 0.363 0.145
0.027 0.363 0.148
0.036 0.362 0.151
0.044 0.361 0.153
0.052 0.361 0.156
0.06 0.36 0.158
0.068 0.36 0.161
0.076 0.359 0.164
0.087 0.359 0.167
0.1 0.358 0.172
0.117 0.357 0.179
0.137 0.355 0.187
0.161 0.354 0.197
0.188 0.352 0.21
0.217 0.351 0.224
0.245 0.352 0.237
0.267 0.357 0.24
0.284 0.367 0.217
0.311 0.383 0.125
0.392 0.39 0.014
0.52 0.378 0
0.666 0.34 0
0.803 0.269 0
0.921 0.156 0
0.99 0.05 0.006
1 0.018 0.018
1 0.034 0.034
1 0.049 0.049
1 0.064 0.064
1 0.076 0.076
1 0.086 0.086
1 0.095 0.095
1 0.101 0.101
1 0.106 0.106
1 0.108 0.108
0.043 0.438 0.196
0.052 0.437 0.198
0.06 0.437 0.2
0.068 0.437 0.202
0.076 0.436 0.205
0.083 0.436 0.207
0.09 0.435 0.209
0.099 0.435 0.212
0.109 0.434 0.215
0.122 0.433 0.219
0.138 0.432 0.225
0.158 0.431 0.232
0.182 0.43 0.242
0.21 0.428 0.253
0.242 0.426 0.268
0.275 0.425 0.284
0.307 0.426 0.299
0.332 0.431 0.303
0.351 0.442 0.273
0.384 0.458 0.169
0.471 0.466 0.027
0.605 0.452 0
0.754 0.411 0
0.891 0.331 0
0.985 0.209 0.01
1 0.084 0.022
1 0.034 0.034
1 0.049 0.049
1 0.063 0.063
1 0.076 0.076
1 0.086 0.086
1 0.095 0.095
1 0.101 0.101
1 0.106 0.106
1 0.108 0.108
0.075 0.518 0.253
0.083 0.518 0.255
0.09 0.517 0.257
0.097 0.517 0.259
0.105 0.516 0.261
0.112 0.516 0.263
0.119 0.516 0.265
0.126 0.515 0.267
0.136 0.515 0.27
0.148 0.514 0.274
0.164 0.513 0.278
0.183 0.512 0.285
0.207 0.511 0.293
0.235 0.509 0.303
0.267 0.508 0.317
0.303 0.506 0.333
0.341 0.504 0.351
0.376 0.505 0.368
0.404 0.51 0.372
0.425 0.523 0.336
0.463 0.539 0.216
0.554 0.546 0.045
0.692 0.532 0
0.842 0.487 0
0.967 0.402 0.009
1 0.271 0.03
1 0.124 0.044
1 0.051 0.05
1 0.063 0.063
1 0.076 0.076
1 0.086 0.086
1 0.094 0.094
1 0.101 0.101
1 0.106 0.106
1 0.108 0.108
0.113 0.602 0.318
0.12 0.602 0.32
0.127 0.602 0.321
0.133 0.601 0.323
0.14 0.601 0.325
0.146 0.601 0.326
0.153 0.601 0.328
0.16 0.6 0.33
0.169 0.6 0.332
0.18 0.599 0.335
0.195 0.599 0.339
0.213 0.598 0.345
0.235 0.597 0.352
0.262 0.595 0.361
0.294 0.594 0.372
0.331 0.592 0.387
0.371 0.59 0.405
0.413 0.588 0.425
0.451 0.589 0.443
0.481 0.595 0.447
0.505 0.607 0.405
0.546 0.624 0.266
0.641 0.631 0.066
0.781 0.616 0
0.927 0.569 0.002
1 0.481 0.032
1 0.339 0.063
1 0.171 0.067
1 0.072 0.065
1 0.075 0.075
1 0.086 0.086
1 0.094 0.094
1 0.101 0.101
1 0.105 0.105
1 0.108 0.108
0.158 0.69 0.39
0.164 0.689 0.391
0.17 0.689 0.392
0.176 0.689 0.394
0.182 0.689 0.395
0.188 0.688 0.396
0.194 0.688 0.398
0.2 0.688 0.399
0.208 0.688 0.401
0.219 0.687 0.404
0.232 0.687 0.407
0.249 0.686 0.412
0.27 0.685 0.417
0.295 0.684 0.425
0.325 0.683 0.435
0.361 0.681 0.447
0.402 0.679 0.463
0.446 0.677 0.483
0.491 0.675 0.504
0.531 0.676 0.523
0.563 0.682 0.527
0.589 0.695 0.48
0.634 0.712 0.318
0.731 0.718 0.091
0.869 0.702 0
0.997 0.656 0.027
1 0.565 0.074
1 0.41 0.099
1 0.22 0.092
1 0.095 0.08
1 0.086 0.086
1 0.094 0.094
1 0.101 0.101
1 0.105 0.105
1 0.108 0.108
0.21 0.778 0.467
0.216 0.778 0.468
0.221 0.778 0.469
0.227 0.778 0.47
0.232 0.778 0.471
0.237 0.778 0.472
0.242 0.777 0.474
0.248 0.777 0.475
0.255 0.777 0.476
0.264 0.777 0.479
0.276 0.776 0.481
0.291 0.776 0.485
0.31 0.775 0.49
0.333 0.774 0.496
0.362 0.773 0.504
0.395 0.772 0.515
0.434 0.77 0.528
0.478 0.768 0.545
0.526 0.765 0.565
0.573 0.764 0.588
0.616 0.765 0.607
0.649 0.771 0.611
0.676 0.784 0.559
0.723 0.8 0.373
0.82 0.807 0.116
0.951 0.791 0.011
1 0.744 0.061
1 0.651 0.121
1 0.485 0.136
1 0.271 0.116
1 0.119 0.093
1 0.094 0.094
1 0.101 0.101
1 0.105 0.105
1 0.108 0.108
0.27 0.867 0.549
0.275 0.867 0.55
0.28 0.867 0.551
0.284 0.867 0.552
0.289 0.867 0.553
0.293 0.867 0.554
0.298 0.867 0.555
0.302 0.867 0.556
0.309 0.866 0.557
0.317 0.866 0.558
0.327 0.866 0.561
0.341 0.865 0.564
0.357 0.865 0.567
0.378 0.864 0.572
0.404 0.863 0.579
0.435 0.862 0.588
0.471 0.861 0.598
0.513 0.859 0.612
0.56 0.857 0.63
0.61 0.855 0.652
0.66 0.853 0.675
0.703 0.854 0.695
0.737 0.86 0.698
0.765 0.873 0.642
0.813 0.889 0.43
