site/assets/luts/freshluts--0000106-bozen.cube
# LUTr-Schema-Version: 2
# LUTr-ID: freshluts--0000106-bozen
# LUTr-Title: Bozen
# LUTr-Collection: Fresh LUTs
# LUTr-Collection-ID: freshluts-community
# LUTr-Source: https://freshluts.com
# LUTr-Retrieved: 2026-07-27
# LUTr-Source-File: submissions-raw/freshluts/cubes/106__bozen.cube
# LUTr-Source-Format: CUBE
# LUTr-Source-SHA256: 4dc21f540cf0467194d91f7c4cbb03f8cfa88c130983cc79c1c50a2dfc7ec688
# LUTr-License: CC0-1.0
# LUTr-License-URL: https://freshluts.com/termsandconditions
# LUTr-License-Basis: site-terms
# LUTr-Transform-Class: creative-look
# LUTr-Tags: creative, freshluts, community, cube, high-contrast, blue, rec709
# LUTr-Input-Color-Space: rec709
# LUTr-Input-Gamut: rec709
# LUTr-Input-Transfer: rec709
# LUTr-Output-Color-Space: srgb
# LUTr-Output-Gamut: rec709
# LUTr-Output-Transfer: srgb
# LUTr-Color-Space-Confidence: inferred-from-source-label
# LUTr-Domain-Normalized: true
# LUTr-Shaper: none
# LUTr-Original-Grid: 32x32x32
# LUTr-Conversion-Grid: 32x32x32
# LUTr-Conversion-Interpolation: none
# LUTr-Conversion-Method: Metadata normalization; numeric LUT samples preserved
# LUTr-Conversion-Tool: LUTr scripts/convert-all-to-cube.mjs 2.0.0
# LUTr-Conversion-Date: 2026-07-28
# LUTr-Asset-URL: https://freshluts.com/luts/106
# LUTr-Author: Mattias Horvath
# LUTr-Author-URL: https://freshluts.com/users/84
# LUTr-Attribution: Mattias Horvath via Fresh LUTs
# LUTr-Source-Labels: gamma=Rec 709; color=Blue; key=Neutral; style=High contrast
# LUTr-Note: Preserve this metadata and the upstream license notices when redistributing.
# LUTr-Upstream-Comment: Created by: Adobe Photoshop Export Color Lookup Plugin
# LUTr-Upstream-Comment: LUT size
# LUTr-Upstream-Comment: data domain
# LUTr-Upstream-Comment: LUT data points
TITLE "Bozen"
LUT_3D_SIZE 8
DOMAIN_MIN 0.000000 0.000000 0.000000
DOMAIN_MAX 0.903226 0.903226 0.903226
0.090057 0.102478 0.124329
0.121216 0.127411 0.148834
0.174377 0.155914 0.170166
0.345215 0.190948 0.213409
0.544434 0.257843 0.271545
0.696716 0.361542 0.362183
0.791016 0.500549 0.487244
0.866302 0.625397 0.620941
0.098572 0.114655 0.133087
0.125885 0.137329 0.149597
0.191193 0.168091 0.178864
0.364349 0.207947 0.219574
0.559052 0.278351 0.279541
0.703705 0.380951 0.370728
0.794373 0.516022 0.495178
0.867096 0.63501 0.624634
0.106781 0.130035 0.14209
0.123993 0.150543 0.150665
0.197296 0.199646 0.18457
0.38858 0.266266 0.229034
0.586792 0.346313 0.29892
0.722626 0.446503 0.398895
0.80545 0.569122 0.524048
0.870544 0.668915 0.639801
0.113251 0.150513 0.149109
0.13031 0.173187 0.158417
0.209045 0.250488 0.205719
0.342987 0.334991 0.261627
0.56958 0.456024 0.347504
0.724945 0.555511 0.454468
0.812805 0.654266 0.577606
0.875946 0.725708 0.669403
0.13266 0.194 0.166046
0.155029 0.218567 0.17926
0.233582 0.313202 0.236298
0.36734 0.424896 0.303253
0.536316 0.526001 0.393677
0.703339 0.647156 0.532227
0.809082 0.736572 0.650635
0.871948 0.794586 0.732025
0.189484 0.293121 0.217621
0.211609 0.31897 0.233246
0.290009 0.414734 0.293152
0.426392 0.531128 0.377228
0.586487 0.628632 0.472137
0.714081 0.708832 0.583771
0.814423 0.791901 0.71994
0.882568 0.850372 0.807343
0.295685 0.469208 0.323914
0.318726 0.490692 0.339355
0.403595 0.565674 0.403809
0.53241 0.6539 0.493896
0.671539 0.732788 0.594788
0.774231 0.792542 0.689331
0.842865 0.840332 0.77417
0.899078 0.889099 0.861633
0.486359 0.668762 0.511322
0.507965 0.681671 0.524689
0.581848 0.726013 0.580322
0.679535 0.776398 0.653778
0.774414 0.826172 0.731995
0.854858 0.873566 0.822479
0.897705 0.901611 0.873596
0.922943 0.920868 0.900085
0.093781 0.106171 0.129883
0.123932 0.129456 0.158447
0.179718 0.15625 0.178284
0.366943 0.18689 0.223511
0.561707 0.25119 0.280426
0.70401 0.35498 0.370056
0.794373 0.497101 0.494232
0.86792 0.62204 0.625946
0.107056 0.126587 0.149353
0.129242 0.141632 0.166595
0.18573 0.169525 0.183441
0.353027 0.208771 0.225525
0.551086 0.279816 0.286621
0.700287 0.382935 0.377899
0.79303 0.517334 0.500397
0.86853 0.632507 0.628326
0.111603 0.139893 0.153748
0.126801 0.159698 0.163177
0.201477 0.204468 0.198883
0.384308 0.266937 0.24057
0.582092 0.347534 0.309509
0.720001 0.447784 0.407196
0.80426 0.570251 0.529541
0.871826 0.666931 0.64325
0.116547 0.159027 0.159027
0.133423 0.189056 0.166595
0.21225 0.257477 0.216431
0.346985 0.339569 0.276093
0.57312 0.45752 0.358154
0.72702 0.555481 0.461487
0.813446 0.654266 0.582184
0.877838 0.723663 0.671417
0.136261 0.203949 0.176453
0.162476 0.24234 0.192139
0.239227 0.326752 0.24585
0.373596 0.432953 0.319031
0.540955 0.530914 0.409241
0.706848 0.64975 0.54071
0.810455 0.737183 0.655151
0.873352 0.794739 0.735474
0.193146 0.302795 0.227539
0.220947 0.345123 0.248688
0.296661 0.431854 0.304596
0.433044 0.540375 0.388641
0.59201 0.634735 0.488342
0.717102 0.711945 0.593994
0.815735 0.793091 0.724396
0.883179 0.850464 0.809326
0.299988 0.475159 0.335114
0.327362 0.509216 0.355621
0.409668 0.579224 0.417084
0.541138 0.664764 0.507599
0.675964 0.737366 0.604248
0.776062 0.794556 0.696228
0.843719 0.841248 0.778412
0.899078 0.889008 0.863098
0.489746 0.671417 0.521454
0.516479 0.690735 0.540253
0.587158 0.732605 0.591949
0.686523 0.783264 0.665558
0.778778 0.830353 0.739929
0.855591 0.874176 0.825867
0.897736 0.901611 0.875366
0.922852 0.920746 0.90152
0.103271 0.11557 0.143677
0.125732 0.133575 0.169861
0.186798 0.162781 0.216705
0.324402 0.206268 0.27063
0.547729 0.252533 0.336945
0.708374 0.344177 0.414459
0.80188 0.481659 0.519348
0.86969 0.611145 0.646423
0.120544 0.138336 0.172272
0.137085 0.149048 0.188995
0.198212 0.177094 0.229614
0.347137 0.217529 0.277313
0.568481 0.266144 0.335175
0.716339 0.364197 0.4151
0.80368 0.500946 0.52359
0.872284 0.619263 0.646606
0.123077 0.161346 0.186584
0.139679 0.174408 0.201538
0.206421 0.21756 0.256195
0.371704 0.266144 0.285248
0.566437 0.349976 0.341675
0.709381 0.45163 0.429596
0.79953 0.572876 0.544403
0.877716 0.656281 0.654114
0.126831 0.186249 0.18689
0.139191 0.208679 0.198944
0.208252 0.270447 0.251312
0.36084 0.356079 0.325958
0.580811 0.459625 0.389832
0.728271 0.555328 0.482422
0.814056 0.654083 0.594299
0.882324 0.716949 0.68045
0.151459 0.239899 0.206116
0.172668 0.271545 0.220947
0.246307 0.343536 0.277893
0.390594 0.454468 0.368042
0.556061 0.547607 0.459137
0.718506 0.657715 0.566071
0.814911 0.738922 0.667603
0.879761 0.79483 0.744049
0.208557 0.338593 0.257507
0.233795 0.373627 0.276276
0.309387 0.449127 0.338593
0.452148 0.563354 0.436798
0.606384 0.651154 0.531464
0.7276 0.723022 0.627441
0.821289 0.797577 0.736603
0.885529 0.8508 0.813049
0.315674 0.498871 0.366974
0.344025 0.529236 0.387177
0.423279 0.594208 0.450043
0.556915 0.68219 0.544952
0.687317 0.750061 0.637146
0.782532 0.801727 0.717255
0.846863 0.844604 0.790588
0.898956 0.88855 0.864441
0.502319 0.681122 0.547485
0.52948 0.700226 0.565735
0.599152 0.744202 0.61734
0.699036 0.795654 0.68985
0.78714 0.83783 0.76004
0.858124 0.876404 0.834259
0.8974 0.901367 0.877319
0.922363 0.920227 0.902527
0.116669 0.129089 0.164978
0.131927 0.140442 0.185364
0.189331 0.174896 0.260559
0.307526 0.22464 0.326111
0.479706 0.293243 0.411652
0.6604 0.373322 0.500671
0.780609 0.492493 0.588837
0.85379 0.612244 0.691833
0.134033 0.151184 0.200439
0.14856 0.160675 0.219788
0.205627 0.192749 0.288513
0.320923 0.240784 0.340454
0.494873 0.308563 0.422119
0.672913 0.387207 0.505463
0.788605 0.504089 0.590576
0.858673 0.61795 0.692505
0.149872 0.18689 0.24823
0.165985 0.197327 0.26709
0.228546 0.237213 0.329254
0.352448 0.292908 0.379272
0.548431 0.355988 0.445465
0.71936 0.432404 0.50882
0.811584 0.550659 0.592926
0.877319 0.639038 0.693512
0.15033 0.227234 0.257263
0.16394 0.242249 0.274017
0.230164 0.293304 0.33316
0.370697 0.386353 0.445648
0.582581 0.455109 0.47406
0.731445 0.549988 0.53894
0.813202 0.651642 0.625214
0.889343 0.711639 0.71228
0.168518 0.292877 0.267517
0.181305 0.31604 0.282806
0.24762 0.377014 0.341858
0.393341 0.477051 0.448822
0.577972 0.573364 0.539734
0.7388 0.665985 0.608887
0.822723 0.739227 0.68811
0.891235 0.792206 0.758606
0.2276 0.394226 0.31662
0.24704 0.421875 0.333954
0.320618 0.484528 0.395203
0.467896 0.581696 0.501038
0.625946 0.676605 0.598663
0.742706 0.739288 0.678711
0.830505 0.804169 0.755951
0.889435 0.85025 0.817841
0.33429 0.541687 0.422211
0.360596 0.565643 0.441315
0.438385 0.618378 0.500366
0.572998 0.696198 0.597595
0.701508 0.7677 0.682648
0.791473 0.812408 0.748871
0.851898 0.850098 0.810333
0.899048 0.887909 0.865662
0.516205 0.702881 0.587189
0.541718 0.717865 0.603943
0.609039 0.754486 0.652344
0.708832 0.803772 0.722595
0.797699 0.847504 0.787323
0.861206 0.879211 0.845001
0.896698 0.90097 0.879517
0.921417 0.91925 0.903168
0.133362 0.145782 0.198181
0.147034 0.155518 0.219727
0.200378 0.191772 0.307861
0.311951 0.240723 0.40387
0.455475 0.304321 0.466919
0.597565 0.410736 0.551056
0.734558 0.522095 0.646515
0.826111 0.631805 0.734497
0.152893 0.1698 0.246674
0.165985 0.178192 0.266937
0.219025 0.212189 0.345581
0.327423 0.25708 0.423462
0.466583 0.320648 0.478546
0.606293 0.426331 0.559692
0.741699 0.533508 0.651947
0.830841 0.639923 0.738098
0.180573 0.215179 0.326141
0.19458 0.223236 0.342712
0.25 0.259125 0.404633
0.363861 0.308411 0.473907
0.500763 0.378967 0.515869
0.640717 0.477234 0.590393
0.768982 0.57309 0.669708
0.850861 0.666321 0.751129
0.193787 0.270874 0.36322
0.207184 0.281281 0.379333
0.266724 0.32428 0.4328
0.399536 0.403687 0.52652
0.547791 0.47934 0.572968
0.695709 0.558258 0.6362
0.813934 0.636047 0.688354
0.881348 0.716949 0.767242
0.197693 0.343536 0.374786
0.207092 0.357574 0.389313
0.271484 0.406708 0.4422
0.41394 0.493439 0.537018
0.578064 0.59671 0.647766
0.74231 0.660492 0.682251
0.829132 0.732941 0.724152
0.895294 0.789337 0.784271
0.241028 0.451294 0.409149
0.254883 0.472839 0.42514
0.321289 0.522766 0.476471
0.457703 0.604126 0.568207
0.625092 0.692657 0.676514
0.754822 0.756042 0.737305
0.84024 0.808411 0.779602
0.893921 0.847351 0.82309
0.35199 0.587311 0.497711
0.373047 0.60553 0.51358
0.440521 0.648987 0.56189
0.571136 0.713379 0.644745
0.710632 0.778229 0.731842
0.798676 0.824341 0.784882
0.855682 0.854919 0.830994
0.89975 0.88681 0.867218
0.528473 0.72702 0.636627
0.549988 0.738739 0.649872
0.608429 0.771057 0.688843
0.708374 0.810547 0.747864
0.805817 0.852814 0.812897
0.862183 0.881195 0.854095
0.895111 0.900085 0.881256
0.919952 0.917938 0.903625
0.156219 0.16864 0.254333
0.171143 0.179321 0.282013
0.214935 0.209259 0.357117
0.307434 0.252899 0.459686
0.452484 0.323761 0.530548
0.583252 0.400482 0.590515
0.699341 0.529602 0.670746
0.80423 0.657898 0.75943
0.177521 0.194397 0.312836
0.185242 0.197479 0.321564
0.233154 0.230133 0.396423
0.324066 0.270355 0.482574
0.46402 0.339325 0.542297
0.590851 0.415161 0.598328
0.704681 0.541748 0.676361
0.808411 0.665283 0.763245
0.208801 0.240753 0.396332
0.218414 0.244751 0.406219
0.267059 0.276764 0.463318
0.364014 0.322327 0.534454
0.499786 0.391113 0.580505
0.618408 0.467743 0.627045
0.72522 0.584961 0.697754
0.824982 0.689423 0.777679
0.23349 0.305176 0.454712
0.24173 0.309448 0.465118
0.296478 0.346466 0.511047
0.409241 0.412903 0.588867
0.548035 0.479736 0.638519
0.661865 0.557709 0.673737
0.75946 0.65683 0.733521
0.853302 0.732361 0.800293
0.249359 0.387482 0.485931
0.258057 0.39624 0.49881
0.316711 0.43573 0.540863
0.434753 0.506439 0.610962
0.592651 0.59668 0.69632
0.712341 0.667999 0.733215
0.803131 0.734039 0.777191
0.884613 0.785522 0.818787
0.269196 0.488129 0.513092
0.27951 0.50177 0.526276
0.336273 0.541168 0.565674
0.464447 0.610229 0.635742
0.630432 0.691681 0.720215
0.747986 0.761719 0.78949
0.840576 0.80307 0.815735
0.897675 0.84137 0.834167
0.365021 0.617889 0.579163
0.380524 0.631073 0.591156
0.429108 0.666016 0.626038
0.552826 0.72171 0.689484
0.689423 0.780762 0.759888
0.794464 0.827728 0.820587
0.856171 0.858826 0.850403
0.90155 0.885101 0.869537
0.534271 0.74527 0.685394
0.551514 0.754486 0.695099
0.611298 0.785645 0.729614
0.692596 0.816101 0.770081
0.794586 0.852631 0.822449
0.860748 0.88147 0.862183
0.892517 0.899109 0.883209
0.918457 0.916504 0.904388
0.182343 0.194794 0.325348
0.196686 0.204895 0.351593
0.234436 0.230774 0.412445
0.304657 0.265228 0.491974
0.424988 0.318451 0.562897
0.564362 0.407806 0.618164
0.680115 0.5047 0.68454
0.784088 0.653564 0.76709
0.201355 0.21817 0.37674
0.191101 0.203278 0.343414
0.232758 0.232788 0.413544
0.308075 0.271759 0.499786
0.438599 0.33432 0.578186
0.57312 0.421204 0.62674
0.685394 0.516449 0.689819
0.787476 0.661316 0.770508
0.231537 0.261108 0.450653
0.229462 0.253296 0.441193
0.271454 0.281708 0.494232
0.352173 0.323334 0.560974
0.475525 0.383148 0.615662
0.602295 0.46814 0.654907
0.705688 0.558716 0.710358
0.801086 0.687622 0.784088
0.262543 0.325989 0.516144
0.26532 0.322357 0.518799
0.3078 0.35025 0.554962
0.401306 0.406006 0.619781
0.524139 0.463928 0.670166
0.648132 0.547729 0.701202
0.740295 0.632263 0.745819
0.824951 0.732178 0.807617
0.289795 0.411835 0.56073
0.296448 0.414795 0.569366
0.338257 0.44165 0.59903
0.43927 0.501007 0.653137
0.579407 0.58078 0.72345
0.701019 0.650208 0.75885
0.781799 0.720978 0.789185
0.854218 0.789581 0.836029
0.323975 0.51712 0.598724
0.333984 0.525269 0.607788
0.367249 0.552063 0.634735
0.479584 0.611023 0.68811
0.621887 0.682526 0.749969
0.745941 0.750854 0.806854
0.820587 0.800781 0.833679
0.885071 0.838074 0.860413
0.382111 0.62973 0.643494
0.393372 0.638519 0.651825
0.431183 0.669037 0.680695
0.530945 0.713379 0.724365
0.672729 0.77124 0.782043
0.78772 0.820557 0.832123
0.852234 0.856262 0.864563
0.90451 0.880249 0.875671
0.534393 0.748718 0.723145
0.547974 0.755829 0.730194
0.599854 0.783905 0.758301
0.657562 0.810638 0.786652
0.76416 0.84848 0.829346
0.847656 0.877411 0.865051
0.890076 0.898529 0.888916
0.916565 0.914886 0.906128
0.203308 0.215851 0.382141
0.21579 0.224243 0.403107
0.248108 0.24646 0.451782
0.307343 0.278107 0.520416
0.406952 0.321899 0.589661
0.531128 0.390045 0.635742
0.638428 0.466095 0.676514
0.756348 0.611725 0.758453
0.219025 0.235687 0.4216
0.209625 0.222046 0.393982
0.242645 0.245483 0.447296
0.303772 0.279541 0.520233
0.40451 0.323425 0.591583
0.531158 0.392578 0.637451
0.647461 0.482758 0.684906
0.760162 0.620911 0.762146
0.246704 0.273895 0.485535
0.239105 0.259674 0.465057
0.23764 0.248047 0.449036
0.304321 0.288239 0.530518
0.410034 0.33606 0.60553
0.549103 0.419159 0.65567
0.671692 0.525757 0.707245
0.774536 0.652283 0.776489
0.279938 0.334564 0.550232
0.280182 0.327484 0.548401
0.286896 0.32135 0.55249
0.36322 0.368744 0.614624
0.4711 0.420563 0.667389
0.60202 0.499207 0.703766
0.710693 0.598175 0.743439
0.800049 0.703979 0.801758
0.315674 0.419159 0.601837
0.320099 0.418274 0.606476
0.331726 0.417114 0.619171
0.410675 0.465363 0.663849
0.536896 0.537292 0.726654
0.661743 0.604797 0.761536
0.760101 0.689148 0.791046
0.833435 0.762878 0.834045
0.362274 0.526093 0.647278
0.370331 0.530243 0.653168
0.394958 0.544769 0.676086
0.458649 0.582977 0.707458
0.591003 0.651581 0.760681
0.721405 0.722412 0.815125
0.811768 0.77475 0.841614
0.863373 0.826965 0.863159
0.432678 0.642731 0.69577
0.442383 0.648895 0.701843
0.477875 0.673004 0.725342
0.520447 0.700897 0.750122
0.650879 0.755005 0.797028
0.764496 0.80545 0.840851
0.846863 0.845917 0.873688
0.888855 0.875061 0.887543
0.530945 0.744598 0.749084
0.541199 0.749786 0.753998
0.580048 0.770874 0.773987
0.646606 0.805267 0.806641
0.71167 0.830261 0.831024
0.827972 0.868164 0.868896
0.879059 0.89212 0.891266
0.914368 0.912964 0.910828
