site/assets/luts/freshluts--0001709-car.cube
# LUTr-Schema-Version: 2
# LUTr-ID: freshluts--0001709-car
# LUTr-Title: Car
# LUTr-Collection: Fresh LUTs
# LUTr-Collection-ID: freshluts-community
# LUTr-Source: https://freshluts.com
# LUTr-Retrieved: 2026-07-27
# LUTr-Source-File: submissions-raw/freshluts/cubes/1709__Car_lut.cube
# LUTr-Source-Format: CUBE
# LUTr-Source-SHA256: c339aaa5e8855fffb905df5d7a9f456cb0440dc97971baab19ccc496e3191324
# LUTr-License: CC0-1.0
# LUTr-License-URL: https://freshluts.com/termsandconditions
# LUTr-License-Basis: site-terms
# LUTr-Transform-Class: creative-look
# LUTr-Tags: creative, freshluts, community, cube, orange, low-key, rec709, assumed-input
# LUTr-Input-Color-Space: rec709
# LUTr-Input-Gamut: rec709
# LUTr-Input-Transfer: rec709
# LUTr-Output-Color-Space: srgb
# LUTr-Output-Gamut: rec709
# LUTr-Output-Transfer: srgb
# LUTr-Color-Space-Confidence: assumed-display-referred
# LUTr-Domain-Normalized: true
# LUTr-Shaper: none
# LUTr-Original-Grid: 25x25x25
# LUTr-Conversion-Grid: 25x25x25
# LUTr-Conversion-Interpolation: none
# LUTr-Conversion-Method: Metadata normalization; numeric LUT samples preserved
# LUTr-Conversion-Tool: LUTr scripts/convert-all-to-cube.mjs 2.0.0
# LUTr-Conversion-Date: 2026-07-28
# LUTr-Asset-URL: https://freshluts.com/luts/1709
# LUTr-Author: Muffin_7
# LUTr-Author-URL: https://freshluts.com/users/231912
# LUTr-Attribution: Muffin_7 via Fresh LUTs
# LUTr-Source-Labels: gamma=Other; color=Orange; key=Low Key; style=Cinematic light; LUTr assumption=input Rec.709 per repository policy
# LUTr-Conversion-Warning: Input Rec.709 is a LUTr catalog assumption requested for this otherwise unspecified Fresh LUT; it is not verified by the upstream asset.
# LUTr-Note: Preserve this metadata and the upstream license notices when redistributing.
# LUTr-Upstream-Comment: Generated by lutCreator.js
# LUTr-Upstream-Comment: Coded by SirSerch
# LUTr-Upstream-Comment: https://github.com/SirSerch/LutCreatorJs
TITLE "Car"
LUT_3D_SIZE 5
DOMAIN_MIN 0 0 0
DOMAIN_MAX 1 1 1
0 0 0
0 0 0
0.003922 0 0
0.039216 0.011765 0.003922
0.137255 0.058824 0.019608
0 0 0
0.003922 0.003922 0
0.019608 0.007843 0.003922
0.07451 0.035294 0.011765
0.176471 0.094118 0.039216
0.058824 0.062745 0.015686
0.070588 0.070588 0.019608
0.109804 0.094118 0.031373
0.184314 0.133333 0.058824
0.290196 0.196078 0.098039
0.239216 0.247059 0.117647
0.25098 0.254902 0.121569
0.298039 0.278431 0.137255
0.376471 0.32549 0.168627
0.494118 0.396078 0.211765
0.537255 0.552941 0.294118
0.54902 0.560784 0.298039
0.596078 0.588235 0.317647
0.682353 0.635294 0.345098
0.811765 0.709804 0.396078
0 0 0
0.003922 0 0
0.031373 0.007843 0.007843
0.117647 0.047059 0.035294
0.239216 0.117647 0.086275
0.007843 0.007843 0.003922
0.019608 0.015686 0.007843
0.066667 0.035294 0.023529
0.152941 0.082353 0.054902
0.27451 0.152941 0.101961
0.105882 0.109804 0.058824
0.121569 0.117647 0.062745
0.172549 0.145098 0.082353
0.258824 0.192157 0.117647
0.384314 0.262745 0.164706
0.298039 0.305882 0.172549
0.313725 0.313725 0.180392
0.364706 0.341176 0.2
0.45098 0.388235 0.231373
0.580392 0.462745 0.282353
0.6 0.619608 0.356863
0.619608 0.627451 0.360784
0.670588 0.654902 0.380392
0.760784 0.705882 0.411765
0.898039 0.784314 0.462745
0 0.003922 0.003922
0.011765 0.007843 0.011765
0.094118 0.043137 0.05098
0.215686 0.113725 0.117647
0.384314 0.211765 0.196078
0.031373 0.039216 0.031373
0.058824 0.05098 0.047059
0.141176 0.094118 0.086275
0.262745 0.160784 0.145098
0.427451 0.254902 0.223529
0.180392 0.184314 0.141176
0.203922 0.2 0.152941
0.27451 0.235294 0.180392
0.388235 0.294118 0.231373
0.552941 0.384314 0.301961
0.415686 0.423529 0.294118
0.435294 0.435294 0.305882
0.498039 0.466667 0.329412
0.607843 0.52549 0.372549
0.768627 0.611765 0.439216
0.756863 0.776471 0.509804
0.776471 0.784314 0.517647
0.835294 0.815686 0.541176
0.941176 0.87451 0.580392
1 0.960784 0.643137
0.003922 0.027451 0.035294
0.043137 0.05098 0.062745
0.160784 0.109804 0.129412
0.32549 0.196078 0.219608
0.541176 0.317647 0.333333
0.07451 0.098039 0.101961
0.113725 0.117647 0.121569
0.219608 0.168627 0.176471
0.376471 0.25098 0.258824
0.588235 0.368627 0.368627
0.266667 0.282353 0.247059
0.294118 0.294118 0.262745
0.384314 0.341176 0.305882
0.533333 0.415686 0.372549
0.737255 0.52549 0.470588
0.552941 0.568627 0.45098
0.576471 0.580392 0.462745
0.654902 0.619608 0.498039
0.792157 0.690196 0.556863
0.988235 0.792157 0.643137
0.952941 0.972549 0.717647
0.976471 0.984314 0.72549
1 0.996078 0.760784
1 0.996078 0.827451
1 1 0.929412
0.023529 0.109804 0.12549
0.098039 0.137255 0.156863
0.243137 0.203922 0.239216
0.447059 0.309804 0.352941
0.709804 0.45098 0.498039
0.129412 0.188235 0.2
0.180392 0.211765 0.227451
0.313725 0.27451 0.298039
0.505882 0.372549 0.403922
0.768627 0.509804 0.541176
0.360784 0.4 0.380392
0.4 0.415686 0.4
0.509804 0.470588 0.454902
0.690196 0.560784 0.545098
0.937255 0.690196 0.670588
0.701961 0.733333 0.639216
0.733333 0.74902 0.65098
0.827451 0.796078 0.694118
0.992157 0.878431 0.772549
1 0.996078 0.886275
1 1 1
1 1 1
1 1 1
1 1 1
1 1 1
