site/assets/luts/freshluts--0000999-generous-oranges.cube
# LUTr-Schema-Version: 2
# LUTr-ID: freshluts--0000999-generous-oranges
# LUTr-Title: Generous Oranges
# LUTr-Collection: Fresh LUTs
# LUTr-Collection-ID: freshluts-community
# LUTr-Source: https://freshluts.com
# LUTr-Retrieved: 2026-07-27
# LUTr-Source-File: submissions-raw/freshluts/cubes/999__generous_23.A030_03150138_C003.cube
# LUTr-Source-Format: CUBE
# LUTr-Source-SHA256: 463c885ba986efa01e873398ef1d4b6105f20a891e06b4cdb2209ebf3d93c2ce
# LUTr-License: CC0-1.0
# LUTr-License-URL: https://freshluts.com/termsandconditions
# LUTr-License-Basis: site-terms
# LUTr-Transform-Class: creative-look
# LUTr-Tags: creative, freshluts, community, cube, bmd-film-4k
# LUTr-Input-Color-Space:
# LUTr-Input-Gamut: bmd-film-gamut
# LUTr-Input-Transfer: bmd-film-4k
# LUTr-Output-Color-Space: srgb
# LUTr-Output-Gamut: rec709
# LUTr-Output-Transfer: srgb
# LUTr-Color-Space-Confidence: camera-profile-input-required
# LUTr-Domain-Normalized: true
# LUTr-Shaper: none
# LUTr-Original-Grid: 33x33x33
# LUTr-Conversion-Grid: 33x33x33
# LUTr-Conversion-Interpolation: none
# LUTr-Conversion-Method: Metadata normalization; numeric LUT samples preserved
# LUTr-Conversion-Tool: LUTr scripts/convert-all-to-cube.mjs 2.0.0
# LUTr-Conversion-Date: 2026-07-28
# LUTr-Asset-URL: https://freshluts.com/luts/999
# LUTr-Author: Le Salon des Inconnus
# LUTr-Author-URL: https://freshluts.com/users/102026
# LUTr-Attribution: Le Salon des Inconnus via Fresh LUTs
# LUTr-Source-Labels: gamma=Blackmagic BMD Film 4K; color=None; key=Neutral; style=Colorful
# LUTr-Note: Preserve this metadata and the upstream license notices when redistributing.
TITLE "Generous Oranges"
LUT_3D_SIZE 9
DOMAIN_MIN 0 0 0
DOMAIN_MAX 1 1 1
0 0 0
0.105882 0 0.00291447
0.380072 0 0
0.647684 0 0
0.910445 0 0
1 0 0
1 0 0
1 0 0
1 0 0
0 0.155352 0
0.0193484 0.119585 0
0.275135 0.0925612 0
0.448051 0.0817884 0
0.650721 0.0680247 0
0.91632 0.038407 0
1 0.00062562 0
1 0 0
1 0 0
0 0.351598 0
0 0.318715 0
0 0.341619 0
0.350301 0.288441 0
0.702251 0.226444 0
0.905196 0.20737 0
1 0.209812 0
1 0.20177 0
1 0.186954 0
0 0.543587 0
0 0.510201 0
0.15259 0.458824 0
0 0.553017 0
0.144472 0.564279 0
0.773205 0.42121 0
1 0.358038 0
1 0.333928 0
1 0.333059 0
0 0.732952 0
0 0.699245 0
0.00015259 0.664622 0
0.364782 0.602823 0
0 0.760845 0
0.116625 0.779065 0
1 0.51104 0
1 0.528359 0
1 0.488106 0
0 0.92079 0
0 0.886778 0
0 0.854475 0
0.282567 0.789273 0
0.108858 0.88127 0
0 0.966064 0
0.108232 0.98645 0
0.908705 0.800626 0
1 0.754604 0
0 1 0
0 1 0
0 1 0
0.111101 0.998489 0
0.615045 0.893126 0
0 1 0
0 1 0
0.105394 1 0
0.621805 1 0
0 1 0
0 1 0
0 1 0
0 1 0
0.409903 1 0
0.573465 1 0
0 1 0
0 1 0
0.103578 1 0
0 1 0
0 1 0
0 1 0
0 1 0
0.227848 1 0
0.767758 1 0
0.291585 1 0
0 1 0
0 1 0
0 0 0.257939
0.0794232 0 0.292287
0.355535 0 0.278218
0.622446 0 0.264027
0.885069 0 0.249805
1 0 0.235538
1 0 0.221012
1 0 0.206699
1 0 0.192569
0 0.143236 0.211841
0 0.121752 0.148058
0.25658 0.0798962 0.162692
0.521737 0.0488746 0.146746
0.783185 0.0186618 0.131289
1 0 0.116106
1 0 0.100877
1 0 0.0859998
1 0 0.0713207
0 0.338949 0.11371
0 0.305974 0.0849928
0.171664 0.271366 0.0545052
0.423407 0.244083 0.0334325
0.590585 0.23444 0.0854963
0.798199 0.218433 0.0760662
1 0.186572 0.0379492
1 0.148608 0
1 0.112825 0
0 0.530739 0.0165866
0 0.497292 0
0.0659342 0.465385 0
0.142901 0.486641 0
0.516197 0.430137 0
0.845273 0.374777 0
1 0.357702 0
1 0.35964 0.00790417
1 0.350469 0.016846
0 0.719982 0
0 0.686229 0
0 0.654032 0
0.295705 0.606607 0
0.134279 0.69546 0
0.306615 0.704997 0
0.929229 0.562448 0
1 0.504402 0
1 0.481575 0
0 0.907744 0
0 0.873472 0
0 0.841337 0
0.149218 0.809003 0
0.52697 0.742824 0
0.130648 0.901228 0
0.274693 0.919371 0
1 0.655787 0
1 0.671229 0
0 1 0
0 1 0
0 1 0
0.0503395 0.996704 0
0.420111 0.93521 0
0.279454 1 0
0.13051 1 0
0.267506 1 0
1 0.932631 0
0 1 0
0 1 0
0 1 0
0 1 0
0.253834 1 0
0.75639 1 0
0.158694 1 0
0.131441 1 0
0.263188 1 0
0 1 0
0 1 0
0 1 0
0 1 0
0.134249 1 0
0.542779 1 0
0.745403 1 0
0.14049 1 0
0.132784 1 0
0 0 0.555047
0.052842 0 0.566384
0.331594 0 0.553307
0.598795 0 0.538613
0.861341 0 0.524193
1 0 0.50985
1 0 0.495399
1 0 0.481086
1 0 0.466987
0 0.194232 0.285069
0 0.131304 0.396384
0.231495 0.0717021 0.436896
0.49781 0.0402991 0.421012
0.759319 0.0099794 0.405661
1 0 0.390402
1 0 0.375387
1 0 0.360555
1 0 0.345892
0 0.327642 0.390341
0 0.294514 0.361364
0.121553 0.273411 0.298451
0.405905 0.232761 0.313481
0.666865 0.201999 0.297551
0.925231 0.171435 0.281636
1 0.141604 0.26627
1 0.11194 0.251011
1 0.0824445 0.235828
0 0.519173 0.293202
0 0.485435 0.263813
0.0504768 0.453681 0.236179
0.322454 0.420615 0.207141
0.570428 0.393759 0.186404
0.735576 0.38381 0.237354
0.942351 0.367864 0.227665
1 0.335698 0.189242
1 0.297566 0.14902
0 0.708278 0.197574
0 0.674189 0.167727
0 0.642237 0.139803
0.218296 0.611978 0.113466
0.294163 0.632761 0.120989
0.668467 0.575051 0.0280613
0.989166 0.522438 0.0437934
1 0.505837 0.0911421
1 0.50721 0.161593
0 0.895949 0.10222
0 0.861631 0.0721141
0 0.829465 0.0439612
0.125994 0.799008 0.0174258
0.442252 0.752529 0
0.285313 0.839704 0.0149996
0.456474 0.84947 0
1 0.707332 0
1 0.650523 0
0 1 0.00791943
0 1 0
0 1 0
0.0347906 0.984726 0
0.298253 0.952911 0
0.676173 0.886351 0
0.282155 1 0
0.425772 1 0
1 0.801511 0
0 1 0
0 1 0
0 1 0
0 1 0
0.199802 1 0
0.564034 1 0
0.435325 1 0
0.281361 1 0
0.417365 1 0
0 1 0
0 1 0
0 1 0
0 1 0
0.108675 1 0
0.39942 1 0
0.899168 1 0
0.310399 1 0
0.281941 1 0
0 0 0.830869
0.0264286 0 0.836362
0.306722 0 0.823926
0.575067 0 0.809308
0.837934 0 0.794614
1 0 0.779843
1 0 0.76553
1 0 0.751247
1 0 0.737087
0 0.221592 0.483436
0 0.114626 0.692882
0.204669 0.0646067 0.706264
0.47361 0.0322271 0.691325
0.735698 0.00166323 0.675761
0.994629 0 0.660334
1 0 0.645518
1 0 0.630701
1 0 0.615991
0 0.352453 0.539071
0 0.344411 0.433707
0.0495918 0.281666 0.545525
0.381155 0.224659 0.583474
0.643198 0.193469 0.567575
0.901686 0.162844 0.551797
1 0.132952 0.536568
1 0.103227 0.521416
1 0.0735485 0.506172
0 0.508019 0.565652
0 0.474174 0.536141
0.0349889 0.442481 0.5084
0.27303 0.42266 0.447288
0.553048 0.382467 0.462043
0.811292 0.351736 0.446021
1 0.321614 0.430411
1 0.291646 0.414878
1 0.261814 0.399344
0 0.696895 0.469886
0 0.662821 0.440162
0 0.630808 0.41236
0.203113 0.600488 0.386069
0.470726 0.567819 0.357305
0.716564 0.541115 0.336767
0.880171 0.53164 0.387488
1 0.51516 0.376852
1 0.48278 0.338247
0 0.884291 0.374472
0 0.850156 0.34461
0 0.817945 0.316518
0.110735 0.787457 0.289967
0.367178 0.757565 0.26392
0.443183 0.778256 0.271626
0.813367 0.721431 0.179522
1 0.66862 0.194751
1 0.652369 0.242603
0 1 0.280064
0 1 0.25008
0 1 0.221775
0.0192721 0.9729 0.194812
0.275776 0.943069 0.168826
0.588861 0.897581 0.131792
0.434623 0.983688 0.166918
0.60647 0.992538 0.00062562
1 0.851377 0.021973
0 1 0.185824
0 1 0.155642
0 1 0.127199
0 1 0.100008
0.184573 1 0.0739757
0.445731 1 0.0450904
0.824445 1 0.0266423
0.430838 1 0.0563668
0.573602 1 0
0 1 0.0915236
0 1 0.0611734
0 1 0.032578
0 1 0.0052491
0.0933852 1 0
0.347433 1 0
0.706447 1 0
0.58706 1 0
0.429923 1 0
0 0 1
0 0 1
0.281392 0 1
0.550927 0 1
0.814481 0 1
1 0 1
1 0 1
1 0 1
1 0 1
0 0.226047 0.753902
0 0.104097 0.965942
0.177478 0.0580301 0.971633
0.4486 0.0247807 0.958038
0.711971 0 0.942672
0.971328 0 0.927062
1 0 0.912123
1 0 0.897276
1 0 0.882414
0 0.415305 0.575219
0 0.370214 0.632334
0.0454871 0.2654 0.836759
0.354574 0.217548 0.849226
0.618982 0.185153 0.834058
0.878325 0.154604 0.818357
1 0.124636 0.803098
1 0.0948653 0.787961
1 0.0651408 0.772824
0 0.512108 0.781216
0 0.499519 0.67982
0 0.491829 0.580041
0.202274 0.430686 0.691463
0.528466 0.374319 0.72842
0.787976 0.343343 0.712596
1 0.313161 0.697108
1 0.283055 0.681636
1 0.253239 0.6663
0 0.685832 0.738735
0 0.651804 0.709072
0 0.619776 0.681254
0.187808 0.589441 0.654749
0.421942 0.569894 0.594125
0.69955 0.530175 0.609018
0.955703 0.499825 0.59324
1 0.469383 0.577249
1 0.439612 0.561807
0 0.873106 0.64332
0 0.839017 0.61355
0 0.806775 0.585504
0.095552 0.776074 0.558892
0.352224 0.746273 0.533059
0.617716 0.714214 0.504906
0.861387 0.687785 0.484504
1 0.677897 0.534539
1 0.661753 0.524208
0 1 0.549004
0 1 0.519051
0 0.992493 0.490806
0.0041352 0.961532 0.463859
0.260792 0.931731 0.437919
0.515175 0.902495 0.412497
0.590402 0.922942 0.420081
0.961929 0.865049 0.330037
1 0.814145 0.343862
0 1 0.45478
0 1 0.424674
0 1 0.396262
0 1 0.36907
0.169558 1 0.343023
0.423835 1 0.317479
0.733593 1 0.280522
0.58143 1 0.315328
0.751766 1 0.150668
0 1 0.360479
0 1 0.330205
0 1 0.301396
0 1 0.274311
0.0783246 1 0.248142
0.332494 1 0.222477
0.591058 1 0.193713
0.97023 1 0.175326
0.577661 1 0.205539
0 0 1
0 0 1
0.255665 0 1
0.526268 0 1
0.790448 0 1
1 0 1
1 0 1
1 0 1
1 0 1
0 0.213291 1
0 0.096025 1
0.150103 0.0516976 1
0.422919 0.017731 1
0.687358 0 1
0.947784 0 1
1 0 1
1 0 1
1 0 1
0 0.445457 0.755199
0 0.373297 0.903517
0.0278019 0.255161 1
0.327352 0.210834 1
0.593988 0.1776 1
0.854627 0.146593 1
1 0.116487 1
1 0.0863508 1
1 0.0569009 1
0 0.576318 0.793423
0 0.560922 0.719982
0 0.516808 0.780179
0.197955 0.414466 0.980621
0.501945 0.367178 0.992508
0.764096 0.335286 0.977676
1 0.304906 0.962036
1 0.274556 0.946319
1 0.244892 0.931228
0 0.68098 0.983276
0 0.656519 0.920867
0 0.645792 0.821012
0.0364538 0.638193 0.725917
0.352193 0.577554 0.837491
0.675212 0.522179 0.873899
0.932494 0.491463 0.858183
1 0.460945 0.842329
1 0.431128 0.827039
0 0.862181 0.910597
0 0.828061 0.880796
0 0.795789 0.852766
0.0802625 0.76492 0.826001
0.337011 0.735286 0.800107
0.569268 0.716243 0.740383
0.844434 0.676829 0.755077
1 0.646281 0.739055
1 0.616358 0.723461
0 1 0.816251
0 1 0.786343
0 0.981399 0.758114
0 0.950393 0.731182
0.245823 0.920562 0.705379
0.500328 0.891264 0.680018
0.763073 0.859342 0.651896
1 0.832853 0.631556
1 0.823468 0.681575
0 1 0.722118
0 1 0.691981
0 1 0.663462
0 1 0.636515
0.154589 1 0.610513
0.408927 1 0.584939
0.660975 1 0.559548
0.736461 1 0.567132
1 1 0.477089
0 1 0.627787
0 1 0.597559
0 1 0.568734
0 1 0.541756
0.0633402 1 0.515602
0.317418 1 0.489769
0.569512 1 0.464393
0.877668 1 0.427893
0.727535 1 0.462837
0 0 1
0 0 1
0.229755 0 1
0.50132 0 1
0.766232 0 1
1 0 1
1 0 1
1 0 1
1 0 1
0 0.194522 1
0 0.0889143 1
0.122835 0.0455482 1
0.396872 0.0109712 1
0.662593 0 1
0.923934 0 1
1 0 1
1 0 1
1 0 1
0 0.461341 0.988296
0 0.359564 1
0.00518807 0.247105 1
0.299886 0.204227 1
0.568368 0.17052 1
0.830396 0.138994 1
1 0.108598 1
1 0.0783398 1
1 0.0488136 1
0 0.631449 0.860212
0 0.590066 0.902403
0 0.518975 1
0.17995 0.404028 1
0.474907 0.360479 1
0.739254 0.327764 1
0.997436 0.296757 1
1 0.266453 1
1 0.236728 1
0 0.724285 1
0 0.721218 0.93077
0 0.705867 0.864439
0 0.662577 0.92578
0.347799 0.561532 1
0.648905 0.515084 1
0.908522 0.483162 1
1 0.452766 1
1 0.422904 1
0 0.853529 1
0 0.823651 1
0 0.800824 1
0 0.790951 0.963836
0.187182 0.783917 0.870939
0.499855 0.723964 0.981445
0.820096 0.668696 1
1 0.63801 1
1 0.608011 0.986358
0 1 1
0 1 1
0 0.97026 1
0 0.939513 0.996216
0.230838 0.909667 0.970413
0.485252 0.8804 0.944839
0.715236 0.861326 0.885298
0.989319 0.822095 0.899916
1 0.79202 0.884245
0 1 0.987137
0 1 0.957015
0 1 0.928389
0 1 0.901579
0.139742 1 0.875624
0.394064 1 0.850126
0.646281 1 0.824842
0.908461 1 0.79707
1 0.977752 0.776928
0 1 0.892851
0 1 0.862654
0 1 0.833799
0 1 0.806897
0.0485084 1 0.780819
0.302464 1 0.75491
0.554772 1 0.729671
0.806073 1 0.704646
0.881559 1 0.712184
0 0 1
0 0 1
0.203647 0 1
0.476005 0 1
0.741726 0 1
1 0 1
1 0 1
1 0 1
1 0 1
0 0.176867 1
0 0.0823224 1
0.0955367 0.0394751 1
0.37055 0.00436408 1
0.637385 0 1
0.899641 0 1
1 0 1
1 0 1
1 0 1
0 0.465232 1
0 0.340703 1
0 0.239887 1
0.272404 0.197787 1
0.54229 0.163684 1
0.805585 0.13167 1
1 0.100801 1
1 0.0704509 1
1 0.0408331 1
0 0.663279 1
0 0.605005 1
0 0.504509 1
0.157214 0.395895 1
0.447608 0.353979 1
0.713649 0.320607 1
0.973144 0.289021 1
1 0.258503 1
1 0.228687 1
0 0.795483 1
0 0.774731 1
0 0.733974 1
0 0.664195 1
0.329931 0.5514 1
0.621897 0.508354 1
0.883711 0.475624 1
1 0.444785 1
1 0.414771 1
0 0.877775 1
0 0.867964 1
0 0.865354 1
0 0.850477 1
0.0764477 0.808087 1
0.495262 0.707759 1
0.793851 0.661601 1
1 0.629999 1
1 0.599817 1
0 1 1
0 0.994537 1
0 0.96611 1
0 0.944808 1
0.134249 0.935866 1
0.335531 0.928542 1
0.646265 0.868894 1
0.965255 0.814176 1
1 0.783749 1
0 1 1
0 1 1
0 1 1
0 1 1
0.124773 1 1
0.378882 1 1
0.631235 1 1
0.860578 1 1
1 0.96672 1
0 1 1
0 1 1
0 1 1
0 1 1
0.0336614 1 1
0.287648 1 1
0.540002 1 0.994034
0.791409 1 0.96907
1 1 0.941329
0 0 1
0 0 1
0.17731 0 1
0.45008 0 1
0.716808 0 1
0.979446 0 1
1 0 1
1 0 1
1 0 1
0 0.161761 1
0 0.0759594 1
0.0681468 0.0334325 1
0.343832 0 1
0.611765 0 1
0.874861 0 1
1 0 1
1 0 1
1 0 1
0 0.458289 1
0 0.323171 1
0 0.233127 1
0.244923 0.191531 1
0.515892 0.15697 1
0.780194 0.124544 1
1 0.0931411 1
1 0.0627298 1
1 0.0329442 1
0 0.683803 1
0 0.607645 1
0 0.48542 1
0.132342 0.388586 1
0.420157 0.347539 1
0.687449 0.31368 1
0.948165 0.281559 1
1 0.250751 1
1 0.220737 1
0 0.845365 1
0 0.805417 1
0 0.747982 1
0 0.649348 1
0.307103 0.543206 1
0.59443 0.501656 1
0.85803 0.468391 1
1 0.437049 1
1 0.406775 1
0 0.94432 1
0 0.938582 1
0 0.9178 1
0 0.87834 1
0.0183566 0.809461 1
0.477241 0.69752 1
0.766781 0.65481 1
1 0.6224 1
1 0.591669 1
0 1 1
0 1 1
0 1 1
0 1 1
0 0.994934 1
0.22533 0.952407 1
0.641688 0.852872 1
0.938964 0.807019 1
1 0.775448 1
0 1 1
0 1 1
0 1 1
0 1 1
0.0742199 1 1
0.281727 1 1
0.48191 1 1
0.791913 1 1
1 0.958755 1
0 1 1
0 1 1
0 1 1
0 1 1
0.0183413 1 1
0.272648 1 1
0.525017 1 1
0.776333 1 1
1 1 1
