site/assets/luts/freshluts--0001253-sandy-4k-lut.cube
# LUTr-Schema-Version: 2
# LUTr-ID: freshluts--0001253-sandy-4k-lut
# LUTr-Title: SANDY 4K LUT
# LUTr-Collection: Fresh LUTs
# LUTr-Collection-ID: freshluts-community
# LUTr-Source: https://freshluts.com
# LUTr-Retrieved: 2026-07-27
# LUTr-Source-File: submissions-raw/freshluts/cubes/1253__san_4k_lut.cube
# LUTr-Source-Format: CUBE
# LUTr-Source-SHA256: 704904a67fe8692d089d205ab133173093972110b4fabd2351cc964b730edc76
# LUTr-License: CC0-1.0
# LUTr-License-URL: https://freshluts.com/termsandconditions
# LUTr-License-Basis: site-terms
# LUTr-Transform-Class: creative-look
# LUTr-Tags: creative, freshluts, community, cube, sony-s-log3
# LUTr-Input-Color-Space: sony-slog3-sgamut3
# LUTr-Input-Gamut: sony-s-gamut3
# LUTr-Input-Transfer: sony-s-log3
# LUTr-Output-Color-Space: srgb
# LUTr-Output-Gamut: rec709
# LUTr-Output-Transfer: srgb
# LUTr-Color-Space-Confidence: inferred-from-source-label
# LUTr-Domain-Normalized: true
# LUTr-Shaper: none
# LUTr-Original-Grid: 33x33x33
# LUTr-Conversion-Grid: 33x33x33
# LUTr-Conversion-Interpolation: none
# LUTr-Conversion-Method: Metadata normalization; numeric LUT samples preserved
# LUTr-Conversion-Tool: LUTr scripts/convert-all-to-cube.mjs 2.0.0
# LUTr-Conversion-Date: 2026-07-28
# LUTr-Asset-URL: https://freshluts.com/luts/1253
# LUTr-Author: Antony Eliezer
# LUTr-Author-URL: https://freshluts.com/users/32961
# LUTr-Attribution: Antony Eliezer via Fresh LUTs
# LUTr-Source-Labels: gamma=Sony S-Log 3; color=None; key=Neutral; style=Teal - Orange
# LUTr-Note: Preserve this metadata and the upstream license notices when redistributing.
# LUTr-Upstream-Comment: VEGAS Pro LUT
TITLE "SANDY 4K LUT"
LUT_3D_SIZE 5
DOMAIN_MIN 0 0 0
DOMAIN_MAX 1 1 1
-0.06030042 0.00817912 -0.02540345
0.16146803 -0.02488093 -0.05939073
0.61667359 -0.0812635 -0.11476338
0.96438175 -0.12804535 -0.16184929
1.0900825 -0.14436343 -0.1809814
-0.10885633 0.16869549 0.04951658
0.05972747 0.13712244 -0.02441413
0.53405041 0.06355757 -0.1213333
0.91831505 0.00074374 -0.19229196
1.0794623 -0.03229945 -0.22040696
-0.15662585 0.44511491 0.2637468
-0.02099223 0.40713322 0.20824854
0.46931183 0.37534973 0.0323003
0.8774637 0.31536621 -0.12849459
1.0611786 0.28280252 -0.17600803
-0.14709017 0.73830587 0.40507048
-0.02359094 0.71673405 0.37904266
0.38568693 0.70975018 0.29479086
0.80076939 0.69420457 0.21548177
1.0288733 0.67234504 0.17551273
-0.15908602 0.90773529 0.42365342
-0.04176324 0.89953929 0.42451006
0.26583123 0.91773224 0.41509455
0.71767479 0.92199159 0.37000033
0.96738517 0.90959948 0.34267512
-0.07603203 0.07062381 0.20715244
0.13627344 0.0351063 0.1279545
0.60189402 -0.03475916 0.02890902
0.95720673 -0.10064565 -0.04176262
1.0907816 -0.13959314 -0.06351265
-0.10775033 0.15229879 0.15541635
0.04892576 0.12248544 0.08674173
0.52112591 0.05090138 -0.00528375
0.91529274 -0.01155627 -0.07459492
1.0809004 -0.04351673 -0.10230055
-0.15612456 0.42737424 0.36975443
-0.02093381 0.39071524 0.31465104
0.46544537 0.35972655 0.1408383
0.87276721 0.30116588 -0.01321658
1.060166 0.27048308 -0.05642017
-0.14567035 0.72634214 0.51832235
-0.02315744 0.70561576 0.49509659
0.36847869 0.69929236 0.41709012
0.7874828 0.6860007 0.34089252
1.0273154 0.66468966 0.29738981
-0.16003588 0.9028998 0.54836595
-0.04382006 0.89471751 0.55161095
0.24703911 0.9128468 0.54493022
0.70901293 0.91917241 0.49746728
0.96638018 0.90681595 0.46762046
-0.10144385 0.25819099 0.59075385
0.09502935 0.21737278 0.5084334
0.58121449 0.19746831 0.35937232
0.94454455 0.12524934 0.19298626
1.0857774 0.0683046 0.13103932
-0.13438278 0.31140572 0.51062369
0.01741876 0.26722205 0.43853718
0.50714928 0.22940095 0.26618955
0.90572798 0.14413579 0.09930293
1.0779507 0.09238711 0.04463201
-0.15494031 0.41130599 0.47659796
-0.0203633 0.37629384 0.42275146
0.44676349 0.3491455 0.26033655
0.86759251 0.28897589 0.10541391
1.060265 0.25968862 0.06532437
-0.14454901 0.71596408 0.63340425
-0.02346052 0.69554138 0.61342931
0.35001656 0.6901899 0.5421446
0.77653062 0.67847842 0.46648288
1.0249573 0.66082257 0.42382255
-0.1616981 0.89836437 0.67456108
-0.04604249 0.89027619 0.67916042
0.22855644 0.90816724 0.67431134
0.70106065 0.91653717 0.62436855
0.96560931 0.90450209 0.5927946
-0.0841724 0.44322166 0.88295567
0.07475197 0.42128333 0.84799725
0.5642271 0.41615433 0.75441533
0.91570371 0.37858441 0.66013157
1.0698986 0.33799207 0.59733582
-0.11369146 0.51459634 0.83239901
0.0099952 0.48665732 0.80255806
0.48900047 0.46461916 0.67711627
0.8933838 0.42256138 0.54670376
1.0693545 0.38077089 0.47442627
-0.13709606 0.56564873 0.75629574
-0.01765107 0.53077835 0.71543169
0.42998832 0.50079215 0.57743543
0.85503739 0.48808658 0.47538167
1.0517485 0.48857838 0.46580297
-0.1441061 0.70581675 0.7494967
-0.02488255 0.68550664 0.73310316
0.33139646 0.68181401 0.6686148
0.76918167 0.67008907 0.58987319
1.0145169 0.65853804 0.55332893
-0.16390111 0.8941102 0.80185765
-0.04821492 0.88634819 0.80686349
0.21309176 0.90384787 0.8027032
0.69485146 0.91391569 0.75049311
0.96497989 0.9021104 0.71763605
-0.08799652 0.44358477 1.0074395
0.05193191 0.44472489 0.99785262
0.54716831 0.46268868 0.93370521
0.89371002 0.44497871 0.87304062
1.0419769 0.4315674 0.84801447
-0.11571604 0.5563826 0.98642385
0.00366376 0.55209881 0.97653157
0.48064739 0.56550032 0.90749317
0.8635515 0.55035365 0.83888954
1.0290873 0.53856802 0.81716317
-0.13242482 0.65715021 0.94904959
-0.00889109 0.65329987 0.93505377
0.42493263 0.67053014 0.88272381
0.81994891 0.66228187 0.83135635
1.0081112 0.6532166 0.82333368
-0.14448351 0.76019412 0.91437024
-0.02639005 0.7533471 0.91243374
0.30797371 0.77301794 0.89549202
0.74721903 0.77307481 0.84580559
0.98176509 0.76522774 0.82613683
-0.16642898 0.89011246 0.92978752
-0.05021196 0.88269269 0.93421221
0.20172596 0.90000755 0.93005013
0.69025725 0.91142613 0.87612754
0.96490777 0.89969546 0.84224778
