site/assets/luts/freshluts--0000198-paladin.cube
# LUTr-Schema-Version: 2
# LUTr-ID: freshluts--0000198-paladin
# LUTr-Title: Paladin
# LUTr-Collection: Fresh LUTs
# LUTr-Collection-ID: freshluts-community
# LUTr-Source: https://freshluts.com
# LUTr-Retrieved: 2026-07-27
# LUTr-Source-File: submissions-raw/freshluts/cubes/198__Paladin.cube
# LUTr-Source-Format: CUBE
# LUTr-Source-SHA256: 0449eb1638ef7e62a2132c7e518a3c15a4a6cdb93156c71e2f4298123f032589
# LUTr-License: CC0-1.0
# LUTr-License-URL: https://freshluts.com/termsandconditions
# LUTr-License-Basis: site-terms
# LUTr-Transform-Class: creative-look
# LUTr-Tags: creative, freshluts, community, cube, cinematic, blockbuster, teal
# LUTr-Input-Color-Space:
# LUTr-Input-Gamut: unspecified
# LUTr-Input-Transfer: unspecified
# LUTr-Output-Color-Space: srgb
# LUTr-Output-Gamut: rec709
# LUTr-Output-Transfer: srgb
# LUTr-Color-Space-Confidence: camera-profile-input-required
# LUTr-Domain-Normalized: true
# LUTr-Shaper: none
# LUTr-Original-Grid: 33x33x33
# LUTr-Conversion-Grid: 33x33x33
# LUTr-Conversion-Interpolation: none
# LUTr-Conversion-Method: Metadata normalization; numeric LUT samples preserved
# LUTr-Conversion-Tool: LUTr scripts/convert-all-to-cube.mjs 2.0.0
# LUTr-Conversion-Date: 2026-07-28
# LUTr-Asset-URL: https://freshluts.com/luts/198
# LUTr-Author: Cube Frames
# LUTr-Author-URL: https://freshluts.com/users/1308
# LUTr-Attribution: Cube Frames via Fresh LUTs
# LUTr-Source-Labels: gamma=Other; color=Teal; key=Neutral; style=Blockbuster
# LUTr-Note: Preserve this metadata and the upstream license notices when redistributing.
TITLE "Paladin"
LUT_3D_SIZE 5
DOMAIN_MIN 0 0 0
DOMAIN_MAX 1 1 1
0 0 0
0.0126192 0 0
0.160739 0.0101167 0.0216373
0.835187 0 0.000854505
1 0 0
0 0.0160525 0
0.0190738 0.0500191 0.0167697
0.257099 0.0710918 0.0261082
0.918929 0.038056 0
1 0.0588083 0
0 0.18793 0
0 0.327642 0
0.379416 0.375235 0
0.914824 0.398627 0
1 0.487144 0
0 0.819135 0
0 0.889235 0
0.446311 0.89572 0
0.891493 0.882063 0
1 0.901564 0
0 1 0
0 1 0
0.574105 1 0
0.919081 1 0
1 1 0
0 0 0
0.013962 0 0.013962
0.160525 0.00900282 0.061387
0.832639 0 0.0674601
1 0 0.0582742
0 0.0179294 0.0179294
0.0167849 0.0550851 0.0605325
0.277012 0.0739605 0.0967422
0.934279 0.0442969 0.077821
1 0.0704967 0.101411
0 0.224506 0.0471656
0 0.361028 0.0754253
0.41088 0.404273 0.0735637
0.936675 0.428519 0.058793
1 0.520577 0.093843
0 0.842695 0
0 0.90837 0.0265354
0.47245 0.910109 0.0089723
0.901198 0.891493 0
1 0.906386 0
0 1 0.0746014
0 1 0.0863661
0.576822 1 0.0222629
0.918669 1 0
1 1 0
0 0 0.0791485
0.010544 0 0.0986954
0.142535 0.00120546 0.157671
0.793042 0 0.242039
1 0 0.25658
0 0.0137942 0.102144
0.00863661 0.0521248 0.180987
0.278782 0.0669261 0.2907
0.924773 0.0387427 0.326085
1 0.0683299 0.390433
0 0.244938 0.246052
0 0.373114 0.364599
0.419059 0.412314 0.401617
0.936141 0.437064 0.425544
1 0.529015 0.522255
0 0.844907 0.355093
0 0.907317 0.441047
0.469169 0.905684 0.450401
0.893385 0.883894 0.417548
1 0.895811 0.440452
0 1 0.583886
0 1 0.618357
0.548226 1 0.539925
0.905074 1 0.431876
1 1 0.413245
0 0 0.32871
0.0116426 0.0016022 0.416098
0.163653 0 0.62681
0.784619 0 0.786679
1 0 0.808423
0 0.0359197 0.428885
0 0.0656443 0.658015
0.292561 0.0547646 0.905104
0.915434 0.031632 0.91841
1 0.0633707 0.983749
0 0.27805 0.756146
0 0.38117 0.928817
0.423865 0.417044 0.939818
0.932052 0.441627 0.935119
1 0.531548 0.983825
0 0.843626 0.854459
0 0.902174 0.915084
0.457542 0.897063 0.909789
0.881926 0.87274 0.884596
1 0.882185 0.894392
0 1 0.959899
0 1 0.968017
0.513191 1 0.933715
0.889311 0.996139 0.892042
0.998749 0.986267 0.887358
0 0 0.472511
0 0.00730907 0.639429
0.175784 0 0.904906
0.793912 0 1
1 0 1
0 0.0483711 0.662531
0 0.0732891 0.957382
0.320287 0.0561685 1
0.935882 0.0403601 1
1 0.0753643 1
0 0.314336 1
0 0.408713 1
0.452049 0.445045 1
0.949111 0.470619 1
1 0.559152 1
0 0.861814 1
0 0.914092 1
0.47158 0.903944 1
0.885512 0.876219 1
1 0.882521 1
0 1 1
0 1 1
0.507912 1 1
0.886931 0.992203 1
0.994873 0.982498 0.998489
