site/assets/luts/freshluts--0001102-woman-flowers-in-face-in-garden-background.cube
# LUTr-Schema-Version: 2
# LUTr-ID: freshluts--0001102-woman-flowers-in-face-in-garden-background
# LUTr-Title: Woman_Flowers In Face_In Garden Background
# LUTr-Collection: Fresh LUTs
# LUTr-Collection-ID: freshluts-community
# LUTr-Source: https://freshluts.com
# LUTr-Retrieved: 2026-07-27
# LUTr-Source-File: submissions-raw/freshluts/cubes/1102__Woman_FlowersInFace_InGardenBackground.cube
# LUTr-Source-Format: CUBE
# LUTr-Source-SHA256: 49183337080b72da46ec7948da1502d5bb89462661954ba4d6201b0082973c2f
# LUTr-License: CC0-1.0
# LUTr-License-URL: https://freshluts.com/termsandconditions
# LUTr-License-Basis: site-terms
# LUTr-Transform-Class: creative-look
# LUTr-Tags: creative, freshluts, community, cube, low-key, panasonic-v-log
# LUTr-Input-Color-Space:
# LUTr-Input-Gamut: panasonic-v-gamut
# LUTr-Input-Transfer: panasonic-v-log
# LUTr-Output-Color-Space: srgb
# LUTr-Output-Gamut: rec709
# LUTr-Output-Transfer: srgb
# LUTr-Color-Space-Confidence: camera-profile-input-required
# LUTr-Domain-Normalized: true
# LUTr-Shaper: none
# LUTr-Original-Grid: 35x35x35
# LUTr-Conversion-Grid: 35x35x35
# LUTr-Conversion-Interpolation: none
# LUTr-Conversion-Method: Metadata normalization; numeric LUT samples preserved
# LUTr-Conversion-Tool: LUTr scripts/convert-all-to-cube.mjs 2.0.0
# LUTr-Conversion-Date: 2026-07-28
# LUTr-Asset-URL: https://freshluts.com/luts/1102
# LUTr-Author: Camera Head Studios LUTS
# LUTr-Author-URL: https://freshluts.com/users/107973
# LUTr-Attribution: Camera Head Studios LUTS via Fresh LUTs
# LUTr-Source-Labels: gamma=Panasonic V-log; color=None; key=Low Key; style=Cinematic/Dark
# LUTr-Note: Preserve this metadata and the upstream license notices when redistributing.
# LUTr-Upstream-Comment: Created by: Pixelmator Pro
# LUTr-Upstream-Comment: Color profile: "sRGB IEC61966-2.1"
# LUTr-Upstream-Comment: Data domain
# LUTr-Upstream-Comment: LUT size
TITLE "Woman_Flowers In Face_In Garden Background"
LUT_3D_SIZE 5
DOMAIN_MIN 0.000000 0.000000 0.000000
DOMAIN_MAX 0.823529 0.823529 0.823529
0 0 0
0 0 0
0 0 0
0.021 0 0
0.427 0 0
0 0 0
0 0 0
0 0 0
0.137 0.028 0
0.554 0.104 0
0 0.035 0
0.023 0.063 0
0.117 0.117 0
0.308 0.196 0
0.709 0.319 0
0 0.332 0
0.107 0.37 0
0.283 0.436 0
0.5 0.5 0
0.845 0.646 0
0 0.87 0
0.249 0.887 0
0.535 0.913 0
0.804 0.943 0
0.978 0.978 0
0 0 0
0 0 0
0 0 0
0.07 0 0.013
0.476 0 0.083
0 0 0
0 0 0
0.037 0 0
0.223 0.005 0.005
0.668 0.015 0.015
0 0.059 0.021
0.003 0.103 0.003
0.147 0.147 0.009
0.377 0.212 0.015
0.777 0.299 0
0 0.364 0.104
0.015 0.435 0.015
0.279 0.492 0.009
0.54 0.54 0
0.892 0.684 0
0 0.884 0.247
0 0.923 0
0.49 0.943 0
0.82 0.964 0
0.988 0.988 0.013
0 0 0
0 0 0
0 0 0
0.146 0 0.082
0.565 0 0.238
0 0 0
0 0 0.022
0.085 0.001 0.085
0.279 0.01 0.151
0.727 0.012 0.271
0 0.104 0.104
0.008 0.14 0.14
0.185 0.185 0.185
0.523 0.198 0.198
0.861 0.209 0.209
0 0.421 0.273
0.011 0.485 0.274
0.204 0.565 0.204
0.592 0.592 0.214
0.934 0.71 0.273
0 0.908 0.525
0 0.94 0.485
0.319 0.965 0.319
0.811 0.979 0.346
0.994 0.994 0.393
0 0 0
0.005 0 0.028
0.07 0 0.127
0.244 0 0.244
0.667 0 0.451
0 0.018 0.096
0.003 0.003 0.197
0.141 0.008 0.264
0.367 0.015 0.367
0.774 0 0.526
0 0.171 0.274
0.014 0.196 0.349
0.195 0.195 0.515
0.558 0.206 0.558
0.89 0.23 0.626
0 0.486 0.486
0 0.529 0.529
0.211 0.585 0.585
0.641 0.641 0.641
0.972 0.709 0.709
0 0.935 0.789
0 0.959 0.81
0.342 0.977 0.807
0.782 0.992 0.782
0.999 0.999 0.858
0 0 0.324
0.06 0 0.382
0.204 0 0.493
0.424 0 0.634
0.771 0 0.771
0 0.078 0.455
0.015 0.015 0.592
0.248 0.015 0.68
0.514 0.004 0.763
0.86 0 0.86
0 0.29 0.663
0.007 0.285 0.754
0.204 0.204 0.851
0.608 0.221 0.878
0.942 0.282 0.942
0 0.595 0.806
0 0.641 0.864
0.258 0.683 0.921
0.699 0.699 0.968
0.987 0.759 0.987
0 0.97 0.97
0.007 0.983 0.983
0.383 0.992 0.992
0.842 0.998 0.998
1 1 1
