site/assets/luts/freshluts--0001225-yatna-color.cube
# LUTr-Schema-Version: 2
# LUTr-ID: freshluts--0001225-yatna-color
# LUTr-Title: YATNA COLOR
# LUTr-Collection: Fresh LUTs
# LUTr-Collection-ID: freshluts-community
# LUTr-Source: https://freshluts.com
# LUTr-Retrieved: 2026-07-27
# LUTr-Source-File: submissions-raw/freshluts/cubes/1225__Yatna_COLOR.cube
# LUTr-Source-Format: CUBE
# LUTr-Source-SHA256: 7199fecb90a682da24f3f5f2460329a620a375b2c92ae8949d94aed508d7ba55
# LUTr-License: CC0-1.0
# LUTr-License-URL: https://freshluts.com/termsandconditions
# LUTr-License-Basis: site-terms
# LUTr-Transform-Class: creative-look
# LUTr-Tags: creative, freshluts, community, cube, orange, sony-s-log2
# LUTr-Input-Color-Space: sony-slog2-sgamut
# LUTr-Input-Gamut: sony-s-gamut
# LUTr-Input-Transfer: sony-s-log2
# LUTr-Output-Color-Space: srgb
# LUTr-Output-Gamut: rec709
# LUTr-Output-Transfer: srgb
# LUTr-Color-Space-Confidence: inferred-from-source-label
# LUTr-Domain-Normalized: true
# LUTr-Shaper: none
# LUTr-Original-Grid: 33x33x33
# LUTr-Conversion-Grid: 33x33x33
# LUTr-Conversion-Interpolation: none
# LUTr-Conversion-Method: Metadata normalization; numeric LUT samples preserved
# LUTr-Conversion-Tool: LUTr scripts/convert-all-to-cube.mjs 2.0.0
# LUTr-Conversion-Date: 2026-07-28
# LUTr-Asset-URL: https://freshluts.com/luts/1225
# LUTr-Author: Antony Eliezer
# LUTr-Author-URL: https://freshluts.com/users/32961
# LUTr-Attribution: Antony Eliezer via Fresh LUTs
# LUTr-Source-Labels: gamma=Sony S-Log 2; color=Orange; key=Neutral; style=Teal - Orange
# LUTr-Note: Preserve this metadata and the upstream license notices when redistributing.
# LUTr-Upstream-Comment: VEGAS Pro LUT
TITLE "YATNA COLOR"
LUT_3D_SIZE 5
DOMAIN_MIN 0 0 0
DOMAIN_MAX 1 1 1
0.02690452 0.03932709 0.05487014
0.07158451 0.04915904 0.05638349
0.52961797 0.11443761 0.00678304
0.81137079 0.2459259 0.00332445
0.88820314 0.31970492 0.00434642
0.07930975 0.07803153 0.06045093
0.07407617 0.09741732 0.08528046
0.59236634 0.09904338 0.0329643
0.83565539 0.21122755 0.00408701
0.89421982 0.30980811 0.04417554
0.3735536 0.46386871 0.32781708
0.33396846 0.49778157 0.38912547
0.56748801 0.53982705 0.32398483
0.82620507 0.48251444 0.06994834
0.87628287 0.42870218 0.09655517
0.60185599 0.72546321 0.64108247
0.63957578 0.74237585 0.6609444
0.69558197 0.76573521 0.68476063
0.76515979 0.75566739 0.59128147
0.83923638 0.6773392 0.37210548
0.67870009 0.78374922 0.72537243
0.71575123 0.80290532 0.74552625
0.76595217 0.827999 0.77470577
0.79396313 0.83297265 0.75764441
0.87566817 0.81436431 0.66444534
0.0271503 0.04717691 0.07091451
0.04629289 0.05911655 0.08255024
0.51852006 0.14015041 0.07928515
0.80731404 0.26261842 0.01349246
0.8826347 0.31342676 0.01322703
0.10413767 0.0812082 0.09032392
0.07190271 0.11486687 0.13734826
0.56081426 0.1094792 0.14271092
0.81796169 0.24066098 0.15556225
0.8861146 0.31840676 0.17306544
0.34278464 0.45792356 0.39934739
0.26852247 0.46292186 0.41484076
0.55614167 0.54818523 0.43861979
0.8106994 0.49577409 0.25204915
0.85343432 0.49344933 0.29872584
0.56561601 0.70295733 0.64031971
0.6060943 0.71959019 0.65576649
0.6674884 0.74867439 0.67997211
0.76055944 0.75998485 0.62952065
0.8382206 0.68942052 0.45146599
0.6396969 0.75373125 0.71101218
0.68255347 0.77709609 0.73172998
0.73248249 0.805188 0.75965911
0.79589319 0.83719581 0.78056359
0.87510842 0.81944901 0.69630843
0.04985068 0.07775317 0.1016975
0.048391 0.11944471 0.18153745
0.38263845 0.26827753 0.32997477
0.77658397 0.2936455 0.25850829
0.86993426 0.32523912 0.16435005
0.11984966 0.17435488 0.20089632
0.1948072 0.27585128 0.34420508
0.36403495 0.36303425 0.38077882
0.76351559 0.2990604 0.37523064
0.86784261 0.33393678 0.31202212
0.37393382 0.43352368 0.43393484
0.36129272 0.47367641 0.48400846
0.49650869 0.51961744 0.51682562
0.76455808 0.51837975 0.47465456
0.81461132 0.57289147 0.51851058
0.51979488 0.65830499 0.6328063
0.54641253 0.67158026 0.64420891
0.61690032 0.70892018 0.67069632
0.75268716 0.7640838 0.69784194
0.85740882 0.71020252 0.54517341
0.63859129 0.73983073 0.71615148
0.65296268 0.7457419 0.72047126
0.68138146 0.76268393 0.73503906
0.79671621 0.83532643 0.80442953
0.8733151 0.82595217 0.75871241
0.1680731 0.21763466 0.27799988
0.31244782 0.40904227 0.50808638
0.50176102 0.47664309 0.54525328
0.61497235 0.56762284 0.59258264
0.73336685 0.54353321 0.5981673
0.40972242 0.41766581 0.47863874
0.48261133 0.51023543 0.58209127
0.577869 0.55192578 0.60261869
0.62294376 0.58727217 0.60511792
0.71591431 0.59850717 0.63512892
0.51181793 0.54407769 0.58139426
0.52831024 0.59610188 0.63629907
0.60515279 0.62862027 0.66231507
0.6607191 0.64599425 0.64911413
0.74823809 0.64772427 0.66519159
0.58241826 0.69303221 0.70208734
0.59934837 0.70021349 0.7049287
0.62816894 0.70913005 0.71348315
0.71091884 0.72911298 0.72353476
0.82575417 0.72836351 0.69696206
0.68613917 0.78387475 0.78170258
0.70048994 0.78780925 0.78418559
0.71921015 0.79329991 0.78826851
0.7860505 0.81679958 0.81055391
0.86170822 0.81883258 0.80946553
0.60990608 0.63010669 0.72025275
0.62051231 0.63255906 0.72288901
0.64719611 0.63933283 0.7216301
0.68532628 0.64934063 0.69916373
0.71174091 0.67254275 0.70867813
0.62231892 0.65606511 0.73917919
0.63529736 0.66410065 0.74242252
0.66460735 0.67140633 0.74385095
0.70258933 0.67910779 0.7220763
0.72216231 0.69065028 0.71993512
0.63183469 0.69363773 0.75942028
0.64079773 0.69752246 0.76241869
0.68553305 0.71786284 0.77196079
0.72833204 0.72377688 0.75794077
0.74130565 0.73132461 0.74753642
0.62713683 0.73459065 0.772789
0.6401915 0.73858887 0.77768314
0.67315763 0.75485915 0.78900725
0.7617541 0.79348063 0.81496024
0.78321773 0.79430866 0.80134654
0.72276294 0.8291319 0.84774774
0.73625708 0.83082432 0.84914953
0.7536217 0.83609653 0.85358351
0.82370269 0.86058557 0.87123418
0.85111958 0.8735199 0.87528688
