site/assets/luts/freshluts--0000867-sport.cube
# LUTr-Schema-Version: 2
# LUTr-ID: freshluts--0000867-sport
# LUTr-Title: Sport
# LUTr-Collection: Fresh LUTs
# LUTr-Collection-ID: freshluts-community
# LUTr-Source: https://freshluts.com
# LUTr-Retrieved: 2026-07-27
# LUTr-Source-File: submissions-raw/freshluts/cubes/867__Sport.cube
# LUTr-Source-Format: CUBE
# LUTr-Source-SHA256: c91fcc0f8066bb8a0ee62ca9a5bb24989fe2d5f63555723746101a9d6645b787
# LUTr-License: CC0-1.0
# LUTr-License-URL: https://freshluts.com/termsandconditions
# LUTr-License-Basis: site-terms
# LUTr-Transform-Class: creative-look
# LUTr-Tags: creative, freshluts, community, cube, blue, low-key, rec709
# LUTr-Input-Color-Space: rec709
# LUTr-Input-Gamut: rec709
# LUTr-Input-Transfer: rec709
# LUTr-Output-Color-Space: srgb
# LUTr-Output-Gamut: rec709
# LUTr-Output-Transfer: srgb
# LUTr-Color-Space-Confidence: declared-by-source
# LUTr-Domain-Normalized: true
# LUTr-Shaper: none
# LUTr-Original-Grid: 17x17x17
# LUTr-Conversion-Grid: 17x17x17
# LUTr-Conversion-Interpolation: none
# LUTr-Conversion-Method: Metadata normalization; numeric LUT samples preserved
# LUTr-Conversion-Tool: LUTr scripts/convert-all-to-cube.mjs 2.0.0
# LUTr-Conversion-Date: 2026-07-28
# LUTr-Asset-URL: https://freshluts.com/luts/867
# LUTr-Author: Pierre Louis
# LUTr-Author-URL: https://freshluts.com/users/84723
# LUTr-Attribution: Pierre Louis via Fresh LUTs
# LUTr-Source-Labels: gamma=Rec 709; color=Blue; key=Low Key; style=Colorful
# LUTr-Note: Preserve this metadata and the upstream license notices when redistributing.
TITLE "Sport"
LUT_3D_SIZE 17
DOMAIN_MIN 0 0 0
DOMAIN_MAX 1 1 1
0.0421302 0.0421302 0.0421302
0.0947127 0.0348211 0.0495003
0.148135 0.0278782 0.0573434
0.201617 0.0205081 0.066453
0.254658 0.0132448 0.0744945
0.309407 0.0059968 0.0829786
0.36495 0 0.0915541
0.423621 0 0.100847
0.484398 0 0.106813
0.541329 0 0.115648
0.587335 0 0.126665
0.622141 0 0.125734
0.650614 0 0.133608
0.677058 0 0.130602
0.705623 0 0.139254
0.733242 0 0.14226
0.759869 0 0.138949
0.0334936 0.0785077 0.0185397
0.0603342 0.0797894 0.0186923
0.122408 0.0711528 0.013901
0.186175 0.0601205 0.0294499
0.242435 0.0514992 0.0415045
0.297688 0.0436561 0.0518044
0.353582 0.0362097 0.06215
0.411307 0.0287938 0.0718853
0.472724 0.0217899 0.0821698
0.533745 0.0146639 0.0925002
0.582147 0.00814832 0.0999466
0.621881 0.002121 0.105501
0.650767 0 0.108919
0.678218 0 0.112032
0.706096 0 0.11545
0.734081 0 0.119097
0.762112 0 0.122774
0.0247044 0.115099 0
0.0556802 0.114031 0.00556954
0.0787823 0.11783 0
0.132403 0.112932 0
0.203433 0.100877 0
0.270909 0.089128 0.00297551
0.333623 0.0793469 0.0188144
0.394598 0.0708629 0.0330968
0.458122 0.0630961 0.0471046
0.52256 0.0557717 0.0605631
0.575448 0.0493477 0.0707256
0.618601 0.0438697 0.0785534
0.650294 0.0390021 0.0835737
0.678157 0.034699 0.0878767
0.706569 0.0305486 0.0923934
0.735058 0.0265507 0.0969558
0.763729 0.0231174 0.101961
0.0166476 0.15201 0
0.0567941 0.148486 0
0.0682536 0.154299 0
0.0985733 0.157061 0
0.148196 0.154406 0
0.21416 0.145769 0
0.289219 0.133776 0
0.361776 0.12221 0
0.433082 0.11223 0
0.503639 0.10367 0.0185245
0.563561 0.0966659 0.0334783
0.610513 0.0910048 0.044358
0.64596 0.0865492 0.052079
0.674922 0.0827039 0.0580606
0.704311 0.079057 0.0641489
0.733913 0.0760662 0.0706035
0.763424 0.0731823 0.076997
0.009308 0.190051 0
0.0540017 0.185748 0
0.0729992 0.18967 0
0.0869306 0.196628 0
0.121233 0.199329 0
0.169421 0.19852 0
0.232532 0.192828 0
0.307256 0.183124 0
0.388418 0.171603 0
0.469764 0.160479 0
0.540459 0.151629 0
0.593698 0.145418 0.00216678
0.633753 0.14081 0.0131228
0.665034 0.13727 0.0214847
0.696681 0.134936 0.0305028
0.728237 0.133059 0.0396124
0.760006 0.132403 0.0493629
0.00370794 0.229664 0
0.0513008 0.225742 0
0.0798352 0.227405 0
0.0896162 0.235645 0
0.111131 0.242527 0
0.148089 0.245777 0
0.19675 0.246403 0
0.258381 0.243351 0
0.333547 0.236286 0
0.420066 0.226169 0
0.501823 0.216312 0
0.563577 0.209674 0
0.609628 0.205615 0
0.645136 0.203952 0
0.680629 0.203296 0
0.715373 0.203174 0.00665293
0.749676 0.202716 0.0186465
0.000915541 0.273106 0
0.050248 0.269337 0
0.085893 0.269993 0
0.101564 0.27715 0
0.113664 0.286564 0
0.140764 0.29366 0
0.180438 0.297917 0
0.2309 0.300359 0
0.294881 0.300435 0
0.374258 0.296727 0
0.457176 0.291569 0
0.523079 0.287709 0
0.57174 0.285023 0
0.610239 0.283299 0
0.648692 0.281056 0
0.685954 0.277028 0
0.72224 0.272435 0
0.000747692 0.319799 0
0.0523079 0.316869 0
0.0924849 0.31722 0
0.116243 0.323079 0
0.128069 0.334417 0
0.1467 0.345281 0
0.179431 0.354391 0
0.224796 0.362646 0
0.280537 0.368597 0
0.349599 0.371298 0
0.42063 0.370825 0
0.479072 0.367575 0
0.523705 0.363363 0
0.561563 0.358251 0
0.599924 0.350332 0
0.638071 0.341558 0
0.675669 0.33164 0
0.00453193 0.372351 0
0.0583352 0.370962 0
0.10309 0.372442 0
0.136233 0.379767 0
0.154559 0.392447 0
0.169284 0.407065 0
0.193942 0.419699 0
0.230091 0.429496 0
0.276326 0.435859 0
0.331899 0.439033 0
0.387961 0.437537 0
0.436377 0.432197 0
0.476768 0.424949 0
0.51075 0.416159 0
0.546395 0.406516 0
0.58291 0.396262 0
0.620417 0.385504 0
0.0162966 0.436622 0
0.0726635 0.438087 0
0.122042 0.441382 0
0.160449 0.447562 0
0.18407 0.457298 0
0.195773 0.468452 0
0.209461 0.479042 0
0.231937 0.485679 0
0.264973 0.488869 0
0.307942 0.489296 0
0.35523 0.486686 0
0.397452 0.481376 0
0.435843 0.474449 0
0.466621 0.466835 0
0.498283 0.45919 0
0.532082 0.451621 0
0.56759 0.444938 0
0.0324865 0.502602 0
0.0872816 0.501717 0
0.135134 0.501411 0
0.173327 0.502831 0
0.197238 0.505745 0
0.20824 0.511849 0
0.214542 0.51873 0
0.226749 0.524025 0
0.249378 0.527443 0
0.28336 0.528969 0
0.326116 0.528603 0
0.366613 0.526726 0
0.403677 0.523507 0
0.43415 0.521004 0
0.463157 0.520272 0
0.494545 0.520439 0
0.528191 0.523644 0
0.037232 0.548852 0
0.0878309 0.543999 0
0.132799 0.540093 0
0.169131 0.537331 0
0.194568 0.537392 0
0.208301 0.541009 0
0.214252 0.54699 0
0.222431 0.554055 0
0.239506 0.560311 0
0.268086 0.565682 0
0.309438 0.571694 0
0.351934 0.576272 0
0.390082 0.580911 0
0.420996 0.586725 0
0.44947 0.592081 0
0.479698 0.597452 0
0.511193 0.602686 0
0.0278325 0.576761 0
0.0773022 0.571405 0
0.121477 0.567147 0
0.159091 0.564706 0
0.188296 0.565103 0
0.207187 0.568933 0
0.217914 0.576898 0
0.22829 0.588113 0
0.245121 0.59968 0
0.275288 0.612787 0
0.317952 0.625376 0
0.359869 0.634958 0
0.396185 0.642435 0
0.422766 0.647593 0
0.448463 0.651148 0
0.474784 0.653834 0
0.501839 0.655756 0
0.0144808 0.599222 0
0.0649729 0.594293 0
0.111269 0.590951 0
0.15317 0.590555 0
0.188602 0.593774 0
0.215625 0.601251 0
0.234775 0.613764 0
0.250141 0.628977 0
0.269444 0.644892 0
0.298695 0.659998 0
0.337118 0.672419 0
0.371221 0.679835 0
0.400351 0.684855 0
0.423041 0.688197 0
0.446174 0.690898 0
0.47013 0.693217 0
0.495094 0.695262 0
0.00842298 0.626947 0
0.0633707 0.625101 0
0.115877 0.625834 0
0.165087 0.629831 0
0.207172 0.636408 0
0.239841 0.646128 0
0.262623 0.659007 0
0.277577 0.673152 0
0.292119 0.687099 0
0.315221 0.700389 0
0.34609 0.710994 0
0.375586 0.717952 0
0.40145 0.722744 0
0.422126 0.725872 0
0.443793 0.72871 0
0.466621 0.731456 0
0.490166 0.733822 0
0.0209812 0.668055 0
0.0808423 0.669657 0
0.137072 0.672786 0
0.18706 0.676677 0
0.228275 0.681285 0
0.259968 0.688258 0
0.281407 0.697627 0
0.295521 0.709422 0
0.307927 0.722805 0
0.326635 0.735775 0
0.353277 0.746761 0
0.379858 0.754269 0
0.403326 0.759365 0
0.422782 0.763027 0
0.443229 0.766293 0
0.464622 0.769177 0
0.486839 0.771664 0
0.0412909 0.714733 0
0.0988174 0.714595 0
0.151583 0.714931 0
0.198856 0.716213 0
0.239765 0.719356 0
0.271962 0.724712 0
0.295064 0.732799 0
0.310307 0.743938 0
0.322393 0.756863 0
0.33872 0.770443 0
0.362097 0.782238 0
0.385702 0.790188 0
0.406973 0.795682 0
0.424399 0.799146 0
0.443076 0.802319 0
0.463325 0.805646 0
0.484642 0.808789 0
0.0184939 0.048188 0.0809033
0.082948 0.0369116 0.096437
0.135683 0.0299687 0.104173
0.188815 0.0228885 0.11281
0.241749 0.01561 0.121035
0.2963 0.00825513 0.129503
0.351904 0.000961318 0.138262
0.410391 0 0.147539
0.471748 0 0.157488
0.529458 0 0.166659
0.574838 0 0.173129
0.610925 0 0.177951
0.638605 0 0.180758
0.666026 0 0.18352
0.693568 0 0.186389
0.721309 0 0.189609
0.749065 0 0.192844
0.0523232 0.0665904 0.112078
0.0734264 0.0734264 0.0734264
0.126696 0.066331 0.081117
0.179828 0.0590829 0.0886854
0.232944 0.0518807 0.0962692
0.286931 0.044831 0.104173
0.342046 0.037644 0.112261
0.399313 0.0305028 0.120897
0.461112 0.0233005 0.134386
0.521462 0.0167849 0.14049
0.570077 0.0104219 0.147585
0.611063 0.00384527 0.157916
0.639155 0 0.156222
0.667521 0 0.16463
0.694438 0 0.162524
0.723445 0 0.171893
0.751598 0 0.175891
0.00901808 0.113542 0.0866712
0.0647746 0.110155 0.0496986
0.0919051 0.111513 0.0499275
0.154147 0.103166 0.0452125
0.218265 0.0922713 0.0609903
0.275044 0.0839551 0.0740063
0.331914 0.0766613 0.0851453
0.389487 0.0695964 0.0956436
0.450782 0.0626993 0.106737
0.514168 0.056199 0.118303
0.56669 0.0501564 0.127245
0.609522 0.0448615 0.134218
0.641306 0.0403143 0.138872
0.66891 0.0361028 0.142687
0.697154 0.0320745 0.146822
0.725612 0.0284428 0.151247
0.754116 0.0250095 0.155856
0 0.155032 0.037232
0.0569314 0.147341 0.0269169
0.0884413 0.146792 0.0383154
0.111925 0.150988 0.0282902
0.165942 0.146715 0.0135042
0.237507 0.135592 0.0202792
0.307424 0.124346 0.0379492
0.371878 0.115373 0.0549172
0.437018 0.107836 0.0711376
0.50312 0.100832 0.0863813
0.560967 0.0949264 0.0989242
0.606729 0.0900893 0.108278
0.641443 0.0859693 0.114855
0.669825 0.0824598 0.119997
0.698756 0.0793774 0.125887
0.72781 0.076524 0.131792
0.756954 0.073991 0.137667
0 0.193439 0.00680552
0.0502785 0.186053 0.00517281
0.0914321 0.183261 0.0174411
0.103639 0.189929 0.0239414
0.134997 0.193668 0.00936904
0.185336 0.191943 0
0.253941 0.184237 0
0.330922 0.173159 0.00148013
0.407599 0.162325 0.0216526
0.482551 0.15346 0.0431067
0.548394 0.146456 0.0613107
0.598581 0.141329 0.0750286
0.636881 0.137697 0.0847181
0.666911 0.134951 0.0921187
0.697444 0.133135 0.10013
0.72813 0.132052 0.108537
0.759121 0.131991 0.117601
0 0.233295 0
0.0457008 0.226719 0
0.0914473 0.223438 0
0.111559 0.228473 0.0112154
0.126665 0.2365 0.0101778
0.162203 0.240452 0
0.212253 0.24065 0
0.277806 0.236027 0
0.357595 0.227298 0
0.443809 0.216526 0
0.522087 0.207645 0.0159609
0.580362 0.202518 0.0341192
0.623331 0.199588 0.0475776
0.656947 0.198993 0.059144
0.690593 0.199329 0.0704204
0.723735 0.199374 0.0818341
0.756527 0.19942 0.0928817
0 0.276646 0
0.0438392 0.270985 0
0.0924697 0.267918 0
0.122438 0.27068 0
0.133715 0.280171 0.00643931
0.156252 0.288151 0.000747692
0.194949 0.292821 0
0.246921 0.295506 0
0.313832 0.294347 0
0.397726 0.289433 0
0.482856 0.283604 0
0.547723 0.279255 0
0.594842 0.27686 0.00816358
0.631922 0.275517 0.0204471
0.668437 0.272831 0.0319982
0.703746 0.269215 0.04271
0.738003 0.264714 0.0525063
0 0.323629 0
0.0453498 0.318944 0
0.0956893 0.316518 0
0.133455 0.318746 0
0.151446 0.327962 0
0.165698 0.339834 0.00581369
0.196002 0.350408 0
0.240345 0.35877 0
0.297139 0.364736 0
0.368658 0.366491 0
0.442054 0.364248 0
0.502251 0.359701 0
0.54815 0.354482 0
0.586175 0.348058 0
0.624262 0.339727 0
0.66183 0.33051 0
0.698131 0.320333 0
0 0.376486 0
0.0514382 0.373892 0
0.104814 0.373663 0
0.149538 0.377768 0
0.1776 0.387655 0
0.192111 0.401679 0.0122377
0.212345 0.415076 0.0155184
0.24593 0.425177 0.00717174
0.290898 0.430991 0
0.3467 0.4336 0
0.404135 0.430854 0
0.454551 0.424338 0
0.4972 0.415854 0
0.532723 0.406332 0
0.569451 0.396002 0
0.607156 0.385122 0
0.64506 0.374182 0
0.00457771 0.441947 0
0.0661784 0.442023 0
0.121981 0.443259 0
0.169818 0.446876 0
0.202533 0.452628 0
0.218738 0.461875 0.00996414
0.229374 0.472404 0.0175174
0.247654 0.478874 0.011902
0.278721 0.482277 0
0.320851 0.482521 0
0.368704 0.479561 0
0.412436 0.473976 0
0.45272 0.466529 0
0.485039 0.458442 0
0.518135 0.450736 0
0.553353 0.442771 0
0.590158 0.436377 0
0.0204929 0.506996 0
0.0794385 0.50457 0
0.132967 0.502739 0
0.178088 0.500999 0
0.210727 0.500908 0
0.228962 0.504463 0
0.235584 0.510307 0.00030518
0.244404 0.516243 0
0.264103 0.520195 0
0.296437 0.521965 0
0.339254 0.522057 0
0.380499 0.520211 0
0.418662 0.517098 0
0.450584 0.515511 0
0.480415 0.514611 0
0.513008 0.515602 0
0.547784 0.519554 0
0.0240635 0.551888 0
0.0786755 0.545937 0
0.128115 0.540261 0
0.171252 0.535424 0
0.204959 0.532967 0
0.226444 0.534005 0
0.235889 0.538918 0
0.242496 0.546288 0
0.256519 0.553262 0
0.283558 0.55993 0
0.324269 0.566659 0
0.366964 0.571679 0
0.406241 0.577554 0
0.437064 0.583246 0
0.466041 0.588769 0
0.496803 0.594217 0
0.528466 0.598627 0
0.0139925 0.579507 0
0.0672923 0.57319 0
0.116106 0.567727 0
0.159808 0.5635 0
0.196689 0.561761 0
0.223438 0.563546 0
0.24007 0.570367 0
0.251164 0.581476 0
0.266194 0.59443 0
0.294194 0.608682 0
0.335317 0.621775 0
0.376593 0.631601 0
0.412238 0.638804 0
0.438499 0.643702 0
0.46392 0.646845 0
0.490318 0.649302 0
0.517693 0.651118 0
0.00106813 0.602045 0
0.055375 0.596445 0
0.106126 0.592203 0
0.154437 0.590875 0
0.19707 0.592325 0
0.232013 0.598184 0
0.257939 0.609277 0
0.275227 0.623865 0
0.29218 0.64004 0
0.318791 0.655833 0
0.354086 0.667933 0
0.38706 0.675364 0
0.415793 0.680507 0
0.438071 0.683619 0
0.461189 0.68629 0
0.485283 0.688701 0
0.510246 0.690547 0
0 0.630793 0
0.0552529 0.628412 0
0.112947 0.629023 0
0.16733 0.631617 0
0.215839 0.636332 0
0.255985 0.64419 0
0.284443 0.654658 0
0.301534 0.667247 0
0.315145 0.681331 0.000289921
0.334737 0.694881 0.00437934
0.36321 0.705913 0
0.391714 0.713237 0
0.4168 0.717983 0
0.437232 0.721157 0
0.45893 0.724193 0
0.481575 0.726818 0
0.505302 0.72932 0
0.0108492 0.672984 0
0.0743267 0.674205 0
0.133944 0.676112 0
0.18819 0.678248 0
0.235172 0.680964 0
0.273243 0.685649 0
0.301015 0.692943 0
0.318654 0.703609 0
0.331029 0.716442 0.000885023
0.347173 0.729992 0.00740063
0.371359 0.741573 0.00515755
0.396368 0.749249 0
0.419257 0.75462 0
0.438224 0.758282 0
0.458412 0.761593 0
0.479698 0.764584 0
0.501656 0.766873 0
0.0307774 0.719326 0
0.0908522 0.718166 0
0.147158 0.717617 0
0.198764 0.717525 0
0.244999 0.718868 0
0.283711 0.722423 0
0.312856 0.728573 0
0.332723 0.738094 0
0.346075 0.750652 0
0.360082 0.764523 0.0087129
0.380957 0.776715 0.00962844
0.403113 0.785138 0.00541695
0.423178 0.790585 0
0.44007 0.794125 0
0.45861 0.79762 0
0.478569 0.800946 0
0.499916 0.804318 0
0 0.0544594 0.12015
0.0601816 0.0420691 0.143832
0.124361 0.0318914 0.151431
0.177035 0.0248875 0.158526
0.229389 0.017792 0.166644
0.283635 0.0106355 0.175555
0.338872 0.00325017 0.184451
0.397147 0 0.193942
0.458518 0 0.204166
0.516518 0 0.213413
0.562234 0 0.220096
0.598871 0 0.224811
0.626566 0 0.227573
0.654047 0 0.230442
0.68162 0 0.233433
0.709346 0 0.236637
0.737148 0 0.240024
0.0294499 0.0739452 0.137453
0.049836 0.0797742 0.112749
0.114672 0.0682536 0.128267
0.167269 0.0611734 0.135866
0.22034 0.0540932 0.144472
0.274144 0.0468452 0.152956
0.329488 0.0397498 0.161822
0.386755 0.0325475 0.171054
0.447929 0.0256809 0.18114
0.509438 0.0187381 0.191592
0.558419 0.0122835 0.199237
0.598871 0.00637827 0.205097
0.628168 0.00134279 0.208774
0.655589 0 0.212039
0.683543 0 0.215641
0.711604 0 0.219516
0.739742 0 0.223468
0.0625925 0.091249 0.182605
0.0837568 0.098146 0.144015
0.105241 0.105241 0.105241
0.158724 0.0981918 0.113542
0.212238 0.0911727 0.121889
0.265736 0.0846265 0.129015
0.321553 0.0776226 0.139513
0.37847 0.0708782 0.148928
0.439628 0.0643931 0.159609
0.502083 0.0584115 0.167163
0.554894 0.0525673 0.175692
0.598749 0.0468757 0.186892
0.629831 0.0429694 0.186816
0.65745 0.0389105 0.190509
0.686687 0.0343175 0.199847
0.714107 0.0314794 0.198795
0.742626 0.0281987 0.203311
0.0223239 0.135439 0.18349
0.0414893 0.146029 0.119173
0.0975662 0.142947 0.0824903
0.125231 0.144839 0.0832532
0.188159 0.137163 0.0792248
0.252735 0.127031 0.0956436
0.311849 0.119448 0.109361
0.370443 0.113039 0.12163
0.431876 0.106828 0.133791
0.496147 0.100954 0.14638
0.553216 0.0956893 0.157244
0.598398 0.0910506 0.165377
0.633051 0.0874342 0.171511
0.661219 0.0840925 0.176196
0.689937 0.0810864 0.181216
0.718914 0.0786297 0.186694
0.747982 0.0763561 0.192325
0 0.187533 0.133684
0.0287785 0.189242 0.0717937
0.0916152 0.182376 0.0614786
0.124117 0.182727 0.0738231
0.148623 0.187839 0.0646525
0.203449 0.184649 0.0508888
0.277577 0.174319 0.058854
0.349294 0.164065 0.0778668
0.417777 0.156176 0.0968795
0.486336 0.149538 0.114687
0.548516 0.143999 0.129686
0.596933 0.140093 0.140932
0.633951 0.136889 0.149126
0.66334 0.134737 0.155749
0.69337 0.133639 0.16318
0.723507 0.13286 0.170825
0.754177 0.133471 0.179538
0 0.234394 0.0811475
0.0265507 0.23061 0.0436866
0.0880598 0.224094 0.0428779
0.130495 0.222385 0.0563058
0.143893 0.230335 0.0639353
0.176196 0.235004 0.0502785
0.22858 0.234455 0.0346838
0.299916 0.227878 0.032578
0.381186 0.21767 0.0473335
0.46276 0.20798 0.0702068
0.535363 0.201587 0.0923171
0.589334 0.197757 0.108537
0.630152 0.196246 0.121157
0.662211 0.196719 0.131914
0.694331 0.197269 0.142504
0.726238 0.197971 0.152926
0.757839 0.198444 0.162921
0 0.280415 0.044358
0.0266117 0.2748 0.0227207
0.0872206 0.269261 0.0267491
0.134661 0.267247 0.0408026
0.155795 0.273274 0.054963
0.172122 0.282582 0.0553445
0.209537 0.288121 0.0412451
0.263005 0.290394 0.0263523
0.334325 0.287831 0.0202792
0.423041 0.281605 0.0307469
0.507439 0.275181 0.0520333
0.569558 0.271641 0.0716869
0.613779 0.26981 0.0866407
0.648569 0.26865 0.0986191
0.682536 0.266407 0.10927
0.715587 0.263157 0.118975
0.747463 0.258549 0.127199
0 0.328206 0.0180209
0.0300755 0.322988 0.00663767
0.0897688 0.318669 0.0137484
0.14052 0.317357 0.0287022
0.173007 0.32253 0.0459907
0.186572 0.334524 0.0581826
0.212512 0.346273 0.0560616
0.256168 0.355169 0.0442054
0.313756 0.360449 0.0303807
0.388602 0.360922 0.022446
0.465019 0.357 0.0255131
0.526772 0.350683 0.0338598
0.572869 0.344732 0.042649
0.610086 0.337621 0.049836
0.646891 0.329046 0.057084
0.682445 0.319966 0.0642863
0.716686 0.31014 0.0709087
0 0.382086 0
0.0377356 0.378424 0
0.0988785 0.376883 0.00656138
0.154101 0.37879 0.0243381
0.195224 0.384436 0.0438239
0.215991 0.396078 0.0614328
0.232151 0.410361 0.0700694
0.261555 0.420294 0.0632944
0.30544 0.426078 0.0471351
0.361639 0.428016 0.0286412
0.420829 0.42359 0.0137789
0.47396 0.415869 0.00598154
0.518761 0.406241 0.00248722
0.555627 0.395819 0.0009308
0.593683 0.384909 0.00257877
0.631571 0.373678 0.00550851
0.669062 0.362692 0.0101167
0 0.448234 0
0.0536202 0.44712 0
0.115892 0.447166 0.00585946
0.171099 0.447929 0.0225986
0.214389 0.449928 0.0398871
0.240345 0.456031 0.056199
0.250584 0.464897 0.0668803
0.264271 0.471962 0.0651713
0.292363 0.475715 0.0508583
0.333318 0.475608 0.0286717
0.382239 0.472541 0.00636301
0.427649 0.466361 0
0.470237 0.458213 0
0.504494 0.449912 0
0.539101 0.441672 0
0.575525 0.433585 0
0.613809 0.427848 0
0.00108339 0.512688 0
0.0667124 0.508736 0
0.125002 0.505135 0
0.176196 0.50103 0.0108644
0.217823 0.498039 0.023682
0.245304 0.498131 0.0361334
0.256703 0.502129 0.0459144
0.263066 0.508247 0.0496529
0.279133 0.512795 0.041825
0.309651 0.515114 0.0241093
0.352209 0.515496 0.00184634
0.394339 0.513664 0
0.434058 0.511193 0
0.467262 0.50985 0
0.498146 0.509056 0
0.532158 0.511315 0
0.56791 0.514839 0
0.00387579 0.555947 0
0.0653697 0.548669 0
0.1187 0.54165 0
0.167346 0.535088 0
0.208881 0.530327 0
0.23949 0.52871 0.00965896
0.256138 0.53135 0.0202487
0.263706 0.53843 0.0284276
0.274601 0.546334 0.0289616
0.299382 0.554253 0.020737
0.339162 0.561746 0.00605783
0.382422 0.567727 0
0.422187 0.574136 0
0.453132 0.579965 0
0.482582 0.585473 0
0.513787 0.590616 0
0.545937 0.594507 0
0 0.583322 0
0.0533913 0.575936 0
0.10631 0.56936 0
0.155383 0.563912 0
0.19939 0.560281 0
0.234684 0.559808 0
0.260014 0.565057 0.0018616
0.27451 0.57525 0.0164034
0.288212 0.589166 0.0275578
0.313878 0.604791 0.0317388
0.352941 0.618311 0.0259861
0.393057 0.628061 0.018265
0.42826 0.635309 0.0126192
0.453803 0.639536 0.00807202
0.479179 0.642466 0.0021973
0.505882 0.644877 0
0.533379 0.646326 0
0 0.605997 0
0.0420233 0.59939 0
0.0974899 0.594827 0
0.150866 0.592584 0
0.200122 0.592523 0
0.243992 0.597025 0
0.27747 0.605753 0.00430304
0.299596 0.61886 0.0252232
0.316335 0.635218 0.0426032
0.338918 0.651164 0.0502632
0.371069 0.66331 0.0456092
0.403021 0.671077 0.0371557
0.430915 0.675975 0.0286564
0.45301 0.679072 0.0217288
0.476066 0.681895 0.0142519
0.500053 0.684092 0.00674449
0.525277 0.685924 0
0 0.635599 0
0.0443427 0.632944 0
0.106142 0.633082 0
0.16492 0.634607 0
0.219745 0.637995 0
0.266728 0.643519 0
0.302129 0.651392 0.0160525
0.324559 0.661921 0.0349432
0.338476 0.675273 0.0500496
0.355093 0.689326 0.0575113
0.380682 0.700984 0.0542611
0.407553 0.7084 0.0465095
0.43212 0.713405 0.0385138
0.452293 0.71667 0.0316625
0.473686 0.719631 0.024445
0.496452 0.722408 0.0173037
0.520058 0.724758 0.00985733
0 0.679164 0
0.064332 0.679286 0
0.127184 0.680278 0
0.184939 0.680964 0
0.236912 0.681865 0
0.281712 0.684627 0
0.316258 0.689616 0.0163577
0.33991 0.698207 0.0336309
0.35436 0.710338 0.0491493
0.368078 0.724132 0.0587778
0.389548 0.736187 0.0590524
0.413123 0.744381 0.0538796
0.434974 0.749844 0.0471809
0.453483 0.753582 0.0411688
0.473503 0.757092 0.0347448
0.494377 0.759884 0.0272374
0.516228 0.762158 0.0191348
0.0149996 0.724559 0
0.0800641 0.72256 0
0.139086 0.720928 0
0.19443 0.719783 0
0.245869 0.719829 0
0.29041 0.721401 0
0.326406 0.725505 0.0124819
0.352895 0.733211 0.0303655
0.369116 0.744503 0.0467079
0.382254 0.758419 0.0589761
0.400397 0.771282 0.0628214
0.420447 0.779873 0.0598459
0.439429 0.785534 0.0543526
0.455802 0.789303 0.0486458
0.473899 0.792859 0.0424048
0.493721 0.796445 0.0360876
0.515297 0.800275 0.0302129
0 0.0607309 0.15938
0.0316625 0.0498665 0.183764
0.106767 0.0352789 0.200793
0.165515 0.026627 0.20618
0.218158 0.0197452 0.213123
0.271855 0.0126345 0.221042
0.326619 0.00541695 0.229862
0.384527 0 0.239658
0.445548 0 0.249958
0.503914 0 0.259754
0.549844 0 0.266621
0.586786 0 0.271443
0.614649 0 0.274464
0.642039 0 0.277363
0.669627 0 0.28043
0.697444 0 0.283818
0.7252 0 0.287221
0 0.0871138 0.155444
0.0261082 0.0859846 0.151919
0.0919966 0.0734417 0.175738
0.155932 0.0630808 0.183108
0.208606 0.0561074 0.190219
0.261891 0.0491951 0.198703
0.316747 0.0420996 0.207828
0.3738 0.0353552 0.217304
0.434989 0.028275 0.227817
0.496544 0.0212406 0.238376
0.545861 0.0148013 0.24622
0.586755 0.00914015 0.252445
0.616159 0.0039826 0.256092
0.643595 0 0.259495
0.671626 0 0.263294
0.699657 0 0.267094
