site/assets/luts/freshluts--0001164-thats-one-lut.cube
# LUTr-Schema-Version: 2
# LUTr-ID: freshluts--0001164-thats-one-lut
# LUTr-Title: That's one LUT
# LUTr-Collection: Fresh LUTs
# LUTr-Collection-ID: freshluts-community
# LUTr-Source: https://freshluts.com
# LUTr-Retrieved: 2026-07-27
# LUTr-Source-File: submissions-raw/freshluts/cubes/1164__Cool_red_lut_1.C0036.cube
# LUTr-Source-Format: CUBE
# LUTr-Source-SHA256: dadc727a247af454d2a3cd515dbcd746ad967287c373ad1e0db9889da5ac444e
# LUTr-License: CC0-1.0
# LUTr-License-URL: https://freshluts.com/termsandconditions
# LUTr-License-Basis: site-terms
# LUTr-Transform-Class: creative-look
# LUTr-Tags: creative, freshluts, community, cube, red, sony-s-log3
# LUTr-Input-Color-Space: sony-slog3-sgamut3
# LUTr-Input-Gamut: sony-s-gamut3
# LUTr-Input-Transfer: sony-s-log3
# LUTr-Output-Color-Space: srgb
# LUTr-Output-Gamut: rec709
# LUTr-Output-Transfer: srgb
# LUTr-Color-Space-Confidence: inferred-from-source-label
# LUTr-Domain-Normalized: true
# LUTr-Shaper: none
# LUTr-Original-Grid: 33x33x33
# LUTr-Conversion-Grid: 33x33x33
# LUTr-Conversion-Interpolation: none
# LUTr-Conversion-Method: Metadata normalization; numeric LUT samples preserved
# LUTr-Conversion-Tool: LUTr scripts/convert-all-to-cube.mjs 2.0.0
# LUTr-Conversion-Date: 2026-07-28
# LUTr-Asset-URL: https://freshluts.com/luts/1164
# LUTr-Author: lvannoeun@gmail.com
# LUTr-Author-URL: https://freshluts.com/users/57563
# LUTr-Attribution: lvannoeun@gmail.com via Fresh LUTs
# LUTr-Source-Labels: gamma=Sony S-Log 3; color=Red; key=Neutral; style=cine drama
# LUTr-Note: Preserve this metadata and the upstream license notices when redistributing.
TITLE "That's one LUT"
LUT_3D_SIZE 9
DOMAIN_MIN 0 0 0
DOMAIN_MAX 1 1 1
0 0.00976577 0.109941
0.0846571 0 0.149401
0.315618 0 0.106126
0.537835 0 0.0563516
0.704433 0 0.01738
0.879545 0 0
1 0 0
1 0 0
1 0 0
0 0.118456 0.077348
0.03299 0.107729 0.0670024
0.18146 0.0976883 0.0209812
0.449393 0.0546273 0
0.653544 0.0273442 0
0.809934 0.0138247 0
1 0 0
1 0 0
1 0 0
0 0.229191 0.0386053
0.0321355 0.214221 0.0408026
0.175113 0.201007 0.0711986
0.280919 0.211093 0
0.530266 0.182803 0
0.734142 0.159625 0
0.946822 0.136324 0
1 0.118929 0
1 0.106386 0
0 0.339834 0.00410468
0.0399329 0.329412 0.0209201
0.191394 0.317403 0.051606
0.294926 0.328664 0.00283818
0.399451 0.340185 0
0.581888 0.328923 0
0.764492 0.316167 0
1 0.292195 0
1 0.274708 0
0 0.45185 0.00134279
0.0658732 0.449058 0.0199435
0.210269 0.442161 0.0424811
0.348974 0.435798 0.0791333
0.403159 0.470253 0
0.515999 0.476768 0
0.668589 0.471168 0
0.801373 0.469352 0
0.958587 0.465919 0
0 0.565438 0.0191348
0.108278 0.566186 0.0390326
0.241382 0.562783 0.0574044
0.380209 0.556664 0.0885939
0.501152 0.558953 0.0914168
0.519539 0.60557 0
0.628199 0.612467 0
0.755932 0.612573 0
0.867903 0.615396 0
0.0623484 0.669993 0.0638743
0.169482 0.674617 0.0828107
0.282841 0.679072 0.0859541
0.418692 0.674372 0.113405
0.544274 0.671992 0.146334
0.633478 0.692302 0.0578317
0.638224 0.736538 0
0.731884 0.744366 0
0.836255 0.746502 0.0112764
0.10457 0.78674 0.0826276
0.220493 0.786969 0.114855
0.345144 0.784543 0.144045
0.474434 0.780697 0.169314
0.590967 0.780667 0.187915
0.698665 0.783612 0.194675
0.739574 0.820233 0.0555581
0.750439 0.852399 0.0398871
0.828885 0.863554 0.0241398
0.149447 0.898558 0.106371
0.26305 0.897642 0.137453
0.38555 0.893629 0.164935
0.519265 0.885191 0.195712
0.638453 0.879728 0.231861
0.745083 0.877699 0.262287
0.823972 0.893446 0.189746
0.829755 0.935241 0.0656443
0.849149 0.962478 0.0383459
0 0.00151064 0.298848
0.0690776 0 0.377951
0.300649 0 0.353048
0.530175 0 0.289723
0.715953 0 0.22562
0.870604 0 0.177508
1 0 0.144961
1 0 0.1187
1 0 0.0981155
0 0.111498 0.211536
0.00790417 0.106172 0.212604
0.183459 0.0793469 0.255039
0.444327 0.0373083 0.204501
0.66772 0.00740063 0.153628
0.811795 0.000350958 0.1205
1 0 0.0911269
1 0 0.0675975
1 0 0.049836
0 0.227481 0.183917
0 0.223621 0.175891
0.128298 0.212543 0.16408
0.299931 0.200793 0.111101
0.580682 0.158709 0.0486305
0.781811 0.136782 0.032105
0.940383 0.127214 0.0273594
1 0.110018 0.00480659
1 0.0975052 0
0 0.352865 0.142382
0 0.350713 0.130495
0.131212 0.335042 0.135653
0.292241 0.321065 0.170275
0.397482 0.336141 0.0877852
0.624369 0.316182 0
0.837736 0.294804 0
1 0.275502 0
1 0.263111 0
0 0.473793 0.109468
0 0.472313 0.10544
0.145098 0.462318 0.122118
0.315068 0.447105 0.154452
0.42295 0.458839 0.101411
0.515099 0.474342 0.0543374
0.68275 0.466255 0.0198978
0.845396 0.459022 0
1 0.448157 0
0 0.588602 0.10544
0.0393225 0.588006 0.112078
0.177264 0.583261 0.129351
0.339529 0.571267 0.150652
0.477821 0.565118 0.186328
0.531365 0.60032 0.0623484
0.627909 0.611734 0.0460975
0.763317 0.610208 0.0404822
0.888579 0.611032 0.0372015
0.00106813 0.689311 0.140032
0.0987411 0.699001 0.136889
0.222721 0.698955 0.153002
0.373419 0.690806 0.170428
0.513542 0.684062 0.20267
0.629526 0.687739 0.198352
0.644373 0.733837 0.0660258
0.730983 0.745098 0.0599832
0.844602 0.746365 0.0644999
0.0460212 0.805463 0.15555
0.170855 0.803494 0.182193
0.292714 0.802029 0.208316
0.417517 0.802258 0.204211
0.555489 0.794736 0.231281
0.674708 0.791608 0.261265
0.752499 0.813306 0.158495
0.752651 0.854154 0.0854658
0.826703 0.863951 0.0933547
0.0928969 0.916289 0.177203
0.213993 0.913314 0.203769
0.336736 0.908675 0.233936
0.475502 0.898817 0.260884
0.605783 0.891264 0.282292
0.716686 0.888945 0.30016
0.814633 0.892256 0.291707
0.845914 0.926848 0.16144
0.851667 0.956649 0.147097
0 0 0.487526
0.0528572 0 0.56997
0.270848 0 0.58497
0.49897 0 0.525734
0.699168 0 0.45275
0.860624 0 0.387152
1 0 0.354589
1 0 0.328557
1 0 0.308125
0 0.106004 0.383948
0 0.0971389 0.417548
0.166674 0.0649424 0.502419
0.426795 0.0213474 0.472313
0.660319 0 0.403967
0.838346 0 0.341924
1 0 0.301411
1 0 0.277974
1 0 0.260456
0 0.218387 0.325978
0 0.216098 0.32253
0.103014 0.210712 0.323384
0.303151 0.181018 0.367956
0.57879 0.139696 0.316838
0.798489 0.115633 0.270085
0.933684 0.115557 0.242985
1 0.0982071 0.221744
1 0.0854963 0.205829
0 0.346975 0.292943
0 0.350118 0.290471
0.0667124 0.347372 0.282231
0.241352 0.334447 0.268666
0.402075 0.328618 0.231464
0.696239 0.288258 0.146471
0.894087 0.269047 0.136278
1 0.265003 0.140703
1 0.252506 0.123674
0 0.47892 0.261845
0 0.487175 0.253773
0.0545205 0.485832 0.239536
0.251743 0.465217 0.244923
0.416815 0.450874 0.280934
0.510948 0.469474 0.197238
0.707774 0.456138 0.129824
0.925597 0.43653 0.0637217
1 0.424323 0.0443885
0 0.604349 0.238758
0 0.610727 0.228016
0.0918441 0.607858 0.220188
0.268925 0.592279 0.23389
0.440558 0.576669 0.265583
0.551904 0.586984 0.217563
0.625299 0.608957 0.164309
0.772015 0.605509 0.143389
0.914778 0.602747 0.122576
0 0.711589 0.242634
0.0114595 0.724254 0.227619
0.14725 0.721935 0.231159
0.303212 0.712322 0.24654
0.470298 0.698573 0.267582
0.604303 0.692836 0.301839
0.659403 0.725795 0.178973
0.727825 0.743435 0.160632
0.847196 0.743206 0.160067
0 0.825406 0.252995
0.10222 0.823621 0.265644
0.214343 0.827573 0.26511
0.350134 0.822873 0.275074
0.508949 0.81001 0.290761
0.64094 0.802716 0.321569
0.748623 0.806012 0.310079
0.760678 0.848508 0.182712
0.822797 0.863188 0.174563
0.0206302 0.936324 0.26717
0.147219 0.932509 0.283055
0.28014 0.925277 0.305928
0.412604 0.917769 0.325154
0.548775 0.910842 0.320119
0.67808 0.901915 0.346517
0.789654 0.897383 0.372824
0.857923 0.917632 0.273533
0.854551 0.95613 0.198047
0 0 0.660716
0.0372931 0 0.735897
0.229953 0 0.775723
0.447211 0 0.743984
0.63624 0 0.66537
0.848264 0 0.629755
1 0 0.597162
1 0 0.57116
1 0 0.550942
0 0.0945144 0.569787
0 0.0835889 0.624094
0.147509 0.0545357 0.711025
0.38761 0.0124666 0.727962
0.62295 0 0.669047
0.806226 0 0.589899
0.991302 0 0.544656
1 0 0.521324
1 0 0.503944
0 0.208881 0.49015
0 0.209094 0.516884
0.0796674 0.200153 0.557702
0.283314 0.16466 0.653147
0.556558 0.122301 0.623102
0.788327 0.0969711 0.556558
0.958495 0.0899825 0.497276
1 0.0843977 0.46569
1 0.0718853 0.449577
0 0.334386 0.446357
0 0.339284 0.452949
0.0636606 0.338476 0.451987
0.211078 0.332525 0.451621
0.415259 0.304799 0.504631
0.692988 0.26569 0.456184
0.912001 0.243595 0.411978
1 0.241306 0.386816
1 0.237583 0.372732
0 0.469703 0.420645
0 0.479713 0.424674
0.0232547 0.484352 0.422812
0.175418 0.478874 0.410437
0.351232 0.46656 0.393622
0.505882 0.461143 0.370382
0.792645 0.424048 0.274189
0.981003 0.40737 0.266011
1 0.409216 0.281285
0 0.602243 0.402197
0 0.613993 0.399939
0.0125582 0.621942 0.390051
0.163836 0.617731 0.367773
0.365103 0.596429 0.368627
0.534035 0.581064 0.405219
0.617609 0.602152 0.3299
0.786847 0.595132 0.276875
0.97818 0.581796 0.216114
0 0.717891 0.394522
0 0.738766 0.38233
0.0479896 0.74522 0.368887
0.202152 0.739345 0.351736
0.387564 0.721187 0.361089
0.558465 0.704723 0.391089
0.676143 0.708415 0.371557
0.720699 0.73843 0.297932
0.8495 0.736599 0.282597
0 0.839048 0.39501
0.0217136 0.84184 0.395514
0.108598 0.855329 0.372686
0.25864 0.847868 0.36556
0.425635 0.832792 0.376257
0.588144 0.817349 0.394995
0.716518 0.809796 0.427115
0.780285 0.834272 0.323156
0.815717 0.859022 0.291005
0 0.95346 0.399649
0.0615244 0.95259 0.401053
0.196048 0.946441 0.405646
0.317311 0.945296 0.392096
0.467948 0.932387 0.400809
0.62182 0.91722 0.41384
0.748012 0.907942 0.441535
0.847669 0.908476 0.443091
0.868025 0.945068 0.314855
0 0 0.81976
0.0246891 0 0.898878
0.20061 0 0.957916
0.410285 0 0.959777
0.622965 0 0.923201
0.835081 0 0.887419
1 0 0.854765
1 0 0.828779
1 0 0.808743
0 0.0818036 0.710048
0 0.0721294 0.776455
0.132113 0.0501564 0.846723
0.337026 0.0161288 0.890959
0.5552 0 0.866606
0.770611 0 0.833188
0.979431 0 0.802991
1 0 0.779736
1 0 0.762417
0 0.198535 0.663432
0 0.197375 0.704845
0.0742504 0.186755 0.765515
0.262882 0.156024 0.861799
0.512917 0.115908 0.88159
0.747356 0.0886244 0.82948
0.914473 0.0849775 0.747921
1 0.0690166 0.724575
1 0.0567483 0.708446
0 0.322606 0.598047
0 0.329091 0.619577
0.0446021 0.331258 0.649821
0.187137 0.32221 0.6963
0.394903 0.288685 0.79733
0.668162 0.247913 0.778897
0.897108 0.224582 0.717144
1 0.217197 0.666972
1 0.2224 0.631113
0 0.456657 0.57116
0 0.466423 0.583291
0.0316625 0.47219 0.591959
0.172976 0.468864 0.589487
0.324498 0.462181 0.587579
0.513817 0.438025 0.648829
0.784237 0.400458 0.606012
0.996811 0.37969 0.567163
1 0.375387 0.542641
0 0.590677 0.554879
0 0.603494 0.5626
0.00923171 0.612573 0.56585
0.134585 0.614435 0.560021
0.288838 0.608484 0.547219
0.455634 0.599084 0.530587
0.606226 0.593103 0.525093
0.862333 0.564782 0.425696
1 0.547555 0.413306
0 0.711849 0.546319
0 0.733364 0.550423
0.0120699 0.745159 0.547875
0.126009 0.750805 0.533989
0.276677 0.746273 0.508949
0.471641 0.726268 0.501335
0.642542 0.708598 0.534142
0.710933 0.729686 0.475944
0.851713 0.726299 0.437827
0 0.839628 0.551263
0 0.845731 0.55285
0.0420081 0.864958 0.540597
0.157977 0.868727 0.51986
0.314534 0.860227 0.493141
0.496468 0.840391 0.495338
0.664332 0.821408 0.521584
0.780163 0.817685 0.540887
0.807797 0.850935 0.444511
0 0.958312 0.557137
0 0.961669 0.55584
0.116564 0.961212 0.550958
0.207691 0.970581 0.519112
0.364996 0.958175 0.500374
0.530297 0.940154 0.505241
0.687114 0.922713 0.521248
0.807004 0.914153 0.551263
0.885985 0.926131 0.492714
0 0 1
0.0125124 0 1
0.185138 0 1
0.394247 0 1
0.610071 0 1
0.8224 0 1
1 0 1
1 0 1
1 0 1
0 0.0699779 0.908293
0 0.0593271 0.974441
0.12108 0.0366522 1
0.320958 0.00242618 1
0.543191 0 1
0.758755 0 1
0.967712 0 1
1 0 1
1 0 1
0 0.187106 0.809537
0 0.185946 0.842695
0.0795605 0.176928 0.907408
0.248493 0.152483 1
0.467582 0.118685 1
0.689052 0.0923629 1
0.90071 0.0702678 1
1 0.0534066 0.98468
1 0.0411994 0.968444
0 0.310933 0.731701
0 0.319997 0.786633
0.0404364 0.32108 0.833829
0.184283 0.309926 0.898878
0.377493 0.280781 1
0.625086 0.242741 1
0.853742 0.2177 0.985702
1 0.214618 0.917433
1 0.206867 0.890898
0 0.443244 0.704417
0 0.455192 0.731319
0.0368505 0.461784 0.752895
0.157336 0.461326 0.782406
0.299977 0.452445 0.828214
0.496071 0.422538 0.927443
0.759365 0.38265 0.928832
0.975616 0.361944 0.878645
1 0.355489 0.833906
0 0.571756 0.683284
0 0.59057 0.709804
0.026154 0.599237 0.721141
0.144823 0.601892 0.727474
0.287404 0.598276 0.72575
0.43743 0.592279 0.72401
0.602899 0.575433 0.781353
0.848402 0.541924 0.763104
1 0.520333 0.729747
0 0.706065 0.686824
0 0.716976 0.694423
0.0193027 0.734295 0.706447
0.126329 0.740444 0.706508
0.254719 0.740597 0.699077
0.404074 0.734417 0.686595
0.558709 0.726116 0.671931
0.711727 0.715038 0.680217
0.904646 0.701244 0.588724
0 0.834257 0.696818
0 0.840757 0.70042
0.043946 0.854658 0.702983
0.132784 0.864759 0.696559
0.249866 0.866712 0.679667
0.389273 0.86183 0.655985
0.566186 0.844358 0.637842
0.731777 0.825208 0.660517
0.80972 0.836805 0.627726
0 0.954253 0.708278
0 0.958907 0.709194
0.0840925 0.960845 0.706676
0.154604 0.974456 0.690623
0.271489 0.974456 0.665125
0.414603 0.966323 0.634531
0.589014 0.945876 0.62649
0.745052 0.92723 0.648203
0.860304 0.91931 0.678477
0 0 1
0.00137331 0 1
0.171405 0 1
0.377966 0 1
0.597528 0 1
0.810361 0 1
1 0 1
1 0 1
1 0 1
0 0.0580301 1
0 0.0461738 1
0.111162 0.0233921 1
0.306981 0 1
0.529427 0 1
0.747784 0 1
0.956954 0 1
1 0 1
1 0 1
0 0.178546 0.999954
0 0.175982 1
0.0691386 0.165087 1
0.239734 0.140337 1
0.45388 0.106737 1
0.679072 0.0771801 1
0.890852 0.0552071 1
1 0.0384527 1
1 0.0263371 1
0 0.306249 0.904219
0 0.311162 0.935286
0.0516823 0.311376 0.970047
0.191028 0.301411 1
0.366293 0.277668 1
0.584588 0.245579 1
0.800214 0.221317 1
0.99295 0.204303 1
1 0.191974 1
0 0.435401 0.836332
0 0.443732 0.85156
0.0394141 0.453239 0.904601
0.153826 0.452003 0.958404
0.298146 0.441047 1
0.483619 0.414206 1
0.71989 0.378119 1
0.931441 0.356847 1
1 0.348501 1
0 0.56643 0.817868
0 0.574228 0.82414
0.0395361 0.588693 0.861311
0.151446 0.592035 0.880705
0.274754 0.591104 0.908843
0.41323 0.58381 0.953292
0.591134 0.559792 1
0.826001 0.5243 1
1 0.503929 1
0 0.699397 0.82005
0 0.706828 0.824598
0.0426795 0.720913 0.843732
0.143313 0.727718 0.854826
0.26598 0.728161 0.859403
0.403326 0.724193 0.858061
0.545693 0.717998 0.855802
0.681559 0.708965 0.891417
0.889952 0.67866 0.915053
0 0.828412 0.831754
0 0.834897 0.835401
0.074464 0.83888 0.836469
0.141421 0.853513 0.846693
0.253452 0.855299 0.843336
0.376699 0.853346 0.835492
0.516869 0.845975 0.822583
0.653635 0.83859 0.810758
0.792996 0.828946 0.804654
0 0.948379 0.845029
0 0.952865 0.84683
0.0765698 0.954818 0.845762
0.162661 0.962173 0.843076
0.256229 0.967193 0.833524
0.36817 0.966613 0.817411
0.496559 0.960922 0.796582
0.641443 0.949599 0.776867
0.796155 0.93228 0.782803
0 0 1
0 0 1
0.160693 0 1
0.364645 0 1
0.58526 0 1
0.80061 0 1
1 0 1
1 0 1
1 0 1
0 0.0476234 1
0 0.0350042 1
0.103212 0.0122835 1
0.296422 0 1
0.51693 0 1
0.738979 0 1
0.947906 0 1
1 0 1
1 0 1
0 0.170947 1
0 0.167193 1
0.061326 0.155169 1
0.233005 0.130358 1
0.443549 0.0972305 1
0.669383 0.0656596 1
0.883314 0.0425269 1
1 0.025864 1
1 0.0137636 1
0 0.302495 1
0 0.305943 1
0.0396124 0.304738 1
0.183246 0.292515 1
0.360174 0.268101 1
0.573816 0.236057 1
0.792325 0.208667 1
0.985016 0.191714 1
1 0.1794 1
0 0.434592 0.987976
0 0.442573 1
0.039704 0.447272 1
0.167346 0.443961 1
0.307881 0.434211 1
0.477058 0.412375 1
0.684962 0.382712 1
0.882338 0.36289 1
1 0.350484 1
0 0.564263 0.946822
0 0.572366 0.956237
0.0639963 0.578851 0.967178
0.154467 0.585489 1
0.272068 0.583932 1
0.412818 0.574472 1
0.584527 0.551644 1
0.794354 0.520699 1
0.991608 0.500252 1
0 0.695354 0.941222
0 0.702846 0.946197
0.0758221 0.708354 0.94905
0.156588 0.718868 0.980346
0.273396 0.719646 0.996872
0.393668 0.717968 1
0.522683 0.711238 1
0.671595 0.694667 1
0.87129 0.662715 1
0 0.82298 0.951843
0 0.829297 0.955489
0.0770123 0.833234 0.956298
0.164691 0.841199 0.968505
0.269139 0.843839 0.976211
0.387137 0.842084 0.978866
0.516472 0.836622 0.976135
0.642924 0.831006 0.974411
0.759747 0.824964 0.996368
0 0.942931 0.966125
0 0.947311 0.967788
0.0754253 0.949172 0.966613
0.194263 0.946822 0.960662
0.265248 0.956634 0.967605
0.374121 0.955596 0.962585
0.49189 0.951553 0.954665
0.617182 0.945022 0.943755
0.739055 0.938964 0.933822
0 0 1
0 0 1
0.152422 0 1
0.354116 0 1
0.574182 0 1
0.79263 0 1
0.999329 0 1
1 0 1
1 0 1
0 0.0388037 1
0 0.0257267 1
0.09691 0.00315862 1
0.28867 0 1
0.507057 0 1
0.7308 0 1
0.941482 0 1
1 0 1
1 0 1
0 0.164492 1
0 0.159869 1
0.0554818 0.147158 1
0.228397 0.122225 1
0.436072 0.0896468 1
0.66038 0.0573739 1
0.877531 0.0320745 1
1 0.0155337 1
1 0.00334173 1
0 0.29897 1
0 0.301442 1
0.0307469 0.299046 1
0.177966 0.285191 1
0.355978 0.260395 1
0.565988 0.22858 1
0.784466 0.199374 1
0.979431 0.18117 1
1 0.169009 1
0 0.434333 1
0 0.441337 1
0.0250706 0.444343 1
0.157183 0.439246 1
0.301595 0.427283 1
0.473182 0.404532 1
0.676997 0.375097 1
0.876112 0.352743 1
1 0.33994 1
0 0.564218 1
0 0.57258 1
0.0449073 0.579019 1
0.160159 0.58056 1
0.289158 0.577203 1
0.422293 0.568582 1
0.583154 0.54995 1
0.766155 0.52639 1
0.945281 0.508476 1
0 0.69366 1
0 0.701488 1
0.0674144 0.707347 1
0.184665 0.709499 1
0.275059 0.714488 1
0.3906 0.712093 1
0.522133 0.70312 1
0.668635 0.685756 1
0.847913 0.658839 1
0 0.819806 1
0 0.826078 1
0.0766003 0.829923 1
0.19646 0.829618 1
0.280949 0.835889 1
0.393301 0.83447 1
0.507439 0.830976 1
0.621103 0.825422 1
0.747295 0.813565 1
0 0.938216 1
0 0.942428 1
0.0780652 0.944152 1
0.196338 0.941695 1
0.281758 0.946502 1
0.388174 0.945159 1
0.500694 0.941573 1
0.616693 0.936767 1
0.729732 0.932311 1
