site/assets/luts/freshluts--0000134-s-log-to-rec709-contrasty.cube
# LUTr-Schema-Version: 2
# LUTr-ID: freshluts--0000134-s-log-to-rec709-contrasty
# LUTr-Title: S-Log to Rec709 - Contrasty
# LUTr-Collection: Fresh LUTs
# LUTr-Collection-ID: freshluts-community
# LUTr-Source: https://freshluts.com
# LUTr-Retrieved: 2026-07-27
# LUTr-Source-File: submissions-raw/freshluts/cubes/134__S-Log_to_Rec_709_-_Contrasty.cube
# LUTr-Source-Format: CUBE
# LUTr-Source-SHA256: 53fb78d952a8813a25c9410a78caf0a9c50cf24892e661686f68e84679722326
# LUTr-License: CC0-1.0
# LUTr-License-URL: https://freshluts.com/termsandconditions
# LUTr-License-Basis: site-terms
# LUTr-Transform-Class: creative-look
# LUTr-Tags: creative, freshluts, community, cube, high-contrast, sony-s-log1
# LUTr-Input-Color-Space:
# LUTr-Input-Gamut: sony-s-gamut
# LUTr-Input-Transfer: sony-s-log1
# LUTr-Output-Color-Space: srgb
# LUTr-Output-Gamut: rec709
# LUTr-Output-Transfer: srgb
# LUTr-Color-Space-Confidence: camera-profile-input-required
# LUTr-Domain-Normalized: true
# LUTr-Shaper: none
# LUTr-Original-Grid: 33x33x33
# LUTr-Conversion-Grid: 33x33x33
# LUTr-Conversion-Interpolation: none
# LUTr-Conversion-Method: Metadata normalization; numeric LUT samples preserved
# LUTr-Conversion-Tool: LUTr scripts/convert-all-to-cube.mjs 2.0.0
# LUTr-Conversion-Date: 2026-07-28
# LUTr-Asset-URL: https://freshluts.com/luts/134
# LUTr-Author: Alex Jordan
# LUTr-Author-URL: https://freshluts.com/users/1
# LUTr-Attribution: Alex Jordan via Fresh LUTs
# LUTr-Source-Labels: gamma=Sony S-Log; color=None; key=Neutral; style=High contrast
# LUTr-Note: Preserve this metadata and the upstream license notices when redistributing.
TITLE "S-Log to Rec709 - Contrasty"
LUT_3D_SIZE 5
DOMAIN_MIN 0 0 0
DOMAIN_MAX 1 1 1
0 0 0
0 0 0
0 0 0
0 0 0
0 0 0
0 0 0
0 0 0
0.0626078 0.0308995 0.000839246
0.243229 0.0479591 0
0.69276 0 0
0 0.157366 0
0.0577707 0.216297 0
0.255528 0.255512 0
0.771893 0.229877 0
1 0.245045 0
0 0.660471 0
0 0.807065 0
0.23006 0.89131 0
0.865385 0.86537 0
1 0.832197 0
0 1 0
0 1 0
0.242496 1 0
0.758038 1 0
1 1 0
0 0 0
0 0 0
0 0 0
0 0 0
0 0 0
0 0 0
0.0043183 0.0043183 0.0043183
0.0821088 0.0390326 0.0390326
0.302312 0.0444343 0.0444343
0.761578 0 0
0 0.173571 0.0610056
0.0533303 0.22948 0.0533303
0.265095 0.265095 0.0380255
0.808164 0.243488 0
1 0.267323 0
0 0.698955 0
0 0.835996 0
0.24625 0.904784 0
0.875395 0.875395 0
1 0.842573 0
0 1 0
0 1 0
0.256931 1 0
0.764752 1 0
1 1 0
0 0 0
0 0 0
0 0 0
0 0 0
0 0 0
0 0 0
0.0136263 0.0136263 0.0263066
0.101076 0.0459449 0.101076
0.367941 0.0368963 0.142214
0.828916 0 0.145205
0 0.1879 0.1879
0.0477455 0.239445 0.239445
0.273243 0.273243 0.273243
0.848417 0.261402 0.261402
1 0.285924 0.285924
0 0.739849 0.132036
0 0.858351 0.205661
0.261997 0.915618 0.261997
0.883787 0.883787 0.257298
1 0.852399 0.275319
0 1 0.136217
0 1 0.219242
0.271077 1 0.271077
0.769589 1 0.283055
1 1 0.273411
0 0 0
0 0 0
0 0 0
0 0 0
0.0319219 0.000030518 0.0228122
0 0 0
0.0222782 0.0222782 0.0712749
0.116991 0.049836 0.209949
0.410529 0.0210269 0.410529
0.875013 0 0.541939
0 0.188266 0.522286
0.0276951 0.231235 0.682826
0.263798 0.263798 0.7906
0.868482 0.262837 0.868482
1 0.279469 0.929458
0 0.754772 0.754757
0 0.852888 0.852872
0.257618 0.902449 0.902449
0.87219 0.87219 0.87219
1 0.844358 0.844358
0 1 0.707805
0 1 0.752224
0.272419 1 0.78027
0.758175 1 0.758175
1 1 0.686473
0 0 0
0 0 0
0 0 0
0 0 0
0.0719158 0 0.0719158
0 0 0
0.0293126 0.0293126 0.147097
0.122377 0.0427558 0.480034
0.446159 0.00459297 0.712215
0.917144 0 0.917144
0 0.189273 0.852567
0.0131228 0.225544 1
0.25922 0.259236 1
0.888914 0.268894 1
1 0.272877 1
0 0.764813 1
0 0.844282 1
0.254932 0.887831 1
0.859342 0.859342 1
1 0.833509 1
0 1 1
0 1 1
0.268177 1 1
0.731853 1 1
1 1 1
