site/assets/luts/freshluts--0000680-gdlut.cube
# LUTr-Schema-Version: 2
# LUTr-ID: freshluts--0000680-gdlut
# LUTr-Title: GD.lut
# LUTr-Collection: Fresh LUTs
# LUTr-Collection-ID: freshluts-community
# LUTr-Source: https://freshluts.com
# LUTr-Retrieved: 2026-07-27
# LUTr-Source-File: submissions-raw/freshluts/cubes/680__15.12.20_1.A011_10160117_C115.cube
# LUTr-Source-Format: CUBE
# LUTr-Source-SHA256: ff7c0e2de3a834f9486794bb49d8fc8ff2d441e970da0eebca932747f24d6b5a
# LUTr-License: CC0-1.0
# LUTr-License-URL: https://freshluts.com/termsandconditions
# LUTr-License-Basis: site-terms
# LUTr-Transform-Class: creative-look
# LUTr-Tags: creative, freshluts, community, cube, yellow, high-key, rec709
# LUTr-Input-Color-Space: rec709
# LUTr-Input-Gamut: rec709
# LUTr-Input-Transfer: rec709
# LUTr-Output-Color-Space: srgb
# LUTr-Output-Gamut: rec709
# LUTr-Output-Transfer: srgb
# LUTr-Color-Space-Confidence: declared-by-source
# LUTr-Domain-Normalized: true
# LUTr-Shaper: none
# LUTr-Original-Grid: 33x33x33
# LUTr-Conversion-Grid: 33x33x33
# LUTr-Conversion-Interpolation: none
# LUTr-Conversion-Method: Metadata normalization; numeric LUT samples preserved
# LUTr-Conversion-Tool: LUTr scripts/convert-all-to-cube.mjs 2.0.0
# LUTr-Conversion-Date: 2026-07-28
# LUTr-Asset-URL: https://freshluts.com/luts/680
# LUTr-Author: lvannoeun@gmail.com
# LUTr-Author-URL: https://freshluts.com/users/57563
# LUTr-Attribution: lvannoeun@gmail.com via Fresh LUTs
# LUTr-Source-Labels: gamma=Rec 709; color=Yellow; key=High Key; style=Colorful
# LUTr-Note: Preserve this metadata and the upstream license notices when redistributing.
TITLE "GD.lut"
LUT_3D_SIZE 5
DOMAIN_MIN 0 0 0
DOMAIN_MAX 1 1 1
0 0.00807202 0
0.281178 0 0
0.505592 0.00424201 0
0.664775 0.0283665 0
0.813672 0.0551919 0.00189212
0 0.257115 0
0.27097 0.250523 0
0.572076 0.228733 0
0.777859 0.233845 0.0778363
0.928695 0.256123 0.149157
0.00787366 0.502617 0
0.271565 0.499596 0
0.519844 0.498466 0
0.762387 0.493156 0.0311437
0.988602 0.487083 0.161486
0.0816968 0.722515 0.031693
0.304463 0.733043 0.00756847
0.534691 0.73756 0.0209659
0.751766 0.742718 0.066865
0.945449 0.753216 0.12874
0.161822 0.940185 0.116091
0.378805 0.949584 0.120165
0.582712 0.962768 0.125261
0.786175 0.973907 0.151919
0.981857 0.98851 0.167224
0 0.00959792 0.177569
0.264637 0.00309758 0.176242
0.514672 0.0031281 0.175738
0.702342 0.0214542 0.177844
0.833402 0.0553597 0.192203
0 0.257191 0.186236
0.268742 0.250813 0.186664
0.537301 0.243641 0.20296
0.756344 0.253834 0.19324
0.913298 0.278538 0.222446
0 0.506966 0.185107
0.267796 0.502083 0.176898
0.522377 0.500725 0.176761
0.81387 0.481987 0.240208
1 0.486702 0.321798
0.0518807 0.737728 0.218799
0.275349 0.748806 0.187076
0.520821 0.750561 0.183169
0.761257 0.751568 0.201266
0.992309 0.750454 0.268116
0.157626 0.947967 0.301228
0.345006 0.969894 0.268406
0.553765 0.98378 0.252399
0.776028 0.990539 0.267033
0.98909 0.996994 0.311818
0 0.0103761 0.420951
0.265263 0.00376898 0.417746
0.513558 0.00471504 0.413367
0.714397 0.0207675 0.399145
0.854963 0.0544594 0.387625
0 0.258183 0.427176
0.270359 0.25243 0.415763
0.524254 0.25069 0.421607
0.766308 0.252934 0.422812
0.950378 0.272145 0.426596
0.00102235 0.507378 0.423835
0.27039 0.502083 0.419257
0.520562 0.501442 0.425116
0.788296 0.493187 0.454597
0.999359 0.50631 0.439338
0.0450294 0.743328 0.433387
0.266529 0.753658 0.415076
0.517189 0.753719 0.412497
0.763821 0.754513 0.414527
1 0.739651 0.4701
0.145586 0.958404 0.48336
0.314565 0.986023 0.448203
0.52459 1 0.423621
0.761486 1 0.421378
0.996918 1 0.441184
0 0.0151217 0.607507
0.258518 0.00933852 0.632334
0.499214 0.0125124 0.628397
0.699702 0.0295872 0.604944
0.855909 0.0599222 0.580682
0.00917067 0.257939 0.644205
0.270741 0.252934 0.659678
0.524666 0.251682 0.660563
0.765576 0.254627 0.658198
0.962585 0.271595 0.646097
0.0204776 0.504234 0.64773
0.268193 0.503868 0.658015
0.522438 0.50338 0.650416
0.768399 0.503716 0.658885
1 0.507027 0.661891
0.0660258 0.740551 0.649195
0.267674 0.75462 0.652171
0.519997 0.753887 0.652537
0.762966 0.755138 0.660899
1 0.74548 0.700694
0.15259 0.962112 0.675975
0.304829 0.992767 0.660105
0.514687 1 0.646967
0.757229 1 0.645838
0.999084 1 0.649348
0.0091249 0.0251316 0.724254
0.243153 0.0252995 0.769451
0.467781 0.0313268 0.784482
0.668605 0.047013 0.773907
0.839582 0.0723583 0.755627
0.0406806 0.258885 0.792142
0.27361 0.257862 0.852506
0.518273 0.257145 0.875212
0.751965 0.262287 0.872435
0.948669 0.280293 0.851011
0.064622 0.498451 0.824994
0.276616 0.504219 0.879667
0.523033 0.503853 0.893858
0.769574 0.504646 0.8963
1 0.508644 0.896117
0.107271 0.734218 0.840375
0.282017 0.752667 0.879194
0.517815 0.755856 0.889494
0.764645 0.757458 0.882933
1 0.759579 0.892958
0.177859 0.960906 0.863493
0.321965 0.990951 0.877714
0.515389 1 0.882124
0.759411 1 0.884153
0.999466 1 0.894362
