site/assets/luts/freshluts--0002162-picturefx-vintage-kodachrome-1936-fg.cube
# LUTr-Schema-Version: 2
# LUTr-ID: freshluts--0002162-picturefx-vintage-kodachrome-1936-fg
# LUTr-Title: PictureFX Vintage Kodachrome 1936 FG
# LUTr-Collection: Fresh LUTs
# LUTr-Collection-ID: freshluts-community
# LUTr-Source: https://freshluts.com
# LUTr-Retrieved: 2026-07-27
# LUTr-Source-File: submissions-raw/freshluts/cubes/2162__PictureFX_Vintage_Kodachrome_1936_FG_125.cube
# LUTr-Source-Format: CUBE
# LUTr-Source-SHA256: f0a3073420b29566682744c6083b493112a20ca202ff01702b3ec93313bab49b
# LUTr-License: CC0-1.0
# LUTr-License-URL: https://freshluts.com/termsandconditions
# LUTr-License-Basis: site-terms
# LUTr-Transform-Class: creative-look
# LUTr-Tags: creative, freshluts, community, cube, film-emulation, warm, vintage, rec709, assumed-input
# LUTr-Input-Color-Space: rec709
# LUTr-Input-Gamut: rec709
# LUTr-Input-Transfer: rec709
# LUTr-Output-Color-Space: srgb
# LUTr-Output-Gamut: rec709
# LUTr-Output-Transfer: srgb
# LUTr-Color-Space-Confidence: assumed-display-referred
# LUTr-Domain-Normalized: true
# LUTr-Shaper: none
# LUTr-Original-Grid: 25x25x25
# LUTr-Conversion-Grid: 25x25x25
# LUTr-Conversion-Interpolation: none
# LUTr-Conversion-Method: Metadata normalization; numeric LUT samples preserved
# LUTr-Conversion-Tool: LUTr scripts/convert-all-to-cube.mjs 2.0.0
# LUTr-Conversion-Date: 2026-07-28
# LUTr-Asset-URL: https://freshluts.com/luts/2162
# LUTr-Author: MarcR.
# LUTr-Author-URL: https://freshluts.com/users/86490
# LUTr-Attribution: MarcR. via Fresh LUTs
# LUTr-Source-Labels: gamma=Other; color=Warm; key=Neutral; style=Film emulation; LUTr assumption=input Rec.709 per repository policy
# LUTr-Conversion-Warning: Input Rec.709 is a LUTr catalog assumption requested for this otherwise unspecified Fresh LUT; it is not verified by the upstream asset.
# LUTr-Note: Preserve this metadata and the upstream license notices when redistributing.
# LUTr-Upstream-Comment: Generated with IWLTBAP LUT Generator
# LUTr-Upstream-Comment: Website: http://luts.iwltbap.com
# LUTr-Upstream-Comment: LUT size
# LUTr-Upstream-Comment: LUT data points
TITLE "PictureFX Vintage Kodachrome 1936 FG"
LUT_3D_SIZE 5
DOMAIN_MIN 0 0 0
DOMAIN_MAX 1 1 1
0 0 0
0 0 0
0.266667 0 0
0.847059 0 0
1 0 0
0 0.015686 0
0.015686 0.019608 0
0.32549 0.094118 0
0.866667 0 0
1 0 0
0 0.458824 0
0 0.466667 0
0.443137 0.478431 0
0.882353 0.490196 0
1 0.47451 0
0 0.894118 0
0 0.894118 0
0.360784 0.886275 0
0.847059 0.870588 0
1 0.843137 0
0 1 0
0 1 0
0.411765 1 0
0.788235 1 0
1 1 0
0 0 0.015686
0.015686 0 0.015686
0.301961 0 0.090196
0.87451 0 0
1 0 0
0 0.019608 0.019608
0.015686 0.019608 0.019608
0.376471 0 0
0.894118 0 0
1 0 0
0 0.470588 0
0 0.47451 0
0.454902 0.482353 0
0.901961 0.466667 0
1 0.443137 0
0 0.898039 0
0 0.894118 0
0.34902 0.886275 0
0.854902 0.870588 0
1 0.835294 0
0 1 0
0 1 0
0.439216 1 0
0.796078 1 0
1 1 0
0 0 0.47451
0.098039 0 0.478431
0.435294 0 0.494118
0.886275 0 0.545098
1 0 0.509804
0 0.05098 0.490196
0 0 0.494118
0.462745 0 0.513725
0.921569 0 0.529412
1 0 0.505882
0 0.486275 0.541176
0 0.490196 0.545098
0.45098 0.482353 0.545098
0.909804 0.447059 0.529412
1 0.443137 0.52549
0 0.898039 0.533333
0 0.894118 0.533333
0.333333 0.886275 0.533333
0.843137 0.870588 0.529412
1 0.839216 0.537255
0 1 0.603922
0 1 0.603922
0.458824 1 0.607843
0.780392 1 0.615686
1 1 0.627451
0 0 0.937255
0 0 0.941176
0.443137 0 0.952941
0.882353 0 0.968627
1 0 0.964706
0 0 0.913725
0 0 0.945098
0.435294 0 0.960784
0.898039 0 0.976471
1 0 0.968627
0 0.466667 0.976471
0 0.470588 0.976471
0.4 0.466667 0.980392
0.87451 0.447059 0.988235
1 0.458824 0.968627
0 0.890196 0.988235
0 0.886275 0.988235
0.239216 0.878431 0.988235
0.807843 0.866667 0.988235
1 0.854902 0.976471
0 1 0.960784
0 1 0.964706
0.54902 1 0.980392
0.8 1 1
0.956863 1 1
0 0 0.996078
0.223529 0 1
0.513725 0 1
0.827451 0 1
1 0 1
0 0 1
0.160784 0 1
0.501961 0 1
0.843137 0 1
1 0 1
0 0.47451 1
0 0.47451 1
0.458824 0.470588 1
0.819608 0.47451 1
1 0.501961 1
0 0.831373 1
0 0.831373 1
0.482353 0.839216 1
0.796078 0.858824 1
0.980392 0.870588 1
0.184314 1 1
0.372549 1 1
0.639216 1 1
0.858824 1 1
0.937255 1 1
