site/assets/luts/freshluts--0001252-san-lut.cube
# LUTr-Schema-Version: 2
# LUTr-ID: freshluts--0001252-san-lut
# LUTr-Title: SAN LUT
# LUTr-Collection: Fresh LUTs
# LUTr-Collection-ID: freshluts-community
# LUTr-Source: https://freshluts.com
# LUTr-Retrieved: 2026-07-27
# LUTr-Source-File: submissions-raw/freshluts/cubes/1252__SAN_LUT.cube
# LUTr-Source-Format: CUBE
# LUTr-Source-SHA256: 30ea07879c2820e8dfb9e4d3318a13a907e7d0941659207863793824442e79eb
# LUTr-License: CC0-1.0
# LUTr-License-URL: https://freshluts.com/termsandconditions
# LUTr-License-Basis: site-terms
# LUTr-Transform-Class: creative-look
# LUTr-Tags: creative, freshluts, community, cube, sony-s-log3
# LUTr-Input-Color-Space:
# LUTr-Input-Gamut: sony-s-gamut3
# LUTr-Input-Transfer: sony-s-log3
# LUTr-Output-Color-Space: srgb
# LUTr-Output-Gamut: rec709
# LUTr-Output-Transfer: srgb
# LUTr-Color-Space-Confidence: camera-profile-input-required
# LUTr-Domain-Normalized: true
# LUTr-Shaper: none
# LUTr-Original-Grid: 33x33x33
# LUTr-Conversion-Grid: 33x33x33
# LUTr-Conversion-Interpolation: none
# LUTr-Conversion-Method: Metadata normalization; numeric LUT samples preserved
# LUTr-Conversion-Tool: LUTr scripts/convert-all-to-cube.mjs 2.0.0
# LUTr-Conversion-Date: 2026-07-28
# LUTr-Asset-URL: https://freshluts.com/luts/1252
# LUTr-Author: Antony Eliezer
# LUTr-Author-URL: https://freshluts.com/users/32961
# LUTr-Attribution: Antony Eliezer via Fresh LUTs
# LUTr-Source-Labels: gamma=Sony S-Log 3; color=None; key=Neutral; style=Teal - Orange
# LUTr-Note: Preserve this metadata and the upstream license notices when redistributing.
# LUTr-Upstream-Comment: VEGAS Pro LUT
TITLE "SAN LUT"
LUT_3D_SIZE 33
DOMAIN_MIN 0 0 0
DOMAIN_MAX 1 1 1
0.09412502 0.07135916 0.06501074
0.09689726 0.07100993 0.06455053
0.10091738 0.07059675 0.06401335
0.10525945 0.0700792 0.06346088
0.11043032 0.0694951 0.06284005
0.12030687 0.06872821 0.0620081
0.14561382 0.06721086 0.0603926
0.17935514 0.06527621 0.05839017
0.22237241 0.06260681 0.05564015
0.27489713 0.05716407 0.04978503
0.33139017 0.05053861 0.04262468
0.39186156 0.04363335 0.03513565
0.45582592 0.0371149 0.02802914
0.5215975 0.03139408 0.02176406
0.58680671 0.02655679 0.01647731
0.64656204 0.02264419 0.01225889
0.70030934 0.01950359 0.00888604
0.74840707 0.0168703 0.00609135
0.79133618 0.01459119 0.00368282
0.82955635 0.01259881 0.0015795
0.86146283 0.01091505 -0.00019707
0.89000434 0.00940253 -0.00181775
0.91519499 0.00806011 -0.0032749
0.93780315 0.0068431 -0.00461537
0.95860016 0.0057298 -0.00585986
0.96382862 0.00543998 -0.00624947
0.9660548 0.00523134 -0.0065669
0.96828461 0.00502958 -0.00689075
0.97051799 0.00483468 -0.00722188
0.97275484 0.00464662 -0.00756102
0.9749952 0.00446538 -0.00790878
0.97723901 0.00429084 -0.00826563
0.97948641 0.00412288 -0.00863182
0.0935197 0.0731044 0.06431793
0.09576744 0.07274973 0.06392025
0.09971552 0.07237 0.06336751
0.10391646 0.0718918 0.06284506
0.10865571 0.07128284 0.06220592
0.11591998 0.07064182 0.06151371
0.13740706 0.06933473 0.06011176
0.16717298 0.06761846 0.05831169
0.20902672 0.06530405 0.05595167
0.2597045 0.06044673 0.05075508
0.31533539 0.05420364 0.04400916
0.37526524 0.0472187 0.03643875
0.43865106 0.0404835 0.02910242
0.50448722 0.03450436 0.02255536
0.57086807 0.02942234 0.01697106
0.63255906 0.0253557 0.01257388
0.68746787 0.02209982 0.00906558
0.73738569 0.01933118 0.00610428
0.78204107 0.01695411 0.00357447
0.82118887 0.01493244 0.00142566
0.85450661 0.01319547 -0.00042194
0.88418829 0.01164255 -0.00210099
0.90988654 0.01028893 -0.00358718
0.9331857 0.00905317 -0.00496995
0.95452183 0.007924 -0.00625477
0.96341467 0.00747493 -0.00683788
0.96564794 0.00727974 -0.00716876
0.96788472 0.00709139 -0.00750762
0.97012502 0.00690987 -0.00785508
0.97236878 0.00673502 -0.00821162
0.97461611 0.00656683 -0.00857751
0.97686696 0.00640507 -0.00895282
0.97912127 0.00624961 -0.00933736
0.09276443 0.07638218 0.06425386
0.09497136 0.07538585 0.06354084
0.09845302 0.07449731 0.06272607
0.10258781 0.07374319 0.06219313
0.10710096 0.07309943 0.06159918
0.11302103 0.07253879 0.06099626
0.12996134 0.07145654 0.05982839
0.15676773 0.06990819 0.05818242
0.19706705 0.06769598 0.05591793
0.24549186 0.06366651 0.05164484
0.30004385 0.05781186 0.04532304
0.35935304 0.05076317 0.03768659
0.42238292 0.04386225 0.03017306
0.4880403 0.03774776 0.02347131
0.55483508 0.03248767 0.01768276
0.61832434 0.0281573 0.01296833
0.67503279 0.02470213 0.00922827
0.72635967 0.02181708 0.0061168
0.77302736 0.01933123 0.00345139
0.81269497 0.01729996 0.00127568
0.84757185 0.01550188 -0.00065847
0.87854344 0.01390154 -0.00240555
0.90457273 0.01254444 -0.00391885
0.92870468 0.01128382 -0.0053518
0.95027965 0.01015591 -0.0066624
0.9630146 0.00953622 -0.00745419
0.96525478 0.00935439 -0.00780136
0.96749854 0.00917927 -0.00815759
0.9697457 0.0090108 -0.00852316
0.97199643 0.00884878 -0.00889815
0.97425073 0.00869306 -0.0092824
0.97650862 0.00854337 -0.00967548
0.97877008 0.00839945 -0.01007667
0.09168667 0.08225591 0.06602133
0.09392405 0.08092553 0.06501046
0.09669537 0.0796506 0.06391668
0.10090002 0.07866631 0.0626165
0.10551088 0.07710438 0.06164394
0.11107412 0.07573032 0.06076508
0.12340639 0.074314 0.05966331
0.14964144 0.07213043 0.05798614
0.18588567 0.070078 0.05586808
0.23182955 0.06686339 0.05249975
0.28579229 0.06132561 0.04652082
0.3441762 0.05436505 0.03897625
0.40684363 0.04740488 0.03139558
0.47229657 0.04105874 0.02443915
0.53929174 0.0355545 0.01837296
0.60408378 0.03098535 0.0133652
0.66284293 0.02731811 0.00937524
0.7156617 0.02431416 0.00610765
0.76318079 0.02179402 0.00338511
0.80444986 0.0196829 0.00110085
0.84071112 0.01783182 -0.00091629
0.87248409 0.01620539 -0.00271061
0.89941674 0.01481954 -0.00428215
0.92419416 0.01354464 -0.00575883
0.94616681 0.0124086 -0.0071065
0.96173406 0.01164565 -0.00808046
0.96487528 0.01145484 -0.00846878
0.96712601 0.01129255 -0.00884347
0.96938014 0.01113657 -0.00922741
0.97163802 0.01098663 -0.00962021
0.97389942 0.01084247 -0.01002115
0.97616452 0.01070373 -0.01042922
0.97843331 0.01057003 -0.01084311
0.09048926 0.08906927 0.06879356
0.09274293 0.08782931 0.06780075
0.09500653 0.08667574 0.06684373
0.09881212 0.08568375 0.06550552
0.10322887 0.08471864 0.0637891
0.10879268 0.08249667 0.06223746
0.11863106 0.08052355 0.06093337
0.14440557 0.07792936 0.05873531
0.17902802 0.07475591 0.05620713
0.22322112 0.07065031 0.05310384
0.2766633 0.0643349 0.04710105
0.33420414 0.05752069 0.03972321
0.3953816 0.05056094 0.03216396
0.4599933 0.04408859 0.02507226
0.52618641 0.03846093 0.01886103
0.5913322 0.03374015 0.01365265
0.65093988 0.02994103 0.00949318
0.70508486 0.02684654 0.00609747
0.75333619 0.02429044 0.0033111
0.79623663 0.02208977 0.00090205
0.83405352 0.02017923 -0.00120773
0.86622614 0.01854675 -0.00303451
0.89441776 0.0171141 -0.00468314
0.91966146 0.01583234 -0.00619703
0.94212365 0.01468465 -0.00758805
0.96034431 0.01378352 -0.00873944
0.96450955 0.01358012 -0.00917239
0.96676731 0.01342994 -0.00956489
0.96902859 0.01328554 -0.00996558
0.97129363 0.01314658 -0.01037345
0.9735623 0.01301266 -0.01078719
0.97583479 0.01288332 -0.01120516
0.97811115 0.01275806 -0.01162542
0.08821148 0.09816244 0.07421838
0.09115382 0.09566902 0.07188283
0.09382161 0.09379574 0.0700521
0.09656386 0.09293137 0.0690653
0.10124693 0.09217969 0.0673208
0.1059285 0.09103729 0.06510383
0.1146674 0.08918729 0.06358773
0.13783294 0.086748 0.06133286
0.17003985 0.08387169 0.0586828
0.21464005 0.08025277 0.05542809
0.26845443 0.07401337 0.04908772
0.32679757 0.06620389 0.04154149
0.38901177 0.05743627 0.03354222
0.45392162 0.04866042 0.02605002
0.52068228 0.0421677 0.01940131
0.58661747 0.03706658 0.0138495
0.64634764 0.03296692 0.00944029
0.70029467 0.02964453 0.00592624
0.74878013 0.02682837 0.00298771
0.79190338 0.02439612 0.00047783
0.83030671 0.02236432 -0.00169467
0.86236691 0.02076689 -0.00352269
0.89094657 0.01933357 -0.00520685
0.91629815 0.01806265 -0.00673871
0.93895596 0.01692168 -0.0081574
0.95964956 0.01589505 -0.00947305
0.96432018 0.01569572 -0.00993261
0.96655977 0.01556167 -0.01033674
0.96880436 0.01543243 -0.01074696
0.97105366 0.01530758 -0.01116164
0.97330779 0.01518661 -0.01157881
0.97556663 0.01506898 -0.0119962
0.97783005 0.01495411 -0.01241126
0.08316864 0.11434931 0.08412719
0.08630712 0.11172271 0.08162504
0.08942597 0.10917158 0.07918902
0.09235815 0.10723455 0.07726686
0.09829985 0.10513263 0.07310625
0.10414733 0.10310688 0.06902739
0.11048501 0.10237217 0.06664769
0.13092077 0.09832872 0.06418528
0.16017464 0.0942455 0.061666
0.20523378 0.0902287 0.05802026
0.25877526 0.08503684 0.05181893
0.31737575 0.07823199 0.04417325
0.3808383 0.07028182 0.03576833
0.44703761 0.06225827 0.02783429
0.51446223 0.05470328 0.0208828
0.58093923 0.04776133 0.0150262
0.64186394 0.04153632 0.01034434
0.69546431 0.03625624 0.00665713
0.74437773 0.03225544 0.00348398
0.78796357 0.02978539 0.00070061
0.82669562 0.02765163 -0.00171262
0.85906863 0.02585923 -0.00375431
0.88804674 0.02425133 -0.00563051
0.91352344 0.02284019 -0.00730067
0.93643856 0.02156678 -0.00884541
0.95765871 0.02042703 -0.01028783
0.96435654 0.01996819 -0.01087247
0.96661574 0.01968032 -0.01127936
0.96887922 0.01940322 -0.01168913
0.971147 0.01913543 -0.01209952
0.97341919 0.01887541 -0.01250789
0.97569561 0.01862147 -0.01291142
0.97797632 0.01837186 -0.013307
0.07771944 0.13221879 0.09546438
0.08096048 0.12942195 0.09277991
0.08412655 0.12682804 0.09028053
0.08707467 0.12478743 0.0883253
0.09055112 0.12321154 0.08582219
0.09932622 0.12016784 0.07933535
0.10708417 0.11817395 0.07311206
0.12259622 0.11724842 0.0678362
0.15335146 0.11234742 0.06381278
0.1953328 0.1086015 0.05956388
0.24779847 0.10317078 0.05420482
0.30789724 0.09518731 0.04670231
0.37086216 0.0859193 0.03845507
0.43764058 0.07650215 0.03028592
0.50573349 0.0697923 0.02293719
0.5727874 0.06352817 0.01667716
0.6342054 0.05799544 0.01172807
0.68884456 0.05292577 0.00768982
0.73803949 0.04819001 0.00424657
0.78253448 0.04376656 0.00122455
0.82113045 0.03990134 -0.00138015
0.85434073 0.03632743 -0.00363717
0.88398576 0.03317773 -0.00570305
0.90951478 0.0305359 -0.00755139
0.93290412 0.02810266 -0.00924855
0.9542805 0.02671026 -0.01084732
0.96415997 0.02611776 -0.01165812
0.96643823 0.02581981 -0.01208748
0.96872044 0.02553071 -0.01251429
0.97100675 0.02524851 -0.01293586
0.973297 0.02497132 -0.01334924
0.97559136 0.02469702 -0.01375131
0.97788763 0.02442996 -0.01413322
0.07207531 0.15642704 0.10991877
0.07541834 0.1527794 0.10568944
0.07873824 0.14923757 0.10155917
0.08187497 0.14610805 0.09833612
0.08482902 0.14445418 0.09690644
0.09080311 0.14201903 0.09280775
0.10099502 0.13733339 0.08522844
0.11388648 0.13626458 0.07831927
0.14476153 0.1335316 0.06904529
0.18449341 0.12825809 0.06291609
0.23586753 0.12433448 0.05645182
0.29704887 0.1184224 0.04871248
0.36031172 0.11135911 0.04055793
0.42686003 0.10359082 0.03255433
0.49534068 0.09570439 0.02519101
0.56300449 0.08789425 0.01882211
0.62453824 0.08045346 0.01356875
0.67991036 0.07342465 0.00924537
0.72990251 0.06676603 0.00547528
0.77540785 0.06193427 0.0021537
0.81452334 0.0579256 -0.00070367
0.8487494 0.05425008 -0.00322711
0.87957597 0.05094596 -0.00555285
0.90530163 0.04786053 -0.00757521
0.92928559 0.04537137 -0.00947748
0.95086163 0.04296077 -0.01119365
0.96414489 0.04161199 -0.01225281
0.96641999 0.04091327 -0.01267759
0.96869928 0.04022827 -0.01309423
0.97098291 0.03955165 -0.01349961
0.97327065 0.03887782 -0.01389059
0.97556251 0.03820121 -0.01426386
0.97785836 0.03751628 -0.0146162
0.06566675 0.18383861 0.12979865
0.06899298 0.18029857 0.12566708
0.07229756 0.17686369 0.1216259
0.07558174 0.17353219 0.11766921
0.07851985 0.17183004 0.11524077
0.08288044 0.16982579 0.10942978
0.09315825 0.16455898 0.09637307
0.10665458 0.16226132 0.08695839
0.13346307 0.16025309 0.07697221
0.17089804 0.15738878 0.0676927
0.22141922 0.15162177 0.06088245
0.28180271 0.14691001 0.05136901
0.34510788 0.14138423 0.04346042
0.41336483 0.13431381 0.03555792
0.48303008 0.12664767 0.0280668
0.55138278 0.11969768 0.0213799
0.61420089 0.1127535 0.01573944
0.67011404 0.10595004 0.01101485
0.72136784 0.09930614 0.00691516
0.76736265 0.09302799 0.00332971
0.80748302 0.0868563 0.00025641
0.84290659 0.08132893 -0.002526
0.87412554 0.07644547 -0.0050031
0.90081578 0.07180917 -0.00721075
0.92536336 0.06787618 -0.00926542
0.94726586 0.06422021 -0.01111913
0.96312463 0.06163467 -0.01241614
0.96643513 0.06037487 -0.01286327
0.96871275 0.05917644 -0.01327105
0.97099441 0.05797348 -0.01366133
0.9732793 0.0567812 -0.01402458
0.97557777 0.05594864 -0.01436391
0.97788352 0.05520228 -0.01467873
0.05800728 0.21519868 0.15433173
0.0621105 0.21079643 0.14752942
0.06591333 0.2067515 0.14176677
0.06909373 0.20334296 0.13814402
0.07189045 0.2012765 0.13591805
0.07565244 0.19998659 0.13203956
0.08289871 0.19541349 0.12128542
0.09651773 0.19113818 0.10646235
0.11875252 0.18883733 0.09065627
0.15750426 0.18612732 0.07461084
0.20475785 0.18328299 0.06671935
0.26621568 0.1777824 0.05777194
0.33230609 0.17453983 0.047704
0.3984277 0.17115708 0.0384606
0.46856427 0.16571593 0.03125938
0.53819382 0.1588093 0.02444536
0.60301572 0.15120947 0.01845757
0.65989119 0.14351934 0.01335651
0.71221566 0.13607261 0.00887767
0.75861466 0.12879832 0.00505259
0.79990178 0.12200385 0.0016473
0.8368237 0.11571027 -0.00140588
0.86834633 0.11026029 -0.00407469
0.89626855 0.10536226 -0.00647753
0.92121083 0.10100058 -0.00865274
0.94363189 0.09694771 -0.01062904
0.96151948 0.0937996 -0.01214771
0.96671146 0.09238961 -0.01262434
0.96899754 0.09112037 -0.01301136
0.97128749 0.08982641 -0.01337519
0.97358102 0.08849818 -0.01371306
0.97587812 0.0871269 -0.0140225
0.97817862 0.08570452 -0.01430121
0.04629814 0.25243741 0.1929477
0.05040128 0.24801841 0.18615353
0.05446287 0.24376382 0.17951789
0.05846738 0.23975639 0.17310925
0.06196528 0.23694348 0.16848993
0.06561022 0.23567763 0.16446884
0.07259259 0.23125574 0.15115057
0.08526704 0.22492479 0.13121185
0.10317578 0.22282939 0.11467042
0.14080712 0.22015411 0.09541947
0.18955521 0.21760273 0.07744053
0.24289498 0.21460275 0.06521048
0.31291226 0.20976794 0.05497739
0.38725382 0.20736398 0.04413122
0.45491883 0.20539345 0.03549887
0.52364546 0.20102349 0.02779728
0.59009987 0.19435522 0.02164165
0.64892334 0.18673278 0.01631089
0.70150566 0.17883991 0.0116182
0.74918818 0.17124236 0.00746658
0.79174179 0.16400585 0.00370681
0.82992297 0.15732563 0.00040466
0.86203301 0.15082775 -0.00243974
0.89114577 0.1453284 -0.00503628
0.91659498 0.14017899 -0.00734547
0.93976408 0.13544396 -0.00942199
0.95976973 0.13153623 -0.01119599
0.96704906 0.12937328 -0.01170564
0.96933651 0.12774454 -0.01207498
0.97162735 0.12610233 -0.01240268
0.97392148 0.12439905 -0.01270043
0.9762187 0.12262671 -0.01296641
0.97851884 0.12077888 -0.01319923
0.03960276 0.29248655 0.23336324
0.04202102 0.28864455 0.2275627
0.04446029 0.28492624 0.22185534
0.04812374 0.28070453 0.2152434
0.05155818 0.27727377 0.20971869
0.05467175 0.27629387 0.20687792
0.05982988 0.27427715 0.19897495
0.07053987 0.26589942 0.17600346
0.0882798 0.26112241 0.15092507
0.11938284 0.2570442 0.12163237
0.16794476 0.25420359 0.09985557
0.22573754 0.25189638 0.08266477
0.28584638 0.24928008 0.06835104
0.36263984 0.24597222 0.05282974
0.44454065 0.24426614 0.0416259
0.51470649 0.24279979 0.03295452
0.57790321 0.23991013 0.02543733
0.63678455 0.23389514 0.01999215
0.6903913 0.22590667 0.01513742
0.73920268 0.21759082 0.01062954
0.78321409 0.20978115 0.00659626
0.82162166 0.20225626 0.00309403
0.85531634 0.19531013 0.00004021
0.88572252 0.18939748 -0.00271963
0.91169143 0.18365741 -0.00510614
0.93573207 0.17862332 -0.00726258
0.95770609 0.17420407 -0.00921486
0.96585703 0.17143343 -0.00972391
0.96976137 0.16927814 -0.01010474
0.97205275 0.16730797 -0.0104261
0.974347 0.16525383 -0.01071671
0.9766438 0.16311026 -0.01097574
0.978944 0.16092952 -0.01120433
0.03949732 0.33297282 0.27174366
0.04223581 0.3288407 0.26539546
0.04482964 0.32503241 0.25946653
0.04726559 0.32156351 0.25397977
0.04970735 0.31839928 0.24881002
0.05218855 0.31784108 0.24686579
0.05528994 0.31858736 0.24493529
0.06092788 0.31152004 0.22580746
0.07436676 0.30653757 0.20226455
0.09547792 0.30204079 0.17441852
0.14204207 0.2956982 0.13369384
0.20621401 0.29219687 0.10589943
0.26918381 0.29030675 0.08749939
0.33392259 0.28862152 0.073429
0.41508621 0.28706932 0.0556897
0.50246596 0.28636891 0.04033046
0.57351184 0.28433505 0.03162481
0.62989348 0.28113079 0.02510338
0.68107682 0.27577561 0.01933774
0.72963268 0.26824731 0.01487263
0.77457571 0.25980684 0.01064041
0.81350309 0.25140783 0.00693931
0.84869826 0.24366127 0.003619
0.87977314 0.23682886 0.00071246
0.9067474 0.23047771 -0.00182814
0.93184906 0.22497314 -0.00409628
0.9544397 0.21994181 -0.00610131
0.96440709 0.21641232 -0.00675148
0.97032946 0.21366513 -0.00714045
0.97261983 0.21145307 -0.00743512
0.97491258 0.20914564 -0.00769934
0.97720754 0.20674144 -0.00793317
0.97950494 0.20424192 -0.00813709
0.03894443 0.37866542 0.31459895
0.04094424 0.3751078 0.30945957
0.04295956 0.37170893 0.30439928
0.04500519 0.36851466 0.29936919
0.04726397 0.36531454 0.29414877
0.04976198 0.36439928 0.29168117
0.05225794 0.36653498 0.29255038
0.05782976 0.35970938 0.27561361
0.06646699 0.35492718 0.25565249
0.08172878 0.35107839 0.22949187
0.11910062 0.34357169 0.18609829
0.17974056 0.33728692 0.14270917
0.25055477 0.33425045 0.11687161
0.31780711 0.33258575 0.09650622
0.38536111 0.33237171 0.07947133
0.46976891 0.33209658 0.06065492
0.55919385 0.332142 0.0418079
0.62613291 0.32875723 0.03236236
0.67977822 0.32415649 0.02583545
0.72542953 0.3193354 0.02046628
0.76755112 0.31259963 0.01574067
0.80670702 0.30411226 0.0120366
0.84283125 0.29564267 0.00856848
0.87440443 0.28735965 0.00551937
0.90268314 0.2802439 0.00281237
0.92880446 0.27390906 0.00040723
0.95201284 0.2681745 -0.00167747
0.96368051 0.26398677 -0.00251347
0.97105145 0.26041976 -0.00293374
0.97332501 0.25782904 -0.0032483
0.97560006 0.25513536 -0.0035361
0.97787678 0.25234267 -0.00379792
0.98016971 0.24952146 -0.00400346
0.04116997 0.42500639 0.35410783
0.04322658 0.42162076 0.3491115
0.04529376 0.418385 0.34419665
0.04737145 0.4152959 0.33935928
0.04945956 0.41234982 0.33459631
0.05163942 0.41105098 0.33171001
0.05404657 0.41391569 0.33388329
0.05737998 0.41057336 0.32435489
0.06245128 0.40609798 0.30796036
0.07412045 0.40307528 0.28513089
0.09793033 0.39772636 0.25183824
0.15323372 0.38798362 0.19705792
0.22702387 0.38279033 0.15293044
0.30142334 0.38038507 0.13018997
0.37134647 0.37858033 0.10968658
0.44314107 0.38022089 0.09182343
0.52665818 0.3816523 0.06841846
0.61041832 0.38086492 0.04983835
0.67458969 0.37639424 0.03596535
0.7263214 0.36970487 0.02857605
0.76828134 0.36303914 0.02341445
0.8048293 0.35634097 0.01891757
0.83970374 0.34902164 0.01456894
0.87087876 0.34010616 0.01151401
0.90015572 0.33214808 0.00865085
0.92683733 0.32488889 0.00610668
0.95072836 0.31850454 0.00395104
0.96410602 0.31371441 0.00293435
0.97195858 0.30944601 0.00252404
0.97441065 0.3064751 0.00220586
0.97667283 0.30345649 0.00191328
0.97893625 0.30034941 0.00164265
0.98120135 0.29716527 0.00139255
0.04390231 0.47148624 0.39079785
0.04585894 0.46853217 0.38631123
0.0478282 0.46571809 0.38188881
0.04981221 0.46304244 0.37753043
0.05181739 0.46050748 0.37324026
0.05392783 0.45918936 0.37019938
0.05634277 0.46134618 0.37101683
0.05919671 0.46160221 0.36789361
0.06386183 0.456292 0.3524588
0.0729685 0.45439604 0.33334953
0.08792652 0.45201242 0.30907798
0.12492427 0.4458909 0.26682791
0.20072572 0.43638986 0.20471598
0.28234774 0.4322266 0.16995271
0.35731283 0.42949733 0.14418824
0.43123612 0.42911908 0.12289354
0.50546145 0.43150315 0.10786758
0.58233333 0.43338677 0.0845174
0.6581769 0.43114287 0.06004123
0.72095174 0.42409354 0.04564254
0.76937103 0.41502252 0.03439263
0.80887479 0.40617749 0.02774814
0.8431344 0.3990007 0.02364846
0.87232476 0.39166355 0.02022052
0.89957637 0.38496304 0.01717712
0.92409819 0.3788445 0.01440185
0.94646454 0.37304562 0.01209364
0.96086669 0.36797425 0.01095091
0.96913463 0.36297622 0.01032579
0.97473496 0.35868305 0.00979304
0.97708201 0.35526779 0.00940412
0.97943258 0.35178328 0.00903131
0.98178667 0.34824568 0.00867352
0.04719929 0.51723683 0.42334786
0.04920688 0.51461864 0.41916233
0.05122809 0.51212329 0.41501641
0.05326251 0.50974458 0.41091087
0.05530963 0.50747496 0.40684712
0.05743691 0.50594509 0.40347952
0.05984275 0.50736922 0.40325004
0.0626038 0.50973213 0.40315855
0.06613167 0.50645036 0.39305061
0.07330555 0.5054636 0.3778815
0.08444889 0.50495386 0.35909253
0.11189254 0.5015223 0.32585207
0.17086588 0.49375793 0.27073771
0.25555509 0.48628524 0.21381995
0.33901656 0.48250097 0.18318829
0.41745958 0.4808467 0.16047923
0.49372232 0.48133984 0.14249989
0.56581157 0.48327902 0.12598579
0.63398391 0.48301661 0.10336632
0.70382762 0.47795188 0.07979454
0.76412189 0.4685539 0.05885676
0.80958396 0.45825803 0.04883933
0.84656453 0.44885296 0.04110905
0.8731178 0.44221103 0.03686603
0.89844608 0.43615815 0.03308631
0.92110705 0.43040168 0.02971113
0.94272459 0.42509753 0.02712388
0.95738959 0.41979265 0.02563783
0.9653579 0.41475046 0.02479526
0.97333026 0.40963608 0.02398164
0.9772464 0.40593022 0.02322136
0.97952288 0.40278208 0.02249016
0.98180354 0.39961684 0.02177503
0.05050094 0.56121188 0.45207694
0.05250323 0.55899751 0.44825003
0.0545173 0.55688828 0.44446108
0.05654854 0.55486763 0.44069144
0.05865114 0.55284804 0.43674934
0.06079429 0.55126357 0.43323618
0.06316786 0.55236059 0.4326421
0.06577268 0.55571878 0.43437815
0.06896329 0.5541333 0.42802551
0.07509159 0.55329794 0.41578194
0.08502352 0.55366331 0.40030801
0.10644563 0.55260259 0.37396234
0.15290648 0.54702753 0.32741794
0.23172486 0.53839314 0.26589066
0.31889343 0.5335694 0.22212791
0.40268174 0.53152823 0.19826078
0.48133704 0.53087509 0.17877054
0.55365372 0.530734 0.16218831
0.62031949 0.53115267 0.14622688
0.68225908 0.52866226 0.12505393
0.74444163 0.52164334 0.10139094
0.79809839 0.51192456 0.08538161
0.83912909 0.50146109 0.07333009
0.87158477 0.4913719 0.06382576
0.89941549 0.48272163 0.05644659
0.92298567 0.47559702 0.05248318
0.94504774 0.46957889 0.04978907
0.96067661 0.46375954 0.04758888
0.96838188 0.45859984 0.04658204
0.9760716 0.45342916 0.04562666
0.98005563 0.44987464 0.04472492
0.98222768 0.44696859 0.04386724
0.98440582 0.44407567 0.04303357
0.05384993 0.60314858 0.47729674
0.05589116 0.60135078 0.47378659
0.0579421 0.59962225 0.47029704
0.05999967 0.59791213 0.4667739
0.06206202 0.59620506 0.46326971
0.06413917 0.59459698 0.45987976
0.06647371 0.59533817 0.45880017
0.06908995 0.59856188 0.46037695
0.07181542 0.59907639 0.45834494
0.07692847 0.59873319 0.44945487
0.08579992 0.59881675 0.43568352
0.10357809 0.59829396 0.41290641
0.13833556 0.59507066 0.37701842
0.2092506 0.58759892 0.31748167
0.2999357 0.58158696 0.26343507
0.38881877 0.5789097 0.23533382
0.46987373 0.57770222 0.21640234
0.54263288 0.57679111 0.19837549
0.60894907 0.57571876 0.18094818
0.67030573 0.57486451 0.16497119
0.72637099 0.57061493 0.14835143
0.78004771 0.56223279 0.12976201
0.82898426 0.55093664 0.1115086
0.86835057 0.53901702 0.09706892
0.90020978 0.52833205 0.08864206
0.92592436 0.51839733 0.08248253
0.9481436 0.5107972 0.07808618
0.96445507 0.50405407 0.07504685
0.97245747 0.4988068 0.07389458
0.9804731 0.49374706 0.07277027
0.98392433 0.49055043 0.07173932
0.98611134 0.48780248 0.07070296
0.98830062 0.48509073 0.06969142
0.05686338 0.64164871 0.4985998
0.05893661 0.64004856 0.49525008
0.06101881 0.63850564 0.49194407
0.06310952 0.63700956 0.488691
0.06520827 0.63554883 0.48550063
0.06731454 0.63411146 0.48238379
0.06960393 0.6342957 0.48085135
0.07219046 0.63690698 0.48178548
0.07475953 0.63832831 0.48163769
0.07914139 0.63897812 0.47591239
0.086879 0.63890427 0.46407774
0.10245253 0.63903016 0.44452742
0.1327405 0.6369381 0.41265801
0.19206508 0.63129187 0.36142936
0.28117886 0.62503576 0.30262551
0.37339869 0.62180811 0.26972309
0.45574379 0.62092507 0.2508609
