site/assets/luts/freshluts--0000712-gremerta.cube
# LUTr-Schema-Version: 2
# LUTr-ID: freshluts--0000712-gremerta
# LUTr-Title: Gremerta
# LUTr-Collection: Fresh LUTs
# LUTr-Collection-ID: freshluts-community
# LUTr-Source: https://freshluts.com
# LUTr-Retrieved: 2026-07-27
# LUTr-Source-File: submissions-raw/freshluts/cubes/712__Gremerta.cube
# LUTr-Source-Format: CUBE
# LUTr-Source-SHA256: 0f6cc5931db0fa24ab11d0cd3dce4c4e6809cc9b2226962774c0d21c1fc20ee6
# LUTr-License: CC0-1.0
# LUTr-License-URL: https://freshluts.com/termsandconditions
# LUTr-License-Basis: site-terms
# LUTr-Transform-Class: creative-look
# LUTr-Tags: creative, freshluts, community, cube, green, rec709
# LUTr-Input-Color-Space: rec709
# LUTr-Input-Gamut: rec709
# LUTr-Input-Transfer: rec709
# LUTr-Output-Color-Space: srgb
# LUTr-Output-Gamut: rec709
# LUTr-Output-Transfer: srgb
# LUTr-Color-Space-Confidence: inferred-from-source-label
# LUTr-Domain-Normalized: true
# LUTr-Shaper: none
# LUTr-Original-Grid: 16x16x16
# LUTr-Conversion-Grid: 16x16x16
# LUTr-Conversion-Interpolation: none
# LUTr-Conversion-Method: Metadata normalization; numeric LUT samples preserved
# LUTr-Conversion-Tool: LUTr scripts/convert-all-to-cube.mjs 2.0.0
# LUTr-Conversion-Date: 2026-07-28
# LUTr-Asset-URL: https://freshluts.com/luts/712
# LUTr-Author: InAvision
# LUTr-Author-URL: https://freshluts.com/users/64078
# LUTr-Attribution: InAvision via Fresh LUTs
# LUTr-Source-Labels: gamma=Rec 709; color=Green; key=Neutral; style=cine drama
# LUTr-Note: Preserve this metadata and the upstream license notices when redistributing.
TITLE "Gremerta"
LUT_3D_SIZE 16
DOMAIN_MIN 0 0 0
DOMAIN_MAX 1 1 1
-0.076277 -0.081082 -0.070565
-0.047632 -0.081082 -0.070565
0.074573 -0.081082 -0.070565
0.12544 -0.081082 -0.070565
0.17436 -0.081082 -0.070565
0.223654 -0.081082 -0.070565
0.273951 -0.081082 -0.070565
0.325454 -0.081082 -0.070565
0.378073 -0.081082 -0.070565
0.431865 -0.081082 -0.070565
0.486527 -0.081082 -0.070565
0.54177 -0.081082 -0.070565
0.597101 -0.081082 -0.070565
0.652693 -0.081082 -0.070565
0.707905 -0.081082 -0.070565
0.761899 -0.081082 -0.070565
-0.076277 -0.050629 -0.070565
-0.047632 -0.050629 -0.070565
0.074573 -0.063251 -0.070565
0.12544 -0.065144 -0.070565
0.17436 -0.06549 -0.070565
0.223654 -0.065529 -0.070565
0.273951 -0.065489 -0.070565
0.325454 -0.065417 -0.070565
0.378073 -0.065335 -0.070565
0.431865 -0.065258 -0.070565
0.486527 -0.065187 -0.070565
0.54177 -0.065149 -0.070565
0.597101 -0.065149 -0.070565
0.652693 -0.065185 -0.070565
0.707905 -0.065251 -0.070565
0.761899 -0.065407 -0.070565
-0.076277 0.079304 -0.070565
-0.059503 0.079304 -0.070565
0.074603 0.079304 -0.070565
0.12544 0.0743 -0.070565
0.17436 0.073816 -0.070565
0.223654 0.07445 -0.070565
0.273951 0.075442 -0.070565
0.325454 0.076582 -0.070565
0.378073 0.077759 -0.070565
0.431865 0.078929 -0.070565
0.486527 0.080045 -0.070565
0.54177 0.081012 -0.070565
0.597101 0.081805 -0.070565
0.652693 0.08244 -0.070565
0.707905 0.082901 -0.070565
0.761899 0.082997 -0.070565
-0.076277 0.133492 -0.070565
-0.061284 0.133492 -0.070565
0.069974 0.133492 -0.070565
0.125586 0.133492 -0.070565
0.17436 0.133153 -0.070565
0.223654 0.134378 -0.070565
0.273951 0.136086 -0.070565
0.325454 0.137992 -0.070565
0.378073 0.139946 -0.070565
0.431865 0.141882 -0.070565
0.486527 0.143738 -0.070565
0.54177 0.145402 -0.070565
0.597101 0.146824 -0.070565
0.652693 0.148032 -0.070565
0.707905 0.149011 -0.070565
0.761899 0.149519 -0.070565
-0.076277 0.185713 -0.070565
-0.061607 0.185713 -0.070565
0.069589 0.185713 -0.070565
0.125529 0.185713 -0.070565
0.174704 0.185713 -0.070565
0.223654 0.187061 -0.070565
0.273951 0.189412 -0.070565
0.325454 0.192021 -0.070565
0.378073 0.19468 -0.070565
0.431865 0.197355 -0.070565
0.486527 0.199887 -0.070565
0.54177 0.202197 -0.070565
0.597101 0.204167 -0.070565
0.652693 0.205867 -0.070565
0.707905 0.207252 -0.070565
0.761899 0.208063 -0.070565
-0.076277 0.238551 -0.070565
-0.061643 0.238551 -0.070565
0.070274 0.238551 -0.070565
0.126851 0.238551 -0.070565
0.176553 0.238551 -0.070565
0.224417 0.238551 -0.070565
0.273951 0.24073 -0.070565
0.325454 0.244032 -0.070565
0.378073 0.247411 -0.070565
0.431865 0.250773 -0.070565
0.486527 0.253984 -0.070565
0.54177 0.256891 -0.070565
0.597101 0.259394 -0.070565
0.652693 0.261568 -0.070565
0.707905 0.263368 -0.070565
0.761899 0.264416 -0.070565
-0.076277 0.292457 -0.070565
-0.061607 0.292457 -0.070565
0.071276 0.292457 -0.070565
0.128577 0.292457 -0.070565
0.178952 0.292457 -0.070565
0.227444 0.292457 -0.070565
0.275142 0.292457 -0.070565
0.325454 0.295217 -0.070565
0.378073 0.299281 -0.070565
0.431865 0.303339 -0.070565
0.486527 0.307208 -0.070565
0.54177 0.310708 -0.070565
0.597101 0.313767 -0.070565
0.652693 0.316401 -0.070565
0.707905 0.318557 -0.070565
0.761899 0.319857 -0.070565
-0.076277 0.347683 -0.070565
-0.061541 0.347683 -0.070565
0.072406 0.347683 -0.070565
0.130474 0.347683 -0.070565
0.181558 0.347683 -0.070565
0.230733 0.347683 -0.070565
0.279117 0.347683 -0.070565
0.327075 0.347683 -0.070565
0.378073 0.350705 -0.070565
0.431865 0.355478 -0.070565
0.486527 0.36001 -0.070565
0.54177 0.364097 -0.070565
0.597101 0.367641 -0.070565
0.652693 0.370753 -0.070565
0.707905 0.373281 -0.070565
0.761899 0.374833 -0.070565
-0.076277 0.40421 -0.070565
-0.061464 0.40421 -0.070565
0.073569 0.40421 -0.070565
0.132406 0.40421 -0.070565
0.184215 0.40421 -0.070565
0.234083 0.40421 -0.070565
0.283154 0.40421 -0.070565
0.331821 0.40421 -0.070565
0.380241 0.40421 -0.070565
0.431865 0.40734 -0.070565
0.486527 0.412563 -0.070565
0.54177 0.417258 -0.070565
0.597101 0.421329 -0.070565
0.652693 0.42487 -0.070565
0.707905 0.4278 -0.070565
0.761899 0.429554 -0.070565
-0.076277 0.461894 -0.070565
-0.061389 0.461894 -0.070565
0.074708 0.461894 -0.070565
0.134292 0.461894 -0.070565
0.186794 0.461894 -0.070565
0.237357 0.461894 -0.070565
0.28711 0.461894 -0.070565
0.336439 0.461894 -0.070565
0.385541 0.461894 -0.070565
0.434525 0.461894 -0.070565
0.486527 0.464918 -0.070565
0.54177 0.470234 -0.070565
0.597101 0.474824 -0.070565
0.652693 0.478831 -0.070565
0.707905 0.482118 -0.070565
0.761899 0.484122 -0.070565
-0.076277 0.520576 -0.070565
-0.061323 0.520576 -0.070565
0.075802 0.520576 -0.070565
0.136118 0.520576 -0.070565
0.189299 0.520576 -0.070565
0.240516 0.520576 -0.070565
0.290911 0.520576 -0.070565
0.340896 0.520576 -0.070565
0.390659 0.520576 -0.070565
0.440289 0.520576 -0.070565
0.489762 0.520576 -0.070565
0.54177 0.523072 -0.070565
0.597101 0.528193 -0.070565
0.652693 0.532604 -0.070565
0.707905 0.536298 -0.070565
0.761899 0.538533 -0.070565
-0.076277 0.579811 -0.070565
-0.061287 0.579811 -0.070565
0.076732 0.579811 -0.070565
0.137714 0.579811 -0.070565
0.191512 0.579811 -0.070565
0.243305 0.579811 -0.070565
0.294301 0.579811 -0.070565
0.344866 0.579811 -0.070565
0.395202 0.579811 -0.070565
0.445364 0.579811 -0.070565
0.495407 0.579811 -0.070565
0.545454 0.579811 -0.070565
0.597101 0.581525 -0.070565
0.652693 0.586409 -0.070565
0.707905 0.590467 -0.070565
0.761899 0.592928 -0.070565
-0.076277 0.639187 -0.070565
-0.061286 0.639187 -0.070565
0.0775 0.639187 -0.070565
0.139091 0.639187 -0.070565
0.193411 0.639187 -0.070565
0.245749 0.639187 -0.070565
0.297235 0.639187 -0.070565
0.348301 0.639187 -0.070565
0.399147 0.639187 -0.070565
0.449832 0.639187 -0.070565
0.500408 0.639187 -0.070565
0.550942 0.639187 -0.070565
0.601317 0.639187 -0.070565
0.652693 0.640059 -0.070565
0.707905 0.64446 -0.070565
0.761899 0.647185 -0.070565
-0.076277 0.698638 -0.070565
-0.061321 0.698638 -0.070565
0.078096 0.698638 -0.070565
0.140237 0.698638 -0.070565
0.195014 0.698638 -0.070565
0.247794 0.698638 -0.070565
0.299724 0.698638 -0.070565
0.351231 0.698638 -0.070565
0.402472 0.698638 -0.070565
0.453591 0.698638 -0.070565
0.504565 0.698638 -0.070565
0.555543 0.698638 -0.070565
0.606358 0.698638 -0.070565
0.657312 0.698638 -0.070565
0.707905 0.698628 -0.070565
0.761899 0.701522 -0.070565
-0.076277 0.757909 -0.070565
-0.061383 0.757909 -0.070565
0.078543 0.757909 -0.070565
0.141178 0.757909 -0.070565
0.196367 0.757909 -0.070565
0.249515 0.757909 -0.070565
0.301813 0.757909 -0.070565
0.353672 0.757909 -0.070565
0.405294 0.757909 -0.070565
0.456759 0.757909 -0.070565
0.508091 0.757909 -0.070565
0.559416 0.757909 -0.070565
0.610612 0.757909 -0.070565
0.661873 0.757909 -0.070565
0.712897 0.757909 -0.070565
0.761899 0.755643 -0.070565
-0.076277 0.815652 -0.070565
-0.061528 0.815652 -0.070565
0.078626 0.815652 -0.070565
0.14165 0.815652 -0.070565
0.197104 0.815652 -0.070565
0.250499 0.815652 -0.070565
0.303016 0.815652 -0.070565
0.355099 0.815652 -0.070565
0.406973 0.815652 -0.070565
0.458645 0.815652 -0.070565
0.510171 0.815652 -0.070565
0.561713 0.815652 -0.070565
0.613084 0.815652 -0.070565
0.664582 0.815652 -0.070565
0.715885 0.815652 -0.070565
0.767243 0.815652 -0.070565
-0.076277 -0.081082 -0.044065
-0.047632 -0.081082 -0.044065
0.074573 -0.081082 -0.055052
0.12544 -0.081082 -0.056698
0.17436 -0.081082 -0.056998
0.223654 -0.081082 -0.057033
0.273951 -0.081082 -0.056997
0.325454 -0.081082 -0.056937
0.378073 -0.081082 -0.056866
0.431865 -0.081082 -0.056796
0.486527 -0.081082 -0.056736
0.54177 -0.081082 -0.056702
0.597101 -0.081082 -0.056702
0.652693 -0.081082 -0.056734
0.707905 -0.081082 -0.056791
0.761899 -0.081082 -0.056926
-0.076277 -0.050629 -0.044065
-0.047632 -0.050629 -0.044065
0.074573 -0.050629 -0.044065
0.12544 -0.050629 -0.044065
0.17436 -0.050629 -0.044065
0.223653 -0.050629 -0.044065
0.273951 -0.050629 -0.044065
0.325454 -0.050629 -0.044065
0.378073 -0.050629 -0.044065
0.431865 -0.050629 -0.044065
0.486527 -0.050629 -0.044065
0.54177 -0.050629 -0.044065
0.597101 -0.050629 -0.044065
0.652693 -0.050629 -0.044065
0.707906 -0.050629 -0.044065
0.761899 -0.050629 -0.044065
-0.076277 0.079304 -0.055052
-0.047632 0.079304 -0.044065
0.074603 0.079304 -0.044065
0.12544 0.078914 -0.044065
0.17436 0.079856 -0.044065
0.223653 0.081049 -0.044065
0.273951 0.082309 -0.044065
0.325454 0.083596 -0.044065
0.378073 0.084864 -0.044065
0.431865 0.086088 -0.044065
0.486527 0.087254 -0.044065
0.54177 0.088289 -0.044065
0.597101 0.089164 -0.044065
0.652693 0.089921 -0.044065
0.707906 0.090513 -0.044065
0.761899 0.090835 -0.044065
-0.076277 0.133492 -0.056698
-0.047632 0.133492 -0.044065
0.074322 0.133492 -0.044065
0.125586 0.133492 -0.044065
0.17436 0.134862 -0.044065
0.223653 0.136788 -0.044065
0.273951 0.13884 -0.044065
0.325454 0.14094 -0.044065
0.378073 0.143016 -0.044065
0.431865 0.145031 -0.044065
0.486527 0.146945 -0.044065
0.54177 0.148671 -0.044065
0.597101 0.150146 -0.044065
0.652693 0.151424 -0.044065
0.707906 0.152469 -0.044065
0.761899 0.153089 -0.044065
-0.076277 0.185713 -0.056998
-0.047632 0.185713 -0.044065
0.075284 0.185713 -0.044065
0.127133 0.185713 -0.044065
0.174704 0.185713 -0.044065
0.223653 0.187953 -0.044065
0.273951 0.190738 -0.044065
0.325454 0.193618 -0.044065
0.378073 0.196436 -0.044065
0.431865 0.199216 -0.044065
0.486527 0.20181 -0.044065
0.54177 0.204172 -0.044065
0.597101 0.2062 -0.044065
0.652693 0.207949 -0.044065
0.707906 0.209407 -0.044065
0.761899 0.210282 -0.044065
-0.076277 0.238551 -0.057033
-0.047632 0.238551 -0.044065
0.076506 0.238551 -0.044065
0.129112 0.238551 -0.044065
0.177417 0.238551 -0.044065
0.224417 0.238551 -0.044065
0.273951 0.241282 -0.044065
0.325454 0.244891 -0.044065
0.378073 0.248461 -0.044065
0.431865 0.251938 -0.044065
0.486527 0.255238 -0.044065
0.54177 0.258209 -0.044065
0.597101 0.260781 -0.044065
0.652693 0.263003 -0.044065
0.707906 0.26485 -0.044065
0.761899 0.265953 -0.044065
-0.076277 0.292457 -0.056997
-0.047632 0.292457 -0.044065
0.077767 0.292457 -0.044065
0.131181 0.292457 -0.044065
0.180217 0.292457 -0.044065
0.227953 0.292457 -0.044065
0.275142 0.292457 -0.044065
0.325454 0.29557 -0.044065
0.378073 0.29987 -0.044065
0.431865 0.304074 -0.044065
0.486527 0.308041 -0.044065
0.54177 0.311619 -0.044065
0.597101 0.314722 -0.044065
0.652693 0.317415 -0.044065
0.707906 0.319646 -0.044065
0.761899 0.320991 -0.044065
-0.076277 0.347683 -0.056937
-0.047632 0.347683 -0.044065
0.079038 0.347683 -0.044065
0.133259 0.347683 -0.044065
0.183051 0.347683 -0.044065
0.231533 0.347683 -0.044065
0.279465 0.347683 -0.044065
0.327075 0.347683 -0.044065
0.378073 0.350978 -0.044065
0.431865 0.355889 -0.044065
0.486527 0.360535 -0.044065
0.54177 0.364721 -0.044065
0.597101 0.368388 -0.044065
0.652693 0.371499 -0.044065
0.707906 0.374119 -0.044065
0.761899 0.375661 -0.044065
-0.076277 0.40421 -0.056866
-0.047632 0.40421 -0.044065
0.080288 0.40421 -0.044065
0.135306 0.40421 -0.044065
0.185842 0.40421 -0.044065
0.235065 0.40421 -0.044065
0.283725 0.40421 -0.044065
0.332075 0.40421 -0.044065
0.380241 0.40421 -0.044065
0.431865 0.407522 -0.044065
0.486527 0.412863 -0.044065
0.54177 0.417684 -0.044065
0.597101 0.421805 -0.044065
0.652693 0.425413 -0.044065
0.707906 0.428386 -0.044065
0.761899 0.430203 -0.044065
-0.076277 0.461894 -0.056796
-0.047632 0.461894 -0.044065
0.081488 0.461894 -0.044065
0.137277 0.461894 -0.044065
0.188556 0.461894 -0.044065
0.238464 0.461894 -0.044065
0.287797 0.461894 -0.044065
0.336857 0.461894 -0.044065
0.385743 0.461894 -0.044065
0.434525 0.461894 -0.044065
0.486527 0.465073 -0.044065
0.54177 0.470477 -0.044065
0.597101 0.475167 -0.044065
0.652693 0.479222 -0.044065
0.707906 0.482574 -0.044065
0.761899 0.484617 -0.044065
-0.076277 0.520576 -0.056736
-0.047632 0.520576 -0.044065
0.082627 0.520576 -0.044065
0.139155 0.520576 -0.044065
0.191112 0.520576 -0.044065
0.241707 0.520576 -0.044065
0.291711 0.520576 -0.044065
0.341431 0.520576 -0.044065
0.390951 0.520576 -0.044065
0.440415 0.520576 -0.044065
0.489762 0.520576 -0.044065
0.54177 0.523188 -0.044065
0.597101 0.528365 -0.044065
0.652693 0.532903 -0.044065
0.707906 0.536609 -0.044065
0.761899 0.53893 -0.044065
-0.076277 0.579811 -0.056702
-0.047632 0.579811 -0.044065
0.083624 0.579811 -0.044065
0.140804 0.579811 -0.044065
0.193377 0.579811 -0.044065
0.244562 0.579811 -0.044065
0.295156 0.579811 -0.044065
0.345459 0.579811 -0.044065
0.395579 0.579811 -0.044065
0.445615 0.579811 -0.044065
0.495544 0.579811 -0.044065
0.545454 0.579811 -0.044065
0.597101 0.581638 -0.044065
0.652693 0.586604 -0.044065
0.707906 0.590704 -0.044065
0.761899 0.593217 -0.044065
-0.076277 0.639187 -0.056702
-0.047632 0.639187 -0.044065
0.084478 0.639187 -0.044065
0.142248 0.639187 -0.044065
0.195335 0.639187 -0.044065
0.247055 0.639187 -0.044065
0.298159 0.639187 -0.044065
0.348981 0.639187 -0.044065
0.399646 0.639187 -0.044065
0.450153 0.639187 -0.044065
0.500586 0.639187 -0.044065
0.551014 0.639187 -0.044065
0.601317 0.639187 -0.044065
0.652693 0.64011 -0.044065
0.707906 0.644646 -0.044065
0.761899 0.647358 -0.044065
-0.076277 0.698638 -0.056734
-0.047632 0.698638 -0.044065
0.085182 0.698638 -0.044065
0.143446 0.698638 -0.044065
0.196998 0.698638 -0.044065
0.249151 0.698638 -0.044065
0.300683 0.698638 -0.044065
0.351944 0.698638 -0.044065
0.403017 0.698638 -0.044065
0.453963 0.698638 -0.044065
0.504825 0.698638 -0.044065
0.555713 0.698638 -0.044065
0.606416 0.698638 -0.044065
0.657312 0.698638 -0.044065
0.707906 0.698638 -0.044065
0.761899 0.701617 -0.044065
-0.076277 0.757909 -0.056791
-0.047632 0.757909 -0.044065
0.085764 0.757909 -0.044065
0.144451 0.757909 -0.044065
0.198389 0.757909 -0.044065
0.250917 0.757909 -0.044065
0.302837 0.757909 -0.044065
0.354409 0.757909 -0.044065
0.40587 0.757909 -0.044065
0.457194 0.757909 -0.044065
0.50842 0.757909 -0.044065
0.559606 0.757909 -0.044065
0.610723 0.757909 -0.044065
0.661943 0.757909 -0.044065
0.712898 0.757909 -0.044065
0.761899 0.755711 -0.044065
-0.076277 0.815652 -0.056926
-0.047632 0.815652 -0.044065
0.086052 0.815652 -0.044065
0.145023 0.815652 -0.044065
0.199201 0.815652 -0.044065
0.251955 0.815652 -0.044065
0.304077 0.815652 -0.044065
0.35593 0.815652 -0.044065
0.407578 0.815652 -0.044065
0.459128 0.815652 -0.044065
0.510561 0.815652 -0.044065
0.561996 0.815652 -0.044065
0.613327 0.815652 -0.044065
0.664679 0.815652 -0.044065
0.715977 0.815652 -0.044065
0.767243 0.815652 -0.044065
-0.076277 -0.081082 0.068967
-0.059503 -0.081082 0.068967
0.074573 -0.081082 0.068998
0.12544 -0.081082 0.064666
0.17436 -0.081082 0.064244
0.223654 -0.081082 0.064798
0.273951 -0.081082 0.06566
0.325454 -0.081082 0.066656
0.378073 -0.081082 0.067677
0.431865 -0.081082 0.068694
0.486527 -0.081082 0.069667
0.54177 -0.081082 0.070515
0.597101 -0.081082 0.071205
0.652693 -0.081082 0.071756
0.707905 -0.081082 0.072152
0.761899 -0.081082 0.072234
-0.076277 -0.063251 0.068967
-0.047632 -0.050629 0.068967
0.074573 -0.050629 0.068998
0.12544 -0.050629 0.068681
0.17436 -0.050629 0.069504
0.223653 -0.050629 0.07054
0.273951 -0.050629 0.071644
0.325454 -0.050629 0.07276
0.378073 -0.050629 0.073857
0.431865 -0.050629 0.074929
0.486527 -0.050629 0.075942
0.54177 -0.050629 0.076843
0.597101 -0.050629 0.077611
0.652693 -0.050629 0.078261
0.707906 -0.050629 0.078787
0.761899 -0.050629 0.079058
-0.076277 0.079304 0.069021
-0.047632 0.079304 0.069021
0.074578 0.079304 0.068967
0.12544 0.079428 0.068967
0.17436 0.079604 0.068967
0.223653 0.079843 0.068967
0.273951 0.080117 0.068967
0.325454 0.080404 0.068967
0.378073 0.080692 0.068967
0.431865 0.080984 0.068967
0.486527 0.081273 0.068967
0.54177 0.081547 0.068967
0.597101 0.081809 0.068967
0.652693 0.082064 0.068967
0.707905 0.082302 0.068967
0.761899 0.082518 0.068967
-0.076277 0.133492 0.064742
-0.047632 0.133492 0.068758
0.074663 0.133492 0.068967
0.125544 0.133492 0.068967
0.17436 0.134816 0.068967
0.223653 0.136354 0.068967
0.273951 0.137957 0.068967
0.325454 0.139585 0.068967
0.378073 0.141193 0.068967
0.431865 0.142773 0.068967
0.486527 0.144279 0.068967
0.54177 0.145641 0.068967
0.597101 0.146842 0.068967
0.652693 0.14788 0.068967
0.707905 0.148761 0.068967
0.761899 0.149328 0.068967
-0.076277 0.185713 0.064385
-0.047632 0.185713 0.069654
0.074777 0.185713 0.068967
0.126968 0.185713 0.068967
0.174669 0.185713 0.068967
0.223653 0.187826 0.068967
0.273951 0.190338 0.068967
0.325454 0.192905 0.068967
0.378073 0.19542 0.068967
0.431865 0.197891 0.068967
0.486527 0.200221 0.068967
0.54177 0.202344 0.068967
0.597101 0.204176 0.068967
0.652693 0.205789 0.068967
0.707905 0.207118 0.068967
0.761899 0.207935 0.068967
-0.076277 0.238551 0.065018
-0.047632 0.238551 0.070783
0.074928 0.238551 0.068967
0.128493 0.238551 0.068967
0.177156 0.238551 0.068967
0.224367 0.238551 0.068967
0.273951 0.241144 0.068967
0.325454 0.244529 0.068967
0.378073 0.247864 0.068967
0.431865 0.251126 0.068967
0.486527 0.254216 0.068967
0.54177 0.25701 0.068967
0.597101 0.25942 0.068967
0.652693 0.261526 0.068967
0.707905 0.26327 0.068967
0.761899 0.264348 0.068967
-0.076277 0.292457 0.065945
-0.047632 0.292457 0.071949
0.075097 0.292457 0.068967
0.130058 0.292457 0.068967
0.179639 0.292457 0.068967
0.227695 0.292457 0.068967
0.275091 0.292457 0.068967
0.325454 0.295449 0.068967
0.378073 0.299567 0.068967
0.431865 0.303562 0.068967
0.486527 0.307376 0.068967
0.54177 0.310803 0.068967
0.597101 0.313773 0.068967
0.652693 0.31635 0.068967
0.707905 0.318507 0.068967
0.761899 0.319816 0.068967
-0.076277 0.347683 0.066993
-0.047632 0.347683 0.073128
0.075272 0.347683 0.068967
0.131618 0.347683 0.068967
0.182163 0.347683 0.068967
0.231029 0.347683 0.068967
0.279205 0.347683 0.068967
0.327023 0.347683 0.068967
0.378073 0.350867 0.068967
0.431865 0.355605 0.068967
0.486527 0.360109 0.068967
0.54177 0.364183 0.068967
0.597101 0.367688 0.068967
0.652693 0.370743 0.068967
0.707905 0.373232 0.068967
0.761899 0.374796 0.068967
-0.076277 0.40421 0.068063
-0.047632 0.40421 0.07428
0.075451 0.40421 0.068967
0.133175 0.40421 0.068967
0.184627 0.40421 0.068967
0.234308 0.40421 0.068967
0.283256 0.40421 0.068967
0.331833 0.40421 0.068967
0.380229 0.40421 0.068967
0.431865 0.407466 0.068967
0.486527 0.41264 0.068967
0.54177 0.417324 0.068967
0.597101 0.42137 0.068967
0.652693 0.424878 0.068967
0.707905 0.427784 0.068967
0.761899 0.429542 0.068967
-0.076277 0.461894 0.069119
-0.047632 0.461894 0.075389
0.075627 0.461894 0.068967
0.134666 0.461894 0.068967
0.187002 0.461894 0.068967
0.237465 0.461894 0.068967
0.287163 0.461894 0.068967
0.336444 0.461894 0.068967
0.385495 0.461894 0.068967
0.434464 0.461894 0.068967
0.486527 0.464989 0.068967
0.54177 0.470296 0.068967
0.597101 0.474875 0.068967
0.652693 0.478826 0.068967
0.707905 0.482118 0.068967
0.761899 0.484125 0.068967
-0.076277 0.520576 0.07013
-0.047632 0.520576 0.076446
0.0758 0.520576 0.068967
0.136104 0.520576 0.068967
0.189272 0.520576 0.068967
0.240486 0.520576 0.068967
0.290886 0.520576 0.068967
0.340869 0.520576 0.068967
0.390586 0.520576 0.068967
0.440228 0.520576 0.068967
0.489687 0.520576 0.068967
0.54177 0.523114 0.068967
0.597101 0.528257 0.068967
0.652693 0.53266 0.068967
0.707905 0.536316 0.068967
0.761899 0.53855 0.068967
-0.076277 0.579811 0.070992
-0.047632 0.579811 0.077366
0.075962 0.579811 0.068967
0.137371 0.579811 0.068967
0.19128 0.579811 0.068967
0.24315 0.579811 0.068967
0.294159 0.579811 0.068967
0.34476 0.579811 0.068967
0.395103 0.579811 0.068967
0.44528 0.579811 0.068967
0.495351 0.579811 0.068967
0.545354 0.579811 0.068967
0.597101 0.581595 0.068967
0.652693 0.586488 0.068967
0.707905 0.590492 0.068967
0.761899 0.59295 0.068967
-0.076277 0.639187 0.071707
-0.047632 0.639187 0.078158
0.076122 0.639187 0.068967
0.138495 0.639187 0.068967
0.193059 0.639187 0.068967
0.245488 0.639187 0.068967
0.297041 0.639187 0.068967
0.348163 0.639187 0.068967
0.399036 0.639187 0.068967
0.449733 0.639187 0.068967
0.500303 0.639187 0.068967
0.550847 0.639187 0.068967
0.60126 0.639187 0.068967
0.652693 0.640075 0.068967
0.707905 0.644531 0.068967
0.761899 0.647217 0.068967
-0.076277 0.698638 0.072256
-0.047632 0.698638 0.078809
0.076268 0.698638 0.068967
0.139447 0.698638 0.068967
0.194521 0.698638 0.068967
0.24745 0.698638 0.068967
0.299454 0.698638 0.068967
0.351004 0.698638 0.068967
0.402344 0.698638 0.068967
0.453481 0.698638 0.068967
0.504461 0.698638 0.068967
0.555482 0.698638 0.068967
0.606288 0.698638 0.068967
0.657217 0.698638 0.068967
0.707905 0.698613 0.068967
0.761899 0.701565 0.068967
-0.076277 0.757909 0.072669
-0.047632 0.757909 0.079345
0.076408 0.757909 0.068967
0.140254 0.757909 0.068967
0.195781 0.757909 0.068967
0.24911 0.757909 0.068967
0.301501 0.757909 0.068967
0.353448 0.757909 0.068967
0.405083 0.757909 0.068967
0.456622 0.757909 0.068967
0.507965 0.757909 0.068967
0.559334 0.757909 0.068967
0.610528 0.757909 0.068967
0.661845 0.757909 0.068967
0.712809 0.757909 0.068967
0.761899 0.755696 0.068967
-0.076277 0.815652 0.072743
-0.047632 0.815652 0.079614
0.076532 0.815653 0.068967
0.140753 0.815653 0.068967
0.196552 0.815653 0.068967
0.2501 0.815653 0.068967
0.302734 0.815653 0.068967
0.354882 0.815653 0.068967
0.406779 0.815653 0.068967
0.458482 0.815653 0.068967
0.510039 0.815653 0.068967
0.561612 0.815653 0.068967
0.613014 0.815653 0.068967
0.664547 0.815653 0.068967
0.715779 0.815653 0.068967
0.767251 0.815653 0.068967
-0.076277 -0.081082 0.115899
-0.061284 -0.081082 0.115899
0.069805 -0.081082 0.115899
0.12544 -0.081082 0.116057
0.17436 -0.081082 0.115896
0.223654 -0.081082 0.116959
0.273951 -0.081082 0.118446
0.325454 -0.081082 0.120108
0.378073 -0.081082 0.121799
0.431865 -0.081082 0.123491
0.486527 -0.081082 0.125099
0.54177 -0.081082 0.12655
0.597101 -0.081082 0.12779
0.652693 -0.081082 0.128841
0.707905 -0.081082 0.129692
0.761899 -0.081082 0.130144
-0.076277 -0.065144 0.115899
-0.047632 -0.050629 0.115899
0.074143 -0.050629 0.115899
0.12544 -0.050629 0.116057
0.17436 -0.050629 0.117381
0.223653 -0.050629 0.119049
0.273951 -0.050629 0.120847
0.325454 -0.050629 0.122668
0.378073 -0.050629 0.124479
0.431865 -0.050629 0.126229
0.486527 -0.050629 0.127895
0.54177 -0.050629 0.129398
0.597101 -0.050629 0.130676
0.652693 -0.050629 0.131782
0.707906 -0.050629 0.132702
0.761899 -0.050629 0.133237
-0.076277 0.074201 0.115899
-0.047632 0.07881 0.115899
0.074573 0.079348 0.115899
0.12544 0.079304 0.115992
0.17436 0.079304 0.117059
0.223653 0.079304 0.118169
0.273951 0.079304 0.119304
