site/assets/luts/freshluts--0000936-picturefx-infrared-colorbw-3dl-white-trees-and-blue-sky-at-3.cube
# LUTr-Schema-Version: 2
# LUTr-ID: freshluts--0000936-picturefx-infrared-colorbw-3dl-white-trees-and-blue-sky-at-3
# LUTr-Title: PictureFX Infrared Color/B&W 3DL - white trees and blue sky at 30% up to 70/75%
# LUTr-Collection: Fresh LUTs
# LUTr-Collection-ID: freshluts-community
# LUTr-Source: https://freshluts.com
# LUTr-Retrieved: 2026-07-27
# LUTr-Source-File: submissions-raw/freshluts/cubes/936__PictureFX-Faux-Infrared-Color-B_W-3DL25.cube
# LUTr-Source-Format: CUBE
# LUTr-Source-SHA256: 0637c7935070bfc79bad2bcc3def7293672554450d665f163fd73ec02674ff9d
# LUTr-License: CC0-1.0
# LUTr-License-URL: https://freshluts.com/termsandconditions
# LUTr-License-Basis: site-terms
# LUTr-Transform-Class: creative-look
# LUTr-Tags: creative, freshluts, community, cube, film-emulation, black-and-white, cool, rec709, assumed-input
# LUTr-Input-Color-Space: rec709
# LUTr-Input-Gamut: rec709
# LUTr-Input-Transfer: rec709
# LUTr-Output-Color-Space: srgb
# LUTr-Output-Gamut: rec709
# LUTr-Output-Transfer: srgb
# LUTr-Color-Space-Confidence: assumed-display-referred
# LUTr-Domain-Normalized: true
# LUTr-Shaper: none
# LUTr-Original-Grid: 25x25x25
# LUTr-Conversion-Grid: 25x25x25
# LUTr-Conversion-Interpolation: none
# LUTr-Conversion-Method: Metadata normalization; numeric LUT samples preserved
# LUTr-Conversion-Tool: LUTr scripts/convert-all-to-cube.mjs 2.0.0
# LUTr-Conversion-Date: 2026-07-28
# LUTr-Asset-URL: https://freshluts.com/luts/936
# LUTr-Author: MarcR.
# LUTr-Author-URL: https://freshluts.com/users/86490
# LUTr-Attribution: MarcR. via Fresh LUTs
# LUTr-Source-Labels: gamma=Other; color=None; key=Neutral; style=Film emulation; LUTr assumption=input Rec.709 per repository policy
# LUTr-Duplicate-Assets: 937:https://freshluts.com/luts/937
# LUTr-Conversion-Warning: Input Rec.709 is a LUTr catalog assumption requested for this otherwise unspecified Fresh LUT; it is not verified by the upstream asset.
# LUTr-Note: Preserve this metadata and the upstream license notices when redistributing.
# LUTr-Upstream-Comment: Generated with IWLTBAP LUT Generator
# LUTr-Upstream-Comment: Website: http://luts.iwltbap.com
# LUTr-Upstream-Comment: LUT size
# LUTr-Upstream-Comment: LUT data points
TITLE "PictureFX Infrared Color/B&W 3DL - white trees and blue sky at 30% up to 70/75%"
LUT_3D_SIZE 9
DOMAIN_MIN 0 0 0
DOMAIN_MAX 1 1 1
0 0 0
0.243137 0.243137 0.243137
0.466667 0.466667 0.466667
0.690196 0.690196 0.690196
0.913725 0.913725 0.913725
0.960784 0.960784 0.960784
0.976471 0.976471 0.976471
0.984314 0.984314 0.984314
0.984314 0.984314 0.984314
0.14902 0.14902 0.14902
0.501961 0.501961 0.501961
0.443137 0.443137 0.443137
0.67451 0.67451 0.67451
0.901961 0.901961 0.901961
0.952941 0.952941 0.952941
0.976471 0.976471 0.976471
0.984314 0.984314 0.984314
0.984314 0.984314 0.984314
0.458824 0.458824 0.458824
0.682353 0.682353 0.682353
0.756863 0.756863 0.756863
0.639216 0.639216 0.639216
0.878431 0.878431 0.878431
0.937255 0.937255 0.937255
0.968627 0.968627 0.968627
0.980392 0.980392 0.980392
0.980392 0.980392 0.980392
0.67451 0.67451 0.67451
0.796078 0.796078 0.796078
0.976471 0.976471 0.976471
0.917647 0.917647 0.917647
0.843137 0.843137 0.843137
0.909804 0.909804 0.909804
0.960784 0.960784 0.960784
0.976471 0.976471 0.976471
0.976471 0.976471 0.976471
0.831373 0.831373 0.831373
0.901961 0.901961 0.901961
0.992157 0.992157 0.992157
0.992157 0.992157 0.992157
0.976471 0.976471 0.976471
0.933333 0.933333 0.933333
0.952941 0.952941 0.952941
0.976471 0.976471 0.976471
0.976471 0.976471 0.976471
0.94902 0.94902 0.94902
0.992157 0.992157 0.992157
0.992157 0.992157 0.992157
0.992157 0.992157 0.992157
0.992157 0.992157 0.992157
0.92549 0.92549 0.92549
0.960784 0.960784 0.960784
0.984314 0.984314 0.984314
0.984314 0.984314 0.984314
0.992157 0.992157 0.992157
0.992157 0.992157 0.992157
0.992157 0.992157 0.992157
0.992157 0.992157 0.992157
0.992157 0.992157 0.992157
0.992157 0.992157 0.992157
0.941176 0.941176 0.941176
1 1 1
1 1 1
0.992157 0.992157 0.992157
0.992157 0.992157 0.992157
0.992157 0.992157 0.992157
0.992157 0.992157 0.992157
0.992157 0.992157 0.992157
0.992157 0.992157 0.992157
0.968627 0.968627 0.968627
0.921569 0.921569 0.921569
0.921569 0.921569 0.921569
0.992157 0.992157 0.992157
0.992157 0.992157 0.992157
0.992157 0.992157 0.992157
0.992157 0.992157 0.992157
0.992157 0.992157 0.992157
0.992157 0.992157 0.992157
0.992157 0.992157 0.992157
0.992157 0.992157 0.992157
0.992157 0.992157 0.992157
0.082353 0.082353 0.082353
0.239216 0.239216 0.239216
0.466667 0.466667 0.466667
0.690196 0.690196 0.690196
0.909804 0.909804 0.909804
0.968627 0.968627 0.968627
0.980392 0.980392 0.980392
0.984314 0.984314 0.984314
0.984314 0.984314 0.984314
0 0 0
0.262745 0.262745 0.262745
0.439216 0.439216 0.439216
0.67451 0.67451 0.67451
0.901961 0.901961 0.901961
0.960784 0.960784 0.960784
0.976471 0.976471 0.976471
0.984314 0.984314 0.984314
0.984314 0.984314 0.984314
0.109804 0.109804 0.109804
0.537255 0.537255 0.537255
0.682353 0.682353 0.682353
0.639216 0.639216 0.639216
0.878431 0.878431 0.878431
0.945098 0.945098 0.945098
0.972549 0.972549 0.972549
0.980392 0.980392 0.980392
0.980392 0.980392 0.980392
0.521569 0.521569 0.521569
0.709804 0.709804 0.709804
0.937255 0.937255 0.937255
0.886275 0.886275 0.886275
0.831373 0.831373 0.831373
0.913725 0.913725 0.913725
0.964706 0.964706 0.964706
0.976471 0.976471 0.976471
0.976471 0.976471 0.976471
0.756863 0.756863 0.756863
0.847059 0.847059 0.847059
0.992157 0.992157 0.992157
0.992157 0.992157 0.992157
0.968627 0.968627 0.968627
0.933333 0.933333 0.933333
0.956863 0.956863 0.956863
0.976471 0.976471 0.976471
0.976471 0.976471 0.976471
0.905882 0.905882 0.905882
0.956863 0.956863 0.956863
0.992157 0.992157 0.992157
0.992157 0.992157 0.992157
0.992157 0.992157 0.992157
0.92549 0.92549 0.92549
0.964706 0.964706 0.964706
0.984314 0.984314 0.984314
0.984314 0.984314 0.984314
0.992157 0.992157 0.992157
0.992157 0.992157 0.992157
0.992157 0.992157 0.992157
0.992157 0.992157 0.992157
0.992157 0.992157 0.992157
0.992157 0.992157 0.992157
0.945098 0.945098 0.945098
1 1 1
1 1 1
0.992157 0.992157 0.992157
0.992157 0.992157 0.992157
0.992157 0.992157 0.992157
0.992157 0.992157 0.992157
0.992157 0.992157 0.992157
0.992157 0.992157 0.992157
0.964706 0.964706 0.964706
0.921569 0.921569 0.921569
0.921569 0.921569 0.921569
0.992157 0.992157 0.992157
0.992157 0.992157 0.992157
0.992157 0.992157 0.992157
0.992157 0.992157 0.992157
0.992157 0.992157 0.992157
0.992157 0.992157 0.992157
0.992157 0.992157 0.992157
0.992157 0.992157 0.992157
0.992157 0.992157 0.992157
0.164706 0.164706 0.164706
0.262745 0.262745 0.262745
0.462745 0.462745 0.462745
0.686275 0.686275 0.686275
0.909804 0.909804 0.909804
0.984314 0.984314 0.984314
0.988235 0.988235 0.988235
0.992157 0.992157 0.992157
0.992157 0.992157 0.992157
0.011765 0.011765 0.011765
0.2 0.2 0.2
0.439216 0.439216 0.439216
0.670588 0.670588 0.670588
0.901961 0.901961 0.901961
0.976471 0.976471 0.976471
0.984314 0.984314 0.984314
0.988235 0.988235 0.988235
0.988235 0.988235 0.988235
0.007843 0.007843 0.007843
0.031373 0.031373 0.031373
0.505882 0.505882 0.505882
0.635294 0.635294 0.635294
0.87451 0.87451 0.87451
0.956863 0.956863 0.956863
0.976471 0.976471 0.976471
0.984314 0.984314 0.984314
0.984314 0.984314 0.984314
0.062745 0.062745 0.062745
0.32549 0.32549 0.32549
0.819608 0.819608 0.819608
0.819608 0.819608 0.819608
0.827451 0.827451 0.827451
0.92549 0.92549 0.92549
0.968627 0.968627 0.968627
0.984314 0.984314 0.984314
0.984314 0.984314 0.984314
0.443137 0.443137 0.443137
0.654902 0.654902 0.654902
0.913725 0.913725 0.913725
0.992157 0.992157 0.992157
0.960784 0.960784 0.960784
0.937255 0.937255 0.937255
0.964706 0.964706 0.964706
0.980392 0.980392 0.980392
0.980392 0.980392 0.980392
0.764706 0.764706 0.764706
0.85098 0.85098 0.85098
0.992157 0.992157 0.992157
0.992157 0.992157 0.992157
0.992157 0.992157 0.992157
0.92549 0.92549 0.92549
0.968627 0.968627 0.968627
0.992157 0.992157 0.992157
0.992157 0.992157 0.992157
0.937255 0.937255 0.937255
0.980392 0.980392 0.980392
0.992157 0.992157 0.992157
0.992157 0.992157 0.992157
0.992157 0.992157 0.992157
0.992157 0.992157 0.992157
0.94902 0.94902 0.94902
1 1 1
1 1 1
0.992157 0.992157 0.992157
0.992157 0.992157 0.992157
0.992157 0.992157 0.992157
0.992157 0.992157 0.992157
0.992157 0.992157 0.992157
0.992157 0.992157 0.992157
0.956863 0.956863 0.956863
0.921569 0.921569 0.921569
0.921569 0.921569 0.921569
0.992157 0.992157 0.992157
0.992157 0.992157 0.992157
0.992157 0.992157 0.992157
0.992157 0.992157 0.992157
0.992157 0.992157 0.992157
0.992157 0.992157 0.992157
0.992157 0.992157 0.992157
0.992157 0.992157 0.992157
0.992157 0.992157 0.992157
0.25098 0.25098 0.25098
0.321569 0.321569 0.321569
0.458824 0.458824 0.458824
0.682353 0.682353 0.682353
0.905882 0.905882 0.905882
0.996078 0.996078 0.996078
0.996078 0.996078 0.996078
0.996078 0.996078 0.996078
0.996078 0.996078 0.996078
0.184314 0.184314 0.184314
0.27451 0.27451 0.27451
0.431373 0.431373 0.431373
0.666667 0.666667 0.666667
0.898039 0.898039 0.898039
1 1 1
0.996078 0.996078 0.996078
0.996078 0.996078 0.996078
0.996078 0.996078 0.996078
0.011765 0.011765 0.011765
0.054902 0.054902 0.054902
0.360784 0.360784 0.360784
0.631373 0.631373 0.631373
0.87451 0.87451 0.87451
0.980392 0.980392 0.980392
0.988235 0.988235 0.988235
0.992157 0.992157 0.992157
0.992157 0.992157 0.992157
0.015686 0.015686 0.015686
0.019608 0.019608 0.019608
0.376471 0.376471 0.376471
0.694118 0.694118 0.694118
0.827451 0.827451 0.827451
0.94902 0.94902 0.94902
0.980392 0.980392 0.980392
0.988235 0.988235 0.988235
0.988235 0.988235 0.988235
0.023529 0.023529 0.023529
0.168627 0.168627 0.168627
0.619608 0.619608 0.619608
0.988235 0.988235 0.988235
0.917647 0.917647 0.917647
0.941176 0.941176 0.941176
0.972549 0.972549 0.972549
0.988235 0.988235 0.988235
0.988235 0.988235 0.988235
0.352941 0.352941 0.352941
0.494118 0.494118 0.494118
0.831373 0.831373 0.831373
0.992157 0.992157 0.992157
0.992157 0.992157 0.992157
0.92549 0.92549 0.92549
0.976471 0.976471 0.976471
0.996078 0.996078 0.996078
0.996078 0.996078 0.996078
0.694118 0.694118 0.694118
0.796078 0.796078 0.796078
0.964706 0.964706 0.964706
0.992157 0.992157 0.992157
0.992157 0.992157 0.992157
0.992157 0.992157 0.992157
0.956863 0.956863 0.956863
1 1 1
1 1 1
0.92549 0.92549 0.92549
0.968627 0.968627 0.968627
0.992157 0.992157 0.992157
0.992157 0.992157 0.992157
0.992157 0.992157 0.992157
0.992157 0.992157 0.992157
0.945098 0.945098 0.945098
0.92549 0.92549 0.92549
0.92549 0.92549 0.92549
0.992157 0.992157 0.992157
0.992157 0.992157 0.992157
0.992157 0.992157 0.992157
0.992157 0.992157 0.992157
0.992157 0.992157 0.992157
0.992157 0.992157 0.992157
0.992157 0.992157 0.992157
0.992157 0.992157 0.992157
0.992157 0.992157 0.992157
0.337255 0.337255 0.337255
0.392157 0.392157 0.392157
0.505882 0.505882 0.505882
0.678431 0.678431 0.678431
0.905882 0.905882 0.905882
0.984314 0.984314 0.984314
1 1 1
1 1 1
1 1 1
0.294118 0.294118 0.294118
0.352941 0.352941 0.352941
0.478431 0.478431 0.478431
0.662745 0.662745 0.662745
0.894118 0.894118 0.894118
0.984314 0.984314 0.984314
1 1 1
1 1 1
1 1 1
0.117647 0.117647 0.117647
0.239216 0.239216 0.239216
0.407843 0.407843 0.407843
0.623529 0.623529 0.623529
0.870588 0.870588 0.870588
0.992157 0.992157 0.992157
1 1 1
1 1 1
1 1 1
0.027451 0.027451 0.027451
0.027451 0.027451 0.027451
0.211765 0.211765 0.211765
0.54902 0.54902 0.54902
0.823529 0.823529 0.823529
0.984314 0.984314 0.984314
0.992157 0.992157 0.992157
0.996078 0.996078 0.996078
0.996078 0.996078 0.996078
0.035294 0.035294 0.035294
0.039216 0.039216 0.039216
0.129412 0.129412 0.129412
0.603922 0.603922 0.603922
0.847059 0.847059 0.847059
0.937255 0.937255 0.937255
0.988235 0.988235 0.988235
1 1 1
1 1 1
0.047059 0.047059 0.047059
0.05098 0.05098 0.05098
0.384314 0.384314 0.384314
0.866667 0.866667 0.866667
0.992157 0.992157 0.992157
0.92549 0.92549 0.92549
0.992157 0.992157 0.992157
1 1 1
1 1 1
0.282353 0.282353 0.282353
0.384314 0.384314 0.384314
0.647059 0.647059 0.647059
0.980392 0.980392 0.980392
0.992157 0.992157 0.992157
0.980392 0.980392 0.980392
0.968627 0.968627 0.968627
1 1 1
1 1 1
0.596078 0.596078 0.596078
0.678431 0.678431 0.678431
0.882353 0.882353 0.882353
0.992157 0.992157 0.992157
0.992157 0.992157 0.992157
0.992157 0.992157 0.992157
0.933333 0.933333 0.933333
0.929412 0.929412 0.929412
0.929412 0.929412 0.929412
0.866667 0.866667 0.866667
0.921569 0.921569 0.921569
0.992157 0.992157 0.992157
0.992157 0.992157 0.992157
0.992157 0.992157 0.992157
0.992157 0.992157 0.992157
0.992157 0.992157 0.992157
0.992157 0.992157 0.992157
0.992157 0.992157 0.992157
0.423529 0.423529 0.423529
0.466667 0.466667 0.466667
0.560784 0.560784 0.560784
0.698039 0.698039 0.698039
0.898039 0.898039 0.898039
0.968627 0.968627 0.968627
0.996078 0.996078 0.996078
1 1 1
1 1 1
0.392157 0.392157 0.392157
0.435294 0.435294 0.435294
0.537255 0.537255 0.537255
0.682353 0.682353 0.682353
0.890196 0.890196 0.890196
0.972549 0.972549 0.972549
0.996078 0.996078 0.996078
1 1 1
1 1 1
0.294118 0.294118 0.294118
0.352941 0.352941 0.352941
0.478431 0.478431 0.478431
0.635294 0.635294 0.635294
0.862745 0.862745 0.862745
0.976471 0.976471 0.976471
0.996078 0.996078 0.996078
1 1 1
1 1 1
0.039216 0.039216 0.039216
0.05098 0.05098 0.05098
0.337255 0.337255 0.337255
0.545098 0.545098 0.545098
0.815686 0.815686 0.815686
0.984314 0.984314 0.984314
1 1 1
1 1 1
1 1 1
0.05098 0.05098 0.05098
0.05098 0.05098 0.05098
0.058824 0.058824 0.058824
0.392157 0.392157 0.392157
0.737255 0.737255 0.737255
0.980392 0.980392 0.980392
0.996078 0.996078 0.996078
1 1 1
1 1 1
0.058824 0.058824 0.058824
0.062745 0.062745 0.062745
0.066667 0.066667 0.066667
0.423529 0.423529 0.423529
0.792157 0.792157 0.792157
0.933333 0.933333 0.933333
1 1 1
1 1 1
1 1 1
0.070588 0.070588 0.070588
0.07451 0.07451 0.07451
0.239216 0.239216 0.239216
0.623529 0.623529 0.623529
0.992157 0.992157 0.992157
0.945098 0.945098 0.945098
0.992157 0.992157 0.992157
1 1 1
1 1 1
0.227451 0.227451 0.227451
0.301961 0.301961 0.301961
0.505882 0.505882 0.505882
0.819608 0.819608 0.819608
0.992157 0.992157 0.992157
0.992157 0.992157 0.992157
0.921569 0.921569 0.921569
0.941176 0.941176 0.941176
0.941176 0.941176 0.941176
0.52549 0.52549 0.52549
0.588235 0.588235 0.588235
0.745098 0.745098 0.745098
0.980392 0.980392 0.980392
0.992157 0.992157 0.992157
0.992157 0.992157 0.992157
0.992157 0.992157 0.992157
0.992157 0.992157 0.992157
0.992157 0.992157 0.992157
0.509804 0.509804 0.509804
0.541176 0.541176 0.541176
0.623529 0.623529 0.623529
0.745098 0.745098 0.745098
0.862745 0.862745 0.862745
0.94902 0.94902 0.94902
1 1 1
1 1 1
1 1 1
0.482353 0.482353 0.482353
0.517647 0.517647 0.517647
0.603922 0.603922 0.603922
0.729412 0.729412 0.729412
0.866667 0.866667 0.866667
0.94902 0.94902 0.94902
1 1 1
1 1 1
1 1 1
0.411765 0.411765 0.411765
0.454902 0.454902 0.454902
0.552941 0.552941 0.552941
0.690196 0.690196 0.690196
0.858824 0.858824 0.858824
0.952941 0.952941 0.952941
1 1 1
1 1 1
1 1 1
0.223529 0.223529 0.223529
0.301961 0.301961 0.301961
0.443137 0.443137 0.443137
0.611765 0.611765 0.611765
0.807843 0.807843 0.807843
0.960784 0.960784 0.960784
1 1 1
1 1 1
1 1 1
0.066667 0.066667 0.066667
0.066667 0.066667 0.066667
0.129412 0.129412 0.129412
0.462745 0.462745 0.462745
0.729412 0.729412 0.729412
0.976471 0.976471 0.976471
1 1 1
1 1 1
1 1 1
0.07451 0.07451 0.07451
0.07451 0.07451 0.07451
0.082353 0.082353 0.082353
0.090196 0.090196 0.090196
0.6 0.6 0.6
0.933333 0.933333 0.933333
1 1 1
1 1 1
1 1 1
0.082353 0.082353 0.082353
0.086275 0.086275 0.086275
0.090196 0.090196 0.090196
0.219608 0.219608 0.219608
0.686275 0.686275 0.686275
0.905882 0.905882 0.905882
1 1 1
1 1 1
1 1 1
0.094118 0.094118 0.094118
0.098039 0.098039 0.098039
0.101961 0.101961 0.101961
0.45098 0.45098 0.45098
0.835294 0.835294 0.835294
0.992157 0.992157 0.992157
0.921569 0.921569 0.921569
0.964706 0.964706 0.964706
0.964706 0.964706 0.964706
0.141176 0.141176 0.141176
0.235294 0.235294 0.235294
0.4 0.4 0.4
0.662745 0.662745 0.662745
0.960784 0.960784 0.960784
0.992157 0.992157 0.992157
0.992157 0.992157 0.992157
0.952941 0.952941 0.952941
0.952941 0.952941 0.952941
0.596078 0.596078 0.596078
0.623529 0.623529 0.623529
0.694118 0.694118 0.694118
0.803922 0.803922 0.803922
0.862745 0.862745 0.862745
0.898039 0.898039 0.898039
0.996078 0.996078 0.996078
1 1 1
1 1 1
0.572549 0.572549 0.572549
0.603922 0.603922 0.603922
0.67451 0.67451 0.67451
0.788235 0.788235 0.788235
0.862745 0.862745 0.862745
0.898039 0.898039 0.898039
1 1 1
1 1 1
1 1 1
0.517647 0.517647 0.517647
0.552941 0.552941 0.552941
0.631373 0.631373 0.631373
0.752941 0.752941 0.752941
0.862745 0.862745 0.862745
0.901961 0.901961 0.901961
1 1 1
1 1 1
1 1 1
0.396078 0.396078 0.396078
0.443137 0.443137 0.443137
0.541176 0.541176 0.541176
0.682353 0.682353 0.682353
0.843137 0.843137 0.843137
0.913725 0.913725 0.913725
1 1 1
1 1 1
1 1 1
0.082353 0.082353 0.082353
0.121569 0.121569 0.121569
0.356863 0.356863 0.356863
0.556863 0.556863 0.556863
0.752941 0.752941 0.752941
0.92549 0.92549 0.92549
1 1 1
1 1 1
1 1 1
0.086275 0.086275 0.086275
0.090196 0.090196 0.090196
0.094118 0.094118 0.094118
0.278431 0.278431 0.278431
0.6 0.6 0.6
0.909804 0.909804 0.909804
1 1 1
1 1 1
1 1 1
0.098039 0.098039 0.098039
0.098039 0.098039 0.098039
0.101961 0.101961 0.101961
0.109804 0.109804 0.109804
0.329412 0.329412 0.329412
0.796078 0.796078 0.796078
1 1 1
1 1 1
1 1 1
0.105882 0.105882 0.105882
0.109804 0.109804 0.109804
0.113725 0.113725 0.113725
0.121569 0.121569 0.121569
0.470588 0.470588 0.470588
0.803922 0.803922 0.803922
0.933333 0.933333 0.933333
0.996078 0.996078 0.996078
0.996078 0.996078 0.996078
0.117647 0.117647 0.117647
0.121569 0.121569 0.121569
0.12549 0.12549 0.12549
0.305882 0.305882 0.305882
0.623529 0.623529 0.623529
0.941176 0.941176 0.941176
0.984314 0.984314 0.984314
0.917647 0.917647 0.917647
0.917647 0.917647 0.917647
0.682353 0.682353 0.682353
0.705882 0.705882 0.705882
0.764706 0.764706 0.764706
0.862745 0.862745 0.862745
0.862745 0.862745 0.862745
0.862745 0.862745 0.862745
0.941176 0.941176 0.941176
0.984314 0.984314 0.984314
0.984314 0.984314 0.984314
0.662745 0.662745 0.662745
0.686275 0.686275 0.686275
0.74902 0.74902 0.74902
0.85098 0.85098 0.85098
0.862745 0.862745 0.862745
0.862745 0.862745 0.862745
0.945098 0.945098 0.945098
0.984314 0.984314 0.984314
0.984314 0.984314 0.984314
0.619608 0.619608 0.619608
0.643137 0.643137 0.643137
0.709804 0.709804 0.709804
0.815686 0.815686 0.815686
0.862745 0.862745 0.862745
0.862745 0.862745 0.862745
0.94902 0.94902 0.94902
0.992157 0.992157 0.992157
0.992157 0.992157 0.992157
0.52549 0.52549 0.52549
0.556863 0.556863 0.556863
0.635294 0.635294 0.635294
0.756863 0.756863 0.756863
0.862745 0.862745 0.862745
0.862745 0.862745 0.862745
0.956863 0.956863 0.956863
0.996078 0.996078 0.996078
0.996078 0.996078 0.996078
0.32549 0.32549 0.32549
0.380392 0.380392 0.380392
0.498039 0.498039 0.498039
0.65098 0.65098 0.65098
0.815686 0.815686 0.815686
0.862745 0.862745 0.862745
0.968627 0.968627 0.968627
1 1 1
1 1 1
0.101961 0.101961 0.101961
0.105882 0.105882 0.105882
0.113725 0.113725 0.113725
0.45098 0.45098 0.45098
0.678431 0.678431 0.678431
0.847059 0.847059 0.847059
0.984314 0.984314 0.984314
1 1 1
1 1 1
0.109804 0.109804 0.109804
0.113725 0.113725 0.113725
0.117647 0.117647 0.117647
0.12549 0.12549 0.12549
0.415686 0.415686 0.415686
0.733333 0.733333 0.733333
1 1 1
1 1 1
1 1 1
0.121569 0.121569 0.121569
0.121569 0.121569 0.121569
0.12549 0.12549 0.12549
0.12549 0.12549 0.12549
0.12549 0.12549 0.12549
0.580392 0.580392 0.580392
0.952941 0.952941 0.952941
1 1 1
1 1 1
0.12549 0.12549 0.12549
0.12549 0.12549 0.12549
0.12549 0.12549 0.12549
0.12549 0.12549 0.12549
0.266667 0.266667 0.266667
0.623529 0.623529 0.623529
0.835294 0.835294 0.835294
0.898039 0.898039 0.898039
0.898039 0.898039 0.898039
