site/assets/luts/freshluts--0000626-green.cube
# LUTr-Schema-Version: 2
# LUTr-ID: freshluts--0000626-green
# LUTr-Title: GREEN
# LUTr-Collection: Fresh LUTs
# LUTr-Collection-ID: freshluts-community
# LUTr-Source: https://freshluts.com
# LUTr-Retrieved: 2026-07-27
# LUTr-Source-File: submissions-raw/freshluts/cubes/626__COOL.RED_37.A007_02270952_C026.cube
# LUTr-Source-Format: CUBE
# LUTr-Source-SHA256: 8b48fe8bdab8467a3c57378be56119321ab4603cc2c7b40f0e54653cf9e2dfa7
# LUTr-License: CC0-1.0
# LUTr-License-URL: https://freshluts.com/termsandconditions
# LUTr-License-Basis: site-terms
# LUTr-Transform-Class: creative-look
# LUTr-Tags: creative, freshluts, community, cube, cool, high-key, bmd-film
# LUTr-Input-Color-Space:
# LUTr-Input-Gamut: bmd-film-gamut
# LUTr-Input-Transfer: bmd-film
# LUTr-Output-Color-Space: srgb
# LUTr-Output-Gamut: rec709
# LUTr-Output-Transfer: srgb
# LUTr-Color-Space-Confidence: camera-profile-input-required
# LUTr-Domain-Normalized: true
# LUTr-Shaper: none
# LUTr-Original-Grid: 33x33x33
# LUTr-Conversion-Grid: 33x33x33
# LUTr-Conversion-Interpolation: none
# LUTr-Conversion-Method: Metadata normalization; numeric LUT samples preserved
# LUTr-Conversion-Tool: LUTr scripts/convert-all-to-cube.mjs 2.0.0
# LUTr-Conversion-Date: 2026-07-28
# LUTr-Asset-URL: https://freshluts.com/luts/626
# LUTr-Author: lvannoeun@gmail.com
# LUTr-Author-URL: https://freshluts.com/users/57563
# LUTr-Attribution: lvannoeun@gmail.com via Fresh LUTs
# LUTr-Source-Labels: gamma=Blackmagic BMD Film; color=Cool; key=High Key; style=Drama
# LUTr-Note: Preserve this metadata and the upstream license notices when redistributing.
TITLE "GREEN"
LUT_3D_SIZE 5
DOMAIN_MIN 0 0 0
DOMAIN_MAX 1 1 1
0.00210575 0 0
0.289281 0 0.00447089
0.538247 0 0.0105898
0.743725 0 0.0246586
0.932876 0.0170291 0.0443427
0.000442512 0.224781 0
0.270954 0.237095 0.00680552
0.516579 0.245441 0
0.731197 0.25359 0.00411994
0.932342 0.267002 0.0307317
0 0.4878 0
0.251209 0.492439 0
0.499977 0.499565 0
0.714305 0.507347 0
0.925429 0.517617 0.0238956
0 0.735302 0
0.242847 0.745403 0
0.493706 0.752941 0
0.706767 0.760189 0.00491341
0.922255 0.768917 0.0363012
0 0.971267 0.0176242
0.270207 0.981399 0.0205692
0.511543 0.992218 0.028748
0.718883 1 0.045655
0.933654 1 0.0697948
0.00648508 0 0.22562
0.284566 0 0.244892
0.535729 0 0.267033
0.750011 0 0.274434
0.943008 0.0132448 0.281865
0 0.224842 0.232349
0.263096 0.238407 0.245808
0.490867 0.249577 0.257511
0.731014 0.251255 0.259785
0.947478 0.261784 0.270268
0 0.485115 0.229541
0.267857 0.481315 0.25713
0.495079 0.494835 0.270008
0.710918 0.505486 0.252857
0.935546 0.514168 0.259663
0 0.736889 0.233417
0.234333 0.74461 0.233524
0.48896 0.751553 0.241901
0.704311 0.759533 0.249393
0.927749 0.767987 0.260349
0 0.971099 0.267002
0.250736 0.986725 0.257221
0.495308 0.997223 0.256794
0.708995 1 0.264775
0.931975 1 0.280232
0.00308232 0 0.541451
0.298802 0 0.547311
0.53286 0 0.554055
0.746075 0 0.558206
0.944366 0.0110628 0.557
0 0.228885 0.525917
0.26714 0.236347 0.505074
0.492988 0.248417 0.517555
0.72546 0.249851 0.544854
0.950072 0.258152 0.554116
0 0.48249 0.515297
0.264866 0.481559 0.511727
0.496117 0.494865 0.518822
0.682506 0.510536 0.538827
0.930602 0.512413 0.544839
0 0.734157 0.515038
0.23064 0.741848 0.519448
0.509743 0.740108 0.546029
0.706203 0.752346 0.567315
0.918807 0.766445 0.555215
0 0.970855 0.536446
0.237781 0.987839 0.532769
0.489082 0.996201 0.538094
0.706416 1 0.549828
0.928923 1 0.557351
0.00155642 0 0.789868
0.291539 0 0.811063
0.522911 0 0.818631
0.731044 0 0.818753
0.934707 0.0136873 0.816541
0 0.226444 0.794476
0.264271 0.231601 0.811795
0.509255 0.238849 0.81883
0.725765 0.246967 0.825666
0.94638 0.256825 0.831067
0 0.478248 0.788067
0.239246 0.485176 0.802167
0.493462 0.493858 0.790326
0.693263 0.507408 0.790845
0.924819 0.511879 0.819425
0 0.728267 0.787121
0.226749 0.739925 0.801175
0.499687 0.743191 0.799588
0.711772 0.752911 0.798596
0.896635 0.771939 0.819135
0 0.967865 0.803265
0.236149 0.985458 0.811963
0.487221 0.994537 0.819135
0.726848 0.9935 0.837644
0.937011 1 0.864347
0.00192264 0 1
0.283131 0 1
0.508278 0 1
0.715938 0.0040589 1
0.928862 0.0157473 1
0 0.225467 1
0.264057 0.232837 1
0.504646 0.240253 1
0.717952 0.248875 1
0.933608 0.260548 1
0 0.474189 1
0.242496 0.483513 1
0.490547 0.491249 1
0.70576 0.499321 1
0.929458 0.508293 1
0 0.724483 1
0.233433 0.736873 1
0.481788 0.745998 1
0.698604 0.754299 1
0.911421 0.767956 1
0 0.96788 1
0.248661 0.980713 1
0.484871 0.993667 1
0.706569 0.999405 1
0.938994 1 1
