site/assets/luts/freshluts--0001092-arri-crosstalk-custom-look-2-by-tjtop.cube
# LUTr-Schema-Version: 2
# LUTr-ID: freshluts--0001092-arri-crosstalk-custom-look-2-by-tjtop
# LUTr-Title: Arri_Crosstalk_Custom_Look_2_by_TJTOP
# LUTr-Collection: Fresh LUTs
# LUTr-Collection-ID: freshluts-community
# LUTr-Source: https://freshluts.com
# LUTr-Retrieved: 2026-07-27
# LUTr-Source-File: submissions-raw/freshluts/cubes/1092__LogC_CCL_2_33.cube
# LUTr-Source-Format: CUBE
# LUTr-Source-SHA256: b80ddfcf881eea0cba929fb3a9715c81d8d17c1fd84122e8e155204fae276774
# LUTr-License: CC0-1.0
# LUTr-License-URL: https://freshluts.com/termsandconditions
# LUTr-License-Basis: site-terms
# LUTr-Transform-Class: creative-look
# LUTr-Tags: creative, freshluts, community, cube, film-emulation, teal, arri-logc3-ei800
# LUTr-Input-Color-Space:
# LUTr-Input-Gamut: arri-wide-gamut-3
# LUTr-Input-Transfer: arri-logc3-ei800
# LUTr-Output-Color-Space: srgb
# LUTr-Output-Gamut: rec709
# LUTr-Output-Transfer: srgb
# LUTr-Color-Space-Confidence: camera-profile-input-required
# LUTr-Domain-Normalized: true
# LUTr-Shaper: none
# LUTr-Original-Grid: 33x33x33
# LUTr-Conversion-Grid: 33x33x33
# LUTr-Conversion-Interpolation: none
# LUTr-Conversion-Method: Metadata normalization; numeric LUT samples preserved
# LUTr-Conversion-Tool: LUTr scripts/convert-all-to-cube.mjs 2.0.0
# LUTr-Conversion-Date: 2026-07-28
# LUTr-Asset-URL: https://freshluts.com/luts/1092
# LUTr-Author: tjtop
# LUTr-Author-URL: https://freshluts.com/users/10151
# LUTr-Attribution: tjtop via Fresh LUTs
# LUTr-Source-Labels: gamma=Arri log c; color=Teal; key=Neutral; style=Film emulation
# LUTr-Note: Preserve this metadata and the upstream license notices when redistributing.
TITLE "Arri_Crosstalk_Custom_Look_2_by_TJTOP"
LUT_3D_SIZE 33
DOMAIN_MIN 0 0 0
DOMAIN_MAX 1 1 1
0.054757 0.031285 0.027843
0.086007 0.031285 0.027843
0.117257 0.031285 0.027843
0.148507 0.031285 0.027843
0.176191 0.031285 0.027843
0.198314 0.031285 0.027843
0.220394 0.031285 0.027843
0.244239 0.031285 0.027843
0.2696 0.031285 0.027843
0.296228 0.031285 0.027843
0.323888 0.031285 0.027843
0.352374 0.031285 0.027843
0.38151 0.031285 0.027843
0.411153 0.031285 0.027843
0.441186 0.031285 0.027843
0.471517 0.031285 0.027843
0.502075 0.031285 0.027843
0.532804 0.031285 0.027843
0.563664 0.031285 0.027843
0.594621 0.031285 0.027843
0.625652 0.031285 0.027843
0.656738 0.031285 0.027843
0.687865 0.031285 0.027843
0.719023 0.031285 0.027843
0.750204 0.031285 0.027843
0.781402 0.031285 0.027843
0.812614 0.031285 0.027843
0.843835 0.031285 0.027843
0.875064 0.031285 0.027843
0.906298 0.031285 0.027843
0.937536 0.031285 0.027843
0.968777 0.031285 0.027843
1.00002 0.031285 0.027843
0.034757 0.04441 0.023155
0.066007 0.04441 0.023155
0.097257 0.04441 0.023155
0.128507 0.04441 0.023155
0.15931 0.04441 0.023155
0.184785 0.04441 0.023155
0.209513 0.04441 0.023155
0.235615 0.04441 0.023155
0.262849 0.04441 0.023155
0.290996 0.04441 0.023155
0.319867 0.04441 0.023155
0.349304 0.04441 0.023155
0.379178 0.04441 0.023155
0.409388 0.04441 0.023155
0.439854 0.04441 0.023155
0.470514 0.04441 0.023155
0.501321 0.04441 0.023155
0.532239 0.04441 0.023155
0.56324 0.04441 0.023155
0.594304 0.04441 0.023155
0.625414 0.04441 0.023155
0.65656 0.04441 0.023155
0.687732 0.04441 0.023155
0.718923 0.04441 0.023155
0.750129 0.04441 0.023155
0.781347 0.04441 0.023155
0.812572 0.04441 0.023155
0.843804 0.04441 0.023155
0.87504 0.04441 0.023155
0.90628 0.04441 0.023155
0.937523 0.04441 0.023155
0.968767 0.04441 0.023155
1.000013 0.04441 0.023155
0.014757 0.057535 0.018468
0.046007 0.057535 0.018468
0.077257 0.057535 0.018468
0.108507 0.057535 0.018468
0.139757 0.057535 0.018468
0.169302 0.057535 0.018468
0.197402 0.057535 0.018468
0.226236 0.057535 0.018468
0.255644 0.057535 0.018468
0.285497 0.057535 0.018468
0.31569 0.057535 0.018468
0.346143 0.057535 0.018468
0.376794 0.057535 0.018468
0.407594 0.057535 0.018468
0.438506 0.057535 0.018468
0.469503 0.057535 0.018468
0.500563 0.057535 0.018468
0.531671 0.057535 0.018468
0.562815 0.057535 0.018468
0.593985 0.057535 0.018468
0.625176 0.057535 0.018468
0.656382 0.057535 0.018468
0.687598 0.057535 0.018468
0.718824 0.057535 0.018468
0.750055 0.057535 0.018468
0.781291 0.057535 0.018468
0.812531 0.057535 0.018468
0.843773 0.057535 0.018468
0.875017 0.057535 0.018468
0.906263 0.057535 0.018468
0.93751 0.057535 0.018468
0.968757 0.057535 0.018468
1.000005 0.057535 0.018468
-0.005243 0.07066 0.01378
0.026007 0.07066 0.01378
0.057257 0.07066 0.01378
0.088507 0.07066 0.01378
0.119757 0.07066 0.01378
0.151203 0.07066 0.01378
0.18375 0.07066 0.01378
0.21596 0.07066 0.01378
0.247921 0.07066 0.01378
0.2797 0.07066 0.01378
0.311344 0.07066 0.01378
0.342887 0.07066 0.01378
0.374355 0.07066 0.01378
0.405769 0.07066 0.01378
0.43714 0.07066 0.01378
0.468481 0.07066 0.01378
0.499799 0.07066 0.01378
0.5311 0.07066 0.01378
0.562388 0.07066 0.01378
0.593666 0.07066 0.01378
0.624937 0.07066 0.01378
0.656203 0.07066 0.01378
0.687465 0.07066 0.01378
0.718724 0.07066 0.01378
0.74998 0.07066 0.01378
0.781235 0.07066 0.01378
0.812489 0.07066 0.01378
0.843742 0.07066 0.01378
0.874994 0.07066 0.01378
0.906245 0.07066 0.01378
0.937497 0.07066 0.01378
0.968747 0.07066 0.01378
0.999998 0.07066 0.01378
-0.025058 0.083953 0.009064
0.006192 0.083953 0.009064
0.037442 0.083953 0.009064
0.068692 0.083953 0.009064
0.099942 0.083953 0.009064
0.131399 0.083953 0.009064
0.168261 0.083953 0.009064
0.204705 0.083953 0.009064
0.239679 0.083953 0.009064
0.273631 0.083953 0.009064
0.306857 0.083953 0.009064
0.33956 0.083953 0.009064
0.371884 0.083953 0.009064
0.403929 0.083953 0.009064
0.43577 0.083953 0.009064
0.46746 0.083953 0.009064
0.499037 0.083953 0.009064
0.530531 0.083953 0.009064
0.561963 0.083953 0.009064
0.593349 0.083953 0.009064
0.6247 0.083953 0.009064
0.656026 0.083953 0.009064
0.687333 0.083953 0.009064
0.718625 0.083953 0.009064
0.749907 0.083953 0.009064
0.78118 0.083953 0.009064
0.812448 0.083953 0.009064
0.843711 0.083953 0.009064
0.874971 0.083953 0.009064
0.906228 0.083953 0.009064
0.937484 0.083953 0.009064
0.968738 0.083953 0.009064
0.999991 0.083953 0.009064
-0.044653 0.097651 0.004264
-0.013403 0.097651 0.004264
0.017847 0.097651 0.004264
0.049097 0.097651 0.004264
0.080347 0.097651 0.004264
0.111803 0.097651 0.004264
0.150372 0.097651 0.004264
0.192278 0.097651 0.004264
0.230854 0.097651 0.004264
0.267271 0.097651 0.004264
0.302227 0.097651 0.004264
0.336166 0.097651 0.004264
0.369382 0.097651 0.004264
0.402079 0.097651 0.004264
0.434398 0.097651 0.004264
0.46644 0.097651 0.004264
0.498278 0.097651 0.004264
0.529966 0.097651 0.004264
0.561541 0.097651 0.004264
0.593034 0.097651 0.004264
0.624465 0.097651 0.004264
0.655851 0.097651 0.004264
0.687202 0.097651 0.004264
0.718527 0.097651 0.004264
0.749833 0.097651 0.004264
0.781126 0.097651 0.004264
0.812407 0.097651 0.004264
0.843681 0.097651 0.004264
0.874948 0.097651 0.004264
0.906211 0.097651 0.004264
0.937471 0.097651 0.004264
0.968728 0.097651 0.004264
0.999984 0.097651 0.004264
-0.068204 0.11488 -0.001692
-0.036954 0.11488 -0.001692
-0.005704 0.11488 -0.001692
0.025546 0.11488 -0.001692
0.056796 0.11488 -0.001692
0.088253 0.11488 -0.001692
0.126824 0.11488 -0.001692
0.175147 0.11488 -0.001692
0.219189 0.11488 -0.001692
0.259093 0.11488 -0.001692
0.296385 0.11488 -0.001692
0.331939 0.11488 -0.001692
0.366297 0.11488 -0.001692
0.399812 0.11488 -0.001692
0.432725 0.11488 -0.001692
0.465201 0.11488 -0.001692
0.497359 0.11488 -0.001692
0.529282 0.11488 -0.001692
0.561032 0.11488 -0.001692
0.592655 0.11488 -0.001692
0.624183 0.11488 -0.001692
0.65564 0.11488 -0.001692
0.687044 0.11488 -0.001692
0.718409 0.11488 -0.001692
0.749746 0.11488 -0.001692
0.78106 0.11488 -0.001692
0.812358 0.11488 -0.001692
0.843644 0.11488 -0.001692
0.874921 0.11488 -0.001692
0.906191 0.11488 -0.001692
0.937456 0.11488 -0.001692
0.968717 0.11488 -0.001692
0.999975 0.11488 -0.001692
-0.098896 0.138669 -0.009775
-0.067646 0.138669 -0.009775
-0.036396 0.138669 -0.009775
-0.005146 0.138669 -0.009775
0.026104 0.138669 -0.009775
0.057561 0.138669 -0.009775
0.096132 0.138669 -0.009775
0.147736 0.138669 -0.009775
0.201793 0.138669 -0.009775
0.247406 0.138669 -0.009775
0.288261 0.138669 -0.009775
0.326168 0.138669 -0.009775
0.362138 0.138669 -0.009775
0.396784 0.138669 -0.009775
0.430505 0.138669 -0.009775
0.463565 0.138669 -0.009775
0.496148 0.138669 -0.009775
0.528384 0.138669 -0.009775
0.560365 0.138669 -0.009775
0.592158 0.138669 -0.009775
0.623813 0.138669 -0.009775
0.655364 0.138669 -0.009775
0.686838 0.138669 -0.009775
0.718256 0.138669 -0.009775
0.749631 0.138669 -0.009775
0.780974 0.138669 -0.009775
0.812294 0.138669 -0.009775
0.843596 0.138669 -0.009775
0.874885 0.138669 -0.009775
0.906164 0.138669 -0.009775
0.937436 0.138669 -0.009775
0.968702 0.138669 -0.009775
0.999964 0.138669 -0.009775
-0.138513 0.169794 -0.020781
-0.107263 0.169794 -0.020781
-0.076013 0.169794 -0.020781
-0.044763 0.169794 -0.020781
-0.013513 0.169794 -0.020781
0.017944 0.169794 -0.020781
0.056515 0.169794 -0.020781
0.108119 0.169794 -0.020781
0.174142 0.169794 -0.020781
0.230152 0.169794 -0.020781
0.276775 0.169794 -0.020781
0.318229 0.169794 -0.020781
0.356519 0.169794 -0.020781
0.392745 0.169794 -0.020781
0.42757 0.169794 -0.020781
0.461416 0.169794 -0.020781
0.494566 0.169794 -0.020781
0.527214 0.169794 -0.020781
0.559498 0.169794 -0.020781
0.591514 0.169794 -0.020781
0.623333 0.169794 -0.020781
0.655007 0.169794 -0.020781
0.686572 0.169794 -0.020781
0.718057 0.169794 -0.020781
0.749483 0.169794 -0.020781
0.780864 0.169794 -0.020781
0.812211 0.169794 -0.020781
0.843534 0.169794 -0.020781
0.874839 0.169794 -0.020781
0.906129 0.169794 -0.020781
0.93741 0.169794 -0.020781
0.968683 0.169794 -0.020781
0.99995 0.169794 -0.020781
-0.188964 0.202819 -0.035814
-0.157714 0.202819 -0.035814
-0.126464 0.202819 -0.035814
-0.095214 0.202819 -0.035814
-0.063964 0.202819 -0.035814
-0.032507 0.202819 -0.035814
0.006064 0.202819 -0.035814
0.057668 0.202819 -0.035814
0.126708 0.202819 -0.035814
0.203198 0.202819 -0.035814
0.260106 0.202819 -0.035814
0.307187 0.202819 -0.035814
0.34891 0.202819 -0.035814
0.387371 0.202819 -0.035814
0.423712 0.202819 -0.035814
0.458615 0.202819 -0.035814
0.492516 0.202819 -0.035814
0.525706 0.202819 -0.035814
0.558383 0.202819 -0.035814
0.590688 0.202819 -0.035814
0.62272 0.202819 -0.035814
0.65455 0.202819 -0.035814
0.686232 0.202819 -0.035814
0.717804 0.202819 -0.035814
0.749293 0.202819 -0.035814
0.780722 0.202819 -0.035814
0.812106 0.202819 -0.035814
0.843456 0.202819 -0.035814
0.87478 0.202819 -0.035814
0.906085 0.202819 -0.035814
0.937377 0.202819 -0.035814
0.968658 0.202819 -0.035814
0.999931 0.202819 -0.035814
-0.251979 0.23719 -0.056401
-0.220729 0.23719 -0.056401
-0.189479 0.23719 -0.056401
-0.158229 0.23719 -0.056401
-0.126979 0.23719 -0.056401
-0.095522 0.23719 -0.056401
-0.056951 0.23719 -0.056401
-0.005348 0.23719 -0.056401
0.063693 0.23719 -0.056401
0.155877 0.23719 -0.056401
0.234826 0.23719 -0.056401
0.291578 0.23719 -0.056401
0.33858 0.23719 -0.056401
0.380258 0.23719 -0.056401
0.418689 0.23719 -0.056401
0.45501 0.23719 -0.056401
0.4899 0.23719 -0.056401
0.523792 0.23719 -0.056401
0.556975 0.23719 -0.056401
0.589647 0.23719 -0.056401
0.621948 0.23719 -0.056401
0.653977 0.23719 -0.056401
0.685806 0.23719 -0.056401
0.717486 0.23719 -0.056401
0.749057 0.23719 -0.056401
0.780546 0.23719 -0.056401
0.811974 0.23719 -0.056401
0.843357 0.23719 -0.056401
0.874707 0.23719 -0.056401
0.906031 0.23719 -0.056401
0.937336 0.23719 -0.056401
0.968627 0.23719 -0.056401
0.999908 0.23719 -0.056401
-0.328464 0.272987 -0.084604
-0.297214 0.272987 -0.084604
-0.265964 0.272987 -0.084604
-0.234714 0.272987 -0.084604
-0.203464 0.272987 -0.084604
-0.172007 0.272987 -0.084604
-0.133436 0.272987 -0.084604
-0.081833 0.272987 -0.084604
-0.012792 0.272987 -0.084604
0.079576 0.272987 -0.084604
0.193066 0.272987 -0.084604
0.268964 0.272987 -0.084604
0.32454 0.272987 -0.084604
0.370938 0.272987 -0.084604
0.41226 0.272987 -0.084604
0.450466 0.272987 -0.084604
0.486636 0.272987 -0.084604
0.521421 0.272987 -0.084604
0.55524 0.272987 -0.084604
0.58837 0.272987 -0.084604
0.621005 0.272987 -0.084604
0.653278 0.272987 -0.084604
0.685286 0.272987 -0.084604
0.7171 0.272987 -0.084604
0.748769 0.272987 -0.084604
0.780331 0.272987 -0.084604
0.811814 0.272987 -0.084604
0.843238 0.272987 -0.084604
0.874617 0.272987 -0.084604
0.905964 0.272987 -0.084604
0.937286 0.272987 -0.084604
0.96859 0.272987 -0.084604
0.999881 0.272987 -0.084604
-0.417275 0.310293 -0.123063
-0.386025 0.310293 -0.123063
-0.354775 0.310293 -0.123063
-0.323525 0.310293 -0.123063
-0.292275 0.310293 -0.123063
-0.260818 0.310293 -0.123063
-0.222247 0.310293 -0.123063
-0.170644 0.310293 -0.123063
-0.101603 0.310293 -0.123063
-0.009235 0.310293 -0.123063
0.114344 0.310293 -0.123063
0.234844 0.310293 -0.123063
0.305535 0.310293 -0.123063
0.358992 0.310293 -0.123063
0.404277 0.310293 -0.123063
0.444936 0.310293 -0.123063
0.482717 0.310293 -0.123063
0.518602 0.310293 -0.123063
0.553189 0.310293 -0.123063
0.586868 0.310293 -0.123063
0.619898 0.310293 -0.123063
0.65246 0.310293 -0.123063
0.68468 0.310293 -0.123063
0.716649 0.310293 -0.123063
0.748434 0.310293 -0.123063
0.780081 0.310293 -0.123063
0.811628 0.310293 -0.123063
0.843099 0.310293 -0.123063
0.874514 0.310293 -0.123063
0.905887 0.310293 -0.123063
0.937228 0.310293 -0.123063
0.968547 0.310293 -0.123063
0.999848 0.310293 -0.123063
-0.513058 0.349161 -0.174728
-0.481808 0.349161 -0.174728
-0.450558 0.349161 -0.174728
-0.419308 0.349161 -0.174728
-0.388058 0.349161 -0.174728
-0.356602 0.349161 -0.174728
-0.318031 0.349161 -0.174728
-0.266427 0.349161 -0.174728
-0.197386 0.349161 -0.174728
-0.105018 0.349161 -0.174728
0.018561 0.349161 -0.174728
0.179375 0.349161 -0.174728
0.280383 0.349161 -0.174728
0.344418 0.349161 -0.174728
0.394945 0.349161 -0.174728
0.438635 0.349161 -0.174728
0.478324 0.349161 -0.174728
0.515475 0.349161 -0.174728
0.550933 0.349161 -0.174728
0.585224 0.349161 -0.174728
0.618692 0.349161 -0.174728
0.651571 0.349161 -0.174728
0.684022 0.349161 -0.174728
0.716161 0.349161 -0.174728
0.748071 0.349161 -0.174728
0.779811 0.349161 -0.174728
0.811426 0.349161 -0.174728
0.842949 0.349161 -0.174728
0.874402 0.349161 -0.174728
0.905803 0.349161 -0.174728
0.937166 0.349161 -0.174728
0.9685 0.349161 -0.174728
0.999814 0.349161 -0.174728
-0.602751 0.389568 -0.241625
-0.5715 0.389568 -0.241625
-0.54025 0.389568 -0.241625
-0.509 0.389568 -0.241625
-0.477751 0.389568 -0.241625
-0.446294 0.389568 -0.241625
-0.407723 0.389568 -0.241625
-0.356119 0.389568 -0.241625
-0.287079 0.389568 -0.241625
-0.19471 0.389568 -0.241625
-0.071131 0.389568 -0.241625
0.094204 0.389568 -0.241625
0.249895 0.389568 -0.241625
0.328705 0.389568 -0.241625
0.385404 0.389568 -0.241625
0.432379 0.389568 -0.241625
0.474041 0.389568 -0.241625
0.512463 0.389568 -0.241625
0.548777 0.389568 -0.241625
0.583662 0.389568 -0.241625
0.61755 0.389568 -0.241625
0.650731 0.389568 -0.241625
0.683402 0.389568 -0.241625
0.715702 0.389568 -0.241625
0.74773 0.389568 -0.241625
0.779558 0.389568 -0.241625
0.811238 0.389568 -0.241625
0.842808 0.389568 -0.241625
0.874297 0.389568 -0.241625
0.905725 0.389568 -0.241625
0.937108 0.389568 -0.241625
0.968457 0.389568 -0.241625
0.999781 0.389568 -0.241625
-0.660568 0.431352 -0.320907
-0.629318 0.431352 -0.320907
-0.598068 0.431352 -0.320907
-0.566818 0.431352 -0.320907
-0.535568 0.431352 -0.320907
-0.504112 0.431352 -0.320907
-0.465541 0.431352 -0.320907
-0.413937 0.431352 -0.320907
-0.344897 0.431352 -0.320907
-0.252528 0.431352 -0.320907
-0.128949 0.431352 -0.320907
0.036386 0.431352 -0.320907
0.224357 0.431352 -0.320907
0.317202 0.431352 -0.320907
0.378771 0.431352 -0.320907
0.428144 0.431352 -0.320907
0.471186 0.431352 -0.320907
0.510475 0.431352 -0.320907
0.547363 0.431352 -0.320907
0.582642 0.431352 -0.320907
0.616808 0.431352 -0.320907
0.650187 0.431352 -0.320907
0.683001 0.431352 -0.320907
0.715405 0.431352 -0.320907
0.74751 0.431352 -0.320907
0.779394 0.431352 -0.320907
0.811116 0.431352 -0.320907
0.842717 0.431352 -0.320907
0.874229 0.431352 -0.320907
0.905674 0.431352 -0.320907
0.93707 0.431352 -0.320907
0.968429 0.431352 -0.320907
0.99976 0.431352 -0.320907
-0.642555 0.474143 -0.393748
-0.611305 0.474143 -0.393748
-0.580055 0.474143 -0.393748
-0.548805 0.474143 -0.393748
-0.517555 0.474143 -0.393748
-0.486098 0.474143 -0.393748
-0.447527 0.474143 -0.393748
-0.395923 0.474143 -0.393748
-0.326883 0.474143 -0.393748
-0.234514 0.474143 -0.393748
-0.110935 0.474143 -0.393748
0.0544 0.474143 -0.393748
0.232984 0.474143 -0.393748
0.32092 0.474143 -0.393748
0.380882 0.474143 -0.393748
0.429482 0.474143 -0.393748
0.472084 0.474143 -0.393748
0.511098 0.474143 -0.393748
0.547806 0.474143 -0.393748
0.582961 0.474143 -0.393748
0.61704 0.474143 -0.393748
0.650357 0.474143 -0.393748
0.683126 0.474143 -0.393748
0.715497 0.474143 -0.393748
0.747578 0.474143 -0.393748
0.779445 0.474143 -0.393748
0.811154 0.474143 -0.393748
0.842745 0.474143 -0.393748
0.87425 0.474143 -0.393748
0.90569 0.474143 -0.393748
0.937082 0.474143 -0.393748
0.968437 0.474143 -0.393748
0.999766 0.474143 -0.393748
-0.485904 0.517261 -0.395953
-0.454654 0.517261 -0.395953
-0.423404 0.517261 -0.395953
-0.392154 0.517261 -0.395953
-0.360904 0.517261 -0.395953
-0.329447 0.517261 -0.395953
-0.290876 0.517261 -0.395953
-0.239272 0.517261 -0.395953
-0.170232 0.517261 -0.395953
-0.077864 0.517261 -0.395953
0.045715 0.517261 -0.395953
0.19821 0.517261 -0.395953
0.288131 0.517261 -0.395953
0.348754 0.517261 -0.395953
0.397674 0.517261 -0.395953
0.440459 0.517261 -0.395953
0.479588 0.517261 -0.395953
0.516371 0.517261 -0.395953
0.551578 0.517261 -0.395953
0.585693 0.517261 -0.395953
0.619035 0.517261 -0.395953
0.651823 0.517261 -0.395953
0.684209 0.517261 -0.395953
0.7163 0.517261 -0.395953
0.748174 0.517261 -0.395953
0.779888 0.517261 -0.395953
0.811484 0.517261 -0.395953
0.842991 0.517261 -0.395953
0.874433 0.517261 -0.395953
0.905827 0.517261 -0.395953
0.937184 0.517261 -0.395953
0.968514 0.517261 -0.395953
0.999823 0.517261 -0.395953
-0.130433 0.559541 -0.142754
-0.099183 0.559541 -0.142754
-0.067933 0.559541 -0.142754
-0.036683 0.559541 -0.142754
-0.005433 0.559541 -0.142754
0.026024 0.559541 -0.142754
0.064595 0.559541 -0.142754
0.116199 0.559541 -0.142754
0.180389 0.559541 -0.142754
0.233903 0.559541 -0.142754
0.279219 0.559541 -0.142754
0.319897 0.559541 -0.142754
0.357689 0.559541 -0.142754
0.393582 0.559541 -0.142754
0.428175 0.559541 -0.142754
0.461857 0.559541 -0.142754
0.49489 0.559541 -0.142754
0.527454 0.559541 -0.142754
0.559675 0.559541 -0.142754
0.591646 0.559541 -0.142754
0.623431 0.559541 -0.142754
0.65508 0.559541 -0.142754
0.686626 0.559541 -0.142754
0.718098 0.559541 -0.142754
0.749513 0.559541 -0.142754
0.780886 0.559541 -0.142754
0.812228 0.559541 -0.142754
0.843547 0.559541 -0.142754
0.874848 0.559541 -0.142754
0.906137 0.559541 -0.142754
0.937415 0.559541 -0.142754
0.968687 0.559541 -0.142754
0.999953 0.559541 -0.142754
0.282402 0.599277 0.326504
0.291113 0.599277 0.326504
0.299171 0.599277 0.326504
0.306666 0.599277 0.326504
0.313671 0.599277 0.326504
0.320289 0.599277 0.326504
0.327884 0.599277 0.326504
0.337272 0.599277 0.326504
0.34867 0.599277 0.326504
0.362244 0.599277 0.326504
0.378075 0.599277 0.326504
0.396156 0.599277 0.326504
0.416387 0.599277 0.326504
0.438593 0.599277 0.326504
0.462548 0.599277 0.326504
0.488002 0.599277 0.326504
0.514706 0.599277 0.326504
0.542428 0.599277 0.326504
0.570963 0.599277 0.326504
0.600138 0.599277 0.326504
0.62981 0.599277 0.326504
0.659865 0.599277 0.326504
0.690214 0.599277 0.326504
0.720785 0.599277 0.326504
0.751525 0.599277 0.326504
0.782392 0.599277 0.326504
0.813354 0.599277 0.326504
0.844389 0.599277 0.326504
0.875478 0.599277 0.326504
0.906608 0.599277 0.326504
0.937767 0.599277 0.326504
0.96895 0.599277 0.326504
1.000149 0.599277 0.326504
0.3991 0.636467 0.438289
0.402118 0.636467 0.438289
0.405053 0.636467 0.438289
0.407909 0.636467 0.438289
0.410692 0.636467 0.438289
0.413422 0.636467 0.438289
0.416678 0.636467 0.438289
0.420884 0.636467 0.438289
0.426266 0.636467 0.438289
0.433069 0.636467 0.438289
0.441544 0.636467 0.438289
0.451928 0.636467 0.438289
0.464415 0.636467 0.438289
0.47913 0.636467 0.438289
0.496111 0.636467 0.438289
0.515302 0.636467 0.438289
0.536561 0.636467 0.438289
0.559686 0.636467 0.438289
0.584434 0.636467 0.438289
0.610553 0.636467 0.438289
0.637801 0.636467 0.438289
0.665959 0.636467 0.438289
0.694839 0.636467 0.438289
0.724282 0.636467 0.438289
0.754162 0.636467 0.438289
0.784376 0.636467 0.438289
0.814845 0.636467 0.438289
0.845507 0.636467 0.438289
0.876316 0.636467 0.438289
0.907235 0.636467 0.438289
0.938237 0.636467 0.438289
0.969302 0.636467 0.438289
1.000413 0.636467 0.438289
0.467254 0.671952 0.505234
0.468864 0.671952 0.505234
0.47045 0.671952 0.505234
0.472013 0.671952 0.505234
0.473553 0.671952 0.505234
0.475082 0.671952 0.505234
0.476927 0.671952 0.505234
0.479347 0.671952 0.505234
0.482502 0.671952 0.505234
0.486582 0.671952 0.505234
0.49181 0.671952 0.505234
0.498428 0.671952 0.505234
0.506689 0.671952 0.505234
0.516832 0.671952 0.505234
0.529058 0.671952 0.505234
0.543501 0.671952 0.505234
0.56021 0.671952 0.505234
0.57914 0.671952 0.505234
0.600161 0.671952 0.505234
0.623073 0.671952 0.505234
0.647639 0.671952 0.505234
0.673606 0.671952 0.505234
0.70073 0.671952 0.505234
0.72879 0.671952 0.505234
0.757591 0.671952 0.505234
0.786974 0.671952 0.505234
0.816807 0.671952 0.505234
0.846985 0.671952 0.505234
0.877428 0.671952 0.505234
0.90807 0.671952 0.505234
0.938863 0.671952 0.505234
0.96977 0.671952 0.505234
1.000764 0.671952 0.505234
0.519625 0.706261 0.557074
0.520616 0.706261 0.557074
0.521598 0.706261 0.557074
0.522571 0.706261 0.557074
0.523536 0.706261 0.557074
0.524498 0.706261 0.557074
0.525666 0.706261 0.557074
0.527209 0.706261 0.557074
0.52924 0.706261 0.557074
0.531898 0.706261 0.557074
0.535354 0.706261 0.557074
0.539811 0.706261 0.557074
0.545498 0.706261 0.557074
0.552664 0.706261 0.557074
0.561559 0.706261 0.557074
0.572413 0.706261 0.557074
0.585405 0.706261 0.557074
0.600642 0.706261 0.557074
0.61814 0.706261 0.557074
0.637823 0.706261 0.557074
0.659532 0.706261 0.557074
0.683053 0.706261 0.557074
0.708139 0.706261 0.557074
0.734539 0.706261 0.557074
0.762015 0.706261 0.557074
0.790355 0.706261 0.557074
0.819378 0.706261 0.557074
0.848932 0.706261 0.557074
0.878896 0.706261 0.557074
0.909176 0.706261 0.557074
0.939694 0.706261 0.557074
0.970394 0.706261 0.557074
1.001231 0.706261 0.557074
0.564327 0.739743 0.601487
0.564981 0.739743 0.601487
0.565632 0.739743 0.601487
0.566279 0.739743 0.601487
0.566921 0.739743 0.601487
0.567565 0.739743 0.601487
0.568348 0.739743 0.601487
0.569388 0.739743 0.601487
0.570763 0.739743 0.601487
0.572575 0.739743 0.601487
0.574953 0.739743 0.601487
0.578055 0.739743 0.601487
0.582069 0.739743 0.601487
0.587214 0.739743 0.601487
0.593735 0.739743 0.601487
0.601881 0.739743 0.601487
0.611895 0.739743 0.601487
0.62398 0.739743 0.601487
0.638276 0.739743 0.601487
0.654838 0.739743 0.601487
0.673627 0.739743 0.601487
0.694517 0.739743 0.601487
0.717313 0.739743 0.601487
0.741779 0.739743 0.601487
0.767662 0.739743 0.601487
0.794718 0.739743 0.601487
0.822723 0.739743 0.601487
0.851481 0.739743 0.601487
0.880831 0.739743 0.601487
0.910638 0.739743 0.601487
0.940796 0.739743 0.601487
0.971223 0.739743 0.601487
1.001854 0.739743 0.601487
0.604634 0.772631 0.641619
0.605084 0.772631 0.641619
0.605532 0.772631 0.641619
0.605978 0.772631 0.641619
0.606423 0.772631 0.641619
0.606869 0.772631 0.641619
0.607412 0.772631 0.641619
0.608136 0.772631 0.641619
0.609096 0.772631 0.641619
0.610368 0.772631 0.641619
0.612045 0.772631 0.641619
0.61425 0.772631 0.641619
0.61713 0.772631 0.641619
0.620867 0.772631 0.641619
0.625671 0.772631 0.641619
0.63178 0.772631 0.641619
0.639444 0.772631 0.641619
0.64891 0.772631 0.641619
0.660396 0.772631 0.641619
0.674062 0.772631 0.641619
0.689987 0.772631 0.641619
0.708159 0.772631 0.641619
