site/assets/luts/freshluts--0002287-natural-cinematic-slog2-sgamut.cube
# LUTr-Schema-Version: 2
# LUTr-ID: freshluts--0002287-natural-cinematic-slog2-sgamut
# LUTr-Title: Natural-Cinematic-SLOG2-SGamut
# LUTr-Collection: Fresh LUTs
# LUTr-Collection-ID: freshluts-community
# LUTr-Source: https://freshluts.com
# LUTr-Retrieved: 2026-07-27
# LUTr-Source-File: submissions-raw/freshluts/cubes/2287__Natural-Cinematic-SLOG2-SGamut.cube
# LUTr-Source-Format: CUBE
# LUTr-Source-SHA256: db1f624daf533d82e8d70c10ee18d33f1d3aff9b5710644d24e66352ec0f1825
# LUTr-License: CC0-1.0
# LUTr-License-URL: https://freshluts.com/termsandconditions
# LUTr-License-Basis: site-terms
# LUTr-Transform-Class: creative-look
# LUTr-Tags: creative, freshluts, community, cube, sony-s-log2, cinematic
# LUTr-Input-Color-Space:
# LUTr-Input-Gamut: sony-s-gamut
# LUTr-Input-Transfer: sony-s-log2
# LUTr-Output-Color-Space: srgb
# LUTr-Output-Gamut: rec709
# LUTr-Output-Transfer: srgb
# LUTr-Color-Space-Confidence: camera-profile-input-required
# LUTr-Domain-Normalized: true
# LUTr-Shaper: none
# LUTr-Original-Grid: 24x24x24
# LUTr-Conversion-Grid: 24x24x24
# LUTr-Conversion-Interpolation: none
# LUTr-Conversion-Method: Metadata normalization; numeric LUT samples preserved
# LUTr-Conversion-Tool: LUTr scripts/convert-all-to-cube.mjs 2.0.0
# LUTr-Conversion-Date: 2026-07-28
# LUTr-Asset-URL: https://freshluts.com/luts/2287
# LUTr-Author: Tony
# LUTr-Author-URL: https://freshluts.com/users/360912
# LUTr-Attribution: Tony via Fresh LUTs
# LUTr-Source-Labels: gamma=Sony S-Log 2; color=None; key=Neutral; style=fresh
# LUTr-Note: Preserve this metadata and the upstream license notices when redistributing.
# LUTr-Upstream-Comment: Created by: Affinity Photo (Serif Europe Ltd.)
# LUTr-Upstream-Comment: LUT size
# LUTr-Upstream-Comment: data domain
# LUTr-Upstream-Comment: LUT data points
TITLE "Natural-Cinematic-SLOG2-SGamut"
LUT_3D_SIZE 24
DOMAIN_MIN 0 0 0
DOMAIN_MAX 1 1 1
0.03678 0.040257 0.046777
0.03678 0.040257 0.046777
0.044926 0.040275 0.046895
0.06087 0.040316 0.047132
0.087999 0.040407 0.047558
0.124475 0.040572 0.048175
0.168713 0.040844 0.048998
0.222142 0.041287 0.05011
0.285434 0.041986 0.051607
0.359881 0.043062 0.053632
0.447188 0.044686 0.056383
0.548793 0.047076 0.060098
0.659284 0.050273 0.06475
0.743624 0.053116 0.068708
0.807293 0.055481 0.071915
0.857204 0.057459 0.074553
0.896924 0.059108 0.076727
0.928531 0.060466 0.078502
0.953395 0.061561 0.079926
0.972175 0.062404 0.081017
0.985118 0.062993 0.081776
0.988584 0.063152 0.081983
0.988584 0.063152 0.081983
0.988584 0.063152 0.081983
0.03678 0.040257 0.046777
0.03678 0.040257 0.046777
0.043755 0.040272 0.046878
0.059245 0.040312 0.047108
0.085574 0.040398 0.047519
0.120847 0.040554 0.048111
0.164934 0.040818 0.048925
0.218175 0.04125 0.050023
0.28137 0.041935 0.051505
0.35561 0.042992 0.053508
0.442729 0.044593 0.056232
0.54429 0.046958 0.059922
0.654987 0.050138 0.064558
0.741016 0.053023 0.068581
0.805479 0.055411 0.071821
0.855898 0.057406 0.074483
0.895938 0.059066 0.076673
0.927811 0.060434 0.078462
0.952886 0.061539 0.079897
0.971829 0.062389 0.080997
0.984911 0.062984 0.081764
0.988584 0.063152 0.081983
0.988584 0.063152 0.081983
0.988584 0.063152 0.081983
0.036528 0.045944 0.046965
0.03655 0.045471 0.046949
0.041509 0.044813 0.046998
0.056903 0.043868 0.04719
0.081392 0.042587 0.047523
0.115007 0.041095 0.048028
0.157921 0.04077 0.04879
0.21109 0.041185 0.049869
0.275806 0.041867 0.051367
0.350079 0.042904 0.053349
0.436867 0.044473 0.056036
0.538123 0.0468 0.059682
0.649138 0.049954 0.064297
0.737525 0.0529 0.068411
0.802967 0.055314 0.071691
0.854071 0.057332 0.074385
0.894595 0.05901 0.076598
0.926835 0.060392 0.078406
0.952171 0.061507 0.079855
0.971348 0.062367 0.080968
0.984632 0.062971 0.081748
0.988584 0.063152 0.081983
0.988584 0.063152 0.081983
0.988584 0.063152 0.081983
0.035874 0.058964 0.047408
0.035906 0.058383 0.047388
0.038378 0.057435 0.047389
0.052754 0.056417 0.047555
0.075983 0.054965 0.047848
0.108115 0.053101 0.048295
0.149184 0.050925 0.048939
0.199656 0.048594 0.049848
0.260435 0.04585 0.051109
0.333306 0.04334 0.052894
0.42177 0.044172 0.05554
0.530119 0.046596 0.059374
0.640572 0.049689 0.063919
0.732314 0.052716 0.068158
0.799221 0.055171 0.071498
0.851335 0.057221 0.074238
0.892566 0.058924 0.076486
0.925332 0.060327 0.078321
0.95109 0.061459 0.079793
0.970609 0.062334 0.080925
0.984187 0.062951 0.081721
0.988584 0.063152 0.081983
0.988584 0.063152 0.081983
0.988584 0.063152 0.081983
0.034698 0.078223 0.048094
0.034714 0.077986 0.048085
0.034778 0.077042 0.048051
0.04727 0.075745 0.048169
0.069068 0.074078 0.048411
0.099984 0.071904 0.048798
0.139714 0.069246 0.049364
0.188403 0.066212 0.050166
0.246897 0.062848 0.051293
0.316339 0.059352 0.05288
0.398722 0.055991 0.055122
0.49711 0.053276 0.05832
0.610827 0.05124 0.062688
0.717963 0.052216 0.067468
0.795191 0.055017 0.071291
0.848047 0.057088 0.074061
0.889835 0.058809 0.076335
0.923312 0.060239 0.078207
0.949644 0.061394 0.07971
0.969605 0.062288 0.080867
0.98357 0.062922 0.081685
0.988584 0.063152 0.081983
0.988584 0.063152 0.081983
0.988584 0.063152 0.081983
0.032635 0.104844 0.049109
0.03265 0.104671 0.049102
0.032712 0.103963 0.049074
0.040184 0.102056 0.049091
0.060531 0.100089 0.049272
0.090262 0.097755 0.049594
0.128786 0.094891 0.050081
0.176377 0.091507 0.050785
0.233209 0.087731 0.051784
0.300607 0.0836 0.053202
0.380291 0.079244 0.055217
0.474635 0.07495 0.058085
0.584173 0.071025 0.062059
0.69472 0.067624 0.066724
0.773123 0.063958 0.070373
0.834154 0.060353 0.073398
0.88302 0.058523 0.075959
0.921559 0.060163 0.078107
0.948194 0.06133 0.079626
0.968471 0.062237 0.080801
0.982778 0.062886 0.081638
0.988584 0.063152 0.081983
0.988584 0.063152 0.081983
0.988584 0.063152 0.081983
0.029281 0.138215 0.0505
0.0293 0.138041 0.050492
0.029334 0.137743 0.050479
0.030469 0.135484 0.050391
0.049673 0.132986 0.050502
0.078698 0.130401 0.050751
0.116314 0.127435 0.051154
0.162697 0.123946 0.051754
0.218643 0.119888 0.052628
0.284531 0.115442 0.053882
0.362217 0.110622 0.055685
0.454082 0.105561 0.058279
0.561437 0.100494 0.061937
0.676924 0.095595 0.066586
0.758854 0.090106 0.070252
0.822154 0.084213 0.073273
0.871579 0.07799 0.075731
0.910602 0.07175 0.077725
0.941487 0.065975 0.079335
0.965615 0.062108 0.080634
0.982214 0.06286 0.081605
0.988584 0.063152 0.081983
0.988584 0.063152 0.081983
0.988584 0.063152 0.081983
0.024033 0.178296 0.052358
0.024057 0.178134 0.05235
0.024094 0.177883 0.052338
0.024233 0.176942 0.052292
0.035344 0.173065 0.052218
0.064271 0.170092 0.052378
0.101767 0.16696 0.05269
0.147507 0.163432 0.053182
0.202315 0.159369 0.05392
0.267298 0.154706 0.055007
0.3437 0.149564 0.056599
0.433605 0.144083 0.058919
0.539221 0.138343 0.06226
0.65557 0.132498 0.066674
0.745162 0.126073 0.070508
0.811709 0.119003 0.07356
0.863283 0.11132 0.076025
0.903759 0.103161 0.078004
0.935611 0.094584 0.079575
0.960126 0.085772 0.080776
0.977951 0.076987 0.081625
0.987503 0.068769 0.082022
0.988486 0.063147 0.081975
0.988584 0.063152 0.081983
0.016018 0.225483 0.054824
0.016048 0.225328 0.054815
0.016098 0.22507 0.054801
0.016183 0.224622 0.054776
0.018105 0.221104 0.054595
0.04521 0.217274 0.054631
0.084245 0.213872 0.05484
0.130388 0.21027 0.05522
0.184754 0.206205 0.055818
0.248588 0.201582 0.056726
0.323728 0.19631 0.05809
0.412289 0.190439 0.060125
0.516114 0.184255 0.063116
0.632312 0.177765 0.067205
0.730352 0.170735 0.071173
0.800626 0.162919 0.07424
0.854747 0.154417 0.076704
0.897001 0.145267 0.078667
0.930226 0.13546 0.080214
0.955911 0.125097 0.081389
0.974804 0.114244 0.08221
0.985911 0.102957 0.082603
0.986324 0.091354 0.082389
0.986811 0.079882 0.082193
0.003996 0.280414 0.058083
0.00403 0.280274 0.058074
0.004094 0.280014 0.058058
0.004203 0.279573 0.05803
0.004374 0.278874 0.057986
0.019403 0.27283 0.057728
0.061146 0.268918 0.05781
0.109938 0.265129 0.058065
0.165024 0.260969 0.058514
0.228443 0.256336 0.059236
0.302309 0.251047 0.060357
0.388968 0.245041 0.062074
0.491381 0.238366 0.064681
0.607189 0.231336 0.068377
0.713554 0.223801 0.072383
0.788101 0.21544 0.075434
0.845166 0.206324 0.077874
0.889557 0.196475 0.079803
0.924326 0.185929 0.081305
0.951312 0.174696 0.082436
0.971405 0.162812 0.083217
0.984494 0.150307 0.083623
0.98486 0.137448 0.083322
0.985251 0.124034 0.083028
0 0.344205 0.062391
0 0.344042 0.06238
0 0.343786 0.062361
0 0.343367 0.062331
0 0.342717 0.062285
0 0.338261 0.061979
0.02556 0.333171 0.061868
0.083056 0.328973 0.061977
0.141462 0.324653 0.062267
0.205824 0.319848 0.06279
0.279179 0.314456 0.063658
0.364175 0.308333 0.06504
0.463905 0.301436 0.0672
0.579246 0.293808 0.070428
0.69401 0.285641 0.074354
0.773575 0.276664 0.077341
0.834089 0.266975 0.07972
0.880914 0.256489 0.08158
0.917507 0.245296 0.08301
0.945982 0.233355 0.084067
0.967401 0.220751 0.084781
0.982344 0.20745 0.085161
0.983271 0.194091 0.08479
0.983663 0.180034 0.084391
0 0.418365 0.068081
0 0.418203 0.068068
0 0.417986 0.06805
0 0.417553 0.068015
0 0.416877 0.06796
0 0.415904 0.067881
0 0.408312 0.067382
0.039978 0.403354 0.067304
0.11081 0.398551 0.067407
0.178968 0.393416 0.067714
0.253219 0.387688 0.068308
0.33738 0.381289 0.069339
0.434851 0.374047 0.07103
0.548163 0.366018 0.073694
0.670578 0.357167 0.077371
0.756389 0.347374 0.080234
0.821136 0.336931 0.082504
0.870819 0.325705 0.084249
0.909531 0.313782 0.085563
0.939715 0.301081 0.086507
0.962627 0.287695 0.087114
0.978977 0.273603 0.087398
0.981411 0.259877 0.086981
0.981827 0.245552 0.086458
0 0.50476 0.075562
0 0.504571 0.075545
0 0.50432 0.075522
0 0.503912 0.075484
0 0.503253 0.075424
0 0.502281 0.075335
0 0.496983 0.074862
0 0.490102 0.074472
0.062955 0.48451 0.074352
0.144262 0.478732 0.074411
0.222543 0.472434 0.074708
0.307436 0.465425 0.075358
0.403583 0.45762 0.076559
0.514745 0.448931 0.078599
0.637179 0.439356 0.081633
0.735439 0.428835 0.084468
0.805784 0.417209 0.086562
0.858933 0.405053 0.088096
0.900163 0.392077 0.08916
0.932267 0.378376 0.08991
0.95685 0.364046 0.090378
0.974754 0.348981 0.090571
0.979128 0.334685 0.09014
0.979586 0.320163 0.089471
0 0.602372 0.084987
0 0.602166 0.084966
0 0.601926 0.084942
0 0.601514 0.0849
0 0.60093 0.084841
0 0.600003 0.084747
0 0.598733 0.084619
0 0.589334 0.083769
0 0.582558 0.083378
0.092188 0.576022 0.083177
0.183562 0.569083 0.08317
0.272333 0.561508 0.083447
0.368871 0.552985 0.084152
0.478375 0.54364 0.085553
0.600606 0.533394 0.08785
0.71071 0.522073 0.09005
0.786946 0.509568 0.091653
0.844634 0.495995 0.092833
0.888943 0.481626 0.093648
0.923337 0.466625 0.094158
0.949834 0.450931 0.094395
0.96948 0.434599 0.094375
0.976305 0.419341 0.09389
0.976817 0.404547 0.093175
0 0.700656 0.095362
0 0.700549 0.095351
0 0.70039 0.095333
0 0.700096 0.095301
0 0.69967 0.095254
0 0.699029 0.095184
0 0.698174 0.095091
0 0.693878 0.094625
0 0.686802 0.094052
0 0.679799 0.093631
0.128762 0.672394 0.093359
0.229479 0.664449 0.093311
0.329247 0.655698 0.0936
0.438416 0.64612 0.094103
0.560412 0.635623 0.095317
0.681642 0.623998 0.097172
0.764812 0.611245 0.098503
0.827336 0.597276 0.099424
0.87537 0.582125 0.099972
0.912663 0.565897 0.100195
0.941338 0.54912 0.100158
0.962924 0.531558 0.099868
0.972797 0.514975 0.099214
0.973375 0.499868 0.098294
0 0.771531 0.103309
0 0.771446 0.103299
0 0.771317 0.103284
0 0.771124 0.103262
0 0.770802 0.103225
0 0.770373 0.103176
0 0.769749 0.103105
0 0.76895 0.103013
0 0.762146 0.102316
0 0.75661 0.101942
0.039524 0.751336 0.101755
0.178985 0.745819 0.101543
0.285685 0.739799 0.101533
0.395693 0.733174 0.101919
0.516996 0.725778 0.102925
0.645332 0.717627 0.104686
0.739119 0.708459 0.10617
0.807429 0.698242 0.107213
0.859362 0.686796 0.107856
0.899756 0.670926 0.107883
0.931142 0.65387 0.107614
0.954895 0.63615 0.107101
0.968506 0.618832 0.106297
0.969136 0.604472 0.105242
0 0.827945 0.109846
0 0.827894 0.10984
0 0.827792 0.109829
0 0.827639 0.109812
0 0.827416 0.109787
0 0.827126 0.109755
0 0.826681 0.109706
0 0.826098 0.109642
0 0.823282 0.109323
0 0.817035 0.108645
0 0.812223 0.108198
0.114553 0.807454 0.107906
0.238013 0.802393 0.107822
0.351184 0.796913 0.108068
0.471833 0.790975 0.108848
0.601146 0.784458 0.110338
0.710453 0.777274 0.112004
0.785555 0.769276 0.11317
0.842126 0.760402 0.113962
0.885708 0.750562 0.11441
0.919607 0.739642 0.114543
0.945713 0.727589 0.114378
0.963747 0.714883 0.113921
0.964307 0.705289 0.113119
0 0.873066 0.114897
0 0.873025 0.114892
0 0.872956 0.114885
0 0.872846 0.114872
0 0.872682 0.114854
0 0.872449 0.114827
0 0.872146 0.114793
0 0.871733 0.114746
0 0.871194 0.114685
0 0.865608 0.114044
0 0.86079 0.113529
0 0.85642 0.113185
0.183096 0.851977 0.113031
0.303818 0.847315 0.113164
0.424681 0.842362 0.113747
0.554443 0.837029 0.114989
0.67805 0.831259 0.116742
0.761208 0.824967 0.118043
0.82325 0.818033 0.118993
0.870659 0.810439 0.119618
0.907392 0.802142 0.119951
0.935861 0.793036 0.120009
0.957266 0.78304 0.119797
0.959808 0.775578 0.119195
0 0.909436 0.119068
0 0.909403 0.119064
0 0.909348 0.119058
0 0.90927 0.119049
0 0.909159 0.119036
0 0.908982 0.119016
0 0.908759 0.11899
0 0.908448 0.118954
0 0.908069 0.11891
0 0.906191 0.118693
0 0.900192 0.117992
0 0.895936 0.117583
0.112171 0.891869 0.11736
0.252381 0.887774 0.117393
0.37581 0.883502 0.117808
0.505271 0.879018 0.11881
0.638854 0.87427 0.120504
0.733925 0.869154 0.121965
0.802485 0.863621 0.123064
0.854315 0.857635 0.123849
0.894338 0.851135 0.124352
0.925373 0.844086 0.1246
0.949016 0.836484 0.124607
0.955494 0.83044 0.124231
0 0.938814 0.122497
0 0.938787 0.122494
0 0.93876 0.122491
0 0.938698 0.122483
0 0.938599 0.122472
0 0.938474 0.122457
0 0.938321 0.122439
0 0.938088 0.122412
0 0.937809 0.122379
0 0.937457 0.122338
0 0.932611 0.121758
0 0.928147 0.12126
0 0.92432 0.120971
0.193707 0.920591 0.120911
0.324588 0.916852 0.121187
0.45417 0.913 0.121969
0.589565 0.90901 0.123432
0.702806 0.904805 0.125102
0.779409 0.900292 0.126344
0.836543 0.895474 0.127276
0.88027 0.890321 0.127934
0.914181 0.884805 0.128349
0.940224 0.87889 0.128537
0.951427 0.873834 0.128377
0 0.962358 0.125281
0 0.962344 0.12528
0 0.962316 0.125276
0 0.962266 0.12527
0 0.962203 0.125263
0 0.96211 0.125252
0 0.961989 0.125237
0 0.961826 0.125218
0 0.961626 0.125194
0 0.961376 0.125164
0 0.960448 0.125054
0 0.954454 0.12433
0 0.950704 0.123971
0.11886 0.947299 0.123835
0.269735 0.943975 0.123992
0.40136 0.940641 0.124585
0.537703 0.937249 0.125812
0.667417 0.933759 0.12758
0.753582 0.930069 0.12896
0.817016 0.926186 0.130039
0.86509 0.922066 0.130842
0.9022 0.917711 0.131405
0.930864 0.913091 0.131753
0.947648 0.908759 0.131807
0 0.980758 0.127478
0 0.980742 0.127476
0 0.98072 0.127474
0 0.980687 0.12747
0 0.980633 0.127463
0 0.980573 0.127456
0 0.980486 0.127445
0 0.980376 0.127432
0 0.980234 0.127415
0 0.980053 0.127394
0 0.979833 0.127367
0 0.975826 0.126875
0 0.971966 0.126436
0 0.968824 0.126234
0.208332 0.965887 0.126296
0.346677 0.963019 0.126734
0.483551 0.960155 0.127735
0.622777 0.957281 0.129422
0.724354 0.954295 0.131003
0.795435 0.951185 0.132232
0.848614 0.947927 0.13318
0.889412 0.944509 0.133886
0.920916 0.940927 0.13438
0.944196 0.937216 0.13466
0 0.994499 0.12913
0 0.994492 0.129129
0 0.994476 0.129128
0 0.994452 0.129125
0 0.994421 0.129121
0 0.994378 0.129116
0 0.994319 0.129109
0 0.994244 0.1291
0 0.994153 0.129089
0 0.994038 0.129075
0 0.993886 0.129056
0 0.99371 0.129035
0 0.988634 0.128407
0 0.985746 0.128152
0.13242 0.983206 0.128141
0.289039 0.980798 0.128456
0.427713 0.978439 0.12926
0.569373 0.976121 0.130735
0.690998 0.973782 0.132528
0.771454 0.971355 0.133914
0.830699 0.968839 0.135012
0.875646 0.966237 0.13586
0.910318 0.963516 0.136492
0.936808 0.960699 0.13693
0 0.996787 0.129406
0 0.996787 0.129406
0 0.996787 0.129406
0 0.996787 0.129406
0 0.996787 0.129406
0 0.996787 0.129406
0 0.996787 0.129406
0 0.996787 0.129406
0 0.996787 0.129406
0 0.996787 0.129406
0 0.996787 0.129406
0 0.996787 0.129406
0 0.99382 0.129035
0 0.990827 0.128701
0.006643 0.988574 0.12863
0.232331 0.986611 0.128867
0.37602 0.98483 0.129545
0.519375 0.983204 0.130867
0.657372 0.981714 0.13281
0.747683 0.980288 0.134401
0.813272 0.978934 0.13571
0.862451 0.977658 0.136767
0.900502 0.976459 0.137625
0.929753 0.975356 0.138302
0.03678 0.040257 0.046777
0.03678 0.040257 0.046777
0.04493 0.040275 0.046895
0.06101 0.040317 0.047134
0.08894 0.040411 0.047573
0.125692 0.040579 0.048197
0.170348 0.040856 0.04903
0.224181 0.041307 0.050155
0.28797 0.042018 0.051672
0.362936 0.043112 0.053721
0.45093 0.044765 0.05651
0.553108 0.047189 0.060268
0.663825 0.050418 0.064955
0.746614 0.053223 0.068855
0.809671 0.055573 0.072038
0.859127 0.057537 0.074657
0.898457 0.059173 0.076812
0.929802 0.060521 0.078575
0.954398 0.061606 0.079984
0.972922 0.062438 0.08106
0.9856 0.063015 0.081805
0.988584 0.063152 0.081983
0.988584 0.063152 0.081983
0.988584 0.063152 0.081983
0.03678 0.040257 0.046777
0.03678 0.040257 0.046777
0.043579 0.040272 0.046875
0.059184 0.040312 0.047107
0.085611 0.040398 0.047519
0.12089 0.040554 0.048112
0.165006 0.040818 0.048926
0.218247 0.041251 0.050025
0.281412 0.041936 0.051506
0.35566 0.042993 0.053509
0.442789 0.044595 0.056234
0.544324 0.046959 0.059923
0.654987 0.050138 0.064558
0.741062 0.053025 0.068583
0.805515 0.055412 0.071823
0.85594 0.057408 0.074485
0.895972 0.059068 0.076674
0.927873 0.060437 0.078465
0.952955 0.061542 0.079901
0.971889 0.062391 0.081
0.984959 0.062986 0.081767
0.988584 0.063152 0.081983
0.988584 0.063152 0.081983
0.988584 0.063152 0.081983
0.036535 0.045807 0.04696
0.036556 0.045333 0.046945
0.041386 0.044683 0.046992
0.056709 0.043758 0.047184
0.081105 0.042506 0.047516
0.114589 0.041058 0.04802
0.157523 0.040768 0.048782
0.21086 0.041183 0.049864
0.276015 0.04187 0.051372
0.350129 0.042905 0.05335
0.436926 0.044475 0.056038
0.53819 0.046801 0.059685
0.649138 0.049954 0.064297
0.737571 0.052901 0.068413
0.803003 0.055316 0.071693
0.854128 0.057334 0.074388
0.894664 0.059012 0.076602
0.926906 0.060395 0.07841
0.952248 0.06151 0.07986
0.971414 0.06237 0.080972
0.984678 0.062973 0.08175
0.988584 0.063152 0.081983
0.988584 0.063152 0.081983
0.988584 0.063152 0.081983
0.035883 0.058799 0.047402
0.035915 0.05822 0.047382
0.038191 0.057329 0.047383
0.052587 0.056307 0.047549
0.075742 0.054861 0.047841
0.107744 0.053035 0.048287
0.148642 0.050901 0.048929
0.198847 0.048619 0.049832
0.259309 0.045942 0.051085
0.33171 0.043461 0.052854
0.420346 0.044144 0.055493
0.529385 0.046578 0.059346
0.640642 0.049691 0.063922
0.732337 0.052716 0.068159
0.799294 0.055174 0.071502
0.851407 0.057224 0.074241
0.892669 0.058928 0.076491
0.925432 0.060331 0.078327
0.951189 0.061463 0.079799
0.970681 0.062337 0.08093
0.984237 0.062953 0.081724
0.988584 0.063152 0.081983
0.988584 0.063152 0.081983
0.988584 0.063152 0.081983
0.034702 0.07816 0.048092
0.034719 0.077908 0.048082
0.034784 0.076948 0.048047
0.047079 0.075631 0.048162
0.068876 0.073951 0.048404
0.099781 0.071787 0.048791
0.139292 0.069188 0.049355
0.187751 0.066212 0.050153
0.245945 0.062919 0.051274
0.315043 0.059483 0.052849
0.396969 0.056175 0.055073
0.494774 0.053483 0.058241
0.607837 0.051497 0.062569
0.715471 0.05213 0.067349
0.794294 0.054983 0.071245
0.847783 0.057078 0.074047
0.889975 0.058815 0.076342
0.92345 0.060245 0.078214
0.949737 0.061399 0.079715
0.969689 0.062292 0.080872
0.983629 0.062925 0.081688
0.988584 0.063152 0.081983
0.988584 0.063152 0.081983
0.988584 0.063152 0.081983
0.032637 0.104823 0.049108
0.032658 0.104579 0.049098
0.03272 0.103872 0.04907
0.040033 0.101951 0.049085
0.060346 0.09997 0.049265
0.090074 0.097618 0.049587
0.128575 0.094784 0.050073
0.175883 0.091449 0.050774
0.232514 0.087733 0.05177
0.299636 0.083669 0.053181
0.378903 0.079403 0.055181
0.472955 0.075161 0.058034
0.582097 0.071303 0.061982
0.693071 0.067954 0.066656
0.771688 0.064331 0.07031
0.832893 0.060796 0.073341
0.88177 0.058471 0.07589
0.920929 0.060136 0.078072
0.947894 0.061317 0.079609
0.968406 0.062234 0.080797
0.982838 0.062889 0.081642
0.988584 0.063152 0.081983
0.988584 0.063152 0.081983
0.988584 0.063152 0.081983
0.029288 0.138153 0.050497
0.029313 0.137929 0.050487
0.029348 0.137619 0.050473
0.03037 0.135369 0.050385
0.049559 0.132849 0.050494
0.078596 0.130263 0.050744
0.116211 0.127287 0.051147
0.162578 0.123823 0.051747
0.218368 0.119824 0.05262
0.284049 0.115432 0.053871
0.361508 0.110682 0.055668
0.4531 0.105709 0.058251
0.560191 0.100721 0.061895
0.675755 0.095877 0.066542
0.7578 0.090492 0.07021
0.82128 0.084671 0.073239
0.870809 0.078525 0.075701
0.909907 0.072319 0.077697
0.940867 0.06656 0.079311
0.96501 0.062081 0.080599
0.981971 0.062849 0.081591
0.988584 0.063152 0.081983
0.988584 0.063152 0.081983
0.988584 0.063152 0.081983
0.024046 0.178208 0.052354
0.024079 0.177986 0.052343
0.024118 0.177721 0.05233
0.024262 0.176748 0.052282
0.035548 0.172876 0.05221
0.06454 0.169881 0.052371
0.102049 0.16677 0.052685
0.147813 0.163247 0.053178
0.202633 0.159188 0.053918
0.267613 0.154571 0.055008
0.34368 0.149525 0.056597
0.433402 0.144095 0.058913
0.538703 0.138459 0.062245
0.654728 0.132692 0.066644
0.744535 0.126361 0.070486
0.811091 0.119386 0.073539
0.862702 0.11181 0.076006
0.903244 0.103741 0.077989
0.93515 0.095263 0.079563
0.959753 0.086496 0.080769
0.97765 0.077759 0.081623
0.987441 0.069475 0.082032
0.988341 0.063141 0.081966
0.988584 0.063152 0.081983
0.016045 0.225345 0.054816
0.016084 0.225139 0.054805
0.016131 0.224897 0.054791
0.016223 0.224415 0.054764
0.018555 0.220812 0.054583
0.045929 0.217016 0.054623
0.084973 0.213647 0.054836
0.13111 0.210039 0.055217
0.185416 0.205999 0.055818
0.249323 0.201365 0.05673
0.324462 0.196117 0.058098
0.412685 0.190346 0.060132
0.516279 0.18424 0.063121
0.632198 0.177836 0.067203
0.730123 0.170898 0.071168
0.800292 0.163203 0.074232
0.854378 0.154796 0.076696
0.896669 0.145726 0.078662
0.929892 0.136076 0.080211
0.95561 0.125785 0.081388
0.974565 0.115023 0.082214
0.985882 0.103844 0.08262
0.986286 0.092336 0.082407
0.986763 0.080893 0.082209
0.00404 0.280234 0.058071
0.004084 0.280054 0.05806
0.004149 0.279793 0.058044
0.004257 0.279353 0.058016
0.004443 0.278591 0.057968
0.020338 0.272507 0.057715
0.062292 0.268637 0.057802
0.110985 0.264846 0.05806
0.166026 0.260737 0.058514
0.229491 0.256074 0.05924
0.303307 0.250813 0.060366
0.389994 0.244851 0.062091
0.492184 0.238239 0.0647
0.607717 0.231284 0.068395
0.713701 0.223834 0.072391
0.788052 0.215586 0.075437
0.845019 0.206542 0.077874
0.889351 0.196817 0.079803
0.92411 0.186396 0.081308
0.951097 0.175284 0.082441
0.971219 0.163487 0.083225
0.984471 0.151125 0.083643
0.984833 0.138368 0.083343
0.985221 0.12505 0.083049
0 0.343995 0.062376
0 0.343809 0.062363
0 0.343577 0.062346
0 0.343135 0.062315
0 0.342462 0.062266
0 0.33781 0.061953
0.027153 0.332865 0.061857
0.084478 0.328677 0.061968
0.142765 0.32435 0.062262
0.207117 0.319556 0.06279
0.280468 0.314174 0.063664
0.365524 0.30806 0.065055
0.465237 0.301194 0.067224
0.580571 0.293596 0.070463
0.694593 0.285537 0.074373
0.773814 0.2767 0.077353
0.834177 0.267068 0.079728
0.880852 0.256726 0.081586
0.917415 0.245612 0.083017
0.945853 0.233793 0.084076
0.967263 0.221297 0.084792
0.982232 0.208106 0.085176
0.983249 0.194865 0.084813
0.983638 0.180938 0.084416
0 0.418121 0.068061
0 0.417959 0.068048
0 0.417715 0.068028
0 0.417309 0.067995
0 0.416633 0.06794
0 0.415635 0.067859
0 0.407908 0.067359
0.042408 0.402989 0.067287
0.112497 0.398238 0.067397
0.180463 0.393119 0.067709
0.254678 0.387427 0.068311
0.338903 0.380986 0.069347
0.436392 0.37378 0.07105
0.549702 0.365737 0.073724
0.671785 0.356894 0.0774
0.756953 0.347227 0.08025
0.821365 0.336904 0.082513
0.870916 0.325789 0.084258
0.909574 0.313927 0.085572
0.939655 0.301386 0.086518
0.962537 0.288088 0.087127
0.9789 0.274092 0.087413
0.981393 0.260485 0.087004
0.981806 0.24629 0.086485
0 0.504509 0.075539
0 0.50432 0.075522
0 0.504069 0.075499
0 0.503661 0.075461
0 0.503002 0.075401
0 0.502031 0.075312
0 0.496385 0.074813
0 0.489714 0.074446
0.06539 0.484132 0.07433
0.14605 0.478373 0.074395
