site/assets/luts/freshluts--0001155-wt-for-clip-over-exposure-mood.cube
# LUTr-Schema-Version: 2
# LUTr-ID: freshluts--0001155-wt-for-clip-over-exposure-mood
# LUTr-Title: WT for clip over exposure mood
# LUTr-Collection: Fresh LUTs
# LUTr-Collection-ID: freshluts-community
# LUTr-Source: https://freshluts.com
# LUTr-Retrieved: 2026-07-27
# LUTr-Source-File: submissions-raw/freshluts/cubes/1155__Warm_TEAL_over_exposure.cube
# LUTr-Source-Format: CUBE
# LUTr-Source-SHA256: 6bcd4caeb1105b9fe33b463ef0fb960c1858f1424e69d72ab1a47a5ef560eeca
# LUTr-License: CC0-1.0
# LUTr-License-URL: https://freshluts.com/termsandconditions
# LUTr-License-Basis: site-terms
# LUTr-Transform-Class: creative-look
# LUTr-Tags: creative, freshluts, community, cube, warm, high-key, sony-s-log3
# LUTr-Input-Color-Space: sony-slog3-sgamut3
# LUTr-Input-Gamut: sony-s-gamut3
# LUTr-Input-Transfer: sony-s-log3
# LUTr-Output-Color-Space: srgb
# LUTr-Output-Gamut: rec709
# LUTr-Output-Transfer: srgb
# LUTr-Color-Space-Confidence: inferred-from-source-label
# LUTr-Domain-Normalized: true
# LUTr-Shaper: none
# LUTr-Original-Grid: 16x16x16
# LUTr-Conversion-Grid: 16x16x16
# LUTr-Conversion-Interpolation: none
# LUTr-Conversion-Method: Metadata normalization; numeric LUT samples preserved
# LUTr-Conversion-Tool: LUTr scripts/convert-all-to-cube.mjs 2.0.0
# LUTr-Conversion-Date: 2026-07-28
# LUTr-Asset-URL: https://freshluts.com/luts/1155
# LUTr-Author: lvannoeun@gmail.com
# LUTr-Author-URL: https://freshluts.com/users/57563
# LUTr-Attribution: lvannoeun@gmail.com via Fresh LUTs
# LUTr-Source-Labels: gamma=Sony S-Log 3; color=Warm; key=High Key; style=Correction
# LUTr-Note: Preserve this metadata and the upstream license notices when redistributing.
TITLE "WT for clip over exposure mood"
LUT_3D_SIZE 16
DOMAIN_MIN 0 0 0
DOMAIN_MAX 1 1 1
0 0.000003 0.04174
0 0.000003 0.04174
0 0.000003 0.04174
0 0.000003 0.04174
0 0.000003 0.04174
0 0.000003 0.04174
0.075546 0 0.04174
0.214045 0 0.04174
0.358337 0 0.04174
0.466371 0 0.04174
0.54875 0 0.04174
0.650234 0 0.04174
0.755175 0 0.04174
0.852766 0 0.04174
0.938625 0.026511 0.04174
0.993861 0.060862 0.04174
0 0.000003 0.04174
0 0.000003 0.04174
0 0.000003 0.04174
0 0.000003 0.04174
0 0.000003 0.04174
0 0.000003 0.04174
0.075546 0 0.04174
0.214045 0 0.04174
0.358337 0 0.04174
0.466371 0 0.04174
0.54875 0 0.04174
0.650234 0 0.04174
0.755175 0 0.04174
0.852766 0 0.04174
0.938625 0.026511 0.04174
0.993861 0.060862 0.04174
0 0.000003 0.04174
0 0.000003 0.04174
0 0.000003 0.04174
0 0.000003 0.04174
0 0.000003 0.04174
0 0.000003 0.04174
0.07682 0.013103 0.04174
0.21626 0.024703 0.04174
0.363522 0.033619 0.04174
0.475219 0.039352 0.04174
0.558283 0.043143 0.04174
0.658836 0.046938 0.04174
0.764523 0.051116 0.04174
0.862435 0.06026 0.04174
0.948465 0.080803 0.04174
1.00002 0.09532 0.04174
0 0.000003 0.04174
0 0.000003 0.04174
0 0.000003 0.04174
0 0.000003 0.04174
0 0.000003 0.04174
0 0.000003 0.04174
0.083394 0.028048 0.04174
0.225513 0.050504 0.04174
0.380729 0.06769 0.04174
0.503079 0.078499 0.04174
0.590969 0.085288 0.04174
0.688104 0.096081 0.04174
0.79262 0.115667 0.04174
0.890589 0.140387 0.04174
0.975115 0.158871 0.04174
1.00002 0.16097 0.04174
0 0.000003 0.04174
0 0.000003 0.04174
0 0.000003 0.04174
0 0.000003 0.04174
0 0.000003 0.04174
0 0.000003 0.04174
0.089719 0.044936 0.04174
0.239052 0.077778 0.04174
0.404528 0.103596 0.04174
0.539885 0.124985 0.04174
0.636871 0.147167 0.04174
0.727375 0.174025 0.04174
0.828069 0.201843 0.04174
0.924027 0.225548 0.04174
1.00002 0.240646 0.04174
1.00002 0.233605 0.04174
0 0.000003 0.04174
0 0.000003 0.04174
0 0.000003 0.04174
0 0.002415 0.04174
0 0.010865 0.04174
0.002094 0.021313 0.04174
0.081835 0.072478 0.038688
0.249148 0.124919 0.041722
0.429093 0.168653 0.04174
0.580806 0.204544 0.04174
0.688886 0.238495 0.04174
0.776694 0.269705 0.04174
0.866204 0.29595 0.04174
0.956545 0.318198 0.04174
1.00002 0.323946 0.04174
1.00002 0.312484 0.04174
0.000009 0.085043 0.065144
0.000009 0.085043 0.065144
0.000012 0.087106 0.064544
0.000874 0.09462 0.059685
0.015067 0.104467 0.053275
0.04303 0.118006 0.053246
0.079401 0.128017 0.049404
0.188476 0.200541 0.025151
0.426775 0.260094 0.031072
0.610149 0.303801 0.041301
0.730991 0.34129 0.04174
0.82356 0.371218 0.04174
0.906876 0.396097 0.04174
0.990818 0.418415 0.041766
1.00002 0.407865 0.05844
1.00002 0.391578 0.06671
0.003016 0.198551 0.129378
0.003016 0.198551 0.129378
0.003194 0.201375 0.130551
0.003724 0.21151 0.133337
0.002218 0.225152 0.129425
0.038219 0.250386 0.075657
0.103531 0.27106 0.066496
0.154752 0.279045 0.049578
0.31738 0.372372 0.011794
0.551963 0.432113 0.00514
0.723893 0.462257 0.018644
0.8409 0.488019 0.028101
0.936305 0.510728 0.034482
0.997615 0.518966 0.061382
1.000021 0.496906 0.082371
1.00002 0.477421 0.09111
0.005945 0.343618 0.229223
0.005945 0.343618 0.229223
0.006011 0.347339 0.230879
0.005971 0.360209 0.234942
0.004297 0.377341 0.2335
0 0.401633 0.195358
0.114568 0.444116 0.090456
0.191336 0.465461 0.075595
0.25206 0.463265 0.044886
0.436337 0.559191 0.003168
0.599737 0.617365 0
0.75355 0.640023 0
0.881325 0.654488 0.005952
0.942606 0.63478 0.041192
0.965809 0.602733 0.073501
0.98029 0.576942 0.091999
0.008557 0.502617 0.346411
0.008557 0.502617 0.346411
0.008571 0.506787 0.348032
0.00829 0.520226 0.351257
0.006063 0.538787 0.347375
0.022076 0.565684 0.309392
0.109499 0.610141 0.165276
0.212137 0.648269 0.100965
0.289116 0.666344 0.078582
0.358514 0.658512 0.038749
0.522624 0.734217 0.000943
0.643109 0.781048 0
0.757324 0.804506 0
0.827812 0.768947 0.015695
0.872314 0.724912 0.041757
0.90478 0.690944 0.0622
0.010973 0.65687 0.463719
0.010973 0.65687 0.463719
0.01091 0.660704 0.464483
0.023081 0.673806 0.462416
0.05296 0.693167 0.448202
0.080682 0.719662 0.407769
0.097393 0.756128 0.276607
0.242331 0.796175 0.198124
0.320809 0.825908 0.124388
0.381743 0.841864 0.074021
0.456711 0.83165 0.041682
0.596262 0.879165 0.028145
0.704809 0.909125 0.026095
0.752277 0.881325 0.032106
0.783474 0.833028 0.042359
0.811572 0.79836 0.048952
0.070009 0.799483 0.561808
0.070009 0.799483 0.561808
0.076437 0.802592 0.560169
0.096304 0.813403 0.552445
0.12029 0.829746 0.534521
0.143964 0.851999 0.4933
0.159167 0.880669 0.396316
0.270427 0.916712 0.296503
0.358032 0.945624 0.215149
0.423897 0.963916 0.153321
0.482937 0.972659 0.115092
0.554608 0.964932 0.088378
0.662972 0.994541 0.073245
0.726167 0.968811 0.06906
0.751238 0.913255 0.07008
0.766328 0.877877 0.069129
0.136918 0.920214 0.642125
0.136918 0.920214 0.642125
0.142618 0.922878 0.639346
0.159882 0.930899 0.628642
0.180586 0.943721 0.60751
0.201874 0.961815 0.566149
0.22074 0.984731 0.483949
0.299651 1.013855 0.381179
0.385457 1.034304 0.294575
0.454584 1.057097 0.224185
0.510257 1.069 0.180109
0.566065 1.075491 0.15135
0.631375 1.07021 0.128364
0.698182 1.046892 0.113681
0.731747 0.982675 0.106675
0.750428 0.939872 0.100101
0.193075 0.989343 0.686225
0.193075 0.989343 0.686225
0.19869 0.989456 0.681741
0.213917 0.990118 0.665813
0.232393 0.991416 0.639118
0.252994 0.994399 0.595638
0.27521 1.00002 0.528036
0.323053 1.010786 0.439361
0.38982 1.026368 0.35562
0.448948 1.045591 0.281697
0.501358 1.064764 0.234637
0.550557 1.081129 0.205647
0.602832 1.092471 0.184064
0.666692 1.097716 0.164019
0.7091 1.048866 0.149343
0.733234 0.998657 0.137213
0.237026 0.990783 0.682019
0.237026 0.990783 0.682019
0.242577 0.991048 0.678083
0.25685 0.991429 0.664911
0.274484 0.992937 0.642887
0.295245 0.995537 0.609819
0.319288 0.999788 0.560553
0.350984 1.00745 0.489705
0.399881 1.020239 0.410398
0.448568 1.036641 0.335235
0.494848 1.053515 0.283887
0.536854 1.068359 0.25309
0.577434 1.080184 0.232517
0.624443 1.089074 0.214654
0.683074 1.093436 0.196872
0.714948 1.055431 0.176853
0.268255 0.991557 0.68186
0.268255 0.991557 0.68186
0.272527 0.991761 0.67858
0.285572 0.992583 0.668168
0.30189 0.993452 0.651098
0.321732 0.995369 0.62552
0.345309 0.999133 0.586896
0.372253 1.004582 0.532172
0.40606 1.014622 0.460783
0.445978 1.028339 0.387407
0.486865 1.043234 0.331493
0.524868 1.057378 0.294375
0.56101 1.069612 0.270063
0.599058 1.07972 0.251838
0.644276 1.087061 0.235142
0.69524 1.090271 0.221106
0 0.000003 0.04174
0 0.000003 0.04174
0 0.000003 0.04174
0 0.000003 0.04174
0 0.000003 0.04174
0 0.000003 0.04174
0.075546 0 0.04174
0.214045 0 0.04174
0.358337 0 0.04174
0.466371 0 0.04174
0.54875 0 0.04174
0.650234 0 0.04174
0.755175 0 0.04174
0.852766 0 0.04174
0.938625 0.026511 0.04174
0.993861 0.060862 0.04174
0 0.000003 0.04174
0 0.000003 0.04174
0 0.000003 0.04174
0 0.000003 0.04174
0 0.000003 0.04174
0 0.000003 0.04174
0.075546 0 0.04174
0.214045 0 0.04174
0.358337 0 0.04174
0.466371 0 0.04174
0.54875 0 0.04174
0.650234 0 0.04174
0.755175 0 0.04174
0.852766 0 0.04174
0.938625 0.026511 0.04174
0.993861 0.060862 0.04174
0 0.000003 0.04174
0 0.000003 0.04174
0 0.000003 0.04174
0 0.000003 0.04174
0 0.000003 0.04174
0 0.000003 0.04174
0.077056 0.013679 0.04174
0.216596 0.025566 0.04174
0.363845 0.034537 0.04174
0.475736 0.040212 0.04174
0.558583 0.043881 0.04174
0.659087 0.047549 0.04174
0.764739 0.051648 0.04174
0.862715 0.060709 0.04174
0.948499 0.080985 0.04174
1.00002 0.095314 0.04174
0 0.000003 0.04174
0 0.000003 0.04174
0 0.000003 0.04174
0 0.000003 0.04174
0 0.000003 0.04174
0 0.000003 0.04174
0.083538 0.028247 0.04174
0.225667 0.050799 0.04174
0.380846 0.068025 0.04174
0.50332 0.078813 0.04174
0.591152 0.085569 0.04174
0.687981 0.096372 0.04174
0.792709 0.115963 0.04174
0.890599 0.140567 0.04174
0.975118 0.158928 0.04174
1.00002 0.160971 0.04174
0 0.000003 0.04174
0 0.000003 0.04174
0 0.000003 0.04174
0 0.000003 0.04174
0 0.000003 0.04174
0 0.000003 0.04174
0.089745 0.045099 0.04174
0.239181 0.07801 0.04174
0.404751 0.103875 0.04174
0.540227 0.12531 0.04174
0.636811 0.147457 0.04174
0.727251 0.174332 0.04174
0.828475 0.202159 0.04174
0.924013 0.225648 0.04174
1.00002 0.240716 0.04174
1.00002 0.233607 0.04174
0 0.000003 0.04174
0 0.000003 0.04174
0 0.000003 0.04174
0 0.002552 0.04174
0 0.010902 0.04174
0.002094 0.021313 0.04174
0.081688 0.072605 0.038673
0.24918 0.125145 0.041715
0.429317 0.168994 0.04174
0.580981 0.204867 0.04174
0.68883 0.238718 0.04174
0.776747 0.269988 0.04174
0.866244 0.296153 0.04174
0.95639 0.318296 0.04174
1.00002 0.324006 0.04174
1.00002 0.312485 0.04174
0.000009 0.085043 0.065144
0.000009 0.085043 0.065144
0 0.087376 0.064438
0.000898 0.094711 0.059596
0.015293 0.104599 0.053284
0.043128 0.118048 0.053248
0.079401 0.128017 0.049404
0.18839 0.200645 0.025175
0.426647 0.260328 0.030986
0.610246 0.304114 0.041286
0.731068 0.341544 0.04174
0.823454 0.371515 0.04174
0.906825 0.396382 0.04174
0.99078 0.41863 0.041787
1.00002 0.407857 0.058427
1.00002 0.391578 0.06671
0.003016 0.198551 0.129378
0.003016 0.198551 0.129378
0.003212 0.201683 0.130668
0.003728 0.211667 0.133404
0.002191 0.225351 0.129359
0.038529 0.250512 0.075634
0.103595 0.271061 0.066482
0.154752 0.279045 0.049578
0.317283 0.372548 0.011822
0.551643 0.432136 0.005107
0.723837 0.462339 0.018595
0.840861 0.488202 0.028036
0.935785 0.510867 0.034396
0.997569 0.518977 0.061383
1.000021 0.496984 0.082355
1.00002 0.477421 0.09111
0.005945 0.343618 0.229223
0.005945 0.343618 0.229223
0.006016 0.34766 0.231029
0.00597 0.360351 0.23501
0.00428 0.377374 0.233446
0 0.40168 0.194948
0.114691 0.444194 0.09044
0.191389 0.465497 0.075568
0.25206 0.463265 0.044886
0.43635 0.559183 0.003183
0.599516 0.61755 0
0.753324 0.640057 0
0.881286 0.654709 0.005914
0.942684 0.634801 0.041189
0.965826 0.602776 0.073503
0.980289 0.576942 0.091999
0.008557 0.502617 0.346411
0.008557 0.502617 0.346411
0.008568 0.507009 0.348092
0.008284 0.520405 0.351282
0.006035 0.539045 0.347371
0.022177 0.565768 0.309149
0.109724 0.61033 0.165183
0.212305 0.648346 0.100933
0.289155 0.666346 0.078564
0.358514 0.658512 0.038749
0.522641 0.73413 0.00093
0.643089 0.781132 0
0.757205 0.804651 0
0.827731 0.76888 0.015666
0.872396 0.724789 0.041762
0.90478 0.690944 0.0622
0.010973 0.65687 0.463719
0.010973 0.65687 0.463719
0.010907 0.661123 0.464577
0.023336 0.673823 0.46245
0.05313 0.693362 0.44809
0.080748 0.719648 0.407516
0.09789 0.756131 0.276506
0.242427 0.796125 0.198051
0.320836 0.825955 0.124338
0.381814 0.841883 0.073977
0.456711 0.83165 0.041682
0.596213 0.87933 0.028204
0.704757 0.909203 0.026117
0.75225 0.881329 0.032113
0.78346 0.833059 0.042369
0.811571 0.798361 0.048952
0.070009 0.799483 0.561808
0.070009 0.799483 0.561808
0.076637 0.802758 0.560143
0.096476 0.813558 0.552441
0.120354 0.829725 0.534463
0.144064 0.851625 0.492981
0.159194 0.880764 0.396015
0.270502 0.916178 0.296344
0.358079 0.945637 0.215103
0.423871 0.963918 0.15326
0.48298 0.972658 0.115062
0.554608 0.964932 0.088378
0.662993 0.994549 0.073227
0.726165 0.968846 0.069078
0.751232 0.913174 0.07009
0.766328 0.877877 0.069129
0.136918 0.920214 0.642125
0.136919 0.920214 0.642125
0.142844 0.922247 0.639101
0.159913 0.931001 0.628615
0.180689 0.943866 0.607412
0.201979 0.961519 0.565839
0.220682 0.984906 0.483784
0.299799 1.013769 0.381157
0.385481 1.034311 0.294587
0.454578 1.057111 0.224154
0.510275 1.068984 0.180082
0.566098 1.075491 0.151313
0.631375 1.07021 0.128364
0.698168 1.046913 0.11369
0.731738 0.982711 0.106682
0.750428 0.939872 0.100101
0.193075 0.989343 0.686225
0.193075 0.989343 0.686225
0.198757 0.989469 0.681509
0.213974 0.990124 0.665795
0.232365 0.991418 0.639118
0.253014 0.994415 0.595621
0.275291 1.00002 0.528005
0.323075 1.010797 0.439236
0.389829 1.026369 0.355601
0.448926 1.045626 0.28167
0.501468 1.064794 0.234571
0.550609 1.081136 0.205626
0.602847 1.092474 0.184061
0.666692 1.097716 0.164019
0.709097 1.048872 0.149348
0.733234 0.998658 0.137213
0.237026 0.990783 0.682019
0.237026 0.990783 0.682019
0.242541 0.991047 0.678045
0.256816 0.991432 0.664882
0.274502 0.992938 0.642825
0.295271 0.995543 0.609792
0.319203 0.999776 0.560507
0.350982 1.00745 0.489708
0.399889 1.020246 0.410419
0.448586 1.036643 0.33523
0.494863 1.053518 0.283879
0.536871 1.068362 0.253083
0.577439 1.080184 0.232515
0.624448 1.089075 0.214651
0.683075 1.093436 0.196871
0.714947 1.055432 0.176853
0.268255 0.991557 0.68186
0.268255 0.991557 0.68186
0.272527 0.991761 0.67858
0.285572 0.992583 0.668168
0.30189 0.993452 0.651098
0.321733 0.995368 0.62552
0.345309 0.999132 0.586895
0.372252 1.004582 0.532172
0.406061 1.014622 0.460783
0.445978 1.028339 0.387407
0.486865 1.043234 0.331494
0.524868 1.057378 0.294376
0.56101 1.069612 0.270063
0.599058 1.07972 0.251838
0.644276 1.087061 0.235142
0.695239 1.090271 0.221107
0 0.000003 0.04174
0 0.000003 0.04174
0 0.000003 0.04174
0 0.000003 0.04174
0 0.000003 0.04174
0 0.000003 0.04174
0.07545 0 0.045364
0.214475 0 0.054299
0.360225 0 0.06121
0.470006 0 0.06568
0.551564 0 0.068678
0.651608 0 0.071729
0.756657 0 0.074502
0.854008 0 0.076653
0.940152 0 0.081885
0.995518 0 0.070999
0 0.000003 0.04174
0 0.000003 0.04174
0 0.000003 0.04174
0 0.000003 0.04174
0 0.000003 0.04174
0 0.000003 0.04174
0.075441 0 0.045784
0.214536 0 0.054955
0.360395 0 0.061915
0.470168 0 0.06635
0.55179 0 0.06926
0.651649 0 0.072246
0.756619 0 0.074876
0.854108 0 0.076891
0.940162 0 0.081998
0.995519 0 0.070999
0 0.000003 0.04174
0 0.000003 0.04174
0 0.000003 0.04174
0 0.000003 0.04174
0 0.000003 0.04174
0 0.000003 0.04174
0.076823 0.001873 0.04174
0.216736 0.003154 0.04174
0.365166 0.004173 0.04174
0.477807 0.004846 0.04174
0.559974 0.004229 0.04174
0.65872 0.004359 0.04174
0.76401 0.011136 0.04174
0.861496 0.026614 0.04174
0.947323 0.048736 0.04174
1.00002 0.067141 0.04174
0 0.000003 0.04174
0 0.000003 0.04174
0 0.000003 0.04174
0 0.000003 0.04174
0 0.000003 0.04174
0 0.000003 0.04174
0.083016 0.023923 0.04174
0.225527 0.04321 0.04174
0.382087 0.058463 0.04174
0.505676 0.068679 0.04174
0.593458 0.075399 0.04174
0.688435 0.086498 0.04174
0.792542 0.106275 0.04174
0.890123 0.130336 0.04174
0.974889 0.146672 0.04174
1.00002 0.149072 0.04174
0 0.000003 0.04174
0 0.000003 0.04174
0 0.000003 0.04174
0 0.000003 0.04174
0 0.000003 0.04174
0 0.000003 0.04174
0.089902 0.043956 0.04174
0.239138 0.075555 0.04174
0.405525 0.100509 0.04174
0.542416 0.121402 0.04174
0.639347 0.143023 0.04174
0.728624 0.169374 0.04174
0.828178 0.196226 0.04174
0.923487 0.218539 0.04174
1.00002 0.232805 0.04174
1.00002 0.226021 0.04174
0 0.000003 0.04174
0 0.000003 0.04174
0 0.000003 0.04174
0 0.002753 0.04174
0 0.010575 0.04174
0.001475 0.020676 0.04174
0.08253 0.072586 0.038658
0.249664 0.124434 0.041737
0.430156 0.167626 0.04174
0.583301 0.203059 0.04174
0.691659 0.236487 0.04174
0.778659 0.266665 0.04174
0.866238 0.291609 0.04174
0.956002 0.313035 0.04174
1.00002 0.318742 0.04174
1.00002 0.307359 0.045915
0 0.085521 0.068073
0.000009 0.085569 0.068423
0.000009 0.087945 0.068234
0.000282 0.09537 0.063649
0.004745 0.104199 0.054602
0.041782 0.117925 0.05336
0.079567 0.128136 0.049379
0.189502 0.201008 0.024984
0.428838 0.259958 0.031418
0.612694 0.303449 0.041427
0.733736 0.34004 0.04174
0.826566 0.368939 0.04174
0.908715 0.393149 0.04174
0.991091 0.414699 0.047237
1.00002 0.404188 0.063998
1.00002 0.388111 0.072163
0.002629 0.19947 0.131863
0.002586 0.199583 0.132098
0.002859 0.202572 0.13334
0.003597 0.212347 0.136529
0.003231 0.225319 0.13475
0.02982 0.249711 0.077232
0.103619 0.271233 0.066486
0.155185 0.279401 0.049434
0.319026 0.373285 0.011539
0.555822 0.431911 0.005534
0.728957 0.461101 0.01963
0.84618 0.486032 0.029271
0.940381 0.508077 0.038039
0.998197 0.514835 0.066858
1.000021 0.493819 0.088109
1.00002 0.474827 0.096882
0.005877 0.344673 0.232589
0.005869 0.34474 0.232823
0.00599 0.348285 0.234268
0.006185 0.360934 0.238732
0.005112 0.377499 0.238256
0 0.400755 0.205866
0.112686 0.444001 0.090808
0.191598 0.466045 0.075596
0.25267 0.463615 0.044674
0.438297 0.559926 0.002843
0.604063 0.617098 0
0.759343 0.638165 0
0.887898 0.651786 0.010762
0.946085 0.630655 0.046897
0.968236 0.599666 0.079386
0.981982 0.574342 0.098622
0.008622 0.503857 0.350342
0.008622 0.503904 0.350615
0.008672 0.507685 0.351779
0.008595 0.520892 0.355254
0.006855 0.539031 0.352268
0.025785 0.565299 0.317238
0.103543 0.608829 0.174471
0.211086 0.648597 0.101263
0.289344 0.667295 0.078707
0.359218 0.658887 0.038494
0.524866 0.734883 0.000634
0.647205 0.780475 0
0.762895 0.803088 0
0.832073 0.76514 0.019466
0.875972 0.722082 0.046842
0.907745 0.68833 0.068355
0.011127 0.658014 0.468122
0.011133 0.65815 0.468312
0.011099 0.661474 0.468481
0.023335 0.674146 0.466788
0.054282 0.693545 0.453913
0.083428 0.718948 0.415769
0.091448 0.754353 0.291879
0.241394 0.795714 0.205758
0.322056 0.82593 0.130148
0.383318 0.841908 0.077562
0.458919 0.8316 0.044715
0.599149 0.879039 0.030652
0.707872 0.908618 0.02843
0.754329 0.879002 0.034668
0.785495 0.831505 0.045569
0.814364 0.796361 0.05329
0.070657 0.800116 0.566635
0.070681 0.800103 0.566802
0.076086 0.802555 0.564642
0.09658 0.813579 0.557594
0.12142 0.8297 0.540575
0.146111 0.851776 0.501334
0.163776 0.87983 0.410379
0.268025 0.915363 0.303944
0.358018 0.945175 0.220906
0.424577 0.963705 0.157502
0.484383 0.973067 0.118255
0.55627 0.96473 0.090911
0.665703 0.994374 0.075342
0.727954 0.967006 0.0716
0.753067 0.911543 0.073501
0.768258 0.876705 0.073367
0.137703 0.920375 0.647552
0.137721 0.920338 0.647648
0.142391 0.922515 0.644441
0.160167 0.930593 0.633973
0.181621 0.943215 0.613858
0.20375 0.961188 0.574079
0.223545 0.983744 0.495421
0.296749 1.012862 0.388473
0.384749 1.033374 0.300619
0.454587 1.056272 0.228582
0.511105 1.069479 0.183431
0.567351 1.075531 0.153966
0.633068 1.069715 0.130473
0.699782 1.045382 0.1158
0.733144 0.981471 0.109358
0.75206 0.938533 0.103252
0.194026 0.989528 0.69161
0.194055 0.98953 0.691657
0.198493 0.989431 0.687014
0.214233 0.990146 0.671347
0.23332 0.991404 0.6453
0.254625 0.993958 0.603021
0.277338 0.999861 0.53714
0.321528 1.009918 0.446622
0.389348 1.025468 0.362059
0.448916 1.044793 0.286429
0.501794 1.064184 0.237925
0.551288 1.080711 0.208408
0.603859 1.092132 0.186464
0.668326 1.097431 0.166181
0.710979 1.047114 0.151292
0.734627 0.997683 0.139695
0.238235 0.990647 0.687017
0.238253 0.990647 0.687129
0.242247 0.990878 0.682972
0.257113 0.991382 0.66985
0.275133 0.992701 0.648089
0.296259 0.994935 0.615787
0.32058 0.999445 0.567433
0.350942 1.006774 0.496468
0.40007 1.019419 0.417098
0.448777 1.035823 0.340646
0.495048 1.052834 0.28773
0.53731 1.06779 0.256147
0.578356 1.079857 0.235074
0.625641 1.088804 0.216842
0.684669 1.09315 0.198835
0.716228 1.054218 0.179048
0.268732 0.991434 0.686682
0.26872 0.991433 0.686687
0.272158 0.991687 0.683104
0.285749 0.99237 0.672605
0.302619 0.993369 0.655723
0.322857 0.99519 0.630784
0.34638 0.998737 0.592966
0.372532 1.004058 0.537877
0.406667 1.013888 0.467293
0.44605 1.027562 0.392855
0.487118 1.042584 0.335498
0.525515 1.05684 0.297535
0.5616 1.069102 0.272864
0.599886 1.079359 0.254269
0.645069 1.086742 0.237715
0.696756 1.090014 0.223256
0 0.000003 0.04174
0 0.000003 0.04174
0 0.000003 0.04174
0 0.000003 0.04174
0 0.000003 0.04174
0 0.000003 0.04174
0.075078 0 0.055565
0.215061 0 0.073627
0.365522 0 0.087479
0.481065 0 0.096142
0.561975 0 0.101367
0.655699 0 0.106441
0.758971 0 0.111106
0.856967 0 0.118642
0.943018 0 0.137112
0.997518 0 0.141441
0 0.000003 0.04174
0 0.000003 0.04174
0 0.000003 0.04174
0 0.000003 0.04174
0 0.000003 0.04174
0 0.000003 0.04174
0.075053 0 0.0557
0.215065 0 0.07384
0.365552 0 0.087709
0.481243 0 0.096383
0.562073 0 0.101592
0.655725 0.00001 0.106626
0.759046 0 0.111233
0.856867 0 0.118758
0.943017 0 0.13717
0.997518 0 0.141441
0 0.000003 0.04174
0 0.000003 0.04174
0 0.000003 0.04174
0 0.000003 0.04174
0 0.000003 0.04174
0 0.000003 0.04174
0.076372 0 0.05259
0.217401 0 0.067769
0.370203 0 0.079835
0.488786 0 0.088005
0.57117 0 0.093335
0.663651 0 0.098302
0.766863 0 0.103298
0.864246 0 0.112196
0.950597 0.00001 0.127788
1.00002 0 0.130209
0 0.000003 0.04174
0 0.000003 0.04174
0 0.000003 0.04174
0 0.000003 0.04174
0 0.000003 0.04174
0 0.000003 0.04174
0.081137 0.004343 0.04174
0.224339 0.006322 0.04174
0.383259 0.006636 0.04174
0.509122 0.008074 0.04174
0.596251 0.009545 0.04174
0.686314 0.027301 0.04174
0.788323 0.04793 0.04174
0.885891 0.067358 0.04174
0.971255 0.075716 0.04174
1.00002 0.079432 0.04174
0 0.000003 0.04174
0 0.000003 0.04174
0 0.000003 0.04174
0 0.000003 0.04174
0 0.000003 0.04174
0 0.000003 0.04174
0.089059 0.036729 0.04174
0.237621 0.06242 0.04174
0.405967 0.083059 0.04174
0.546455 0.100942 0.04174
0.644296 0.119955 0.04174
0.729993 0.143508 0.04174
0.826604 0.167598 0.04174
0.921527 0.186653 0.04174
1.00002 0.199845 0.04174
1.00002 0.194494 0.042348
0 0.000003 0.04174
0 0.000003 0.04174
0 0.000931 0.04174
0.000003 0.003604 0.04174
0.000005 0.009428 0.04174
0.000005 0.018703 0.04174
0.086247 0.070606 0.039319
0.250037 0.11912 0.04174
0.43146 0.158933 0.04174
0.587765 0.192311 0.04174
0.697272 0.223658 0.04174
0.783259 0.250663 0.04174
0.867335 0.272474 0.04174
0.954772 0.291887 0.04174
1.00002 0.297772 0.05386
1.00002 0.287754 0.063239
0.000009 0.087941 0.078018
0 0.087986 0.078166
0.000009 0.09007 0.078663
0.000012 0.09554 0.076993
0.00058 0.105041 0.06917
0.034924 0.116784 0.053848
0.080058 0.12791 0.049187
0.193535 0.200639 0.024309
0.435599 0.255528 0.033561
0.618901 0.298002 0.041743
0.741251 0.331788 0.04174
0.833786 0.357627 0.04174
0.914678 0.379571 0.04174
0.993275 0.399665 0.062773
1.00002 0.39003 0.080351
1.00002 0.375641 0.088873
0.001037 0.202959 0.14148
0.001025 0.203006 0.141659
0.001132 0.205913 0.142881
0.002216 0.21327 0.144228
0.003807 0.22536 0.146126
0 0.242619 0.120137
0.102139 0.270505 0.066692
0.156382 0.279884 0.048906
0.324813 0.374125 0.010457
0.569962 0.427395 0.007776
0.74462 0.4538 0.023782
0.860508 0.476077 0.033442
0.953019 0.496904 0.055861
1.000021 0.500493 0.082988
1.00002 0.482088 0.104288
1.00002 0.464777 0.114585
0.004872 0.348565 0.243847
0.00485 0.348621 0.243956
0.005096 0.352117 0.245689
0.005908 0.36134 0.248204
