site/assets/luts/freshluts--0000355-cine-series-candyman-90s.cube
# LUTr-Schema-Version: 2
# LUTr-ID: freshluts--0000355-cine-series-candyman-90s
# LUTr-Title: CINE SERIES_CANDYMAN 90S
# LUTr-Collection: Fresh LUTs
# LUTr-Collection-ID: freshluts-community
# LUTr-Source: https://freshluts.com
# LUTr-Retrieved: 2026-07-27
# LUTr-Source-File: submissions-raw/freshluts/cubes/355__Candyman.cube
# LUTr-Source-Format: CUBE
# LUTr-Source-SHA256: 709e7da68d336d5508ceb03d87619c400b44758c754f03c85a946f1fca6d7064
# LUTr-License: CC0-1.0
# LUTr-License-URL: https://freshluts.com/termsandconditions
# LUTr-License-Basis: site-terms
# LUTr-Transform-Class: creative-look
# LUTr-Tags: creative, freshluts, community, cube, green, cinematic
# LUTr-Input-Color-Space:
# LUTr-Input-Gamut: unspecified
# LUTr-Input-Transfer: unspecified
# LUTr-Output-Color-Space: srgb
# LUTr-Output-Gamut: rec709
# LUTr-Output-Transfer: srgb
# LUTr-Color-Space-Confidence: camera-profile-input-required
# LUTr-Domain-Normalized: true
# LUTr-Shaper: none
# LUTr-Original-Grid: 32x32x32
# LUTr-Conversion-Grid: 32x32x32
# LUTr-Conversion-Interpolation: none
# LUTr-Conversion-Method: Metadata normalization; numeric LUT samples preserved
# LUTr-Conversion-Tool: LUTr scripts/convert-all-to-cube.mjs 2.0.0
# LUTr-Conversion-Date: 2026-07-28
# LUTr-Asset-URL: https://freshluts.com/luts/355
# LUTr-Author: I WANT TO MAKE A FILM PODCAST
# LUTr-Author-URL: https://freshluts.com/users/15633
# LUTr-Attribution: I WANT TO MAKE A FILM PODCAST via Fresh LUTs
# LUTr-Source-Labels: gamma=Other; color=Green; key=Neutral; style=Horror / Dark
# LUTr-Note: Preserve this metadata and the upstream license notices when redistributing.
# LUTr-Upstream-Comment: Created by: Adobe Photoshop Export Color Lookup Plugin
# LUTr-Upstream-Comment: LUT size
# LUTr-Upstream-Comment: data domain
# LUTr-Upstream-Comment: LUT data points
TITLE "CINE SERIES_CANDYMAN 90S"
LUT_3D_SIZE 32
DOMAIN_MIN 0 0 0
DOMAIN_MAX 1 1 1
0.019623 0.019623 0.019623
0.022736 0.019501 0.019928
0.027008 0.019318 0.020355
0.033752 0.019043 0.020996
0.044006 0.018646 0.022034
0.058868 0.018066 0.023499
0.079437 0.017273 0.025574
0.106598 0.016174 0.028229
0.140442 0.014862 0.031616
0.180267 0.013275 0.035522
0.225372 0.011505 0.040009
0.275238 0.009552 0.044983
0.329132 0.007416 0.050293
0.386444 0.005157 0.055969
0.446686 0.002777 0.061951
0.508911 0.000336 0.068115
0.569824 0 0.075958
0.629669 0 0.083923
0.687592 0 0.091644
0.742157 0 0.098938
0.792175 0 0.105591
0.836212 0 0.111481
0.873657 0 0.116455
0.90506 0 0.120636
0.93103 0 0.124115
0.952362 0 0.126953
0.969666 0 0.129242
0.983643 0 0.131134
0.994934 0 0.132629
1 0.004303 0.137024
1 0.012268 0.143921
1 0.019623 0.150299
0.019623 0.022736 0.019623
0.022217 0.022552 0.019775
0.026764 0.022339 0.019562
0.033752 0.020447 0.019043
0.044006 0.018646 0.018646
0.058868 0.018066 0.020142
0.079437 0.017273 0.022186
0.106598 0.016174 0.024841
0.140442 0.014862 0.028229
0.180267 0.013275 0.032166
0.225372 0.011505 0.036621
0.275238 0.009552 0.041595
0.329132 0.007416 0.046936
0.386444 0.005157 0.052643
0.446686 0.002777 0.058594
0.508911 0.000336 0.064789
0.569824 0 0.072632
0.629669 0 0.080566
0.687592 0 0.088287
0.742157 0 0.095673
0.792175 0 0.102295
0.836212 0 0.108215
0.873657 0 0.113251
0.90506 0 0.11734
0.93103 0 0.120911
0.952362 0 0.123688
0.969666 0 0.125946
0.983643 0 0.127747
0.994934 0 0.129456
1 0.004303 0.133881
1 0.012268 0.140808
1 0.019623 0.147186
0.019623 0.027039 0.019623
0.02243 0.026886 0.019745
0.025787 0.026611 0.02002
0.03302 0.026947 0.019806
0.043701 0.0242 0.018982
0.058868 0.02066 0.018066
0.079437 0.017273 0.017517
0.106598 0.016174 0.020203
0.140442 0.014862 0.02356
0.180267 0.013275 0.027496
0.225372 0.011505 0.031982
0.275238 0.009552 0.036926
0.329132 0.007416 0.042297
0.386444 0.005157 0.047974
0.446686 0.002777 0.053925
0.508911 0.000336 0.060059
0.569824 0 0.068024
0.629669 0 0.07608
0.687592 0 0.083771
0.742157 0 0.091125
0.792175 0 0.09787
0.836212 0 0.103699
0.873657 0 0.108795
0.90506 0 0.112915
0.93103 0 0.116394
0.952362 0 0.119263
0.969666 0 0.12146
0.983643 0 0.123444
0.994934 0 0.124847
1 0.004303 0.129486
1 0.012268 0.136444
1 0.019623 0.142883
0.019623 0.033752 0.019623
0.022614 0.033752 0.019623
0.026154 0.033356 0.019989
0.031433 0.032959 0.020386
0.042419 0.034027 0.020264
0.057983 0.030457 0.018951
0.079437 0.024261 0.017273
0.106598 0.019409 0.016174
0.140442 0.014862 0.016296
0.180267 0.013275 0.020233
0.225372 0.011505 0.024719
0.275238 0.009552 0.029663
0.329132 0.007416 0.034973
0.386444 0.005157 0.04071
0.446686 0.002777 0.046661
0.508911 0.000336 0.052856
0.569824 0 0.060791
0.629669 0 0.068878
0.687592 0 0.076721
0.742157 0 0.084076
0.792175 0 0.090698
0.836212 0 0.096558
0.873657 0 0.101746
0.90506 0 0.105835
0.93103 0 0.109344
0.952362 0 0.112305
0.969666 0 0.114594
0.983643 0 0.116486
0.994934 0 0.117798
1 0.004303 0.122437
1 0.012268 0.1297
1 0.019623 0.1362
0.019623 0.044037 0.019623
0.022614 0.044037 0.019623
0.026581 0.043884 0.019745
0.031921 0.043213 0.020416
0.040009 0.042694 0.020935
0.056 0.044952 0.020935
0.077515 0.040558 0.019165
0.105957 0.032654 0.016846
0.140442 0.024536 0.014862
0.180267 0.017426 0.013275
0.225372 0.011505 0.01358
0.275238 0.009552 0.018555
0.329132 0.007416 0.023895
0.386444 0.005157 0.029541
0.446686 0.002777 0.035492
0.508911 0.000336 0.041687
0.569824 0 0.049805
0.629669 0 0.057953
0.687592 0 0.065796
0.742157 0 0.073212
0.792175 0 0.079865
0.836212 0 0.085938
0.873657 0 0.090851
0.90506 0 0.095245
0.93103 0 0.098663
0.952362 0 0.101379
0.969666 0 0.103912
0.983643 0 0.105652
0.994934 0 0.107117
1 0.004303 0.111755
1 0.012268 0.11911
1 0.019623 0.125885
0.019623 0.058868 0.019623
0.022614 0.058868 0.019623
0.026733 0.058868 0.019623
0.032715 0.058411 0.020081
0.040649 0.057343 0.021149
0.052429 0.056702 0.021759
0.074738 0.060791 0.021973
0.10318 0.055634 0.019623
0.138397 0.046387 0.016907
0.180267 0.033813 0.013275
0.225372 0.025452 0.011505
0.275238 0.016632 0.009552
0.329132 0.007416 0.007812
0.386444 0.005157 0.01355
0.446686 0.002777 0.01947
0.508911 0.000336 0.025665
0.569824 0 0.033813
0.629669 0 0.042114
0.687592 0 0.050018
0.742157 0 0.057434
0.792175 0 0.064392
0.836212 0 0.070221
0.873657 0 0.075287
0.90506 0 0.079559
0.93103 0 0.083191
0.952362 0 0.086029
0.969666 0 0.088287
0.983643 0 0.090302
0.994934 0 0.091827
1 0.004303 0.096436
1 0.012268 0.104156
1 0.019623 0.111053
0.019623 0.079285 0.019623
0.022614 0.079285 0.019623
0.026733 0.079285 0.019623
0.033203 0.079285 0.019623
0.04184 0.078339 0.020538
0.053162 0.076721 0.022186
0.069641 0.076019 0.022888
0.099243 0.082611 0.023529
0.134552 0.077026 0.020752
0.176056 0.066986 0.017517
0.22345 0.053467 0.013428
0.275238 0.038666 0.009552
0.329132 0.029083 0.007416
0.386444 0.018829 0.005157
0.446686 0.008209 0.002777
0.508911 0.000336 0.003571
0.569824 0 0.01181
0.629669 0 0.020294
0.687592 0 0.028381
0.742157 0 0.035889
0.792175 0 0.042755
0.836212 0 0.048798
0.873657 0 0.053955
0.90506 0 0.058319
0.93103 0 0.061829
0.952362 0 0.064636
0.969666 0 0.066986
0.983643 0 0.068909
0.994934 0 0.070435
1 0.004303 0.075531
1 0.012268 0.083405
1 0.019623 0.090698
0.019623 0.106201 0.019623
0.022614 0.106201 0.019623
0.026733 0.106201 0.019623
0.033203 0.106201 0.019623
0.042755 0.106018 0.019775
0.054962 0.10434 0.021484
0.070312 0.102295 0.023499
0.092346 0.101471 0.024353
0.129333 0.111359 0.02597
0.171234 0.105896 0.022339
0.218445 0.095551 0.018463
0.270447 0.081818 0.014343
0.326813 0.06546 0.009735
0.386444 0.047974 0.005157
0.446686 0.037231 0.002777
0.508911 0.026154 0.000336
0.569824 0.016968 0
0.629669 0.008453 0
0.687592 0.000183 0
0.742157 0 0.007416
0.792175 0 0.014496
0.836212 0 0.02063
0.873657 0 0.025818
0.90506 0 0.03006
0.93103 0 0.03363
0.952362 0 0.036743
0.969666 0 0.039062
0.983643 0 0.040833
0.994934 0 0.042511
1 0.004303 0.047821
1 0.012268 0.056152
1 0.019623 0.06366
0.019623 0.139435 0.019623
0.022614 0.139435 0.019623
0.026733 0.139435 0.019623
0.033203 0.139435 0.019623
0.04306 0.139435 0.019623
0.056335 0.138489 0.020538
0.072784 0.136383 0.022644
0.092743 0.133575 0.025452
0.120667 0.132874 0.026154
0.165497 0.14621 0.028046
0.211884 0.141998 0.025024
0.264191 0.131897 0.020569
0.321014 0.118042 0.015564
0.380249 0.101868 0.011353
0.443481 0.083313 0.005981
0.508911 0.063293 0.000336
0.569824 0.052734 0
0.629669 0.043823 0
0.687592 0.035431 0
0.742157 0.027527 0
0.792175 0.020508 0
0.836212 0.014282 0
0.873657 0.008972 0
0.90506 0.004639 0
0.93103 0.000916 0
0.952362 0 0.002106
0.969666 0 0.004486
0.983643 0 0.006256
0.994934 0 0.007782
1 0.004303 0.013306
1 0.012268 0.0224
1 0.019623 0.030396
0.019623 0.178345 0.019623
0.022614 0.178345 0.019623
0.026703 0.178345 0.019623
0.033173 0.178345 0.019623
0.04306 0.178345 0.019623
0.057312 0.178345 0.019623
0.074707 0.176178 0.02179
0.095947 0.17337 0.024567
0.120331 0.169952 0.027985
0.153992 0.169647 0.02829
0.206482 0.186462 0.030426
0.257019 0.184479 0.027771
0.312897 0.174866 0.023682
0.373383 0.161469 0.01825
0.435486 0.145721 0.014008
0.500671 0.127655 0.008606
0.566772 0.108307 0.003021
0.629669 0.090393 0
0.687592 0.076721 0
0.742157 0.068665 0
0.792175 0.06131 0
0.836212 0.055115 0
0.873657 0.049683 0
0.90506 0.045288 0
0.93103 0.041595 0
0.952362 0.038605 0
0.969666 0.036224 0
0.983643 0.034088 0
0.994934 0.032562 0
1 0.035431 0.004303
1 0.041687 0.012268
1 0.047638 0.019623
0.019623 0.222321 0.019623
0.022583 0.222321 0.019623
0.026764 0.222321 0.019623
0.033173 0.222321 0.019623
0.043091 0.222321 0.019623
0.057343 0.222321 0.019623
0.076141 0.221527 0.020416
0.098328 0.21875 0.023193
0.124359 0.215179 0.026733
0.153137 0.211243 0.030701
0.191711 0.211243 0.030701
0.25174 0.231781 0.033051
0.304749 0.232117 0.031799
0.364441 0.223328 0.027191
0.428253 0.210815 0.02121
0.493317 0.195312 0.01593
0.558472 0.178558 0.011322
0.623871 0.160309 0.005768
0.686951 0.142212 0.00061
0.742157 0.127197 0
0.792175 0.114288 0
0.836212 0.102905 0
0.873657 0.095764 0
0.90506 0.091248 0
0.93103 0.087524 0
0.952362 0.084412 0
0.969666 0.081909 0
0.983643 0.079956 0
0.994934 0.078461 0
1 0.080627 0.004303
1 0.086304 0.012268
1 0.091675 0.019623
0.019623 0.270691 0.019623
0.022614 0.270691 0.019623
0.026733 0.270691 0.019623
0.033234 0.270691 0.019623
0.04303 0.270691 0.019623
0.057312 0.270691 0.019623
0.077057 0.270691 0.019623
0.100433 0.268219 0.022064
0.127441 0.264801 0.025513
0.157471 0.260376 0.029907
0.190796 0.256958 0.033356
0.233429 0.256958 0.033356
0.30069 0.281555 0.035889
0.355469 0.284515 0.036133
0.41864 0.276886 0.030823
0.483215 0.265106 0.026031
0.550201 0.250854 0.019623
0.614655 0.235199 0.015015
0.676819 0.219208 0.010742
0.73764 0.202484 0.004517
0.791656 0.187256 0.000488
0.836212 0.175171 0
0.873657 0.165314 0
0.90506 0.157318 0
0.93103 0.150482 0
0.952362 0.145081 0
0.969666 0.140381 0
0.983643 0.137115 0
0.994934 0.134338 0
1 0.135071 0.004303
1 0.138855 0.012268
1 0.142395 0.019623
0.019623 0.322876 0.019623
0.022583 0.322876 0.019623
0.026733 0.322876 0.019623
0.033173 0.322876 0.019623
0.043091 0.322876 0.019623
0.057312 0.322876 0.019623
0.077087 0.322876 0.019623
0.102264 0.321686 0.020813
0.130127 0.318115 0.024353
0.161285 0.313995 0.028503
0.194489 0.309235 0.033234
0.232422 0.306274 0.036194
0.278503 0.306274 0.036194
0.352722 0.335114 0.038879
0.409027 0.341278 0.040436
0.47403 0.334442 0.035217
0.539825 0.323853 0.029968
0.604279 0.31131 0.025391
0.667969 0.297089 0.019623
0.728027 0.282715 0.01413
0.782837 0.268585 0.009308
0.830597 0.255981 0.005615
0.870331 0.24527 0.003326
0.904022 0.236023 0.001007
0.93103 0.228424 0
0.952362 0.222992 0
0.969666 0.218506 0
0.983643 0.214691 0
0.994934 0.212067 0
1 0.211914 0.004303
1 0.214844 0.012268
1 0.217072 0.019623
0.019623 0.378204 0.019623
0.022614 0.378204 0.019623
0.026703 0.378204 0.019623
0.033203 0.378204 0.019623
0.043091 0.378204 0.019623
0.057343 0.378204 0.019623
0.077057 0.378204 0.019623
0.103149 0.378204 0.019623
0.132141 0.375397 0.02243
0.164337 0.371185 0.026611
0.199066 0.366302 0.031525
0.23526 0.361389 0.036438
0.277405 0.358582 0.039215
0.326447 0.358582 0.039215
0.40744 0.391815 0.042053
0.463928 0.399536 0.045319
0.528442 0.394653 0.041382
0.593903 0.386108 0.035767
0.656555 0.374939 0.031006
0.715668 0.363342 0.026489
0.771088 0.351227 0.021088
0.819702 0.339874 0.01651
0.860535 0.329834 0.013092
0.89389 0.321289 0.011169
0.923584 0.313629 0.007416
0.945221 0.308319 0.007141
0.962769 0.303741 0.006897
0.980621 0.298248 0.003021
0.992096 0.295288 0.002808
1 0.293579 0.004303
1 0.294647 0.012268
1 0.296326 0.019623
0.019623 0.436157 0.019623
0.022583 0.436157 0.019623
0.026733 0.436157 0.019623
0.033264 0.436157 0.019623
0.042999 0.436157 0.019623
0.057343 0.436157 0.019623
0.077087 0.436157 0.019623
0.10321 0.436157 0.019623
0.134155 0.434509 0.02124
0.167053 0.43045 0.025299
0.202789 0.425568 0.030182
0.240387 0.420685 0.035065
0.278778 0.415009 0.040771
0.325317 0.413361 0.042389
0.376862 0.413361 0.042389
0.463928 0.451141 0.045319
0.521179 0.458984 0.048645
0.583527 0.458893 0.046143
0.646423 0.451508 0.041138
0.706055 0.442383 0.036102
0.759308 0.432617 0.032837
0.808807 0.423248 0.027405
0.849152 0.414673 0.024506
0.88205 0.407227 0.02301
0.911407 0.400421 0.019623
0.934509 0.394714 0.017822
0.953674 0.390503 0.015991
0.967712 0.387268 0.01593
0.980896 0.383667 0.014008
0.992218 0.381073 0.012085
1 0.379059 0.012268
1 0.378876 0.019623
0.019623 0.495972 0.019623
0.022644 0.495972 0.019623
0.026703 0.495972 0.019623
0.033234 0.495972 0.019623
0.043121 0.495972 0.019623
0.057312 0.495972 0.019623
0.077087 0.495972 0.019623
0.103119 0.495972 0.019623
0.135681 0.495972 0.019623
0.169189 0.492249 0.023346
0.205719 0.487579 0.027985
0.244537 0.481995 0.033569
0.284607 0.47644 0.039154
0.324585 0.46991 0.045654
0.375763 0.46991 0.045654
0.428986 0.46991 0.045654
0.521179 0.512177 0.048645
0.577759 0.519989 0.05191
0.63504 0.524109 0.052551
0.693695 0.518372 0.048431
0.749023 0.511719 0.043152
0.797913 0.504517 0.0383
0.837738 0.497314 0.035919
0.870209 0.491058 0.034821
0.8992 0.485413 0.031799
0.923828 0.480774 0.028534
0.940948 0.476807 0.028687
0.956635 0.473663 0.027008
0.969696 0.471161 0.025208
0.980896 0.468719 0.023376
0.988831 0.466522 0.023407
0.996155 0.464905 0.023438
0.019623 0.556366 0.019623
0.022644 0.556366 0.019623
0.026703 0.556366 0.019623
0.033264 0.556366 0.019623
0.043091 0.556366 0.019623
0.057373 0.556366 0.019623
0.077148 0.556366 0.019623
0.103241 0.556366 0.019623
0.135712 0.556366 0.019623
0.171234 0.55426 0.021698
0.208435 0.549011 0.026947
0.24826 0.543793 0.032196
0.289337 0.538544 0.037445
0.331055 0.532257 0.043732
0.374603 0.527008 0.048981
0.427795 0.527008 0.048981
0.48172 0.527008 0.048981
0.577759 0.573792 0.05191
0.632507 0.581207 0.055084
0.684082 0.588257 0.058044
0.737244 0.586151 0.054901
0.785461 0.581329 0.050751
0.826324 0.576233 0.047333
0.860077 0.571136 0.044983
0.887024 0.566376 0.044006
0.911316 0.56308 0.041016
0.930054 0.559845 0.039612
0.945557 0.557159 0.038055
0.958496 0.554626 0.036407
0.967712 0.552856 0.036591
0.975525 0.551056 0.036713
0.986603 0.550079 0.03302
0.019623 0.615845 0.019623
0.022675 0.615845 0.019623
0.026764 0.615845 0.019623
0.033173 0.615845 0.019623
0.04306 0.615845 0.019623
0.057312 0.615845 0.019623
0.077118 0.615845 0.019623
0.10318 0.615845 0.019623
0.135651 0.615845 0.019623
0.173187 0.614685 0.020782
0.210846 0.610016 0.025452
0.25116 0.605347 0.03009
0.293365 0.599548 0.035919
0.336334 0.593719 0.041748
0.379333 0.586731 0.048737
0.426605 0.583221 0.052216
0.48056 0.583221 0.052216
0.533813 0.583221 0.052216
0.630829 0.632507 0.055084
0.684082 0.641144 0.058044
0.731384 0.647552 0.060791
0.77301 0.65152 0.063202
0.814911 0.649506 0.058716
0.849915 0.646362 0.055115
0.878296 0.643066 0.052704
0.900635 0.639709 0.051727
0.919128 0.637085 0.050507
0.934509 0.635132 0.049133
0.945435 0.632843 0.049469
0.958282 0.632202 0.04599
0.966034 0.630768 0.046234
0.973175 0.629028 0.046417
0.019623 0.673248 0.019623
0.022644 0.673248 0.019623
0.026794 0.673248 0.019623
0.033173 0.673248 0.019623
0.043091 0.673248 0.019623
0.057281 0.673248 0.019623
0.077057 0.673248 0.019623
0.103241 0.673248 0.019623
0.13562 0.673248 0.019623
0.17392 0.673248 0.019623
0.21283 0.669403 0.023438
0.253632 0.664307 0.028564
0.296692 0.657928 0.034943
0.340424 0.652802 0.040039
0.384949 0.646423 0.046417
0.428864 0.640045 0.052795
0.479431 0.637482 0.055359
0.532745 0.637482 0.055359
0.58432 0.637482 0.055359
0.675842 0.684082 0.058044
0.731384 0.698792 0.060791
0.77301 0.704376 0.063202
0.80838 0.70932 0.065247
0.838074 0.713257 0.066956
0.866119 0.711578 0.064911
0.889923 0.710327 0.062408
0.908234 0.708099 0.061401
0.923431 0.706573 0.060181
0.936096 0.7052 0.058807
0.945099 0.703735 0.059204
0.95462 0.703003 0.057617
0.963623 0.70282 0.056
0.019623 0.727234 0.019623
0.022552 0.727234 0.019623
0.026703 0.727234 0.019623
0.033264 0.727234 0.019623
0.043121 0.727234 0.019623
0.057281 0.727234 0.019623
0.077148 0.727234 0.019623
0.103241 0.727234 0.019623
0.135712 0.727234 0.019623
0.173889 0.727234 0.019623
0.214508 0.724457 0.022369
0.255981 0.718933 0.027893
0.299377 0.713409 0.033447
0.344025 0.707886 0.038971
0.389404 0.700958 0.045868
0.434418 0.695435 0.051392
0.478363 0.688538 0.058319
0.531738 0.688538 0.058319
0.583282 0.688538 0.058319
0.631927 0.688538 0.058319
0.716003 0.731384 0.060791
0.77301 0.752563 0.063202
0.80838 0.757385 0.065247
0.838074 0.761444 0.066956
0.86264 0.764709 0.06839
0.882782 0.767426 0.06955
0.899139 0.769653 0.070496
0.912354 0.769836 0.071259
0.924896 0.769196 0.070007
0.935669 0.76886 0.068634
0.945129 0.768707 0.067139
0.952118 0.767242 0.067474
0.019623 0.776459 0.019623
0.022583 0.776459 0.019623
0.026642 0.776459 0.019623
0.033112 0.776459 0.019623
0.043091 0.776459 0.019623
0.057312 0.776459 0.019623
0.077087 0.776459 0.019623
0.103149 0.776459 0.019623
0.135651 0.776459 0.019623
0.17392 0.776459 0.019623
0.216003 0.774963 0.021088
0.257599 0.770538 0.025513
0.301544 0.764618 0.031433
0.346802 0.758728 0.037354
0.392853 0.751312 0.044739
0.438751 0.745422 0.050659
0.483582 0.739502 0.05658
0.53067 0.735077 0.061005
0.582367 0.735077 0.061005
0.63089 0.735077 0.061005
0.675507 0.735077 0.061005
0.749603 0.77301 0.063202
0.80838 0.801117 0.065247
0.838074 0.805115 0.066956
0.86264 0.808533 0.06839
0.882782 0.81131 0.06955
0.899139 0.813568 0.070496
0.912354 0.81543 0.071259
0.923035 0.816833 0.071869
0.931885 0.817932 0.072388
0.939423 0.819031 0.072815
0.946381 0.819977 0.073242
0.019623 0.819763 0.019623
0.022552 0.819763 0.019623
0.026642 0.819763 0.019623
0.033295 0.819763 0.019623
0.04306 0.819763 0.019623
0.057312 0.819763 0.019623
0.077057 0.819763 0.019623
0.103241 0.819763 0.019623
0.135651 0.819763 0.019623
0.17395 0.819763 0.019623
0.217133 0.819763 0.019623
0.25885 0.815063 0.024292
0.303589 0.808807 0.030548
0.349213 0.802551 0.036804
0.395782 0.796326 0.04306
0.442291 0.79007 0.049316
0.487976 0.783813 0.055573
0.530701 0.776001 0.063385
0.581482 0.776001 0.063385
0.630035 0.776001 0.063385
0.674561 0.776001 0.063385
0.713898 0.776001 0.063385
0.777008 0.80838 0.065247
0.832428 0.838074 0.066956
0.86264 0.847137 0.06839
0.882782 0.849823 0.06955
0.899139 0.85199 0.070496
0.912354 0.853821 0.071259
0.923035 0.855286 0.071869
0.931885 0.856567 0.072388
0.939423 0.857544 0.072815
0.946381 0.858551 0.073242
0.019623 0.856537 0.019623
0.022675 0.856537 0.019623
0.026764 0.856537 0.019623
0.033112 0.856537 0.019623
0.043121 0.856537 0.019623
0.057434 0.856537 0.019623
0.077026 0.856537 0.019623
0.10318 0.856537 0.019623
0.135681 0.856537 0.019623
0.173889 0.856537 0.019623
0.217194 0.856537 0.019623
0.260773 0.851624 0.024506
0.304779 0.84671 0.029419
0.351288 0.840179 0.03595
0.398102 0.833649 0.042511
0.445099 0.827118 0.049042
0.491119 0.820557 0.055573
0.535187 0.814026 0.062103
0.58075 0.81076 0.065369
0.629333 0.81076 0.065369
0.67392 0.81076 0.065369
0.713043 0.81076 0.065369
0.746521 0.81076 0.065369
0.799683 0.838074 0.066956
0.845367 0.86264 0.06839
0.882782 0.882568 0.06955
0.899139 0.884766 0.070496
0.912354 0.886688 0.071259
0.923035 0.888123 0.071869
0.931885 0.889282 0.072388
0.939423 0.89035 0.072815
0.946381 0.891388 0.073242
0.019623 0.887299 0.019623
0.022583 0.887299 0.019623
0.026825 0.887299 0.019623
0.033173 0.887299 0.019623
0.043121 0.887299 0.019623
0.057343 0.887299 0.019623
0.077026 0.887299 0.019623
0.103088 0.887299 0.019623
0.135712 0.887299 0.019623
0.174042 0.887299 0.019623
0.217255 0.887299 0.019623
0.261353 0.883911 0.02301
0.305969 0.878815 0.028076
0.352509 0.87204 0.034882
0.399963 0.865265 0.041656
0.44754 0.85849 0.048431
0.493896 0.851715 0.055206
0.538483 0.846619 0.060272
0.580231 0.839844 0.067078
0.628723 0.839844 0.067078
0.673248 0.839844 0.067078
0.712494 0.839844 0.067078
0.74588 0.839844 0.067078
0.773804 0.839844 0.067078
0.818054 0.86264 0.06839
0.855591 0.882782 0.06955
0.885986 0.899139 0.070496
0.910706 0.912354 0.071259
0.923035 0.915558 0.071869
0.931885 0.916779 0.072388
0.939423 0.917847 0.072815
0.946381 0.918671 0.073242
0.019623 0.912811 0.019623
0.022675 0.912811 0.019623
0.026825 0.912811 0.019623
0.033142 0.912811 0.019623
0.042969 0.912811 0.019623
0.057343 0.912811 0.019623
0.077179 0.912811 0.019623
0.103149 0.912811 0.019623
0.13562 0.912811 0.019623
0.174011 0.912811 0.019623
0.217194 0.912811 0.019623
0.26239 0.909302 0.023102
0.307159 0.904083 0.028351
0.353607 0.898834 0.033569
0.401154 0.891876 0.040558
0.449036 0.884888 0.047516
0.496094 0.879669 0.052765
0.541046 0.872681 0.059753
0.582855 0.865692 0.066711
0.628174 0.863953 0.068451
0.672852 0.863953 0.068451
0.712067 0.863953 0.068451
0.7453 0.863953 0.068451
0.773254 0.863953 0.068451
0.79657 0.863953 0.068451
0.832764 0.882782 0.06955
0.863342 0.899139 0.070496
0.887909 0.912354 0.071259
0.907867 0.923035 0.071869
0.924316 0.931885 0.072388
0.938354 0.939423 0.072815
0.946381 0.941467 0.073242
0.019623 0.933746 0.019623
0.022522 0.933746 0.019623
0.026764 0.933746 0.019623
0.033234 0.933746 0.019623
0.04306 0.933746 0.019623
0.057343 0.933746 0.019623
0.076965 0.933746 0.019623
0.103088 0.933746 0.019623
0.135681 0.933746 0.019623
0.174072 0.933746 0.019623
0.217346 0.933746 0.019623
0.262604 0.931946 0.021393
0.307526 0.926605 0.026764
0.354736 0.919464 0.033905
0.40213 0.914093 0.039246
0.450409 0.906952 0.046387
0.497528 0.899811 0.053528
0.542969 0.89447 0.058899
0.585175 0.887329 0.06604
0.62796 0.883759 0.069611
0.672455 0.883759 0.069611
0.711639 0.883759 0.069611
0.745026 0.883759 0.069611
0.773041 0.883759 0.069611
0.796112 0.883759 0.069611
0.814972 0.883759 0.069611
0.844727 0.899139 0.070496
0.869232 0.912354 0.071259
0.88916 0.923035 0.071869
0.90567 0.931885 0.072388
0.919739 0.939423 0.072815
0.932739 0.946381 0.073242
0.019623 0.950714 0.019623
0.022583 0.950714 0.019623
0.026672 0.950714 0.019623
0.033264 0.950714 0.019623
0.04303 0.950714 0.019623
0.057343 0.950714 0.019623
0.077148 0.950714 0.019623
0.103271 0.950714 0.019623
0.135773 0.950714 0.019623
0.173981 0.950714 0.019623
0.217377 0.950714 0.019623
0.263245 0.948883 0.021423
0.30838 0.94342 0.026886
0.35495 0.937988 0.032349
0.403351 0.930695 0.039612
0.451416 0.925232 0.045074
0.498901 0.917969 0.052338
0.544189 0.910706 0.059631
0.587097 0.905243 0.065063
0.627472 0.89978 0.070526
0.672028 0.89978 0.070526
0.711304 0.89978 0.070526
0.74469 0.89978 0.070526
0.772644 0.89978 0.070526
0.795715 0.89978 0.070526
0.814758 0.89978 0.070526
0.830139 0.89978 0.070526
0.854248 0.912354 0.071259
0.873993 0.923035 0.071869
0.890533 0.931885 0.072388
0.904724 0.939423 0.072815
0.917603 0.946381 0.073242
0.019623 0.964478 0.019623
0.022614 0.964478 0.019623
0.026764 0.964478 0.019623
0.033234 0.964478 0.019623
0.043152 0.964478 0.019623
0.057465 0.964478 0.019623
0.077057 0.964478 0.019623
0.103119 0.964478 0.019623
0.135651 0.964478 0.019623
0.17395 0.964478 0.019623
0.217316 0.964478 0.019623
0.263641 0.962616 0.021454
