site/assets/luts/freshluts--0002290-day-f-knight.cube
# LUTr-Schema-Version: 2
# LUTr-ID: freshluts--0002290-day-f-knight
# LUTr-Title: Day F. Knight
# LUTr-Collection: Fresh LUTs
# LUTr-Collection-ID: freshluts-community
# LUTr-Source: https://freshluts.com
# LUTr-Retrieved: 2026-07-27
# LUTr-Source-File: submissions-raw/freshluts/cubes/2290__Day_F._Knight.cube
# LUTr-Source-Format: CUBE
# LUTr-Source-SHA256: 1aa7cac15f611d0b1bb91561e47616a8ba00eb30051dc6852d536f4e2c971aba
# LUTr-License: CC0-1.0
# LUTr-License-URL: https://freshluts.com/termsandconditions
# LUTr-License-Basis: site-terms
# LUTr-Transform-Class: creative-look
# LUTr-Tags: creative, freshluts, community, cube, blue, low-key, canon-log2
# LUTr-Input-Color-Space:
# LUTr-Input-Gamut: canon-cinema-gamut
# LUTr-Input-Transfer: canon-log2
# LUTr-Output-Color-Space: srgb
# LUTr-Output-Gamut: rec709
# LUTr-Output-Transfer: srgb
# LUTr-Color-Space-Confidence: camera-profile-input-required
# LUTr-Domain-Normalized: true
# LUTr-Shaper: none
# LUTr-Original-Grid: 16x16x16
# LUTr-Conversion-Grid: 16x16x16
# LUTr-Conversion-Interpolation: none
# LUTr-Conversion-Method: Metadata normalization; numeric LUT samples preserved
# LUTr-Conversion-Tool: LUTr scripts/convert-all-to-cube.mjs 2.0.0
# LUTr-Conversion-Date: 2026-07-28
# LUTr-Asset-URL: https://freshluts.com/luts/2290
# LUTr-Author: InAvision
# LUTr-Author-URL: https://freshluts.com/users/64078
# LUTr-Attribution: InAvision via Fresh LUTs
# LUTr-Source-Labels: gamma=Canon C-Log 2; color=Blue; key=Low Key; style=Cinematic/Dark
# LUTr-Note: Preserve this metadata and the upstream license notices when redistributing.
TITLE "Day F. Knight"
LUT_3D_SIZE 16
DOMAIN_MIN 0 0 0
DOMAIN_MAX 1 1 1
-0.063414 -0.080171 -0.109654
-0.04091 -0.080171 -0.109654
0.004011 -0.080171 -0.109654
0.011054 -0.080171 -0.109654
0.020676 -0.080171 -0.109654
0.032783 -0.080171 -0.109654
0.047262 -0.080171 -0.109654
0.064013 -0.080171 -0.109654
0.082947 -0.080171 -0.109654
0.103743 -0.080171 -0.109654
0.124201 -0.080171 -0.109654
0.144006 -0.080171 -0.109654
0.163253 -0.080171 -0.109654
0.182132 -0.080171 -0.109654
0.200619 -0.080171 -0.109654
0.218719 -0.080171 -0.109654
-0.063414 -0.051714 -0.109654
-0.04091 -0.051714 -0.109654
0.004011 -0.070987 -0.109654
0.011054 -0.074612 -0.109654
0.020676 -0.075584 -0.109654
0.032783 -0.075961 -0.109654
0.047262 -0.076143 -0.109654
0.064013 -0.076252 -0.109654
0.082947 -0.076322 -0.109654
0.103743 -0.076372 -0.109654
0.124201 -0.076413 -0.109654
0.144006 -0.076448 -0.109654
0.163253 -0.076476 -0.109654
0.182132 -0.076498 -0.109654
0.200619 -0.076519 -0.109654
0.218719 -0.076543 -0.109654
-0.063414 0.009844 -0.109654
-0.056149 0.009844 -0.109654
0.004011 0.009844 -0.109654
0.011054 -0.03779 -0.109654
0.020676 -0.04887 -0.109654
0.032783 -0.05236 -0.109654
0.047262 -0.053952 -0.109654
0.064013 -0.054845 -0.109654
0.082947 -0.055432 -0.109654
0.103743 -0.055857 -0.109654
0.124201 -0.056192 -0.109654
0.144006 -0.056466 -0.109654
0.163253 -0.056692 -0.109654
0.182132 -0.056884 -0.109654
0.200619 -0.057039 -0.109654
0.218719 -0.057221 -0.109654
-0.063414 0.026219 -0.109654
-0.059021 0.026219 -0.109654
-0.029893 0.026219 -0.109654
0.011054 0.026219 -0.109654
0.020676 0.019806 -0.109654
0.032783 0.017127 -0.109654
0.047262 0.015773 -0.109654
0.064013 0.014972 -0.109654
0.082947 0.014424 -0.109654
0.103743 0.014018 -0.109654
0.124201 0.013699 -0.109654
0.144006 0.013429 -0.109654
0.163253 0.0132 -0.109654
0.182132 0.013014 -0.109654
0.200619 0.012852 -0.109654
0.218719 0.01267 -0.109654
-0.063414 0.047992 -0.109654
-0.059791 0.047992 -0.109654
-0.038656 0.047992 -0.109654
0.008268 0.047992 -0.109654
0.020676 0.047992 -0.109654
0.032783 0.043955 -0.109654
0.047262 0.041948 -0.109654
0.064013 0.040765 -0.109654
0.082947 0.039966 -0.109654
0.103743 0.039374 -0.109654
0.124201 0.038901 -0.109654
0.144006 0.038522 -0.109654
0.163253 0.038192 -0.109654
0.182132 0.037923 -0.109654
0.200619 0.037689 -0.109654
0.218719 0.037431 -0.109654
-0.063414 0.074855 -0.109654
-0.060088 0.074855 -0.109654
-0.041416 0.074855 -0.109654
0.007113 0.074855 -0.109654
0.018877 0.074855 -0.109654
0.032783 0.074855 -0.109654
0.047262 0.071954 -0.109654
0.064013 0.070247 -0.109654
0.082947 0.069097 -0.109654
0.103743 0.068242 -0.109654
0.124201 0.067564 -0.109654
0.144006 0.067005 -0.109654
0.163253 0.066537 -0.109654
0.182132 0.066142 -0.109654
0.200619 0.065812 -0.109654
0.218719 0.065441 -0.109654
-0.063414 0.106498 -0.109654
-0.060232 0.106498 -0.109654
-0.042677 0.106498 -0.109654
0.006533 0.106498 -0.109654
0.017985 0.106498 -0.109654
0.031468 0.106498 -0.109654
0.047262 0.106498 -0.109654
0.064013 0.104173 -0.109654
0.082947 0.102572 -0.109654
0.103743 0.101421 -0.109654
0.124201 0.100477 -0.109654
0.144006 0.099728 -0.109654
0.163253 0.099078 -0.109654
0.182132 0.09855 -0.109654
0.200619 0.098099 -0.109654
0.218719 0.097574 -0.109654
-0.063414 0.139874 -0.109654
-0.060317 0.139874 -0.109654
-0.043384 0.139874 -0.109654
0.006188 0.139874 -0.109654
0.01746 0.139874 -0.109654
0.030684 0.139874 -0.109654
0.046178 0.139874 -0.109654
0.064013 0.139874 -0.109654
0.082947 0.138135 -0.109654
0.103743 0.136808 -0.109654
0.124201 0.135745 -0.109654
0.144006 0.134887 -0.109654
0.163253 0.134133 -0.109654
0.182132 0.133518 -0.109654
0.200619 0.133001 -0.109654
0.218719 0.132402 -0.109654
-0.063414 0.171732 -0.109654
-0.060372 0.171732 -0.109654
-0.043847 0.171732 -0.109654
0.005955 0.171732 -0.109654
0.01711 0.171732 -0.109654
0.030166 0.171732 -0.109654
0.045459 0.171732 -0.109654
0.063052 0.171732 -0.109654
0.082947 0.171732 -0.109654
0.103743 0.170297 -0.109654
0.124201 0.169154 -0.109654
0.144006 0.16821 -0.109654
0.163253 0.167408 -0.109654
0.182132 0.166738 -0.109654
0.200619 0.166157 -0.109654
0.218719 0.165527 -0.109654
-0.063414 0.202377 -0.109654
-0.060413 0.202377 -0.109654
-0.044186 0.202377 -0.109654
0.005783 0.202377 -0.109654
0.016841 0.202377 -0.109654
0.029784 0.202377 -0.109654
0.044922 0.202377 -0.109654
0.062324 0.202377 -0.109654
0.082039 0.202377 -0.109654
0.103743 0.202377 -0.109654
0.124201 0.201152 -0.109654
0.144006 0.200117 -0.109654
0.163253 0.199253 -0.109654
0.182132 0.198547 -0.109654
0.200619 0.197894 -0.109654
0.218719 0.19721 -0.109654
-0.063414 0.232086 -0.109654
-0.060444 0.232086 -0.109654
-0.044446 0.232086 -0.109654
0.005645 0.232086 -0.109654
0.016637 0.232086 -0.109654
0.029479 0.232086 -0.109654
0.044502 0.232086 -0.109654
0.06175 0.232086 -0.109654
0.081299 0.232086 -0.109654
0.102894 0.232086 -0.109654
0.124201 0.232086 -0.109654
0.144006 0.231006 -0.109654
0.163253 0.230014 -0.109654
0.182132 0.229244 -0.109654
0.200619 0.228604 -0.109654
0.218719 0.227844 -0.109654
-0.063414 0.261054 -0.109654
-0.060472 0.261054 -0.109654
-0.044665 0.261054 -0.109654
0.005529 0.261054 -0.109654
0.016467 0.261054 -0.109654
0.029221 0.261054 -0.109654
0.044144 0.261054 -0.109654
0.0613 0.261054 -0.109654
0.080682 0.261054 -0.109654
0.102182 0.261054 -0.109654
0.123443 0.261054 -0.109654
0.144006 0.261054 -0.109654
0.163253 0.260057 -0.109654
0.182132 0.259216 -0.109654
0.200619 0.258511 -0.109654
0.218719 0.25769 -0.109654
-0.063414 0.289344 -0.109654
-0.060494 0.289344 -0.109654
-0.044845 0.289344 -0.109654
0.005432 0.289344 -0.109654
0.016322 0.289344 -0.109654
0.029017 0.289344 -0.109654
0.043837 0.289344 -0.109654
0.060906 0.289344 -0.109654
0.080204 0.289344 -0.109654
0.101561 0.289344 -0.109654
0.122797 0.289344 -0.109654
0.143313 0.289344 -0.109654
0.163253 0.289344 -0.109654
0.182132 0.288495 -0.109654
0.200619 0.287671 -0.109654
0.218719 0.286828 -0.109654
-0.063414 0.317198 -0.109654
-0.060513 0.317198 -0.109654
-0.044996 0.317198 -0.109654
0.005353 0.317198 -0.109654
0.016198 0.317198 -0.109654
0.028836 0.317198 -0.109654
0.0436 0.317198 -0.109654
0.060572 0.317198 -0.109654
0.07977 0.317198 -0.109654
0.101059 0.317198 -0.109654
0.122244 0.317198 -0.109654
0.142737 0.317198 -0.109654
0.162651 0.317198 -0.109654
0.182132 0.317198 -0.109654
0.200619 0.316363 -0.109654
0.218719 0.315499 -0.109654
-0.063414 0.344484 -0.109654
-0.060528 0.344484 -0.109654
-0.045119 0.344484 -0.109654
0.005285 0.344484 -0.109654
0.016098 0.344484 -0.109654
0.028685 0.344484 -0.109654
0.043398 0.344484 -0.109654
0.060303 0.344484 -0.109654
0.079429 0.344484 -0.109654
0.100651 0.344484 -0.109654
0.121788 0.344484 -0.109654
0.142254 0.344484 -0.109654
0.162115 0.344484 -0.109654
0.181603 0.344484 -0.109654
0.200619 0.344484 -0.109654
0.218719 0.343509 -0.109654
-0.063414 0.371226 -0.109654
-0.060546 0.371226 -0.109654
-0.045262 0.371226 -0.109654
0.005206 0.371226 -0.109654
0.015984 0.371226 -0.109654
0.028515 0.371226 -0.109654
0.043159 0.371226 -0.109654
0.059988 0.371226 -0.109654
0.079012 0.371226 -0.109654
0.100161 0.371226 -0.109654
0.121262 0.371226 -0.109654
0.141706 0.371226 -0.109654
0.161518 0.371226 -0.109654
0.18095 0.371226 -0.109654
0.199956 0.371226 -0.109654
0.218719 0.371226 -0.109654
-0.063414 -0.080171 -0.070738
-0.04091 -0.080171 -0.070738
0.004011 -0.080171 -0.097094
0.011054 -0.080171 -0.102051
0.020676 -0.080171 -0.103387
0.032783 -0.080171 -0.1039
0.047262 -0.080171 -0.104149
0.064013 -0.080171 -0.104299
0.082947 -0.080171 -0.104388
0.103743 -0.080171 -0.104466
0.124201 -0.080171 -0.104518
0.144006 -0.080171 -0.104561
0.163253 -0.080171 -0.104603
0.182132 -0.080171 -0.104639
0.200619 -0.080171 -0.104658
0.218719 -0.080171 -0.104692
-0.063414 -0.051714 -0.070738
-0.04091 -0.051714 -0.070738
0.004011 -0.051714 -0.070738
0.011054 -0.051714 -0.070738
0.020676 -0.051714 -0.070738
0.032783 -0.051714 -0.070738
0.047262 -0.051714 -0.070738
0.064013 -0.051714 -0.070738
0.082947 -0.051714 -0.070738
0.103743 -0.051714 -0.070738
0.124201 -0.051714 -0.070738
0.144006 -0.051714 -0.070738
0.163253 -0.051714 -0.070738
0.182132 -0.051714 -0.070738
0.200619 -0.051714 -0.070738
0.218719 -0.051714 -0.070738
-0.063414 0.009844 -0.097094
-0.04091 0.009844 -0.070738
0.004011 0.009844 -0.070738
0.011054 0.00572 -0.070738
0.020676 0.004798 -0.070738
0.032783 0.004504 -0.070738
0.047262 0.004373 -0.070738
0.064013 0.004292 -0.070738
0.082947 0.00422 -0.070738
0.103743 0.00415 -0.070738
0.124201 0.004086 -0.070738
0.144006 0.004022 -0.070738
0.163253 0.003962 -0.070738
0.182132 0.003908 -0.070738
0.200619 0.003862 -0.070738
0.218719 0.0038 -0.070738
-0.063414 0.026219 -0.102051
-0.04091 0.026219 -0.070738
0.002288 0.026219 -0.070738
0.011054 0.026219 -0.070738
0.020676 0.02449 -0.070738
0.032783 0.023956 -0.070738
0.047262 0.023724 -0.070738
0.064013 0.023572 -0.070738
0.082947 0.023441 -0.070738
0.103743 0.023323 -0.070738
0.124201 0.023202 -0.070738
0.144006 0.023087 -0.070738
0.163253 0.022986 -0.070738
0.182132 0.022888 -0.070738
0.200619 0.022809 -0.070738
0.218719 0.0227 -0.070738
-0.063414 0.047992 -0.103387
-0.04091 0.047992 -0.070738
0.001906 0.047992 -0.070738
0.0103 0.047992 -0.070738
0.020676 0.047992 -0.070738
0.032783 0.047088 -0.070738
0.047262 0.046702 -0.070738
0.064013 0.046442 -0.070738
0.082947 0.046222 -0.070738
0.103743 0.046019 -0.070738
0.124201 0.045829 -0.070738
0.144006 0.045627 -0.070738
0.163253 0.045455 -0.070738
0.182132 0.045294 -0.070738
0.200619 0.045162 -0.070738
0.218719 0.044976 -0.070738
-0.063414 0.074855 -0.1039
-0.04091 0.074855 -0.070738
0.001785 0.074855 -0.070738
0.010068 0.074855 -0.070738
0.020271 0.074855 -0.070738
0.032783 0.074855 -0.070738
0.047262 0.074284 -0.070738
0.064013 0.073895 -0.070738
0.082947 0.073562 -0.070738
0.103743 0.073257 -0.070738
0.124201 0.072964 -0.070738
0.144006 0.072681 -0.070738
0.163253 0.072416 -0.070738
0.182132 0.072172 -0.070738
0.200619 0.071964 -0.070738
0.218719 0.071687 -0.070738
-0.063414 0.106498 -0.104149
-0.04091 0.106498 -0.070738
0.001734 0.106498 -0.070738
0.009965 0.106498 -0.070738
0.020101 0.106498 -0.070738
0.032514 0.106498 -0.070738
0.047262 0.106498 -0.070738
0.064013 0.10597 -0.070738
0.082947 0.105522 -0.070738
0.103743 0.105104 -0.070738
0.124201 0.104683 -0.070738
0.144006 0.104286 -0.070738
0.163253 0.103908 -0.070738
0.182132 0.103567 -0.070738
0.200619 0.103284 -0.070738
0.218719 0.102897 -0.070738
-0.063414 0.139874 -0.104299
-0.04091 0.139874 -0.070738
0.0017 0.139874 -0.070738
0.009901 0.139874 -0.070738
0.019985 0.139874 -0.070738
0.032343 0.139874 -0.070738
0.047022 0.139874 -0.070738
0.064013 0.139874 -0.070738
0.082947 0.139373 -0.070738
0.103743 0.138898 -0.070738
0.124201 0.138414 -0.070738
0.144006 0.137981 -0.070738
0.163253 0.137553 -0.070738
0.182132 0.137178 -0.070738
0.200619 0.136828 -0.070738
0.218719 0.136395 -0.070738
-0.063414 0.171732 -0.104388
-0.04091 0.171732 -0.070738
0.001669 0.171732 -0.070738
0.009846 0.171732 -0.070738
0.019889 0.171732 -0.070738
0.032196 0.171732 -0.070738
0.046811 0.171732 -0.070738
0.063724 0.171732 -0.070738
0.082947 0.171732 -0.070738
0.103743 0.171198 -0.070738
0.124201 0.170685 -0.070738
0.144006 0.170194 -0.070738
0.163253 0.1697 -0.070738
0.182132 0.169311 -0.070738
0.200619 0.168946 -0.070738
0.218719 0.168447 -0.070738
-0.063414 0.202377 -0.104466
-0.04091 0.202377 -0.070738
0.001641 0.202377 -0.070738
0.009793 0.202377 -0.070738
0.019796 0.202377 -0.070738
0.032058 0.202377 -0.070738
0.046615 0.202377 -0.070738
0.063459 0.202377 -0.070738
0.08261 0.202377 -0.070738
0.103743 0.202377 -0.070738
0.124201 0.201843 -0.070738
0.144006 0.201308 -0.070738
0.163253 0.200781 -0.070738
0.182132 0.200322 -0.070738
0.200619 0.199941 -0.070738
0.218719 0.199402 -0.070738
-0.063414 0.232086 -0.104518
-0.04091 0.232086 -0.070738
0.001616 0.232086 -0.070738
0.009741 0.232086 -0.070738
0.01971 0.232086 -0.070738
0.031922 0.232086 -0.070738
0.046426 0.232086 -0.070738
0.063209 0.232086 -0.070738
0.082277 0.232086 -0.070738
0.103354 0.232086 -0.070738
0.124201 0.232086 -0.070738
0.144006 0.231498 -0.070738
0.163253 0.230925 -0.070738
0.182132 0.230463 -0.070738
0.200619 0.229992 -0.070738
0.218719 0.229462 -0.070738
-0.063414 0.261054 -0.104561
-0.04091 0.261054 -0.070738
0.00159 0.261054 -0.070738
0.009691 0.261054 -0.070738
0.019625 0.261054 -0.070738
0.031795 0.261054 -0.070738
0.04624 0.261054 -0.070738
0.062961 0.261054 -0.070738
0.081962 0.261054 -0.070738
0.102978 0.261054 -0.070738
0.123784 0.261054 -0.070738
0.144006 0.261054 -0.070738
0.163253 0.260497 -0.070738
0.182132 0.259969 -0.070738
0.200619 0.259472 -0.070738
0.218719 0.258851 -0.070738
-0.063414 0.289344 -0.104603
-0.04091 0.289344 -0.070738
0.001565 0.289344 -0.070738
0.009646 0.289344 -0.070738
0.019549 0.289344 -0.070738
0.031671 0.289344 -0.070738
0.046066 0.289344 -0.070738
0.062733 0.289344 -0.070738
0.081653 0.289344 -0.070738
0.102622 0.289344 -0.070738
0.123408 0.289344 -0.070738
0.143603 0.289344 -0.070738
0.163253 0.289344 -0.070738
0.182132 0.2888 -0.070738
0.200619 0.28831 -0.070738
0.218719 0.287644 -0.070738
-0.063414 0.317198 -0.104639
-0.04091 0.317198 -0.070738
0.001543 0.317198 -0.070738
0.009607 0.317198 -0.070738
0.019474 0.317198 -0.070738
0.031564 0.317198 -0.070738
0.04591 0.317198 -0.070738
0.062535 0.317198 -0.070738
0.081403 0.317198 -0.070738
0.102301 0.317198 -0.070738
0.123075 0.317198 -0.070738
0.143234 0.317198 -0.070738
0.162858 0.317198 -0.070738
0.182132 0.317198 -0.070738
0.200619 0.316643 -0.070738
0.218719 0.315951 -0.070738
-0.063414 0.344484 -0.104658
-0.04091 0.344484 -0.070738
0.001523 0.344484 -0.070738
0.009569 0.344484 -0.070738
0.019413 0.344484 -0.070738
0.031469 0.344484 -0.070738
0.045784 0.344484 -0.070738
0.062346 0.344484 -0.070738
0.081162 0.344484 -0.070738
0.102037 0.344484 -0.070738
0.122781 0.344484 -0.070738
0.142926 0.344484 -0.070738
0.162522 0.344484 -0.070738
0.181791 0.344484 -0.070738
0.200619 0.344484 -0.070738
0.218719 0.34371 -0.070738
-0.063414 0.371226 -0.104692
-0.04091 0.371226 -0.070738
0.001499 0.371226 -0.070738
0.009522 0.371226 -0.070738
0.019334 0.371226 -0.070738
0.031348 0.371226 -0.070738
0.045602 0.371226 -0.070738
0.062107 0.371226 -0.070738
0.080846 0.371226 -0.070738
0.101686 0.371226 -0.070738
0.122378 0.371226 -0.070738
0.142498 0.371226 -0.070738
0.162071 0.371226 -0.070738
0.181298 0.371226 -0.070738
0.200118 0.371226 -0.070738
0.218719 0.371226 -0.070738
-0.063414 -0.080171 0.023688
-0.056149 -0.080171 0.023688
0.004011 -0.080171 0.023688
0.011054 -0.080171 -0.051689
0.020676 -0.080171 -0.066846
0.032783 -0.080171 -0.071619
0.047262 -0.080171 -0.073794
0.064013 -0.080171 -0.075014
0.082947 -0.080171 -0.075815
0.103743 -0.080171 -0.076402
0.124201 -0.080171 -0.076858
0.144006 -0.080171 -0.077232
0.163253 -0.080171 -0.077541
0.182132 -0.080171 -0.077803
0.200619 -0.080171 -0.078019
0.218719 -0.080171 -0.078265
-0.063414 -0.070987 0.023688
-0.04091 -0.051714 0.023688
0.004011 -0.051714 0.023688
0.011054 -0.051714 0.013837
0.020676 -0.051714 0.011627
0.032783 -0.051714 0.010922
0.047262 -0.051714 0.010611
0.064013 -0.051714 0.010413
0.082947 -0.051714 0.010237
0.103743 -0.051714 0.010076
0.124201 -0.051714 0.009915
0.144006 -0.051714 0.009766
0.163253 -0.051714 0.00962
0.182132 -0.051714 0.009491
0.200619 -0.051714 0.009383
0.218719 -0.051714 0.009232
-0.063414 0.009844 0.023688
-0.04091 0.009844 0.023688
0.004011 0.009844 0.023688
0.011054 0.009844 0.023688
0.020676 0.009844 0.023688
0.032783 0.009844 0.023688
0.047262 0.009844 0.023688
0.064013 0.009844 0.023688
0.082947 0.009844 0.023688
0.103743 0.009844 0.023688
0.124201 0.009844 0.023688
0.144006 0.009844 0.023688
0.163253 0.009844 0.023688
0.182132 0.009844 0.023688
0.200619 0.009844 0.023688
0.218719 0.009844 0.023688
-0.063414 0.026219 -0.051689
-0.04091 0.026219 0.013837
0.004011 0.026219 0.023688
0.011054 0.026219 0.023688
0.020676 0.0266 0.023688
0.032783 0.026816 0.023688
0.047262 0.026938 0.023688
0.064013 0.026988 0.023688
0.082947 0.026994 0.023688
0.103743 0.026969 0.023688
0.124201 0.02693 0.023688
0.144006 0.026883 0.023688
0.163253 0.02684 0.023688
0.182132 0.026791 0.023688
0.200619 0.026756 0.023688
0.218719 0.026685 0.023688
-0.063414 0.047992 -0.066846
-0.04091 0.047992 0.011627
0.004011 0.047992 0.023688
0.011218 0.047992 0.023688
0.020676 0.047992 0.023688
0.032783 0.048466 0.023688
0.047262 0.048722 0.023688
0.064013 0.048837 0.023688
0.082947 0.048841 0.023688
0.103743 0.048783 0.023688
0.124201 0.048712 0.023688
0.144006 0.048617 0.023688
0.163253 0.048504 0.023688
0.182132 0.048415 0.023688
0.200619 0.048319 0.023688
0.218719 0.048192 0.023688
-0.063414 0.074855 -0.071619
-0.04091 0.074855 0.010922
0.004011 0.074855 0.023688
0.011316 0.074855 0.023688
0.020899 0.074855 0.023688
0.032783 0.074855 0.023688
0.047262 0.075272 0.023688
0.064013 0.075444 0.023688
0.082947 0.075466 0.023688
0.103743 0.075379 0.023688
0.124201 0.07525 0.023688
0.144006 0.075097 0.023688
0.163253 0.074923 0.023688
0.182132 0.074771 0.023688
0.200619 0.074612 0.023688
0.218719 0.074388 0.023688
-0.063414 0.106498 -0.073794
-0.04091 0.106498 0.010611
0.004011 0.106498 0.023688
0.011368 0.106498 0.023688
0.021007 0.106498 0.023688
0.032974 0.106498 0.023688
0.047262 0.106498 0.023688
0.064013 0.106752 0.023688
0.082947 0.106786 0.023688
0.103743 0.106653 0.023688
0.124201 0.106471 0.023688
0.144006 0.106247 0.023688
0.163253 0.10599 0.023688
0.182132 0.105753 0.023688
0.200619 0.10555 0.023688
0.218719 0.105231 0.023688
-0.063414 0.139874 -0.075014
-0.04091 0.139874 0.010413
0.004011 0.139874 0.023688
0.01139 0.139874 0.023688
0.021054 0.139874 0.023688
0.033055 0.139874 0.023688
0.04738 0.139874 0.023688
0.064013 0.139874 0.023688
0.082947 0.1399 0.023688
0.103743 0.139806 0.023688
0.124201 0.139579 0.023688
0.144006 0.139296 0.023688
0.163253 0.139014 0.023688
0.182132 0.138731 0.023688
0.200619 0.138493 0.023688
0.218719 0.138137 0.023688
-0.063414 0.171732 -0.075815
-0.04091 0.171732 0.010237
0.004011 0.171732 0.023688
0.011393 0.171732 0.023688
0.021057 0.171732 0.023688
0.033058 0.171732 0.023688
0.047394 0.171732 0.023688
0.064027 0.171732 0.023688
0.082947 0.171732 0.023688
0.103743 0.171586 0.023688
0.124201 0.17134 0.023688
0.144006 0.171036 0.023688
0.163253 0.170718 0.023688
0.182132 0.17041 0.023688
0.200619 0.170126 0.023688
0.218719 0.16974 0.023688
-0.063414 0.202377 -0.076402
-0.04091 0.202377 0.010076
0.004011 0.202377 0.023688
0.011383 0.202377 0.023688
0.021033 0.202377 0.023688
0.033025 0.202377 0.023688
0.047337 0.202377 0.023688
0.063957 0.202377 0.023688
0.082857 0.202377 0.023688
0.103743 0.202377 0.023688
0.124201 0.202127 0.023688
0.144006 0.201787 0.023688
0.163253 0.201447 0.023688
0.182132 0.201081 0.023688
0.200619 0.200816 0.023688
0.218719 0.200371 0.023688
-0.063414 0.232086 -0.076858
-0.04091 0.232086 0.009915
0.004011 0.232086 0.023688
0.011366 0.232086 0.023688
0.021 0.232086 0.023688
0.032965 0.232086 0.023688
0.047253 0.232086 0.023688
0.063827 0.232086 0.023688
0.082691 0.232086 0.023688
0.103557 0.232086 0.023688
0.124201 0.232086 0.023688
0.144006 0.231747 0.023688
0.163253 0.231357 0.023688
0.182132 0.230993 0.023688
0.200619 0.230625 0.023688
0.218719 0.230145 0.023688
-0.063414 0.261054 -0.077232
-0.04091 0.261054 0.009766
0.004011 0.261054 0.023688
0.011348 0.261054 0.023688
0.020962 0.261054 0.023688
0.032891 0.261054 0.023688
0.047142 0.261054 0.023688
0.063681 0.261054 0.023688
0.082501 0.261054 0.023688
0.103324 0.261054 0.023688
0.12394 0.261054 0.023688
0.144006 0.261054 0.023688
0.163253 0.260675 0.023688
0.182132 0.260284 0.023688
0.200619 0.259893 0.023688
0.218719 0.259361 0.023688
-0.063414 0.289344 -0.077541
-0.04091 0.289344 0.00962
0.004011 0.289344 0.023688
0.011326 0.289344 0.023688
0.02091 0.289344 0.023688
0.032809 0.289344 0.023688
0.047024 0.289344 0.023688
0.063526 0.289344 0.023688
0.082287 0.289344 0.023688
0.103079 0.289344 0.023688
0.12368 0.289344 0.023688
0.143723 0.289344 0.023688
0.163253 0.289344 0.023688
0.182132 0.288928 0.023688
0.200619 0.288546 0.023688
0.218719 0.287986 0.023688
-0.063414 0.317198 -0.077803
-0.04091 0.317198 0.009491
0.004011 0.317198 0.023688
0.011304 0.317198 0.023688
0.020866 0.317198 0.023688
0.032741 0.317198 0.023688
0.046915 0.317198 0.023688
0.063386 0.317198 0.023688
0.082093 0.317198 0.023688
0.10285 0.317198 0.023688
0.123437 0.317198 0.023688
0.143449 0.317198 0.023688
0.162968 0.317198 0.023688
0.182132 0.317198 0.023688
0.200619 0.316785 0.023688
0.218719 0.316157 0.023688
-0.063414 0.344484 -0.078019
-0.04091 0.344484 0.009383
0.004011 0.344484 0.023688
0.011287 0.344484 0.023688
0.020828 0.344484 0.023688
0.032673 0.344484 0.023688
0.046822 0.344484 0.023688
0.063239 0.344484 0.023688
0.081916 0.344484 0.023688
0.10264 0.344484 0.023688
0.1232 0.344484 0.023688
0.143207 0.344484 0.023688
0.162692 0.344484 0.023688
0.181873 0.344484 0.023688
0.200619 0.344484 0.023688
0.218719 0.343852 0.023688
-0.063414 0.371226 -0.078265
-0.04091 0.371226 0.009232
0.004011 0.371226 0.023688
0.011259 0.371226 0.023688
0.020767 0.371226 0.023688
0.032577 0.371226 0.023688
0.046675 0.371226 0.023688
0.063053 0.371226 0.023688
0.081667 0.371226 0.023688
0.102324 0.371226 0.023688
0.122867 0.371226 0.023688
0.142848 0.371226 0.023688
0.162326 0.371226 0.023688
0.181464 0.371226 0.023688
0.200195 0.371226 0.023688
0.218719 0.371226 0.023688
-0.063414 -0.080171 0.062429
-0.059021 -0.080171 0.062429
-0.029893 -0.080171 0.062429
0.011054 -0.080171 0.062429
0.020676 -0.080171 0.0473
0.032783 -0.080171 0.040962
0.047262 -0.080171 0.037763
0.064013 -0.080171 0.035861
0.082947 -0.080171 0.034568
0.103743 -0.080171 0.033602
0.124201 -0.080171 0.032838
0.144006 -0.080171 0.032205
0.163253 -0.080171 0.031663
0.182132 -0.080171 0.031212
0.200619 -0.080171 0.03084
0.218719 -0.080171 0.030403
-0.063414 -0.074612 0.062429
-0.04091 -0.051714 0.062429
0.002288 -0.051714 0.062429
0.011054 -0.051714 0.062429
0.020676 -0.051714 0.058357
0.032783 -0.051714 0.057097
0.047262 -0.051714 0.056548
0.064013 -0.051714 0.056197
0.082947 -0.051714 0.05589
0.103743 -0.051714 0.055606
0.124201 -0.051714 0.055329
0.144006 -0.051714 0.055061
0.163253 -0.051714 0.054809
0.182132 -0.051714 0.054584
0.200619 -0.051714 0.054392
0.218719 -0.051714 0.054136
-0.063414 -0.03779 0.062429
