site/assets/luts/freshluts--0002336-retro-nigt.cube
# LUTr-Schema-Version: 2
# LUTr-ID: freshluts--0002336-retro-nigt
# LUTr-Title: retro nigt
# LUTr-Collection: Fresh LUTs
# LUTr-Collection-ID: freshluts-community
# LUTr-Source: https://freshluts.com
# LUTr-Retrieved: 2026-07-27
# LUTr-Source-File: submissions-raw/freshluts/cubes/2336__nigt_luminance_14.C0114.cube
# LUTr-Source-Format: CUBE
# LUTr-Source-SHA256: b6105f4eea875b7caed4156bfe8b74759ff268e35cfce06cd8074673ce82b75b
# LUTr-License: CC0-1.0
# LUTr-License-URL: https://freshluts.com/termsandconditions
# LUTr-License-Basis: site-terms
# LUTr-Transform-Class: creative-look
# LUTr-Tags: creative, freshluts, community, cube, high-contrast, cool, high-key, sony-s-log1, vintage
# LUTr-Input-Color-Space: sony-slog1-sgamut
# LUTr-Input-Gamut: sony-s-gamut
# LUTr-Input-Transfer: sony-s-log1
# LUTr-Output-Color-Space: srgb
# LUTr-Output-Gamut: rec709
# LUTr-Output-Transfer: srgb
# LUTr-Color-Space-Confidence: inferred-from-source-label
# LUTr-Domain-Normalized: true
# LUTr-Shaper: none
# LUTr-Original-Grid: 17x17x17
# LUTr-Conversion-Grid: 17x17x17
# LUTr-Conversion-Interpolation: none
# LUTr-Conversion-Method: Metadata normalization; numeric LUT samples preserved
# LUTr-Conversion-Tool: LUTr scripts/convert-all-to-cube.mjs 2.0.0
# LUTr-Conversion-Date: 2026-07-28
# LUTr-Asset-URL: https://freshluts.com/luts/2336
# LUTr-Author: abhijith t s
# LUTr-Author-URL: https://freshluts.com/users/267812
# LUTr-Attribution: abhijith t s via Fresh LUTs
# LUTr-Source-Labels: gamma=Sony S-Log; color=Cool; key=High Key; style=High contrast
# LUTr-Note: Preserve this metadata and the upstream license notices when redistributing.
TITLE "retro nigt"
LUT_3D_SIZE 9
DOMAIN_MIN 0 0 0
DOMAIN_MAX 1 1 1
0 0 0
0.0200809 0 0
0.163241 0 0
0.340032 0 0
0.522271 0 0
0.712047 0 0.0270237
0.912566 0 0.0558785
1 0 0.0813306
1 0 0.105257
0 0 0
0 0 0
0.151781 0 0
0.359976 0 0
0.572824 0.00184634 0
0.779004 0.00799573 0
0.972656 0.0290684 0
1 0.0590372 0.0209812
1 0.0962997 0.0486763
0 0.0564889 0
0 0.0674296 0
0.106889 0.0800336 0
0.329839 0.087602 0
0.560174 0.095613 0
0.793988 0.104875 0
1 0.121309 0
1 0.143374 0
1 0.190036 0
0 0.160632 0
0 0.17116 0
0.0238041 0.188357 0
0.288304 0.202152 0
0.535088 0.204883 0
0.784161 0.212421 0
1 0.231815 0
1 0.256046 0
1 0.310353 0
0 0.281071 0
0 0.291875 0
0 0.312047 0
0.217929 0.330205 0
0.497612 0.338598 0
0.76144 0.337667 0
1 0.348699 0
1 0.382727 0
1 0.431662 0
0 0.421576 0
0 0.435874 0
0 0.451118 0
0.09131 0.474861 0
0.44831 0.487541 0
0.730144 0.493416 0
0.988479 0.492912 0
1 0.506813 0
1 0.548562 0
0 0.564874 0
0 0.579644 0
0 0.591562 0
0 0.620172 0
0.392416 0.628931 0
0.718807 0.640162 0
0.961547 0.641215 0
1 0.64271 0
1 0.66157 0
0 0.687526 0
0 0.701854 0
0 0.712215 0
0 0.73727 0
0.348714 0.736171 0
0.699367 0.741665 0
0.942641 0.741787 0
1 0.74023 0
1 0.749905 0
0 0.775967 0
0 0.785046 0
0 0.793683 0
0 0.808194 0
0.288457 0.802945 0
0.648371 0.802152 0
0.905287 0.806546 0
1 0.802976 0
1 0.8103 0
0 0 0.098909
0.000854505 0 0.114931
0.192142 0 0.100786
0.364096 0 0.0721752
0.524239 0 0.0675364
0.697612 0 0.0931563
0.889036 0 0.127718
1 0 0.151598
1 0 0.176837
0 0 0.0648051
0 0 0.0631266
0.159472 0 0.0409705
0.370138 0.00415045 0.0352178
0.578241 0.0146639 0.0559243
0.799252 0.0271611 0.0850538
0.996551 0.0490578 0.113313
1 0.0771344 0.137026
1 0.122362 0.169284
0 0.0989548 0.0372473
0 0.0979477 0.0268864
0.0621195 0.0955062 0.0234531
0.34023 0.104906 0.0030518
0.623896 0.108522 0
0.892287 0.113161 0
1 0.136629 0.0282444
1 0.171359 0.0716869
1 0.22356 0.117372
0 0.203723 0.0158083
0 0.205493 0.00196841
0 0.206943 0
0.237568 0.215549 0
0.526421 0.224186 0
0.849882 0.233082 0
1 0.244968 0
1 0.284367 0
1 0.334783 0.0231479
0 0.323186 0
0 0.330663 0
0 0.330678 0
0.141329 0.342336 0
0.448173 0.353124 0
0.744076 0.354833 0
1 0.377295 0
1 0.416464 0
1 0.452918 0
0 0.461006 0
0 0.474235 0
0 0.471962 0
0 0.491096 0
0.382483 0.501747 0
0.693797 0.510079 0
0.968307 0.50808 0
1 0.532753 0
1 0.570886 0
0 0.592493 0
0 0.609293 0
0 0.612833 0
0 0.635416 0
0.312596 0.641962 0
0.677455 0.652399 0
0.939254 0.652598 0
1 0.650034 0
1 0.676799 0
0 0.706996 0
0 0.719951 0
0 0.727535 0
0 0.747417 0
0.274525 0.748241 0
0.667323 0.751553 0
0.928679 0.753536 0
1 0.750408 0
1 0.761578 0
0 0.787732 0
0 0.797391 0
0 0.805219 0
0 0.816892 0
0.240192 0.812604 0
0.636759 0.809461 0
0.892012 0.815045 0
1 0.812634 0
1 0.820447 0
0 0 0.247562
0 0 0.279484
0.126162 0 0.312673
0.37528 0 0.320577
0.570397 0 0.285252
0.725841 0 0.253315
0.89781 0 0.242023
1 0 0.241123
1 0 0.261723
0 0.0156863 0.241184
0 0.0127565 0.244587
0.055848 0 0.256458
0.344625 0 0.247654
0.580819 0 0.205341
0.780163 0 0.18088
0.966934 0.0154269 0.190555
1 0.0509499 0.212924
1 0.0985733 0.247852
0 0.132433 0.213397
0 0.135927 0.210346
0 0.120653 0.206378
0.278508 0.109163 0.187106
0.524392 0.117296 0.167819
0.76733 0.13814 0.174609
0.999557 0.158892 0.187686
1 0.18941 0.208957
1 0.256611 0.263478
0 0.251331 0.18436
0 0.261677 0.177203
0 0.246067 0.162844
0.143481 0.239292 0.166995
0.478782 0.249302 0.151049
0.807584 0.260807 0.136248
1 0.267887 0.117037
1 0.302693 0.140963
1 0.369818 0.219074
0 0.37293 0.16083
0 0.38883 0.151522
0 0.371771 0.128389
0.0240177 0.366461 0.131289
0.371481 0.370199 0.137209
0.702739 0.382147 0.118914
1 0.40325 0.0836194
1 0.43241 0.0539406
1 0.478828 0.142367
0 0.50602 0.135576
0 0.522499 0.119448
0 0.511528 0.0936294
0 0.51429 0.0885023
0.270512 0.515663 0.094667
0.622965 0.52784 0.102144
0.930297 0.534493 0.0832074
1 0.55935 0.0558022
1 0.598306 0.109682
0 0.62977 0.0971542
0 0.643503 0.0730755
0 0.64387 0.0442512
0 0.655024 0.035935
0.16701 0.660609 0.0475929
0.599191 0.667445 0.0637675
0.890013 0.672312 0.0782483
1 0.666484 0.0495766
1 0.6972 0.0919814
0 0.7308 0.0502785
0 0.739605 0.0229953
0 0.745937 0
0 0.762432 0
0.167514 0.763516 0.0123598
0.603113 0.763333 0.0452888
0.893278 0.768032 0.0518196
1 0.762371 0.0428473
1 0.77438 0.0720531
0 0.805982 0.0137789
0 0.811978 0
0 0.818662 0
0 0.829511 0
0.184115 0.824826 0
0.603677 0.817807 0
0.868681 0.824308 0.0367895
1 0.824002 0.0498817
1 0.832822 0.06392
0 0 0.381247
0 0 0.429282
0.000671397 0 0.454307
0.27245 0 0.485023
0.538094 0 0.491081
0.752071 0 0.482826
0.929 0 0.447791
1 0 0.414435
1 0 0.394568
0 0.0256504 0.406363
0 0.0256962 0.410071
0 0.0105135 0.420859
0.220081 0 0.444877
0.508583 0 0.454566
0.773724 0 0.422858
0.975601 0 0.365362
1 0.00514229 0.333974
1 0.0572824 0.34818
0 0.149401 0.380331
0 0.15671 0.383444
0 0.144411 0.387701
0.116777 0.119509 0.39913
0.464332 0.103792 0.389502
0.742168 0.101335 0.344427
0.97174 0.11458 0.304692
1 0.151629 0.30164
1 0.212177 0.342046
0 0.28101 0.353155
0 0.2972 0.352728
0 0.287617 0.350271
0 0.265934 0.34757
0.407309 0.252613 0.334752
0.69836 0.261219 0.30869
0.95198 0.286183 0.304646
1 0.317769 0.31133
1 0.397055 0.378317
0 0.411048 0.319661
0 0.433249 0.314183
0 0.430762 0.304738
0 0.41294 0.295033
0.264591 0.400046 0.305333
0.655482 0.411612 0.293095
0.983871 0.43331 0.275685
1 0.452934 0.257771
1 0.519951 0.348623
0 0.546609 0.292302
0 0.56553 0.279301
0 0.569818 0.264637
0 0.55697 0.245563
0.109102 0.545373 0.252567
0.542046 0.545861 0.266346
0.893919 0.560861 0.252781
1 0.581949 0.222217
1 0.625315 0.290105
0 0.668696 0.249775
0 0.68365 0.229953
0 0.690761 0.211063
0 0.687785 0.19057
0 0.688777 0.204562
0.498756 0.684108 0.230472
0.828153 0.69247 0.253895
1 0.692226 0.235462
1 0.721309 0.280095
0 0.765057 0.203403
0 0.770321 0.176532
0 0.772854 0.151843
0 0.778698 0.12813
0.0149844 0.783062 0.158419
0.507836 0.777432 0.202853
0.835782 0.781903 0.212345
1 0.779446 0.224445
1 0.789761 0.245899
0 0.829221 0.144381
0 0.8318 0.122942
0 0.837186 0.116899
0 0.843626 0.0990921
0.106355 0.838666 0.112871
0.550835 0.829068 0.133227
0.832319 0.833829 0.175189
1 0.836576 0.206638
1 0.845975 0.220966
0 0 0.502556
0 0 0.601511
0 0 0.613291
0.135607 0 0.645777
0.434623 0 0.668299
0.697383 0 0.677516
0.937133 0 0.6766
1 0 0.648768
1 0 0.593881
0 0.0327764 0.580224
0 0.0345769 0.583032
0 0.0268711 0.58674
0.073991 0 0.615015
0.398749 0 0.64007
0.670405 0 0.646143
0.948928 0 0.632288
1 0 0.56817
1 0.0424964 0.529381
0 0.163302 0.552254
0 0.170123 0.556802
0 0.164019 0.561471
0 0.136217 0.581735
0.330846 0.111864 0.601633
0.637522 0.101259 0.60174
0.937285 0.102647 0.55816
1 0.118349 0.493156
1 0.174594 0.483497
0 0.299687 0.523339
0 0.316121 0.525795
0 0.313268 0.529091
0 0.291508 0.541558
0.220874 0.262837 0.556481
0.611734 0.247395 0.538064
0.919905 0.246906 0.481285
1 0.262562 0.432837
1 0.334188 0.461448
0 0.43653 0.49044
0 0.460502 0.489281
0 0.466545 0.489708
0 0.454078 0.490486
0.0403906 0.432349 0.494606
0.563775 0.41474 0.480919
0.888914 0.426841 0.451896
1 0.459556 0.441993
1 0.534051 0.499443
0 0.577646 0.452644
0 0.603357 0.446403
0 0.615457 0.441535
0 0.610529 0.432151
0 0.598566 0.427085
0.412497 0.579446 0.441901
0.847059 0.590372 0.430182
1 0.611612 0.415717
1 0.665217 0.487083
0 0.70837 0.416098
0 0.726589 0.405112
0 0.737377 0.393927
0 0.737591 0.380468
0 0.736721 0.372564
0.32105 0.713451 0.394781
0.745846 0.710704 0.418692
1 0.718059 0.402502
1 0.744915 0.454856
0 0.804227 0.370092
0 0.811475 0.352514
0 0.814557 0.335454
0 0.815213 0.315084
0 0.81915 0.311604
0.33489 0.800656 0.357748
0.745724 0.799573 0.382147
0.99295 0.802152 0.406668
1 0.810452 0.427588
0 0.86714 0.321645
0 0.867353 0.301885
0 0.868605 0.288106
0 0.868635 0.26389
0 0.863722 0.248142
0.435966 0.844175 0.279057
0.774395 0.845838 0.313558
0.996124 0.853254 0.361944
1 0.863539 0.396551
0 0 0.633219
0 0 0.766033
0 0 0.774838
0 0 0.78265
0.325078 0 0.819211
0.593606 0 0.836255
0.866194 0 0.848463
1 0 0.851011
1 0 0.814282
0 0.0267033 0.750729
0 0.0260929 0.755825
0 0.0183261 0.759915
0 0 0.772412
0.284733 0 0.806439
0.580972 0 0.821836
0.865339 0 0.832319
1 0 0.810834
1 0.011902 0.759197
0 0.164752 0.715297
0 0.173144 0.718547
0 0.166857 0.7243
0 0.152026 0.737163
0.191455 0.110826 0.766995
0.534112 0.0956893 0.77789
0.835904 0.0894179 0.777478
1 0.10341 0.753429
1 0.163394 0.702846
0 0.308354 0.679973
0 0.322988 0.682307
0 0.319234 0.686137
0 0.308858 0.696376
0.0405737 0.27216 0.730205
0.478614 0.252552 0.739315
0.819211 0.248386 0.731731
1 0.257191 0.690562
1 0.315847 0.649332
0 0.447684 0.644297
0 0.470085 0.644846
0 0.475303 0.647028
0 0.470985 0.654215
0 0.453437 0.676509
0.358328 0.42649 0.689097
0.80325 0.407706 0.672602
1 0.409613 0.61622
1 0.473655 0.603021
0 0.595315 0.608103
0 0.621714 0.607813
0 0.63563 0.606668
0 0.636362 0.608606
0 0.634104 0.614572
0.179126 0.612833 0.618692
0.757549 0.589349 0.608011
1 0.597848 0.582773
1 0.655711 0.615274
0 0.732296 0.570703
0 0.75584 0.564675
0 0.770794 0.558343
0 0.773251 0.556451
0 0.777661 0.551125
0.0363775 0.763622 0.556115
0.645747 0.737789 0.580621
0.99321 0.743832 0.570291
1 0.772152 0.617609
0 0.837919 0.533349
0 0.848997 0.524651
0 0.854124 0.514107
0 0.855039 0.509865
0 0.860471 0.497642
0 0.85034 0.509148
0.621836 0.82063 0.543755
0.928801 0.821622 0.563333
1 0.832639 0.586999
0 0.903029 0.492454
0 0.904128 0.479606
0 0.904295 0.464439
0 0.904768 0.451606
0 0.904112 0.430335
0.0483558 0.886778 0.430213
0.64094 0.86186 0.462974
0.930907 0.867063 0.496086
1 0.881621 0.555215
0 0 0.76762
0 0 0.895155
0 0 0.907439
0.0280919 0 0.911162
0.235874 0 0.929778
0.518914 0 0.950896
0.776242 0 0.962661
1 0 0.970123
1 0 0.967834
0 0.00717174 0.894316
0 0.00514229 0.899825
0 0 0.902708
0 0 0.904891
0.174411 0 0.917922
0.513619 0 0.94229
0.783276 0 0.953536
1 0 0.941039
1 0 0.935027
0 0.155428 0.851789
0 0.16318 0.852476
0 0.157259 0.856779
0 0.149493 0.862577
0.044007 0.114275 0.881865
0.453269 0.0863203 0.900282
0.752804 0.0769665 0.903593
1 0.0885481 0.897826
1 0.119524 0.883436
0 0.302205 0.804715
0 0.315511 0.805707
0 0.311131 0.810376
0 0.303563 0.817777
0 0.272816 0.843839
0.379156 0.238178 0.862913
0.728161 0.234592 0.861128
0.998642 0.240848 0.854871
1 0.274174 0.833295
0 0.442466 0.766827
0 0.463783 0.766583
0 0.467903 0.768246
0 0.463661 0.773098
0 0.448096 0.794369
0.203601 0.417273 0.817899
0.69015 0.402716 0.817868
0.977249 0.404303 0.808026
1 0.441642 0.784314
0 0.593225 0.725597
0 0.616449 0.724514
0 0.629984 0.723934
0 0.628992 0.728313
0 0.626688 0.741466
0 0.615595 0.755993
0.61648 0.588952 0.764065
0.962737 0.577935 0.755444
1 0.618341 0.730327
0 0.734783 0.686213
0 0.757748 0.684596
0 0.775265 0.683391
0 0.782208 0.685206
0 0.788769 0.689632
0 0.789456 0.696498
0.549584 0.754025 0.706676
0.936034 0.737697 0.700603
1 0.764385 0.710552
0 0.848554 0.65893
0 0.863127 0.658137
0 0.872877 0.657237
0 0.882078 0.655985
0 0.890272 0.65481
0 0.883818 0.654383
0.580102 0.841749 0.670314
0.894026 0.838071 0.689357
1 0.850706 0.708171
0 0.925277 0.634089
0 0.928435 0.631022
0 0.932998 0.629725
0 0.938262 0.62739
0 0.944656 0.62475
0.00415045 0.927993 0.628336
0.667811 0.888136 0.650263
0.945968 0.889555 0.66598
1 0.904372 0.698131
0 0 0.890425
0 0 0.982986
0 0 1
0.0441444 0 1
0.180682 0 1
0.467658 0 1
0.735439 0 1
0.980789 0 1
1 0 1
0 0.0157778 0.990402
0 0.0216678 0.992004
0 0.0185855 0.992782
0 0.00784314 0.992981
0.140505 0 0.997314
0.466743 0 1
0.728557 0 1
0.975372 0 1
1 0 1
0 0.156237 0.941085
0 0.161059 0.940658
0 0.153735 0.945983
0 0.142245 0.953552
0 0.117723 0.962234
0.399481 0.0843366 0.977172
0.69865 0.0725109 0.979751
0.944991 0.0811933 0.974151
1 0.120394 0.966155
0 0.299702 0.889693
0 0.308324 0.890806
0 0.300267 0.898039
0 0.287053 0.908888
0 0.266606 0.921492
0.299641 0.221515 0.940566
0.666346 0.21738 0.939742
0.923308 0.227848 0.934188
1 0.261402 0.923476
0 0.435813 0.842435
0 0.448676 0.842832
0 0.448798 0.847532
0 0.437507 0.858045
0 0.424659 0.871824
0.0775311 0.387121 0.898192
0.626886 0.371511 0.900999
0.90866 0.383215 0.889921
1 0.403967 0.885237
0 0.575555 0.801816
0 0.588724 0.801816
0 0.599573 0.804807
0 0.598016 0.811093
0 0.591196 0.821653
0 0.575936 0.843366
0.566308 0.549722 0.853849
0.902159 0.556008 0.844556
1 0.569451 0.840177
0 0.706386 0.76051
0 0.720913 0.759136
0 0.738369 0.761456
0 0.757458 0.765072
0 0.764569 0.77113
0 0.767163 0.785641
0.538247 0.731579 0.798688
0.88719 0.724422 0.797589
1 0.735027 0.797772
0 0.822797 0.727749
0 0.835554 0.729412
0 0.851499 0.733074
0 0.869017 0.737331
0 0.887816 0.742702
0 0.889525 0.751858
0.605493 0.846586 0.760906
0.910979 0.839231 0.768856
1 0.850416 0.783688
0 0.914382 0.71194
0 0.919661 0.713252
0 0.926467 0.715404
0 0.935576 0.718502
0 0.94696 0.7234
0 0.957336 0.730571
0.485191 0.910658 0.73994
0.910765 0.900069 0.759106
1 0.923247 0.805035
0 0 0.992905
0 0 1
0 0 1
0 0 1
0.134661 0 1
0.352468 0 1
0.673961 0 1
0.930327 0 1
1 0 1
0 0.0198062 1
0 0.0192569 1
0 0.014847 1
0 0.00325017 1
0.109865 0 1
0.36054 0 1
0.673045 0 1
0.930388 0 1
1 0 1
0 0.159472 1
0 0.156359 1
0 0.147982 1
0 0.136202 1
0 0.112139 1
0.283772 0.0788281 1
0.643214 0.0582895 1
0.90634 0.0580911 1
1 0.087129 1
0 0.302754 0.969635
0 0.305272 0.972824
0 0.294713 0.980194
0 0.280613 0.990295
0 0.259525 1
0.148104 0.219776 1
0.611444 0.200137 1
0.88925 0.20238 1
1 0.238544 1
0 0.438697 0.922469
0 0.449714 0.923064
0 0.442725 0.929259
0 0.429725 0.939757
0 0.415152 0.954253
0 0.38175 0.974487
0.566201 0.351553 0.984283
0.878889 0.363149 0.97319
1 0.388907 0.965026
0 0.577142 0.880919
0 0.590066 0.88011
0 0.595453 0.88426
0 0.58883 0.89134
0 0.57966 0.901335
0 0.56492 0.918944
0.500206 0.532235 0.938308
0.881636 0.540322 0.926787
1 0.554986 0.921538
0 0.705516 0.84036
0 0.72015 0.837827
0 0.735668 0.838727
0 0.74992 0.843793
0 0.754025 0.851453
0 0.756527 0.864057
0.464958 0.724392 0.880598
0.865248 0.713527 0.880522
1 0.71931 0.880659
0 0.821027 0.80557
0 0.834562 0.806409
0 0.849515 0.809735
0 0.867475 0.813489
0 0.885527 0.819287
0 0.897078 0.827832
0.499123 0.850584 0.839445
0.891493 0.834684 0.848615
1 0.843107 0.86952
0 0.91429 0.788205
0 0.918624 0.7897
0 0.924575 0.792142
0 0.933669 0.794675
0 0.94461 0.79884
0 0.95967 0.806043
0.217807 0.931609 0.817365
0.854093 0.902678 0.833722
1 0.927703 0.892683
