site/assets/luts/freshluts--0000015-contrasty-green.cube
# LUTr-Schema-Version: 2
# LUTr-ID: freshluts--0000015-contrasty-green
# LUTr-Title: Contrasty Green
# LUTr-Collection: Fresh LUTs
# LUTr-Collection-ID: freshluts-community
# LUTr-Source: https://freshluts.com
# LUTr-Retrieved: 2026-07-27
# LUTr-Source-File: submissions-raw/freshluts/cubes/15__Contrasty_Green.cube
# LUTr-Source-Format: CUBE
# LUTr-Source-SHA256: b7eead88970175b6e2b6cda6ca29dd774c1a3cfd2626d44bedf480056d6039d6
# LUTr-License: CC0-1.0
# LUTr-License-URL: https://freshluts.com/termsandconditions
# LUTr-License-Basis: site-terms
# LUTr-Transform-Class: creative-look
# LUTr-Tags: creative, freshluts, community, cube, cinematic, blockbuster, green, low-key, rec709
# LUTr-Input-Color-Space: rec709
# LUTr-Input-Gamut: rec709
# LUTr-Input-Transfer: rec709
# LUTr-Output-Color-Space: srgb
# LUTr-Output-Gamut: rec709
# LUTr-Output-Transfer: srgb
# LUTr-Color-Space-Confidence: declared-by-source
# LUTr-Domain-Normalized: true
# LUTr-Shaper: none
# LUTr-Original-Grid: 33x33x33
# LUTr-Conversion-Grid: 33x33x33
# LUTr-Conversion-Interpolation: none
# LUTr-Conversion-Method: Metadata normalization; numeric LUT samples preserved
# LUTr-Conversion-Tool: LUTr scripts/convert-all-to-cube.mjs 2.0.0
# LUTr-Conversion-Date: 2026-07-28
# LUTr-Asset-URL: https://freshluts.com/luts/15
# LUTr-Author: Alex Jordan
# LUTr-Author-URL: https://freshluts.com/users/1
# LUTr-Attribution: Alex Jordan via Fresh LUTs
# LUTr-Source-Labels: gamma=Rec 709; color=Green; key=Low Key; style=Blockbuster
# LUTr-Note: Preserve this metadata and the upstream license notices when redistributing.
TITLE "Contrasty Green"
LUT_3D_SIZE 9
DOMAIN_MIN 0 0 0
DOMAIN_MAX 1 1 1
0 0 0
0.0268559 0 0
0.136004 0 0
0.320882 0 0
0.576104 0 0
0.924453 0 0
1 0 0
1 0 0
1 0 0
0 0.00494392 0
0.00317388 0.000976577 0
0.0884718 0 0
0.279896 0 0
0.564172 0 0
0.953216 0 0
1 0 0
1 0 0
1 0 0
0 0.0569924 0
0 0.0650797 0
0.10396 0.0705577 0
0.336431 0.0559854 0
0.665644 0.0261082 0
1 0 0
1 0 0
1 0 0
1 0 0
0 0.222431 0
0 0.254994 0
0.128359 0.282216 0
0.402655 0.287083 0
0.765759 0.272709 0
1 0.233448 0
1 0.160235 0
1 0.130892 0
1 0.180331 0
0 0.488289 0
0 0.543908 0
0.159152 0.57467 0
0.460929 0.578912 0
0.840406 0.563592 0
1 0.526802 0
1 0.457847 0
1 0.436042 0
1 0.500832 0
0 0.812116 0
0 0.865293 0
0.199252 0.892119 0
0.530968 0.897368 0
0.936843 0.883894 0
1 0.850813 0
1 0.783261 0
1 0.778332 0
1 0.853284 0
0 1 0
0 1 0
0.260166 1 0
0.626795 1 0
1 1 0
1 1 0
1 1 0
1 1 0
1 1 0
0 1 0
0.00430304 1 0
0.319844 1 0
0.718105 1 0
1 1 0
1 1 0
1 1 0
1 1 0
1 1 0
0 1 0
0 1 0
0.335241 1 0
0.759503 1 0
1 1 0
1 1 0
1 1 0
1 1 0
1 1 0
0 0 0.0179599
0.0244907 0 0.0109865
0.12987 0 0
0.313558 0 0
0.56965 0 0
0.922545 0 0
1 0 0
1 0 0
1 0 0
0 0.00373846 0.0019379
0.00198367 0.000167849 0
0.0883345 0 0
0.282643 0 0
0.570596 0 0
0.962936 0 0
1 0 0
1 0 0
1 0 0
0 0.0598001 0
0 0.0690623 0
0.11017 0.0765545 0
0.346685 0.0635996 0
0.680278 0.0352941 0
1 0 0
1 0 0
1 0 0
1 0 0
0 0.23389 0
0 0.267857 0
0.141649 0.297444 0
0.418997 0.30338 0.0000457771
0.782116 0.288518 0
1 0.250019 0
1 0.175418 0
1 0.147494 0
1 0.201083 0
0 0.508354 0
0 0.564752 0
0.177859 0.595315 0.00367742
0.480171 0.599451 0.0134432
0.859174 0.583856 0.00453193
1 0.547967 0
1 0.478233 0
1 0.458045 0
1 0.524544 0
0 0.831006 0
0 0.885359 0
0.219028 0.913207 0.0139925
0.551537 0.919341 0.0297551
0.95845 0.907149 0.0276493
1 0.875135 0.00782788
1 0.809018 0
1 0.804074 0
1 0.878325 0
0 1 0
0.000396735 1 0
0.280491 1 0.0337072
0.64683 1 0.054078
1 1 0.0577707
1 1 0.0437629
1 1 0.00477607
1 1 0.00326543
1 1 0.0314336
0 1 0
0.0247196 1 0.00276188
0.341253 1 0.0478065
0.740948 1 0.0736858
1 1 0.0835279
1 1 0.0764019
1 1 0.0470283
1 1 0.0534524
1 1 0.079469
0 1 0
0.015671 1 0
0.359106 1 0.0289921
0.785306 1 0.06392
1 1 0.0825666
1 1 0.0851453
1 1 0.0717327
1 1 0.0779889
1 1 0.0961318
0 0 0.0484627
0.0233768 0 0.0359808
0.129198 0 0
0.315328 0 0
0.575952 0 0
0.938689 0 0
1 0 0
1 0 0
1 0 0
0 0.00311284 0.017792
0.00244144 0.000244144 0.0122835
0.0958572 0 0
0.297505 0 0
0.593393 0 0
0.994369 0 0
1 0 0
1 0 0
1 0 0
0 0.0675212 0
0 0.079118 0.0103761
0.122789 0.0880751 0.01944
0.367208 0.0766155 0.00753796
0.707012 0.0487678 0
1 0.00144961 0
1 0 0
1 0 0
1 0 0
0 0.250462 0
0 0.288334 0.0141451
0.15758 0.3178 0.0408789
0.440421 0.323522 0.0453498
0.807721 0.308049 0.0307012
1 0.269123 0
1 0.193698 0
1 0.165286 0
1 0.22237 0
0 0.529931 0
0 0.588022 0.0297093
0.19266 0.617182 0.0623789
0.498634 0.621088 0.0725109
0.881788 0.605417 0.0644083
1 0.56965 0.0386053
1 0.499962 0
1 0.480797 0
1 0.548608 0
0 0.854444 0
0 0.90959 0.0488746
0.23418 0.93753 0.0851911
0.569451 0.94226 0.100999
0.981003 0.931609 0.0997787
1 0.899626 0.0811475
1 0.833341 0.0382086
1 0.83032 0.0240177
1 0.904799 0.0484016
0 1 0.0134737
0.0129549 1 0.0741283
0.296895 1 0.114137
0.667094 1 0.134554
1 1 0.138598
1 1 0.125612
1 1 0.089128
1 1 0.0882887
1 1 0.114183
0 1 0.025742
0.0392309 1 0.0901045
0.359014 1 0.134401
0.763409 1 0.160555
1 1 0.170413
1 1 0.163348
1 1 0.136599
1 1 0.142763
1 1 0.168048
0 1 0
0.0324407 1 0.0652476
0.379278 1 0.117968
0.810224 1 0.153033
1 1 0.171481
1 1 0.174884
1 1 0.163485
1 1 0.169787
1 1 0.187228
0 0 0.0881819
0.0215 0 0.0702678
0.128283 0 0.0285649
0.317861 0 0
0.584634 0 0
0.955947 0 0
1 0 0
1 0 0
1 0 0
0 0.00189212 0.0458839
0.00257877 0 0.0401312
0.103746 0 0.023682
0.313863 0 0
0.616175 0 0
1 0 0
1 0 0
1 0 0
1 0 0
0 0.0749828 0.0311284
0 0.0894179 0.046479
0.135378 0.0994583 0.0577859
0.388373 0.0892348 0.0485084
0.735195 0.0621042 0.0228275
1 0.0155795 0
1 0 0
1 0 0
1 0 0
0 0.26714 0.0263676
0 0.308904 0.0642405
0.173022 0.338308 0.0925917
0.461769 0.343053 0.0978256
0.833524 0.326986 0.0839551
1 0.287266 0.0499733
1 0.211475 0
1 0.1832 0
1 0.243503 0
0 0.554177 0.0352636
0 0.611658 0.0911727
0.206943 0.639017 0.123095
0.516381 0.64155 0.132403
0.905104 0.627115 0.124559
1 0.59144 0.0983749
1 0.520821 0.046891
1 0.505028 0.0209506
1 0.572778 0.0479896
0 0.880003 0.0610666
0 0.934615 0.119341
0.249454 0.96231 0.155093
0.588983 0.967117 0.170169
1 0.956573 0.168521
1 0.924651 0.149264
1 0.857282 0.104997
1 0.857114 0.0937667
1 0.931777 0.121279
0 1 0.0939498
0.0252079 1 0.154101
0.313176 1 0.193256
0.687861 1 0.212818
1 1 0.215991
1 1 0.20209
1 1 0.164492
1 1 0.166079
1 1 0.195483
0 1 0.114839
0.0534829 1 0.178637
0.376699 1 0.221805
0.78587 1 0.247135
1 1 0.25597
1 1 0.248219
1 1 0.221042
1 1 0.228092
1 1 0.257725
0 1 0.0884413
0.048249 1 0.159258
0.399786 1 0.211292
0.834852 1 0.24535
1 1 0.262623
1 1 0.265553
1 1 0.253635
1 1 0.260349
1 1 0.282414
0 0 0.152804
0.0173953 0 0.128511
0.125216 0 0.0814832
0.318303 0 0.0240177
0.592233 0 0
0.971862 0 0
1 0 0
1 0 0
1 0 0
0 0 0.0979324
0.0015259 0 0.093492
0.110063 0 0.0780652
0.328176 0 0.0452735
0.638376 0 0
1 0 0
1 0 0
1 0 0
1 0 0
0 0.080766 0.0894942
0.00103761 0.0986343 0.109499
0.147051 0.109926 0.123232
0.407797 0.100816 0.116335
0.761837 0.0747692 0.0931716
1 0.0288853 0.0510567
1 0 0
1 0 0
1 0 0
0 0.2822 0.0978103
0 0.327718 0.141299
0.187304 0.357 0.170779
0.480705 0.36051 0.175921
0.857404 0.344457 0.162066
1 0.303807 0.126665
1 0.227634 0.0621347
1 0.200275 0.0284428
1 0.263127 0.0648051
0 0.576135 0.122454
0 0.632853 0.178943
0.220218 0.659052 0.209323
0.534325 0.661219 0.217075
0.927092 0.647181 0.208469
1 0.611704 0.180697
1 0.540993 0.125597
1 0.527901 0.104189
1 0.595438 0.139406
0 0.903227 0.159854
0.00894179 0.957458 0.217227
0.263111 0.984207 0.251026
0.607965 0.989929 0.264851
1 0.979721 0.261952
1 0.948211 0.240574
1 0.881041 0.192462
1 0.882628 0.185046
1 0.956909 0.221302
0 1 0.205707
0.0367285 1 0.264775
0.328054 1 0.301701
0.707607 1 0.32018
1 1 0.322026
1 1 0.305379
1 1 0.264073
1 1 0.268879
1 1 0.307057
0 1 0.239353
0.0664683 1 0.301396
0.394446 1 0.343511
0.807157 1 0.367163
1 1 0.374197
1 1 0.36437
1 1 0.334356
1 1 0.343053
1 1 0.382391
0 1 0.221592
0.063386 1 0.291051
0.419532 1 0.341985
0.858045 1 0.374594
1 1 0.390829
1 1 0.391363
1 1 0.376806
1 1 0.38555
1 1 0.416144
0 0 0.231647
0.0120699 0 0.201968
0.121462 0 0.150729
0.318227 0 0.090898
0.60061 0 0.0269322
0.987991 0 0
1 0 0
1 0 0
1 0 0
0 0 0.168994
0 0 0.166629
0.115816 0 0.153262
0.340993 0 0.122515
0.660288 0 0.0800336
1 0 0.0211948
1 0 0
1 0 0
1 0 0
0 0.0861372 0.169543
0.00328069 0.107103 0.194629
0.15816 0.119661 0.211078
0.425254 0.110872 0.206149
0.787121 0.0863661 0.186053
1 0.0409857 0.145937
1 0 0.0737316
1 0 0.0401465
1 0 0.0897993
0 0.29662 0.192172
0.00363165 0.345296 0.240955
0.200519 0.374029 0.27155
0.499168 0.376989 0.276738
0.879576 0.360327 0.262806
1 0.319005 0.226535
1 0.242054 0.160342
1 0.218463 0.131579
1 0.281575 0.173053
0 0.596048 0.232151
0.00662242 0.651759 0.288655
0.232609 0.67715 0.318029
0.5514 0.679576 0.325292
0.948211 0.66569 0.315953
1 0.63035 0.287388
1 0.559655 0.230335
1 0.549004 0.212802
1 0.616785 0.253117
0 0.92462 0.280644
0.0182498 0.978653 0.33753
0.276509 1 0.369818
0.62594 1 0.38323
1 1 0.379278
1 0.968688 0.356268
1 0.902937 0.306462
1 0.906233 0.302327
1 0.979828 0.34313
0 1 0.337713
0.0476081 1 0.396094
0.343435 1 0.431998
0.727047 1 0.449577
1 1 0.450324
1 1 0.432502
1 1 0.388968
1 1 0.396048
1 1 0.439872
0 1 0.38146
0.0789349 1 0.442557
0.411475 1 0.483803
0.828122 1 0.506691
1 1 0.512505
1 1 0.501732
1 1 0.470222
1 1 0.480217
1 1 0.5252
0 1 0.36939
0.0775921 1 0.43859
0.438209 1 0.488594
0.880262 1 0.520272
1 1 0.535439
1 1 0.535592
1 1 0.519142
1 1 0.530114
1 1 0.565652
0 0 0.321904
0.00581369 0 0.286976
0.117739 0 0.233326
0.319768 0 0.172061
0.609476 0 0.108766
1 0 0.0324407
1 0 0
1 0 0
1 0 0
0 0 0.255589
0 0 0.25568
0.121965 0 0.244099
0.354406 0 0.214862
0.682536 0 0.176028
1 0 0.119875
1 0 0.0334173
1 0 0.00321965
1 0 0.0757305
0 0.0913252 0.265019
0.0053254 0.115496 0.294484
0.169085 0.128923 0.313146
0.444282 0.121324 0.310262
0.812497 0.0975052 0.291951
1 0.0523537 0.252491
1 0 0.179141
1 0 0.15082
1 0 0.207279
0 0.310613 0.299504
0.00962844 0.362539 0.353307
0.212848 0.389532 0.383017
0.517098 0.392462 0.387976
0.901137 0.37496 0.373342
1 0.333501 0.335912
1 0.256947 0.267582
1 0.236194 0.24332
1 0.299718 0.291752
0 0.615625 0.352819
0.0138857 0.66981 0.407843
0.244434 0.693721 0.435477
0.568399 0.697429 0.442283
0.969955 0.683558 0.432197
1 0.647044 0.401068
1 0.577905 0.342519
1 0.569619 0.328771
1 0.637507 0.376013
0 0.945663 0.410468
0.0274815 0.999329 0.466468
0.290761 1 0.49752
0.644266 1 0.509468
1 1 0.504479
1 0.98912 0.479423
1 0.924163 0.427131
1 0.929305 0.426139
1 1 0.474434
0 1 0.479103
0.058381 1 0.535958
0.359197 1 0.570855
0.747219 1 0.586862
1 1 0.585748
1 1 0.566613
1 1 0.520088
1 1 0.529961
1 1 0.581537
0 1 0.533852
0.0918746 1 0.593729
0.428519 1 0.633555
0.849256 1 0.654475
1 1 0.659007
1 1 0.646662
1 1 0.613123
1 1 0.624643
1 1 0.677943
0 1 0.528618
0.0920882 1 0.597391
0.455863 1 0.645823
0.901976 1 0.675486
1 1 0.689952
1 1 0.688869
1 1 0.669505
1 1 0.682353
1 1 0.725521
0 0 0.43743
0 0 0.396811
0.112535 0 0.341085
0.320867 0 0.280049
0.617609 0 0.217502
1 0 0.141253
1 0 0.0383001
1 0 0
1 0 0.0253758
0 0 0.369223
0 0 0.372061
0.126787 0 0.362188
0.366903 0 0.335195
0.703243 0 0.298665
1 0 0.244648
1 0 0.157565
1 0 0.133639
1 0 0.222232
0 0.0954452 0.387518
0.00675975 0.122896 0.42153
0.178988 0.137087 0.441718
0.462196 0.130571 0.440665
0.836194 0.107515 0.423682
1 0.0624857 0.383459
1 0 0.306722
1 0 0.284352
1 0.0118257 0.350896
0 0.323629 0.4336
0.0149081 0.37792 0.491341
0.224475 0.40412 0.519554
0.533776 0.406271 0.52398
0.920836 0.387884 0.506661
1 0.345785 0.466743
1 0.27042 0.39559
1 0.25243 0.377005
1 0.31574 0.434012
0 0.633188 0.497978
0.0198825 0.685557 0.551202
0.255909 0.70988 0.577249
0.585031 0.713466 0.582818
0.99057 0.699809 0.570886
1 0.663554 0.537652
1 0.594873 0.475013
1 0.588937 0.465888
1 0.655772 0.521767
0 0.964858 0.565377
0.0349432 1 0.619058
0.303868 1 0.649271
0.662196 1 0.659419
1 1 0.652674
1 1 0.625162
1 0.943908 0.568612
1 0.950515 0.570871
1 1 0.629602
0 1 0.647257
0.0683146 1 0.701991
0.374624 1 0.735821
0.766506 1 0.749386
1 1 0.746441
1 1 0.72488
1 1 0.674144
1 1 0.686839
1 1 0.749767
0 1 0.715068
0.103502 1 0.774334
0.444892 1 0.811841
0.869032 1 0.83006
1 1 0.833585
1 1 0.818265
1 1 0.780423
1 1 0.794461
1 1 0.860319
0 1 0.722316
0.104631 1 0.787823
0.472496 1 0.833661
0.922454 1 0.861631
1 1 0.875303
1 1 0.87126
1 1 0.847242
1 1 0.863035
1 1 0.918242
0 0 0.665919
0 0 0.616846
0.0972305 0 0.553796
0.312474 0 0.488594
0.616068 0 0.42002
1 0 0.333349
1 0 0.207523
1 0 0.177523
1 0 0.275319
0 0 0.583291
0 0 0.582605
0.123156 0 0.567315
0.372335 0 0.537285
0.715938 0 0.497063
1 0 0.434455
1 0 0.334249
1 0 0.321599
1 0 0.465537
0 0.0941634 0.589029
0.004654 0.1252 0.622827
0.184161 0.140749 0.636454
0.4748 0.135988 0.633005
0.85388 0.114092 0.612055
1 0.0687572 0.56527
1 0 0.481758
1 0 0.466163
1 0.0198825 0.564904
0 0.333593 0.631785
0.0172122 0.388525 0.686061
0.232609 0.414588 0.710369
0.546365 0.416327 0.710597
0.936294 0.397528 0.689952
1 0.355337 0.646265
1 0.281163 0.568994
1 0.265629 0.556435
1 0.328252 0.631846
0 0.645426 0.698314
0.0241855 0.697139 0.747585
0.264988 0.722118 0.770336
0.598428 0.725887 0.773495
1 0.712108 0.75816
1 0.676921 0.721782
1 0.609018 0.651774
1 0.604822 0.648707
1 0.671794 0.720958
0 0.978958 0.77847
0.0413214 1 0.827405
0.314855 1 0.854276
0.676966 1 0.861326
1 1 0.850385
1 1 0.820035
1 0.960815 0.75581
1 0.967895 0.762631
1 1 0.839796
0 1 0.889128
0.0762341 1 0.937591
0.386618 1 0.963668
0.781979 1 0.971328
1 1 0.963943
1 1 0.937591
1 1 0.878065
1 1 0.895445
1 1 0.986526
0 1 1
0.111727 1 1
0.456916 1 1
0.884108 1 1
1 1 1
1 1 1
1 1 1
1 1 1
1 1 1
0 1 1
0.113512 1 1
0.483589 1 1
0.935225 1 1
1 1 1
1 1 1
1 1 1
1 1 1
1 1 1
