site/assets/luts/freshluts--0000147-ramadan.cube
# LUTr-Schema-Version: 2
# LUTr-ID: freshluts--0000147-ramadan
# LUTr-Title: RAMADAN
# LUTr-Collection: Fresh LUTs
# LUTr-Collection-ID: freshluts-community
# LUTr-Source: https://freshluts.com
# LUTr-Retrieved: 2026-07-27
# LUTr-Source-File: submissions-raw/freshluts/cubes/147__RAMDAN_10.A088_C011_0101D0.cube
# LUTr-Source-Format: CUBE
# LUTr-Source-SHA256: 76cfe61975d951c04ca6a5fe984fecbf733b21929ff616edae93e77ff9202312
# LUTr-License: CC0-1.0
# LUTr-License-URL: https://freshluts.com/termsandconditions
# LUTr-License-Basis: site-terms
# LUTr-Transform-Class: creative-look
# LUTr-Tags: creative, freshluts, community, cube, blue, high-key, red-logfilm
# LUTr-Input-Color-Space: red-logfilm-rwg
# LUTr-Input-Gamut: red-wide-gamut-rgb
# LUTr-Input-Transfer: red-logfilm
# LUTr-Output-Color-Space: srgb
# LUTr-Output-Gamut: rec709
# LUTr-Output-Transfer: srgb
# LUTr-Color-Space-Confidence: inferred-from-source-label
# LUTr-Domain-Normalized: true
# LUTr-Shaper: none
# LUTr-Original-Grid: 33x33x33
# LUTr-Conversion-Grid: 33x33x33
# LUTr-Conversion-Interpolation: none
# LUTr-Conversion-Method: Metadata normalization; numeric LUT samples preserved
# LUTr-Conversion-Tool: LUTr scripts/convert-all-to-cube.mjs 2.0.0
# LUTr-Conversion-Date: 2026-07-28
# LUTr-Asset-URL: https://freshluts.com/luts/147
# LUTr-Author: MUSTAFA ALKARKHY
# LUTr-Author-URL: https://freshluts.com/users/1250
# LUTr-Attribution: MUSTAFA ALKARKHY via Fresh LUTs
# LUTr-Source-Labels: gamma=RED Log Film; color=Blue; key=High Key; style=Colorful
# LUTr-Note: Preserve this metadata and the upstream license notices when redistributing.
TITLE "RAMADAN"
LUT_3D_SIZE 5
DOMAIN_MIN 0 0 0
DOMAIN_MAX 1 1 1
0 0 0
0.0878767 0 0
0.419089 0 0
0.177356 0 0
0.0457313 0.0457313 0.0457313
0 0.0834058 0
0.052369 0.0717937 0
0.508064 0.0710918 0
0.585946 0.211353 0.144976
0.354208 0.354208 0.354208
0 0.359854 0
0.000137331 0.474754 0
0.493751 0.512703 0
0.792584 0.620569 0.220737
0.668788 0.668788 0.668788
0.501366 0.639735 0.505486
0.333562 0.675944 0.280995
0.546227 0.734813 0.164401
0.790555 0.792645 0.587076
0.871611 0.871611 0.871611
0.830655 0.830655 0.830655
0.897566 0.897566 0.897566
1 1 1
1 1 1
1 1 1
0 0 0.124331
0.0853285 0 0.116625
0.432731 0 0.00924697
0.359869 0 0.00404364
0.0555734 0.0555734 0.0555734
0 0.0734264 0.0854047
0.0484779 0.0714275 0.0866255
0.498039 0.0568856 0.0658122
0.740627 0.172107 0.179232
0.404547 0.404547 0.404547
0 0.372259 0
0 0.477913 0.0215305
0.512276 0.531807 0.0746319
0.937499 0.698116 0.269917
0.689525 0.689525 0.689525
0.231708 0.606683 0.300893
0.141817 0.696086 0.158709
0.50901 0.773678 0.100847
0.776898 0.783749 0.214206
0.895537 0.895537 0.895537
0.852155 0.852155 0.852155
0.933928 0.933928 0.933928
1 1 1
1 1 1
1 1 1
0 0 0.486748
0.0340581 0 0.50219
0.395438 0 0.422477
0.42179 0 0.269368
0.0671397 0.0671397 0.0671397
0 0.0254215 0.480644
0.0083772 0.0217441 0.487312
0.445884 0.00373846 0.474495
0.748516 0.079881 0.520439
0.450324 0.450324 0.450324
0 0.30988 0.318669
0 0.357412 0.366766
0.546975 0.58024 0.596216
0.93341 0.634379 0.645365
0.709728 0.709728 0.709728
0.0137636 0.493095 0.354986
0 0.56257 0.331823
0.416663 0.740215 0.449622
0.805737 0.815885 0.51754
0.941222 0.930098 0.926329
0.874647 0.874647 0.874647
0.980911 0.980911 0.980911
1 1 1
1 1 1
1 1 1
0 0 0.0479896
0.00428779 0 0.308064
0.254978 0 0.429511
0.156298 0 0.158648
0.0828565 0.0828565 0.0828565
0 0.0331884 0.313283
0.0202335 0.0298772 0.548928
0.428885 0.0194858 0.692836
0.672099 0.124407 0.681849
0.490028 0.490028 0.490028
0 0.286732 0.431174
0 0.34992 0.592432
0.403906 0.425956 0.728908
0.785412 0.490852 0.800229
0.729702 0.729702 0.729702
0.606439 0.686259 0.686641
0 0.500542 0.503471
0.284871 0.602426 0.607111
0.858671 0.873716 0.88098
1 1 1
0.899062 0.899062 0.899062
1 1 1
1 1 1
0.729854 1 0.738598
1 1 0.9794
0 0 0
0 0 0
0.028687 0.028687 0.028687
0.0561532 0.0561532 0.0561532
0.103487 0.103487 0.103487
0.0687877 0.0687877 0.0687877
0.134295 0.134295 0.134295
0.255406 0.255406 0.255406
0.407385 0.407385 0.407385
0.523766 0.523766 0.523766
0.455695 0.455695 0.455695
0.555398 0.555398 0.555398
0.628 0.628 0.628
0.690684 0.690684 0.690684
0.749249 0.749249 0.749249
0.712169 0.712169 0.712169
0.770565 0.770565 0.770565
0.830289 0.830289 0.830289
0.517784 0.523613 1
1 0.676844 1
0.936263 0.936263 0.936263
1 1 1
1 1 1
0.390204 0.889204 0.889204
1 1 1
