site/assets/luts/freshluts--0000340-tealing-blue.cube
# LUTr-Schema-Version: 2
# LUTr-ID: freshluts--0000340-tealing-blue
# LUTr-Title: Tealing Blue
# LUTr-Collection: Fresh LUTs
# LUTr-Collection-ID: freshluts-community
# LUTr-Source: https://freshluts.com
# LUTr-Retrieved: 2026-07-27
# LUTr-Source-File: submissions-raw/freshluts/cubes/340__TEAL.cube
# LUTr-Source-Format: CUBE
# LUTr-Source-SHA256: c3a14dad459e41cc5d5a8d8447420209723fbf77376ad295988d3cb5e55ed2ca
# LUTr-License: CC0-1.0
# LUTr-License-URL: https://freshluts.com/termsandconditions
# LUTr-License-Basis: site-terms
# LUTr-Transform-Class: creative-look
# LUTr-Tags: creative, freshluts, community, cube, cinematic, blockbuster, warm, cool, rec709, assumed-input
# LUTr-Input-Color-Space: rec709
# LUTr-Input-Gamut: rec709
# LUTr-Input-Transfer: rec709
# LUTr-Output-Color-Space: srgb
# LUTr-Output-Gamut: rec709
# LUTr-Output-Transfer: srgb
# LUTr-Color-Space-Confidence: assumed-display-referred
# LUTr-Domain-Normalized: true
# LUTr-Shaper: none
# LUTr-Original-Grid: 32x32x32
# LUTr-Conversion-Grid: 32x32x32
# LUTr-Conversion-Interpolation: none
# LUTr-Conversion-Method: Metadata normalization; numeric LUT samples preserved
# LUTr-Conversion-Tool: LUTr scripts/convert-all-to-cube.mjs 2.0.0
# LUTr-Conversion-Date: 2026-07-28
# LUTr-Asset-URL: https://freshluts.com/luts/340
# LUTr-Author: I WANT TO MAKE A FILM PODCAST
# LUTr-Author-URL: https://freshluts.com/users/15633
# LUTr-Attribution: I WANT TO MAKE A FILM PODCAST via Fresh LUTs
# LUTr-Source-Labels: gamma=Other; color=Warm; key=Neutral; style=Blockbuster; LUTr assumption=input Rec.709 per repository policy
# LUTr-Conversion-Warning: Input Rec.709 is a LUTr catalog assumption requested for this otherwise unspecified Fresh LUT; it is not verified by the upstream asset.
# LUTr-Note: Preserve this metadata and the upstream license notices when redistributing.
# LUTr-Upstream-Comment: Created by: Adobe Photoshop Export Color Lookup Plugin
# LUTr-Upstream-Comment: LUT size
# LUTr-Upstream-Comment: data domain
# LUTr-Upstream-Comment: LUT data points
TITLE "Tealing Blue"
LUT_3D_SIZE 8
DOMAIN_MIN 0.000000 0.000000 0.000000
DOMAIN_MAX 0.903226 0.903226 0.903226
0.037384 0.049469 0.059326
0.099854 0.048798 0.07486
0.27594 0.091278 0.092499
0.565643 0.158661 0.143127
0.847137 0.283112 0.244141
0.97937 0.371918 0.304626
0.980804 0.404633 0.315582
0.981598 0.421783 0.321686
0.047333 0.071655 0.065643
0.105133 0.081085 0.065338
0.288605 0.125702 0.080994
0.578491 0.202972 0.141815
0.85614 0.327759 0.243134
0.983643 0.413879 0.302002
0.985443 0.446899 0.312683
0.98642 0.463806 0.318634
0.076752 0.169403 0.060516
0.130066 0.183533 0.069641
0.29007 0.190063 0.101349
0.587677 0.28302 0.161682
0.866028 0.410217 0.261353
0.984863 0.485931 0.314972
0.981476 0.505676 0.322815
0.980713 0.51535 0.326233
0.138794 0.32666 0.103088
0.145752 0.343445 0.108185
0.343719 0.365692 0.154694
0.579132 0.380676 0.211151
0.851074 0.496643 0.297638
0.973145 0.563995 0.347626
0.971405 0.581482 0.356659
0.969727 0.589966 0.361633
0.227081 0.518707 0.167877
0.237488 0.536133 0.175873
0.36673 0.563019 0.207764
0.598663 0.530151 0.283417
0.826599 0.59021 0.35202
0.949768 0.650391 0.395477
0.959625 0.667053 0.407288
0.959625 0.673218 0.410736
0.327698 0.683105 0.24527
0.336639 0.697388 0.252197
0.427063 0.721436 0.275726
0.735443 0.739044 0.355988
0.833344 0.695343 0.406586
0.929413 0.71994 0.443909
0.952698 0.735718 0.456787
0.954407 0.743134 0.460052
0.384399 0.77179 0.289124
0.392639 0.784576 0.295563
0.460449 0.807465 0.313843
0.769012 0.820587 0.392303
0.852112 0.769287 0.439728
0.937622 0.786285 0.471161
0.967865 0.799225 0.485107
0.969452 0.805359 0.488007
0.396362 0.790314 0.298462
0.404541 0.802765 0.30481
0.467255 0.825806 0.321625
0.774628 0.837585 0.399841
0.867493 0.793945 0.447876
0.940155 0.801025 0.477631
0.971375 0.813019 0.491638
0.97287 0.818817 0.494446
0.03598 0.056976 0.073944
0.076263 0.042755 0.095825
0.250214 0.084625 0.112671
0.533447 0.147308 0.146149
0.828308 0.271027 0.246002
0.971558 0.36142 0.311432
0.978394 0.394501 0.325836
0.979034 0.41098 0.332642
0.046936 0.073364 0.08255
0.078583 0.080658 0.085052
0.250519 0.117096 0.094238
0.546417 0.190643 0.138977
0.83786 0.316895 0.243347
0.977814 0.404846 0.307678
0.983337 0.437866 0.321045
0.984131 0.454254 0.327484
0.072144 0.16272 0.073975
0.089172 0.181519 0.070526
0.25293 0.181763 0.099213
0.556793 0.271698 0.151703
0.848907 0.402283 0.255157
0.983459 0.482788 0.313141
0.982056 0.503967 0.321838
0.980469 0.51416 0.32608
0.137054 0.322601 0.101868
0.144409 0.340271 0.107208
0.304382 0.365051 0.144501
0.549347 0.371185 0.204895
0.842377 0.493927 0.294708
0.970764 0.564117 0.34787
0.971649 0.582458 0.356812
0.970001 0.590942 0.361816
0.226044 0.516937 0.167084
0.236786 0.534912 0.175323
0.33844 0.565277 0.202515
0.592896 0.532104 0.282623
0.826752 0.591644 0.352295
0.948914 0.65155 0.396576
0.959991 0.668213 0.407623
0.959045 0.674408 0.412048
0.328491 0.684204 0.245789
0.337738 0.699066 0.253052
0.421783 0.724518 0.275543
0.736938 0.741943 0.3573
0.833832 0.697845 0.407654
0.929565 0.722107 0.444702
0.953186 0.737823 0.457703
0.954895 0.745209 0.460968
0.385834 0.774017 0.290253
0.394348 0.78717 0.296875
0.460876 0.811066 0.31427
0.769592 0.82309 0.393555
0.854492 0.773193 0.44101
0.937897 0.788574 0.472107
0.968414 0.80127 0.486084
0.96994 0.807434 0.489014
0.398041 0.792694 0.299652
0.406281 0.805481 0.306152
0.46814 0.828491 0.322937
0.775269 0.840057 0.401093
0.869843 0.797821 0.449097
0.940491 0.803345 0.478577
0.971924 0.815216 0.492676
0.973389 0.820923 0.495422
0.031036 0.082245 0.126801
0.029572 0.073944 0.14267
0.079712 0.043488 0.200317
0.426361 0.103851 0.251038
0.764557 0.24234 0.344086
0.933777 0.335419 0.404297
0.968109 0.371704 0.424164
0.967468 0.384674 0.429321
0.03363 0.098114 0.141846
0.044159 0.101959 0.144073
0.073303 0.074615 0.186005
0.427368 0.14682 0.240417
0.760223 0.27829 0.326202
0.930603 0.371033 0.388123
0.968628 0.39502 0.396027
0.969208 0.406372 0.398529
0.061554 0.142975 0.169922
0.076233 0.151459 0.175842
0.122498 0.181641 0.188538
0.429993 0.248383 0.200012
0.774048 0.367615 0.281647
0.946808 0.455505 0.343903
0.983307 0.49292 0.364624
0.984283 0.507416 0.37027
0.120361 0.298157 0.182465
0.128967 0.321198 0.176605
0.143799 0.357178 0.157135
0.429016 0.344391 0.181091
0.769653 0.466248 0.272522
0.938263 0.546478 0.334656
0.972412 0.573853 0.352936
0.971588 0.582092 0.356812
0.217163 0.505249 0.181824
0.230164 0.525909 0.183868
0.253723 0.562988 0.188263
0.570435 0.588776 0.265778
0.754517 0.568481 0.337952
0.920166 0.641388 0.388519
0.960388 0.666321 0.40625
0.959412 0.672668 0.410614
0.326782 0.681519 0.244507
0.337097 0.698059 0.252533
0.355652 0.727264 0.266907
0.639648 0.748779 0.333374
0.789276 0.702606 0.397003
0.911285 0.725616 0.440491
0.953949 0.74118 0.459198
0.955627 0.748383 0.462341
0.386597 0.775299 0.290863
0.396088 0.789795 0.298248
0.412811 0.815338 0.311218
0.674408 0.833832 0.372131
0.857849 0.814575 0.437103
0.922913 0.795624 0.470428
0.966461 0.807587 0.487976
0.971558 0.813568 0.491913
0.399414 0.794739 0.30069
0.4086 0.808929 0.307922
0.425018 0.833618 0.320587
0.681915 0.851715 0.380157
0.873901 0.839111 0.445831
0.926056 0.810974 0.477325
0.968445 0.822113 0.494415
0.975159 0.827698 0.498688
0.023193 0.127319 0.213196
0.023315 0.129822 0.211761
0.025757 0.13385 0.256439
0.241516 0.06546 0.400513
0.652466 0.165741 0.478546
0.883545 0.275085 0.542877
0.95813 0.324707 0.568359
0.958344 0.335266 0.571899
0.022797 0.129364 0.229736
0.023651 0.128265 0.208282
0.026794 0.151093 0.250458
0.235474 0.085205 0.390961
0.658691 0.2052 0.470612
0.888184 0.317108 0.534454
0.962738 0.368103 0.56076
0.963562 0.379639 0.56424
0.036865 0.169159 0.24704
0.035126 0.186005 0.244873
0.036102 0.199432 0.251251
0.210236 0.187073 0.36261
0.670532 0.310547 0.454315
0.892426 0.413361 0.51297
0.964447 0.457397 0.534363
0.964172 0.469696 0.537537
0.077484 0.254547 0.31366
0.089264 0.260925 0.320892
0.114288 0.281586 0.334351
0.285706 0.372345 0.359344
0.68399 0.475739 0.407806
0.904205 0.55365 0.454163
0.981354 0.591492 0.475983
0.981171 0.600647 0.478821
0.190887 0.457367 0.364105
0.199951 0.482666 0.361786
0.226685 0.533478 0.360535
0.359833 0.597748 0.337128
0.677521 0.575775 0.368256
0.88266 0.638855 0.417664
0.964966 0.673737 0.440521
0.964172 0.679474 0.443665
0.30777 0.674316 0.38736
0.318237 0.691162 0.384521
0.338257 0.7229 0.379211
0.445801 0.764252 0.356506
0.779633 0.757843 0.393494
0.879822 0.729187 0.432465
0.947327 0.743835 0.45813
0.956177 0.750793 0.463379
0.369659 0.772827 0.397858
0.379242 0.787659 0.395599
0.405182 0.815887 0.398834
0.49353 0.852722 0.373596
0.844513 0.862427 0.42984
0.894409 0.804443 0.465607
0.957825 0.815002 0.488312
0.973297 0.820496 0.49527
0.382782 0.793274 0.400482
0.392639 0.80777 0.398865
0.418823 0.83551 0.402649
0.503662 0.871094 0.377625
0.850128 0.879974 0.437775
0.906891 0.827911 0.473785
0.960205 0.830444 0.495209
0.977234 0.835602 0.502533
0.00705 0.240265 0.400116
0.008331 0.237488 0.384766
0.011475 0.242279 0.424164
0.042816 0.071533 0.506226
0.57132 0.157532 0.668976
0.802155 0.228363 0.695984
0.914001 0.268768 0.7164
0.91452 0.274048 0.716766
0.006317 0.239532 0.4133
0.008148 0.235443 0.387207
0.006866 0.238861 0.412781
0.039276 0.069672 0.496338
0.56778 0.159821 0.659027
0.803558 0.248932 0.684998
0.920563 0.305054 0.709839
0.9216 0.314178 0.710724
0.015503 0.23468 0.41507
0.009735 0.233978 0.407349
0.008942 0.251343 0.377716
0.102051 0.199402 0.461517
0.564026 0.249237 0.640015
0.817047 0.342957 0.670563
0.936188 0.400391 0.697388
0.937775 0.411591 0.698395
0.035522 0.326172 0.429108
0.03772 0.342285 0.42746
0.046875 0.350281 0.434692
0.213715 0.38324 0.468811
0.57074 0.422821 0.614777
0.844574 0.516876 0.658508
0.958801 0.571228 0.686798
0.963135 0.584503 0.690033
0.145813 0.427216 0.522369
0.162201 0.434448 0.529907
0.192902 0.453979 0.54303
0.319763 0.536011 0.558899
0.641083 0.646118 0.604126
0.874023 0.702942 0.634796
0.973083 0.734497 0.64917
0.98056 0.741455 0.650787
0.283966 0.611755 0.584656
0.294647 0.628113 0.58136
0.315826 0.664642 0.578247
0.385773 0.730652 0.581055
0.693329 0.804871 0.588806
0.862244 0.775909 0.601624
0.950134 0.793335 0.618774
0.968903 0.80188 0.622833
0.351654 0.728699 0.600433
0.363861 0.749023 0.599609
0.384766 0.789337 0.597076
0.429535 0.839569 0.590851
0.721222 0.889984 0.58847
0.903961 0.868347 0.601715
0.954285 0.850037 0.6073
0.977356 0.853668 0.61261
0.367737 0.755402 0.60437
0.378723 0.77597 0.603302
0.400146 0.814026 0.599915
0.438354 0.862885 0.592468
0.727356 0.90741 0.589233
0.919769 0.893555 0.604065
0.956787 0.864319 0.605621
0.981384 0.867584 0.611206
0 0.376831 0.609985
0 0.368103 0.585266
0.005615 0.365692 0.604462
0.06424 0.238739 0.625732
0.3974 0.160858 0.787018
0.772827 0.234985 0.857025
0.889618 0.270538 0.86972
0.901184 0.274475 0.867828
0.00293 0.370819 0.609222
0 0.364594 0.590546
0.001251 0.359436 0.592072
0.061371 0.23468 0.615997
0.40213 0.159912 0.779205
0.772369 0.233978 0.847504
0.891296 0.273224 0.859955
0.901672 0.283386 0.858032
0.01239 0.356873 0.598114
0.007568 0.35321 0.589081
0 0.344482 0.563141
0.064331 0.240265 0.599213
0.39798 0.202423 0.75766
0.775055 0.310486 0.829132
0.896881 0.361481 0.838928
0.906219 0.373505 0.837067
0.023407 0.359131 0.585632
0.022064 0.370972 0.57959
0.026337 0.396301 0.572357
0.159637 0.378082 0.60437
0.384583 0.332489 0.719025
0.787689 0.477295 0.806
0.909912 0.522552 0.813385
0.923492 0.537445 0.815765
0.10141 0.510651 0.625397
0.114471 0.515686 0.631042
0.146088 0.528229 0.642975
0.300537 0.584564 0.662994
0.583862 0.654022 0.720978
0.834076 0.693695 0.797333
0.953003 0.734253 0.818817
0.967865 0.747009 0.821655
0.256805 0.59549 0.714508
0.271149 0.600159 0.719238
0.297943 0.627502 0.723022
0.39505 0.69101 0.72934
0.660126 0.788788 0.771271
0.859833 0.829681 0.789337
0.96347 0.858521 0.799713
0.985504 0.86615 0.801392
0.341003 0.694397 0.7435
0.353668 0.713654 0.742554
0.374207 0.755615 0.748413
0.434601 0.794891 0.741638
0.683075 0.888367 0.773804
0.901459 0.920898 0.784637
0.957062 0.899353 0.785614
0.982269 0.901001 0.787567
0.358154 0.720428 0.747162
0.36911 0.737915 0.745758
0.387756 0.775543 0.748932
0.442322 0.813049 0.741608
0.688965 0.908997 0.773651
0.90567 0.937836 0.78299
0.959747 0.913635 0.783661
0.98642 0.914886 0.785736
0.00415 0.400787 0.651062
0 0.400391 0.641998
0.010406 0.399567 0.654236
0.07486 0.283783 0.683502
0.312256 0.163513 0.829102
0.768372 0.242767 0.938568
0.875793 0.276703 0.944855
0.888763 0.281097 0.945557
0.009216 0.399811 0.653656
0.003571 0.40094 0.650757
0.006866 0.400238 0.652405
0.073761 0.286804 0.683075
0.306641 0.162811 0.827148
0.766907 0.242676 0.938263
0.87677 0.277039 0.944885
0.888763 0.281097 0.945557
0.018921 0.39801 0.65863
0.014771 0.398834 0.656433
0.006073 0.400421 0.652039
0.071533 0.293243 0.682281
0.28952 0.172729 0.821503
0.750488 0.285645 0.933228
0.8815 0.343231 0.938873
0.894348 0.359619 0.93631
0.031525 0.395691 0.665222
0.029388 0.396118 0.664093
0.028107 0.409027 0.663605
0.118195 0.375305 0.696533
0.279053 0.279022 0.792389
0.752563 0.427307 0.90506
0.896118 0.506927 0.915955
0.91452 0.523041 0.917053
0.088043 0.569427 0.693237
0.101074 0.578339 0.703583
0.134125 0.592072 0.716034
0.289429 0.646149 0.733429
0.536255 0.650513 0.789642
0.784668 0.663696 0.884827
0.928375 0.715363 0.903015
0.94455 0.726501 0.901154
0.234253 0.653198 0.783813
0.248718 0.658142 0.788635
0.277435 0.666016 0.795898
0.38446 0.701416 0.809875
0.650696 0.795898 0.84259
0.839386 0.850952 0.875488
0.958069 0.872742 0.901794
0.983398 0.883118 0.904053
0.323059 0.695709 0.828369
0.336182 0.698914 0.831543
0.361237 0.727386 0.830414
0.439972 0.78067 0.831329
0.68689 0.869568 0.86795
0.870331 0.929901 0.887573
0.958557 0.92981 0.891754
0.990967 0.938843 0.893738
0.341278 0.703827 0.837097
0.354187 0.717072 0.837036
0.37854 0.753296 0.832916
0.451843 0.803925 0.833374
0.690704 0.885529 0.866333
0.873291 0.947662 0.885956
0.961273 0.943909 0.890503
0.989746 0.945068 0.891541
0.004486 0.400818 0.651215
0 0.400391 0.642487
0.01004 0.399658 0.654022
0.074677 0.284088 0.683441
0.311035 0.163391 0.828613
0.767334 0.242737 0.938354
0.875793 0.276703 0.944855
0.888763 0.281097 0.945557
0.009552 0.399841 0.653778
0.004028 0.400879 0.651001
0.0065 0.400391 0.652252
0.073639 0.287201 0.683044
0.305359 0.162689 0.826721
0.766876 0.242615 0.938263
0.876923 0.2771 0.944885
0.888763 0.281097 0.945557
0.019287 0.397919 0.658813
0.015106 0.398712 0.656616
0.0065 0.40036 0.652222
0.071411 0.293701 0.682251
0.29007 0.168884 0.822479
0.753143 0.279816 0.933289
0.881348 0.334778 0.945831
0.893036 0.350159 0.946716
0.031708 0.395782 0.665314
0.029633 0.396088 0.664215
0.029755 0.406464 0.664459
0.107544 0.357147 0.693298
0.269135 0.260345 0.805206
0.72522 0.401794 0.923553
0.893646 0.480804 0.950287
0.907288 0.509491 0.952271
0.089417 0.569519 0.692627
0.101257 0.578583 0.702942
0.133362 0.597076 0.720398
0.28653 0.65152 0.753204
0.513489 0.646362 0.819489
0.719482 0.639587 0.914886
0.921021 0.704285 0.954285
0.939209 0.721832 0.952148
0.229034 0.66098 0.793518
0.242798 0.668915 0.801727
0.26889 0.683868 0.8172
0.380554 0.731567 0.843567
0.644348 0.823212 0.874634
0.827454 0.860535 0.908783
0.947632 0.867126 0.946686
0.972534 0.875854 0.945526
0.317749 0.712524 0.84787
0.329865 0.71933 0.855225
0.353241 0.733124 0.870605
0.434998 0.770447 0.880829
0.681274 0.854614 0.906982
0.867981 0.91864 0.931335
0.961792 0.947968 0.942505
0.995117 0.956024 0.943542
0.336029 0.722809 0.858856
0.347137 0.729797 0.866913
0.370605 0.743042 0.881104
0.447296 0.794861 0.882233
0.689667 0.875916 0.908386
0.871918 0.937561 0.933533
0.962769 0.959412 0.941772
0.995087 0.964905 0.942749
