site/assets/luts/freshluts--0001980-celebrate.cube
# LUTr-Schema-Version: 2
# LUTr-ID: freshluts--0001980-celebrate
# LUTr-Title: Celebrate
# LUTr-Collection: Fresh LUTs
# LUTr-Collection-ID: freshluts-community
# LUTr-Source: https://freshluts.com
# LUTr-Retrieved: 2026-07-27
# LUTr-Source-File: submissions-raw/freshluts/cubes/1980__Celebrate.cube
# LUTr-Source-Format: CUBE
# LUTr-Source-SHA256: e377df4f37b069d33b0901fe0ea35d43e346ccd93f62a4cf82ebaacf1595b79d
# LUTr-License: CC0-1.0
# LUTr-License-URL: https://freshluts.com/termsandconditions
# LUTr-License-Basis: site-terms
# LUTr-Transform-Class: creative-look
# LUTr-Tags: creative, freshluts, community, cube, cool, high-key, sony-s-log2
# LUTr-Input-Color-Space:
# LUTr-Input-Gamut: sony-s-gamut
# LUTr-Input-Transfer: sony-s-log2
# LUTr-Output-Color-Space: srgb
# LUTr-Output-Gamut: rec709
# LUTr-Output-Transfer: srgb
# LUTr-Color-Space-Confidence: camera-profile-input-required
# LUTr-Domain-Normalized: true
# LUTr-Shaper: none
# LUTr-Original-Grid: 16x16x16
# LUTr-Conversion-Grid: 16x16x16
# LUTr-Conversion-Interpolation: none
# LUTr-Conversion-Method: Metadata normalization; numeric LUT samples preserved
# LUTr-Conversion-Tool: LUTr scripts/convert-all-to-cube.mjs 2.0.0
# LUTr-Conversion-Date: 2026-07-28
# LUTr-Asset-URL: https://freshluts.com/luts/1980
# LUTr-Author: InAvision
# LUTr-Author-URL: https://freshluts.com/users/64078
# LUTr-Attribution: InAvision via Fresh LUTs
# LUTr-Source-Labels: gamma=Sony S-Log 2; color=Cool; key=High Key; style=cine drama
# LUTr-Note: Preserve this metadata and the upstream license notices when redistributing.
TITLE "Celebrate"
LUT_3D_SIZE 6
DOMAIN_MIN 0 0 0
DOMAIN_MAX 1 1 1
0 0 0
0.146701 0 0
0.338766 0 0
0.530076 0 0
0.720832 0 0
0.910645 0 0
0 0.178388 0
0.146701 0.178388 0
0.338766 0.178388 0
0.530076 0.178388 0
0.720832 0.178388 0
0.910645 0.178388 0
0 0.379727 0
0.146701 0.379727 0
0.338766 0.379727 0
0.530076 0.379727 0
0.720832 0.379727 0
0.910645 0.379727 0
0 0.575567 0
0.146701 0.575567 0
0.338766 0.575567 0
0.530076 0.575567 0
0.720832 0.575567 0
0.910645 0.575567 0
0 0.767912 0
0.146701 0.767912 0
0.338766 0.767912 0
0.530076 0.767912 0
0.720832 0.767912 0
0.910645 0.767912 0
0 0.957199 0
0.146701 0.957199 0
0.338766 0.957199 0
0.530076 0.957199 0
0.720832 0.957199 0
0.910645 0.957199 0
0 0 0.173808
0.146701 0 0.173808
0.338766 0 0.173808
0.530076 0 0.173808
0.720832 0 0.173808
0.910645 0 0.173808
0 0.178388 0.173808
0.146701 0.178388 0.173808
0.338766 0.178388 0.173808
0.530076 0.178388 0.173808
0.720832 0.178388 0.173808
0.910645 0.178388 0.173808
0 0.379727 0.173808
0.146701 0.379727 0.173808
0.338766 0.379727 0.173808
0.530076 0.379727 0.173808
0.720832 0.379727 0.173808
0.910645 0.379727 0.173808
0 0.575567 0.173808
0.146701 0.575567 0.173808
0.338766 0.575567 0.173808
0.530076 0.575567 0.173808
0.720832 0.575567 0.173808
0.910645 0.575567 0.173808
0 0.767912 0.173808
0.146701 0.767912 0.173808
0.338766 0.767912 0.173808
0.530076 0.767912 0.173808
0.720832 0.767912 0.173808
0.910645 0.767912 0.173808
0 0.957199 0.173808
0.146701 0.957199 0.173808
0.338766 0.957199 0.173808
0.530076 0.957199 0.173808
0.720832 0.957199 0.173808
0.910645 0.957199 0.173808
0 0 0.375885
0.146701 0 0.375885
0.338766 0 0.375885
0.530076 0 0.375885
0.720832 0 0.375885
0.910645 0 0.375885
0 0.178388 0.375885
0.146701 0.178388 0.375885
0.338766 0.178388 0.375885
0.530076 0.178388 0.375885
0.720832 0.178388 0.375885
0.910645 0.178388 0.375885
0 0.379727 0.375885
0.146701 0.379727 0.375885
0.338766 0.379727 0.375885
0.530076 0.379727 0.375885
0.720832 0.379727 0.375885
0.910645 0.379727 0.375885
0 0.575567 0.375885
0.146701 0.575567 0.375885
0.338766 0.575567 0.375885
0.530076 0.575567 0.375885
0.720832 0.575567 0.375885
0.910645 0.575567 0.375885
0 0.767912 0.375885
0.146701 0.767912 0.375885
0.338766 0.767912 0.375885
0.530076 0.767912 0.375885
0.720832 0.767912 0.375885
0.910645 0.767912 0.375885
0 0.957199 0.375885
0.146701 0.957199 0.375885
0.338766 0.957199 0.375885
0.530076 0.957199 0.375885
0.720832 0.957199 0.375885
0.910645 0.957199 0.375885
0 0 0.571307
0.146701 0 0.571307
0.338766 0 0.571307
0.530076 0 0.571307
0.720832 0 0.571307
0.910645 0 0.571307
0 0.178388 0.571307
0.146701 0.178388 0.571307
0.338766 0.178388 0.571307
0.530076 0.178388 0.571307
0.720832 0.178388 0.571307
0.910645 0.178388 0.571307
0 0.379727 0.571307
0.146701 0.379727 0.571307
0.338766 0.379727 0.571307
0.530076 0.379727 0.571307
0.720832 0.379727 0.571307
0.910645 0.379727 0.571307
0 0.575567 0.571307
0.146701 0.575567 0.571307
0.338766 0.575567 0.571307
0.530076 0.575567 0.571307
0.720832 0.575567 0.571307
0.910645 0.575567 0.571307
0 0.767912 0.571307
0.146701 0.767912 0.571307
0.338766 0.767912 0.571307
0.530076 0.767912 0.571307
0.720832 0.767912 0.571307
0.910645 0.767912 0.571307
0 0.957199 0.571307
0.146701 0.957199 0.571307
0.338766 0.957199 0.571307
0.530076 0.957199 0.571307
0.720832 0.957199 0.571307
0.910645 0.957199 0.571307
0 0 0.762667
0.146701 0 0.762667
0.338766 0 0.762667
0.530076 0 0.762667
0.720832 0 0.762667
0.910645 0 0.762667
0 0.178388 0.762667
0.146701 0.178388 0.762667
0.338766 0.178388 0.762667
0.530076 0.178388 0.762667
0.720832 0.178388 0.762667
0.910645 0.178388 0.762667
0 0.379727 0.762667
0.146701 0.379727 0.762667
0.338766 0.379727 0.762667
0.530076 0.379727 0.762667
0.720832 0.379727 0.762667
0.910645 0.379727 0.762667
0 0.575567 0.762667
0.146701 0.575567 0.762667
0.338766 0.575567 0.762667
0.530076 0.575567 0.762667
0.720832 0.575567 0.762667
0.910645 0.575567 0.762667
0 0.767912 0.762667
0.146701 0.767912 0.762667
0.338766 0.767912 0.762667
0.530076 0.767912 0.762667
0.720832 0.767912 0.762667
0.910645 0.767912 0.762667
0 0.957199 0.762667
0.146701 0.957199 0.762667
0.338766 0.957199 0.762667
0.530076 0.957199 0.762667
0.720832 0.957199 0.762667
0.910645 0.957199 0.762667
0 0 0.950482
0.146701 0 0.950482
0.338766 0 0.950482
0.530076 0 0.950482
0.720832 0 0.950482
0.910645 0 0.950482
0 0.178388 0.950482
0.146701 0.178388 0.950482
0.338766 0.178388 0.950482
0.530076 0.178388 0.950482
0.720832 0.178388 0.950482
0.910645 0.178388 0.950482
0 0.379727 0.950482
0.146701 0.379727 0.950482
0.338766 0.379727 0.950482
0.530076 0.379727 0.950482
0.720832 0.379727 0.950482
0.910645 0.379727 0.950482
0 0.575567 0.950482
0.146701 0.575567 0.950482
0.338766 0.575567 0.950482
0.530076 0.575567 0.950482
0.720832 0.575567 0.950482
0.910645 0.575567 0.950482
0 0.767912 0.950482
0.146701 0.767912 0.950482
0.338766 0.767912 0.950482
0.530076 0.767912 0.950482
0.720832 0.767912 0.950482
0.910645 0.767912 0.950482
0 0.957199 0.950482
0.146701 0.957199 0.950482
0.338766 0.957199 0.950482
0.530076 0.957199 0.950482
0.720832 0.957199 0.950482
0.910645 0.957199 0.950482
