site/assets/luts/freshluts--0000405-correction-faded.cube
# LUTr-Schema-Version: 2
# LUTr-ID: freshluts--0000405-correction-faded
# LUTr-Title: Correction Faded
# LUTr-Collection: Fresh LUTs
# LUTr-Collection-ID: freshluts-community
# LUTr-Source: https://freshluts.com
# LUTr-Retrieved: 2026-07-27
# LUTr-Source-File: submissions-raw/freshluts/cubes/405__Wine_bottle_1.MVI_3956.cube
# LUTr-Source-Format: CUBE
# LUTr-Source-SHA256: c39fee33cbf051f28b683a3e84c9393dbe898d94298bd6da351c69f5cf328a02
# LUTr-License: CC0-1.0
# LUTr-License-URL: https://freshluts.com/termsandconditions
# LUTr-License-Basis: site-terms
# LUTr-Transform-Class: creative-look
# LUTr-Tags: creative, freshluts, community, cube, faded, vintage, brown, low-key, canon-cinestyle, correction
# LUTr-Input-Color-Space: canon-cinestyle
# LUTr-Input-Gamut: rec709
# LUTr-Input-Transfer: canon-cinestyle
# LUTr-Output-Color-Space: srgb
# LUTr-Output-Gamut: rec709
# LUTr-Output-Transfer: srgb
# LUTr-Color-Space-Confidence: inferred-from-source-label
# LUTr-Domain-Normalized: true
# LUTr-Shaper: none
# LUTr-Original-Grid: 33x33x33
# LUTr-Conversion-Grid: 33x33x33
# LUTr-Conversion-Interpolation: none
# LUTr-Conversion-Method: Metadata normalization; numeric LUT samples preserved
# LUTr-Conversion-Tool: LUTr scripts/convert-all-to-cube.mjs 2.0.0
# LUTr-Conversion-Date: 2026-07-28
# LUTr-Asset-URL: https://freshluts.com/luts/405
# LUTr-Author: Jùan
# LUTr-Author-URL: https://freshluts.com/users/23428
# LUTr-Attribution: Jùan via Fresh LUTs
# LUTr-Source-Labels: gamma=Canon Cinestyle; color=Brown; key=Low Key; style=Faded
# LUTr-Note: Preserve this metadata and the upstream license notices when redistributing.
TITLE "Correction Faded"
LUT_3D_SIZE 5
DOMAIN_MIN 0 0 0
DOMAIN_MAX 1 1 1
0.111147 0.142504 0.169741
0.14818 0.142992 0.170169
0.258076 0.144366 0.171328
0.373526 0.152789 0.179797
0.507424 0.167437 0.194644
0.126848 0.193103 0.184695
0.198611 0.218662 0.204623
0.356603 0.24445 0.225772
0.502373 0.281956 0.256687
0.630396 0.323751 0.291493
0.195575 0.395331 0.249104
0.309606 0.448829 0.287816
0.479194 0.484627 0.313832
0.59794 0.517082 0.343664
0.694835 0.544167 0.369589
0.315618 0.630213 0.355718
0.425879 0.66244 0.387884
0.568078 0.674327 0.399939
0.661997 0.690883 0.416602
0.742245 0.706981 0.433371
0.396323 0.786191 0.430686
0.496468 0.807126 0.45565
0.627527 0.811765 0.46099
0.710597 0.821927 0.475105
0.780118 0.8327 0.49099
0.110948 0.142428 0.201495
0.148226 0.143252 0.201648
0.261128 0.145892 0.20264
0.381903 0.156588 0.216693
0.516732 0.173037 0.238788
0.133074 0.200565 0.228168
0.210849 0.229404 0.25658
0.372259 0.257511 0.284031
0.518929 0.297307 0.32343
0.644648 0.339834 0.365835
0.209705 0.413367 0.315297
0.326604 0.466636 0.361975
0.493935 0.49958 0.392645
0.609033 0.529854 0.423896
0.703716 0.5552 0.450095
0.328496 0.642023 0.435889
0.437079 0.67303 0.468193
0.577646 0.684123 0.482078
0.670161 0.700191 0.500374
0.749203 0.715862 0.518486
0.406149 0.794324 0.512489
0.505684 0.814694 0.537377
0.63592 0.819394 0.547356
0.718471 0.829725 0.563592
0.786831 0.840253 0.580102
0.110491 0.142351 0.299657
0.147463 0.143755 0.298787
0.262592 0.147906 0.298283
0.386954 0.160418 0.319738
0.522805 0.178622 0.351736
0.138918 0.207279 0.34255
0.221271 0.238865 0.38233
0.385443 0.269215 0.417288
0.531319 0.310292 0.463951
0.654978 0.352331 0.508721
0.221042 0.427665 0.453758
0.339483 0.4804 0.504768
0.503899 0.509667 0.532387
0.615991 0.537667 0.55816
0.708904 0.561791 0.580133
0.335973 0.648951 0.568276
0.44332 0.678538 0.595789
0.583093 0.689174 0.607782
0.674708 0.704814 0.623957
0.75256 0.720104 0.640299
0.409674 0.797559 0.633738
0.510536 0.817853 0.657359
0.640864 0.822782 0.667353
0.722942 0.833341 0.682689
0.790356 0.843732 0.697749
0.112108 0.144152 0.404852
0.149889 0.146304 0.403632
0.269703 0.152392 0.403876
0.397772 0.166842 0.428992
0.533806 0.186786 0.463172
0.147829 0.217441 0.456519
0.23592 0.251972 0.496437
0.40238 0.28397 0.528527
0.546578 0.325933 0.573053
0.667659 0.366842 0.615259
0.235019 0.444694 0.559823
0.354131 0.495903 0.607919
0.515206 0.521141 0.63035
0.62446 0.547372 0.653742
0.715389 0.570184 0.673548
0.345373 0.657649 0.661799
0.451484 0.686229 0.687861
0.590204 0.696101 0.697734
0.680476 0.711177 0.711666
0.757198 0.726207 0.725383
0.416159 0.802716 0.7196
0.517357 0.822675 0.740581
0.647105 0.82771 0.748638
0.728191 0.838071 0.761151
0.79443 0.848142 0.773266
0.114412 0.146639 0.516548
0.154498 0.150256 0.516533
0.279774 0.158328 0.51693
0.410544 0.174426 0.541665
0.546792 0.196399 0.575525
0.158389 0.229313 0.57377
0.252125 0.26656 0.61384
0.420737 0.300038 0.641733
0.562432 0.342016 0.680705
0.68014 0.381216 0.715755
0.249516 0.461936 0.663371
0.369116 0.509896 0.703883
0.526406 0.53257 0.721935
0.632746 0.556954 0.741253
0.721889 0.57879 0.757473
0.355016 0.666529 0.74696
0.459739 0.693935 0.769741
0.597467 0.703197 0.776883
0.686336 0.717708 0.787579
0.761975 0.73254 0.79826
0.423102 0.808026 0.793881
0.524529 0.827649 0.811841
0.653498 0.832837 0.817395
0.733394 0.842786 0.826642
0.798199 0.852247 0.83534
