site/assets/luts/freshluts--0001245-cineliked-interior.cube
# LUTr-Schema-Version: 2
# LUTr-ID: freshluts--0001245-cineliked-interior
# LUTr-Title: CinelikeD_Interior
# LUTr-Collection: Fresh LUTs
# LUTr-Collection-ID: freshluts-community
# LUTr-Source: https://freshluts.com
# LUTr-Retrieved: 2026-07-27
# LUTr-Source-File: submissions-raw/freshluts/cubes/1245___GH5S__CinelikeD_Interior_Orange_Tone.cube
# LUTr-Source-Format: CUBE
# LUTr-Source-SHA256: 8f0f566e0b764435e429e3e9eee8d845c37070977eefb9a56be319e846d9b8d8
# LUTr-License: CC0-1.0
# LUTr-License-URL: https://freshluts.com/termsandconditions
# LUTr-License-Basis: site-terms
# LUTr-Transform-Class: creative-look
# LUTr-Tags: creative, freshluts, community, cube, orange, panasonic-cinelike-d
# LUTr-Input-Color-Space: panasonic-cinelike-d
# LUTr-Input-Gamut: rec709
# LUTr-Input-Transfer: panasonic-cinelike-d
# LUTr-Output-Color-Space: srgb
# LUTr-Output-Gamut: rec709
# LUTr-Output-Transfer: srgb
# LUTr-Color-Space-Confidence: inferred-from-source-label
# LUTr-Domain-Normalized: true
# LUTr-Shaper: none
# LUTr-Original-Grid: 33x33x33
# LUTr-Conversion-Grid: 33x33x33
# LUTr-Conversion-Interpolation: none
# LUTr-Conversion-Method: Metadata normalization; numeric LUT samples preserved
# LUTr-Conversion-Tool: LUTr scripts/convert-all-to-cube.mjs 2.0.0
# LUTr-Conversion-Date: 2026-07-28
# LUTr-Asset-URL: https://freshluts.com/luts/1245
# LUTr-Author: Son Triple
# LUTr-Author-URL: https://freshluts.com/users/127032
# LUTr-Attribution: Son Triple via Fresh LUTs
# LUTr-Source-Labels: gamma=Panasonic Cinelike-D; color=Orange; key=Neutral; style=Interior
# LUTr-Note: Preserve this metadata and the upstream license notices when redistributing.
TITLE "CinelikeD_Interior"
LUT_3D_SIZE 9
DOMAIN_MIN 0 0 0
DOMAIN_MAX 1 1 1
0.00267033 0.00347906 0
0.0849928 0.0263523 0.000015259
0.194125 0.057435 0
0.366873 0.105791 0
0.572885 0.162036 0.00216678
0.723507 0.217807 0.0216983
0.827787 0.258122 0.0383764
0.898146 0.284779 0.0506142
0.958083 0.306722 0.0613718
0.0217441 0.110491 0.0407568
0.0970474 0.116838 0.0664225
0.213535 0.113527 0.000335698
0.365728 0.142504 0
0.539178 0.183871 0.00485237
0.681529 0.230076 0.0201114
0.788647 0.268803 0.0361791
0.873304 0.298543 0.0502937
0.948516 0.324437 0.0632639
0.0636759 0.215564 0.110658
0.117418 0.223178 0.118563
0.200977 0.231174 0.143816
0.365881 0.205142 0.00514229
0.519158 0.22475 0.010071
0.661341 0.260945 0.0229038
0.779751 0.299825 0.0402686
0.881987 0.334188 0.0568551
0.96965 0.36347 0.071809
0.0836652 0.351385 0.163073
0.139986 0.353521 0.179553
0.212329 0.356329 0.198215
0.322362 0.360723 0.226764
0.513375 0.320745 0.0543679
0.656504 0.334936 0.0322576
0.783307 0.369284 0.0507362
0.897383 0.404669 0.068986
0.994202 0.436164 0.0852979
0.12636 0.488045 0.236622
0.172503 0.496513 0.254383
0.238773 0.505272 0.276249
0.344747 0.507958 0.297124
0.476661 0.519417 0.336172
0.67393 0.499763 0.202625
0.81767 0.495537 0.0712444
0.936965 0.521004 0.088777
1 0.547875 0.102327
0.183337 0.649927 0.339101
0.226978 0.661189 0.35906
0.292073 0.673548 0.384314
0.394385 0.675639 0.405402
0.52256 0.677791 0.424933
0.649943 0.690608 0.470985
0.821118 0.68455 0.36791
0.966903 0.682094 0.27808
1 0.689097 0.224002
0.246616 0.809277 0.456046
0.285908 0.819593 0.473686
0.348653 0.828183 0.494667
0.448112 0.82678 0.510475
0.572793 0.824399 0.52697
0.693767 0.833021 0.549203
0.803586 0.850965 0.596704
0.95465 0.852506 0.537438
1 0.860594 0.499336
0.298634 0.958404 0.559701
0.336004 0.968231 0.573922
0.402899 0.974655 0.590356
0.505348 0.970794 0.603372
0.62739 0.965927 0.616129
0.743267 0.97023 0.632837
0.852491 0.982498 0.652995
0.946059 0.999969 0.691447
1 1 0.664302
0.345556 1 0.644831
0.38674 1 0.654521
0.459144 1 0.665034
0.564813 1 0.673487
0.679973 1 0.683696
0.793515 1 0.69546
0.898253 1 0.70837
0.986633 1 0.725032
1 1 0.756176
0 0.0185245 0.0915541
0.0770428 0.0400702 0.117067
0.203189 0.00936904 0.0480812
0.370611 0.0395666 0
0.566186 0.10695 0
0.715389 0.168124 0.0115511
0.82089 0.214023 0.0296941
0.893889 0.246784 0.0433509
0.956207 0.274144 0.0552834
0.0410468 0.109667 0.126162
0.0969406 0.119371 0.136065
0.218311 0.111864 0.0944228
0.370962 0.106783 0
0.538231 0.151431 0
0.678538 0.200183 0.0146487
0.787549 0.242557 0.0317693
0.873869 0.275608 0.0462196
0.951125 0.304158 0.0600443
0.0898299 0.21326 0.169467
0.138369 0.217639 0.180179
0.203067 0.232074 0.216373
0.371283 0.206287 0.102602
0.524834 0.202625 0.00723278
0.663966 0.239445 0.019852
0.782971 0.280354 0.0374762
0.887327 0.317021 0.0549935
0.975906 0.347723 0.0700389
0.0959335 0.351415 0.212741
0.137652 0.354513 0.222705
0.218204 0.355489 0.250751
0.316625 0.365881 0.278981
0.515358 0.333471 0.152697
0.665095 0.323659 0.0317845
0.791897 0.357885 0.0502327
0.906569 0.393774 0.0686656
1 0.425834 0.0852674
0.133761 0.489464 0.276631
0.171191 0.499306 0.291295
0.236606 0.509514 0.314321
0.343297 0.513588 0.338476
0.475151 0.526268 0.382208
0.675441 0.509773 0.261265
0.829648 0.494209 0.123766
0.949523 0.516564 0.0897841
1 0.542626 0.103151
0.190005 0.653361 0.374762
0.227268 0.665721 0.393271
0.291295 0.677897 0.417868
0.393713 0.680598 0.439704
0.522988 0.68304 0.462531
0.648905 0.695949 0.509331
0.820722 0.690974 0.415
0.966842 0.689082 0.333562
1 0.697108 0.291112
0.252369 0.812467 0.486854
0.28629 0.823285 0.503304
0.347631 0.832227 0.522362
0.447425 0.831174 0.539849
0.572335 0.829053 0.556924
0.693507 0.83769 0.581216
0.80235 0.856245 0.627161
0.952956 0.857847 0.574655
1 0.866087 0.541222
0.303655 0.961578 0.584985
0.336645 0.972198 0.599603
0.401923 0.9785 0.615366
0.504128 0.974594 0.62797
0.626383 0.96994 0.641047
0.742519 0.974121 0.658427
0.850721 0.986236 0.679667
0.942473 1 0.71754
1 1 0.692622
0.350515 1 0.668055
0.38677 1 0.678508
0.457069 1 0.688731
0.562081 1 0.697627
0.676921 1 0.707759
0.790555 1 0.719997
0.894484 1 0.733898
0.981933 1 0.751705
1 1 0.782712
0 0.0517128 0.211673
0.0352789 0.0345312 0.259754
0.177417 0.0992752 0.26453
0.377386 0.0647898 0.186175
0.545861 0 0.0191501
0.695293 0.0724498 0
0.806485 0.142168 0.0131685
0.885344 0.190097 0.0308995
0.952361 0.227008 0.0457618
0.014847 0.121157 0.24686
0.0806439 0.133684 0.248386
0.183841 0.156588 0.266484
0.375296 0.111162 0.17232
0.528664 0.0499733 0
0.66891 0.125963 0.00015259
0.782422 0.183917 0.0202792
0.873365 0.226566 0.0370947
0.953933 0.260533 0.0526284
0.124804 0.212848 0.242466
0.160815 0.218265 0.245777
0.211475 0.235538 0.263005
0.368307 0.223636 0.220295
0.531777 0.191882 0.12224
0.666667 0.195529 0.0130007
0.787228 0.242435 0.0317388
0.893553 0.282795 0.0496681
0.98468 0.315755 0.065919
0.119982 0.349538 0.291325
0.207401 0.336797 0.300237
0.24802 0.348684 0.31371
0.326024 0.365423 0.356878
0.514199 0.347692 0.250233
0.676692 0.319692 0.139742
0.804379 0.331746 0.0478065
0.919951 0.368582 0.0666056
1 0.400916 0.0839704
0.151232 0.491417 0.340108
0.184985 0.501015 0.35314
0.237125 0.513344 0.371405
0.38262 0.503471 0.423636
0.468894 0.533806 0.454948
0.673915 0.521737 0.347723
0.832532 0.511543 0.251255
0.966232 0.510033 0.174182
1 0.527092 0.104265
0.205325 0.656184 0.430686
0.239292 0.668956 0.447974
0.292241 0.682307 0.469963
0.390234 0.68574 0.492988
0.519142 0.688884 0.521401
0.644434 0.702251 0.569482
0.817105 0.698711 0.490547
0.963134 0.698161 0.423407
1 0.707088 0.393561
0.266331 0.814603 0.537469
0.296452 0.825681 0.551659
0.347845 0.835813 0.569894
0.44358 0.835935 0.587259
0.568322 0.834455 0.606332
0.68983 0.843015 0.633478
0.796857 0.862394 0.676661
0.946197 0.864805 0.635584
1 0.872923 0.610697
0.317632 0.963104 0.632502
0.347265 0.974029 0.644648
0.401999 0.981857 0.657526
0.500298 0.978546 0.669367
0.621149 0.974227 0.683421
0.737362 0.978393 0.703243
0.844221 0.990234 0.727581
0.933471 1 0.76495
1 1 0.744137
0.365957 1 0.713649
0.398352 1 0.721691
0.456657 1 0.730938
0.555779 1 0.739284
0.669688 1 0.750805
0.782132 1 0.764569
0.885084 1 0.781094
0.970718 1 0.801297
1 1 0.829847
0 0.108598 0.409857
0.000579843 0.0732128 0.448554
0.121096 0.0918135 0.502113
0.340169 0.186618 0.508049
0.56643 0.184619 0.441947
0.698604 0.076463 0.263737
0.773663 0 0.117784
0.839979 0 0
0.926146 0.0951247 0.0120394
0 0.152422 0.436728
0.0590982 0.166674 0.437079
0.136538 0.156405 0.497414
0.322942 0.221546 0.475807
0.53576 0.201373 0.39646
0.665751 0.0844282 0.200504
0.739834 0 0
0.849668 0.0866407 0.00408942
0.940871 0.143908 0.0252842
0.043122 0.226764 0.437461
0.0983139 0.235019 0.43975
0.174594 0.25243 0.444099
0.313329 0.276951 0.451209
0.522957 0.247089 0.370687
0.670695 0.149981 0.192676
0.776745 0.114672 0.0739757
0.887785 0.160571 0.0242466
0.987137 0.205951 0.0446784
0.155001 0.346166 0.421607
0.187518 0.349371 0.424384
0.270375 0.349325 0.397681
0.336431 0.368765 0.417533
0.50927 0.360952 0.389487
0.676402 0.349371 0.319905
0.815351 0.344152 0.257176
0.936645 0.347189 0.210666
1 0.361578 0.189593
0.184848 0.488151 0.451896
0.216098 0.497566 0.463294
0.262776 0.510536 0.477562
0.389044 0.507774 0.487098
0.485328 0.531792 0.5393
0.666468 0.533303 0.475593
0.826596 0.528878 0.406531
0.962036 0.531975 0.360922
1 0.54461 0.345724
0.233448 0.654231 0.527092
0.265721 0.66685 0.544137
0.313313 0.680461 0.5617
0.389303 0.687831 0.573724
0.556069 0.677592 0.620279
0.63975 0.704112 0.669123
0.805707 0.705928 0.59794
0.952636 0.707317 0.550607
1 0.71751 0.533288
0.290944 0.811994 0.620905
0.320317 0.822766 0.634287
0.366293 0.833631 0.647501
0.442115 0.837736 0.656214
0.557916 0.83917 0.675898
0.678965 0.847807 0.707439
0.781796 0.867369 0.758038
0.932021 0.871809 0.71989
1 0.880812 0.702602
0.343648 0.960327 0.704585
0.372366 0.970764 0.716365
0.421057 0.978851 0.726253
0.497963 0.980133 0.732341
0.610208 0.977691 0.747814
0.724681 0.981796 0.772198
0.829602 0.993332 0.803815
0.91458 1 0.84419
1 1 0.822431
0.394446 1 0.786618
0.424109 1 0.795087
0.474876 1 0.800259
0.552377 1 0.80322
0.657465 1 0.814572
0.766751 1 0.832029
0.868025 1 0.852842
0.950912 1 0.878569
1 1 0.908507
0 0.168658 0.624308
0 0.133181 0.648569
0.0415961 0.095552 0.689876
0.289555 0.193362 0.733394
0.520531 0.285725 0.720165
0.694484 0.299931 0.674235
0.813291 0.249653 0.577234
0.884627 0.162951 0.431891
0.924453 0.0477455 0.271473
0 0.198993 0.633585
0.0392004 0.212634 0.632029
0.0974594 0.186587 0.670405
0.273594 0.226551 0.696712
0.48072 0.299275 0.672618
0.65922 0.299672 0.620142
0.7897 0.242725 0.513085
0.87808 0.164096 0.380102
0.941482 0.085008 0.261173
0.00555428 0.25156 0.614038
0.0694896 0.263005 0.613718
0.154345 0.282673 0.615015
0.268605 0.283116 0.665705
0.456886 0.340475 0.639094
0.647318 0.338689 0.59855
0.798108 0.293751 0.512367
0.913146 0.238193 0.410956
1 0.196796 0.332265
0.102159 0.35169 0.595804
0.140887 0.358877 0.598886
0.194446 0.369329 0.605753
0.29305 0.38732 0.608972
0.448203 0.413672 0.617197
0.651164 0.406195 0.57734
0.818235 0.368566 0.494881
0.953567 0.330037 0.40827
1 0.341207 0.391287
0.22475 0.487511 0.589014
0.255375 0.495964 0.597879
0.301564 0.507912 0.609598
0.373419 0.517296 0.617563
0.500038 0.538445 0.602899
0.667262 0.541848 0.607095
0.819471 0.546532 0.574685
0.951614 0.554116 0.551156
1 0.568002 0.546365
0.277409 0.65095 0.646967
0.308217 0.662974 0.660685
0.353674 0.675746 0.674647
0.421042 0.683299 0.681315
0.563622 0.683009 0.680919
0.644404 0.706706 0.734508
0.797162 0.713817 0.706859
0.940398 0.718791 0.681559
1 0.730648 0.674922
0.331853 0.806714 0.720836
0.359854 0.817304 0.733227
0.403922 0.827985 0.744976
0.470558 0.833234 0.749401
0.561913 0.840848 0.756954
0.667918 0.853666 0.793301
0.775067 0.86981 0.846448
0.914702 0.879805 0.821683
1 0.889433 0.808316
0.383871 0.954345 0.799908
0.411704 0.96434 0.811368
0.457389 0.972152 0.820462
0.524254 0.974578 0.822644
0.612299 0.978271 0.827634
0.709789 0.986862 0.854109
0.810132 0.998001 0.895552
0.896147 1 0.941375
1 1 0.918303
0.435492 1 0.881239
0.464286 1 0.889372
0.510918 1 0.893919
0.576791 1 0.89131
0.658106 1 0.892348
0.749615 1 0.910796
0.847135 1 0.939406
0.924971 1 0.975311
0.986023 1 1
0 0.225147 0.782437
0 0.188067 0.804105
0.018967 0.149767 0.838193
0.21648 0.177539 0.899992
0.478477 0.298589 0.897856
0.650828 0.366552 0.869474
0.773297 0.375372 0.822217
0.867964 0.362737 0.766659
0.952087 0.325963 0.705394
0 0.249958 0.777722
0.0235294 0.258045 0.775906
0.0767224 0.229374 0.805295
0.200381 0.211307 0.860227
0.437797 0.309651 0.848112
0.612909 0.370809 0.819654
0.751263 0.380865 0.783307
0.865049 0.370993 0.741024
0.962493 0.347478 0.701076
0 0.286732 0.749828
0.0485237 0.299596 0.749783
0.141283 0.321111 0.750866
0.221241 0.293767 0.818143
0.4206 0.353185 0.81355
0.597879 0.410849 0.795224
0.750546 0.42562 0.777966
0.879515 0.423896 0.752499
0.988251 0.414115 0.730007
0.0583658 0.368032 0.728267
0.1066 0.377813 0.73164
0.168658 0.392538 0.738979
0.273487 0.414588 0.741451
0.413901 0.427466 0.791806
0.588769 0.479271 0.774823
0.751934 0.494224 0.767651
0.894438 0.494774 0.749218
1 0.492424 0.734508
0.177295 0.498177 0.733562
0.210941 0.510124 0.743358
0.259709 0.524346 0.755123
0.337926 0.536721 0.764767
0.457267 0.55967 0.774624
0.610437 0.586328 0.78555
0.776776 0.590936 0.769909
0.929 0.585397 0.743526
1 0.584772 0.728237
0.318746 0.652659 0.760388
0.349569 0.664134 0.772732
0.393484 0.675212 0.784192
0.4598 0.680995 0.789364
0.54963 0.691142 0.799039
0.654688 0.711666 0.815259
0.805615 0.717769 0.803693
0.942016 0.727062 0.791165
1 0.742321 0.793225
0.378119 0.802853 0.827741
0.405371 0.813321 0.839353
0.448417 0.823285 0.850278
0.511879 0.827604 0.854231
0.594018 0.835828 0.859586
0.685206 0.853681 0.875166
0.787762 0.870466 0.922362
0.923812 0.880446 0.904402
1 0.892393 0.900893
0.43154 0.948791 0.904021
0.458915 0.958328 0.915511
0.501213 0.965652 0.923583
0.563592 0.967285 0.924575
0.639719 0.972534 0.926253
0.724483 0.985214 0.936843
0.817807 0.998306 0.972168
0.905837 1 1
1 1 1
0.48188 1 0.984421
0.508934 1 0.992416
0.552316 1 0.996139
0.612207 1 0.99234
0.681544 1 0.988663
0.761975 1 0.992767
0.846754 1 1
0.927764 1 1
0.994492 1 1
0 0.267231 0.897444
0 0.229236 0.916976
0.00579843 0.186007 0.944671
0.154604 0.161852 1
0.430411 0.289693 1
0.618738 0.377172 1
0.732189 0.422324 0.974868
0.827741 0.433631 0.936385
0.910582 0.434821 0.905852
0 0.287022 0.880796
0.0128634 0.291905 0.880659
0.0609293 0.263584 0.908278
0.151797 0.216602 0.970169
0.384054 0.29987 0.99379
0.579568 0.382391 0.965331
0.711223 0.432456 0.943282
0.825772 0.446448 0.921614
0.918135 0.458518 0.906188
0 0.317601 0.856184
0.0336461 0.330709 0.856718
0.131014 0.354101 0.86041
0.200504 0.323674 0.92462
0.374243 0.349874 0.966735
0.570382 0.425864 0.943389
0.710872 0.478584 0.936355
0.836652 0.494881 0.930236
0.933257 0.512642 0.924651
0.0287022 0.388678 0.83653
0.0838178 0.401312 0.841993
0.15288 0.419577 0.850752
0.261219 0.443793 0.854368
0.374136 0.433829 0.945251
0.56556 0.495933 0.924392
0.707515 0.546334 0.921721
0.840101 0.561135 0.925765
0.940749 0.581231 0.924636
0.1393 0.511818 0.851682
0.176318 0.526238 0.862287
0.229252 0.542718 0.875166
0.314351 0.557427 0.884916
0.440406 0.581827 0.891035
0.585885 0.600092 0.934966
0.718898 0.638285 0.923827
0.855055 0.651179 0.927947
0.965576 0.667948 0.92903
0.279377 0.665568 0.889296
0.31104 0.677882 0.901305
0.357183 0.690166 0.913481
0.426291 0.696895 0.919478
0.520272 0.706981 0.929183
0.633463 0.726558 0.940871
0.755077 0.750332 0.953475
0.897322 0.759518 0.950576
1 0.770199 0.946365
0.413535 0.804578 0.928222
0.440787 0.814923 0.939315
0.482795 0.824414 0.949111
0.545022 0.828077 0.952361
0.624323 0.834684 0.957595
0.711742 0.850828 0.973327
0.802441 0.875319 0.998123
0.933394 0.884657 0.991684
1 0.897017 0.989487
0.469474 0.948104 1
0.495354 0.957137 1
0.536675 0.964034 1
0.596994 0.964446 1
0.669947 0.968551 1
0.750301 0.980179 1
0.834424 0.998276 1
0.918273 1 1
1 1 1
0.519631 1 1
0.545556 1 1
0.586862 1 1
0.643336 1 1
0.71014 1 1
0.784909 1 1
0.863264 1 1
0.93843 1 1
1 1 1
0 0.300069 0.990005
0 0.261067 1
0 0.214359 1
0.107927 0.158648 1
0.379904 0.276051 1
0.584955 0.371496 1
0.708644 0.432166 1
0.79585 0.463966 1
0.879576 0.476417 1
0 0.314168 0.95935
0.00508125 0.315923 0.957855
0.0481575 0.28838 0.983795
0.135409 0.242954 1
0.333562 0.287648 1
0.546395 0.37879 1
0.689799 0.44445 1
0.793439 0.484642 1
0.885725 0.501915 1
0 0.339727 0.933196
0.0240635 0.353002 0.933867
0.123125 0.377386 0.939666
0.187472 0.346716 1
0.330739 0.343832 1
0.54493 0.428 1
0.693309 0.493614 1
0.802838 0.534905 1
0.898726 0.553338 1
0.0135653 0.407507 0.918578
0.0689097 0.422202 0.926452
0.143618 0.442252 0.937453
0.254719 0.469337 0.943328
0.355962 0.454536 1
0.54374 0.5028 1
0.692287 0.561898 1
0.802258 0.601221 1
0.90248 0.6215 1
0.115099 0.527626 0.944793
0.155261 0.543008 0.957488
0.212345 0.561715 0.97174
0.301701 0.577844 0.981003
0.431495 0.603494 0.986893
0.56434 0.609979 1
0.704051 0.652506 1
0.816022 0.687602 1
0.919738 0.710292 1
0.248478 0.679316 0.995285
0.281117 0.691539 1
0.329717 0.704265 1
0.402594 0.711833 1
0.502419 0.721828 1
0.621973 0.742046 1
0.739269 0.762798 1
0.848997 0.7944 1
0.9552 0.81297 1
0.384054 0.817075 1
0.411643 0.827649 1
0.456352 0.837736 1
0.521218 0.842084 1
0.603815 0.848447 1
0.692699 0.864881 1
0.788312 0.888884 1
0.890944 0.909911 1
1 0.919707 1
0.497627 0.951736 1
0.522423 0.96051 1
0.563897 0.966583 1
0.622171 0.966873 1
0.691524 0.969528 1
0.772412 0.97937 1
0.855726 0.99559 1
0.929244 1 1
1 1 1
0.539605 1 1
0.564446 1 1
0.604898 1 1
0.660075 1 1
0.729152 1 1
0.807095 1 1
0.883787 1 1
0.95198 1 1
1 1 1
0 0.329244 1
0 0.289784 1
0 0.240742 1
0.0888075 0.187579 1
0.3252 0.25922 1
0.546044 0.360784 1
0.685969 0.4309 1
0.778729 0.473976 1
0.855146 0.500542 1
0 0.337774 1
0 0.336233 1
0.0356451 0.309148 1
0.119524 0.265476 1
0.283604 0.274189 1
0.513558 0.371908 1
0.671748 0.446357 1
0.779049 0.496941 1
0.862257 0.527321 1
0 0.358373 0.999741
0.0165713 0.371237 0.999588
0.115465 0.395895 1
0.178012 0.36585 1
0.300542 0.345968 1
0.520623 0.427115 1
0.680613 0.498848 1
0.790768 0.548043 1
0.875166 0.578759 1
0.00529488 0.424048 0.985473
0.0582742 0.439063 0.993591
0.138247 0.461448 1
0.250874 0.489723 1
0.347494 0.47361 1
0.525567 0.508049 1
0.682734 0.570367 1
0.792432 0.614984 1
0.881117 0.646754 1
0.101305 0.542138 1
0.143465 0.558755 1
0.203906 0.578408 1
0.296712 0.595956 1
0.428229 0.621485 1
0.547585 0.618067 1
0.695781 0.661295 1
0.80795 0.701839 1
0.898573 0.734279 1
0.230747 0.691875 1
0.263935 0.704234 1
0.315602 0.717769 1
0.391485 0.725414 1
0.494499 0.735607 1
0.617884 0.75668 1
0.730236 0.773175 1
0.840223 0.808026 1
0.928115 0.838087 1
0.363363 0.829862 1
0.392462 0.840604 1
0.438148 0.850767 1
0.505943 0.855192 1
0.591653 0.861646 1
0.684108 0.877791 1
0.7823 0.901793 1
0.880064 0.920775 1
0.964446 0.945708 1
0.481346 0.963531 1
0.506935 0.972229 1
0.549157 0.978103 1
0.609506 0.97792 1
0.68043 0.98088 1
0.760388 0.990921 1
0.841779 1 1
0.918898 1 1
0.995407 1 1
0.564202 1 1
0.588922 1 1
0.628153 1 1
0.680674 1 1
0.746853 1 1
0.822675 1 1
0.899229 1 1
0.967605 1 1
1 1 1
