site/assets/luts/freshluts--0001164-thats-one-lut.cube
# LUTr-Schema-Version: 2
# LUTr-ID: freshluts--0001164-thats-one-lut
# LUTr-Title: That's one LUT
# LUTr-Collection: Fresh LUTs
# LUTr-Collection-ID: freshluts-community
# LUTr-Source: https://freshluts.com
# LUTr-Retrieved: 2026-07-27
# LUTr-Source-File: submissions-raw/freshluts/cubes/1164__Cool_red_lut_1.C0036.cube
# LUTr-Source-Format: CUBE
# LUTr-Source-SHA256: dadc727a247af454d2a3cd515dbcd746ad967287c373ad1e0db9889da5ac444e
# LUTr-License: CC0-1.0
# LUTr-License-URL: https://freshluts.com/termsandconditions
# LUTr-License-Basis: site-terms
# LUTr-Transform-Class: creative-look
# LUTr-Tags: creative, freshluts, community, cube, red, sony-s-log3
# LUTr-Input-Color-Space: sony-slog3-sgamut3
# LUTr-Input-Gamut: sony-s-gamut3
# LUTr-Input-Transfer: sony-s-log3
# LUTr-Output-Color-Space: srgb
# LUTr-Output-Gamut: rec709
# LUTr-Output-Transfer: srgb
# LUTr-Color-Space-Confidence: inferred-from-source-label
# LUTr-Domain-Normalized: true
# LUTr-Shaper: none
# LUTr-Original-Grid: 33x33x33
# LUTr-Conversion-Grid: 33x33x33
# LUTr-Conversion-Interpolation: none
# LUTr-Conversion-Method: Metadata normalization; numeric LUT samples preserved
# LUTr-Conversion-Tool: LUTr scripts/convert-all-to-cube.mjs 2.0.0
# LUTr-Conversion-Date: 2026-07-28
# LUTr-Asset-URL: https://freshluts.com/luts/1164
# LUTr-Author: lvannoeun@gmail.com
# LUTr-Author-URL: https://freshluts.com/users/57563
# LUTr-Attribution: lvannoeun@gmail.com via Fresh LUTs
# LUTr-Source-Labels: gamma=Sony S-Log 3; color=Red; key=Neutral; style=cine drama
# LUTr-Note: Preserve this metadata and the upstream license notices when redistributing.
TITLE "That's one LUT"
LUT_3D_SIZE 5
DOMAIN_MIN 0 0 0
DOMAIN_MAX 1 1 1
0 0.00976577 0.109941
0.315618 0 0.106126
0.704433 0 0.01738
1 0 0
1 0 0
0 0.229191 0.0386053
0.175113 0.201007 0.0711986
0.530266 0.182803 0
0.946822 0.136324 0
1 0.106386 0
0 0.45185 0.00134279
0.210269 0.442161 0.0424811
0.403159 0.470253 0
0.668589 0.471168 0
0.958587 0.465919 0
0.0623484 0.669993 0.0638743
0.282841 0.679072 0.0859541
0.544274 0.671992 0.146334
0.638224 0.736538 0
0.836255 0.746502 0.0112764
0.149447 0.898558 0.106371
0.38555 0.893629 0.164935
0.638453 0.879728 0.231861
0.823972 0.893446 0.189746
0.849149 0.962478 0.0383459
0 0 0.487526
0.270848 0 0.58497
0.699168 0 0.45275
1 0 0.354589
1 0 0.308125
0 0.218387 0.325978
0.103014 0.210712 0.323384
0.57879 0.139696 0.316838
0.933684 0.115557 0.242985
1 0.0854963 0.205829
0 0.47892 0.261845
0.0545205 0.485832 0.239536
0.416815 0.450874 0.280934
0.707774 0.456138 0.129824
1 0.424323 0.0443885
0 0.711589 0.242634
0.14725 0.721935 0.231159
0.470298 0.698573 0.267582
0.659403 0.725795 0.178973
0.847196 0.743206 0.160067
0.0206302 0.936324 0.26717
0.28014 0.925277 0.305928
0.548775 0.910842 0.320119
0.789654 0.897383 0.372824
0.854551 0.95613 0.198047
0 0 0.81976
0.20061 0 0.957916
0.622965 0 0.923201
1 0 0.854765
1 0 0.808743
0 0.198535 0.663432
0.0742504 0.186755 0.765515
0.512917 0.115908 0.88159
0.914473 0.0849775 0.747921
1 0.0567483 0.708446
0 0.456657 0.57116
0.0316625 0.47219 0.591959
0.324498 0.462181 0.587579
0.784237 0.400458 0.606012
1 0.375387 0.542641
0 0.711849 0.546319
0.0120699 0.745159 0.547875
0.276677 0.746273 0.508949
0.642542 0.708598 0.534142
0.851713 0.726299 0.437827
0 0.958312 0.557137
0.116564 0.961212 0.550958
0.364996 0.958175 0.500374
0.687114 0.922713 0.521248
0.885985 0.926131 0.492714
0 0 1
0.171405 0 1
0.597528 0 1
1 0 1
1 0 1
0 0.178546 0.999954
0.0691386 0.165087 1
0.45388 0.106737 1
0.890852 0.0552071 1
1 0.0263371 1
0 0.435401 0.836332
0.0394141 0.453239 0.904601
0.298146 0.441047 1
0.71989 0.378119 1
1 0.348501 1
0 0.699397 0.82005
0.0426795 0.720913 0.843732
0.26598 0.728161 0.859403
0.545693 0.717998 0.855802
0.889952 0.67866 0.915053
0 0.948379 0.845029
0.0765698 0.954818 0.845762
0.256229 0.967193 0.833524
0.496559 0.960922 0.796582
0.796155 0.93228 0.782803
0 0 1
0.152422 0 1
0.574182 0 1
0.999329 0 1
1 0 1
0 0.164492 1
0.0554818 0.147158 1
0.436072 0.0896468 1
0.877531 0.0320745 1
1 0.00334173 1
0 0.434333 1
0.0250706 0.444343 1
0.301595 0.427283 1
0.676997 0.375097 1
1 0.33994 1
0 0.69366 1
0.0674144 0.707347 1
0.275059 0.714488 1
0.522133 0.70312 1
0.847913 0.658839 1
0 0.938216 1
0.0780652 0.944152 1
0.281758 0.946502 1
0.500694 0.941573 1
0.729732 0.932311 1
