site/assets/luts/freshluts--0000344-strangest-things-2.cube
# LUTr-Schema-Version: 2
# LUTr-ID: freshluts--0000344-strangest-things-2
# LUTr-Title: STRANGEST THINGS 2
# LUTr-Collection: Fresh LUTs
# LUTr-Collection-ID: freshluts-community
# LUTr-Source: https://freshluts.com
# LUTr-Retrieved: 2026-07-27
# LUTr-Source-File: submissions-raw/freshluts/cubes/344__STRANGEST_THINGS_2.cube
# LUTr-Source-Format: CUBE
# LUTr-Source-SHA256: 3b13586eeba16d0d92a00613f5d56718b6037ae1ac48a0970e176913b853eab5
# LUTr-License: CC0-1.0
# LUTr-License-URL: https://freshluts.com/termsandconditions
# LUTr-License-Basis: site-terms
# LUTr-Transform-Class: creative-look
# LUTr-Tags: creative, freshluts, community, cube, warm
# LUTr-Input-Color-Space:
# LUTr-Input-Gamut: unspecified
# LUTr-Input-Transfer: unspecified
# LUTr-Output-Color-Space: srgb
# LUTr-Output-Gamut: rec709
# LUTr-Output-Transfer: srgb
# LUTr-Color-Space-Confidence: camera-profile-input-required
# LUTr-Domain-Normalized: true
# LUTr-Shaper: none
# LUTr-Original-Grid: 32x32x32
# LUTr-Conversion-Grid: 32x32x32
# LUTr-Conversion-Interpolation: none
# LUTr-Conversion-Method: Metadata normalization; numeric LUT samples preserved
# LUTr-Conversion-Tool: LUTr scripts/convert-all-to-cube.mjs 2.0.0
# LUTr-Conversion-Date: 2026-07-28
# LUTr-Asset-URL: https://freshluts.com/luts/344
# LUTr-Author: I WANT TO MAKE A FILM PODCAST
# LUTr-Author-URL: https://freshluts.com/users/15633
# LUTr-Attribution: I WANT TO MAKE A FILM PODCAST via Fresh LUTs
# LUTr-Source-Labels: gamma=Other; color=Warm; key=Neutral; style=Hipster
# LUTr-Note: Preserve this metadata and the upstream license notices when redistributing.
# LUTr-Upstream-Comment: Created by: Adobe Photoshop Export Color Lookup Plugin
# LUTr-Upstream-Comment: LUT size
# LUTr-Upstream-Comment: data domain
# LUTr-Upstream-Comment: LUT data points
TITLE "STRANGEST THINGS 2"
LUT_3D_SIZE 8
DOMAIN_MIN 0.000000 0.000000 0.000000
DOMAIN_MAX 0.903226 0.903226 0.903226
0 0 0
0.028992 0.008301 0.007019
0.091736 0.014496 0.012848
0.187164 0.023163 0.020782
0.302917 0.032867 0.029755
0.422058 0.042206 0.038513
0.537018 0.050873 0.046661
0.642578 0.058868 0.054199
0.006805 0.024933 0.008179
0.037537 0.032074 0.014954
0.099731 0.038666 0.02121
0.197449 0.046021 0.030548
0.316711 0.053558 0.042419
0.441315 0.059967 0.055267
0.556458 0.068512 0.063385
0.661407 0.076508 0.070984
0.017181 0.076202 0.019104
0.04776 0.08371 0.026062
0.111664 0.0896 0.032593
0.209198 0.097412 0.041718
0.328949 0.105164 0.053284
0.453583 0.111938 0.065674
0.574829 0.116547 0.079254
0.685638 0.120361 0.092865
0.029633 0.154327 0.029907
0.060913 0.161835 0.036896
0.124115 0.168549 0.04364
0.221375 0.177094 0.052551
0.339935 0.186157 0.062866
0.463135 0.194305 0.073578
0.580719 0.201263 0.084167
0.687836 0.207458 0.094666
0.046417 0.245148 0.041473
0.078766 0.252594 0.048492
0.140289 0.260681 0.056244
0.236938 0.270233 0.065582
0.355438 0.280029 0.075714
0.478302 0.289062 0.085815
0.594116 0.297119 0.095398
0.699615 0.304321 0.104858
0.065247 0.33197 0.051483
0.097351 0.339996 0.058807
0.156464 0.349945 0.067932
0.25238 0.360443 0.077789
0.370972 0.370911 0.088104
0.493958 0.380524 0.098175
0.608704 0.389221 0.107452
0.713013 0.396973 0.116455
0.08255 0.401886 0.058624
0.113098 0.411133 0.066803
0.17041 0.422485 0.076996
0.265564 0.433807 0.087524
0.383881 0.445007 0.098083
0.506927 0.45517 0.108154
0.62085 0.464142 0.117432
0.724304 0.472382 0.126221
0.096313 0.457581 0.064117
0.126434 0.467285 0.072754
0.181793 0.47995 0.083984
0.276031 0.492279 0.095093
0.394287 0.503906 0.105896
0.517303 0.514313 0.116028
0.630402 0.52356 0.125275
0.733582 0.531799 0.134064
0.00119 0.001709 0.013428
0.031128 0.00943 0.020508
0.093536 0.0159 0.026093
0.188904 0.024628 0.033752
0.304565 0.034485 0.04248
0.423981 0.043945 0.05069
0.539001 0.052673 0.058044
0.644592 0.060791 0.065063
0.008301 0.026428 0.020874
0.03891 0.03363 0.028442
0.101837 0.039886 0.034393
0.199005 0.047516 0.043762
0.31842 0.055176 0.055298
0.443268 0.061584 0.067505
0.558441 0.070282 0.074921
0.663483 0.07843 0.081665
0.018799 0.077698 0.031677
0.049347 0.085266 0.038879
0.11377 0.09082 0.045624
0.211273 0.098816 0.054504
0.33075 0.106842 0.065643
0.455475 0.113647 0.07782
0.576813 0.118347 0.090729
0.687683 0.122284 0.103394
0.030701 0.156342 0.041687
0.063263 0.163116 0.048798
0.125824 0.170288 0.055573
0.22348 0.17868 0.064178
0.341858 0.187988 0.074005
0.465485 0.196136 0.08429
0.583099 0.203156 0.094666
0.690186 0.209473 0.104156
0.048309 0.247131 0.051178
0.080688 0.254639 0.058167
0.142334 0.262726 0.065948
0.238983 0.272308 0.075134
0.357635 0.282196 0.084869
0.480682 0.29129 0.094879
0.59668 0.2995 0.103394
0.702087 0.306671 0.112274
0.067505 0.334412 0.058197
0.099274 0.342743 0.065552
0.158813 0.352478 0.074707
0.254913 0.363007 0.08429
0.373688 0.373566 0.09433
0.496887 0.38324 0.10379
0.611572 0.391998 0.112366
0.715942 0.399933 0.120483
0.084656 0.405121 0.062317
0.115753 0.414154 0.070404
0.173187 0.425507 0.080261
0.268677 0.436798 0.090881
0.386993 0.448151 0.101105
0.510193 0.458313 0.110962
0.623993 0.467285 0.120239
0.727386 0.475555 0.129028
0.099762 0.460327 0.06662
0.129242 0.470398 0.075531
0.185089 0.483002 0.086639
0.279236 0.495361 0.097809
0.397461 0.507111 0.108704
0.52063 0.517517 0.118866
0.633698 0.526703 0.128143
0.736542 0.535004 0.136902
0.003021 0.003326 0.032043
0.033356 0.010925 0.038696
0.095184 0.017731 0.044617
0.190613 0.026489 0.052765
0.306488 0.036194 0.061493
0.425903 0.045715 0.069733
0.541016 0.054413 0.077271
0.646576 0.062622 0.083984
0.010437 0.027832 0.039673
0.040466 0.035522 0.046967
0.103912 0.041382 0.053375
0.201141 0.049164 0.062469
0.320587 0.056854 0.074127
0.445282 0.063385 0.08667
0.560425 0.072083 0.093842
0.665314 0.080231 0.101013
0.020142 0.079529 0.050629
0.051605 0.086578 0.057678
0.115326 0.092651 0.064606
0.213287 0.100372 0.073639
0.332825 0.108429 0.084961
0.457764 0.115356 0.096893
0.578522 0.120392 0.109436
0.689819 0.123932 0.122681
0.032806 0.157745 0.060486
0.064819 0.164978 0.067505
0.12793 0.171844 0.074249
0.225128 0.180481 0.083374
0.343903 0.189667 0.093353
0.467377 0.197906 0.103668
0.584778 0.20517 0.113464
0.692108 0.211334 0.123291
0.050476 0.248566 0.07016
0.082886 0.256073 0.077179
0.14389 0.264557 0.085266
0.240784 0.274139 0.094299
0.35968 0.283966 0.104309
0.48288 0.293091 0.114014
0.598663 0.301239 0.122925
0.704071 0.308563 0.131561
0.069 0.336334 0.077484
0.10141 0.344269 0.084595
0.160919 0.354156 0.093597
0.256836 0.364777 0.103668
0.375702 0.375336 0.1138
0.498962 0.385071 0.123291
0.613556 0.393829 0.132019
0.717834 0.401733 0.140137
0.087067 0.406647 0.080902
0.117828 0.415741 0.089508
0.17514 0.427246 0.099548
0.270538 0.438721 0.109955
0.389099 0.450012 0.120209
0.512421 0.460266 0.129791
0.626068 0.469421 0.138336
0.729553 0.477661 0.146698
0.102203 0.462189 0.083344
0.131348 0.472626 0.092407
0.187042 0.48526 0.103394
0.281647 0.49762 0.114227
0.399963 0.509399 0.124878
0.523224 0.519836 0.134796
0.6362 0.529083 0.143463
0.739166 0.537598 0.151306
0.005463 0.004333 0.069763
0.035583 0.012054 0.076965
0.097351 0.019012 0.08316
0.192566 0.027954 0.091248
0.308441 0.03775 0.100281
0.427826 0.047241 0.108887
0.542847 0.055908 0.11673
0.648254 0.064026 0.124176
0.01297 0.028717 0.078125
0.043213 0.036346 0.085388
0.105713 0.042877 0.091858
0.202789 0.05072 0.101532
0.32312 0.057861 0.114105
0.447144 0.06485 0.126099
0.562225 0.073547 0.133942
0.667023 0.081635 0.141144
0.022705 0.080383 0.089142
0.054504 0.087402 0.096008
0.117645 0.093811 0.103271
0.214996 0.101898 0.11261
0.334076 0.110291 0.123779
0.459808 0.116699 0.136719
0.581055 0.121368 0.150177
0.69165 0.125275 0.163391
0.036011 0.158264 0.099213
0.067688 0.165771 0.106232
0.1297 0.173248 0.113617
0.227112 0.181854 0.122864
0.345825 0.191071 0.133209
0.469299 0.19931 0.14386
0.586823 0.20639 0.154266
0.693787 0.212677 0.164581
0.053131 0.24939 0.109467
0.085571 0.256927 0.116669
0.146027 0.265717 0.125153
0.242676 0.275452 0.134583
0.361328 0.2854 0.144867
0.48468 0.294434 0.154877
0.600342 0.302612 0.164185
0.705658 0.309906 0.173248
0.072327 0.33667 0.117462
0.103638 0.345215 0.125366
0.162872 0.355225 0.134857
0.258636 0.365997 0.144928
0.377197 0.376648 0.155304
0.500549 0.386444 0.165131
0.615143 0.395111 0.174225
0.719116 0.403168 0.182648
0.089142 0.407379 0.122803
0.120026 0.416504 0.131073
0.177063 0.428192 0.141479
0.271942 0.439911 0.152466
0.390503 0.451263 0.163177
0.513824 0.461517 0.173065
0.627472 0.470581 0.182098
0.730896 0.478912 0.190308
0.103851 0.463135 0.125732
0.133179 0.473419 0.134979
0.188812 0.486176 0.14621
0.282959 0.498749 0.157806
0.401428 0.510468 0.168701
0.524536 0.521057 0.178497
0.637451 0.530243 0.187469
0.740356 0.538727 0.195618
0.010193 0.005463 0.131744
0.040527 0.013275 0.138885
0.101288 0.020844 0.145996
0.195862 0.03006 0.154846
0.311523 0.039978 0.164337
0.430908 0.04953 0.173462
0.545868 0.058197 0.181732
0.651093 0.066345 0.189331
0.017365 0.029907 0.140442
0.048828 0.036987 0.147797
0.110535 0.044067 0.155518
0.20697 0.052277 0.16571
0.326202 0.060181 0.178223
0.450317 0.0672 0.190826
0.565277 0.075836 0.199127
0.66983 0.083984 0.206787
0.028778 0.080658 0.151825
0.060028 0.088165 0.158997
0.121887 0.095337 0.166992
0.218628 0.103821 0.177216
0.338379 0.111786 0.189453
0.463379 0.118713 0.202393
0.583862 0.123718 0.216003
0.694824 0.127258 0.230377
0.040771 0.159424 0.162354
0.072906 0.166656 0.169678
0.134186 0.174652 0.177917
0.230865 0.183685 0.187866
0.349152 0.193207 0.19873
0.472626 0.201477 0.209869
0.589661 0.20871 0.220612
0.696686 0.214813 0.231415
0.05835 0.250244 0.173584
0.090485 0.257935 0.181061
0.149963 0.267365 0.190155
0.246033 0.277435 0.200287
0.364716 0.287476 0.211121
0.487793 0.2966 0.221771
0.603241 0.304779 0.231598
0.708374 0.312042 0.241211
0.076813 0.337738 0.182831
0.108521 0.346161 0.190979
0.166199 0.356995 0.201263
0.261841 0.36795 0.211914
0.38028 0.378723 0.222839
0.503632 0.388458 0.233246
0.617859 0.397247 0.243011
0.721832 0.405121 0.252106
0.094513 0.407867 0.188934
0.12439 0.417603 0.198029
0.180756 0.429535 0.209442
0.275238 0.441681 0.220856
0.393494 0.453125 0.231995
0.516693 0.463409 0.242401
0.630035 0.472595 0.251862
0.733246 0.480896 0.260925
0.10849 0.463898 0.193542
0.136902 0.474609 0.203308
0.192474 0.487427 0.215332
0.286102 0.500336 0.227325
0.404175 0.512299 0.238831
0.527191 0.522797 0.249481
0.639862 0.532104 0.258789
0.742554 0.540436 0.267792
0.020905 0.005157 0.225464
0.051788 0.013062 0.233032
0.109192 0.022522 0.242279
0.202118 0.032776 0.252411
0.316986 0.043182 0.262787
0.436127 0.052826 0.272552
0.550842 0.061615 0.281372
0.655762 0.069763 0.28952
0.030029 0.028473 0.235413
0.061249 0.03598 0.2435
0.11908 0.045197 0.253326
0.21402 0.054291 0.264893
0.332642 0.062622 0.278259
0.455627 0.070465 0.290619
0.570282 0.079193 0.299408
0.67453 0.087402 0.307739
0.04071 0.079803 0.24704
0.071533 0.087677 0.254913
0.13031 0.096588 0.265106
0.225861 0.105713 0.276642
0.344788 0.114288 0.289856
0.470032 0.121124 0.303864
0.590179 0.126282 0.318237
0.700409 0.130035 0.33313
0.052368 0.158844 0.257874
0.084534 0.16629 0.265839
0.142639 0.175964 0.276093
0.237335 0.186127 0.287384
0.355347 0.195862 0.299225
0.478394 0.204529 0.310944
0.595245 0.211639 0.32254
0.701935 0.217865 0.334015
0.07016 0.249664 0.269501
0.100922 0.25824 0.278198
0.157837 0.269104 0.289185
0.252563 0.279877 0.30069
0.370392 0.290405 0.312317
0.493317 0.299805 0.323547
0.608307 0.308044 0.333984
0.713196 0.315399 0.344208
0.089203 0.336884 0.279602
0.118286 0.34671 0.289215
0.174194 0.358673 0.301147
0.268066 0.370605 0.313141
0.386017 0.381714 0.32489
0.508972 0.391693 0.336121
0.622772 0.400635 0.346161
0.72641 0.408539 0.355927
0.105194 0.407898 0.287292
0.133514 0.418488 0.297577
0.188202 0.431488 0.310211
0.281311 0.444305 0.322937
0.399017 0.456238 0.334991
0.521912 0.466675 0.346069
0.634735 0.475952 0.35611
0.737762 0.484283 0.365631
0.118378 0.464172 0.292999
0.146118 0.475372 0.30368
0.199707 0.489349 0.317108
0.292053 0.50296 0.330322
0.409729 0.515198 0.342651
0.53244 0.52597 0.353882
0.644531 0.535309 0.364014
0.747009 0.543671 0.373474
0.043396 0.000519 0.352234
0.07016 0.011169 0.36264
0.12265 0.023499 0.375275
0.212524 0.035461 0.387787
0.325836 0.046783 0.399658
0.444336 0.056854 0.410339
0.558441 0.065857 0.419891
0.662628 0.074127 0.428711
0.054138 0.022858 0.365601
0.082428 0.032166 0.376251
0.135956 0.043793 0.38974
0.227448 0.05484 0.4039
0.344177 0.064453 0.418518
0.463806 0.074493 0.429352
0.577789 0.083496 0.438934
0.681427 0.091736 0.447754
0.065338 0.074249 0.377258
0.093109 0.083984 0.387756
0.14624 0.095947 0.401337
0.23819 0.107086 0.415436
0.356232 0.116241 0.430481
0.481445 0.123199 0.446167
0.600525 0.128632 0.461548
0.710388 0.132385 0.477661
0.07666 0.15387 0.387695
0.103668 0.164215 0.39856
0.157501 0.176117 0.411926
0.248993 0.18808 0.425598
0.365479 0.19873 0.439148
0.487915 0.207825 0.452026
0.604034 0.215179 0.464508
0.7099 0.221588 0.476715
0.092926 0.245575 0.400299
0.119659 0.25647 0.411591
0.172241 0.269653 0.425476
0.26355 0.282318 0.439301
0.38031 0.293549 0.452637
0.502411 0.303467 0.464813
0.616455 0.311951 0.476135
0.720642 0.319427 0.48703
0.109833 0.333954 0.411926
0.136078 0.34549 0.423645
0.188171 0.359436 0.438202
0.278992 0.373047 0.452545
0.395294 0.385193 0.465912
0.517761 0.395599 0.478058
0.630524 0.404694 0.488983
0.733704 0.412781 0.49942
0.124451 0.405762 0.420959
0.150513 0.417633 0.433014
0.201904 0.432465 0.44812
0.292114 0.44693 0.463104
0.408447 0.459595 0.476654
0.530487 0.470673 0.4888
0.642426 0.480164 0.499695
0.744812 0.488678 0.509827
0.136658 0.462555 0.427734
0.162445 0.474945 0.440033
0.213165 0.490417 0.455627
0.302826 0.505676 0.47113
0.419037 0.518799 0.484985
0.54071 0.529938 0.497223
0.651978 0.53952 0.508057
0.753998 0.548004 0.518188
0.07132 0.000031 0.473663
0.095551 0.007111 0.516266
0.142761 0.022522 0.532471
0.227753 0.037079 0.548004
0.338257 0.049896 0.561646
0.455597 0.060791 0.573212
0.568573 0.07019 0.58316
0.671783 0.078735 0.592133
0.087646 0.013245 0.522552
0.111938 0.025208 0.535309
0.159302 0.040436 0.551575
0.245056 0.054932 0.567017
0.356873 0.067535 0.580444
0.475128 0.0784 0.591919
0.587799 0.087769 0.601776
0.69046 0.096344 0.610718
0.0979 0.065826 0.534058
0.122345 0.077393 0.54715
0.170624 0.092072 0.563446
0.257996 0.105743 0.580444
0.373779 0.116211 0.597137
0.497894 0.123932 0.61322
0.615356 0.129822 0.628357
0.724274 0.133759 0.644196
0.106873 0.147156 0.542603
0.131226 0.158966 0.555542
0.17926 0.174103 0.571838
0.266144 0.188538 0.588043
0.38031 0.20047 0.602905
0.501617 0.210297 0.616272
0.616211 0.218018 0.628815
0.721161 0.224609 0.640808
0.121307 0.240112 0.555176
0.145508 0.25235 0.568146
0.193756 0.267883 0.584564
0.280304 0.283142 0.60083
0.394012 0.296082 0.615143
0.515045 0.306671 0.627716
0.627594 0.315643 0.638977
0.730804 0.323334 0.649628
0.137177 0.329102 0.567291
0.161224 0.341827 0.580414
0.209106 0.358124 0.597046
0.29541 0.374237 0.613495
0.408966 0.38797 0.627716
0.529846 0.399139 0.640076
0.641205 0.408691 0.650909
0.743408 0.417084 0.66098
0.150574 0.401489 0.576935
0.174622 0.414612 0.589996
0.222137 0.431549 0.606873
0.308167 0.448395 0.623535
0.421967 0.462555 0.63797
0.542297 0.474365 0.650146
0.652893 0.484283 0.660919
0.754303 0.493164 0.670746
0.161987 0.458801 0.584137
0.186035 0.472107 0.59729
0.233246 0.489624 0.614349
0.318817 0.507172 0.631378
0.432251 0.521851 0.645935
0.552368 0.533722 0.658173
0.662231 0.543701 0.668823
0.763275 0.552429 0.678528
