site/assets/luts/freshluts--0002287-natural-cinematic-slog2-sgamut.cube
# LUTr-Schema-Version: 2
# LUTr-ID: freshluts--0002287-natural-cinematic-slog2-sgamut
# LUTr-Title: Natural-Cinematic-SLOG2-SGamut
# LUTr-Collection: Fresh LUTs
# LUTr-Collection-ID: freshluts-community
# LUTr-Source: https://freshluts.com
# LUTr-Retrieved: 2026-07-27
# LUTr-Source-File: submissions-raw/freshluts/cubes/2287__Natural-Cinematic-SLOG2-SGamut.cube
# LUTr-Source-Format: CUBE
# LUTr-Source-SHA256: db1f624daf533d82e8d70c10ee18d33f1d3aff9b5710644d24e66352ec0f1825
# LUTr-License: CC0-1.0
# LUTr-License-URL: https://freshluts.com/termsandconditions
# LUTr-License-Basis: site-terms
# LUTr-Transform-Class: creative-look
# LUTr-Tags: creative, freshluts, community, cube, sony-s-log2, cinematic
# LUTr-Input-Color-Space:
# LUTr-Input-Gamut: sony-s-gamut
# LUTr-Input-Transfer: sony-s-log2
# LUTr-Output-Color-Space: srgb
# LUTr-Output-Gamut: rec709
# LUTr-Output-Transfer: srgb
# LUTr-Color-Space-Confidence: camera-profile-input-required
# LUTr-Domain-Normalized: true
# LUTr-Shaper: none
# LUTr-Original-Grid: 24x24x24
# LUTr-Conversion-Grid: 24x24x24
# LUTr-Conversion-Interpolation: none
# LUTr-Conversion-Method: Metadata normalization; numeric LUT samples preserved
# LUTr-Conversion-Tool: LUTr scripts/convert-all-to-cube.mjs 2.0.0
# LUTr-Conversion-Date: 2026-07-28
# LUTr-Asset-URL: https://freshluts.com/luts/2287
# LUTr-Author: Tony
# LUTr-Author-URL: https://freshluts.com/users/360912
# LUTr-Attribution: Tony via Fresh LUTs
# LUTr-Source-Labels: gamma=Sony S-Log 2; color=None; key=Neutral; style=fresh
# LUTr-Note: Preserve this metadata and the upstream license notices when redistributing.
# LUTr-Upstream-Comment: Created by: Affinity Photo (Serif Europe Ltd.)
# LUTr-Upstream-Comment: LUT size
# LUTr-Upstream-Comment: data domain
# LUTr-Upstream-Comment: LUT data points
TITLE "Natural-Cinematic-SLOG2-SGamut"
LUT_3D_SIZE 8
DOMAIN_MIN 0.000000 0.000000 0.000000
DOMAIN_MAX 0.913043 0.913043 0.913043
0.03678 0.040257 0.046777
0.06087 0.040316 0.047132
0.168713 0.040844 0.048998
0.359881 0.043062 0.053632
0.659284 0.050273 0.06475
0.857204 0.057459 0.074553
0.953395 0.061561 0.079926
0.988584 0.063152 0.081983
0.035874 0.058964 0.047408
0.052754 0.056417 0.047555
0.149184 0.050925 0.048939
0.333306 0.04334 0.052894
0.640572 0.049689 0.063919
0.851335 0.057221 0.074238
0.95109 0.061459 0.079793
0.988584 0.063152 0.081983
0.029281 0.138215 0.0505
0.030469 0.135484 0.050391
0.116314 0.127435 0.051154
0.284531 0.115442 0.053882
0.561437 0.100494 0.061937
0.822154 0.084213 0.073273
0.941487 0.065975 0.079335
0.988584 0.063152 0.081983
0.003996 0.280414 0.058083
0.004203 0.279573 0.05803
0.061146 0.268918 0.05781
0.228443 0.256336 0.059236
0.491381 0.238366 0.064681
0.788101 0.21544 0.075434
0.924326 0.185929 0.081305
0.984494 0.150307 0.083623
0 0.50476 0.075562
0 0.503912 0.075484
0 0.496983 0.074862
0.144262 0.478732 0.074411
0.403583 0.45762 0.076559
0.735439 0.428835 0.084468
0.900163 0.392077 0.08916
0.974754 0.348981 0.090571
0 0.771531 0.103309
0 0.771124 0.103262
0 0.769749 0.103105
0 0.75661 0.101942
0.285685 0.739799 0.101533
0.645332 0.717627 0.104686
0.859362 0.686796 0.107856
0.954895 0.63615 0.107101
0 0.909436 0.119068
0 0.90927 0.119049
0 0.908759 0.11899
0 0.906191 0.118693
0.112171 0.891869 0.11736
0.505271 0.879018 0.11881
0.802485 0.863621 0.123064
0.925373 0.844086 0.1246
0 0.980758 0.127478
0 0.980687 0.12747
0 0.980486 0.127445
0 0.980053 0.127394
0 0.971966 0.126436
0.346677 0.963019 0.126734
0.724354 0.954295 0.131003
0.889412 0.944509 0.133886
0.036517 0.040166 0.078187
0.060589 0.040239 0.074176
0.172749 0.040825 0.067219
0.366764 0.043148 0.06427
0.669838 0.050598 0.069983
0.86215 0.057659 0.075586
0.956307 0.061691 0.080094
0.988584 0.063152 0.081983
0.035775 0.05801 0.066385
0.052063 0.055642 0.063628
0.147684 0.050353 0.060664
0.331081 0.042946 0.060306
0.638709 0.049624 0.066821
0.851055 0.05721 0.074222
0.951402 0.061473 0.079811
0.988584 0.063152 0.081983
0.029381 0.136977 0.055786
0.031455 0.133867 0.054792
0.117747 0.126112 0.053243
0.284461 0.11483 0.053859
0.558908 0.100782 0.061848
0.820091 0.085379 0.073193
0.940839 0.066778 0.079314
0.988584 0.063152 0.081983
0.004144 0.279814 0.058045
0.004428 0.278654 0.057972
0.066727 0.267639 0.05778
0.233489 0.255201 0.05926
0.495598 0.237729 0.064784
0.788677 0.215667 0.07547
0.923868 0.187219 0.081321
0.984426 0.152728 0.083682
0 0.504006 0.075493
0 0.502783 0.075381
0 0.494678 0.074679
0.151508 0.477235 0.074345
0.410231 0.456245 0.076594
0.739255 0.427641 0.084536
0.900764 0.391968 0.08918
0.974691 0.349937 0.090607
0 0.771124 0.103262
0 0.770566 0.103198
0 0.769144 0.103036
0 0.755602 0.101859
0.292871 0.73889 0.101496
0.65174 0.71671 0.104746
0.861205 0.685567 0.10781
0.955294 0.635733 0.107084
0 0.90927 0.119049
0 0.90907 0.119026
0 0.908548 0.118965
0 0.905152 0.118572
0.123126 0.891446 0.117334
0.511897 0.87861 0.118858
0.804842 0.863205 0.123082
0.926309 0.843628 0.124584
0 0.980698 0.127471
0 0.980627 0.127462
0 0.980426 0.127438
0 0.979987 0.127386
0 0.971722 0.126412
0.35255 0.962833 0.126757
0.727323 0.954113 0.131045
0.890533 0.944321 0.133896
0.033293 0.039052 0.241465
0.052393 0.039278 0.223423
0.166811 0.040095 0.193412
0.367831 0.042682 0.168178
0.679669 0.050593 0.151515
0.867221 0.057644 0.138976
0.958903 0.06165 0.128381
0.98851 0.063035 0.118523
0.033781 0.056246 0.19471
0.045991 0.053573 0.183498
0.146777 0.04776 0.167525
0.342277 0.042354 0.154493
0.651592 0.049727 0.144151
0.85686 0.057236 0.134838
0.954349 0.061455 0.125853
0.988521 0.063042 0.116851
0.028428 0.13436 0.151338
0.02985 0.131174 0.146684
0.117982 0.123284 0.138268
0.284793 0.112468 0.130624
0.560277 0.098568 0.125645
0.821473 0.08295 0.123172
0.941329 0.064922 0.118326
0.988556 0.06306 0.111929
0.004558 0.275157 0.121009
0.004908 0.273778 0.119683
0.072629 0.2631 0.115162
0.23877 0.251339 0.110083
0.498311 0.234867 0.107793
0.787689 0.214054 0.108945
0.922413 0.186935 0.106664
0.983835 0.152433 0.101446
0 0.499174 0.10303
0 0.497828 0.102301
0 0.488214 0.099883
0.162553 0.471586 0.09586
0.419402 0.450876 0.092698
0.742405 0.423232 0.094999
0.900699 0.389114 0.095686
0.974263 0.348834 0.092967
0 0.769267 0.104443
0 0.768676 0.104094
0 0.766849 0.10329
0 0.752401 0.10156
0.306782 0.736358 0.101349
0.663516 0.714552 0.104817
0.864877 0.682723 0.107687
0.956261 0.634135 0.106996
0 0.90897 0.119014
0 0.908726 0.118986
0 0.908046 0.118907
0 0.903248 0.118347
0.145727 0.890359 0.117265
0.526384 0.877608 0.118958
0.809964 0.862165 0.123108
0.928329 0.842521 0.124538
0 0.980578 0.127457
0 0.980497 0.127447
0 0.980251 0.127417
0 0.979788 0.127362
0 0.971104 0.126352
0.36682 0.962345 0.126814
0.734275 0.953657 0.13114
0.893153 0.94383 0.133915
0.014188 0.032449 0.573021
0.02009 0.033543 0.535493
0.147141 0.035858 0.463113
0.353513 0.039443 0.404983
0.67131 0.048305 0.357443
0.868234 0.056292 0.317385
0.961344 0.060739 0.283045
0.987915 0.062214 0.25469
0.021321 0.050174 0.472965
0.022757 0.047556 0.453613
0.132584 0.041581 0.409371
0.335497 0.039615 0.379905
0.65128 0.047861 0.342539
0.86194 0.056139 0.30747
0.957352 0.06062 0.276335
0.987931 0.06225 0.250281
0.02133 0.130671 0.370262
0.021851 0.128615 0.364327
0.108198 0.119088 0.338301
0.283374 0.107049 0.317349
0.574 0.090699 0.298149
0.83089 0.074336 0.278138
0.947804 0.060334 0.260063
0.98797 0.062338 0.239371
0.000682 0.270939 0.30185
0.00119 0.26932 0.298662
0.067771 0.259055 0.285779
0.238082 0.247006 0.273325
0.497759 0.230908 0.26076
0.787991 0.209859 0.248381
0.922973 0.181978 0.23345
0.983157 0.147604 0.217487
0 0.493762 0.2513
0 0.492235 0.24966
0 0.48224 0.243438
0.168915 0.464388 0.234811
0.424629 0.443428 0.224197
0.74207 0.41656 0.216046
0.898797 0.383627 0.205179
0.972718 0.344712 0.192807
0 0.764765 0.212457
0 0.764039 0.211455
0 0.761927 0.209096
0 0.744765 0.201807
0.317158 0.726572 0.191813
0.666357 0.70338 0.181282
0.863553 0.668468 0.172054
0.954595 0.621524 0.163614
0 0.905677 0.174043
0 0.90542 0.173413
0 0.904695 0.171889
0 0.897999 0.167934
0.16768 0.884527 0.160221
0.536664 0.871444 0.15312
0.811746 0.85596 0.147974
0.928528 0.836512 0.14153
0 0.979009 0.141575
0 0.978929 0.141186
0 0.978693 0.140169
0 0.978173 0.138661
0 0.968471 0.134404
0.384097 0.959947 0.131166
0.741995 0.951719 0.13175
0.896641 0.942775 0.133898
0 0.018711 0.900421
0 0.01928 0.889877
0.100861 0.022034 0.842839
0.323295 0.026731 0.788422
0.648611 0.037429 0.731794
0.862801 0.049029 0.659171
0.959624 0.055506 0.591495
0.986906 0.05818 0.533211
0 0.032419 0.849902
0 0.02973 0.843331
0.090402 0.02424 0.803342
0.309799 0.027576 0.76492
0.630795 0.037722 0.70877
0.85694 0.0493 0.641671
0.957418 0.055719 0.578524
0.986946 0.05839 0.523256
0 0.122107 0.75527
0 0.119565 0.748901
0.070971 0.109955 0.710977
0.266002 0.097064 0.666396
0.563132 0.0805 0.625889
0.833213 0.062514 0.585847
0.951718 0.05615 0.548443
0.98704 0.058872 0.499426
0 0.26556 0.634414
0 0.263692 0.629111
0.032066 0.254061 0.604357
0.225151 0.240776 0.575445
0.495114 0.222799 0.545579
0.794094 0.197933 0.514855
0.927167 0.167768 0.479697
0.982591 0.131501 0.446841
0 0.48782 0.536614
0 0.485975 0.533061
0 0.476409 0.519632
0.161461 0.457243 0.496809
0.421003 0.435537 0.474144
0.738877 0.408997 0.450413
0.897403 0.375702 0.423613
0.97222 0.335883 0.396602
0 0.760358 0.4532
0 0.759517 0.451229
0 0.757125 0.446409
0 0.738437 0.426762
0.321336 0.718035 0.407145
0.667151 0.693883 0.384123
0.861716 0.656873 0.363134
0.952902 0.611412 0.342546
0 0.902602 0.372666
0 0.902298 0.371392
0 0.901464 0.368405
0 0.893544 0.357118
0.180767 0.878854 0.339359
0.54457 0.86498 0.320643
0.812498 0.849077 0.300898
0.927557 0.829441 0.283767
0 0.97652 0.298214
0 0.976414 0.297325
0 0.976128 0.295101
0 0.97552 0.291501
0 0.964246 0.275702
0.397224 0.955204 0.260932
0.744762 0.946706 0.246227
0.896042 0.937356 0.232228
0 0.01117 1
0 0.011364 1
0.021479 0.012589 1
0.279705 0.015825 0.982945
0.611619 0.024878 0.957996
0.852766 0.036666 0.931683
0.955866 0.043931 0.902182
0.985099 0.047099 0.870722
0 0.01708 1
0 0.014161 1
0.011687 0.013235 0.996433
0.268771 0.016192 0.974592
0.595914 0.024822 0.950047
0.84722 0.036768 0.924777
0.953753 0.044121 0.896044
0.985141 0.047363 0.865036
0 0.111081 0.969666
0 0.10794 0.967289
0 0.097729 0.954054
0.231263 0.082105 0.936267
0.537492 0.06386 0.917149
0.826238 0.045116 0.90016
0.948305 0.044587 0.880456
0.985247 0.04803 0.85034
0 0.258498 0.922736
0 0.256187 0.92055
0 0.247141 0.910796
0.192676 0.23147 0.894258
0.475095 0.211787 0.875397
0.786791 0.186211 0.855481
0.926838 0.1514 0.831746
0.981275 0.108563 0.805234
0 0.480612 0.869822
0 0.478658 0.867897
0 0.472852 0.862552
0.127847 0.449522 0.842608
0.404183 0.425765 0.822418
0.734438 0.396623 0.798681
0.898848 0.358399 0.770891
0.973054 0.316009 0.737088
0 0.754936 0.811948
0 0.753935 0.81003
0 0.751236 0.805301
0 0.731575 0.782374
0.309731 0.709531 0.756599
0.660264 0.683446 0.727395
0.857833 0.644649 0.689511
0.95103 0.598767 0.650378
0 0.899031 0.729793
0 0.898694 0.727705
0 0.897748 0.722624
0 0.889371 0.699654
0.17316 0.873564 0.661328
0.54409 0.858649 0.627847
0.810756 0.84247 0.592064
0.925563 0.823175 0.560503
0 0.974055 0.607339
0 0.973937 0.605771
0 0.973594 0.602027
0 0.972914 0.595618
0 0.9608 0.555641
0.404077 0.951314 0.526535
0.747574 0.942774 0.49784
0.896457 0.933712 0.469357
0 0.009427 1
0 0.009427 1
0 0.009432 1
0.222648 0.010681 1
0.559413 0.017604 1
0.838064 0.029384 1
0.950865 0.036374 1
0.983791 0.039249 1
0 0.009427 1
0 0.009427 1
0 0.009427 1
0.212885 0.010607 1
0.545927 0.017359 1
0.832728 0.029281 1
0.948816 0.036407 1
0.983818 0.039398 1
0 0.099609 1
0 0.09607 1
0 0.086711 1
0.180946 0.067453 1
0.497743 0.045878 1
0.814924 0.029125 1
0.943546 0.036503 1
0.983889 0.039789 1
0 0.250312 1
0 0.247602 1
0 0.240405 1
0.143085 0.221504 1
0.439776 0.199582 1
0.773434 0.173565 1
0.922346 0.137627 0.995434
0.979929 0.093343 0.984328
0 0.473779 1
0 0.471449 1
0 0.465274 1
0.064006 0.441276 1
0.372919 0.414662 0.990919
0.720772 0.3836 0.978447
0.893818 0.344872 0.965053
0.971773 0.29728 0.950062
0 0.748779 0.985854
0 0.747696 0.985055
0 0.744887 0.983098
0 0.72578 0.97221
0.280804 0.701276 0.958436
0.641995 0.670131 0.943392
0.854118 0.628055 0.927109
0.951139 0.576022 0.909395
0 0.895065 0.95165
0 0.894656 0.950846
0 0.893575 0.948856
0 0.886048 0.939841
0.145267 0.868185 0.919726
0.530055 0.852515 0.901627
0.805143 0.835836 0.883227
0.922275 0.816595 0.864074
0 0.971256 0.903375
0 0.971107 0.902604
0 0.970715 0.900799
0 0.969943 0.897561
0 0.957349 0.87126
0.395704 0.947597 0.849997
0.745641 0.938828 0.830585
0.894843 0.930077 0.809924
0 0.009427 1
0 0.009427 1
0 0.009427 1
0.154324 0.01012 1
0.494516 0.015407 1
0.818252 0.027387 1
0.944616 0.0343 1
0.983231 0.036704 1
0 0.009427 1
0 0.009427 1
0 0.009427 1
0.14476 0.010058 1
0.482604 0.015107 1
0.812874 0.027122 1
0.942584 0.034178 1
0.983231 0.036704 1
0 0.08862 1
0 0.084784 1
0 0.074724 1
0.114336 0.054106 1
0.44203 0.030266 1
0.799764 0.026486 1
0.937356 0.033865 1
0.983231 0.036704 1
0 0.241602 1
0 0.238556 1
0 0.230614 1
0.069667 0.211644 1
0.388977 0.187563 1
0.753604 0.15953 1
0.916204 0.124035 1
0.979396 0.078779 1
0 0.465949 1
0 0.463263 1
0 0.456158 1
0 0.433602 1
0.326633 0.403538 1
0.69763 0.369779 1
0.886497 0.33078 1
0.969474 0.282395 1
0 0.74385 1
0 0.742591 1
0 0.739177 1
0 0.722934 1
0.232854 0.693082 1
0.608996 0.655494 1
0.846328 0.611174 1
0.948115 0.558655 1
0 0.890808 1
0 0.890348 1
0 0.889141 1
0 0.886861 1
0.083123 0.863618 1
0.499662 0.84692 1
0.796328 0.82913 1
0.920017 0.808313 1
0 0.968435 1
0 0.96827 1
0 0.967816 1
0 0.96696 1
0 0.954369 1
0.3767 0.944155 0.99659
0.738257 0.935389 0.986382
0.891955 0.926803 0.976965
