site/assets/luts/freshluts--0000828-orange-look.cube
# LUTr-Schema-Version: 2
# LUTr-ID: freshluts--0000828-orange-look
# LUTr-Title: Orange Look
# LUTr-Collection: Fresh LUTs
# LUTr-Collection-ID: freshluts-community
# LUTr-Source: https://freshluts.com
# LUTr-Retrieved: 2026-07-27
# LUTr-Source-File: submissions-raw/freshluts/cubes/828__Teal_look_1.mixkit-man-and-woman-taking-selfies-during-a-road-trip-40038.cube
# LUTr-Source-Format: CUBE
# LUTr-Source-SHA256: a39f7af4e4d847121d9da212c7e97b6723c403a92ebe03bfca752e538d525fd1
# LUTr-License: CC0-1.0
# LUTr-License-URL: https://freshluts.com/termsandconditions
# LUTr-License-Basis: site-terms
# LUTr-Transform-Class: creative-look
# LUTr-Tags: creative, freshluts, community, cube, cross-process, warm, high-key, canon-cinestyle
# LUTr-Input-Color-Space:
# LUTr-Input-Gamut: rec709
# LUTr-Input-Transfer: canon-cinestyle
# LUTr-Output-Color-Space: srgb
# LUTr-Output-Gamut: rec709
# LUTr-Output-Transfer: srgb
# LUTr-Color-Space-Confidence: camera-profile-input-required
# LUTr-Domain-Normalized: true
# LUTr-Shaper: none
# LUTr-Original-Grid: 33x33x33
# LUTr-Conversion-Grid: 33x33x33
# LUTr-Conversion-Interpolation: none
# LUTr-Conversion-Method: Metadata normalization; numeric LUT samples preserved
# LUTr-Conversion-Tool: LUTr scripts/convert-all-to-cube.mjs 2.0.0
# LUTr-Conversion-Date: 2026-07-28
# LUTr-Asset-URL: https://freshluts.com/luts/828
# LUTr-Author: gabriel s
# LUTr-Author-URL: https://freshluts.com/users/3294
# LUTr-Attribution: gabriel s via Fresh LUTs
# LUTr-Source-Labels: gamma=Canon Cinestyle; color=Warm; key=High Key; style=Cross Process
# LUTr-Note: Preserve this metadata and the upstream license notices when redistributing.
TITLE "Orange Look"
LUT_3D_SIZE 9
DOMAIN_MIN 0 0 0
DOMAIN_MAX 1 1 1
0 0 0
0.130144 0 0
0.367788 0 0
0.584756 0 0
0.787167 0 0
0.961898 0 0
1 0 0
1 0 0
1 0 0
0 0.0791485 0
0.102174 0.0692607 0
0.330831 0.066331 0
0.546151 0.0668193 0
0.748409 0.0695354 0
0.921675 0.0767071 0
1 0.0883803 0
1 0.102785 0
1 0.120012 0
0 0.258564 0
0.0975814 0.241154 0
0.318593 0.234318 0
0.528069 0.231571 0
0.725734 0.231052 0
0.896406 0.236088 0
1 0.247013 0
1 0.261067 0
1 0.278202 0
0 0.42977 0
0.0959182 0.40737 0
0.311604 0.397498 0
0.518898 0.392691 0
0.715282 0.391241 0
0.884825 0.395544 0
1 0.404852 0
1 0.41677 0
1 0.43122 0
0 0.593881 0
0.102098 0.568353 0
0.314565 0.557107 0
0.518578 0.549798 0
0.711086 0.545968 0
0.876341 0.546609 0
1 0.552224 0
1 0.560784 0
1 0.57084 0
0 0.746548 0
0.124849 0.716243 0
0.332311 0.701213 0
0.530724 0.69041 0
0.717678 0.68191 0
0.877379 0.678355 0
1 0.679088 0
1 0.682948 0
1 0.688838 0
0 0.880537 0
0.153521 0.844785 0
0.354559 0.825528 0
0.546838 0.809491 0
0.727337 0.796109 0
0.881956 0.788998 0
1 0.786206 0
1 0.786755 0
1 0.790631 0
0 0.994339 0
0.177554 0.954101 0
0.37348 0.931197 0
0.561303 0.912047 0
0.738857 0.895354 0
0.890471 0.885603 0
1 0.880476 0
1 0.879011 0
1 0.88043 0
0.0132296 1 0.000015259
0.200137 1 0
0.394766 1 0
0.580163 1 0
0.755489 0.982742 0
0.903517 0.970092 0
1 0.961944 0
1 0.956756 0
1 0.955062 0
0 0 0.0627909
0.128267 0 0.0534371
0.372168 0 0.0482185
0.594079 0 0.0467842
0.800732 0 0.0478065
0.975708 0 0.052491
1 0 0.0612039
1 0 0.0718547
1 0 0.0842908
0 0.0767529 0.0345617
0.101152 0.0670787 0.0290379
0.363684 0.0612955 0.0258335
0.58883 0.0619669 0.0261387
0.797955 0.0646525 0.0275425
0.975448 0.0715343 0.0312352
1 0.0828107 0.0373999
1 0.0964828 0.0451057
1 0.113161 0.0545968
0 0.256336 0.0289464
0.0819562 0.246952 0.0187228
0.319692 0.233021 0.0159457
0.549126 0.226215 0.0167544
0.759441 0.224247 0.0180667
0.93872 0.22884 0.0212558
1 0.239094 0.0268254
1 0.252552 0.0341039
1 0.268772 0.0428626
0 0.427787 0.0272221
0.081178 0.414527 0.0171206
0.299611 0.400473 0.0137484
0.521553 0.391119 0.013611
0.731548 0.386816 0.0145418
0.910826 0.389273 0.0172427
1 0.397391 0.0217746
1 0.408225 0.0274815
1 0.421469 0.0344396
0 0.591974 0.0284123
0.0875105 0.576715 0.018265
0.297276 0.56257 0.0146792
0.510216 0.550958 0.0134585
0.713634 0.543175 0.0132448
0.888197 0.542077 0.0146792
1 0.546044 0.0175021
1 0.552666 0.0212711
1 0.561486 0.025803
0 0.744411 0.0373388
0.107759 0.724865 0.0245365
0.310292 0.707683 0.0193484
0.514839 0.692592 0.0165255
0.710796 0.680064 0.0147555
0.878248 0.674037 0.0145571
1 0.673411 0.0157015
1 0.67512 0.0175174
1 0.680354 0.0204318
0 0.877104 0.0496071
0.133257 0.85275 0.0333104
0.328939 0.831388 0.025803
0.525887 0.812222 0.0209201
0.714824 0.795224 0.0173648
0.876524 0.784955 0.0157931
1 0.780758 0.0158083
1 0.779965 0.0166476
1 0.782391 0.0185092
0 0.989837 0.060029
0.154955 0.96083 0.0409705
0.345693 0.937087 0.0317845
0.536706 0.91426 0.0251621
0.721538 0.895125 0.0204471
0.879545 0.882261 0.0180209
1 0.875975 0.017258
1 0.872908 0.0174105
1 0.872984 0.0183719
0.00703441 1 0.0657359
0.178256 1 0.0494698
0.365347 1 0.0389715
0.552712 1 0.0311589
0.734508 0.98262 0.0253147
0.888685 0.967208 0.0216373
1 0.956939 0.0196078
1 0.950607 0.0185245
1 0.947875 0.018555
0 0 0.206943
0.123003 0 0.194186
0.364874 0 0.18471
0.586923 0 0.180499
0.794324 0 0.1794
0.969924 0 0.182528
1 0 0.190402
1 0 0.200305
1 0 0.212467
0 0.075227 0.155581
0.0995804 0.0654002 0.164492
0.359991 0.0598001 0.155276
0.593698 0.0601511 0.146441
0.806271 0.0626841 0.143191
0.986343 0.0694896 0.1449
1 0.0804456 0.150134
1 0.0941329 0.15787
1 0.110643 0.167742
0 0.253513 0.14078
0.0803693 0.242939 0.133639
0.315587 0.229038 0.124773
0.571069 0.218647 0.118257
0.782177 0.217838 0.117693
0.961303 0.223255 0.120912
1 0.233692 0.127382
1 0.247639 0.135943
1 0.263905 0.146014
0 0.423682 0.1337
0.0771191 0.412192 0.118486
0.280324 0.403464 0.103182
0.520897 0.389242 0.0974594
0.744808 0.381292 0.100175
0.929229 0.383169 0.105119
1 0.390661 0.111559
1 0.401236 0.119249
1 0.414588 0.128008
0 0.588037 0.132021
0.082948 0.575509 0.114015
0.28069 0.565072 0.10042
0.496712 0.552209 0.093019
0.711727 0.540154 0.0916457
0.894347 0.536645 0.094377
1 0.539223 0.0988632
1 0.54493 0.104173
1 0.553582 0.110567
0 0.739071 0.1402
0.101701 0.723201 0.118669
0.294484 0.709255 0.104952
0.497353 0.693477 0.0954604
0.700206 0.678218 0.0908675
0.874693 0.66949 0.0903487
1 0.666712 0.0921035
1 0.667826 0.0950332
1 0.671977 0.0991836
0 0.871366 0.152605
0.125307 0.8495 0.127062
0.312612 0.831235 0.111543
0.506233 0.811414 0.100069
0.698985 0.792508 0.0929274
0.866636 0.780713 0.0901808
1 0.774884 0.0901503
1 0.772686 0.0912642
1 0.774578 0.094316
0 0.983185 0.162966
0.145312 0.956909 0.134554
0.328634 0.935225 0.117815
0.516457 0.913191 0.105043
0.703319 0.892241 0.0962081
0.866056 0.87834 0.0920577
1 0.870329 0.0907149
1 0.865888 0.090837
1 0.86479 0.0921492
0.00241093 1 0.167544
0.167315 1 0.143404
0.348287 1 0.126009
0.532265 1 0.112108
0.715007 0.979751 0.102235
0.871992 0.962005 0.0959335
1 0.950576 0.092668
1 0.943358 0.0911727
1 0.939956 0.0912642
0 0 0.343282
0.12047 0 0.329809
0.360983 0 0.31873
0.58265 0 0.31281
0.787625 0 0.309667
0.965576 0 0.312276
1 0 0.319066
1 0 0.328801
1 0 0.340047
0 0.0750591 0.279347
0.100404 0.0657511 0.292195
0.349248 0.0610819 0.287129
0.585138 0.0606851 0.277424
0.80058 0.062501 0.270832
0.98349 0.0691539 0.270298
1 0.0797131 0.273808
1 0.0932784 0.280385
1 0.109789 0.289601
0 0.252293 0.259144
0.0849317 0.239139 0.260792
0.312963 0.226062 0.267079
0.566323 0.215671 0.256794
0.786618 0.214252 0.244633
0.969497 0.220127 0.243076
1 0.230732 0.247028
1 0.244511 0.254261
1 0.260716 0.263661
0 0.421424 0.248203
0.0790723 0.408026 0.238804
0.277501 0.399252 0.232868
0.516594 0.384985 0.223575
0.764965 0.373663 0.216052
0.947799 0.376394 0.217762
1 0.384543 0.222904
1 0.395178 0.229664
1 0.408499 0.238178
0 0.585565 0.24419
0.0831769 0.571908 0.228305
0.273716 0.563088 0.214954
0.475654 0.55433 0.197498
0.709484 0.537377 0.189044
0.903929 0.530678 0.193271
1 0.532113 0.198856
1 0.537423 0.204913
1 0.545449 0.211429
0 0.735698 0.250477
0.0999161 0.718883 0.229297
0.285618 0.707027 0.212772
0.478706 0.693965 0.19585
0.685191 0.677378 0.184085
0.870481 0.665095 0.182406
1 0.660105 0.184558
1 0.660182 0.188251
1 0.664088 0.193256
0 0.866148 0.261677
0.121279 0.844358 0.235126
0.302235 0.827756 0.216083
0.487922 0.810864 0.198337
0.680568 0.791836 0.18471
0.854948 0.776989 0.179309
1 0.769192 0.178958
1 0.765881 0.180728
1 0.766888 0.184237
0 0.976623 0.270909
0.139727 0.951278 0.240787
0.317006 0.931365 0.220172
0.498024 0.911238 0.201465
0.68365 0.890684 0.187167
0.850523 0.875013 0.180133
0.991943 0.865431 0.178271
1 0.859556 0.178073
1 0.857313 0.179309
0 1 0.278645
0.160464 1 0.248295
0.335927 1 0.227085
0.514168 1 0.208133
0.694163 0.976974 0.192828
0.854215 0.958541 0.183642
0.98909 0.945663 0.178973
1 0.936614 0.176974
1 0.932433 0.176928
0 0 0.471794
0.120378 0 0.457664
0.359106 0 0.445731
0.580194 0 0.439277
0.784741 0 0.434501
0.963073 0 0.436866
1 0 0.442664
1 0 0.451896
1 0 0.462654
0 0.0755932 0.398718
0.102388 0.0669871 0.413748
0.344244 0.0628519 0.410544
0.577295 0.06215 0.402289
0.793286 0.0635538 0.395087
0.97734 0.0698558 0.393439
1 0.0800946 0.395743
1 0.0933852 0.40148
1 0.110048 0.410147
0 0.251881 0.374456
0.0887312 0.237766 0.381933
0.313527 0.226093 0.387961
0.551843 0.217517 0.383963
0.776944 0.214939 0.37322
0.964599 0.219837 0.368566
1 0.23003 0.370047
1 0.243275 0.375586
1 0.259342 0.383856
0 0.420264 0.361074
0.0822766 0.405325 0.357565
0.286336 0.394354 0.359731
0.512993 0.381476 0.366094
0.760494 0.370291 0.356023
0.952499 0.372625 0.346334
1 0.380468 0.345663
1 0.390845 0.349203
1 0.40415 0.355795
0 0.584237 0.354818
0.0852827 0.568627 0.343603
0.276722 0.558358 0.336538
0.471321 0.549126 0.330617
0.704128 0.53225 0.319203
0.922759 0.521202 0.312001
1 0.52401 0.313771
1 0.529473 0.316945
1 0.537408 0.322362
0 0.733654 0.359945
0.100252 0.714626 0.341817
0.284627 0.701915 0.328283
0.468406 0.690501 0.3131
0.660777 0.67805 0.291493
0.865583 0.660853 0.281895
1 0.652674 0.285863
1 0.651377 0.290333
1 0.655039 0.295369
0 0.862501 0.369497
0.119493 0.839017 0.344854
0.297856 0.822522 0.32726
0.475776 0.807065 0.308293
0.658778 0.791012 0.287465
0.838544 0.775265 0.275334
0.995239 0.76405 0.27364
1 0.758801 0.276173
1 0.759075 0.28043
0 0.97145 0.377386
0.136324 0.94461 0.348714
0.311025 0.924987 0.328374
0.485832 0.907439 0.308141
0.663539 0.889158 0.287739
0.831128 0.873533 0.274907
0.978821 0.86125 0.269932
1 0.853117 0.269429
1 0.849393 0.271183
0 1 0.385153
0.156268 1 0.355062
0.328771 1 0.333272
0.501381 0.995026 0.312596
0.674235 0.974105 0.2916
0.832547 0.955413 0.276707
0.971695 0.941329 0.269459
1 0.930785 0.26627
1 0.925444 0.266453
0 0 0.579858
0.123598 0 0.565606
0.360891 0 0.553338
0.581323 0 0.545998
0.785718 0 0.541009
0.96379 0 0.542794
1 0 0.548135
1 0 0.55671
1 0 0.56701
0 0.0785077 0.500542
0.106661 0.0699474 0.517205
0.344793 0.066041 0.514931
0.57496 0.0649271 0.50753
0.790631 0.0661631 0.500298
0.973892 0.0722362 0.498085
1 0.0823072 0.500175
1 0.0955673 0.505928
1 0.1122 0.514229
0 0.254002 0.473823
0.0936446 0.239139 0.48426
0.316304 0.228138 0.490196
0.547417 0.220554 0.487816
0.770367 0.217807 0.48011
0.958755 0.222324 0.475532
1 0.232074 0.476631
1 0.244938 0.480949
1 0.260807 0.488655
0 0.421622 0.458091
0.0869917 0.405554 0.459068
0.293996 0.394125 0.464012
0.515373 0.38291 0.469429
0.746944 0.373709 0.466133
0.943969 0.374075 0.458213
1 0.38056 0.455451
1 0.390585 0.456825
1 0.403159 0.461357
0 0.585046 0.45066
0.0890516 0.567895 0.44358
0.283528 0.55642 0.44097
0.482124 0.544656 0.441688
0.70106 0.529244 0.447028
0.918379 0.51809 0.437751
1 0.519295 0.427329
1 0.524697 0.424842
1 0.533059 0.426932
0 0.733257 0.454154
0.102602 0.712566 0.439307
0.287938 0.698772 0.429847
0.472236 0.685954 0.420966
0.655741 0.672709 0.41181
0.860212 0.655436 0.400198
1 0.643122 0.391959
1 0.643549 0.392172
1 0.647669 0.395102
0 0.860471 0.462165
0.119905 0.835386 0.44062
0.298207 0.817792 0.425452
0.474739 0.802426 0.410513
0.648188 0.788113 0.392981
0.814237 0.776089 0.371695
0.991699 0.760601 0.362646
1 0.75227 0.366583
1 0.751324 0.371298
0 0.968338 0.468986
0.135439 0.940475 0.443275
0.309895 0.920302 0.424643
0.481819 0.902327 0.406363
0.652201 0.886534 0.386389
0.810346 0.873106 0.366812
0.963394 0.860258 0.355184
1 0.848676 0.353552
1 0.842969 0.355566
0 1 0.476783
0.154376 1 0.448402
0.326223 1 0.428092
0.495918 0.990143 0.408347
0.661616 0.970413 0.38587
0.81326 0.95404 0.366278
0.953338 0.939849 0.353674
1 0.927565 0.347906
1 0.920287 0.347814
0 0 0.669032
0.129549 0 0.654627
0.365545 0 0.642374
0.583795 0 0.633036
0.789456 0 0.628946
0.966217 0 0.629465
1 0 0.635294
1 0 0.64303
1 0 0.653208
0 0.0832532 0.585
0.113008 0.0744488 0.602502
0.348516 0.0705425 0.600595
0.576547 0.0693065 0.594095
0.79144 0.0703136 0.587457
0.973602 0.0759442 0.584619
1 0.0860304 0.586984
1 0.0994583 0.59202
1 0.115999 0.600824
0 0.257939 0.556909
0.100008 0.242527 0.569589
0.321599 0.2318 0.574639
0.548547 0.224979 0.573556
0.768566 0.22237 0.566918
0.95697 0.226535 0.563394
1 0.23595 0.564309
1 0.248539 0.568276
1 0.264088 0.57557
0 0.42504 0.539498
0.0932631 0.408164 0.543603
0.301656 0.396658 0.549218
0.520088 0.386206 0.554253
0.743877 0.378454 0.55317
0.938018 0.377935 0.548104
1 0.383612 0.545235
1 0.392813 0.545953
1 0.404669 0.549447
0 0.587884 0.530877
0.0944076 0.569528 0.526513
0.290272 0.556848 0.526162
0.491585 0.544808 0.529183
0.703441 0.530709 0.533135
0.904814 0.521248 0.530617
1 0.520485 0.522484
1 0.52462 0.518029
1 0.53196 0.517357
0 0.734859 0.532525
0.106508 0.713222 0.520943
0.293034 0.697673 0.51368
0.479301 0.683314 0.508492
0.667201 0.667933 0.507301
0.856001 0.651438 0.511223
1 0.639521 0.501869
1 0.639185 0.490425
1 0.643137 0.486854
0 0.860853 0.539803
0.122026 0.834562 0.520638
0.30132 0.815824 0.507881
0.478309 0.798764 0.496101
0.65185 0.782986 0.485405
0.809339 0.771466 0.477623
0.986053 0.755322 0.46688
1 0.743587 0.458778
1 0.744274 0.459174
0 0.967193 0.545464
0.136049 0.937758 0.521447
0.311376 0.917479 0.50573
0.48333 0.898894 0.490043
0.651148 0.882277 0.47393
0.800763 0.870909 0.458
0.941527 0.861646 0.43888
1 0.845624 0.429389
1 0.836805 0.432731
0 1 0.552361
0.154269 1 0.526085
0.326375 1 0.50753
0.494972 0.985931 0.489448
0.65771 0.966491 0.469551
0.801999 0.951736 0.450614
0.934676 0.939879 0.432807
1 0.926833 0.420783
1 0.916945 0.419699
0 0 0.745724
0.137285 0 0.731044
0.372442 0 0.718868
0.58967 0 0.709285
0.795605 0 0.704906
0.972427 0 0.705272
1 0 0.710719
1 0 0.718532
1 0 0.726909
0 0.0892042 0.658137
0.120775 0.0800946 0.676127
0.354498 0.0761273 0.674662
0.580407 0.0745251 0.668193
0.793759 0.0753033 0.661936
0.976669 0.0807813 0.659663
1 0.0907607 0.661723
1 0.104387 0.666804
1 0.120867 0.675334
0 0.263157 0.628595
0.107347 0.247105 0.642695
0.328008 0.236713 0.647334
0.552392 0.230396 0.646769
0.770611 0.227802 0.641703
0.957977 0.23183 0.638758
1 0.240894 0.639765
1 0.253254 0.643992
1 0.26836 0.650828
0 0.429725 0.610254
0.100572 0.412177 0.616968
0.309712 0.400565 0.622797
0.526162 0.390753 0.627268
0.744793 0.383536 0.626673
0.936156 0.383017 0.623392
1 0.387869 0.621347
1 0.396826 0.622156
1 0.408026 0.625696
0 0.592035 0.600702
0.100664 0.572641 0.59855
0.297734 0.559274 0.599481
0.499336 0.546807 0.602914
0.707988 0.533776 0.606134
0.899931 0.525521 0.605219
1 0.523812 0.600565
1 0.526635 0.596002
1 0.533211 0.595041
0 0.738216 0.601495
0.11107 0.714626 0.591348
0.298619 0.698405 0.586038
0.486351 0.683253 0.583062
0.676188 0.666941 0.583093
0.857542 0.652308 0.585962
1 0.642191 0.582742
1 0.63946 0.574426
1 0.64242 0.568963
0 0.861936 0.606577
0.12491 0.834592 0.589731
0.30486 0.814939 0.578561
0.483299 0.797421 0.569894
0.659312 0.780011 0.562844
0.820874 0.765759 0.561791
0.982452 0.752041 0.566842
1 0.74023 0.557794
1 0.740154 0.547143
0 0.967575 0.611704
0.138125 0.937133 0.589761
0.313832 0.915801 0.575189
0.486885 0.896925 0.562158
0.655238 0.879118 0.54992
0.804364 0.865843 0.541009
0.936126 0.856519 0.534264
1 0.840299 0.52314
1 0.827863 0.515251
0 1 0.617914
0.155612 1 0.593652
0.327825 1 0.576226
0.496086 0.982681 0.56022
0.658656 0.9626 0.543511
0.800046 0.947188 0.528405
0.924102 0.936934 0.514214
1 0.927565 0.494896
1 0.914519 0.486885
0 0 0.809842
0.146639 0 0.794995
0.379171 0 0.781018
0.598093 0 0.77319
0.802487 0 0.76788
0.980362 0 0.768719
1 0 0.7738
1 0 0.780896
1 0 0.788754
0 0.0962692 0.719219
0.130068 0.0867628 0.738079
0.36202 0.0823835 0.736782
0.58703 0.0807813 0.730755
0.799588 0.0812695 0.724804
0.981979 0.0866865 0.722423
1 0.0966964 0.724437
1 0.110323 0.729625
1 0.126772 0.737819
0 0.26952 0.689219
0.115862 0.252888 0.704417
0.335866 0.242618 0.708736
0.558999 0.236713 0.708431
0.775067 0.234226 0.704219
0.961898 0.238025 0.701762
1 0.246921 0.702754
1 0.259037 0.707347
1 0.273655 0.713329
0 0.435782 0.670008
0.109041 0.417594 0.677943
0.318456 0.406027 0.684123
0.533806 0.396826 0.688685
0.74931 0.389364 0.688197
0.937835 0.388479 0.68574
1 0.393332 0.684428
1 0.401343 0.685359
1 0.411933 0.688701
0 0.597391 0.659358
0.108248 0.577249 0.659663
0.306279 0.563531 0.661387
0.507729 0.550423 0.664012
0.712978 0.537682 0.66659
0.89958 0.529763 0.665812
1 0.527916 0.663005
1 0.530419 0.659937
1 0.53611 0.659297
0 0.742184 0.659434
0.116762 0.717556 0.650446
0.305013 0.700893 0.646403
0.49337 0.684504 0.643977
0.682719 0.667811 0.644251
0.860197 0.654124 0.646128
1 0.645808 0.645075
1 0.642588 0.639857
1 0.644388 0.635172
0 0.864393 0.662654
0.128893 0.836027 0.647532
0.309773 0.815991 0.637873
0.488792 0.797208 0.630304
0.665949 0.779156 0.625391
0.829221 0.764797 0.626017
0.983963 0.752941 0.62974
1 0.742962 0.6271
1 0.740444 0.618647
0 0.96846 0.666773
0.141085 0.937972 0.64712
0.317494 0.916121 0.633585
0.491066 0.896025 0.621759
0.660868 0.877867 0.612436
0.811688 0.863172 0.607309
0.947646 0.851316 0.607004
1 0.836545 0.610864
1 0.824231 0.601694
0 1 0.67274
0.157809 1 0.650156
0.330251 1 0.633478
0.498894 0.981186 0.61886
0.661601 0.959701 0.604318
0.804105 0.943938 0.593408
0.927642 0.932769 0.585794
1 0.923491 0.579446
1 0.910048 0.570153
