site/assets/luts/freshluts--0000223-matrix.cube
# LUTr-Schema-Version: 2
# LUTr-ID: freshluts--0000223-matrix
# LUTr-Title: MATRIX
# LUTr-Collection: Fresh LUTs
# LUTr-Collection-ID: freshluts-community
# LUTr-Source: https://freshluts.com
# LUTr-Retrieved: 2026-07-27
# LUTr-Source-File: submissions-raw/freshluts/cubes/223__MATRIX.cube
# LUTr-Source-Format: CUBE
# LUTr-Source-SHA256: 4e53623a32750767558aefd19b6fdf3908cedd074009ab1ae21c435f0bc97c85
# LUTr-License: CC0-1.0
# LUTr-License-URL: https://freshluts.com/termsandconditions
# LUTr-License-Basis: site-terms
# LUTr-Transform-Class: creative-look
# LUTr-Tags: creative, freshluts, community, cube, cinematic, blockbuster, green, rec709
# LUTr-Input-Color-Space: rec709
# LUTr-Input-Gamut: rec709
# LUTr-Input-Transfer: rec709
# LUTr-Output-Color-Space: srgb
# LUTr-Output-Gamut: rec709
# LUTr-Output-Transfer: srgb
# LUTr-Color-Space-Confidence: declared-by-source
# LUTr-Domain-Normalized: true
# LUTr-Shaper: none
# LUTr-Original-Grid: 16x16x16
# LUTr-Conversion-Grid: 16x16x16
# LUTr-Conversion-Interpolation: none
# LUTr-Conversion-Method: Metadata normalization; numeric LUT samples preserved
# LUTr-Conversion-Tool: LUTr scripts/convert-all-to-cube.mjs 2.0.0
# LUTr-Conversion-Date: 2026-07-28
# LUTr-Asset-URL: https://freshluts.com/luts/223
# LUTr-Author: Andy
# LUTr-Author-URL: https://freshluts.com/users/1003
# LUTr-Attribution: Andy via Fresh LUTs
# LUTr-Source-Labels: gamma=Rec 709; color=Green; key=Neutral; style=Blockbuster
# LUTr-Note: Preserve this metadata and the upstream license notices when redistributing.
TITLE "MATRIX"
LUT_3D_SIZE 6
DOMAIN_MIN 0 0 0
DOMAIN_MAX 1 1 1
0.004075 0.031447 0.032974
0.110124 0.0595 0.023246
0.235609 0.077528 0.02582
0.344036 0.083836 0.038761
0.447433 0.069826 0.061475
0.523132 0.068473 0.088576
0.002094 0.103837 0.034415
0.092578 0.145472 0.035545
0.225246 0.168559 0.032957
0.362142 0.18213 0.040009
0.508402 0.18344 0.062032
0.582393 0.160189 0.081606
0.004773 0.19252 0.049028
0.069989 0.232443 0.052515
0.217708 0.283195 0.054381
0.383078 0.301595 0.048199
0.562419 0.32315 0.078716
0.654779 0.300078 0.110183
0.003817 0.308841 0.075673
0.053657 0.340878 0.078126
0.160972 0.383644 0.082897
0.403758 0.455892 0.070207
0.621434 0.506332 0.093158
0.738588 0.492186 0.140755
0.001097 0.452724 0.125637
0.011051 0.475249 0.129348
0.136047 0.56282 0.144966
0.432832 0.647639 0.134652
0.671625 0.701136 0.123297
0.814746 0.684089 0.169756
0.000095 0.587685 0.181545
0.000073 0.602519 0.187951
0.013355 0.636832 0.197886
0.340607 0.774 0.226928
0.703377 0.881595 0.254569
0.89668 0.897742 0.352355
0.000709 0.025174 0.120559
0.0905 0.052485 0.128238
0.211114 0.075939 0.126144
0.326304 0.083162 0.129693
0.461882 0.084272 0.149795
0.533272 0.080828 0.155912
0.000171 0.123185 0.153584
0.069969 0.155313 0.153253
0.240547 0.189218 0.141477
0.400378 0.208063 0.141074
0.546043 0.197617 0.152021
0.61451 0.174657 0.160313
0.001003 0.223929 0.15905
0.057467 0.262897 0.16883
0.225917 0.307168 0.160753
0.422443 0.326938 0.145024
0.603723 0.342725 0.15897
0.691428 0.32107 0.183465
0.001243 0.325691 0.143778
0.023704 0.358152 0.16364
0.166123 0.413816 0.164384
0.425543 0.479612 0.149629
0.645001 0.525206 0.153159
0.760547 0.502655 0.19879
0.000351 0.469495 0.154493
0.009203 0.499027 0.160486
0.130484 0.580578 0.195237
0.448132 0.671423 0.183014
0.669811 0.704984 0.140321
0.822971 0.688267 0.195869
0.000015 0.597892 0.188185
0.000032 0.613493 0.194942
0.017331 0.652351 0.205951
0.362314 0.787478 0.234552
0.718748 0.888958 0.263916
0.910061 0.906954 0.395325
0.000218 0.03016 0.193263
0.069207 0.049886 0.210505
0.189318 0.070427 0.230945
0.314979 0.089938 0.239597
0.46411 0.094824 0.262582
0.539643 0.089442 0.25792
0.000229 0.118748 0.234003
0.045857 0.153527 0.250938
0.206623 0.190058 0.259425
0.389966 0.209871 0.254339
0.543046 0.195235 0.272462
0.612047 0.173587 0.264368
0.00014 0.237254 0.278281
0.041202 0.275361 0.287592
0.205452 0.320795 0.291976
0.445553 0.353725 0.272943
0.636847 0.355395 0.284184
0.727998 0.34452 0.31372
0.000267 0.364941 0.290382
0.010611 0.391652 0.296855
0.164534 0.459466 0.31016
0.449632 0.518752 0.293156
0.689676 0.553797 0.290493
0.803729 0.535528 0.333888
0.000022 0.519542 0.308482
0.002558 0.545208 0.305764
0.081192 0.609248 0.312578
0.45388 0.700911 0.310352
0.716733 0.744925 0.288917
0.871315 0.73324 0.362726
0.000006 0.620569 0.239007
0.000109 0.641904 0.26018
0.029416 0.715449 0.313708
0.294994 0.803039 0.346071
0.742058 0.9127 0.406287
0.946092 0.936323 0.527127
0.000724 0.04345 0.279993
0.04203 0.051623 0.295127
0.173086 0.076281 0.322864
0.302474 0.093633 0.35103
0.461311 0.107308 0.399971
0.547846 0.102804 0.385019
0.000118 0.115719 0.314301
0.029926 0.143859 0.337097
0.160201 0.174157 0.361933
0.351683 0.199753 0.382945
0.509574 0.18132 0.405418
0.601862 0.169839 0.400541
0.000007 0.222584 0.366288
0.026166 0.263418 0.390222
0.166611 0.318725 0.422622
0.409988 0.360237 0.432139
0.620149 0.348893 0.451613
0.717742 0.336182 0.455647
0.000329 0.388571 0.427788
0.006176 0.412416 0.436206
0.140404 0.479442 0.464331
0.428898 0.537723 0.478421
0.714117 0.554225 0.465901
0.832146 0.557853 0.507579
0.000002 0.57088 0.493093
0.000696 0.59809 0.498427
0.04326 0.656527 0.513467
0.400874 0.732913 0.51235
0.754734 0.792837 0.518033
0.918129 0.780292 0.597852
0.000003 0.701508 0.494778
0.000018 0.725161 0.521333
0.029936 0.804136 0.569727
0.385656 0.885095 0.625509
0.781458 0.954876 0.711363
0.990955 0.975688 0.778843
0.000033 0.009904 0.362938
0.017151 0.028965 0.390734
0.132269 0.064744 0.432957
0.29535 0.096547 0.474541
0.457754 0.11326 0.508849
0.554191 0.117505 0.517676
0.000425 0.112687 0.421177
0.02022 0.100496 0.427366
0.136781 0.133356 0.467779
0.324555 0.158698 0.503526
0.477965 0.159617 0.525107
0.566933 0.139249 0.509575
0.000017 0.208795 0.47612
0.007916 0.240462 0.499944
0.134254 0.292616 0.548826
0.391907 0.337008 0.590841
0.588088 0.342563 0.610097
0.693348 0.316265 0.591592
0.000021 0.417127 0.573478
0.003661 0.442288 0.587879
0.102647 0.501924 0.630314
0.389059 0.536359 0.6711
0.677828 0.569525 0.68854
0.830035 0.574743 0.682416
0.000001 0.603969 0.643543
0.000008 0.618605 0.650216
0.025798 0.667956 0.671537
0.364939 0.774482 0.739134
0.775632 0.842568 0.795284
0.97067 0.862951 0.847859
0 0.760837 0.686198
0.000065 0.78107 0.701019
0.03205 0.831192 0.729524
0.417645 0.922104 0.806446
0.842868 0.989672 0.918314
0.998613 0.994892 0.947818
0.000002 0.009981 0.433823
0.009386 0.025088 0.459396
0.093788 0.057963 0.494953
0.267601 0.098745 0.544132
0.426382 0.121975 0.590684
0.564049 0.133539 0.630743
0.00001 0.082126 0.47248
0.013515 0.081405 0.489045
0.170686 0.145716 0.56163
0.35032 0.169577 0.605304
0.438409 0.147976 0.603106
0.574413 0.144379 0.633816
0.000002 0.157453 0.517502
0.00947 0.184967 0.544984
0.127213 0.239696 0.604755
0.358303 0.275846 0.658753
0.488552 0.251538 0.664943
0.62707 0.21046 0.674865
0 0.380777 0.631956
0.002221 0.399356 0.650353
0.057936 0.450288 0.692156
0.347641 0.495436 0.748059
0.597304 0.520065 0.786404
0.815244 0.575934 0.834202
0.000001 0.59445 0.720534
0.000001 0.591393 0.721239
0.014747 0.642118 0.753601
0.339823 0.746342 0.837402
0.762413 0.859944 0.923262
0.97249 0.900382 0.95813
0.000916 0.795128 0.801531
0.006976 0.802212 0.807506
0.043595 0.81895 0.814391
0.464369 0.930939 0.903978
0.865581 0.998175 0.984981
0.999882 0.998589 1.000564
