site/assets/luts/freshluts--0000606-let-it-green.cube
# LUTr-Schema-Version: 2
# LUTr-ID: freshluts--0000606-let-it-green
# LUTr-Title: LET IT GREEN
# LUTr-Collection: Fresh LUTs
# LUTr-Collection-ID: freshluts-community
# LUTr-Source: https://freshluts.com
# LUTr-Retrieved: 2026-07-27
# LUTr-Source-File: submissions-raw/freshluts/cubes/606__LET_IT_GREEN__88.DJI_0911.cube
# LUTr-Source-Format: CUBE
# LUTr-Source-SHA256: 5e47a7c5af62b8c16bbb095f940fe869414fe88796b302851a6df33745d49a7a
# LUTr-License: CC0-1.0
# LUTr-License-URL: https://freshluts.com/termsandconditions
# LUTr-License-Basis: site-terms
# LUTr-Transform-Class: creative-look
# LUTr-Tags: creative, freshluts, community, cube, green, dji-d-log
# LUTr-Input-Color-Space: dji-dlog-dgamut
# LUTr-Input-Gamut: dji-d-gamut
# LUTr-Input-Transfer: dji-d-log
# LUTr-Output-Color-Space: srgb
# LUTr-Output-Gamut: rec709
# LUTr-Output-Transfer: srgb
# LUTr-Color-Space-Confidence: inferred-from-source-label
# LUTr-Domain-Normalized: true
# LUTr-Shaper: none
# LUTr-Original-Grid: 33x33x33
# LUTr-Conversion-Grid: 33x33x33
# LUTr-Conversion-Interpolation: none
# LUTr-Conversion-Method: Metadata normalization; numeric LUT samples preserved
# LUTr-Conversion-Tool: LUTr scripts/convert-all-to-cube.mjs 2.0.0
# LUTr-Conversion-Date: 2026-07-28
# LUTr-Asset-URL: https://freshluts.com/luts/606
# LUTr-Author: Shamoon Abbasi
# LUTr-Author-URL: https://freshluts.com/users/1258
# LUTr-Attribution: Shamoon Abbasi via Fresh LUTs
# LUTr-Source-Labels: gamma=DJI D-log; color=Green; key=Neutral; style=Adventure
# LUTr-Note: Preserve this metadata and the upstream license notices when redistributing.
TITLE "LET IT GREEN"
LUT_3D_SIZE 33
DOMAIN_MIN 0 0 0
DOMAIN_MAX 1 1 1
0 0 0
0.00297551 0.00172427 0.00167849
0.00608835 0.00347906 0.00335698
0.00968948 0.00485237 0.004654
0.0139773 0.0059205 0.00561532
0.0187076 0.00694286 0.00650034
0.0244144 0.00828565 0.00764477
0.0318914 0.0101472 0.009308
0.0414893 0.0125734 0.0115053
0.0536355 0.0154879 0.0140841
0.068925 0.019028 0.017258
0.0881666 0.0231174 0.0209506
0.109758 0.0271611 0.0244602
0.132815 0.0308537 0.0274968
0.157794 0.0343328 0.0301366
0.18378 0.0374609 0.0322728
0.210681 0.0404212 0.0339818
0.237858 0.043061 0.0352483
0.265873 0.0457008 0.0362402
0.294072 0.0483558 0.0366827
0.322072 0.0510414 0.0365301
0.349783 0.0536355 0.0361334
0.377371 0.0561379 0.0355993
0.404883 0.0587472 0.0349584
0.43125 0.0615091 0.0344549
0.457099 0.0645762 0.0340581
0.482643 0.0677043 0.0338903
0.505333 0.0707408 0.0338903
0.51284 0.0729992 0.0340124
0.520333 0.0752575 0.0342107
0.527825 0.0775158 0.0344854
0.535485 0.0798352 0.0348669
0.543008 0.0820935 0.0354009
0.00183108 0.00822461 0.00183108
0.00457771 0.00968948 0.00292973
0.00764477 0.0114748 0.00419623
0.0120394 0.0136873 0.00569161
0.0180972 0.0160983 0.00726329
0.0259709 0.0193179 0.00932326
0.0363928 0.0236362 0.0120699
0.0499428 0.0287785 0.015198
0.0660105 0.0340581 0.018265
0.0847181 0.0390631 0.0209659
0.105348 0.0437018 0.0231174
0.127901 0.047837 0.0246738
0.1523 0.051606 0.0256657
0.177966 0.055024 0.026154
0.204669 0.0580606 0.0260624
0.232181 0.0607614 0.0254063
0.260395 0.0633097 0.024445
0.289174 0.0657511 0.0231632
0.318105 0.0681315 0.0216831
0.347173 0.0705272 0.0200809
0.37615 0.0729229 0.0183871
0.40473 0.0752728 0.0167086
0.433127 0.0775921 0.0150454
0.461723 0.0800946 0.0137942
0.489265 0.0827802 0.0130159
0.515633 0.0857404 0.0124208
0.541558 0.0890516 0.0115663
0.566949 0.0925002 0.0108034
0.576394 0.0949416 0.0115358
0.584421 0.0974441 0.0125277
0.591592 0.0998856 0.0137789
0.598932 0.102403 0.0147707
0.606256 0.104921 0.0155184
0.00390631 0.0176242 0.00395209
0.00827039 0.0213169 0.00608835
0.0134585 0.0257877 0.00860609
0.0208743 0.0311437 0.0114748
0.0316014 0.0374914 0.0146487
0.0445869 0.0441138 0.0176547
0.0592966 0.0503853 0.0201572
0.0764324 0.0562142 0.022034
0.0957046 0.0615396 0.02327
0.117296 0.0661784 0.0237125
0.140993 0.0703746 0.0235142
0.1664 0.0739452 0.0227207
0.193194 0.0769207 0.0212863
0.22118 0.0795605 0.01944
0.250141 0.0819257 0.0172274
0.280095 0.0841382 0.014725
0.31043 0.0861372 0.0120089
0.340703 0.0880293 0.00939956
0.371252 0.0899672 0.00738537
0.401785 0.0919814 0.00520333
0.431815 0.0941787 0.00297551
0.461418 0.0964675 0.00115969
0.490898 0.0988479 0.00158694
0.51989 0.101427 0.00170901
0.547906 0.104326 0.00140383
0.574594 0.107637 0.00077821
0.600046 0.11136 0
0.624491 0.115511 0
0.635554 0.11873 0.000915541
0.642466 0.121553 0.00164797
0.64918 0.124315 0.00175479
0.655879 0.127077 0.00125124
0.662715 0.1299 0.000106813
0.0113832 0.0378729 0.01149
0.0183566 0.0455177 0.0149081
0.0262455 0.0536202 0.0184176
0.0363622 0.0612345 0.0212406
0.0495918 0.0681926 0.0231479
0.0648814 0.0746014 0.0243992
0.082063 0.0805982 0.0250248
0.101579 0.0856641 0.0247807
0.123384 0.0902113 0.0237888
0.147799 0.0940719 0.022034
0.17438 0.0974899 0.0196536
0.202609 0.100298 0.0166934
0.232136 0.10251 0.0131838
0.262837 0.104479 0.00936904
0.29424 0.106233 0.00534066
0.326284 0.107897 0.00288396
0.358267 0.109453 0.00207523
0.390188 0.111131 0.000946059
0.421942 0.112825 0
0.453391 0.114839 0
0.48484 0.117174 0
0.515404 0.119615 0
0.545434 0.122225 0.000030518
0.574655 0.125032 0
0.602441 0.128435 0
0.628351 0.132448 0
0.65272 0.13695 0
0.676341 0.141741 0
0.68777 0.145373 0
0.694286 0.148623 0
0.699748 0.151736 0
0.705257 0.155093 0
0.710536 0.158297 0
0.020264 0.0702373 0.0204929
0.0281834 0.0788281 0.0229801
0.0366522 0.087068 0.0250706
0.0479896 0.0946059 0.0262455
0.0632334 0.101076 0.026215
0.0807507 0.10692 0.0254063
0.100069 0.112062 0.0239719
0.122332 0.116579 0.0216068
0.146975 0.120348 0.0185245
0.174136 0.123323 0.0146944
0.203555 0.125872 0.0101778
0.234607 0.128023 0.00598154
0.267079 0.129625 0.00233463
0.300343 0.131029 0.000701915
0.334157 0.132326 0.00047303
0.367926 0.133501 0.000030518
0.402014 0.134874 0
0.435782 0.13637 0
0.469352 0.138201 0
0.501991 0.14023 0
0.534218 0.142718 0
0.564904 0.145464 0
0.594659 0.148531 0
0.623484 0.151965 0
0.650813 0.15581 0
0.676066 0.160311 0
0.699382 0.165423 0
0.721584 0.170901 0
0.732174 0.175311 0
0.736965 0.178866 0
0.741619 0.18233 0
0.746365 0.185885 0
0.750973 0.189364 0
0.0243381 0.10602 0.0248569
0.0326848 0.114351 0.0256809
0.0417182 0.122438 0.026154
0.0544289 0.129656 0.0255741
0.0719005 0.135439 0.0235904
0.0916762 0.14049 0.0208438
0.113649 0.145022 0.0174258
0.138613 0.148775 0.0131685
0.166171 0.151766 0.00817884
0.196368 0.15404 0.00355535
0.22887 0.155901 0.00131228
0.26302 0.157366 0.00015259
0.298405 0.158404 0.0000915541
0.334264 0.159335 0.000015259
0.370611 0.160281 0
0.407019 0.161334 0
0.443168 0.162615 0
0.478538 0.164065 0
0.512947 0.165927 0
0.546365 0.168383 0
0.578286 0.17116 0
0.608896 0.174258 0
0.638453 0.177676 0
0.666865 0.181521 0
0.693446 0.185824 0
0.717128 0.191043 0
0.738476 0.196902 0
0.759152 0.203281 0
0.768322 0.207874 0
0.772381 0.211612 0
0.776333 0.215259 0
0.780011 0.219043 0
0.783368 0.222843 0
0.0228122 0.142901 0.023621
0.0318914 0.151354 0.0230259
0.0418097 0.159304 0.0220798
0.0560769 0.165957 0.019852
0.0759136 0.171054 0.0160678
0.0983749 0.175509 0.0115663
0.123079 0.179461 0.0065919
0.150973 0.182513 0.00169375
0.181628 0.184741 0.000289921
0.214969 0.186404 0.0000610361
0.251118 0.187884 0
0.288334 0.188861 0
0.326558 0.189441 0
0.365118 0.190082 0
0.403952 0.19086 0
0.442069 0.191806 0
0.47953 0.193072 0
0.515816 0.194629 0
0.550774 0.196582 0
0.584848 0.199268 0
0.616815 0.202274 0
0.647257 0.205707 0
0.676005 0.209522 0
0.70309 0.213901 0
0.72813 0.218936 0
0.750576 0.224689 0
0.770764 0.231098 0
0.790249 0.238132 0
0.798444 0.242939 0
0.801328 0.247059 0
0.804059 0.250965 0
0.806806 0.254902 0
0.809552 0.258839 0
0.0156405 0.181949 0.0166629
0.0256504 0.190005 0.0146181
0.0364843 0.197925 0.0123445
0.05243 0.204166 0.00877394
0.0748913 0.208927 0.00477607
0.100191 0.212848 0.00135805
0.127718 0.216144 0.000244144
0.15874 0.218585 0.0000915541
0.192782 0.220493 0
0.229786 0.221775 0
0.268666 0.222492 0
0.30901 0.223133 0
0.35021 0.223484 0
0.391394 0.223774 0
0.43209 0.224292 0
0.471748 0.225025 0
0.51043 0.22623 0
0.547692 0.227832 0
0.583413 0.229999 0
0.617304 0.23299 0
0.648539 0.236301 0
0.677989 0.240162 0
0.705898 0.24445 0
0.732311 0.249256 0
0.756481 0.254673 0
0.777844 0.26096 0
0.796765 0.268025 0
0.814008 0.27538 0
0.821469 0.280751 0
0.823835 0.284916 0
0.826001 0.288762 0
0.828214 0.292714 0
0.830365 0.296559 0
0.00399786 0.222675 0.00505074
0.0151369 0.230549 0.00256352
0.027039 0.238407 0.00175479
0.0448768 0.244709 0.000747692
0.070161 0.248905 0.0000915541
0.0985275 0.252369 0.000030518
0.129244 0.255222 0
0.163546 0.257389 0
0.200885 0.258747 0
0.240909 0.259403 0
0.283101 0.259815 0
0.326329 0.259953 0
0.369711 0.259815 0
0.412955 0.259876 0
0.455161 0.260075 0
0.496269 0.260731 0
0.535744 0.262074 0
0.573465 0.263966 0
0.609247 0.266484 0
0.642359 0.269413 0
0.67332 0.273091 0
0.702205 0.277104 0
0.729549 0.281804 0
0.755169 0.286885 0
0.778134 0.292729 0
0.798367 0.299565 0
0.815946 0.307179 0
0.832151 0.314885 0
0.840101 0.320577 0
0.841932 0.32462 0
0.843717 0.328557 0
0.845243 0.33257 0
0.846815 0.336858 0
0 0.265736 0.000610361
0.00311284 0.273747 0.000244144
0.0141756 0.281666 0.0000457771
0.0342412 0.28751 0
0.062501 0.291249 0
0.0939803 0.294286 0
0.127947 0.296834 0
0.165393 0.298375 0
0.205829 0.299016 0
0.249149 0.299382 0
0.294057 0.299214 0
0.339391 0.298848 0
0.385031 0.298436 0
0.429877 0.298222 0
0.473457 0.298482 0
0.515526 0.299153 0
0.555505 0.300374 0
0.593439 0.302159 0
0.629328 0.304799 0
0.662211 0.307851 0
0.692851 0.311772 0
0.721187 0.316304 0
0.747585 0.32134 0
0.772107 0.326787 0
0.794644 0.333074 0
0.814038 0.340032 0
0.830488 0.347753 0
0.84593 0.355718 0
0.85507 0.362188 0
0.856291 0.366293 0
0.85742 0.370138 0
0.85864 0.374365 0
0.859785 0.378317 0
0 0.310979 0
0 0.319188 0
0.00309758 0.32665 0
0.0218051 0.332296 0
0.0532692 0.335485 0
0.0880446 0.338033 0
0.125093 0.339773 0
0.165545 0.340703 0
0.20885 0.340963 0
0.254948 0.340764 0
0.302342 0.34023 0
0.349844 0.339345 0
0.397101 0.338537 0
0.443534 0.338247 0
0.488258 0.338308 0
0.530877 0.33875 0
0.571328 0.340078 0
0.609705 0.342107 0
0.64506 0.344778 0
0.677531 0.348257 0
0.707332 0.352285 0
0.735027 0.356985 0
0.760723 0.362112 0
0.784756 0.367819 0
0.807187 0.374563 0
0.825666 0.381643 0
0.841489 0.389593 0
0.856107 0.398001 0
0.866712 0.405371 0
0.86775 0.409339 0
0.868803 0.413306 0
0.869795 0.417136 0
0.870756 0.420829 0
0 0.358099 0
0 0.365881 0
0 0.372946 0
0.0105287 0.378271 0
0.0440833 0.380789 0
0.0818341 0.382498 0
0.121904 0.383734 0
0.16524 0.384237 0
0.21149 0.384115 0
0.259937 0.3832 0
0.309133 0.381979 0
0.358679 0.380941 0
0.407507 0.37998 0
0.454612 0.379278 0
0.499992 0.379187 0
0.543267 0.379812 0
0.584161 0.381476 0
0.621942 0.383368 0
0.657084 0.386038 0
0.689158 0.389609 0
0.718654 0.393851 0
0.745815 0.398688 0
0.77113 0.404089 0
0.794965 0.410269 0
0.816602 0.416754 0
0.834394 0.424384 0
0.850233 0.432639 0
0.865049 0.441321 0
0.878447 0.450065 0
0.879698 0.454231 0
0.880873 0.458106 0
0.881956 0.461662 0
0.883009 0.46508 0
0 0.406348 0
0 0.413382 0
0 0.420264 0
0.00210575 0.424659 0
0.0360266 0.426429 0
0.0766918 0.427573 0
0.119631 0.428183 0
0.165454 0.428077 0
0.214145 0.427512 0
0.264546 0.426154 0
0.315526 0.424598 0
0.366445 0.423163 0
0.416281 0.421897 0
0.464378 0.421088 0
0.510201 0.420966 0
0.554177 0.421775 0
0.59472 0.423209 0
0.632319 0.425208 0
0.667033 0.427893 0
0.69868 0.43154 0
0.727672 0.435859 0
0.754589 0.441047 0
0.779934 0.447227 0
0.803342 0.453574 0
0.825147 0.460441 0
0.843946 0.468666 0
0.861097 0.477791 0
0.877134 0.487343 0
0.893034 0.497765 0
0.895918 0.502358 0
0.897307 0.50602 0
0.89865 0.509529 0
0.900023 0.513069 0
0 0.454444 0
0 0.461021 0
0 0.467201 0
0 0.470909 0
0.030518 0.471855 0
0.0738994 0.47245 0
0.119203 0.472389 0
0.167391 0.472068 0
0.217945 0.47071 0
0.270176 0.46894 0
0.322576 0.467079 0
0.374426 0.465324 0
0.425071 0.463874 0
0.473869 0.463096 0
0.520516 0.463203 0
0.563882 0.4636 0
0.60415 0.464836 0
0.641566 0.466972 0
0.676326 0.470237 0
0.707744 0.474052 0
0.736904 0.479088 0
0.764355 0.485069 0
0.790021 0.491539 0
0.814481 0.498695 0
0.8374 0.506615 0
0.857939 0.516045 0
0.876875 0.526207 0
0.894804 0.537392 0
0.912047 0.548898 0
0.91812 0.554803 0
0.919722 0.558236 0
0.921324 0.561685 0
0.923217 0.565408 0
0 0.502037 0
0 0.508095 0
0 0.513512 0
0.00146487 0.516091 0
0.0287327 0.516487 0
0.0744182 0.516579 0
0.122286 0.516243 0
0.172152 0.515023 0
0.224247 0.513268 0
0.277775 0.511238 0
0.331182 0.508888 0
0.383963 0.506935 0
0.435096 0.505516 0
0.484413 0.504814 0
0.530816 0.504646 0
0.574365 0.505318 0
0.614527 0.506889 0
0.65214 0.509392 0
0.686931 0.512932 0
0.719417 0.517891 0
0.750118 0.524422 0
0.778561 0.53135 0
0.805463 0.538918 0
0.831357 0.54728 0
0.855787 0.556664 0
0.877699 0.566796 0
0.898222 0.578164 0
0.916884 0.589654 0
0.935225 0.601984 0
0.944472 0.6094 0
0.94609 0.612512 0
0.947707 0.615641 0
0.949584 0.618997 0.000411994
0 0.548165 0
0 0.553567 0
0 0.558541 0
0.00222782 0.559991 0
0.0320897 0.559625 0
0.0799268 0.559136 0
0.129595 0.55845 0
0.180957 0.556954 0
0.234302 0.554788 0
0.288472 0.552331 0
0.342733 0.549935 0
0.396033 0.547982 0
0.448127 0.54696 0
0.497185 0.546242 0
0.543603 0.546242 0
0.587472 0.547478 0
0.62884 0.550271 0
0.667796 0.554376 0
0.703868 0.559167 0
0.737636 0.565606 0
0.768856 0.572641 0
0.798398 0.580606 0
0.82652 0.589426 0
0.853468 0.598749 0
0.878981 0.608972 0
0.902434 0.620325 0
0.92398 0.632136 0
0.943358 0.644175 0
0.96202 0.656382 0.00062562
0.974105 0.665263 0.00187686
0.975738 0.668162 0.0028687
0.977508 0.671321 0.00411994
0.979004 0.673976 0.00511177
0 0.592706 0
0 0.597665 0
0 0.601724 0
0.00396735 0.602197 0
0.0408331 0.601602 0
0.090486 0.600443 0
0.141238 0.59913 0
0.193835 0.597421 0
0.248356 0.595117 0
0.303166 0.592676 0
0.358068 0.590738 0
0.412024 0.589364 0
0.464302 0.588724 0
0.514336 0.589014 0
0.562066 0.590738 0
0.606928 0.593225 0
0.648997 0.596902 0
0.688777 0.601892 0
0.726497 0.608469 0
0.760845 0.615747 0
0.793118 0.624033 0
0.823682 0.632959 0
0.852659 0.642496 0
0.880278 0.652583 0
0.906416 0.663325 0
0.930068 0.67454 0
0.951766 0.686091 0.000366217
0.971359 0.698222 0.00337224
0.985885 0.71046 0.00958267
0.994797 0.719982 0.0163424
0.995834 0.722972 0.0186923
0.996689 0.72546 0.0207828
0.997436 0.727703 0.0227054
0 0.635599 0
0 0.640116 0
0 0.642908 0
0.00915541 0.642527 0
0.0548867 0.641718 0
0.105989 0.640497 0
0.157549 0.639017 0
0.210895 0.637339 0
0.266285 0.635828 0
0.322225 0.634318 0
0.378439 0.633692 0
0.433112 0.633463 0
0.486198 0.633921 0
0.537148 0.635355 0
0.585809 0.638086 0
0.631815 0.641962 0
0.67509 0.64715 0
0.715694 0.653193 0
0.753368 0.660014 0
0.788602 0.668223 0
0.821408 0.676982 0
0.852125 0.686366 0
0.881193 0.695903 0.000213626
0.909453 0.706645 0.00120546
0.93518 0.717006 0.00383001
0.958526 0.727703 0.0074464
0.979278 0.738552 0.0122072
0.990585 0.750179 0.0203861
0.997024 0.761563 0.0303655
1 0.771572 0.040116
1 0.773266 0.0417792
1 0.775189 0.0437934
1 0.776867 0.0456092
0 0.676707 0
0 0.68069 0
0 0.682826 0
0.0209354 0.682307 0
0.073167 0.681361 0
0.125368 0.68098 0
0.178317 0.680476 0
0.232731 0.679881 0
0.289052 0.679438 0
0.346593 0.6795 0
0.403479 0.679759 0
0.459113 0.680491 0
0.513252 0.682368 0
0.565087 0.684993 0
0.614206 0.688411 0
0.660609 0.693004 0
0.704982 0.699321 0
0.745861 0.70605 0
0.78378 0.713268 0.0000762951
0.818967 0.721508 0.000579843
0.851606 0.730327 0.00137331
0.882109 0.739498 0.00257877
0.910918 0.748974 0.00489815
0.937835 0.758236 0.00901808
0.963027 0.768048 0.0162966
0.983124 0.778195 0.0246128
0.996826 0.788083 0.033463
0.999146 0.798596 0.0437018
1 0.808911 0.0540932
1 0.817792 0.0630503
1 0.81915 0.0646372
1 0.820508 0.0661021
1 0.821637 0.0673075
0 0.717159 0
0 0.720592 0
0 0.723461 0
0.0429236 0.724041 0
0.0961776 0.72398 0
0.149081 0.724269 0
0.203433 0.72517 0
0.259541 0.726131 0
0.317388 0.727016 0
0.375189 0.727794 0.000015259
0.432761 0.729137 0
0.489281 0.730755 0
0.544106 0.733379 0
0.596353 0.736629 0.000030518
0.646357 0.7411 0.0000915541
0.693019 0.746166 0
0.736873 0.752224 0
0.777523 0.758938 0.0000915541
0.814969 0.766049 0.00111391
0.849577 0.773678 0.00555428
0.881422 0.781872 0.0104677
0.911513 0.790722 0.0162814
0.939132 0.799054 0.0227359
0.96524 0.807523 0.0300755
0.987488 0.815991 0.0386969
0.998642 0.824598 0.0475013
1 0.833555 0.056672
1 0.842847 0.0661784
1 0.851469 0.0750896
1 0.859388 0.0830396
1 0.860197 0.0840314
1 0.861189 0.0851148
1 0.862394 0.0864118
0 0.759823 0.0000762951
0.000015259 0.764675 0
0.0148775 0.7673 0
0.0689097 0.769024 0
0.12369 0.770489 0
0.178058 0.771923 0.00015259
0.233143 0.773571 0.0015259
0.290593 0.775799 0.00257877
0.349035 0.777386 0.00251774
0.407141 0.778607 0.0019379
0.465385 0.780575 0.00221256
0.522286 0.782971 0.00141909
0.576852 0.78555 0.000244144
0.629358 0.789151 0.000747692
0.679225 0.793652 0.00422675
0.725368 0.798444 0.00863661
0.768368 0.803738 0.012314
0.808026 0.809796 0.0157168
0.844465 0.815976 0.0196384
0.878508 0.823209 0.0262608
0.90866 0.829847 0.0326085
0.937087 0.837156 0.0394446
0.963668 0.844434 0.0466316
0.988754 0.852079 0.054139
0.996567 0.859327 0.0615549
0.999847 0.867033 0.0694438
1 0.874434 0.0770275
1 0.881865 0.0847028
1 0.88925 0.092256
1 0.896284 0.0993057
1 0.89688 0.0999466
1 0.89781 0.100954
1 0.898344 0.101656
0 0.806226 0.00479133
0.00112917 0.812161 0.00386053
0.04448 0.815839 0.00341802
0.0990158 0.81767 0.00756847
0.154711 0.819913 0.0104067
0.210407 0.822477 0.0119326
0.266987 0.825437 0.0144198
0.324025 0.827329 0.016495
0.382315 0.829023 0.0169223
0.440787 0.830518 0.0152285
0.499138 0.83267 0.0153201
0.555611 0.83476 0.0179751
0.61033 0.837629 0.0211795
0.661784 0.840513 0.023682
0.710414 0.84387 0.0269017
0.755535 0.847654 0.030808
0.797055 0.851881 0.0347753
0.83537 0.856535 0.03888
0.870893 0.862104 0.0440375
0.903212 0.867689 0.0497292
0.932403 0.873503 0.0555276
0.959258 0.879362 0.0615091
0.98114 0.885054 0.0674296
0.997604 0.891081 0.0735943
0.999313 0.897353 0.0800031
1 0.903639 0.0864424
1 0.909834 0.0927596
1 0.916136 0.0991684
1 0.922393 0.105531
1 0.928313 0.111452
1 0.928847 0.112154
1 0.929381 0.112596
1 0.929732 0.1131
0.000595102 0.856092 0.0225681
0.0248112 0.862715 0.0290684
0.0767071 0.866712 0.0325017
0.132128 0.869093 0.0346227
0.188159 0.871412 0.0366522
0.244541 0.87454 0.0398871
0.30074 0.87715 0.0419165
0.357763 0.878965 0.043473
0.415763 0.880232 0.0446021
0.474037 0.881727 0.0458839
0.531609 0.883268 0.0469825
0.587549 0.88484 0.0483253
0.640528 0.886137 0.0493782
0.690852 0.888014 0.0510414
0.73817 0.890349 0.053254
0.781979 0.892958 0.0558938
0.8224 0.89604 0.058854
0.859495 0.899733 0.0625467
0.893217 0.903716 0.0665599
0.924117 0.908049 0.0709544
0.952209 0.912673 0.0756542
0.976898 0.917342 0.0803998
0.993149 0.922011 0.0851759
1 0.92668 0.0899367
1 0.931319 0.094789
1 0.936492 0.0999619
1 0.94168 0.105364
1 0.947051 0.110811
1 0.952438 0.116167
1 0.957259 0.12108
1 0.957427 0.12137
1 0.957717 0.121584
1 0.957885 0.121874
0.0165866 0.908873 0.055436
0.0572213 0.915267 0.0616312
0.109529 0.918532 0.0647746
0.165484 0.92108 0.0672007
0.222385 0.923705 0.0697337
0.277913 0.926009 0.0718395
0.333272 0.927581 0.0734569
0.390265 0.929168 0.0749676
0.447761 0.930098 0.0756847
0.504768 0.930388 0.0757305
0.560937 0.930419 0.0755016
0.615167 0.930602 0.075349
0.667002 0.930846 0.0753796
0.716182 0.931517 0.0759899
0.76231 0.932723 0.0769207
0.804883 0.934325 0.0784619
0.844129 0.936233 0.0804608
0.879622 0.93846 0.0826886
0.911894 0.941161 0.0852827
0.941283 0.944137 0.0884108
0.968292 0.947784 0.0921035
0.989929 0.951476 0.0958572
1 0.955093 0.0995499
1 0.958663 0.103075
1 0.962066 0.106661
1 0.965896 0.110613
1 0.970031 0.114961
1 0.974365 0.119615
1 0.978378 0.123903
1 0.981781 0.127749
1 0.981857 0.127749
1 0.981933 0.127886
1 0.98201 0.128008
0.0453803 0.96231 0.0880751
0.088838 0.967575 0.0934768
0.141726 0.968185 0.0963607
0.19765 0.967865 0.098558
0.253666 0.969894 0.100206
0.308659 0.973831 0.1019
0.363043 0.976104 0.102525
0.41825 0.975784 0.102113
0.47451 0.975464 0.101686
0.530861 0.974258 0.100954
0.585367 0.971222 0.0993515
0.638544 0.969665 0.0982071
0.689433 0.969421 0.0973983
0.737392 0.970123 0.0968948
0.781918 0.97081 0.0964218
0.823117 0.971099 0.0964828
0.8607 0.971618 0.0970474
0.895064 0.972732 0.098146
0.925887 0.974136 0.0995346
0.954025 0.975967 0.101366
0.979934 0.978408 0.103853
0.994049 0.980865 0.10634
1 0.983536 0.109056
1 0.986084 0.111666
1 0.988617 0.114229
1 0.990723 0.117144
1 0.992401 0.12015
1 0.993637 0.123308
1 0.994644 0.126314
1 0.995544 0.129122
1 0.995544 0.129122
1 0.995697 0.129381
1 0.995697 0.129381
0.0740368 0.990829 0.118883
0.118135 0.996628 0.123186
0.171221 0.999908 0.125536
0.226444 1 0.126513
0.280797 0.998062 0.12665
0.334279 0.995102 0.126665
0.387533 0.994049 0.126238
0.442329 0.994781 0.125399
0.497047 0.997116 0.123507
0.552071 0.999725 0.121553
0.605829 1 0.119265
0.657694 1 0.117037
0.706905 0.996033 0.114611
0.753597 0.993332 0.112734
0.796704 0.991501 0.110933
0.836439 0.990768 0.109636
0.873075 0.990646 0.109178
0.906325 0.991104 0.109377
0.936278 0.991821 0.110002
0.963302 0.992782 0.110948
0.987747 0.993881 0.111955
0.996582 0.995209 0.113222
1 0.996506 0.114702
1 0.997818 0.116197
1 0.998993 0.117906
1 0.999664 0.119844
1 1 0.121691
1 1 0.123476
1 1 0.125338
1 1 0.127077
1 1 0.127062
1 1 0.127062
1 1 0.127062
0.0916304 1 0.137942
0.140658 1 0.145861
0.196811 1 0.150774
0.250645 1 0.150134
0.303487 1 0.148714
0.355291 1 0.147204
0.408103 1 0.145968
0.461524 1 0.143954
0.514977 1 0.140841
0.568734 1 0.137835
0.62089 1 0.13402
0.671321 1 0.130129
0.719631 1 0.12697
0.765164 1 0.124025
0.807431 1 0.121477
0.846265 1 0.119356
0.881849 1 0.118029
0.914153 1 0.117189
0.943267 1 0.117052
0.969284 1 0.11696
0.992462 1 0.116899
0.99794 1 0.116945
1 1 0.117174
1 1 0.117693
1 1 0.118303
1 1 0.11928
1 1 0.12018
1 1 0.121141
1 1 0.121981
1 1 0.122591
1 1 0.122515
1 1 0.12256
1 1 0.12256
0.0950637 1 0.142519
0.144427 1 0.149966
0.200946 1 0.154452
0.258503 1 0.157504
0.314382 1 0.159075
0.368551 1 0.159747
0.422248 1 0.159579
0.476539 1 0.158633
0.528618 1 0.154009
