site/assets/luts/freshluts--0000821-blue-colour-toner-with-saturator-dark-nature-lut-nahin.cube
# LUTr-Schema-Version: 2
# LUTr-ID: freshluts--0000821-blue-colour-toner-with-saturator-dark-nature-lut-nahin
# LUTr-Title: Blue Colour Toner With Saturator _Dark Nature_Lut- Nahin
# LUTr-Collection: Fresh LUTs
# LUTr-Collection-ID: freshluts-community
# LUTr-Source: https://freshluts.com
# LUTr-Retrieved: 2026-07-27
# LUTr-Source-File: submissions-raw/freshluts/cubes/821__Blue_Colour_Toner_With_Saturator_Dark_Nature_Lut-Nahin.cube
# LUTr-Source-Format: CUBE
# LUTr-Source-SHA256: 39932f8d9ae732dacc515d77e0378c4c6c2f3a3bc9b452ab8d251b7a89d203d4
# LUTr-License: CC0-1.0
# LUTr-License-URL: https://freshluts.com/termsandconditions
# LUTr-License-Basis: site-terms
# LUTr-Transform-Class: creative-look
# LUTr-Tags: creative, freshluts, community, cube, high-contrast, cool, high-key, panasonic-v-log
# LUTr-Input-Color-Space:
# LUTr-Input-Gamut: panasonic-v-gamut
# LUTr-Input-Transfer: panasonic-v-log
# LUTr-Output-Color-Space: srgb
# LUTr-Output-Gamut: rec709
# LUTr-Output-Transfer: srgb
# LUTr-Color-Space-Confidence: camera-profile-input-required
# LUTr-Domain-Normalized: true
# LUTr-Shaper: none
# LUTr-Original-Grid: 16x16x16
# LUTr-Conversion-Grid: 16x16x16
# LUTr-Conversion-Interpolation: none
# LUTr-Conversion-Method: Metadata normalization; numeric LUT samples preserved
# LUTr-Conversion-Tool: LUTr scripts/convert-all-to-cube.mjs 2.0.0
# LUTr-Conversion-Date: 2026-07-28
# LUTr-Asset-URL: https://freshluts.com/luts/821
# LUTr-Author: Nahin
# LUTr-Author-URL: https://freshluts.com/users/72197
# LUTr-Attribution: Nahin via Fresh LUTs
# LUTr-Source-Labels: gamma=Panasonic V-log; color=Cool; key=High Key; style=High contrast
# LUTr-Note: Preserve this metadata and the upstream license notices when redistributing.
TITLE "Blue Colour Toner With Saturator _Dark Nature_Lut- Nahin"
LUT_3D_SIZE 6
DOMAIN_MIN 0 0 0
DOMAIN_MAX 1 1 1
-0.025755 -0.026381 -0.002579
0.145904 -0.026444 0.000704
0.387994 -0.02515 0.002367
0.611863 -0.022908 0.004065
0.826088 -0.019949 0.005571
1.000529 -0.01656 0.006835
-0.025054 0.135842 0.003042
0.144288 0.135242 0.000629
0.382221 0.131475 0.000969
0.606523 0.126962 0.001506
0.822436 0.122984 0.002211
1.000155 0.120145 0.002937
-0.020162 0.362348 0.007533
0.134518 0.361709 0.001687
0.368608 0.358744 0.001948
0.592875 0.354118 0.002397
0.811301 0.349583 0.003036
0.998349 0.346022 0.003738
-0.01069 0.582209 0.010834
0.127983 0.581932 0.003229
0.35791 0.580368 0.003453
0.581443 0.577938 0.003849
0.801209 0.575004 0.004431
0.995718 0.5725 0.005105
0.001119 0.805258 0.014123
0.124947 0.805297 0.005261
0.352555 0.804779 0.005459
0.575193 0.803772 0.005832
0.7956 0.802788 0.006377
0.993156 0.802076 0.007019
0.052319 1.054192 0.09431
0.156395 1.054189 0.09265
0.360807 1.054196 0.09504
0.575308 1.054211 0.097694
0.789834 1.054209 0.094397
0.989083 1.054395 0.068389
-0.046744 -0.365053 0.222477
0.144477 -0.364633 0.228509
0.388924 -0.364605 0.22842
0.614036 -0.364511 0.222415
0.828449 -0.364446 0.217117
1.001912 -0.364388 0.214345
0.000172 0.135293 0.222021
0.131914 0.135556 0.233632
0.490731 0.034653 0.104022
0.696773 -0.048955 0.028537
0.887792 -0.067701 0.008773
1.000339 0.086788 0.165155
0.000745 0.361885 0.213807
-0.062855 0.381115 0.038082
0.372676 0.366619 0.015563
0.622809 0.342282 0.010354
0.845801 0.325207 0.006444
1.001225 0.331938 0.150704
0.001522 0.581924 0.207388
-0.06636 0.593431 0.023742
0.328872 0.588955 0.006045
0.583648 0.581771 0.005763
0.814261 0.571226 0.005549
1.003659 0.564819 0.086796
0.002572 0.805162 0.204905
-0.062943 0.812878 0.023419
0.313077 0.811317 0.006041
0.563047 0.808507 0.006322
0.79681 0.805058 0.006779
0.999917 0.80075 0.007278
0.052737 1.054185 0.225833
0.133164 1.053795 0.19832
0.351076 1.053753 0.200128
0.570461 1.053875 0.202826
0.787587 1.054025 0.201177
0.98893 1.05431 0.183626
-0.046392 -0.364945 0.500158
0.146861 -0.364617 0.499517
0.389448 -0.364615 0.49708
0.61289 -0.364526 0.487572
0.827389 -0.364461 0.478689
1.001585 -0.364384 0.472993
0.000267 0.134195 0.485427
0.07005 0.077688 0.635756
0.459419 0.022724 0.562006
0.67687 0.006112 0.493058
0.876174 0.002258 0.456688
1.000398 0.087974 0.449137
0.000792 0.360891 0.471468
0.003202 0.373911 0.484772
0.352078 0.358212 0.485134
0.734065 0.267657 0.394557
0.971036 0.181794 0.303653
1.000022 0.305986 0.418361
0.001563 0.581332 0.460193
0.002077 0.590636 0.439282
0.06406 0.623735 0.221766
0.58879 0.595662 0.141388
0.873746 0.548038 0.106741
1.000076 0.552877 0.408165
0.002614 0.805057 0.454782
0.002751 0.811598 0.423059
-0.055491 0.837138 0.124108
0.499572 0.827369 0.047595
0.800792 0.813598 0.039694
1.002923 0.793594 0.3435
0.053232 1.054191 0.450906
0.137023 1.053749 0.44275
0.323918 1.052306 0.417953
0.557071 1.052524 0.420572
0.780919 1.053238 0.419309
0.987932 1.054146 0.408215
-0.046275 -0.364871 0.719787
0.14498 -0.364609 0.717171
0.386345 -0.364594 0.711468
0.611146 -0.364543 0.702466
0.825374 -0.364481 0.692489
1.000927 -0.364386 0.68552
0.000389 0.132436 0.701163
0.016559 0.027186 0.865104
0.418785 0.01196 0.792867
0.658238 0.004591 0.738126
0.866857 0.00206 0.700281
1.000493 0.085731 0.668899
0.000878 0.358618 0.684835
0.002769 0.359324 0.722904
0.292449 0.300173 0.834223
0.718882 0.207326 0.798912
0.970073 0.132422 0.718326
1.000022 0.301697 0.65433
0.001641 0.580407 0.672022
0.002119 0.587759 0.678988
0.072196 0.610319 0.701428
0.563114 0.578146 0.687546
0.932747 0.507494 0.625792
1.000082 0.548876 0.647208
0.002684 0.804617 0.66558
0.002819 0.810443 0.658879
0.020477 0.83155 0.621237
0.261542 0.861416 0.446053
0.800523 0.824916 0.362576
1.000822 0.792477 0.637593
0.054161 1.054199 0.654926
0.138086 1.053775 0.651363
0.327639 1.052305 0.642353
0.546348 1.050856 0.634843
0.77618 1.051601 0.641302
0.987262 1.05418 0.623082
-0.046186 -0.364708 0.911206
0.141725 -0.364557 0.908377
0.381279 -0.364547 0.900748
0.606359 -0.364509 0.890414
0.821936 -0.364459 0.880176
1.000116 -0.364365 0.87255
0.000541 0.130181 0.891651
0.028209 0.032246 1.001671
0.386067 -0.030044 0.991218
0.634476 0.002059 0.93764
0.855231 0.00185 0.903473
1.00087 0.081549 0.861417
0.001002 0.35617 0.87425
0.000195 0.34698 0.923375
0.28164 0.279121 0.9881
0.626438 0.232784 0.98504
0.939022 0.105212 0.984387
1.000007 0.29433 0.85358
0.001751 0.578796 0.860226
0.002083 0.581225 0.87747
0.042449 0.57781 0.953404
0.521174 0.527686 0.972052
0.907701 0.462884 0.964697
1.0001 0.535345 0.846737
0.002791 0.804165 0.85294
0.002918 0.808981 0.857216
0.018958 0.825462 0.872539
0.248862 0.84433 0.894526
0.777693 0.804759 0.871213
1.000866 0.794237 0.847738
0.055338 1.054204 0.838354
0.139269 1.053842 0.837163
0.32831 1.052614 0.833262
0.549333 1.051059 0.829227
0.778043 1.051539 0.830133
0.987934 1.054604 0.818063
0.012132 -0.359897 1.023949
0.144308 -0.359647 1.023985
0.372677 -0.358912 1.024096
0.593745 -0.357863 1.024386
0.808827 -0.356769 1.024935
0.990593 -0.35566 1.02607
0.018325 0.133655 1.019549
0.107744 0.101207 1.019749
0.354307 0.103915 1.019747
0.581136 0.104735 1.019749
0.801323 0.105678 1.019741
0.989842 0.106936 1.019743
0.023576 0.35346 1.019558
0.113308 0.342339 1.019741
0.309732 0.301284 1.020326
0.558583 0.30079 1.020313
0.79029 0.29993 1.020309
0.989753 0.299472 1.020307
0.028628 0.575657 1.019566
0.115455 0.570321 1.019744
0.310111 0.552801 1.020282
0.532309 0.529346 1.020996
0.777861 0.528349 1.020999
0.989683 0.528146 1.020997
0.034995 0.80168 1.019575
0.119776 0.799646 1.019742
0.310777 0.79326 1.020283
0.53234 0.785074 1.020968
0.777133 0.78498 1.021014
0.989721 0.786313 1.020995
0.047695 1.006759 1.019605
0.129772 1.006812 1.019761
0.314917 1.00698 1.020294
0.531942 1.007178 1.020965
0.767497 1.00731 1.021052
0.992222 1.007445 1.019615
