site/assets/luts/freshluts--0000628-clean-white-fresh-look.cube
# LUTr-Schema-Version: 2
# LUTr-ID: freshluts--0000628-clean-white-fresh-look
# LUTr-Title: CLEAN WHITE. FRESH LOOK
# LUTr-Collection: Fresh LUTs
# LUTr-Collection-ID: freshluts-community
# LUTr-Source: https://freshluts.com
# LUTr-Retrieved: 2026-07-27
# LUTr-Source-File: submissions-raw/freshluts/cubes/628__COOL.FRESH_4.AIA2AIA2_00000455-focus.cube
# LUTr-Source-Format: CUBE
# LUTr-Source-SHA256: 62338a6e44280bc3015f97bdaa83e9b82de60e2384fb24f7ed04c4fd90bba3cf
# LUTr-License: CC0-1.0
# LUTr-License-URL: https://freshluts.com/termsandconditions
# LUTr-License-Basis: site-terms
# LUTr-Transform-Class: creative-look
# LUTr-Tags: creative, freshluts, community, cube, cool, high-key, canon-cinestyle
# LUTr-Input-Color-Space:
# LUTr-Input-Gamut: rec709
# LUTr-Input-Transfer: canon-cinestyle
# LUTr-Output-Color-Space: srgb
# LUTr-Output-Gamut: rec709
# LUTr-Output-Transfer: srgb
# LUTr-Color-Space-Confidence: camera-profile-input-required
# LUTr-Domain-Normalized: true
# LUTr-Shaper: none
# LUTr-Original-Grid: 33x33x33
# LUTr-Conversion-Grid: 33x33x33
# LUTr-Conversion-Interpolation: none
# LUTr-Conversion-Method: Metadata normalization; numeric LUT samples preserved
# LUTr-Conversion-Tool: LUTr scripts/convert-all-to-cube.mjs 2.0.0
# LUTr-Conversion-Date: 2026-07-28
# LUTr-Asset-URL: https://freshluts.com/luts/628
# LUTr-Author: lvannoeun@gmail.com
# LUTr-Author-URL: https://freshluts.com/users/57563
# LUTr-Attribution: lvannoeun@gmail.com via Fresh LUTs
# LUTr-Source-Labels: gamma=Canon Cinestyle; color=Cool; key=High Key; style=FRESH
# LUTr-Note: Preserve this metadata and the upstream license notices when redistributing.
TITLE "CLEAN WHITE. FRESH LOOK"
LUT_3D_SIZE 9
DOMAIN_MIN 0 0 0
DOMAIN_MAX 1 1 1
0 0.0277714 0.02121
0.076051 0.00839246 0.028809
0.233616 0 0.0508431
0.378195 0 0.07393
0.516503 0 0.0979934
0.65066 0 0.122866
0.782132 0 0.148592
0.911269 0 0.175021
0.995834 0 0.201755
0 0.157519 0.067277
0.0771649 0.134096 0.0194095
0.21503 0.13048 0.0101472
0.36173 0.122194 0.0193179
0.495888 0.118532 0.0214847
0.641016 0.108507 0.0536355
0.781521 0.0991989 0.09131
0.916579 0.0918441 0.127733
0.995514 0.0857404 0.162203
0 0.28484 0.114092
0 0.287495 0.0568551
0.234592 0.248508 0.021622
0.352422 0.250782 0.0127871
0.493324 0.244541 0.0206302
0.629679 0.239078 0.0329442
0.753414 0.238575 0.0335088
0.874113 0.239246 0.0319524
0.995087 0.233768 0.0548409
0 0.412573 0.158846
0 0.41767 0.102068
0.120165 0.40679 0.0360113
0.378286 0.366873 0.0255283
0.491676 0.370169 0.0202945
0.609628 0.372107 0.0141756
0.750774 0.364843 0.0308385
0.883192 0.360327 0.0455787
1 0.359426 0.0528115
0 0.540658 0.202182
0 0.546838 0.144778
0.0646372 0.543938 0.0845502
0.267048 0.525963 0.0224613
0.515053 0.487221 0.0299687
0.630091 0.489586 0.0294957
0.732387 0.496803 0.0174716
0.857923 0.495567 0.0206607
0.996201 0.488838 0.0400092
0 0.66891 0.244541
0 0.67599 0.187732
0.0269932 0.675959 0.129046
0.180194 0.67274 0.0689403
0.404517 0.64712 0.0162814
0.647089 0.608927 0.0345769
0.763973 0.610361 0.0378424
0.85803 0.620218 0.0243687
0.970672 0.623606 0.0199283
0 0.797436 0.286046
0 0.805066 0.230274
0 0.80798 0.171511
0.139879 0.805753 0.112612
0.301167 0.799969 0.0522927
0.5411 0.76817 0.0139162
0.775448 0.731853 0.0393683
0.893446 0.73254 0.0451362
0.984833 0.743008 0.0332647
0 0.926146 0.326955
0 0.934264 0.272496
0 0.93875 0.212909
0.106218 0.936782 0.154559
0.245106 0.93756 0.0976577
0.431495 0.924285 0.0365911
0.678386 0.888747 0.0144808
0.901106 0.855451 0.0441596
0.99176 0.85594 0.051667
0 1 0.367254
0 1 0.314199
0 1 0.253971
0.0757153 1 0.193973
0.207996 1 0.13962
0.351202 1 0.0828412
0.562615 1 0.0252689
0.813504 1 0.0171359
0.991089 0.979522 0.0489204
0 0.0292821 0.146715
0.0622721 0.0153658 0.133227
0.211872 0.0078584 0.12665
0.349447 0.00360113 0.123278
0.481147 0.000946059 0.121508
0.609003 0 0.120836
0.734035 0 0.120867
0.85687 0 0.121584
0.97789 0 0.123049
0 0.152743 0.156619
0.0634318 0.139071 0.143114
0.224582 0.125856 0.159747
0.370779 0.11632 0.183642
0.510109 0.108782 0.208133
0.645319 0.10251 0.233371
0.777386 0.0969711 0.259342
0.907088 0.0922103 0.285954
0.994965 0.0878767 0.312856
0 0.274662 0.202991
0.0288243 0.270222 0.188525
0.222477 0.253117 0.144518
0.353124 0.251057 0.140658
0.490639 0.245777 0.147784
0.623926 0.241764 0.155764
0.766278 0.232242 0.190509
0.903929 0.223926 0.228733
0.99443 0.217212 0.264652
0 0.400443 0.252399
0 0.40087 0.236606
0.14049 0.4 0.175204
0.367269 0.371145 0.148287
0.480903 0.374517 0.140841
0.618738 0.369024 0.150469
0.751553 0.364645 0.162692
0.873152 0.364813 0.163928
0.990204 0.365408 0.164569
0 0.526818 0.30927
0 0.530449 0.28188
0.111177 0.529763 0.218082
0.259724 0.52755 0.16083
0.504417 0.491341 0.15259
0.614801 0.495415 0.14815
0.730663 0.497993 0.14284
0.868986 0.491676 0.15938
0.999924 0.487449 0.174807
0 0.654185 0.36141
0 0.65977 0.325673
0.0827955 0.659297 0.260212
0.2121 0.662577 0.206363
0.395895 0.649729 0.148333
0.636774 0.612985 0.157122
0.749416 0.615946 0.157275
0.850309 0.62359 0.145907
0.973373 0.623102 0.148821
0 0.782361 0.408225
0 0.789029 0.368307
0.0520638 0.789441 0.303166
0.181979 0.792737 0.24773
0.31548 0.794781 0.193057
0.527855 0.772534 0.142519
0.765454 0.735821 0.161791
0.880461 0.737636 0.16553
0.97322 0.747845 0.152483
0 0.910887 0.452232
0 0.918181 0.410163
0.0166018 0.920882 0.34728
0.154421 0.922316 0.286976
0.278157 0.927031 0.235264
0.428382 0.924285 0.177691
0.659739 0.894972 0.14023
0.891264 0.859388 0.166567
0.991302 0.860533 0.172778
0 1 0.494499
0 1 0.451316
0 1 0.391348
0.125872 1 0.326741
0.247547 1 0.275792
0.376394 1 0.221561
0.553307 1 0.16257
0.793866 1 0.140764
0.990631 0.983551 0.171237
0 0.0302434 0.272572
0.0612955 0.0163577 0.259113
0.211139 0.00880446 0.252476
0.348791 0.00454719 0.249104
0.480522 0.00190738 0.247318
0.608392 0.000289921 0.246632
0.733425 0 0.246662
0.856214 0 0.247303
0.977157 0 0.248508
0 0.153719 0.281712
0.0622721 0.140078 0.268437
0.212924 0.132448 0.261524
0.35079 0.128115 0.258061
0.482658 0.125414 0.256214
0.610651 0.123842 0.255497
0.735836 0.122972 0.255497
0.858701 0.122713 0.256107
0.97969 0.123095 0.257298
0 0.278798 0.287602
0.0600443 0.265278 0.274647
0.211307 0.25745 0.267567
0.359213 0.247639 0.289265
0.499245 0.239872 0.313664
0.634867 0.233417 0.338888
0.767315 0.227787 0.364767
0.897322 0.222797 0.391363
0.993866 0.218509 0.418296
0 0.401022 0.316167
0.0549935 0.387778 0.316777
0.185351 0.386175 0.310704
0.355657 0.375586 0.27071
0.483146 0.374212 0.269947
0.615 0.370779 0.275914
0.747921 0.366232 0.28925
0.887877 0.357244 0.326009
0.993362 0.349722 0.364065
0 0.523552 0.367895
0.0328832 0.51487 0.36437
0.160769 0.514351 0.354482
0.280751 0.5205 0.299931
0.493706 0.495674 0.274998
0.604623 0.499763 0.268574
0.739513 0.494972 0.278584
0.870314 0.491203 0.291402
0.990707 0.491447 0.294224
0 0.64918 0.413321
0.0031281 0.644022 0.421714
0.13489 0.642969 0.397528
0.253956 0.649668 0.341024
0.389868 0.651057 0.286931
0.626429 0.617136 0.279454
0.734493 0.621881 0.275654
0.848539 0.624842 0.270909
0.984024 0.619364 0.286534
0 0.776104 0.457679
0 0.772946 0.477058
0.107683 0.772198 0.439979
0.227955 0.778637 0.381765
0.346273 0.784924 0.330816
0.519554 0.775097 0.274617
0.755398 0.739773 0.284092
0.866133 0.743267 0.284672
0.965911 0.751171 0.273838
0 0.903044 0.509239
0 0.901991 0.526482
0.079057 0.901747 0.482063
0.201053 0.907744 0.423148
0.317876 0.914672 0.370855
0.443656 0.918914 0.318242
0.647456 0.899092 0.268727
0.881407 0.863355 0.288808
0.990829 0.865614 0.292958
0 1 0.564187
0 1 0.572106
0.0485695 1 0.52401
0.173617 1 0.464561
0.291875 1 0.409079
0.408179 1 0.359548
0.551049 1 0.303716
0.775525 1 0.266392
0.990173 0.987579 0.293446
0 0.0312352 0.398306
0.0604257 0.0173648 0.384878
0.210437 0.00976577 0.378134
0.348074 0.00552377 0.374792
0.479896 0.00285344 0.372992
0.607813 0.00122072 0.372244
0.73286 0.000366217 0.37232
0.85565 0.000137331 0.372992
0.976608 0.000381476 0.374105
0 0.154589 0.407355
0.061387 0.141009 0.394125
0.212131 0.133242 0.387228
0.350134 0.128893 0.383749
0.482033 0.126238 0.381903
0.610056 0.124666 0.381186
0.735195 0.123781 0.38117
0.858061 0.123659 0.381781
0.97908 0.123888 0.382895
0 0.279667 0.413199
0.0590524 0.266239 0.400183
0.210697 0.258244 0.392966
0.348882 0.253895 0.38941
0.481041 0.251133 0.387579
0.609171 0.2495 0.386831
0.734401 0.248615 0.386725
0.857343 0.248447 0.387304
0.978408 0.248692 0.388449
0 0.405325 0.41735
0.0549325 0.392142 0.404593
0.207645 0.383871 0.397116
0.346258 0.379324 0.393774
0.485267 0.37261 0.411978
0.621332 0.366018 0.436774
0.754665 0.359945 0.464439
0.885161 0.354864 0.49189
0.992798 0.350286 0.519265
0 0.529091 0.433646
0.0536202 0.515312 0.428595
0.203769 0.506493 0.434516
0.323629 0.507164 0.435813
0.482521 0.500053 0.397131
0.607279 0.49926 0.397818
0.736324 0.496513 0.404685
0.868681 0.491798 0.422461
0.992294 0.483375 0.460517
0 0.650645 0.477958
0.044419 0.638254 0.479545
0.186572 0.632227 0.47982
0.300023 0.635157 0.478401
0.41236 0.643565 0.42594
0.615991 0.621332 0.401663
0.724941 0.625925 0.396017
0.856733 0.622187 0.405554
0.986465 0.618555 0.419547
0 0.773892 0.528664
0.0228885 0.765103 0.526589
0.163882 0.75906 0.532006
0.275456 0.763638 0.52015
0.386603 0.772351 0.465736
0.514885 0.775845 0.413489
0.745281 0.743816 0.406271
0.851469 0.749142 0.402838
0.964019 0.752483 0.39855
0 0.899413 0.574472
0 0.894255 0.571344
0.138079 0.88661 0.586328
0.250141 0.892302 0.561257
0.361288 0.901244 0.505882
0.474022 0.909072 0.456168
0.639353 0.901534 0.401083
0.871443 0.867338 0.41088
0.980514 0.871214 0.411872
0 1 0.61651
0 1 0.621256
0.110445 1 0.636133
0.224186 1 0.602045
0.335561 1 0.546426
0.446891 1 0.495125
0.567529 1 0.444022
0.764294 1 0.395056
0.9897 0.991531 0.415549
0 0.0321965 0.523934
0.059556 0.0183871 0.510567
0.209735 0.0107424 0.503777
0.347433 0.00646983 0.500359
0.47921 0.0037995 0.498619
0.607202 0.00216678 0.497856
0.73228 0.00132753 0.497871
0.8551 0.00106813 0.498634
0.976059 0.00132753 0.499718
0 0.155444 0.532998
0.060502 0.141848 0.519799
0.211429 0.134096 0.512795
0.349462 0.129747 0.509346
0.481407 0.127031 0.5075
0.609461 0.125475 0.506691
0.7346 0.124605 0.506691
0.857496 0.124346 0.507362
0.978531 0.124712 0.508476
0 0.280537 0.538781
0.0580453 0.267094 0.525795
0.209979 0.259098 0.518593
0.348226 0.254673 0.515023
0.480354 0.251957 0.513115
0.608576 0.25034 0.512291
0.733822 0.249439 0.512322
0.856779 0.249165 0.512886
0.977859 0.249561 0.513985
0 0.40621 0.542977
0.0539864 0.393072 0.530266
0.206928 0.384741 0.522728
0.345464 0.38024 0.519066
0.47776 0.377493 0.517174
0.606027 0.375814 0.51632
0.73138 0.374899 0.516243
0.854414 0.374594 0.516808
0.975555 0.374945 0.517937
0 0.532219 0.546029
0.0487526 0.519463 0.533578
0.202701 0.510842 0.525795
0.341619 0.506233 0.522057
0.47422 0.503365 0.520348
0.605676 0.499733 0.529076
0.738262 0.494408 0.552132
0.870314 0.488319 0.584344
0.991684 0.483253 0.614252
0 0.657099 0.556374
0.0459754 0.644022 0.547143
0.200809 0.634516 0.545647
0.337926 0.629252 0.554726
0.454597 0.63035 0.561334
0.605081 0.625589 0.523674
0.727123 0.625589 0.524529
0.855406 0.622858 0.53402
0.984833 0.617914 0.555703
0 0.779477 0.588724
0.0425116 0.766094 0.58851
0.193729 0.756985 0.594873
0.322332 0.75465 0.599771
0.431189 0.758373 0.603464
0.53872 0.767941 0.552361
0.735012 0.747967 0.528283
0.842405 0.752956 0.523262
0.970825 0.750362 0.531441
0 0.901518 0.637308
0.0301213 0.889921 0.63946
0.177813 0.882338 0.640681
0.301183 0.881285 0.6486
0.407126 0.886748 0.644327
0.513634 0.896757 0.591287
0.635996 0.901823 0.540429
0.861524 0.871336 0.532921
0.96611 0.876982 0.529824
0 1 0.686931
0.00851453 1 0.687099
0.157229 1 0.682551
0.277195 1 0.702556
0.382559 1 0.684672
0.488762 1 0.63093
0.597726 1 0.581994
0.756466 1 0.527642
0.984405 0.995483 0.537591
0 0.0331884 0.649454
0.0586862 0.0194247 0.636133
0.209033 0.0117342 0.629358
0.346777 0.0074464 0.625925
0.478614 0.00476081 0.624109
0.606607 0.00311284 0.623407
0.731685 0.00225834 0.623423
0.854551 0.00201419 0.624048
0.975525 0.00227359 0.625238
0 0.156313 0.658503
0.0596017 0.14287 0.645426
0.210712 0.134951 0.638361
0.348745 0.130587 0.634852
0.480797 0.127916 0.63299
0.608865 0.126375 0.632242
0.734035 0.12549 0.632242
0.856931 0.125292 0.632837
0.977966 0.125536 0.634012
0 0.281407 0.664347
0.0571298 0.268086 0.651438
0.209247 0.259968 0.644114
0.347585 0.255528 0.640528
0.479728 0.252872 0.638666
0.607904 0.25124 0.637827
0.733227 0.250263 0.637766
0.856214 0.250095 0.638376
0.97731 0.250309 0.639506
0 0.407065 0.668498
0.0530709 0.394003 0.655848
0.206134 0.385611 0.64828
0.344823 0.38114 0.644617
0.47715 0.378317 0.642649
0.605432 0.376654 0.641779
0.7308 0.375723 0.641779
0.853849 0.375494 0.642344
0.975006 0.375814 0.643397
0 0.533089 0.671611
0.0477913 0.520455 0.65922
0.201984 0.511757 0.651316
0.340902 0.507149 0.647562
0.473472 0.504341 0.645594
0.601892 0.502525 0.644694
0.727337 0.501625 0.644602
0.850446 0.50135 0.645121
0.971664 0.50161 0.646189
0 0.659495 0.673777
0.041413 0.647166 0.661753
0.196994 0.638041 0.653498
0.336217 0.633417 0.649683
0.46891 0.630564 0.647623
0.597436 0.628763 0.646693
0.723033 0.627848 0.646571
0.851743 0.624125 0.664546
0.981628 0.617975 0.700221
0 0.785077 0.680705
0.0369726 0.772717 0.670314
0.19382 0.763058 0.664378
0.333577 0.757794 0.665858
0.465385 0.753933 0.675761
0.580743 0.755062 0.686839
0.724376 0.752132 0.650187
0.843397 0.753216 0.650355
0.972503 0.749783 0.663859
0 0.908461 0.703975
0.034638 0.895628 0.69984
0.190799 0.885267 0.702953
0.327337 0.880049 0.713634
0.450935 0.878965 0.720974
0.557427 0.883024 0.728908
0.661387 0.893492 0.679026
0.851545 0.875364 0.654856
0.95761 0.880705 0.650416
0 1 0.745235
0.027863 1 0.747204
0.181399 1 0.75285
0.312566 1 0.759457
0.430701 1 0.766827
0.533639 1 0.769177
0.636866 1 0.717311
0.754482 1 0.667399
0.975525 0.999451 0.65951
0 0.0341802 0.77499
0.0578164 0.0204623 0.7617
0.208255 0.012726 0.754833
0.34612 0.00840772 0.7514
0.477989 0.00570687 0.74963
0.605966 0.00408942 0.748867
0.731136 0.00320439 0.748867
0.853986 0.00296025 0.749554
0.974975 0.00320439 0.750683
0 0.157183 0.784039
0.0586252 0.143725 0.770947
0.21001 0.135821 0.763821
0.348089 0.131441 0.760357
0.480171 0.128771 0.758495
0.60827 0.127153 0.757687
0.733455 0.126268 0.757671
0.856382 0.125994 0.758373
0.977417 0.12636 0.759426
0 0.282261 0.789807
0.0562295 0.268986 0.776959
0.208545 0.260822 0.769635
0.346929 0.256306 0.766033
0.479118 0.253651 0.764111
0.607309 0.252003 0.763272
0.732601 0.251087 0.763272
0.855589 0.250858 0.763851
0.976699 0.251102 0.764935
0 0.407919 0.794003
0.0521401 0.394858 0.781415
0.205417 0.386419 0.773754
0.344167 0.381949 0.770062
0.476524 0.379232 0.768093
0.604837 0.377493 0.767269
0.73022 0.376608 0.767208
0.853284 0.376318 0.767773
0.974456 0.376562 0.768887
0 0.533944 0.79707
0.0467231 0.521324 0.784756
0.201282 0.512566 0.776776
0.340246 0.507927 0.773053
0.472786 0.50518 0.771038
0.601297 0.503365 0.770123
0.726757 0.502449 0.770031
0.849897 0.502129 0.770611
0.97113 0.502373 0.771664
0 0.660365 0.799298
0.0404059 0.648096 0.787366
0.196277 0.638926 0.779004
0.335561 0.634272 0.775143
0.468269 0.631342 0.773083
0.596841 0.629618 0.772244
0.722393 0.628687 0.772061
0.845609 0.628321 0.772564
0.966918 0.628565 0.773602
0 0.787045 0.800793
0.0330968 0.775174 0.789273
0.190524 0.765621 0.780499
0.330205 0.760815 0.776654
0.463096 0.757961 0.774487
0.591791 0.75613 0.773495
0.717449 0.755123 0.773342
0.840726 0.754742 0.773831
0.964675 0.753506 0.783062
0 0.91313 0.805585
0.0269017 0.901579 0.795239
0.18613 0.89134 0.787243
0.326299 0.886229 0.785382
0.459739 0.88275 0.787625
0.588006 0.880003 0.797116
0.703212 0.880995 0.809461
0.841154 0.879469 0.776669
0.957382 0.881392 0.776165
0 1 0.822995
0.0240177 1 0.816464
0.183719 1 0.814313
0.323308 1 0.821195
0.453971 1 0.833295
0.574716 1 0.842863
0.680171 1 0.853864
0.781338 1 0.805768
0.965835 1 0.781353
0 0.035172 0.90045
0.0569467 0.0214847 0.88719
0.207568 0.0137026 0.880323
0.345495 0.0093843 0.876875
0.477378 0.00666819 0.875029
0.605386 0.00503548 0.874266
0.73051 0.00416571 0.874327
0.853376 0.00390631 0.874937
0.974441 0.00415045 0.876066
0 0.158099 0.909453
0.0577249 0.144594 0.896406
0.209308 0.13669 0.889326
0.347448 0.132235 0.885771
0.479515 0.12961 0.883894
0.607691 0.128038 0.883085
0.732891 0.127092 0.883101
0.855817 0.126818 0.883696
0.976883 0.127169 0.884794
0 0.283131 0.915297
0.0553292 0.269963 0.90251
0.207767 0.261692 0.895064
0.346288 0.257221 0.891447
0.478492 0.25449 0.889509
0.606729 0.252842 0.888731
0.732036 0.251926 0.888655
0.855024 0.251743 0.88925
0.976165 0.251972 0.890394
0 0.408789 0.919463
0.0512093 0.39585 0.906905
0.204715 0.387289 0.899184
0.343435 0.382803 0.895537
0.475898 0.380011 0.893553
0.604257 0.378332 0.892683
0.729641 0.377386 0.892592
0.85272 0.377142 0.893202
0.973922 0.37734 0.89427
0 0.534813 0.922545
0.0457618 0.522255 0.910307
0.200549 0.513497 0.902266
0.33959 0.508797 0.898466
0.472175 0.505974 0.896452
0.600656 0.50425 0.895521
0.726116 0.503349 0.895476
0.849348 0.503029 0.89601
0.97052 0.503136 0.897047
0 0.661234 0.924727
0.0393835 0.649058 0.912886
0.195483 0.639796 0.904433
0.33492 0.635142 0.900557
0.467658 0.632258 0.898543
0.596262 0.630457 0.897581
0.721828 0.629511 0.897444
0.84506 0.629175 0.897963
0.966369 0.62945 0.899046
0 0.787915 0.926268
0.0319982 0.77615 0.91487
0.189792 0.766491 0.905989
0.329534 0.76173 0.902022
0.46247 0.75874 0.89987
0.591196 0.75697 0.898909
0.716869 0.755962 0.898802
0.840162 0.755657 0.89929
0.961547 0.755856 0.900282
0 0.914794 0.927199
0.0232242 0.9037 0.916487
0.18352 0.893416 0.906905
0.323552 0.888563 0.902846
0.456657 0.885466 0.900725
0.585565 0.88365 0.899702
0.71133 0.882673 0.899504
0.834714 0.882338 0.899977
0.956161 0.882475 0.900954
0 1 0.930449
0.016083 1 0.920607
0.178256 1 0.911223
0.318715 1 0.908095
0.452232 1 0.907576
0.581537 1 0.910033
0.707271 1 0.918746
0.822782 1 0.931472
0.95581 1 0.903151
0 0.0357977 0.982879
0.05626 0.0221714 0.969558
0.207019 0.0143435 0.962493
0.344991 0.0100252 0.958892
0.476921 0.00730907 0.956924
0.604929 0.00564584 0.956024
0.730068 0.00479133 0.955901
0.852934 0.00451667 0.95642
0.973953 0.00476081 0.957427
0 0.158633 0.991409
0.0570535 0.14522 0.978302
0.208759 0.137224 0.970962
0.346929 0.132815 0.9673
0.479011 0.130114 0.965301
0.607141 0.128496 0.96437
0.732372 0.127596 0.964233
0.855375 0.127367 0.964706
0.976455 0.127672 0.965682
0 0.28365 0.996735
0.054612 0.270481 0.983856
0.207218 0.262226 0.976272
0.345769 0.25774 0.972519
0.478019 0.255009 0.970443
0.606256 0.253346 0.969482
0.731579 0.252415 0.969314
0.854597 0.252186 0.969757
0.975723 0.252445 0.970733
0 0.409323 1
0.0503853 0.396429 0.987808
0.204166 0.387869 0.979934
0.342931 0.383291 0.976089
0.475364 0.380514 0.973983
0.6038 0.37882 0.972961
0.729198 0.377874 0.972778
0.852277 0.37763 0.973205
0.97348 0.377874 0.974151
0 0.535317 1
0.0450294 0.522835 0.990692
0.2 0.513954 0.982467
0.339086 0.5093 0.978561
0.471687 0.506462 0.976394
0.600168 0.504692 0.975357
0.725673 0.503777 0.975128
0.848829 0.503502 0.975525
0.970092 0.503685 0.976455
0 0.661723 1
0.0386053 0.649638 0.992782
0.194919 0.640314 0.984176
0.334386 0.63563 0.980163
0.467185 0.632685 0.977966
0.595789 0.63093 0.976883
0.72137 0.629999 0.976638
0.844617 0.629648 0.97702
0.965957 0.629862 0.97792
0 0.788403 1
0.0311437 0.776745 0.994278
0.189242 0.766995 0.985199
0.328969 0.762234 0.981094
0.461997 0.759243 0.978836
0.590723 0.757443 0.977722
0.716426 0.756436 0.977447
0.83975 0.7561 0.977813
0.96112 0.756329 0.978698
0 0.915297 1
0.0222324 0.904372 0.995453
0.182986 0.893919 0.985641
0.323033 0.889006 0.98146
0.456184 0.88603 0.979141
0.585046 0.884138 0.978012
0.710826 0.883146 0.977691
0.834226 0.882811 0.978027
0.955657 0.882963 0.978897
0 1 1
0.0136416 1 0.996017
0.176349 1 0.985656
0.316716 1 0.981399
0.45005 1 0.979049
0.579034 1 0.977905
0.704921 1 0.977615
0.828458 1 0.978134
0.947951 1 0.978729
