site/assets/luts/freshluts--0000608-adventure.cube
# LUTr-Schema-Version: 2
# LUTr-ID: freshluts--0000608-adventure
# LUTr-Title: ADVENTURE
# LUTr-Collection: Fresh LUTs
# LUTr-Collection-ID: freshluts-community
# LUTr-Source: https://freshluts.com
# LUTr-Retrieved: 2026-07-27
# LUTr-Source-File: submissions-raw/freshluts/cubes/608__ADVENTURE__93.DJI_0926.cube
# LUTr-Source-Format: CUBE
# LUTr-Source-SHA256: 3a9de865813c6b80ee130f522596fe4287a63329e2add9856b8dc6b10c62f818
# LUTr-License: CC0-1.0
# LUTr-License-URL: https://freshluts.com/termsandconditions
# LUTr-License-Basis: site-terms
# LUTr-Transform-Class: creative-look
# LUTr-Tags: creative, freshluts, community, cube, warm, high-key, dji-d-log
# LUTr-Input-Color-Space: dji-dlog-dgamut
# LUTr-Input-Gamut: dji-d-gamut
# LUTr-Input-Transfer: dji-d-log
# LUTr-Output-Color-Space: srgb
# LUTr-Output-Gamut: rec709
# LUTr-Output-Transfer: srgb
# LUTr-Color-Space-Confidence: inferred-from-source-label
# LUTr-Domain-Normalized: true
# LUTr-Shaper: none
# LUTr-Original-Grid: 33x33x33
# LUTr-Conversion-Grid: 33x33x33
# LUTr-Conversion-Interpolation: none
# LUTr-Conversion-Method: Metadata normalization; numeric LUT samples preserved
# LUTr-Conversion-Tool: LUTr scripts/convert-all-to-cube.mjs 2.0.0
# LUTr-Conversion-Date: 2026-07-28
# LUTr-Asset-URL: https://freshluts.com/luts/608
# LUTr-Author: Shamoon Abbasi
# LUTr-Author-URL: https://freshluts.com/users/1258
# LUTr-Attribution: Shamoon Abbasi via Fresh LUTs
# LUTr-Source-Labels: gamma=DJI D-log; color=Warm; key=High Key; style=Drama
# LUTr-Note: Preserve this metadata and the upstream license notices when redistributing.
TITLE "ADVENTURE"
LUT_3D_SIZE 9
DOMAIN_MIN 0 0 0
DOMAIN_MAX 1 1 1
0.0264897 0.0398718 0.052842
0.0658732 0.0463111 0.0538033
0.21207 0.0533761 0.0360723
0.466773 0.0204776 0.0172732
0.640345 0.0174868 0.0199283
0.708675 0.0182803 0.0226902
0.719646 0.0204776 0.0237278
0.728344 0.021622 0.0236973
0.728344 0.0217136 0.0237736
0.0136873 0.0743267 0.0618143
0.0705577 0.0840772 0.0622263
0.22211 0.100221 0.039704
0.493339 0.0950484 0.017258
0.67425 0.0484016 0.0203861
0.747921 0.0441901 0.0234531
0.757595 0.0347295 0.0245212
0.764523 0.0331884 0.0247959
0.765087 0.0335088 0.0247959
0.0074464 0.164782 0.0662699
0.0247807 0.175708 0.06215
0.242191 0.212802 0.0224308
0.557092 0.247715 0.0124666
0.758175 0.24361 0.012726
0.817853 0.242176 0.0124514
0.830289 0.234668 0.0129397
0.833967 0.225528 0.0133974
0.835935 0.229297 0.0132296
0.00308232 0.311131 0.0439765
0.0130922 0.329091 0.027924
0.162493 0.403342 0.0156252
0.598764 0.490761 0.0131075
0.852384 0.51194 0.0130617
0.931289 0.509392 0.015259
0.948257 0.507088 0.0171359
0.951782 0.499825 0.0177462
0.953902 0.505592 0.0176852
0.00331121 0.435416 0.016083
0.0153506 0.457755 0.0167391
0.0486 0.540246 0.016556
0.546563 0.689708 0.0184939
0.898558 0.754345 0.0199741
0.982879 0.750881 0.0209812
0.994232 0.745907 0.0218814
0.999741 0.743908 0.021973
0.999786 0.747982 0.0218967
0.0091249 0.48481 0.0217746
0.0214694 0.502342 0.0214694
0.0415961 0.573785 0.0213321
0.438224 0.734173 0.0230411
0.875563 0.846448 0.0248569
0.986877 0.861067 0.0250706
0.99704 0.856825 0.0259556
1 0.857099 0.0259861
1 0.85861 0.0258793
0.0150149 0.52781 0.0258335
0.0275425 0.536843 0.0257725
0.0485237 0.603784 0.0257267
0.362844 0.740566 0.0272679
0.825818 0.865705 0.0281987
0.989914 0.900969 0.0310979
0.997726 0.897398 0.030045
1 0.897536 0.0302129
1 0.898116 0.0303655
0.0174105 0.536217 0.0277714
0.0298619 0.542214 0.0275273
0.0511025 0.609812 0.0270085
0.370443 0.749249 0.0278935
0.830259 0.872984 0.0286412
0.991379 0.907088 0.0314794
0.998352 0.903761 0.0327611
1 0.903471 0.0327916
1 0.903471 0.0327001
0.017792 0.536248 0.0280766
0.0305028 0.543389 0.0278325
0.0523842 0.614038 0.0271916
0.409949 0.760098 0.0278019
0.854612 0.879042 0.02916
0.992279 0.906706 0.0319829
0.998917 0.903624 0.0332036
1 0.903471 0.0332799
1 0.903471 0.0332189
0.0210727 0.0419776 0.0869306
0.0641642 0.0476081 0.0908827
0.207706 0.0520333 0.0959487
0.464073 0.0171511 0.0805829
0.64593 0.0159762 0.075349
0.717937 0.016968 0.0690013
0.729747 0.0195315 0.0598917
0.738643 0.0208591 0.0515602
0.738872 0.0207675 0.0550393
0.0104372 0.0785229 0.103258
0.0630655 0.0884718 0.106386
0.202655 0.104448 0.106325
0.475486 0.0773175 0.06598
0.674128 0.0334783 0.0512703
0.752148 0.0298466 0.0474861
0.766003 0.0292973 0.0424201
0.773419 0.0302281 0.0403449
0.773907 0.0303044 0.040589
0.00671397 0.17464 0.119493
0.0261692 0.184817 0.125002
0.233051 0.222553 0.117891
0.540063 0.246647 0.0529793
0.75584 0.240513 0.0303502
0.821591 0.237827 0.031632
0.836255 0.232044 0.0332494
0.839323 0.222232 0.034226
0.841199 0.22594 0.0339666
0.00332647 0.327703 0.0996719
0.0129091 0.343893 0.095552
0.152987 0.410452 0.0478218
0.594232 0.496071 0.0256657
0.853834 0.519768 0.0237736
0.939162 0.517235 0.0254215
0.956619 0.513726 0.0269474
0.959014 0.504021 0.027512
0.960662 0.509041 0.027451
0.00369268 0.447761 0.0681315
0.0159304 0.468635 0.0512703
0.0464637 0.549859 0.0270848
0.551904 0.697749 0.0290837
0.898894 0.76083 0.0304417
0.983093 0.754803 0.0314946
0.99469 0.747906 0.032166
1 0.744823 0.0321965
1 0.74873 0.032105
0.00956741 0.490669 0.0554665
0.0220645 0.507103 0.0442359
0.0396735 0.577508 0.0314336
0.444587 0.739361 0.0329137
0.876463 0.84892 0.0352483
0.987076 0.862379 0.0355688
0.996979 0.856825 0.036347
1 0.857084 0.0363775
1 0.858625 0.0362402
0.0149233 0.532677 0.0789349
0.0275273 0.540398 0.0706035
0.0462196 0.602777 0.0392157
0.364523 0.741299 0.0374151
0.82295 0.865019 0.0383764
0.989685 0.901198 0.0415961
0.997757 0.897337 0.0403601
1 0.89749 0.0403906
1 0.898116 0.0404517
0.0167544 0.539727 0.0695964
0.0295415 0.544732 0.0645151
0.0487984 0.609979 0.0391089
0.371786 0.750332 0.0379339
0.82945 0.872801 0.0388342
0.991257 0.907027 0.0419776
0.998444 0.90367 0.0432288
1 0.903441 0.0432593
1 0.903441 0.0431373
0.0171054 0.540627 0.0779431
0.0301061 0.546792 0.0683604
0.0499123 0.613748 0.0407416
0.411109 0.760983 0.0379187
0.852796 0.878462 0.039353
0.992432 0.906554 0.0425116
0.999054 0.903548 0.0437324
1 0.903426 0.0438087
1 0.903426 0.0437629
0.00839246 0.0274968 0.203235
0.0638895 0.0333562 0.2047
0.221576 0.0318456 0.225864
0.490547 0.0211643 0.241657
0.673457 0.0179141 0.249546
0.74583 0.0177462 0.252644
0.757 0.0189364 0.244633
0.765545 0.0196384 0.235492
0.766888 0.0197452 0.241718
0.00819409 0.0716564 0.216556
0.0437171 0.093019 0.208011
0.202777 0.107729 0.226017
0.484947 0.071931 0.234836
0.694102 0.0278782 0.233982
0.771054 0.0267491 0.232853
0.785443 0.0279545 0.223957
0.792523 0.0286717 0.215045
0.79353 0.0287938 0.220203
0.00485237 0.190311 0.25713
0.0167239 0.19971 0.254124
0.208423 0.240574 0.272877
0.507988 0.262562 0.273823
0.745602 0.235615 0.246815
0.816114 0.217624 0.230777
0.830777 0.210071 0.216022
0.83241 0.195743 0.202396
0.834043 0.199374 0.2056
0.00340276 0.363928 0.279438
0.01178 0.378454 0.284367
0.126375 0.441001 0.301854
0.561318 0.510719 0.304006
0.829038 0.52285 0.234257
0.923049 0.513436 0.187594
0.945663 0.511101 0.154421
0.950057 0.50016 0.138216
0.951827 0.50515 0.135195
0.00404364 0.489555 0.255207
0.0159152 0.508965 0.25771
0.0324865 0.576883 0.252995
0.521508 0.703792 0.215595
0.870558 0.757733 0.12343
0.981079 0.764706 0.0854963
0.995254 0.76025 0.0702983
0.999985 0.758938 0.0657206
1 0.763195 0.0632639
0.010132 0.529671 0.236576
0.0219883 0.543145 0.233036
0.0377813 0.602548 0.219913
0.395026 0.748882 0.152316
0.855955 0.854231 0.0872663
0.98674 0.875578 0.0794995
0.996902 0.872633 0.0784314
1 0.873152 0.0748913
1 0.874388 0.0719615
0.0150759 0.571694 0.265293
0.0267185 0.57615 0.258793
0.043183 0.630014 0.249958
0.290074 0.751125 0.195132
0.798459 0.866239 0.0997635
0.985962 0.908873 0.084947
0.997787 0.907485 0.0835431
1 0.907179 0.0817121
1 0.907012 0.0795148
0.0166018 0.577173 0.26128
0.0280461 0.581521 0.261723
0.0451667 0.638605 0.258015
0.296925 0.764065 0.22031
0.803632 0.873732 0.119081
0.986389 0.912917 0.0961013
0.998566 0.912474 0.0942397
1 0.912291 0.0935683
1 0.912184 0.0915236
0.0169528 0.580255 0.276234
0.0285039 0.585748 0.274983
0.0459449 0.643503 0.269581
0.339681 0.775418 0.229709
0.823636 0.879316 0.130251
0.990768 0.913527 0.103639
0.999207 0.912718 0.100969
1 0.912688 0.1019
1 0.912657 0.101183
0.00648508 0.0391089 0.362966
0.0344244 0.0386816 0.365332
0.228687 0.0337377 0.401312
0.518181 0.0272831 0.430213
0.696254 0.0208133 0.446296
0.766629 0.0212863 0.45658
0.780514 0.0227665 0.453468
0.790875 0.0236667 0.448798
0.79115 0.0238346 0.456535
0.0074464 0.0492103 0.378195
0.0234684 0.0647593 0.378454
0.209842 0.0832532 0.409537
0.504326 0.0506905 0.430838
0.715404 0.0300908 0.448173
0.791974 0.0305791 0.457023
0.808255 0.032105 0.454566
0.81593 0.0327916 0.449409
0.816373 0.0330205 0.457557
0.00399786 0.185641 0.439719
0.01149 0.200687 0.438239
0.162158 0.249332 0.449058
0.502495 0.272206 0.476753
0.742779 0.239246 0.490913
0.817761 0.212894 0.487694
0.837812 0.206439 0.482643
0.840742 0.188907 0.471687
0.841611 0.191058 0.479225
0.0031281 0.388617 0.502266
0.0106966 0.401358 0.503594
0.0716106 0.463905 0.516793
0.531044 0.536004 0.550195
0.798993 0.55726 0.555779
0.916396 0.539803 0.538903
0.94136 0.536156 0.524819
0.945541 0.522484 0.512016
0.946685 0.526986 0.51635
0.00373846 0.533608 0.518578
0.0153201 0.553582 0.522789
0.0286717 0.625544 0.540551
0.500572 0.746685 0.581918
0.833265 0.793469 0.590219
0.962814 0.796414 0.545586
0.99469 0.790173 0.506828
0.99942 0.785611 0.485771
0.999603 0.789212 0.481727
0.00935378 0.582742 0.5187
0.0210269 0.596643 0.517296
0.0326696 0.661326 0.529747
0.303136 0.80618 0.5514
0.815656 0.889036 0.558404
0.972625 0.904921 0.528603
0.996765 0.896544 0.479088
1 0.894057 0.45388
1 0.89424 0.440925
0.0139773 0.618708 0.530129
0.025391 0.62359 0.524681
0.0378424 0.680629 0.534463
0.175952 0.806027 0.544793
0.762615 0.906355 0.544198
0.962036 0.937301 0.522133
0.997787 0.931945 0.477226
1 0.930007 0.461143
1 0.929412 0.450736
0.0152285 0.625559 0.528572
0.0264134 0.630396 0.52784
0.0390631 0.690257 0.543145
0.17261 0.817182 0.557778
0.7664 0.914305 0.555016
0.966369 0.944442 0.535882
0.998718 0.940612 0.506279
1 0.939849 0.502876
1 0.939025 0.496101
0.0154269 0.627924 0.544274
0.0266728 0.63415 0.543206
0.0394903 0.695186 0.556832
0.196551 0.826841 0.570825
0.786572 0.919326 0.565728
0.975219 0.946593 0.545724
0.99942 0.942519 0.522759
1 0.94284 0.526558
1 0.942641 0.525002
0.00544747 0.0503243 0.487861
0.0164797 0.050782 0.495094
0.22742 0.0417639 0.54023
0.528923 0.0320287 0.57789
0.713115 0.0245975 0.593057
0.735348 0.0237583 0.564569
0.749447 0.0262913 0.56463
0.763272 0.028397 0.568658
0.764553 0.0285801 0.573861
0.00610361 0.0604257 0.511772
0.0151675 0.0626078 0.519387
0.203265 0.0702373 0.562402
0.514015 0.0461738 0.599588
0.730724 0.0338903 0.616693
0.760266 0.0332494 0.58793
0.778897 0.0357366 0.592126
0.78938 0.037644 0.593729
0.790402 0.0378576 0.599268
0.00415045 0.154482 0.583993
0.0121614 0.171389 0.595224
0.124453 0.232502 0.634119
0.512367 0.242908 0.674571
0.753857 0.212024 0.684489
0.799329 0.188128 0.651774
0.821012 0.187518 0.656001
0.825681 0.168307 0.650111
0.82707 0.170977 0.65803
0.00288396 0.390661 0.66836
0.0109407 0.40238 0.675044
0.0291752 0.462852 0.698344
0.496696 0.542214 0.732265
0.786297 0.564981 0.747982
0.907469 0.547951 0.762356
0.937331 0.542443 0.764874
0.941833 0.527611 0.762875
0.942473 0.530755 0.769329
0.00389105 0.550072 0.709667
0.0143587 0.567346 0.716121
0.0256809 0.637766 0.741115
0.443565 0.763134 0.776287
0.810605 0.810117 0.796323
0.941482 0.820081 0.800641
0.986862 0.813886 0.789517
0.994156 0.809171 0.78352
0.994476 0.812772 0.787198
0.00862135 0.608133 0.718715
0.0190127 0.6224 0.721294
0.0306401 0.688365 0.744533
0.205844 0.834073 0.783612
0.806958 0.916182 0.820142
0.951141 0.934432 0.826413
0.995666 0.934432 0.79736
0.999756 0.933623 0.781796
0.999756 0.934951 0.777691
0.0128328 0.647776 0.730037
0.0233158 0.65275 0.727184
0.0350958 0.710811 0.747097
0.107408 0.838178 0.778897
0.741405 0.939254 0.80885
0.942626 0.969955 0.815763
0.996948 0.972549 0.79881
0.999817 0.971328 0.786999
0.999817 0.971115 0.779568
0.0142367 0.656092 0.73344
0.0243839 0.661173 0.733013
0.0358587 0.722072 0.756176
0.094377 0.848905 0.790066
0.738979 0.946288 0.815473
0.949065 0.977005 0.819989
0.998428 0.979828 0.812543
0.999741 0.979385 0.811536
0.999756 0.978805 0.806867
0.0146334 0.657771 0.744808
0.0247807 0.664012 0.744839
0.0361791 0.726299 0.768673
0.114046 0.856916 0.804105
0.758053 0.950607 0.825666
0.957015 0.978866 0.827955
0.999344 0.980911 0.822965
0.999725 0.981414 0.827802
0.999725 0.981369 0.827466
0.00531014 0.0579843 0.56846
0.0165408 0.0650339 0.582361
0.230304 0.0658885 0.639551
0.545495 0.0359045 0.678416
0.729366 0.0271 0.689754
0.755169 0.026688 0.650111
0.77438 0.0275731 0.651408
0.788586 0.0291295 0.655146
0.789532 0.029221 0.658381
0.00585946 0.0679484 0.589456
0.0136873 0.0968643 0.613825
0.191058 0.155398 0.682155
0.531609 0.117174 0.720546
0.736095 0.0552224 0.717372
0.770947 0.0517281 0.67718
0.792401 0.0540169 0.679835
0.803418 0.0490425 0.680018
0.804685 0.0542153 0.685786
0.00267033 0.193088 0.67393
0.0114595 0.201572 0.688212
0.0894179 0.254139 0.732006
0.516854 0.262516 0.791318
0.763424 0.234592 0.801633
0.807233 0.217365 0.752575
0.8327 0.220554 0.756313
0.839551 0.20824 0.754131
0.841672 0.216571 0.760693
0.00267033 0.386557 0.736492
0.0113985 0.39707 0.748302
0.0250553 0.450492 0.780697
0.447272 0.529061 0.841169
0.782116 0.543084 0.865003
0.899168 0.53315 0.869947
0.931395 0.532876 0.873854
0.93753 0.521172 0.874464
0.938155 0.525261 0.878721
0.00424201 0.552087 0.789944
0.0145724 0.566888 0.80032
0.026276 0.631724 0.833051
0.282002 0.756039 0.880766
0.79266 0.812757 0.906477
0.932235 0.823835 0.913161
0.980621 0.82092 0.920943
0.9888 0.814694 0.922469
0.988632 0.81619 0.926284
0.00892653 0.614664 0.804852
0.0192416 0.627237 0.811353
0.0303197 0.689632 0.841443
0.129503 0.831449 0.889433
0.788968 0.923369 0.926146
0.940459 0.942061 0.935439
0.990585 0.947387 0.937499
0.999664 0.947723 0.935637
0.99968 0.949126 0.937346
0.0130617 0.658335 0.822644
0.0233005 0.662043 0.823438
0.0346227 0.718456 0.849867
0.0663767 0.845121 0.893233
0.723644 0.951659 0.932326
0.939071 0.981964 0.947906
0.99266 0.988342 0.950423
0.998383 0.989059 0.943938
0.998383 0.989624 0.941024
0.0144198 0.668177 0.826749
0.0244602 0.672419 0.828763
0.0356146 0.731365 0.856916
0.0689555 0.857176 0.902602
0.719814 0.958251 0.938918
0.940581 0.989532 0.952407
0.995789 0.99472 0.955718
0.99736 0.994751 0.956664
0.997482 0.994644 0.954635
0.0148623 0.668757 0.830716
0.024918 0.674128 0.833967
0.0361028 0.73463 0.86276
0.0856184 0.863706 0.909697
0.73814 0.961624 0.94612
0.947646 0.990738 0.957321
0.997192 0.994904 0.959319
0.996979 0.995087 0.962829
0.996979 0.995087 0.963027
0.00581369 0.0614176 0.590753
0.0160067 0.0655833 0.604089
0.222324 0.066392 0.661173
0.541665 0.0395514 0.699794
0.686503 0.0308995 0.664836
0.756695 0.029633 0.678965
0.77789 0.0296025 0.681041
0.792493 0.0301671 0.682689
0.792508 0.0303655 0.683589
0.00621042 0.0715953 0.611566
0.0141299 0.0972915 0.636286
0.180606 0.169284 0.712749
0.534081 0.151919 0.757397
0.698863 0.0859236 0.708247
0.777829 0.0977188 0.726192
0.801221 0.105257 0.730526
0.811124 0.0910201 0.725353
0.81149 0.09308 0.727169
0.00262455 0.199222 0.69958
0.0117037 0.215488 0.719997
0.0694743 0.272114 0.764935
0.514199 0.295659 0.82977
0.727977 0.279118 0.79736
0.820066 0.271244 0.805707
0.84741 0.280705 0.810071
0.855192 0.272908 0.807446
0.855619 0.274891 0.809232
0.00248722 0.387213 0.759274
0.0123598 0.397177 0.767468
0.0250706 0.451408 0.803601
0.41384 0.534401 0.87219
0.776013 0.550042 0.904967
0.897444 0.544823 0.910719
0.931517 0.552575 0.912566
0.939147 0.545953 0.91162
0.939757 0.54931 0.913542
0.00428778 0.552941 0.813352
0.0146944 0.566354 0.824094
0.0269474 0.626841 0.859098
0.195529 0.747326 0.914061
0.768338 0.809445 0.955261
0.929793 0.817121 0.962051
0.975982 0.816922 0.96286
0.985656 0.815198 0.964553
0.985885 0.817807 0.966781
0.00935378 0.620371 0.834791
0.0194095 0.629664 0.841428
0.0308537 0.6878 0.872404
0.0705272 0.817975 0.921645
0.737392 0.919097 0.968246
0.933089 0.942351 0.978286
0.98735 0.94789 0.98027
0.998383 0.94934 0.984421
0.998245 0.950042 0.986831
0.0133211 0.662821 0.852567
0.0234531 0.664073 0.853346
0.0345006 0.716945 0.880217
0.0568246 0.836286 0.927214
0.68954 0.948333 0.971374
0.933272 0.983886 0.986664
0.989288 0.98996 0.989532
0.995056 0.99176 0.990387
0.994842 0.992355 0.990799
0.0146181 0.673167 0.857038
0.0246433 0.67686 0.859159
0.0356298 0.731731 0.886473
0.0628367 0.852811 0.935119
0.70312 0.957321 0.97644
0.937972 0.991165 0.99144
0.994202 0.99556 0.992889
0.994278 0.995575 0.993561
0.994308 0.995575 0.99321
0.0151217 0.673396 0.858671
0.0252079 0.678218 0.861433
0.0362707 0.735164 0.889693
0.0756695 0.860838 0.939651
0.727367 0.960586 0.980331
0.945647 0.991867 0.99321
0.994278 0.99559 0.993606
0.994247 0.99559 0.993851
0.994247 0.99559 0.993851
0.00622568 0.0633707 0.601434
0.0157015 0.0656901 0.61384
0.218814 0.0644999 0.669718
0.542672 0.0415198 0.71043
0.687907 0.0329595 0.677943
0.755932 0.0316014 0.69276
0.778073 0.0313725 0.695491
0.792264 0.0310369 0.696391
0.792279 0.0311589 0.696422
0.0065156 0.0732738 0.622736
0.0145724 0.0925002 0.644602
0.176593 0.167651 0.722332
0.534432 0.148363 0.767575
0.699718 0.075349 0.718135
0.775876 0.0902419 0.736599
0.799893 0.0996262 0.74107
0.809827 0.0855268 0.735119
0.810468 0.0888838 0.736538
0.0031281 0.196567 0.708766
0.0119936 0.211643 0.727901
0.0649882 0.268238 0.772412
0.513146 0.2925 0.837598
0.727672 0.274067 0.80708
0.818189 0.267979 0.815305
0.845747 0.277806 0.818799
0.853697 0.271107 0.815412
0.854475 0.273945 0.816556
0.00233463 0.386801 0.768353
0.012314 0.393469 0.776211
0.0255589 0.44567 0.81149
0.404593 0.527428 0.878065
0.774487 0.540322 0.911681
0.89369 0.534905 0.917372
0.928862 0.544213 0.919509
0.937087 0.541085 0.918624
0.938338 0.546777 0.919997
0.00418097 0.554635 0.824155
0.0148318 0.566049 0.833799
0.0271611 0.622904 0.867781
0.160571 0.742107 0.922438
0.759594 0.806943 0.967147
0.931075 0.812222 0.974868
0.976013 0.813046 0.974838
0.985382 0.814099 0.974807
0.98584 0.818173 0.975464
0.00955215 0.621546 0.844938
0.019379 0.629145 0.850599
0.030808 0.684749 0.881163
0.0553597 0.808652 0.929015
0.711604 0.916808 0.979644
0.92929 0.941344 0.992462
0.988983 0.945922 0.994492
0.997986 0.949004 0.994202
0.997955 0.950545 0.994247
0.0133822 0.663966 0.861509
0.0233768 0.665034 0.862211
0.0343023 0.715831 0.888289
0.0529793 0.828855 0.932967
0.662638 0.944823 0.978576
0.920714 0.982788 0.993484
0.989532 0.990539 0.994492
0.994705 0.992416 0.994018
0.994583 0.992935 0.993973
0.0146487 0.673167 0.86392
0.024567 0.676432 0.865766
0.0353704 0.730098 0.892042
0.0590829 0.848508 0.93933
0.692912 0.955016 0.980545
0.935882 0.990311 0.994079
0.994247 0.99559 0.993851
0.994247 0.99559 0.993851
0.994247 0.99559 0.993851
0.0151675 0.673243 0.863981
0.0251621 0.677821 0.866392
0.0361334 0.734264 0.893721
0.0735943 0.859419 0.942916
0.727672 0.960281 0.982818
0.947616 0.991745 0.99443
0.994247 0.99559 0.993851
0.994247 0.99559 0.993851
0.994247 0.99559 0.993851
0.00622568 0.0633707 0.602777
0.0158694 0.0657359 0.615396
0.224445 0.0637827 0.672129
0.550149 0.0409247 0.711467
0.691798 0.0328069 0.679561
0.757137 0.0315251 0.693553
0.778759 0.0312963 0.695491
0.792264 0.0310063 0.696391
0.792279 0.0311589 0.696422
0.00648508 0.0733349 0.623682
0.0145876 0.0930648 0.645914
0.181064 0.167742 0.724361
0.542 0.146578 0.768154
0.703502 0.0721141 0.718364
0.77763 0.0919509 0.737545
0.800214 0.0975357 0.740185
0.80972 0.0849928 0.73489
0.810437 0.0887007 0.736461
0.00297551 0.198276 0.709911
0.011902 0.212543 0.728557
0.0659037 0.268986 0.773236
0.520424 0.292332 0.837903
0.732525 0.27245 0.807233
0.819989 0.267491 0.815183
0.846052 0.276051 0.818051
0.853544 0.270542 0.815183
0.854475 0.273945 0.816556
0.00221256 0.390173 0.768322
0.0120699 0.395727 0.776654
0.025391 0.447227 0.811917
0.406638 0.529046 0.878737
0.779873 0.539452 0.911849
0.89572 0.532784 0.916808
0.929259 0.541253 0.918669
0.936858 0.540047 0.918379
0.938399 0.547036 0.920073
0.0039826 0.556558 0.824765
0.0146334 0.566903 0.833707
0.0269017 0.622522 0.867277
0.145403 0.741772 0.921462
0.761013 0.808103 0.967391
0.934447 0.811231 0.974777
0.977142 0.810956 0.974411
0.98529 0.813321 0.97467
0.985855 0.818326 0.975494
0.0093843 0.6224 0.845304
0.0191348 0.628733 0.850034
0.030457 0.682795 0.880064
0.05243 0.803052 0.926711
0.701274 0.916426 0.979049
0.930007 0.941909 0.992538
0.991135 0.945235 0.994385
0.997986 0.948577 0.994186
0.997955 0.950713 0.994247
0.0132143 0.664668 0.861814
0.0231632 0.66566 0.86247
0.0339666 0.714702 0.887602
0.0505989 0.822446 0.930404
0.642267 0.942138 0.977234
0.914031 0.982361 0.993179
0.989853 0.990753 0.994446
0.994781 0.992172 0.994049
0.994568 0.993042 0.993973
0.0144656 0.673136 0.863905
0.0243381 0.675914 0.865538
0.0350652 0.728511 0.891402
0.0571298 0.843122 0.937179
0.676753 0.95256 0.979477
0.930266 0.989624 0.993912
0.993393 0.99556 0.993896
0.994247 0.99559 0.993851
0.994247 0.99559 0.993851
0.0150301 0.673228 0.863966
0.0249943 0.67744 0.866224
0.035935 0.733166 0.893278
0.0694743 0.856764 0.942092
0.720455 0.959213 0.982361
0.945144 0.99144 0.994354
0.994247 0.99559 0.993851
0.994247 0.99559 0.993851
0.994247 0.99559 0.993851
