site/assets/luts/freshluts--0000132-music-clip.cube
# LUTr-Schema-Version: 2
# LUTr-ID: freshluts--0000132-music-clip
# LUTr-Title: Music Clip
# LUTr-Collection: Fresh LUTs
# LUTr-Collection-ID: freshluts-community
# LUTr-Source: https://freshluts.com
# LUTr-Retrieved: 2026-07-27
# LUTr-Source-File: submissions-raw/freshluts/cubes/132__MusicClip_Log_V1_CatPlectre.cube
# LUTr-Source-Format: CUBE
# LUTr-Source-SHA256: 811248f7744f2d00c98d68a06d20dc0f99d74a32f396bc65b521df8cffe3b5af
# LUTr-License: CC0-1.0
# LUTr-License-URL: https://freshluts.com/termsandconditions
# LUTr-License-Basis: site-terms
# LUTr-Transform-Class: creative-look
# LUTr-Tags: creative, freshluts, community, cube, high-contrast, blue, high-key, bmd-film
# LUTr-Input-Color-Space:
# LUTr-Input-Gamut: bmd-film-gamut
# LUTr-Input-Transfer: bmd-film
# LUTr-Output-Color-Space: srgb
# LUTr-Output-Gamut: rec709
# LUTr-Output-Transfer: srgb
# LUTr-Color-Space-Confidence: camera-profile-input-required
# LUTr-Domain-Normalized: true
# LUTr-Shaper: none
# LUTr-Original-Grid: 33x33x33
# LUTr-Conversion-Grid: 33x33x33
# LUTr-Conversion-Interpolation: none
# LUTr-Conversion-Method: Metadata normalization; numeric LUT samples preserved
# LUTr-Conversion-Tool: LUTr scripts/convert-all-to-cube.mjs 2.0.0
# LUTr-Conversion-Date: 2026-07-28
# LUTr-Asset-URL: https://freshluts.com/luts/132
# LUTr-Author: Steel Tone
# LUTr-Author-URL: https://freshluts.com/users/816
# LUTr-Attribution: Steel Tone via Fresh LUTs
# LUTr-Source-Labels: gamma=Blackmagic BMD Film; color=Blue; key=High Key; style=High contrast
# LUTr-Note: Preserve this metadata and the upstream license notices when redistributing.
TITLE "Music Clip"
LUT_3D_SIZE 9
DOMAIN_MIN 0 0 0
DOMAIN_MAX 1 1 1
0.134829 0.139605 0.13994
0.184024 0.131411 0.130419
0.271138 0.122179 0.113359
0.380926 0.107942 0.0971847
0.44625 0.0941634 0.0941634
0.50515 0.0920882 0.0920882
0.537743 0.0912184 0.0912184
0.554238 0.0903334 0.0936141
0.556985 0.0902724 0.0935836
0.110231 0.157885 0.122377
0.143877 0.150622 0.123796
0.233082 0.145602 0.113069
0.365026 0.138933 0.0967422
0.429984 0.10753 0.0938125
0.485954 0.0972457 0.093019
0.526375 0.0928969 0.092546
0.547921 0.0904555 0.0936904
0.555627 0.0908675 0.0908675
0.0921798 0.206165 0.117525
0.10222 0.2 0.11632
0.208103 0.211048 0.14696
0.362097 0.223178 0.106279
0.542626 0.211307 0.071519
0.637675 0.192233 0.0706493
0.670512 0.174929 0.0738537
0.671107 0.159457 0.0784772
0.66247 0.148928 0.0816052
0.0831922 0.299489 0.12871
0.0843977 0.291188 0.128161
0.147692 0.301076 0.12076
0.346319 0.327199 0.168124
0.547494 0.340444 0.09131
0.725063 0.322438 0.0441596
0.80473 0.305913 0.0366217
0.842161 0.295491 0.0357671
0.858366 0.286976 0.0366369
0.0610361 0.422522 0.125765
0.0626688 0.413886 0.126467
0.0958572 0.424979 0.112871
0.32755 0.471977 0.0737011
0.550835 0.497444 0.186816
0.712886 0.504479 0.148898
0.822416 0.491051 0.0984207
0.879774 0.478965 0.0744945
0.91046 0.46891 0.0623636
0.0429999 0.52372 0.115206
0.0437781 0.51812 0.115587
0.0691539 0.535607 0.0969558
0.225986 0.601587 0.0392767
0.569467 0.638331 0.17084
0.737789 0.664637 0.253071
0.826658 0.670069 0.246403
0.875425 0.668391 0.230671
0.901183 0.664469 0.218097
0.0326696 0.595132 0.120745
0.0331426 0.59173 0.119921
0.0563363 0.613169 0.104448
0.148821 0.680613 0.0530251
0.544182 0.730938 0.0995499
0.753979 0.754589 0.276081
0.848951 0.771832 0.310246
0.88954 0.774716 0.313466
0.904875 0.77203 0.31046
0.0279393 0.640726 0.137163
0.028275 0.638224 0.135851
0.0522774 0.665904 0.13051
0.140597 0.72726 0.0885939
0.527642 0.777874 0.092195
0.753918 0.797147 0.273548
0.855421 0.818341 0.331746
0.897169 0.824475 0.344228
0.911223 0.82298 0.345174
0.0250553 0.672801 0.155001
0.0251926 0.670878 0.153765
0.0543984 0.708095 0.150179
0.167193 0.764996 0.129259
0.538628 0.810162 0.130419
0.761074 0.825101 0.295323
0.858518 0.842725 0.351324
0.901884 0.850553 0.365255
0.916442 0.850263 0.372152
0.129915 0.136584 0.199847
0.172488 0.130205 0.193942
0.272236 0.120363 0.171389
0.35761 0.0995346 0.139803
0.444389 0.0933242 0.116518
0.506203 0.0916762 0.106722
0.538933 0.0908675 0.0999619
0.553964 0.0906081 0.0951705
0.556985 0.0902724 0.0935836
0.108064 0.156344 0.159899
0.139437 0.150057 0.15227
0.23209 0.145708 0.142824
0.357763 0.13576 0.121065
0.418982 0.104646 0.104326
0.483833 0.0969711 0.0969711
0.524681 0.0928817 0.0928817
0.546105 0.0910506 0.0910506
0.555444 0.0908675 0.0908675
0.0921492 0.206516 0.133852
0.101884 0.200183 0.13077
0.206836 0.210636 0.154314
0.359548 0.221103 0.112261
0.537285 0.21001 0.0728008
0.633844 0.191211 0.0710613
0.666957 0.173754 0.0742809
0.668711 0.15874 0.0788281
0.660792 0.148348 0.0817731
0.0837568 0.296681 0.128649
0.0847181 0.288334 0.127947
0.147234 0.299001 0.121157
0.343511 0.325017 0.168139
0.542855 0.338247 0.0916762
0.722164 0.321263 0.0443885
0.802518 0.304952 0.03682
0.840513 0.294652 0.0359655
0.857527 0.286656 0.0367285
0.0615702 0.419516 0.12607
0.0632792 0.411353 0.126802
0.0962539 0.422721 0.113207
0.326665 0.469642 0.0750591
0.548043 0.494789 0.185809
0.710704 0.502419 0.147921
0.821057 0.489769 0.0978714
0.878996 0.478157 0.0742962
0.909865 0.468574 0.0622721
0.0432746 0.521767 0.115373
0.0439918 0.516487 0.115755
0.0697795 0.534508 0.0966506
0.228382 0.600168 0.0389105
0.568231 0.63682 0.170489
0.736477 0.663432 0.252598
0.82562 0.669139 0.24593
0.874739 0.667643 0.230228
0.900694 0.664103 0.217914
0.0327764 0.593912 0.120424
0.0334173 0.590646 0.119646
0.0570077 0.613046 0.102998
0.150393 0.680003 0.0524605
0.54548 0.730449 0.100771
0.753994 0.754101 0.276173
0.848356 0.771191 0.30985
0.889326 0.774502 0.313359
0.904662 0.771954 0.310414
0.0281529 0.639902 0.136736
0.028336 0.637415 0.135378
0.0531777 0.666514 0.129274
0.144289 0.727642 0.0874647
0.531182 0.777722 0.0932326
0.754971 0.79704 0.27422
0.855497 0.818158 0.331716
0.897124 0.824369 0.344427
0.911147 0.822751 0.347417
0.0251011 0.672145 0.154589
0.0252232 0.670329 0.153429
0.0559243 0.709285 0.149783
0.181323 0.76643 0.134722
0.543893 0.812116 0.147356
0.762951 0.826078 0.316197
0.857313 0.84242 0.374685
0.902922 0.853529 0.414084
0.919707 0.857053 0.451331
0.127214 0.128344 0.259236
0.168917 0.1243 0.269505
0.24773 0.120211 0.304921
0.367483 0.0921798 0.279225
0.473411 0.0876478 0.250294
0.536126 0.0873884 0.229374
0.567559 0.0873121 0.213275
0.580819 0.0875715 0.199069
0.581079 0.088014 0.186007
0.104738 0.151446 0.244388
0.128649 0.14728 0.235462
0.22063 0.14815 0.258579
0.371969 0.132677 0.246662
0.42884 0.0973373 0.207797
0.505882 0.0930953 0.194965
0.546563 0.0894636 0.184024
0.567361 0.0888533 0.174853
0.574243 0.0889143 0.164492
0.0905013 0.217578 0.23444
0.099733 0.210452 0.225376
0.203815 0.221485 0.229358
0.378714 0.227985 0.221958
0.539178 0.204196 0.193027
0.587671 0.165469 0.165469
0.559503 0.13492 0.149416
0.579797 0.129412 0.146136
0.602152 0.128893 0.142931
0.077409 0.317174 0.229221
0.0792096 0.308278 0.223484
0.130678 0.314885 0.215244
0.353658 0.340749 0.252094
0.575235 0.337758 0.171649
0.724315 0.310994 0.116121
0.79028 0.291127 0.0922255
0.819486 0.277958 0.0881971
0.837934 0.27126 0.102495
0.053254 0.441154 0.21413
0.0548257 0.432837 0.212116
0.0878004 0.445243 0.20502
0.316075 0.488914 0.178515
0.55108 0.502556 0.263249
0.716289 0.500023 0.182239
0.826368 0.483986 0.12372
0.884153 0.471702 0.107774
0.913664 0.462058 0.100572
0.0361486 0.540963 0.195651
0.0366827 0.536309 0.19736
0.0620127 0.557473 0.195315
0.199939 0.614771 0.167224
0.565927 0.645609 0.22739
0.732128 0.66247 0.279606
0.820081 0.667567 0.262318
0.868162 0.665522 0.246342
0.894377 0.66186 0.238712
0.0268406 0.611139 0.196094
0.0268559 0.609354 0.200824
0.0503853 0.636057 0.204852
0.140505 0.69633 0.191531
0.534966 0.742657 0.188739
0.749859 0.754391 0.332815
0.840055 0.767452 0.325902
0.885054 0.773892 0.34226
0.9066 0.776211 0.35848
0.0225071 0.657191 0.215991
0.0220951 0.656931 0.223529
0.0494545 0.689448 0.23592
0.132006 0.746715 0.232975
0.522957 0.794888 0.242557
0.756313 0.807172 0.387076
0.852354 0.823011 0.441993
0.898482 0.833173 0.46714
0.918288 0.838178 0.493156
0.0189364 0.692332 0.248386
0.0180209 0.693217 0.259632
0.0581979 0.733562 0.279927
0.166033 0.78819 0.287999
0.542214 0.831144 0.314549
0.767559 0.846601 0.434806
0.863813 0.860304 0.52134
0.90721 0.871305 0.560265
0.925704 0.877531 0.592233
0.123369 0.124834 0.325536
0.156878 0.117815 0.313375
0.239719 0.103441 0.340856
0.335637 0.0957961 0.423392
0.480674 0.0842603 0.452125
0.562692 0.0789654 0.433234
0.602075 0.0778058 0.406027
0.618509 0.078233 0.379721
0.619898 0.0792554 0.354742
0.109407 0.135943 0.288533
0.127642 0.133394 0.298619
0.221012 0.136431 0.347936
0.320974 0.12192 0.39704
0.439277 0.0908217 0.385595
0.534325 0.0834821 0.370062
0.581033 0.0806287 0.348196
0.603464 0.0809796 0.32932
0.611154 0.0816663 0.311803
0.088716 0.217731 0.359609
0.096849 0.210651 0.345617
0.181201 0.224125 0.359792
0.362066 0.232563 0.414618
0.55996 0.200198 0.38378
0.620935 0.159869 0.340108
0.61445 0.133455 0.308049
0.633982 0.128069 0.295338
0.641566 0.124346 0.2851
0.068101 0.33727 0.386755
0.070634 0.327169 0.374044
0.11487 0.336049 0.36939
0.356786 0.358831 0.376654
0.591821 0.350698 0.352407
0.743191 0.321721 0.321721
0.811063 0.299733 0.303349
0.844556 0.287846 0.29662
0.8607 0.279774 0.29192
0.0384375 0.476143 0.386923
0.0404059 0.466712 0.379538
0.072694 0.480095 0.375723
0.286213 0.517037 0.366171
0.562646 0.530648 0.414099
0.763333 0.516258 0.335821
0.865278 0.496559 0.312963
0.912947 0.485801 0.311421
0.937682 0.479011 0.314488
0.0216068 0.581704 0.37055
0.0223392 0.576822 0.368185
0.047715 0.597986 0.369955
0.153994 0.647623 0.363577
0.551553 0.684672 0.364401
0.741115 0.688869 0.463844
0.836011 0.68896 0.431449
0.896025 0.685771 0.409262
0.930556 0.682933 0.402777
0.0150149 0.649012 0.367788
0.0149081 0.646693 0.368505
0.0455177 0.672374 0.378073
0.114122 0.727184 0.378393
0.520577 0.770611 0.381674
0.757794 0.781445 0.49604
0.847807 0.793896 0.528527
0.893172 0.800443 0.534249
0.919158 0.805158 0.541466
0.0166934 0.689708 0.382376
0.0166171 0.688746 0.386984
0.0509194 0.71986 0.403159
0.121874 0.77406 0.40734
0.514565 0.816083 0.422995
0.75729 0.835111 0.499565
0.859388 0.846571 0.585061
0.903685 0.856718 0.609171
0.92546 0.863127 0.629374
0.018143 0.719387 0.407004
0.0181735 0.719615 0.415946
0.060441 0.760342 0.438682
0.15877 0.811032 0.448753
0.537545 0.849363 0.476524
0.762158 0.872374 0.527092
0.869886 0.880858 0.640375
0.910765 0.891417 0.686229
0.930282 0.898695 0.715572
0.120439 0.122255 0.36936
0.150317 0.11577 0.358633
0.229297 0.101122 0.396292
0.359274 0.0943313 0.46009
0.46244 0.091249 0.58648
0.554574 0.082536 0.608392
0.603693 0.0777142 0.603967
0.627848 0.0754406 0.5897
0.635096 0.0746014 0.570581
0.107683 0.131823 0.339605
0.125765 0.127306 0.334035
0.19794 0.116548 0.380468
0.318425 0.104067 0.414481
0.419074 0.0971542 0.529183
0.527855 0.0839399 0.556558
0.58793 0.0779583 0.553903
0.62002 0.0755169 0.542092
0.633066 0.0744945 0.524086
0.088838 0.19086 0.420966
0.09514 0.183673 0.406287
0.154192 0.214511 0.468025
0.367376 0.224216 0.534737
0.50837 0.19585 0.606958
0.577203 0.138399 0.560754
0.601205 0.117021 0.51989
0.637995 0.112596 0.50811
0.656931 0.110384 0.493584
0.0626688 0.339406 0.547097
0.0651713 0.330373 0.532113
0.106584 0.34197 0.53846
0.333577 0.366934 0.570932
0.565728 0.359228 0.622248
0.756909 0.320134 0.591608
0.83328 0.298924 0.556405
0.868101 0.287037 0.536706
0.884611 0.279362 0.522377
0.0258183 0.500908 0.5897
0.0281071 0.491341 0.578012
0.0594186 0.50605 0.579446
0.206622 0.537881 0.573373
0.564889 0.551827 0.570367
0.766567 0.535317 0.545556
0.863554 0.51696 0.529595
0.91043 0.506844 0.525429
0.935378 0.500511 0.523339
0.0127108 0.616083 0.577264
0.012726 0.611185 0.571328
0.0434577 0.629862 0.573571
0.114168 0.67744 0.569635
0.529641 0.709545 0.563851
0.745449 0.715419 0.610239
0.860929 0.712474 0.566415
0.922667 0.707408 0.556451
0.953033 0.705013 0.558541
0.0157778 0.680507 0.563287
0.0155795 0.677974 0.561212
0.046479 0.702327 0.569497
0.104372 0.755062 0.571893
0.501534 0.793271 0.572457
0.753399 0.811566 0.601831
0.852964 0.820218 0.665141
0.899931 0.826459 0.663798
0.928756 0.829679 0.662242
0.0179141 0.717372 0.563714
0.0178073 0.716075 0.565469
0.0525216 0.746319 0.580041
0.108858 0.79823 0.585092
0.501106 0.835904 0.595499
0.743679 0.862669 0.612726
0.86482 0.869413 0.703883
0.907454 0.879759 0.734234
0.928618 0.886137 0.750576
0.0196078 0.744015 0.57557
0.0195163 0.74374 0.581888
0.0631266 0.784527 0.602411
0.118517 0.832227 0.609567
0.529229 0.866194 0.629313
0.754757 0.893675 0.65449
0.87599 0.901808 0.741802
0.91696 0.911086 0.794202
0.935286 0.918151 0.818219
0.118593 0.120607 0.395727
0.145892 0.114549 0.388128
0.220127 0.100526 0.426841
0.358312 0.0923629 0.495476
0.450965 0.0955825 0.636988
0.541878 0.0872358 0.690776
0.594263 0.0819867 0.703777
0.620706 0.0793317 0.703304
0.630091 0.0781109 0.695354
0.106676 0.129091 0.374228
0.12311 0.124926 0.370398
0.187869 0.112932 0.406485
0.305455 0.100175 0.456306
0.415747 0.0993362 0.576867
0.513558 0.088777 0.653559
0.579049 0.0824445 0.672435
0.613855 0.0788434 0.674372
0.629923 0.0771496 0.668254
0.0865949 0.165988 0.418601
0.0913558 0.160189 0.406699
0.147372 0.199481 0.509117
0.347936 0.211917 0.606455
0.504372 0.180941 0.63299
0.515816 0.131212 0.644617
0.591897 0.120638 0.666331
0.632944 0.114397 0.669917
0.653819 0.110445 0.664927
0.0640574 0.327703 0.628275
0.0661021 0.31899 0.615152
0.105287 0.333532 0.636835
0.3066 0.364157 0.693858
0.573266 0.355886 0.717083
0.707607 0.327199 0.808972
0.805722 0.297383 0.809567
0.852247 0.280919 0.80177
0.876341 0.271595 0.791028
0.0214847 0.504662 0.728878
0.0234836 0.495735 0.719341
0.0540475 0.51017 0.728374
0.137102 0.543221 0.731594
0.54609 0.559472 0.736294
0.741558 0.547433 0.780667
0.86363 0.523964 0.774502
0.917113 0.514 0.763043
0.94406 0.507576 0.755535
0.0131533 0.631922 0.743053
0.0128328 0.627222 0.737453
0.0436866 0.646372 0.743557
0.103502 0.694469 0.744289
0.501701 0.725414 0.738888
0.750744 0.736294 0.736782
0.868208 0.732387 0.732387
0.923217 0.728817 0.732235
0.951156 0.728054 0.73402
0.0166781 0.698909 0.732189
0.0164645 0.696437 0.729122
0.047425 0.720668 0.737438
0.105547 0.773754 0.740734
0.473411 0.809491 0.736187
0.739315 0.835218 0.743801
0.858763 0.843992 0.781918
0.914427 0.849332 0.771344
0.946578 0.850782 0.769558
0.0190433 0.734981 0.725307
0.0188754 0.73315 0.724315
0.0542611 0.763622 0.736599
0.111009 0.814389 0.739818
0.479759 0.850309 0.742504
0.736629 0.880064 0.75729
0.869093 0.891417 0.79498
0.913344 0.899901 0.833616
0.933852 0.905592 0.841627
0.0209201 0.760006 0.725414
0.0208438 0.759213 0.728084
0.0653697 0.799161 0.743694
0.121965 0.845731 0.747158
0.517983 0.878569 0.757107
0.755489 0.906645 0.780148
0.877577 0.920287 0.816556
0.92491 0.926955 0.868788
0.941527 0.932967 0.885344
0.117647 0.119768 0.408789
0.142443 0.114122 0.403906
0.212528 0.100465 0.441596
0.347982 0.0924544 0.51577
0.460517 0.0944076 0.631769
0.530282 0.0903639 0.727367
0.585138 0.0850843 0.749615
0.612482 0.0822461 0.755489
0.622751 0.0810864 0.753338
0.106462 0.127169 0.394797
0.121309 0.123278 0.392493
0.181109 0.111238 0.423041
0.296193 0.0986343 0.480934
0.436194 0.0943923 0.569558
0.502052 0.0923629 0.697246
0.568948 0.085771 0.727504
0.605203 0.0822156 0.737118
0.622385 0.0803845 0.737285
0.0847028 0.15584 0.422751
0.0890669 0.150805 0.410208
0.144793 0.18938 0.526299
0.333669 0.20531 0.638941
0.504036 0.169863 0.651041
0.502007 0.133608 0.690288
0.579965 0.123888 0.732143
0.623392 0.117784 0.744747
0.645243 0.113588 0.746456
0.0657359 0.318135 0.664134
0.0682383 0.308675 0.650309
0.106096 0.3234 0.677546
0.285725 0.356573 0.745998
0.559533 0.352163 0.787594
0.685115 0.329885 0.871214
0.771832 0.298909 0.907134
0.819776 0.281437 0.910918
0.844953 0.271489 0.908766
0.0221866 0.497063 0.788846
0.0241093 0.488487 0.781216
0.0539712 0.502922 0.794141
0.119631 0.53872 0.80679
0.531106 0.559274 0.82089
0.747463 0.548623 0.826261
0.82884 0.533944 0.899184
0.890074 0.520241 0.906447
0.921874 0.512184 0.906432
0.0129549 0.631907 0.821576
0.0126497 0.627482 0.817609
0.0434882 0.648112 0.826703
0.103243 0.696361 0.832471
0.48159 0.729198 0.829526
0.741436 0.743099 0.834363
0.857847 0.739696 0.863371
0.923232 0.734676 0.860655
0.953155 0.733639 0.85655
0.0170291 0.703578 0.821103
0.0167849 0.700938 0.818372
0.0478981 0.724849 0.827192
0.106004 0.777783 0.83209
0.452796 0.814404 0.825788
0.731365 0.843626 0.836698
0.862348 0.855268 0.845975
0.921355 0.859281 0.84802
0.947875 0.86099 0.850706
0.0194705 0.739635 0.815259
0.0193179 0.73814 0.813977
0.0551156 0.768109 0.82443
0.112444 0.819181 0.82739
0.465049 0.855131 0.824933
0.733349 0.887617 0.840681
0.867552 0.9028 0.856962
0.917632 0.910353 0.883818
0.940597 0.915221 0.884153
0.0214694 0.764675 0.812024
0.0213626 0.763653 0.812131
0.0672618 0.804303 0.824781
0.124163 0.850217 0.825299
0.512123 0.88365 0.829541
0.758053 0.91249 0.849485
0.881071 0.927306 0.87422
0.929427 0.934737 0.901747
0.945815 0.940429 0.916228
0.11751 0.119646 0.410681
0.139849 0.114443 0.407721
0.206607 0.100954 0.444068
0.33817 0.0925002 0.520745
0.46746 0.0924849 0.621851
0.524071 0.0919051 0.739666
0.578653 0.0866865 0.770199
0.607217 0.0840162 0.780682
0.618051 0.082948 0.782132
0.107012 0.125994 0.403311
0.120333 0.122393 0.402716
0.17612 0.110277 0.42797
0.288182 0.0974441 0.491539
0.439124 0.0915236 0.572854
0.497993 0.0937819 0.709148
0.561669 0.0878767 0.754559
0.598199 0.0843519 0.767987
0.616327 0.0826429 0.772229
0.0842908 0.151751 0.429099
0.0882277 0.147402 0.417365
0.142565 0.182834 0.533471
0.324483 0.202945 0.65745
0.49337 0.167437 0.672007
0.505257 0.132982 0.695033
0.570504 0.12578 0.76408
0.614664 0.119615 0.781247
0.637568 0.11577 0.786862
0.0668803 0.311803 0.682261
0.0691997 0.302785 0.669688
0.106828 0.316106 0.697185
0.267903 0.351537 0.771191
0.547173 0.34876 0.821698
0.704646 0.323049 0.861128
0.753902 0.300298 0.950805
0.801221 0.281666 0.958907
0.82623 0.27155 0.959823
0.0231785 0.490639 0.819532
0.0252232 0.481682 0.811917
0.0549172 0.495384 0.826596
0.111681 0.531945 0.844572
0.518395 0.554681 0.86273
0.741527 0.546334 0.871565
0.810361 0.538003 0.945693
0.870558 0.523903 0.96257
0.902739 0.515251 0.966705
0.0128481 0.629801 0.863157
0.0125124 0.625101 0.8598
0.0433509 0.646281 0.869108
0.102617 0.694286 0.876951
0.468345 0.727504 0.875181
0.734096 0.743236 0.882841
0.851041 0.744244 0.897139
0.906722 0.739178 0.92781
0.942138 0.736873 0.929564
0.0169833 0.701823 0.865171
0.0167544 0.699397 0.863066
0.0481727 0.724208 0.871473
0.106264 0.777707 0.877836
0.440513 0.814588 0.870954
0.726482 0.846189 0.883436
0.861418 0.858427 0.889891
0.920424 0.861982 0.899901
0.947555 0.864866 0.8972
0.0194095 0.740001 0.860471
0.0192721 0.738521 0.858976
0.0560922 0.769253 0.869596
0.113436 0.819608 0.871626
0.458854 0.856428 0.867826
0.731777 0.889738 0.882841
0.86743 0.905486 0.893797
0.920363 0.914214 0.905287
0.944854 0.918303 0.907591
0.0214542 0.765347 0.856199
0.0213474 0.764294 0.855619
0.0686503 0.806058 0.867582
0.125719 0.851377 0.866133
0.513024 0.885512 0.868482
0.760723 0.914351 0.885084
0.883177 0.929717 0.903075
0.930953 0.938766 0.91754
0.948394 0.944045 0.931258
0.11751 0.119646 0.410681
0.137636 0.114961 0.408026
0.20148 0.101701 0.440497
0.329488 0.0926223 0.51635
0.465248 0.0918441 0.613092
0.520317 0.0923629 0.738491
0.575219 0.0872816 0.774609
0.60441 0.0847028 0.788235
0.615549 0.0836194 0.792432
0.108049 0.125292 0.404211
0.119951 0.122026 0.404089
0.172259 0.109972 0.422431
0.281727 0.0964981 0.490852
0.434348 0.0904402 0.572274
0.496925 0.0940108 0.707988
0.556558 0.0889906 0.764111
0.594278 0.0854505 0.781735
0.612696 0.0838178 0.788373
0.0847334 0.149233 0.427268
0.088014 0.145144 0.415244
0.140749 0.177646 0.530541
0.317128 0.200427 0.661799
0.485206 0.166125 0.680262
0.510994 0.130999 0.688762
0.564736 0.126513 0.776913
0.609369 0.12047 0.799359
0.632181 0.116823 0.806806
0.0684062 0.305623 0.686519
0.0704967 0.297322 0.675685
0.107088 0.310552 0.704616
0.253803 0.347784 0.78201
0.537301 0.346517 0.83888
0.713542 0.319356 0.863096
0.744411 0.300267 0.96762
0.791333 0.282506 0.983749
0.816342 0.272572 0.98677
0.0244755 0.484672 0.834821
0.0262455 0.47599 0.828
0.0556649 0.489036 0.843061
0.104753 0.526543 0.864469
0.508385 0.550912 0.886091
0.735668 0.544289 0.89778
0.812848 0.537148 0.951064
0.859846 0.526329 0.990982
0.891997 0.517555 0.997269
0.0126802 0.627161 0.886397
0.0123751 0.622599 0.883497
0.0431373 0.643275 0.893278
0.10219 0.691402 0.902693
0.457725 0.724666 0.901457
0.728191 0.742321 0.910369
0.856733 0.74287 0.915038
0.895796 0.74229 0.956802
0.931212 0.740414 0.962676
0.0167391 0.70045 0.891066
0.0167544 0.698558 0.889525
0.0485237 0.723659 0.899001
0.106081 0.776532 0.905043
0.432883 0.813962 0.897993
0.722347 0.846586 0.910582
0.859342 0.859388 0.916182
0.91162 0.864546 0.930083
0.944213 0.865995 0.932784
0.0194858 0.73962 0.889158
0.0193484 0.738369 0.8878
0.0566262 0.768765 0.896391
0.113893 0.819104 0.899107
0.454246 0.856016 0.89395
0.730236 0.889982 0.907805
0.867475 0.906661 0.915541
0.921111 0.915404 0.923033
0.945006 0.920043 0.925368
0.021622 0.765911 0.885267
0.0225376 0.765805 0.884779
0.0702525 0.807065 0.89482
0.127184 0.851575 0.892638
0.515297 0.886168 0.893538
0.763272 0.91519 0.907271
0.884642 0.930846 0.920378
0.931609 0.9402 0.930724
0.950042 0.945525 0.938903
