site/assets/luts/freshluts--0002289-picturefx-channel-swap-for-ir-use-with-550590665-720nm-camer.cube
# LUTr-Schema-Version: 2
# LUTr-ID: freshluts--0002289-picturefx-channel-swap-for-ir-use-with-550590665-720nm-camer
# LUTr-Title: PictureFX Channel Swap for IR - Use with 550,590,665 & 720nm camera IR filter
# LUTr-Collection: Fresh LUTs
# LUTr-Collection-ID: freshluts-community
# LUTr-Source: https://freshluts.com
# LUTr-Retrieved: 2026-07-27
# LUTr-Source-File: submissions-raw/freshluts/cubes/2289__PictureFX_Channel_Swap_for_IR.cube
# LUTr-Source-Format: CUBE
# LUTr-Source-SHA256: 6eee0e8f4d8c3e06f6997176fa4b11f4874cdf0ab94c13b49e6a2bb47815e65c
# LUTr-License: CC0-1.0
# LUTr-License-URL: https://freshluts.com/termsandconditions
# LUTr-License-Basis: site-terms
# LUTr-Transform-Class: creative-look
# LUTr-Tags: creative, freshluts, community, cube, film-emulation
# LUTr-Input-Color-Space:
# LUTr-Input-Gamut: unspecified
# LUTr-Input-Transfer: unspecified
# LUTr-Output-Color-Space: srgb
# LUTr-Output-Gamut: rec709
# LUTr-Output-Transfer: srgb
# LUTr-Color-Space-Confidence: camera-profile-input-required
# LUTr-Domain-Normalized: true
# LUTr-Shaper: none
# LUTr-Original-Grid: 25x25x25
# LUTr-Conversion-Grid: 25x25x25
# LUTr-Conversion-Interpolation: none
# LUTr-Conversion-Method: Metadata normalization; numeric LUT samples preserved
# LUTr-Conversion-Tool: LUTr scripts/convert-all-to-cube.mjs 2.0.0
# LUTr-Conversion-Date: 2026-07-28
# LUTr-Asset-URL: https://freshluts.com/luts/2289
# LUTr-Author: MarcR.
# LUTr-Author-URL: https://freshluts.com/users/86490
# LUTr-Attribution: MarcR. via Fresh LUTs
# LUTr-Source-Labels: gamma=Other; color=None; key=Neutral; style=Film emulation
# LUTr-Note: Preserve this metadata and the upstream license notices when redistributing.
# LUTr-Upstream-Comment: Generated with IWLTBAP LUT Generator
# LUTr-Upstream-Comment: Website: http://luts.iwltbap.com
# LUTr-Upstream-Comment: LUT size
# LUTr-Upstream-Comment: LUT data points
TITLE "PictureFX Channel Swap for IR - Use with 550,590,665 & 720nm camera IR filter"
LUT_3D_SIZE 5
DOMAIN_MIN 0 0 0
DOMAIN_MAX 1 1 1
0 0 0
0 0.101961 0.141176
0 0.223529 0.298039
0 0.34902 0.454902
0 0.47451 0.607843
0 0.117647 0.145098
0 0.164706 0.211765
0 0.258824 0.333333
0 0.372549 0.47451
0 0.490196 0.623529
0 0.262745 0.309804
0 0.286275 0.345098
0 0.345098 0.427451
0 0.431373 0.541176
0 0.533333 0.67451
0 0.407843 0.478431
0 0.423529 0.498039
0 0.462745 0.552941
0 0.52549 0.643137
0 0.607843 0.752941
0 0.533333 0.623529
0 0.545098 0.639216
0 0.576471 0.682353
0 0.623529 0.74902
0 0.694118 0.843137
0.407843 0.227451 0.086275
0.392157 0.254902 0.176471
0.345098 0.321569 0.313725
0.219608 0.415686 0.462745
0 0.521569 0.615686
0.407843 0.262745 0.176471
0.392157 0.286275 0.235294
0.341176 0.345098 0.34902
0.215686 0.431373 0.486275
0 0.533333 0.631373
0.4 0.34902 0.32549
0.384314 0.364706 0.356863
0.333333 0.411765 0.435294
0.2 0.486275 0.54902
0 0.576471 0.678431
0.388235 0.462745 0.486275
0.372549 0.47451 0.505882
0.317647 0.509804 0.560784
0.172549 0.568627 0.647059
0 0.643137 0.756863
0.372549 0.576471 0.631373
0.352941 0.584314 0.647059
0.298039 0.611765 0.686275
0.12549 0.658824 0.756863
0 0.72549 0.847059
0.811765 0.478431 0.207843
0.803922 0.490196 0.258824
0.784314 0.521569 0.364706
0.74902 0.580392 0.494118
0.690196 0.654902 0.639216
0.811765 0.490196 0.258824
0.803922 0.501961 0.298039
0.784314 0.537255 0.392157
0.74902 0.592157 0.517647
0.690196 0.662745 0.654902
0.807843 0.537255 0.372549
0.8 0.54902 0.4
0.784314 0.576471 0.470588
0.745098 0.627451 0.576471
0.686275 0.694118 0.698039
0.803922 0.611765 0.517647
0.796078 0.619608 0.537255
0.776471 0.647059 0.588235
0.741176 0.690196 0.670588
0.678431 0.74902 0.776471
0.796078 0.694118 0.654902
0.788235 0.701961 0.666667
0.772549 0.72549 0.705882
0.733333 0.764706 0.772549
0.670588 0.815686 0.862745
1 0.682353 0.309804
1 0.690196 0.345098
1 0.709804 0.423529
1 0.74902 0.541176
1 0.803922 0.670588
1 0.690196 0.345098
1 0.698039 0.372549
1 0.721569 0.45098
1 0.760784 0.556863
1 0.811765 0.686275
1 0.721569 0.435294
1 0.729412 0.458824
1 0.74902 0.517647
1 0.784314 0.611765
1 0.839216 0.729412
1 0.772549 0.560784
1 0.780392 0.576471
1 0.8 0.623529
1 0.835294 0.701961
1 0.882353 0.8
1 0.839216 0.686275
1 0.843137 0.698039
1 0.862745 0.737255
1 0.894118 0.8
1 0.937255 0.886275
1 0.682353 0.309804
1 0.690196 0.345098
1 0.709804 0.423529
1 0.74902 0.541176
1 0.803922 0.670588
1 0.690196 0.345098
1 0.698039 0.372549
1 0.721569 0.45098
1 0.760784 0.556863
1 0.811765 0.686275
1 0.721569 0.435294
1 0.729412 0.458824
1 0.74902 0.517647
1 0.784314 0.611765
1 0.839216 0.729412
1 0.772549 0.560784
1 0.780392 0.576471
1 0.8 0.623529
1 0.835294 0.701961
1 0.882353 0.8
1 0.839216 0.686275
1 0.843137 0.698039
1 0.862745 0.737255
1 0.894118 0.8
1 0.937255 0.886275
