site/assets/luts/freshluts--0000993-green-shadows.cube
# LUTr-Schema-Version: 2
# LUTr-ID: freshluts--0000993-green-shadows
# LUTr-Title: Green Shadows
# LUTr-Collection: Fresh LUTs
# LUTr-Collection-ID: freshluts-community
# LUTr-Source: https://freshluts.com
# LUTr-Retrieved: 2026-07-27
# LUTr-Source-File: submissions-raw/freshluts/cubes/993__Green_action_Movie_Lut_3.pexels-pixabay-163443.cube
# LUTr-Source-Format: CUBE
# LUTr-Source-SHA256: 12001bb17cad8cc993bca40cf7311e1f83669a1767163843672e7c2d4f07d2b6
# LUTr-License: CC0-1.0
# LUTr-License-URL: https://freshluts.com/termsandconditions
# LUTr-License-Basis: site-terms
# LUTr-Transform-Class: creative-look
# LUTr-Tags: creative, freshluts, community, cube, cinematic, blockbuster, green, low-key, panasonic-v-log
# LUTr-Input-Color-Space:
# LUTr-Input-Gamut: panasonic-v-gamut
# LUTr-Input-Transfer: panasonic-v-log
# LUTr-Output-Color-Space: srgb
# LUTr-Output-Gamut: rec709
# LUTr-Output-Transfer: srgb
# LUTr-Color-Space-Confidence: camera-profile-input-required
# LUTr-Domain-Normalized: true
# LUTr-Shaper: none
# LUTr-Original-Grid: 33x33x33
# LUTr-Conversion-Grid: 33x33x33
# LUTr-Conversion-Interpolation: none
# LUTr-Conversion-Method: Metadata normalization; numeric LUT samples preserved
# LUTr-Conversion-Tool: LUTr scripts/convert-all-to-cube.mjs 2.0.0
# LUTr-Conversion-Date: 2026-07-28
# LUTr-Asset-URL: https://freshluts.com/luts/993
# LUTr-Author: LutMaster
# LUTr-Author-URL: https://freshluts.com/users/57203
# LUTr-Attribution: LutMaster via Fresh LUTs
# LUTr-Source-Labels: gamma=Panasonic V-log; color=Green; key=Low Key; style=Blockbuster
# LUTr-Note: Preserve this metadata and the upstream license notices when redistributing.
TITLE "Green Shadows"
LUT_3D_SIZE 33
DOMAIN_MIN 0 0 0
DOMAIN_MAX 1 1 1
0.0554513 0.101472 0.0794995
0.0564736 0.102174 0.0801404
0.0578012 0.102998 0.0809186
0.0594186 0.103914 0.0818189
0.0605478 0.105333 0.0836652
0.0647593 0.107118 0.0865949
0.0727703 0.107958 0.0895094
0.0801556 0.109773 0.0857862
0.0935988 0.109361 0.0861677
0.106615 0.109071 0.0856031
0.120302 0.108354 0.0848249
0.134463 0.107744 0.0841535
0.149798 0.106844 0.0835889
0.166827 0.105791 0.083299
0.184909 0.104402 0.0830091
0.203067 0.103243 0.0825818
0.22005 0.102327 0.0818189
0.236149 0.101884 0.080705
0.251713 0.101534 0.079408
0.267308 0.101152 0.0778515
0.282963 0.100725 0.0762646
0.299092 0.100267 0.0745251
0.315435 0.0997635 0.0727092
0.332067 0.0992294 0.0710613
0.349218 0.0987411 0.0704814
0.366415 0.098146 0.0698558
0.383948 0.0974746 0.069337
0.401328 0.096788 0.0687724
0.418509 0.0963607 0.0681315
0.430961 0.0972152 0.0680705
0.438331 0.0994736 0.0685435
0.434318 0.104906 0.0711528
0.426596 0.111269 0.0742962
0.0627298 0.104128 0.0859693
0.0634928 0.104753 0.0848554
0.0653849 0.105348 0.0849622
0.0682383 0.105882 0.0862135
0.0719158 0.106493 0.0881971
0.0767681 0.108171 0.0912184
0.0826123 0.109758 0.0937514
0.086305 0.113039 0.0892042
0.0972152 0.113695 0.0890364
0.10956 0.113954 0.0880598
0.122789 0.113863 0.0873426
0.137682 0.113375 0.0868849
0.154574 0.11252 0.0865949
0.172457 0.111421 0.0864729
0.190555 0.110384 0.0861067
0.207721 0.109636 0.08542
0.224125 0.109178 0.0844434
0.239796 0.108888 0.0831769
0.255665 0.108659 0.0818494
0.271397 0.10837 0.0802777
0.287541 0.108064 0.0786603
0.303731 0.107668 0.0768902
0.320256 0.107149 0.0749523
0.336965 0.106584 0.0731823
0.354253 0.105959 0.072343
0.371725 0.105364 0.071519
0.389242 0.104494 0.0709087
0.40676 0.103868 0.0703746
0.424033 0.103471 0.0697337
0.436576 0.104234 0.0697185
0.444419 0.106508 0.0703441
0.441321 0.111711 0.0733196
0.435447 0.117617 0.0770275
0.0703136 0.106767 0.0898451
0.0736858 0.106676 0.0897078
0.0766308 0.106996 0.0902876
0.077409 0.107988 0.0913252
0.0778668 0.109468 0.092607
0.0796979 0.112032 0.0946365
0.0839704 0.114122 0.0963149
0.0914931 0.115831 0.0974746
0.0969711 0.119097 0.0911116
0.109987 0.119539 0.0901656
0.125017 0.119371 0.0897993
0.142092 0.118776 0.0896773
0.159838 0.117983 0.0895857
0.177707 0.117235 0.0894331
0.194934 0.116686 0.088838
0.211276 0.11635 0.0879225
0.227375 0.116167 0.0867933
0.243137 0.116075 0.0854963
0.259297 0.115846 0.0841382
0.275257 0.115618 0.0825513
0.291691 0.115389 0.0808881
0.308049 0.115068 0.0790723
0.324681 0.114733 0.0770733
0.341466 0.114214 0.0751965
0.358877 0.113512 0.0741131
0.376455 0.112795 0.0730449
0.394018 0.112032 0.0724041
0.411795 0.111269 0.0718547
0.429236 0.11078 0.0712596
0.442863 0.111269 0.0714275
0.452338 0.113146 0.0724346
0.451347 0.117723 0.0759899
0.447227 0.123445 0.0802777
0.0788586 0.110369 0.094377
0.0816358 0.11046 0.0943618
0.082063 0.111574 0.0946822
0.080293 0.113588 0.0953231
0.0782025 0.11574 0.0960708
0.0800793 0.117617 0.0972
0.082414 0.119371 0.0981918
0.0886091 0.121309 0.0993057
0.0929427 0.124941 0.0932174
0.106935 0.125704 0.0926528
0.126345 0.125261 0.0919661
0.146868 0.124483 0.0918593
0.164431 0.124025 0.0917067
0.181262 0.123659 0.09131
0.197436 0.123674 0.090547
0.213535 0.123644 0.0894636
0.229435 0.123522 0.0882734
0.24535 0.123491 0.0869459
0.261448 0.123415 0.0856031
0.277623 0.123232 0.0839399
0.293935 0.122972 0.0822156
0.310567 0.122698 0.0803235
0.327138 0.122255 0.0782483
0.344274 0.121935 0.0763104
0.361654 0.121431 0.0751659
0.379507 0.120745 0.073991
0.397314 0.120089 0.0733501
0.415534 0.119478 0.0728618
0.43357 0.118715 0.072343
0.448295 0.119249 0.0727855
0.458839 0.120729 0.074052
0.461814 0.124437 0.076997
0.464683 0.128206 0.0793774
0.0745708 0.117906 0.0971847
0.0746777 0.119051 0.0971847
0.0748913 0.120394 0.0975052
0.0751965 0.121813 0.098085
0.0763714 0.122927 0.0988022
0.0791791 0.123735 0.0996414
0.0802014 0.125032 0.100206
0.085893 0.127047 0.101213
0.0957351 0.128634 0.101701
0.10602 0.131426 0.0949722
0.127932 0.131243 0.094255
0.151171 0.130571 0.0939651
0.167681 0.130419 0.0935836
0.183444 0.130541 0.093019
0.199298 0.130724 0.0921035
0.215274 0.130922 0.0909895
0.231495 0.131044 0.0897841
0.24744 0.131106 0.0884413
0.2636 0.131014 0.0870832
0.279789 0.130831 0.085359
0.296193 0.13077 0.0836042
0.312947 0.130602 0.081651
0.329717 0.130205 0.0795148
0.34699 0.129793 0.0775006
0.364523 0.129366 0.0762646
0.382559 0.128893 0.0749981
0.400519 0.128328 0.0742962
0.418936 0.127764 0.0737926
0.437217 0.127352 0.0732738
0.455131 0.12694 0.0727245
0.472877 0.126787 0.0720226
0.48304 0.128557 0.0729992
0.486244 0.132067 0.0755016
0.0700542 0.126436 0.0990005
0.0740826 0.126497 0.0996872
0.0763867 0.127169 0.100282
0.0770886 0.128496 0.100862
0.0786755 0.129564 0.101656
0.0820325 0.129976 0.102525
0.0823377 0.131579 0.102846
0.08542 0.133761 0.10309
0.0912947 0.135943 0.102602
0.104829 0.136568 0.102647
0.11899 0.138964 0.0956436
0.140032 0.138598 0.0953078
0.161456 0.138277 0.0946059
0.18323 0.137865 0.0936751
0.201053 0.137896 0.0926375
0.217273 0.138186 0.0915236
0.233616 0.138506 0.0903182
0.249454 0.138598 0.0889906
0.265797 0.138643 0.0876631
0.281987 0.138674 0.0859388
0.298589 0.138567 0.0841535
0.315297 0.138445 0.0822461
0.332403 0.138231 0.0802167
0.349737 0.138094 0.078294
0.367498 0.137682 0.0770428
0.385473 0.137255 0.0757916
0.403769 0.136934 0.0750896
0.422126 0.136522 0.0745708
0.440696 0.136156 0.0740368
0.458732 0.135927 0.0734722
0.476646 0.135851 0.0727703
0.486961 0.137545 0.0738537
0.490715 0.141207 0.076585
0.0703746 0.133761 0.10103
0.0758679 0.133547 0.102495
0.0728923 0.135241 0.101183
0.0752422 0.136034 0.102113
0.0777142 0.136904 0.103075
0.0810559 0.137316 0.104021
0.0811627 0.139071 0.104234
0.0806287 0.141787 0.103716
0.0791485 0.145434 0.10164
0.0864424 0.147189 0.100282
0.102846 0.147539 0.100053
0.114992 0.149813 0.0937209
0.14136 0.149248 0.0928817
0.170153 0.148272 0.0916762
0.192264 0.14786 0.0907454
0.211017 0.147631 0.0901045
0.230274 0.147127 0.0895247
0.248997 0.146838 0.0886854
0.266957 0.146624 0.0876478
0.284138 0.146517 0.0860761
0.300923 0.146456 0.0843519
0.317998 0.146532 0.082536
0.335302 0.146395 0.0806592
0.352834 0.146395 0.0788891
0.370779 0.146029 0.0776379
0.389059 0.145907 0.0764477
0.407568 0.145617 0.0757305
0.426215 0.145418 0.0751965
0.444877 0.145083 0.0746471
0.463493 0.144869 0.0740673
0.481773 0.144823 0.0734417
0.495048 0.145769 0.0738842
0.503563 0.148257 0.0753185
0.0666361 0.142626 0.101579
0.0712444 0.142641 0.102968
0.0766613 0.142245 0.104524
0.0801404 0.142489 0.105577
0.084062 0.142977 0.10695
0.0885786 0.143206 0.108278
0.0922255 0.143908 0.109361
0.0938582 0.145724 0.109331
0.092256 0.148928 0.107271
0.0934462 0.152255 0.104372
0.103258 0.154116 0.102342
0.110918 0.157351 0.0944991
0.140063 0.15668 0.0937057
0.172732 0.155367 0.0923934
0.197101 0.154635 0.0914931
0.216403 0.15436 0.0908522
0.235508 0.154025 0.090074
0.253132 0.153826 0.0889754
0.270405 0.153979 0.0877241
0.287144 0.154009 0.0860609
0.303853 0.154162 0.0843366
0.321004 0.154284 0.0826123
0.338338 0.15436 0.0809491
0.356146 0.154345 0.0793164
0.374151 0.15436 0.078233
0.392752 0.154376 0.0771191
0.411154 0.154208 0.0764324
0.43003 0.154086 0.0758831
0.448768 0.153979 0.0753338
0.467384 0.153933 0.0747845
0.485634 0.154025 0.0741131
0.499123 0.1552 0.0746777
0.507988 0.157595 0.0763104
0.0720531 0.148684 0.102998
0.078584 0.148165 0.105318
0.0859236 0.147387 0.108049
0.0905776 0.147524 0.109957
0.0944839 0.148089 0.11162
0.0957504 0.149477 0.112032
0.0950179 0.151598 0.111666
0.0940566 0.154665 0.109972
0.0947738 0.157443 0.107683
0.0981308 0.160128 0.104646
0.108583 0.161669 0.10277
0.11577 0.165072 0.0946822
0.145144 0.164141 0.0941634
0.177996 0.162783 0.0932326
0.202777 0.161791 0.0922866
0.221881 0.161334 0.09131
0.240085 0.161044 0.0901961
0.257038 0.161105 0.0886397
0.273884 0.161227 0.087068
0.290394 0.161395 0.0853895
0.307332 0.161593 0.083711
0.324483 0.161791 0.0821851
0.342184 0.161975 0.0807355
0.360006 0.162188 0.0793927
0.378088 0.162264 0.0784772
0.396628 0.162493 0.0775616
0.414969 0.162585 0.0769055
0.433707 0.162524 0.0763409
0.45243 0.162676 0.0757916
0.470726 0.162814 0.0752422
0.48925 0.163119 0.0746471
0.503288 0.164157 0.0754253
0.513787 0.166293 0.0774243
0.0794995 0.154437 0.104952
0.0876173 0.153292 0.108064
0.0946975 0.152575 0.111345
0.0974441 0.153582 0.113207
0.0972152 0.155612 0.113817
0.0949874 0.158297 0.113008
0.0911879 0.161349 0.111391
0.0951705 0.163073 0.110811
0.101305 0.164523 0.110018
0.108583 0.166079 0.108812
0.117082 0.168231 0.105882
0.122499 0.171954 0.0964523
0.151415 0.171267 0.0948653
0.184024 0.16997 0.0941024
0.208087 0.168978 0.0929732
0.22649 0.168566 0.0915694
0.244221 0.168444 0.0899519
0.260731 0.168429 0.0881971
0.277348 0.168582 0.0863355
0.294087 0.168719 0.0847181
0.311009 0.168948 0.0831311
0.328527 0.169192 0.0817426
0.346471 0.169497 0.0805676
0.364523 0.169787 0.0794232
0.382773 0.170108 0.0787518
0.401251 0.170443 0.0781109
0.419806 0.170748 0.0775006
0.438468 0.171008 0.0769513
0.457298 0.171283 0.0764324
0.475578 0.171588 0.0759899
0.494285 0.171893 0.0755016
0.509178 0.172961 0.076524
0.520607 0.174975 0.0788281
0.0812543 0.16228 0.106142
0.0852522 0.162753 0.107973
0.086305 0.164263 0.108919
0.0852979 0.1664 0.10901
0.0854505 0.168307 0.109377
0.0877241 0.169314 0.109667
0.0905318 0.170321 0.110094
0.0987869 0.170825 0.111055
0.107103 0.171878 0.111177
0.116106 0.173587 0.10988
0.128359 0.175906 0.106676
0.137331 0.179965 0.0967727
0.1626 0.179477 0.0950942
0.18996 0.17847 0.0944839
0.211505 0.177813 0.0933547
0.229267 0.177371 0.0919203
0.246601 0.177111 0.0902724
0.263172 0.176913 0.0881819
0.28014 0.176699 0.0860761
0.29723 0.176822 0.0845045
0.31487 0.176913 0.0830396
0.332769 0.177142 0.0817884
0.350805 0.177539 0.0808728
0.369223 0.177798 0.0799573
0.387579 0.178302 0.0793469
0.406363 0.178592 0.0787366
0.424613 0.178882 0.0781262
0.443275 0.179278 0.0775921
0.461738 0.17969 0.0770733
0.479988 0.180133 0.076585
0.49836 0.180591 0.0760815
0.516609 0.181048 0.0757305
0.534508 0.18175 0.0753033
0.0716411 0.17409 0.103059
0.0758984 0.17464 0.104952
0.0817884 0.174441 0.107576
0.0859998 0.174838 0.109331
0.0892195 0.175586 0.110506
0.0922255 0.176547 0.110674
0.0955978 0.177264 0.110994
0.104067 0.177981 0.112032
0.112551 0.17937 0.112108
0.122576 0.181582 0.110475
0.130907 0.187091 0.099321
0.150088 0.188739 0.0962997
0.171023 0.188495 0.0945296
0.193118 0.187778 0.0942245
0.212711 0.187228 0.0933242
0.230732 0.186633 0.0921035
0.248463 0.186069 0.090486
0.265354 0.185641 0.0881666
0.282521 0.185199 0.0858778
0.300282 0.185031 0.0843214
0.318593 0.185183 0.082887
0.336843 0.185367 0.0818494
0.355245 0.185611 0.0811627
0.373816 0.185962 0.0804913
0.392416 0.186374 0.0799268
0.411337 0.186694 0.0793317
0.429511 0.187182 0.0787366
0.44799 0.187778 0.0782025
0.466285 0.188312 0.0776837
0.484382 0.18883 0.0771954
0.502708 0.189578 0.0767071
0.520897 0.190158 0.0763561
0.538781 0.190921 0.0759289
0.0723125 0.182391 0.103792
0.0768292 0.183032 0.105882
0.0834363 0.182818 0.108827
0.0889296 0.182818 0.110903
0.0867933 0.185061 0.110491
0.0906691 0.185733 0.110765
0.0944839 0.186404 0.11107
0.102632 0.187106 0.112001
0.110689 0.188693 0.11191
0.12079 0.190936 0.110246
0.136797 0.19408 0.105959
0.149813 0.198932 0.0953384
0.168734 0.199359 0.0930648
0.188632 0.199405 0.092195
0.20734 0.199023 0.0912642
0.225376 0.198306 0.0902266
0.243793 0.197528 0.0889601
0.262409 0.196475 0.0871443
0.281788 0.195224 0.0854047
0.301595 0.194644 0.0842603
0.321248 0.194354 0.0831159
0.340551 0.194263 0.0822309
0.359487 0.194308 0.0816663
0.378485 0.194614 0.0810864
0.397208 0.195071 0.0804913
0.415976 0.1953 0.0798505
0.434379 0.19585 0.0792859
0.452598 0.19646 0.0787518
0.471077 0.197086 0.0782483
0.489097 0.197757 0.07776
0.507576 0.198444 0.0772564
0.525658 0.199145 0.0769207
0.543816 0.199863 0.076524
0.0731518 0.19089 0.104463
0.0767376 0.19205 0.106157
0.0819257 0.192523 0.108553
0.0861677 0.192966 0.110307
0.0901808 0.193652 0.111894
0.0938888 0.194217 0.112398
0.0983291 0.194583 0.112963
0.107027 0.195132 0.114046
0.116472 0.19588 0.114565
0.127611 0.197848 0.11342
0.136965 0.203952 0.102022
0.155367 0.20679 0.0978103
0.173205 0.208179 0.0942092
0.192508 0.209186 0.0918441
0.210513 0.209186 0.0906691
0.228229 0.208591 0.0897841
0.246998 0.207706 0.088838
0.266148 0.206455 0.0874952
0.285451 0.205234 0.0860914
0.30518 0.204532 0.0849928
0.32491 0.203861 0.0838483
0.344274 0.203662 0.0829938
0.363516 0.203479 0.0823529
0.383062 0.20354 0.0817273
0.401587 0.203922 0.081117
0.4206 0.204211 0.0804913
0.438972 0.204913 0.0799268
0.457099 0.205615 0.0793774
0.475471 0.206348 0.0788586
0.493385 0.207172 0.0783703
0.511772 0.207996 0.0778668
0.529488 0.208759 0.0775311
0.547204 0.209445 0.0771191
0.0737469 0.199603 0.105196
0.0776379 0.200961 0.107057
0.0834821 0.201297 0.109712
0.0889601 0.201648 0.111894
0.094728 0.201801 0.11397
0.100008 0.201968 0.114855
0.105089 0.202243 0.115541
0.111284 0.203326 0.115404
0.117235 0.205249 0.114336
0.125689 0.207935 0.111513
0.142962 0.210849 0.108095
0.155215 0.216266 0.097261
0.174273 0.218112 0.0940871
0.194965 0.219593 0.09131
0.214054 0.219654 0.090135
0.23212 0.218921 0.0894789
0.251041 0.218021 0.0887465
0.269963 0.21677 0.0877699
0.289097 0.215579 0.0866407
0.308659 0.214817 0.0856336
0.328374 0.214145 0.0845655
0.34815 0.213657 0.0836957
0.367758 0.213321 0.0830243
0.387366 0.213092 0.0823529
0.405982 0.21355 0.0817426
0.424659 0.213764 0.0810407
0.442283 0.214618 0.0803693
0.459861 0.215442 0.0797131
0.477409 0.216281 0.0790875
0.495109 0.21738 0.0785229
0.513039 0.218235 0.0780041
0.530694 0.219135 0.0776837
0.548257 0.220066 0.0773327
0.0726177 0.209277 0.105577
0.0776226 0.210422 0.107759
0.0848554 0.210391 0.110887
0.0914321 0.210452 0.113344
0.097322 0.210651 0.115511
0.101808 0.210849 0.116106
0.104555 0.212039 0.115602
0.10869 0.21387 0.114214
0.113252 0.216129 0.111864
0.123842 0.218097 0.110307
0.143282 0.220417 0.108614
0.156603 0.225544 0.0995804
0.176623 0.227543 0.0956588
0.198871 0.229419 0.0920729
0.219028 0.229892 0.0901656
0.237583 0.229618 0.0894331
0.256397 0.229175 0.0886397
0.274891 0.228199 0.0879377
0.293355 0.227085 0.0870222
0.312642 0.22623 0.0861677
0.332647 0.225254 0.0852369
0.352636 0.224582 0.0844282
0.372259 0.224125 0.0837568
0.392279 0.223728 0.0830549
0.410864 0.223865 0.0823682
0.429465 0.224079 0.0816663
0.447181 0.22475 0.0809949
0.464576 0.225605 0.0803388
0.482246 0.22649 0.0797436
0.499733 0.227543 0.0792248
0.517555 0.228351 0.0787366
0.535042 0.229038 0.0784772
0.552636 0.229816 0.078233
0.0748302 0.218326 0.106844
0.0804303 0.219409 0.109209
0.0863661 0.219913 0.111666
0.0895552 0.221103 0.112367
0.0903182 0.223133 0.111742
0.0914931 0.224735 0.110216
0.0942702 0.225849 0.109285
0.101427 0.226581 0.1093
0.110018 0.227283 0.109483
0.123064 0.228168 0.109743
0.143709 0.230045 0.109133
0.157122 0.235142 0.10016
0.178668 0.237736 0.0961013
0.202838 0.239765 0.0923323
0.22414 0.24062 0.0902419
0.242634 0.240665 0.0893416
0.261051 0.240681 0.088426
0.278737 0.23978 0.0879377
0.296834 0.238895 0.0873274
0.316335 0.237873 0.0866407
0.336599 0.23682 0.0859236
0.356619 0.235981 0.0852064
0.376562 0.235264 0.0845045
0.396796 0.234806 0.0838026
0.41529 0.23473 0.0831311
0.434165 0.234577 0.082414
0.452064 0.235096 0.0817426
0.469627 0.235813 0.0811322
0.487358 0.236698 0.0805371
0.504372 0.237522 0.0799878
0.522026 0.238422 0.0794842
0.538918 0.239277 0.0792401
0.556161 0.240146 0.0789502
0.0738384 0.22858 0.106844
0.0762036 0.230838 0.10753
0.079057 0.232609 0.108278
0.0824445 0.233768 0.108858
0.0866407 0.234501 0.109911
0.0911727 0.234974 0.110048
0.0955978 0.235569 0.109957
0.102678 0.236393 0.109804
0.11107 0.237217 0.109865
0.123781 0.238193 0.110033
0.144594 0.240253 0.10959
0.157778 0.245365 0.100465
0.179583 0.248173 0.0962081
0.204425 0.250385 0.0927138
0.22652 0.251698 0.0906539
0.245975 0.252262 0.0897841
0.265354 0.252781 0.0888991
0.283375 0.252506 0.0885176
0.301656 0.252247 0.088014
0.32108 0.251179 0.0873732
0.341009 0.249958 0.0866865
0.361105 0.248631 0.0859693
0.381338 0.247883 0.0852827
0.401633 0.247089 0.084596
0.420432 0.24686 0.0839399
0.439445 0.246677 0.083238
0.457176 0.247028 0.0825666
0.474861 0.247715 0.0819104
0.492103 0.248234 0.0812848
0.508888 0.24892 0.0807202
0.526085 0.24947 0.0801862
0.542687 0.250172 0.0798962
0.559701 0.250904 0.0796368
0.0743877 0.238437 0.107607
0.0767834 0.240848 0.108248
0.0797436 0.242435 0.108934
0.0833448 0.243458 0.109575
0.0877699 0.244327 0.110689
0.0926833 0.244907 0.110872
0.0955367 0.246021 0.110246
0.102632 0.246845 0.110002
0.110842 0.247791 0.109911
0.123583 0.248844 0.109987
0.144533 0.25069 0.109682
0.165591 0.252934 0.108217
0.179873 0.259037 0.0966659
0.2038 0.261707 0.0927443
0.226337 0.263645 0.0906539
0.24683 0.264759 0.0897383
0.267063 0.265721 0.088838
0.285298 0.266041 0.0885328
0.304067 0.266575 0.0881971
0.323919 0.265324 0.0877241
0.344488 0.263615 0.0872053
0.365286 0.262303 0.0866407
0.385855 0.261189 0.0860304
0.406531 0.259953 0.0853285
0.425299 0.259495 0.0846723
0.444129 0.25922 0.0840009
0.462104 0.259541 0.0833295
0.479683 0.259815 0.0826429
0.496895 0.260197 0.082002
0.51339 0.260563 0.0814221
0.530175 0.260884 0.0808881
0.546914 0.261372 0.0805982
0.563699 0.261875 0.0803235
0.0751965 0.248432 0.108492
0.0778058 0.250706 0.109133
0.0812238 0.252216 0.109911
0.0853132 0.253376 0.110658
0.0899519 0.254063 0.111788
0.0944228 0.25481 0.111711
0.0982376 0.255726 0.111208
0.104814 0.256886 0.110704
0.113436 0.257893 0.110567
0.127184 0.259037 0.110796
0.14934 0.260533 0.110735
0.171206 0.26244 0.109422
0.184955 0.268986 0.0976577
0.208667 0.271992 0.0939193
0.230793 0.274495 0.0916609
0.251637 0.276432 0.090547
0.272496 0.278111 0.0895857
0.290837 0.279088 0.0893263
0.310201 0.279988 0.0890516
0.330114 0.279072 0.0886549
0.350347 0.277592 0.0881361
0.370672 0.276356 0.0875563
0.391135 0.27483 0.0868696
0.411749 0.273426 0.0861372
0.43032 0.272999 0.085481
0.44921 0.27248 0.0847639
0.467155 0.272663 0.0840772
0.484688 0.27303 0.0834058
0.501945 0.273106 0.0827649
0.51809 0.273365 0.0822003
0.534646 0.273198 0.0816358
0.551247 0.27364 0.0813458
0.567803 0.273854 0.0810559
0.0757458 0.258869 0.10927
0.0783856 0.261082 0.109911
0.0818494 0.262837 0.110674
0.0860609 0.264057 0.111437
0.0910964 0.264836 0.112627
0.0962387 0.265141 0.112505
0.10103 0.26598 0.112032
0.108782 0.266789 0.111681
0.11812 0.267933 0.111604
0.131014 0.269368 0.111055
0.151705 0.271504 0.109957
0.172503 0.274006 0.10753
0.186633 0.280522 0.0967269
0.210208 0.283742 0.0935988
0.23328 0.286336 0.092195
0.255467 0.288838 0.0912184
0.277836 0.290806 0.0903487
0.297002 0.291966 0.0901503
0.316823 0.292805 0.0898909
0.336507 0.292866 0.0895399
0.356542 0.292607 0.0890669
0.376608 0.291585 0.0884565
0.396765 0.289662 0.0877394
0.416999 0.287999 0.0869917
0.435691 0.287465 0.0863203
0.454414 0.286732 0.0855726
0.471839 0.286732 0.0848096
0.488136 0.287144 0.0847028
0.502846 0.287739 0.0852522
0.51516 0.288472 0.0865339
0.528817 0.289036 0.0871443
0.543359 0.289631 0.0874189
0.559396 0.28983 0.0870375
0.0780194 0.26833 0.112581
0.079118 0.271183 0.112337
0.0803998 0.273655 0.111742
0.0835584 0.27541 0.11165
0.0885023 0.276188 0.11249
0.0941482 0.27657 0.112306
0.0989242 0.277333 0.11162
0.1066 0.278431 0.111101
0.115404 0.279942 0.110338
0.128222 0.281834 0.109163
0.149813 0.284031 0.107439
0.172625 0.285939 0.10576
0.187961 0.292256 0.0960555
0.21207 0.295262 0.0939498
0.236118 0.298024 0.0927443
0.260075 0.300755 0.0918898
0.283955 0.303334 0.0911421
0.303731 0.30457 0.090959
0.323903 0.305913 0.0906996
0.343542 0.306706 0.0903334
0.363333 0.307439 0.0898756
0.383215 0.306798 0.0892958
0.402914 0.304463 0.0885634
0.423209 0.30251 0.0878004
0.44184 0.301762 0.0871138
0.46041 0.300984 0.0863813
0.478035 0.300984 0.0856184
0.494362 0.301228 0.0855116
0.508904 0.301671 0.0861219
0.521233 0.302083 0.08748
0.5346 0.302312 0.0881514
0.549386 0.302693 0.0884871
0.565789 0.303059 0.0882277
0.081178 0.278309 0.114412
0.0835584 0.280873 0.114717
0.085832 0.283177 0.11458
0.0880446 0.285145 0.113848
0.0909743 0.286885 0.113466
0.0935531 0.288243 0.111284
0.0954757 0.290013 0.108598
0.10193 0.291981 0.1066
0.111513 0.293553 0.105547
0.126787 0.294896 0.105287
0.150881 0.296239 0.105226
0.175128 0.297841 0.104845
0.190219 0.30399 0.095964
0.214328 0.307118 0.0941787
0.23888 0.310353 0.0932479
0.263676 0.313329 0.0925765
0.288212 0.316136 0.0919509
0.309071 0.317906 0.0917525
0.330388 0.319707 0.0914473
0.350195 0.321172 0.0910811
0.369863 0.32256 0.0906233
0.389715 0.32285 0.090074
0.409461 0.321706 0.0894179
0.429465 0.320577 0.0887312
0.447501 0.318975 0.0880751
0.465888 0.317556 0.0873121
0.483421 0.316701 0.0865339
0.499947 0.316594 0.0865339
0.515175 0.316548 0.0872663
0.527916 0.316793 0.0888075
0.541772 0.316899 0.0896162
0.556573 0.317098 0.0899672
0.572351 0.317143 0.089601
0.082948 0.289036 0.115648
0.0857404 0.291417 0.116274
0.0876783 0.293736 0.115953
0.0888228 0.296223 0.114519
0.0890669 0.299001 0.112337
0.090959 0.300786 0.109377
0.0941329 0.302159 0.107088
0.103105 0.303593 0.106157
0.114183 0.30486 0.105623
0.129641 0.306081 0.105226
0.153567 0.307897 0.104982
0.1776 0.309789 0.104555
0.201251 0.312673 0.103166
0.21651 0.319188 0.0945602
0.240986 0.322728 0.0935988
0.266163 0.326329 0.0930648
0.2916 0.329519 0.092546
0.313588 0.331823 0.0923781
0.336049 0.33402 0.0920729
0.355978 0.335973 0.091722
0.376013 0.338064 0.0913252
0.395941 0.339223 0.0908522
0.415579 0.339254 0.0902876
0.43534 0.339086 0.0896925
0.453361 0.336767 0.0890211
0.471687 0.334508 0.0883345
0.489342 0.33315 0.0876173
0.506325 0.332341 0.0876631
0.521599 0.331914 0.088426
0.533989 0.331731 0.0899825
0.547555 0.332036 0.0907912
0.561868 0.331853 0.0910811
0.577737 0.331899 0.0906844
0.083711 0.300298 0.116609
0.0864729 0.30248 0.117144
0.0884108 0.304921 0.116716
0.0895857 0.307424 0.115114
0.0898909 0.310216 0.112779
0.0920729 0.312001 0.109667
0.0953841 0.313512 0.107195
0.104341 0.314931 0.106065
0.117571 0.316121 0.105791
0.132647 0.317983 0.105074
0.156024 0.320043 0.104631
0.179904 0.32221 0.104067
0.203357 0.325109 0.102937
