site/assets/luts/freshluts--0000622-darkwarm.cube
# LUTr-Schema-Version: 2
# LUTr-ID: freshluts--0000622-darkwarm
# LUTr-Title: DARK.WARM
# LUTr-Collection: Fresh LUTs
# LUTr-Collection-ID: freshluts-community
# LUTr-Source: https://freshluts.com
# LUTr-Retrieved: 2026-07-27
# LUTr-Source-File: submissions-raw/freshluts/cubes/622__warm-lwst_24.A008_05161445_C065.cube
# LUTr-Source-Format: CUBE
# LUTr-Source-SHA256: 2253a36f28d5fff3113c1921df486697fd53493de74037b1d38e9d6989c308fa
# LUTr-License: CC0-1.0
# LUTr-License-URL: https://freshluts.com/termsandconditions
# LUTr-License-Basis: site-terms
# LUTr-Transform-Class: creative-look
# LUTr-Tags: creative, freshluts, community, cube, red, low-key, bmd-film, warm
# LUTr-Input-Color-Space: bmd-film
# LUTr-Input-Gamut: bmd-film-gamut
# LUTr-Input-Transfer: bmd-film
# LUTr-Output-Color-Space: srgb
# LUTr-Output-Gamut: rec709
# LUTr-Output-Transfer: srgb
# LUTr-Color-Space-Confidence: inferred-from-source-label
# LUTr-Domain-Normalized: true
# LUTr-Shaper: none
# LUTr-Original-Grid: 33x33x33
# LUTr-Conversion-Grid: 33x33x33
# LUTr-Conversion-Interpolation: none
# LUTr-Conversion-Method: Metadata normalization; numeric LUT samples preserved
# LUTr-Conversion-Tool: LUTr scripts/convert-all-to-cube.mjs 2.0.0
# LUTr-Conversion-Date: 2026-07-28
# LUTr-Asset-URL: https://freshluts.com/luts/622
# LUTr-Author: lvannoeun@gmail.com
# LUTr-Author-URL: https://freshluts.com/users/57563
# LUTr-Attribution: lvannoeun@gmail.com via Fresh LUTs
# LUTr-Source-Labels: gamma=Blackmagic BMD Film; color=Red; key=Low Key; style=Horror / Dark
# LUTr-Note: Preserve this metadata and the upstream license notices when redistributing.
TITLE "DARK.WARM"
LUT_3D_SIZE 33
DOMAIN_MIN 0 0 0
DOMAIN_MAX 1 1 1
0.0442054 0.0399481 0.0160525
0.0628672 0.0399939 0.016083
0.0815442 0.0400397 0.0161288
0.106828 0.040116 0.01561
0.134417 0.0401312 0.0148013
0.162737 0.0400092 0.013962
0.191516 0.039826 0.0132601
0.220615 0.0396124 0.0127565
0.249897 0.0394446 0.0124666
0.279484 0.0392462 0.0122835
0.309422 0.0390631 0.0120546
0.33959 0.0388647 0.011841
0.370123 0.0386358 0.0116274
0.400916 0.0384222 0.0113985
0.431998 0.0381933 0.0111543
0.463416 0.0379492 0.0109407
0.495048 0.037705 0.0106813
0.526879 0.0374609 0.0104524
0.558831 0.0372015 0.010193
0.590921 0.0369421 0.00994888
0.623148 0.0366827 0.00968948
0.655238 0.0364385 0.00946059
0.686503 0.0363928 0.00958267
0.716411 0.0367132 0.010193
0.744259 0.0375372 0.0115511
0.76939 0.0390478 0.0138552
0.791272 0.0413977 0.0172885
0.809766 0.0446021 0.0218509
0.825711 0.0484321 0.0271611
0.840284 0.0525978 0.0328374
0.854643 0.0568093 0.0384222
0.869535 0.0608225 0.0436561
0.885161 0.0645914 0.0484932
0.0522621 0.0555581 0.024094
0.0625315 0.0582742 0.0223697
0.0815137 0.0588083 0.0164645
0.106859 0.0588998 0.0158694
0.134447 0.0589151 0.0150149
0.162753 0.058793 0.0141604
0.191531 0.0586099 0.0134585
0.220737 0.0583963 0.0129549
0.250004 0.0582132 0.012665
0.279576 0.0580301 0.0124666
0.309545 0.057847 0.0122377
0.339757 0.0576333 0.0120089
0.370336 0.0574197 0.0118105
0.401328 0.0572061 0.0115663
0.432471 0.0569619 0.0113222
0.463874 0.056733 0.0111086
0.495552 0.0564736 0.0108492
0.527459 0.0562295 0.0106203
0.559518 0.0559701 0.0103609
0.591745 0.0556954 0.0101167
0.623926 0.055436 0.00984207
0.656046 0.0552071 0.00962844
0.687312 0.0551766 0.00976577
0.717189 0.0555276 0.0104372
0.744884 0.0564126 0.0118715
0.769787 0.0580148 0.0142824
0.791394 0.060441 0.0178073
0.809628 0.0637217 0.0224918
0.82536 0.067628 0.0278935
0.839826 0.0718395 0.0336156
0.854185 0.0760662 0.0392157
0.869139 0.0800641 0.0444343
0.884901 0.0838178 0.0492256
0.0603037 0.0711681 0.0321508
0.0699474 0.0737316 0.033753
0.0808423 0.076585 0.028687
0.1066 0.0776684 0.0169223
0.134417 0.0776989 0.0154574
0.162768 0.0775769 0.0145113
0.191684 0.0773938 0.0137484
0.220844 0.0771954 0.0132143
0.250156 0.0770123 0.0129091
0.279805 0.0768292 0.0126955
0.309865 0.0766308 0.0124666
0.340154 0.0764172 0.0122225
0.370855 0.0762036 0.0120089
0.401816 0.0759747 0.0117647
0.433036 0.0757458 0.0115206
0.464515 0.0755169 0.0112917
0.496269 0.0752575 0.0110323
0.528237 0.0749981 0.0108034
0.560418 0.0747387 0.0105287
0.592645 0.0744793 0.0102846
0.624918 0.0742199 0.0100252
0.657053 0.073991 0.00981155
0.688304 0.073991 0.0099794
0.718105 0.0743725 0.0107118
0.745586 0.0753338 0.012253
0.770214 0.076997 0.0147707
0.791501 0.07953 0.0184176
0.809445 0.0829023 0.023209
0.824918 0.0868849 0.0287327
0.839261 0.0911727 0.0345312
0.853651 0.0953994 0.040116
0.868681 0.0993973 0.0452888
0.884611 0.103105 0.0500343
0.0684672 0.0897688 0.0400549
0.0782483 0.0931106 0.0420539
0.0896773 0.0969406 0.0419928
0.10544 0.101183 0.0341497
0.132876 0.103243 0.0191806
0.162539 0.103212 0.0148928
0.191379 0.102953 0.0138857
0.220554 0.102525 0.0132143
0.249989 0.102052 0.0128481
0.279683 0.101503 0.0126192
0.30988 0.100908 0.0123751
0.340322 0.100237 0.0121614
0.371069 0.0994888 0.0119631
0.402106 0.0987869 0.0117342
0.433402 0.0980392 0.0115206
0.465019 0.097261 0.0113069
0.496956 0.0964981 0.0110781
0.529046 0.0956436 0.0108797
0.561257 0.0947738 0.0106508
0.593561 0.0938735 0.0104372
0.625925 0.0929885 0.0102083
0.658122 0.0927596 0.0100252
0.689433 0.0927901 0.0102235
0.718975 0.0932326 0.0110323
0.746273 0.0942397 0.0126497
0.770657 0.0959945 0.0152743
0.791623 0.0986191 0.0190738
0.80914 0.102129 0.024033
0.824399 0.106203 0.0296483
0.838697 0.110506 0.0354314
0.853132 0.114733 0.0410163
0.868223 0.11873 0.0461891
0.884306 0.122423 0.0508888
0.0766461 0.111971 0.0475776
0.0877394 0.115602 0.0495918
0.100343 0.119585 0.0502327
0.114549 0.123857 0.0481727
0.132296 0.128069 0.0390021
0.159442 0.130556 0.0225834
0.190402 0.130632 0.0149233
0.219974 0.130312 0.0133211
0.249485 0.129946 0.0127565
0.279332 0.129519 0.0124056
0.309529 0.128954 0.0121157
0.340002 0.128344 0.011841
0.370809 0.127657 0.0116121
0.401923 0.126894 0.011368
0.433341 0.12607 0.0111391
0.465064 0.125261 0.0109102
0.497002 0.124361 0.0106813
0.529152 0.1234 0.0104677
0.561456 0.122423 0.0102388
0.593851 0.121431 0.0100252
0.626276 0.120439 0.00981155
0.658732 0.11957 0.00962844
0.690227 0.118837 0.00985733
0.720134 0.118517 0.0106966
0.747784 0.118822 0.0123751
0.772503 0.11989 0.0151217
0.793591 0.122026 0.0191501
0.811185 0.125048 0.0243229
0.826413 0.128771 0.0301671
0.84065 0.132799 0.0361791
0.854978 0.136797 0.0419318
0.869993 0.140658 0.0472725
0.886183 0.144305 0.0520943
0.0852522 0.13492 0.0556802
0.0983139 0.138582 0.058793
0.111971 0.142535 0.0606241
0.126101 0.146609 0.0608377
0.140795 0.151125 0.0548104
0.159442 0.155306 0.0436561
0.186358 0.158053 0.026627
0.217746 0.158511 0.0165255
0.248722 0.158236 0.0131075
0.278676 0.157824 0.0124056
0.30898 0.157382 0.0119783
0.339483 0.156817 0.0116121
0.370367 0.156161 0.0113069
0.401572 0.15552 0.0110323
0.433097 0.154818 0.0107424
0.46482 0.153994 0.0104982
0.496834 0.153155 0.0102388
0.529015 0.152239 0.0100252
0.56141 0.151324 0.00976577
0.593942 0.150484 0.00950637
0.626459 0.149554 0.00929274
0.658961 0.148638 0.00907912
0.690776 0.147875 0.00921645
0.721218 0.147478 0.00996414
0.749645 0.147631 0.0115816
0.775311 0.148623 0.0143435
0.797482 0.150408 0.0183871
0.816159 0.153124 0.0237583
0.832151 0.156573 0.029984
0.846784 0.160418 0.0364996
0.861265 0.164324 0.0428321
0.876402 0.168246 0.0487068
0.892393 0.171832 0.0540017
0.095552 0.158221 0.066392
0.109651 0.161944 0.069749
0.123705 0.165789 0.0720073
0.13756 0.16994 0.0726787
0.151995 0.174121 0.0715038
0.167437 0.178775 0.063035
0.186938 0.182925 0.0484321
0.213718 0.185916 0.0312657
0.245243 0.186725 0.0193484
0.277333 0.186481 0.0136873
0.308217 0.186053 0.0121462
0.338872 0.185565 0.0115511
0.369879 0.185046 0.0111238
0.401129 0.184466 0.0107576
0.432639 0.183764 0.0104219
0.464439 0.183032 0.010132
0.496513 0.182254 0.00984207
0.528801 0.18143 0.00955215
0.561273 0.180636 0.00929274
0.593805 0.179767 0.00903334
0.626368 0.178927 0.0087892
0.658946 0.178058 0.00854505
0.691081 0.17731 0.00857557
0.721965 0.176837 0.00923171
0.75111 0.176989 0.0107424
0.777569 0.177691 0.0134737
0.800885 0.179232 0.0175174
0.820737 0.181643 0.0230106
0.837629 0.184863 0.0295567
0.852827 0.188647 0.0366064
0.867613 0.192523 0.0435492
0.882872 0.196307 0.0499428
0.898817 0.199924 0.0558022
0.106401 0.181827 0.0771496
0.120943 0.185519 0.0805066
0.135256 0.18938 0.0832837
0.149233 0.193515 0.0843977
0.163607 0.197681 0.0846113
0.178408 0.20206 0.0814832
0.194675 0.206806 0.0713207
0.214755 0.210925 0.0562142
0.241382 0.214069 0.036286
0.272847 0.215183 0.0229343
0.305715 0.215122 0.0152743
0.337957 0.214725 0.0120546
0.369177 0.214221 0.0111696
0.400504 0.213703 0.0106355
0.432105 0.213062 0.010193
0.463935 0.212406 0.00981155
0.496132 0.211688 0.00947585
0.528511 0.210986 0.00914015
0.560998 0.210224 0.00885023
0.593545 0.209384 0.00856031
0.626169 0.208576 0.00830091
0.658808 0.207782 0.00802625
0.691234 0.207095 0.00796521
0.722576 0.206683 0.00849927
0.752148 0.206622 0.00996414
0.779431 0.207156 0.0125887
0.803784 0.208438 0.0166171
0.824796 0.210636 0.0221866
0.842603 0.213687 0.0290837
0.858488 0.217182 0.0365606
0.873686 0.220951 0.0440528
0.889128 0.224674 0.0510262
0.905211 0.22829 0.057435
0.117601 0.205707 0.0880446
0.132219 0.209445 0.0913863
0.146822 0.213245 0.0944381
0.160952 0.217395 0.0961929
0.175341 0.221668 0.0967727
0.190173 0.225849 0.0964065
0.205295 0.230457 0.0909895
0.222278 0.235142 0.0796368
0.242878 0.2392 0.0642557
0.26949 0.242512 0.0414282
0.300954 0.244022 0.0269627
0.334218 0.244175 0.0176852
0.367437 0.243717 0.0126955
0.399619 0.243214 0.0108797
0.431373 0.242664 0.0101625
0.46334 0.242115 0.00962844
0.495613 0.241443 0.00921645
0.527993 0.240742 0.00881972
0.560555 0.24007 0.00846876
0.593194 0.239307 0.00813306
0.625864 0.23859 0.00779736
0.65861 0.237858 0.0075227
0.691157 0.237201 0.00735485
0.722789 0.236698 0.00782788
0.75288 0.236606 0.00918593
0.780896 0.237034 0.0117342
0.806195 0.238071 0.0157015
0.828244 0.240116 0.0213779
0.847089 0.242847 0.0284886
0.863737 0.246143 0.0363775
0.879438 0.24976 0.0444343
0.89514 0.253376 0.0519875
0.911376 0.257053 0.0589914
0.128695 0.229831 0.0989548
0.143465 0.233616 0.102419
0.158267 0.237461 0.105592
0.172747 0.241566 0.107958
0.187045 0.245823 0.108995
0.201816 0.250019 0.109346
0.216938 0.254368 0.107637
0.232547 0.259159 0.100252
0.250233 0.263798 0.0881056
0.271458 0.267933 0.0724346
0.298085 0.271321 0.0468452
0.329427 0.273045 0.0312963
0.362936 0.273442 0.0206149
0.396841 0.273136 0.0140688
0.430213 0.272679 0.0108644
0.462531 0.272114 0.00973526
0.494896 0.271534 0.00910964
0.527352 0.270893 0.00859083
0.559945 0.270222 0.00816358
0.592676 0.269581 0.00776684
0.625498 0.26894 0.00740063
0.658259 0.268269 0.00715648
0.690898 0.267613 0.00697337
0.722774 0.267094 0.00721752
0.753277 0.266957 0.0084535
0.781994 0.267308 0.0109102
0.808148 0.268254 0.0148775
0.831128 0.269932 0.0205539
0.851011 0.272374 0.0278477
0.868528 0.275456 0.0360876
0.884779 0.27892 0.0446937
0.900862 0.282536 0.0528878
0.917342 0.286061 0.0604105
0.139834 0.25417 0.11014
0.154864 0.258045 0.113878
0.169757 0.261921 0.117281
0.184497 0.26598 0.119921
0.198901 0.270237 0.12134
0.21355 0.274495 0.12192
0.228794 0.278691 0.121965
0.244175 0.28336 0.118502
0.260288 0.288304 0.109712
0.278691 0.292912 0.0967727
0.300298 0.296925 0.0806287
0.326986 0.300465 0.0548104
0.358221 0.302403 0.0358434
0.391989 0.30312 0.0239719
0.426444 0.302968 0.0161135
0.460609 0.302434 0.0115053
0.493812 0.301839 0.00943008
0.526497 0.301289 0.00862135
0.559228 0.300694 0.00807202
0.592065 0.30016 0.00772107
0.624872 0.299535 0.00740063
0.657694 0.298894 0.00717174
0.690455 0.298283 0.0069276
0.722545 0.297795 0.00695811
0.753445 0.297658 0.00781262
0.782712 0.297917 0.0101778
0.809537 0.298665 0.0141146
0.833478 0.300145 0.019791
0.854383 0.302358 0.0271916
0.872786 0.305165 0.0357977
0.889693 0.308537 0.0449531
0.906218 0.311971 0.0536812
0.922988 0.315389 0.0617533
0.151064 0.27892 0.12166
0.166217 0.28275 0.125399
0.181277 0.28661 0.128923
0.196216 0.290623 0.131868
0.210803 0.294881 0.133745
0.225452 0.299214 0.134722
0.240635 0.303593 0.135134
0.256123 0.307897 0.134401
0.271748 0.312657 0.129183
0.288457 0.317571 0.11902
0.307439 0.32224 0.105516
0.329473 0.326268 0.088838
0.356344 0.329992 0.0628367
0.387457 0.332189 0.0404822
0.421225 0.333028 0.0276493
0.456016 0.333013 0.0186618
0.490837 0.332586 0.0128939
0.525063 0.332082 0.00984207
0.558297 0.331518 0.00865187
0.591226 0.330968 0.00808728
0.624125 0.330388 0.00764477
0.657008 0.329793 0.00730907
0.68983 0.329274 0.00701915
0.722179 0.328893 0.00695811
0.753384 0.328679 0.0074464
0.783032 0.328801 0.00953689
0.810483 0.329442 0.0134432
0.835294 0.330694 0.0191348
0.857191 0.332723 0.0266575
0.876509 0.335393 0.0356146
0.894102 0.338445 0.0451667
0.911147 0.341711 0.0544442
0.928298 0.344991 0.0630655
0.162356 0.303746 0.133471
0.177539 0.307668 0.137224
0.192798 0.311543 0.140749
0.207889 0.315572 0.143832
0.222827 0.319829 0.146105
0.237537 0.324254 0.147265
0.252567 0.328649 0.147875
0.26807 0.332891 0.148089
0.283726 0.337392 0.145983
0.299702 0.342306 0.139376
0.317052 0.347372 0.12842
0.336706 0.351949 0.114382
0.359121 0.356039 0.0971237
0.385992 0.359747 0.0709087
0.417105 0.362112 0.0461128
0.450797 0.363195 0.0320439
0.485817 0.363531 0.0220798
0.521172 0.363195 0.015198
0.556023 0.362615 0.0110628
0.58999 0.362036 0.0089723
0.623117 0.361517 0.00819409
0.656138 0.360998 0.00766003
0.689143 0.360555 0.00727855
0.721538 0.360159 0.0071107
0.752987 0.359899 0.00741588
0.783001 0.360037 0.00907912
0.811032 0.360525 0.0129549
0.836622 0.361654 0.0186618
0.859434 0.363516 0.0263218
0.879561 0.36585 0.035523
0.897948 0.368704 0.0454871
0.915572 0.371786 0.0552682
0.933165 0.374945 0.0644236
0.173693 0.328893 0.14519
0.188937 0.332815 0.148821
0.204349 0.336751 0.152438
0.219654 0.340856 0.155642
0.234821 0.345068 0.158206
0.249622 0.349477 0.15964
0.264714 0.353918 0.160388
0.280064 0.358312 0.160769
0.295964 0.362631 0.160601
0.311788 0.367391 0.157137
0.328145 0.372381 0.149325
0.346029 0.377371 0.137652
0.366125 0.381949 0.123201
0.388937 0.386038 0.105608
0.416022 0.389807 0.0790112
0.447074 0.392432 0.0538338
0.480735 0.39379 0.0368048
0.515831 0.394171 0.0259403
0.5514 0.394003 0.0181125
0.586709 0.39353 0.0128328
0.621378 0.393057 0.00979629
0.655039 0.392538 0.00840772
0.688136 0.392065 0.0077821
0.720668 0.391684 0.00746166
0.7523 0.39147 0.00764477
0.782635 0.391516 0.00881972
0.811231 0.392065 0.0126955
0.837476 0.393011 0.0184482
0.861067 0.394537 0.0261845
0.882048 0.396674 0.0356451
0.901244 0.399298 0.0459602
0.919509 0.402182 0.0562142
0.937636 0.40531 0.0659495
0.185122 0.354253 0.156878
0.200534 0.358221 0.160403
0.216129 0.36228 0.164111
0.231601 0.366384 0.167376
0.24686 0.370535 0.170108
0.261936 0.374899 0.171954
0.276905 0.379385 0.1729
0.292317 0.383871 0.17351
0.308141 0.388312 0.173754
0.324178 0.392782 0.172686
0.340139 0.39765 0.16762
0.357 0.402686 0.158801
0.375357 0.407645 0.146685
0.395956 0.412253 0.132204
0.419181 0.416434 0.11426
0.446296 0.420325 0.0872358
0.477241 0.423011 0.0610361
0.510842 0.424491 0.0417945
0.545968 0.425116 0.0301213
0.581827 0.425162 0.0213474
0.617548 0.424796 0.0150759
0.652598 0.424292 0.0111086
0.686702 0.423789 0.00891127
0.719524 0.423407 0.00816358
0.751369 0.423239 0.00813306
0.782071 0.423331 0.0090486
0.811017 0.423743 0.0127108
0.837827 0.424536 0.0185245
0.86215 0.42591 0.0263676
0.88397 0.427817 0.0360418
0.903975 0.430182 0.0466621
0.922957 0.43299 0.0574044
0.941619 0.435828 0.0675364
0.196612 0.379889 0.16846
0.212268 0.383963 0.172259
0.227848 0.388022 0.175677
0.243473 0.39205 0.179034
0.258885 0.396277 0.181796
0.274159 0.400626 0.183932
0.289281 0.405173 0.185214
0.304692 0.409705 0.186007
0.320317 0.414191 0.186313
0.336507 0.41854 0.18645
0.352621 0.423255 0.183917
0.368887 0.428199 0.177783
0.386252 0.43331 0.168276
0.405203 0.43827 0.155581
0.426123 0.442802 0.141009
0.449577 0.446983 0.122881
0.476844 0.45095 0.0955215
0.507668 0.453788 0.0687877
0.541299 0.455558 0.0478523
0.576394 0.456382 0.0345464
0.612177 0.456504 0.0249485
0.64802 0.456291 0.0178683
0.683391 0.455817 0.0129244
0.717617 0.455512 0.0100862
0.75021 0.455268 0.00910964
0.781155 0.455283 0.0096437
0.810468 0.455589 0.013138
0.837781 0.45626 0.0190127
0.86276 0.457496 0.0270237
0.885374 0.459312 0.0369879
0.906172 0.461463 0.0479133
0.925841 0.463951 0.0589303
0.945068 0.46659 0.0694591
0.20827 0.405768 0.180056
0.223957 0.409857 0.183719
0.239643 0.413931 0.187213
0.25539 0.418006 0.190555
0.270954 0.422232 0.1935
0.286519 0.426673 0.195865
0.301839 0.431128 0.197467
0.317174 0.435721 0.198352
0.33286 0.440208 0.198871
0.348852 0.444663 0.199069
0.365255 0.449149 0.19855
0.381491 0.454078 0.194736
0.398154 0.459144 0.187671
0.415839 0.464225 0.177401
0.435157 0.469108 0.164385
0.456535 0.473594 0.149798
0.480293 0.477821 0.131502
0.507683 0.481895 0.104173
0.538537 0.484901 0.0766155
0.571939 0.486763 0.0539254
0.606882 0.487739 0.0392157
0.642542 0.48806 0.0288701
0.678447 0.48806 0.0209659
0.71368 0.487816 0.0153658
0.747524 0.487526 0.0121462
0.779644 0.487434 0.0110781
0.809537 0.487663 0.0141756
0.837339 0.488258 0.0201114
0.862928 0.489387 0.028336
0.886213 0.490913 0.0384375
0.907774 0.492866 0.0495918
0.928176 0.495125 0.060914
0.948043 0.497581 0.0717632
0.219974 0.4318 0.191592
0.235737 0.435904 0.195148
0.251606 0.44004 0.198749
0.267445 0.444175 0.202075
0.283345 0.448478 0.20531
0.298894 0.452811 0.207813
0.314321 0.457282 0.209583
0.329686 0.461921 0.210636
0.345342 0.466453 0.211368
0.361303 0.471 0.211688
0.377798 0.475502 0.211994
0.394202 0.480125 0.210285
0.410605 0.4851 0.205371
0.42768 0.490181 0.19736
0.445777 0.495323 0.186343
0.465507 0.500237 0.173205
0.487343 0.504723 0.158587
0.511238 0.508904 0.140169
0.53875 0.512978 0.112642
0.569436 0.516106 0.0846876
0.602548 0.518196 0.0601663
0.637476 0.519417 0.0442969
0.673014 0.519921 0.0332952
0.708446 0.520027 0.0247654
0.743084 0.519936 0.0187228
0.776379 0.519829 0.0153048
0.807645 0.519997 0.0168002
0.836454 0.5205 0.0221256
0.862608 0.521385 0.0303655
0.886595 0.522713 0.0406043
0.908873 0.524437 0.0519265
0.930022 0.526497 0.0634623
0.950607 0.528862 0.0746319
0.231662 0.458106 0.203082
0.247517 0.462226 0.206729
0.263539 0.466331 0.210285
0.27953 0.470603 0.213825
0.295537 0.474815 0.216983
0.311238 0.479194 0.219638
0.326863 0.483635 0.221698
0.342321 0.488258 0.222965
0.358068 0.492973 0.223865
0.374014 0.497536 0.224369
0.39028 0.502022 0.224598
0.406928 0.506508 0.224399
0.423346 0.511315 0.2215
0.440055 0.516365 0.215671
0.457572 0.521569 0.206973
0.476066 0.526726 0.195407
0.496254 0.531579 0.181964
0.518151 0.535988 0.167163
0.542351 0.540169 0.14873
0.569833 0.544274 0.121386
0.600504 0.547601 0.0929885
0.633402 0.549874 0.0680552
0.667872 0.551217 0.0502327
0.702861 0.551873 0.0381933
0.737713 0.552148 0.0291905
0.77171 0.552254 0.0232548
0.804089 0.552468 0.0226596
0.834104 0.552819 0.0264286
0.86157 0.553491 0.0336919
0.886488 0.554635 0.0437171
0.909514 0.556161 0.0551003
0.931441 0.558083 0.066804
0.952697 0.560189 0.0780499
0.243458 0.484565 0.214633
0.259617 0.488746 0.218433
0.275608 0.493004 0.222004
0.291722 0.497139 0.225452
0.307729 0.501411 0.228687
0.323705 0.505714 0.231479
0.339422 0.510155 0.233692
0.355261 0.514824 0.235386
0.37084 0.519509 0.236301
0.386801 0.524102 0.236881
0.402975 0.528695 0.237171
0.419638 0.533165 0.237461
0.436377 0.537758 0.236408
0.453025 0.542748 0.232563
0.469963 0.547921 0.225864
0.487602 0.553109 0.216281
0.506554 0.558175 0.204288
0.527108 0.562921 0.190616
0.549294 0.567346 0.175799
0.573724 0.571572 0.157275
0.601114 0.575692 0.13022
0.631617 0.579004 0.101381
0.664347 0.581415 0.0755169
0.698177 0.582925 0.0561532
0.732326 0.583902 0.0434424
0.766323 0.584344 0.0349126
0.799191 0.584665 0.0322881
0.830289 0.585016 0.0341497
0.859037 0.585595 0.0399023
0.885344 0.586557 0.0487373
0.909621 0.587961 0.0595407
0.932357 0.589563 0.0710155
0.954345 0.591424 0.0822003
0.255436 0.511284 0.226276
0.271611 0.515496 0.229938
0.287755 0.519631 0.233539
0.30399 0.523873 0.237034
0.320134 0.528115 0.240314
0.336217 0.532433 0.243336
0.352224 0.536965 0.245762
0.368017 0.541527 0.247578
0.383703 0.546212 0.248692
0.399634 0.55082 0.249485
0.415824 0.555444 0.249958
0.432395 0.560067 0.250263
0.449317 0.564538 0.250278
0.466011 0.569268 0.248173
0.48278 0.574289 0.243259
0.499962 0.579416 0.235676
0.518059 0.584558 0.225544
0.537392 0.589715 0.213321
0.558206 0.594461 0.199359
0.580636 0.598764 0.184512
0.605081 0.60293 0.165759
0.63241 0.607034 0.138903
0.66273 0.610468 0.109911
0.695094 0.613092 0.0841993
0.728267 0.614725 0.0644846
0.761334 0.615717 0.0514992
0.793896 0.616373 0.0459602
0.825437 0.616922 0.0457771
0.855131 0.617563 0.0496986
0.882826 0.618463 0.0568704
0.908461 0.619562 0.0661784
0.932586 0.620951 0.0765545
0.955596 0.622583 0.0871443
0.267506 0.538079 0.237995
0.28365 0.542321 0.241688
0.299901 0.546487 0.245197
0.316228 0.550698 0.248768
0.332616 0.555032 0.252094
0.348852 0.559396 0.255207
0.364981 0.56376 0.257816
0.38085 0.568292 0.259709
0.396704 0.572915 0.261097
0.412589 0.577585 0.261967
0.42887 0.582269 0.262669
0.445258 0.586847 0.262974
0.462104 0.591318 0.263233
0.479011 0.59585 0.262608
0.495811 0.600671 0.259464
0.51281 0.605692 0.253819
0.530358 0.611002 0.245594
0.548791 0.616129 0.234928
0.568429 0.621073 0.222217
0.58938 0.625849 0.208042
0.612085 0.630091 0.193164
0.636515 0.634287 0.174182
0.663935 0.638437 0.147707
0.693828 0.641993 0.119112
0.725612 0.644587 0.0940414
0.757961 0.646311 0.0756695
0.789807 0.647456 0.0649882
0.820523 0.648371 0.0616159
0.850645 0.649165 0.0634623
0.879179 0.650004 0.0686198
0.90605 0.651057 0.0759899
0.931502 0.652308 0.0847944
0.955871 0.653758 0.0940108
0.279606 0.564935 0.249699
0.295842 0.569192 0.2533
0.312276 0.573373 0.256977
0.328679 0.577661 0.260471
0.345144 0.581918 0.263981
0.361471 0.586206 0.267018
0.377737 0.59057 0.269795
0.393759 0.595102 0.271901
0.409812 0.599634 0.273457
0.425864 0.604364 0.274571
0.442008 0.609018 0.275303
0.458396 0.613611 0.275715
0.47509 0.618112 0.275959
0.49218 0.622522 0.276158
0.509163 0.627268 0.274678
0.526085 0.632212 0.270649
0.543267 0.637278 0.264164
0.560983 0.642466 0.255222
0.579599 0.647562 0.244175
0.59942 0.652522 0.230991
0.620829 0.657237 0.216861
0.64358 0.661479 0.201984
0.668116 0.665629 0.182742
0.695293 0.669703 0.156466
0.724804 0.673198 0.128817
0.755901 0.675837 0.105287
0.787427 0.677729 0.0893873
0.817884 0.678981 0.0814069
0.846799 0.679973 0.0807813
0.87509 0.680964 0.0841993
0.902831 0.682063 0.0895247
0.929412 0.683253 0.0962234
0.955001 0.684718 0.103777
0.291783 0.591836 0.261372
0.308171 0.596094 0.265019
0.324758 0.600366 0.268803
0.341283 0.604593 0.272297
0.357809 0.608759 0.275731
0.374228 0.613046 0.278904
0.390631 0.617411 0.281682
0.406897 0.621927 0.284092
0.423011 0.62649 0.285924
0.439094 0.631113 0.287083
0.455177 0.635767 0.287877
0.471565 0.64033 0.288441
0.488151 0.644938 0.288716
0.505211 0.64947 0.289082
0.522362 0.653941 0.288777
0.539376 0.658701 0.286381
0.556405 0.663569 0.281559
0.573678 0.668681 0.274357
0.591714 0.673762 0.264897
0.610666 0.678935 0.253315
0.630701 0.683833 0.240085
0.652201 0.688411 0.225711
0.674937 0.692638 0.210727
0.699504 0.696773 0.191333
0.726497 0.700862 0.16527
0.755795 0.704433 0.139605
0.786053 0.707057 0.118425
0.816205 0.708919 0.105135
0.845289 0.710277 0.100359
0.872892 0.711421 0.101991
0.899474 0.712703 0.106859
0.926726 0.714031 0.11133
0.953216 0.715373 0.11664
0.304051 0.61883 0.273198
0.320699 0.623056 0.277012
0.337209 0.627314 0.280552
0.353872 0.631464 0.284184
0.370459 0.635721 0.287526
0.387091 0.639933 0.290822
0.403586 0.644297 0.293721
0.420035 0.648753 0.296284
0.436164 0.653269 0.298222
0.452338 0.657832 0.299641
0.468437 0.662455 0.300465
0.484825 0.666987 0.301152
0.501549 0.671626 0.301732
0.518364 0.676143 0.301946
