site/assets/luts/freshluts--0000606-let-it-green.cube
# LUTr-Schema-Version: 2
# LUTr-ID: freshluts--0000606-let-it-green
# LUTr-Title: LET IT GREEN
# LUTr-Collection: Fresh LUTs
# LUTr-Collection-ID: freshluts-community
# LUTr-Source: https://freshluts.com
# LUTr-Retrieved: 2026-07-27
# LUTr-Source-File: submissions-raw/freshluts/cubes/606__LET_IT_GREEN__88.DJI_0911.cube
# LUTr-Source-Format: CUBE
# LUTr-Source-SHA256: 5e47a7c5af62b8c16bbb095f940fe869414fe88796b302851a6df33745d49a7a
# LUTr-License: CC0-1.0
# LUTr-License-URL: https://freshluts.com/termsandconditions
# LUTr-License-Basis: site-terms
# LUTr-Transform-Class: creative-look
# LUTr-Tags: creative, freshluts, community, cube, green, dji-d-log
# LUTr-Input-Color-Space: dji-dlog-dgamut
# LUTr-Input-Gamut: dji-d-gamut
# LUTr-Input-Transfer: dji-d-log
# LUTr-Output-Color-Space: srgb
# LUTr-Output-Gamut: rec709
# LUTr-Output-Transfer: srgb
# LUTr-Color-Space-Confidence: inferred-from-source-label
# LUTr-Domain-Normalized: true
# LUTr-Shaper: none
# LUTr-Original-Grid: 33x33x33
# LUTr-Conversion-Grid: 33x33x33
# LUTr-Conversion-Interpolation: none
# LUTr-Conversion-Method: Metadata normalization; numeric LUT samples preserved
# LUTr-Conversion-Tool: LUTr scripts/convert-all-to-cube.mjs 2.0.0
# LUTr-Conversion-Date: 2026-07-28
# LUTr-Asset-URL: https://freshluts.com/luts/606
# LUTr-Author: Shamoon Abbasi
# LUTr-Author-URL: https://freshluts.com/users/1258
# LUTr-Attribution: Shamoon Abbasi via Fresh LUTs
# LUTr-Source-Labels: gamma=DJI D-log; color=Green; key=Neutral; style=Adventure
# LUTr-Note: Preserve this metadata and the upstream license notices when redistributing.
TITLE "LET IT GREEN"
LUT_3D_SIZE 9
DOMAIN_MIN 0 0 0
DOMAIN_MAX 1 1 1
0 0 0
0.0139773 0.0059205 0.00561532
0.0414893 0.0125734 0.0115053
0.109758 0.0271611 0.0244602
0.210681 0.0404212 0.0339818
0.322072 0.0510414 0.0365301
0.43125 0.0615091 0.0344549
0.51284 0.0729992 0.0340124
0.543008 0.0820935 0.0354009
0.020264 0.0702373 0.0204929
0.0632334 0.101076 0.026215
0.146975 0.120348 0.0185245
0.267079 0.129625 0.00233463
0.402014 0.134874 0
0.534218 0.142718 0
0.650813 0.15581 0
0.732174 0.175311 0
0.750973 0.189364 0
0.00399786 0.222675 0.00505074
0.070161 0.248905 0.0000915541
0.200885 0.258747 0
0.369711 0.259815 0
0.535744 0.262074 0
0.67332 0.273091 0
0.778134 0.292729 0
0.840101 0.320577 0
0.846815 0.336858 0
0 0.406348 0
0.0360266 0.426429 0
0.214145 0.427512 0
0.416281 0.421897 0
0.59472 0.423209 0
0.727672 0.435859 0
0.825147 0.460441 0
0.893034 0.497765 0
0.900023 0.513069 0
0 0.592706 0
0.0408331 0.601602 0
0.248356 0.595117 0
0.464302 0.588724 0
0.648997 0.596902 0
0.793118 0.624033 0
0.906416 0.663325 0
0.985885 0.71046 0.00958267
0.997436 0.727703 0.0227054
0 0.759823 0.0000762951
0.12369 0.770489 0
0.349035 0.777386 0.00251774
0.576852 0.78555 0.000244144
0.768368 0.803738 0.012314
0.90866 0.829847 0.0326085
0.996567 0.859327 0.0615549
1 0.88925 0.092256
1 0.898344 0.101656
0.0453803 0.96231 0.0880751
0.253666 0.969894 0.100206
0.47451 0.975464 0.101686
0.689433 0.969421 0.0973983
0.8607 0.971618 0.0970474
0.979934 0.978408 0.103853
1 0.988617 0.114229
1 0.994644 0.126314
1 0.995697 0.129381
0.0977035 1 0.146029
0.317205 1 0.161456
0.532799 1 0.157809
0.734554 1 0.141482
0.886976 1 0.122911
0.987518 1 0.112474
1 1 0.106691
1 1 0.105547
1 1 0.105623
0.102831 1 0.15288
0.321599 1 0.165179
0.535195 1 0.15967
0.735698 1 0.142306
0.88603 1 0.122026
0.982269 1 0.10692
1 1 0.0985885
1 1 0.0961776
1 1 0.0961776
0.00190738 0.00209049 0.0115358
0.0160372 0.00733959 0.0194858
0.0509194 0.0168002 0.0346227
0.130602 0.0320745 0.0626688
0.235904 0.0425116 0.0863661
0.349172 0.0504768 0.104692
0.45977 0.0592508 0.11928
0.541131 0.0697642 0.133379
0.57052 0.0789044 0.142306
0.0222477 0.0803388 0.0620279
0.066804 0.109285 0.082826
0.154528 0.12546 0.0904555
0.279057 0.131731 0.0879377
0.417884 0.134813 0.0823682
0.550683 0.140764 0.0807507
0.667323 0.15317 0.0864881
0.746639 0.172229 0.101274
0.763928 0.186572 0.114977
0.000808728 0.230015 0.0997787
0.0653697 0.254307 0.0993515
0.200885 0.261662 0.0840009
0.373892 0.260517 0.0626841
0.541741 0.261326 0.0475624
0.679026 0.271626 0.0463722
0.782971 0.291035 0.0587625
0.844617 0.319219 0.0840009
0.850477 0.334859 0.10045
0 0.410468 0.0840162
0.0294804 0.429023 0.0772717
0.210666 0.428061 0.0573281
0.415061 0.421576 0.0375982
0.594034 0.422461 0.0312505
0.727382 0.435584 0.0428626
0.825742 0.460487 0.0690166
0.897261 0.499565 0.109575
0.908171 0.516808 0.12784
0 0.593225 0.0886397
0.037583 0.601083 0.0880293
0.246464 0.59501 0.0791943
0.463966 0.590127 0.0734417
0.650645 0.600015 0.0831617
0.796887 0.62829 0.112139
0.911452 0.66772 0.15259
0.990295 0.71426 0.200244
0.99913 0.732921 0.219669
0 0.760647 0.159747
0.125978 0.774289 0.171786
0.351583 0.782238 0.178561
0.580041 0.791028 0.185977
0.77055 0.808103 0.202335
0.910002 0.831937 0.226535
0.996277 0.858213 0.253361
1 0.88629 0.281895
1 0.896696 0.292592
0.0522164 0.966079 0.286046
0.256046 0.977661 0.297978
0.473564 0.973724 0.296727
0.686702 0.971328 0.290517
0.855863 0.968765 0.287221
0.974517 0.973648 0.291966
1 0.981491 0.299931
1 0.988815 0.30988
1 0.990662 0.31284
0.106798 1 0.346365
0.318318 1 0.357992
0.528847 1 0.349905
0.72488 1 0.327474
0.8766 1 0.307622
0.97818 1 0.29601
1 1 0.288502
1 1 0.286168
1 1 0.285863
0.111192 1 0.352239
0.321752 1 0.360876
0.530694 1 0.351324
0.725994 1 0.328511
0.872419 1 0.303548
0.968139 1 0.285863
1 1 0.275746
1 1 0.272282
1 1 0.272068
0.00357061 0.00399786 0.0239261
0.0193484 0.00973526 0.035935
0.0641337 0.0225681 0.0654002
0.1514 0.0363775 0.107652
0.26128 0.0441291 0.145129
0.37612 0.0496986 0.177661
0.487282 0.0568246 0.207797
0.567285 0.0666514 0.23508
0.594965 0.075761 0.25098
0.0233921 0.0902113 0.110491
0.0695811 0.116594 0.145083
0.161639 0.130144 0.167224
0.290761 0.133486 0.179217
0.433692 0.134722 0.189166
0.56788 0.139422 0.202914
0.682994 0.151186 0.222904
0.760052 0.170336 0.249393
0.775402 0.184619 0.267689
0.0000610361 0.237385 0.197635
0.0608682 0.25948 0.212497
0.201602 0.264759 0.21149
0.378119 0.261341 0.202747
0.547982 0.261158 0.199069
0.684825 0.270985 0.207355
0.787549 0.290364 0.226902
0.8486 0.319234 0.256947
0.853849 0.3346 0.274205
0 0.415427 0.229511
0.0243992 0.432242 0.233234
0.209201 0.42974 0.221286
0.415534 0.422431 0.207614
0.594202 0.422583 0.204883
0.727916 0.43621 0.219043
0.828565 0.462898 0.247181
0.902831 0.503517 0.289113
0.916411 0.521706 0.30837
0 0.594873 0.260746
0.0369726 0.602335 0.263447
0.246937 0.59646 0.256199
0.465431 0.593088 0.25182
0.655116 0.605722 0.264225
0.802487 0.634394 0.293599
0.918257 0.673961 0.333989
0.994034 0.718624 0.379767
1 0.738262 0.399985
0 0.764401 0.339101
0.130816 0.78027 0.353262
0.356115 0.788678 0.360327
0.584634 0.797757 0.367773
0.773541 0.812787 0.382147
0.911803 0.834363 0.403784
0.997696 0.85864 0.428473
1 0.883833 0.454154
1 0.894652 0.465232
0.0595102 0.96791 0.466682
0.258259 0.981353 0.477165
0.473716 0.974426 0.474205
0.684352 0.97116 0.465324
0.85243 0.967193 0.460517
0.97023 0.969665 0.462745
1 0.975906 0.469047
1 0.982818 0.476097
1 0.985763 0.479332
0.115785 1 0.528252
0.319371 1 0.535897
0.525261 1 0.52369
0.717113 1 0.497078
0.868299 1 0.475883
0.968765 1 0.461677
1 1 0.4533
1 1 0.449805
1 1 0.449317
0.119173 1 0.533333
0.322057 1 0.538262
0.526558 1 0.524681
0.716747 1 0.496681
0.859312 1 0.467155
0.954711 1 0.447639
1 1 0.4365
1 1 0.43209
1 1 0.431662
0.00488289 0.00560006 0.0374762
0.0243534 0.0134279 0.0581216
0.0792554 0.0287633 0.106035
0.171832 0.039826 0.161593
0.285679 0.0447242 0.212879
0.402762 0.0481117 0.260182
0.512871 0.0536202 0.304738
0.593011 0.0631876 0.345922
0.61886 0.0722972 0.368215
0.0235447 0.0994736 0.168368
0.0717632 0.123537 0.217212
0.168292 0.134234 0.253635
0.302266 0.134859 0.279896
0.448264 0.133959 0.304234
0.583749 0.137697 0.33228
0.697551 0.149142 0.36495
0.771832 0.168444 0.401343
0.785687 0.182788 0.423423
0 0.244175 0.304692
0.0563516 0.264256 0.333928
0.202029 0.267384 0.345937
0.382467 0.262303 0.348333
0.554009 0.261189 0.354314
0.690013 0.270481 0.369574
0.791882 0.290227 0.394797
0.851881 0.319203 0.427588
0.856687 0.334554 0.445609
0 0.419699 0.379339
0.0198672 0.434958 0.391745
0.208011 0.43125 0.386145
0.415991 0.423239 0.376852
0.595163 0.423453 0.376974
0.729351 0.437781 0.39237
0.831403 0.465309 0.42121
0.909285 0.508293 0.465415
0.92575 0.527825 0.485939
0 0.596094 0.430915
0.0369421 0.603418 0.435981
0.248035 0.598337 0.429908
0.468345 0.59707 0.427573
0.659678 0.611536 0.441703
0.809018 0.641382 0.472007
0.924788 0.67985 0.511238
0.999619 0.723201 0.555428
1 0.743557 0.576364
0 0.769284 0.515648
0.135927 0.78648 0.531044
0.361135 0.795438 0.53843
0.588556 0.803723 0.545083
0.776837 0.817807 0.558282
0.91342 0.836591 0.577111
1 0.858717 0.59942
1 0.881483 0.622538
1 0.892897 0.634165
0.0670176 0.970687 0.64358
0.260502 0.981033 0.651926
0.474495 0.979049 0.648127
0.681926 0.970916 0.636194
0.848798 0.96527 0.629541
0.966339 0.966308 0.630304
1 0.969726 0.633722
1 0.975174 0.639384
1 0.9776 0.641688
0.122896 1 0.704128
0.318532 1 0.707942
0.51899 1 0.690623
0.708843 1 0.661936
0.858717 1 0.639078
0.959274 1 0.623407
1 1 0.61384
1 1 0.609751
1 1 0.608972
0.125505 1 0.708263
0.320806 1 0.709834
0.520409 1 0.691966
0.705989 1 0.659113
0.846006 1 0.62649
0.941283 1 0.605432
1 1 0.593622
1 1 0.588495
1 1 0.587823
0.00627146 0.00755322 0.0513161
0.0309758 0.0184634 0.0852216
0.0944381 0.0347906 0.150713
0.192264 0.043122 0.217578
0.309621 0.045304 0.280034
0.428565 0.0471504 0.339147
0.538872 0.0516213 0.396262
0.615473 0.0610208 0.447089
0.64004 0.0701457 0.4748
0.0230564 0.108461 0.227665
0.0739757 0.130312 0.288228
0.17496 0.138216 0.335653
0.314717 0.136828 0.373983
0.464103 0.134295 0.409491
0.600519 0.137362 0.448646
0.711986 0.148867 0.490242
0.782223 0.168582 0.533318
0.794644 0.182773 0.557366
0 0.25182 0.404578
0.0535286 0.270008 0.444587
0.204562 0.271168 0.465782
0.388983 0.26453 0.475883
0.561593 0.262898 0.487999
0.696925 0.272145 0.508293
0.797147 0.292607 0.537026
0.854948 0.321599 0.570779
0.859312 0.336858 0.588678
0 0.425696 0.510262
0.0180819 0.438895 0.527489
0.209659 0.434546 0.526146
0.419394 0.426108 0.51931
0.598718 0.426642 0.520836
0.733883 0.442283 0.537575
0.83743 0.47126 0.567773
0.917601 0.516045 0.613687
0.93521 0.535683 0.634348
0 0.599664 0.574258
0.0403143 0.606821 0.580056
0.252888 0.603403 0.575631
0.475532 0.604517 0.575586
0.668147 0.620462 0.591104
0.816999 0.649638 0.620569
0.933486 0.688365 0.659968
0.999329 0.729564 0.701854
1 0.749355 0.722148
0 0.776638 0.663523
0.144228 0.795087 0.680064
0.369619 0.804715 0.688045
0.595514 0.811688 0.69337
0.781003 0.823056 0.703563
0.913695 0.841123 0.727855
0.991333 0.860899 0.773617
1 0.881346 0.762203
1 0.891997 0.772992
0.075288 0.977295 0.790845
0.264988 0.981445 0.797421
0.476127 0.984421 0.79118
0.681483 0.971954 0.777096
0.846906 0.964385 0.768688
0.925643 0.968002 0.831083
1 0.965393 0.769314
1 0.96875 0.77261
1 0.970245 0.774227
0.12845 1 0.848066
0.318441 1 0.848859
0.514199 1 0.827222
0.703258 1 0.797711
0.851148 1 0.772457
0.951644 1 0.75584
0.999924 1 0.745785
1 1 0.740887
1 1 0.740047
0.130632 1 0.851362
0.32018 1 0.850309
0.515221 1 0.828122
0.696681 1 0.791348
0.835599 1 0.757061
0.931029 1 0.73521
0.996902 1 0.722789
1 1 0.717449
1 1 0.71635
0.00825513 0.0105135 0.0667277
0.0398871 0.0254063 0.11899
0.109407 0.04065 0.196139
0.212589 0.04654 0.271809
0.333898 0.0464485 0.342596
0.453666 0.0471046 0.409903
0.563882 0.0512856 0.47631
0.635279 0.0605478 0.532937
0.659297 0.0699321 0.565484
0.0222324 0.117449 0.284413
0.0767529 0.137484 0.354238
0.183139 0.143114 0.409918
0.328801 0.139803 0.456504
0.481727 0.135973 0.499702
0.617655 0.138979 0.545464
0.727016 0.150927 0.593362
0.791226 0.171054 0.639323
0.80264 0.185214 0.664805
0 0.260304 0.490623
0.052842 0.276951 0.538491
0.209201 0.276051 0.564645
0.397757 0.268605 0.57937
0.57116 0.266423 0.594705
0.705898 0.27631 0.618036
0.803357 0.29752 0.648508
0.857984 0.326726 0.682277
0.862226 0.342077 0.699779
0 0.4336 0.616617
0.0198062 0.445075 0.636011
0.214786 0.439811 0.636225
0.425483 0.430823 0.629847
0.605386 0.432166 0.632273
0.74139 0.449561 0.650629
0.846876 0.481041 0.683253
0.927779 0.526925 0.730159
0.944442 0.545388 0.749432
0 0.605692 0.686076
0.047303 0.612955 0.692088
0.261616 0.611078 0.689082
0.485893 0.61416 0.690944
0.679622 0.631586 0.70782
0.828611 0.661189 0.737636
0.943877 0.698726 0.775677
1 0.737713 0.815244
1 0.75642 0.834379
0 0.786938 0.779477
0.155261 0.805982 0.796506
0.380667 0.815579 0.804364
0.605264 0.821408 0.808316
0.78854 0.830762 0.816495
0.922499 0.846128 0.831601
0.992554 0.86508 0.901396
1 0.882612 0.868467
1 0.893004 0.878981
0.0841535 0.984924 0.904845
0.271412 0.984787 0.909148
0.480568 0.989151 0.901076
0.684031 0.974792 0.885145
0.847883 0.965896 0.87512
0.962493 0.962875 0.871717
0.992706 0.966018 0.959777
1 0.964111 0.957916
1 0.965469 0.874266
0.133608 1 0.957763
0.320165 1 0.95584
0.512566 1 0.931167
0.700038 1 0.900114
0.846433 1 0.873228
0.946395 1 0.855665
0.969696 1 0.933928
1 0.999237 0.925093
1 0.999481 0.838849
0.135363 1 0.960525
0.321263 1 0.956878
0.512749 1 0.931289
0.691005 1 0.891173
0.828824 1 0.855772
0.924315 1 0.83357
0.99025 1 0.820829
1 1 0.815488
1 1 0.814343
0.010956 0.0144808 0.0855116
0.0498207 0.0330663 0.158541
0.124468 0.0464179 0.244266
0.23241 0.0496681 0.326238
0.357275 0.0479286 0.403906
0.477897 0.0475471 0.477882
0.588403 0.0517128 0.553094
0.653727 0.0611276 0.612848
0.67689 0.070634 0.648753
0.0210574 0.126665 0.342733
0.0798047 0.144656 0.419593
0.192111 0.148135 0.481666
0.342916 0.142962 0.533822
0.499763 0.138338 0.58349
0.634409 0.141436 0.633265
0.741939 0.154253 0.686305
0.799237 0.174731 0.732601
0.809369 0.189166 0.758633
0 0.269612 0.572305
0.0534981 0.284337 0.624521
0.21561 0.281926 0.653986
0.407858 0.273625 0.671458
0.582071 0.271305 0.688685
0.715251 0.281712 0.713741
0.809873 0.303731 0.744366
0.861006 0.333196 0.777676
0.865492 0.348608 0.795026
0 0.442084 0.710933
0.0233921 0.452201 0.731075
0.221973 0.446082 0.731548
0.433829 0.437171 0.725216
0.613886 0.439323 0.727947
0.750164 0.45803 0.747646
0.857832 0.49247 0.783185
0.939345 0.539773 0.831449
0.954269 0.556893 0.849302
0 0.613169 0.782391
0.0563211 0.620737 0.788495
0.272892 0.620966 0.787488
0.49807 0.625162 0.79028
0.692027 0.64332 0.807858
0.841138 0.673701 0.838239
0.954665 0.709728 0.87483
1 0.746349 0.911925
1 0.763958 0.929931
0 0.799039 0.88011
0.168383 0.818265 0.8972
0.393072 0.827405 0.904341
0.615656 0.831342 0.906355
0.79707 0.839017 0.912764
0.928359 0.851957 0.925353
0.999634 0.868376 0.941741
1 0.883848 0.998917
1 0.894423 0.96817
0.093019 0.99176 0.994003
0.278996 0.988891 0.993713
0.48632 0.99469 0.994522
0.687617 0.977615 0.976181
0.849912 0.96791 0.964965
0.962264 0.962661 0.959274
1 0.961135 0.957656
1 0.960311 1
1 0.960021 1
0.138308 1 1
0.32221 1 1
0.511864 1 1
0.69752 1 0.984756
0.842908 1 0.957443
0.942351 1 0.939376
0.999146 0.999908 0.928283
0.999878 0.997696 1
1 0.996628 1
0.139742 1 1
0.322972 1 1
0.511315 1 1
0.687022 1 0.975204
0.82414 1 0.938827
0.919402 1 0.916411
0.985382 1 0.903685
0.995529 1 0.993469
1 1 0.990021
0.0148318 0.0201419 0.111528
0.0599069 0.04065 0.203143
0.139132 0.0519722 0.296208
0.252033 0.0527962 0.384054
0.380179 0.0493629 0.467445
0.500618 0.0483558 0.540581
0.607889 0.0531777 0.607691
0.665125 0.0634928 0.650935
0.686076 0.0736095 0.671214
0.0194247 0.135592 0.404273
0.0825971 0.151232 0.486488
0.201389 0.153094 0.55555
0.357702 0.146288 0.612924
0.517479 0.141039 0.666621
0.651484 0.144579 0.719921
0.75462 0.158679 0.759075
0.805127 0.179217 0.786419
0.813672 0.194202 0.794705
0 0.279118 0.654902
0.0547189 0.291707 0.709651
0.222629 0.287984 0.741512
0.418021 0.27895 0.760281
0.59321 0.276783 0.778683
0.724895 0.288136 0.804334
0.816632 0.311009 0.826246
0.863783 0.339757 0.8439
0.868299 0.354665 0.848417
0 0.450843 0.801251
0.0281834 0.45951 0.821775
0.22977 0.45272 0.821561
0.443137 0.444297 0.815091
0.623438 0.447486 0.818586
0.76051 0.468009 0.839765
0.869734 0.504967 0.877394
0.95111 0.552895 0.926131
0.963928 0.568338 0.942138
0 0.621134 0.872511
0.0664225 0.629465 0.879438
0.285389 0.631861 0.88069
0.511986 0.637766 0.885222
0.705364 0.655848 0.902464
0.853574 0.685954 0.932464
0.964553 0.720119 0.967025
1 0.755337 0.997711
1 0.771282 1
0 0.811276 0.960998
0.18204 0.831113 0.985931
0.405859 0.8392 0.99057
0.625528 0.840528 0.990723
0.805112 0.846555 0.992966
0.934142 0.857649 0.997009
0.999878 0.872007 1
1 0.887312 1
1 0.895872 1
0.0997024 0.995529 1
0.28603 0.992233 1
0.491844 0.99939 1
0.691112 0.980056 1
0.851743 0.969635 1
0.962188 0.962448 1
1 0.958923 1
1 0.957702 1
1 0.95819 1
0.141344 1 1
0.323812 1 1
0.511055 1 1
0.695018 1 1
0.839506 1 1
0.938537 1 0.998474
0.998474 0.998154 0.995285
1 0.995605 0.99263
1 0.996094 1
0.142275 1 1
0.324254 1 1
0.509987 1 1
0.68368 1 1
0.820081 1 0.998657
0.915114 1 0.989807
0.981125 1 0.981018
1 1 0.975311
1 1 1
0.0179599 0.0258793 0.129915
0.0652171 0.0458076 0.223453
0.147295 0.0561074 0.316304
0.262943 0.055848 0.402777
0.391943 0.0518044 0.480735
0.513085 0.0511177 0.550973
0.619577 0.0564126 0.617548
0.67219 0.0668956 0.657786
0.692882 0.0768902 0.677821
0.0185702 0.142138 0.430777
0.085893 0.156649 0.516686
0.209277 0.157549 0.586618
0.369421 0.150042 0.643091
0.530251 0.144869 0.689052
0.662547 0.148928 0.728267
0.762585 0.164141 0.764416
0.808438 0.184237 0.789624
0.816297 0.199176 0.797253
0 0.28687 0.683833
0.0581369 0.298146 0.739956
0.230045 0.29369 0.770459
0.427024 0.284062 0.78764
0.602472 0.281987 0.79968
0.731991 0.294026 0.812573
0.821591 0.317174 0.828504
0.8654 0.345144 0.845518
0.869642 0.359045 0.84976
0 0.458671 0.824399
0.0340124 0.465827 0.848692
0.237003 0.458305 0.851102
0.450813 0.450004 0.848325
0.631418 0.454032 0.852094
0.768414 0.475578 0.868421
0.876341 0.51194 0.89778
0.95555 0.558465 0.937789
0.965972 0.572015 0.946105
0 0.627573 0.880842
0.0737774 0.635538 0.899001
0.294087 0.638972 0.910613
0.521584 0.646174 0.926802
0.714992 0.664668 0.950134
0.86157 0.693675 0.978546
0.969909 0.725902 1
1 0.759548 1
1 0.774594 1
0.00155642 0.816358 0.964111
0.187381 0.835782 0.991058
0.411688 0.844297 1
0.63151 0.846067 1
0.809995 0.85124 1
0.937667 0.861097 1
0.999954 0.873945 1
1 0.888426 1
1 0.896101 1
0.101274 0.995895 1
0.287739 0.992782 1
0.493141 0.999817 1
0.692607 0.981109 1
0.852216 0.969909 1
0.962097 0.962341 1
1 0.957443 1
1 0.955962 1
1 0.956207 1
0.141634 1 1
0.324102 1 1
0.510933 1 1
0.694011 1 1
0.837873 1 1
0.936324 1 1
0.997299 0.997055 1
1 0.99443 1
1 0.993896 1
0.142275 1 1
0.324102 1 1
0.509514 1 1
0.68246 1 1
0.818067 1 1
0.912734 1 1
0.978653 1 1
1 1 1
1 1 1
