site/assets/luts/freshluts--0000207-filmic.cube
# LUTr-Schema-Version: 2
# LUTr-ID: freshluts--0000207-filmic
# LUTr-Title: FILMIC
# LUTr-Collection: Fresh LUTs
# LUTr-Collection-ID: freshluts-community
# LUTr-Source: https://freshluts.com
# LUTr-Retrieved: 2026-07-27
# LUTr-Source-File: submissions-raw/freshluts/cubes/207__FILMIC.cube
# LUTr-Source-Format: CUBE
# LUTr-Source-SHA256: 0638aab77e86c2baede0248686beba9c85b44aa5a17f5bcff588c95406809dbe
# LUTr-License: CC0-1.0
# LUTr-License-URL: https://freshluts.com/termsandconditions
# LUTr-License-Basis: site-terms
# LUTr-Transform-Class: creative-look
# LUTr-Tags: creative, freshluts, community, cube, film-emulation, purple
# LUTr-Input-Color-Space:
# LUTr-Input-Gamut: unspecified
# LUTr-Input-Transfer: unspecified
# LUTr-Output-Color-Space: srgb
# LUTr-Output-Gamut: rec709
# LUTr-Output-Transfer: srgb
# LUTr-Color-Space-Confidence: camera-profile-input-required
# LUTr-Domain-Normalized: true
# LUTr-Shaper: none
# LUTr-Original-Grid: 16x16x16
# LUTr-Conversion-Grid: 16x16x16
# LUTr-Conversion-Interpolation: none
# LUTr-Conversion-Method: Metadata normalization; numeric LUT samples preserved
# LUTr-Conversion-Tool: LUTr scripts/convert-all-to-cube.mjs 2.0.0
# LUTr-Conversion-Date: 2026-07-28
# LUTr-Asset-URL: https://freshluts.com/luts/207
# LUTr-Author: Andy
# LUTr-Author-URL: https://freshluts.com/users/1003
# LUTr-Attribution: Andy via Fresh LUTs
# LUTr-Source-Labels: gamma=Other; color=Purple; key=Neutral; style=Film emulation
# LUTr-Note: Preserve this metadata and the upstream license notices when redistributing.
TITLE "FILMIC"
LUT_3D_SIZE 16
DOMAIN_MIN 0 0 0
DOMAIN_MAX 1 1 1
0.028638 0.042656 0.0557
0.043489 0.044335 0.055559
0.078773 0.048895 0.054226
0.140696 0.053924 0.049472
0.230093 0.052429 0.032609
0.348468 0.035905 0.019893
0.461606 0.020798 0.017348
0.555531 0.018799 0.018314
0.624258 0.017513 0.019393
0.671935 0.017308 0.020695
0.701576 0.017647 0.021826
0.7111 0.018365 0.022675
0.715806 0.019263 0.023215
0.720024 0.020267 0.023298
0.724014 0.021158 0.023298
0.728244 0.021163 0.023246
0.024154 0.051193 0.055542
0.038035 0.052302 0.055427
0.07284 0.056437 0.054435
0.13102 0.062441 0.050262
0.220094 0.064789 0.033949
0.341806 0.057052 0.019748
0.458284 0.033599 0.017217
0.556455 0.022051 0.017975
0.628343 0.020335 0.019197
0.677879 0.020103 0.020435
0.707985 0.020355 0.021715
0.718388 0.021062 0.022499
0.723238 0.022009 0.023069
0.727159 0.023021 0.023271
0.730902 0.023927 0.023233
0.734794 0.023925 0.023122
0.011189 0.071327 0.057565
0.022495 0.071958 0.057016
0.059938 0.07508 0.055502
0.116828 0.080707 0.051849
0.205896 0.085661 0.036167
0.327944 0.086077 0.019249
0.455193 0.075179 0.016342
0.558735 0.046461 0.017345
0.636137 0.030324 0.018766
0.689316 0.025137 0.020152
0.721102 0.025311 0.021418
0.734195 0.026085 0.022223
0.739587 0.026261 0.022819
0.74343 0.026861 0.023141
0.747126 0.027701 0.02329
0.750895 0.027684 0.023263
0.007447 0.099796 0.060493
0.011425 0.099246 0.059863
0.035698 0.101847 0.058058
0.100166 0.1088 0.054599
0.19195 0.115822 0.0389
0.315002 0.123837 0.017374
0.456256 0.125589 0.013333
0.569981 0.113792 0.014416
0.649879 0.093463 0.016172
0.703557 0.075138 0.018055
0.739832 0.070264 0.01961
0.760053 0.069929 0.021005
0.764512 0.062838 0.021856
0.765685 0.054815 0.022304
0.767629 0.048908 0.022635
0.770216 0.044917 0.022796
0.006044 0.14331 0.060923
0.009021 0.142453 0.060561
0.016289 0.143468 0.058803
0.063547 0.151673 0.054433
0.168432 0.162412 0.037808
0.302633 0.17403 0.014592
0.456499 0.184293 0.010348
0.586842 0.182664 0.011077
0.678923 0.170733 0.012174
0.732222 0.158199 0.0132
0.759356 0.151652 0.013544
0.772368 0.15165 0.013896
0.779434 0.148371 0.014851
0.780594 0.139491 0.01573
0.781784 0.13091 0.016317
0.783739 0.124958 0.01672
0.004189 0.197482 0.059187
0.007155 0.196693 0.059364
0.011188 0.19785 0.057886
0.023548 0.205088 0.05058
0.119908 0.22508 0.02892
0.282849 0.244759 0.015103
0.451729 0.262688 0.009225
0.603638 0.271172 0.009303
0.711088 0.266984 0.009062
0.774639 0.258799 0.009408
0.808261 0.253534 0.009544
0.823795 0.252836 0.009673
0.832487 0.251239 0.009955
0.833327 0.242256 0.01036
0.8333 0.232214 0.010751
0.83427 0.225547 0.011064
0.001575 0.264198 0.050756
0.004461 0.262746 0.051104
0.008431 0.263999 0.049748
0.014222 0.272715 0.038168
0.049244 0.294956 0.017246
0.235274 0.330738 0.01547
0.432225 0.358404 0.009465
0.610145 0.376239 0.008385
0.735957 0.378408 0.007821
0.814127 0.372271 0.007989
0.855843 0.365404 0.007805
0.874857 0.362933 0.007949
0.885531 0.363528 0.008279
0.888126 0.35669 0.009227
0.887943 0.346254 0.010438
0.888211 0.339355 0.011053
0.000831 0.329629 0.029454
0.00312 0.3283 0.03072
0.006881 0.330959 0.029588
0.012732 0.342523 0.018022
0.021779 0.367127 0.013486
0.145379 0.411168 0.011258
0.38843 0.462035 0.010403
0.595319 0.492363 0.00873
0.746903 0.505204 0.008353
0.844372 0.50277 0.008667
0.895916 0.494391 0.009356
0.920679 0.489565 0.010308
0.932607 0.488401 0.011289
0.937396 0.483136 0.012112
0.937346 0.470623 0.012847
0.938049 0.462248 0.013177
0.000775 0.390098 0.013091
0.00293 0.388657 0.013296
0.006565 0.391717 0.013267
0.012297 0.404494 0.012635
0.019801 0.430485 0.011638
0.058196 0.473334 0.010617
0.30841 0.539286 0.01164
0.553415 0.591495 0.00992
0.739477 0.617183 0.010923
0.860486 0.624824 0.011562
0.927735 0.620012 0.012165
0.960324 0.614863 0.01299
0.973359 0.612099 0.013847
0.979568 0.609057 0.014627
0.982196 0.599267 0.015174
0.984332 0.592064 0.015333
0.000772 0.433827 0.012416
0.002945 0.433368 0.012605
0.00726 0.436304 0.01297
0.013628 0.450266 0.01278
0.021121 0.476561 0.012243
0.034974 0.519671 0.011996
0.202932 0.586689 0.012806
0.485343 0.660923 0.012588
0.709878 0.704451 0.012947
0.857907 0.723307 0.013969
0.94499 0.726213 0.014656
0.977476 0.718764 0.01514
0.98445 0.711904 0.015737
0.989437 0.707446 0.01637
0.994528 0.700377 0.01685
0.998571 0.694503 0.016944
0.00094 0.462465 0.013865
0.004109 0.462647 0.014639
0.010012 0.464502 0.015246
0.015946 0.477812 0.014703
0.023082 0.502299 0.014117
0.033371 0.542557 0.013656
0.108202 0.603312 0.013509
0.398777 0.687207 0.014781
0.658131 0.752088 0.015117
0.836614 0.785423 0.015316
0.945154 0.798313 0.01623
0.979585 0.794492 0.016899
0.98578 0.788411 0.017386
0.990979 0.784771 0.017892
0.996101 0.780597 0.018357
0.999887 0.776221 0.018467
0.003006 0.477592 0.016738
0.006936 0.477944 0.017182
0.012256 0.47871 0.017255
0.01804 0.489825 0.016651
0.025087 0.513093 0.016058
0.034872 0.548591 0.015601
0.066558 0.602886 0.01499
0.305475 0.685748 0.017182
0.595048 0.766995 0.016394
0.801463 0.815933 0.017385
0.930739 0.839 0.017313
0.979285 0.842004 0.018109
0.987092 0.83726 0.018742
0.992463 0.833743 0.019225
0.997116 0.831299 0.019682
1.000007 0.828677 0.019797
0.005572 0.496062 0.018515
0.009422 0.496002 0.018847
0.01466 0.495575 0.018894
0.020386 0.502709 0.018412
0.027435 0.52573 0.017844
0.037118 0.557087 0.017572
0.053152 0.60415 0.016943
0.224377 0.67635 0.018447
0.527836 0.767404 0.017888
0.757018 0.826696 0.018976
0.906403 0.859696 0.020167
0.976429 0.870094 0.019654
0.988155 0.867166 0.020033
0.993764 0.864243 0.020537
0.997169 0.862241 0.020968
1.000007 0.860688 0.02111
0.00813 0.51684 0.020094
0.011871 0.516861 0.020425
0.017014 0.51624 0.020315
0.022677 0.519402 0.019963
0.029791 0.541627 0.019464
0.039349 0.571356 0.019124
0.052142 0.610724 0.018805
0.164701 0.672564 0.019488
0.470045 0.76322 0.019655
0.709222 0.827893 0.020361
0.875187 0.868169 0.021732
0.968548 0.88692 0.023025
0.989031 0.887053 0.022075
0.994244 0.883927 0.021813
0.997169 0.88232 0.02221
1.000007 0.881465 0.022337
0.010404 0.528973 0.021698
0.014134 0.529328 0.021941
0.019243 0.529881 0.021798
0.024909 0.531717 0.021475
0.032096 0.550987 0.021119
0.042053 0.583657 0.020829
0.053769 0.61914 0.020467
0.121888 0.672443 0.020572
0.424948 0.759058 0.021419
0.664018 0.824928 0.021222
0.840542 0.869453 0.022446
0.953269 0.894535 0.024002
0.989638 0.900565 0.024973
0.994314 0.898422 0.025307
0.997169 0.896371 0.023903
1.000007 0.895554 0.023705
0.012038 0.535313 0.022904
0.015592 0.535388 0.023089
0.020516 0.535701 0.022726
0.026075 0.53662 0.022384
0.033274 0.550767 0.022178
0.043017 0.583044 0.021866
0.05408 0.617254 0.021125
0.097081 0.667332 0.020384
0.384849 0.75291 0.021768
0.633194 0.8219 0.021179
0.817357 0.869683 0.02228
0.938706 0.897825 0.023816
0.98807 0.907315 0.024861
0.994289 0.905643 0.025594
0.99714 0.904239 0.026178
1.000007 0.903473 0.026369
0.026551 0.04347 0.069792
0.041477 0.044772 0.068877
0.07801 0.04901 0.066985
0.140278 0.053198 0.062746
0.229303 0.050799 0.049586
0.346078 0.02782 0.028318
0.462297 0.019894 0.022708
0.557681 0.018644 0.022649
0.626778 0.017596 0.023604
0.6748 0.017388 0.024775
0.704475 0.01761 0.025723
0.714149 0.018275 0.026426
0.718864 0.019182 0.026876
0.723009 0.020188 0.026922
0.726933 0.021071 0.026944
0.731086 0.021075 0.026863
0.020849 0.051736 0.067291
0.035682 0.05287 0.066939
0.072091 0.056688 0.065543
0.13082 0.062588 0.062323
0.220074 0.064479 0.050232
0.339552 0.049864 0.027486
0.458276 0.028382 0.021649
0.558786 0.021945 0.021988
0.631379 0.020361 0.023175
0.68124 0.019872 0.024456
0.711397 0.020179 0.025527
0.721871 0.020937 0.026224
0.726718 0.021893 0.026779
0.730628 0.02293 0.026897
0.734224 0.023826 0.026844
0.737875 0.023846 0.026739
0.009893 0.072306 0.068206
0.019877 0.072641 0.067333
0.057487 0.075593 0.065947
0.116287 0.081103 0.062709
0.206185 0.085659 0.051468
0.326741 0.082752 0.027434
0.454536 0.067976 0.020853
0.559759 0.040778 0.02133
0.638823 0.028002 0.022641
0.692821 0.024793 0.024049
0.724402 0.02463 0.025242
0.737248 0.025556 0.02605
0.74234 0.025926 0.026551
0.74581 0.026708 0.026838
0.749098 0.027602 0.026903
0.752479 0.027596 0.026881
0.007202 0.101116 0.071229
0.0111 0.10063 0.070355
0.033515 0.102896 0.068185
0.099304 0.109776 0.064624
0.192321 0.117077 0.052332
0.315389 0.12294 0.025651
0.456748 0.123346 0.018001
0.570565 0.110101 0.018492
0.650521 0.087351 0.01995
0.705142 0.071152 0.022034
0.741039 0.065178 0.023835
0.760524 0.065232 0.024927
0.765043 0.059387 0.02572
0.766319 0.052563 0.02614
0.76812 0.04695 0.026489
0.770579 0.043293 0.02656
0.005796 0.145699 0.070573
0.008813 0.144747 0.069987
0.015571 0.145307 0.067784
0.061332 0.152671 0.062946
0.167916 0.16378 0.049505
0.302885 0.173892 0.020572
0.456518 0.183573 0.013974
0.587094 0.181323 0.014616
0.679108 0.169026 0.01563
0.732254 0.156 0.016517
0.758623 0.149368 0.016772
0.771162 0.149029 0.017649
0.77842 0.145691 0.018877
0.779854 0.136808 0.019827
0.781077 0.128233 0.020456
0.783053 0.122871 0.020696
0.003942 0.20007 0.06718
0.006969 0.199029 0.066987
0.011019 0.199537 0.06499
0.022686 0.205891 0.057645
0.11688 0.225329 0.037688
0.281036 0.244412 0.018458
0.449779 0.261809 0.012134
0.602151 0.269888 0.012345
0.710189 0.265611 0.012327
0.773844 0.256947 0.012891
0.806892 0.25154 0.012921
0.822407 0.250788 0.012846
0.831412 0.249309 0.013085
0.832164 0.240234 0.013493
0.832097 0.230241 0.013933
0.833198 0.224025 0.014275
0.001426 0.265964 0.057705
0.004285 0.264125 0.057753
0.008271 0.264828 0.056199
0.013877 0.272649 0.045644
0.046349 0.293312 0.022489
0.231004 0.328455 0.018734
0.428723 0.355939 0.012935
0.606971 0.37331 0.011777
0.73365 0.375639 0.011032
0.812424 0.369615 0.011475
0.854311 0.362707 0.01163
0.873449 0.360132 0.011767
0.88422 0.361043 0.012134
0.886973 0.354604 0.013097
0.886682 0.34431 0.014385
0.88702 0.337491 0.014976
0.000811 0.330345 0.036943
0.003095 0.328718 0.037755
0.006769 0.33078 0.035771
0.012553 0.341311 0.022504
0.02124 0.364894 0.01633
0.140827 0.408216 0.014333
0.384243 0.458957 0.013977
0.591443 0.489239 0.012111
0.744071 0.50214 0.011526
0.842363 0.499813 0.011972
0.894375 0.491475 0.01291
0.919504 0.486804 0.014013
0.931421 0.485487 0.015024
0.936357 0.480298 0.015923
0.936222 0.467716 0.016622
0.936898 0.459678 0.016976
0.000775 0.389761 0.016348
0.002928 0.388251 0.016618
0.006378 0.391016 0.016208
0.012066 0.40319 0.015331
0.019491 0.428442 0.014334
0.054617 0.4702 0.013527
0.304061 0.536012 0.015063
0.548975 0.588742 0.013445
0.736493 0.614559 0.014335
0.858474 0.62231 0.014864
0.926435 0.617474 0.015395
0.95941 0.612125 0.016093
0.972808 0.609351 0.016927
0.979424 0.606925 0.01781
0.981853 0.596991 0.018492
0.983942 0.58979 0.018649
0.000772 0.43382 0.015286
0.002958 0.433346 0.015775
0.007466 0.435962 0.016445
0.013514 0.449437 0.015879
0.020927 0.475014 0.015334
0.033902 0.517513 0.014995
0.195442 0.584003 0.015895
0.48064 0.658299 0.015999
0.706163 0.702227 0.01634
0.855454 0.721356 0.01734
0.94373 0.724425 0.017924
0.977303 0.716779 0.018356
0.984669 0.709986 0.018869
0.989738 0.70543 0.019454
0.994824 0.698549 0.019896
0.998832 0.692663 0.019961
0.001007 0.462589 0.017325
0.004395 0.462766 0.018139
0.009984 0.464461 0.018393
0.015867 0.47722 0.017821
0.02291 0.501138 0.017204
0.032831 0.540819 0.016637
0.103191 0.600986 0.016668
0.393975 0.685041 0.018149
0.653897 0.750417 0.01847
0.8339 0.784194 0.018651
0.943757 0.797113 0.019516
0.979603 0.793353 0.020145
0.985967 0.787292 0.020592
0.991194 0.783692 0.021073
0.996368 0.779304 0.021484
1.000005 0.77498 0.021571
0.003243 0.477783 0.020049
0.007083 0.478061 0.020449
0.012186 0.478691 0.020282
0.017984 0.489355 0.019704
0.024902 0.512135 0.019118
0.034427 0.547093 0.018624
0.063659 0.600785 0.018274
0.299945 0.683594 0.020406
0.590319 0.765287 0.019671
0.798292 0.814755 0.02067
0.92907 0.838105 0.02062
0.979177 0.841452 0.02137
0.987268 0.836534 0.021968
0.992696 0.833087 0.022396
0.997133 0.830512 0.022841
1.000007 0.827982 0.02295
0.005795 0.496031 0.021696
0.009602 0.495877 0.022062
0.014617 0.495495 0.02189
0.020321 0.502181 0.021439
0.027197 0.524766 0.020847
0.036609 0.555761 0.020601
0.051907 0.602465 0.020231
0.216446 0.674178 0.021526
0.522893 0.765788 0.021107
0.753398 0.82554 0.022196
0.904131 0.858936 0.023448
0.975996 0.869862 0.022952
0.988253 0.866954 0.023265
0.993878 0.86394 0.023762
0.997169 0.861851 0.024133
1.000007 0.860355 0.024245
0.00832 0.516815 0.023306
0.011979 0.516756 0.023555
0.016931 0.516089 0.023381
0.022568 0.518997 0.02299
0.029515 0.540591 0.022463
0.038893 0.570096 0.022329
0.051554 0.609077 0.022073
0.157956 0.67049 0.022607
0.464919 0.761478 0.022953
0.705034 0.826695 0.023563
0.872487 0.867533 0.024952
0.967481 0.886698 0.026258
0.989083 0.887011 0.025308
0.994263 0.883807 0.025054
0.997169 0.882227 0.025459
1.000007 0.881376 0.025581
0.010568 0.529172 0.025076
0.014153 0.529449 0.025249
0.0191 0.530025 0.025061
0.024755 0.531723 0.024733
0.031787 0.550445 0.024328
0.041571 0.582761 0.024123
0.05332 0.618139 0.023718
0.117841 0.671088 0.023795
0.419762 0.75748 0.024693
0.659661 0.823674 0.024448
0.837704 0.868799 0.025662
0.951722 0.89427 0.027207
0.989491 0.900601 0.028226
0.994314 0.89849 0.02849
0.997169 0.896401 0.027068
1.000007 0.895574 0.026883
0.012106 0.535347 0.026272
0.015495 0.535535 0.026301
0.020385 0.535824 0.026008
0.025943 0.53673 0.025671
0.032964 0.550415 0.025457
0.04256 0.58248 0.025113
0.053522 0.616607 0.024388
0.094452 0.66636 0.023585
0.380483 0.751716 0.025037
0.630122 0.821131 0.024396
0.814744 0.869078 0.025476
0.937187 0.897537 0.02695
0.987801 0.907231 0.02809
0.994289 0.905643 0.028754
0.99714 0.904205 0.029417
1.000007 0.903434 0.029602
0.017781 0.044081 0.105106
0.035115 0.045657 0.104331
0.074481 0.049165 0.1029
0.13918 0.052777 0.100389
0.229258 0.048039 0.092765
0.346089 0.022098 0.078083
0.463532 0.017811 0.06631
0.560514 0.017356 0.059468
0.630255 0.016788 0.053526
0.678932 0.016772 0.048321
0.708854 0.017104 0.044088
0.718771 0.017859 0.041131
0.72357 0.018874 0.038845
0.727863 0.019943 0.036913
0.73191 0.02085 0.035169
0.736068 0.020887 0.034027
0.013119 0.052956 0.100819
0.027807 0.054382 0.100071
0.06843 0.057709 0.098777
0.129644 0.062566 0.096335
0.219826 0.063112 0.088181
0.337672 0.040825 0.069842
0.457876 0.022544 0.054676
0.560879 0.02069 0.048474
0.634785 0.019953 0.044004
0.685289 0.01977 0.041481
0.715785 0.019962 0.039943
0.726717 0.02064 0.038425
0.731689 0.021658 0.036542
0.73566 0.022732 0.034806
0.739319 0.023641 0.033712
0.743057 0.023666 0.033284
0.008298 0.073868 0.098128
0.015486 0.074095 0.096599
0.050911 0.076777 0.0944
0.113782 0.081988 0.091029
0.205064 0.086333 0.08293
0.324483 0.079108 0.062376
0.450805 0.052875 0.041202
0.560045 0.032615 0.036138
0.641736 0.025716 0.034095
0.696896 0.024048 0.033071
0.728668 0.023864 0.032946
0.741548 0.024547 0.033131
0.747124 0.025439 0.033229
0.750927 0.026451 0.03311
0.754338 0.027381 0.033018
0.75786 0.027416 0.032918
0.006621 0.103294 0.096612
0.01021 0.102936 0.095032
0.028627 0.104658 0.092057
0.094396 0.111305 0.088151
0.189862 0.118967 0.079704
0.313159 0.121558 0.056104
0.452875 0.115712 0.031497
0.567081 0.096632 0.028142
0.649927 0.073205 0.027933
0.706675 0.059972 0.029009
0.744304 0.054672 0.030294
0.761217 0.051258 0.03109
0.766692 0.047193 0.031767
0.769307 0.043684 0.032135
0.771762 0.040606 0.032387
0.774517 0.038255 0.032487
0.005194 0.149615 0.094637
0.008209 0.148417 0.093005
0.014357 0.148493 0.089867
0.054219 0.154554 0.084026
0.164565 0.166054 0.075781
0.301706 0.174023 0.046609
0.454719 0.180314 0.023596
0.586729 0.176695 0.021386
0.679826 0.163567 0.021824
0.73317 0.148914 0.022517
0.75919 0.142312 0.024345
0.771551 0.142324 0.026291
0.779799 0.13907 0.027733
0.78197 0.129571 0.028813
0.783955 0.120822 0.029507
0.786447 0.115022 0.029783
0.003369 0.205432 0.087863
0.006361 0.204163 0.086747
0.010606 0.20414 0.083982
0.019819 0.209464 0.077508
0.108208 0.227961 0.062595
0.278866 0.245757 0.032145
0.449117 0.261912 0.017734
0.604 0.269574 0.017704
0.712834 0.264807 0.017568
0.776893 0.255585 0.017829
0.809135 0.250166 0.018324
0.82437 0.248696 0.018538
0.833501 0.247134 0.019203
0.833921 0.237739 0.019972
0.833422 0.227649 0.020718
0.834158 0.221151 0.021193
0.001116 0.272405 0.07694
0.003683 0.270373 0.076199
0.007766 0.270542 0.073918
0.0131 0.277074 0.065821
0.040337 0.2949 0.040636
0.22404 0.329656 0.024462
0.426938 0.357485 0.017692
0.606822 0.374247 0.016517
0.734994 0.37629 0.015629
0.814497 0.369382 0.015935
0.855895 0.362083 0.016915
0.874903 0.359444 0.01721
0.885521 0.360437 0.01765
0.88833 0.35384 0.018677
0.887457 0.343305 0.01999
0.887418 0.336168 0.020569
0.000783 0.337389 0.061313
0.00303 0.335393 0.060612
0.006496 0.336792 0.057601
0.012136 0.345792 0.043932
0.020175 0.366774 0.023769
0.130743 0.408925 0.018522
0.379154 0.46022 0.018903
0.588512 0.489625 0.016838
0.742644 0.501349 0.01606
0.841935 0.498419 0.01636
0.894438 0.489384 0.017277
0.919382 0.4836 0.018442
0.931022 0.481873 0.01943
0.935863 0.476448 0.020477
0.935251 0.463738 0.021411
0.935771 0.455714 0.021806
0.000774 0.394564 0.034237
0.00292 0.392825 0.034284
0.006192 0.394642 0.030615
0.011722 0.405382 0.022945
0.018889 0.428606 0.01877
0.049212 0.469045 0.017761
0.295695 0.533998 0.019958
0.542884 0.587384 0.018378
0.733086 0.613028 0.019187
0.85638 0.620115 0.019597
0.925103 0.614792 0.019999
0.958287 0.608158 0.020591
0.972042 0.605284 0.021246
0.978902 0.602996 0.021975
0.981484 0.593093 0.022651
0.982923 0.585214 0.022812
0.000772 0.436621 0.022952
0.002962 0.435894 0.023061
0.007271 0.437585 0.022151
0.013281 0.449987 0.020565
0.020539 0.47424 0.01988
0.032119 0.515502 0.019271
0.182925 0.580425 0.020267
0.472896 0.654819 0.020625
0.700144 0.699272 0.021068
0.85185 0.718593 0.021952
0.941481 0.721425 0.02253
0.976898 0.713382 0.022877
0.984946 0.706507 0.023273
0.990112 0.70232 0.023755
0.995268 0.695308 0.024137
0.9992 0.68937 0.024158
0.001125 0.463819 0.02297
0.004615 0.463961 0.023408
0.009808 0.465143 0.023051
0.015737 0.476928 0.022403
0.022542 0.499768 0.021729
0.03175 0.538164 0.02109
0.096058 0.597217 0.020974
0.385101 0.681219 0.022761
0.64686 0.747478 0.023
0.829284 0.782187 0.023286
0.941238 0.795077 0.024075
0.979544 0.79159 0.024666
0.986164 0.785379 0.025066
0.991439 0.781757 0.025481
0.996663 0.776954 0.025843
1.000007 0.772519 0.025889
0.00347 0.478324 0.025002
0.00706 0.478531 0.025082
0.012076 0.478775 0.024881
0.017922 0.488652 0.024324
0.024572 0.510597 0.023567
0.033487 0.54454 0.023152
0.05944 0.597215 0.02276
0.289781 0.6796 0.024788
0.582221 0.762356 0.024043
0.793102 0.812692 0.025172
0.925948 0.836673 0.025231
0.97893 0.840518 0.025888
0.987397 0.835389 0.026448
0.992852 0.831871 0.026855
0.997148 0.829146 0.027239
1.000007 0.82665 0.027334
0.006108 0.495896 0.026925
0.009628 0.495769 0.026967
0.014532 0.49535 0.02671
0.020235 0.501229 0.026227
0.026775 0.523017 0.025402
0.035596 0.553336 0.025155
0.049866 0.599391 0.024662
0.202885 0.670314 0.025694
0.514064 0.762801 0.025445
0.747224 0.823347 0.026533
0.900257 0.857632 0.0279
0.975192 0.869403 0.027544
0.988375 0.866453 0.027761
0.993959 0.863263 0.02822
0.997169 0.861181 0.028575
1.000007 0.85972 0.028687
0.00847 0.51663 0.028693
0.011881 0.516492 0.028643
0.016761 0.515681 0.02834
0.022372 0.518152 0.027856
0.028981 0.538722 0.027171
0.037798 0.567733 0.026855
0.050162 0.606124 0.026486
0.145167 0.666608 0.026886
0.455191 0.758243 0.027421
0.697822 0.824375 0.027827
0.867821 0.866309 0.029287
0.965657 0.886203 0.030668
0.989086 0.886863 0.029814
0.994275 0.883546 0.029502
0.997169 0.881927 0.029886
1.000007 0.881105 0.029991
0.010463 0.529449 0.030381
0.01387 0.5297 0.030272
0.018882 0.53021 0.029919
0.024496 0.531667 0.029578
0.031183 0.549294 0.029044
0.040469 0.581111 0.028617
0.052223 0.616177 0.028162
0.110092 0.668525 0.028089
0.410088 0.75446 0.029155
0.652198 0.82153 0.028824
0.832535 0.867512 0.029981
0.9487 0.893688 0.031575
0.989173 0.900608 0.032648
0.994314 0.898497 0.032944
0.997169 0.89637 0.031418
1.000007 0.89554 0.031256
0.01193 0.535577 0.031359
0.015253 0.535782 0.031184
0.020095 0.535989 0.030842
0.025604 0.536874 0.030491
0.032333 0.54955 0.03008
0.041482 0.581435 0.029607
0.05255 0.615274 0.028904
0.08892 0.664201 0.027973
0.371601 0.749324 0.029427
0.623747 0.819435 0.028761
0.80976 0.867807 0.029766
0.934053 0.896919 0.031257
0.987302 0.907102 0.032472
0.994289 0.905593 0.033215
0.99714 0.90414 0.033782
1.000007 0.903415 0.033954
0.011277 0.034631 0.160436
0.025969 0.038796 0.159934
0.069814 0.044141 0.159994
0.135675 0.047902 0.160819
0.23087 0.042452 0.155825
0.352682 0.021697 0.147523
0.473188 0.017138 0.141857
0.569662 0.016344 0.137255
0.639514 0.015601 0.132389
0.687914 0.015208 0.128168
0.717238 0.015344 0.124954
0.727181 0.015946 0.120181
0.73107 0.01686 0.113552
0.734649 0.017873 0.106672
0.737901 0.018793 0.098322
0.741791 0.018984 0.090924
0.009607 0.046321 0.154808
0.018875 0.05105 0.154019
0.061765 0.056889 0.154119
0.125274 0.061261 0.154196
0.221433 0.060478 0.149602
0.341892 0.035952 0.138558
0.465372 0.020216 0.130179
0.568288 0.019082 0.125532
0.642319 0.018402 0.12063
0.692709 0.018021 0.11669
0.722697 0.01814 0.113549
0.733548 0.018745 0.109126
0.737956 0.019741 0.101673
0.741428 0.020876 0.093727
0.744791 0.022012 0.086074
0.748332 0.022205 0.080328
0.007604 0.073158 0.149914
0.012462 0.074527 0.148179
0.040527 0.078474 0.14654
0.107771 0.083474 0.145496
0.205103 0.086197 0.141018
0.326386 0.075388 0.128059
0.453372 0.041412 0.112923
0.564006 0.025416 0.105306
0.646458 0.02263 0.09916
0.701319 0.022069 0.093335
0.733088 0.022283 0.088853
0.745837 0.022966 0.084666
0.751563 0.024052 0.078996
0.755313 0.025224 0.072441
0.75859 0.02633 0.065823
0.762055 0.026518 0.061434
0.006063 0.106663 0.147129
0.009174 0.10607 0.144586
0.021923 0.108023 0.141637
0.0829 0.114315 0.138864
0.185585 0.121616 0.134313
0.311657 0.122803 0.12034
0.451041 0.108565 0.098243
0.560963 0.074712 0.082231
0.645631 0.0477 0.071742
0.704656 0.037811 0.066295
0.744918 0.03585 0.062442
0.759529 0.035767 0.059398
0.767097 0.03564 0.056548
0.771605 0.034791 0.053354
0.775159 0.033799 0.050726
0.778451 0.032679 0.048919
0.004566 0.15455 0.144467
0.00738 0.153142 0.141726
0.012458 0.153015 0.137628
0.041582 0.157763 0.131899
0.153865 0.169561 0.126341
0.296962 0.177266 0.11008
0.449713 0.175945 0.081363
0.579577 0.165357 0.062016
