site/assets/luts/freshluts--0001796-correction-cannon.cube
# LUTr-Schema-Version: 2
# LUTr-ID: freshluts--0001796-correction-cannon
# LUTr-Title: correction cannon
# LUTr-Collection: Fresh LUTs
# LUTr-Collection-ID: freshluts-community
# LUTr-Source: https://freshluts.com
# LUTr-Retrieved: 2026-07-27
# LUTr-Source-File: submissions-raw/freshluts/cubes/1796__cannon_wide_shot_1.2H0A9763.cube
# LUTr-Source-Format: CUBE
# LUTr-Source-SHA256: d3542a463e953035dd57b3cd9f75caf2450e9963285ca4eb3c74161b35a3a332
# LUTr-License: CC0-1.0
# LUTr-License-URL: https://freshluts.com/termsandconditions
# LUTr-License-Basis: site-terms
# LUTr-Transform-Class: creative-look
# LUTr-Tags: creative, freshluts, community, cube, yellow, rec709, correction
# LUTr-Input-Color-Space: rec709
# LUTr-Input-Gamut: rec709
# LUTr-Input-Transfer: rec709
# LUTr-Output-Color-Space: srgb
# LUTr-Output-Gamut: rec709
# LUTr-Output-Transfer: srgb
# LUTr-Color-Space-Confidence: inferred-from-source-label
# LUTr-Domain-Normalized: true
# LUTr-Shaper: none
# LUTr-Original-Grid: 33x33x33
# LUTr-Conversion-Grid: 33x33x33
# LUTr-Conversion-Interpolation: none
# LUTr-Conversion-Method: Metadata normalization; numeric LUT samples preserved
# LUTr-Conversion-Tool: LUTr scripts/convert-all-to-cube.mjs 2.0.0
# LUTr-Conversion-Date: 2026-07-28
# LUTr-Asset-URL: https://freshluts.com/luts/1796
# LUTr-Author: lvannoeun@gmail.com
# LUTr-Author-URL: https://freshluts.com/users/57563
# LUTr-Attribution: lvannoeun@gmail.com via Fresh LUTs
# LUTr-Source-Labels: gamma=Rec 709; color=Yellow; key=Neutral; style=Drama
# LUTr-Note: Preserve this metadata and the upstream license notices when redistributing.
TITLE "correction cannon"
LUT_3D_SIZE 9
DOMAIN_MIN 0 0 0
DOMAIN_MAX 1 1 1
0 0 0
0.0700542 0 0
0.256168 0 0
0.385321 0 0
0.458946 0 0
0.514519 0 0
0.579019 0.00427253 0
0.675029 0.0170596 0.00248722
0.770535 0.0302281 0.0084535
0 0.125368 0
0.0444953 0.112566 0.0518807
0.191501 0.123049 0.0139773
0.348226 0.124605 0
0.459037 0.132006 0
0.538476 0.147127 0.00628672
0.603693 0.166644 0.0345006
0.686549 0.182773 0.0482032
0.783093 0.195773 0.0531777
0 0.295949 0
0.0883345 0.267247 0.0769818
0.216388 0.275395 0.119219
0.323033 0.288762 0.11603
0.428183 0.299947 0.100557
0.525963 0.311971 0.099321
0.609522 0.326818 0.112505
0.688594 0.342763 0.12697
0.786068 0.354711 0.123995
0 0.434928 0.00657664
0.115297 0.408835 0.0924239
0.265934 0.407141 0.163531
0.366857 0.417807 0.197986
0.449973 0.431098 0.216449
0.531106 0.445716 0.224231
0.610544 0.461036 0.229053
0.689097 0.476616 0.232944
0.783276 0.489265 0.218738
0 0.546075 0.0669718
0.154772 0.528893 0.132952
0.312139 0.523644 0.208118
0.417548 0.53051 0.257404
0.498421 0.542153 0.291661
0.571344 0.556771 0.317525
0.640452 0.573297 0.333623
0.711315 0.590112 0.33846
0.793729 0.605142 0.324468
0.027985 0.649256 0.138811
0.212604 0.638605 0.195392
0.365545 0.634424 0.26566
0.473121 0.639139 0.319936
0.55436 0.649165 0.359228
0.625727 0.662379 0.392081
0.690089 0.677913 0.418494
0.755032 0.694804 0.425116
0.825254 0.710948 0.419654
0.0951705 0.754894 0.200046
0.279103 0.742535 0.264439
0.425116 0.739528 0.329335
0.531853 0.742763 0.38352
0.613291 0.750927 0.42504
0.683848 0.762554 0.459556
0.747219 0.777157 0.481071
0.808438 0.792996 0.49247
0.87126 0.808804 0.495949
0.134356 0.867369 0.235813
0.327642 0.849577 0.309545
0.480644 0.841566 0.383978
0.588602 0.842161 0.440375
0.6701 0.848798 0.480293
0.740261 0.85948 0.5093
0.803494 0.872648 0.530434
0.863355 0.887022 0.546654
0.923003 0.901884 0.557595
0.169833 0.975982 0.268147
0.362799 0.956741 0.339803
0.518975 0.946105 0.413245
0.631998 0.943328 0.471504
0.718456 0.946792 0.515328
0.792035 0.954925 0.548882
0.856916 0.966323 0.574136
0.917098 0.979614 0.593744
0.976135 0.993713 0.609384
0 0 0.223133
0.0797742 0 0.190951
0.276417 0 0.171633
0.424826 0 0.14876
0.514549 0 0.134874
0.571344 0 0.131777
0.61941 0 0.137667
0.695567 0.0133974 0.145251
0.791501 0.0264744 0.151446
0 0.14052 0.182467
0.048249 0.117266 0.160983
0.241077 0.112184 0.142092
0.406485 0.109087 0.126864
0.533761 0.112627 0.121233
0.620691 0.127138 0.12987
0.679835 0.149432 0.148623
0.731487 0.173968 0.170321
0.810742 0.191348 0.182635
0 0.326574 0.13576
0.0382239 0.291463 0.152148
0.221164 0.280476 0.22266
0.349554 0.290333 0.190661
0.4934 0.292088 0.154208
0.614084 0.297536 0.149859
0.699214 0.311162 0.169406
0.765179 0.329595 0.196399
0.824109 0.349859 0.223911
0 0.474861 0.122988
0.0365301 0.443366 0.150668
0.260075 0.41767 0.244053
0.373159 0.42446 0.280537
0.469047 0.436164 0.275456
0.576761 0.445914 0.252766
0.677073 0.456138 0.246174
0.761013 0.469261 0.257786
0.83415 0.484627 0.277882
0 0.590417 0.149493
0.0548714 0.57174 0.167254
0.281346 0.544854 0.253101
0.415534 0.541848 0.315373
0.506828 0.550958 0.343099
0.590967 0.563531 0.355474
0.673487 0.577279 0.358358
0.754055 0.591333 0.360678
0.83209 0.605554 0.366384
0 0.692027 0.203067
0.107637 0.684199 0.214954
0.31162 0.665156 0.281453
0.456336 0.657343 0.350057
0.553872 0.661906 0.393927
0.635142 0.672175 0.425452
0.707225 0.685557 0.448783
0.775647 0.700496 0.462638
0.844617 0.715526 0.470344
0.0103456 0.78941 0.267414
0.181949 0.78558 0.28217
0.362463 0.773297 0.335973
0.503029 0.765515 0.398749
0.604013 0.766857 0.448463
0.685832 0.774594 0.486717
0.755871 0.786084 0.517876
0.818982 0.799832 0.542672
0.88014 0.814633 0.559442
0.0660258 0.895567 0.311589
0.258824 0.881132 0.351766
0.422538 0.872511 0.399222
0.555261 0.86569 0.455619
0.656153 0.865415 0.505318
0.738506 0.871092 0.546426
0.807935 0.881056 0.579828
0.869734 0.893492 0.608667
0.928847 0.907607 0.627787
0.101015 1 0.341848
0.303838 0.983703 0.392599
0.481727 0.967178 0.459617
0.609476 0.960433 0.513802
0.708843 0.959548 0.561929
0.791608 0.963989 0.604242
0.861295 0.972885 0.639658
0.922621 0.985321 0.663996
0.981735 0.999344 0.680095
0 0 0.430777
0.081117 0 0.397528
0.27422 0 0.372915
0.425376 0 0.350072
0.529366 0 0.321523
0.598383 0 0.296071
0.651606 0 0.28278
0.710414 0.0117952 0.280507
0.807019 0.0248722 0.284825
0 0.134371 0.408576
0.0416266 0.113603 0.381231
0.249027 0.10544 0.349493
0.422217 0.100298 0.331807
0.562707 0.101411 0.31165
0.667033 0.113069 0.297581
0.732143 0.135805 0.294057
0.781811 0.162524 0.299382
0.828489 0.189685 0.309499
0 0.325093 0.361669
0 0.305287 0.344198
0.224521 0.285786 0.325277
0.39321 0.281941 0.310063
0.543755 0.279347 0.296513
0.675853 0.28159 0.289143
0.773754 0.292836 0.293431
0.838483 0.312612 0.308873
0.890776 0.335515 0.328527
0 0.484627 0.322545
0 0.471015 0.302647
0.214221 0.440452 0.316609
0.37789 0.429435 0.379309
0.491402 0.438193 0.350408
0.63357 0.439078 0.313542
0.756146 0.442802 0.305089
0.846387 0.453742 0.318685
0.914214 0.470146 0.343084
0 0.609918 0.310994
0 0.606744 0.286564
0.210437 0.576028 0.313207
0.411063 0.551202 0.395377
0.512245 0.556771 0.428397
0.607065 0.568109 0.420478
0.716258 0.576898 0.392721
0.820066 0.585306 0.381003
0.906355 0.59649 0.390692
0 0.717525 0.32961
0 0.724987 0.301259
0.221942 0.70341 0.32343
0.428656 0.676204 0.400748
0.552346 0.671473 0.458549
0.642054 0.679637 0.484443
0.724224 0.691447 0.491875
0.807309 0.703593 0.488304
0.890654 0.715221 0.485557
0 0.817014 0.369833
0.0744182 0.826429 0.347158
0.262318 0.815991 0.359564
0.451286 0.793912 0.420294
0.587396 0.783246 0.484123
0.684916 0.785718 0.526665
0.763943 0.794751 0.553994
0.834913 0.806561 0.57322
0.904479 0.819409 0.583185
0.00996414 0.916976 0.412085
0.161715 0.919356 0.405356
0.326741 0.913832 0.417273
0.491508 0.898451 0.463233
0.625315 0.887434 0.521096
0.728237 0.88603 0.570718
0.808911 0.892241 0.607233
0.87808 0.902358 0.636439
0.942107 0.914534 0.659709
0.0426947 1 0.436622
0.241138 1 0.462455
0.396887 1 0.480171
0.544137 0.993454 0.519234
0.670298 0.984253 0.570291
0.77377 0.98172 0.620218
0.856138 0.986252 0.661128
0.925628 0.995346 0.694362
0.988968 1 0.723262
0 0 0.566751
0.0732891 0 0.556848
0.264729 0 0.529625
0.410513 0 0.50016
0.515007 0 0.468879
0.59411 0 0.438346
0.657359 0 0.416037
0.717983 0.01149 0.403998
0.816342 0.0241855 0.406485
0 0.128756 0.577371
0.0370184 0.110964 0.566506
0.250172 0.101289 0.532769
0.421118 0.0972915 0.510353
0.562707 0.0978256 0.492988
0.678279 0.107088 0.469398
0.755779 0.128008 0.446723
0.811215 0.154757 0.433341
0.859724 0.182712 0.428428
0 0.316121 0.546548
0 0.300038 0.544656
0.218112 0.282826 0.519722
0.400656 0.276143 0.491356
0.55642 0.271901 0.478126
0.697841 0.272358 0.459754
0.809415 0.281041 0.447105
0.883726 0.299748 0.442603
0.93611 0.324193 0.445762
0 0.475731 0.507607
0 0.46952 0.503471
0.166888 0.451759 0.487892
0.37969 0.434165 0.469841
0.526497 0.43125 0.457542
0.674891 0.427909 0.443565
0.803998 0.429526 0.435752
0.906798 0.437873 0.436591
0.97818 0.454368 0.447944
0 0.606912 0.481834
0 0.614282 0.467582
0.13341 0.599237 0.450813
0.369024 0.571237 0.461189
0.516106 0.560739 0.517494
0.628 0.569116 0.487419
0.764874 0.570031 0.454566
0.885725 0.573007 0.444709
0.980591 0.581582 0.452873
0 0.722606 0.476661
0 0.741268 0.45066
0.132082 0.732921 0.433005
0.363745 0.70367 0.456443
0.546487 0.679713 0.529488
0.646036 0.684001 0.563394
0.736095 0.69482 0.555337
0.842573 0.702495 0.525277
0.949508 0.708415 0.507591
0 0.827802 0.493751
0.00514229 0.848585 0.464042
0.163531 0.850355 0.441413
0.372183 0.8262 0.463828
0.560601 0.799359 0.532494
0.683345 0.792691 0.589929
0.768643 0.800046 0.614023
0.8477 0.810788 0.618265
0.932296 0.821012 0.608438
0 0.929229 0.521401
0.0910048 0.943648 0.498253
0.228305 0.949615 0.477073
0.40148 0.935088 0.489647
0.577173 0.911727 0.545464
0.713268 0.899001 0.608789
0.807462 0.900694 0.649546
0.884001 0.909026 0.673823
0.955657 0.919661 0.689174
0.00285344 1 0.539345
0.177111 1 0.541665
0.306981 1 0.52784
0.455283 1 0.537209
0.608713 1 0.578515
0.743877 1 0.636301
0.845502 0.999054 0.685374
0.925277 1 0.720897
0.995743 1 0.749172
0 0 0.631266
0.0597238 0 0.647456
0.242985 0 0.633539
0.385138 0 0.605722
0.491691 0 0.57554
0.577401 0 0.547082
0.648386 0 0.524773
0.721462 0.0128176 0.514275
0.820844 0.0251011 0.518257
0 0.125063 0.676112
0.035996 0.111147 0.700969
0.244907 0.101167 0.682795
0.416419 0.0973678 0.657084
0.554345 0.0995499 0.63447
0.667872 0.109621 0.609079
0.752468 0.128817 0.582208
0.817319 0.153552 0.560403
0.872877 0.180346 0.545068
0 0.306035 0.672908
0 0.295644 0.702373
0.214115 0.280644 0.687053
0.403296 0.27219 0.656092
0.556664 0.269154 0.637201
0.698634 0.26891 0.623011
0.819074 0.27541 0.604395
0.90518 0.292027 0.584863
0.96434 0.316136 0.570809
0 0.46302 0.64686
0 0.462837 0.672526
0.164752 0.447593 0.666133
0.373434 0.431739 0.641428
0.533745 0.426108 0.615656
0.685878 0.421317 0.604669
0.822003 0.421622 0.588525
0.935103 0.428046 0.57734
1 0.442802 0.572015
0 0.595575 0.623316
0 0.60763 0.637079
0.120653 0.597894 0.629587
0.329046 0.58053 0.614069
0.516686 0.565225 0.597467
0.657649 0.562936 0.586557
0.799603 0.560189 0.573846
0.924407 0.561624 0.566171
1 0.567727 0.564385
0 0.716854 0.611826
0 0.739315 0.609262
0.0953078 0.740108 0.594858
0.295598 0.72398 0.579507
0.505028 0.698436 0.588327
0.64921 0.687175 0.643
0.753735 0.695506 0.615396
0.883955 0.696178 0.583001
1 0.697261 0.570062
0 0.827756 0.617182
0 0.853315 0.601877
0.108522 0.865034 0.577401
0.29279 0.851698 0.563256
0.499718 0.824063 0.583535
0.677378 0.799695 0.65301
0.771618 0.803372 0.685512
0.856764 0.813367 0.677806
0.962341 0.819532 0.645304
0 0.935653 0.632868
0.0568551 0.953689 0.614542
0.161669 0.970031 0.584924
0.31397 0.964675 0.566964
0.505241 0.940047 0.588129
0.688945 0.912779 0.654078
0.805966 0.906157 0.709026
0.88748 0.913069 0.731975
0.965911 0.922972 0.734081
0 1 0.646265
0.135882 1 0.639689
0.237858 1 0.612863
0.364858 1 0.593652
0.526787 1 0.606683
0.700374 1 0.661799
0.832029 1 0.723384
0.923827 1 0.763592
1 1 0.786999
0 0 0.673716
0.0478676 0 0.698421
0.217853 0 0.698543
0.355673 0 0.681514
0.464607 0 0.658656
0.556268 0 0.635203
0.633295 0.000457771 0.616022
0.725444 0.0148775 0.617136
0.824369 0.0271153 0.622995
0 0.124422 0.734447
0.0402075 0.115618 0.779034
0.234195 0.107301 0.788235
0.401038 0.103914 0.772198
0.535729 0.10721 0.748516
0.647791 0.117922 0.720836
0.736278 0.135882 0.694484
0.808408 0.158434 0.672206
0.871244 0.183215 0.654124
0 0.297871 0.757229
0.00698863 0.292393 0.814969
0.212726 0.280446 0.827878
0.399832 0.271504 0.80705
0.555016 0.268208 0.78436
0.694194 0.269184 0.765225
0.811795 0.276417 0.746075
0.902907 0.291844 0.723003
0.971557 0.314 0.699718
0 0.451118 0.751949
0 0.454627 0.806516
0.16878 0.443717 0.823178
0.369299 0.42945 0.805341
0.537575 0.421653 0.777234
0.686641 0.418479 0.758785
0.823194 0.418112 0.747127
0.943938 0.422599 0.731655
1 0.435233 0.712963
0 0.583627 0.739391
0 0.596811 0.780331
0.126345 0.59234 0.795987
0.325383 0.577035 0.786542
0.510262 0.563088 0.763699
0.665171 0.557992 0.738415
0.809598 0.553964 0.729778
0.940581 0.554147 0.714839
1 0.558541 0.702434
0 0.707332 0.731029
0 0.728679 0.753704
0.098436 0.734905 0.762051
0.282521 0.722881 0.752163
0.467704 0.706737 0.737591
0.648753 0.6916 0.720516
0.780194 0.689921 0.711101
0.916457 0.686641 0.698512
1 0.686397 0.689158
0 0.822003 0.733639
0 0.847318 0.739605
0.0988022 0.864073 0.73492
0.256321 0.858595 0.71989
0.435264 0.842649 0.705226
0.636362 0.817578 0.711131
0.774472 0.806104 0.762951
0.873137 0.813855 0.736263
1 0.813138 0.703365
0 0.93875 0.745937
0.0546578 0.953323 0.739666
0.136706 0.974975 0.722896
0.260243 0.978531 0.700236
0.429648 0.963699 0.687343
0.629175 0.936553 0.704601
0.799496 0.912947 0.769818
0.890196 0.916136 0.802014
0.974426 0.925368 0.793164
0 1 0.756634
0.121172 1 0.750607
0.200549 1 0.728313
0.299168 1 0.700175
0.443503 1 0.685161
0.6309 1 0.705547
0.807507 1 0.768124
0.922347 1 0.822721
1 1 0.846647
0 0 0.737942
0.0415503 0 0.737102
0.199268 0 0.745342
0.331182 0 0.738018
0.440024 0 0.723552
0.535195 0 0.70631
0.633005 0.00518807 0.706249
0.731029 0.0173648 0.712764
0.829114 0.0297398 0.719524
0 0.126711 0.778439
0.0475776 0.122744 0.823438
0.223407 0.118502 0.845731
0.379644 0.116823 0.843656
0.510018 0.120623 0.828122
0.622629 0.130648 0.805615
0.715587 0.146838 0.783001
0.793347 0.16733 0.763546
0.861952 0.190173 0.746456
0 0.294011 0.818006
0.0330358 0.291905 0.879774
0.216098 0.284016 0.918776
0.39263 0.275807 0.920577
0.545556 0.272389 0.904738
0.682399 0.274144 0.883268
0.796933 0.282551 0.860029
0.888563 0.297902 0.835843
0.963287 0.318303 0.811399
0 0.443076 0.830518
0.00967422 0.447395 0.895048
0.181674 0.441123 0.941466
0.367742 0.429023 0.943282
0.535027 0.420752 0.922393
0.686503 0.417182 0.90013
0.821073 0.417792 0.883864
0.938857 0.423056 0.868681
1 0.43473 0.847486
0 0.574228 0.830869
0 0.585946 0.886137
0.145068 0.58613 0.930632
0.328054 0.573922 0.936492
0.506615 0.561227 0.918975
0.66949 0.553826 0.891814
0.810819 0.551415 0.874922
0.941558 0.551064 0.864576
1 0.553597 0.849149
0 0.69865 0.829892
0.00331121 0.717144 0.869703
0.120912 0.726436 0.904295
0.286305 0.718166 0.910521
0.463996 0.70367 0.900313
0.642283 0.689754 0.877348
0.787884 0.685222 0.852888
0.925414 0.680842 0.845701
1 0.679454 0.82977
0 0.821942 0.841596
0.0318456 0.837522 0.858305
0.121508 0.854948 0.877562
0.257099 0.854154 0.879042
0.423697 0.841321 0.868193
0.602609 0.824796 0.853086
0.772992 0.810498 0.836286
0.896223 0.808988 0.82771
1 0.804257 0.814008
0 0.940154 0.854093
0.0752422 0.947143 0.855344
0.148119 0.969299 0.859022
0.248844 0.977996 0.851225
0.396429 0.969711 0.836469
0.56968 0.95349 0.821744
0.759503 0.930144 0.826307
0.893156 0.918746 0.875929
0.99089 0.925811 0.848371
0 1 0.863798
0.128374 1 0.859174
0.196399 1 0.851331
0.273823 1 0.833341
0.393729 1 0.812909
0.560555 1 0.801099
0.749645 1 0.817304
0.915267 1 0.879545
1 1 0.913649
0 0 0.835523
0.0433356 0 0.820783
0.193133 0 0.808728
0.319554 0 0.800214
0.43093 0 0.79588
0.537957 0 0.795087
0.639826 0.00781262 0.797971
0.737774 0.0201267 0.803677
0.835187 0.0326848 0.810544
0 0.130053 0.863691
0.0558022 0.130648 0.859342
0.216999 0.130404 0.885115
0.361761 0.131228 0.891524
0.486427 0.135805 0.885115
0.59823 0.14522 0.870848
0.694163 0.159838 0.854276
0.77641 0.178515 0.838666
0.861494 0.195087 0.833707
0 0.294652 0.889265
0.0570535 0.294163 0.92491
0.223255 0.2907 0.968826
0.384131 0.285313 0.986999
0.529076 0.282811 0.984421
0.661631 0.285069 0.969116
0.774777 0.293568 0.947982
0.868696 0.308003 0.925444
0.948287 0.32668 0.903197
0 0.440589 0.90695
0.0472114 0.443397 0.956268
0.203342 0.440589 1
0.370016 0.43154 1
0.529809 0.423651 1
0.680156 0.419791 1
0.813352 0.421012 1
0.9281 0.427497 0.982589
1 0.439704 0.959426
0 0.571603 0.919829
0.0409552 0.577981 0.964034
0.176928 0.58024 1
0.337331 0.571969 1
0.505211 0.560891 1
0.667475 0.552956 1
0.811322 0.550027 1
0.94052 0.550423 0.99556
1 0.553628 0.980774
0 0.699794 0.931701
0.0475166 0.707546 0.960922
0.158526 0.716915 1
0.30016 0.713024 1
0.466087 0.700755 1
0.638621 0.687907 1
0.792523 0.680873 0.999908
0.926772 0.678264 0.983352
1 0.676356 0.972137
0 0.823316 0.944488
0.0705577 0.82826 0.956893
0.159304 0.843961 0.994049
0.27364 0.847013 1
0.426444 0.836927 1
0.598215 0.821973 1
0.766323 0.808774 0.985336
0.904051 0.804395 0.961196
1 0.798779 0.953872
0 0.941238 0.956909
0.10634 0.939345 0.9561
0.17995 0.959304 0.977554
0.266316 0.970031 0.990433
0.396292 0.965606 0.988251
0.559075 0.952087 0.976684
0.72874 0.936553 0.962371
0.890822 0.923293 0.94612
1 0.921447 0.937423
0 1 0.966384
0.126589 1 0.961746
0.215534 1 0.966491
0.28246 1 0.966445
0.381811 1 0.957534
0.529015 1 0.943145
0.694026 1 0.93019
0.87512 1 0.93463
1 1 0.984512
0 0 0.932128
0.0465858 0 0.91725
0.196979 0 0.90486
0.324132 0 0.895628
0.436408 0 0.890242
0.544152 0 0.888228
0.646494 0.010544 0.889937
0.744717 0.0229038 0.894545
0.842039 0.0355383 0.900618
0 0.133425 0.960204
0.0593729 0.134783 0.947341
0.215228 0.139986 0.934829
0.348898 0.145022 0.931563
0.46743 0.150744 0.93193
0.576761 0.160113 0.925063
0.673487 0.173754 0.914885
0.771298 0.185763 0.918334
0.868055 0.197681 0.923613
0 0.297673 0.986847
0.0738384 0.297765 0.978454
0.23151 0.29836 1
0.377951 0.296605 1
0.512093 0.296269 1
0.638254 0.299336 1
0.749569 0.307546 1
0.845685 0.320714 0.999252
0.929854 0.33756 0.980957
0 0.442893 1
0.0795148 0.44213 1
0.226139 0.442237 1
0.376165 0.437064 1
0.522744 0.431266 1
0.666346 0.427985 1
0.79588 0.429709 1
0.908309 0.436759 1
1 0.448722 1
0 0.573526 1
0.080705 0.572915 1
0.212375 0.576257 1
0.355322 0.571466 1
0.506874 0.562753 1
0.662654 0.555016 1
0.805936 0.551705 1
0.934249 0.552468 1
1 0.556802 1
0 0.701518 1
0.089601 0.700221 1
0.201495 0.708583 1
0.326863 0.707485 1
0.473732 0.698482 1
0.636713 0.687053 1
0.790219 0.679484 1
0.927169 0.676249 1
1 0.674998 1
0 0.824735 1
0.106889 0.820996 1
0.203174 0.833463 1
0.305745 0.837949 1
0.437888 0.831724 1
0.599451 0.818738 1
0.762173 0.806531 1
0.908522 0.799527 1
1 0.795834 1
0 0.942321 1
0.118318 0.937453 1
0.219165 0.948852 1
0.300298 0.959182 1
0.410056 0.958663 1
0.560891 0.94757 1
0.723705 0.933654 1
0.883635 0.921477 1
1 0.916671 1
0 1 1
0.127199 1 1
0.246983 1 1
0.312657 1 1
0.396597 1 1
0.527932 1 1
0.683604 1 1
0.846143 1 1
1 1 1
