site/assets/luts/freshluts--0000887-at-museum-mood-red-look-vn-luts.cube
# LUTr-Schema-Version: 2
# LUTr-ID: freshluts--0000887-at-museum-mood-red-look-vn-luts
# LUTr-Title: At museum mood-red look-vn-LUTs
# LUTr-Collection: Fresh LUTs
# LUTr-Collection-ID: freshluts-community
# LUTr-Source: https://freshluts.com
# LUTr-Retrieved: 2026-07-27
# LUTr-Source-File: submissions-raw/freshluts/cubes/887__Red_look-VN-LUT.cube
# LUTr-Source-Format: CUBE
# LUTr-Source-SHA256: 9cc4bbfe67d17870049b743dc19bcddd0ca52c87e0555395665d60cb3aa73b3c
# LUTr-License: CC0-1.0
# LUTr-License-URL: https://freshluts.com/termsandconditions
# LUTr-License-Basis: site-terms
# LUTr-Transform-Class: creative-look
# LUTr-Tags: creative, freshluts, community, cube, red, low-key, arri-logc3-ei800
# LUTr-Input-Color-Space:
# LUTr-Input-Gamut: arri-wide-gamut-3
# LUTr-Input-Transfer: arri-logc3-ei800
# LUTr-Output-Color-Space: srgb
# LUTr-Output-Gamut: rec709
# LUTr-Output-Transfer: srgb
# LUTr-Color-Space-Confidence: camera-profile-input-required
# LUTr-Domain-Normalized: true
# LUTr-Shaper: none
# LUTr-Original-Grid: 33x33x33
# LUTr-Conversion-Grid: 33x33x33
# LUTr-Conversion-Interpolation: none
# LUTr-Conversion-Method: Metadata normalization; numeric LUT samples preserved
# LUTr-Conversion-Tool: LUTr scripts/convert-all-to-cube.mjs 2.0.0
# LUTr-Conversion-Date: 2026-07-28
# LUTr-Asset-URL: https://freshluts.com/luts/887
# LUTr-Author: lvannoeun@gmail.com
# LUTr-Author-URL: https://freshluts.com/users/57563
# LUTr-Attribution: lvannoeun@gmail.com via Fresh LUTs
# LUTr-Source-Labels: gamma=Arri log c; color=Red; key=Low Key; style=Cinematic/Dark
# LUTr-Note: Preserve this metadata and the upstream license notices when redistributing.
TITLE "At museum mood-red look-vn-LUTs"
LUT_3D_SIZE 33
DOMAIN_MIN 0 0 0
DOMAIN_MAX 1 1 1
0 0.00550851 0.00732433
0 0.00807202 0.0131228
0.00758373 0.0114595 0.0177462
0.0249943 0.0154421 0.0218051
0.0441901 0.0185855 0.0252842
0.0647746 0.0213321 0.0286717
0.0856641 0.024033 0.0315404
0.107103 0.0266575 0.0341192
0.129244 0.0292973 0.0371099
0.151507 0.0319371 0.0398871
0.173648 0.0343175 0.0423896
0.195621 0.0367285 0.0449531
0.217655 0.0391394 0.0472877
0.239643 0.0416114 0.0500801
0.261265 0.0444495 0.0530098
0.282368 0.047364 0.0559854
0.302739 0.0502327 0.0587167
0.322637 0.053193 0.0619211
0.341665 0.0564126 0.065156
0.35993 0.0599374 0.0686351
0.377707 0.0640574 0.0727092
0.394369 0.0679179 0.0764935
0.410788 0.0718547 0.0803235
0.426993 0.0758679 0.0842756
0.443458 0.0798352 0.0879988
0.460288 0.0841382 0.0924086
0.47689 0.0882734 0.0964523
0.493507 0.0922103 0.100328
0.509819 0.0962539 0.104295
0.526436 0.100237 0.108202
0.54287 0.104372 0.112276
0.55935 0.108858 0.116716
0.575525 0.113115 0.120897
0 0.0283055 0.0163119
0.00697337 0.0327916 0.0226291
0.0210117 0.0374456 0.0299229
0.037583 0.0413977 0.0330663
0.0565042 0.0447242 0.0355535
0.0776837 0.0472419 0.0394293
0.0986038 0.0500343 0.0421912
0.120546 0.0530556 0.0451362
0.142351 0.0554971 0.047715
0.16437 0.057908 0.0502632
0.186435 0.0602884 0.052781
0.208728 0.0626078 0.0554055
0.231083 0.0652628 0.0579995
0.253178 0.0679789 0.0608225
0.274571 0.0705577 0.063508
0.295506 0.0732586 0.0663157
0.31603 0.076051 0.069276
0.335866 0.079118 0.072282
0.35523 0.0825666 0.0757458
0.373877 0.0861524 0.079469
0.391272 0.0898299 0.0830243
0.40798 0.0936599 0.0870222
0.424384 0.097612 0.0907912
0.440909 0.10164 0.094789
0.45771 0.105852 0.0990005
0.474434 0.109957 0.103105
0.491096 0.113848 0.10721
0.50753 0.117861 0.111025
0.524224 0.121798 0.115099
0.540825 0.125917 0.119127
0.557595 0.130266 0.123491
0.574212 0.134417 0.127687
0.590051 0.138628 0.131899
0.0134432 0.0522011 0.0290074
0.0268254 0.0567788 0.0361791
0.0404669 0.0611124 0.044419
0.0504158 0.0669871 0.0474708
0.0691081 0.0708171 0.046067
0.0957809 0.0714733 0.0549935
0.113039 0.0760662 0.0534524
0.133379 0.079057 0.0552834
0.153582 0.0822156 0.0556191
0.176593 0.0841993 0.0593881
0.199237 0.0864424 0.0625467
0.221775 0.0889143 0.065507
0.244114 0.0915541 0.0683452
0.265934 0.0940261 0.0708476
0.287495 0.0965438 0.0736858
0.308431 0.0992447 0.0764782
0.328923 0.102159 0.079469
0.348943 0.105364 0.0825513
0.368673 0.10869 0.0861219
0.387091 0.112078 0.0895552
0.404486 0.115724 0.0931258
0.421424 0.119493 0.0971084
0.438041 0.123537 0.101015
0.454963 0.127871 0.105592
0.47155 0.131792 0.109514
0.488151 0.135714 0.113527
0.504814 0.139635 0.117571
0.521508 0.143587 0.121416
0.538521 0.147829 0.125978
0.555459 0.15201 0.130053
0.572061 0.155993 0.134371
0.588403 0.160067 0.138369
0.604562 0.164157 0.142794
0.0329137 0.0760204 0.0428168
0.0467231 0.0803388 0.0504005
0.0605783 0.0845808 0.0589456
0.0733043 0.0893416 0.0661631
0.0822766 0.096437 0.0622263
0.101732 0.10045 0.0596628
0.132006 0.0996719 0.069398
0.150179 0.103502 0.0693065
0.171435 0.106203 0.0715038
0.190082 0.110094 0.0702983
0.209796 0.114076 0.0690166
0.232425 0.116304 0.0720684
0.255665 0.118212 0.0760357
0.278126 0.120409 0.0793164
0.299916 0.122805 0.0825971
0.321355 0.125643 0.0860456
0.342245 0.128649 0.0894942
0.36228 0.131579 0.0926375
0.381537 0.134722 0.0959793
0.400183 0.138033 0.0994125
0.417945 0.141665 0.103197
0.435065 0.145647 0.107332
0.451926 0.149798 0.11162
0.468498 0.153719 0.115648
0.48513 0.15761 0.11986
0.501869 0.161501 0.123735
0.5187 0.165499 0.127916
0.535698 0.169619 0.132204
0.552773 0.173754 0.136522
0.569543 0.177707 0.140673
0.586145 0.181689 0.144884
0.602609 0.185702 0.149065
0.618402 0.190051 0.153704
0.0531624 0.0995193 0.0566415
0.0673838 0.1037 0.0645457
0.0815442 0.108141 0.0735332
0.0950637 0.112703 0.0816052
0.104662 0.119005 0.0831159
0.115206 0.125628 0.0766308
0.135241 0.129137 0.073518
0.168063 0.127687 0.0834211
0.193622 0.128756 0.0914626
0.207416 0.13489 0.0844434
0.230213 0.137041 0.0882734
0.247623 0.141344 0.0852522
0.266194 0.145251 0.0828717
0.287541 0.148074 0.0843977
0.309987 0.150454 0.0881208
0.332235 0.152941 0.0925765
0.353491 0.155444 0.0965438
0.373907 0.158206 0.100191
0.393545 0.161196 0.104067
0.412558 0.164462 0.108217
0.430762 0.168063 0.112169
0.448234 0.172015 0.116838
0.464958 0.17586 0.12105
0.48159 0.179736 0.125246
0.498497 0.183536 0.12958
0.515465 0.187533 0.133715
0.532769 0.19176 0.138491
0.549691 0.195666 0.142504
0.566522 0.199557 0.146807
0.583459 0.203449 0.150942
0.59997 0.207462 0.155276
0.616709 0.211719 0.15993
0.63209 0.216327 0.164813
0.0737774 0.122942 0.0707256
0.0883497 0.12726 0.079118
0.102449 0.131563 0.0879225
0.116152 0.136049 0.0961929
0.128267 0.141115 0.101106
0.134493 0.148714 0.0976883
0.148608 0.154482 0.0906233
0.170626 0.15758 0.0879683
0.204974 0.155901 0.0981918
0.232502 0.155962 0.107805
0.243977 0.162829 0.0978256
0.266957 0.164828 0.1019
0.288106 0.167697 0.104005
0.304997 0.17261 0.100694
0.322606 0.176913 0.0982528
0.341955 0.180316 0.0986496
0.362371 0.183185 0.101213
0.383215 0.185779 0.105318
0.403693 0.188815 0.109606
0.423224 0.192035 0.114244
0.441962 0.19527 0.119005
0.459586 0.19881 0.123644
0.476539 0.202548 0.128435
0.493858 0.206317 0.133196
0.511116 0.210193 0.137957
0.528527 0.214176 0.142763
0.545663 0.217945 0.14728
0.562783 0.221775 0.15172
0.579934 0.225559 0.156268
0.596872 0.229587 0.160723
0.613916 0.233555 0.165515
0.629953 0.237995 0.170352
0.644968 0.242359 0.175372
0.0950942 0.146456 0.085008
0.109636 0.150759 0.0936751
0.123705 0.154894 0.102449
0.137407 0.159182 0.110719
0.150347 0.163897 0.116991
0.159991 0.170474 0.117449
0.166583 0.178317 0.111696
0.182971 0.183505 0.104631
0.207309 0.185611 0.102754
0.241443 0.183673 0.11249
0.270237 0.183444 0.122499
0.285801 0.1888 0.117662
0.303181 0.193362 0.114916
0.32604 0.195529 0.11928
0.345159 0.198962 0.119936
0.361364 0.203601 0.117098
0.37734 0.208438 0.114382
0.395132 0.212558 0.114275
0.41355 0.216342 0.116091
0.43238 0.219715 0.119402
0.451041 0.22298 0.123552
0.468788 0.22649 0.128267
0.486625 0.230076 0.1337
0.504143 0.233783 0.13872
0.522072 0.237552 0.144289
0.539635 0.241138 0.149111
0.557076 0.244785 0.154192
0.574746 0.248386 0.159121
0.592142 0.252247 0.164218
0.609888 0.25626 0.169421
0.626383 0.260227 0.174395
0.641978 0.264424 0.179385
0.656809 0.268788 0.184833
0.11635 0.169894 0.0994736
0.130785 0.173953 0.107881
0.144823 0.178103 0.116686
0.158724 0.182422 0.125124
0.172549 0.187045 0.132219
0.18407 0.192554 0.135515
0.190341 0.200336 0.132525
0.199817 0.207355 0.12517
0.217655 0.211887 0.118166
0.244556 0.21323 0.118059
0.278843 0.211444 0.127657
0.308034 0.211322 0.137652
0.331029 0.213336 0.141711
0.339208 0.221515 0.128481
0.361563 0.223682 0.132525
0.382788 0.226398 0.136248
0.400931 0.230457 0.137026
0.416571 0.23534 0.13518
0.431312 0.240391 0.132662
0.446983 0.244999 0.132006
0.463081 0.249332 0.133028
0.47982 0.253651 0.136034
0.496498 0.257801 0.139773
0.513726 0.261646 0.144121
0.531304 0.265217 0.148959
0.548974 0.268788 0.153918
0.567239 0.272328 0.159503
0.585031 0.27602 0.164828
0.60322 0.279683 0.170474
0.6206 0.283391 0.175784
0.636957 0.287297 0.181262
0.652659 0.291371 0.18706
0.667308 0.295964 0.192813
0.137545 0.193088 0.113634
0.15198 0.197131 0.122286
0.166155 0.201358 0.131151
0.18024 0.205737 0.139742
0.194415 0.21033 0.147127
0.206851 0.215305 0.152056
0.216098 0.221744 0.151446
0.221164 0.229831 0.146365
0.233799 0.236316 0.138506
0.254032 0.240116 0.13254
0.282567 0.240955 0.133715
0.315999 0.239277 0.142901
0.345327 0.238804 0.152468
0.372793 0.239063 0.162158
0.378164 0.248539 0.146136
0.396262 0.252567 0.145785
0.41799 0.255085 0.1505
0.437675 0.258091 0.153903
0.454963 0.262058 0.155077
0.4701 0.267018 0.154498
0.48397 0.272419 0.153017
0.497765 0.277775 0.152728
0.51194 0.282887 0.153445
0.52694 0.28751 0.155306
0.542824 0.291829 0.157809
0.559792 0.295979 0.161273
0.576883 0.299962 0.165423
0.594873 0.303807 0.170428
0.612482 0.307408 0.175479
0.629648 0.31107 0.180987
0.645914 0.314977 0.186786
0.661463 0.31931 0.19295
0.676646 0.323842 0.199283
0.159045 0.216251 0.127779
0.173693 0.220493 0.13669
0.187823 0.224628 0.145449
0.202106 0.229053 0.154147
0.216068 0.233371 0.161471
0.229297 0.237995 0.167559
0.240223 0.243854 0.169467
0.246708 0.25156 0.166217
0.253437 0.259327 0.159716
0.268894 0.264958 0.151949
0.290974 0.268009 0.14728
0.320226 0.268269 0.149218
0.35314 0.266972 0.158145
0.382208 0.266743 0.167361
0.411093 0.266575 0.178897
0.422522 0.273274 0.170596
0.431617 0.280842 0.16051
0.451514 0.283864 0.163577
0.471992 0.286778 0.168521
0.490593 0.290349 0.17232
0.507439 0.294591 0.174868
0.52166 0.299535 0.175677
0.534844 0.304875 0.175555
0.547845 0.310307 0.175235
0.561517 0.315877 0.175235
0.576043 0.320943 0.176074
0.591196 0.325765 0.177783
0.607095 0.330114 0.180255
0.62327 0.334279 0.183581
0.639155 0.338628 0.188174
0.654582 0.343008 0.193072
0.669825 0.347417 0.199084
0.68452 0.351904 0.205005
0.180621 0.239582 0.142306
0.195315 0.243824 0.151247
0.209522 0.24799 0.15993
0.223529 0.252186 0.168338
0.237613 0.256443 0.17586
0.251606 0.260945 0.182696
0.263569 0.266377 0.186252
0.272709 0.273213 0.185534
0.27747 0.281376 0.180667
0.286885 0.288441 0.172854
0.304433 0.29308 0.165469
0.328344 0.295796 0.162127
0.358221 0.295781 0.165164
0.390249 0.294926 0.173816
0.418387 0.294865 0.182437
0.446677 0.294575 0.193286
0.467399 0.297475 0.197086
0.470634 0.307652 0.180301
0.485115 0.312947 0.178149
0.504555 0.31632 0.182467
0.523598 0.319448 0.187503
0.540764 0.323186 0.191959
0.557031 0.327504 0.195773
0.571817 0.332341 0.197833
0.585672 0.337575 0.198474
0.599008 0.343145 0.198291
0.611795 0.348684 0.197482
0.625147 0.353994 0.197559
0.638544 0.359426 0.198749
0.652323 0.364477 0.201083
0.665888 0.369757 0.204517
0.679774 0.374533 0.208423
0.693538 0.379263 0.213107
0.202304 0.262898 0.156619
0.216831 0.266987 0.165438
0.231022 0.271107 0.174151
0.245106 0.275364 0.182589
0.259495 0.279728 0.190463
0.273686 0.284031 0.197284
0.286458 0.289219 0.202396
0.297414 0.295018 0.20354
0.303578 0.302647 0.199863
0.309056 0.310872 0.194125
0.321157 0.317311 0.186145
0.340826 0.321248 0.179614
0.365988 0.323461 0.17763
0.395346 0.323552 0.181033
0.425879 0.322866 0.188678
0.454002 0.323033 0.197559
0.48127 0.323217 0.207553
0.507103 0.324117 0.218036
0.515663 0.331884 0.208209
0.521233 0.340749 0.196445
0.536431 0.34551 0.197086
0.554559 0.349248 0.201938
0.572442 0.352834 0.207645
0.589837 0.356817 0.212726
0.606363 0.36083 0.2168
0.621546 0.365362 0.219379
0.635081 0.370474 0.220783
0.647471 0.376349 0.221302
0.658824 0.38233 0.22121
0.67013 0.388464 0.221515
0.681559 0.394247 0.222293
0.69366 0.399725 0.224155
0.706462 0.405158 0.226947
0.224033 0.286015 0.170901
0.238407 0.290074 0.179568
0.252827 0.29424 0.188281
0.267063 0.298573 0.196811
0.281468 0.302922 0.204776
0.295933 0.307225 0.21181
0.309087 0.311879 0.217823
0.320867 0.317281 0.220371
0.329931 0.324071 0.218967
0.334417 0.332403 0.214252
0.341772 0.340291 0.207385
0.356374 0.345892 0.199527
0.377554 0.349233 0.194369
0.403006 0.350927 0.193011
0.432166 0.351339 0.197192
0.461418 0.35108 0.204273
0.488746 0.351675 0.212421
0.515145 0.352087 0.221927
0.541588 0.352361 0.233417
0.560235 0.356008 0.237018
0.563653 0.365881 0.223178
0.570901 0.373877 0.215885
0.585794 0.379034 0.217716
0.603006 0.382803 0.22237
0.620813 0.386297 0.227924
0.637797 0.39028 0.233555
0.653132 0.394629 0.238407
0.666758 0.399558 0.242145
0.679408 0.405097 0.244739
0.6907 0.410895 0.245701
0.701457 0.416922 0.245884
0.712581 0.423133 0.246067
0.723796 0.429053 0.246509
0.245609 0.309102 0.18497
0.260197 0.31342 0.193835
0.274586 0.317464 0.202655
0.288869 0.321767 0.2112
0.303258 0.326024 0.219211
0.317662 0.33022 0.226261
0.33167 0.334737 0.232807
0.343923 0.340047 0.236713
0.355276 0.345739 0.237308
0.361364 0.353658 0.2336
0.365728 0.362066 0.228153
0.375097 0.369116 0.220584
0.39205 0.374121 0.21355
0.414176 0.377203 0.209247
0.439734 0.378744 0.209033
0.467689 0.379538 0.212879
0.496254 0.379492 0.219974
0.522667 0.380087 0.227588
0.547967 0.381201 0.236286
0.573281 0.381949 0.246998
0.597147 0.383413 0.257923
0.60943 0.389425 0.255955
0.611872 0.399466 0.242832
0.619623 0.407172 0.236789
0.63415 0.41236 0.238651
0.650034 0.416526 0.243748
0.666178 0.420783 0.250111
0.681117 0.42504 0.256153
0.695369 0.429557 0.261616
0.708705 0.43447 0.265583
0.721752 0.439918 0.268666
0.733776 0.445502 0.269871
0.745739 0.451469 0.270481
0.267491 0.332387 0.199481
0.281819 0.336461 0.208103
0.296513 0.340764 0.216953
0.310689 0.3449 0.22536
0.325017 0.349035 0.233341
0.339544 0.353353 0.24062
0.35404 0.357702 0.247501
0.366842 0.362722 0.25243
0.379568 0.368032 0.254795
0.388327 0.374701 0.252888
0.392065 0.383169 0.247807
0.397879 0.391379 0.241779
0.409583 0.397803 0.234226
0.428077 0.402274 0.228016
0.450614 0.405127 0.224857
0.475944 0.406683 0.225147
0.502861 0.407462 0.229023
0.530068 0.40827 0.235431
0.556085 0.408988 0.243046
0.580285 0.410513 0.251194
0.604242 0.411734 0.261265
0.627985 0.412863 0.272877
0.648478 0.41561 0.281422
0.65774 0.422919 0.276127
0.659693 0.433066 0.263218
0.667201 0.440955 0.259602
0.679271 0.446464 0.262181
0.693202 0.451133 0.267338
0.708049 0.455695 0.273701
0.723079 0.459998 0.279713
0.738186 0.464286 0.284901
0.752865 0.469123 0.28925
0.766659 0.473991 0.292195
0.289387 0.355444 0.21355
0.303929 0.359716 0.222339
0.318349 0.363745 0.231144
0.332555 0.367864 0.239551
0.347173 0.372229 0.247837
0.361563 0.37641 0.255085
0.376257 0.380652 0.262028
0.389715 0.385443 0.267765
0.402686 0.390372 0.271183
0.41416 0.396231 0.271519
0.419791 0.404181 0.267597
0.423178 0.412772 0.262318
0.430747 0.420493 0.255451
0.44448 0.426383 0.248035
0.463676 0.430259 0.24303
0.486748 0.433036 0.240909
0.511528 0.434836 0.241672
0.537667 0.435843 0.245457
0.563622 0.437079 0.251637
0.588464 0.438178 0.258854
0.61149 0.439796 0.266819
0.634363 0.441688 0.27599
0.657343 0.443198 0.286732
0.680873 0.444648 0.298695
0.698665 0.448325 0.304326
0.704448 0.456672 0.297871
0.705837 0.466621 0.28835
0.712001 0.474784 0.285527
0.722805 0.48072 0.28748
0.736584 0.485832 0.291997
0.751873 0.490105 0.297169
0.767773 0.494118 0.302708
0.783505 0.498222 0.307942
0.311284 0.378653 0.227909
0.325628 0.382727 0.236362
0.340154 0.386847 0.245243
0.354543 0.391104 0.253819
0.368933 0.395193 0.261906
0.383597 0.399619 0.26949
0.398184 0.403754 0.276341
0.412222 0.408103 0.282673
0.425544 0.413062 0.287144
0.438468 0.418296 0.288975
0.446983 0.425147 0.287068
0.45066 0.433875 0.281941
0.454749 0.442298 0.276112
0.464042 0.449302 0.269108
0.479255 0.454826 0.262684
0.499519 0.458381 0.258534
0.522271 0.461112 0.256931
0.546548 0.463111 0.258366
0.571389 0.464546 0.262043
0.596078 0.465843 0.267842
0.620081 0.467567 0.275242
0.642435 0.469459 0.283024
0.664439 0.471626 0.291508
0.687099 0.473365 0.301274
0.71017 0.474723 0.31281
0.731548 0.47689 0.324453
0.74522 0.481743 0.329656
0.749645 0.490349 0.324376
0.751049 0.500511 0.315618
0.756863 0.508614 0.311299
0.767941 0.514611 0.311833
0.782284 0.5196 0.315526
0.797665 0.523842 0.320378
0.332998 0.401648 0.241962
0.347448 0.405844 0.25069
0.361975 0.41001 0.259525
0.376272 0.414099 0.267979
0.39086 0.418463 0.27628
0.405325 0.422568 0.283787
0.419959 0.426703 0.29073
0.43473 0.431128 0.297627
0.448127 0.435798 0.302525
0.461906 0.440574 0.305669
0.472892 0.446677 0.305715
0.478584 0.454459 0.301732
0.481498 0.463432 0.296452
0.487205 0.471504 0.290318
0.498207 0.478035 0.283406
0.514427 0.48304 0.277867
0.534798 0.486702 0.27454
0.556985 0.489372 0.27364
0.58053 0.491753 0.275059
0.60441 0.493507 0.279042
0.627756 0.495262 0.284672
0.651102 0.497246 0.291997
0.672648 0.499397 0.299229
0.694392 0.501427 0.307225
0.716564 0.503563 0.316548
0.738003 0.50547 0.327047
0.758984 0.507515 0.339544
0.777707 0.510246 0.35169
0.790188 0.515419 0.356359
0.794217 0.524254 0.349615
0.796384 0.534325 0.339574
0.802853 0.542199 0.334691
0.814343 0.548272 0.335332
0.355138 0.424857 0.256214
0.36939 0.428946 0.264775
0.383734 0.433005 0.273365
0.39826 0.437339 0.282216
0.412604 0.441428 0.290242
0.427222 0.44567 0.298024
0.441962 0.449897 0.30515
0.456718 0.453971 0.311955
0.470985 0.458625 0.318074
0.484947 0.463218 0.321874
0.497704 0.468406 0.323476
0.506081 0.475486 0.321538
0.509743 0.484062 0.316381
0.512901 0.49279 0.310994
0.520363 0.500618 0.304829
0.532586 0.506737 0.298405
0.549096 0.511498 0.293217
0.569467 0.51519 0.290974
0.591333 0.517937 0.290608
0.613886 0.520378 0.2925
0.636728 0.522667 0.296742
0.659022 0.524773 0.302052
0.681163 0.526787 0.30869
0.70309 0.529152 0.315923
0.723857 0.531502 0.323323
0.743893 0.534127 0.331579
0.763821 0.536675 0.341543
0.78407 0.538766 0.353323
0.805081 0.540764 0.3673
0.824063 0.543297 0.378958
0.835706 0.548989 0.380728
0.839033 0.558495 0.371481
0.841505 0.568185 0.361761
0.376791 0.447852 0.270253
0.391394 0.45211 0.279103
0.405737 0.456199 0.287739
0.420142 0.460243 0.296147
0.434623 0.4645 0.304341
0.449241 0.468681 0.312184
0.463737 0.472801 0.319356
0.478859 0.477104 0.326604
0.493568 0.481285 0.332891
0.507652 0.485801 0.337484
0.521737 0.490806 0.340627
0.532189 0.49688 0.34023
0.537606 0.504784 0.33608
0.540566 0.513878 0.330785
0.544915 0.522194 0.325505
0.553521 0.529671 0.319356
0.5664 0.535592 0.313695
0.583444 0.540093 0.309575
0.603525 0.543587 0.307744
0.624796 0.546777 0.307866
0.64651 0.549294 0.31043
0.667857 0.552132 0.314305
0.689403 0.554421 0.319493
0.710689 0.556741 0.325307
0.731228 0.559533 0.332128
0.750225 0.562463 0.338674
0.76907 0.565301 0.346334
0.788556 0.568154 0.35584
0.809094 0.570169 0.367163
0.830976 0.57171 0.380758
0.853819 0.572961 0.395666
0.87216 0.575875 0.405127
0.881163 0.582742 0.40296
0.398627 0.471061 0.284276
0.413138 0.47512 0.29305
0.427527 0.479316 0.301732
0.4421 0.483482 0.31046
0.456413 0.487587 0.318578
0.470924 0.491661 0.326345
0.485801 0.49604 0.333745
0.500847 0.500069 0.340703
0.516152 0.50425 0.34757
0.530571 0.508705 0.353201
0.544564 0.513344 0.356817
0.557519 0.518822 0.358373
0.565423 0.525841 0.355947
0.568933 0.534401 0.350927
0.571801 0.543465 0.345907
0.577188 0.551522 0.340368
0.58677 0.558389 0.334493
0.600427 0.564324 0.32958
0.617472 0.56878 0.326177
0.636774 0.572381 0.324834
0.657389 0.575708 0.325872
0.677607 0.578668 0.328222
0.697917 0.581506 0.331868
0.717723 0.58468 0.336309
0.737072 0.58761 0.341527
0.755764 0.590692 0.347295
0.774289 0.594079 0.353841
0.792691 0.597101 0.360922
0.81265 0.599603 0.369924
0.834318 0.601511 0.381292
0.857664 0.602518 0.394614
0.881758 0.603464 0.409812
0.904082 0.60473 0.423896
0.420386 0.494133 0.298421
0.434943 0.498283 0.307256
0.449348 0.50248 0.315953
0.463752 0.506523 0.324331
0.478264 0.510796 0.332631
0.492943 0.514946 0.340551
0.507576 0.519066 0.347784
0.522789 0.523278 0.355016
0.538277 0.527245 0.362142
0.552987 0.531456 0.368063
0.567391 0.536187 0.372671
0.581491 0.540948 0.375402
0.59173 0.547097 0.374792
0.597421 0.555215 0.371191
0.599847 0.564111 0.365805
0.603189 0.572686 0.360708
0.609934 0.580682 0.355489
0.62002 0.58735 0.350103
0.633967 0.593149 0.345785
0.650462 0.597696 0.343008
0.6692 0.601328 0.342748
0.688136 0.604822 0.343587
0.706706 0.608591 0.346059
0.724681 0.612161 0.348852
0.742519 0.616037 0.352377
0.760479 0.619425 0.356939
0.778424 0.622766 0.36202
0.797284 0.626062 0.368566
0.816663 0.628794 0.375677
0.837842 0.630823 0.384604
0.860761 0.632471 0.395834
0.884733 0.633295 0.40882
0.90898 0.633967 0.42356
0.442496 0.517372 0.31252
0.456886 0.521401 0.321218
0.471046 0.525505 0.329793
0.485634 0.529686 0.338506
0.500069 0.533898 0.346792
0.514763 0.538125 0.354742
0.529549 0.542336 0.362203
0.544411 0.546426 0.369146
0.560082 0.550256 0.376226
0.575601 0.554513 0.382956
0.589944 0.558923 0.388006
0.604837 0.563546 0.391836
0.616754 0.569131 0.392752
0.62446 0.576181 0.390494
0.62858 0.584787 0.38584
0.630854 0.593774 0.380758
0.635065 0.602075 0.37612
0.642527 0.609796 0.371191
0.652949 0.616327 0.366262
0.666514 0.62182 0.362478
0.682658 0.626703 0.360769
0.699168 0.630976 0.360754
0.715541 0.635218 0.36144
0.732158 0.639612 0.363317
0.748196 0.643824 0.365164
0.765133 0.647669 0.368124
0.78265 0.651591 0.372213
0.801404 0.654688 0.377325
0.820905 0.657526 0.383368
0.842496 0.659831 0.391241
0.864347 0.661692 0.400015
0.887709 0.662928 0.410803
0.91194 0.664027 0.423758
0.464088 0.540413 0.326543
0.478538 0.544533 0.335286
0.493004 0.548806 0.343816
0.5075 0.552819 0.352392
0.522072 0.557076 0.360723
0.536645 0.561288 0.368597
0.551278 0.565362 0.376104
0.566186 0.569589 0.383215
0.581994 0.573541 0.390417
0.597635 0.577386 0.397436
0.612818 0.581765 0.40322
0.627558 0.586191 0.407553
0.640772 0.591196 0.409735
0.650904 0.597604 0.409201
0.656428 0.605524 0.405737
0.659159 0.614282 0.400687
0.661906 0.623346 0.396155
0.666636 0.631495 0.391562
0.674434 0.638727 0.386877
0.685145 0.645365 0.383001
0.6972 0.65124 0.380301
0.710857 0.656825 0.378851
0.725292 0.661692 0.378805
0.740017 0.666438 0.379126
0.755047 0.671046 0.380026
0.771145 0.675624 0.381918
0.78822 0.679454 0.384543
0.806424 0.683192 0.388449
0.826612 0.685878 0.393561
0.847318 0.688319 0.399634
0.869581 0.690501 0.407492
0.891814 0.692271 0.416083
0.915175 0.693599 0.426383
0.48571 0.563546 0.340368
0.500328 0.567788 0.349233
0.514626 0.571862 0.357763
0.529244 0.576181 0.366461
0.543755 0.580209 0.374746
0.558236 0.584314 0.382559
0.573053 0.588464 0.390173
0.588037 0.592706 0.39736
0.603723 0.59675 0.404639
0.619806 0.600565 0.41178
0.635248 0.604547 0.418051
0.649485 0.609033 0.422522
0.664103 0.61384 0.426215
0.675807 0.61941 0.42707
0.683543 0.626719 0.425315
0.687175 0.635187 0.420813
0.689342 0.644083 0.415976
0.692119 0.652934 0.412024
0.697047 0.661128 0.407736
0.704356 0.668452 0.403693
0.713924 0.675364 0.400809
0.724269 0.681636 0.398581
0.73611 0.687419 0.397147
0.74966 0.692836 0.397055
0.763546 0.697993 0.396826
0.778897 0.702571 0.397681
0.795514 0.70695 0.399329
0.813352 0.710613 0.401587
0.832837 0.713649 0.405447
0.853391 0.716609 0.410346
0.874922 0.718837 0.416632
0.897108 0.720836 0.423957
0.919738 0.722759 0.432792
0.507485 0.586816 0.354467
