site/assets/luts/freshluts--0000419-lut003.cube
# LUTr-Schema-Version: 2
# LUTr-ID: freshluts--0000419-lut003
# LUTr-Title: LUT003
# LUTr-Collection: Fresh LUTs
# LUTr-Collection-ID: freshluts-community
# LUTr-Source: https://freshluts.com
# LUTr-Retrieved: 2026-07-27
# LUTr-Source-File: submissions-raw/freshluts/cubes/419__LUT003.cube
# LUTr-Source-Format: CUBE
# LUTr-Source-SHA256: 1bd5ffac5ea7dbb13af776137451f317e878e04aa2fff92066cfaa1fe56747ab
# LUTr-License: CC0-1.0
# LUTr-License-URL: https://freshluts.com/termsandconditions
# LUTr-License-Basis: site-terms
# LUTr-Transform-Class: creative-look
# LUTr-Tags: creative, freshluts, community, cube, bmd-film
# LUTr-Input-Color-Space:
# LUTr-Input-Gamut: bmd-film-gamut
# LUTr-Input-Transfer: bmd-film
# LUTr-Output-Color-Space: srgb
# LUTr-Output-Gamut: rec709
# LUTr-Output-Transfer: srgb
# LUTr-Color-Space-Confidence: camera-profile-input-required
# LUTr-Domain-Normalized: true
# LUTr-Shaper: none
# LUTr-Original-Grid: 33x33x33
# LUTr-Conversion-Grid: 33x33x33
# LUTr-Conversion-Interpolation: none
# LUTr-Conversion-Method: Metadata normalization; numeric LUT samples preserved
# LUTr-Conversion-Tool: LUTr scripts/convert-all-to-cube.mjs 2.0.0
# LUTr-Conversion-Date: 2026-07-28
# LUTr-Asset-URL: https://freshluts.com/luts/419
# LUTr-Author: Revirssab
# LUTr-Author-URL: https://freshluts.com/users/9194
# LUTr-Attribution: Revirssab via Fresh LUTs
# LUTr-Source-Labels: gamma=Blackmagic BMD Film; color=None; key=Neutral; style=Adventure
# LUTr-Note: Preserve this metadata and the upstream license notices when redistributing.
TITLE "LUT003"
LUT_3D_SIZE 33
DOMAIN_MIN 0 0 0
DOMAIN_MAX 1 1 1
0.000976577 0.000259403 0
0.0295872 0 0
0.104707 0 0
0.180545 0 0
0.24744 0 0
0.321782 0 0
0.42417 0 0
0.51725 0 0
0.593668 0 0
0.652598 0 0
0.719722 0 0
0.789792 0 0
0.872847 0 0
0.959533 0 0
0.998184 0 0
1 0 0
1 0 0
1 0 0
1 0 0
1 0 0
1 0 0
1 0 0
1 0 0
1 0 0
1 0 0
1 0 0
1 0 0
1 0 0
1 0 0
1 0 0
1 0 0
1 0 0
1 0 0
0 0.00724804 0
0.00686656 0.00181582 0
0.0656291 0 0
0.141451 0 0
0.209216 0 0
0.282445 0 0
0.386572 0 0
0.482658 0 0
0.565286 0 0
0.625742 0 0
0.693217 0 0
0.766049 0 0
0.850843 0 0
0.938659 0 0
0.990524 0 0
1 0 0
1 0 0
1 0 0
1 0 0
1 0 0
1 0 0
1 0 0
1 0 0
1 0 0
1 0 0
1 0 0
1 0 0
1 0 0
1 0 0
1 0 0
1 0 0
1 0 0
1 0 0
0 0.0539254 0
0 0.0450141 0
0.0371405 0.0372778 0
0.103349 0.0320287 0
0.170321 0.0276951 0
0.24361 0.0230564 0
0.34406 0.0181888 0
0.441367 0.013901 0
0.529595 0.0101625 0
0.590768 0.00779736 0
0.657679 0.00543221 0
0.731411 0.00325017 0
0.816815 0.0012665 0
0.904967 0.000183108 0
0.971893 0 0
1 0 0
1 0 0
1 0 0
1 0 0
1 0 0
1 0 0
1 0 0
1 0 0
1 0 0
1 0 0
1 0 0
1 0 0
1 0 0
1 0 0
1 0 0
1 0 0
1 0 0
1 0 0
0 0.113512 0
0 0.105379 0
0.0200961 0.0951858 0
0.0696574 0.086183 0
0.136217 0.0787518 0
0.209323 0.0703441 0
0.305943 0.0596933 0
0.403479 0.0489357 0
0.496437 0.0383612 0
0.558068 0.0308385 0
0.625483 0.0228122 0
0.699733 0.0154421 0
0.785885 0.00730907 0
0.875059 0.00131228 0
0.952132 0 0
1 0 0
1 0 0
1 0 0
1 0 0
1 0 0
1 0 0
1 0 0
1 0 0
1 0 0
1 0 0
1 0 0
1 0 0
1 0 0
1 0 0
1 0 0
1 0 0
1 0 0
1 0 0
0 0.162005 0
0 0.155062 0
0.00906386 0.144274 0
0.0402686 0.135256 0
0.10695 0.12752 0
0.17969 0.119051 0
0.272755 0.108446 0
0.37113 0.0973526 0
0.467552 0.0859846 0
0.531029 0.0782788 0
0.598581 0.0699931 0
0.673136 0.0611276 0
0.759686 0.0506905 0
0.849165 0.0405432 0
0.932189 0.0325475 0
0.999588 0.0261845 0
0.999985 0.0199283 0
1 0.0142672 0
1 0.00901808 0
1 0.00422675 0
1 0.00247196 0
1 0.00230411 0
1 0.002121 0
1 0.00195315 0
1 0.00175479 0
1 0.00158694 0
1 0.00140383 0
1 0.00123598 0
1 0.00105287 0
1 0.000854505 0
1 0.000686656 0
1 0.000503548 0
1 0.00030518 0
0 0.215946 0
0 0.209888 0
0.00157168 0.198459 0
0.00950637 0.188754 0
0.0746319 0.180713 0
0.146822 0.172 0
0.236408 0.161654 0
0.335241 0.15021 0
0.432456 0.138506 0
0.50103 0.130007 0
0.568917 0.121416 0
0.644129 0.1122 0
0.731701 0.101518 0
0.821988 0.0901656 0
0.906584 0.0796521 0
0.988693 0.0692302 0
0.998901 0.0587015 0
1 0.0480507 0
1 0.0372168 0
1 0.026215 0
1 0.0199435 0
1 0.0178225 0
1 0.0156863 0
1 0.0133059 0
1 0.0111849 0
1 0.00906386 0
1 0.00694286 0
1 0.00555428 0
1 0.00537118 0
1 0.00517281 0
1 0.00500496 0
1 0.00482185 0
1 0.004654 0
0 0.285466 0
0 0.279179 0
0 0.266514 0
0 0.255192 0
0.0405432 0.246143 0
0.107103 0.236301 0
0.194308 0.225315 0
0.293904 0.212543 0
0.392767 0.200061 0
0.466529 0.190204 0
0.53492 0.180621 0
0.611597 0.170336 0
0.700359 0.158358 0
0.791806 0.145724 0
0.87744 0.134112 0
0.960586 0.122591 0
0.994278 0.111254 0
1 0.0994888 0
1 0.0875715 0
1 0.0762646 0
1 0.0695201 0
1 0.0673991 0
1 0.0652781 0
1 0.0631571 0
1 0.0610361 0
1 0.0589151 0
1 0.0567941 0
1 0.0546731 0
1 0.0522927 0
1 0.0501717 0
1 0.0480507 0
1 0.0459297 0
1 0.0438087 0
0 0.357839 0
0 0.352483 0
0 0.339132 0
0 0.327398 0
0.0130159 0.31783 0
0.0632334 0.307759 0
0.146715 0.29691 0
0.247684 0.284367 0
0.34699 0.271687 0
0.42562 0.261295 0
0.494713 0.251652 0
0.572061 0.24126 0
0.661433 0.229282 0
0.753338 0.21648 0
0.839429 0.204715 0
0.922713 0.193194 0
0.983551 0.181476 0
1 0.170108 0
1 0.158389 0
1 0.146502 0
1 0.137667 0
1 0.134432 0
1 0.131212 0
1 0.127977 0
1 0.124743 0
1 0.121523 0
1 0.118288 0
1 0.115068 0
1 0.111833 0
1 0.108614 0
1 0.105379 0
1 0.102159 0
1 0.0989242 0
0 0.428351 0
0 0.424079 0
0 0.410483 0
0 0.398901 0
0.00328069 0.388983 0
0.0314183 0.378912 0
0.0961929 0.367956 0
0.198337 0.355169 0
0.298741 0.342473 0
0.382696 0.331502 0
0.451713 0.322133 0
0.52987 0.311116 0
0.619944 0.298817 0
0.71223 0.286213 0
0.799008 0.274189 0
0.882673 0.262531 0
0.958831 0.251072 0
0.994461 0.239231 0
1 0.227451 0
1 0.215564 0
1 0.205997 0
1 0.202747 0
1 0.199908 0
1 0.196674 0
1 0.193423 0
1 0.190173 0
1 0.186938 0
1 0.183688 0
1 0.180453 0
1 0.177203 0
1 0.173983 0
1 0.170748 0
1 0.167514 0
0 0.480797 0
0 0.478737 0
0 0.465736 0
0 0.454597 0
0 0.444678 0
0.0115816 0.436133 0
0.0521706 0.42649 0
0.154833 0.414511 0
0.255451 0.40267 0
0.343328 0.392157 0
0.412482 0.383566 0
0.490288 0.373892 0
0.580118 0.3626 0
0.672297 0.350774 0
0.758556 0.339849 0
0.841627 0.329488 0
0.925246 0.318715 0
0.981765 0.307988 0
1 0.297276 0
1 0.286061 0
1 0.275715 0
1 0.27248 0
1 0.26923 0
1 0.265995 0
1 0.262745 0
1 0.25951 0
1 0.25626 0
1 0.253025 0
1 0.249775 0
1 0.246525 0
1 0.24329 0
1 0.24004 0
1 0.236805 0
0 0.530327 0
0 0.528939 0
0 0.515984 0
0 0.504219 0
0 0.494316 0
0.00233463 0.485054 0
0.0136568 0.475776 0
0.115572 0.463722 0
0.216953 0.451728 0
0.309575 0.440604 0
0.378836 0.431891 0
0.45684 0.422095 0
0.546731 0.410788 0
0.639048 0.398825 0
0.725353 0.387854 0
0.808408 0.377386 0
0.891936 0.366567 0
0.963134 0.355749 0
1 0.345205 0
1 0.334356 0
1 0.324529 0
1 0.322469 0
1 0.320394 0
1 0.318334 0
1 0.316518 0
1 0.314458 0
1 0.312383 0
1 0.310307 0
1 0.308248 0
1 0.306172 0
1 0.304112 0
1 0.302037 0
1 0.299977 0
0 0.58558 0
0 0.584466 0
0 0.572625 0
0 0.559899 0
0 0.54963 0
0.000198367 0.540276 0
0.0016022 0.5308 0
0.0792248 0.518822 0
0.172778 0.506935 0
0.27071 0.495186 0
0.340673 0.486122 0
0.418296 0.476173 0
0.508461 0.464622 0
0.601099 0.452781 0
0.687251 0.441642 0
0.77084 0.430762 0
0.854215 0.420127 0
0.934524 0.409216 0
0.993378 0.398032 0
1 0.387366 0
1 0.376577 0
1 0.374716 0
1 0.37258 0
1 0.370443 0
1 0.368322 0
1 0.366186 0
1 0.364065 0
1 0.361929 0
1 0.359808 0
1 0.357671 0
1 0.35555 0
1 0.353414 0
1 0.351293 0
0 0.649104 0
0 0.64799 0
0 0.637476 0
0 0.624384 0
0 0.613138 0
0 0.603876 0
0 0.594369 0
0.0458991 0.582574 0
0.122103 0.570214 0
0.225834 0.557977 0
0.295979 0.548669 0
0.373388 0.538674 0
0.463752 0.526986 0
0.556497 0.515053 0
0.643091 0.503838 0
0.72636 0.492958 0
0.809674 0.482292 0
0.893065 0.471305 0
0.970947 0.460365 0
0.999939 0.449714 0
1 0.438773 0
1 0.43566 0
1 0.433524 0
1 0.431403 0
1 0.429267 0
1 0.427146 0
1 0.42501 0
1 0.422873 0
1 0.420752 0
1 0.418616 0
1 0.416495 0
1 0.414359 0
1 0.412238 0
0 0.714366 0
0 0.712978 0
0 0.704189 0
0 0.690303 0
0 0.67834 0
0 0.668879 0
0 0.65919 0
0.0203861 0.647471 0
0.0697337 0.635203 0
0.174228 0.622751 0
0.249821 0.612772 0
0.327153 0.602396 0
0.417426 0.59089 0
0.510307 0.578897 0
0.596918 0.567636 0
0.680003 0.55697 0
0.763455 0.546014 0
0.847105 0.534874 0
0.930175 0.524239 0
0.991318 0.513298 0
0.999741 0.502342 0
1 0.498192 0
1 0.49633 0
1 0.494209 0
1 0.492073 0
1 0.489952 0
1 0.487816 0
1 0.485695 0
1 0.483558 0
1 0.481437 0
1 0.479301 0
1 0.47718 0
1 0.475044 0
0 0.774807 0
0 0.773449 0
0 0.76611 0
0 0.751644 0
0 0.739086 0
0 0.729152 0
0 0.719356 0
0.00535592 0.708492 0
0.0252384 0.695796 0
0.126558 0.682933 0
0.206638 0.672572 0
0.283696 0.662409 0
0.374166 0.650584 0
0.467063 0.638544 0
0.553704 0.627207 0
0.636835 0.616175 0
0.720134 0.605524 0
0.803784 0.594369 0
0.886671 0.583734 0
0.969863 0.572793 0
0.996994 0.561868 0
1 0.556725 0
1 0.554879 0
1 0.552758 0
1 0.550622 0
1 0.548501 0
1 0.546639 0
1 0.544503 0
1 0.542382 0
1 0.540246 0
1 0.538125 0
1 0.535988 0
1 0.533867 0
0 0.832242 0
0 0.830884 0
0 0.825071 0
0 0.809995 0
0 0.797284 0
0 0.787228 0
0 0.777356 0
0 0.766567 0
0 0.753735 0
0.0851453 0.741009 0
0.165103 0.729976 0
0.242023 0.719753 0
0.332631 0.707927 0
0.425513 0.695796 0
0.512032 0.684382 0
0.595148 0.673335 0
0.67863 0.662654 0
0.761913 0.65156 0
0.845014 0.640864 0
0.92755 0.629969 0
0.982391 0.619043 0
1 0.613214 0
1 0.611093 0
1 0.608972 0
1 0.606851 0
1 0.60499 0
1 0.602869 0
1 0.600748 0
1 0.598627 0
1 0.596506 0
1 0.594385 0
1 0.592264 0
1 0.590143 0
0 0.889464 0
0 0.888121 0
0 0.883955 0
0 0.868345 0
0 0.855406 0
0 0.844923 0
0 0.835081 0
0 0.824628 0
0 0.811933 0
0.0534371 0.798856 0
0.123476 0.787182 0
0.200504 0.776928 0
0.291112 0.765087 0
0.384161 0.752804 0
0.470527 0.741375 0
0.553521 0.730571 0
0.636805 0.719478 0
0.719951 0.708614 0
0.802899 0.697643 0
0.885084 0.687022 0
0.961151 0.676097 0
1 0.669078 0
1 0.667231 0
1 0.665125 0
1 0.66302 0
1 0.660914 0
1 0.659068 0
1 0.656962 0
1 0.654856 0
1 0.65275 0
1 0.650645 0
1 0.648539 0
1 0.646433 0
0 0.94548 0
0 0.944518 0
0 0.941939 0
0 0.926863 0
0 0.913664 0
0 0.902663 0
0 0.892821 0
0 0.882643 0
0 0.869551 0
0.0287327 0.856596 0
0.0828107 0.844236 0
0.159579 0.833967 0
0.250187 0.821958 0
0.343114 0.809644 0
0.429633 0.798062 0
0.512428 0.787274 0
0.595422 0.776043 0
0.67837 0.76527 0
0.760678 0.754284 0
0.842817 0.743587 0
0.924254 0.732692 0
0.978271 0.724727 0
0.979294 0.722911 0
0.980484 0.720821 0
0.981659 0.718746 0
0.982696 0.716915 0
0.983886 0.714839 0
0.985061 0.712749 0
0.986252 0.710658 0
0.987427 0.708583 0
0.988464 0.706752 0
0.989654 0.704677 0
0.990829 0.702586 0
0 0.997086 0
0 0.99588 0
0 0.994675 0
0 0.983749 0
0 0.971099 0
0 0.959609 0
0 0.949737 0
0 0.940169 0
0 0.927016 0
0.0108186 0.913878 0
0.0431678 0.900649 0
0.119173 0.890562 0
0.210269 0.87834 0
0.302785 0.865934 0
0.389166 0.854322 0
0.47216 0.843381 0
0.554925 0.83212 0
0.637583 0.821286 0
0.719524 0.810285 0
0.80116 0.799542 0
0.882551 0.788678 0
0.945525 0.780056 0
0.946792 0.777996 0
0.948058 0.775952 0
0.949157 0.774151 0
0.950439 0.772107 0
0.951705 0.770047 0
0.952972 0.768002 0
0.95407 0.766201 0
0.955337 0.764141 0
0.956603 0.762097 0
0.95787 0.760037 0
0.959136 0.757992 0
0 1 0
0 1 0
0 1 0
0 0.997803 0
0 0.99443 0
0 0.990646 0
0 0.987121 0
0 0.983352 0
0 0.977981 0
0.00218204 0.969512 0
0.013489 0.956725 0
0.0815442 0.946258 0
0.171298 0.933944 0
0.264164 0.921447 0
0.350362 0.909758 0
0.433143 0.89868 0
0.515511 0.887678 0
0.597925 0.876478 0
0.679286 0.86569 0
0.76054 0.854719 0
0.841291 0.8439 0
0.912154 0.834363 0
0.913375 0.832349 0
0.914443 0.830594 0
0.915663 0.82858 0
0.916884 0.826581 0
0.917952 0.824826 0
0.919173 0.822812 0
0.920394 0.820813 0
0.921614 0.818799 0
0.922881 0.816754 0
0.92398 0.814954 0
0.925261 0.812909 0
0 1 0
0 1 0
0 1 0
0 1 0
0 1 0
0 1 0
0 1 0
0 1 0
0 1 0
0 0.998398 0
0 0.99176 0
0.0496376 0.985763 0
0.134463 0.978225 0
0.227298 0.969894 0
0.313191 0.961715 0
0.395483 0.952361 0
0.478004 0.941665 0
0.559426 0.930724 0
0.64062 0.91986 0
0.721218 0.909163 0
0.801221 0.89839 0
0.87982 0.887709 0
0.880827 0.885985 0
0.881971 0.884016 0
0.882994 0.882277 0
0.884215 0.880262 0
0.885435 0.878264 0
0.886656 0.876249 0
0.887724 0.874495 0
0.888945 0.872496 0
0.890166 0.870481 0
0.891386 0.868482 0
0.892454 0.866728 0
0 1 0
0 1 0
0 1 0
0 1 0
0 1 0
0 1 0
0 1 0
0 1 0
0 1 0
0 1 0
0 1 0
0.0295262 1 0
0.104311 1 0
0.19617 1 0
0.281529 1 0
0.362631 0.997925 0
0.443519 0.991669 0
0.524025 0.98233 0
0.603647 0.973297 0
0.683742 0.962325 0
0.762951 0.951797 0
0.841489 0.941222 0
0.85034 0.938399 0
0.851347 0.936675 0
0.852491 0.934707 0
0.853498 0.932982 0
0.854643 0.931014 0
0.855787 0.929046 0
0.856779 0.927321 0
0.857923 0.925353 0
0.859068 0.923384 0
0.860212 0.921416 0
0.861357 0.919448 0
0 1 0
0 1 0
0 1 0
0 1 0
0 1 0
0 1 0
0 1 0
0 1 0
0 1 0
0 1 0
0 1 0
0.025452 1 0
0.0952621 1 0
0.187167 1 0
0.272267 1 0
0.353811 0.998337 0
0.434775 0.992691 0
0.515389 0.983322 0
0.594736 0.974319 0
0.673838 0.965286 0
0.752407 0.956436 0
0.829831 0.947814 0
0.845914 0.946029 0
0.845914 0.946029 0
0.845914 0.946029 0
0.845914 0.946029 0
0.845914 0.946029 0
0.845914 0.946029 0
0.845914 0.946029 0
0.845914 0.946029 0
0.845914 0.946029 0
0.845914 0.946029 0
0.845914 0.946029 0
0 1 0
0 1 0
0 1 0
0 1 0
0 1 0
0 1 0
0 1 0
0 1 0
0 1 0
0 1 0
0 1 0
0.02121 1 0
0.0858625 1 0
0.17818 1 0
0.263371 1 0
0.344991 0.998734 0
0.426017 0.993713 0
0.506752 0.984298 0
0.586175 0.975296 0
0.665278 0.966262 0
0.743938 0.957382 0
0.821469 0.948745 0
0.845914 0.946029 0
0.845914 0.946029 0
0.845914 0.946029 0
0.845914 0.946029 0
0.845914 0.946029 0
0.845914 0.946029 0
0.845914 0.946029 0
0.845914 0.946029 0
0.845914 0.946029 0
0.845914 0.946029 0
0.845914 0.946029 0
0 1 0
0 1 0
0 1 0
0 1 0
0 1 0
0 1 0
0 1 0
0 1 0
0 1 0
0 1 0
0 1 0
0.0171206 1 0
0.0768292 1 0
0.168841 1 0
0.25449 1 0
0.335821 0.999161 0
0.417273 0.994736 0
0.49778 0.985306 0
0.577554 0.976272 0
0.656718 0.967239 0
0.735134 0.958373 0
0.813092 0.949676 0
0.845914 0.946029 0
0.845914 0.946029 0
0.845914 0.946029 0
0.845914 0.946029 0
0.845914 0.946029 0
0.845914 0.946029 0
0.845914 0.946029 0
0.845914 0.946029 0
0.845914 0.946029 0
0.845914 0.946029 0
0.845914 0.946029 0
0 1 0
0 1 0
0 1 0
0 1 0
0 1 0
0 1 0
0 1 0
0 1 0
0 1 0
0 1 0
0 1 0
0.0128939 1 0
0.0674296 1 0
0.159487 1 0
0.245228 1 0
0.326986 0.999557 0
0.408164 0.995804 0
0.489036 0.986328 0
0.568917 0.977249 0
0.648157 0.968215 0
0.726665 0.959335 0
0.804395 0.950652 0
0.845914 0.946029 0
0.845914 0.946029 0
0.845914 0.946029 0
0.845914 0.946029 0
0.845914 0.946029 0
0.845914 0.946029 0
0.845914 0.946029 0
0.845914 0.946029 0
0.845914 0.946029 0
0.845914 0.946029 0
0.845914 0.946029 0
0 1 0
0 1 0
0 1 0
0 1 0
0 1 0
0 1 0
0 1 0
0 1 0
0 1 0
0 1 0
0 1 0
0.00880446 1 0
0.0583963 1 0
0.1505 1 0
0.236332 1 0
0.317815 0.999985 0
0.399344 0.996231 0
0.479927 0.987396 0
0.559945 0.978271 0
0.639261 0.969238 0
0.718212 0.960281 0
0.796017 0.951568 0
0.845914 0.946029 0
0.845914 0.946029 0
0.845914 0.946029 0
0.845914 0.946029 0
0.845914 0.946029 0
0.845914 0.946029 0
0.845914 0.946029 0
0.845914 0.946029 0
0.845914 0.946029 0
0.845914 0.946029 0
0.845914 0.946029 0
0 1 0
0 1 0
0 1 0
0 1 0
0 1 0
0 1 0
0 1 0
0 1 0
0 1 0
