site/assets/luts/freshluts--0001219-lut-1-favorito.cube
# LUTr-Schema-Version: 2
# LUTr-ID: freshluts--0001219-lut-1-favorito
# LUTr-Title: Lut 1 Favorito
# LUTr-Collection: Fresh LUTs
# LUTr-Collection-ID: freshluts-community
# LUTr-Source: https://freshluts.com
# LUTr-Retrieved: 2026-07-27
# LUTr-Source-File: submissions-raw/freshluts/cubes/1219__Favoritord1.cube
# LUTr-Source-Format: CUBE
# LUTr-Source-SHA256: 3a23f7902754e55599e9718f6560673595da94728f8791041cdbeafa96501c4a
# LUTr-License: CC0-1.0
# LUTr-License-URL: https://freshluts.com/termsandconditions
# LUTr-License-Basis: site-terms
# LUTr-Transform-Class: creative-look
# LUTr-Tags: creative, freshluts, community, cube, orange, sony-s-log2
# LUTr-Input-Color-Space:
# LUTr-Input-Gamut: sony-s-gamut
# LUTr-Input-Transfer: sony-s-log2
# LUTr-Output-Color-Space: srgb
# LUTr-Output-Gamut: rec709
# LUTr-Output-Transfer: srgb
# LUTr-Color-Space-Confidence: camera-profile-input-required
# LUTr-Domain-Normalized: true
# LUTr-Shaper: none
# LUTr-Original-Grid: 33x33x33
# LUTr-Conversion-Grid: 33x33x33
# LUTr-Conversion-Interpolation: none
# LUTr-Conversion-Method: Metadata normalization; numeric LUT samples preserved
# LUTr-Conversion-Tool: LUTr scripts/convert-all-to-cube.mjs 2.0.0
# LUTr-Conversion-Date: 2026-07-28
# LUTr-Asset-URL: https://freshluts.com/luts/1219
# LUTr-Author: Antony Eliezer
# LUTr-Author-URL: https://freshluts.com/users/32961
# LUTr-Attribution: Antony Eliezer via Fresh LUTs
# LUTr-Source-Labels: gamma=Sony S-Log 2; color=Orange; key=Neutral; style=Colorful
# LUTr-Note: Preserve this metadata and the upstream license notices when redistributing.
# LUTr-Upstream-Comment: VEGAS Pro LUT
TITLE "Lut 1 Favorito"
LUT_3D_SIZE 9
DOMAIN_MIN 0 0 0
DOMAIN_MAX 1 1 1
0 0 0.02607617
0.14161684 0 0.00958606
0.41802901 0 0
0.73010683 0 0
1 0 0
1 0 0
1 0 0
1 0 0
1 0 0
0 0.10882729 0
0.07487892 0.07487892 0
0.29291674 0.05551564 0
0.55641824 0.04200665 0
0.8411026 0.03291224 0
1 0.02607617 0
1 0.02010404 0
1 0.01568627 0
1 0.01220043 0
0 0.30515936 0
0.04200665 0.24302945 0
0.21827354 0.2047814 0
0.4480412 0.17614479 0
0.69718486 0.15550074 0
0.97637314 0.13892555 0
1 0.12337175 0
1 0.1111818 0
1 0.09968551 0
0 0.52254856 0
0.02399052 0.44295958 0
0.16712405 0.38445553 0
0.36596265 0.34354958 0
0.5914613 0.31347457 0
0.83391172 0.28490788 0
1 0.26541832 0
1 0.24668565 0
1 0.22870415 0
0 0.7502616 0
0.01220043 0.64624178 0
0.1284436 0.57379252 0
0.30104789 0.52254856 0
0.50061709 0.4845072 0
0.71683782 0.4480412 0
0.95305651 0.41802901 0
1 0.39389029 0
1 0.37053895 0
0 0.97637314 0
0.00174292 0.85558599 0
0.09527954 0.77071881 0
0.24668565 0.71683782 0
0.41802901 0.66509646 0
0.61547893 0.62768507 0
0.82675499 0.5914613 0
1 0.55641824 0
1 0.53370845 0
0 1 0
0 1 0
0.0674692 0.98421425 0
0.19497214 0.91488343 0
0.34796983 0.86287868 0
0.52811223 0.81254297 0
0.72345549 0.77071881 0
0.93004972 0.73679155 0
1 0.70370251 0
0 1 0
0 1 0
0.04628017 1 0
0.15266678 1 0
0.29291674 1 0
0.45315456 1 0
0.63383758 0.96079439 0
0.82675499 0.91488343 0
1 0.88496149 0
0 1 0
0 1 0
0.03053626 1 0
0.11841205 1 0
0.24302945 1 0
0.38915727 1 0
0.56217694 1 0
0.74350995 1 0
0.93768424 1 0
0 0 0.28889698
0.12589362 0 0.21827354
0.38915727 0 0.16417497
0.69070071 0 0.1284436
1 0 0.09968551
1 0 0.07874354
1 0 0.0588004
1 0 0.04483035
1 0 0.03291224
0 0.09527954 0.14986145
0.06568293 0.06568293 0.08887538
0.27312306 0.04628017 0.04925614
0.52811223 0.03413703 0.02825782
0.80548769 0.02607617 0.01481481
1 0.02010404 0.00522876
1 0.01481481 0
1 0.01045752 0
1 0.00697168 0
0 0.28094912 0.0621893
0.03538647 0.22519752 0.02298345
0.20148224 0.18542707 0.00348584
0.41802901 0.15836339 0
0.66509646 0.13892555 0
0.92244929 0.12337175 0
1 0.10882729 0
1 0.09746885 0
1 0.086795 0
0 0.48984504 0.02010404
0.01919115 0.40827879 0
0.14986145 0.35690385 0
0.33916023 0.31767839 0
0.5506919 0.28889698 0
0.78452516 0.26161149 0
1 0.24302945 0
1 0.22172067 0
1 0.2047814 0
0 0.70370251 0
0.00697168 0.60942513 0
0.1111818 0.5393371 0
0.27312306 0.48984504 0
0.45830005 0.4480412 0
0.66509646 0.41802901 0
0.89239067 0.38915727 0
1 0.36596265 0
1 0.34354958 0
0 0.93004972 0
0 0.81254297 0
0.08071603 0.73010683 0
0.21827354 0.67144763 0
0.37978536 0.62768507 0
0.56796855 0.58553892 0
0.77071881 0.5506919 0
0.98421425 0.52254856 0
1 0.49521488 0
0 1 0
0 1 0
0.05551564 0.93768424 0
0.170102 0.87020558 0
0.31347457 0.81254297 0
0.4845072 0.77071881 0
0.67144763 0.73010683 0
0.87020558 0.69718486 0
1 0.66509646 0
0 1 0
0 1 0
0.03538647 1 0
0.13102171 1 0
0.25783476 1 0
0.413138 0.96079439 0
0.58553892 0.91488343 0
0.77071881 0.87020558 0
0.97637314 0.83391172 0
0 1 0
0 1 0
0.02104032 1 0
0.09968551 1 0
0.21146829 1 0
0.35242134 1 0
0.51151818 1 0
0.69070071 1 0
0.87756634 1 0
0 0 0.70370251
0.11597411 0 0.57964945
0.37053895 0 0.4845072
0.66509646 0 0.413138
0.97637314 0 0.35690385
1 0 0.30515936
1 0 0.26541832
1 0 0.23224068
1 0 0.19821247
0 0.086795 0.45315456
0.0588004 0.05714504 0.3304747
0.25783476 0.03928365 0.24302945
0.50605142 0.0293849 0.18542707
0.777605 0.02200009 0.14708473
1 0.01655773 0.11841205
1 0.01132898 0.09527954
1 0.00697168 0.07874354
1 0.00261438 0.06392299
0 0.26541832 0.27312306
0.03053626 0.20811008 0.170102
0.18542707 0.170102 0.1111818
0.39865497 0.14708473 0.08071603
0.63383758 0.1284436 0.06048179
0.88496149 0.1111818 0.04775541
1 0.09746885 0.0379597
1 0.086795 0.03171201
1 0.07679787 0.02607617
0 0.46868676 0.16417497
0.01568627 0.38915727 0.09098288
0.13892555 0.33480203 0.05714504
0.31767839 0.29696694 0.04063261
0.52254856 0.26925555 0.03171201
0.74350995 0.24668565 0.02502139
0.98421425 0.22519752 0.02104032
1 0.20811008 0.01830154
1 0.19176117 0.01568627
0 0.67783219 0.09968551
0.00261438 0.57964945 0.05233442
0.09968551 0.51151818 0.03291224
0.25408825 0.46347731 0.02502139
0.42790604 0.42790604 0.01919115
0.62768507 0.39389029 0.01655773
0.84832716 0.37053895 0.01394336
1 0.34354958 0.01132898
1 0.32191294 0.00958606
0 0.89985412 0.06048179
0 0.78452516 0.03291224
0.06928186 0.70370251 0.02200009
0.19821247 0.64002323 0.01655773
0.35242134 0.5974164 0.01394336
0.53370845 0.56217694 0.01132898
0.73010683 0.52811223 0.0087146
0.93768424 0.50061709 0.00697168
1 0.46868676 0.00522876
0 1 0.03928365
0 0.99208999 0.02200009
0.04628017 0.89985412 0.01568627
0.15266678 0.83391172 0.01220043
0.28889698 0.78452516 0.00958606
0.4480412 0.73679155 0.00697168
0.62768507 0.69718486 0.0043573
0.82675499 0.66509646 0.00261438
1 0.63383758 0
0 1 0.02715495
0 1 0.01655773
0.02825782 1 0.01132898
0.11597411 1 0.00784314
0.235807 0.96856642 0.00522876
0.38445553 0.92244929 0.00261438
0.5506919 0.87756634 0
0.73010683 0.8411026 0
0.93004972 0.7984665 0
0 1 0.02010404
0 1 0.01220043
0.01568627 1 0.00784314
0.086795 1 0.0043573
0.19176117 1 0.00087146
0.32617843 1 0
0.4792017 1 0
0.6524936 1 0
0.8411026 0.98421425 0
0 0 1
0.10882729 0 0.96856642
0.35690385 0 0.83391172
0.64624178 0 0.73679155
0.95305651 0 0.65877837
1 0 0.58553892
1 0 0.52811223
1 0 0.47392815
1 0 0.42790604
0 0.07874354 0.7984665
0.05391212 0.05233442 0.6215654
0.24668565 0.03538647 0.48984504
0.48984504 0.02607617 0.40827879
0.75704712 0.01830154 0.34796983
1 0.01307189 0.30104789
1 0.0087146 0.26161149
1 0.00348584 0.23224068
1 0 0.21146829
0 0.2503719 0.5393371
0.02715495 0.19821247 0.38445553
0.17614479 0.16125478 0.29291674
0.38445553 0.13626264 0.23940325
0.60942513 0.11841205 0.20148224
0.86287868 0.10420125 0.17920975
1 0.09098288 0.15836339
1 0.08071603 0.14708473
1 0.07112098 0.13626264
0 0.4480412 0.37053895
0.01220043 0.37514642 0.25783476
0.1284436 0.32191294 0.19821247
0.30104789 0.28490788 0.16417497
0.50061709 0.25783476 0.14433654
0.71683782 0.23224068 0.13102171
0.95305651 0.21146829 0.1208779
1 0.19497214 0.11597411
1 0.17920975 0.10882729
0 0.65877837 0.26925555
0 0.56217694 0.18857948
0.09098288 0.49521488 0.14986145
0.235807 0.4480412 0.13102171
0.40827879 0.40827879 0.11841205
0.6034044 0.37978536 0.1111818
0.81254297 0.35242134 0.10420125
1 0.3304747 0.09968551
1 0.30930167 0.09527954
0 0.87020558 0.2047814
0 0.75704712 0.14986145
0.0621893 0.67783219 0.12337175
0.18230382 0.6215654 0.1111818
0.33480203 0.57964945 0.10420125
0.50605142 0.5393371 0.09746885
0.69718486 0.50605142 0.09311758
0.89985412 0.4792017 0.086795
1 0.45315456 0.08271538
0 1 0.16125478
0 0.96856642 0.12589362
0.03928365 0.87756634 0.10882729
0.13892555 0.80548769 0.09968551
0.26925555 0.75704712 0.09311758
0.42790604 0.71683782 0.086795
0.6034044 0.67783219 0.08071603
0.79147881 0.64624178 0.07679787
1 0.60942513 0.07112098
0 1 0.13626264
0 1 0.1111818
0.02298345 1 0.09968551
0.10420125 1 0.09098288
0.21827354 0.94535333 0.08271538
0.36141768 0.89239067 0.07679787
0.52811223 0.84832716 0.07112098
0.70370251 0.81254297 0.06568293
0.89985412 0.777605 0.06048179
0 1 0.1208779
0 1 0.10192963
0.01132898 1 0.08887538
0.07679787 1 0.08071603
0.17920975 1 0.07298665
0.30930167 1 0.0674692
0.45830005 1 0.06048179
0.62768507 0.99208999 0.05391212
0.80548769 0.95305651 0.04775541
0 0 1
0.10192963 0 1
0.34354958 0 1
0.63383758 0 1
0.93768424 0 0.97637314
1 0 0.88496149
1 0 0.81254297
1 0 0.74350995
1 0 0.6842497
0 0.07487892 1
0.05078245 0.04775541 0.93004972
0.23940325 0.03171201 0.76386601
0.4792017 0.02298345 0.65877837
0.74350995 0.01655773 0.57964945
1 0.01132898 0.51701707
1 0.00610022 0.46868676
1 0.00174292 0.43289202
1 0 0.39865497
0 0.24302945 0.82675499
0.02502139 0.18857948 0.62768507
0.170102 0.15266678 0.50605142
0.37053895 0.13102171 0.43790996
0.5974164 0.11356405 0.38915727
0.8411026 0.09746885 0.35690385
1 0.0847417 0.3304747
1 0.07487892 0.30930167
1 0.06568293 0.29696694
0 0.43790996 0.60942513
0.01045752 0.36141768 0.46347731
0.1208779 0.30930167 0.37978536
0.28889698 0.27312306 0.33480203
0.4792017 0.24668565 0.30930167
0.69718486 0.22519752 0.29291674
0.92244929 0.2047814 0.27702096
1 0.18542707 0.26541832
1 0.170102 0.25783476
0 0.64002323 0.4792017
0 0.54499835 0.37053895
0.0847417 0.4792017 0.31767839
0.22519752 0.43289202 0.28889698
0.39389029 0.39865497 0.27312306
0.57964945 0.36596265 0.25783476
0.78452516 0.33916023 0.2503719
1 0.31767839 0.24302945
1 0.29696694 0.235807
0 0.85558599 0.38915727
0 0.73679155 0.31347457
0.05551564 0.65877837 0.28094912
0.17310889 0.6034044 0.26161149
0.31767839 0.56217694 0.2503719
0.4845072 0.52254856 0.23940325
0.67783219 0.49521488 0.23224068
0.87020558 0.46347731 0.22172067
1 0.43790996 0.2148561
0 1 0.33480203
0 0.94535333 0.28094912
0.03413703 0.85558599 0.25783476
0.1284436 0.79147881 0.24302945
0.25783476 0.73679155 0.23224068
0.40827879 0.69718486 0.22172067
0.57964945 0.65877837 0.21146829
0.76386601 0.62768507 0.20148224
0.96856642 0.5974164 0.19176117
0 1 0.29696694
0 1 0.26161149
0.02010404 1 0.24302945
0.09746885 0.97637314 0.22870415
0.20811008 0.92244929 0.2148561
0.34354958 0.87020558 0.2047814
0.50605142 0.83391172 0.19176117
0.67783219 0.79147881 0.18230382
0.87020558 0.75704712 0.17310889
0 1 0.27312306
0 1 0.24668565
0.0087146 1 0.22519752
0.07112098 1 0.21146829
0.16712405 1 0.19821247
0.29291674 1 0.18542707
0.44295958 1 0.17310889
0.6034044 0.97637314 0.16125478
0.78452516 0.93004972 0.14986145
0 0 1
0.09746885 0 1
0.33480203 0 1
0.6215654 0 1
0.91488343 0 1
1 0 1
1 0 1
1 0 1
1 0 0.96856642
0 0.07112098 1
0.04775541 0.04483035 1
0.23224068 0.0293849 1
0.46868676 0.02010404 0.93768424
0.73010683 0.01394336 0.8411026
1 0.0087146 0.76386601
1 0.0043573 0.70370251
1 0 0.65877837
1 0 0.6215654
0 0.23224068 1
0.02200009 0.18230382 0.89985412
0.16417497 0.14708473 0.7502616
0.36141768 0.12337175 0.66509646
0.57964945 0.10650045 0.60942513
0.81963199 0.09311758 0.56796855
1 0.08071603 0.5393371
1 0.07112098 0.51151818
1 0.0621893 0.49521488
0 0.42295164 0.87756634
0.00784314 0.35242134 0.69718486
0.11356405 0.30104789 0.5974164
0.27702096 0.26541832 0.54499835
0.46347731 0.235807 0.51151818
0.67783219 0.2148561 0.48984504
0.89985412 0.19497214 0.47392815
1 0.17920975 0.45830005
1 0.16417497 0.4480412
0 0.62768507 0.71683782
0 0.53370845 0.58553892
0.07874354 0.46347731 0.52254856
0.2148561 0.41802901 0.4845072
0.37514642 0.38445553 0.46347731
0.56217694 0.35690385 0.4480412
0.76386601 0.3304747 0.43790996
0.97637314 0.30930167 0.42790604
1 0.28490788 0.413138
0 0.83391172 0.60942513
0 0.72345549 0.51701707
0.05078245 0.64624178 0.4792017
0.16125478 0.5914613 0.45315456
0.30515936 0.5506919 0.43790996
0.46868676 0.51151818 0.42295164
0.6524936 0.4792017 0.40827879
0.84832716 0.45315456 0.39865497
1 0.42790604 0.38915727
0 1 0.5393371
0 0.93004972 0.4792017
0.03053626 0.83391172 0.4480412
0.1208779 0.77071881 0.42790604
0.24302945 0.72345549 0.413138
0.39389029 0.67783219 0.39865497
0.56217694 0.64624178 0.38445553
0.74350995 0.60942513 0.37053895
0.94535333 0.57964945 0.35690385
0 1 0.50061709
0 1 0.45315456
0.01655773 1 0.42295164
0.08887538 0.96079439 0.40345103
0.19821247 0.90735149 0.38915727
0.3304747 0.85558599 0.37053895
0.48984504 0.81254297 0.35690385
0.65877837 0.777605 0.33916023
0.84832716 0.74350995 0.32617843
0 1 0.46868676
0 1 0.43289202
0.00522876 1 0.40345103
0.06392299 1 0.38445553
0.15836339 1 0.36141768
0.28094912 1 0.34354958
0.42790604 0.99208999 0.32617843
0.58553892 0.95305651 0.30930167
0.76386601 0.91488343 0.29291674
0 0 1
0.09311758 0 1
0.3304747 0 1
0.60942513 0 1
0.90735149 0 1
1 0 1
1 0 1
1 0 1
1 0 1
0 0.06568293 1
0.04483035 0.04200665 1
0.22519752 0.02715495 1
0.45830005 0.01830154 1
0.71683782 0.01220043 1
0.98421425 0.00697168 1
1 0.00174292 0.96856642
1 0 0.91488343
1 0 0.87020558
0 0.22519752 1
0.02010404 0.17310889 1
0.15550074 0.14161684 1
0.34796983 0.11841205 0.92244929
0.56796855 0.10192963 0.86287868
0.7984665 0.086795 0.81254297
1 0.07679787 0.777605
1 0.06568293 0.7502616
1 0.0588004 0.73010683
0 0.413138 1
0.00610022 0.33916023 0.96079439
0.10882729 0.28889698 0.84832716
0.26925555 0.25783476 0.78452516
0.45315456 0.22870415 0.74350995
0.65877837 0.20811008 0.72345549
0.87756634 0.18857948 0.70370251
1 0.17310889 0.6842497
1 0.15836339 0.67144763
0 0.60942513 0.98421425
0 0.51701707 0.83391172
0.07298665 0.45315456 0.75704712
0.2047814 0.40827879 0.71683782
0.36141768 0.37514642 0.69070071
0.54499835 0.34354958 0.67144763
0.74350995 0.31767839 0.65877837
0.95305651 0.29696694 0.64624178
1 0.27702096 0.62768507
0 0.81963199 0.86287868
0 0.71025336 0.75704712
0.04628017 0.63383758 0.70370251
0.15266678 0.57964945 0.67783219
0.29291674 0.53370845 0.65877837
0.45315456 0.50061709 0.64002323
0.63383758 0.46868676 0.6215654
0.82675499 0.44295958 0.60942513
1 0.41802901 0.5914613
0 1 0.78452516
0 0.91488343 0.71025336
0.02715495 0.81963199 0.67144763
0.11356405 0.75704712 0.64624178
0.23224068 0.71025336 0.62768507
0.37978536 0.66509646 0.60942513
0.54499835 0.62768507 0.5914613
0.72345549 0.5974164 0.57379252
0.92244929 0.56796855 0.5506919
0 1 0.73010683
0 1 0.67783219
0.01394336 1 0.64002323
0.08271538 0.94535333 0.61547893
0.18857948 0.88496149 0.5974164
0.31767839 0.8411026 0.57379252
0.47392815 0.7984665 0.5506919
0.64002323 0.76386601 0.53370845
0.82675499 0.73010683 0.51151818
0 1 0.69718486
0 1 0.6524936
0.00261438 1 0.61547893
0.06048179 1 0.58553892
0.14986145 1 0.56217694
0.26925555 1 0.5393371
0.413138 0.97637314 0.51151818
0.57379252 0.93768424 0.48984504
0.7502616 0.89985412 0.46868676
0 0 1
0.09098288 0 1
0.32191294 0 1
0.5974164 0 1
0.89239067 0 1
1 0 1
1 0 1
1 0 1
1 0 1
0 0.0621893 1
0.04200665 0.03928365 1
0.21827354 0.02502139 1
0.4480412 0.01655773 1
0.70370251 0.01045752 1
0.97637314 0.00522876 1
1 0 1
1 0 1
1 0 1
0 0.21827354 1
0.01919115 0.170102 1
0.14986145 0.13626264 1
0.33916023 0.11356405 1
0.5506919 0.09746885 1
0.78452516 0.08271538 1
1 0.07298665 1
1 0.06392299 1
1 0.05551564 0.97637314
0 0.40345103 1
0.0043573 0.3304747 1
0.10420125 0.28490788 1
0.25783476 0.2503719 1
0.43790996 0.22172067 1
0.64002323 0.20148224 0.96856642
0.86287868 0.18230382 0.94535333
1 0.16712405 0.93004972
1 0.15266678 0.91488343
0 0.5974164 1
0 0.50605142 1
0.06928186 0.44295958 1
0.19497214 0.39865497 0.96856642
0.35242134 0.36596265 0.93768424
0.52811223 0.33480203 0.92244929
0.72345549 0.31347457 0.89985412
0.93004972 0.28889698 0.88496149
1 0.26925555 0.86287868
0 0.80548769 1
0 0.69718486 1
0.04340587 0.6215654 0.95305651
0.14708473 0.56217694 0.92244929
0.28094912 0.52254856 0.89985412
0.43790996 0.48984504 0.87756634
0.6215654 0.45830005 0.85558599
0.81254297 0.43289202 0.8411026
1 0.40827879 0.81963199
0 1 1
0 0.89239067 0.96079439
0.02502139 0.80548769 0.91488343
0.10650045 0.74350995 0.88496149
0.22519752 0.69718486 0.86287868
0.36596265 0.6524936 0.8411026
0.53370845 0.61547893 0.81254297
0.71025336 0.58553892 0.79147881
0.90735149 0.55641824 0.77071881
0 1 0.98421425
0 1 0.92244929
0.01220043 1 0.87756634
0.07874354 0.93004972 0.84832716
0.17920975 0.87020558 0.81963199
0.30930167 0.82675499 0.7984665
0.45830005 0.78452516 0.77071881
0.62768507 0.7502616 0.74350995
0.81254297 0.71025336 0.71683782
0 1 0.94535333
0 1 0.89239067
0.00087146 1 0.84832716
0.05551564 1 0.81254297
0.14433654 1 0.78452516
0.26161149 1 0.7502616
0.39865497 0.96079439 0.72345549
0.55641824 0.92244929 0.69718486
0.73010683 0.88496149 0.66509646
0 0 1
0.086795 0 1
0.31347457 0 1
0.5914613 0 1
0.88496149 0 1
1 0 1
1 0 1
1 0 1
1 0 1
0 0.06048179 1
0.04063261 0.03666067 1
0.21146829 0.02298345 1
0.44295958 0.01481481 1
0.69070071 0.0087146 1
0.96079439 0.00348584 1
1 0 1
1 0 1
1 0 1
0 0.21146829 1
0.01742919 0.16417497 1
0.14708473 0.13102171 1
0.3304747 0.10882729 1
0.5393371 0.09311758 1
0.77071881 0.08071603 1
1 0.06928186 1
1 0.0588004 1
1 0.05233442 1
0 0.39389029 1
0.00261438 0.32617843 1
0.09968551 0.27312306 1
0.2503719 0.24302945 1
0.42790604 0.2148561 1
0.62768507 0.19497214 1
0.8411026 0.17614479 1
1 0.16125478 1
1 0.14708473 1
0 0.5914613 1
0 0.50061709 1
0.06392299 0.43289202 1
0.18857948 0.38915727 1
0.33916023 0.35690385 1
0.51701707 0.32617843 1
0.71025336 0.30515936 1
0.91488343 0.28094912 1
1 0.26161149 1
0 0.79147881 1
0 0.6842497 1
0.03928365 0.60942513 1
0.13892555 0.55641824 1
0.26925555 0.51151818 1
0.42790604 0.4792017 1
0.6034044 0.4480412 1
0.79147881 0.42295164 1
1 0.39865497 1
0 1 1
0 0.88496149 1
0.02200009 0.79147881 1
0.10192963 0.73010683 1
0.2148561 0.6842497 1
0.35690385 0.64002323 1
0.51701707 0.6034044 1
0.69070071 0.57379252 1
0.88496149 0.54499835 1
0 1 1
0 1 1
0.00958606 0.98421425 1
0.07298665 0.91488343 1
0.17310889 0.85558599 1
0.29696694 0.81254297 1
0.4480412 0.77071881 1
0.61547893 0.73679155 0.98421425
0.7984665 0.70370251 0.95305651
0 1 1
0 1 1
0 1 1
0.05233442 1 1
0.13626264 1 1
0.2503719 0.99208999 0.99208999
0.38915727 0.94535333 0.95305651
0.54499835 0.90735149 0.92244929
0.71683782 0.87020558 0.89239067
