site/assets/luts/freshluts--0001102-woman-flowers-in-face-in-garden-background.cube
# LUTr-Schema-Version: 2
# LUTr-ID: freshluts--0001102-woman-flowers-in-face-in-garden-background
# LUTr-Title: Woman_Flowers In Face_In Garden Background
# LUTr-Collection: Fresh LUTs
# LUTr-Collection-ID: freshluts-community
# LUTr-Source: https://freshluts.com
# LUTr-Retrieved: 2026-07-27
# LUTr-Source-File: submissions-raw/freshluts/cubes/1102__Woman_FlowersInFace_InGardenBackground.cube
# LUTr-Source-Format: CUBE
# LUTr-Source-SHA256: 49183337080b72da46ec7948da1502d5bb89462661954ba4d6201b0082973c2f
# LUTr-License: CC0-1.0
# LUTr-License-URL: https://freshluts.com/termsandconditions
# LUTr-License-Basis: site-terms
# LUTr-Transform-Class: creative-look
# LUTr-Tags: creative, freshluts, community, cube, low-key, panasonic-v-log
# LUTr-Input-Color-Space:
# LUTr-Input-Gamut: panasonic-v-gamut
# LUTr-Input-Transfer: panasonic-v-log
# LUTr-Output-Color-Space: srgb
# LUTr-Output-Gamut: rec709
# LUTr-Output-Transfer: srgb
# LUTr-Color-Space-Confidence: camera-profile-input-required
# LUTr-Domain-Normalized: true
# LUTr-Shaper: none
# LUTr-Original-Grid: 35x35x35
# LUTr-Conversion-Grid: 35x35x35
# LUTr-Conversion-Interpolation: none
# LUTr-Conversion-Method: Metadata normalization; numeric LUT samples preserved
# LUTr-Conversion-Tool: LUTr scripts/convert-all-to-cube.mjs 2.0.0
# LUTr-Conversion-Date: 2026-07-28
# LUTr-Asset-URL: https://freshluts.com/luts/1102
# LUTr-Author: Camera Head Studios LUTS
# LUTr-Author-URL: https://freshluts.com/users/107973
# LUTr-Attribution: Camera Head Studios LUTS via Fresh LUTs
# LUTr-Source-Labels: gamma=Panasonic V-log; color=None; key=Low Key; style=Cinematic/Dark
# LUTr-Note: Preserve this metadata and the upstream license notices when redistributing.
# LUTr-Upstream-Comment: Created by: Pixelmator Pro
# LUTr-Upstream-Comment: Color profile: "sRGB IEC61966-2.1"
# LUTr-Upstream-Comment: Data domain
# LUTr-Upstream-Comment: LUT size
TITLE "Woman_Flowers In Face_In Garden Background"
LUT_3D_SIZE 7
DOMAIN_MIN 0.000000 0.000000 0.000000
DOMAIN_MAX 0.882353 0.882353 0.882353
0 0 0
0 0 0
0 0 0
0 0 0
0 0 0
0.199 0 0
0.693 0 0
0 0 0
0 0 0
0 0 0
0 0 0
0.068 0.009 0
0.268 0.031 0
0.746 0.094 0
0 0 0
0 0 0
0.003 0.003 0
0.057 0.031 0
0.172 0.067 0
0.385 0.129 0
0.795 0.231 0
0 0.062 0
0.017 0.082 0
0.065 0.115 0
0.16 0.16 0
0.3 0.219 0
0.539 0.299 0
0.859 0.412 0
0 0.272 0
0.056 0.296 0
0.156 0.335 0
0.285 0.388 0
0.445 0.445 0
0.648 0.501 0
0.932 0.678 0
0 0.618 0
0.112 0.63 0
0.249 0.655 0
0.408 0.696 0
0.605 0.751 0
0.821 0.821 0
0.987 0.912 0
0 0.986 0
0.251 0.989 0
0.49 0.994 0
0.715 0.999 0
0.875 1 0.326
0.968 1 0.634
1 1 1
0 0 0
0 0 0
0 0 0
0 0 0
0.022 0 0.003
0.226 0 0.024
0.715 0 0.086
0 0 0
0 0 0
0 0 0
0 0 0
0.12 0 0
0.334 0 0
0.8 0 0
0 0 0
0 0 0
0.014 0.014 0
0.086 0.038 0
0.217 0.067 0
0.451 0.116 0
0.834 0.192 0
0 0.079 0.016
0 0.109 0
0.065 0.14 0
0.181 0.181 0
0.339 0.234 0
0.593 0.305 0
0.891 0.407 0
0 0.292 0.055
0 0.335 0
0.137 0.372 0
0.293 0.421 0
0.47 0.47 0
0.687 0.523 0
0.951 0.695 0
0 0.628 0.112
0 0.668 0
0.209 0.694 0
0.402 0.733 0
0.626 0.783 0
0.845 0.845 0
0.996 0.922 0
0 0.988 0.25
0 0.997 0
0.407 1 0.08
0.709 1 0.275
0.882 1 0.443
0.972 1 0.712
1 1 1
0 0 0
0 0 0
0 0 0
0 0 0
0.069 0 0.024
0.27 0 0.08
0.746 0 0.206
0 0 0
0 0 0
0 0 0
0.034 0 0.014
0.159 0 0.045
0.378 0 0.091
0.816 0 0.183
0 0 0
0 0.011 0.011
0.028 0.028 0.028
0.151 0.032 0.032
0.299 0.046 0.046
0.559 0.067 0.067
0.885 0.075 0.075
0 0.107 0.06
0 0.135 0.063
0.045 0.183 0.045
0.213 0.213 0.056
0.403 0.253 0.069
0.668 0.301 0.076
0.93 0.381 0.094
0 0.325 0.151
0 0.367 0.135
0.074 0.431 0.074
0.294 0.469 0.077
0.5 0.5 0.072
0.742 0.552 0.082
0.973 0.708 0.125
0 0.649 0.246
0 0.69 0.207
0.083 0.748 0.083
0.378 0.782 0.092
0.648 0.823 0.106
0.872 0.872 0.128
1 0.931 0.344
0 0.992 0.486
0.036 1 0.4
0.413 1 0.413
0.723 1 0.496
0.895 1 0.62
0.979 1 0.832
1 1 1
0 0 0
0 0 0
0 0 0
0.021 0 0.021
0.127 0 0.084
0.332 0 0.176
0.779 0 0.336
0 0 0
0 0 0
0.01 0 0.024
0.079 0 0.079
0.209 0 0.137
0.44 0 0.219
0.831 0 0.342
0 0.022 0.041
0 0.032 0.073
0.031 0.031 0.149
0.171 0.041 0.171
0.337 0.056 0.211
0.608 0.073 0.271
0.902 0.081 0.344
0 0.145 0.145
0 0.17 0.17
0.055 0.208 0.208
0.239 0.239 0.239
0.508 0.244 0.244
0.757 0.243 0.243
0.965 0.29 0.29
0 0.371 0.273
0 0.409 0.284
0.077 0.464 0.291
0.245 0.526 0.245
0.529 0.529 0.244
0.801 0.575 0.268
0.991 0.703 0.36
0 0.683 0.396
0 0.723 0.394
0.091 0.777 0.373
0.288 0.83 0.288
0.652 0.859 0.312
0.894 0.894 0.348
1 0.938 0.675
0 0.998 0.708
0.238 1 0.698
0.483 1 0.716
0.764 1 0.764
0.916 1 0.833
0.99 1 0.953
1 1 1
0 0 0
0 0 0
0.014 0 0.042
0.075 0 0.114
0.195 0 0.195
0.414 0 0.309
0.804 0 0.483
0 0.003 0.026
0 0 0.083
0.037 0 0.136
0.128 0 0.197
0.27 0 0.27
0.519 0 0.378
0.857 0 0.524
0 0.052 0.139
0 0.056 0.19
0.042 0.042 0.285
0.204 0.053 0.327
0.389 0.067 0.389
0.658 0.077 0.472
0.924 0.091 0.591
0 0.195 0.27
0 0.216 0.314
0.066 0.243 0.386
0.243 0.243 0.505
0.523 0.247 0.523
0.763 0.245 0.531
0.976 0.31 0.65
0 0.424 0.424
0 0.455 0.455
0.074 0.494 0.494
0.243 0.527 0.527
0.55 0.55 0.55
0.872 0.561 0.561
0.995 0.743 0.743
0 0.729 0.582
0 0.766 0.606
0.102 0.812 0.634
0.308 0.855 0.646
0.601 0.897 0.601
0.915 0.915 0.634
1 0.947 0.865
0.233 1 0.863
0.384 1 0.871
0.585 1 0.886
0.822 1 0.911
0.947 1 0.947
1 1 1
1 1 1
0 0 0.126
0.015 0 0.164
0.061 0 0.22
0.153 0 0.294
0.291 0 0.391
0.53 0 0.53
0.854 0 0.695
0 0.021 0.205
0 0 0.277
0.075 0 0.328
0.199 0 0.402
0.361 0 0.498
0.612 0 0.612
0.902 0 0.754
0 0.102 0.323
0 0.096 0.393
0.061 0.061 0.517
0.256 0.07 0.579
0.462 0.077 0.646
0.697 0.073 0.697
0.953 0.108 0.829
0 0.267 0.486
0 0.28 0.551
0.076 0.288 0.643
0.246 0.246 0.756
0.527 0.243 0.759
0.798 0.265 0.798
0.99 0.351 0.888
0 0.476 0.621
0 0.497 0.661
0.077 0.53 0.72
0.26 0.56 0.789
0.557 0.557 0.869
0.889 0.587 0.889
0.999 0.803 0.924
0 0.794 0.794
0 0.823 0.823
0.12 0.858 0.858
0.339 0.886 0.886
0.629 0.912 0.912
0.926 0.926 0.926
1 0.962 0.962
0.504 1 0.958
0.605 1 0.964
0.76 1 0.971
0.921 1 0.983
1 1 1
1 1 1
1 1 1
0 0 0.571
0.063 0 0.609
0.171 0 0.666
0.302 0 0.73
0.46 0 0.783
0.668 0 0.834
0.94 0 0.94
0 0.072 0.652
0 0 0.732
0.161 0 0.77
0.322 0 0.808
0.493 0 0.834
0.729 0 0.885
0.966 0 0.966
0 0.207 0.75
0 0.177 0.804
0.074 0.074 0.867
0.32 0.074 0.879
0.554 0.082 0.905
0.81 0.101 0.943
0.991 0.147 0.991
0 0.365 0.814
0 0.363 0.853
0.082 0.345 0.903
0.27 0.27 0.951
0.62 0.293 0.966
0.877 0.33 0.986
1 0.634 1
0 0.616 0.899
0 0.639 0.926
0.11 0.663 0.956
0.323 0.669 0.982
0.709 0.709 0.991
0.916 0.78 0.998
1 0.882 1
0 0.887 0.974
0 0.903 0.986
0.159 0.918 0.998
0.629 0.929 1
0.844 0.939 1
0.956 0.956 1
1 1 1
1 1 1
1 1 1
1 1 1
1 1 1
1 1 1
1 1 1
1 1 1
