site/assets/luts/freshluts--0000689-correction-styleft-cn.cube
# LUTr-Schema-Version: 2
# LUTr-ID: freshluts--0000689-correction-styleft-cn
# LUTr-Title: Correction style(ft-cn)
# LUTr-Collection: Fresh LUTs
# LUTr-Collection-ID: freshluts-community
# LUTr-Source: https://freshluts.com
# LUTr-Retrieved: 2026-07-27
# LUTr-Source-File: submissions-raw/freshluts/cubes/689__1q_7.00033.cube
# LUTr-Source-Format: CUBE
# LUTr-Source-SHA256: db4cc90060a85077ef904422ceb873120da7868365e9327beee46c87e02738f0
# LUTr-License: CC0-1.0
# LUTr-License-URL: https://freshluts.com/termsandconditions
# LUTr-License-Basis: site-terms
# LUTr-Transform-Class: creative-look
# LUTr-Tags: creative, freshluts, community, cube, rec709, correction
# LUTr-Input-Color-Space: rec709
# LUTr-Input-Gamut: rec709
# LUTr-Input-Transfer: rec709
# LUTr-Output-Color-Space: srgb
# LUTr-Output-Gamut: rec709
# LUTr-Output-Transfer: srgb
# LUTr-Color-Space-Confidence: declared-by-source
# LUTr-Domain-Normalized: true
# LUTr-Shaper: none
# LUTr-Original-Grid: 33x33x33
# LUTr-Conversion-Grid: 33x33x33
# LUTr-Conversion-Interpolation: none
# LUTr-Conversion-Method: Metadata normalization; numeric LUT samples preserved
# LUTr-Conversion-Tool: LUTr scripts/convert-all-to-cube.mjs 2.0.0
# LUTr-Conversion-Date: 2026-07-28
# LUTr-Asset-URL: https://freshluts.com/luts/689
# LUTr-Author: lvannoeun@gmail.com
# LUTr-Author-URL: https://freshluts.com/users/57563
# LUTr-Attribution: lvannoeun@gmail.com via Fresh LUTs
# LUTr-Source-Labels: gamma=Rec 709; color=None; key=Neutral; style=Correction
# LUTr-Note: Preserve this metadata and the upstream license notices when redistributing.
TITLE "Correction style(ft-cn)"
LUT_3D_SIZE 5
DOMAIN_MIN 0 0 0
DOMAIN_MAX 1 1 1
0 0 0
0.170855 0 0
0.530236 0 0
0.814252 0 0
1 0 0
0 0.226169 0
0.179965 0.194934 0
0.629328 0.145541 0
0.971695 0.130068 0
1 0.149187 0
0 0.558816 0
0.0452735 0.532845 0
0.489754 0.486854 0
0.849989 0.453773 0
1 0.447532 0
0 0.856168 0
0 0.821866 0
0.386633 0.771054 0
0.742107 0.732158 0
0.989441 0.717311 0
0 1 0
0 1 0
0.345006 0.991012 0
0.687831 0.942763 0
0.930922 0.917327 0
0 0 0.280491
0.241932 0 0.289754
0.666667 0 0.262562
1 0 0.244083
1 0 0.251041
0 0.214389 0.236316
0.153903 0.187427 0.209613
0.500099 0.171984 0.191852
0.784039 0.172778 0.192981
0.991745 0.191516 0.212604
0 0.548012 0.115938
0.033051 0.522011 0.0903792
0.461631 0.477806 0.0530861
0.820905 0.443915 0.0519417
1 0.433478 0.0812543
0 0.84213 0.0386969
0 0.807553 0.00761425
0.358343 0.758587 0
0.710781 0.719829 0
0.962234 0.704005 0
0 1 0.0217899
0 1 0
0.315984 0.974029 0
0.653117 0.926543 0
0.895109 0.900359 0
0 0 0.751476
0.229358 0 0.760082
0.649958 0 0.726909
0.992813 0 0.70692
1 0 0.714656
0 0.199054 0.699443
0.136065 0.172641 0.672633
0.558221 0.137545 0.636515
0.906508 0.120485 0.619516
1 0.126986 0.627604
0 0.533318 0.576486
0.0201114 0.506371 0.549126
0.430991 0.464393 0.505623
0.745602 0.445274 0.48307
0.928588 0.459617 0.495262
0 0.824033 0.493278
0 0.789059 0.457237
0.332815 0.740353 0.406668
0.674525 0.704204 0.373754
0.924315 0.687495 0.37731
0 1 0.472801
0 1 0.426505
0.288121 0.951568 0.364843
0.615595 0.906279 0.318502
0.854353 0.880034 0.300526
0 0 1
0.220722 0 1
0.639048 0 1
0.982895 0 1
1 0 1
0 0.190066 1
0.124941 0.164126 1
0.548302 0.129656 1
0.896254 0.112215 0.99794
1 0.117693 1
0 0.524468 0.962081
0.0114137 0.496468 0.933577
0.418219 0.453468 0.889113
0.757565 0.426703 0.861723
0.995254 0.423392 0.85922
0 0.812406 0.87599
0 0.776699 0.8392
0.317449 0.727138 0.787701
0.650874 0.692393 0.751766
0.886702 0.679728 0.739178
0 1 0.852186
0 0.993881 0.804593
0.268788 0.934508 0.741543
0.593439 0.888975 0.694011
0.822446 0.864988 0.670466
0 0 1
0.220081 0 1
0.637079 0 1
0.981353 0 1
1 0 1
0 0.190173 1
0.123888 0.164889 1
0.547204 0.130358 1
0.894499 0.112245 1
1 0.116747 1
0 0.524422 1
0.00921645 0.495109 1
0.414542 0.451408 1
0.753323 0.424033 1
0.991684 0.420111 1
0 0.809552 1
0 0.773114 1
0.311421 0.722728 1
0.643992 0.686885 1
0.878691 0.673014 0.994324
0 1 1
0 0.986969 1
0.259266 0.926558 0.995514
0.583322 0.880034 0.953017
0.808454 0.856138 0.928298
