site/assets/luts/freshluts--0001652-zona-colonial.cube
# LUTr-Schema-Version: 2
# LUTr-ID: freshluts--0001652-zona-colonial
# LUTr-Title: ZONA COLONIAL
# LUTr-Collection: Fresh LUTs
# LUTr-Collection-ID: freshluts-community
# LUTr-Source: https://freshluts.com
# LUTr-Retrieved: 2026-07-27
# LUTr-Source-File: submissions-raw/freshluts/cubes/1652__RD_FX_3_LUT.cube
# LUTr-Source-Format: CUBE
# LUTr-Source-SHA256: f7621f5838169f4df7ce1ab958179734b3f78b7dac0acbafd14d5461845b1c7d
# LUTr-License: CC0-1.0
# LUTr-License-URL: https://freshluts.com/termsandconditions
# LUTr-License-Basis: site-terms
# LUTr-Transform-Class: creative-look
# LUTr-Tags: creative, freshluts, community, cube, orange, sony-s-log3
# LUTr-Input-Color-Space:
# LUTr-Input-Gamut: sony-s-gamut3
# LUTr-Input-Transfer: sony-s-log3
# LUTr-Output-Color-Space: srgb
# LUTr-Output-Gamut: rec709
# LUTr-Output-Transfer: srgb
# LUTr-Color-Space-Confidence: camera-profile-input-required
# LUTr-Domain-Normalized: true
# LUTr-Shaper: none
# LUTr-Original-Grid: 33x33x33
# LUTr-Conversion-Grid: 33x33x33
# LUTr-Conversion-Interpolation: none
# LUTr-Conversion-Method: Metadata normalization; numeric LUT samples preserved
# LUTr-Conversion-Tool: LUTr scripts/convert-all-to-cube.mjs 2.0.0
# LUTr-Conversion-Date: 2026-07-28
# LUTr-Asset-URL: https://freshluts.com/luts/1652
# LUTr-Author: Antony Eliezer
# LUTr-Author-URL: https://freshluts.com/users/32961
# LUTr-Attribution: Antony Eliezer via Fresh LUTs
# LUTr-Source-Labels: gamma=Sony S-Log 3; color=Orange; key=Neutral; style=NEUTRAL
# LUTr-Note: Preserve this metadata and the upstream license notices when redistributing.
# LUTr-Upstream-Comment: VEGAS Pro LUT
TITLE "ZONA COLONIAL"
LUT_3D_SIZE 5
DOMAIN_MIN 0 0 0
DOMAIN_MAX 1 1 1
-0.00672971 -0.0494558 0.06122192
0.17682435 -0.07270395 0.0345795
0.70172918 -0.1018694 -0.03651032
1.1926811 -0.11842512 -0.04744733
1.3943963 -0.0971652 -0.02148641
-0.11481534 0.1238886 0.01146348
0.14341894 0.08560203 -0.01519697
0.66079152 0.00273238 -0.07024702
1.1818864 -0.0231953 -0.07843409
1.4341935 -0.0160067 -0.06107534
-0.24425215 0.56125122 -0.13723873
-0.05863416 0.54036552 -0.16251725
0.65250117 0.44102222 -0.26700154
1.195124 0.41717863 -0.28765282
1.4553934 0.39146957 -0.20807579
-0.40212813 0.99334127 -0.23318869
-0.15841575 1.0022692 -0.30634275
0.043203 0.97529387 -0.3346895
1.014046 0.94434452 -0.36145717
1.2451906 0.89907902 -0.25941777
-0.31495166 1.0398761 -0.17772128
-0.12569593 1.0791136 -0.28474969
0.00633539 1.0765688 -0.33802849
0.95138609 1.129725 -0.27227831
1.2029911 1.1390272 -0.29978529
-0.17967896 -0.13385615 0.3403199
0.12667397 -0.11953208 0.29003888
0.62292516 -0.16976476 0.19226931
1.1030167 -0.17593306 0.14262488
1.3829361 -0.19803515 0.1165482
-0.25647071 0.03275591 0.25563002
0.09469362 -0.01390849 0.22085178
0.60542238 -0.09784935 0.1373613
1.1225892 -0.12644796 0.10336222
1.3965861 -0.14751801 0.07765006
-0.38242459 0.45122683 0.00526967
-0.08114961 0.43603399 -0.0301884
0.59108913 0.35233638 -0.09699168
1.1574309 0.3185969 -0.11353486
1.4190522 0.26416489 -0.10701992
-0.46235135 0.99166113 -0.16685957
-0.19914486 0.98663396 -0.22473936
-0.02137133 0.96279114 -0.23223117
1.0007359 0.95748901 -0.3359192
1.2749362 0.90033311 -0.26121846
-0.37321147 1.0417348 -0.11948083
-0.19067524 1.0851687 -0.23276629
-0.03635176 1.0704675 -0.26213065
0.92161703 1.1349692 -0.26617023
1.1906147 1.1209202 -0.17410463
-0.15409327 -0.03641438 0.81312793
0.02319432 -0.04367294 0.72652018
0.53825343 -0.11529873 0.60197854
1.1325351 -0.17122506 0.42959651
1.4176099 -0.1927809 0.392654
-0.28541121 0.05506903 0.66188353
0.00106772 0.02523394 0.65686798
0.5912028 -0.06745676 0.5345431
1.1623621 -0.1159597 0.40704826
1.4280789 -0.1366459 0.3967081
-0.40657538 0.46838906 0.42697451
-0.12572619 0.46149033 0.4451178
0.2671825 0.45268738 0.51347637
1.1449959 0.27094138 0.32860169
1.4067452 0.21591592 0.31655666
-0.51152551 1.0121587 -0.01447757
-0.24267268 0.99603629 -0.00262871
-0.06817328 0.97274292 0.05387451
0.955787 0.98582286 -0.04779034
1.2883132 0.91209185 0.0573678
-0.42821932 1.0568535 -0.02829143
-0.22531544 1.0997002 -0.09290571
-0.08018548 1.0844606 -0.05617657
0.86549526 1.1566145 -0.16371931
1.223277 1.1475223 -0.07127823
-0.25972575 0.02474176 1.0585448
-0.0210356 0.03423562 1.0194319
0.19783314 -0.01515595 0.94569886
1.0957425 -0.09048353 0.9041574
1.3853267 -0.12153564 0.88583386
-0.31115729 0.1268501 0.92901754
-0.04205529 0.09699702 0.97096539
0.26786035 0.04058949 0.89292651
1.1222372 -0.0218232 0.86890733
1.3993384 -0.05575598 0.85273248
-0.40402335 0.45108813 0.77668077
-0.13718997 0.45264617 0.82251281
0.04989094 0.45986807 0.87844104
1.1071578 0.33008853 0.85611355
1.3821844 0.27744976 0.82573992
-0.53450608 1.0543089 0.74252105
-0.30518973 1.0481346 0.78000212
-0.14129595 1.0078827 0.7955808
0.82392126 0.98204535 0.73731267
1.2413423 0.90827674 0.734635
-0.4510614 1.1393503 0.67243451
-0.32541937 1.1878133 0.70021468
-0.16870941 1.1534607 0.71179861
0.65352988 1.190154 0.56294662
1.1958294 1.1440921 0.58567697
-0.2685568 0.03431371 1.1650063
-0.00896329 0.04671511 1.1482151
0.13605435 0.01338049 1.1079826
1.0786068 -0.07618856 1.0508688
1.3701318 -0.10181271 1.0199381
-0.30184495 0.15616842 1.0845765
-0.03342409 0.1113193 1.1195514
0.20366676 0.07169005 1.0680125
1.1133703 -0.00578354 1.0269587
1.3990889 -0.03361644 0.98861969
-0.3919827 0.50835037 1.1187584
-0.1135125 0.50407034 1.142516
0.10909011 0.48673472 1.1555798
1.201133 0.36656383 1.1685656
1.3856423 0.3143748 1.1143682
-0.41389212 1.0060959 1.0730456
-0.27203277 1.0513471 1.1533406
-0.04761783 1.0205042 1.1511437
0.84830868 0.99489331 1.1262324
1.2298202 0.94681054 1.1033108
-0.39010578 1.1329677 1.0160462
-0.30471706 1.2007766 1.0896773
-0.08058766 1.1769326 1.0914968
0.64859408 1.2067437 1.0898365
1.1452578 1.2359763 1.0704893
