site/assets/luts/freshluts--0000695-crizo-mzeyah.cube
# LUTr-Schema-Version: 2
# LUTr-ID: freshluts--0000695-crizo-mzeyah
# LUTr-Title: Crizo Mzeyah
# LUTr-Collection: Fresh LUTs
# LUTr-Collection-ID: freshluts-community
# LUTr-Source: https://freshluts.com
# LUTr-Retrieved: 2026-07-27
# LUTr-Source-File: submissions-raw/freshluts/cubes/695__Crizo_Mzeyah__1.A020_12040508_C074.cube
# LUTr-Source-Format: CUBE
# LUTr-Source-SHA256: 3eedf0c25f4a2f5dea5a81a896587732e2b64fce6865ffe85796d420fa9339d9
# LUTr-License: CC0-1.0
# LUTr-License-URL: https://freshluts.com/termsandconditions
# LUTr-License-Basis: site-terms
# LUTr-Transform-Class: creative-look
# LUTr-Tags: creative, freshluts, community, cube, warm, bmd-film-4k
# LUTr-Input-Color-Space:
# LUTr-Input-Gamut: bmd-film-gamut
# LUTr-Input-Transfer: bmd-film-4k
# LUTr-Output-Color-Space: srgb
# LUTr-Output-Gamut: rec709
# LUTr-Output-Transfer: srgb
# LUTr-Color-Space-Confidence: camera-profile-input-required
# LUTr-Domain-Normalized: true
# LUTr-Shaper: none
# LUTr-Original-Grid: 33x33x33
# LUTr-Conversion-Grid: 33x33x33
# LUTr-Conversion-Interpolation: none
# LUTr-Conversion-Method: Metadata normalization; numeric LUT samples preserved
# LUTr-Conversion-Tool: LUTr scripts/convert-all-to-cube.mjs 2.0.0
# LUTr-Conversion-Date: 2026-07-28
# LUTr-Asset-URL: https://freshluts.com/luts/695
# LUTr-Author: Crizo
# LUTr-Author-URL: https://freshluts.com/users/10814
# LUTr-Attribution: Crizo via Fresh LUTs
# LUTr-Source-Labels: gamma=Blackmagic BMD Film 4K; color=Warm; key=Neutral; style=Adventure
# LUTr-Note: Preserve this metadata and the upstream license notices when redistributing.
TITLE "Crizo Mzeyah"
LUT_3D_SIZE 5
DOMAIN_MIN 0 0 0
DOMAIN_MAX 1 1 1
0 0 0
0.372213 0 0
0.844297 0 0
1 0 0
1 0 0
0 0.280705 0
0.206607 0.251698 0
0.673991 0.190127 0
1 0.147738 0
1 0.104936 0
0 0.650568 0
0.0474708 0.604578 0
0.538674 0.592782 0
0.969879 0.517494 0
1 0.474678 0
0 0.997818 0
0 0.951843 0
0.376425 0.907118 0
0.857603 0.911803 0
1 0.822599 0
0 1 0
0 1 0
0.232868 1 0
0.681987 1 0
1 1 0
0 0 0.476493
0.348531 0 0.43064
0.820706 0 0.386206
1 0 0.343938
1 0 0.301274
0 0.25745 0.311452
0.177691 0.21146 0.265614
0.650401 0.166857 0.221134
1 0.124453 0.178882
1 0.0816663 0.136202
0 0.627329 0.163333
0.0237888 0.581353 0.117525
0.497704 0.548943 0
0.946258 0.494255 0.0307622
1 0.451438 0
0 0.974578 0.0243839
0 0.928618 0
0.352819 0.883879 0
0.815991 0.870222 0
1 0.798657 0
0 1 0
0 1 0
0.209262 1 0
0.658381 1 0
1 1 0
0 0 0.997894
0.327932 0 0.951995
0.800183 0 0.9075
1 0 0.865202
1 0 0.822477
0 0.237263 0.832685
0.157092 0.191287 0.786801
0.629877 0.14667 0.742275
1 0.10428 0.699977
1 0.0614786 0.657252
0 0.607187 0.684413
0.00318914 0.561196 0.638544
0.476509 0.516503 0.593973
0.925734 0.474098 0.55169
1 0.431281 0.50898
0 0.954437 0.545296
0 0.908476 0.499458
0.332311 0.863737 0.454826
0.781003 0.831083 0.317296
1 0.778515 0.369848
0 1 0.406836
0 1 0.361013
0.188754 1 0.316335
0.637858 1 0.274052
1 1 0
0 0 1
0.308385 0 1
0.780713 0 1
1 0 1
1 0 1
0 0.218112 1
0.137545 0.172137 1
0.610407 0.12752 1
1 0.0851301 1
1 0.0423285 1
0 0.588067 1
0 0.542092 1
0.457038 0.497383 1
0.906249 0.454978 1
1 0.412161 1
0 0.935332 1
0 0.889372 0.993469
0.312825 0.844617 0.948852
0.76199 0.802213 0.906554
1 0.759396 0.863859
0 1 0.900847
0 1 0.855024
0.169268 1 0.810346
0.618372 1 0.768048
1 1 0.626062
0 0 1
0.289006 0 1
0.761395 0 1
1 0 1
1 0 1
0 0.199145 1
0.118166 0.15317 1
0.591104 0.108537 1
1 0.0661479 1
1 0.0233616 1
0 0.569116 1
0 0.52314 1
0.43772 0.478447 1
0.886915 0.436042 1
1 0.393225 1
0 0.916381 1
0 0.87042 1
0.293507 0.825666 1
0.742657 0.783276 1
1 0.740459 1
0 1 1
0 1 1
0.14995 1 1
0.599054 1 1
1 1 1
