site/assets/luts/freshluts--0000396-kenya-crizo-mzeyah.cube
# LUTr-Schema-Version: 2
# LUTr-ID: freshluts--0000396-kenya-crizo-mzeyah
# LUTr-Title: Kenya Crizo Mzeyah
# LUTr-Collection: Fresh LUTs
# LUTr-Collection-ID: freshluts-community
# LUTr-Source: https://freshluts.com
# LUTr-Retrieved: 2026-07-27
# LUTr-Source-File: submissions-raw/freshluts/cubes/396__KENYA_Crizo_Mzeyah.cube
# LUTr-Source-Format: CUBE
# LUTr-Source-SHA256: a15f4f691e6c6df7e654a954e686a13c03ae9cd7e0d04e1f26bfb3d709e1d3b4
# LUTr-License: CC0-1.0
# LUTr-License-URL: https://freshluts.com/termsandconditions
# LUTr-License-Basis: site-terms
# LUTr-Transform-Class: creative-look
# LUTr-Tags: creative, freshluts, community, cube, cool, bmd-film-4k
# LUTr-Input-Color-Space:
# LUTr-Input-Gamut: bmd-film-gamut
# LUTr-Input-Transfer: bmd-film-4k
# LUTr-Output-Color-Space: srgb
# LUTr-Output-Gamut: rec709
# LUTr-Output-Transfer: srgb
# LUTr-Color-Space-Confidence: camera-profile-input-required
# LUTr-Domain-Normalized: true
# LUTr-Shaper: none
# LUTr-Original-Grid: 33x33x33
# LUTr-Conversion-Grid: 33x33x33
# LUTr-Conversion-Interpolation: none
# LUTr-Conversion-Method: Metadata normalization; numeric LUT samples preserved
# LUTr-Conversion-Tool: LUTr scripts/convert-all-to-cube.mjs 2.0.0
# LUTr-Conversion-Date: 2026-07-28
# LUTr-Asset-URL: https://freshluts.com/luts/396
# LUTr-Author: Crizo
# LUTr-Author-URL: https://freshluts.com/users/10814
# LUTr-Attribution: Crizo via Fresh LUTs
# LUTr-Source-Labels: gamma=Blackmagic BMD Film 4K; color=Cool; key=Neutral; style=Colorful
# LUTr-Note: Preserve this metadata and the upstream license notices when redistributing.
TITLE "Kenya Crizo Mzeyah"
LUT_3D_SIZE 33
DOMAIN_MIN 0 0 0
DOMAIN_MAX 1 1 1
0 0 0
0 0 0
0.0142061 0 0
0.0897688 0 0
0.168414 0 0
0.24332 0 0
0.316915 0 0
0.389761 0 0
0.462089 0 0
0.534005 0 0
0.605631 0 0
0.676997 0 0
0.748165 0 0
0.819181 0 0
0.890089 0 0
0.960998 0 0
1 0 0
1 0 0
1 0 0
1 0 0
1 0 0
1 0 0
1 0 0
1 0 0
1 0 0
1 0 0
1 0 0
1 0 0
1 0 0
1 0 0
1 0 0
1 0 0
1 0 0
0 0 0
0 0 0
0 0 0
0.0577554 0 0
0.136507 0 0
0.211521 0 0
0.285222 0 0
0.35819 0 0
0.430655 0 0
0.502754 0 0
0.574578 0 0
0.646235 0 0
0.717861 0 0
0.789654 0 0
0.860761 0 0
0.931502 0 0
1 0 0
1 0 0
1 0 0
1 0 0
1 0 0
1 0 0
1 0 0
1 0 0
1 0 0
1 0 0
1 0 0
1 0 0
1 0 0
1 0 0
1 0 0
1 0 0
1 0 0
0 0 0
0 0 0
0 0 0
0.0252384 0 0
0.104112 0 0
0.179294 0 0
0.253193 0 0
0.32639 0 0
0.399191 0 0
0.471977 0 0
0.544335 0 0
0.616037 0 0
0.687343 0 0
0.758343 0 0
0.829068 0 0
0.89955 0 0
0.969833 0 0
1 0 0
1 0 0
1 0 0
1 0 0
1 0 0
1 0 0
1 0 0
1 0 0
1 0 0
1 0 0
1 0 0
1 0 0
1 0 0
1 0 0
1 0 0
1 0 0
0 0.0169985 0
0 0.00941482 0
0 0.00166323 0
0 0 0
0.0707713 0 0
0.146365 0 0
0.221073 0 0
0.294575 0 0
0.3673 0 0
0.439475 0 0
0.511223 0 0
0.582605 0 0
0.653696 0 0
0.724514 0 0
0.795087 0 0
0.865461 0 0
0.935637 0 0
1 0 0
1 0 0
1 0 0
1 0 0
1 0 0
1 0 0
1 0 0
1 0 0
1 0 0
1 0 0
1 0 0
1 0 0
1 0 0
1 0 0
1 0 0
1 0 0
0 0.0770275 0
0 0.0697948 0
0 0.062623 0
0 0.055375 0
0.0362402 0.0466926 0
0.111635 0.038819 0
0.185565 0.0312047 0
0.25864 0.0237125 0
0.33109 0.0163119 0
0.403067 0.0089723 0
0.474647 0.00169375 0
0.545907 0 0
0.616876 0 0
0.687587 0 0
0.758083 0 0
0.828367 0 0
0.898466 0 0
0.968399 0 0
1 0 0
1 0 0
1 0 0
1 0 0
1 0 0
1 0 0
1 0 0
1 0 0
1 0 0
1 0 0
1 0 0
1 0 0
1 0 0
1 0 0
1 0 0
0 0.13756 0
0 0.130343 0
0 0.122728 0
0 0.114565 0
0.00361639 0.105455 0
0.0787823 0.0972915 0
0.152529 0.0894636 0
0.225452 0.0817884 0
0.29778 0.0742351 0
0.36965 0.0667735 0
0.441138 0.0593729 0
0.512306 0.052018 0
0.5832 0.0447089 0
0.653849 0.0374456 0
0.724269 0.0302129 0
0.794507 0.0230106 0
0.864546 0.0158389 0
0.934432 0.00868238 0
1 0.00154116 0
1 0 0
1 0 0
1 0 0
1 0 0
1 0 0
1 0 0
1 0 0
1 0 0
1 0 0
1 0 0
1 0 0
1 0 0
1 0 0
1 0 0
0 0.196063 0
0 0.188495 0
0 0.180636 0
0 0.172274 0
0 0.162997 0
0.0466011 0.154696 0
0.120256 0.146731 0
0.193088 0.138949 0
0.265339 0.131304 0
0.337133 0.123735 0
0.40856 0.116258 0
0.479667 0.108827 0
0.5505 0.101457 0
0.621088 0.0941176 0
0.691463 0.0868238 0
0.761654 0.0795605 0
0.831647 0.0723278 0
0.901488 0.0651255 0
0.971176 0.0579385 0
1 0.050782 0
1 0.0436408 0
1 0.0365301 0
1 0.0294194 0
1 0.0223392 0
1 0.0152743 0
1 0.00820935 0
1 0.00117494 0
1 0 0
1 0 0
1 0 0
1 0 0
1 0 0
1 0 0
0 0.253422 0
0 0.245686 0
0 0.23769 0
0 0.229221 0
0 0.219837 0
0.0148165 0.211429 0
0.0884108 0.203387 0
0.161181 0.195529 0
0.233371 0.187793 0
0.305104 0.180163 0
0.376471 0.17261 0
0.447532 0.165133 0
0.518318 0.157687 0
0.588876 0.150301 0
0.659205 0.142962 0
0.729351 0.135653 0
0.799313 0.128374 0
0.869123 0.121126 0
0.938766 0.113893 0
1 0.106706 0
1 0.0995193 0
1 0.0923629 0
1 0.0852369 0
1 0.0781109 0
1 0.0710155 0
1 0.06392 0
1 0.0568551 0
1 0.0497902 0
1 0.0427405 0
1 0.0357061 0
1 0.028687 0
1 0.0216831 0
1 0.0146792 0
0 0.310109 0
0 0.302281 0
0 0.294194 0
0 0.285649 0
0 0.276188 0
0 0.267704 0
0.0568399 0.259586 0
0.129564 0.251667 0
0.201709 0.24387 0
0.273411 0.236194 0
0.344732 0.22858 0
0.415763 0.221042 0
0.486503 0.213565 0
0.557015 0.206134 0
0.627329 0.198749 0
0.697429 0.191394 0
0.767361 0.18407 0
0.83714 0.176791 0
0.906752 0.169528 0
0.976242 0.162295 0
1 0.155077 0
1 0.14789 0
1 0.140719 0
1 0.133577 0
1 0.126436 0
1 0.119326 0
1 0.11223 0
1 0.105135 0
1 0.0980697 0
1 0.0910048 0
1 0.0839704 0
1 0.076936 0
1 0.0699016 0
0 0.366339 0
0 0.358434 0
0 0.350286 0
0 0.34168 0
0 0.332158 0
0 0.323613 0
0.0254978 0.315435 0
0.0981918 0.307454 0
0.170291 0.299611 0
0.241962 0.29189 0
0.313252 0.28423 0
0.384237 0.276661 0
0.454963 0.269139 0
0.525444 0.261662 0
0.595712 0.254231 0
0.665797 0.246845 0
0.735698 0.23949 0
0.805432 0.232166 0
0.875029 0.224887 0
0.944488 0.217609 0
1 0.210376 0
1 0.203159 0
1 0.195956 0
1 0.188785 0
1 0.181613 0
1 0.174472 0
1 0.167346 0
1 0.160235 0
1 0.15314 0
1 0.146059 0
1 0.138994 0
1 0.131945 0
1 0.124895 0
0 0.422202 0
0 0.414252 0
0 0.406043 0
0 0.397391 0
0 0.387808 0
0 0.379217 0
0 0.370993 0
0.0670024 0.362966 0
0.139071 0.355093 0
0.210712 0.347311 0
0.281971 0.33962 0
0.352926 0.332006 0
0.423621 0.324453 0
0.494072 0.316945 0
0.564324 0.309483 0
0.634379 0.302068 0
0.70425 0.294682 0
0.773968 0.287327 0
0.843549 0.280003 0
0.912978 0.272709 0
0.982284 0.265446 0
1 0.258198 0
1 0.250965 0
1 0.243763 0
1 0.236591 0
1 0.229419 0
1 0.222263 0
1 0.215137 0
1 0.208011 0
1 0.200916 0
1 0.19382 0
1 0.18674 0
1 0.17969 0
0 0.477775 0
0 0.469764 0
0 0.461524 0
0 0.452827 0
0 0.443214 0
0 0.434562 0
0 0.426291 0
0.0359655 0.418235 0
0.108019 0.410315 0
0.179614 0.402502 0
0.250858 0.394781 0
0.321798 0.387137 0
0.392462 0.379538 0
0.462882 0.372 0
0.533104 0.364523 0
0.603143 0.357061 0
0.672999 0.34966 0
0.742687 0.342275 0
0.812238 0.33492 0
0.881651 0.327611 0
0.950942 0.320317 0
1 0.313039 0
1 0.305791 0
1 0.298573 0
1 0.291356 0
1 0.284169 0
1 0.276997 0
1 0.269856 0
1 0.262715 0
1 0.255589 0
1 0.248478 0
1 0.241382 0
1 0.234302 0
0 0.533089 0
0 0.525048 0
0 0.516762 0
0 0.508034 0
0 0.498375 0
0 0.489693 0
0 0.481392 0
0.005066 0.473289 0
0.0770886 0.465339 0
0.148669 0.457496 0
0.219883 0.449744 0
0.290791 0.442069 0
0.36144 0.43444 0
0.431846 0.426886 0
0.502052 0.419364 0
0.572061 0.411887 0
0.641901 0.404456 0
0.711574 0.39704 0
0.781109 0.38967 0
0.850507 0.38233 0
0.919768 0.375006 0
0.988907 0.367712 0
1 0.360449 0
1 0.353201 0
1 0.345968 0
1 0.338766 0
1 0.331579 0
1 0.324407 0
1 0.317235 0
1 0.310094 0
1 0.302968 0
1 0.295857 0
1 0.288762 0
0 0.58819 0
0 0.580118 0
0 0.571786 0
0 0.563043 0
0 0.553338 0
0 0.544625 0
0 0.536278 0
0 0.528161 0
0.0462806 0.52018 0
0.117845 0.512306 0
0.189044 0.504524 0
0.259922 0.496818 0
0.330556 0.489174 0
0.400946 0.48159 0
0.471122 0.474037 0
0.541115 0.466545 0
0.610941 0.459083 0
0.680598 0.451652 0
0.750103 0.444251 0
0.819486 0.436896 0
0.888731 0.429557 0
0.95787 0.422248 0
1 0.414954 0
1 0.407675 0
1 0.400443 0
1 0.39321 0
1 0.385992 0
1 0.378805 0
1 0.371633 0
1 0.364462 0
1 0.357321 0
1 0.350195 0
1 0.343069 0
0 0.643107 0
0 0.634989 0
0 0.626642 0
0 0.617853 0
0 0.608133 0
0 0.59939 0
0 0.591012 0
0 0.582864 0
0.0155795 0.574853 0
0.087129 0.566949 0
0.158297 0.559152 0
0.229175 0.551415 0
0.299779 0.54374 0
0.370153 0.536126 0
0.440314 0.528572 0
0.510292 0.52105 0
0.580087 0.513558 0
0.649729 0.506111 0
0.719234 0.498695 0
0.788586 0.49131 0
0.857832 0.483955 0
0.92694 0.476616 0
0.995941 0.469306 0
1 0.462028 0
1 0.454765 0
1 0.447517 0
1 0.440284 0
1 0.433082 0
1 0.425879 0
1 0.418708 0
1 0.411551 0
1 0.404395 0
1 0.397269 0
0 0.697841 0
0 0.689693 0
0 0.681315 0
0 0.672526 0
0 0.662776 0
0 0.653986 0
0 0.645594 0
0 0.6374 0
0 0.629374 0
0.0565042 0.621454 0
0.127657 0.613626 0
0.19852 0.605875 0
0.269108 0.598184 0
0.339467 0.590539 0
0.409613 0.582956 0
0.479561 0.575418 0
0.549355 0.56791 0
0.618982 0.560433 0
0.688472 0.553002 0
0.757809 0.545602 0
0.827024 0.538231 0
0.896132 0.530877 0
0.965118 0.523552 0
1 0.516243 0
1 0.508965 0
1 0.501701 0
1 0.494453 0
1 0.487221 0
1 0.480018 0
1 0.472816 0
1 0.465644 0
1 0.458488 0
1 0.451331 0
0 0.752422 0
0 0.744244 0
0 0.735851 0
0 0.727031 0
0 0.71725 0
0 0.708446 0
0 0.700023 0
0 0.691814 0
0 0.683757 0
0.0259556 0.675822 0
0.0971084 0.667964 0
0.167941 0.660182 0
0.238529 0.652476 0
0.308858 0.644816 0
0.379004 0.637217 0
0.448936 0.629648 0
0.518715 0.622126 0
0.588327 0.614649 0
0.657801 0.607187 0
0.727123 0.599771 0
0.796338 0.592371 0
0.865415 0.585 0
0.934386 0.577661 0
1 0.570336 0
1 0.563043 0
1 0.555764 0
1 0.548501 0
1 0.541268 0
1 0.534035 0
1 0.526833 0
1 0.519631 0
1 0.512459 0
1 0.505302 0
0 0.806851 0
0 0.798657 0
0 0.790234 0
0 0.781399 0
0 0.771603 0
0 0.762768 0
0 0.75433 0
0 0.74609 0
0 0.738018 0
0 0.730053 0
0.0666361 0.722179 0
0.137469 0.714382 0
0.208026 0.706661 0
0.278355 0.698985 0
0.34847 0.691356 0
0.418402 0.683772 0
0.488167 0.676234 0
0.557763 0.668727 0
0.627222 0.661265 0
0.696529 0.653819 0
0.765728 0.646403 0
0.834806 0.639033 0
0.903761 0.631662 0
0.972625 0.624323 0
1 0.617014 0
1 0.60972 0
1 0.602441 0
1 0.595193 0
1 0.587945 0
1 0.580728 0
1 0.573526 0
1 0.566339 0
1 0.559152 0
0 0.861158 0
0 0.852949 0
0 0.844511 0
0 0.83566 0
0 0.825833 0
0 0.816968 0
0 0.808499 0
0 0.800259 0
0 0.792157 0
0 0.784176 0
0.0362402 0.776287 0
0.107057 0.768475 0
0.1776 0.760723 0
0.247913 0.753033 0
0.318029 0.745388 0
0.387945 0.737789 0
0.457679 0.730236 0
0.527276 0.722713 0
0.596719 0.715221 0
0.666026 0.707774 0
0.73521 0.700343 0
0.804273 0.692943 0
0.873213 0.685573 0
0.942061 0.678218 0
1 0.670893 0
1 0.663584 0
1 0.656291 0
1 0.649027 0
1 0.641764 0
1 0.634531 0
1 0.627314 0
1 0.620111 0
1 0.612924 0
0 0.915343 0
0 0.907118 0
0 0.89865 0
0 0.889784 0
0 0.879957 0
0 0.871061 0
0 0.862577 0
0 0.854307 0
0 0.846189 0
0 0.838193 0
0.00590524 0.830274 0
0.0767071 0.822446 0
0.14725 0.814679 0
0.217548 0.806973 0
0.287648 0.799313 0
0.357549 0.791699 0
0.427283 0.784131 0
0.496864 0.776593 0
0.566293 0.769085 0
0.635584 0.761624 0
0.704753 0.754177 0
0.773816 0.746761 0
0.842756 0.739376 0
0.911589 0.732006 0
0.980316 0.724666 0
1 0.717342 0
1 0.710048 0
1 0.702754 0
1 0.695491 0
1 0.688243 0
1 0.68101 0
1 0.673793 0
1 0.66659 0
0 0.969421 0
0 0.961166 0
0 0.952697 0
0 0.943816 0
0 0.933959 0
0 0.925048 0
0 0.916533 0
0 0.908248 0
0 0.900114 0
0 0.892103 0
0 0.884169 0
0.0464332 0.876326 0
0.11696 0.868544 0
0.187259 0.860822 0
0.257343 0.853147 0
0.32723 0.845518 0
0.396948 0.837919 0
0.466514 0.830381 0
0.535943 0.822858 0
0.605234 0.815381 0
0.674388 0.807919 0
0.74342 0.800488 0
0.81236 0.793088 0
0.881178 0.785718 0
0.949905 0.778347 0
1 0.771023 0
1 0.763699 0
1 0.756405 0
1 0.749126 0
1 0.741863 0
1 0.73463 0
1 0.727398 0
1 0.72018 0
0 1 0
0 1 0
0 1 0
0 0.997742 0
0 0.987869 0
0 0.978927 0
0 0.970413 0
0 0.962097 0
0 0.953948 0
0 0.945907 0
0 0.937972 0
0.0162203 0.930114 0
0.0867323 0.922316 0
0.157015 0.914565 0
0.227085 0.906874 0
0.296971 0.899245 0
0.36669 0.89163 0
0.43624 0.884077 0
0.505653 0.876539 0
0.574929 0.869047 0
0.644083 0.86157 0
0.7131 0.854139 0
0.782025 0.846723 0
0.850843 0.839323 0
0.919554 0.831952 0
0.988159 0.824613 0
1 0.817288 0
1 0.809979 0
1 0.802686 0
1 0.795407 0
1 0.788159 0
1 0.780911 0
1 0.773693 0
0 1 0
0 1 0
0 1 0
0 1 0
0 1 0
0 1 0
0 1 0
0 1 0
0 1 0
0 0.999634 0
0 0.991684 0
0 0.983795 0
0.0565652 0.975982 0
0.126833 0.968231 0
0.196902 0.960525 0
0.266773 0.95288 0
0.336477 0.945266 0
0.406027 0.937682 0
0.475425 0.930144 0
0.544686 0.922621 0
0.613825 0.915145 0
0.682857 0.907698 0
0.751766 0.900267 0
0.820554 0.892866 0
0.889265 0.885481 0
0.95787 0.878126 0
1 0.870787 0
1 0.863462 0
1 0.856168 0
1 0.848875 0
1 0.841611 0
1 0.834363 0
1 0.827131 0
0 1 0
0 1 0
0 1 0
0 1 0
0 1 0
0 1 0
0 1 0
0 1 0
0 1 0
0 1 0
0 1 0
0 1 0
0.0264439 1 0
0.0967117 1 0
0.166766 1 0
0.236637 1 0
0.306325 0.99881 0
0.37586 0.991211 0
0.445258 0.983658 0
0.514504 0.976135 0
0.583642 0.968643 0
0.652659 0.961181 0
0.721553 0.953735 0
0.790341 0.946319 0
0.859037 0.938933 0
0.927642 0.931563 0
0.996139 0.924208 0
1 0.916869 0
1 0.90956 0
1 0.902266 0
1 0.894987 0
1 0.887724 0
1 0.880476 0
0 1 0
0 1 0
0 1 0
0 1 0
0 1 0
0 1 0
0 1 0
0 1 0
0 1 0
0 1 0
0 1 0
0 1 0
0 1 0
0.0666361 1 0
0.13669 1 0
0.206546 1 0
0.276219 1 0
0.345754 1 0
0.415137 1 0
0.484382 1 0
0.553506 1 0
0.622507 1 0
0.691402 1 0
0.760189 0.99971 0
0.82887 0.992294 0
0.897459 0.984924 0
0.965957 0.977554 0
1 0.970214 0
1 0.96289 0
1 0.955581 0
1 0.948302 0
1 0.941024 0
1 0.933776 0
0 1 0
0 1 0
0 1 0
0 1 0
0 1 0
0 1 0
0 1 0
0 1 0
0 1 0
0 1 0
0 1 0
0 1 0
0 1 0
0.0366217 1 0
0.106645 1 0
0.176501 1 0
0.246174 1 0
0.315694 1 0
0.385077 1 0
0.454307 1 0
0.523415 1 0
0.592416 1 0
0.661295 1 0
0.730083 1 0
0.798749 1 0
0.867338 1 0
0.935821 1 0
1 1 0
1 1 0
1 1 0
1 1 0
1 0.994263 0
1 0.986999 0
0 1 0
0 1 0
0 1 0
0 1 0
0 1 0
0 1 0
0 1 0
0 1 0
0 1 0
0 1 0
0 1 0
0 1 0
0 1 0
0.00663767 1 0
0.0766613 1 0
0.146502 1 0
0.216175 1 0
0.285679 1 0
0.355047 1 0
0.424277 1 0
0.493385 1 0
0.562371 1 0
0.631251 1 0
0.700023 1 0
0.768688 1 0
0.837263 1 0
0.905745 1 0
0.974136 1 0
1 1 0
1 1 0
1 1 0
1 1 0
1 1 0
0 1 0
0 1 0
0 1 0
0 1 0
0 1 0
0 1 0
0 1 0
0 1 0
0 1 0
