site/assets/luts/freshluts--0000553-logc-teal-orange-709-v1.cube
# LUTr-Schema-Version: 2
# LUTr-ID: freshluts--0000553-logc-teal-orange-709-v1
# LUTr-Title: LogC_Teal_Orange_709_V1
# LUTr-Collection: Fresh LUTs
# LUTr-Collection-ID: freshluts-community
# LUTr-Source: https://freshluts.com
# LUTr-Retrieved: 2026-07-27
# LUTr-Source-File: submissions-raw/freshluts/cubes/553__LogC_Teal_Orange_709_V1.cube
# LUTr-Source-Format: CUBE
# LUTr-Source-SHA256: 98d1691ebac29306da451e47d3fc17e3e86b683bb618c31752a287196ab59944
# LUTr-License: CC0-1.0
# LUTr-License-URL: https://freshluts.com/termsandconditions
# LUTr-License-Basis: site-terms
# LUTr-Transform-Class: creative-look
# LUTr-Tags: creative, freshluts, community, cube, teal, arri-logc3-ei800
# LUTr-Input-Color-Space:
# LUTr-Input-Gamut: arri-wide-gamut-3
# LUTr-Input-Transfer: arri-logc3-ei800
# LUTr-Output-Color-Space: srgb
# LUTr-Output-Gamut: rec709
# LUTr-Output-Transfer: srgb
# LUTr-Color-Space-Confidence: camera-profile-input-required
# LUTr-Domain-Normalized: true
# LUTr-Shaper: none
# LUTr-Original-Grid: 33x33x33
# LUTr-Conversion-Grid: 33x33x33
# LUTr-Conversion-Interpolation: none
# LUTr-Conversion-Method: Metadata normalization; numeric LUT samples preserved
# LUTr-Conversion-Tool: LUTr scripts/convert-all-to-cube.mjs 2.0.0
# LUTr-Conversion-Date: 2026-07-28
# LUTr-Asset-URL: https://freshluts.com/luts/553
# LUTr-Author: tjtop
# LUTr-Author-URL: https://freshluts.com/users/10151
# LUTr-Attribution: tjtop via Fresh LUTs
# LUTr-Source-Labels: gamma=Arri log c; color=Teal; key=Neutral; style=Teal - Orange
# LUTr-Note: Preserve this metadata and the upstream license notices when redistributing.
TITLE "LogC_Teal_Orange_709_V1"
LUT_3D_SIZE 33
DOMAIN_MIN 0 0 0
DOMAIN_MAX 1 1 1
0 0 0
0 0 0
0 0 0
0 0 0
0.000167849 0.000030518 0.000030518
0.00125124 0.000030518 0.0000762951
0.00411994 0 0.0000457771
0.00958267 0 0
0.0183566 0 0
0.0310521 0 0
0.0481117 0 0
0.0687877 0 0
0.0893416 0 0
0.111742 0 0
0.13724 0 0
0.165225 0 0
0.195209 0 0
0.226032 0 0
0.256764 0 0
0.287358 0 0
0.317891 0 0
0.348379 0 0
0.378637 0 0
0.408667 0 0
0.43856 0 0
0.468391 0 0
0.497978 0 0
0.527306 0 0
0.556115 0 0
0.584283 0 0
0.611673 0 0
0.638041 0 0
0.663493 0 0
0 0 0
0 0 0
0 0 0
0 0 0
0.000137331 0.000015259 0.000030518
0.00108339 0.000030518 0.0000762951
0.0037232 0.000015259 0.0000457771
0.00883497 0 0
0.0171969 0 0
0.0294347 0 0
0.0459602 0 0
0.0662242 0 0
0.0866102 0 0
0.108598 0 0
0.133684 0 0
0.161532 0 0
0.191363 0 0
0.222187 0 0
0.252842 0 0
0.283421 0 0
0.314076 0 0
0.344594 0 0
0.374884 0 0
0.404837 0 0
0.43473 0 0
0.464561 0 0
0.494285 0 0
0.523674 0 0
0.55256 0 0
0.580713 0 0
0.608194 0 0
0.634775 0 0
0.660349 0 0
0 0 0
0 0 0
0 0 0
0 0 0
0.000106813 0.000015259 0.000030518
0.000915541 0.000030518 0.0000762951
0.00331121 0.000015259 0.0000610361
0.0081178 0 0.000015259
0.0160525 0 0
0.0278172 0 0
0.0437476 0 0
0.0635691 0 0
0.084062 0 0
0.105852 0 0
0.130541 0 0
0.157885 0 0
0.187472 0 0
0.218235 0 0
0.249042 0 0
0.279606 0 0
0.310277 0 0
0.340703 0 0
0.371023 0 0
0.401114 0 0
0.431006 0 0
0.460853 0 0
0.490608 0 0
0.519936 0 0
0.548882 0 0
0.577234 0 0
0.604822 0 0
0.631525 0 0
0.657221 0 0
0.000320439 0.000762951 0.000411994
0.00030518 0.000686656 0.000366217
0.000274662 0.000640879 0.000350958
0.000259403 0.000595102 0.000320439
0.000534066 0.000747692 0.000335698
0.00190738 0.00112917 0.000289921
0.00518807 0.00140383 0.000106813
0.0111086 0.00140383 0
0.0205234 0.00102235 0
0.0341344 0.000320439 0
0.0521248 0 0
0.0725414 0 0
0.0938735 0 0
0.117189 0 0
0.143587 0 0
0.172854 0 0
0.204425 0 0
0.237186 0 0
0.270176 0 0
0.302617 0 0
0.334676 0 0
0.366384 0 0
0.397391 0 0
0.428031 0 0
0.458076 0 0
0.487877 0 0
0.517479 0 0
0.546563 0 0
0.57528 0 0
0.603311 0 0
0.630411 0 0
0.656687 0 0
0.681971 0 0
0.000488289 0.00418097 0.00120546
0.000488289 0.00399786 0.00115969
0.000488289 0.00389105 0.00114443
0.000488289 0.00383001 0.00112917
0.000946059 0.00418097 0.0010071
0.00335698 0.00549325 0.000488289
0.00834669 0.0065919 0.0000457771
0.0166171 0.00715648 0
0.0288548 0.00695811 0
0.0458534 0.00604257 0
0.0666209 0.00453193 0
0.0891127 0.0024567 0
0.113573 0.000579843 0
0.14107 0 0
0.171313 0 0
0.204379 0 0
0.239704 0 0
0.276768 0 0
0.31429 0 0
0.350698 0 0
0.385657 0 0
0.419562 0 0
0.452354 0 0
0.484215 0 0
0.514839 0 0
0.544808 0 0
0.57409 0 0
0.602853 0 0
0.631052 0 0
0.658198 0 0
0.684596 0 0
0.710048 0 0
0.734554 0 0
0.000030518 0.0122072 0.00129702
0.0000457771 0.0119631 0.00129702
0.0000457771 0.011841 0.00129702
0.0000457771 0.0118105 0.00129702
0.000259403 0.0121614 0.00112917
0.00254826 0.0147402 0.0000610361
0.00907912 0.0169833 0
0.0193637 0.0183719 0
0.0340887 0.0190585 0
0.0536965 0.0189212 0
0.0766003 0.0177462 0
0.10135 0.0154726 0
0.12958 0.0119173 0
0.161089 0.00717174 0
0.19556 0.00221256 0
0.23267 0 0
0.272053 0 0
0.313161 0 0
0.354818 0 0
0.395682 0 0
0.434195 0 0
0.470466 0 0
0.505333 0 0
0.538674 0 0
0.570504 0 0
0.600778 0 0
0.629786 0 0
0.658091 0 0
0.685725 0 0
0.712505 0 0
0.738415 0 0
0.763241 0 0
0.787518 0 0
0 0.0270085 0
0 0.0266423 0
0 0.0264134 0
0 0.0264134 0
0 0.0269627 0
0.000183108 0.0306249 0
0.00512703 0.0337987 0
0.0172732 0.0362249 0
0.0344244 0.0380102 0
0.056611 0.0389105 0
0.0820325 0.0387732 0
0.110094 0.0373083 0
0.142046 0.0341039 0
0.177478 0.0291142 0
0.215763 0.0221256 0
0.256458 0.0130312 0
0.299443 0.00422675 0
0.343923 0.000350958 0
0.389425 0.000015259 0
0.43444 0 0
0.477516 0 0
0.517479 0 0
0.554665 0 0
0.589761 0 0
0.623041 0 0
0.654398 0 0
0.684031 0 0
0.712337 0 0
0.739513 0 0
0.766247 0 0
0.791897 0 0
0.816464 0 0
0.839918 0 0
0 0.0496986 0
0 0.0493172 0
0 0.049134 0
0 0.049134 0
0 0.0501106 0
0 0.0542153 0
0 0.0579995 0
0.00843824 0.061677 0
0.0277409 0.0645304 0
0.0527504 0.0663615 0
0.0819257 0.067216 0
0.114275 0.0666514 0
0.150103 0.0643778 0
0.189258 0.0600595 0
0.231022 0.0532845 0
0.275425 0.0444648 0
0.321935 0.0327764 0
0.37026 0.0180362 0
0.419471 0.00556954 0
0.468299 0.00158694 0
0.51545 0 0
0.559625 0 0
0.600183 0 0
0.637888 0 0
0.673075 0 0
0.705653 0 0
0.736065 0 0
0.764614 0 0
0.791638 0 0
0.817578 0 0
0.842283 0 0
0.866011 0 0
0.888533 0 0
0 0.0774853 0
0 0.0772869 0
0 0.0771954 0
0 0.0771954 0
0 0.0789654 0
0 0.0833448 0
0 0.0873121 0
0.0000457771 0.0911116 0
0.0127871 0.0947738 0
0.0390631 0.0977188 0
0.0734875 0.0997787 0
0.11165 0.100542 0
0.152163 0.100038 0
0.195651 0.0978714 0
0.241764 0.0937667 0
0.290089 0.0873884 0
0.340322 0.0778973 0
0.392126 0.0649424 0
0.445075 0.0485847 0
0.497856 0.0303655 0
0.549157 0.016083 0
0.597299 0.00834669 0
0.641382 0.00227359 0
0.681315 0 0
0.718227 0 0
0.752132 0 0
0.783139 0 0
0.811933 0 0
0.838788 0 0
0.864134 0 0
0.888457 0 0
0.91162 0 0
0.933425 0 0
0 0.109026 0
0 0.108782 0
0 0.108782 0
0 0.108782 0
0 0.112001 0
0 0.117098 0
0 0.122164 0
0 0.126726 0
0.00105287 0.131167 0
0.0135042 0.135592 0
0.0495766 0.139208 0
0.0976883 0.141817 0
0.146319 0.143252 0
0.195743 0.143221 0
0.24683 0.141863 0
0.299474 0.138933 0
0.354055 0.134112 0
0.409979 0.127001 0
0.466392 0.117006 0
0.522499 0.104158 0
0.576989 0.0879835 0
0.628214 0.070161 0
0.675242 0.0540475 0
0.717403 0.0441291 0
0.756054 0.0397803 0
0.791424 0.0367742 0
0.823728 0.0356756 0
0.853193 0.0366979 0
0.880323 0.0395056 0
0.905745 0.0442664 0
0.929808 0.0501869 0
0.952651 0.0563668 0
0.97377 0.0627146 0
0 0.147112 0
0 0.146975 0
0 0.146838 0
0 0.146975 0
0 0.152041 0
0 0.158129 0
0 0.164248 0
0 0.170077 0
0 0.175769 0
0.000549325 0.181003 0
0.0122988 0.186435 0
0.0639811 0.190997 0
0.127581 0.194537 0
0.187182 0.196979 0
0.245228 0.198077 0
0.303471 0.197543 0
0.362417 0.195712 0
0.421912 0.192233 0
0.481193 0.187076 0
0.539925 0.180301 0
0.59675 0.171878 0
0.650706 0.16289 0
0.700496 0.154116 0
0.745296 0.146792 0
0.785962 0.141207 0
0.823117 0.137499 0
0.857023 0.137072 0
0.887846 0.13991 0
0.916014 0.145922 0
0.941848 0.15465 0
0.965911 0.164843 0
0.985306 0.176059 0
0.996094 0.187808 0
0 0.192477 0
0 0.192309 0
0 0.192309 0
0 0.192309 0
0 0.200092 0
0 0.207584 0
0 0.214588 0
0 0.221622 0
0 0.228595 0
0 0.235477 0
0.000244144 0.241993 0
0.0158236 0.248188 0
0.0836347 0.253468 0
0.164523 0.257511 0
0.233433 0.260227 0
0.298604 0.261585 0
0.362249 0.261357 0
0.425467 0.260029 0
0.487938 0.25745 0
0.549187 0.253803 0
0.608484 0.249332 0
0.664927 0.244526 0
0.71722 0.239765 0
0.764797 0.236454 0
0.808026 0.234623 0
0.847486 0.23447 0
0.883345 0.236271 0
0.915618 0.239811 0
0.945113 0.245716 0
0.971984 0.253437 0
0.992813 0.262196 0
0.998703 0.271275 0
1 0.28069 0
0 0.245502 0
0 0.245319 0
0 0.245319 0
0 0.245319 0
0 0.256306 0
0 0.26566 0
0 0.274067 0
0 0.282216 0
0 0.28986 0
0 0.297459 0
0 0.304692 0
0.000381476 0.311315 0
0.0262303 0.317372 0
0.109606 0.32224 0
0.20499 0.326284 0
0.281498 0.328847 0
0.352361 0.33019 0
0.420432 0.330373 0
0.486534 0.329305 0
0.550439 0.327626 0
0.612268 0.325353 0
0.671092 0.322835 0
0.726085 0.320577 0
0.776303 0.318868 0
0.822278 0.318532 0
0.864134 0.319509 0
0.902312 0.321981 0
0.936751 0.32607 0
0.967742 0.331701 0
0.994186 0.338338 0
0.999817 0.345342 0
1 0.353124 0
1 0.361471 0
0 0.305791 0
0 0.305577 0
0 0.305577 0
0 0.306584 0
0 0.319707 0
0 0.330327 0
0 0.339635 0
0 0.34818 0
0 0.356542 0
0 0.364401 0
0 0.371725 0
0 0.378683 0
0 0.384955 0
0.0381628 0.390784 0
0.144076 0.395453 0
0.247822 0.398672 0
0.330266 0.400977 0
0.405417 0.402274 0
0.476371 0.40267 0
0.544152 0.402304 0
0.608896 0.401175 0
0.670237 0.400076 0
0.727596 0.399115 0
0.78027 0.398733 0
0.828779 0.399115 0
0.873106 0.400168 0
0.913375 0.402625 0
0.949798 0.406332 0
0.983001 0.411139 0
0.999329 0.41648 0
1 0.422461 0
1 0.428992 0
1 0.43624 0
0 0.36875 0
0 0.36875 0
0 0.36875 0
0 0.370306 0
0 0.385122 0
0 0.397467 0
0 0.407553 0
0 0.416739 0
0 0.425361 0
0 0.433539 0
0 0.441291 0
0 0.448493 0
0 0.45478 0
0 0.460533 0
0.044007 0.465766 0
0.184482 0.469963 0
0.294011 0.473075 0
0.380606 0.474937 0
0.458305 0.476188 0
0.530663 0.476722 0
0.598505 0.476722 0
0.662516 0.476417 0
0.722194 0.475837 0
0.777371 0.475807 0
0.828214 0.476341 0
0.874907 0.477638 0
0.917525 0.479835 0
0.956893 0.482689 0
0.991653 0.486488 0
0.999741 0.490867 0
1 0.49604 0
1 0.501839 0
1 0.507912 0
0 0.433051 0
0 0.433051 0
0 0.433051 0
0 0.435248 0
0 0.451102 0
0 0.464729 0
0 0.476097 0
0 0.485924 0
0 0.494667 0
0 0.503182 0
0 0.511009 0
0 0.518349 0
0 0.525124 0
0 0.531167 0
0.00985733 0.536202 0
0.0816968 0.540871 0
0.238544 0.544564 0
0.344732 0.547234 0
0.432059 0.548989 0
0.510246 0.549737 0
0.582223 0.550164 0
0.649104 0.550256 0
0.711254 0.550271 0
0.768688 0.5505 0
0.822126 0.550896 0
0.871641 0.552132 0
0.917494 0.554025 0
0.959976 0.556527 0
0.991363 0.559533 0
1 0.563012 0
1 0.567437 0
1 0.572457 0
1 0.577737 0
0 0.497902 0
0 0.497902 0
0 0.498131 0
0 0.500786 0
0 0.51751 0
0 0.531701 0
0 0.543862 0
0 0.554147 0
0 0.563317 0
0 0.571878 0
0 0.57966 0
0 0.58703 0
0 0.593896 0
0 0.600122 0
0 0.605585 0
0.0142824 0.609964 0
0.145266 0.613931 0
0.297475 0.616968 0
0.39884 0.619074 0
0.484398 0.620447 0
0.561074 0.621271 0
0.631144 0.621515 0
0.696178 0.621912 0
0.756588 0.622415 0
0.812879 0.623224 0
0.865309 0.62443 0
0.913939 0.625803 0
0.959335 0.627832 0
0.990921 0.630411 0
1 0.633631 0
1 0.637446 0
1 0.641535 0
1 0.646647 0
0 0.562875 0
0 0.562875 0
0 0.562875 0
0 0.565957 0
0 0.583062 0
0 0.598016 0
0 0.610788 0
0 0.621073 0
0 0.630259 0
0 0.638605 0
0 0.646448 0
0 0.653559 0
0 0.659998 0
0 0.666148 0
0 0.671641 0
0.00294499 0.676387 0
0.0301823 0.680354 0
0.23772 0.683528 0
0.360021 0.686122 0
0.454963 0.687999 0
0.537102 0.689342 0
0.61117 0.690364 0
0.679301 0.691035 0
0.742321 0.691951 0
0.801328 0.692988 0
0.856443 0.694163 0
0.907942 0.695628 0
0.956054 0.69749 0
0.990616 0.699596 0
1 0.702419 0
1 0.70576 0
1 0.709346 0
1 0.714992 0
0 0.627115 0
0 0.627115 0
0 0.627115 0
0 0.63035 0
0 0.647166 0
0 0.661982 0
0 0.674784 0
0 0.685634 0
0 0.69482 0
0 0.702724 0
0 0.710201 0
0 0.717159 0
0 0.723552 0
0 0.729519 0
0 0.734752 0
0 0.739635 0
0.00418097 0.743816 0
0.165743 0.747295 0
0.314855 0.750347 0
0.424002 0.752697 0
0.512596 0.754788 0
0.590326 0.756512 0
0.661433 0.758022 0
0.72726 0.759304 0
0.788708 0.760342 0
0.84622 0.761715 0
0.899947 0.763302 0
0.950561 0.765164 0
0.990021 0.767391 0
1 0.769741 0
1 0.772747 0
1 0.776608 0
1 0.782315 0
0 0.689586 0
0 0.689799 0
0 0.689799 0
0 0.693111 0
0 0.709239 0
0 0.72343 0
0 0.735988 0
0 0.746777 0
0 0.755962 0
0 0.763973 0
0 0.771252 0
0 0.777905 0
0 0.7841 0
0 0.789944 0
0 0.795392 0
0 0.800351 0
0.0049897 0.804547 0
0.099855 0.808362 0
0.268223 0.81178 0
0.390448 0.814969 0
0.486763 0.817823 0
0.569314 0.820035 0
0.643565 0.822126 0
0.711971 0.824018 0
0.775692 0.825788 0
0.835111 0.827543 0
0.891188 0.829145 0
0.943954 0.831144 0
0.989151 0.833371 0
1 0.835828 0
1 0.838514 0
1 0.841764 0
1 0.847517 0
0 0.750027 0
0 0.750027 0
0 0.750027 0
0 0.753262 0
0 0.768704 0
0 0.782513 0
0 0.79472 0
0 0.805173 0
0 0.814343 0
0 0.822263 0
0 0.829282 0
0 0.835828 0
0 0.841733 0
0 0.847395 0
0 0.85275 0
0 0.857847 0
0.000656138 0.862623 0
0.00733959 0.867048 0
0.231205 0.870863 0
0.363897 0.874525 0
0.462806 0.878035 0
0.549645 0.881285 0
0.626429 0.884123 0
0.697002 0.886458 0
0.76257 0.888777 0
0.824033 0.890959 0
0.881849 0.893019 0
0.936294 0.894987 0
0.987198 0.896651 0
1 0.898405 0
1 0.90013 0
1 0.902678 0
1 0.906691 0
0 0.808209 0
0 0.808209 0
0 0.808209 0
0 0.811643 0
0 0.826154 0
0 0.839429 0
0 0.851225 0
0 0.861662 0
0 0.870649 0
0 0.878294 0
0 0.885176 0
0 0.891508 0
0 0.897505 0
0 0.903212 0
0 0.908568 0
0 0.913939 0
0 0.919097 0
0 0.92401 0
0.218418 0.928542 0
0.350545 0.932754 0
0.446784 0.936446 0
0.532021 0.940185 0
0.611429 0.943664 0
0.683513 0.946654 0
0.750195 0.949172 0
0.812207 0.951034 0
0.870573 0.952651 0
0.925383 0.953811 0
0.976806 0.954513 0
0.998474 0.954772 0
1 0.954437 0
1 0.955428 0
1 0.956741 0
0 0.864454 0
0 0.864652 0
0 0.864652 0
0 0.86775 0
0 0.881819 0
0 0.894606 0
0 0.905837 0
0 0.915923 0
0 0.924865 0
0 0.932692 0
0 0.939651 0
0 0.945922 0
0 0.952026 0
0 0.957946 0
0 0.963607 0
0 0.969177 0
0 0.9738 0
0.0113222 0.976806 0
0.215854 0.979507 0
0.344823 0.98204 0
0.441032 0.984375 0
0.521355 0.986389 0
0.597177 0.988357 0
0.669367 0.990051 0
0.735927 0.991379 0
0.797726 0.99234 0
0.855436 0.992905 0
0.90956 0.993057 0
0.960037 0.992859 0
0.993881 0.992279 0
1 0.991394 0
1 0.99115 0
1 0.991089 0
0 0.91902 0
0 0.91902 0
0 0.91902 0
0 0.922057 0
0 0.93547 0
0 0.947677 0
0 0.958755 0
0 0.96878 0
0 0.977172 0
0 0.983276 0
0 0.986236 0
0 0.988922 0
0 0.991485 0
0 0.993896 0
0 0.996185 0
0 0.998505 0
0 0.999908 0
0.0280919 1 0
0.220249 1 0
0.343053 1 0
0.437232 1 0
0.51519 1 0
0.585092 1 0
0.65211 1 0
0.717632 1 0
0.778378 1 0
0.834928 1 0
0.888151 1 0
0.93817 1 0
0.982238 1 0
0.99881 1 0
1 1 0
1 1 0
0 0.971618 0
0 0.971618 0
0 0.971801 0
0 0.974716 0
0 0.985763 0
0 0.991318 0
0 0.994202 0
0 0.996811 0
0 0.998901 0
0 1 0
0 1 0
0 1 0
0 1 0
0 1 0
0 1 0
0 1 0
0 1 0
0.0451667 1 0
0.220935 1 0
0.339117 1 0
0.429633 1 0
0.505379 1 0
0.572595 1 0
0.634318 1 0
0.694774 1 0
0.755047 1 0
0.811307 1 0
0.864042 1 0
0.913451 1 0
0.95964 1 0
0.991226 1 0
1 1 0
1 1 0
0 0.998245 0
0 0.998245 0
0 0.998245 0
0 0.998566 0
0 0.999649 0
0 1 0
0 1 0
0 1 0
0 1 0
0 1 0
0 1 0
0 1 0
0 1 0
0 1 0
0 1 0
0 1 0
0 1 0
0.0787366 1 0
0.265248 1 0
0.369146 1 0
0.449058 1 0
0.517845 1 0
0.579919 1 0
0.637308 1 0
0.691402 1 0
0.744564 1 0
0.797757 1 0
0.84773 1 0
0.894469 1 0
0.938109 1 0
0.97789 1 0
0.99913 1 0
1 1 0
0 1 0
0 1 0
0 1 0
0 1 0
0 1 0
0 1 0
0 1 0
0 1 0
0 1 0
0 1 0
0 1 0
0 1 0
0 1 0
0 1 0
0 1 0
0 1 0
0.11017 1 0
0.233677 1 0
0.342809 1 0
0.420432 1 0
0.484428 1 0
0.543099 1 0
0.597681 1 0
0.649226 1 0
0.697948 1 0
0.744533 1 0
0.790845 1 0
0.837842 1 0
0.88191 1 0
0.922972 1 0
0.961288 1 0
0.990677 1 0
1 1 0
0 1 0
0 1 0
0 1 0
0 1 0
0 1 0
0 1 0
0 1 0
0 1 0
0 1 0
