site/assets/luts/freshluts--0000505-purple-sunset.cube
# LUTr-Schema-Version: 2
# LUTr-ID: freshluts--0000505-purple-sunset
# LUTr-Title: purple sunset
# LUTr-Collection: Fresh LUTs
# LUTr-Collection-ID: freshluts-community
# LUTr-Source: https://freshluts.com
# LUTr-Retrieved: 2026-07-27
# LUTr-Source-File: submissions-raw/freshluts/cubes/505__purple_sunset_33pt.cube_1.A003_07200606_C003_S000.cube
# LUTr-Source-Format: CUBE
# LUTr-Source-SHA256: 3edb662ded85a664ec87c5d451f09f59379f6d4d2ff62a33290ce18b182a7376
# LUTr-License: CC0-1.0
# LUTr-License-URL: https://freshluts.com/termsandconditions
# LUTr-License-Basis: site-terms
# LUTr-Transform-Class: creative-look
# LUTr-Tags: creative, freshluts, community, cube, warm, bmd-film-4k
# LUTr-Input-Color-Space: bmd-film-4k
# LUTr-Input-Gamut: bmd-film-gamut
# LUTr-Input-Transfer: bmd-film-4k
# LUTr-Output-Color-Space: srgb
# LUTr-Output-Gamut: rec709
# LUTr-Output-Transfer: srgb
# LUTr-Color-Space-Confidence: inferred-from-source-label
# LUTr-Domain-Normalized: true
# LUTr-Shaper: none
# LUTr-Original-Grid: 33x33x33
# LUTr-Conversion-Grid: 33x33x33
# LUTr-Conversion-Interpolation: none
# LUTr-Conversion-Method: Metadata normalization; numeric LUT samples preserved
# LUTr-Conversion-Tool: LUTr scripts/convert-all-to-cube.mjs 2.0.0
# LUTr-Conversion-Date: 2026-07-28
# LUTr-Asset-URL: https://freshluts.com/luts/505
# LUTr-Author: sswyft
# LUTr-Author-URL: https://freshluts.com/users/10877
# LUTr-Attribution: sswyft via Fresh LUTs
# LUTr-Source-Labels: gamma=Blackmagic BMD Film 4K; color=Warm; key=Neutral; style=Colorful
# LUTr-Note: Preserve this metadata and the upstream license notices when redistributing.
TITLE "purple sunset"
LUT_3D_SIZE 5
DOMAIN_MIN 0 0 0
DOMAIN_MAX 1 1 1
0.0241855 0 0
0.154513 0 0
0.436896 0 0
0.727245 0 0
0.879683 0 0
0.0136721 0.117403 0
0.154009 0.123491 0
0.458152 0.0994583 0
0.782315 0.0881208 0
0.977142 0.12958 0
0 0.376898 0
0.128084 0.425772 0
0.467063 0.436545 0
0.809689 0.443687 0
1 0.491859 0.00791943
0 0.738201 0
0.157076 0.790265 0
0.492042 0.797024 0
0.823468 0.792966 0
0.999557 0.815686 0
0.106966 1 0.054963
0.263935 1 0.0776837
0.563714 1 0.0492714
0.861357 0.984222 0.0114137
1 0.979934 0.00712596
0 0 0.119036
0.152911 0 0.100893
0.435676 0 0.0554665
0.727535 0 0.011841
0.882719 0 0.0136416
0.0147707 0.118502 0.0970016
0.158419 0.127916 0.106416
0.467094 0.108385 0.0868849
0.796506 0.102312 0.0808118
0.994507 0.146929 0.125429
0 0.392599 0.0428931
0.14583 0.443519 0.0938125
0.483864 0.453361 0.103655
0.827344 0.461341 0.111635
1 0.509377 0.159655
0 0.756024 0.0708171
0.17409 0.807279 0.122087
0.506477 0.81146 0.126268
0.83386 0.803357 0.118151
1 0.822278 0.137087
0.115908 1 0.198138
0.269322 1 0.217304
0.566125 1 0.185916
0.861753 0.984619 0.146059
1 0.979034 0.140475
0 0 0.361639
0.137301 0 0.413489
0.420859 0 0.368841
0.71458 0 0.327077
0.87303 0 0.332158
0 0.0666209 0.381903
0.111406 0.0874037 0.402701
0.463783 0.105074 0.41178
0.798123 0.103914 0.41062
0.99823 0.150668 0.457359
0 0.395331 0.373831
0.149599 0.447288 0.425788
0.489158 0.458656 0.437156
0.831144 0.465141 0.443641
1 0.512413 0.490913
0 0.759747 0.402762
0.176425 0.809613 0.452628
0.505653 0.810636 0.453635
0.828885 0.798383 0.441382
0.99762 0.813733 0.456748
0.109575 1 0.519997
0.259617 1 0.535805
0.553735 1 0.501717
0.847639 0.970504 0.460136
0.994354 0.963836 0.453483
0 0 0.599268
0.0660563 0 0.60383
0.406012 0 0.689494
0.701991 0 0.649973
0.86424 0 0.658869
0 0.0633555 0.624231
0.112352 0.0883497 0.649226
0.461814 0.103105 0.745296
0.800259 0.106065 0.748241
1 0.153918 0.796109
0.0255131 0.340017 0.660655
0.183322 0.399558 0.72018
0.450752 0.426749 0.747372
0.834363 0.46836 0.782345
1 0.51429 0.828275
0 0.762692 0.741176
0.177371 0.810559 0.789044
0.502846 0.807828 0.786328
0.789273 0.75877 0.737255
0.987457 0.803586 0.782086
0.101488 1 0.84741
0.248371 1 0.860059
0.540154 0.998505 0.823636
0.832563 0.955413 0.780545
0.978408 0.947906 0.773037
0 0 0.712245
0.0664988 0 0.715633
0.404959 0 0.841794
0.7037 0 0.805051
0.870115 0 0.818112
0 0.0701762 0.743313
0.123705 0.0996872 0.772839
0.474723 0.116014 0.911574
0.816266 0.122057 0.917617
1 0.170016 0.96556
0.0456092 0.360113 0.792996
0.202411 0.418647 0.851545
0.470726 0.446723 0.879622
0.850477 0.484474 0.951827
1 0.52845 0.995804
0.0108644 0.778286 0.910155
0.191424 0.822751 0.955215
0.511772 0.816754 0.948623
0.827268 0.796765 0.928634
0.989441 0.80557 0.937438
0.105425 1 1
0.249348 1 1
0.539147 0.997497 0.975982
0.830259 0.953124 0.931624
0.99765 0.967132 0.945632
