site/assets/luts/freshluts--0001245-cineliked-interior.cube
# LUTr-Schema-Version: 2
# LUTr-ID: freshluts--0001245-cineliked-interior
# LUTr-Title: CinelikeD_Interior
# LUTr-Collection: Fresh LUTs
# LUTr-Collection-ID: freshluts-community
# LUTr-Source: https://freshluts.com
# LUTr-Retrieved: 2026-07-27
# LUTr-Source-File: submissions-raw/freshluts/cubes/1245___GH5S__CinelikeD_Interior_Orange_Tone.cube
# LUTr-Source-Format: CUBE
# LUTr-Source-SHA256: 8f0f566e0b764435e429e3e9eee8d845c37070977eefb9a56be319e846d9b8d8
# LUTr-License: CC0-1.0
# LUTr-License-URL: https://freshluts.com/termsandconditions
# LUTr-License-Basis: site-terms
# LUTr-Transform-Class: creative-look
# LUTr-Tags: creative, freshluts, community, cube, orange, panasonic-cinelike-d
# LUTr-Input-Color-Space: panasonic-cinelike-d
# LUTr-Input-Gamut: rec709
# LUTr-Input-Transfer: panasonic-cinelike-d
# LUTr-Output-Color-Space: srgb
# LUTr-Output-Gamut: rec709
# LUTr-Output-Transfer: srgb
# LUTr-Color-Space-Confidence: inferred-from-source-label
# LUTr-Domain-Normalized: true
# LUTr-Shaper: none
# LUTr-Original-Grid: 33x33x33
# LUTr-Conversion-Grid: 33x33x33
# LUTr-Conversion-Interpolation: none
# LUTr-Conversion-Method: Metadata normalization; numeric LUT samples preserved
# LUTr-Conversion-Tool: LUTr scripts/convert-all-to-cube.mjs 2.0.0
# LUTr-Conversion-Date: 2026-07-28
# LUTr-Asset-URL: https://freshluts.com/luts/1245
# LUTr-Author: Son Triple
# LUTr-Author-URL: https://freshluts.com/users/127032
# LUTr-Attribution: Son Triple via Fresh LUTs
# LUTr-Source-Labels: gamma=Panasonic Cinelike-D; color=Orange; key=Neutral; style=Interior
# LUTr-Note: Preserve this metadata and the upstream license notices when redistributing.
TITLE "CinelikeD_Interior"
LUT_3D_SIZE 5
DOMAIN_MIN 0 0 0
DOMAIN_MAX 1 1 1
0.00267033 0.00347906 0
0.194125 0.057435 0
0.572885 0.162036 0.00216678
0.827787 0.258122 0.0383764
0.958083 0.306722 0.0613718
0.0636759 0.215564 0.110658
0.200977 0.231174 0.143816
0.519158 0.22475 0.010071
0.779751 0.299825 0.0402686
0.96965 0.36347 0.071809
0.12636 0.488045 0.236622
0.238773 0.505272 0.276249
0.476661 0.519417 0.336172
0.81767 0.495537 0.0712444
1 0.547875 0.102327
0.246616 0.809277 0.456046
0.348653 0.828183 0.494667
0.572793 0.824399 0.52697
0.803586 0.850965 0.596704
1 0.860594 0.499336
0.345556 1 0.644831
0.459144 1 0.665034
0.679973 1 0.683696
0.898253 1 0.70837
1 1 0.756176
0 0.0517128 0.211673
0.177417 0.0992752 0.26453
0.545861 0 0.0191501
0.806485 0.142168 0.0131685
0.952361 0.227008 0.0457618
0.124804 0.212848 0.242466
0.211475 0.235538 0.263005
0.531777 0.191882 0.12224
0.787228 0.242435 0.0317388
0.98468 0.315755 0.065919
0.151232 0.491417 0.340108
0.237125 0.513344 0.371405
0.468894 0.533806 0.454948
0.832532 0.511543 0.251255
1 0.527092 0.104265
0.266331 0.814603 0.537469
0.347845 0.835813 0.569894
0.568322 0.834455 0.606332
0.796857 0.862394 0.676661
1 0.872923 0.610697
0.365957 1 0.713649
0.456657 1 0.730938
0.669688 1 0.750805
0.885084 1 0.781094
1 1 0.829847
0 0.168658 0.624308
0.0415961 0.095552 0.689876
0.520531 0.285725 0.720165
0.813291 0.249653 0.577234
0.924453 0.0477455 0.271473
0.00555428 0.25156 0.614038
0.154345 0.282673 0.615015
0.456886 0.340475 0.639094
0.798108 0.293751 0.512367
1 0.196796 0.332265
0.22475 0.487511 0.589014
0.301564 0.507912 0.609598
0.500038 0.538445 0.602899
0.819471 0.546532 0.574685
1 0.568002 0.546365
0.331853 0.806714 0.720836
0.403922 0.827985 0.744976
0.561913 0.840848 0.756954
0.775067 0.86981 0.846448
1 0.889433 0.808316
0.435492 1 0.881239
0.510918 1 0.893919
0.658106 1 0.892348
0.847135 1 0.939406
0.986023 1 1
0 0.267231 0.897444
0.00579843 0.186007 0.944671
0.430411 0.289693 1
0.732189 0.422324 0.974868
0.910582 0.434821 0.905852
0 0.317601 0.856184
0.131014 0.354101 0.86041
0.374243 0.349874 0.966735
0.710872 0.478584 0.936355
0.933257 0.512642 0.924651
0.1393 0.511818 0.851682
0.229252 0.542718 0.875166
0.440406 0.581827 0.891035
0.718898 0.638285 0.923827
0.965576 0.667948 0.92903
0.413535 0.804578 0.928222
0.482795 0.824414 0.949111
0.624323 0.834684 0.957595
0.802441 0.875319 0.998123
1 0.897017 0.989487
0.519631 1 1
0.586862 1 1
0.71014 1 1
0.863264 1 1
1 1 1
0 0.329244 1
0 0.240742 1
0.3252 0.25922 1
0.685969 0.4309 1
0.855146 0.500542 1
0 0.358373 0.999741
0.115465 0.395895 1
0.300542 0.345968 1
0.680613 0.498848 1
0.875166 0.578759 1
0.101305 0.542138 1
0.203906 0.578408 1
0.428229 0.621485 1
0.695781 0.661295 1
0.898573 0.734279 1
0.363363 0.829862 1
0.438148 0.850767 1
0.591653 0.861646 1
0.7823 0.901793 1
0.964446 0.945708 1
0.564202 1 1
0.628153 1 1
0.746853 1 1
0.899229 1 1
1 1 1
