site/assets/luts/freshluts--0001228-correction.cube
# LUTr-Schema-Version: 2
# LUTr-ID: freshluts--0001228-correction
# LUTr-Title: Correction
# LUTr-Collection: Fresh LUTs
# LUTr-Collection-ID: freshluts-community
# LUTr-Source: https://freshluts.com
# LUTr-Retrieved: 2026-07-27
# LUTr-Source-File: submissions-raw/freshluts/cubes/1228__correction.cube
# LUTr-Source-Format: CUBE
# LUTr-Source-SHA256: ebede24dae608c314daaca3acab6aa58cd8912a98bd36d604c158b5372fc07c1
# LUTr-License: CC0-1.0
# LUTr-License-URL: https://freshluts.com/termsandconditions
# LUTr-License-Basis: site-terms
# LUTr-Transform-Class: creative-look
# LUTr-Tags: creative, freshluts, community, cube, warm, sony-s-log3, correction
# LUTr-Input-Color-Space: sony-slog3-sgamut3
# LUTr-Input-Gamut: sony-s-gamut3
# LUTr-Input-Transfer: sony-s-log3
# LUTr-Output-Color-Space: srgb
# LUTr-Output-Gamut: rec709
# LUTr-Output-Transfer: srgb
# LUTr-Color-Space-Confidence: inferred-from-source-label
# LUTr-Domain-Normalized: true
# LUTr-Shaper: none
# LUTr-Original-Grid: 16x16x16
# LUTr-Conversion-Grid: 16x16x16
# LUTr-Conversion-Interpolation: none
# LUTr-Conversion-Method: Metadata normalization; numeric LUT samples preserved
# LUTr-Conversion-Tool: LUTr scripts/convert-all-to-cube.mjs 2.0.0
# LUTr-Conversion-Date: 2026-07-28
# LUTr-Asset-URL: https://freshluts.com/luts/1228
# LUTr-Author: lvannoeun@gmail.com
# LUTr-Author-URL: https://freshluts.com/users/57563
# LUTr-Attribution: lvannoeun@gmail.com via Fresh LUTs
# LUTr-Source-Labels: gamma=Sony S-Log 3; color=Warm; key=Neutral; style=Correction
# LUTr-Note: Preserve this metadata and the upstream license notices when redistributing.
TITLE "Correction"
LUT_3D_SIZE 16
DOMAIN_MIN 0 0 0
DOMAIN_MAX 1 1 1
0 0 0
0 0 0
0 0 0
0 0 0
0.117354 0 0
0.313763 0 0
0.50301 0 0.003771
0.669886 0.00131 0.016438
0.819711 0.025864 0.038239
0.947169 0.056216 0.067895
0.97392 0.075119 0.08865
0.97392 0.07573 0.094782
0.97392 0.075729 0.098464
0.97392 0.075716 0.100518
0.97392 0.075716 0.101397
0.97392 0.075716 0.10185
0 0 0
0 0 0
0 0 0
0 0 0
0.096789 0 0
0.28418 0 0
0.470663 0 0.002234
0.636521 0 0.01321
0.785524 0.018941 0.03205
0.914602 0.047605 0.059252
0.97392 0.071966 0.084358
0.97392 0.07573 0.093085
0.97392 0.075729 0.09747
0.97392 0.075716 0.099886
0.97392 0.075716 0.101157
0.97392 0.075716 0.101632
0 0 0
0 0 0
0 0 0
0 0 0
0.081551 0.00512 0
0.266635 0 0
0.452031 0 0.001407
0.615519 0 0.011422
0.76295 0.014763 0.028397
0.892677 0.042243 0.053908
0.97392 0.069528 0.081266
0.97392 0.075662 0.091812
0.97392 0.075715 0.096493
0.97392 0.075722 0.099423
0.97392 0.075716 0.100897
0.97392 0.075716 0.101493
0 0 0
0 0 0
0 0 0
0 0 0
0.072292 0.024128 0
0.252415 0.040992 0
0.43819 0.005812 0
0.603529 0 0.009826
0.749505 0.012332 0.026285
0.879039 0.039082 0.050727
0.97392 0.066857 0.078567
0.97392 0.075496 0.090869
0.97392 0.075715 0.095911
0.97392 0.07572 0.099045
0.97392 0.075716 0.100683
0.97392 0.075716 0.101469
0 0.097463 0
0 0.081401 0
0.002668 0.069579 0
0.019517 0.0591 0
0.054959 0.050093 0
0.234673 0.112607 0
0.418949 0.116553 0
0.588414 0.059815 0
0.740682 0.012068 0.021836
0.87072 0.037085 0.048816
0.97392 0.064721 0.076525
0.97392 0.075422 0.090286
0.97392 0.075715 0.095523
0.97392 0.075724 0.098783
0.97392 0.075716 0.100527
0.97392 0.075716 0.101371
0 0.271987 0.001186
0 0.250024 0.000317
0 0.235581 0.000026
0 0.224565 0
0.085291 0.21059 0
0.204703 0.195497 0
0.393746 0.233976 0
0.561756 0.224007 0
0.718554 0.16151 0.000563
0.862006 0.049147 0.028354
0.971867 0.063667 0.075045
0.97392 0.075374 0.090008
0.97392 0.075715 0.095305
0.97392 0.075724 0.098599
0.97392 0.075716 0.100481
0.97392 0.075716 0.101367
0.014815 0.439362 0.018225
0.009794 0.417538 0.014804
0.006656 0.402394 0.012687
0.004744 0.3923 0.011395
0.010468 0.38236 0.001473
0.200896 0.367145 0
0.357345 0.350543 0
0.529141 0.369197 0.001585
0.683739 0.355564 0.007425
0.826936 0.293414 0.016746
0.956765 0.149868 0.034961
0.97392 0.075602 0.088098
0.97392 0.075726 0.095142
0.97392 0.075724 0.098505
0.97392 0.075716 0.100437
0.97392 0.075716 0.101316
0.058277 0.58777 0.051892
0.051332 0.566567 0.046075
0.046633 0.551916 0.042239
0.04351 0.541817 0.039666
0.041391 0.534554 0.037735
0.119651 0.524004 0.014667
0.341728 0.508165 0.015231
0.493745 0.49335 0.020221
0.649676 0.501482 0.027743
0.789103 0.486162 0.036439
0.917576 0.425622 0.04456
0.97392 0.26202 0.048291
0.97392 0.091427 0.080508
0.97392 0.075724 0.098504
0.97392 0.075716 0.100392
0.97392 0.075716 0.101287
0.105466 0.71984 0.093026
0.097989 0.699654 0.086462
0.092803 0.685601 0.081943
0.08939 0.676321 0.078929
0.08681 0.669508 0.076685
0.09169 0.663357 0.070787
0.277505 0.649984 0.047756
0.475237 0.636453 0.05086
0.616169 0.623311 0.058051
0.755042 0.625234 0.066727
0.880634 0.608431 0.074466
0.965508 0.552195 0.073788
0.97392 0.385066 0.056117
0.97392 0.119902 0.063227
0.97392 0.075716 0.100359
0.97392 0.075716 0.101295
0.147101 0.832638 0.131563
0.140236 0.814084 0.125003
0.135538 0.801503 0.120613
0.132533 0.793284 0.117807
0.13023 0.786895 0.115596
0.128668 0.782468 0.114225
0.194507 0.774569 0.08712
0.432522 0.761178 0.086741
0.597761 0.750486 0.091944
0.724695 0.739276 0.099773
0.848052 0.737107 0.107425
0.941371 0.720421 0.111149
0.967959 0.667114 0.099937
0.973621 0.502339 0.071591
0.97392 0.126199 0.064604
0.97392 0.075716 0.101284
0.1824 0.928616 0.165893
0.176864 0.914175 0.160418
0.172946 0.903093 0.156584
0.170039 0.895571 0.153707
0.167909 0.889687 0.151702
0.166588 0.885843 0.150288
0.178599 0.881357 0.143051
0.369942 0.87001 0.122087
0.567766 0.859503 0.124739
0.70701 0.851279 0.131302
0.820289 0.840659 0.13864
0.915941 0.835541 0.143927
0.9598 0.815647 0.141188
0.964051 0.762942 0.126044
0.970323 0.613678 0.093267
0.97392 0.202245 0.063472
0.205932 0.976855 0.189562
0.2039 0.974791 0.187276
0.200922 0.973292 0.184442
0.198804 0.971622 0.182324
0.197382 0.968853 0.180858
0.196503 0.966185 0.180099
0.196142 0.963894 0.178867
0.314601 0.956357 0.152598
0.534671 0.946557 0.153299
0.686141 0.940122 0.158541
0.80556 0.933912 0.165794
0.893841 0.926409 0.171847
0.949843 0.918493 0.174043
0.96064 0.899145 0.168146
0.961858 0.855423 0.15402
0.966398 0.710987 0.117052
0.207485 0.976855 0.224175
0.20776 0.976855 0.212376
0.207861 0.976855 0.204648
0.207893 0.976855 0.199303
0.207935 0.976855 0.195888
0.207895 0.976855 0.193597
0.208052 0.976855 0.192294
0.273186 0.976855 0.166699
0.511362 0.976855 0.166438
0.668317 0.976855 0.171456
0.79157 0.976878 0.179026
0.881775 0.976064 0.186472
0.939797 0.974356 0.191956
0.960702 0.971337 0.193233
0.960972 0.963362 0.190748
0.961294 0.932125 0.179598
0.205996 0.976855 0.377162
0.206244 0.976855 0.348131
0.206429 0.976855 0.328043
0.206495 0.976855 0.312776
0.20664 0.976855 0.302149
0.206682 0.976855 0.293596
0.207043 0.976855 0.286437
0.289529 0.976855 0.255498
0.499782 0.976855 0.2292
0.654322 0.976855 0.220985
0.778502 0.976855 0.208245
0.868843 0.976855 0.191401
0.928058 0.976855 0.192446
0.957309 0.976855 0.195647
0.961767 0.977013 0.196129
0.962181 0.976855 0.195664
0.205789 0.976855 0.515483
0.205616 0.976855 0.489382
0.205613 0.976855 0.4713
0.205649 0.976855 0.458095
0.205712 0.976855 0.449127
0.206842 0.976855 0.442392
0.229458 0.976855 0.433353
0.343774 0.976855 0.40819
0.49948 0.976855 0.378053
0.647518 0.976855 0.36735
0.767586 0.976592 0.353098
0.856823 0.976818 0.321965
0.91747 0.976959 0.262392
0.953144 0.977051 0.21255
0.961808 0.976855 0.196283
0.961582 0.976855 0.196165
0.233747 0.976855 0.635561
0.227422 0.976855 0.612377
0.223111 0.976855 0.59561
0.221737 0.976855 0.584357
0.227909 0.976855 0.575681
0.249891 0.976855 0.567363
0.318689 0.976855 0.555021
0.434385 0.976855 0.53898
0.546628 0.976855 0.524921
0.659815 0.975475 0.510854
0.767385 0.97491 0.502283
0.848711 0.974708 0.486321
0.907288 0.975232 0.455467
0.944434 0.976476 0.388288
0.960187 0.976855 0.245418
0.961689 0.976855 0.19859
0 0 0
0 0 0
0 0 0
0 0 0
0.115261 0 0
0.311037 0 0
0.500439 0 0.005246
0.667767 0.001121 0.016883
0.816381 0.025158 0.037594
0.944282 0.055462 0.067141
0.97392 0.075071 0.088439
0.97392 0.07573 0.094642
0.97392 0.075729 0.098393
0.97392 0.075716 0.100464
0.97392 0.075716 0.101384
0.97392 0.075716 0.10183
0 0 0
0 0 0
0 0 0
0 0 0
0.093116 0 0
0.279925 0 0
0.466676 0 0.003183
0.632022 0 0.013293
0.780689 0.018045 0.031225
0.910797 0.046592 0.058249
0.97392 0.071526 0.083808
0.97392 0.07573 0.09292
0.97392 0.075713 0.097267
0.97392 0.075716 0.099849
0.97392 0.075716 0.101106
0.97392 0.075716 0.101613
0 0 0
0 0 0
0 0 0
0 0 0
0.077093 0.003816 0
0.261658 0 0
0.445754 0 0.001984
0.609993 0 0.011474
0.75752 0.013766 0.027582
0.887298 0.040986 0.052619
0.97392 0.068876 0.08055
0.97392 0.075609 0.091512
0.97392 0.075715 0.096349
0.97392 0.075718 0.099307
0.97392 0.075716 0.100841
0.97392 0.075716 0.101534
0 0 0
0 0 0
0 0 0
0 0 0
0.067253 0.021546 0
0.245449 0.037331 0
0.43161 0 0
0.596866 0 0.009777
0.743643 0.01134 0.025385
0.873436 0.037746 0.049458
0.973885 0.065496 0.077211
0.97392 0.075456 0.090511
0.97392 0.075719 0.095748
0.97392 0.075721 0.098913
0.97392 0.075716 0.100618
0.97392 0.075716 0.101437
0 0.091185 0
0 0.075372 0
0.002441 0.063807 0
0.017455 0.053403 0
0.049554 0.044918 0
0.227642 0.10763 0
0.41119 0.111897 0
0.581442 0.058093 0
0.734459 0.010977 0.020949
0.86441 0.035627 0.047294
0.970912 0.063454 0.075275
0.97392 0.075367 0.089937
0.97392 0.075725 0.095295
0.97392 0.075724 0.098609
0.97392 0.075716 0.100479
0.97392 0.075716 0.101376
0 0.264194 0.000837
0 0.243134 0.000145
0 0.227783 0
0 0.216794 0
0.081536 0.202603 0
0.196858 0.187633 0
0.386543 0.227554 0
0.55444 0.218365 0
0.711964 0.157411 0.000271
0.855209 0.04857 0.026081
0.96684 0.062323 0.073529
0.97392 0.075348 0.089593
0.97392 0.075717 0.095072
0.97392 0.075724 0.098462
0.97392 0.075716 0.100394
0.97392 0.075716 0.101298
0.01299 0.431807 0.017009
0.008095 0.409641 0.013661
0.005195 0.394745 0.011705
0.003297 0.383903 0.010389
0.008759 0.374396 0.000843
0.193921 0.358721 0
0.349525 0.342372 0
0.522357 0.362053 0.00093
0.677196 0.348827 0.00627
0.820915 0.285892 0.015538
0.951751 0.147605 0.033679
0.97392 0.075549 0.087763
0.97392 0.075726 0.094893
0.97392 0.075725 0.098343
0.97392 0.075716 0.100351
0.97392 0.075716 0.101272
0.055767 0.580141 0.049736
0.048818 0.558836 0.04401
0.044153 0.544092 0.040235
0.041072 0.534168 0.037782
0.03886 0.526277 0.035732
0.114139 0.516221 0.013145
0.333768 0.500102 0.013527
0.486301 0.485365 0.018316
0.643266 0.494464 0.025853
0.783321 0.478685 0.034385
0.912617 0.418336 0.042629
0.97392 0.253956 0.047798
0.97392 0.091812 0.080136
0.97392 0.075733 0.098297
0.97392 0.075716 0.100297
0.97392 0.075716 0.101255
0.102772 0.712582 0.090652
0.095201 0.692274 0.083998
0.090004 0.678023 0.079452
0.086534 0.668502 0.076474
0.084113 0.661885 0.074356
0.088578 0.655672 0.068483
0.267905 0.642717 0.045509
0.468114 0.6291 0.048403
0.60941 0.615907 0.055451
0.749369 0.61817 0.064239
0.875332 0.601751 0.072211
0.965432 0.547391 0.072558
0.97392 0.376932 0.055159
0.97392 0.112853 0.068137
0.97392 0.075716 0.100262
0.97392 0.075716 0.101229
0.144367 0.825419 0.128967
0.13778 0.807259 0.122694
0.133208 0.794867 0.118387
0.129954 0.78621 0.115394
0.127758 0.780328 0.11331
0.125992 0.775379 0.111689
0.18615 0.767748 0.084697
0.423667 0.754335 0.084196
0.590852 0.743687 0.089368
0.718011 0.731941 0.097053
0.842583 0.73049 0.105031
0.939517 0.713575 0.108977
0.968012 0.658573 0.097987
0.973687 0.494876 0.070554
0.97392 0.126989 0.063919
0.97392 0.075716 0.101222
0.180296 0.923178 0.163876
0.174769 0.908373 0.158462
0.17064 0.896971 0.154361
0.16764 0.888697 0.151375
0.165648 0.883523 0.149417
0.16401 0.878817 0.147903
0.175472 0.874641 0.14095
0.358909 0.863617 0.119631
0.560309 0.853018 0.122218
0.700448 0.844612 0.128616
0.814679 0.834029 0.136147
0.913152 0.829777 0.141804
0.958715 0.809531 0.139133
0.964379 0.756679 0.12424
0.970293 0.609157 0.09172
0.97392 0.211966 0.063496
0.205335 0.976222 0.18904
0.202082 0.974064 0.185532
0.199247 0.971946 0.182815
0.197139 0.968318 0.180651
0.195772 0.964269 0.179415
0.194718 0.961762 0.178322
0.194279 0.95932 0.177281
0.299148 0.95227 0.150898
0.525451 0.942365 0.151406
0.678378 0.935673 0.156637
0.799623 0.929393 0.163732
0.890225 0.922058 0.170117
0.948139 0.91387 0.17227
0.961063 0.894869 0.166745
0.961834 0.851746 0.152813
0.96606 0.703852 0.115124
0.207285 0.976855 0.239954
0.207529 0.976855 0.219633
0.207832 0.976855 0.206345
0.207883 0.976855 0.198294
0.207857 0.976855 0.193813
0.207808 0.976855 0.193395
0.207857 0.976855 0.193004
0.262528 0.976855 0.171817
0.500624 0.977017 0.166473
0.660211 0.976855 0.170811
0.785358 0.976107 0.178038
0.877881 0.974258 0.185627
0.937001 0.972206 0.190873
0.959778 0.967897 0.192033
0.960983 0.95933 0.189314
0.961224 0.926159 0.177467
0.205923 0.976855 0.380268
0.206296 0.976855 0.351226
0.2064 0.976855 0.330097
0.206462 0.976855 0.315085
0.206598 0.976855 0.303594
0.206684 0.976855 0.295474
0.206944 0.976855 0.287064
0.275923 0.976855 0.259944
0.487044 0.976855 0.228238
0.645568 0.976855 0.219018
0.771222 0.976855 0.209426
0.864989 0.976855 0.193461
0.924873 0.976855 0.192292
0.956757 0.976855 0.195545
0.961766 0.976951 0.196127
0.962129 0.976855 0.195589
0.205752 0.976855 0.513275
0.205613 0.976855 0.487012
0.205629 0.976855 0.468186
0.205626 0.976855 0.455244
0.205632 0.976855 0.446054
0.206325 0.976855 0.439551
0.22284 0.976855 0.430835
0.32839 0.976855 0.407695
0.486497 0.976855 0.375574
0.637717 0.976855 0.364036
0.760213 0.976823 0.349823
0.85243 0.976833 0.321214
0.914326 0.976867 0.261741
0.952026 0.977033 0.208514
0.961809 0.976855 0.196158
0.961582 0.976855 0.196165
0.229804 0.976855 0.631673
0.22299 0.976855 0.608443
0.217982 0.976855 0.591732
0.215688 0.976855 0.580242
0.219913 0.976855 0.571719
0.240832 0.976855 0.563376
0.30469 0.976855 0.550986
0.419928 0.976855 0.534634
0.534777 0.976855 0.519431
0.650323 0.97561 0.505416
0.760318 0.974723 0.496455
0.844336 0.974801 0.481271
0.90407 0.975342 0.449792
0.943243 0.976823 0.384686
0.959774 0.976855 0.251689
0.961609 0.976855 0.199453
0 0 0
0 0 0
0 0 0
0 0 0
0.115564 0 0
0.311352 0 0.006405
0.500029 0 0.017105
0.666845 0.001065 0.027353
0.815814 0.025037 0.040694
0.943793 0.055316 0.067008
0.97392 0.074987 0.088301
0.97392 0.07573 0.09459
0.97392 0.075729 0.098354
0.97392 0.075716 0.100437
0.97392 0.075716 0.101366
0.97392 0.075716 0.10182
0 0 0
0 0 0
0 0 0
0 0 0
0.09205 0 0
0.278528 0 0.00346
0.464373 0 0.012896
0.629948 0 0.022551
0.779302 0.017747 0.034212
0.908361 0.046048 0.057779
0.97392 0.071322 0.083544
0.97392 0.075729 0.092786
0.97392 0.075715 0.097178
0.97392 0.075716 0.099773
0.97392 0.075716 0.101091
0.97392 0.075716 0.101609
0 0 0
0 0 0
0 0 0
0 0 0
0.072533 0 0
0.254719 0 0.001158
0.440485 0 0.009892
0.60671 0 0.01998
0.754368 0.013192 0.030909
0.884786 0.040454 0.052087
0.97392 0.068404 0.080001
0.97392 0.075568 0.091338
0.97392 0.075715 0.096226
0.97392 0.075716 0.099242
0.97392 0.075716 0.100836
0.97392 0.075716 0.101524
0 0 0
0 0 0
0 0 0
0 0 0
0.055949 0.015991 0
0.228157 0.026409 0
0.417099 0 0.001745
0.589763 0 0.016838
0.739715 0.010702 0.0289
0.86955 0.036851 0.048671
0.97392 0.064724 0.076592
0.97392 0.075427 0.090321
0.97392 0.075716 0.095568
0.97392 0.075722 0.098784
0.97392 0.075716 0.100555
0.97392 0.075716 0.101408
0 0.084801 0
0 0.069528 0
0 0.05773 0
0.013716 0.047579 0
0.042254 0.038562 0
0.209137 0.100715 0
0.39858 0.10643 0
0.573037 0.047617 0
0.728741 0.01006 0.024048
0.860635 0.034849 0.046748
0.96782 0.062589 0.074416
0.97392 0.075335 0.089724
0.97392 0.075726 0.095127
0.97392 0.075724 0.098531
0.97392 0.075716 0.100453
0.97392 0.075716 0.10136
0 0.258851 0.000906
0 0.236898 0.000202
0 0.221803 0
0 0.210604 0
0.077385 0.196424 0
0.188722 0.181568 0
0.377426 0.222445 0
0.546609 0.215084 0
0.706174 0.15341 0.000188
0.851197 0.048036 0.025156
0.963653 0.061373 0.072514
0.97392 0.075308 0.089367
0.97392 0.075726 0.09486
0.97392 0.075724 0.098335
0.97392 0.075716 0.100349
0.97392 0.075716 0.101278
0.011672 0.425997 0.016065
0.006983 0.404058 0.012911
0.004079 0.388447 0.010901
0.002366 0.377972 0.009702
0.007121 0.368091 0.000701
0.188809 0.352469 0
0.343181 0.336493 0
0.516386 0.356529 0.000489
0.672271 0.344085 0.005537
0.816988 0.28102 0.014732
0.948697 0.145001 0.032912
0.97392 0.075508 0.087531
0.97392 0.075726 0.094748
0.97392 0.075724 0.098225
0.97392 0.075716 0.100266
0.97392 0.075716 0.101258
0.053952 0.574644 0.04826
0.047033 0.553137 0.04256
0.042302 0.538225 0.03879
0.039187 0.527869 0.0363
0.037077 0.520339 0.03435
0.10841 0.510033 0.011927
0.328346 0.494307 0.012348
0.481023 0.479539 0.016997
0.638625 0.489259 0.024445
0.779451 0.474006 0.033127
0.909434 0.414119 0.041511
0.97392 0.249455 0.047452
0.97392 0.091094 0.080521
0.97392 0.075731 0.098165
0.97392 0.075716 0.100239
0.97392 0.075716 0.101222
0.100708 0.707031 0.088867
0.093214 0.686853 0.082228
0.08798 0.672388 0.077717
0.084606 0.66322 0.074748
0.081994 0.656088 0.072446
0.086213 0.650232 0.067036
0.260863 0.63712 0.043718
0.462957 0.623315 0.046559
0.604314 0.610446 0.053649
0.745235 0.61301 0.062411
0.871654 0.597032 0.070452
0.965812 0.543807 0.071599
0.97392 0.372289 0.054532
0.97392 0.106415 0.072726
0.97392 0.075716 0.100202
0.97392 0.075716 0.101203
0.142654 0.82078 0.127308
0.135891 0.802125 0.120904
0.131158 0.789576 0.116534
0.128071 0.781044 0.113628
0.125667 0.774684 0.111436
0.124083 0.769953 0.109803
0.17889 0.762345 0.082894
0.417487 0.749032 0.082227
0.585607 0.738212 0.087411
0.713337 0.726746 0.095247
0.838737 0.72586 0.103158
0.938066 0.709091 0.10759
0.968309 0.65275 0.096745
0.973857 0.491184 0.07005
0.97392 0.137957 0.059187
0.97392 0.075716 0.101195
0.178577 0.918634 0.162148
0.173124 0.903867 0.15672
0.168683 0.891718 0.152484
0.165886 0.884013 0.149644
0.163663 0.877842 0.14743
0.162249 0.874066 0.146184
0.172828 0.869714 0.139578
0.350762 0.858623 0.117696
0.554758 0.848121 0.120347
0.695577 0.840003 0.126739
0.810789 0.829822 0.134398
0.910863 0.825487 0.140225
0.958108 0.805057 0.13786
0.964359 0.752538 0.123144
0.97071 0.6028 0.090598
0.97392 0.212216 0.06339
0.204692 0.975537 0.190045
0.200869 0.973249 0.185219
0.197751 0.969537 0.181729
0.195784 0.964146 0.179616
0.194355 0.960664 0.178036
0.193249 0.958102 0.176925
0.192742 0.955711 0.175802
0.287778 0.948768 0.14956
0.518493 0.938716 0.149741
0.67272 0.931702 0.154928
0.795078 0.925899 0.162244
0.887489 0.918521 0.168798
0.946721 0.91092 0.171226
0.960938 0.891802 0.165787
0.961769 0.848105 0.151569
0.96598 0.700858 0.114259
0.207053 0.976855 0.256061
0.207305 0.976855 0.230595
0.207663 0.976855 0.213291
0.207765 0.976855 0.201738
0.207718 0.976855 0.198344
0.207541 0.976855 0.196861
0.207481 0.976855 0.195637
0.254148 0.976855 0.177068
0.492678 0.976855 0.167519
0.654122 0.976671 0.170808
0.780664 0.974677 0.177301
0.875122 0.972804 0.184747
0.935228 0.970472 0.190222
0.959584 0.965477 0.191208
0.96128 0.956236 0.188166
0.961235 0.92169 0.176
0.205906 0.976855 0.388531
0.206262 0.976855 0.361062
0.206314 0.976855 0.341963
0.206445 0.976855 0.328485
0.206566 0.976855 0.318851
0.206524 0.976855 0.310903
0.206753 0.976855 0.303135
0.264886 0.976855 0.27831
0.475508 0.976855 0.239891
0.63769 0.976855 0.226966
0.765797 0.976855 0.214849
0.861424 0.976855 0.199381
0.923045 0.976855 0.192677
0.956222 0.977052 0.195613
0.961581 0.976885 0.196082
0.962403 0.976855 0.19551
0.205726 0.976855 0.515221
0.20562 0.976855 0.48938
0.205623 0.976855 0.471492
0.205628 0.976855 0.458743
0.205624 0.976855 0.44988
0.205992 0.976855 0.443534
0.218781 0.976855 0.435961
0.316741 0.976855 0.413954
0.477376 0.976855 0.382059
0.629331 0.976855 0.368463
0.754317 0.976676 0.354742
0.848607 0.976647 0.328669
0.911671 0.976855 0.269162
0.951313 0.977029 0.206392
0.961747 0.976855 0.196139
0.961582 0.976855 0.196165
0.227091 0.976855 0.630644
0.219883 0.976855 0.607931
0.214503 0.976855 0.591454
0.212166 0.976855 0.580339
0.217603 0.976855 0.571445
0.236471 0.976855 0.563729
0.295461 0.976855 0.552185
0.408983 0.976855 0.535625
0.526727 0.976855 0.52014
0.642612 0.975709 0.504921
0.754995 0.974726 0.496517
0.840828 0.974706 0.481672
0.901872 0.975342 0.451279
0.941918 0.976626 0.387493
0.959576 0.976855 0.265529
0.961545 0.976855 0.200898
0 0 0
0 0 0
0 0 0
0 0 0
0.117924 0 0.008772
0.312389 0 0.037467
0.500593 0 0.059421
0.667439 0.001116 0.070573
0.816234 0.025079 0.073599
0.943798 0.05532 0.075921
0.97392 0.075045 0.088524
0.97392 0.07573 0.094589
0.97392 0.075729 0.098341
0.97392 0.075716 0.100437
0.97392 0.075716 0.10137
0.97392 0.075716 0.10182
0 0 0
0 0 0
0 0 0
0 0 0
0.091928 0 0.003578
0.277879 0 0.026878
0.463971 0 0.046216
0.629272 0 0.05632
0.778 0.017506 0.061597
0.907838 0.045906 0.06782
0.97392 0.071288 0.083921
0.97392 0.075725 0.092729
0.97392 0.075715 0.097154
0.97392 0.075716 0.099752
0.97392 0.075716 0.10108
0.97392 0.075716 0.101596
0 0 0
0 0 0
0 0 0
0 0 0
0.073765 0 0.001063
0.256501 0 0.020955
0.440681 0 0.039411
0.605075 0 0.050057
0.752939 0.012928 0.054444
0.88352 0.040078 0.060707
0.97392 0.068161 0.080078
0.97392 0.075557 0.091258
0.97392 0.075715 0.096146
0.97392 0.075716 0.099214
0.97392 0.075716 0.100793
0.97392 0.075716 0.101495
0 0 0
0 0 0
0 0 0
0 0 0
0.056841 0 0
0.235821 0 0.010612
0.422307 0 0.030155
0.5875 0 0.043622
0.735347 0.009984 0.049949
0.866672 0.036181 0.057059
0.973632 0.064274 0.076665
0.97392 0.075399 0.090205
0.97392 0.075717 0.095526
0.97392 0.075725 0.098808
0.97392 0.075716 0.100529
0.97392 0.075716 0.10139
0 0.07566 0.003213
0 0.060172 0.000968
0 0.048662 0.00005
0 0.038876 0
0.038129 0.03307 0
0.209844 0.079645 0
0.393353 0.070245 0
0.564497 0.004674 0.008455
0.718553 0.009257 0.040616
0.853501 0.033255 0.054284
0.965579 0.061953 0.074367
0.97392 0.07533 0.089589
0.97392 0.075726 0.095071
0.97392 0.075724 0.098499
0.97392 0.075716 0.100429
0.97392 0.075716 0.101323
0 0.251882 0.015558
0 0.230369 0.011998
0 0.214908 0.0095
0 0.203422 0.00704
0.057871 0.189091 0
0.182174 0.17433 0
0.365486 0.213609 0
0.531357 0.209344 0
0.688082 0.157131 0.001173
0.839552 0.049856 0.026629
0.960505 0.060486 0.07227
0.97392 0.075247 0.089261
0.97392 0.075726 0.09477
0.97392 0.075724 0.098274
0.97392 0.075716 0.100299
0.97392 0.075716 0.101261
0.010446 0.420744 0.020715
0.005911 0.398743 0.017202
0.00316 0.383181 0.015051
0.001578 0.372322 0.013454
0.005529 0.362521 0.004557
0.182082 0.347059 0
0.33642 0.331948 0
0.501333 0.354426 0.000554
0.656268 0.346532 0.005198
0.806795 0.285817 0.014251
0.944562 0.146985 0.032265
0.97392 0.07549 0.087399
0.97392 0.075726 0.094589
0.97392 0.075731 0.098146
0.97392 0.075716 0.100234
0.97392 0.075716 0.101213
0.05238 0.569762 0.048015
0.045467 0.5483 0.041629
0.040801 0.533308 0.037901
0.037802 0.523397 0.035426
0.035534 0.515227 0.03336
0.102896 0.505473 0.011149
0.323566 0.489343 0.011423
0.474579 0.475733 0.01594
0.627296 0.486864 0.02325
0.771175 0.472918 0.032046
0.90643 0.412171 0.040647
0.97392 0.246085 0.047195
0.97392 0.090311 0.080983
0.97392 0.075734 0.098151
0.97392 0.075716 0.100195
0.97392 0.075716 0.101196
0.099052 0.702511 0.087627
0.091448 0.682073 0.080742
0.086325 0.668006 0.076245
0.082855 0.658477 0.073265
