site/assets/luts/freshluts--0000628-clean-white-fresh-look.cube
# LUTr-Schema-Version: 2
# LUTr-ID: freshluts--0000628-clean-white-fresh-look
# LUTr-Title: CLEAN WHITE. FRESH LOOK
# LUTr-Collection: Fresh LUTs
# LUTr-Collection-ID: freshluts-community
# LUTr-Source: https://freshluts.com
# LUTr-Retrieved: 2026-07-27
# LUTr-Source-File: submissions-raw/freshluts/cubes/628__COOL.FRESH_4.AIA2AIA2_00000455-focus.cube
# LUTr-Source-Format: CUBE
# LUTr-Source-SHA256: 62338a6e44280bc3015f97bdaa83e9b82de60e2384fb24f7ed04c4fd90bba3cf
# LUTr-License: CC0-1.0
# LUTr-License-URL: https://freshluts.com/termsandconditions
# LUTr-License-Basis: site-terms
# LUTr-Transform-Class: creative-look
# LUTr-Tags: creative, freshluts, community, cube, cool, high-key, canon-cinestyle
# LUTr-Input-Color-Space:
# LUTr-Input-Gamut: rec709
# LUTr-Input-Transfer: canon-cinestyle
# LUTr-Output-Color-Space: srgb
# LUTr-Output-Gamut: rec709
# LUTr-Output-Transfer: srgb
# LUTr-Color-Space-Confidence: camera-profile-input-required
# LUTr-Domain-Normalized: true
# LUTr-Shaper: none
# LUTr-Original-Grid: 33x33x33
# LUTr-Conversion-Grid: 33x33x33
# LUTr-Conversion-Interpolation: none
# LUTr-Conversion-Method: Metadata normalization; numeric LUT samples preserved
# LUTr-Conversion-Tool: LUTr scripts/convert-all-to-cube.mjs 2.0.0
# LUTr-Conversion-Date: 2026-07-28
# LUTr-Asset-URL: https://freshluts.com/luts/628
# LUTr-Author: lvannoeun@gmail.com
# LUTr-Author-URL: https://freshluts.com/users/57563
# LUTr-Attribution: lvannoeun@gmail.com via Fresh LUTs
# LUTr-Source-Labels: gamma=Canon Cinestyle; color=Cool; key=High Key; style=FRESH
# LUTr-Note: Preserve this metadata and the upstream license notices when redistributing.
TITLE "CLEAN WHITE. FRESH LOOK"
LUT_3D_SIZE 5
DOMAIN_MIN 0 0 0
DOMAIN_MAX 1 1 1
0 0.0277714 0.02121
0.233616 0 0.0508431
0.516503 0 0.0979934
0.782132 0 0.148592
0.995834 0 0.201755
0 0.28484 0.114092
0.234592 0.248508 0.021622
0.493324 0.244541 0.0206302
0.753414 0.238575 0.0335088
0.995087 0.233768 0.0548409
0 0.540658 0.202182
0.0646372 0.543938 0.0845502
0.515053 0.487221 0.0299687
0.732387 0.496803 0.0174716
0.996201 0.488838 0.0400092
0 0.797436 0.286046
0 0.80798 0.171511
0.301167 0.799969 0.0522927
0.775448 0.731853 0.0393683
0.984833 0.743008 0.0332647
0 1 0.367254
0 1 0.253971
0.207996 1 0.13962
0.562615 1 0.0252689
0.991089 0.979522 0.0489204
0 0.0302434 0.272572
0.211139 0.00880446 0.252476
0.480522 0.00190738 0.247318
0.733425 0 0.246662
0.977157 0 0.248508
0 0.278798 0.287602
0.211307 0.25745 0.267567
0.499245 0.239872 0.313664
0.767315 0.227787 0.364767
0.993866 0.218509 0.418296
0 0.523552 0.367895
0.160769 0.514351 0.354482
0.493706 0.495674 0.274998
0.739513 0.494972 0.278584
0.990707 0.491447 0.294224
0 0.776104 0.457679
0.107683 0.772198 0.439979
0.346273 0.784924 0.330816
0.755398 0.739773 0.284092
0.965911 0.751171 0.273838
0 1 0.564187
0.0485695 1 0.52401
0.291875 1 0.409079
0.551049 1 0.303716
0.990173 0.987579 0.293446
0 0.0321965 0.523934
0.209735 0.0107424 0.503777
0.47921 0.0037995 0.498619
0.73228 0.00132753 0.497871
0.976059 0.00132753 0.499718
0 0.280537 0.538781
0.209979 0.259098 0.518593
0.480354 0.251957 0.513115
0.733822 0.249439 0.512322
0.977859 0.249561 0.513985
0 0.532219 0.546029
0.202701 0.510842 0.525795
0.47422 0.503365 0.520348
0.738262 0.494408 0.552132
0.991684 0.483253 0.614252
0 0.779477 0.588724
0.193729 0.756985 0.594873
0.431189 0.758373 0.603464
0.735012 0.747967 0.528283
0.970825 0.750362 0.531441
0 1 0.686931
0.157229 1 0.682551
0.382559 1 0.684672
0.597726 1 0.581994
0.984405 0.995483 0.537591
0 0.0341802 0.77499
0.208255 0.012726 0.754833
0.477989 0.00570687 0.74963
0.731136 0.00320439 0.748867
0.974975 0.00320439 0.750683
0 0.282261 0.789807
0.208545 0.260822 0.769635
0.479118 0.253651 0.764111
0.732601 0.251087 0.763272
0.976699 0.251102 0.764935
0 0.533944 0.79707
0.201282 0.512566 0.776776
0.472786 0.50518 0.771038
0.726757 0.502449 0.770031
0.97113 0.502373 0.771664
0 0.787045 0.800793
0.190524 0.765621 0.780499
0.463096 0.757961 0.774487
0.717449 0.755123 0.773342
0.964675 0.753506 0.783062
0 1 0.822995
0.183719 1 0.814313
0.453971 1 0.833295
0.680171 1 0.853864
0.965835 1 0.781353
0 0.0357977 0.982879
0.207019 0.0143435 0.962493
0.476921 0.00730907 0.956924
0.730068 0.00479133 0.955901
0.973953 0.00476081 0.957427
0 0.28365 0.996735
0.207218 0.262226 0.976272
0.478019 0.255009 0.970443
0.731579 0.252415 0.969314
0.975723 0.252445 0.970733
0 0.535317 1
0.2 0.513954 0.982467
0.471687 0.506462 0.976394
0.725673 0.503777 0.975128
0.970092 0.503685 0.976455
0 0.788403 1
0.189242 0.766995 0.985199
0.461997 0.759243 0.978836
0.716426 0.756436 0.977447
0.96112 0.756329 0.978698
0 1 1
0.176349 1 0.985656
0.45005 1 0.979049
0.704921 1 0.977615
0.947951 1 0.978729
