site/assets/luts/freshluts--0000343-stranest-things.cube
# LUTr-Schema-Version: 2
# LUTr-ID: freshluts--0000343-stranest-things
# LUTr-Title: STRANEST THINGS
# LUTr-Collection: Fresh LUTs
# LUTr-Collection-ID: freshluts-community
# LUTr-Source: https://freshluts.com
# LUTr-Retrieved: 2026-07-27
# LUTr-Source-File: submissions-raw/freshluts/cubes/343__STRANGEST_THINGS.cube
# LUTr-Source-Format: CUBE
# LUTr-Source-SHA256: 6a0d59c990140a02be2b5096c8501cb6039a8d581122b53ced70dd4dfe1a2fcb
# LUTr-License: CC0-1.0
# LUTr-License-URL: https://freshluts.com/termsandconditions
# LUTr-License-Basis: site-terms
# LUTr-Transform-Class: creative-look
# LUTr-Tags: creative, freshluts, community, cube, brown, rec709, assumed-input
# LUTr-Input-Color-Space: rec709
# LUTr-Input-Gamut: rec709
# LUTr-Input-Transfer: rec709
# LUTr-Output-Color-Space: srgb
# LUTr-Output-Gamut: rec709
# LUTr-Output-Transfer: srgb
# LUTr-Color-Space-Confidence: assumed-display-referred
# LUTr-Domain-Normalized: true
# LUTr-Shaper: none
# LUTr-Original-Grid: 32x32x32
# LUTr-Conversion-Grid: 32x32x32
# LUTr-Conversion-Interpolation: none
# LUTr-Conversion-Method: Metadata normalization; numeric LUT samples preserved
# LUTr-Conversion-Tool: LUTr scripts/convert-all-to-cube.mjs 2.0.0
# LUTr-Conversion-Date: 2026-07-28
# LUTr-Asset-URL: https://freshluts.com/luts/343
# LUTr-Author: I WANT TO MAKE A FILM PODCAST
# LUTr-Author-URL: https://freshluts.com/users/15633
# LUTr-Attribution: I WANT TO MAKE A FILM PODCAST via Fresh LUTs
# LUTr-Source-Labels: gamma=Other; color=Brown; key=Neutral; style=Hipster; LUTr assumption=input Rec.709 per repository policy
# LUTr-Conversion-Warning: Input Rec.709 is a LUTr catalog assumption requested for this otherwise unspecified Fresh LUT; it is not verified by the upstream asset.
# LUTr-Note: Preserve this metadata and the upstream license notices when redistributing.
# LUTr-Upstream-Comment: Created by: Adobe Photoshop Export Color Lookup Plugin
# LUTr-Upstream-Comment: LUT size
# LUTr-Upstream-Comment: data domain
# LUTr-Upstream-Comment: LUT data points
TITLE "STRANEST THINGS"
LUT_3D_SIZE 5
DOMAIN_MIN 0.000000 0.000000 0.000000
DOMAIN_MAX 0.903226 0.903226 0.903226
0.004761 0 0.007629
0.083771 0 0.014557
0.296295 0.031708 0.039917
0.567719 0.065308 0.07547
0.810791 0.097778 0.112732
0.036011 0.08252 0.013885
0.104248 0.070679 0.032349
0.302124 0.118622 0.045624
0.563171 0.179688 0.07428
0.811127 0.22348 0.116211
0.119202 0.271423 0
0.166107 0.269409 0.026611
0.32959 0.249329 0.062469
0.580811 0.305756 0.081848
0.817383 0.380402 0.11618
0.226562 0.495087 0
0.265778 0.507263 0.016693
0.408997 0.520874 0.053284
0.620209 0.50528 0.104034
0.851318 0.517212 0.129608
0.308411 0.664978 0
0.354156 0.68811 0.021393
0.482239 0.716919 0.061584
0.691956 0.730927 0.096527
0.899261 0.724335 0.151917
0.016724 0 0.084564
0.085938 0 0.081604
0.265045 0 0.010254
0.518036 0.014771 0.021149
0.765625 0.053101 0.065063
0.049255 0.08078 0.099121
0.121857 0.094269 0.087219
0.413513 0.087616 0.056519
0.686401 0.097534 0.110504
0.945892 0.135315 0.153992
0.124969 0.272858 0.060333
0.171661 0.288116 0.070374
0.346619 0.276825 0.104156
0.673523 0.331879 0.09491
0.922333 0.389404 0.131226
0.234406 0.501404 0.017029
0.274902 0.521729 0.034485
0.415039 0.541382 0.082855
0.646698 0.533661 0.134766
0.947205 0.555145 0.150482
0.320038 0.674805 0.013184
0.363739 0.700623 0.03067
0.486511 0.731293 0.091248
0.706604 0.760773 0.145569
0.943085 0.762207 0.201141
0.054993 0 0.179047
0.118134 0 0.228455
0.293488 0 0.242554
0.521729 0.006226 0.186768
0.733124 0.012604 0.138855
0.092682 0.07074 0.23645
0.14212 0.083801 0.242371
0.331512 0.08847 0.27005
0.628021 0.008301 0.110657
0.850555 0.011871 0.034271
0.150696 0.268219 0.238892
0.190643 0.284515 0.24585
0.364502 0.315125 0.252686
0.717499 0.300354 0.193207
0.955658 0.350464 0.26355
0.247955 0.499634 0.223297
0.284363 0.519409 0.233307
0.415985 0.54953 0.256348
0.644012 0.551727 0.296173
0.975494 0.591339 0.291016
0.328613 0.671753 0.232666
0.369995 0.697144 0.247742
0.487183 0.732025 0.271942
0.695984 0.758698 0.315247
0.937378 0.768341 0.355255
0.082062 0 0.239838
0.141266 0 0.31369
0.307434 0 0.332458
0.540985 0.009155 0.342987
0.76178 0.018677 0.356079
0.12619 0.061798 0.323944
0.169556 0.077118 0.33316
0.348602 0.08844 0.367523
0.610687 0.083832 0.403412
0.864441 0.049347 0.38446
0.173553 0.264679 0.327942
0.211517 0.281677 0.337952
0.356934 0.304657 0.354431
0.599457 0.314575 0.376129
1 0.156647 0.454834
0.263062 0.497223 0.329498
0.298523 0.517365 0.341766
0.424744 0.548828 0.363098
0.639038 0.559052 0.392334
0.978271 0.57309 0.411285
0.340637 0.670593 0.338867
0.381348 0.696167 0.356171
0.495209 0.731354 0.380554
0.691528 0.751648 0.41217
0.923065 0.764709 0.447906
0.135254 0 0.362671
0.196991 0 0.467468
0.350128 0 0.531677
0.566528 0.009186 0.548828
0.781494 0.021301 0.562225
0.216797 0.02533 0.535614
0.260284 0.046143 0.553711
0.418823 0.065765 0.595459
0.636932 0.084747 0.612915
0.855103 0.097504 0.627716
0.233337 0.248352 0.525024
0.273743 0.269592 0.541931
0.40448 0.297333 0.567993
0.631592 0.310577 0.59848
0.873199 0.309082 0.634521
0.304535 0.487396 0.530579
0.34201 0.510101 0.548737
0.459991 0.544281 0.577759
0.665741 0.566437 0.602539
0.889984 0.57663 0.630096
0.372986 0.664581 0.535156
0.412689 0.690735 0.556335
0.5224 0.728394 0.587769
0.714233 0.755646 0.615143
0.925171 0.76651 0.646484
