site/assets/luts/freshluts--0002287-natural-cinematic-slog2-sgamut.cube
# LUTr-Schema-Version: 2
# LUTr-ID: freshluts--0002287-natural-cinematic-slog2-sgamut
# LUTr-Title: Natural-Cinematic-SLOG2-SGamut
# LUTr-Collection: Fresh LUTs
# LUTr-Collection-ID: freshluts-community
# LUTr-Source: https://freshluts.com
# LUTr-Retrieved: 2026-07-27
# LUTr-Source-File: submissions-raw/freshluts/cubes/2287__Natural-Cinematic-SLOG2-SGamut.cube
# LUTr-Source-Format: CUBE
# LUTr-Source-SHA256: db1f624daf533d82e8d70c10ee18d33f1d3aff9b5710644d24e66352ec0f1825
# LUTr-License: CC0-1.0
# LUTr-License-URL: https://freshluts.com/termsandconditions
# LUTr-License-Basis: site-terms
# LUTr-Transform-Class: creative-look
# LUTr-Tags: creative, freshluts, community, cube, sony-s-log2, cinematic
# LUTr-Input-Color-Space:
# LUTr-Input-Gamut: sony-s-gamut
# LUTr-Input-Transfer: sony-s-log2
# LUTr-Output-Color-Space: srgb
# LUTr-Output-Gamut: rec709
# LUTr-Output-Transfer: srgb
# LUTr-Color-Space-Confidence: camera-profile-input-required
# LUTr-Domain-Normalized: true
# LUTr-Shaper: none
# LUTr-Original-Grid: 24x24x24
# LUTr-Conversion-Grid: 24x24x24
# LUTr-Conversion-Interpolation: none
# LUTr-Conversion-Method: Metadata normalization; numeric LUT samples preserved
# LUTr-Conversion-Tool: LUTr scripts/convert-all-to-cube.mjs 2.0.0
# LUTr-Conversion-Date: 2026-07-28
# LUTr-Asset-URL: https://freshluts.com/luts/2287
# LUTr-Author: Tony
# LUTr-Author-URL: https://freshluts.com/users/360912
# LUTr-Attribution: Tony via Fresh LUTs
# LUTr-Source-Labels: gamma=Sony S-Log 2; color=None; key=Neutral; style=fresh
# LUTr-Note: Preserve this metadata and the upstream license notices when redistributing.
# LUTr-Upstream-Comment: Created by: Affinity Photo (Serif Europe Ltd.)
# LUTr-Upstream-Comment: LUT size
# LUTr-Upstream-Comment: data domain
# LUTr-Upstream-Comment: LUT data points
TITLE "Natural-Cinematic-SLOG2-SGamut"
LUT_3D_SIZE 5
DOMAIN_MIN 0.000000 0.000000 0.000000
DOMAIN_MAX 0.869565 0.869565 0.869565
0.03678 0.040257 0.046777
0.124475 0.040572 0.048175
0.447188 0.044686 0.056383
0.857204 0.057459 0.074553
0.985118 0.062993 0.081776
0.032635 0.104844 0.049109
0.090262 0.097755 0.049594
0.380291 0.079244 0.055217
0.834154 0.060353 0.073398
0.982778 0.062886 0.081638
0 0.344205 0.062391
0 0.338261 0.061979
0.279179 0.314456 0.063658
0.773575 0.276664 0.077341
0.967401 0.220751 0.084781
0 0.771531 0.103309
0 0.770373 0.103176
0.039524 0.751336 0.101755
0.645332 0.717627 0.104686
0.931142 0.65387 0.107614
0 0.962358 0.125281
0 0.96211 0.125252
0 0.960448 0.125054
0.40136 0.940641 0.124585
0.86509 0.922066 0.130842
0.035109 0.03968 0.170613
0.123482 0.040172 0.144287
0.461794 0.044791 0.116276
0.865538 0.057702 0.107161
0.98728 0.063044 0.098821
0.032124 0.102511 0.116009
0.090412 0.094933 0.107009
0.378156 0.077749 0.097741
0.833436 0.059508 0.09889
0.98293 0.062856 0.094927
0 0.340263 0.08185
0 0.332532 0.079611
0.289632 0.310601 0.075181
0.775439 0.275119 0.081972
0.966686 0.222722 0.08481
0 0.770674 0.103211
0 0.769015 0.103021
0.07577 0.749049 0.101596
0.659811 0.715405 0.104811
0.932839 0.651963 0.107522
0 0.962174 0.125259
0 0.961861 0.125222
0 0.958472 0.124817
0.416171 0.94002 0.124658
0.868522 0.921443 0.130868
0 0.027194 0.721573
0.081082 0.030882 0.627682
0.438822 0.038952 0.501438
0.866966 0.05498 0.409731
0.98762 0.061359 0.339475
0.014913 0.095103 0.520813
0.063733 0.086827 0.480421
0.378371 0.066886 0.424005
0.851936 0.054782 0.380944
0.985593 0.061448 0.32325
0 0.332654 0.369121
0 0.325133 0.357881
0.29166 0.302241 0.332748
0.773943 0.267939 0.30697
0.965739 0.215396 0.275956
0 0.763358 0.276603
0 0.761356 0.273553
0.109874 0.736598 0.25845
0.667269 0.700205 0.235175
0.931041 0.634303 0.214748
0 0.959004 0.192981
0 0.958646 0.1914
0 0.952445 0.185107
0.440659 0.934246 0.17037
0.872028 0.915993 0.159522
0 0.01117 1
0 0.011886 1
0.376049 0.017834 0.97444
0.852766 0.036666 0.931683
0.985024 0.046628 0.88071
0 0.073514 0.983779
0 0.064321 0.977028
0.333571 0.03775 0.942719
0.839107 0.036922 0.914551
0.984379 0.047272 0.866087
0 0.322474 0.905744
0 0.316922 0.900485
0.258273 0.288759 0.872197
0.771289 0.248376 0.838224
0.968596 0.184111 0.793993
0 0.754936 0.811948
0 0.752404 0.807267
0.078419 0.72449 0.774029
0.660264 0.683446 0.727395
0.927247 0.614793 0.663485
0 0.954412 0.648572
0 0.953952 0.644409
0 0.94623 0.616199
0.453082 0.926325 0.559825
0.87229 0.908023 0.507465
0 0.009427 1
0 0.009427 1
0.279346 0.011321 1
0.825532 0.027749 1
0.982518 0.036657 1
0 0.052392 1
0 0.04143 1
0.249577 0.013961 1
0.812184 0.027088 1
0.980498 0.036527 1
0 0.30946 1
0 0.302382 1
0.180015 0.271925 1
0.744627 0.226428 1
0.963952 0.16072 1
0 0.745286 1
0 0.74226 1
0 0.713916 1
0.62192 0.66052 1
0.923902 0.583218 0.999145
0 0.949046 1
0 0.948469 1
0 0.941664 0.995983
0.430036 0.91911 0.970621
0.866914 0.90057 0.949818
