site/assets/luts/freshluts--0000692-rec-709-to-red-log-film-conversion.cube
# LUTr-Schema-Version: 2
# LUTr-ID: freshluts--0000692-rec-709-to-red-log-film-conversion
# LUTr-Title: REC 709 to RED Log Film (conversion)
# LUTr-Collection: Fresh LUTs
# LUTr-Collection-ID: freshluts-community
# LUTr-Source: https://freshluts.com
# LUTr-Retrieved: 2026-07-27
# LUTr-Source-File: submissions-raw/freshluts/cubes/692__REC709_to_Red_Log_Film_33.cube
# LUTr-Source-Format: CUBE
# LUTr-Source-SHA256: f3792e94d5793db00968541cffdd7bf64d89fc71bb2457af8515fe636ce24726
# LUTr-License: CC0-1.0
# LUTr-License-URL: https://freshluts.com/termsandconditions
# LUTr-License-Basis: site-terms
# LUTr-Transform-Class: creative-look
# LUTr-Tags: creative, freshluts, community, cube, rec709, cinematic
# LUTr-Input-Color-Space: rec709
# LUTr-Input-Gamut: rec709
# LUTr-Input-Transfer: rec709
# LUTr-Output-Color-Space: srgb
# LUTr-Output-Gamut: rec709
# LUTr-Output-Transfer: srgb
# LUTr-Color-Space-Confidence: declared-by-source
# LUTr-Domain-Normalized: true
# LUTr-Shaper: none
# LUTr-Original-Grid: 33x33x33
# LUTr-Conversion-Grid: 33x33x33
# LUTr-Conversion-Interpolation: none
# LUTr-Conversion-Method: Metadata normalization; numeric LUT samples preserved
# LUTr-Conversion-Tool: LUTr scripts/convert-all-to-cube.mjs 2.0.0
# LUTr-Conversion-Date: 2026-07-28
# LUTr-Asset-URL: https://freshluts.com/luts/692
# LUTr-Author: François Bélanger
# LUTr-Author-URL: https://freshluts.com/users/7358
# LUTr-Attribution: François Bélanger via Fresh LUTs
# LUTr-Source-Labels: gamma=Rec 709; color=None; key=Neutral; style=Correction
# LUTr-Note: Preserve this metadata and the upstream license notices when redistributing.
# LUTr-Upstream-Comment: INPUTGAMMA Rec709
# LUTr-Upstream-Comment: IMAGEPROFILE sRGB
# LUTr-Upstream-Comment: OUTPUTGAMMA RedLogFilm
# LUTr-Upstream-Comment: 64BLOB
# LUTr-Upstream-Comment: TFVUQwAAAAAzAAAAAAAAAEN0clYsAgAAigAAAAAAwP8AAAA/AAAAPwAAAD8A
# LUTr-Upstream-Comment: AAA/AAAAP+Q4jj8AAIA/AACAPwAAAAAAAAA/AAAAAAAAAAAAAAAAAAAAAAAA
# LUTr-Upstream-Comment: AAAAAAAAAACAPwAAAD8AAAA/sPgKPwAAAAAAAAA/AAAAP7D4Cj++914/AACA
# LUTr-Upstream-Comment: PwAAAAAAAAAAAAAAPwAAAD8AAAAAAACAPwAAAAAAAAAAAAAAPwghhD4AAAAA
# LUTr-Upstream-Comment: AAAAAAAAAAAAAAAAAAAAAAAAAAAAAAAAAADA/wAAAAAAAEA/AAAAAAAAAAAA
# LUTr-Upstream-Comment: AEA/AABAPwAAQD8AAAAAAAAAPwAAAAAAAAA/AAAAPwAAgD8AAAAAAAAAPwAA
# LUTr-Upstream-Comment: QD8AAMD/AACAPwAAgD8AAIA/AAAAAAAAAAAAAAA/AAAAPwAAAD8AAAAAAACA
# LUTr-Upstream-Comment: PwAAAACttdY+AABAPwAAgD8AAAAAAADA/wAAAAAAAAAAAACAPwAAgD8AAIA/
# LUTr-Upstream-Comment: AACAPwAAwP8AAMD/AADA/wAAwP8AAMD/AADA/wAAAD8AAAAAAAAAPwAAAD8A
# LUTr-Upstream-Comment: AAA/AAAAPwAAAD8AAAA/AAAAPwAAAD8AAAA/AAAAAAAAAD8AAIA/AAAAPwAA
# LUTr-Upstream-Comment: AAAAAAA/AAAAAAAAgD8AAMD/AADA/wAAwP8AAMD/AADA/wAAwP8AAAAAAADA
# LUTr-Upstream-Comment: /wAAwP8AAMD/AADA/wAAwP8AAMD/AADA/wAAwP8AAMD/AADA/wAAwP8AAMD/
# LUTr-Upstream-Comment: AADA/wAAwP8AAMD/AADA/wAAwP8AAMD/AADA/wAAwP8AAMD/AAAAAERHUkQC
# LUTr-Upstream-Comment: EAICBhVmYmJvaXNjbGFpckBnbWFpbC5jb20JA277A277A5IEA5IEAggCCAIy
# LUTr-Upstream-Comment: AAAAAAAAAAAAAAAAAAAAAAAAAAAAAAAAAAAAAAAAAAABAAABAAAAAAAAAAAA
# LUTr-Upstream-Comment: AAAAAAAAAAAAAAAAAAAAAAAAAAAAAAAAAAAAAAAAAAAAAAAAAAEAAAElSRI+
# LUTr-Upstream-Comment: AAAAAAAAAAAAAAAAAAAAAAAAAAAAAAAAAAAAAAAAAAAAAAAAAAAAAAAAAQAA
# LUTr-Upstream-Comment: ASVJkj4AAAAAAAAAAAAAAAAAAAAAAAAAAAAAAAAAAAAAAAAAAAAAAAAAAAAA
# LUTr-Upstream-Comment: AAABAAABt23bPgAAAAAAAAAAAAAAAAAAAAAAAAAAAAAAAAAAAAAAAAAAAAAA
# LUTr-Upstream-Comment: AAAAAAAAAAEAAAElSRI/AAAAAAAAAAAAAAAAAAAAAAAAAAAAAAAAAAAAAAAA
# LUTr-Upstream-Comment: AAAAAAAAAAAAAAAAAQAAAW7bNj8AAAAAAAAAAAAAAAAAAAAAAAAAAAAAAAAA
# LUTr-Upstream-Comment: AAAAAAAAAAAAAAAAAAAAAAABAAABt21bPwAAAAAAAAAAAAAAAAAAAAAAAAAA
# LUTr-Upstream-Comment: AAAAAAAAAAAAAAAAAAAAAAAAAAAAAAEAAAEAAIA/AAAAAAAAAAAAAAAAAACn
# LUTr-Upstream-Comment: AAAAAAAAAAAAAAAAAAAAAAAAAAAAAAAAAAAAAAAAAQAAAAAlSRI+AAAAAAAA
# LUTr-Upstream-Comment: dgAAAHYAAAAAAAAAAAAAAAAAAAAAAAAAAAAAAAAAAAAAAAABJUkSPiVJEj4A
# LUTr-Upstream-Comment: AAAAAACnAAAAAAAAAAAAAAAAAAAAAAAAAAAAAAAAAAAAAAAAAAAAAAElSZI+
TITLE "REC 709 to RED Log Film (conversion)"
LUT_3D_SIZE 33
DOMAIN_MIN 0 0 0
DOMAIN_MAX 1 1 1
0.09259 0.09259 0.09259
0.155421 0.093011 0.093011
0.196761 0.09259 0.09259
0.228597 0.09259 0.09259
0.258148 0.09259 0.09259
0.286066 0.09259 0.09259
0.312281 0.09259 0.09259
0.336538 0.09259 0.09259
0.359451 0.09259 0.09259
0.380992 0.09259 0.09259
0.401224 0.09259 0.09259
0.420273 0.09259 0.09259
0.43823 0.09259 0.09259
0.455093 0.09259 0.09259
0.471139 0.09259 0.09259
0.486527 0.09259 0.09259
0.500998 0.09259 0.09259
0.514705 0.09259 0.09259
0.527966 0.09259 0.09259
0.540757 0.09259 0.09259
0.552711 0.09259 0.09259
0.564514 0.09259 0.09259
0.575569 0.09259 0.09259
0.586359 0.09259 0.09259
0.596848 0.09259 0.09259
0.6069 0.09259 0.09259
0.616491 0.09259 0.09259
0.625893 0.09259 0.09259
0.635117 0.09259 0.09259
0.64398 0.09259 0.09259
0.652408 0.09259 0.09259
0.660743 0.09259 0.09259
0.668717 0.09259 0.09259
0.093011 0.155421 0.093011
0.155164 0.155164 0.09259
0.196761 0.155164 0.09259
0.228597 0.155164 0.09259
0.258001 0.155164 0.09259
0.285936 0.155164 0.09259
0.312164 0.155164 0.09259
0.336538 0.155164 0.09259
0.359649 0.155164 0.09259
0.380992 0.155164 0.09259
0.401224 0.155164 0.09259
0.420191 0.155164 0.09259
0.43823 0.155164 0.09259
0.455019 0.155164 0.09259
0.471068 0.155164 0.09259
0.486459 0.155164 0.09259
0.500932 0.155164 0.09259
0.514642 0.155164 0.09259
0.52815 0.155164 0.09259
0.540697 0.155164 0.09259
0.552885 0.155164 0.09259
0.564457 0.155164 0.09259
0.575513 0.155164 0.09259
0.58652 0.155164 0.09259
0.596795 0.155164 0.09259
0.606849 0.155164 0.09259
0.616642 0.155164 0.09259
0.626041 0.155164 0.09259
0.635068 0.155164 0.09259
0.643933 0.155164 0.09259
0.652408 0.155164 0.09259
0.660697 0.155164 0.09259
0.668899 0.155164 0.09259
0.09259 0.196761 0.09259
0.155164 0.19696 0.09259
0.196761 0.196761 0.09259
0.228766 0.196761 0.09259
0.258148 0.19696 0.09259
0.286066 0.19696 0.09259
0.312281 0.19696 0.09259
0.336646 0.196761 0.09259
0.35955 0.196761 0.09259
0.381084 0.196761 0.09259
0.401311 0.196761 0.09259
0.420273 0.196761 0.09259
0.438308 0.19696 0.09259
0.455093 0.196761 0.09259
0.47121 0.196761 0.09259
0.486527 0.19696 0.09259
0.500998 0.19696 0.09259
0.514769 0.196761 0.09259
0.527966 0.196761 0.09259
0.540578 0.196761 0.09259
0.552769 0.196761 0.09259
0.564514 0.19696 0.09259
0.575624 0.196761 0.09259
0.586359 0.196761 0.09259
0.596901 0.196761 0.09259
0.6069 0.196761 0.09259
0.616541 0.196761 0.09259
0.625942 0.196761 0.09259
0.635165 0.19696 0.09259
0.643789 0.196761 0.09259
0.652454 0.196761 0.09259
0.660789 0.19696 0.09259
0.668762 0.196761 0.09259
0.09259 0.228766 0.09259
0.155164 0.228597 0.09259
0.19696 0.228766 0.09259
0.228766 0.228766 0.09259
0.258001 0.228597 0.09259
0.285936 0.228597 0.09259
0.312046 0.228597 0.09259
0.336538 0.228597 0.09259
0.359649 0.228766 0.09259
0.381177 0.228766 0.09259
0.401398 0.228766 0.09259
0.420354 0.228766 0.09259
0.438152 0.228597 0.09259
0.455242 0.228766 0.09259
0.471281 0.228766 0.09259
0.486391 0.228597 0.09259
0.500932 0.228597 0.09259
0.514832 0.228766 0.09259
0.528089 0.228766 0.09259
0.540638 0.228766 0.09259
0.552827 0.228766 0.09259
0.564457 0.228766 0.09259
0.575679 0.228766 0.09259
0.586467 0.228766 0.09259
0.596795 0.228597 0.09259
0.606797 0.228597 0.09259
0.616592 0.228766 0.09259
0.625992 0.228766 0.09259
0.635019 0.228766 0.09259
0.643885 0.228766 0.09259
0.652361 0.228597 0.09259
0.66065 0.228766 0.09259
0.668853 0.228766 0.09259
0.09259 0.258001 0.09259
0.155164 0.258148 0.09259
0.196761 0.258001 0.09259
0.228597 0.258001 0.09259
0.258148 0.258148 0.09259
0.285936 0.258148 0.09259
0.312164 0.258148 0.09259
0.336646 0.258001 0.09259
0.359451 0.258001 0.09259
0.381084 0.258001 0.09259
0.401311 0.258001 0.09259
0.420273 0.258001 0.09259
0.43823 0.258001 0.09259
0.455093 0.258001 0.09259
0.471139 0.258001 0.09259
0.486459 0.258001 0.09259
0.500998 0.258001 0.09259
0.514705 0.258001 0.09259
0.527966 0.258001 0.09259
0.540697 0.258148 0.09259
0.552711 0.258001 0.09259
0.564514 0.258148 0.09259
0.575569 0.258001 0.09259
0.586359 0.258001 0.09259
0.596848 0.258001 0.09259
0.6069 0.258001 0.09259
0.616541 0.258001 0.09259
0.625942 0.258001 0.09259
0.635117 0.258001 0.09259
0.643933 0.258148 0.09259
0.652408 0.258001 0.09259
0.660743 0.258001 0.09259
0.668762 0.258001 0.09259
0.09259 0.286066 0.09259
0.155164 0.285936 0.09259
0.196761 0.285936 0.09259
0.228597 0.285936 0.09259
0.258001 0.285936 0.09259
0.285936 0.285936 0.09259
0.312164 0.285936 0.09259
0.336538 0.285936 0.09259
0.359649 0.285936 0.09259
0.381177 0.286066 0.09259
0.401224 0.285936 0.09259
0.420191 0.285936 0.09259
0.43823 0.285936 0.09259
0.455242 0.285936 0.09259
0.471281 0.285936 0.09259
0.486459 0.285936 0.09259
0.500932 0.285936 0.09259
0.514832 0.285936 0.09259
0.528089 0.285936 0.09259
0.540638 0.285936 0.09259
0.552827 0.285936 0.09259
0.564457 0.285936 0.09259
0.575679 0.285936 0.09259
0.586467 0.285936 0.09259
0.596795 0.285936 0.09259
0.606849 0.285936 0.09259
0.616642 0.285936 0.09259
0.626041 0.285936 0.09259
0.635068 0.285936 0.09259
0.643885 0.285936 0.09259
0.652361 0.285936 0.09259
0.660697 0.285936 0.09259
0.668853 0.285936 0.09259
0.09259 0.312164 0.09259
0.155164 0.312046 0.09259
0.19696 0.312164 0.09259
0.228766 0.312164 0.09259
0.258148 0.312164 0.09259
0.285936 0.312046 0.09259
0.312046 0.312046 0.09259
0.336646 0.312164 0.09259
0.35955 0.312164 0.09259
0.381084 0.312164 0.09259
0.401311 0.312164 0.09259
0.420354 0.312164 0.09259
0.438308 0.312164 0.09259
0.455167 0.312164 0.09259
0.47121 0.312164 0.09259
0.486391 0.312046 0.09259
0.501064 0.312164 0.09259
0.514769 0.312164 0.09259
0.528027 0.312164 0.09259
0.540638 0.312164 0.09259
0.552769 0.312164 0.09259
0.5644 0.312164 0.09259
0.575624 0.312164 0.09259
0.586413 0.312164 0.09259
0.596901 0.312164 0.09259
0.606952 0.312164 0.09259
0.616592 0.312164 0.09259
0.625992 0.312164 0.09259
0.635019 0.312164 0.09259
0.643837 0.312164 0.09259
0.652454 0.312164 0.09259
0.66065 0.312046 0.09259
0.668808 0.312164 0.09259
0.09259 0.336646 0.09259
0.155164 0.336538 0.09259
0.19696 0.336646 0.09259
0.228766 0.336646 0.09259
0.258001 0.336538 0.09259
0.285936 0.336538 0.09259
0.312164 0.336538 0.09259
0.336646 0.336646 0.09259
0.35955 0.336646 0.09259
0.381177 0.336646 0.09259
0.401311 0.336646 0.09259
0.420354 0.336646 0.09259
0.438152 0.336538 0.09259
0.455167 0.336646 0.09259
0.47121 0.336646 0.09259
0.486391 0.336538 0.09259
0.500932 0.336538 0.09259
0.514769 0.336646 0.09259
0.528027 0.336646 0.09259
0.540638 0.336646 0.09259
0.552827 0.336646 0.09259
0.5644 0.336646 0.09259
0.575679 0.336646 0.09259
0.586413 0.336646 0.09259
0.596901 0.336646 0.09259
0.606797 0.336538 0.09259
0.616592 0.336646 0.09259
0.625992 0.336646 0.09259
0.635019 0.336538 0.09259
0.643837 0.336646 0.09259
0.652361 0.336538 0.09259
0.66065 0.336538 0.09259
0.668808 0.336646 0.09259
0.09259 0.35955 0.09259
0.155164 0.35955 0.09259
0.19696 0.35955 0.09259
0.228766 0.35955 0.09259
0.258001 0.35955 0.09259
0.285936 0.35955 0.09259
0.312046 0.35955 0.09259
0.336646 0.35955 0.09259
0.35955 0.35955 0.09259
0.381084 0.35955 0.09259
0.401311 0.35955 0.09259
0.420354 0.35955 0.09259
0.438152 0.35955 0.09259
0.455167 0.35955 0.09259
0.47121 0.35955 0.09259
0.486391 0.35955 0.09259
0.500932 0.35955 0.09259
0.514769 0.35955 0.09259
0.528027 0.35955 0.09259
0.540638 0.35955 0.09259
0.552769 0.35955 0.09259
0.5644 0.35955 0.09259
0.575624 0.35955 0.09259
0.586413 0.35955 0.09259
0.596901 0.35955 0.09259
0.606952 0.35955 0.09259
0.616592 0.35955 0.09259
0.625992 0.35955 0.09259
0.635019 0.35955 0.09259
0.643837 0.35955 0.09259
0.652361 0.35955 0.09259
0.66065 0.35955 0.09259
0.668808 0.35955 0.09259
0.09259 0.381084 0.09259
0.155164 0.381084 0.09259
0.196761 0.381177 0.09259
0.228766 0.381177 0.09259
0.258001 0.381084 0.09259
0.285936 0.381084 0.09259
0.312046 0.381084 0.09259
0.336646 0.381177 0.09259
0.35955 0.381084 0.09259
0.381084 0.381084 0.09259
0.401311 0.381084 0.09259
0.420354 0.381177 0.09259
0.438152 0.381084 0.09259
0.455167 0.381084 0.09259
0.47121 0.381084 0.09259
0.486391 0.381084 0.09259
0.500998 0.381177 0.09259
0.514769 0.381084 0.09259
0.528027 0.381084 0.09259
0.540638 0.381084 0.09259
0.552769 0.381084 0.09259
0.5644 0.381084 0.09259
0.575624 0.381084 0.09259
0.586413 0.381084 0.09259
0.596901 0.381084 0.09259
0.6069 0.381177 0.09259
0.616592 0.381084 0.09259
0.625992 0.381084 0.09259
0.635019 0.381084 0.09259
0.643837 0.381084 0.09259
0.652361 0.381084 0.09259
0.66065 0.381084 0.09259
0.668808 0.381084 0.09259
0.09259 0.401224 0.09259
0.155164 0.401311 0.09259
0.196761 0.401311 0.09259
0.228766 0.401311 0.09259
0.258001 0.401311 0.09259
0.285936 0.401311 0.09259
0.312164 0.401311 0.09259
0.336646 0.401311 0.09259
0.35955 0.401311 0.09259
0.381084 0.401311 0.09259
0.401311 0.401311 0.09259
0.420273 0.401311 0.09259
0.43823 0.401311 0.09259
0.455093 0.401311 0.09259
0.471139 0.401311 0.09259
0.486459 0.401311 0.09259
0.500998 0.401311 0.09259
0.514769 0.401311 0.09259
0.527966 0.401311 0.09259
0.540697 0.401311 0.09259
0.552769 0.401311 0.09259
0.564457 0.401311 0.09259
0.575569 0.401311 0.09259
0.586359 0.401311 0.09259
0.596848 0.401311 0.09259
0.6069 0.401311 0.09259
0.616541 0.401311 0.09259
0.625942 0.401311 0.09259
0.635117 0.401311 0.09259
0.643885 0.401311 0.09259
0.652408 0.401311 0.09259
0.660743 0.401311 0.09259
0.668762 0.401311 0.09259
0.09259 0.420273 0.09259
0.155164 0.420273 0.09259
0.196761 0.420273 0.09259
0.228597 0.420273 0.09259
0.258001 0.420273 0.09259
0.285936 0.420273 0.09259
0.312164 0.420273 0.09259
0.336646 0.420273 0.09259
0.35955 0.420273 0.09259
0.381084 0.420273 0.09259
0.401311 0.420273 0.09259
0.420273 0.420273 0.09259
0.43823 0.420273 0.09259
0.455093 0.420273 0.09259
0.471139 0.420273 0.09259
0.486459 0.420273 0.09259
0.500998 0.420273 0.09259
0.514705 0.420273 0.09259
0.527966 0.420273 0.09259
0.540697 0.420273 0.09259
0.552827 0.420354 0.09259
0.564457 0.420273 0.09259
0.575569 0.420273 0.09259
0.586467 0.420354 0.09259
0.596848 0.420273 0.09259
0.606849 0.420273 0.09259
0.616642 0.420354 0.09259
0.625942 0.420273 0.09259
0.635068 0.420273 0.09259
0.643885 0.420273 0.09259
0.652408 0.420273 0.09259
0.660697 0.420273 0.09259
0.668853 0.420354 0.09259
0.09259 0.43823 0.09259
0.155164 0.438308 0.09259
0.196761 0.43823 0.09259
0.228766 0.43823 0.09259
0.258001 0.43823 0.09259
0.285936 0.43823 0.09259
0.312164 0.43823 0.09259
0.336646 0.43823 0.09259
0.35955 0.43823 0.09259
0.381084 0.43823 0.09259
0.401311 0.43823 0.09259
0.420273 0.43823 0.09259
0.43823 0.43823 0.09259
0.455093 0.43823 0.09259
0.47121 0.43823 0.09259
0.486459 0.43823 0.09259
0.500998 0.43823 0.09259
0.514769 0.43823 0.09259
0.527966 0.43823 0.09259
0.540697 0.43823 0.09259
0.552769 0.43823 0.09259
0.564457 0.43823 0.09259
0.575624 0.43823 0.09259
0.586413 0.43823 0.09259
0.596848 0.43823 0.09259
0.6069 0.43823 0.09259
0.616541 0.43823 0.09259
0.625942 0.43823 0.09259
0.635117 0.43823 0.09259
0.643837 0.43823 0.09259
0.652408 0.43823 0.09259
0.660743 0.43823 0.09259
0.668808 0.43823 0.09259
0.09259 0.455093 0.09259
0.155164 0.455167 0.09259
0.196761 0.455093 0.09259
0.228766 0.455093 0.09259
0.258001 0.455167 0.09259
0.285936 0.455167 0.09259
0.312164 0.455167 0.09259
0.336646 0.455093 0.09259
0.35955 0.455093 0.09259
0.381084 0.455093 0.09259
0.401311 0.455093 0.09259
0.420273 0.455093 0.09259
0.43823 0.455167 0.09259
0.455093 0.455093 0.09259
0.471139 0.455093 0.09259
0.486459 0.455167 0.09259
0.500998 0.455167 0.09259
0.514705 0.455093 0.09259
0.527966 0.455093 0.09259
0.540697 0.455167 0.09259
0.552827 0.455167 0.09259
0.564457 0.455167 0.09259
0.575569 0.455093 0.09259
0.586467 0.455167 0.09259
0.596848 0.455093 0.09259
0.606849 0.455167 0.09259
0.616642 0.455167 0.09259
0.625942 0.455093 0.09259
0.635068 0.455167 0.09259
0.643885 0.455167 0.09259
0.652408 0.455167 0.09259
0.660697 0.455167 0.09259
0.668853 0.455167 0.09259
0.09259 0.47121 0.09259
0.155164 0.47121 0.09259
0.196761 0.471139 0.09259
0.228597 0.471139 0.09259
0.258001 0.47121 0.09259
0.285936 0.47121 0.09259
0.312164 0.47121 0.09259
0.336538 0.471139 0.09259
0.35955 0.47121 0.09259
0.381084 0.471139 0.09259
0.401311 0.471139 0.09259
0.420273 0.471139 0.09259
0.43823 0.47121 0.09259
0.455093 0.471139 0.09259
0.47121 0.47121 0.09259
0.486459 0.47121 0.09259
0.500932 0.47121 0.09259
0.514832 0.47121 0.09259
0.528027 0.47121 0.09259
0.540638 0.47121 0.09259
0.552827 0.47121 0.09259
0.564457 0.47121 0.09259
0.575679 0.47121 0.09259
0.586467 0.47121 0.09259
0.596848 0.471139 0.09259
0.606849 0.47121 0.09259
0.616592 0.47121 0.09259
0.625992 0.47121 0.09259
0.635068 0.47121 0.09259
0.643885 0.47121 0.09259
0.652408 0.47121 0.09259
0.660697 0.47121 0.09259
0.668853 0.47121 0.09259
0.09259 0.486391 0.09259
0.155164 0.486459 0.09259
0.196761 0.486459 0.09259
0.228766 0.486459 0.09259
0.258001 0.486459 0.09259
0.285936 0.486459 0.09259
0.312164 0.486459 0.09259
0.336646 0.486459 0.09259
0.35955 0.486391 0.09259
0.381084 0.486459 0.09259
0.401311 0.486459 0.09259
0.420273 0.486459 0.09259
0.43823 0.486459 0.09259
0.455093 0.486459 0.09259
0.471139 0.486459 0.09259
0.486459 0.486459 0.09259
0.500998 0.486459 0.09259
0.514769 0.486459 0.09259
0.527966 0.486459 0.09259
0.540697 0.486459 0.09259
0.552769 0.486391 0.09259
0.564457 0.486459 0.09259
0.575624 0.486459 0.09259
0.586413 0.486391 0.09259
0.596848 0.486459 0.09259
0.6069 0.486459 0.09259
0.616541 0.486459 0.09259
0.625942 0.486459 0.09259
0.635068 0.486459 0.09259
0.643885 0.486459 0.09259
0.652408 0.486459 0.09259
0.660743 0.486459 0.09259
0.668808 0.486391 0.09259
0.09259 0.500932 0.09259
0.155164 0.500998 0.09259
0.196761 0.500932 0.09259
0.228766 0.500932 0.09259
0.258001 0.500998 0.09259
0.285936 0.500998 0.09259
0.312164 0.500998 0.09259
0.336646 0.500998 0.09259
0.35955 0.500932 0.09259
0.381084 0.500932 0.09259
0.401311 0.500932 0.09259
0.420273 0.500932 0.09259
0.43823 0.500998 0.09259
0.455093 0.500932 0.09259
0.471139 0.500932 0.09259
0.486459 0.500998 0.09259
0.500998 0.500998 0.09259
0.514769 0.500932 0.09259
0.527966 0.500932 0.09259
0.540697 0.500998 0.09259
0.552827 0.500998 0.09259
0.564457 0.500998 0.09259
0.575624 0.500932 0.09259
0.586413 0.500932 0.09259
0.596848 0.500998 0.09259
0.606849 0.500998 0.09259
0.616541 0.500932 0.09259
0.625942 0.500932 0.09259
0.635068 0.500998 0.09259
0.643885 0.500998 0.09259
0.652408 0.500998 0.09259
0.660697 0.500998 0.09259
0.668853 0.500998 0.09259
0.09259 0.514769 0.09259
0.155164 0.514769 0.09259
0.196761 0.514769 0.09259
0.228766 0.514769 0.09259
0.258148 0.514832 0.09259
0.285936 0.514769 0.09259
0.312164 0.514769 0.09259
0.336646 0.514769 0.09259
0.35955 0.514769 0.09259
0.381084 0.514769 0.09259
0.401311 0.514769 0.09259
0.420273 0.514769 0.09259
0.43823 0.514832 0.09259
0.455167 0.514769 0.09259
0.47121 0.514769 0.09259
0.486391 0.514769 0.09259
0.500998 0.514832 0.09259
0.514769 0.514769 0.09259
0.528027 0.514769 0.09259
0.540638 0.514769 0.09259
0.552769 0.514769 0.09259
0.5644 0.514769 0.09259
0.575624 0.514769 0.09259
0.586413 0.514769 0.09259
0.596901 0.514769 0.09259
0.6069 0.514769 0.09259
0.616592 0.514769 0.09259
0.625992 0.514769 0.09259
0.635019 0.514769 0.09259
0.643837 0.514769 0.09259
0.652454 0.514769 0.09259
0.66065 0.514769 0.09259
0.668808 0.514769 0.09259
0.09259 0.527966 0.09259
0.155164 0.528027 0.09259
0.196761 0.528027 0.09259
0.228766 0.527966 0.09259
0.258001 0.528027 0.09259
0.285936 0.528027 0.09259
0.312164 0.528027 0.09259
0.336646 0.528027 0.09259
0.35955 0.527966 0.09259
0.381084 0.527966 0.09259
0.401311 0.527966 0.09259
0.420273 0.528027 0.09259
0.43823 0.528027 0.09259
0.455093 0.527966 0.09259
0.471139 0.527966 0.09259
0.486459 0.528027 0.09259
0.500998 0.528027 0.09259
0.514769 0.527966 0.09259
0.527966 0.527966 0.09259
0.540697 0.528027 0.09259
0.552827 0.528027 0.09259
0.564457 0.528027 0.09259
0.575624 0.527966 0.09259
0.586467 0.528027 0.09259
0.596848 0.528027 0.09259
0.606849 0.528027 0.09259
0.616541 0.527966 0.09259
0.625942 0.527966 0.09259
0.635068 0.528027 0.09259
0.643885 0.528027 0.09259
0.652408 0.528027 0.09259
0.660697 0.528027 0.09259
0.668853 0.528027 0.09259
0.09259 0.540638 0.09259
0.155164 0.540638 0.09259
0.196761 0.540638 0.09259
0.228766 0.540638 0.09259
0.258001 0.540638 0.09259
0.285936 0.540638 0.09259
0.312164 0.540638 0.09259
0.336646 0.540638 0.09259
0.35955 0.540697 0.09259
0.381084 0.540638 0.09259
0.401311 0.540638 0.09259
0.420273 0.540638 0.09259
0.43823 0.540638 0.09259
0.455093 0.540638 0.09259
0.471139 0.540638 0.09259
0.486459 0.540638 0.09259
0.500998 0.540638 0.09259
0.514769 0.540638 0.09259
0.527966 0.540638 0.09259
0.540638 0.540638 0.09259
0.552827 0.540697 0.09259
0.564457 0.540638 0.09259
0.575624 0.540638 0.09259
0.586467 0.540697 0.09259
0.596848 0.540638 0.09259
0.606849 0.540638 0.09259
0.616592 0.540697 0.09259
0.625942 0.540638 0.09259
0.635068 0.540638 0.09259
0.643885 0.540697 0.09259
0.652408 0.540638 0.09259
0.660697 0.540638 0.09259
0.668853 0.540697 0.09259
0.09259 0.552769 0.09259
0.155164 0.552769 0.09259
0.196761 0.552827 0.09259
0.228766 0.552827 0.09259
0.258148 0.552827 0.09259
0.285936 0.552769 0.09259
0.312164 0.552769 0.09259
0.336646 0.552827 0.09259
0.35955 0.552769 0.09259
0.381084 0.552827 0.09259
0.401311 0.552827 0.09259
0.420273 0.552827 0.09259
0.43823 0.552827 0.09259
0.455167 0.552827 0.09259
0.47121 0.552827 0.09259
0.486391 0.552769 0.09259
0.500998 0.552827 0.09259
0.514769 0.552827 0.09259
0.528027 0.552769 0.09259
0.540638 0.552769 0.09259
0.552769 0.552769 0.09259
0.564457 0.552769 0.09259
0.575624 0.552827 0.09259
0.586413 0.552769 0.09259
0.596901 0.552827 0.09259
0.6069 0.552827 0.09259
0.616592 0.552769 0.09259
0.625992 0.552769 0.09259
0.635019 0.552769 0.09259
0.643837 0.552769 0.09259
0.652454 0.552827 0.09259
0.660697 0.552769 0.09259
0.668808 0.552769 0.09259
0.09259 0.564514 0.09259
0.155164 0.564457 0.09259
0.196761 0.564457 0.09259
0.228766 0.5644 0.09259
0.258001 0.564457 0.09259
0.285936 0.564457 0.09259
0.312164 0.564457 0.09259
0.336646 0.564457 0.09259
0.35955 0.564457 0.09259
0.381084 0.5644 0.09259
0.401311 0.5644 0.09259
0.420273 0.564457 0.09259
0.43823 0.564457 0.09259
0.455093 0.5644 0.09259
0.471139 0.5644 0.09259
0.486459 0.564457 0.09259
0.500998 0.564457 0.09259
0.514769 0.5644 0.09259
0.527966 0.5644 0.09259
0.540638 0.564457 0.09259
0.552827 0.564457 0.09259
0.564457 0.564457 0.09259
0.575569 0.5644 0.09259
0.586467 0.564457 0.09259
0.596848 0.564457 0.09259
0.606849 0.564457 0.09259
0.616592 0.564457 0.09259
0.625992 0.564457 0.09259
0.635068 0.564457 0.09259
0.643885 0.564457 0.09259
0.652408 0.564457 0.09259
0.660697 0.564457 0.09259
0.668853 0.564457 0.09259
0.09259 0.575679 0.09259
0.155164 0.575624 0.09259
0.196761 0.575569 0.09259
0.228766 0.575569 0.09259
0.258001 0.575624 0.09259
0.285936 0.575624 0.09259
0.312164 0.575624 0.09259
0.336646 0.575624 0.09259
0.35955 0.575624 0.09259
0.381084 0.575569 0.09259
0.401311 0.575569 0.09259
0.420273 0.575624 0.09259
0.43823 0.575624 0.09259
0.455093 0.575569 0.09259
0.47121 0.575679 0.09259
0.486459 0.575624 0.09259
0.500998 0.575624 0.09259
0.514769 0.575624 0.09259
0.528027 0.575624 0.09259
0.540638 0.575624 0.09259
0.552827 0.575624 0.09259
0.564457 0.575624 0.09259
0.575679 0.575679 0.09259
0.586467 0.575624 0.09259
0.596848 0.575624 0.09259
0.606849 0.575624 0.09259
0.616592 0.575624 0.09259
0.625992 0.575624 0.09259
0.635068 0.575624 0.09259
0.643885 0.575624 0.09259
0.652408 0.575624 0.09259
0.660697 0.575624 0.09259
0.668853 0.575624 0.09259
0.09259 0.586413 0.09259
0.155164 0.586467 0.09259
0.196761 0.586413 0.09259
0.228766 0.586413 0.09259
0.258001 0.586413 0.09259
0.285936 0.586413 0.09259
0.312164 0.586413 0.09259
0.336646 0.586413 0.09259
0.35955 0.586413 0.09259
0.381084 0.586413 0.09259
0.401311 0.586413 0.09259
0.420273 0.586413 0.09259
0.43823 0.586413 0.09259
0.455093 0.586413 0.09259
0.47121 0.586413 0.09259
