site/assets/luts/freshluts--0000409-rocky.cube
# LUTr-Schema-Version: 2
# LUTr-ID: freshluts--0000409-rocky
# LUTr-Title: rocky
# LUTr-Collection: Fresh LUTs
# LUTr-Collection-ID: freshluts-community
# LUTr-Source: https://freshluts.com
# LUTr-Retrieved: 2026-07-27
# LUTr-Source-File: submissions-raw/freshluts/cubes/409__Untitled_1.C0062.cube
# LUTr-Source-Format: CUBE
# LUTr-Source-SHA256: 0895059e0b73d26a038508b25d212da6ea857c2cbc7636671bfb7ebb740133a4
# LUTr-License: CC0-1.0
# LUTr-License-URL: https://freshluts.com/termsandconditions
# LUTr-License-Basis: site-terms
# LUTr-Transform-Class: creative-look
# LUTr-Tags: creative, freshluts, community, cube, blue, arri-logc3-ei800
# LUTr-Input-Color-Space:
# LUTr-Input-Gamut: arri-wide-gamut-3
# LUTr-Input-Transfer: arri-logc3-ei800
# LUTr-Output-Color-Space: srgb
# LUTr-Output-Gamut: rec709
# LUTr-Output-Transfer: srgb
# LUTr-Color-Space-Confidence: camera-profile-input-required
# LUTr-Domain-Normalized: true
# LUTr-Shaper: none
# LUTr-Original-Grid: 33x33x33
# LUTr-Conversion-Grid: 33x33x33
# LUTr-Conversion-Interpolation: none
# LUTr-Conversion-Method: Metadata normalization; numeric LUT samples preserved
# LUTr-Conversion-Tool: LUTr scripts/convert-all-to-cube.mjs 2.0.0
# LUTr-Conversion-Date: 2026-07-28
# LUTr-Asset-URL: https://freshluts.com/luts/409
# LUTr-Author: rocky
# LUTr-Author-URL: https://freshluts.com/users/24560
# LUTr-Attribution: rocky via Fresh LUTs
# LUTr-Source-Labels: gamma=Arri log c; color=Blue; key=Neutral; style=Colorful
# LUTr-Note: Preserve this metadata and the upstream license notices when redistributing.
TITLE "rocky"
LUT_3D_SIZE 33
DOMAIN_MIN 0 0 0
DOMAIN_MAX 1 1 1
0 0 0
0.0342412 0 0
0.0684825 0 0
0.102739 0 0
0.13698 0 0
0.171237 0 0
0.205493 0 0
0.239734 0 0
0.273991 0 0
0.308232 0 0
0.342489 0 0
0.376745 0 0
0.410986 0 0
0.445243 0 0
0.479484 0 0
0.513741 0 0
0.547997 0 0
0.582238 0 0
0.616495 0 0
0.650736 0 0
0.684993 0 0
0.719249 0 0
0.753491 0 0
0.787747 0 0
0.821988 0 0
0.856245 0 0
0.890501 0 0
0.924743 0 0
0.958999 0 0
0.99324 0 0
1 0 0
1 0 0
1 0 0
0 0.0342412 0
0.0342412 0.0342412 0
0.0684825 0.0342412 0
0.102739 0.0342412 0
0.13698 0.0342412 0
0.171237 0.0342412 0
0.205493 0.0342412 0
0.239734 0.0342412 0
0.273991 0.0342412 0
0.308232 0.0342412 0
0.342489 0.0342412 0
0.376745 0.0342412 0
0.410986 0.0342412 0
0.445243 0.0342412 0
0.479484 0.0342412 0
0.513741 0.0342412 0
0.547997 0.0342412 0
0.582238 0.0342412 0
0.616495 0.0342412 0
0.650736 0.0342412 0
0.684993 0.0342412 0
0.719249 0.0342412 0
0.753491 0.0342412 0
0.787747 0.0342412 0
0.821988 0.0342412 0
0.856245 0.0342412 0
0.890501 0.0342412 0
0.924743 0.0342412 0
0.958999 0.0342412 0
0.99324 0.0342412 0
1 0.0342412 0
1 0.0342412 0
1 0.0342412 0
0 0.0684825 0
0.0342412 0.0684825 0
0.0684825 0.0684825 0
0.102739 0.0684825 0
0.13698 0.0684825 0
0.171237 0.0684825 0
0.205493 0.0684825 0
0.239734 0.0684825 0
0.273991 0.0684825 0
0.308232 0.0684825 0
0.342489 0.0684825 0
0.376745 0.0684825 0
0.410986 0.0684825 0
0.445243 0.0684825 0
0.479484 0.0684825 0
0.513741 0.0684825 0
0.547997 0.0684825 0
0.582238 0.0684825 0
0.616495 0.0684825 0
0.650736 0.0684825 0
0.684993 0.0684825 0
0.719249 0.0684825 0
0.753491 0.0684825 0
0.787747 0.0684825 0
0.821988 0.0684825 0
0.856245 0.0684825 0
0.890501 0.0684825 0
0.924743 0.0684825 0
0.958999 0.0684825 0
0.99324 0.0684825 0
1 0.0684825 0
1 0.0684825 0
1 0.0684825 0
0 0.102739 0
0.0342412 0.102739 0
0.0684825 0.102739 0
0.102739 0.102739 0
0.13698 0.102739 0
0.171237 0.102739 0
0.205493 0.102739 0
0.239734 0.102739 0
0.273991 0.102739 0
0.308232 0.102739 0
0.342489 0.102739 0
0.376745 0.102739 0
0.410986 0.102739 0
0.445243 0.102739 0
0.479484 0.102739 0
0.513741 0.102739 0
0.547997 0.102739 0
0.582238 0.102739 0
0.616495 0.102739 0
0.650736 0.102739 0
0.684993 0.102739 0
0.719249 0.102739 0
0.753491 0.102739 0
0.787747 0.102739 0
0.821988 0.102739 0
0.856245 0.102739 0
0.890501 0.102739 0
0.924743 0.102739 0
0.958999 0.102739 0
0.99324 0.102739 0
1 0.102739 0
1 0.102739 0
1 0.102739 0
0 0.13698 0
0.0342412 0.13698 0
0.0684825 0.13698 0
0.102739 0.13698 0
0.13698 0.13698 0
0.171237 0.13698 0
0.205493 0.13698 0
0.239734 0.13698 0
0.273991 0.13698 0
0.308232 0.13698 0
0.342489 0.13698 0
0.376745 0.13698 0
0.410986 0.13698 0
0.445243 0.13698 0
0.479484 0.13698 0
0.513741 0.13698 0
0.547997 0.13698 0
0.582238 0.13698 0
0.616495 0.13698 0
0.650736 0.13698 0
0.684993 0.13698 0
0.719249 0.13698 0
0.753491 0.13698 0
0.787747 0.13698 0
0.821988 0.13698 0
0.856245 0.13698 0
0.890501 0.13698 0
0.924743 0.13698 0
0.958999 0.13698 0
0.99324 0.13698 0
1 0.13698 0
1 0.13698 0
1 0.13698 0
0 0.171237 0
0.0342412 0.171237 0
0.0684825 0.171237 0
0.102739 0.171237 0
0.13698 0.171237 0
0.171237 0.171237 0
0.205493 0.171237 0
0.239734 0.171237 0
0.273991 0.171237 0
0.308232 0.171237 0
0.342489 0.171237 0
0.376745 0.171237 0
0.410986 0.171237 0
0.445243 0.171237 0
0.479484 0.171237 0
0.513741 0.171237 0
0.547997 0.171237 0
0.582238 0.171237 0
0.616495 0.171237 0
0.650736 0.171237 0
0.684993 0.171237 0
0.719249 0.171237 0
0.753491 0.171237 0
0.787747 0.171237 0
0.821988 0.171237 0
0.856245 0.171237 0
0.890501 0.171237 0
0.924743 0.171237 0
0.958999 0.171237 0
0.99324 0.171237 0
1 0.171237 0
1 0.171237 0
1 0.171237 0
0 0.205493 0
0.0342412 0.205493 0
0.0684825 0.205493 0
0.102739 0.205493 0
0.13698 0.205493 0
0.171237 0.205493 0
0.205493 0.205493 0
0.239734 0.205493 0
0.273991 0.205493 0
0.308232 0.205493 0
0.342489 0.205493 0
0.376745 0.205493 0
0.410986 0.205493 0
0.445243 0.205493 0
0.479484 0.205493 0
0.513741 0.205493 0
0.547997 0.205493 0
0.582238 0.205493 0
0.616495 0.205493 0
0.650736 0.205493 0
0.684993 0.205493 0
0.719249 0.205493 0
0.753491 0.205493 0
0.787747 0.205493 0
0.821988 0.205493 0
0.856245 0.205493 0
0.890501 0.205493 0
0.924743 0.205493 0
0.958999 0.205493 0
0.99324 0.205493 0
1 0.205493 0
1 0.205493 0
1 0.205493 0
0 0.239734 0
0.0342412 0.239734 0
0.0684825 0.239734 0
0.102739 0.239734 0
0.13698 0.239734 0
0.171237 0.239734 0
0.205493 0.239734 0
0.239734 0.239734 0
0.273991 0.239734 0
0.308232 0.239734 0
0.342489 0.239734 0
0.376745 0.239734 0
0.410986 0.239734 0
0.445243 0.239734 0
0.479484 0.239734 0
0.513741 0.239734 0
0.547997 0.239734 0
0.582238 0.239734 0
0.616495 0.239734 0
0.650736 0.239734 0
0.684993 0.239734 0
0.719249 0.239734 0
0.753491 0.239734 0
0.787747 0.239734 0
0.821988 0.239734 0
0.856245 0.239734 0
0.890501 0.239734 0
0.924743 0.239734 0
0.958999 0.239734 0
0.99324 0.239734 0
1 0.239734 0
1 0.239734 0
1 0.239734 0
0 0.273991 0
0.0342412 0.273991 0
0.0684825 0.273991 0
0.102739 0.273991 0
0.13698 0.273991 0
0.171237 0.273991 0
0.205493 0.273991 0
0.239734 0.273991 0
0.273991 0.273991 0
0.308232 0.273991 0
0.342489 0.273991 0
0.376745 0.273991 0
0.410986 0.273991 0
0.445243 0.273991 0
0.479484 0.273991 0
0.513741 0.273991 0
0.547997 0.273991 0
0.582238 0.273991 0
0.616495 0.273991 0
0.650736 0.273991 0
0.684993 0.273991 0
0.719249 0.273991 0
0.753491 0.273991 0
0.787747 0.273991 0
0.821988 0.273991 0
0.856245 0.273991 0
0.890501 0.273991 0
0.924743 0.273991 0
0.958999 0.273991 0
0.99324 0.273991 0
1 0.273991 0
1 0.273991 0
1 0.273991 0
0 0.308232 0
0.0342412 0.308232 0
0.0684825 0.308232 0
0.102739 0.308232 0
0.13698 0.308232 0
0.171237 0.308232 0
0.205493 0.308232 0
0.239734 0.308232 0
0.273991 0.308232 0
0.308232 0.308232 0
0.342489 0.308232 0
0.376745 0.308232 0
0.410986 0.308232 0
0.445243 0.308232 0
0.479484 0.308232 0
0.513741 0.308232 0
0.547997 0.308232 0
0.582238 0.308232 0
0.616495 0.308232 0
0.650736 0.308232 0
0.684993 0.308232 0
0.719249 0.308232 0
0.753491 0.308232 0
0.787747 0.308232 0
0.821988 0.308232 0
0.856245 0.308232 0
0.890501 0.308232 0
0.924743 0.308232 0
0.958999 0.308232 0
0.99324 0.308232 0
1 0.308232 0
1 0.308232 0
1 0.308232 0
0 0.342489 0
0.0342412 0.342489 0
0.0684825 0.342489 0
0.102739 0.342489 0
0.13698 0.342489 0
0.171237 0.342489 0
0.205493 0.342489 0
0.239734 0.342489 0
0.273991 0.342489 0
0.308232 0.342489 0
0.342489 0.342489 0
0.376745 0.342489 0
0.410986 0.342489 0
0.445243 0.342489 0
0.479484 0.342489 0
0.513741 0.342489 0
0.547997 0.342489 0
0.582238 0.342489 0
0.616495 0.342489 0
0.650736 0.342489 0
0.684993 0.342489 0
0.719249 0.342489 0
0.753491 0.342489 0
0.787747 0.342489 0
0.821988 0.342489 0
0.856245 0.342489 0
0.890501 0.342489 0
0.924743 0.342489 0
0.958999 0.342489 0
0.99324 0.342489 0
1 0.342489 0
1 0.342489 0
1 0.342489 0
0 0.376745 0
0.0342412 0.376745 0
0.0684825 0.376745 0
0.102739 0.376745 0
0.13698 0.376745 0
0.171237 0.376745 0
0.205493 0.376745 0
0.239734 0.376745 0
0.273991 0.376745 0
0.308232 0.376745 0
0.342489 0.376745 0
0.376745 0.376745 0
0.410986 0.376745 0
0.445243 0.376745 0
0.479484 0.376745 0
0.513741 0.376745 0
0.547997 0.376745 0
0.582238 0.376745 0
0.616495 0.376745 0
0.650736 0.376745 0
0.684993 0.376745 0
0.719249 0.376745 0
0.753491 0.376745 0
0.787747 0.376745 0
0.821988 0.376745 0
0.856245 0.376745 0
0.890501 0.376745 0
0.924743 0.376745 0
0.958999 0.376745 0
0.99324 0.376745 0
1 0.376745 0
1 0.376745 0
1 0.376745 0
0 0.410986 0
0.0342412 0.410986 0
0.0684825 0.410986 0
0.102739 0.410986 0
0.13698 0.410986 0
0.171237 0.410986 0
0.205493 0.410986 0
0.239734 0.410986 0
0.273991 0.410986 0
0.308232 0.410986 0
0.342489 0.410986 0
0.376745 0.410986 0
0.410986 0.410986 0
0.445243 0.410986 0
0.479484 0.410986 0
0.513741 0.410986 0
0.547997 0.410986 0
0.582238 0.410986 0
0.616495 0.410986 0
0.650736 0.410986 0
0.684993 0.410986 0
0.719249 0.410986 0
0.753491 0.410986 0
0.787747 0.410986 0
0.821988 0.410986 0
0.856245 0.410986 0
0.890501 0.410986 0
0.924743 0.410986 0
0.958999 0.410986 0
0.99324 0.410986 0
1 0.410986 0
1 0.410986 0
1 0.410986 0
0 0.445243 0
0.0342412 0.445243 0
0.0684825 0.445243 0
0.102739 0.445243 0
0.13698 0.445243 0
0.171237 0.445243 0
0.205493 0.445243 0
0.239734 0.445243 0
0.273991 0.445243 0
0.308232 0.445243 0
0.342489 0.445243 0
0.376745 0.445243 0
0.410986 0.445243 0
0.445243 0.445243 0
0.479484 0.445243 0
0.513741 0.445243 0
0.547997 0.445243 0
0.582238 0.445243 0
0.616495 0.445243 0
0.650736 0.445243 0
0.684993 0.445243 0
0.719249 0.445243 0
0.753491 0.445243 0
0.787747 0.445243 0
0.821988 0.445243 0
0.856245 0.445243 0
0.890501 0.445243 0
0.924743 0.445243 0
0.958999 0.445243 0
0.99324 0.445243 0
1 0.445243 0
1 0.445243 0
1 0.445243 0
0 0.479484 0
0.0342412 0.479484 0
0.0684825 0.479484 0
0.102739 0.479484 0
0.13698 0.479484 0
0.171237 0.479484 0
0.205493 0.479484 0
0.239734 0.479484 0
0.273991 0.479484 0
0.308232 0.479484 0
0.342489 0.479484 0
0.376745 0.479484 0
0.410986 0.479484 0
0.445243 0.479484 0
0.479484 0.479484 0
0.513741 0.479484 0
0.547997 0.479484 0
0.582238 0.479484 0
0.616495 0.479484 0
0.650736 0.479484 0
0.684993 0.479484 0
0.719249 0.479484 0
0.753491 0.479484 0
0.787747 0.479484 0
0.821988 0.479484 0
0.856245 0.479484 0
0.890501 0.479484 0
0.924743 0.479484 0
0.958999 0.479484 0
0.99324 0.479484 0
1 0.479484 0
1 0.479484 0
1 0.479484 0
0 0.513741 0
0.0342412 0.513741 0
0.0684825 0.513741 0
0.102739 0.513741 0
0.13698 0.513741 0
0.171237 0.513741 0
0.205493 0.513741 0
0.239734 0.513741 0
0.273991 0.513741 0
0.308232 0.513741 0
0.342489 0.513741 0
0.376745 0.513741 0
0.410986 0.513741 0
0.445243 0.513741 0
0.479484 0.513741 0
0.513741 0.513741 0
0.547997 0.513741 0
0.582238 0.513741 0
0.616495 0.513741 0
0.650736 0.513741 0
0.684993 0.513741 0
0.719249 0.513741 0
0.753491 0.513741 0
0.787747 0.513741 0
0.821988 0.513741 0
0.856245 0.513741 0
0.890501 0.513741 0
0.924743 0.513741 0
0.958999 0.513741 0
0.99324 0.513741 0
1 0.513741 0
1 0.513741 0
1 0.513741 0
0 0.547997 0
0.0342412 0.547997 0
0.0684825 0.547997 0
0.102739 0.547997 0
0.13698 0.547997 0
0.171237 0.547997 0
0.205493 0.547997 0
0.239734 0.547997 0
0.273991 0.547997 0
0.308232 0.547997 0
0.342489 0.547997 0
0.376745 0.547997 0
0.410986 0.547997 0
0.445243 0.547997 0
0.479484 0.547997 0
0.513741 0.547997 0
0.547997 0.547997 0
0.582238 0.547997 0
0.616495 0.547997 0
0.650736 0.547997 0
0.684993 0.547997 0
0.719249 0.547997 0
0.753491 0.547997 0
0.787747 0.547997 0
0.821988 0.547997 0
0.856245 0.547997 0
0.890501 0.547997 0
0.924743 0.547997 0
0.958999 0.547997 0
0.99324 0.547997 0
1 0.547997 0
1 0.547997 0
1 0.547997 0
0 0.582238 0
0.0342412 0.582238 0
0.0684825 0.582238 0
0.102739 0.582238 0
0.13698 0.582238 0
0.171237 0.582238 0
0.205493 0.582238 0
0.239734 0.582238 0
0.273991 0.582238 0
0.308232 0.582238 0
0.342489 0.582238 0
0.376745 0.582238 0
0.410986 0.582238 0
0.445243 0.582238 0
0.479484 0.582238 0
0.513741 0.582238 0
0.547997 0.582238 0
0.582238 0.582238 0
0.616495 0.582238 0
0.650736 0.582238 0
0.684993 0.582238 0
0.719249 0.582238 0
0.753491 0.582238 0
0.787747 0.582238 0
0.821988 0.582238 0
0.856245 0.582238 0
0.890501 0.582238 0
0.924743 0.582238 0
0.958999 0.582238 0
0.99324 0.582238 0
1 0.582238 0
1 0.582238 0
1 0.582238 0
0 0.616495 0
0.0342412 0.616495 0
0.0684825 0.616495 0
0.102739 0.616495 0
0.13698 0.616495 0
0.171237 0.616495 0
0.205493 0.616495 0
0.239734 0.616495 0
0.273991 0.616495 0
0.308232 0.616495 0
0.342489 0.616495 0
0.376745 0.616495 0
0.410986 0.616495 0
0.445243 0.616495 0
0.479484 0.616495 0
0.513741 0.616495 0
0.547997 0.616495 0
0.582238 0.616495 0
0.616495 0.616495 0
0.650736 0.616495 0
0.684993 0.616495 0
0.719249 0.616495 0
0.753491 0.616495 0
0.787747 0.616495 0
0.821988 0.616495 0
0.856245 0.616495 0
0.890501 0.616495 0
0.924743 0.616495 0
0.958999 0.616495 0
0.99324 0.616495 0
1 0.616495 0
1 0.616495 0
1 0.616495 0
0 0.650736 0
0.0342412 0.650736 0
0.0684825 0.650736 0
0.102739 0.650736 0
0.13698 0.650736 0
0.171237 0.650736 0
0.205493 0.650736 0
0.239734 0.650736 0
0.273991 0.650736 0
0.308232 0.650736 0
0.342489 0.650736 0
0.376745 0.650736 0
0.410986 0.650736 0
0.445243 0.650736 0
0.479484 0.650736 0
0.513741 0.650736 0
0.547997 0.650736 0
0.582238 0.650736 0
0.616495 0.650736 0
0.650736 0.650736 0
0.684993 0.650736 0
0.719249 0.650736 0
0.753491 0.650736 0
0.787747 0.650736 0
0.821988 0.650736 0
0.856245 0.650736 0
0.890501 0.650736 0
0.924743 0.650736 0
0.958999 0.650736 0
0.99324 0.650736 0
1 0.650736 0
1 0.650736 0
1 0.650736 0
0 0.684993 0
0.0342412 0.684993 0
0.0684825 0.684993 0
0.102739 0.684993 0
0.13698 0.684993 0
0.171237 0.684993 0
0.205493 0.684993 0
0.239734 0.684993 0
0.273991 0.684993 0
0.308232 0.684993 0
0.342489 0.684993 0
0.376745 0.684993 0
0.410986 0.684993 0
0.445243 0.684993 0
0.479484 0.684993 0
0.513741 0.684993 0
0.547997 0.684993 0
0.582238 0.684993 0
0.616495 0.684993 0
0.650736 0.684993 0
0.684993 0.684993 0
0.719249 0.684993 0
0.753491 0.684993 0
0.787747 0.684993 0
0.821988 0.684993 0
0.856245 0.684993 0
0.890501 0.684993 0
0.924743 0.684993 0
0.958999 0.684993 0
0.99324 0.684993 0
1 0.684993 0
1 0.684993 0
1 0.684993 0
0 0.719249 0
0.0342412 0.719249 0
0.0684825 0.719249 0
0.102739 0.719249 0
0.13698 0.719249 0
0.171237 0.719249 0
0.205493 0.719249 0
0.239734 0.719249 0
0.273991 0.719249 0
0.308232 0.719249 0
0.342489 0.719249 0
0.376745 0.719249 0
0.410986 0.719249 0
0.445243 0.719249 0
0.479484 0.719249 0
0.513741 0.719249 0
0.547997 0.719249 0
0.582238 0.719249 0
0.616495 0.719249 0
0.650736 0.719249 0
0.684993 0.719249 0
0.719249 0.719249 0
0.753491 0.719249 0
0.787747 0.719249 0
0.821988 0.719249 0
0.856245 0.719249 0
0.890501 0.719249 0
0.924743 0.719249 0
0.958999 0.719249 0
0.99324 0.719249 0
1 0.719249 0
1 0.719249 0
1 0.719249 0
0 0.753491 0
0.0342412 0.753491 0
0.0684825 0.753491 0
0.102739 0.753491 0
0.13698 0.753491 0
0.171237 0.753491 0
0.205493 0.753491 0
0.239734 0.753491 0
0.273991 0.753491 0
0.308232 0.753491 0
0.342489 0.753491 0
0.376745 0.753491 0
0.410986 0.753491 0
0.445243 0.753491 0
0.479484 0.753491 0
0.513741 0.753491 0
0.547997 0.753491 0
0.582238 0.753491 0
0.616495 0.753491 0
0.650736 0.753491 0
0.684993 0.753491 0
0.719249 0.753491 0
0.753491 0.753491 0
0.787747 0.753491 0
0.821988 0.753491 0
0.856245 0.753491 0
0.890501 0.753491 0
0.924743 0.753491 0
0.958999 0.753491 0
0.99324 0.753491 0
1 0.753491 0
1 0.753491 0
1 0.753491 0
0 0.787747 0
0.0342412 0.787747 0
0.0684825 0.787747 0
0.102739 0.787747 0
0.13698 0.787747 0
0.171237 0.787747 0
0.205493 0.787747 0
0.239734 0.787747 0
0.273991 0.787747 0
0.308232 0.787747 0
0.342489 0.787747 0
0.376745 0.787747 0
0.410986 0.787747 0
0.445243 0.787747 0
0.479484 0.787747 0
0.513741 0.787747 0
0.547997 0.787747 0
0.582238 0.787747 0
0.616495 0.787747 0
0.650736 0.787747 0
0.684993 0.787747 0
0.719249 0.787747 0
0.753491 0.787747 0
0.787747 0.787747 0
0.821988 0.787747 0
0.856245 0.787747 0
0.890501 0.787747 0
0.924743 0.787747 0
0.958999 0.787747 0
0.99324 0.787747 0
1 0.787747 0
1 0.787747 0
1 0.787747 0
0 0.821988 0
0.0342412 0.821988 0
0.0684825 0.821988 0
0.102739 0.821988 0
0.13698 0.821988 0
0.171237 0.821988 0
0.205493 0.821988 0
0.239734 0.821988 0
0.273991 0.821988 0
0.308232 0.821988 0
0.342489 0.821988 0
0.376745 0.821988 0
0.410986 0.821988 0
0.445243 0.821988 0
0.479484 0.821988 0
0.513741 0.821988 0
0.547997 0.821988 0
0.582238 0.821988 0
0.616495 0.821988 0
0.650736 0.821988 0
0.684993 0.821988 0
0.719249 0.821988 0
0.753491 0.821988 0
0.787747 0.821988 0
0.821988 0.821988 0
0.856245 0.821988 0
0.890501 0.821988 0
0.924743 0.821988 0
0.958999 0.821988 0
0.99324 0.821988 0
1 0.821988 0
1 0.821988 0
1 0.821988 0
0 0.856245 0
0.0342412 0.856245 0
0.0684825 0.856245 0
0.102739 0.856245 0
0.13698 0.856245 0
0.171237 0.856245 0
0.205493 0.856245 0
0.239734 0.856245 0
0.273991 0.856245 0
0.308232 0.856245 0
0.342489 0.856245 0
0.376745 0.856245 0
0.410986 0.856245 0
0.445243 0.856245 0
0.479484 0.856245 0
0.513741 0.856245 0
0.547997 0.856245 0
0.582238 0.856245 0
0.616495 0.856245 0
0.650736 0.856245 0
0.684993 0.856245 0
0.719249 0.856245 0
0.753491 0.856245 0
0.787747 0.856245 0
0.821988 0.856245 0
0.856245 0.856245 0
0.890501 0.856245 0
0.924743 0.856245 0
0.958999 0.856245 0
0.99324 0.856245 0
1 0.856245 0
1 0.856245 0
1 0.856245 0
0 0.890501 0
0.0342412 0.890501 0
0.0684825 0.890501 0
0.102739 0.890501 0
0.13698 0.890501 0
0.171237 0.890501 0
0.205493 0.890501 0
0.239734 0.890501 0
0.273991 0.890501 0
0.308232 0.890501 0
0.342489 0.890501 0
0.376745 0.890501 0
0.410986 0.890501 0
0.445243 0.890501 0
0.479484 0.890501 0
0.513741 0.890501 0
0.547997 0.890501 0
0.582238 0.890501 0
0.616495 0.890501 0
0.650736 0.890501 0
0.684993 0.890501 0
0.719249 0.890501 0
0.753491 0.890501 0
0.787747 0.890501 0
0.821988 0.890501 0
0.856245 0.890501 0
0.890501 0.890501 0
0.924743 0.890501 0
0.958999 0.890501 0
0.99324 0.890501 0
1 0.890501 0
1 0.890501 0
1 0.890501 0
0 0.924743 0
0.0342412 0.924743 0
0.0684825 0.924743 0
0.102739 0.924743 0
0.13698 0.924743 0
0.171237 0.924743 0
0.205493 0.924743 0
0.239734 0.924743 0
0.273991 0.924743 0
