site/assets/luts/freshluts--0000696-vfb21.cube
# LUTr-Schema-Version: 2
# LUTr-ID: freshluts--0000696-vfb21
# LUTr-Title: VFB21
# LUTr-Collection: Fresh LUTs
# LUTr-Collection-ID: freshluts-community
# LUTr-Source: https://freshluts.com
# LUTr-Retrieved: 2026-07-27
# LUTr-Source-File: submissions-raw/freshluts/cubes/696__VFB21.cube
# LUTr-Source-Format: CUBE
# LUTr-Source-SHA256: aad136bfd422a47cabc7229a6329761a539a9072ffd760d41ad4d4a99db67f90
# LUTr-License: CC0-1.0
# LUTr-License-URL: https://freshluts.com/termsandconditions
# LUTr-License-Basis: site-terms
# LUTr-Transform-Class: creative-look
# LUTr-Tags: creative, freshluts, community, cube, vintage, blue, low-key, canon-cinestyle
# LUTr-Input-Color-Space:
# LUTr-Input-Gamut: rec709
# LUTr-Input-Transfer: canon-cinestyle
# LUTr-Output-Color-Space: srgb
# LUTr-Output-Gamut: rec709
# LUTr-Output-Transfer: srgb
# LUTr-Color-Space-Confidence: camera-profile-input-required
# LUTr-Domain-Normalized: true
# LUTr-Shaper: none
# LUTr-Original-Grid: 16x16x16
# LUTr-Conversion-Grid: 16x16x16
# LUTr-Conversion-Interpolation: none
# LUTr-Conversion-Method: Metadata normalization; numeric LUT samples preserved
# LUTr-Conversion-Tool: LUTr scripts/convert-all-to-cube.mjs 2.0.0
# LUTr-Conversion-Date: 2026-07-28
# LUTr-Asset-URL: https://freshluts.com/luts/696
# LUTr-Author: InAvision
# LUTr-Author-URL: https://freshluts.com/users/64078
# LUTr-Attribution: InAvision via Fresh LUTs
# LUTr-Source-Labels: gamma=Canon Cinestyle; color=Blue; key=Low Key; style=Vintage
# LUTr-Note: Preserve this metadata and the upstream license notices when redistributing.
TITLE "VFB21"
LUT_3D_SIZE 16
DOMAIN_MIN 0 0 0
DOMAIN_MAX 1 1 1
-0.02006 -0.020784 0.010505
0.040556 -0.018843 0.011618
0.093981 -0.017351 0.010684
0.176843 -0.017296 0.005066
0.279706 -0.02573 -0.003492
0.359811 -0.031877 -0.001551
0.448742 -0.033483 -0.000235
0.505393 -0.032247 0
0.546946 -0.030391 0
0.591224 -0.028956 0
0.6352 -0.028085 0
0.66712 -0.027908 0
0.689081 -0.029175 0
0.71267 -0.031954 0
0.736846 -0.035507 0
0.762783 -0.03792 0
-0.012726 0.054664 0.019551
0.019368 0.049392 0.017698
0.042829 0.056834 0.017024
0.079112 0.066428 0.015055
0.151043 0.077835 0.008635
0.255423 0.086311 -0.002462
0.348973 0.087603 -0.000465
0.441315 0.081918 0
0.523572 0.074072 0
0.572699 0.069744 0
0.619503 0.06659 0
0.667626 0.064383 0
0.707694 0.068238 0
0.731562 0.079198 0
0.755823 0.090835 0
0.782434 0.104054 0
-0.012503 0.092996 0.025386
0.023574 0.08636 0.018818
0.048817 0.092258 0.018555
0.08574 0.10143 0.016396
0.141355 0.113303 0.010671
0.229296 0.127165 -0.002609
0.333081 0.137962 -0.000563
0.415898 0.142076 0
0.508894 0.144233 0
0.57822 0.145114 0
0.623176 0.146488 0
0.670199 0.148495 0
0.71902 0.151204 0
0.751885 0.156858 0
0.775437 0.164493 0
0.801712 0.174122 0
-0.011304 0.138178 0.03747
0.015577 0.133824 0.025235
0.044938 0.137503 0.021463
0.084661 0.145808 0.016284
0.136852 0.156938 0.006886
0.212677 0.171753 -0.003591
0.324661 0.189143 -0.00066
0.406598 0.197422 0
0.494174 0.205053 0
0.593013 0.21186 0
0.635724 0.215281 0
0.682361 0.219897 0
0.730406 0.225224 0
0.775681 0.231714 0
0.804383 0.2393 0
0.831547 0.2488 0
-0.006766 0.187937 0.051222
-0.017417 0.185181 0.037463
0.028573 0.18924 0.031855
0.077394 0.198457 0.02497
0.13265 0.210604 0.014281
0.204938 0.22624 -0.004507
0.307803 0.246109 -0.000975
0.407806 0.260987 0
0.492091 0.271592 0
0.588398 0.28251 0
0.657561 0.289504 0
0.702854 0.294433 0
0.750041 0.299984 0
0.798492 0.306149 0
0.835965 0.312211 0
0.861768 0.318774 0
-0.002352 0.242497 0.065017
-0.012117 0.242749 0.049515
-0.026884 0.247344 0.041845
0.060687 0.257418 0.032269
0.12441 0.270648 0.018594
0.198065 0.286995 -0.006094
0.295769 0.306852 -0.001413
0.409336 0.327052 0
0.493033 0.33911 0
0.58513 0.351928 0
0.674514 0.363213 0
0.723494 0.368739 0
0.769959 0.374435 0
0.817489 0.380868 0
0.864138 0.387599 0
0.894205 0.393497 0
-0.000194 0.294074 0.077912
-0.004891 0.294851 0.062697
-0.024411 0.299872 0.053146
0.025845 0.310445 0.041109
0.109979 0.32419 0.02488
0.187966 0.341242 -0.007788
0.284329 0.36224 -0.002124
0.400694 0.385528 0
0.492425 0.40158 0
0.58231 0.416495 0
0.678554 0.431025 0
0.741973 0.439444 0
0.787501 0.444963 0
0.834346 0.450999 0
0.881772 0.45712 0
0.922412 0.462863 0
0 0.344195 0.090946
0 0.345359 0.075287
-0.012808 0.351175 0.064624
-0.046168 0.362103 0.050978
0.085148 0.375825 0.031578
0.174127 0.392716 -0.00921
0.272719 0.413688 -0.003581
0.389427 0.43643 0
0.488776 0.454948 0
0.577123 0.47027 0
0.675762 0.486561 0
0.752894 0.497768 0
0.798604 0.503102 0
0.84501 0.508903 0
0.891243 0.514691 0
0.940984 0.521236 0
0 0.386699 0.108663
0 0.389039 0.092218
-0.002846 0.39606 0.080081
-0.033685 0.4078 0.064455
0.043141 0.422567 0.040151
0.157102 0.440672 -0.010479
0.260435 0.463207 -0.007359
0.38084 0.488617 0
0.485105 0.508071 0
0.573313 0.525005 0
0.669562 0.542164 0
0.758466 0.556404 0
0.809722 0.562644 0
0.855788 0.568199 0
0.902062 0.573973 0
0.950797 0.580192 0
0 0.427557 0.130896
0 0.429801 0.115204
0 0.437383 0.103118
-0.020229 0.448683 0.08789
-0.057819 0.463646 0.064013
0.135091 0.481855 0.025046
0.246698 0.504516 -0.016153
0.369945 0.531208 -0.00502
0.480035 0.552473 -0.000141
0.566556 0.568249 0
0.660741 0.587081 0
0.760447 0.605755 0
0.817528 0.614319 0
0.863031 0.620515 0
0.909704 0.62693 0
0.958873 0.633765 0
0 0.470342 0.157861
0 0.472779 0.143234
0 0.481277 0.131672
-0.009559 0.492298 0.11756
-0.05145 0.507041 0.097329
0.09627 0.524898 0.064924
0.229829 0.547411 -0.018785
0.356112 0.574115 -0.015503
0.472939 0.596701 -0.003874
0.560563 0.610733 0
0.651927 0.628176 0
0.75498 0.648396 0
0.822218 0.659379 0
0.867296 0.665261 0
0.91357 0.671534 0
0.962613 0.678235 0
0 0.506584 0.187788
0 0.512269 0.174391
0 0.522484 0.163659
-0.004396 0.535036 0.150511
-0.040252 0.551641 0.132513
0.039841 0.570682 0.107407
0.208769 0.593077 0.066307
0.341603 0.61951 -0.028632
0.465715 0.643331 -0.015426
0.557128 0.658018 -0.002744
0.643995 0.671156 0
0.744609 0.691516 0
0.827036 0.706085 0
0.871299 0.711617 0
0.917589 0.717814 0
0.966453 0.724267 0
0 0.533314 0.219634
0 0.542465 0.207541
0 0.552544 0.19784
-0.000544 0.565625 0.186086
-0.027273 0.58269 0.170811
-0.053845 0.603294 0.15136
0.184333 0.628879 0.118769
0.325618 0.659145 0.065672
0.457325 0.687996 -0.036094
0.553095 0.706589 -0.018892
0.641451 0.721416 -0.006327
0.7352 0.736538 -0.001535
0.831563 0.754771 0
0.874984 0.759852 0
0.921668 0.765853 0
0.970323 0.772206 0
0 0.561717 0.254795
0 0.572242 0.243818
0 0.581939 0.234729
0 0.594587 0.223943
-0.015898 0.611079 0.210367
-0.074946 0.631046 0.193894
0.156131 0.656052 0.165176
0.308383 0.685247 0.132518
0.446114 0.714385 0.079753
0.543986 0.732733 -0.038361
0.632873 0.748934 -0.029516
0.724085 0.764824 -0.015616
0.828533 0.786543 -0.005116
0.874001 0.794204 0
0.920766 0.802237 0
0.97033 0.810656 0
0 0.592274 0.28995
0 0.602586 0.282339
0 0.612353 0.274451
0 0.624597 0.264168
-0.005976 0.640487 0.251643
-0.067049 0.660148 0.237035
0.123204 0.684701 0.21402
0.289592 0.71341 0.184998
0.434244 0.742481 0.152429
0.53493 0.761198 0.115282
0.624237 0.776874 0.058418
0.714901 0.792246 -0.040135
0.815807 0.810535 -0.028993
0.869951 0.820222 -0.013995
0.916623 0.827789 -0.00314
0.966119 0.83618 0
-0.026843 0.647925 0.333021
-0.051877 0.658518 0.327286
-0.081489 0.669384 0.322208
-0.113193 0.682878 0.316289
-0.144257 0.700038 0.308533
-0.17797 0.720663 0.296257
-0.168836 0.745675 0.280313
0.222444 0.774839 0.24625
0.402175 0.804897 0.221048
0.515669 0.824311 0.195235
0.612885 0.840656 0.165373
0.710474 0.856346 0.127893
0.813381 0.872666 0.07307
0.877215 0.880905 -0.009108
0.92533 0.888971 -0.004192
0.975515 0.897249 0
-0.030831 -0.239366 -0.104562
0.101024 -0.241976 -0.107263
0.167876 -0.245957 -0.107175
0.263847 -0.250913 -0.106126
0.34507 -0.256948 -0.103776
0.43147 -0.264138 -0.099661
0.512374 -0.272581 -0.093563
0.55 -0.281951 -0.085955
0.587239 -0.29086 -0.077062
0.625974 -0.297928 -0.067318
0.661569 -0.303617 -0.056451
0.679633 -0.308929 -0.043551
0.694687 -0.313571 -0.028614
0.712718 -0.316652 -0.013995
0.73317 -0.318579 -0.00314
0.757135 -0.319825 0
-0.028018 0.054096 0.077844
-0.035878 0.053515 0.060797
0.031567 0.060655 0.057254
0.084492 0.069404 0.053099
0.177565 0.078789 0.044862
0.286916 0.082906 0.031536
0.378502 0.079821 0.015914
0.472929 0.068424 0.002242
0.54446 0.056533 -0.002206
0.592013 0.048458 -0.00085
0.639357 0.041018 0
0.686805 0.035226 0
0.720106 0.042635 0
0.743749 0.056767 0
0.768291 0.071415 0
0.794872 0.087697 0
-0.013288 0.093892 0.08869
0.018809 0.091628 0.072139
0.051146 0.096853 0.067325
0.092747 0.104789 0.06238
0.157316 0.115799 0.05532
0.256668 0.127805 0.042826
0.354679 0.134912 0.026438
0.441615 0.136929 0.009701
0.535564 0.136724 -0.002258
0.594394 0.136372 -0.001411
0.640512 0.136963 0
0.688368 0.138169 0
0.735703 0.140355 0
0.763804 0.146531 0
0.787625 0.15441 0
0.814203 0.164432 0
-0.00925 0.141031 0.100304
-0.007763 0.138065 0.084642
0.042678 0.142077 0.078882
0.087821 0.1497 0.072917
0.145958 0.160357 0.064936
0.23189 0.174498 0.052753
0.344985 0.188714 0.033155
0.426485 0.195053 0.014983
0.518558 0.20119 0.00326
0.606523 0.205641 -0.001813
0.650639 0.208617 0
0.698376 0.212648 0
0.747172 0.217543 0
0.791076 0.223712 0
0.815531 0.2314 0
0.841893 0.240797 0
-0.004811 0.191008 0.112711
-0.018027 0.189654 0.09684
0.020682 0.194297 0.090473
0.077696 0.203049 0.083464
0.1382 0.214801 0.074112
0.218214 0.230367 0.060242
0.3306 0.249712 0.037968
0.423462 0.261754 0.014321
0.511093 0.271673 0.002059
0.612273 0.281761 -0.001877
0.669982 0.287005 0
0.716422 0.291676 0
0.764596 0.296947 0
0.811822 0.302701 0
0.846015 0.308403 0
0.871377 0.314991 0
-0.001112 0.248773 0.125579
-0.010118 0.248343 0.109236
-0.031363 0.25347 0.101453
0.056435 0.262987 0.093024
0.126973 0.275099 0.082053
0.207019 0.290374 0.066159
0.312286 0.309918 0.041241
0.421601 0.327485 0.006414
0.5069 0.338987 -0.003183
0.602496 0.351411 -0.001654
0.688074 0.361371 0
0.733512 0.36617 0
0.780906 0.371828 0
0.828836 0.378039 0
0.873567 0.384365 0
0.901107 0.390105 0
-0.000008 0.302031 0.139198
-0.003183 0.301953 0.122811
-0.022114 0.307429 0.113735
-0.02308 0.317315 0.103694
0.109508 0.330625 0.089876
0.194332 0.347549 0.072107
0.297046 0.368248 0.044196
0.416684 0.390795 -0.007195
0.504272 0.405042 -0.005108
0.596705 0.419573 -0.001736
0.692893 0.433376 0
0.750928 0.440576 0
0.797445 0.44607 0
0.844635 0.451915 0
0.892555 0.457984 0
0.929409 0.463155 0
0 0.354372 0.155506
0 0.354829 0.139297
-0.010487 0.360749 0.129425
-0.045066 0.370459 0.118419
0.076991 0.383484 0.102338
0.177201 0.399928 0.082196
0.28245 0.420548 0.051675
0.401629 0.442053 0.007352
0.498339 0.459234 -0.005245
0.588726 0.474241 -0.002877
0.68816 0.490029 0
0.760781 0.499957 0
0.806621 0.505111 0
0.853686 0.510716 0
0.900376 0.516485 0
0.948064 0.522608 0
0 0.399357 0.174363
0 0.401157 0.158793
-0.000854 0.408659 0.148676
-0.029652 0.419419 0.137208
-0.034175 0.433415 0.122206
0.154167 0.451141 0.099853
0.266735 0.473018 0.067771
0.390362 0.497234 0.020649
0.49266 0.514544 -0.006399
0.582524 0.530247 -0.005336
0.681133 0.54694 -0.001153
0.766781 0.560025 0
0.816327 0.565701 0
0.863111 0.571107 0
0.909498 0.576674 0
0.958741 0.582842 0
0 0.440594 0.19612
0 0.442494 0.181412
0 0.450825 0.171356
-0.016093 0.461907 0.159873
-0.057154 0.476503 0.145214
0.123562 0.494429 0.123346
0.248785 0.516894 0.095847
0.37747 0.542834 0.045866
0.486698 0.562195 -0.006734
0.57402 0.577057 -0.00967
0.670401 0.595553 -0.004164
0.767876 0.612987 -0.000823
0.823735 0.620745 0
0.870189 0.626839 0
0.917063 0.633022 0
0.966208 0.639518 0
0 0.48305 0.220528
0 0.486145 0.206941
0 0.494897 0.19724
-0.00739 0.505659 0.186028
-0.049054 0.520041 0.17202
0.073424 0.537837 0.15291
0.22782 0.560204 0.126726
0.361883 0.586565 0.085049
0.478763 0.607775 0.032893
0.566294 0.620841 -0.006172
0.659111 0.637782 -0.009324
0.763882 0.657557 -0.003887
0.826968 0.667082 -0.000625
0.873013 0.672921 0
0.919932 0.678964 0
0.968778 0.685319 0
0 0.520577 0.248019
0 0.5278 0.235304
0 0.53748 0.225664
-0.002337 0.549785 0.214588
-0.034797 0.565737 0.200856
-0.027589 0.583782 0.18453
0.202121 0.605921 0.157493
0.344431 0.632165 0.124856
0.469475 0.654633 0.077729
0.561247 0.66834 0.022144
0.649696 0.681188 -0.011653
0.752431 0.701065 -0.010229
0.83067 0.714286 -0.004138
0.875856 0.719767 -0.000127
0.922659 0.725836 0
0.971708 0.732089 0
0 0.547456 0.276195
0 0.55823 0.266276
0 0.568233 0.257864
0 0.581053 0.247218
-0.021613 0.597765 0.234263
-0.072346 0.618375 0.218946
0.171375 0.64398 0.191863
0.325272 0.673988 0.164417
0.459239 0.701451 0.128061
0.555829 0.718956 0.081756
0.645509 0.731513 -0.013345
0.740936 0.745951 -0.022297
0.833712 0.762877 -0.016093
0.877847 0.767885 -0.007555
0.924997 0.773669 -0.003612
0.974322 0.77991 -0.001501
0 0.575811 0.304421
0 0.586481 0.296328
0 0.596504 0.289477
0 0.609443 0.281203
-0.010439 0.625858 0.270241
-0.07377 0.646039 0.256839
0.139939 0.670832 0.234842
0.304771 0.699918 0.20777
0.445596 0.72753 0.179886
0.545009 0.745706 0.150056
0.635893 0.76152 0.108915
0.729289 0.777092 0.053275
0.831372 0.797153 -0.027742
0.876036 0.804277 -0.023987
0.923728 0.81216 -0.016969
0.973693 0.820385 -0.010921
0 0.603562 0.329275
0 0.614065 0.323191
0 0.624406 0.318133
0 0.637417 0.311949
-0.001664 0.653926 0.303735
-0.06154 0.674363 0.293958
0.104648 0.699141 0.277981
0.282611 0.727778 0.249819
0.431662 0.756033 0.227346
0.534056 0.773751 0.203681
0.62562 0.789259 0.176623
0.71843 0.804289 0.142832
0.820314 0.821536 0.093193
0.871151 0.829903 0.057944
0.918508 0.837639 -0.027279
0.968583 0.84577 -0.032653
-0.042667 0.659175 0.371707
-0.07702 0.669795 0.366071
-0.105943 0.680457 0.361148
-0.130933 0.693724 0.355298
-0.158046 0.710929 0.348368
-0.188097 0.732075 0.340291
-0.191269 0.758331 0.330773
0.209409 0.78835 0.307014
0.393848 0.817808 0.283779
0.510399 0.836929 0.264443
0.610673 0.853142 0.243901
0.710953 0.868796 0.220474
0.816508 0.88469 0.192222
0.876907 0.891587 0.166182
0.925124 0.89874 0.13971
0.976308 0.907007 0.107537
-0.040254 -0.243294 -0.063931
0.168856 -0.245991 -0.088745
0.25278 -0.250013 -0.102919
0.308555 -0.254827 -0.108532
0.383256 -0.260825 -0.110599
0.470525 -0.268168 -0.111356
0.532946 -0.276827 -0.109775
0.571258 -0.286335 -0.105695
0.608884 -0.295167 -0.099805
0.647115 -0.302117 -0.092848
0.679304 -0.307731 -0.085129
0.694139 -0.31299 -0.076343
0.709331 -0.317457 -0.066676
0.727113 -0.320353 -0.056958
0.747025 -0.322109 -0.047298
0.770126 -0.323262 -0.039122
-0.043341 0.056408 0.126863
-0.066596 0.057882 0.107323
-0.043626 0.064757 0.101968
0.090595 0.072779 0.096619
0.197186 0.080049 0.088175
0.306406 0.081056 0.075816
0.399055 0.075187 0.061433
0.494718 0.05993 0.043477
0.559393 0.046335 0.028696
0.606694 0.034442 0.018884
0.654835 0.017988 0.010328
0.700157 -0.016414 -0.003157
0.730749 0.020969 -0.001086
0.754401 0.041191 0
0.778778 0.058027 0
0.80521 0.07672 0
-0.013525 0.097469 0.139503
0.015057 0.096125 0.119869
0.05482 0.101576 0.113487
0.099628 0.108832 0.107264
0.171261 0.119169 0.100014
0.276226 0.129463 0.088799
0.370316 0.134286 0.074759
0.460059 0.134849 0.057729
0.551897 0.133319 0.037391
0.606363 0.132321 0.023611
0.653256 0.13224 0.014874
0.701951 0.132747 0.002035
0.747937 0.134683 -0.001638
0.772846 0.141039 0
0.79666 0.148836 0
0.823147 0.15887 0
-0.008219 0.145308 0.153242
-0.020488 0.142467 0.13409
0.042679 0.146937 0.12687
0.091934 0.153868 0.119779
0.155141 0.164092 0.112081
0.248075 0.177339 0.101599
0.357203 0.189026 0.086417
0.440856 0.19451 0.069494
0.536004 0.199681 0.047743
0.615752 0.202778 0.026878
0.66088 0.205274 0.017017
0.709146 0.208856 0.003386
0.758485 0.213315 -0.001749
0.799549 0.219153 0
0.82279 0.226641 0
0.849522 0.236092 0
-0.003582 0.197231 0.167637
-0.017457 0.195687 0.149439
0.012233 0.200721 0.141634
0.078365 0.208796 0.133787
0.143735 0.220004 0.124857
0.230177 0.235074 0.113636
0.348244 0.253453 0.096974
0.435492 0.263425 0.077882
0.525542 0.272809 0.055113
0.628178 0.282143 0.028892
0.679303 0.286331 0.015545
0.726368 0.290685 -0.004994
0.77468 0.295636 -0.001365
0.821835 0.301152 0
0.853723 0.306718 0
0.878626 0.313172 0
-0.000811 0.256947 0.183289
-0.008931 0.256255 0.165658
-0.032002 0.26157 0.15719
0.050585 0.269652 0.14856
0.128464 0.280763 0.13798
0.215042 0.29557 0.125641
0.326717 0.31456 0.108094
0.431164 0.329741 0.084894
0.518441 0.340817 0.060434
0.616863 0.352787 0.034726
0.696414 0.36138 0.012361
0.741786 0.365917 -0.00497
0.789863 0.371306 -0.000878
0.838127 0.377341 0
0.880728 0.383309 0
0.907405 0.389022 0
0 0.311644 0.199135
-0.001905 0.311383 0.181995
-0.019042 0.317604 0.173063
-0.04837 0.326944 0.163939
0.105217 0.33973 0.151898
0.198811 0.356162 0.138442
0.30815 0.376205 0.120083
0.427667 0.397187 0.092553
0.514313 0.410366 0.064593
0.609309 0.424609 0.039721
0.70516 0.437768 -0.005124
0.758831 0.443807 -0.006015
0.806165 0.449149 -0.000769
0.853697 0.454721 0
0.902516 0.460764 0
0.935909 0.465398 0
0 0.365507 0.216635
0 0.365545 0.200169
-0.006812 0.371802 0.190772
-0.041532 0.381153 0.180929
0.062128 0.393694 0.169008
0.176907 0.409984 0.15337
0.289882 0.430133 0.135054
0.412036 0.45051 0.107396
0.506298 0.466009 0.077274
0.598756 0.480787 0.050381
0.699127 0.49609 0.017861
0.768104 0.504798 -0.008595
0.814304 0.509638 -0.001365
0.86181 0.515128 0
0.909196 0.520668 0
0.954956 0.526269 0
0 0.412038 0.235509
0 0.413566 0.220023
0 0.421584 0.210619
-0.025588 0.431849 0.20041
-0.056849 0.445594 0.188406
0.147639 0.463068 0.170663
0.27082 0.484701 0.152152
0.39839 0.507771 0.124632
0.498621 0.522611 0.092804
0.590257 0.537842 0.060511
0.691594 0.554541 0.030761
0.77428 0.56631 -0.013243
0.822762 0.571355 -0.004317
0.870029 0.576583 0
0.91712 0.581898 0
0.966483 0.587875 0
0 0.453103 0.256771
0 0.455908 0.242071
0 0.464499 0.232628
-0.012604 0.475125 0.222258
-0.056492 0.489365 0.210219
0.109498 0.507229 0.193698
0.249326 0.529517 0.173651
0.382779 0.554649 0.147999
0.491331 0.572537 0.117395
0.580199 0.586778 0.081676
0.678974 0.605074 0.049618
0.77428 0.621618 -0.011189
0.829323 0.628804 -0.011756
0.876523 0.634664 -0.004472
0.923853 0.640694 -0.000833
0.973056 0.646957 0
0 0.495215 0.278482
0 0.500506 0.267178
0 0.508727 0.258282
-0.005518 0.519212 0.247799
-0.044936 0.533273 0.235523
0.050129 0.550936 0.221217
0.224135 0.573189 0.19837
0.365884 0.599117 0.174763
0.48296 0.61869 0.147402
0.571118 0.631036 0.116464
0.665799 0.647434 0.078287
0.770229 0.666559 0.044137
0.831254 0.675263 -0.00763
0.87789 0.680906 -0.013698
0.925046 0.686837 -0.006695
0.97464 0.693181 -0.00199
0 0.532728 0.300014
0 0.542366 0.290924
0 0.552202 0.283958
-0.000547 0.564981 0.275479
-0.029427 0.579808 0.264306
-0.059238 0.597174 0.25035
0.192372 0.619239 0.225763
0.345835 0.645109 0.203947
0.472131 0.6661 0.178948
0.564435 0.679281 0.152652
0.654696 0.69169 0.118148
0.759411 0.711019 0.077688
0.83345 0.722803 0.052449
0.879135 0.728101 0.024535
0.926714 0.73394 -0.017422
0.976039 0.740106 -0.011581
0 0.560164 0.321435
0 0.571504 0.314579
0 0.582012 0.308687
0 0.595351 0.301173
-0.015845 0.612584 0.292341
-0.080941 0.633902 0.282416
0.158333 0.65962 0.261668
0.322881 0.689482 0.236335
0.459519 0.715515 0.212353
0.557119 0.730213 0.188427
0.648644 0.742296 0.160915
0.745786 0.756018 0.124473
0.835095 0.771431 0.080826
0.88036 0.776477 0.065304
0.928036 0.782051 0.04208
0.977432 0.788211 -0.022309
0 0.587479 0.344385
0 0.598095 0.337878
0 0.608532 0.332612
0 0.621755 0.32667
-0.004132 0.638718 0.319277
-0.069551 0.659547 0.310143
0.126962 0.685168 0.2962
0.299581 0.714648 0.271822
0.443866 0.741448 0.251948
0.544766 0.7588 0.231477
0.637838 0.774282 0.20793
0.733721 0.789675 0.180574
0.832483 0.807485 0.147225
0.877886 0.814525 0.117868
0.925806 0.822479 0.091168
0.976669 0.830515 0.064241
0 0.614865 0.368882
0 0.625263 0.362881
0 0.635604 0.357945
0 0.648638 0.352184
0 0.665098 0.345357
-0.057473 0.686006 0.337767
0.091019 0.711293 0.327198
0.276915 0.740465 0.302027
0.428917 0.768235 0.286632
0.532529 0.786005 0.270305
0.626197 0.801376 0.251794
0.721175 0.816568 0.23148
0.823444 0.83272 0.207559
0.871542 0.840043 0.186886
0.919653 0.847321 0.164327
0.970142 0.855252 0.137469
-0.062159 0.67058 0.409912
-0.106443 0.6814 0.404621
-0.136782 0.692011 0.40026
-0.154216 0.705142 0.395185
-0.174283 0.721957 0.388843
-0.199195 0.743557 0.381597
-0.207543 0.769683 0.373128
0.203372 0.799467 0.353958
0.387362 0.828424 0.330591
0.505878 0.847267 0.316573
0.608682 0.863748 0.30186
0.711376 0.879806 0.285457
0.819426 0.895999 0.266378
0.87666 0.902412 0.250639
0.924605 0.908611 0.23573
0.976015 0.917013 0.219789
0.034974 -0.247313 0.150407
0.247885 -0.250067 0.13564
0.357868 -0.254012 0.100932
0.368359 -0.258782 -0.047644
0.432008 -0.264722 -0.074099
0.507372 -0.272017 -0.08697
0.555171 -0.280603 -0.09347
0.593198 -0.290022 -0.09681
0.630872 -0.29873 -0.098294
0.668829 -0.305628 -0.098661
0.694305 -0.311277 -0.096961
0.708803 -0.316621 -0.09337
0.724062 -0.321125 -0.088899
0.741657 -0.323947 -0.084386
0.761054 -0.325704 -0.079972
0.784016 -0.326891 -0.076718
-0.062692 0.058313 0.187284
-0.096318 0.062167 0.167226
-0.087816 0.068588 0.160095
0.097198 0.075975 0.153921
0.218318 0.081075 0.146487
0.326145 0.078957 0.136541
0.421499 0.069726 0.125442
0.517799 0.049761 0.113189
0.575189 0.03466 0.102054
0.622082 0.010329 0.091253
0.670929 -0.028652 0.079221
0.714275 -0.032997 0.066918
0.742338 -0.026673 0.056487
0.765991 0.020135 0.046651
0.790191 0.043512 0.035643
0.816317 0.06599 0.026584
-0.014972 0.102028 0.201744
0.012463 0.102334 0.181182
0.059662 0.10751 0.17328
0.108353 0.114101 0.165804
0.188111 0.123556 0.158324
0.296443 0.131286 0.148753
0.387304 0.133472 0.137269
0.479876 0.13197 0.124627
0.567355 0.128888 0.111045
0.619505 0.127422 0.099296
0.667149 0.126989 0.087283
0.716185 0.127273 0.074218
0.761047 0.129788 0.060581
0.78326 0.136788 0.05043
0.807398 0.144778 0.040349
0.833672 0.155011 0.029797
-0.007943 0.150827 0.217043
-0.024707 0.149057 0.196446
0.042277 0.153832 0.188145
0.096525 0.160093 0.180162
0.166227 0.169841 0.17226
0.266781 0.181892 0.162933
0.370928 0.190734 0.151385
0.456714 0.195071 0.138712
0.555357 0.198925 0.124241
0.626811 0.200892 0.110429
0.672731 0.203178 0.097971
0.721476 0.206494 0.084474
0.771482 0.21066 0.069372
0.808455 0.216569 0.054697
0.83219 0.224182 0.042858
0.858536 0.233542 0.030146
-0.002595 0.204975 0.233346
-0.016855 0.203725 0.213479
-0.02374 0.209647 0.205099
0.07839 0.217125 0.196748
0.150137 0.227954 0.187981
0.243963 0.242425 0.178361
0.363067 0.258418 0.166163
0.448432 0.266315 0.152601
0.541082 0.274627 0.137739
0.64078 0.282762 0.120566
0.689627 0.286766 0.106606
0.737675 0.291551 0.09172
0.787035 0.296663 0.075206
0.83359 0.302077 0.056225
0.863246 0.307527 0.040543
0.887885 0.313963 0.025989
-0.000376 0.266716 0.251381
-0.007644 0.265547 0.232188
-0.030874 0.271236 0.223201
0.040524 0.278572 0.214088
0.129442 0.289269 0.204239
0.224013 0.30371 0.193553
0.343243 0.322043 0.180704
0.44176 0.3345 0.165797
0.531191 0.34486 0.150191
0.632888 0.356372 0.131997
0.70501 0.363541 0.114283
0.751415 0.368053 0.098337
0.799997 0.373359 0.080424
0.848927 0.379334 0.05865
0.889452 0.385133 0.037159
0.915521 0.390691 0.019439
0 0.322868 0.268282
-0.001274 0.32299 0.250935
-0.016254 0.330078 0.241505
-0.055066 0.338994 0.2321
0.099857 0.351203 0.221557
0.20319 0.367485 0.209055
0.320601 0.387015 0.195557
0.436282 0.405355 0.178967
0.52496 0.417842 0.162131
0.622686 0.431736 0.143096
0.718554 0.444134 0.121072
0.767656 0.44933 0.103101
0.815611 0.454592 0.083198
0.864056 0.460157 0.058711
0.913429 0.466091 0.030173
0.943439 0.470331 -0.006809
0 0.377074 0.283151
0 0.378581 0.270676
-0.002134 0.385458 0.261238
-0.037493 0.39415 0.251153
0.036196 0.406287 0.240467
0.175481 0.422341 0.225888
0.298146 0.441966 0.211873
0.423808 0.461221 0.194468
0.514619 0.474652 0.176974
0.609512 0.489123 0.15791
0.709941 0.503605 0.135248
0.775299 0.51137 0.11474
0.822515 0.516256 0.094876
0.870373 0.521552 0.070743
