site/assets/luts/freshluts--0002002-erdem-films-mini-2.cube
# LUTr-Schema-Version: 2
# LUTr-ID: freshluts--0002002-erdem-films-mini-2
# LUTr-Title: ERDEM FILMS MINI 2
# LUTr-Collection: Fresh LUTs
# LUTr-Collection-ID: freshluts-community
# LUTr-Source: https://freshluts.com
# LUTr-Retrieved: 2026-07-27
# LUTr-Source-File: submissions-raw/freshluts/cubes/2002__ERDEMFILMS__9.cube
# LUTr-Source-Format: CUBE
# LUTr-Source-SHA256: 44f1497c11d5f1eee8d719c6aaa9f8fd80b44a6d33e04c804990214d90f9760b
# LUTr-License: CC0-1.0
# LUTr-License-URL: https://freshluts.com/termsandconditions
# LUTr-License-Basis: site-terms
# LUTr-Transform-Class: creative-look
# LUTr-Tags: creative, freshluts, community, cube, cinematic, blockbuster, warm, low-key, dji-d-log
# LUTr-Input-Color-Space: dji-dlog-dgamut
# LUTr-Input-Gamut: dji-d-gamut
# LUTr-Input-Transfer: dji-d-log
# LUTr-Output-Color-Space: srgb
# LUTr-Output-Gamut: rec709
# LUTr-Output-Transfer: srgb
# LUTr-Color-Space-Confidence: inferred-from-source-label
# LUTr-Domain-Normalized: true
# LUTr-Shaper: none
# LUTr-Original-Grid: 33x33x33
# LUTr-Conversion-Grid: 33x33x33
# LUTr-Conversion-Interpolation: none
# LUTr-Conversion-Method: Metadata normalization; numeric LUT samples preserved
# LUTr-Conversion-Tool: LUTr scripts/convert-all-to-cube.mjs 2.0.0
# LUTr-Conversion-Date: 2026-07-28
# LUTr-Asset-URL: https://freshluts.com/luts/2002
# LUTr-Author: Erdem Films
# LUTr-Author-URL: https://freshluts.com/users/288176
# LUTr-Attribution: Erdem Films via Fresh LUTs
# LUTr-Source-Labels: gamma=DJI D-log; color=Warm; key=Low Key; style=Blockbuster
# LUTr-Note: Preserve this metadata and the upstream license notices when redistributing.
TITLE "ERDEM FILMS MINI 2"
LUT_3D_SIZE 9
DOMAIN_MIN 0 0 0
DOMAIN_MAX 1 1 1
0.0271763 0.0263981 0.0278935
0.0754864 0.0262303 0.0277104
0.124453 0.0264591 0.0277867
0.200595 0.0222019 0.0220798
0.333272 0.00775158 0.00477607
0.460029 0 0
0.587732 0 0
0.682063 0 0
0.762798 0 0
0.0317082 0.0735637 0.0284276
0.0795911 0.0731212 0.0281834
0.129076 0.0728313 0.0278935
0.208682 0.0677195 0.0215152
0.344793 0.0530098 0.00315862
0.469978 0.0391852 0
0.598337 0.0121767 0
0.692821 0.00454719 0
0.77847 0.000823987 0
0.0344701 0.122286 0.0280308
0.0834669 0.121965 0.0281376
0.133928 0.12192 0.0282444
0.220096 0.116884 0.0214084
0.365591 0.104067 0.00453193
0.497581 0.0960708 0
0.629053 0.0833753 0
0.730282 0.0769818 0
0.832273 0.0819257 0
0.0260624 0.18114 0.0181125
0.0772259 0.183246 0.0198825
0.131838 0.187839 0.023209
0.234577 0.191012 0.0227817
0.400351 0.190906 0.017731
0.550576 0.193713 0.0212863
0.683589 0.196704 0.028336
0.797742 0.204608 0.037232
0.913481 0.214603 0.0413214
0 0.275364 0
0.0524605 0.287846 0.00228885
0.116106 0.303914 0.0132601
0.243671 0.320211 0.0199893
0.423026 0.331609 0.0203555
0.585397 0.340673 0.0252537
0.710018 0.34931 0.033463
0.82649 0.352499 0.0341344
0.936065 0.353399 0.0265049
0 0.411749 0
0.0592203 0.431067 0.00805676
0.12874 0.452155 0.0263981
0.27126 0.470695 0.0350958
0.450095 0.477852 0.0258183
0.60676 0.475792 0.0114443
0.722499 0.482856 0.0134279
0.851621 0.489784 0.0170596
0.973693 0.499748 0.0190738
0.0157473 0.55404 0.0099031
0.0735943 0.570626 0.0207675
0.130617 0.585565 0.0261387
0.27863 0.596811 0.016968
0.461128 0.616678 0.0065156
0.635233 0.629847 0.0109102
0.749935 0.638865 0.0166018
0.877913 0.63563 0.0103609
0.991104 0.6327 0.00448615
0.0160525 0.661051 0.00799573
0.0770733 0.67538 0.020798
0.14818 0.697765 0.0368353
0.328573 0.720943 0.0376135
0.501366 0.736522 0.0274815
0.660105 0.737652 0.0187839
0.769192 0.740551 0.0172885
0.898955 0.733211 0.00758373
1 0.72961 0.00204471
0.0431678 0.773404 0.0324865
0.105119 0.794293 0.0458076
0.191638 0.815305 0.0528878
0.352422 0.823178 0.0313573
0.506127 0.832578 0.0100404
0.655299 0.836423 0
0.768399 0.843839 0.000595102
0.906508 0.842039 0
1 0.847074 0
0.0273442 0.0259861 0.0706493
0.0757 0.0263828 0.0709544
0.124758 0.0265354 0.0710155
0.201724 0.0221866 0.0647593
0.335134 0.00747692 0.0471809
0.461387 0 0.0329595
0.588678 0 0.0173648
0.682567 0 0.0091249
0.763104 0 0.00196841
0.0316777 0.0734264 0.0708934
0.0800793 0.0732586 0.0711833
0.129152 0.0726787 0.0707866
0.209842 0.0677195 0.0639506
0.347143 0.0527352 0.0456397
0.471992 0.0390173 0.0323186
0.600061 0.0121157 0.0183566
0.694652 0.00540169 0.0129702
0.781079 0.00221256 0.0102846
0.0345312 0.122362 0.0709544
0.0836957 0.122057 0.0710765
0.134279 0.122087 0.0712444
0.22269 0.117388 0.064683
0.370169 0.105043 0.0481422
0.503319 0.0977951 0.0415045
0.634455 0.0853895 0.0368505
0.736187 0.0810254 0.0389868
0.840253 0.0863966 0.0434119
0.0262455 0.181827 0.0609293
0.0781109 0.184726 0.0635233
0.133776 0.190616 0.0677501
0.240528 0.194812 0.0678721
0.408087 0.195895 0.063508
0.561166 0.199176 0.0679179
0.69192 0.203174 0.0759136
0.807126 0.210819 0.0844282
0.925048 0.22092 0.0885634
0 0.279805 0.0377813
0.0554055 0.293294 0.0480659
0.120134 0.310613 0.0598611
0.252979 0.328206 0.0666972
0.432547 0.340917 0.0675669
0.596704 0.348852 0.0711681
0.717464 0.357092 0.078996
0.834379 0.3579 0.0768597
0.94522 0.358618 0.068925
0 0.41857 0.0386206
0.065156 0.438849 0.0569009
0.134783 0.460731 0.075288
0.284138 0.479973 0.0823835
0.458122 0.485481 0.0676127
0.617319 0.484642 0.0530709
0.734661 0.495109 0.0605783
0.866621 0.501671 0.0638743
0.988434 0.511315 0.0652171
0.0191348 0.561074 0.0563973
0.0754101 0.576638 0.0656443
0.132052 0.592371 0.0709087
0.291661 0.606302 0.0624552
0.476692 0.630396 0.05626
0.648249 0.641566 0.0591592
0.760891 0.648066 0.0627298
0.89015 0.642618 0.0546273
1 0.639353 0.0481422
0.019791 0.666392 0.0563821
0.0826429 0.683787 0.0719921
0.155718 0.70837 0.0899367
0.342229 0.7308 0.0918288
0.512581 0.743618 0.0725872
0.668315 0.744366 0.0633555
0.777783 0.746746 0.0614176
0.909224 0.738766 0.051606
1 0.735988 0.0469062
0.0482338 0.782376 0.0870985
0.108659 0.803769 0.102846
0.187427 0.824537 0.111971
0.358206 0.831449 0.0957809
0.512978 0.838819 0.0755779
0.660349 0.842451 0.0561074
0.774533 0.850263 0.0577401
0.913756 0.849256 0.0609751
1 0.856855 0.0738537
0.0272831 0.0258183 0.116136
0.0758221 0.0260319 0.116457
0.124834 0.0259709 0.11606
0.202762 0.0217899 0.109422
0.338323 0.00724804 0.0911269
0.464164 0 0.0760052
0.592676 0 0.060502
0.68574 0 0.05243
0.766888 0 0.0451667
0.0312657 0.0733806 0.116228
0.0800183 0.0729839 0.115801
0.129396 0.0727855 0.115419
0.211307 0.0677348 0.108476
0.350759 0.0527962 0.0895552
0.4757 0.0382391 0.0755169
0.604425 0.0118715 0.0618143
0.69929 0.00636301 0.0574502
0.78764 0.00358587 0.0550851
0.0345006 0.122332 0.115801
0.0840162 0.122316 0.115846
0.134844 0.122606 0.116197
0.225071 0.118044 0.109636
0.375967 0.106493 0.0936904
0.511696 0.099855 0.0876936
0.641443 0.0864424 0.0832074
0.744213 0.0833143 0.085832
0.85098 0.0899672 0.0911269
0.0258335 0.183047 0.106508
0.0781567 0.186786 0.109255
0.134676 0.193866 0.114412
0.246601 0.199527 0.115526
0.417243 0.201617 0.112108
0.573144 0.20531 0.116457
0.701259 0.210178 0.125048
0.818265 0.217639 0.133471
0.936904 0.227604 0.137865
0.000244144 0.286015 0.0849012
0.0586252 0.30013 0.0959335
0.123339 0.318883 0.108705
0.262959 0.337606 0.11667
0.443122 0.351308 0.117494
0.60798 0.357763 0.11986
0.72462 0.364721 0.126513
0.842603 0.363821 0.123949
0.954116 0.364935 0.117525
0.00598154 0.428443 0.0885481
0.0717937 0.449149 0.108568
0.141588 0.471748 0.127901
0.295232 0.489708 0.132479
0.466117 0.493889 0.117845
0.628702 0.495293 0.107912
0.746777 0.507942 0.116945
0.880858 0.514122 0.123095
1 0.522362 0.127123
0.0212711 0.570748 0.103899
0.0762646 0.585092 0.113649
0.133669 0.600961 0.121248
0.304967 0.618997 0.119951
0.492042 0.643473 0.119417
0.659251 0.651164 0.107774
0.770245 0.655924 0.108553
0.900343 0.648722 0.100984
1 0.644862 0.105074
0.024506 0.675502 0.11075
0.0891432 0.694789 0.129717
0.16051 0.720958 0.150683
0.352697 0.740337 0.152865
0.523049 0.750637 0.140108
0.675334 0.750332 0.120989
0.784787 0.75201 0.115679
0.917571 0.743999 0.114046
1 0.742031 0.116258
0.0529488 0.794827 0.14696
0.111147 0.815015 0.161578
0.179217 0.834302 0.16936
0.361944 0.840192 0.153109
0.520363 0.847822 0.137346
0.666316 0.853254 0.128069
0.782635 0.862135 0.132479
0.921447 0.861616 0.133349
1 0.869413 0.142428
0.0266728 0.0248722 0.175128
0.0747234 0.023682 0.174426
0.123735 0.0240787 0.173342
0.202838 0.0212711 0.165103
0.340444 0.00657664 0.143496
0.467384 0 0.126207
0.596246 0 0.109422
0.689036 0 0.100771
0.770703 0 0.0939651
0.0306706 0.0723125 0.174823
0.0792096 0.0717479 0.172961
0.12845 0.0717327 0.171771
0.21149 0.0670481 0.16318
0.353292 0.0521706 0.141207
0.479912 0.0371099 0.125643
0.60914 0.0119326 0.111345
0.704448 0.00730907 0.107134
0.794995 0.00508125 0.105959
0.033402 0.122255 0.173922
0.0828412 0.122133 0.172869
0.133715 0.122698 0.173648
0.226825 0.118303 0.16582
0.380865 0.107683 0.148333
0.520562 0.102007 0.141085
0.648798 0.0882429 0.135088
0.75201 0.0827497 0.137377
0.861677 0.092958 0.144823
0.0209201 0.185031 0.163073
0.0739605 0.189334 0.166674
0.132021 0.197284 0.17435
0.252445 0.204593 0.17734
0.42565 0.207889 0.172961
0.58436 0.211398 0.175296
0.710567 0.21706 0.183688
0.829282 0.224964 0.192813
0.947295 0.234455 0.201816
0.00311284 0.293339 0.14284
0.0620737 0.308522 0.155428
0.125994 0.328267 0.171893
0.270436 0.347631 0.181582
0.45211 0.361364 0.182956
0.617639 0.366384 0.183383
0.730388 0.371008 0.18912
0.848844 0.368994 0.188479
0.961486 0.371527 0.19115
0.0122072 0.439979 0.149828
0.0784161 0.460914 0.172
0.147295 0.483406 0.195331
0.300267 0.498405 0.198962
0.473426 0.503563 0.186923
0.639414 0.508568 0.182666
0.757824 0.52224 0.194705
0.892714 0.526589 0.201297
1 0.532647 0.209262
0.0224613 0.580758 0.162905
0.076585 0.593896 0.175677
0.136049 0.610788 0.192935
0.313497 0.632181 0.200305
0.504204 0.656107 0.203677
0.667033 0.660594 0.196231
0.776959 0.663264 0.195941
0.90695 0.655146 0.191409
1 0.651057 0.196628
0.0307317 0.687144 0.181033
0.0962692 0.707698 0.207416
0.166949 0.733043 0.235203
0.356039 0.74876 0.237018
0.528557 0.757336 0.224521
0.678645 0.757076 0.210086
0.788861 0.758831 0.208209
0.921904 0.751156 0.204944
1 0.750332 0.213336
0.0563821 0.805722 0.222797
0.111452 0.82356 0.241947
0.169543 0.841505 0.255238
0.360006 0.846311 0.241016
0.522087 0.85449 0.225818
0.668009 0.862104 0.219486
0.785946 0.872084 0.225803
0.926574 0.872877 0.230991
1 0.880278 0.245777
0.0200656 0.0144045 0.287022
0.0699931 0.0149538 0.28484
0.119234 0.0156558 0.282643
0.19884 0.012253 0.273259
0.337819 0.00108339 0.246174
0.467277 0 0.21886
0.597803 0 0.19321
0.691096 0 0.177432
0.773175 0 0.16875
0.0240482 0.0626841 0.286458
0.0738537 0.0636149 0.283085
0.123522 0.0639658 0.280964
0.208148 0.0608377 0.271443
0.351568 0.047364 0.243915
0.48072 0.0325628 0.21912
0.611551 0.010071 0.19881
0.70779 0.00643931 0.190478
0.800275 0.00556954 0.192126
0.0224155 0.117433 0.286488
0.0727398 0.117723 0.284215
0.124834 0.118364 0.285496
0.223941 0.114992 0.278782
0.38233 0.105852 0.258534
0.524697 0.100877 0.245701
0.652873 0.0867781 0.236286
0.757626 0.0840162 0.237858
0.86659 0.0888838 0.24976
0.0167239 0.184054 0.277897
0.0688945 0.188937 0.282445
0.127199 0.198428 0.293645
0.25214 0.207141 0.299321
0.429709 0.211307 0.295033
0.590799 0.214694 0.294469
0.71574 0.220966 0.301793
0.834562 0.228763 0.313008
0.951736 0.237797 0.327596
0.00360113 0.300832 0.259358
0.0630198 0.316701 0.275669
0.127626 0.337713 0.298268
0.270024 0.356405 0.310735
0.456077 0.369146 0.312947
0.620752 0.371527 0.310384
0.730282 0.374456 0.314137
0.849592 0.372503 0.316503
0.963485 0.376471 0.324559
0.0170748 0.451545 0.269368
0.0825055 0.472282 0.298894
0.149416 0.494301 0.326879
0.290547 0.505409 0.330114
0.474235 0.512306 0.321141
0.644251 0.520104 0.321736
0.762448 0.533898 0.334127
0.895949 0.536049 0.340154
1 0.539361 0.348486
0.0189822 0.588815 0.280552
0.0737621 0.601022 0.301198
0.136156 0.619898 0.326543
0.3075 0.643809 0.341894
0.507073 0.664973 0.346853
0.667659 0.666484 0.338689
0.776379 0.66807 0.338476
0.906004 0.659236 0.334096
1 0.654841 0.34139
0.0342565 0.697597 0.309514
0.100221 0.71873 0.341604
0.169726 0.742275 0.372473
0.347036 0.754009 0.372625
0.52546 0.76083 0.362707
0.676219 0.760998 0.351354
0.786954 0.763241 0.350256
0.921355 0.756664 0.348394
1 0.75761 0.359335
0.0548867 0.812436 0.346197
0.108385 0.828962 0.367971
0.165423 0.846067 0.381628
0.351446 0.850278 0.369451
0.518441 0.859037 0.359228
0.666102 0.868818 0.356451
0.785641 0.880461 0.364813
0.929015 0.883467 0.371572
1 0.890608 0.383871
0.0106355 0.0091249 0.42153
0.0590372 0.0093843 0.419989
0.108598 0.0087892 0.418341
0.190066 0.00326543 0.411292
0.333028 0 0.388327
0.463645 0 0.363012
0.594751 0 0.33492
0.687984 0 0.317143
0.770001 0 0.308522
0.0141909 0.0547036 0.42179
0.0625467 0.0548104 0.419257
0.112764 0.0542611 0.417731
0.200534 0.048188 0.410498
0.347295 0.0298924 0.387198
0.477623 0.0175937 0.364813
0.609766 0.00526436 0.343221
0.706981 0.00271611 0.335241
0.800641 0.00299077 0.338659
0.0169223 0.101503 0.422538
0.0660868 0.10219 0.42092
0.118059 0.102678 0.422187
0.217548 0.0987716 0.417212
0.378759 0.0946212 0.40238
0.521904 0.0867628 0.392035
0.652537 0.0782177 0.385611
0.759991 0.0832227 0.390951
0.869535 0.0876326 0.402991
0.0141604 0.174487 0.419547
0.0670481 0.180804 0.423743
0.126253 0.192111 0.434256
0.247761 0.205798 0.441382
0.431266 0.210559 0.441321
0.593576 0.213733 0.443015
0.718029 0.220325 0.45182
0.836728 0.228199 0.460716
0.953323 0.237201 0.469322
0.00358587 0.304875 0.410239
0.0634623 0.322225 0.424292
0.129152 0.344137 0.443183
0.259525 0.363287 0.453666
0.456779 0.374441 0.456931
0.619944 0.373831 0.453513
0.728206 0.37612 0.455039
0.849378 0.37557 0.45539
0.965957 0.382834 0.462242
0.0199741 0.461769 0.427237
0.0843977 0.482155 0.449821
0.148974 0.501915 0.469078
0.257801 0.51342 0.469429
0.473594 0.521447 0.46389
0.646799 0.531029 0.468086
0.76408 0.543618 0.479225
0.895048 0.543587 0.48069
1 0.545419 0.482704
0.014725 0.594598 0.426825
0.0725719 0.608957 0.443565
0.139239 0.631052 0.466178
0.280171 0.654429 0.480766
0.505028 0.671565 0.485878
0.665629 0.671763 0.479438
0.773877 0.672801 0.478889
0.903395 0.663844 0.472877
1 0.660151 0.476814
0.0382239 0.708293 0.454841
0.1037 0.728954 0.47953
0.171466 0.750225 0.503517
0.326009 0.760021 0.502419
0.520592 0.765026 0.494026
0.673045 0.765942 0.485725
0.784802 0.769848 0.48716
0.920638 0.764935 0.484535
1 0.767605 0.494942
0.0529946 0.818418 0.474983
0.105837 0.83386 0.489479
0.16289 0.850385 0.500038
0.339483 0.854719 0.489006
0.514336 0.865019 0.482658
0.66627 0.87805 0.484474
0.78793 0.892012 0.495338
0.931762 0.894987 0.500221
1 0.901152 0.50988
0.00671397 0.00489815 0.53695
0.0548562 0.005066 0.535149
0.104891 0.00469978 0.534035
0.170932 0 0.527367
0.327688 0 0.506065
0.461418 0 0.484337
0.593011 0 0.461112
0.68603 0 0.44773
0.768688 0 0.442191
0.0101778 0.0504005 0.538766
0.0584268 0.0504768 0.53608
0.108782 0.0501259 0.535164
0.181857 0.0449683 0.528206
0.343297 0.0261387 0.506798
0.476371 0.0137942 0.487953
0.609598 0.00227359 0.470588
0.708675 0.00131228 0.466529
0.803281 0.00213626 0.470787
0.0129854 0.0969253 0.542672
0.0622873 0.0978408 0.542062
0.114137 0.0985428 0.5449
0.206088 0.0940566 0.541863
0.376669 0.0803388 0.528161
0.522866 0.077821 0.520546
0.656077 0.0784619 0.519387
0.764828 0.0842145 0.526574
0.875319 0.0889448 0.53962
0.0128328 0.155489 0.544198
0.0661326 0.161486 0.551339
0.125444 0.171176 0.564446
0.241306 0.199741 0.576547
0.432135 0.205554 0.580194
0.595575 0.207523 0.584375
0.719829 0.210803 0.595178
0.839536 0.22031 0.606409
0.955459 0.232959 0.615549
0.00460822 0.304295 0.543282
0.0650187 0.323018 0.562005
0.130495 0.344137 0.583719
0.231861 0.366369 0.59794
0.455924 0.376272 0.603037
0.617609 0.373007 0.599054
0.726299 0.375357 0.602609
0.849454 0.376349 0.604623
0.967895 0.385962 0.611826
0.0224155 0.468757 0.570031
0.085069 0.48748 0.593957
0.14638 0.504341 0.613687
0.241138 0.516182 0.614603
0.471595 0.527291 0.61474
0.647868 0.538643 0.622156
0.764187 0.549233 0.632288
0.893309 0.547341 0.630838
1 0.547753 0.627894
0.0120851 0.598428 0.569284
0.0715801 0.613581 0.590463
0.140642 0.636805 0.615976
0.261433 0.660334 0.630686
0.499458 0.673732 0.633997
0.662028 0.673793 0.629191
0.770932 0.674952 0.629282
0.900725 0.666163 0.621942
1 0.662562 0.621134
0.0402533 0.714687 0.602731
0.104311 0.733211 0.626902
0.169863 0.75172 0.646204
0.292699 0.762325 0.645777
0.513222 0.765713 0.637415
0.669047 0.768231 0.632044
0.783108 0.7738 0.63534
0.919997 0.770092 0.632334
1 0.774105 0.637507
0.0498054 0.819196 0.615152
0.102144 0.833722 0.627588
0.159258 0.849867 0.635264
0.323003 0.854978 0.623819
0.509361 0.867384 0.620249
0.665614 0.883497 0.625406
0.789456 0.899504 0.637629
0.933852 0.902708 0.64036
1 0.907118 0.644678
0.00282292 0.000686656 0.643122
0.0508583 0.000808728 0.642267
0.100679 0.000244144 0.641657
0.164858 0 0.638361
0.319417 0 0.622248
0.456764 0 0.607691
0.5897 0 0.589929
0.683619 0 0.579644
0.767102 0 0.575601
0.00633249 0.0461433 0.645075
0.0543832 0.0460365 0.643824
0.105013 0.0458686 0.644038
0.172061 0.0411078 0.640528
0.336263 0.0219425 0.623682
0.473213 0.00961318 0.611749
0.608515 0 0.600214
0.709194 0 0.600351
0.805295 0.000534066 0.6047
0.00921645 0.0929885 0.649088
0.0585946 0.0938888 0.649287
0.110842 0.095079 0.651789
0.186145 0.0921645 0.65127
0.374777 0.0788281 0.641489
0.524681 0.0770581 0.641245
0.6589 0.0785534 0.644068
0.769146 0.0847181 0.652522
0.880995 0.0899214 0.66125
0.0110018 0.149981 0.653483
0.0647746 0.156268 0.659312
0.125292 0.165652 0.670481
0.236744 0.195071 0.681392
0.433082 0.199008 0.686732
0.598581 0.200809 0.694118
0.723873 0.206775 0.705486
0.84416 0.216938 0.714015
0.958679 0.231342 0.716396
0.00619516 0.302525 0.655222
0.067277 0.321279 0.669871
0.133059 0.345602 0.687755
0.23476 0.369146 0.69955
0.456718 0.378256 0.703227
0.61799 0.373892 0.699153
0.727916 0.377142 0.702983
0.852888 0.379583 0.704463
0.97261 0.39057 0.70927
0.0243534 0.472145 0.682765
0.086183 0.489937 0.698863
0.146304 0.506127 0.711086
0.240375 0.518639 0.711177
0.473304 0.532982 0.714504
0.650568 0.544472 0.722789
0.765942 0.553613 0.731731
0.89456 0.550057 0.727337
1 0.550027 0.721355
0.0125734 0.600656 0.675425
0.0741436 0.617823 0.691722
0.144244 0.641474 0.713237
0.253071 0.664286 0.726162
0.497749 0.675517 0.72871
0.66154 0.675807 0.725139
0.771298 0.67715 0.726024
0.901396 0.668345 0.717357
1 0.665003 0.714549
0.0426032 0.718364 0.705043
0.106096 0.735882 0.723064
0.170703 0.753109 0.737621
0.286442 0.763317 0.736385
0.510918 0.766812 0.728603
0.669108 0.770687 0.725841
0.784894 0.777783 0.730449
0.923354 0.775128 0.727825
1 0.779614 0.731823
0.0493935 0.819623 0.709834
0.101595 0.833722 0.717784
0.159075 0.849851 0.722332
0.312123 0.856062 0.711543
0.509346 0.87013 0.710124
0.668513 0.888395 0.718364
0.79379 0.905684 0.731441
0.937194 0.907759 0.732891
1 0.910811 0.735256
0.000595102 0 0.722316
0.0484474 0 0.72166
0.098146 0 0.721218
0.161929 0 0.719005
0.31368 0 0.704051
0.453422 0 0.691112
0.587274 0 0.675578
0.683116 0 0.66833
0.766934 0 0.664836
0.00384527 0.0433509 0.724575
0.0520485 0.043595 0.724056
0.102403 0.0432441 0.724132
0.169223 0.0388952 0.721538
0.331701 0.0199893 0.705776
0.471244 0.00834669 0.69604
0.609262 0 0.68719
0.711147 0 0.688807
0.808286 0.00161746 0.693111
0.00758373 0.090547 0.729747
0.0566262 0.0916762 0.730755
0.109453 0.0932784 0.734478
0.184527 0.0910658 0.734981
0.373648 0.079057 0.727398
0.526711 0.0781109 0.729152
0.662516 0.0803998 0.73341
0.773724 0.0869917 0.742168
0.886152 0.092256 0.75079
0.0107881 0.148791 0.736721
0.0654612 0.156115 0.744335
0.126589 0.166415 0.757671
0.235325 0.195193 0.770672
0.435233 0.200198 0.778042
0.602045 0.201816 0.786862
0.727306 0.206409 0.799512
0.847761 0.218509 0.808026
0.960098 0.232563 0.810208
0.00892653 0.303151 0.742245
0.0700389 0.323033 0.758801
0.135714 0.347478 0.778714
0.235401 0.371557 0.793225
0.456687 0.379263 0.797391
0.617914 0.374044 0.794797
0.728908 0.378378 0.801328
0.856046 0.382284 0.80502
0.975875 0.394018 0.812299
0.0265965 0.474342 0.771115
0.0866865 0.490608 0.788327
0.145632 0.506508 0.803326
0.237934 0.519829 0.807172
0.474723 0.53611 0.815137
0.651942 0.547173 0.825315
0.766003 0.554467 0.833722
0.894041 0.550301 0.828229
1 0.549706 0.82388
0.0133974 0.602258 0.76466
0.0760815 0.620127 0.784787
0.146563 0.643931 0.810636
0.254475 0.665736 0.825269
0.495705 0.674876 0.828046
0.66006 0.675135 0.827283
0.770047 0.676249 0.828916
0.900313 0.667613 0.819974
1 0.664347 0.819577
0.0445716 0.720623 0.795727
0.10663 0.736385 0.815122
0.170275 0.752331 0.832563
0.276677 0.762585 0.833051
0.508553 0.765621 0.827222
0.668147 0.770397 0.828031
0.785306 0.778454 0.834699
0.924956 0.776852 0.833295
1 0.781613 0.84004
0.0489357 0.818952 0.797696
0.100801 0.832746 0.808637
0.158236 0.848524 0.816327
0.306706 0.855558 0.808103
0.509178 0.87071 0.810193
0.670283 0.890715 0.822614
0.796414 0.908309 0.837476
0.938933 0.909575 0.838193
1 0.91078 0.83917
