site/assets/luts/freshluts--0001652-zona-colonial.cube
# LUTr-Schema-Version: 2
# LUTr-ID: freshluts--0001652-zona-colonial
# LUTr-Title: ZONA COLONIAL
# LUTr-Collection: Fresh LUTs
# LUTr-Collection-ID: freshluts-community
# LUTr-Source: https://freshluts.com
# LUTr-Retrieved: 2026-07-27
# LUTr-Source-File: submissions-raw/freshluts/cubes/1652__RD_FX_3_LUT.cube
# LUTr-Source-Format: CUBE
# LUTr-Source-SHA256: f7621f5838169f4df7ce1ab958179734b3f78b7dac0acbafd14d5461845b1c7d
# LUTr-License: CC0-1.0
# LUTr-License-URL: https://freshluts.com/termsandconditions
# LUTr-License-Basis: site-terms
# LUTr-Transform-Class: creative-look
# LUTr-Tags: creative, freshluts, community, cube, orange, sony-s-log3
# LUTr-Input-Color-Space:
# LUTr-Input-Gamut: sony-s-gamut3
# LUTr-Input-Transfer: sony-s-log3
# LUTr-Output-Color-Space: srgb
# LUTr-Output-Gamut: rec709
# LUTr-Output-Transfer: srgb
# LUTr-Color-Space-Confidence: camera-profile-input-required
# LUTr-Domain-Normalized: true
# LUTr-Shaper: none
# LUTr-Original-Grid: 33x33x33
# LUTr-Conversion-Grid: 33x33x33
# LUTr-Conversion-Interpolation: none
# LUTr-Conversion-Method: Metadata normalization; numeric LUT samples preserved
# LUTr-Conversion-Tool: LUTr scripts/convert-all-to-cube.mjs 2.0.0
# LUTr-Conversion-Date: 2026-07-28
# LUTr-Asset-URL: https://freshluts.com/luts/1652
# LUTr-Author: Antony Eliezer
# LUTr-Author-URL: https://freshluts.com/users/32961
# LUTr-Attribution: Antony Eliezer via Fresh LUTs
# LUTr-Source-Labels: gamma=Sony S-Log 3; color=Orange; key=Neutral; style=NEUTRAL
# LUTr-Note: Preserve this metadata and the upstream license notices when redistributing.
# LUTr-Upstream-Comment: VEGAS Pro LUT
TITLE "ZONA COLONIAL"
LUT_3D_SIZE 9
DOMAIN_MIN 0 0 0
DOMAIN_MAX 1 1 1
-0.00672971 -0.0494558 0.06122192
0.03024547 -0.05613197 0.05501556
0.17682435 -0.07270395 0.0345795
0.39239347 -0.08334368 -0.00420424
0.70172918 -0.1018694 -0.03651032
1.0460889 -0.11317098 -0.04055383
1.1926811 -0.11842512 -0.04744733
1.3792907 -0.13013989 -0.05312188
1.3943963 -0.0971652 -0.02148641
-0.07306068 -0.02816215 0.06018822
0.02503978 -0.03964848 0.04960921
0.18459934 -0.05515585 0.02665717
0.39774385 -0.07345107 -0.00894394
0.69610852 -0.08947784 -0.04079046
1.0437472 -0.10087705 -0.04491727
1.1910467 -0.10594326 -0.05223101
1.382284 -0.1180608 -0.05863643
1.4005954 -0.08689025 -0.02674256
-0.11481534 0.1238886 0.01146348
-0.01390815 0.10952118 0.0013676
0.14341894 0.08560203 -0.01519697
0.36616558 0.03468807 -0.04079853
0.66079152 0.00273238 -0.07024702
1.0359799 -0.01470534 -0.07292091
1.1818864 -0.0231953 -0.07843409
1.3916261 -0.03397362 -0.09301361
1.4341935 -0.0160067 -0.06107534
-0.16130437 0.27874318 -0.04342176
-0.0643499 0.26415095 -0.05223954
0.0487975 0.24610075 -0.06654398
0.29648954 0.19012563 -0.08892749
0.66100115 0.14258881 -0.12700132
1.0504659 0.08373475 -0.10594317
1.176609 0.06915323 -0.10765919
1.3909595 0.05813348 -0.12264663
1.4586159 0.0636326 -0.09434672
-0.24425215 0.56125122 -0.13723873
-0.15768465 0.54905021 -0.14609873
-0.05863416 0.54036552 -0.16251725
0.04465067 0.53263617 -0.18922691
0.65250117 0.44102222 -0.26700154
1.0652518 0.44365445 -0.29024214
1.195124 0.41717863 -0.28765282
1.3943774 0.38851559 -0.27131265
1.4553934 0.39146957 -0.20807579
-0.40779606 0.78903043 -0.18864375
-0.32598519 0.78358203 -0.20244183
-0.1220613 0.77529091 -0.23302345
-0.03138394 0.76377583 -0.24898197
0.39713848 0.75330848 -0.30591488
0.95423126 0.6982131 -0.38326415
1.1053245 0.67034 -0.40272284
1.2701507 0.64182574 -0.35647482
1.3344394 0.63560897 -0.29624319
-0.40212813 0.99334127 -0.23318869
-0.34294 1.0036217 -0.26371267
-0.15841575 1.0022692 -0.30634275
-0.07191227 0.99344498 -0.32124424
0.043203 0.97529387 -0.3346895
0.75548172 1.0281261 -0.40035793
1.014046 0.94434452 -0.36145717
1.1682861 0.90717453 -0.29271078
1.2451906 0.89907902 -0.25941777
-0.34321582 1.0221982 -0.19475929
-0.28530979 1.0404887 -0.22909638
-0.14994624 1.0621574 -0.29851279
-0.07704258 1.061498 -0.32607469
0.00768409 1.0589848 -0.34887373
0.70196432 1.111387 -0.32640547
0.96983397 1.1024036 -0.2773765
1.1309116 1.0631975 -0.27923754
1.2148835 1.0616373 -0.28261074
-0.31495166 1.0398761 -0.17772128
-0.25128791 1.056299 -0.20772569
-0.12569593 1.0791136 -0.28474969
-0.06900049 1.0821693 -0.30913898
0.00633539 1.0765688 -0.33802849
0.69232857 1.1319686 -0.3067829
0.95138609 1.129725 -0.27227831
1.1231308 1.0967059 -0.28371024
1.2029911 1.1390272 -0.29978529
-0.16281991 -0.13253798 0.15162885
0.0062244 -0.08394597 0.10779695
0.14903581 -0.09116323 0.08494996
0.36608902 -0.1346042 0.05701582
0.66588318 -0.15036781 0.02227143
0.99252087 -0.16058098 0.02284616
1.1130241 -0.16355377 0.0156101
1.302739 -0.18546063 -0.00080944
1.3727386 -0.1768263 0.00320486
-0.20518748 -0.08785227 0.13995144
-0.11698227 -0.09811528 0.12949795
0.17078179 -0.13278079 0.08950509
0.39353472 -0.15775502 0.0476121
0.69005102 -0.17467161 0.01469601
1.0212372 -0.18220282 0.01154943
1.1181797 -0.1858065 0.01090224
1.3006251 -0.20449959 0.0002098
1.3623747 -0.19471093 0.00698565
-0.2467612 0.04807696 0.10010388
-0.15682583 0.03658757 0.08588378
0.12837562 -0.00215908 0.04959886
0.35675529 -0.05493767 0.01615479
0.65169638 -0.08748475 -0.01559847
1.0156659 -0.10242551 -0.01618272
1.1247215 -0.11433724 -0.01457131
1.2958633 -0.12494817 -0.0246377
1.3857731 -0.12734665 -0.02289223
-0.28609446 0.18243907 0.04672014
-0.20413218 0.17158192 0.03064039
0.0411098 0.14515124 -0.00388626
0.28745142 0.08997982 -0.02563603
0.65307641 0.04165924 -0.06567439
1.0355189 -0.01501197 -0.04295754
1.1348717 -0.03347412 -0.04019161
1.3007562 -0.04596481 -0.047492
1.3985747 -0.05864044 -0.04582236
-0.36607516 0.45237091 -0.04769848
-0.29470995 0.44326627 -0.06416952
-0.06292289 0.43114752 -0.10203996
0.03979042 0.4244076 -0.12908497
0.64643419 0.33455867 -0.21164709
1.0533391 0.33967155 -0.23834769
1.15951 0.31230757 -0.22688083
1.3178693 0.27908984 -0.21225515
1.419472 0.26331174 -0.20766689
-0.42725939 0.77821493 -0.15548356
-0.35386017 0.77324283 -0.17514449
-0.14465162 0.76465315 -0.20511016
-0.05311574 0.75385708 -0.22111319
0.37873802 0.743595 -0.27969384
0.94074661 0.68971032 -0.35896432
1.0905632 0.6586712 -0.37168217
1.2715145 0.62674302 -0.35384741
1.3419601 0.61918277 -0.30443597
-0.43899894 0.98555118 -0.2109247
-0.38065466 0.99203634 -0.24085046
-0.18285625 0.98372066 -0.2748524
-0.0954634 0.97515976 -0.29055741
0.01716645 0.95834541 -0.30516791
0.73603582 1.0219665 -0.40492135
1.004401 0.93844682 -0.37675646
1.1650819 0.89991093 -0.30633852
1.2390173 0.89049762 -0.26200736
-0.3804096 1.0175836 -0.17780888
-0.32586032 1.0347483 -0.21419062
-0.18552324 1.0546844 -0.28173327
-0.10828379 1.051188 -0.30615795
-0.0167452 1.0456364 -0.325703
0.68037361 1.1060402 -0.34591272
0.95610297 1.0890119 -0.27509254
1.1181009 1.0465529 -0.25545213
1.2001913 1.0443073 -0.25146443
-0.34731066 1.0331778 -0.16087434
-0.29064929 1.0504961 -0.19441108
-0.1641248 1.0741202 -0.27283973
-0.10504035 1.0753653 -0.29547274
-0.02261742 1.0665071 -0.31960294
0.66904229 1.1271478 -0.32535943
0.93630749 1.1162829 -0.26391003
1.1099534 1.080156 -0.26010549
1.1884993 1.1220369 -0.26977068
-0.17967896 -0.13385615 0.3403199
-0.01586573 -0.07629704 0.29873213
0.12667397 -0.11953208 0.29003888
0.35641265 -0.15617889 0.25598538
0.62292516 -0.16976476 0.19226931
0.95494765 -0.17592767 0.16494946
1.1030167 -0.17593306 0.14262488
1.2908516 -0.19661006 0.12218172
1.3829361 -0.19803515 0.1165482
-0.21598133 -0.08829491 0.31089869
-0.13636479 -0.09975143 0.31503502
0.14612605 -0.13692047 0.28611264
0.37911439 -0.17879388 0.25080782
0.64144504 -0.19202873 0.18982643
0.98041284 -0.19540976 0.16321863
1.108617 -0.19810729 0.14530188
1.2901995 -0.21515851 0.12809418
1.3751974 -0.21620142 0.12603459
-0.25647071 0.03275591 0.25563002
-0.17535359 0.02304187 0.24564983
0.09469362 -0.01390849 0.22085178
0.31848505 -0.06433135 0.18152454
0.60542238 -0.09784935 0.1373613
0.99135578 -0.11412568 0.11774283
1.1225892 -0.12644796 0.10336222
1.295948 -0.14014986 0.08652165
1.3965861 -0.14751801 0.07765006
-0.29795355 0.17502882 0.12464838
-0.22265001 0.16588128 0.11573891
0.02344937 0.14105193 0.10110553
0.24721962 0.09605536 0.10679575
0.61008292 0.04231527 0.06423932
1.0059261 -0.02031593 0.08503634
1.1307542 -0.03939039 0.07915324
1.2975448 -0.05286847 0.0680595
1.4000703 -0.06774092 0.06498019
-0.38242459 0.45122683 0.00526967
-0.31582624 0.44546685 -0.00527455
-0.08114961 0.43603399 -0.0301884
0.01809807 0.42201281 -0.02624604
0.59108913 0.35233638 -0.09699168
1.0314328 0.33866385 -0.11642279
1.1574309 0.3185969 -0.11353486
1.3142223 0.28170103 -0.10705869
1.4190522 0.26416489 -0.10701992
-0.44548061 0.7827211 -0.10758501
-0.37808654 0.78025109 -0.12050336
-0.16153423 0.77266312 -0.15374985
-0.06683376 0.76258963 -0.15684497
0.29867747 0.74895513 -0.1824877
0.89782476 0.71651477 -0.25802124
1.0798122 0.66564757 -0.25720504
1.2698888 0.63079894 -0.261381
1.3802671 0.61528724 -0.25907063
-0.46235135 0.99166113 -0.16685957
-0.40758288 0.9978196 -0.19092678
-0.19914486 0.98663396 -0.22473936
-0.10636021 0.97853512 -0.23905554
-0.02137133 0.96279114 -0.23223117
0.69660652 1.0378233 -0.33370513
1.0007359 0.95748901 -0.3359192
1.1892653 0.91322416 -0.30269414
1.2749362 0.90033311 -0.26121846
-0.40633681 1.0269738 -0.13552776
-0.35970494 1.0445752 -0.16694143
-0.2088248 1.063272 -0.2390579
-0.12494353 1.0560559 -0.2590045
-0.02807077 1.0432941 -0.26203802
0.63226461 1.1270479 -0.33801261
0.94587886 1.1124988 -0.27855721
1.1338171 1.0560617 -0.24167991
1.2140979 1.0484819 -0.20146391
-0.37321147 1.0417348 -0.11948083
-0.32685032 1.0593288 -0.14951728
-0.19067524 1.0851687 -0.23276629
-0.12763236 1.0836782 -0.25277376
-0.03635176 1.0704675 -0.26213065
0.61857706 1.1488047 -0.32378098
0.92161703 1.1349692 -0.26617023
1.1201021 1.086306 -0.22232725
1.1906147 1.1209202 -0.17410463
-0.14870523 -0.09548732 0.55718964
-0.0369975 -0.05386711 0.51629782
0.05933639 -0.09648905 0.50742513
0.30329961 -0.13134997 0.49683169
0.65283692 -0.16918325 0.38976929
0.94602323 -0.18745935 0.31158385
1.0997264 -0.18983027 0.28793842
1.2852922 -0.20804971 0.2689968
1.3856202 -0.21414375 0.25405845
-0.23491926 -0.06553997 0.51828396
-0.16570652 -0.08039074 0.55457789
0.06972596 -0.10942016 0.53098541
0.33242914 -0.15405521 0.49996448
0.67260617 -0.19446647 0.39587495
0.9666034 -0.20543243 0.31879142
1.1042814 -0.21120428 0.29705113
1.2851045 -0.22700201 0.28290334
1.3788438 -0.23293671 0.27172604
-0.26474872 0.02621624 0.45544192
-0.19250128 0.01812377 0.45067787
0.04292272 -0.01241633 0.42837849
0.31054449 -0.06545014 0.40050668
0.6365903 -0.10995544 0.32024419
0.96879971 -0.12379126 0.27323896
1.1198332 -0.13495725 0.26366112
1.2909332 -0.14961946 0.25559095
1.3954469 -0.15779887 0.24651411
-0.30709282 0.16492221 0.35964838
-0.23290563 0.15660393 0.35199007
0.00204791 0.13322538 0.34505549
0.16903213 0.10668704 0.35716236
0.61145401 0.01796617 0.26432088
0.98022485 -0.03007617 0.24565157
1.1273557 -0.04604341 0.23895347
1.293665 -0.05973516 0.23382927
1.3931117 -0.07378868 0.23169684
-0.38540375 0.44770691 0.12713613
-0.31797042 0.44248983 0.12145357
-0.09998445 0.43539149 0.12223405
-0.00369284 0.42462686 0.13819091
0.52073073 0.3978186 0.07679401
0.98864055 0.35160267 0.00363596
1.1498619 0.32564893 0.013844
1.3069878 0.27724928 0.02761207
1.4077634 0.25644851 0.03681731
-0.45024967 0.7845996 -0.03636437
-0.3849467 0.78396249 -0.04306364
-0.17888787 0.77682447 -0.05972165
-0.08429962 0.77031642 -0.05607937
0.19314028 0.75866193 -0.0747283
0.84983766 0.75284386 -0.16631939
1.0661267 0.67847276 -0.15334307
1.2577738 0.6442349 -0.15170671
1.3755077 0.6291787 -0.15021747
-0.48370478 0.99991333 -0.11126105
-0.42537281 1.0045267 -0.12931651
-0.21530138 0.98877668 -0.14259367
-0.12303776 0.98025209 -0.14220172
-0.02946155 0.96618336 -0.14119263
0.65007263 1.0438668 -0.24166687
0.98227459 0.968925 -0.2474924
1.1874362 0.92263144 -0.24469936
1.2963265 0.90995938 -0.23155704
-0.42739603 1.0343754 -0.09752002
-0.38335529 1.0539177 -0.12594572
-0.22395881 1.0682704 -0.17400484
-0.13801335 1.0603528 -0.16814944
-0.04023803 1.0469584 -0.16735309
0.58388937 1.1385133 -0.26749656
0.91942686 1.128988 -0.27683952
1.1466107 1.0652894 -0.24475037
1.235638 1.0548856 -0.20767289
-0.39372703 1.0502802 -0.07948672
-0.35202929 1.0704969 -0.10686382
-0.21094204 1.0954046 -0.17421913
-0.14457327 1.0857964 -0.16921128
-0.04823376 1.0700178 -0.16729724
0.56930739 1.1597149 -0.2694245
0.89857233 1.1510131 -0.26985598
1.1354827 1.0975521 -0.22954559
1.2043089 1.1271801 -0.16581504
-0.15409327 -0.03641438 0.81312793
-0.15036339 -0.01006864 0.75272018
0.02319432 -0.04367294 0.72652018
0.14788927 -0.07371633 0.69159567
0.53825343 -0.11529873 0.60197854
0.95985085 -0.17012095 0.47021249
1.1325351 -0.17122506 0.42959651
1.3152186 -0.18429847 0.41665658
1.4176099 -0.1927809 0.392654
-0.26452303 -0.00730338 0.74755192
-0.19608678 -0.02565101 0.77591753
0.02442834 -0.05478939 0.76158345
0.17347641 -0.09624948 0.71529317
0.56340104 -0.13950177 0.61742395
0.97508681 -0.18603265 0.48265457
1.1445333 -0.19274783 0.44402298
1.3220738 -0.21210916 0.43395764
1.4083368 -0.2155171 0.40963304
-0.28541121 0.05506903 0.66188353
-0.21670838 0.04819469 0.66216314
0.00106772 0.02523394 0.65686798
0.17423311 -0.01535558 0.62200493
0.5912028 -0.06745676 0.5345431
0.99771494 -0.10576808 0.44022182
1.1623621 -0.1159597 0.40704826
1.3256706 -0.12987889 0.40963367
1.4280789 -0.1366459 0.3967081
-0.3118574 0.14925785 0.54282129
-0.24019644 0.14333178 0.53402984
-0.02014967 0.13041104 0.5421586
0.08759476 0.12075613 0.56773823
0.59127891 0.04536688 0.49041423
1.0032824 -0.01876441 0.40730637
1.1648622 -0.02842253 0.37449136
1.3275636 -0.0392479 0.38426283
1.4238221 -0.04844603 0.38124713
-0.40657538 0.46838906 0.42697451
-0.33468279 0.46500358 0.42280489
-0.12572619 0.46149033 0.4451178
-0.03935353 0.44779339 0.46955246
0.2671825 0.45268738 0.51347637
0.93208963 0.31516296 0.36451972
1.1449959 0.27094138 0.32860169
1.3088167 0.23164886 0.3137041
1.4067452 0.21591592 0.31655666
-0.45638952 0.73170441 0.18917651
-0.38850421 0.73394901 0.19245929
-0.19566301 0.73640221 0.20595837
-0.1192413 0.74662882 0.24640682
-0.01182427 0.74340612 0.2765168
0.7686218 0.79862517 0.0803142
1.0393721 0.71523291 0.12622292
1.2326196 0.68274516 0.15747648
1.3487749 0.67170924 0.18717328
-0.51152551 1.0121587 -0.01447757
-0.44815055 1.0149411 -0.01674126
-0.24267268 0.99603629 -0.00262871
-0.16378388 0.98856783 0.02829031
-0.06817328 0.97274292 0.05387451
0.57793617 1.0586387 -0.08257342
0.955787 0.98582286 -0.04779034
1.1684915 0.93018579 0.02498599
1.2883132 0.91209185 0.0573678
-0.45754582 1.0480284 -0.03095199
-0.41917565 1.0688582 -0.047857
-0.23749769 1.0731511 -0.06793083
-0.17300896 1.0708587 -0.04452723
-0.07784144 1.0577843 -0.01681853
0.50643212 1.1492543 -0.14370319
0.88130254 1.130304 -0.10623215
1.1340834 1.0800546 -0.03835443
1.244035 1.0702424 -0.00222932
-0.42821932 1.0568535 -0.02829143
-0.3917338 1.0797366 -0.05163249
-0.22531544 1.0997002 -0.09290571
-0.16453901 1.0928364 -0.0757633
-0.08018548 1.0844606 -0.05617657
0.48750389 1.1723032 -0.17072527
0.86549526 1.1566145 -0.16371931
1.1312615 1.1136048 -0.08012652
1.223277 1.1475223 -0.07127823
-0.17551936 0.00844231 0.9910664
-0.19917147 0.02821337 0.9193626
-0.00487375 0.00370298 0.90310901
0.06749486 -0.01745987 0.86888605
0.32294661 -0.06504975 0.8012169
0.87893248 -0.12016308 0.65688533
1.1141915 -0.13434614 0.6486215
1.2955155 -0.15469116 0.63956314
1.406503 -0.16757542 0.61406726
-0.27896678 0.03399756 0.90384519
-0.20937091 0.01134437 0.92118084
0.00113805 -0.01821644 0.90934521
0.09827909 -0.04102358 0.87621552
0.34554946 -0.08774363 0.80677253
0.89779425 -0.13931653 0.65645373
1.1354216 -0.15545782 0.64229596
1.3051224 -0.17325556 0.64244831
1.4074035 -0.18473363 0.61686224
-0.29909244 0.08922743 0.80454957
-0.23144859 0.08195437 0.80611032
-0.02259117 0.06532481 0.83542877
0.09149435 0.04219879 0.80672014
0.38990855 -0.01153582 0.7524702
0.95738709 -0.06485981 0.60367697
1.1486152 -0.07574249 0.61295122
1.3151237 -0.08897521 0.61817628
1.411751 -0.09888304 0.59587383
-0.32244334 0.17053176 0.70806676
-0.25311852 0.16579351 0.70254785
-0.04424181 0.15474211 0.73428237
0.06239339 0.13393487 0.74003202
0.37625933 0.07809692 0.70813149
0.97128856 0.02493382 0.57482624
1.150144 0.01197455 0.57809371
1.3245895 -0.00379802 0.58317953
1.411291 -0.01020036 0.56366819
-0.39805299 0.42823282 0.59969097
-0.32796684 0.42652982 0.60093981
-0.1277535 0.4321059 0.64421844
-0.0418531 0.42832407 0.66431814
0.08906594 0.4458603 0.72519082
0.88158411 0.34626612 0.6315738
1.1055314 0.31351221 0.60784596
1.2831134 0.26927102 0.57237649
1.371722 0.25970373 0.55863029
-0.50064421 0.85514575 0.55403209
-0.43137044 0.8561461 0.56444514
-0.24462473 0.84834695 0.58346045
-0.16548753 0.83533037 0.6117391
-0.0662021 0.79857117 0.62260467
0.59422463 0.79615945 0.63887286
0.99480683 0.71941912 0.5823667
1.1805358 0.68133056 0.58663929
1.2992235 0.66190416 0.59211242
-0.54943377 1.0451024 0.33956155
-0.47703716 1.0433599 0.35191602
-0.28333244 1.044722 0.40271848
-0.21411367 1.0502679 0.4504655
-0.12835629 1.0446813 0.49764368
0.1535423 1.1163499 0.37603849
0.91113859 0.99232888 0.35097519
1.1481134 0.92234749 0.44852826
1.270866 0.90515584 0.46860975
-0.52023536 1.0910261 0.27584291
-0.48362899 1.111439 0.27656206
-0.28476658 1.1142315 0.31518987
-0.21950278 1.1182256 0.35739025
-0.13326964 1.118102 0.3887541
0.05968023 1.1993052 0.28675476
0.8176955 1.1298063 0.31139573
1.1117977 1.0808973 0.32806602
1.2346322 1.0661482 0.3568894
-0.49178556 1.1039118 0.25297251
-0.46597794 1.1292438 0.24605627
-0.28098711 1.1424644 0.27552313
-0.20695847 1.1402983 0.30400261
-0.13340479 1.1388252 0.3353726
0.09389669 1.2262893 0.23179416
0.80059588 1.1612508 0.25971228
1.1045212 1.1167024 0.28324461
1.2137032 1.1456995 0.29060403
-0.25972575 0.02474176 1.0585448
-0.21125874 0.05619211 1.0220286
-0.0210356 0.03423562 1.0194319
0.04147114 0.01849309 1.0003757
0.19783314 -0.01515595 0.94569886
0.73483068 -0.06431609 0.88069975
1.0957425 -0.09048353 0.9041574
1.2751925 -0.10826153 0.90212274
1.3853267 -0.12153564 0.88583386
-0.29192567 0.06645564 1.0040222
-0.22073746 0.04237094 1.0143623
-0.01697594 0.01781781 1.0151231
0.05918494 0.00345329 0.99730879
0.22753568 -0.03528541 0.9379704
0.76040494 -0.08184902 0.87526375
1.1157478 -0.11086174 0.89494652
1.2888832 -0.13059634 0.88636935
1.3864234 -0.14016823 0.87393796
-0.31115729 0.1268501 0.92901754
-0.24435543 0.120465 0.93660861
-0.04205529 0.09699702 0.97096539
0.04310003 0.08559142 0.95421076
0.26786035 0.04058949 0.89292651
0.82721817 -0.00162968 0.84297258
1.1222372 -0.0218232 0.86890733
1.3111602 -0.04455229 0.85842341
1.3993384 -0.05575598 0.85273248
-0.33225852 0.19499438 0.84691042
-0.26589236 0.19231573 0.85089767
-0.0611909 0.18085535 0.88437968
0.03327419 0.17242485 0.8877331
0.25406265 0.13164291 0.84660661
0.85112262 0.08482733 0.80065763
1.1244612 0.06504785 0.83749521
1.331857 0.04243723 0.83019358
1.4011266 0.03667284 0.82872134
-0.40402335 0.45108813 0.77668077
-0.33835605 0.45039162 0.78526419
-0.13718997 0.45264617 0.82251281
-0.05983383 0.45350945 0.84086114
0.04989094 0.45986807 0.87844104
0.78331149 0.34722206 0.87323523
1.1071578 0.33008853 0.85611355
1.3105884 0.28644615 0.83006537
1.3821844 0.27744976 0.82573992
-0.49057528 0.79168963 0.75250673
-0.42179447 0.79361957 0.76326174
-0.23846234 0.79452139 0.79339504
-0.16161862 0.79060233 0.81528169
-0.07253841 0.76961833 0.81910944
0.37765497 0.77056497 0.86765784
0.99802774 0.69840348 0.81130916
1.19463 0.66189349 0.79880691
1.3078454 0.64561564 0.7864325
-0.53450608 1.0543089 0.74252105
-0.496867 1.0675284 0.75452709
-0.30518973 1.0481346 0.78000212
-0.22939603 1.0369951 0.79409456
-0.14129595 1.0078827 0.7955808
0.01928927 1.0407376 0.84328866
0.82392126 0.98204535 0.73731267
1.1237395 0.93100911 0.73467022
1.2413423 0.90827674 0.734635
-0.47592869 1.1168658 0.6943633
-0.46875513 1.1449777 0.70294166
-0.32128006 1.1474217 0.72557586
-0.24582285 1.132985 0.73978758
-0.16205008 1.1162492 0.74750751
-0.01696695 1.1734479 0.79168719
0.67684621 1.150645 0.61892921
1.0861734 1.0767216 0.63240719
1.2159637 1.0540593 0.64188051
-0.4510614 1.1393503 0.67243451
-0.44450101 1.1675578 0.67502296
-0.32541937 1.1878133 0.70021468
-0.23350938 1.1673307 0.70388818
-0.16870941 1.1534607 0.71179861
-0.02752853 1.2098626 0.75531179
0.65352988 1.190154 0.56294662
1.0711257 1.1209362 0.5946002
1.1958294 1.1440921 0.58567697
-0.28036633 0.0174117 1.0874158
-0.20995891 0.05551955 1.0748742
-0.02227266 0.03084759 1.0702033
0.04462656 0.01521951 1.0566393
0.14486794 -0.00734188 1.0196487
0.67661464 -0.06554566 0.95956916
1.0822587 -0.09289731 0.97428173
1.2691504 -0.11182696 0.97288013
1.3718075 -0.12145174 0.9508059
-0.29126903 0.06755652 1.0533504
-0.22055842 0.04479289 1.0605255
-0.01862626 0.01761244 1.0628729
0.05642084 0.00426246 1.0511833
0.17102243 -0.02482433 1.0111728
0.70382488 -0.08007491 0.9514116
1.102677 -0.11101609 0.96712822
1.2878034 -0.13064173 0.95404673
1.3716388 -0.13546517 0.93246627
-0.31417471 0.13786624 1.0043811
-0.24721886 0.12927498 1.0065248
-0.04652497 0.09630919 1.0373039
0.0365115 0.08846916 1.0260681
0.22117607 0.05295974 0.97468519
0.7821185 0.00440585 0.92245096
1.1130239 -0.02068996 0.9455052
1.3089989 -0.03712665 0.92703277
1.3917768 -0.0497483 0.91677839
-0.33629537 0.22340219 0.96365404
-0.27146915 0.21777022 0.96563452
-0.06980515 0.20113106 0.98445922
0.01611493 0.19189098 0.98389244
0.19587085 0.15586783 0.94161642
0.80534554 0.09786934 0.8895306
1.1145881 0.07125513 0.91729677
1.3254149 0.05426064 0.89919406
1.3997984 0.04291273 0.89155513
-0.40565541 0.47597346 0.92817819
-0.34281743 0.47333589 0.93292105
-0.14284882 0.47356313 0.95177609
-0.0718604 0.47416013 0.96173549
0.02384249 0.46616694 0.97185683
0.66826463 0.36687952 1.0042499
1.0990148 0.33749023 0.97211349
1.3067641 0.29384789 0.93305045
1.3856767 0.27594075 0.9259882
-0.49610153 0.80300474 0.9239648
-0.42521721 0.80305237 0.93202806
-0.2400302 0.80356461 0.95289677
-0.17041056 0.80253536 0.96728849
-0.08537588 0.78420711 0.96609086
0.22417647 0.78945529 1.0097309
0.97716826 0.68718445 0.98388928
1.2018385 0.651205 0.96856308
1.3172737 0.63128579 0.96009749
-0.51578051 1.0062375 0.90096521
-0.48589569 1.023448 0.91954672
-0.3012681 1.0144577 0.93769252
-0.2283169 1.0049968 0.94330478
-0.14482696 0.98570842 0.94062537
0.01143864 1.0060064 0.98476857
0.77049673 0.96018505 0.91220772
1.1184846 0.91813064 0.89596778
1.2389305 0.89548498 0.88903165
-0.47240975 1.0739936 0.85239047
-0.46366832 1.1023742 0.87086016
-0.32183275 1.1068981 0.89208895
-0.24621053 1.0995763 0.8995142
-0.16619785 1.0881932 0.90150517
-0.02698434 1.1175984 0.93612158
0.60570782 1.118082 0.89121014
1.0526531 1.0742264 0.83228892
1.2006108 1.052339 0.82590687
-0.45485431 1.098124 0.8300432
-0.44903564 1.1277257 0.84466845
-0.32329097 1.1404367 0.86988539
-0.22897285 1.1265036 0.86883712
-0.16950694 1.1197447 0.87026298
-0.03929801 1.1486832 0.90216678
0.56979436 1.1608214 0.86043835
1.0269744 1.1251429 0.7997933
1.1773633 1.1465681 0.78080219
-0.2685568 0.03431371 1.1650063
-0.195788 0.07199956 1.1548336
-0.00896329 0.04671511 1.1482151
0.05814008 0.03172491 1.1375599
0.13605435 0.01338049 1.1079826
0.6400581 -0.04586977 1.050113
1.0786068 -0.07618856 1.0508688
1.272036 -0.09556448 1.0462118
1.3701318 -0.10181271 1.0199381
-0.27965692 0.08258725 1.1314038
-0.20589259 0.06064145 1.1373856
-0.0043099 0.03395788 1.137822
0.06922729 0.02141765 1.1292275
0.16345797 -0.00395805 1.0974535
0.67681807 -0.06215825 1.0408784
1.0984586 -0.09402049 1.0435288
1.2931587 -0.11432804 1.0260283
1.3691872 -0.11485972 0.99986571
-0.30184495 0.15616842 1.0845765
-0.23212984 0.14744093 1.0857781
-0.03342409 0.1113193 1.1195514
0.05108209 0.10290445 1.1107638
0.20366676 0.07169005 1.0680125
0.76133883 0.02084235 1.0129622
1.1133703 -0.00578354 1.0269587
1.3170461 -0.02219466 0.99985373
1.3990889 -0.03361644 0.98861969
-0.32259756 0.23878467 1.0457046
-0.25687572 0.23298876 1.047707
-0.05667881 0.21701448 1.0680487
0.02421794 0.2092649 1.0693636
0.17615375 0.17886607 1.0354155
0.78249145 0.11947235 0.97932178
1.1136455 0.0903984 0.99941123
1.3278209 0.07505917 0.97004956
1.4049641 0.06337123 0.95973766
-0.3919827 0.50835037 1.1187584
-0.3207784 0.50264955 1.1224099
-0.1135125 0.50407034 1.142516
-0.01871581 0.50344563 1.1523898
0.10909011 0.48673472 1.1555798
0.71305639 0.39836475 1.2039028
1.201133 0.36656383 1.1685656
1.2992598 0.33573359 1.1318343
1.3856423 0.3143748 1.1143682
-0.47000414 0.83918262 1.1322049
-0.41149256 0.84546518 1.1524552
-0.20884734 0.84010679 1.1599761
-0.10866018 0.83612943 1.1678739
0.01036383 0.81629276 1.1668935
0.26715752 0.82636589 1.2159879
1.0614349 0.72497433 1.1870252
1.1904781 0.70230418 1.1775218
1.30774 0.68103558 1.1656367
-0.41389212 1.0060959 1.0730456
-0.40175661 1.0333942 1.1084015
-0.27203277 1.0513471 1.1533406
-0.16348742 1.0414782 1.1520717
-0.04761783 1.0205042 1.1511437
0.11170693 1.0356338 1.1921617
0.84830868 0.99489331 1.1262324
1.1067494 0.96981537 1.1083329
1.2298202 0.94681054 1.1033108
-0.39018872 1.0886601 1.0331883
-0.36757398 1.1133531 1.0577445
-0.29913989 1.1539396 1.1135658
-0.18315323 1.1412414 1.1135346
-0.07075292 1.1275374 1.1137924
0.06888678 1.1462649 1.1428461
0.6847204 1.1476009 1.1110408
1.0308995 1.1287212 1.0565041
1.1860099 1.1118952 1.0489259
-0.39010578 1.1329677 1.0160462
-0.34985393 1.1503144 1.0312269
-0.30471706 1.2007766 1.0896773
-0.19262712 1.1894999 1.091958
-0.08058766 1.1769326 1.0914968
0.05361822 1.1949177 1.1160139
0.64859408 1.2067437 1.0898365
0.9945901 1.1987879 1.0340686
1.1452578 1.2359763 1.0704893
