site/assets/luts/freshluts--0001173-blackmagic-g5-filmlook.cube
# LUTr-Schema-Version: 2
# LUTr-ID: freshluts--0001173-blackmagic-g5-filmlook
# LUTr-Title: Blackmagic G5 Filmlook
# LUTr-Collection: Fresh LUTs
# LUTr-Collection-ID: freshluts-community
# LUTr-Source: https://freshluts.com
# LUTr-Retrieved: 2026-07-27
# LUTr-Source-File: submissions-raw/freshluts/cubes/1173__BM_G5_FILM_to_Cinematic.cube
# LUTr-Source-Format: CUBE
# LUTr-Source-SHA256: 63f26cffc9ca5d22df7ce5057e180d17c94ac3f7815f3a45ecf333518dea4f71
# LUTr-License: CC0-1.0
# LUTr-License-URL: https://freshluts.com/termsandconditions
# LUTr-License-Basis: site-terms
# LUTr-Transform-Class: creative-look
# LUTr-Tags: creative, freshluts, community, cube, film-emulation, rec709, assumed-input
# LUTr-Input-Color-Space: rec709
# LUTr-Input-Gamut: rec709
# LUTr-Input-Transfer: rec709
# LUTr-Output-Color-Space: srgb
# LUTr-Output-Gamut: rec709
# LUTr-Output-Transfer: srgb
# LUTr-Color-Space-Confidence: assumed-display-referred
# LUTr-Domain-Normalized: true
# LUTr-Shaper: none
# LUTr-Original-Grid: 33x33x33
# LUTr-Conversion-Grid: 33x33x33
# LUTr-Conversion-Interpolation: none
# LUTr-Conversion-Method: Metadata normalization; numeric LUT samples preserved
# LUTr-Conversion-Tool: LUTr scripts/convert-all-to-cube.mjs 2.0.0
# LUTr-Conversion-Date: 2026-07-28
# LUTr-Asset-URL: https://freshluts.com/luts/1173
# LUTr-Author: Revirssab
# LUTr-Author-URL: https://freshluts.com/users/9194
# LUTr-Attribution: Revirssab via Fresh LUTs
# LUTr-Source-Labels: gamma=Other; color=None; key=Neutral; style=Film emulation; LUTr assumption=input Rec.709 per repository policy
# LUTr-Conversion-Warning: Input Rec.709 is a LUTr catalog assumption requested for this otherwise unspecified Fresh LUT; it is not verified by the upstream asset.
# LUTr-Note: Preserve this metadata and the upstream license notices when redistributing.
TITLE "Blackmagic G5 Filmlook"
LUT_3D_SIZE 9
DOMAIN_MIN 0 0 0
DOMAIN_MAX 1 1 1
0.0236057 0.0184634 0.0592813
0.0360113 0.0214694 0.0493172
0.128679 0.0310063 0.034287
0.350851 0 0
0.55874 0 0
0.662715 0 0
0.70779 0 0
0.718624 0 0
0.718624 0 0
0.0208743 0.06598 0.0536049
0.0231174 0.049424 0.0407568
0.111238 0.047364 0.0355535
0.304051 0.00309758 0
0.532372 0 0
0.649897 0 0
0.702831 0 0
0.718624 0 0
0.718624 0 0
0 0.148669 0.0450294
0 0.134524 0.0386969
0.109621 0.131807 0.0372625
0.37438 0.144884 0
0.534066 0 0
0.650904 0 0
0.703075 0 0
0.718624 0 0
0.718624 0 0
0 0.304997 0
0 0.288624 0.00862135
0 0.282017 0.0132448
0.406744 0.358618 0
0.705013 0.360113 0
0.709697 0.0432136 0
0.704555 0 0
0.718624 0 0
0.718624 0 0
0 0.466682 0
0 0.458137 0
0 0.454566 0
0 0.453361 0
0.76553 0.652506 0
0.92604 0.660166 0
0.95874 0.621088 0
0.945159 0.551644 0
0.952941 0.571984 0
0 0.537209 0
0 0.533013 0
0 0.53138 0
0 0.530755 0
0 0.530526 0
0.95758 0.818311 0
0.989822 0.818036 0
1 0.818708 0
1 0.823941 0
0 0.581415 0
0 0.578195 0
0 0.576822 0
0 0.576226 0
0 0.576028 0
0.635767 0.807797 0
0.982773 0.869307 0
0.99913 0.870069 0
1 0.871717 0
0 0.592294 0
0 0.592294 0
0 0.592294 0
0 0.592294 0
0 0.592294 0
0 0.592294 0
0.973266 0.884535 0
0.995026 0.884367 0
1 0.884611 0
0 0.592294 0
0 0.592294 0
0 0.592294 0
0 0.592294 0
0 0.592294 0
0 0.592294 0
0.967559 0.885298 0
0.992996 0.88426 0
0.999969 0.884611 0
0.0210727 0.0221714 0.0799268
0.0367437 0.0124056 0.0699474
0.155703 0.0314031 0.057496
0.383108 0 0
0.576501 0 0
0.671046 0 0
0.710567 0 0
0.718624 0 0
0.718624 0 0
0.0174258 0.0650339 0.0713664
0.0223239 0.04654 0.0616922
0.11603 0.045716 0.0504311
0.309926 0 0
0.528008 0 0
0.647852 0 0
0.702007 0 0
0.718624 0 0
0.718624 0 0
0 0.151492 0.0707713
0 0.136645 0.0598001
0.110658 0.131289 0.0459449
0.368978 0.141192 0
0.531273 0 0
0.649195 0 0
0.702373 0 0
0.718624 0 0
0.718624 0 0
0 0.303258 0
0 0.287007 0.00975052
0 0.280278 0.0144656
0.400183 0.354772 0
0.701518 0.357534 0
0.70985 0.0511177 0
0.70396 0 0
0.718624 0 0
0.718624 0 0
0 0.465705 0
0 0.457053 0
0 0.453208 0
0 0.45185 0
0.760006 0.648844 0
0.923552 0.65655 0
0.956344 0.616068 0
0.94136 0.541711 0
0.948867 0.561318 0
0 0.536538 0
0 0.532311 0
0 0.530617 0
0 0.529961 0
0 0.529747 0
0.956313 0.8168 0
0.989441 0.816587 0
1 0.817243 0
1 0.822446 0
0 0.580835 0
0 0.577554 0
0 0.576089 0
0 0.575494 0
0 0.575296 0
0.604929 0.799451 0
0.982361 0.86865 0
0.999008 0.869383 0
1 0.871046 0
0 0.592294 0
0 0.592294 0
0 0.592294 0
0 0.592294 0
0 0.592294 0
0 0.592294 0
0.972488 0.884611 0
0.994797 0.884367 0
1 0.884611 0
0 0.592294 0
0 0.592294 0
0 0.592294 0
0 0.592294 0
0 0.592294 0
0 0.592294 0
0.966094 0.885512 0
0.992599 0.884245 0
0.999954 0.884611 0
0.00628672 0.0000457771 0.177325
0.0257877 0 0.155138
0.158541 0.0208286 0.160906
0.411597 0 0.130907
0.569482 0 0
0.670359 0 0
0.712779 0 0
0.718624 0 0
0.718624 0 0
0.0134737 0.0321202 0.159472
0.0169985 0.0131533 0.143496
0.116197 0.0264591 0.132448
0.354772 0 0.0922103
0.546105 0 0
0.661021 0 0
0.70898 0 0
0.718624 0 0
0.718624 0 0
0 0.157382 0.180346
0 0.139986 0.15819
0.104479 0.130129 0.134218
0.388724 0.123522 0.048127
0.526909 0 0
0.64741 0 0
0.701747 0 0
0.718624 0 0
0.718624 0 0
0 0.324727 0.0664073
0 0.303151 0.0511177
0 0.291447 0.0255589
0.396185 0.350149 0
0.699123 0.35346 0
0.70634 0.0409705 0
0.703487 0 0
0.718624 0 0
0.718624 0 0
0 0.465583 0
0 0.456748 0
0 0.452964 0
0 0.451514 0
0.757549 0.647501 0
0.922621 0.655421 0
0.955627 0.614923 0
0.941146 0.541176 0
0.948867 0.561334 0
0 0.536385 0
0 0.532174 0
0 0.53048 0
0 0.529778 0
0 0.529564 0
0.955749 0.816281 0
0.989303 0.816175 0
1 0.816846 0
1 0.822065 0
0 0.580682 0
0 0.577356 0
0 0.575891 0
0 0.575296 0
0 0.575067 0
0.576394 0.792111 0
0.982162 0.868406 0
0.998947 0.869123 0
1 0.870771 0
0 0.592294 0
0 0.592294 0
0 0.592294 0
0 0.592294 0
0 0.592294 0
0 0.592294 0
0.972152 0.884642 0
0.99472 0.884352 0
1 0.884611 0
0 0.592294 0
0 0.592294 0
0 0.592294 0
0 0.592294 0
0 0.592294 0
0 0.592294 0
0.965331 0.885634 0
0.992401 0.88423 0
0.999939 0.884611 0
0 0 0.364141
0 0 0.353002
0.147478 0 0.362692
0.429221 0 0.378943
0.632349 0 0.36228
0.71545 0 0.182437
0.711315 0 0
0.718624 0 0
0.718624 0 0
0 0 0.344228
0 0 0.325185
0.104753 0 0.316487
0.371389 0 0.333425
0.602426 0 0.314931
0.693812 0 0.0419776
0.707164 0 0
0.718624 0 0
0.718624 0 0
0 0.0219425 0.350973
0 0.0166629 0.329259
0.0695964 0.00817884 0.311955
0.361288 0 0.329473
0.601358 0 0.303975
0.674113 0 0.0145266
0.707744 0 0
0.718624 0 0
0.718624 0 0
0 0.382147 0.471305
0 0.356832 0.441642
0 0.347143 0.430549
0.40824 0.392523 0.409339
0.736706 0.342397 0.319005
0.66511 0.00329595 0.00816358
0.702403 0 0
0.718624 0 0
0.718624 0 0
0 0.54789 0.314
0 0.529122 0.26688
0 0.51928 0.239292
0 0.506584 0.189609
0.75259 0.641917 0
0.920012 0.650217 0
0.953262 0.609659 0
0.939376 0.536629 0
0.948425 0.560189 0
0 0.536065 0
0 0.531868 0
0 0.530098 0
0 0.529442 0
0 0.529198 0
0.954955 0.815412 0
0.989197 0.815549 0
1 0.816327 0
1 0.821714 0
0 0.580453 0
0 0.577111 0
0 0.575662 0
0 0.575067 0
0 0.574838 0
0.529046 0.779477 0
0.981964 0.868101 0
0.998871 0.868879 0
1 0.870558 0
0 0.592294 0
0 0.592294 0
0 0.592294 0
0 0.592294 0
0 0.592294 0
0 0.592294 0
0.971695 0.884703 0
0.994583 0.884352 0
1 0.884611 0
0 0.592294 0
0 0.592294 0
0 0.592294 0
0 0.592294 0
0 0.592294 0
0 0.592294 0
0.964614 0.885756 0
0.992187 0.88423 0
0.999863 0.884611 0
0 0 0.50956
0 0 0.507652
0.0375677 0 0.51281
0.413153 0 0.558694
0.647654 0 0.584543
0.748882 0 0.597452
0.787594 0 0.58381
0.790387 0 0.534966
0.78114 0 0.458701
0 0 0.499168
0 0 0.489616
0.0284733 0 0.485176
0.357275 0 0.530327
0.619577 0 0.557824
0.735256 0 0.568826
0.779736 0 0.545434
0.779629 0 0.439826
0.718624 0 0
0 0 0.497795
0 0 0.489555
0.00332647 0 0.485893
0.344732 0 0.528328
0.617411 0 0.556191
0.734524 0 0.564767
0.778378 0 0.5355
0.776928 0 0.402731
0.718624 0 0
0 0.013611 0.519402
0 0.00436408 0.499214
0 0 0.490715
0.290898 0 0.52578
0.616281 0 0.55819
0.736126 0 0.56318
0.778027 0 0.525444
0.77258 0 0.341253
0.718624 0 0
0 0.604898 0.751659
0 0.595163 0.739071
0 0.590616 0.733349
0 0.588083 0.730953
0.745876 0.753689 0.761212
0.926116 0.735286 0.738231
0.949203 0.661036 0.662791
0.930617 0.510491 0.403738
0.9252 0.50013 0
0 0.668879 0.730663
0 0.663706 0.709529
0 0.661662 0.69929
0 0.660914 0.694392
0 0.66041 0.687999
0.931197 0.897047 0.662333
0.988861 0.812314 0
1 0.813489 0
1 0.819333 0
0 0.579293 0
0 0.576043 0
0 0.574624 0
0 0.573999 0
0 0.57377 0
0.390509 0.739818 0
0.981582 0.867109 0
0.998734 0.867918 0
1 0.869703 0
0 0.592294 0
0 0.592294 0
0 0.592294 0
0 0.592294 0
0 0.592294 0
0 0.592294 0
0.971008 0.884779 0
0.994385 0.884337 0
1 0.884611 0
0 0.592294 0
0 0.592294 0
0 0.592294 0
0 0.592294 0
0 0.592294 0
0 0.592294 0
0.963333 0.885985 0
0.991867 0.884199 0
0.999725 0.884596 0
0 0 0.573297
0 0 0.572824
0 0 0.572595
0.240177 0 0.613428
0.634104 0 0.664866
0.755535 0 0.685649
0.798871 0 0.694652
0.808911 0 0.694591
0.808713 0 0.692424
0 0 0.568444
0 0 0.564889
0 0 0.564294
0.151369 0 0.593851
0.604913 0 0.652628
0.744396 0 0.675578
0.791928 0 0.682918
0.807828 0 0.684092
0.806897 0 0.680018
0 0 0.568231
0 0 0.565072
0 0 0.564294
0.101228 0 0.588586
0.60267 0 0.65182
0.743755 0 0.674601
0.791272 0 0.680964
0.807187 0 0.681254
0.806027 0 0.676173
0 0 0.570382
0 0 0.567117
0 0 0.566125
0.0148623 0 0.563958
0.59968 0 0.65275
0.744915 0 0.675624
0.791501 0 0.680583
0.806928 0 0.680156
0.805493 0 0.673854
0 0.0409094 0.648966
0 0.0115511 0.588403
0 0 0.567361
0 0 0.567025
0.54226 0 0.645075
0.741573 0 0.674846
0.790997 0 0.679088
0.806317 0 0.677455
0.805203 0 0.670314
0 0.667613 0.832898
0 0.664546 0.829801
0 0.663233 0.828397
0 0.662638 0.827787
0 0.662287 0.827619
0.914275 0.916442 0.908919
0.984253 0.919783 0.909316
0.997986 0.922744 0.906386
0.998611 0.930098 0.903334
0 0.70396 0.833356
0 0.701366 0.828412
0 0.70013 0.826246
0 0.699519 0.825132
0 0.699214 0.824552
0 0.698802 0.824018
0.973297 0.966369 0.907729
0.997909 0.967803 0.899962
1 0.96849 0.891051
0 0.71696 0.830777
0 0.716838 0.824063
0 0.716991 0.820096
0 0.717083 0.818082
0 0.717128 0.816876
0 0.717128 0.815717
0.950454 0.97705 0.8916
0.992523 0.980255 0.891386
1 0.978286 0.868193
0 0.716915 0.829145
0 0.717021 0.819654
0 0.717083 0.813718
0 0.716991 0.810391
0 0.71693 0.808087
0 0.716731 0.805203
0.926757 0.972702 0.872847
0.989425 0.978424 0.872374
0.999283 0.978042 0.866072
0 0 0.602258
0 0 0.601877
0 0 0.601724
0 0 0.601801
0.583062 0 0.68983
0.753048 0 0.715602
0.801541 0 0.725368
0.811688 0 0.727352
0.811688 0 0.72697
0 0 0.599771
0 0 0.598321
0 0 0.598138
0 0 0.598505
0.533959 0 0.680842
0.740627 0 0.710262
0.796674 0 0.721355
0.811658 0 0.724361
0.811658 0 0.723751
0 0 0.599802
0 0 0.598398
0 0 0.598138
0 0 0.598352
0.530251 0 0.68014
0.739727 0 0.709667
0.796231 0 0.720729
0.811658 0 0.723644
0.811643 0 0.722789
0 0 0.600732
0 0 0.599313
0 0 0.598947
0 0 0.598993
0.52224 0 0.679744
0.740887 0 0.710216
0.796475 0 0.720821
0.811643 0 0.723323
0.811643 0 0.722271
0 0 0.601511
0 0 0.600076
0 0 0.599573
0 0 0.59942
0.393698 0 0.661967
0.736339 0 0.709255
0.795834 0 0.720577
0.811643 0 0.72282
0.811627 0 0.721645
0 0.64416 0.85626
0 0.633173 0.852689
0 0.626139 0.849683
0 0.622889 0.848371
0 0.620783 0.847593
0.888258 0.832898 0.931044
0.965515 0.801038 0.93164
0.981552 0.798367 0.931167
0.986709 0.834119 0.934813
0 0.696925 0.859403
0 0.693797 0.857267
0 0.692393 0.856275
0 0.691798 0.855879
0 0.691478 0.85565
0 0.691051 0.855421
0.969451 0.961395 0.946334
0.997192 0.962982 0.946395
0.999603 0.964782 0.945525
0 0.717189 0.863401
0 0.716594 0.861845
0 0.716243 0.861067
0 0.716045 0.86067
0 0.715846 0.86041
0 0.715496 0.860136
0.941634 0.976547 0.942916
0.990753 0.980072 0.945556
0.999969 0.980713 0.944442
0 0.717189 0.862989
0 0.717189 0.861341
0 0.717189 0.860487
0 0.717189 0.859968
0 0.717189 0.859632
0 0.717189 0.859312
0.904143 0.97351 0.938567
0.986999 0.982452 0.943786
0.998367 0.98294 0.944045
0 0 0.603922
0 0 0.603922
0 0 0.603922
0 0 0.603922
0.522759 0 0.68481
0.748455 0 0.716289
0.800504 0 0.725994
0.811688 0 0.727672
0.811688 0 0.727672
0 0 0.603922
0 0 0.603922
0 0 0.603922
0 0 0.603922
0.424063 0 0.670481
0.73402 0 0.713481
0.795651 0 0.725017
0.811688 0 0.727672
0.811688 0 0.727672
0 0 0.603922
0 0 0.603922
0 0 0.603922
0 0 0.603922
0.411429 0 0.668849
0.732815 0 0.713222
0.795178 0 0.72491
0.811688 0 0.727672
0.811688 0 0.727672
0 0 0.603922
0 0 0.603922
0 0 0.603922
0 0 0.603922
0.394797 0 0.666697
0.733547 0 0.713375
0.795377 0 0.724956
0.811688 0 0.727672
0.811688 0 0.727672
0 0 0.603922
0 0 0.603922
0 0 0.603922
0 0 0.603922
0 0 0.603922
0.72871 0 0.712352
0.794675 0 0.724819
0.811688 0 0.727672
0.811688 0 0.727672
0 0.563622 0.842268
0 0.276921 0.752605
0 0 0.603922
0 0 0.603922
0 0 0.603922
0.689342 0 0.707485
0.790341 0 0.724102
0.811688 0 0.727672
0.811688 0 0.727672
0 0.691066 0.861692
0 0.687068 0.860502
0 0.685496 0.860136
0 0.684764 0.859968
0 0.684504 0.859907
0 0.684169 0.859831
0.966339 0.955779 0.95288
0.995697 0.957015 0.954345
0.999435 0.958907 0.95462
0 0.714885 0.868727
0 0.713802 0.868421
0 0.713283 0.868269
0 0.712993 0.868193
0 0.712779 0.868132
0 0.712413 0.868025
0.932586 0.973342 0.95172
0.989715 0.977874 0.95523
0.999893 0.978149 0.955612
0 0.717189 0.869368
0 0.717189 0.869368
0 0.717189 0.869368
0 0.717189 0.869368
0 0.717189 0.869368
0 0.717189 0.869368
0.875975 0.969757 0.947463
0.985626 0.982651 0.95491
0.997696 0.983032 0.955123
0 0 0.603922
0 0 0.603922
0 0 0.603922
0 0 0.603922
0.494636 0 0.680583
0.74548 0 0.715862
0.799558 0 0.725795
0.811688 0 0.727672
0.811688 0 0.727672
0 0 0.603922
0 0 0.603922
0 0 0.603922
0 0 0.603922
0.360006 0 0.662333
0.729854 0 0.712596
0.794598 0 0.724804
0.811688 0 0.727672
0.811688 0 0.727672
0 0 0.603922
0 0 0.603922
0 0 0.603922
0 0 0.603922
0.337484 0 0.659571
0.728313 0 0.712276
0.793942 0 0.724697
0.811688 0 0.727672
0.811688 0 0.727672
0 0 0.603922
0 0 0.603922
0 0 0.603922
0 0 0.603922
0.312245 0 0.65597
0.728649 0 0.712337
0.79411 0 0.724727
0.811688 0 0.727672
0.811688 0 0.727672
0 0 0.603922
0 0 0.603922
0 0 0.603922
0 0 0.603922
0 0 0.603922
0.722622 0 0.711315
0.793301 0 0.72459
0.811688 0 0.727672
0.811688 0 0.727672
0 0.491432 0.821546
0 0 0.603922
0 0 0.603922
0 0 0.603922
0 0 0.603922
0.679408 0 0.706294
0.788922 0 0.723857
0.811688 0 0.727672
0.811688 0 0.727672
0 0.689693 0.86125
0 0.685557 0.860151
0 0.683803 0.859739
0 0.682979 0.859556
0 0.682704 0.859495
0 0.682399 0.859419
0.964034 0.953994 0.952651
0.995224 0.955367 0.954238
0.999329 0.956298 0.954452
0 0.71458 0.868635
0 0.713344 0.868284
0 0.712734 0.868116
0 0.712398 0.868025
0 0.712169 0.867964
0 0.711818 0.867857
0.924514 0.971847 0.951064
0.989059 0.977417 0.955184
0.999878 0.9776 0.955581
0 0.717189 0.869368
0 0.717189 0.869368
0 0.717189 0.869368
0 0.717189 0.869368
0 0.717189 0.869368
0 0.717189 0.869368
0.842893 0.964843 0.944808
0.984527 0.982605 0.955306
0.997391 0.983032 0.955749
