site/assets/luts/freshluts--0000397-yellow-and-green.cube
# LUTr-Schema-Version: 2
# LUTr-ID: freshluts--0000397-yellow-and-green
# LUTr-Title: Yellow and Green
# LUTr-Collection: Fresh LUTs
# LUTr-Collection-ID: freshluts-community
# LUTr-Source: https://freshluts.com
# LUTr-Retrieved: 2026-07-27
# LUTr-Source-File: submissions-raw/freshluts/cubes/397__Green_and_Yellow_.cube
# LUTr-Source-Format: CUBE
# LUTr-Source-SHA256: d8c811977e9e9f811ee52df809a1e5850b947e87b7ed9d1905268e5909f9f24b
# LUTr-License: CC0-1.0
# LUTr-License-URL: https://freshluts.com/termsandconditions
# LUTr-License-Basis: site-terms
# LUTr-Transform-Class: creative-look
# LUTr-Tags: creative, freshluts, community, cube, yellow, arri-logc3-ei800
# LUTr-Input-Color-Space: arri-logc3-ei800-awg3
# LUTr-Input-Gamut: arri-wide-gamut-3
# LUTr-Input-Transfer: arri-logc3-ei800
# LUTr-Output-Color-Space: srgb
# LUTr-Output-Gamut: rec709
# LUTr-Output-Transfer: srgb
# LUTr-Color-Space-Confidence: inferred-from-source-label
# LUTr-Domain-Normalized: true
# LUTr-Shaper: none
# LUTr-Original-Grid: 33x33x33
# LUTr-Conversion-Grid: 33x33x33
# LUTr-Conversion-Interpolation: none
# LUTr-Conversion-Method: Metadata normalization; numeric LUT samples preserved
# LUTr-Conversion-Tool: LUTr scripts/convert-all-to-cube.mjs 2.0.0
# LUTr-Conversion-Date: 2026-07-28
# LUTr-Asset-URL: https://freshluts.com/luts/397
# LUTr-Author: gabriel s
# LUTr-Author-URL: https://freshluts.com/users/3294
# LUTr-Attribution: gabriel s via Fresh LUTs
# LUTr-Source-Labels: gamma=Arri log c; color=Yellow; key=Neutral; style=Cinematic light
# LUTr-Note: Preserve this metadata and the upstream license notices when redistributing.
TITLE "Yellow and Green"
LUT_3D_SIZE 9
DOMAIN_MIN 0 0 0
DOMAIN_MAX 1 1 1
0.0228122 0 0
0.273625 0 0
0.519051 0 0
0.754238 0 0
0.998306 0 0
1 0 0
1 0 0
1 0 0
1 0 0
0 0.0703899 0
0.0384527 0.00788891 0
0.336706 0 0
0.603418 0 0
0.87483 0 0
1 0 0
1 0 0
1 0 0
1 0 0
0 0.255558 0
0 0.230869 0
0.223148 0.192584 0
0.505608 0.144045 0
0.784344 0.0762036 0
1 0 0
1 0 0
1 0 0
1 0 0
0 0.455879 0
0 0.4336 0
0.111879 0.403388 0
0.4121 0.367437 0
0.700648 0.323232 0
1 0.263355 0
1 0.173129 0
1 0 0
1 0 0
0 0.663493 0
0 0.643854 0
0 0.618845 0
0.314534 0.589166 0
0.617136 0.553292 0
0.932219 0.507988 0
1 0.446632 0
1 0.354009 0
1 0.185504 0
0 0.898528 0
0 0.881956 0
0 0.859846 0
0.20032 0.834714 0
0.525399 0.805341 0
0.853483 0.768399 0
1 0.719524 0
1 0.650935 0
1 0.545968 0
0 1 0
0 1 0
0 1 0
0.0403754 0.995727 0
0.411902 0.96791 0
0.765423 0.938491 0
0.989319 0.906081 0
1 0.868589 0
1 0.821424 0
0 1 0
0 1 0
0 1 0
0 1 0
0.249638 1 0
0.645655 1 0
0.899779 1 0
1 0.978256 0
1 0.942901 0
0 1 0
0 1 0
0 1 0
0 1 0
0 1 0
0.477394 1 0
0.798383 1 0
0.980224 1 0
1 1 0
0.0185702 0 0.185595
0.229526 0 0.124758
0.495232 0 0.0519875
0.737346 0 0
0.98645 0 0
1 0 0
1 0 0
1 0 0
1 0 0
0 0.0519722 0
0.0323949 0.00244144 0
0.332387 0 0
0.600885 0 0
0.873045 0 0
1 0 0
1 0 0
1 0 0
1 0 0
0 0.253407 0
0 0.22855 0
0.221866 0.191012 0
0.504311 0.143114 0
0.783215 0.0759899 0
1 0 0
1 0 0
1 0 0
1 0 0
0 0.454398 0
0 0.431998 0
0.109499 0.401801 0
0.409705 0.365713 0
0.698665 0.320775 0
1 0.260349 0
1 0.169589 0
1 0 0
1 0 0
0 0.662837 0
0 0.642893 0
0 0.617502 0
0.309621 0.587976 0
0.614237 0.551278 0
0.931365 0.506081 0
1 0.444007 0
1 0.349706 0
1 0.179294 0
0 0.898482 0
0 0.881422 0
0 0.859449 0
0.191501 0.834424 0
0.520348 0.804654 0
0.850462 0.767132 0
1 0.718013 0
1 0.648707 0
1 0.542565 0
0 1 0
0 1 0
0 1 0
0.0225223 0.992508 0
0.403311 0.964736 0
0.759319 0.935195 0
0.985534 0.902647 0
1 0.86511 0
1 0.818112 0
0 1 0
0 1 0
0 1 0
0 1 0
0.235981 1 0
0.637995 1 0
0.895293 1 0
1 0.974044 0
1 0.938674 0
0 1 0
0 1 0
0 1 0
0 1 0
0 1 0
0.468574 1 0
0.792874 1 0
0.975418 1 0
1 1 0
0.011902 0 0.43859
0.138628 0 0.387778
0.445518 0 0.331518
0.702068 0 0.272755
0.959197 0 0.214221
1 0 0.159823
1 0 0.100862
1 0 0.0233463
1 0 0
0 0.0245365 0.238056
0.0169985 0 0.199741
0.288334 0 0.166262
0.575174 0 0.132662
0.854124 0 0.0953841
1 0 0.051133
1 0 0
1 0 0
1 0 0
0 0.230091 0.028809
0 0.20499 0.00540169
0.175555 0.166155 0
0.477791 0.115663 0
0.764233 0.0421454 0
1 0 0
1 0 0
1 0 0
1 0 0
0 0.438987 0
0 0.41648 0
0.0562142 0.386282 0
0.382696 0.350149 0
0.680095 0.304295 0
0.991394 0.242176 0
1 0.147646 0
1 0 0
1 0 0
0 0.651225 0
0 0.631724 0
0 0.60647 0
0.280842 0.576181 0
0.594965 0.539849 0
0.919371 0.493874 0
1 0.430411 0
1 0.334462 0
1 0.158038 0
0 0.889952 0
0 0.872831 0
0 0.850965 0
0.157717 0.825544 0
0.499779 0.796078 0
0.837507 0.757794 0
1 0.708232 0
1 0.63772 0
1 0.530068 0
0 1 0
0 1 0
0 1 0
0 0.985595 0
0.379782 0.957839 0
0.743236 0.928252 0
0.977478 0.89543 0
1 0.857862 0
1 0.810178 0
0 1 0
0 1 0
0 1 0
0 1 0
0.205646 1 0
0.619196 1 0
0.886656 0.999741 0
1 0.967086 0
1 0.931395 0
0 1 0
0 1 0
0 1 0
0 1 0
0 1 0
0.445792 1 0
0.78262 1 0
0.967132 1 0
1 1 0
0.00370794 0 0.697276
0.102205 0 0.64535
0.358206 0 0.590799
0.650401 0 0.537194
0.922728 0 0.487572
1 0 0.446113
1 0 0.404654
1 0 0.356085
1 0 0.293141
0 0.0122683 0.509544
0.00972 0 0.4748
0.199954 0 0.444892
0.531624 0 0.414939
0.823255 0 0.382895
1 0 0.348119
1 0 0.308354
1 0 0.260578
1 0 0.198154
0 0.187411 0.362417
0 0.162615 0.338384
0.0792096 0.120989 0.312505
0.433387 0.0661173 0.284153
0.733837 0 0.253223
1 0 0.218555
1 0 0.178302
1 0 0.127871
1 0 0.0584573
0 0.414115 0.198764
0 0.39173 0.177172
0 0.361212 0.151415
0.336126 0.32369 0.122744
0.649241 0.276478 0.090959
0.969497 0.211902 0.0546578
1 0.110185 0.0105287
1 0 0
1 0 0
0 0.632837 0
0 0.613306 0
0 0.587747 0
0.229633 0.557122 0
0.562829 0.520546 0
0.896101 0.47361 0
1 0.408576 0
1 0.309117 0
1 0.12047 0
0 0.875593 0
0 0.858854 0
0 0.837476 0
0.0958419 0.811627 0
0.464927 0.780865 0
0.815885 0.742 0
1 0.691279 0
1 0.620554 0
1 0.509941 0
0 1 0
0 1 0
0 1 0
0 0.976684 0
0.339864 0.948821 0
0.717739 0.91902 0
0.966445 0.886076 0
1 0.84828 0
1 0.799634 0
0 1 0
0 1 0
0 1 0
0 1 0
0.153765 1 0
0.588098 1 0
0.874876 0.991257 0
1 0.95845 0
1 0.922484 0
0 1 0
0 1 0
0 1 0
0 1 0
0 1 0
0.407721 1 0
0.768338 1 0
0.956878 1 0
1 1 0
0 0 0.971725
0.0941634 0 0.916671
0.207874 0 0.860166
0.568307 0 0.807141
0.871565 0 0.762402
1 0 0.725383
1 0 0.689113
1 0 0.648295
1 0 0.599985
0 0.0043946 0.780911
0.00195315 0 0.749004
0.104219 0 0.721035
0.456535 0 0.692851
0.775509 0 0.662913
1 0 0.631403
1 0 0.597147
1 0 0.557809
1 0 0.510658
0 0.107988 0.653544
0 0.0836652 0.630777
0.0119478 0.0377356 0.606348
0.355474 0 0.579919
0.685863 0 0.551797
1 0 0.52195
1 0 0.488746
1 0 0.449958
1 0 0.402243
0 0.375448 0.52636
0 0.35285 0.505318
0 0.321538 0.481987
0.252781 0.282307 0.456672
0.59971 0.232563 0.429938
0.934234 0.162295 0.400595
1 0.0428931 0.367453
1 0 0.327413
1 0 0.277165
0 0.605798 0.369314
0 0.585962 0.349538
0 0.560357 0.32694
0.132891 0.528801 0.30248
0.510613 0.491524 0.274617
0.859709 0.443 0.243992
1 0.375265 0.207874
1 0.270161 0.163989
1 0.0575723 0.106874
0 0.854749 0.123888
0 0.837919 0.0988327
0 0.815961 0.0729992
0 0.789868 0.0463569
0.407843 0.758694 0.0195163
0.777935 0.719646 0
1 0.667689 0
1 0.594339 0
1 0.480186 0
0 1 0
0 1 0
0 0.992279 0
0 0.965866 0
0.27248 0.937957 0
0.676875 0.907759 0
0.952041 0.874632 0
1 0.836103 0
1 0.786084 0
0 1 0
0 1 0
0 1 0
0 1 0
0.0572824 1 0
0.53962 1 0
0.859037 0.981643 0
1 0.948592 0
1 0.912154 0
0 1 0
0 1 0
0 1 0
0 1 0
0 1 0
0.347494 1 0
0.74876 1 0
0.94464 1 0
1 0.997818 0
0 0 1
0.0858625 0 1
0.186938 0 1
0.394659 0 1
0.789502 0 1
1 0 1
1 0 0.991547
1 0 0.954986
1 0 0.914092
0 0 1
0 0 1
0.0943008 0 1
0.281865 0 0.991089
0.695933 0 0.963119
1 0 0.93431
1 0 0.903258
1 0 0.868894
1 0 0.829419
0 0.0323186 0.958495
0 0.00492866 0.936629
0.00383001 0 0.914137
0.17319 0 0.889357
0.604166 0 0.86392
0.954208 0 0.837125
1 0 0.807691
1 0 0.77499
1 0 0.736584
0 0.310857 0.848981
0 0.287755 0.829877
0 0.254078 0.80885
0.045594 0.21149 0.785794
0.515023 0.154162 0.762005
0.87834 0.0657816 0.736477
1 0 0.70811
1 0 0.675898
1 0 0.637171
0 0.563836 0.727031
0 0.544015 0.709285
0 0.517082 0.689555
0 0.485222 0.667491
0.419379 0.446021 0.644221
0.801221 0.394903 0.618708
1 0.321614 0.589929
1 0.20354 0.556558
1 0 0.515724
0 0.823529 0.570611
0 0.806882 0.552941
0 0.783917 0.532616
0 0.757092 0.510872
0.304845 0.725536 0.486625
0.715267 0.685069 0.459037
1 0.631251 0.427985
1 0.55433 0.390845
1 0.433753 0.343893
0 1 0.321386
0 1 0.3037
0 0.978607 0.278431
0 0.952117 0.252323
0.14432 0.924041 0.225711
0.608347 0.893645 0.195483
0.93164 0.859861 0.158541
1 0.819959 0.110964
1 0.7673 0.0447547
0 1 0
0 1 0
0 1 0
0 1 0
0 1 0
0.460365 1 0
0.836255 0.97055 0
1 0.937011 0
1 0.899962 0
0 1 0
0 1 0
0 1 0
0 1 0
0 1 0
0.244923 1 0
0.718456 1 0
0.929564 1 0
1 0.987732 0
0 0 1
0.0773785 0 1
0.178347 0 1
0.280827 0 1
0.626932 0 1
1 0 1
1 0 1
1 0 1
1 0 1
0 0 1
0 0 1
0.0859541 0 1
0.188861 0 1
0.533852 0 1
0.94548 0 1
1 0 1
1 0 1
1 0 1
0 0.0239719 1
0 0 1
0 0 1
0.0986038 0 1
0.434592 0 1
0.862104 0 1
1 0 1
1 0 1
1 0 0.999786
0 0.173312 1
0 0.147707 1
0 0.104128 1
0.0100404 0.0485542 1
0.335378 0 1
0.782986 0 0.997635
1 0 0.969955
1 0 0.94139
1 0 0.911376
0 0.495018 1
0 0.474769 1
0 0.445853 0.983215
0 0.4121 0.957992
0.215198 0.369589 0.932265
0.701305 0.311879 0.905867
1 0.225925 0.878401
1 0.067155 0.849653
1 0 0.819043
0 0.774868 0.928084
0 0.757229 0.906538
0 0.73431 0.883268
0 0.706172 0.858274
0.0534676 0.673472 0.832227
0.606958 0.630442 0.805463
0.986847 0.573922 0.777859
1 0.491386 0.748943
1 0.356069 0.71722
0 1 0.800885
0 0.985229 0.780087
0 0.960037 0.756878
0 0.933425 0.734401
0 0.904982 0.709453
0.486686 0.873991 0.681666
0.89778 0.839429 0.652338
1 0.796979 0.620386
1 0.737896 0.58407
0 1 0.548684
0 1 0.530938
0 1 0.510002
0 1 0.48632
0 1 0.458961
0.314244 0.988373 0.427832
0.796811 0.957336 0.392615
1 0.923171 0.349447
1 0.885176 0.296681
0 1 0
0 1 0
0 1 0
0 1 0
0 1 0
0.0260777 1 0
0.655863 1 0
0.909438 1 0
1 0.976349 0
0 0 1
0.0687877 0 1
0.16965 0 1
0.272221 0 1
0.376043 0 1
0.85742 0 1
1 0 1
1 0 1
1 0 1
0 0 1
0 0 1
0.0774395 0 1
0.180362 0 1
0.284382 0 1
0.769558 0 1
1 0 1
1 0 1
1 0 1
0 0.0154574 1
0 0 1
0 0 1
0.090135 0 1
0.194369 0 1
0.684184 0 1
1 0 1
1 0 1
1 0 1
0 0.0510262 1
0 0.0237583 1
0 0 1
0.00158694 0 1
0.106035 0 1
0.592767 0 1
1 0 1
1 0 1
1 0 1
0 0.364157 1
0 0.34139 1
0 0.310918 1
0 0.270024 1
0.0185702 0.215564 1
0.498283 0.12932 1
0.993271 0 1
1 0 1
1 0 1
0 0.695094 1
0 0.676295 1
0 0.651652 1
0 0.622644 1
0 0.586282 1
0.381094 0.540261 0.999222
0.916396 0.476265 0.971695
1 0.380056 0.943328
1 0.204685 0.914076
0 0.978271 1
0 0.956619 1
0 0.931548 0.983474
0 0.904692 0.957183
0 0.875349 0.930297
0.192447 0.843381 0.902998
0.8159 0.806577 0.875044
1 0.757137 0.846311
1 0.67599 0.816464
0 1 0.924041
0 1 0.900236
0 1 0.874739
0 1 0.848432
0 1 0.821256
0 0.971817 0.793454
0.685618 0.940215 0.764309
0.983566 0.905119 0.733776
1 0.865873 0.701808
0 1 0.768704
0 1 0.754726
0 1 0.73286
0 1 0.706432
0 1 0.676997
0 1 0.645426
0.489509 1 0.611597
0.879469 0.996368 0.572091
1 0.962951 0.526986
0 0 1
0.0601816 0 1
0.160922 0 1
0.2636 0 1
0.367483 0 1
0.482887 0 1
1 0 1
1 0 1
1 0 1
0 0 1
0 0 1
0.0688945 0 1
0.171817 0 1
0.275853 0 1
0.387854 0 1
1 0 1
1 0 1
1 0 1
0 0.00691234 1
0 0 1
0 0 1
0.0816205 0 1
0.18587 0 1
0.290867 0 1
0.93695 0 1
1 0 1
1 0 1
0 0.0424506 1
0 0.015198 1
0 0 1
0 0 1
0.0975509 0 1
0.203372 0 1
0.861234 0 1
1 0 1
1 0 1
0 0.0793469 1
0 0.0505684 1
0 0.0248875 1
0 0 1
0.0100862 0 1
0.115419 0 1
0.77673 0 1
1 0 1
1 0 1
0 0.549355 1
0 0.527291 1
0 0.499504 1
0 0.466758 1
0 0.424125 1
0.0285649 0.364553 1
0.680644 0.276356 1
1 0.117433 1
1 0 1
0 0.918547 1
0 0.898985 1
0 0.872755 1
0 0.844587 1
0 0.81387 1
0 0.778973 1
0.554604 0.730312 1
1 0.656489 1
1 0.551888 0.98941
0 1 1
0 1 1
0 1 1
0 1 1
0 0.979538 1
0 0.94995 0.977142
0.405295 0.917586 0.947829
0.939864 0.880919 0.918532
1 0.838758 0.889021
0 1 1
0 1 0.982803
0 1 0.954772
0 1 0.926497
0 1 0.898009
0 1 0.869291
0.0824292 1 0.840284
0.82327 0.980438 0.81088
1 0.946395 0.780911
