site/assets/luts/freshluts--0002079-flora-portrait-cned.cube
# LUTr-Schema-Version: 2
# LUTr-ID: freshluts--0002079-flora-portrait-cned
# LUTr-Title: Flora Portrait (CNED)
# LUTr-Collection: Fresh LUTs
# LUTr-Collection-ID: freshluts-community
# LUTr-Source: https://freshluts.com
# LUTr-Retrieved: 2026-07-27
# LUTr-Source-File: submissions-raw/freshluts/cubes/2079__Panasonic_CNED_LUT_Flora_Portra.cube
# LUTr-Source-Format: CUBE
# LUTr-Source-SHA256: 1060d6b5cd8331b50411503e590901f5112c40248041c6063aeb082d0cbc6eb5
# LUTr-License: CC0-1.0
# LUTr-License-URL: https://freshluts.com/termsandconditions
# LUTr-License-Basis: site-terms
# LUTr-Transform-Class: creative-look
# LUTr-Tags: creative, freshluts, community, cube, green, low-key, panasonic-cinelike-d
# LUTr-Input-Color-Space: panasonic-cinelike-d
# LUTr-Input-Gamut: rec709
# LUTr-Input-Transfer: panasonic-cinelike-d
# LUTr-Output-Color-Space: srgb
# LUTr-Output-Gamut: rec709
# LUTr-Output-Transfer: srgb
# LUTr-Color-Space-Confidence: inferred-from-source-label
# LUTr-Domain-Normalized: true
# LUTr-Shaper: none
# LUTr-Original-Grid: 33x33x33
# LUTr-Conversion-Grid: 33x33x33
# LUTr-Conversion-Interpolation: none
# LUTr-Conversion-Method: Metadata normalization; numeric LUT samples preserved
# LUTr-Conversion-Tool: LUTr scripts/convert-all-to-cube.mjs 2.0.0
# LUTr-Conversion-Date: 2026-07-28
# LUTr-Asset-URL: https://freshluts.com/luts/2079
# LUTr-Author: DennisVanHeygen
# LUTr-Author-URL: https://freshluts.com/users/9278
# LUTr-Attribution: DennisVanHeygen via Fresh LUTs
# LUTr-Source-Labels: gamma=Panasonic Cinelike-D; color=Green; key=Low Key; style=Fresh look
# LUTr-Note: Preserve this metadata and the upstream license notices when redistributing.
TITLE "Flora Portrait (CNED)"
LUT_3D_SIZE 5
DOMAIN_MIN 0 0 0
DOMAIN_MAX 1 1 1
0 0 0.0209201
0.100389 0 0.0230106
0.348074 0 0.00117494
0.577295 0 0.0166323
0.76405 0 0.0175479
0 0.125902 0.0195621
0.0984817 0.127581 0.0228885
0.365927 0.117494 0.0152132
0.607095 0.11397 0.0285039
0.832715 0.118868 0.0679789
0 0.34226 0
0.0906081 0.369528 0.018616
0.376394 0.376074 0.0268864
0.620325 0.385031 0.041001
0.868467 0.388281 0.077348
0 0.602121 0.0267338
0.124743 0.628809 0.0515908
0.396262 0.63006 0.051667
0.629358 0.628626 0.0528878
0.832441 0.635554 0.0632334
0 0.833539 0.0679789
0.160494 0.851896 0.0848402
0.419821 0.847578 0.0786908
0.646708 0.842054 0.0738689
0.844144 0.843366 0.0774853
0 0 0.130922
0.105425 0 0.129412
0.356359 0 0.102739
0.57879 0 0.11545
0.766583 0 0.117235
0 0.130373 0.126223
0.105898 0.134081 0.131609
0.381308 0.126818 0.122774
0.611658 0.130663 0.126818
0.842298 0.133776 0.174762
0 0.356924 0.102937
0.102113 0.385046 0.127291
0.391653 0.391165 0.133532
0.634272 0.399359 0.147723
0.87657 0.402975 0.18114
0 0.616602 0.135637
0.136172 0.641642 0.158495
0.407294 0.641154 0.155642
0.639826 0.639353 0.156466
0.842191 0.645823 0.166827
0 0.844297 0.174136
0.170626 0.862043 0.190036
0.43003 0.856687 0.182086
0.655665 0.850797 0.176608
0.85211 0.851408 0.179614
0 0 0.37673
0.0924239 0 0.379095
0.346807 0 0.355169
0.558328 0 0.363134
0.749294 0 0.364172
0 0.123171 0.380377
0.102693 0.131472 0.392874
0.380667 0.126558 0.388251
0.615305 0.131945 0.388403
0.833356 0.140169 0.431998
0 0.358511 0.3664
0.105089 0.387625 0.396063
0.394217 0.393851 0.403586
0.641474 0.400534 0.409491
0.847761 0.415259 0.42414
0 0.618845 0.395407
0.134813 0.642939 0.417716
0.402213 0.642451 0.411292
0.639506 0.639109 0.407858
0.844022 0.644282 0.418463
0 0.843976 0.428458
0.166949 0.861418 0.443976
0.424582 0.856153 0.43418
0.650828 0.849515 0.425238
0.849241 0.8486 0.426795
0 0 0.608652
0.0830701 0 0.61149
0.335073 0 0.590982
0.552514 0 0.571954
0.740826 0 0.576425
0 0.118227 0.615839
0.101427 0.130465 0.630991
0.376822 0.129122 0.632349
0.615381 0.134905 0.636164
0.82356 0.150179 0.666453
0 0.360189 0.613931
0.114031 0.389593 0.645243
0.396902 0.396689 0.658305
0.642557 0.402213 0.6645
0.850172 0.415351 0.672816
0 0.62005 0.641688
0.137514 0.642496 0.6645
0.401617 0.641321 0.664179
0.638148 0.637736 0.660029
0.847532 0.641245 0.664866
0 0.842878 0.670588
0.165682 0.859892 0.686793
0.420371 0.854429 0.678569
0.642939 0.84831 0.666651
0.845975 0.845457 0.663264
0 0 0.802518
0.0783703 0 0.805051
0.328969 0 0.786023
0.54876 0 0.770047
0.743481 0 0.770718
0 0.118059 0.81323
0.105348 0.133989 0.831571
0.379599 0.13489 0.835264
0.618708 0.141955 0.842405
0.831052 0.160128 0.85893
0 0.36614 0.819974
0.124468 0.39588 0.851606
0.403311 0.40325 0.863615
0.643961 0.408667 0.871626
0.851987 0.419699 0.880781
0 0.623957 0.847196
0.144427 0.645014 0.869657
0.408042 0.642969 0.87126
0.639811 0.63949 0.873777
0.847684 0.642802 0.877989
0 0.844816 0.873854
0.169528 0.861036 0.890379
0.42298 0.854749 0.884657
0.643442 0.847623 0.878676
0.844755 0.844419 0.873869
