site/assets/luts/freshluts--0001250-capea-lut.cube
# LUTr-Schema-Version: 2
# LUTr-ID: freshluts--0001250-capea-lut
# LUTr-Title: CAPEA LUT
# LUTr-Collection: Fresh LUTs
# LUTr-Collection-ID: freshluts-community
# LUTr-Source: https://freshluts.com
# LUTr-Retrieved: 2026-07-27
# LUTr-Source-File: submissions-raw/freshluts/cubes/1250__CAPEA_LUT.cube
# LUTr-Source-Format: CUBE
# LUTr-Source-SHA256: 9ddc02a0efd9ef7325c1c244beccc02b910bb06492334529928230207a1ddbaf
# LUTr-License: CC0-1.0
# LUTr-License-URL: https://freshluts.com/termsandconditions
# LUTr-License-Basis: site-terms
# LUTr-Transform-Class: creative-look
# LUTr-Tags: creative, freshluts, community, cube, orange, sony-s-log3
# LUTr-Input-Color-Space:
# LUTr-Input-Gamut: sony-s-gamut3
# LUTr-Input-Transfer: sony-s-log3
# LUTr-Output-Color-Space: srgb
# LUTr-Output-Gamut: rec709
# LUTr-Output-Transfer: srgb
# LUTr-Color-Space-Confidence: camera-profile-input-required
# LUTr-Domain-Normalized: true
# LUTr-Shaper: none
# LUTr-Original-Grid: 33x33x33
# LUTr-Conversion-Grid: 33x33x33
# LUTr-Conversion-Interpolation: none
# LUTr-Conversion-Method: Metadata normalization; numeric LUT samples preserved
# LUTr-Conversion-Tool: LUTr scripts/convert-all-to-cube.mjs 2.0.0
# LUTr-Conversion-Date: 2026-07-28
# LUTr-Asset-URL: https://freshluts.com/luts/1250
# LUTr-Author: Antony Eliezer
# LUTr-Author-URL: https://freshluts.com/users/32961
# LUTr-Attribution: Antony Eliezer via Fresh LUTs
# LUTr-Source-Labels: gamma=Sony S-Log 3; color=Orange; key=Neutral; style=Teal - Orange
# LUTr-Duplicate-Assets: 1251:https://freshluts.com/luts/1251
# LUTr-Note: Preserve this metadata and the upstream license notices when redistributing.
# LUTr-Upstream-Comment: VEGAS Pro LUT
TITLE "CAPEA LUT"
LUT_3D_SIZE 5
DOMAIN_MIN 0 0 0
DOMAIN_MAX 1 1 1
0.00611738 0.06562687 0.04544822
0.16650492 0.04399918 0.03200337
0.68119776 -0.01642869 0.01253991
0.96451902 -0.03306402 0.07776099
1.0018666 -0.03728728 0.07763578
-0.04555691 0.1807476 0.07633609
0.0470703 0.15239047 0.03872206
0.59213573 0.02295072 0.0031798
0.93764806 -0.00015505 0.05849695
0.99912435 -0.00904623 0.06774682
-0.04723163 0.49893647 0.30415925
-0.01660349 0.45394397 0.24133179
0.46224728 0.45414281 0.09238116
0.89994508 0.32567164 0.07876875
0.99567646 0.28931779 0.10300353
0.28238332 0.72701484 0.50631529
0.29222333 0.71585673 0.48414525
0.44355124 0.71760058 0.43723974
0.69409633 0.70878381 0.41714358
0.92943519 0.70688272 0.34757131
0.36301914 0.82474422 0.55660373
0.39085242 0.82090187 0.55628753
0.48856476 0.83546191 0.56231833
0.69540411 0.83929574 0.56927001
0.81006581 0.83530807 0.56801194
-0.01484001 0.08010744 0.22169888
0.1424962 0.05732706 0.13518654
0.6605314 -0.00458131 0.06203147
0.95868421 -0.025965 0.10500889
1.0019178 -0.03602434 0.10726501
-0.03526058 0.16524164 0.1705699
0.05594788 0.13562408 0.10239676
0.57221335 0.02223635 0.03112824
0.93387425 -0.00312138 0.08648314
0.99939597 -0.01182446 0.09751946
-0.04420884 0.48643744 0.41338059
-0.01390085 0.4379864 0.34601921
0.48420203 0.43295321 0.1652447
0.89584357 0.31170624 0.10418897
0.99623263 0.27807638 0.13115215
0.27134079 0.72158313 0.5661723
0.28660685 0.7105422 0.54881108
0.47085121 0.70737648 0.51378006
0.70350456 0.70133835 0.48070866
0.93303263 0.69300795 0.43363434
0.38795131 0.82477462 0.62335551
0.4141283 0.82106954 0.62427998
0.51549643 0.83445996 0.63141102
0.70981717 0.84111738 0.62442851
0.82376564 0.83483136 0.61895931
-0.03276442 0.22139229 0.63452667
0.01674775 0.19124432 0.57666695
0.66027802 0.18680462 0.40700224
0.94806743 0.08140899 0.23989832
1.0032096 0.02652447 0.20009638
-0.03980449 0.309522 0.57075727
-0.00468834 0.26760155 0.50588465
0.57072288 0.22711472 0.29307079
0.92298162 0.09837838 0.1540947
0.99891269 0.06007002 0.1353115
-0.04168596 0.44966382 0.53472096
-0.01017845 0.41794217 0.48202541
0.49262387 0.3990528 0.28321007
0.89466131 0.29488391 0.16335729
0.99659014 0.26227626 0.16258833
0.26449317 0.71939957 0.64892679
0.28171298 0.70885599 0.63765883
0.47284549 0.70343029 0.58903146
0.7201854 0.69683903 0.55419636
0.93173915 0.67470968 0.51492506
0.37759125 0.8280986 0.68575406
0.40182322 0.8236835 0.68740797
0.50009406 0.83591628 0.69148248
0.71903235 0.84381181 0.68181813
0.84009111 0.83794689 0.67266548
0.02126252 0.41203749 0.8320843
0.04922178 0.39373294 0.81056321
0.5639717 0.42430884 0.74339956
0.88220066 0.44571319 0.66259527
0.96149874 0.44265285 0.61603951
0.11126963 0.49943769 0.79245168
0.10683938 0.47457474 0.77627259
0.51352602 0.48785862 0.6909712
0.86155939 0.50208795 0.58950609
0.96137768 0.48746336 0.55089343
0.14805019 0.56698769 0.74045384
0.12451346 0.53860945 0.71744871
0.47632563 0.54418838 0.6193586
0.83453876 0.545268 0.5400511
0.95369184 0.5469172 0.54034352
0.2593464 0.69647658 0.72735918
0.2748071 0.68348765 0.7177096
0.44099167 0.69324571 0.6793642
0.74978578 0.68923819 0.62586612
0.92570716 0.67180771 0.60290366
0.36210531 0.82589412 0.75749761
0.38855055 0.82162404 0.76129627
0.47504747 0.83478892 0.75936794
0.7208854 0.84022343 0.7386241
0.85776073 0.83733863 0.7293331
0.02829178 0.39629078 0.89914858
0.06994032 0.39894333 0.89642119
0.52056271 0.4439823 0.85791773
0.83799696 0.47577649 0.81246221
0.94563198 0.48803079 0.7921806
0.12790135 0.51737267 0.88813901
0.15502715 0.51411331 0.88548434
0.49061716 0.55186486 0.83881956
0.81556934 0.57137412 0.78499997
0.93571806 0.57915556 0.76735443
0.22934507 0.62859797 0.86392087
0.2619704 0.62790978 0.85516924
0.48875958 0.65492785 0.8181659
0.78449845 0.66024697 0.78012514
0.91653824 0.6621927 0.77247626
0.30357072 0.72399771 0.83583999
0.33018228 0.71943957 0.83509177
0.46080998 0.73768598 0.82414132
0.73084003 0.74033964 0.78722882
0.89615315 0.73732865 0.77566832
0.35773525 0.82133746 0.8442992
0.38421434 0.81699502 0.84819734
0.46386939 0.83184487 0.84664404
0.70332485 0.83945465 0.8086223
0.87872058 0.83016586 0.79019827
