site/assets/luts/freshluts--0001839-lut-fx3.cube
# LUTr-Schema-Version: 2
# LUTr-ID: freshluts--0001839-lut-fx3
# LUTr-Title: LUT FX3
# LUTr-Collection: Fresh LUTs
# LUTr-Collection-ID: freshluts-community
# LUTr-Source: https://freshluts.com
# LUTr-Retrieved: 2026-07-27
# LUTr-Source-File: submissions-raw/freshluts/cubes/1839__TRAP_FX3.cube
# LUTr-Source-Format: CUBE
# LUTr-Source-SHA256: f4bfa3f7741ffee67b5974ba5f180350546e9b6b339370c81bef3cc6e69056e7
# LUTr-License: CC0-1.0
# LUTr-License-URL: https://freshluts.com/termsandconditions
# LUTr-License-Basis: site-terms
# LUTr-Transform-Class: creative-look
# LUTr-Tags: creative, freshluts, community, cube, orange, sony-s-log3
# LUTr-Input-Color-Space:
# LUTr-Input-Gamut: sony-s-gamut3
# LUTr-Input-Transfer: sony-s-log3
# LUTr-Output-Color-Space: srgb
# LUTr-Output-Gamut: rec709
# LUTr-Output-Transfer: srgb
# LUTr-Color-Space-Confidence: camera-profile-input-required
# LUTr-Domain-Normalized: true
# LUTr-Shaper: none
# LUTr-Original-Grid: 33x33x33
# LUTr-Conversion-Grid: 33x33x33
# LUTr-Conversion-Interpolation: none
# LUTr-Conversion-Method: Metadata normalization; numeric LUT samples preserved
# LUTr-Conversion-Tool: LUTr scripts/convert-all-to-cube.mjs 2.0.0
# LUTr-Conversion-Date: 2026-07-28
# LUTr-Asset-URL: https://freshluts.com/luts/1839
# LUTr-Author: Antony Eliezer
# LUTr-Author-URL: https://freshluts.com/users/32961
# LUTr-Attribution: Antony Eliezer via Fresh LUTs
# LUTr-Source-Labels: gamma=Sony S-Log 3; color=Orange; key=Neutral; style=NEUTRAL
# LUTr-Note: Preserve this metadata and the upstream license notices when redistributing.
# LUTr-Upstream-Comment: VEGAS Pro LUT
TITLE "LUT FX3"
LUT_3D_SIZE 33
DOMAIN_MIN 0 0 0
DOMAIN_MAX 1 1 1
0.00765074 0.01148323 0.00765967
0.0148282 0.0107846 0.00717181
0.02244384 0.01008133 0.00668302
0.0328966 0.01010321 0.00654154
0.04130616 0.01053877 0.00647949
0.0525295 0.01076894 0.00622007
0.0704917 0.01042004 0.00594614
0.09035482 0.01114245 0.00669595
0.12213654 0.01161509 0.00716682
0.16322772 0.01412543 0.00855061
0.22040525 0.01640299 0.01084506
0.29877493 0.01692053 0.01527792
0.38854548 0.01749941 0.0257198
0.47842634 0.01965148 0.04365085
0.5637607 0.02479223 0.06720693
0.64367074 0.03370672 0.09361235
0.72195268 0.04600686 0.12192555
0.77845603 0.05559566 0.14286235
0.80939031 0.06054422 0.15347132
0.82589352 0.0627222 0.15811588
0.83602118 0.06363528 0.16008729
0.84469551 0.06427865 0.16147201
0.84570116 0.064308 0.1615351
0.84633893 0.06432661 0.16157512
0.8469767 0.06434523 0.16161513
0.84761453 0.06436384 0.16165516
0.84825236 0.06438245 0.16169515
0.84889019 0.06440106 0.16173518
0.84952796 0.06441967 0.1617752
0.85016572 0.06443828 0.16181521
0.85080361 0.06445689 0.16185524
0.85144138 0.06447551 0.16189525
0.85207915 0.06449413 0.16193525
0.00602119 0.01446385 0.00678941
0.01166163 0.0149103 0.00675634
0.01924509 0.0142705 0.00627769
0.02940007 0.01413722 0.00598187
0.03967158 0.01482539 0.00579836
0.05033772 0.01522476 0.00559561
0.06998102 0.01494699 0.00478769
0.08996484 0.01567719 0.00549128
0.1223344 0.0153913 0.00599385
0.16228172 0.01544434 0.00782554
0.21979529 0.01755596 0.01018675
0.29830196 0.01772279 0.01438105
0.38787434 0.01812214 0.02467064
0.47760025 0.0201597 0.04289852
0.56303525 0.0252363 0.06660827
0.64295286 0.0341187 0.09311777
0.72145218 0.04645051 0.12151069
0.77825242 0.05609852 0.14260545
0.80949414 0.06110578 0.15335697
0.82606208 0.06329718 0.15803285
0.83619404 0.06421076 0.1600074
0.84487283 0.06485479 0.16139367
0.84588444 0.06488431 0.16145715
0.84652227 0.06490292 0.16149715
0.8471601 0.06492153 0.16153717
0.84779787 0.06494015 0.16157719
0.8484357 0.06495877 0.1616172
0.84907353 0.06497738 0.16165723
0.8497113 0.06499599 0.16169724
0.85034913 0.0650146 0.16173725
0.85098696 0.0650332 0.16177727
0.85162467 0.06505182 0.1618173
0.85226256 0.06507044 0.16185731
0.00428423 0.0176145 0.00587254
0.00989856 0.01811147 0.00592697
0.01587725 0.01851142 0.0057963
0.02504754 0.01832107 0.00547466
0.03605802 0.01899688 0.0052687
0.04843033 0.01981113 0.00502791
0.06763222 0.01962915 0.00421624
0.08923573 0.02066002 0.00453061
0.12187537 0.02041281 0.00491476
0.16179374 0.02032954 0.00662308
0.21848489 0.019302 0.00944404
0.29640359 0.01890331 0.01368393
0.38590759 0.01881981 0.02370945
0.47576496 0.02062984 0.04189407
0.56139165 0.02558819 0.06571325
0.64134789 0.03439122 0.09228605
0.72008556 0.04675547 0.12077505
0.77740514 0.05649213 0.14211002
0.80931503 0.06162352 0.15314971
0.82611179 0.06386074 0.15792513
0.83627224 0.0647789 0.15991171
0.84498489 0.06542902 0.16131106
0.84606785 0.06546062 0.16137919
0.84670562 0.06547923 0.16141921
0.84734339 0.06549785 0.16145922
0.84798121 0.06551646 0.16149923
0.84861898 0.06553508 0.16153924
0.84925681 0.06555369 0.16157927
0.84989464 0.0655723 0.16161929
0.85053241 0.06559091 0.1616593
0.85117024 0.06560951 0.16169932
0.85180801 0.06562813 0.16173933
0.85244578 0.06564675 0.16177934
0.00274777 0.02207162 0.00506219
0.00806449 0.02234513 0.00488795
0.01404512 0.02262625 0.00477934
0.02147296 0.02308598 0.00453433
0.0326309 0.02371725 0.00432654
0.04592935 0.02460718 0.00420197
0.06506595 0.02455423 0.00361724
0.08820453 0.02576869 0.00359837
0.12059954 0.02572554 0.0040069
0.16101722 0.02571958 0.00553567
0.21773133 0.02432628 0.00839053
0.29437238 0.02011625 0.01298433
0.3837353 0.01951419 0.02282627
0.47383118 0.02109626 0.04086501
0.55967593 0.02593285 0.06479495
0.63984263 0.03467786 0.09135776
0.71853381 0.04703653 0.11997896
0.77653253 0.05688144 0.1416052
0.80912495 0.06213957 0.15293884
0.82615393 0.06442358 0.15781581
0.83634186 0.06534636 0.15981457
0.84509403 0.06600315 0.16122828
0.84625125 0.06603693 0.16130117
0.8468889 0.06605554 0.16134125
0.84752673 0.06607416 0.16138126
0.8481645 0.06609277 0.16142128
0.84880239 0.06611138 0.16146129
0.84944016 0.06613 0.16150132
0.85007799 0.06614861 0.16154133
0.85071576 0.06616722 0.16158134
0.85135359 0.06618583 0.16162136
0.85199136 0.06620444 0.16166137
0.85262918 0.06622306 0.1617014
0.00215895 0.02765663 0.00461603
0.00691358 0.02783252 0.0042095
0.01242971 0.02809377 0.00407551
0.01859813 0.02837327 0.00392295
0.03026594 0.02972504 0.00343205
0.04412055 0.03089315 0.00319602
0.06433364 0.0319819 0.00244949
0.08761571 0.03281754 0.00244078
0.12080967 0.03296104 0.00271781
0.16021797 0.03154619 0.00436419
0.21685305 0.02965842 0.00726254
0.29268366 0.02474169 0.01157664
0.38138151 0.02020689 0.02191578
0.47171995 0.02155599 0.03979162
0.55792099 0.02628683 0.06374013
0.63823348 0.03494818 0.09039012
0.71689135 0.04730333 0.11915003
0.77558303 0.05725772 0.1410719
0.80890578 0.06265111 0.15271844
0.826186 0.06498543 0.15770443
0.83640271 0.06591328 0.15971464
0.84519547 0.06657707 0.16114502
0.84643477 0.06661325 0.16122307
0.84707236 0.06663185 0.16126323
0.84771007 0.06665047 0.16130333
0.8483479 0.06666908 0.16134332
0.84898567 0.0666877 0.16138335
0.8496235 0.06670631 0.16142336
0.85026133 0.06672492 0.16146338
0.8508991 0.06674354 0.16150339
0.85153693 0.06676214 0.16154341
0.8521747 0.06678075 0.16158342
0.85281247 0.06679936 0.16162343
0.0028149 0.03456288 0.00372685
0.00585173 0.03455099 0.00335958
0.01099866 0.03485274 0.00323466
0.01633592 0.03516128 0.00310294
0.02595881 0.03607643 0.00268661
0.04132844 0.038595 0.00246069
0.06062954 0.04008714 0.00182796
0.08704082 0.04298169 0.00161127
0.1211369 0.04437436 0.0014836
0.16205868 0.04429572 0.00262456
0.2184837 0.0407124 0.00538104
0.29055181 0.03183012 0.01032173
0.37843621 0.02436803 0.01953559
0.4685891 0.02202183 0.03845678
0.5554235 0.02657954 0.06232149
0.635858 0.03509801 0.08913225
0.71455795 0.04746165 0.11807128
0.77418226 0.0575574 0.1403714
0.80850196 0.06313405 0.15243736
0.82614231 0.06554002 0.15757731
0.83640873 0.06647601 0.15960482
0.84525907 0.06714988 0.16105936
0.84661829 0.06718956 0.16114497
0.84725595 0.06720817 0.16118513
0.84789354 0.06722678 0.1612253
0.84853119 0.06724539 0.16126537
0.84916902 0.06726401 0.1613054
0.84980685 0.06728262 0.16134541
0.85044461 0.06730123 0.16138542
0.85108244 0.06731984 0.16142543
0.85172027 0.06733846 0.16146545
0.85235804 0.06735707 0.16150546
0.85299587 0.06737568 0.16154549
0.00488621 0.04356344 0.00215017
0.00579924 0.04314673 0.00188897
0.00911551 0.0428957 0.00171652
0.01447361 0.04322108 0.00160917
0.02063657 0.04368893 0.00143142
0.03621534 0.04658665 0.00113559
0.05512962 0.04957671 0.00083448
0.08341612 0.05336602 0.00062777
0.1187796 0.05652588 0.0004942
0.16323693 0.05840424 0.00079797
0.22184542 0.05688155 0.00340602
0.29370892 0.04931399 0.00810833
0.37766081 0.03592198 0.01617085
0.46526802 0.0263156 0.03412749
0.55208319 0.02681803 0.06058098
0.6327343 0.03513019 0.08759098
0.711514 0.04750839 0.11673557
0.77231818 0.05777846 0.13949919
0.8079024 0.0635867 0.15209202
0.82599854 0.06608165 0.15741986
0.83635068 0.06703376 0.15948416
0.84527999 0.06772145 0.16097103
0.84680188 0.06776587 0.16106687
0.84743947 0.06778448 0.16110703
0.84807706 0.06780309 0.16114719
0.84871465 0.0678217 0.16118735
0.84935236 0.06784032 0.16122743
0.84999013 0.06785893 0.16126744
0.85062802 0.06787754 0.16130747
0.85126573 0.06789615 0.16134748
0.85190356 0.06791476 0.1613875
0.85254139 0.06793338 0.16142751
0.85317916 0.06795199 0.16146752
0.0076993 0.05482363 0.00075848
0.00864816 0.05450788 0.00060405
0.00960189 0.05415309 0.00052154
0.01302508 0.05394312 0.00043124
0.01760253 0.0538097 0.0003313
0.02966632 0.0561111 0.00018306
0.04820295 0.06016245 0.00014024
0.07772019 0.06636656 0.00011915
0.11346775 0.07173482 0.00014492
0.16277714 0.07723483 0.00045562
0.22482876 0.07833774 0.00212225
0.29744783 0.0713513 0.00598388
0.38110542 0.0570749 0.01237958
0.46927682 0.04217368 0.02527421
0.55162281 0.03271714 0.05206484
0.62832803 0.0362289 0.08469598
0.70753008 0.04740753 0.11505998
0.76982296 0.05789243 0.13839316
0.80703866 0.06399795 0.15165798
0.82573843 0.06661011 0.1572326
0.83621311 0.06758537 0.1593501
0.84520215 0.06828231 0.16085967
0.8469854 0.06834218 0.16098878
0.84762299 0.06836079 0.16102894
0.84826058 0.06837941 0.1610691
0.84889817 0.06839802 0.16110925
0.8495357 0.06841663 0.16114941
0.85017347 0.06843524 0.1611895
0.85081124 0.06845386 0.16122951
0.85144907 0.06847247 0.16126952
0.8520869 0.06849108 0.16130954
0.85272467 0.06850969 0.16134956
0.8533625 0.0685283 0.16138957
0.01193279 0.07025253 0.000153
0.01264992 0.06991018 0.00015351
0.01334357 0.06948458 0.00015421
0.01403065 0.06903562 0.00015498
0.01660308 0.0686865 0.00015332
0.02273296 0.06840969 0.00014679
0.0401113 0.07189893 0.00012195
0.06697675 0.07909158 0.00009581
0.10339726 0.08664331 0.00008883
0.15771648 0.09621032 0.00024022
0.22401673 0.10190029 0.00130371
0.30133387 0.10092181 0.00439127
0.38565829 0.09084339 0.00999677
0.47395962 0.07365231 0.01918867
0.56063908 0.05282054 0.0371177
0.63609225 0.04567052 0.06909311
0.70454323 0.05111516 0.10841256
0.76649946 0.05798107 0.13694127
0.80555201 0.06430008 0.15096815
0.82533604 0.0671244 0.15701433
0.835962 0.06812818 0.15919684
0.84497511 0.06882676 0.16071299
0.84716892 0.0689185 0.16091068
0.84780651 0.0689371 0.16095085
0.8484441 0.06895571 0.160991
0.8490817 0.06897433 0.16103116
0.84971923 0.06899294 0.16107132
0.85035688 0.06901155 0.16111147
0.85099465 0.06903017 0.16115156
0.85163242 0.06904878 0.16119157
0.85227025 0.06906739 0.16123159
0.85290807 0.069086 0.1612716
0.85354584 0.06910461 0.16131161
0.01727903 0.08922119 0.00010831
0.01801294 0.08893838 0.00010868
0.01872513 0.08857853 0.00010923
0.01943052 0.08819456 0.00010984
0.02012593 0.08777517 0.00011054
0.02201489 0.08715387 0.00011125
0.03091957 0.0872851 0.0001058
0.05178347 0.09102233 0.00008374
0.09162372 0.10361508 0.00007154
0.14579104 0.11748038 0.00014752
0.21613693 0.13105981 0.00089575
0.30034068 0.13798696 0.00353287
0.38845944 0.13253511 0.0087062
0.47803596 0.11708998 0.01595857
0.56691587 0.09740609 0.02987881
0.64653265 0.08098108 0.05304664
0.71819943 0.06847162 0.08527844
0.77336204 0.06718297 0.12318017
0.80742013 0.06911866 0.14709577
0.82473731 0.06761911 0.15675329
0.835563 0.06865954 0.15901856
0.84461057 0.06936053 0.16054332
0.8473525 0.06949481 0.16083257
0.8479901 0.06951342 0.16087274
0.84862769 0.06953203 0.1609129
0.84926528 0.06955064 0.16095306
0.84990281 0.06956925 0.1609932
0.85054046 0.06958787 0.16103336
0.85117805 0.06960648 0.16107354
0.85181576 0.06962509 0.1611136
0.85245359 0.0696437 0.16115364
0.85309136 0.06966231 0.16119365
0.85372919 0.06968092 0.16123368
0.02690414 0.11419364 0.00008781
0.02751854 0.11388262 0.00008787
0.02809494 0.11347409 0.000088
0.02866581 0.11305138 0.00008815
0.02922026 0.11258651 0.00008832
0.02969851 0.11192617 0.00008864
0.03090094 0.11100557 0.00008896
0.04338628 0.1111539 0.0000804
0.07374634 0.11844929 0.00005853
0.1255306 0.13560818 0.00006634
0.19769697 0.15621954 0.00036527
0.28897542 0.17504698 0.00242806
0.38530308 0.18126726 0.0078352
0.47971532 0.17296451 0.01530143
0.57024401 0.1576203 0.02663798
0.6531114 0.13790189 0.04349854
0.727979 0.11720128 0.0659401
0.79041249 0.09446369 0.0909988
0.82982564 0.08468277 0.11980129
0.84297055 0.08116138 0.14296059
0.8430776 0.07630074 0.15454778
0.8444109 0.07098683 0.16018985
0.84753603 0.07007112 0.16075447
0.84817368 0.07008973 0.16079465
0.84881127 0.07010834 0.1608348
0.84944886 0.07012695 0.16087495
0.85008639 0.07014556 0.16091512
0.85072404 0.07016417 0.16095528
0.85136157 0.07018279 0.16099544
0.85199916 0.0702014 0.1610356
0.85263687 0.07022002 0.16107568
0.8532747 0.07023863 0.16111569
0.85391253 0.07025724 0.1611557
0.04291686 0.14584172 0.00007435
0.04341275 0.14551927 0.00007433
0.04383356 0.14506844 0.00007433
0.04423968 0.14459251 0.00007434
0.04463077 0.14409091 0.00007435
0.04491696 0.14337781 0.00007439
0.04515023 0.14247912 0.0000744
0.04564323 0.14126706 0.00007438
0.06208104 0.14129268 0.00006075
0.10257605 0.15239696 0.00003825
0.17494076 0.17883852 0.00008452
0.26665226 0.20703439 0.00136871
0.36809528 0.22921875 0.0069106
0.46814463 0.23562546 0.01596652
0.56430829 0.22800785 0.0273811
0.65247643 0.21116194 0.03994316
0.73191726 0.18929963 0.05553577
0.79983997 0.16584155 0.07457014
0.84930933 0.14130835 0.09203746
0.8732087 0.11983483 0.10773788
0.87584627 0.10096512 0.12161437
0.87434375 0.0888491 0.13557014
0.86720818 0.08393721 0.14723279
0.85720474 0.07821256 0.15615097
0.85154879 0.07334695 0.15945995
0.84963238 0.07070327 0.16079685
0.85026997 0.07072187 0.16083702
0.8509075 0.07074048 0.16087717
0.8515451 0.0707591 0.16091733
0.85218269 0.07077771 0.1609575
0.85282028 0.07079633 0.16099766
0.85345805 0.07081493 0.16103773
0.85409588 0.07083354 0.16107775
0.06754369 0.18397285 0.001706
0.06791818 0.18363518 0.00162415
0.06816677 0.18313526 0.00152045
0.06844057 0.1826365 0.00143503
0.06874282 0.18211685 0.00138003
0.06888415 0.18138589 0.00129887
0.06885704 0.18043369 0.00119033
0.06859961 0.17917897 0.00104436
0.06865571 0.17745805 0.0008496
0.09007937 0.17762987 0.00039593
0.14921665 0.19767298 0.00011925
0.24241427 0.23420812 0.00059047
0.3403517 0.26608688 0.00461633
0.44087493 0.28865501 0.01399468
0.54232812 0.29466641 0.02669189
0.63817543 0.28695098 0.04025492
0.72436202 0.27056035 0.05321599
0.79972982 0.24799924 0.065666
0.8586266 0.2224209 0.07759038
0.89265168 0.19821781 0.08813343
0.90233409 0.17359462 0.09431086
0.90578556 0.14914006 0.09930963
0.90442801 0.12859242 0.10556747
0.89748597 0.11537021 0.11496551
0.89087176 0.10277432 0.12397999
0.88523149 0.09205474 0.13186161
0.88010722 0.08872344 0.13756853
0.87538159 0.0863146 0.14271587
0.87155563 0.08430672 0.14698458
0.8688572 0.08281145 0.15018481
0.86673802 0.08157948 0.15283617
0.8652997 0.08065711 0.15484223
0.86515296 0.08013382 0.15537643
0.10134059 0.22713116 0.00800661
0.10167638 0.22681195 0.00785773
0.10186713 0.22631235 0.00765639
0.10204736 0.22580135 0.00745069
0.10218467 0.22524384 0.00722724
0.10218737 0.22450766 0.00698652
0.10214439 0.22363211 0.00683219
0.10189653 0.22249259 0.0066423
0.10136586 0.22098868 0.0064033
0.10284609 0.21869408 0.00596323
0.13886152 0.22433849 0.00398234
0.22415622 0.2609877 0.00282287
0.32028681 0.29672003 0.00280409
0.41034505 0.32602286 0.00944339
0.50802559 0.34726498 0.02256884
0.60894573 0.35301733 0.03823725
0.70255387 0.34550732 0.05302474
0.78584611 0.32979181 0.06577045
0.85403121 0.30906254 0.07609341
0.89745629 0.28617427 0.08311231
0.91736299 0.26255721 0.08671213
0.92575568 0.23995933 0.08879649
0.92949247 0.21862517 0.09014192
0.9261604 0.20010695 0.09183599
0.92241466 0.18424404 0.09434997
0.91942918 0.17113367 0.09643137
0.91680467 0.15934773 0.09833009
0.91455495 0.1489231 0.10002136
0.91290987 0.14068456 0.10136483
0.91192132 0.13481967 0.10233068
0.91115803 0.13132572 0.10371718
0.91071749 0.12943359 0.1050717
0.91068292 0.12832186 0.10595325
0.14699654 0.27599633 0.02708885
0.14734875 0.27573335 0.02693428
0.14753842 0.27529651 0.0267118
0.14770684 0.27483687 0.02648041
0.1478533 0.27435371 0.02623986
0.14781597 0.27367386 0.02592248
0.14759415 0.27279654 0.02552799
0.14713478 0.27166495 0.02503422
0.14632848 0.27016211 0.02439545
0.1450683 0.26817319 0.02356706
0.15132773 0.26541805 0.02140214
0.21435995 0.28861865 0.01746162
0.31004968 0.3298099 0.01147778
0.39116594 0.3578018 0.00832887
0.47373563 0.38395196 0.01592828
0.56911469 0.40381861 0.03219753
0.66711104 0.40978742 0.04945217
0.75880778 0.40311268 0.06475283
0.83623773 0.38858062 0.07698651
0.89127237 0.37047702 0.08463893
0.92131239 0.35050714 0.08799273
0.93496925 0.33053407 0.08882213
0.94227123 0.31235558 0.08869341
0.9422586 0.29629061 0.0880618
0.94072533 0.28200573 0.08841184
0.93953884 0.27041078 0.08874437
0.93855625 0.2601136 0.08904126
0.93777537 0.25114802 0.08932091
0.93730098 0.24415414 0.08955494
0.93715405 0.23923442 0.08972777
0.93717325 0.23536684 0.08986956
0.93736106 0.23256759 0.08997983
0.93771535 0.23082271 0.090059
0.20208482 0.33462441 0.05274716
0.20241682 0.33434492 0.05258528
0.20252958 0.33383232 0.05231909
0.20264138 0.33331877 0.05205243
0.20271268 0.33276215 0.05176652
0.20259264 0.33200213 0.05138956
0.20225228 0.3310079 0.05090776
0.20162442 0.32970804 0.05028918
0.20064397 0.32802957 0.04949074
0.1991488 0.32580277 0.04844371
0.19697008 0.32284895 0.04707003
0.22050512 0.32550994 0.04310321
0.30238962 0.36243609 0.03652244
0.38474882 0.39381662 0.02251984
0.45235783 0.41480675 0.01494545
0.53034431 0.43836454 0.02365771
0.62294763 0.4583281 0.04146674
0.71877789 0.46592742 0.05881035
0.80617732 0.46142295 0.07226195
0.87381041 0.44917455 0.08152828
0.91540486 0.43286958 0.08714977
0.93519545 0.41552538 0.08961251
0.94504172 0.39996383 0.09080695
0.94774866 0.38646808 0.09146436
0.9479627 0.37446102 0.0912945
0.94796699 0.36477849 0.09091201
0.94804561 0.35624227 0.09057672
0.9481985 0.34885123 0.09028862
0.94845635 0.34311989 0.09007052
0.94882631 0.33911523 0.08992344
0.94925135 0.33595872 0.08981118
0.94973475 0.33369839 0.08973571
0.95027328 0.33228615 0.08969505
0.25357029 0.39271134 0.07843722
0.25399983 0.39249918 0.07830835
0.2542634 0.39208815 0.07809253
0.25451541 0.39166328 0.07787065
0.25474548 0.39121211 0.07763727
0.25483078 0.39058742 0.07732806
0.25471172 0.38974828 0.07692314
0.25437897 0.38865471 0.0764069
0.25375456 0.38721335 0.0757385
0.25275999 0.38533053 0.07487696
0.25126147 0.3828468 0.07375253
0.25146437 0.37932876 0.07194242
0.30147785 0.39546573 0.06741069
0.38173917 0.43028829 0.05671031
0.44725552 0.45164686 0.03393137
0.50666082 0.46829027 0.02177115
0.58107424 0.49023151 0.03016469
0.6706742 0.51070768 0.04737711
0.76470703 0.52118921 0.06247901
0.8470037 0.52033097 0.0735961
0.90229946 0.51070046 0.08055907
0.92885947 0.49614951 0.08425242
0.93957162 0.48270842 0.08614472
0.94462252 0.47064105 0.08755869
0.94566548 0.46034342 0.08810916
0.94659621 0.45210341 0.08849638
0.94748998 0.44486591 0.08883791
0.94834638 0.43864939 0.08913293
0.94915026 0.43383035 0.08936465
0.94990063 0.43045887 0.08953052
0.95062399 0.42782697 0.08966266
0.95132083 0.42591965 0.08976176
0.95199114 0.42473581 0.08982786
0.29316613 0.44412139 0.10124715
0.29371327 0.44397977 0.10114794
0.29419079 0.44370851 0.10098816
0.29463783 0.44341522 0.10081774
0.29503638 0.44307607 0.10062547
0.29536977 0.44261771 0.10037745
0.2956315 0.44202819 0.10006812
0.2958062 0.44127938 0.09968434
0.29584941 0.44028994 0.09918807
0.29572898 0.43900093 0.09855178
0.29537883 0.43729174 0.09771904
0.29472777 0.43503174 0.09662882
0.31091151 0.43468758 0.09387968
0.37066802 0.45784804 0.08802405
0.43831241 0.48383778 0.06928147
0.49507686 0.50001675 0.03834145
0.55174011 0.51516289 0.02326842
0.6265468 0.53767872 0.03386029
0.71513057 0.56004107 0.05003941
0.80870658 0.57478309 0.06245733
0.88220584 0.57872152 0.07041709
0.91654539 0.5714919 0.07470334
0.93155682 0.56136304 0.0772922
0.93903726 0.5511018 0.0789233
0.94029492 0.54202735 0.07990661
0.94142562 0.53477985 0.0806938
0.94249368 0.52843612 0.08138399
0.94349867 0.52299827 0.08197693
0.94441628 0.51880056 0.08243617
0.94524693 0.51585352 0.08276114
0.94603312 0.51354796 0.0830173
0.94677472 0.51188582 0.08320443
0.94747305 0.51084876 0.0833245
0.31507799 0.48493356 0.12031849
0.31563565 0.48481148 0.12022842
0.31611878 0.48455068 0.12007353
0.3166016 0.48428926 0.11991833
0.31706864 0.48399848 0.11974943
0.31747693 0.48359829 0.11952938
0.31782651 0.48308867 0.11925821
0.31808543 0.48241028 0.11890818
0.31823733 0.48153257 0.11846501
0.31823468 0.48036695 0.11788728
0.3180292 0.47882345 0.11713299
0.31753698 0.47677374 0.11614186
0.31672764 0.47422406 0.11491622
0.35404176 0.48031491 0.11041726
0.4183867 0.5060122 0.09996799
0.48095161 0.52849489 0.07026163
0.53553766 0.54310602 0.03252044
0.59417212 0.55919373 0.02309322
0.66982406 0.58340412 0.03546515
0.76025283 0.60947961 0.04912039
0.8474533 0.62882352 0.05815698
0.8993181 0.63355964 0.06310789
0.92204726 0.62871796 0.06584634
0.93231928 0.62069684 0.06763273
0.93437916 0.61343032 0.06886789
0.93552196 0.60766089 0.06984002
0.93659949 0.60263926 0.07068758
0.93760765 0.59831148 0.07141669
0.9385187 0.59496886 0.07197805
0.93934369 0.59263837 0.07237153
0.94012493 0.59082252 0.07267963
0.94086373 0.58950508 0.07290506
0.94156003 0.58868682 0.07304769
0.32039154 0.52156931 0.13353509
0.32104817 0.52140826 0.13345276
0.32168826 0.52112967 0.13332814
0.32232714 0.52084213 0.1332003
0.32296345 0.5205363 0.13306589
0.32358578 0.52013117 0.1328958
0.32419547 0.51963615 0.13269338
0.32478738 0.51901466 0.1324455
0.3253527 0.51820409 0.13212959
0.32586303 0.5171867 0.13173456
0.32625893 0.51589882 0.13122813
0.32658887 0.51420206 0.13057309
0.32685572 0.51211387 0.12977585
0.33811155 0.50879371 0.12757915
0.39052823 0.52255797 0.11975803
0.45486635 0.54809594 0.10142387
0.51688892 0.57050163 0.05901861
0.57403731 0.58649129 0.02396565
0.63635814 0.60455221 0.02230455
0.7153852 0.63092601 0.03468432
0.80477983 0.65974569 0.0452309
0.87685001 0.67919105 0.05067243
0.91197455 0.68274343 0.05318005
0.92566109 0.67867821 0.05487334
0.9294613 0.67322665 0.05621753
0.93047857 0.66887617 0.0572466
0.9314425 0.66507787 0.05814586
0.93233925 0.66179341 0.05892321
0.93317711 0.65926254 0.05952437
0.93395424 0.65750784 0.05994399
0.93470234 0.65612417 0.06027686
0.93541962 0.65513521 0.06051745
0.93610811 0.6545155 0.06067164
0.30992237 0.57095879 0.14329612
0.3107307 0.57072496 0.14324556
0.31159547 0.57031244 0.14316826
0.31246054 0.56989902 0.14309078
0.31333855 0.56944472 0.14300723
0.3142561 0.56886524 0.14290489
0.31521744 0.56814718 0.14278179
0.31613287 0.56728566 0.14260966
0.31708685 0.56620592 0.14239562
0.318147 0.56476974 0.14212622
0.31933796 0.5628944 0.1417886
0.32070822 0.56041735 0.14135757
0.32223785 0.55740523 0.14084341
0.32396793 0.55390751 0.14026862
0.35927245 0.55047107 0.13475113
0.42056867 0.56700939 0.11940982
0.48537958 0.59151024 0.08485663
0.5492909 0.61403966 0.03551291
0.61241299 0.63325232 0.0142699
0.68095446 0.6563738 0.02039756
0.76489091 0.68685329 0.03081779
0.85056424 0.71717823 0.0375817
0.90017784 0.73057657 0.04032565
