site/assets/luts/freshluts--0001242-lut.cube
# LUTr-Schema-Version: 2
# LUTr-ID: freshluts--0001242-lut
# LUTr-Title: Lut
# LUTr-Collection: Fresh LUTs
# LUTr-Collection-ID: freshluts-community
# LUTr-Source: https://freshluts.com
# LUTr-Retrieved: 2026-07-27
# LUTr-Source-File: submissions-raw/freshluts/cubes/1242__red.violet.hue.cube
# LUTr-Source-Format: CUBE
# LUTr-Source-SHA256: 9b3e65aa310fd48dd7c0640e4b0fb668361823954d19b91a41ec985456a6cdfe
# LUTr-License: CC0-1.0
# LUTr-License-URL: https://freshluts.com/termsandconditions
# LUTr-License-Basis: site-terms
# LUTr-Transform-Class: creative-look
# LUTr-Tags: creative, freshluts, community, cube, red, low-key, sony-s-log3
# LUTr-Input-Color-Space:
# LUTr-Input-Gamut: sony-s-gamut3
# LUTr-Input-Transfer: sony-s-log3
# LUTr-Output-Color-Space: srgb
# LUTr-Output-Gamut: rec709
# LUTr-Output-Transfer: srgb
# LUTr-Color-Space-Confidence: camera-profile-input-required
# LUTr-Domain-Normalized: true
# LUTr-Shaper: none
# LUTr-Original-Grid: 16x16x16
# LUTr-Conversion-Grid: 16x16x16
# LUTr-Conversion-Interpolation: none
# LUTr-Conversion-Method: Metadata normalization; numeric LUT samples preserved
# LUTr-Conversion-Tool: LUTr scripts/convert-all-to-cube.mjs 2.0.0
# LUTr-Conversion-Date: 2026-07-28
# LUTr-Asset-URL: https://freshluts.com/luts/1242
# LUTr-Author: lvannoeun@gmail.com
# LUTr-Author-URL: https://freshluts.com/users/57563
# LUTr-Attribution: lvannoeun@gmail.com via Fresh LUTs
# LUTr-Source-Labels: gamma=Sony S-Log 3; color=Red; key=Low Key; style=Drama
# LUTr-Note: Preserve this metadata and the upstream license notices when redistributing.
TITLE "Lut"
LUT_3D_SIZE 6
DOMAIN_MIN 0 0 0
DOMAIN_MAX 1 1 1
0 0 0
0.154616 -0.019558 -0.019558
0.400179 -0.042332 -0.042332
0.652966 -0.065267 -0.065267
0.875582 -0.085237 -0.085237
0.988514 -0.098154 -0.098154
-0.024025 0.15317 -0.024025
0.153447 0.153031 -0.034241
0.399748 0.167905 -0.051518
0.652675 0.170485 -0.071143
0.875429 0.1605 -0.089184
0.98846 0.136457 -0.10082
-0.054235 0.39015 -0.054235
0.166554 0.390168 -0.059819
0.397406 0.389943 -0.075862
0.651252 0.401089 -0.092249
0.874475 0.389817 -0.105179
0.988122 0.352146 -0.112357
-0.08467 0.633919 -0.08467
0.165483 0.633941 -0.088053
0.406532 0.633921 -0.100299
0.648402 0.63349 -0.11776
0.872541 0.618226 -0.129685
0.987574 0.563113 -0.131941
-0.111152 0.848608 -0.111152
0.149195 0.848599 -0.113388
0.39237 0.848643 -0.122151
0.63013 0.848516 -0.136847
0.869492 0.848049 -0.154225
0.986605 0.774834 -0.155659
-0.128205 0.987672 -0.128205
0.116395 0.987694 -0.129718
0.350996 0.987761 -0.135867
0.571441 0.987746 -0.146956
0.791742 0.987506 -0.16164
0.985219 0.987222 -0.177751
0.017714 0.023917 0.097152
0.129921 0.044293 0.119227
0.400158 -0.04335 0.155498
0.652939 -0.065883 0.158871
0.875556 -0.085637 0.148112
0.988505 -0.098415 0.121117
0.038399 0.1505 0.13614
0.152281 0.153018 0.139233
0.413032 0.141349 0.128525
0.678931 0.107001 0.098042
0.902129 0.071527 0.066753
0.997077 0.044477 0.04391
-0.049608 0.390002 0.153721
0.098949 0.394897 0.099359
0.396593 0.391618 0.076117
0.665038 0.391027 0.046295
0.893822 0.372823 -0.029426
0.996055 0.333812 -0.068287
-0.082227 0.633837 0.153857
0.047924 0.637806 0.059457
0.382518 0.637709 -0.041565
0.647925 0.634941 -0.087308
0.88026 0.614713 -0.107194
0.992613 0.558159 -0.11087
-0.109627 0.84853 0.137384
-0.053225 0.851606 0.009917
0.358738 0.852203 -0.101292
0.619313 0.851133 -0.121145
0.869232 0.84924 -0.142668
0.988782 0.774269 -0.143961
-0.127242 0.987712 0.101417
0.116119 0.987631 0.09894
0.350873 0.987704 0.093071
0.571364 0.987707 0.08047
0.791656 0.98748 0.058182
0.985209 0.987202 0.010762
0.070814 0.080448 0.300342
0.153446 0.10026 0.302598
0.327984 0.148331 0.331446
0.64255 0.048567 0.416814
0.87545 -0.087984 0.408402
0.98851 -0.1 0.366076
0.122105 0.177165 0.318576
0.168745 0.170526 0.32736
0.346953 0.20036 0.351431
0.673324 0.108878 0.423444
0.900379 0.066878 0.401653
0.996879 0.040378 0.357372
0.178917 0.380461 0.390284
0.210998 0.38396 0.396312
0.400032 0.389948 0.395623
0.665883 0.381509 0.402346
0.901099 0.36871 0.391038
0.997812 0.361588 0.384063
0.004086 0.633027 0.419124
0.063347 0.636767 0.404953
0.354577 0.640089 0.379852
0.646435 0.635439 0.371346
0.889904 0.612466 0.35818
0.996686 0.567601 0.358517
-0.098253 0.848245 0.404868
0.009641 0.851189 0.384318
0.294161 0.858723 0.335912
0.595969 0.856715 0.317422
0.867632 0.851798 0.299532
0.993365 0.778629 0.30401
-0.120468 0.987462 0.360741
0.121155 0.987488 0.360132
0.387176 0.987511 0.397103
0.587974 0.987462 0.394794
0.798191 0.987518 0.391269
0.985125 0.987038 0.386823
0.141874 0.147181 0.509979
0.201274 0.159269 0.510821
0.350122 0.201728 0.51869
0.537774 0.253713 0.553643
0.801735 0.219557 0.623065
0.988233 -0.100771 0.605682
0.177702 0.21758 0.520196
0.205224 0.204971 0.543019
0.364049 0.236351 0.547638
0.556975 0.279187 0.575245
0.825649 0.236868 0.637637
0.996308 0.03073 0.612495
0.279246 0.398348 0.569118
0.293755 0.396261 0.580452
0.41577 0.404008 0.578439
0.587857 0.430944 0.598534
0.854178 0.402081 0.657225
0.997803 0.358323 0.627495
0.326916 0.617515 0.650801
0.338603 0.61997 0.654986
0.458476 0.625343 0.661802
0.65686 0.633433 0.656863
0.885029 0.626955 0.683089
0.995946 0.620651 0.677854
0.15762 0.844127 0.667545
0.165968 0.846951 0.662912
0.318123 0.854987 0.654338
0.61957 0.85342 0.668545
0.866263 0.84977 0.66155
0.992293 0.799836 0.657802
-0.098701 0.987122 0.602147
0.133786 0.987061 0.601867
0.390603 0.987115 0.619199
0.644814 0.98708 0.678795
0.821648 0.987109 0.67729
0.985106 0.98692 0.675075
0.205926 0.206234 0.694869
0.248059 0.214224 0.695241
0.373017 0.245016 0.698701
0.53426 0.295406 0.711586
0.722901 0.346553 0.749562
0.900132 0.31139 0.758072
0.230561 0.256784 0.701425
0.251741 0.24798 0.723653
0.382163 0.273046 0.725901
0.548796 0.315937 0.737108
0.739268 0.362588 0.768223
0.917859 0.325114 0.77307
0.317598 0.411359 0.732821
0.327745 0.408212 0.750382
0.437757 0.423919 0.753656
0.587289 0.450156 0.760384
0.766596 0.481251 0.791118
0.937494 0.455805 0.798533
0.418725 0.606679 0.79838
0.426807 0.606803 0.805589
0.513833 0.615088 0.813566
0.669831 0.644473 0.814599
0.816276 0.666653 0.828998
0.957478 0.658155 0.843412
0.456653 0.82642 0.880163
0.463611 0.828322 0.883417
0.532174 0.834589 0.893006
0.709887 0.839019 0.893872
0.88294 0.848058 0.887982
0.971869 0.857367 0.904628
0.278545 0.978653 0.843478
0.314817 0.97895 0.843507
0.463745 0.980217 0.850803
0.674346 0.98229 0.875595
0.880355 0.984039 0.924703
0.985043 0.986596 0.923505
0.246191 0.243326 0.810742
0.275958 0.24883 0.810831
0.374049 0.270924 0.812202
0.510751 0.309553 0.818966
0.668233 0.356875 0.839647
0.856519 0.393016 0.889122
0.26296 0.278714 0.815333
0.290584 0.283065 0.815292
0.384812 0.302232 0.816308
0.518384 0.336704 0.822537
0.673462 0.380351 0.84264
0.859932 0.414356 0.891693
0.32891 0.401837 0.837711
0.351359 0.404597 0.83738
0.46 0.44318 0.842276
0.57222 0.465213 0.845577
0.709143 0.495965 0.861508
0.880325 0.521799 0.907245
0.420731 0.569048 0.886116
0.439406 0.570656 0.885306
0.530851 0.592784 0.886826
0.684147 0.655639 0.898969
0.78893 0.675205 0.90482
0.922613 0.693874 0.940511
0.489258 0.758592 0.962261
0.507049 0.759284 0.96213
0.592674 0.769633 0.962924
0.73927 0.799988 0.966064
0.89407 0.854749 0.972808
0.967952 0.869209 0.982677
0.454723 0.969326 1.039225
0.475852 0.969705 1.039513
0.574167 0.971558 1.041014
0.736507 0.975591 1.044123
0.906741 0.981225 1.047724
0.990522 0.986632 1.045464
