site/assets/luts/freshluts--0000216-golden-gate.cube
# LUTr-Schema-Version: 2
# LUTr-ID: freshluts--0000216-golden-gate
# LUTr-Title: GOLDEN GATE
# LUTr-Collection: Fresh LUTs
# LUTr-Collection-ID: freshluts-community
# LUTr-Source: https://freshluts.com
# LUTr-Retrieved: 2026-07-27
# LUTr-Source-File: submissions-raw/freshluts/cubes/216__GoldenGate.cube
# LUTr-Source-Format: CUBE
# LUTr-Source-SHA256: 9d780d4def106ea5ead3573d30d6d133be6a2b774b9ca63ff5c65f880215770e
# LUTr-License: CC0-1.0
# LUTr-License-URL: https://freshluts.com/termsandconditions
# LUTr-License-Basis: site-terms
# LUTr-Transform-Class: creative-look
# LUTr-Tags: creative, freshluts, community, cube, warm, rec709
# LUTr-Input-Color-Space: rec709
# LUTr-Input-Gamut: rec709
# LUTr-Input-Transfer: rec709
# LUTr-Output-Color-Space: srgb
# LUTr-Output-Gamut: rec709
# LUTr-Output-Transfer: srgb
# LUTr-Color-Space-Confidence: declared-by-source
# LUTr-Domain-Normalized: true
# LUTr-Shaper: none
# LUTr-Original-Grid: 16x16x16
# LUTr-Conversion-Grid: 16x16x16
# LUTr-Conversion-Interpolation: none
# LUTr-Conversion-Method: Metadata normalization; numeric LUT samples preserved
# LUTr-Conversion-Tool: LUTr scripts/convert-all-to-cube.mjs 2.0.0
# LUTr-Conversion-Date: 2026-07-28
# LUTr-Asset-URL: https://freshluts.com/luts/216
# LUTr-Author: Andy
# LUTr-Author-URL: https://freshluts.com/users/1003
# LUTr-Attribution: Andy via Fresh LUTs
# LUTr-Source-Labels: gamma=Rec 709; color=Warm; key=Neutral; style=Retro
# LUTr-Note: Preserve this metadata and the upstream license notices when redistributing.
TITLE "GOLDEN GATE"
LUT_3D_SIZE 16
DOMAIN_MIN 0 0 0
DOMAIN_MAX 1 1 1
0.022547 0.032952 0.033465
0.052516 0.032006 0.048699
0.104104 0.030175 0.009146
0.169205 0.028619 0.002439
0.238395 0.024478 0.000403
0.303347 0.019038 0.00003
0.36311 0.013593 0.000001
0.415898 0.009499 0
0.466163 0.005478 0
0.512093 0.001883 0
0.540735 0.001288 0
0.553717 0.001678 0
0.56347 0.002363 0
0.570959 0.002973 0
0.576478 0.002943 0
0.58039 0.002266 0
0.025377 0.054265 0.034659
0.057682 0.056881 0.023066
0.114484 0.05795 0.009395
0.180097 0.058504 0.002541
0.248501 0.058274 0.000367
0.317196 0.056032 0.000002
0.379701 0.050459 0
0.434475 0.042404 0
0.486432 0.032903 0
0.535369 0.023657 0
0.565494 0.020608 0
0.584409 0.020514 0
0.595684 0.022204 0
0.604697 0.024277 0
0.613218 0.026193 0
0.619978 0.02521 0
0.025957 0.082455 0.033617
0.06377 0.087422 0.019899
0.123045 0.094352 0.007636
0.191653 0.099765 0.001633
0.259868 0.102875 0.000149
0.326774 0.102136 0.000013
0.390161 0.098229 0
0.450446 0.091304 0
0.504989 0.079962 0
0.555351 0.066222 0
0.588998 0.05984 0
0.611732 0.060501 0
0.626322 0.06602 0
0.636256 0.069457 0
0.6439 0.070925 0
0.650448 0.069952 0
0.0326 0.109492 0.02808
0.076321 0.116985 0.01418
0.137976 0.127957 0.005815
0.196266 0.136521 0.002867
0.261681 0.143412 0.000881
0.331439 0.145173 0.000155
0.397596 0.143001 0.000003
0.461468 0.137422 0
0.518199 0.127832 0
0.570033 0.114752 0
0.608162 0.106057 0
0.633043 0.105397 0
0.649098 0.10998 0
0.658477 0.111397 0
0.665101 0.109539 0
0.671239 0.106632 0
0.054058 0.1354 0.020837
0.097389 0.14568 0.012298
0.155727 0.158478 0.005615
0.212233 0.169519 0.003567
0.265123 0.17806 0.001961
0.333736 0.182767 0.000646
0.403534 0.183438 0.000069
0.470441 0.179572 0.000001
0.52844 0.170735 0
0.581348 0.158141 0
0.623406 0.14786 0
0.650794 0.145814 0
0.66736 0.149311 0
0.677094 0.149878 0
0.684018 0.146706 0
0.690335 0.141523 0
0.079343 0.162136 0.015344
0.125607 0.174743 0.008664
0.176533 0.188352 0.004544
0.229716 0.201228 0.00285
0.280288 0.210853 0.001845
0.338307 0.218625 0.000918
0.407555 0.22275 0.000174
0.477289 0.221654 0.000013
0.536968 0.214973 0
0.59092 0.202525 0
0.636269 0.190849 0
0.667655 0.187794 0
0.685659 0.191777 0
0.696187 0.192876 0
0.703492 0.189085 0
0.709475 0.17993 0
0.109058 0.192495 0.01129
0.155921 0.206416 0.005421
0.199532 0.220718 0.003625
0.241581 0.232868 0.002434
0.29408 0.244674 0.001575
0.35015 0.256087 0.000813
0.410852 0.263968 0.000265
0.480617 0.266892 0.000036
0.54203 0.263179 0
0.598205 0.253087 0
0.647147 0.241275 0
0.683136 0.236915 0
0.703855 0.242114 0
0.716067 0.246336 0
0.724582 0.244072 0
0.730933 0.232155 0
0.13873 0.22796 0.007961
0.192835 0.24464 0.003821
0.234652 0.259523 0.002138
0.263142 0.269031 0.00171
0.301701 0.280196 0.001443
0.357862 0.294932 0.000631
0.418344 0.306813 0.000225
0.483631 0.316195 0.000037
0.543961 0.316481 0
0.600974 0.309215 0
0.653005 0.297261 0
0.695219 0.29005 0
0.720732 0.295573 0
0.735799 0.303502 0
0.747169 0.306324 0
0.756461 0.301779 0
0.171768 0.270332 0.006191
0.235489 0.288316 0.001956
0.28327 0.303052 0.000963
0.31336 0.313045 0.00082
0.325946 0.32067 0.000868
0.361156 0.333659 0.000424
0.424225 0.349636 0.000144
0.490799 0.364664 0.000015
0.546234 0.371121 0
0.603327 0.368769 0
0.657104 0.359179 0
0.705323 0.350041 0
0.736817 0.35616 0
0.755533 0.36831 0
0.769864 0.375693 0
0.782769 0.377843 0
0.210296 0.314903 0.003009
0.277109 0.332246 0.000743
0.319004 0.344062 0.000426
0.343057 0.353828 0.000291
0.352105 0.362082 0.000231
0.370797 0.372816 0.000097
0.428433 0.390007 0.000049
0.497753 0.409038 0.000002
0.555235 0.420433 0
0.612095 0.422704 0
0.66584 0.416474 0
0.715754 0.408783 0
0.752274 0.417472 0
0.775248 0.436039 0
0.791019 0.445187 0
0.802007 0.437968 0
0.244321 0.351797 0.000733
0.314622 0.369449 0.000256
0.341433 0.378819 0.00014
0.347121 0.385453 0.000116
0.357242 0.396045 0.000038
0.38161 0.408706 0.000019
0.439869 0.427794 0.00001
0.503145 0.447181 0.000001
0.564688 0.462326 0.000026
0.622704 0.467538 0.000012
0.675496 0.465486 0.000004
0.724976 0.460994 0.000001
0.764794 0.470664 0
0.791207 0.493053 0
0.807221 0.504543 0
0.816943 0.490724 0
0.263628 0.373185 0.000324
0.309991 0.387445 0.000162
0.327777 0.395773 0.000111
0.332765 0.404692 0.000095
0.348467 0.425317 0.0001
0.387173 0.447517 0.000692
0.45039 0.468657 0.00044
0.508824 0.485362 0.000242
0.572398 0.497737 0.000085
0.631263 0.502368 0.000021
0.68459 0.501931 0.000005
0.733058 0.497329 0.000001
0.773281 0.503928 0
0.800412 0.527041 0
0.816626 0.540562 0
0.823453 0.512425 0
0.25818 0.381628 0.000175
0.297957 0.395396 0.000101
0.317027 0.404813 0.00007
0.325757 0.414256 0.000054
0.346207 0.440994 0.000094
0.395122 0.472956 0.000772
0.459092 0.500458 0.000443
0.518857 0.518881 0.000257
0.583693 0.529127 0.000072
0.641001 0.523147 0.000006
0.692606 0.515452 0
0.739088 0.506391 0
0.776411 0.504312 0
0.80344 0.533109 0
0.819816 0.548658 0
0.823106 0.502311 0
0.242097 0.381022 0.000093
0.276152 0.398664 0.000068
0.303054 0.410517 0.000041
0.323612 0.422907 0.000019
0.353667 0.448986 0.000012
0.408115 0.484014 0.000254
0.468947 0.517069 0.000227
0.530954 0.547465 0.000139
0.592209 0.556638 0.000043
0.652168 0.546589 0.000005
0.698209 0.519257 0
0.741984 0.50423 0
0.778462 0.500323 0
0.803484 0.521786 0
0.81886 0.532789 0
0.829542 0.524094 0
0.25142 0.380669 0.000033
0.273679 0.399914 0.000029
0.296765 0.417823 0.000017
0.322969 0.435723 0.000005
0.359455 0.458312 0.000005
0.41292 0.483803 0.000062
0.473709 0.513978 0.000071
0.536421 0.543501 0.000033
0.595766 0.557261 0.000008
0.656254 0.554052 0
0.704526 0.53407 0
0.749682 0.526004 0
0.788199 0.530616 0
0.809857 0.531571 0
0.827205 0.556771 0
0.838102 0.559028 0
0.297356 0.387832 0.000001
0.315658 0.403554 0.000001
0.319958 0.408656 0.000001
0.33516 0.419124 0
0.361798 0.432833 0
0.410876 0.449523 0
0.464882 0.462224 0
0.526868 0.48276 0
0.595564 0.501289 0
0.661842 0.51477 0
0.719409 0.522188 0
0.767658 0.526876 0
0.801763 0.543385 0
0.822368 0.568216 0.000001
0.833286 0.575537 0
0.8497 0.619192 0.000086
0.017346 0.035429 0.061146
0.046832 0.036083 0.051785
0.099343 0.034266 0.034774
0.158159 0.03241 0.019675
0.217017 0.029084 0.009994
0.277074 0.023392 0.004129
0.334685 0.016471 0.001355
0.385242 0.010813 0.00036
0.435131 0.0059 0.00005
0.485527 0.001834 0.000008
0.522683 0.000742 0.000002
0.545346 0.000742 0
0.558318 0.001143 0
0.567621 0.001649 0
0.574421 0.00186 0
0.577726 0.001575 0
0.019966 0.056616 0.071037
0.046646 0.05848 0.05958
0.099003 0.058727 0.039904
0.157966 0.058478 0.022409
0.21867 0.056996 0.010658
0.282279 0.053743 0.004047
0.345164 0.048119 0.001091
0.401885 0.041809 0.000126
0.45626 0.034939 0.000024
0.50991 0.025646 0.000007
0.547031 0.020904 0.000002
0.571794 0.019363 0
0.584971 0.019854 0
0.594926 0.021535 0
0.60474 0.024015 0
0.613031 0.024551 0
0.017693 0.087814 0.077972
0.047738 0.091736 0.063522
0.099789 0.095511 0.044054
0.161173 0.098382 0.025381
0.224777 0.099876 0.011778
0.29084 0.098406 0.004321
0.356054 0.094812 0.00094
0.419566 0.09003 0.0001
0.476426 0.082177 0.000026
0.53096 0.069582 0.000006
0.571595 0.06062 0.000001
0.599147 0.057411 0
0.615555 0.060078 0
0.626324 0.063147 0
0.635251 0.066038 0
0.643596 0.068115 0
0.021844 0.117696 0.077908
0.053105 0.123858 0.063356
0.109874 0.12994 0.043443
0.163971 0.136001 0.029233
0.22602 0.141596 0.015693
0.296675 0.143224 0.006514
0.365577 0.14172 0.001504
0.43296 0.137655 0.000185
0.491941 0.131086 0.000037
0.547291 0.119003 0.000007
0.591176 0.108435 0.000001
0.621617 0.104248 0
0.640224 0.10694 0
0.651055 0.109166 0
0.659024 0.109268 0
0.666995 0.109566 0
0.034316 0.147369 0.072361
0.069966 0.153286 0.059246
0.124531 0.16121 0.040783
0.177781 0.17004 0.029545
0.228507 0.177317 0.020026
0.298573 0.182459 0.01016
0.371929 0.184206 0.003051
0.442947 0.181535 0.000345
0.503238 0.175725 0.000058
0.558865 0.164864 0.00001
0.606026 0.153426 0.000002
0.64006 0.147925 0
0.66025 0.150257 0
0.672254 0.152271 0
0.680523 0.151238 0
0.688166 0.14841 0
0.054812 0.176889 0.064204
0.094674 0.182842 0.050666
0.141921 0.192449 0.036877
0.193213 0.20303 0.027151
0.243022 0.211568 0.019562
0.301839 0.219631 0.012853
0.374937 0.225425 0.005433
0.450041 0.225734 0.001152
0.512898 0.221184 0.000113
0.569497 0.211045 0.000014
0.619442 0.199375 0.000003
0.65777 0.192869 0
0.68042 0.195776 0
0.693863 0.198839 0
0.702826 0.197996 0
0.71033 0.192666 0
0.080939 0.207786 0.055275
0.119239 0.214638 0.042633
0.161484 0.226406 0.033344
0.204723 0.236878 0.025531
0.25739 0.247819 0.018679
0.313932 0.25919 0.013211
0.377928 0.268266 0.008328
0.453896 0.273067 0.003079
0.51933 0.271078 0.00074
0.57721 0.263267 0.000085
0.629894 0.252101 0.00001
0.673513 0.244646 0.000001
0.699959 0.248889 0
0.715623 0.254809 0
0.726165 0.255407 0
0.734551 0.248919 0
0.104381 0.241353 0.046486
0.144672 0.250942 0.036294
0.186214 0.263952 0.027271
0.219637 0.273533 0.022121
0.26715 0.285665 0.017316
0.324557 0.300159 0.011966
0.38846 0.312995 0.008227
0.45878 0.323882 0.004102
0.523892 0.325648 0.001424
0.583221 0.320411 0.00029
0.637949 0.310563 0.000056
0.686907 0.302793 0.00001
0.718405 0.308199 0.000001
0.73713 0.317833 0
0.750457 0.322712 0
0.761835 0.320973 0
0.133959 0.280493 0.036843
0.173478 0.291041 0.027934
0.213504 0.30367 0.019679
0.250265 0.314928 0.016431
0.285907 0.326012 0.013823
0.333282 0.340333 0.010291
0.399931 0.356977 0.006916
0.470484 0.372762 0.003281
0.530216 0.379719 0.001486
0.589784 0.378774 0.000366
0.645254 0.371381 0.000093
0.698121 0.364244 0.000019
0.735488 0.37049 0.000002
0.757599 0.383487 0
0.77309 0.392277 0
0.787159 0.396188 0
0.167607 0.324338 0.027302
0.206469 0.335197 0.018907
0.243441 0.346304 0.014463
0.274095 0.356923 0.01255
0.306812 0.368502 0.010248
0.34255 0.381164 0.008285
0.405684 0.399163 0.005517
0.478577 0.418745 0.002165
0.540612 0.430692 0.000994
0.599506 0.433775 0.000292
0.654856 0.42949 0.00009
0.708297 0.424192 0.00002
0.750912 0.431419 0.000001
0.776612 0.448551 0
0.793233 0.458953 0
0.806482 0.458902 0
0.202625 0.365626 0.016293
0.24664 0.379043 0.011421
0.271944 0.387793 0.009775
0.284618 0.393909 0.009882
0.312574 0.404851 0.007856
0.354918 0.419374 0.005819
0.418095 0.438989 0.003459
0.483586 0.458391 0.001345
0.55 0.474995 0.000583
0.609881 0.481353 0.000204
0.664457 0.480917 0.000074
0.717029 0.477814 0.000017
0.762878 0.48553 0.000001
0.792407 0.506593 0
0.809631 0.520519 0
0.821242 0.513542 0
0.233831 0.402288 0.010132
0.288318 0.418698 0.005553
0.304377 0.425535 0.00495
0.308755 0.429672 0.00531
0.324448 0.43763 0.004889
0.369533 0.453785 0.003768
0.435687 0.475454 0.001754
0.494821 0.493878 0.000834
0.557974 0.510884 0.000363
0.61815 0.518952 0.000126
0.673395 0.521518 0.000042
0.724638 0.518859 0.000008
0.770594 0.522083 0.000001
0.801629 0.54404 0
0.820337 0.565497 0
0.831473 0.553308 0
0.233326 0.418858 0.00695
0.288811 0.436495 0.00327
0.311646 0.446063 0.002314
0.319853 0.451341 0.002329
0.336172 0.459834 0.002456
0.381098 0.480823 0.002072
0.446548 0.508996 0.001072
0.506506 0.529786 0.000711
0.569205 0.546203 0.000294
0.627448 0.549547 0.000071
0.682324 0.550139 0.000014
0.733002 0.544894 0.000002
0.775884 0.536383 0
0.80517 0.5549 0
0.824667 0.580944 0
0.833149 0.552903 0
0.220465 0.424204 0.005018
0.269093 0.440171 0.002469
0.298372 0.452059 0.001421
0.31892 0.46067 0.001071
0.342128 0.471365 0.001076
0.391848 0.496501 0.000866
0.454385 0.530391 0.000836
0.517743 0.559899 0.00224
0.577926 0.577919 0.001203
0.638614 0.583874 0.000123
0.690634 0.567103 0.000005
0.739904 0.551751 0
0.779824 0.538645 0
0.806443 0.551434 0
0.824726 0.572018 0
0.836273 0.559809 0
0.226347 0.426268 0.002144
0.252031 0.436861 0.001514
0.276623 0.448761 0.000999
0.303074 0.461032 0.000599
0.339466 0.476366 0.000517
0.394548 0.501454 0.000318
0.456403 0.534071 0.000186
0.519037 0.567322 0.000416
0.581792 0.587974 0.000324
0.645716 0.593877 0.000017
0.69716 0.57021 0
0.747536 0.557744 0
0.790363 0.570785 0
0.816107 0.580363 0
0.832601 0.593055 0
0.84556 0.596145 0
0.264589 0.4196 0.000056
0.285724 0.432424 0.00004
0.295302 0.438943 0.000083
0.309689 0.446051 0.000104
0.339684 0.457658 0.00009
0.393186 0.474158 0.000033
0.453026 0.49049 0.00001
0.52187 0.517722 0.000003
0.59567 0.541636 0
0.663245 0.55853 0
0.721278 0.56949 0
0.769819 0.573094 0
0.805141 0.584622 0
0.826821 0.605933 0.000002
0.83906 0.611762 0.000027
0.854715 0.640934 0.00028
0.010762 0.037337 0.11045
0.035088 0.039107 0.100902
0.090494 0.038867 0.082129
0.150012 0.038369 0.062492
0.20579 0.035961 0.045519
0.260257 0.031823 0.030882
0.31803 0.024819 0.01841
0.370524 0.016629 0.00972
0.419498 0.00802 0.004161
0.467714 0.002425 0.001222
0.508648 0.000816 0.00034
0.537957 0.00049 0.0001
0.555745 0.000645 0.000043
0.565954 0.000841 0.000018
0.572322 0.000938 0
0.57533 0.000924 0
0.011295 0.057713 0.124829
0.034043 0.060697 0.113114
0.087941 0.062488 0.091335
0.145966 0.063617 0.068843
0.202549 0.06303 0.048424
0.260285 0.060773 0.031652
0.32224 0.055871 0.017735
0.382584 0.049264 0.007471
0.437574 0.040648 0.002312
0.490144 0.029386 0.000872
0.533172 0.022083 0.000314
0.56447 0.019269 0.000082
0.582009 0.020637 0.000024
0.59293 0.022383 0.000001
0.601557 0.023623 0
0.608004 0.022729 0
0.012291 0.090053 0.138831
0.037455 0.096045 0.123535
0.086046 0.098747 0.100919
0.143438 0.100458 0.075816
0.201077 0.100963 0.052972
0.263135 0.098602 0.03318
0.328233 0.094568 0.017728
0.394452 0.089503 0.006136
0.45345 0.082583 0.002218
0.509578 0.071955 0.000783
0.556433 0.061404 0.000245
0.590912 0.055585 0.000058
0.609876 0.055787 0.000004
0.620296 0.057095 0
0.62911 0.059107 0
0.6376 0.060529 0
0.015688 0.123234 0.14584
0.043445 0.130932 0.129666
0.093346 0.134712 0.104952
0.143 0.13837 0.083639
0.199929 0.141718 0.061058
0.266633 0.142521 0.039235
0.335661 0.140312 0.02082
0.406473 0.135749 0.007393
0.468695 0.129734 0.002689
0.526434 0.120235 0.000821
0.576103 0.108842 0.00022
0.614263 0.102278 0.000047
0.636001 0.103476 0.000002
0.647164 0.105239 0
0.655302 0.10575 0
0.663723 0.106217 0
0.021108 0.157518 0.147573
0.056657 0.163155 0.129764
0.103947 0.167969 0.106114
0.153428 0.173157 0.086172
0.201142 0.177878 0.068554
0.267498 0.18232 0.047324
0.341093 0.183958 0.026415
0.416552 0.181181 0.009822
0.48116 0.175921 0.003478
0.539402 0.16744 0.000983
0.590916 0.156373 0.000253
0.633201 0.149014 0.000048
0.657596 0.150477 0.000003
0.670686 0.152597 0
0.679269 0.152273 0
0.687443 0.149819 0
0.037687 0.189046 0.140508
0.075036 0.194313 0.122098
0.116814 0.199977 0.102897
0.165224 0.206335 0.084088
0.212742 0.212653 0.068062
0.270342 0.219805 0.05169
0.344575 0.225636 0.030934
0.425154 0.226464 0.01215
0.492894 0.222423 0.004123
0.551921 0.214616 0.001116
0.605058 0.204272 0.000279
0.651407 0.196996 0.000044
0.679316 0.199827 0.000004
0.694716 0.203887 0
0.704289 0.204407 0
0.712166 0.199714 0
0.059267 0.221927 0.129641
0.094804 0.227987 0.112313
0.133201 0.234192 0.097153
0.174609 0.240958 0.081982
0.225513 0.24988 0.066412
0.282252 0.260133 0.051295
0.3499 0.269096 0.035443
0.432032 0.274683 0.016682
0.50289 0.273089 0.005218
0.56316 0.266558 0.001364
0.617626 0.257141 0.000348
0.667815 0.250279 0.000055
0.699681 0.25539 0.000005
0.717888 0.263112 0
0.729343 0.26575 0
0.738199 0.261638 0
0.079514 0.258006 0.117864
0.118742 0.264754 0.101077
0.155672 0.271627 0.086691
0.187792 0.278579 0.075977
0.234378 0.289401 0.0634
0.292237 0.302595 0.048198
0.36124 0.31523 0.034408
0.437225 0.326724 0.021736
0.508357 0.329428 0.009934
0.570445 0.325779 0.002762
0.626296 0.317863 0.000604
0.680782 0.311171 0.000132
0.718371 0.317651 0.000015
0.740136 0.32861 0
0.75422 0.334792 0
0.765002 0.332964 0
0.106661 0.2968 0.100033
0.143697 0.30326 0.084778
0.177828 0.310425 0.071762
0.21253 0.319849 0.062724
0.249172 0.330408 0.054458
0.300317 0.344088 0.042346
0.373707 0.360677 0.029319
0.449808 0.376879 0.019383
0.515139 0.385018 0.012797
0.578072 0.38571 0.005385
0.63489 0.38035 0.001444
0.691632 0.375114 0.000224
0.735072 0.382889 0.000039
0.760563 0.396645 0.000004
0.77663 0.40592 0
0.789142 0.406087 0
0.134575 0.335365 0.078922
0.169764 0.342513 0.064826
0.198134 0.350071 0.056592
0.229978 0.360156 0.049764
0.26542 0.371555 0.042092
0.311299 0.385569 0.032873
0.382938 0.404547 0.02306
0.460459 0.424448 0.014717
0.527702 0.437918 0.010387
0.589025 0.442296 0.004997
0.645718 0.439843 0.001531
0.70203 0.436717 0.000279
0.749668 0.444927 0.000039
0.778264 0.460614 0.000009
0.795768 0.471671 0
0.807884 0.468984 0
0.163717 0.373383 0.056787
0.203726 0.384057 0.044507
0.227051 0.391678 0.039798
0.24343 0.398143 0.038904
0.274582 0.409171 0.033148
0.325476 0.425192 0.024683
0.396546 0.445833 0.01702
0.466936 0.465815 0.011584
0.538255 0.483961 0.007897
0.599829 0.491685 0.003885
0.65596 0.493247 0.001443
0.711089 0.492441 0.000358
0.761677 0.500846 0.000044
0.793267 0.51858 0.000015
0.81149 0.532474 0.000006
0.822665 0.524544 0
0.192359 0.410656 0.040863
0.244244 0.425497 0.026863
0.265517 0.432983 0.022892
0.273877 0.437376 0.024273
0.291224 0.444972 0.024127
0.341388 0.461374 0.020241
0.414483 0.483883 0.01347
0.478966 0.503185 0.009918
0.545502 0.521539 0.006347
0.607846 0.532447 0.002937
0.664845 0.537526 0.001152
0.718119 0.53741 0.000262
0.768691 0.540564 0.000022
0.802185 0.55758 0.000004
0.822237 0.57942 0.000004
0.833562 0.56866 0
0.194667 0.431256 0.030472
0.250707 0.448037 0.015805
0.279923 0.458237 0.009665
0.289414 0.463082 0.009998
0.306047 0.470874 0.012988
0.355494 0.490971 0.015078
0.426684 0.517423 0.012593
0.491836 0.538441 0.009142
0.55708 0.556961 0.004921
0.616917 0.568719 0.001992
0.672952 0.574907 0.000745
0.725993 0.574139 0.000121
0.773625 0.563518 0.000002
0.805524 0.572093 0
0.827107 0.600445 0
0.839487 0.588547 0
0.181195 0.438233 0.022392
0.230681 0.453758 0.010645
0.266776 0.466035 0.006011
0.289643 0.475356 0.004047
0.315101 0.486837 0.004501
0.369623 0.510358 0.007321
0.43705 0.539808 0.008136
0.50425 0.568371 0.006296
0.566642 0.588295 0.003409
0.628227 0.601159 0.001343
0.680676 0.601615 0.00043
0.733174 0.593643 0.000037
0.778588 0.577504 0
0.807802 0.574756 0
0.828309 0.599355 0
0.845097 0.609022 0.000005
0.189345 0.448213 0.012036
0.217131 0.459032 0.008273
0.250517 0.470793 0.004206
0.279832 0.482118 0.00248
0.317941 0.496572 0.001928
0.375325 0.520023 0.001958
0.439648 0.547615 0.002645
0.503426 0.576836 0.002261
0.568506 0.599291 0.001279
0.634426 0.612906 0.000471
0.689892 0.611402 0.000079
0.745723 0.606257 0.00001
0.791975 0.617612 0.000002
0.821512 0.630059 0.000001
0.839626 0.64258 0.000012
0.85298 0.638313 0.000112
0.220849 0.446877 0.001881
0.244626 0.457219 0.001229
0.268254 0.466826 0.000757
0.285603 0.473577 0.000638
0.314687 0.483931 0.000443
0.367756 0.5008 0.000154
0.436146 0.525878 0.000088
0.509476 0.555674 0.000059
0.589779 0.58459 0.000034
0.660747 0.604284 0.00002
0.719246 0.614276 0.000004
0.769719 0.618808 0
0.808042 0.628851 0.00001
0.831556 0.648011 0.000089
0.845434 0.655142 0.000177
0.861657 0.676913 0.001213
0.007828 0.039063 0.165104
0.026886 0.041506 0.156726
0.082046 0.042498 0.138248
0.141367 0.042557 0.119214
0.19668 0.04151 0.100677
0.249633 0.039127 0.082727
0.30492 0.033665 0.06342
0.357361 0.026306 0.045585
0.407636 0.016594 0.029379
0.456027 0.006435 0.015157
0.500924 0.00178 0.006844
0.536299 0.000786 0.002964
0.557925 0.000875 0.0016
0.568843 0.000834 0.000762
0.57292 0.000865 0.000436
0.574873 0.00084 0.000239
0.007095 0.061941 0.183466
0.023021 0.065754 0.174701
0.076374 0.067826 0.152675
0.133523 0.069805 0.131482
0.188901 0.071132 0.109879
0.244983 0.070661 0.088675
0.304602 0.066779 0.066827
0.365763 0.059868 0.044688
0.423375 0.049869 0.026238
0.477495 0.03711 0.014042
0.526399 0.026813 0.006505
0.564876 0.021735 0.002509
0.586752 0.022674 0.001063
0.597249 0.023917 0.000672
0.602755 0.023014 0.000378
0.607393 0.021288 0.000132
0.00818 0.094055 0.202423
0.026044 0.101781 0.19158
0.074722 0.105937 0.167533
0.129634 0.1086 0.142485
0.185503 0.110216 0.117423
0.24466 0.109008 0.091693
0.307182 0.105329 0.067082
0.373456 0.099284 0.043386
0.43635 0.091136 0.025834
0.495958 0.080354 0.013348
0.54922 0.068344 0.00557
0.592107 0.060127 0.001839
0.615554 0.059652 0.000865
0.624863 0.059402 0.00048
0.630971 0.058568 0.000209
0.63787 0.058222 0.000064
0.009698 0.126542 0.215637
0.036278 0.135427 0.199799
0.08443 0.140541 0.172745
0.13021 0.143461 0.149759
0.185751 0.145643 0.122362
0.247922 0.145913 0.094306
0.313575 0.143621 0.067783
0.383388 0.138898 0.044596
0.449377 0.131965 0.026587
0.511528 0.122541 0.013374
0.567453 0.111027 0.005173
0.614686 0.103079 0.001741
0.640526 0.104023 0.000756
0.650992 0.105448 0.000325
0.657457 0.10541 0.000077
0.665079 0.105356 0.000036
0.01209 0.162879 0.225712
0.049713 0.169802 0.203674
0.095649 0.175854 0.176756
0.14182 0.17896 0.153135
0.188199 0.181921 0.130479
0.249531 0.185127 0.103713
0.318705 0.186118 0.075513
0.392926 0.183259 0.049562
0.461748 0.177272 0.029203
0.524889 0.168972 0.014667
0.582216 0.158701 0.005888
0.633597 0.151383 0.001916
0.662399 0.153157 0.000715
0.675155 0.15535 0.000247
0.68246 0.154869 0.000054
0.690078 0.153014 0.000017
0.028582 0.196899 0.221403
0.06425 0.204114 0.199725
0.105771 0.209589 0.176266
0.151059 0.213426 0.152407
0.196766 0.21775 0.131019
0.250761 0.223458 0.109513
0.320897 0.228454 0.08216
0.400852 0.229636 0.054186
0.473289 0.225378 0.031318
0.537478 0.218051 0.015474
0.59584 0.208914 0.006486
0.651213 0.202331 0.002022
0.684137 0.205795 0.000673
0.700326 0.210479 0.000219
0.709083 0.211417 0.000051
0.716415 0.207576 0.000013
0.045386 0.232411 0.210293
0.079075 0.240155 0.18985
0.118331 0.244554 0.169398
0.157118 0.248821 0.149497
0.205413 0.255464 0.128577
0.25956 0.263857 0.107985
0.326763 0.271797 0.084411
0.410214 0.277697 0.056433
0.485787 0.276305 0.032252
0.550721 0.270561 0.015946
0.609083 0.262759 0.006862
0.666817 0.257362 0.002091
0.703942 0.263334 0.000632
0.723336 0.272295 0.000221
0.734361 0.276169 0.000057
0.742738 0.272444 0.000021
0.060312 0.271205 0.196503
0.099807 0.276819 0.174705
0.136485 0.281747 0.15562
0.166263 0.286422 0.141373
0.210151 0.294963 0.124056
0.265797 0.306005 0.102941
0.337162 0.317888 0.080084
0.417561 0.329066 0.056706
0.494231 0.332035 0.033942
0.560947 0.329139 0.017056
0.619939 0.322828 0.007291
0.679376 0.318171 0.002259
0.721595 0.325706 0.000676
0.745018 0.338179 0.000273
0.758852 0.346302 0.000101
0.769041 0.344651 0.000038
0.085963 0.311549 0.173985
0.122529 0.315953 0.1543
