site/assets/luts/freshluts--0000751-alonelut.cube
# LUTr-Schema-Version: 2
# LUTr-ID: freshluts--0000751-alonelut
# LUTr-Title: Alone(lut)
# LUTr-Collection: Fresh LUTs
# LUTr-Collection-ID: freshluts-community
# LUTr-Source: https://freshluts.com
# LUTr-Retrieved: 2026-07-27
# LUTr-Source-File: submissions-raw/freshluts/cubes/751__alone_61.A012_10161348_C005.cube
# LUTr-Source-Format: CUBE
# LUTr-Source-SHA256: c7b5701ba566a7c051f5c1e33fb1eee97956659c9f5e2ad6857b427fff3943e7
# LUTr-License: CC0-1.0
# LUTr-License-URL: https://freshluts.com/termsandconditions
# LUTr-License-Basis: site-terms
# LUTr-Transform-Class: creative-look
# LUTr-Tags: creative, freshluts, community, cube, green, low-key, bmd-film
# LUTr-Input-Color-Space: bmd-film
# LUTr-Input-Gamut: bmd-film-gamut
# LUTr-Input-Transfer: bmd-film
# LUTr-Output-Color-Space: srgb
# LUTr-Output-Gamut: rec709
# LUTr-Output-Transfer: srgb
# LUTr-Color-Space-Confidence: inferred-from-source-label
# LUTr-Domain-Normalized: true
# LUTr-Shaper: none
# LUTr-Original-Grid: 33x33x33
# LUTr-Conversion-Grid: 33x33x33
# LUTr-Conversion-Interpolation: none
# LUTr-Conversion-Method: Metadata normalization; numeric LUT samples preserved
# LUTr-Conversion-Tool: LUTr scripts/convert-all-to-cube.mjs 2.0.0
# LUTr-Conversion-Date: 2026-07-28
# LUTr-Asset-URL: https://freshluts.com/luts/751
# LUTr-Author: lvannoeun@gmail.com
# LUTr-Author-URL: https://freshluts.com/users/57563
# LUTr-Attribution: lvannoeun@gmail.com via Fresh LUTs
# LUTr-Source-Labels: gamma=Blackmagic BMD Film; color=Green; key=Low Key; style=Cinematic/Dark
# LUTr-Note: Preserve this metadata and the upstream license notices when redistributing.
TITLE "Alone(lut)"
LUT_3D_SIZE 9
DOMAIN_MIN 0 0 0
DOMAIN_MAX 1 1 1
0 0.00125124 0.0473945
0.0936599 0 0.0446479
0.24303 0 0.0507973
0.37998 0 0.049134
0.492836 0 0.0488289
0.529488 0.00885023 0.058732
0.534218 0.0383459 0.0751354
0.610437 0.046891 0.0831159
0.686748 0.0554055 0.0911421
0 0.133654 0.0616922
0.101778 0.120851 0.0644846
0.210163 0.124468 0.0604715
0.351232 0.119677 0.0434424
0.477958 0.117647 0.0411841
0.577966 0.122133 0.0490272
0.604395 0.143969 0.0805524
0.627573 0.166201 0.109178
0.703655 0.174777 0.117342
0 0.275639 0.0527504
0.0518959 0.264164 0.0441596
0.196033 0.256397 0.0476692
0.322118 0.255558 0.0355993
0.448798 0.253635 0.0323949
0.567147 0.253346 0.0357519
0.638895 0.262028 0.0677348
0.665553 0.280903 0.11928
0.719676 0.294423 0.143099
0 0.405585 0.0533913
0.0122835 0.403143 0.0363928
0.159258 0.395666 0.028687
0.292134 0.391913 0.0254826
0.419501 0.389654 0.0237125
0.541192 0.388327 0.0287633
0.635477 0.390723 0.0611887
0.688212 0.400778 0.122759
0.735592 0.414038 0.169024
0 0.492622 0.114626
0.048188 0.516152 0.0699474
0.14583 0.525765 0.0380865
0.268467 0.525917 0.0265354
0.394339 0.52398 0.0261387
0.516304 0.521782 0.0399023
0.618982 0.521019 0.0822156
0.69218 0.525078 0.144152
0.752056 0.534066 0.196094
0.0750744 0.59617 0.166018
0.174456 0.601526 0.170993
0.233051 0.622507 0.13991
0.310445 0.637781 0.111818
0.408545 0.645212 0.100664
0.516289 0.647318 0.114107
0.616022 0.64828 0.150866
0.697398 0.65153 0.198871
0.770901 0.658991 0.226123
0.0992905 0.721416 0.197269
0.196826 0.72726 0.202808
0.291188 0.733822 0.20914
0.381735 0.741588 0.216632
0.470069 0.749981 0.224735
0.556252 0.759136 0.2318
0.639872 0.767773 0.241932
0.716762 0.77644 0.250477
0.792035 0.78526 0.259083
0.12578 0.845502 0.231403
0.221714 0.851774 0.237446
0.31548 0.858488 0.2439
0.405615 0.866361 0.251575
0.493614 0.87483 0.259892
0.580087 0.883696 0.268681
0.663172 0.892729 0.277562
0.740017 0.901488 0.286183
0.815106 0.910353 0.294911
0.154742 0.967773 0.268559
0.249256 0.974411 0.275074
0.342397 0.981262 0.281987
0.432166 0.989227 0.289891
0.519783 0.997787 0.298344
0.605875 1 0.307225
0.688762 1 0.316243
0.765469 1 0.324849
0.840375 1 0.333684
0 0.00132753 0.211353
0.109667 0 0.193332
0.247089 0 0.19588
0.377295 0 0.194629
0.497398 0 0.19173
0.563134 0 0.181674
0.568887 0.0309758 0.173877
0.612329 0.0496376 0.178164
0.688609 0.0581216 0.186618
0 0.13753 0.205219
0.0925765 0.124941 0.178805
0.205768 0.127611 0.16997
0.333806 0.123674 0.182818
0.475273 0.116793 0.185321
0.594095 0.116548 0.184619
0.660243 0.129397 0.188281
0.665492 0.158541 0.201282
0.705379 0.177432 0.213779
0 0.274846 0.19675
0.0534524 0.262242 0.186404
0.211292 0.250462 0.18912
0.312627 0.255085 0.195941
0.438041 0.254704 0.181292
0.569039 0.251682 0.174548
0.677073 0.252598 0.176577
0.732128 0.266148 0.197314
0.742351 0.291585 0.232395
0 0.405936 0.190433
0.00704967 0.403174 0.179126
0.157778 0.394537 0.171801
0.297597 0.38761 0.179767
0.417014 0.388022 0.174853
0.540856 0.38761 0.16466
0.656077 0.387076 0.164569
0.746868 0.390494 0.179843
0.786999 0.405661 0.228534
0 0.500679 0.218967
0.0110781 0.528481 0.184909
0.127947 0.531258 0.16434
0.260777 0.527733 0.159121
0.389212 0.5252 0.157
0.513771 0.523766 0.155627
0.630396 0.523064 0.156435
0.730968 0.523659 0.172061
0.799802 0.529961 0.224338
0.0767987 0.598733 0.26392
0.143648 0.615351 0.252964
0.178973 0.644373 0.210773
0.255238 0.660868 0.173938
0.368414 0.664225 0.158907
0.490517 0.663706 0.156115
0.607675 0.66247 0.163348
0.710796 0.661433 0.189807
0.794308 0.662928 0.24683
0.100893 0.723934 0.296071
0.198276 0.729793 0.301854
0.292622 0.736339 0.308354
0.351736 0.756619 0.28452
0.419226 0.775326 0.251911
0.509667 0.78584 0.232792
0.611917 0.789502 0.237369
0.708675 0.790341 0.265187
0.795331 0.792004 0.311147
0.12726 0.847974 0.330983
0.223102 0.854246 0.337194
0.316808 0.86096 0.343923
0.406928 0.868818 0.351766
0.494896 0.877287 0.36022
0.579797 0.88687 0.366537
0.658839 0.898238 0.364279
0.738811 0.905638 0.377203
0.816373 0.912779 0.39588
0.1561 0.970184 0.369055
0.250538 0.976837 0.375738
0.343557 0.983719 0.382712
0.433341 0.991653 0.390799
0.521004 1 0.399451
0.607065 1 0.408469
0.689952 1 0.417578
0.766659 1 0.426352
0.84155 1 0.435325
0 0 0.359716
0.109209 0 0.351965
0.245396 0 0.347402
0.374136 0 0.344442
0.490288 0 0.336461
0.561227 0 0.311864
0.57969 0.0296941 0.28304
0.614115 0.0522927 0.274876
0.690364 0.0607767 0.283467
0 0.136385 0.355016
0.0776837 0.125582 0.344518
0.215686 0.121065 0.333883
0.343755 0.118578 0.332357
0.472435 0.11548 0.334813
0.593301 0.114702 0.333623
0.679866 0.12253 0.326833
0.69984 0.149874 0.314229
0.707042 0.180072 0.311131
0 0.27245 0.344015
0.0427863 0.263249 0.336049
0.194781 0.255207 0.319036
0.313909 0.256886 0.302586
0.423804 0.258412 0.314702
0.565286 0.250736 0.323262
0.679789 0.249958 0.323079
0.76997 0.25507 0.32401
0.794736 0.278904 0.332113
0 0.398291 0.329519
0.00329595 0.402182 0.328344
0.154635 0.393469 0.31989
0.308461 0.383185 0.319829
0.417624 0.384955 0.331807
0.524926 0.389242 0.323629
0.653269 0.385901 0.312749
0.76109 0.385809 0.312673
0.844938 0.391928 0.322271
0 0.495933 0.332952
0.0114595 0.527337 0.32372
0.123384 0.530694 0.311818
0.258442 0.52639 0.307729
0.39527 0.520424 0.315068
0.513405 0.520378 0.318807
0.627741 0.521904 0.304265
0.736385 0.521813 0.303075
0.838651 0.522957 0.307942
0.0785534 0.601312 0.362264
0.134966 0.620493 0.356634
0.150759 0.654154 0.325994
0.235706 0.666621 0.303548
0.360006 0.665721 0.297856
0.485451 0.664057 0.296529
0.603754 0.663294 0.295827
0.712886 0.663157 0.295644
0.817807 0.663462 0.301534
0.102525 0.726482 0.395056
0.199786 0.732357 0.400992
0.279057 0.744137 0.400092
0.306813 0.775128 0.362402
0.365942 0.797192 0.321218
0.469459 0.803845 0.30193
0.584512 0.804669 0.297108
0.693599 0.804364 0.299916
0.798703 0.803708 0.314656
0.128786 0.850477 0.430701
0.224521 0.856779 0.43711
0.318212 0.863493 0.443824
0.408301 0.871351 0.451789
0.46891 0.890578 0.434165
0.527993 0.912093 0.398398
0.609033 0.925231 0.372824
0.701885 0.930556 0.368368
0.798947 0.931945 0.386435
0.157534 0.972671 0.469291
0.251896 0.979324 0.476127
0.344869 0.986221 0.483207
0.434562 0.994171 0.491341
0.522225 1 0.500145
0.608316 1 0.509331
0.685039 1 0.508553
0.755764 1 0.50042
0.833936 1 0.506844
0 0.00328069 0.422614
0.10277 0 0.465293
0.235538 0 0.478157
0.358846 0 0.474235
0.462669 0 0.454109
0.528725 0.0118257 0.416098
0.564233 0.0373693 0.381109
0.615854 0.0549172 0.372335
0.692073 0.063386 0.38114
0 0.13257 0.458122
0.0758831 0.124422 0.489845
0.213352 0.118822 0.491447
0.343771 0.11577 0.488533
0.469566 0.113985 0.486686
0.587366 0.114412 0.482506
0.672847 0.123522 0.466255
0.704906 0.149187 0.43473
0.717235 0.179797 0.412284
0 0.262531 0.454047
0.0419318 0.261463 0.484672
0.182284 0.255482 0.481621
0.314107 0.252247 0.476402
0.437629 0.251652 0.469581
0.562982 0.249134 0.474388
0.677012 0.248478 0.47451
0.776089 0.251316 0.471717
0.825208 0.269917 0.459846
0 0.38114 0.436545
0.0167849 0.396674 0.471717
0.150439 0.392401 0.471412
0.288212 0.387701 0.463249
0.416373 0.387121 0.442603
0.516457 0.392264 0.447272
0.642344 0.387137 0.46128
0.758434 0.384344 0.46363
0.861067 0.385779 0.46421
0.0476081 0.483345 0.432822
0.0519112 0.515038 0.455344
0.123613 0.528466 0.462089
0.255085 0.525154 0.458595
0.399741 0.517784 0.456809
0.522408 0.515724 0.467216
0.611215 0.523217 0.468818
0.728542 0.52163 0.456794
0.840284 0.520714 0.4542
0.0802319 0.603906 0.461067
0.15555 0.616388 0.466148
0.157839 0.651392 0.461906
0.23122 0.66601 0.452201
0.357229 0.664393 0.448676
0.488869 0.660349 0.452628
0.607279 0.658381 0.463661
0.708843 0.661357 0.454856
0.816922 0.662135 0.446754
0.104189 0.72903 0.494285
0.201312 0.734936 0.500374
0.276295 0.747723 0.502174
0.28571 0.782879 0.477226
0.344839 0.803464 0.45069
0.459815 0.805539 0.442969
0.579431 0.804593 0.442222
0.689372 0.804318 0.442176
0.796506 0.804547 0.442191
0.130343 0.85301 0.530388
0.225956 0.859327 0.536934
0.3196 0.866041 0.543893
0.408667 0.874235 0.551492
0.431846 0.906172 0.518212
0.477928 0.932296 0.475059
0.56965 0.94197 0.452323
0.674311 0.943969 0.446204
0.780804 0.944335 0.446616
0.158984 0.975158 0.569558
0.253239 0.981842 0.576486
0.346197 0.988739 0.583551
0.435874 0.996689 0.591775
0.523445 1 0.60058
0.583978 1 0.586633
0.63447 1 0.549142
0.703487 1 0.519265
0.791333 1 0.506981
0 0.0109407 0.418616
0.0952163 0.00831617 0.457282
0.20621 0.00694286 0.494957
0.314519 0.00865187 0.510018
0.409186 0.0168002 0.501274
0.482109 0.0322118 0.478096
0.540459 0.0492409 0.460166
0.617517 0.0574655 0.468833
0.69369 0.0659342 0.477714
0 0.129091 0.465202
0.0941176 0.127275 0.534722
0.209705 0.122484 0.592615
0.335302 0.118273 0.615564
0.457389 0.117205 0.61738
0.565423 0.121447 0.604257
0.639796 0.135332 0.573449
0.681651 0.158755 0.535042
0.710201 0.185183 0.506279
0.0059968 0.249027 0.491417
0.0776684 0.25536 0.566827
0.183246 0.254139 0.618936
0.311009 0.250629 0.628473
0.437766 0.248493 0.627176
0.560601 0.247349 0.625971
0.67303 0.247349 0.624308
0.768475 0.251865 0.615442
0.823484 0.270191 0.589014
0.0416876 0.363973 0.500069
0.0780346 0.38204 0.563226
0.154833 0.389578 0.613428
0.280735 0.387045 0.618662
0.408621 0.384787 0.61532
0.530297 0.384771 0.607645
0.646937 0.383291 0.612787
0.75552 0.382834 0.613993
0.860533 0.383658 0.613779
0.0604715 0.48275 0.528008
0.119036 0.498131 0.552377
0.145815 0.520989 0.59794
0.251728 0.523827 0.608972
0.38114 0.521096 0.605997
0.51368 0.519097 0.58677
0.609934 0.525093 0.581186
0.714519 0.524483 0.596979
0.836805 0.519402 0.604501
0.0818647 0.60647 0.558648
0.180621 0.611917 0.564462
0.199741 0.639384 0.585336
0.237079 0.662272 0.599832
0.354009 0.66305 0.5991
0.487984 0.6589 0.597314
0.618875 0.653681 0.603708
0.701381 0.660426 0.613764
0.801938 0.663478 0.605203
0.105791 0.731533 0.592355
0.202777 0.737469 0.598566
0.29662 0.744137 0.605417
0.298634 0.778973 0.605509
0.34165 0.802563 0.596567
0.456779 0.804196 0.592782
0.577996 0.802686 0.59295
0.695766 0.798703 0.606607
0.794522 0.801328 0.607523
0.131868 0.855512 0.628534
0.227375 0.861845 0.635172
0.320958 0.868559 0.642237
0.4103 0.876646 0.650233
0.418265 0.911696 0.630808
0.457252 0.938445 0.602319
0.559167 0.943832 0.592142
0.669245 0.943664 0.591501
0.776822 0.943709 0.591959
0.160418 0.977646 0.667872
0.254582 0.984344 0.674907
0.347478 0.991241 0.6822
0.43714 0.999176 0.690501
0.524697 1 0.699397
0.554208 1 0.674403
0.589502 1 0.632242
0.666285 1 0.607507
0.765942 1 0.599786
0 0.0132906 0.513954
0.0956893 0.0148623 0.516075
0.19324 0.0206455 0.52253
0.286061 0.0277104 0.530236
0.376074 0.0355077 0.538659
0.462516 0.0436561 0.547509
0.542046 0.0516976 0.556191
0.619074 0.0599222 0.56495
0.695232 0.0683909 0.573953
0.00419623 0.130617 0.542092
0.113359 0.133135 0.545052
0.209751 0.136416 0.579675
0.312566 0.136706 0.624979
0.418784 0.138125 0.649073
0.515251 0.14461 0.647684
0.589334 0.157366 0.628855
0.644816 0.175387 0.603983
0.711681 0.187655 0.602625
0.0249638 0.248188 0.568902
0.128359 0.251972 0.576257
0.208896 0.256107 0.649012
0.311131 0.254337 0.716548
0.430579 0.250889 0.749844
0.550729 0.249668 0.757244
0.656657 0.252079 0.750805
0.740719 0.261265 0.729229
0.794018 0.281209 0.691722
0.0435187 0.366339 0.596231
0.144213 0.371008 0.602808
0.199939 0.382254 0.678172
0.286091 0.385321 0.745098
0.405661 0.383276 0.764065
0.529442 0.381781 0.764858
0.645045 0.381201 0.764202
0.752544 0.381216 0.763973
0.854337 0.383352 0.760067
0.062211 0.485161 0.624399
0.162249 0.490135 0.629709
0.210575 0.506294 0.678218
0.264546 0.519387 0.740658
0.377295 0.519738 0.756283
0.502312 0.518181 0.754681
0.618677 0.518227 0.748882
0.725078 0.518639 0.74934
0.83415 0.517784 0.753902
0.0834974 0.608942 0.655558
0.18201 0.61445 0.661418
0.257496 0.625681 0.677195
0.273487 0.65156 0.724758
0.353109 0.661082 0.747402
0.476677 0.659892 0.746868
0.603494 0.657801 0.734295
0.702953 0.661921 0.720485
0.792035 0.666392 0.73167
0.107347 0.734005 0.689494
0.204211 0.739971 0.695827
0.298405 0.746517 0.70277
0.339849 0.767895 0.72015
0.35555 0.796704 0.739742
0.453758 0.802701 0.74258
0.574578 0.801434 0.741573
0.703243 0.795331 0.744183
0.799069 0.79762 0.757092
0.133333 0.857969 0.726192
0.228733 0.864317 0.732952
0.322271 0.871031 0.740093
0.412314 0.878874 0.748333
0.435035 0.907149 0.75259
0.456947 0.936812 0.745678
0.555627 0.942565 0.741268
0.666773 0.942031 0.741253
0.783047 0.938506 0.751431
0.161807 0.980072 0.765896
0.255879 0.986801 0.772976
0.34873 0.993698 0.780255
0.438376 1 0.788647
0.525917 1 0.797604
0.546975 1 0.786236
0.570916 1 0.759182
0.655009 1 0.747112
0.760876 1 0.746075
0 0.0155947 0.610178
0.0975052 0.0172274 0.612589
0.194934 0.0230259 0.619135
0.287709 0.0300908 0.626932
0.377676 0.0379034 0.635462
0.463996 0.0460822 0.644327
0.543511 0.054139 0.653071
0.620584 0.0623331 0.66186
0.696727 0.0708019 0.670939
0.00691234 0.132723 0.638453
0.115007 0.135531 0.641764
0.211688 0.141543 0.648325
0.303944 0.148775 0.655985
0.393545 0.15671 0.664393
0.480278 0.165057 0.673274
0.560265 0.173281 0.682017
0.637034 0.181582 0.690806
0.713039 0.190066 0.699931
0.0269017 0.250492 0.665583
0.131289 0.254307 0.669841
0.227481 0.260456 0.676539
0.318364 0.266316 0.701686
0.414557 0.267979 0.752926
0.517678 0.269261 0.785595
0.611444 0.273915 0.792782
0.689113 0.284108 0.780102
0.750454 0.300282 0.75639
0.0452888 0.368658 0.693248
0.147295 0.373098 0.698116
0.243 0.3794 0.704845
0.319493 0.386069 0.764492
0.410803 0.386877 0.838514
0.523507 0.384237 0.883314
0.636637 0.382956 0.896803
0.740154 0.384207 0.895979
0.832746 0.390051 0.882536
0.0638743 0.487511 0.721813
0.163684 0.492531 0.72726
0.259251 0.498878 0.733898
0.318746 0.510689 0.792721
0.3897 0.51725 0.869871
0.499825 0.516777 0.901518
0.616266 0.51577 0.905821
0.724743 0.515648 0.905486
0.831525 0.515953 0.90547
0.0850996 0.611353 0.753155
0.183444 0.616907 0.759136
0.278172 0.623316 0.765988
0.339681 0.63711 0.799329
0.37821 0.654246 0.86743
0.474479 0.658213 0.896391
0.591928 0.657557 0.897169
0.701259 0.657557 0.895048
0.805142 0.659373 0.888823
0.108843 0.736416 0.787427
0.2056 0.742428 0.793683
0.299763 0.748989 0.800687
0.390158 0.756725 0.808865
0.404791 0.7832 0.854902
0.458076 0.799374 0.889189
0.57026 0.800229 0.892576
0.684276 0.799191 0.888075
0.794614 0.800229 0.870588
0.134768 0.86038 0.824231
0.23006 0.866773 0.831067
0.323568 0.873487 0.83827
0.413581 0.881346 0.846586
0.474678 0.8972 0.860899
0.480812 0.928466 0.884413
0.554253 0.940505 0.892073
0.663325 0.940581 0.891966
0.784161 0.936706 0.892226
0.163165 0.982498 0.864225
0.25716 0.989227 0.871443
0.34995 0.996139 0.878859
0.439582 1 0.887297
0.527108 1 0.89633
0.566995 1 0.903853
0.575784 1 0.90132
0.651408 1 0.897108
0.75787 1 0.897047
0 0.0178988 0.706737
0.0992447 0.0195315 0.709422
0.196582 0.0253605 0.716045
0.289296 0.0324407 0.723903
0.379217 0.0402533 0.732494
0.465507 0.0484474 0.741421
0.54493 0.0565194 0.750179
0.621958 0.0647135 0.759152
0.698146 0.0731518 0.768353
0.00921645 0.134874 0.735164
0.116625 0.137865 0.73872
0.21323 0.143908 0.745357
0.30544 0.151125 0.753185
0.394995 0.15906 0.761715
0.481697 0.167407 0.770657
0.561654 0.175647 0.779446
0.638407 0.183932 0.788296
0.714321 0.192462 0.797391
0.028748 0.25275 0.762722
0.132815 0.256626 0.767117
0.228885 0.262821 0.773831
0.32076 0.27013 0.781765
0.410101 0.278126 0.790402
0.497093 0.286595 0.79942
0.577768 0.294972 0.808301
0.654307 0.303319 0.817151
0.730053 0.311894 0.82623
0.0469978 0.370932 0.7906
0.148745 0.375433 0.79559
0.244434 0.381735 0.80238
0.335882 0.389181 0.810315
0.424353 0.396902 0.82417
0.514427 0.399878 0.879927
0.609796 0.401266 0.919234
0.701015 0.404456 0.935561
0.783871 0.412345 0.930556
0.0654917 0.489815 0.819379
0.165087 0.494896 0.824933
0.260624 0.501244 0.831754
0.351751 0.508782 0.839765
0.429252 0.516869 0.882551
0.511315 0.520134 0.959731
0.612238 0.518624 1
0.717311 0.517311 1
0.821622 0.517891 1
0.0866407 0.613718 0.851087
0.184817 0.619318 0.85716
0.27953 0.625727 0.864073
0.370275 0.633371 0.872206
0.437552 0.644724 0.912917
0.496742 0.654429 0.99411
0.591287 0.656046 1
0.697978 0.65568 1
0.80502 0.655863 1
0.110201 0.738827 0.885618
0.206882 0.744808 0.89221
0.301015 0.751354 0.899306
0.391394 0.759106 0.907546
0.466972 0.770153 0.926894
0.497795 0.789593 0.99498
0.571527 0.797757 1
0.677058 0.798215 1
0.784543 0.798413 1
0.136126 0.86273 0.922957
0.231312 0.869123 0.929885
0.324758 0.875853 0.937163
0.414755 0.883696 0.945525
0.502586 0.892149 0.954498
0.536217 0.913939 0.990906
0.567575 0.934905 1
0.659861 0.938918 1
0.767849 0.938933 1
0.164446 0.984817 0.963226
0.25835 0.991577 0.970535
0.35108 0.998489 0.978027
0.440711 1 0.986511
0.528206 1 0.995605
0.605509 1 1
0.609766 1 1
0.654353 1 1
0.754299 1 1
0 0.0200961 0.804547
0.10074 0.0218509 0.807294
0.198169 0.0276188 0.814176
0.290806 0.0347143 0.82211
0.380697 0.0425269 0.830777
0.466941 0.050721 0.83978
0.546319 0.058793 0.8486
0.623285 0.0670176 0.857557
0.699428 0.0754711 0.866819
0.0113222 0.136995 0.833143
0.118166 0.140124 0.836912
0.214694 0.146181 0.843626
0.306859 0.153414 0.85153
0.396368 0.161349 0.860136
0.483055 0.169711 0.869169
0.562982 0.177935 0.878019
0.639704 0.186221 0.886946
0.715602 0.194751 0.896086
0.030518 0.254932 0.86099
0.134279 0.2589 0.865522
0.230304 0.265095 0.872312
0.322072 0.272435 0.880262
0.411353 0.280446 0.88896
0.49839 0.288884 0.898116
0.579049 0.297246 0.907073
0.655573 0.305608 0.915984
0.731289 0.314183 0.925124
0.0486458 0.373129 0.889097
0.150134 0.377707 0.894209
0.245792 0.384009 0.901061
0.337209 0.391455 0.909072
0.426184 0.399558 0.917754
0.513283 0.408118 0.926894
0.594873 0.416648 0.935988
0.671122 0.425025 0.9449
0.7467 0.433646 0.95407
0.0670481 0.492058 0.918105
0.16643 0.4972 0.923781
0.261952 0.503532 0.930648
0.353033 0.51107 0.93875
0.441764 0.519249 0.947478
0.528786 0.527916 0.956695
0.610788 0.532723 1
0.697108 0.534661 1
0.787976 0.537011 1
0.0881208 0.616037 0.950072
0.186145 0.621653 0.956237
0.280812 0.628077 0.963226
0.371527 0.635721 0.971405
0.459968 0.644007 0.98024
0.540658 0.652903 1
0.611704 0.658503 1
0.6981 0.658717 1
0.798871 0.657542 1
0.111559 0.741146 0.984802
0.208072 0.747189 0.991455
0.302235 0.753704 0.998672
0.392599 0.761456 1
0.48072 0.769818 1
0.557473 0.780133 1
0.606943 0.792111 1
0.681147 0.796368 1
0.78143 0.796689 1
0.137392 0.865049 1
0.232517 0.871458 1
0.325933 0.878202 1
0.415915 0.88603 1
0.503716 0.894484 1
0.589944 0.903365 1
0.621012 0.922621 1
0.670039 0.934783 1
0.764248 0.937179 1
0.165682 0.987121 1
0.259495 0.993896 1
0.352193 1 1
0.44181 1 1
0.52929 1 1
0.615213 1 1
0.665965 1 1
0.68307 1 1
0.753277 1 1
