site/assets/luts/freshluts--0000264-soft-teal-and-orange-look.cube
# LUTr-Schema-Version: 2
# LUTr-ID: freshluts--0000264-soft-teal-and-orange-look
# LUTr-Title: soft Teal and Orange look
# LUTr-Collection: Fresh LUTs
# LUTr-Collection-ID: freshluts-community
# LUTr-Source: https://freshluts.com
# LUTr-Retrieved: 2026-07-27
# LUTr-Source-File: submissions-raw/freshluts/cubes/264__Teal_and_Orange_look.cube
# LUTr-Source-Format: CUBE
# LUTr-Source-SHA256: 7d91486dae661420544891c533390b76060af0b89e6ad29b4bdce48f34aaa4d9
# LUTr-License: CC0-1.0
# LUTr-License-URL: https://freshluts.com/termsandconditions
# LUTr-License-Basis: site-terms
# LUTr-Transform-Class: creative-look
# LUTr-Tags: creative, freshluts, community, cube, orange, low-key, rec709, warm
# LUTr-Input-Color-Space: rec709
# LUTr-Input-Gamut: rec709
# LUTr-Input-Transfer: rec709
# LUTr-Output-Color-Space: srgb
# LUTr-Output-Gamut: rec709
# LUTr-Output-Transfer: srgb
# LUTr-Color-Space-Confidence: inferred-from-source-label
# LUTr-Domain-Normalized: true
# LUTr-Shaper: none
# LUTr-Original-Grid: 16x16x16
# LUTr-Conversion-Grid: 16x16x16
# LUTr-Conversion-Interpolation: none
# LUTr-Conversion-Method: Metadata normalization; numeric LUT samples preserved
# LUTr-Conversion-Tool: LUTr scripts/convert-all-to-cube.mjs 2.0.0
# LUTr-Conversion-Date: 2026-07-28
# LUTr-Asset-URL: https://freshluts.com/luts/264
# LUTr-Author: FinnYoutube
# LUTr-Author-URL: https://freshluts.com/users/5419
# LUTr-Attribution: FinnYoutube via Fresh LUTs
# LUTr-Source-Labels: gamma=Rec 709; color=Orange; key=Low Key; style=Teal - Orange
# LUTr-Note: Preserve this metadata and the upstream license notices when redistributing.
TITLE "soft Teal and Orange look"
LUT_3D_SIZE 6
DOMAIN_MIN 0 0 0
DOMAIN_MAX 1 1 1
0 0 0
0.073189 -0.045539 -0.045539
0.343863 -0.086931 -0.086931
0.584257 -0.126878 -0.126878
0.838567 -0.173217 -0.173217
1.091387 -0.240577 -0.240577
0 0.145925 0.000103
0.064862 0.145925 0.000109
0.402834 0.08123 -0.196199
0.617486 0.014964 -0.194238
0.859497 -0.126447 -0.220528
1.107573 -0.210486 -0.282943
0 0.31412 0.000135
0.056934 0.31412 0.000137
0.320215 0.31412 0.000142
0.651374 0.266678 -0.337251
0.935045 0.195974 -0.390924
1.177101 0.129254 -0.446405
0 0.48045 0.000158
0.052703 0.48045 0.000159
0.305456 0.48045 0.000162
0.55346 0.48045 0.000166
0.848659 0.479927 -0.346523
1.223917 0.434206 -0.636237
0 0.676614 0.00022
0.056337 0.676614 0.000222
0.318196 0.676614 0.000231
0.570298 0.676614 0.000247
0.799711 0.676614 0.000268
1.045353 0.758912 0.000327
0 0.966189 0.000338
0.075696 0.966189 0.000339
0.377051 0.966189 0.000343
0.64862 0.966189 0.000351
0.897008 0.966189 0.000362
1.045353 0.966189 0.000376
0 0.000042 0.13598
0.064862 0.000051 0.13598
0.320215 0.000058 0.128564
0.561776 -0.073532 0.117472
0.823887 -0.142054 0.082613
1.080842 -0.215853 -0.111389
0 0.145925 0.13598
0.066378 0.145621 0.133856
0.349036 0.130551 0.117967
0.586899 0.108931 0.095193
0.840086 0.049432 0.010094
1.092409 -0.175728 -0.1869
0 0.31412 0.128564
0.064862 0.31412 0.13598
0.320215 0.31412 0.13598
0.659079 0.265447 -0.300257
0.922874 0.214925 -0.331965
1.163254 0.161411 -0.391577
0 0.48045 0.12436
0.064862 0.48045 0.13598
0.310868 0.48045 0.13598
0.55346 0.48045 0.13598
0.857972 0.477878 -0.338256
1.225499 0.429091 -0.616118
0 0.676614 0.128002
0.064863 0.676614 0.13598
0.322767 0.676614 0.13598
0.571764 0.676614 0.13598
0.799711 0.676614 0.13598
1.045383 0.758256 0.135541
0 0.966189 0.145242
0.064863 0.966189 0.13598
0.371885 0.966189 0.13598
0.646572 0.966189 0.135981
0.896296 0.966189 0.135981
1.045353 0.966189 0.135981
0 0.000055 0.288495
0.056934 0.00006 0.288495
0.320215 0.000067 0.288495
0.55346 0.000068 0.279653
0.799711 0.000077 0.287292
1.045818 -0.03527 0.323229
0 0.137678 0.288495
0.064862 0.145925 0.288495
0.320215 0.145925 0.288495
0.55346 0.145925 0.282893
0.799711 0.145925 0.290028
1.049376 0.133332 0.317149
0 0.31412 0.288495
0.064862 0.31412 0.288495
0.324616 0.313536 0.284269
0.597775 0.295941 0.263289
0.846261 0.280967 0.249538
1.096364 0.240755 0.206376
0 0.48045 0.279653
0.064862 0.48045 0.282893
0.320215 0.48045 0.288495
0.55346 0.48045 0.288495
0.900081 0.460014 -0.29398
1.21577 0.410693 -0.492088
0 0.676614 0.287292
0.064863 0.676614 0.290028
0.320215 0.676614 0.288495
0.570938 0.676614 0.288495
0.799711 0.676614 0.288495
1.052035 0.750462 0.247271
0 0.966189 0.323565
0.064863 0.966189 0.320314
0.320215 0.966189 0.288495
0.627219 0.966189 0.288495
0.889214 0.966189 0.288495
1.045353 0.966189 0.288495
0 0.000064 0.440874
0.052703 0.000067 0.440874
0.305456 0.000075 0.440874
0.55346 0.000078 0.440874
0.799711 0.000078 0.45264
1.045353 0.000088 0.508621
0 0.132994 0.440874
0.064862 0.145925 0.440874
0.310868 0.145925 0.440874
0.55346 0.145925 0.440874
0.799711 0.145925 0.453656
1.045353 0.145925 0.507172
0 0.304396 0.440874
0.064862 0.307974 0.440874
0.320215 0.31412 0.440874
0.55346 0.31412 0.440874
0.799711 0.31412 0.453095
1.045353 0.31412 0.493131
0 0.48045 0.440874
0.064862 0.48045 0.440874
0.320215 0.48045 0.440874
0.559227 0.479583 0.434479
0.858771 0.456377 0.404715
1.104584 0.433616 0.384506
0 0.676614 0.45264
0.064863 0.676614 0.453656
0.320215 0.676614 0.453095
0.55346 0.676614 0.440874
0.799711 0.676614 0.440874
1.113316 0.707541 0.153966
0 0.966189 0.508621
0.064863 0.966189 0.507172
0.320215 0.966189 0.493131
0.553461 0.966189 0.440874
0.864724 0.966189 0.440874
1.045353 0.966189 0.440874
0 0.000073 0.6219
0.056336 0.000075 0.6219
0.318196 0.00008 0.6219
0.570297 0.000088 0.6219
0.799711 0.000089 0.6219
1.045353 0.000101 0.698025
0 0.137037 0.6219
0.064862 0.145925 0.6219
0.322766 0.145925 0.6219
0.571764 0.145925 0.6219
0.799711 0.145925 0.6219
1.045353 0.145925 0.697467
0 0.312792 0.6219
0.064862 0.31582 0.6219
0.320215 0.31412 0.6219
0.570938 0.31412 0.6219
0.799711 0.31412 0.6219
1.045353 0.31412 0.691901
0 0.493272 0.6219
0.064862 0.494356 0.6219
0.320215 0.493767 0.6219
0.55346 0.48045 0.6219
0.799711 0.48045 0.6219
1.045353 0.48045 0.672576
0 0.676614 0.6219
0.064863 0.676614 0.6219
0.320215 0.676614 0.6219
0.55346 0.676614 0.6219
0.806978 0.675426 0.613006
1.122512 0.637972 0.564386
0 0.966189 0.698025
0.064863 0.966189 0.697467
0.320215 0.966189 0.691901
0.553461 0.966189 0.672576
0.799711 0.966189 0.6219
1.045353 0.966189 0.6219
0 0.000084 0.890844
0.075695 0.000085 0.890844
0.37705 0.000089 0.890844
0.64862 0.000095 0.890844
0.897008 0.000103 0.890844
1.045353 0.000102 0.890844
0 0.15623 0.890844
0.064862 0.145925 0.890844
0.371885 0.145925 0.890844
0.646572 0.145925 0.890844
0.896296 0.145925 0.890844
1.045353 0.145925 0.890844
0 0.352536 0.890844
0.064862 0.349 0.890844
0.320215 0.31412 0.890844
0.627219 0.31412 0.890844
0.889214 0.31412 0.890844
1.045353 0.31412 0.890844
0 0.554093 0.890844
0.064862 0.552471 0.890844
0.320215 0.537294 0.890844
0.55346 0.48045 0.890844
0.864724 0.48045 0.890844
1.045353 0.48045 0.890844
0 0.758912 0.890844
0.064863 0.758266 0.890844
0.320215 0.752323 0.890844
0.55346 0.731345 0.890844
0.799711 0.676614 0.890844
1.045353 0.676614 0.890844
0 0.966189 0.890844
0.064863 0.966189 0.890844
0.320215 0.966189 0.890844
0.553461 0.966189 0.890844
0.799711 0.966189 0.890844
1.045353 0.966189 0.890844
