site/assets/luts/freshluts--0001099-girl-in-studio.cube
# LUTr-Schema-Version: 2
# LUTr-ID: freshluts--0001099-girl-in-studio
# LUTr-Title: Girl in Studio
# LUTr-Collection: Fresh LUTs
# LUTr-Collection-ID: freshluts-community
# LUTr-Source: https://freshluts.com
# LUTr-Retrieved: 2026-07-27
# LUTr-Source-File: submissions-raw/freshluts/cubes/1099__Girl_in_Studio.cube
# LUTr-Source-Format: CUBE
# LUTr-Source-SHA256: 7785895f03e9a0d2e325f3123290510e8e6a3665cc5fc792cce4f05cbc1d8354
# LUTr-License: CC0-1.0
# LUTr-License-URL: https://freshluts.com/termsandconditions
# LUTr-License-Basis: site-terms
# LUTr-Transform-Class: creative-look
# LUTr-Tags: creative, freshluts, community, cube, panasonic-v-log
# LUTr-Input-Color-Space: panasonic-vlog-vgamut
# LUTr-Input-Gamut: panasonic-v-gamut
# LUTr-Input-Transfer: panasonic-v-log
# LUTr-Output-Color-Space: srgb
# LUTr-Output-Gamut: rec709
# LUTr-Output-Transfer: srgb
# LUTr-Color-Space-Confidence: inferred-from-source-label
# LUTr-Domain-Normalized: true
# LUTr-Shaper: none
# LUTr-Original-Grid: 35x35x35
# LUTr-Conversion-Grid: 35x35x35
# LUTr-Conversion-Interpolation: none
# LUTr-Conversion-Method: Metadata normalization; numeric LUT samples preserved
# LUTr-Conversion-Tool: LUTr scripts/convert-all-to-cube.mjs 2.0.0
# LUTr-Conversion-Date: 2026-07-28
# LUTr-Asset-URL: https://freshluts.com/luts/1099
# LUTr-Author: Camera Head Studios LUTS
# LUTr-Author-URL: https://freshluts.com/users/107973
# LUTr-Attribution: Camera Head Studios LUTS via Fresh LUTs
# LUTr-Source-Labels: gamma=Panasonic V-log; color=None; key=Neutral; style=Cinematic/Dark
# LUTr-Note: Preserve this metadata and the upstream license notices when redistributing.
# LUTr-Upstream-Comment: Created by: Pixelmator Pro
# LUTr-Upstream-Comment: Color profile: "sRGB IEC61966-2.1"
# LUTr-Upstream-Comment: Data domain
# LUTr-Upstream-Comment: LUT size
TITLE "Girl in Studio"
LUT_3D_SIZE 5
DOMAIN_MIN 0.000000 0.000000 0.000000
DOMAIN_MAX 0.823529 0.823529 0.823529
0 0 0
0.165 0 0
0.833 0 0
1 0 0
1 0 0
0 0.038 0
0 0 0
0.592 0 0
1 0 0
1 0 0
0 0.525 0
0 0.498 0
0.335 0.405 0
0.969 0.334 0
1 0.386 0
0 0.993 0
0 0.996 0
0.215 0.988 0
0.916 0.96 0
1 0.973 0
0 1 0
0 1 0
0.223 1 0
0.929 1 0
1 1 0
0 0 0.274
0.071 0 0.125
0.758 0 0.014
1 0 0
1 0 0
0 0.011 0.03
0 0 0
0.635 0 0
1 0 0
1 0 0
0 0.485 0
0 0.497 0
0.324 0.4 0
0.993 0.318 0
1 0.347 0
0 0.998 0
0 1 0
0.171 0.991 0
0.92 0.963 0
1 0.966 0
0 1 0
0 1 0
0.152 1 0
0.911 1 0
1 1 0
0 0 0.998
0.005 0 0.892
0.638 0 0.72
1 0 0.566
1 0 0.515
0 0 0.746
0 0 0.799
0.522 0 0.634
1 0 0.491
1 0 0.469
0 0.433 0.495
0 0.429 0.504
0.271 0.351 0.439
1 0.263 0.346
1 0.263 0.338
0 0.996 0.439
0 1 0.415
0.098 0.995 0.321
0.914 0.958 0.251
1 0.95 0.266
0 1 0.646
0 1 0.556
0.064 1 0.416
0.878 1 0.322
1 1 0.345
0 0 1
0 0 1
0.519 0 1
1 0 1
1 0 1
0 0 1
0 0 1
0.428 0 1
1 0 1
1 0 1
0 0.39 1
0 0.372 1
0.227 0.293 1
0.999 0.231 1
1 0.244 1
0 0.995 1
0 1 1
0.088 0.992 1
0.896 0.943 0.98
1 0.925 0.962
0 1 1
0 1 1
0.062 1 0.998
0.836 1 0.96
1 1 0.935
0 0 1
0 0 1
0.453 0 1
1 0 1
1 0 1
0 0 1
0 0 1
0.395 0 1
1 0 1
1 0 1
0 0.414 1
0 0.366 1
0.219 0.263 1
0.999 0.214 1
1 0.236 1
0 1 1
0 1 1
0.098 0.991 1
0.891 0.93 1
1 0.909 1
0 1 1
0 1 1
0.079 1 1
0.833 1 1
1 1 1
