site/assets/luts/freshluts--0000353-cine-series-roma-fellini.cube
# LUTr-Schema-Version: 2
# LUTr-ID: freshluts--0000353-cine-series-roma-fellini
# LUTr-Title: CINE SERIES_ROMA_FELLINI
# LUTr-Collection: Fresh LUTs
# LUTr-Collection-ID: freshluts-community
# LUTr-Source: https://freshluts.com
# LUTr-Retrieved: 2026-07-27
# LUTr-Source-File: submissions-raw/freshluts/cubes/353__ROMA_FELLINI.cube
# LUTr-Source-Format: CUBE
# LUTr-Source-SHA256: c810f343382e273c088a703d690f27e957bf4ca3d48ae08aeb393e92a752301e
# LUTr-License: CC0-1.0
# LUTr-License-URL: https://freshluts.com/termsandconditions
# LUTr-License-Basis: site-terms
# LUTr-Transform-Class: creative-look
# LUTr-Tags: creative, freshluts, community, cube, blue, cinematic
# LUTr-Input-Color-Space:
# LUTr-Input-Gamut: unspecified
# LUTr-Input-Transfer: unspecified
# LUTr-Output-Color-Space: srgb
# LUTr-Output-Gamut: rec709
# LUTr-Output-Transfer: srgb
# LUTr-Color-Space-Confidence: camera-profile-input-required
# LUTr-Domain-Normalized: true
# LUTr-Shaper: none
# LUTr-Original-Grid: 32x32x32
# LUTr-Conversion-Grid: 32x32x32
# LUTr-Conversion-Interpolation: none
# LUTr-Conversion-Method: Metadata normalization; numeric LUT samples preserved
# LUTr-Conversion-Tool: LUTr scripts/convert-all-to-cube.mjs 2.0.0
# LUTr-Conversion-Date: 2026-07-28
# LUTr-Asset-URL: https://freshluts.com/luts/353
# LUTr-Author: I WANT TO MAKE A FILM PODCAST
# LUTr-Author-URL: https://freshluts.com/users/15633
# LUTr-Attribution: I WANT TO MAKE A FILM PODCAST via Fresh LUTs
# LUTr-Source-Labels: gamma=Other; color=Blue; key=Neutral; style=Cinematic light
# LUTr-Note: Preserve this metadata and the upstream license notices when redistributing.
# LUTr-Upstream-Comment: Created by: Adobe Photoshop Export Color Lookup Plugin
# LUTr-Upstream-Comment: LUT size
# LUTr-Upstream-Comment: data domain
# LUTr-Upstream-Comment: LUT data points
TITLE "CINE SERIES_ROMA_FELLINI"
LUT_3D_SIZE 8
DOMAIN_MIN 0.000000 0.000000 0.000000
DOMAIN_MAX 0.903226 0.903226 0.903226
0.00296 0.003418 0.004669
0.024323 0.005493 0.006256
0.071198 0.00769 0.008545
0.170074 0.012054 0.011719
0.358124 0.023285 0.01651
0.540161 0.037018 0.018463
0.671173 0.04538 0.019562
0.74173 0.049469 0.019928
0.003967 0.01651 0.007324
0.029816 0.0159 0.008026
0.076691 0.020081 0.010376
0.174469 0.028351 0.013458
0.362427 0.044037 0.019287
0.545746 0.055054 0.024231
0.676514 0.057587 0.02417
0.746765 0.058533 0.024139
0.005005 0.049988 0.012817
0.035278 0.047241 0.013123
0.084534 0.041229 0.012573
0.182007 0.054871 0.016785
0.371094 0.07666 0.026215
0.555847 0.084076 0.033997
0.686066 0.076935 0.032654
0.755341 0.073425 0.031433
0.007416 0.175568 0.032867
0.038757 0.17215 0.034698
0.105072 0.158508 0.030731
0.193451 0.140198 0.027588
0.382202 0.145935 0.037994
0.567413 0.134094 0.045959
0.698853 0.109955 0.044373
0.767853 0.098297 0.041779
0.009521 0.343719 0.076477
0.02475 0.349609 0.088989
0.124176 0.327911 0.076843
0.244415 0.304321 0.069946
0.393951 0.274872 0.066223
0.58078 0.255341 0.071747
0.718811 0.225647 0.07193
0.794678 0.210205 0.071472
0.010681 0.520813 0.126099
0.027679 0.531006 0.141052
0.112915 0.523743 0.139954
0.264374 0.501831 0.127869
0.42453 0.482208 0.123932
0.590576 0.459656 0.12265
0.73056 0.441101 0.122345
0.809021 0.431244 0.122559
0.010834 0.686554 0.169159
0.027863 0.701996 0.184753
0.054565 0.72702 0.209351
0.24704 0.689148 0.182373
0.416473 0.673218 0.176819
0.586212 0.659637 0.176056
0.733185 0.648193 0.176727
0.810455 0.642975 0.177368
0.010925 0.792572 0.191986
0.027954 0.813751 0.207855
0.054657 0.849915 0.233002
0.233704 0.815094 0.213104
0.410339 0.798401 0.20575
0.582367 0.789368 0.205505
0.729828 0.783264 0.207001
0.808716 0.780151 0.207886
0.003113 0.004456 0.020508
0.012695 0.005737 0.021179
0.060455 0.007935 0.026093
0.161285 0.011993 0.033386
0.351654 0.023132 0.043427
0.536194 0.037415 0.041595
0.669189 0.046051 0.03476
0.741028 0.050079 0.031738
0.004059 0.015991 0.021973
0.013641 0.017303 0.022675
0.060547 0.022125 0.027893
0.161987 0.029602 0.035156
0.353485 0.045013 0.046326
0.540558 0.056458 0.04718
0.674133 0.059113 0.039856
0.745789 0.060364 0.036102
0.00351 0.050232 0.03241
0.019012 0.050781 0.033234
0.069458 0.045013 0.030029
0.169922 0.058075 0.038849
0.362061 0.080048 0.052612
0.550873 0.087585 0.056641
0.684265 0.080383 0.048737
0.755341 0.076843 0.044403
0.007202 0.175446 0.058441
0.02063 0.179932 0.062897
0.088226 0.166382 0.057159
0.181122 0.147003 0.050385
0.373352 0.152924 0.063568
0.562439 0.141174 0.068146
0.69751 0.11673 0.060699
0.768982 0.104858 0.055389
0.010742 0.344849 0.100952
0.021057 0.354431 0.111359
0.106659 0.338684 0.10434
0.232147 0.31366 0.094482
0.385193 0.283875 0.087006
0.575592 0.264221 0.09079
0.71637 0.234467 0.086151
0.794128 0.218903 0.083435
0.013062 0.52298 0.146759
0.025116 0.534027 0.158447
0.088257 0.535828 0.166168
0.252594 0.509369 0.147949
0.416595 0.489075 0.140778
0.585541 0.466064 0.135986
0.727905 0.447174 0.132874
0.808075 0.437225 0.131042
0.013794 0.689728 0.185425
0.025848 0.702972 0.196991
0.052887 0.728302 0.220978
0.234375 0.696259 0.198029
0.408722 0.678772 0.189209
0.581451 0.664368 0.185822
0.730743 0.652466 0.184113
0.809723 0.646973 0.183533
0.014038 0.796692 0.206696
0.026123 0.81311 0.218231
0.053131 0.849518 0.242767
0.219727 0.823334 0.227295
0.402435 0.803711 0.216614
0.577698 0.793579 0.213867
0.7276 0.786682 0.213226
0.808136 0.783203 0.212982
0.000549 0.007019 0.097351
0.010529 0.01001 0.10022
0.035767 0.011169 0.1008
0.144928 0.013 0.099457
0.341064 0.023895 0.097565
0.530243 0.038544 0.081238
0.666748 0.047424 0.062531
0.740143 0.051727 0.054352
0.001678 0.023041 0.098724
0.01059 0.026642 0.101471
0.036682 0.027313 0.102295
0.146637 0.032257 0.101562
0.343231 0.047821 0.100311
0.535339 0.059296 0.087402
0.672089 0.062439 0.068146
0.746246 0.063568 0.05957
0.00293 0.049774 0.100433
0.011475 0.053406 0.103821
0.036469 0.054565 0.104858
0.147217 0.065247 0.103668
0.347443 0.086426 0.10611
0.542816 0.093994 0.096344
0.681854 0.086548 0.077972
0.756195 0.083069 0.068359
0.007263 0.17572 0.12088
0.014557 0.1828 0.127991
0.054871 0.182587 0.127808
0.15863 0.160278 0.112
0.358826 0.165314 0.115143
0.554504 0.153442 0.107147
0.695282 0.128754 0.089508
0.770752 0.116364 0.080322
0.011932 0.3461 0.155151
0.022247 0.355743 0.165192
0.068115 0.359985 0.169769
0.210693 0.329773 0.148987
0.37088 0.299194 0.132507
0.567169 0.279388 0.125854
0.712891 0.24939 0.112244
0.793976 0.233673 0.105713
0.015411 0.525208 0.191772
0.027496 0.536224 0.20343
0.047272 0.554596 0.222534
0.230835 0.521851 0.192841
0.402893 0.500092 0.177063
0.577332 0.476715 0.162811
0.724091 0.457581 0.152588
0.807007 0.447418 0.147858
0.01712 0.69339 0.222809
0.029205 0.706726 0.234375
0.048981 0.72934 0.253357
0.21051 0.708679 0.235626
0.395172 0.687958 0.217896
0.573669 0.672546 0.206451
0.727203 0.659912 0.199036
0.809052 0.654022 0.195709
0.017792 0.801758 0.240601
0.029877 0.818481 0.252106
0.049652 0.847626 0.271088
0.19278 0.838715 0.26239
0.388947 0.812531 0.242004
0.57016 0.800964 0.231659
0.724274 0.793091 0.2258
0.807587 0.789154 0.223419
0.000031 0.012329 0.210052
0.005371 0.018524 0.227386
0.028046 0.026062 0.234039
0.106262 0.020233 0.227051
0.319214 0.026428 0.220917
0.517487 0.040527 0.202271
0.659576 0.050201 0.179779
0.73703 0.05481 0.168823
0.000031 0.034607 0.22049
0.006805 0.041779 0.228973
0.029144 0.049316 0.236206
0.108185 0.04303 0.229218
0.321869 0.053802 0.223938
0.523376 0.064392 0.208832
0.666534 0.06781 0.186462
0.744507 0.069489 0.175049
0.00238 0.072144 0.225037
0.009369 0.079529 0.231812
0.029755 0.08786 0.239655
0.109985 0.081085 0.232513
0.326874 0.097778 0.229828
0.531525 0.104523 0.218109
0.677643 0.097046 0.197052
0.756317 0.093964 0.184875
0.006104 0.175751 0.230835
0.013428 0.182831 0.237823
0.025269 0.194397 0.249054
0.110199 0.185791 0.240387
0.330994 0.186066 0.237427
0.538696 0.173309 0.227631
0.688873 0.148407 0.208405
0.770844 0.136169 0.197113
0.011932 0.346558 0.256897
0.022308 0.356201 0.266632
0.039276 0.371948 0.282806
0.165375 0.357819 0.268311
0.343719 0.323517 0.242004
0.551208 0.303284 0.233398
0.7052 0.273743 0.217682
0.792023 0.258392 0.20932
0.016693 0.526642 0.28302
0.028809 0.537689 0.294434
0.048553 0.556061 0.31311
0.184387 0.543793 0.30072
0.376434 0.517426 0.273254
0.562012 0.493439 0.248322
0.716888 0.474762 0.235352
0.805634 0.465027 0.22876
0.019623 0.696381 0.304474
0.031708 0.709747 0.315857
0.051483 0.732483 0.334412
0.15329 0.734528 0.336151
0.368927 0.702362 0.301819
0.559509 0.68573 0.278687
0.721466 0.673035 0.260742
0.809174 0.667542 0.255615
0.020935 0.806274 0.317413
0.03302 0.823181 0.328644
0.052795 0.852753 0.347229
0.116699 0.882751 0.36438
0.362701 0.826752 0.319641
0.556427 0.813263 0.297333
0.71933 0.805328 0.281189
0.808533 0.801514 0.273621
0.000031 0.023987 0.334869
0.00238 0.029388 0.389069
0.018768 0.046936 0.404053
0.130585 0.038666 0.393585
0.276947 0.036072 0.383881
0.493591 0.045807 0.366089
0.64389 0.054443 0.346222
0.725494 0.058899 0.33609
0.000031 0.052612 0.364166
0.005371 0.061737 0.391937
0.022278 0.078857 0.407379
0.133942 0.070465 0.397675
0.282135 0.06662 0.389252
0.501373 0.073303 0.374237
0.652893 0.075745 0.354431
0.734863 0.077515 0.343689
0.000305 0.104004 0.387604
0.010681 0.114227 0.397095
0.027588 0.131042 0.412567
0.139069 0.12265 0.403778
0.288666 0.117737 0.396301
0.510681 0.120789 0.384277
0.665314 0.112274 0.365845
0.749481 0.108521 0.355408
0.005585 0.205231 0.393799
0.015991 0.215179 0.403259
0.03299 0.231567 0.418823
0.140411 0.224884 0.411896
0.293457 0.218353 0.404388
0.518066 0.202393 0.393585
0.677246 0.17627 0.377411
0.764954 0.163422 0.36792
0.010559 0.346497 0.401886
0.020996 0.356079 0.411469
0.037964 0.371918 0.42691
0.133331 0.37027 0.42514
0.294556 0.360504 0.414978
0.523407 0.337006 0.404572
0.688354 0.306854 0.391022
0.781647 0.291443 0.383698
0.016418 0.527069 0.420776
0.028473 0.538086 0.431793
0.048279 0.556427 0.449799
0.154907 0.556183 0.449432
0.3284 0.543457 0.436798
0.534424 0.516113 0.413025
0.700043 0.496918 0.401031
0.794952 0.487152 0.394989
0.020325 0.697723 0.435242
0.03241 0.711121 0.446198
0.052185 0.733887 0.464111
0.097504 0.765869 0.487915
0.319427 0.724365 0.456696
0.532471 0.702789 0.432068
0.705963 0.689331 0.414246
0.800507 0.683746 0.408844
0.022186 0.808563 0.444061
0.034271 0.825592 0.454987
0.054016 0.855377 0.472839
0.085907 0.911011 0.501862
0.31189 0.849152 0.469299
0.53006 0.828186 0.443909
0.704803 0.81955 0.426758
0.80127 0.81601 0.418396
0.000031 0.039978 0.451111
0.000031 0.046631 0.517548
0.009216 0.061768 0.585938
0.077179 0.078949 0.600037
0.2771 0.056061 0.570892
0.453613 0.057739 0.559967
0.616272 0.06366 0.542847
0.702667 0.067444 0.534515
0.000031 0.067963 0.509613
0.000031 0.07608 0.569824
0.017792 0.095764 0.594238
0.084656 0.113068 0.609406
0.28656 0.088959 0.580719
0.464081 0.089569 0.571136
0.627899 0.089355 0.553833
0.715271 0.090179 0.544952
0.000031 0.123322 0.558899
0.007324 0.134705 0.584503
0.026947 0.154297 0.603363
0.090729 0.172546 0.620361
0.296204 0.14679 0.591461
0.475616 0.145691 0.583893
0.642578 0.134491 0.56778
0.732239 0.130066 0.559021
0.002655 0.221893 0.580963
0.014679 0.233521 0.592407
0.034332 0.252594 0.61145
0.088501 0.2742 0.633667
0.302826 0.244965 0.601562
0.484253 0.242493 0.595276
0.655579 0.213989 0.581024
0.749298 0.200256 0.573425
0.00882 0.358795 0.589111
0.020844 0.369995 0.600677
0.040649 0.388367 0.620087
0.072449 0.417999 0.652466
0.304993 0.382416 0.612671
0.489441 0.378357 0.606445
0.665771 0.346252 0.594116
0.764069 0.330383 0.588104
0.014679 0.526947 0.599823
0.026794 0.537994 0.611603
0.04657 0.556335 0.631226
0.0784 0.586884 0.664154
0.300873 0.554443 0.628571
0.490967 0.547729 0.620575
0.671478 0.52594 0.609161
0.773285 0.515564 0.604156
0.019409 0.697937 0.611664
0.031494 0.711365 0.623566
0.05127 0.734161 0.643524
0.08313 0.773468 0.677032
0.29007 0.739807 0.648102
0.48877 0.726746 0.636414
0.677582 0.7099 0.619843
0.779083 0.703522 0.615112
0.021667 0.809204 0.618744
0.033752 0.826233 0.630737
0.053528 0.85611 0.650848
0.085419 0.911865 0.684814
0.280914 0.872101 0.661041
0.486145 0.849609 0.646179
0.676819 0.836365 0.629395
0.78064 0.831848 0.622253
0.000031 0.05368 0.545349
0.000031 0.060425 0.615173
0.000031 0.072235 0.739929
0.02533 0.10257 0.815918
0.222076 0.082031 0.779999
0.424103 0.072571 0.754974
0.583923 0.075958 0.742249
0.675049 0.078522 0.733246
0.000031 0.078217 0.624786
0.000031 0.086212 0.694092
0.005981 0.101562 0.789734
0.03717 0.133972 0.832977
0.234619 0.112701 0.797119
0.436279 0.103088 0.771881
0.598022 0.10556 0.760162
0.690155 0.105377 0.750031
0.000031 0.12854 0.709686
0.000031 0.138397 0.776276
0.018799 0.157623 0.807098
0.050385 0.189362 0.853271
0.246887 0.168365 0.816559
0.449829 0.157532 0.792114
0.614532 0.158691 0.782166
0.709595 0.152924 0.772308
0.000031 0.223267 0.770905
0.00946 0.234924 0.79541
0.029266 0.253906 0.822632
0.060974 0.284729 0.871429
0.255737 0.264587 0.835571
0.460938 0.25235 0.811462
0.629181 0.251953 0.803711
0.72818 0.237122 0.794922
0.005341 0.359131 0.792236
0.017456 0.3703 0.808502
0.037262 0.388641 0.836731
0.069122 0.418304 0.888275
0.257874 0.401062 0.855408
0.467468 0.386963 0.829254
0.638702 0.385376 0.822601
0.741913 0.368561 0.81543
0.012329 0.526886 0.80658
0.024384 0.537903 0.823395
0.044189 0.556274 0.852997
0.076111 0.586761 0.907867
0.250824 0.574677 0.884003
0.469452 0.556213 0.850189
0.643829 0.553284 0.84314
0.750092 0.541748 0.836853
0.017639 0.697784 0.82132
0.029724 0.711212 0.838867
0.04953 0.734009 0.869965
0.081421 0.773285 0.928864
0.232269 0.770569 0.92392
0.467163 0.737793 0.873688
0.644775 0.732178 0.864441
0.752808 0.724365 0.858307
0.020233 0.809143 0.830139
0.032257 0.826111 0.848114
0.052094 0.856018 0.880127
0.083984 0.911774 0.941925
0.214905 0.925049 0.956726
0.464386 0.86499 0.888611
0.644043 0.855682 0.877472
0.754395 0.849213 0.869019
0.000031 0.061127 0.595917
0.000031 0.068146 0.667938
0.000031 0.079926 0.805908
0.017395 0.106873 0.986755
0.17691 0.102631 0.963226
0.404022 0.08255 0.899353
0.56897 0.08313 0.877899
0.658295 0.085602 0.869324
0.000031 0.084198 0.688446
0.000031 0.092194 0.765015
0.000031 0.105255 0.935272
0.032745 0.137909 1
0.189545 0.133148 1
0.417023 0.112488 0.927338
0.583405 0.112305 0.905243
0.674896 0.11441 0.896729
0.000031 0.132263 0.799622
0.000031 0.141632 0.887909
0.013855 0.159851 0.977478
0.051514 0.192841 1
0.204865 0.189575 1
0.432251 0.165619 0.966248
0.601044 0.164459 0.943268
0.695374 0.166107 0.934631
0.000031 0.224487 0.900787
0.006256 0.235931 0.959686
0.027802 0.255035 1
0.070892 0.285889 1
0.219055 0.285004 1
0.444092 0.260254 1
0.616608 0.256775 0.986359
0.714691 0.257477 0.978851
0.003143 0.359497 0.955872
0.01535 0.370636 0.987061
0.043488 0.387726 1
0.092407 0.414825 1
0.231293 0.418091 1
0.452301 0.395966 1
0.624023 0.392578 1
0.723328 0.392731 1
0.010773 0.526886 0.983215
0.028473 0.536438 1
0.065369 0.550079 1
0.124664 0.572601 1
0.248169 0.583282 1
0.463776 0.562866 1
0.631226 0.561981 1
0.727722 0.563751 1
0.022583 0.695282 1
0.05072 0.702026 1
0.096649 0.713287 1
0.170135 0.732117 1
0.27951 0.753754 1
0.487335 0.732117 1
0.650085 0.735626 1
0.743317 0.741028 1
0.036469 0.799652 1
0.068817 0.805054 1
0.121338 0.814117 1
0.205414 0.829285 1
0.319733 0.851746 1
0.513275 0.834961 1
0.676025 0.842377 1
0.769775 0.851898 1
