site/assets/luts/freshluts--0000622-darkwarm.cube
# LUTr-Schema-Version: 2
# LUTr-ID: freshluts--0000622-darkwarm
# LUTr-Title: DARK.WARM
# LUTr-Collection: Fresh LUTs
# LUTr-Collection-ID: freshluts-community
# LUTr-Source: https://freshluts.com
# LUTr-Retrieved: 2026-07-27
# LUTr-Source-File: submissions-raw/freshluts/cubes/622__warm-lwst_24.A008_05161445_C065.cube
# LUTr-Source-Format: CUBE
# LUTr-Source-SHA256: 2253a36f28d5fff3113c1921df486697fd53493de74037b1d38e9d6989c308fa
# LUTr-License: CC0-1.0
# LUTr-License-URL: https://freshluts.com/termsandconditions
# LUTr-License-Basis: site-terms
# LUTr-Transform-Class: creative-look
# LUTr-Tags: creative, freshluts, community, cube, red, low-key, bmd-film, warm
# LUTr-Input-Color-Space: bmd-film
# LUTr-Input-Gamut: bmd-film-gamut
# LUTr-Input-Transfer: bmd-film
# LUTr-Output-Color-Space: srgb
# LUTr-Output-Gamut: rec709
# LUTr-Output-Transfer: srgb
# LUTr-Color-Space-Confidence: inferred-from-source-label
# LUTr-Domain-Normalized: true
# LUTr-Shaper: none
# LUTr-Original-Grid: 33x33x33
# LUTr-Conversion-Grid: 33x33x33
# LUTr-Conversion-Interpolation: none
# LUTr-Conversion-Method: Metadata normalization; numeric LUT samples preserved
# LUTr-Conversion-Tool: LUTr scripts/convert-all-to-cube.mjs 2.0.0
# LUTr-Conversion-Date: 2026-07-28
# LUTr-Asset-URL: https://freshluts.com/luts/622
# LUTr-Author: lvannoeun@gmail.com
# LUTr-Author-URL: https://freshluts.com/users/57563
# LUTr-Attribution: lvannoeun@gmail.com via Fresh LUTs
# LUTr-Source-Labels: gamma=Blackmagic BMD Film; color=Red; key=Low Key; style=Horror / Dark
# LUTr-Note: Preserve this metadata and the upstream license notices when redistributing.
TITLE "DARK.WARM"
LUT_3D_SIZE 5
DOMAIN_MIN 0 0 0
DOMAIN_MAX 1 1 1
0.0442054 0.0399481 0.0160525
0.249897 0.0394446 0.0124666
0.495048 0.037705 0.0106813
0.744259 0.0375372 0.0115511
0.885161 0.0645914 0.0484932
0.117601 0.205707 0.0880446
0.242878 0.2392 0.0642557
0.495613 0.241443 0.00921645
0.75288 0.236606 0.00918593
0.911376 0.257053 0.0589914
0.20827 0.405768 0.180056
0.33286 0.440208 0.198871
0.480293 0.477821 0.131502
0.747524 0.487526 0.0121462
0.948043 0.497581 0.0717632
0.304051 0.61883 0.273198
0.436164 0.653269 0.298222
0.569696 0.689845 0.297856
0.731014 0.728054 0.200229
0.951049 0.745586 0.13283
0.407187 0.833539 0.370062
0.544793 0.866133 0.397406
0.677836 0.900954 0.407706
0.814633 0.93724 0.384665
0.974792 0.970428 0.312718
0.0442969 0.0400702 0.20647
0.248844 0.0385138 0.221088
0.495964 0.0364233 0.214023
0.751644 0.0348821 0.20473
0.907012 0.0595712 0.219333
0.133181 0.21355 0.192477
0.248325 0.245167 0.223316
0.498375 0.241947 0.216983
0.759838 0.23653 0.211749
0.947799 0.251331 0.232959
0.172244 0.43212 0.269551
0.348226 0.449088 0.315938
0.487556 0.485145 0.290684
0.755535 0.489143 0.211673
0.991394 0.493172 0.230015
0.268696 0.646677 0.355779
0.450538 0.663569 0.41091
0.585519 0.697887 0.429541
0.738582 0.735515 0.360571
0.99115 0.748348 0.242725
0.392004 0.85452 0.46215
0.558038 0.876677 0.507927
0.695598 0.908675 0.531548
0.829145 0.943282 0.530892
0.984939 0.979919 0.43505
0.0447852 0.0399634 0.433845
0.248264 0.0379492 0.460304
0.494926 0.0360418 0.454246
0.75314 0.0338293 0.446006
0.948486 0.0493324 0.435676
0.134676 0.225559 0.298939
0.24976 0.246159 0.444633
0.499245 0.241718 0.45716
0.761639 0.236515 0.452537
0.993133 0.241093 0.450675
0.238575 0.425162 0.391028
0.365911 0.458289 0.423926
0.494484 0.492287 0.454536
0.75874 0.489998 0.449683
0.997681 0.489616 0.449027
0.302937 0.649271 0.486534
0.411536 0.691356 0.50341
0.601831 0.707057 0.547707
0.745968 0.742794 0.522683
0.997497 0.74873 0.444312
0.331212 0.888655 0.555245
0.521126 0.904585 0.596033
0.710079 0.918364 0.657618
0.844297 0.950545 0.680278
0.990188 0.986267 0.59968
0.0464179 0.0416114 0.669841
0.246357 0.0390326 0.718639
0.493492 0.0371099 0.71107
0.752132 0.0349432 0.700465
0.961669 0.0477607 0.674846
0.108415 0.237659 0.48864
0.250431 0.246754 0.686885
0.499428 0.241672 0.719341
0.76231 0.236515 0.713817
0.998138 0.238376 0.706218
0.260365 0.434363 0.484291
0.368704 0.471717 0.533913
0.496956 0.49453 0.69723
0.760678 0.490898 0.714122
0.998596 0.490303 0.714244
0.352193 0.649805 0.597147
0.484123 0.683726 0.632319
0.620111 0.716609 0.670161
0.753109 0.750011 0.70837
0.99884 0.74934 0.706279
0.419699 0.874464 0.720119
0.557351 0.906447 0.757488
0.670848 0.945663 0.779385
0.860624 0.95874 0.837934
0.995163 0.992447 0.804746
0.0542916 0.0508278 0.868345
0.241184 0.0495308 0.928054
0.47953 0.0466773 0.962615
0.719738 0.0506905 0.953262
0.915129 0.0699321 0.910399
0.092958 0.244099 0.723949
0.253468 0.250111 0.95108
0.498985 0.243458 0.996551
0.758907 0.23975 0.993011
0.982651 0.250431 0.962676
0.24358 0.451225 0.621393
0.340612 0.486412 0.755657
0.499565 0.497139 0.977447
0.762722 0.492821 0.992676
0.998917 0.492119 0.990402
0.381369 0.65771 0.706111
0.508232 0.693156 0.750072
0.622629 0.73051 0.81622
0.756344 0.753002 0.975998
0.999451 0.750835 0.982727
0.47396 0.873838 0.857298
0.608957 0.906233 0.896757
0.743862 0.937591 0.934386
0.879423 0.96791 0.95848
0.999954 0.999298 0.979095
