site/assets/luts/freshluts--0000674-cool-green-tint-first-correct-your-footages-after-apply-this.cube
# LUTr-Schema-Version: 2
# LUTr-ID: freshluts--0000674-cool-green-tint-first-correct-your-footages-after-apply-this
# LUTr-Title: Cool. Green-tint. First correct your footages after apply this LUT.
# LUTr-Collection: Fresh LUTs
# LUTr-Collection-ID: freshluts-community
# LUTr-Source: https://freshluts.com
# LUTr-Retrieved: 2026-07-27
# LUTr-Source-File: submissions-raw/freshluts/cubes/674__THINK-HOPE_33.00018.cube
# LUTr-Source-Format: CUBE
# LUTr-Source-SHA256: 9a44bfa00e947fb084f2c810eaea901144f32d817c0091ca0c10c725231a822d
# LUTr-License: CC0-1.0
# LUTr-License-URL: https://freshluts.com/termsandconditions
# LUTr-License-Basis: site-terms
# LUTr-Transform-Class: creative-look
# LUTr-Tags: creative, freshluts, community, cube, green, high-key, canon-cinestyle, cool, correction
# LUTr-Input-Color-Space:
# LUTr-Input-Gamut: rec709
# LUTr-Input-Transfer: canon-cinestyle
# LUTr-Output-Color-Space: srgb
# LUTr-Output-Gamut: rec709
# LUTr-Output-Transfer: srgb
# LUTr-Color-Space-Confidence: camera-profile-input-required
# LUTr-Domain-Normalized: true
# LUTr-Shaper: none
# LUTr-Original-Grid: 33x33x33
# LUTr-Conversion-Grid: 33x33x33
# LUTr-Conversion-Interpolation: none
# LUTr-Conversion-Method: Metadata normalization; numeric LUT samples preserved
# LUTr-Conversion-Tool: LUTr scripts/convert-all-to-cube.mjs 2.0.0
# LUTr-Conversion-Date: 2026-07-28
# LUTr-Asset-URL: https://freshluts.com/luts/674
# LUTr-Author: lvannoeun@gmail.com
# LUTr-Author-URL: https://freshluts.com/users/57563
# LUTr-Attribution: lvannoeun@gmail.com via Fresh LUTs
# LUTr-Source-Labels: gamma=Canon Cinestyle; color=Green; key=High Key; style=Drama
# LUTr-Note: Preserve this metadata and the upstream license notices when redistributing.
TITLE "Cool. Green-tint. First correct your footages after apply this LUT."
LUT_3D_SIZE 9
DOMAIN_MIN 0 0 0
DOMAIN_MAX 1 1 1
0.0479591 0 0.054902
0.0479591 0 0.0480659
0.179278 0 0.035996
0.317403 0 0.0320745
0.445716 0 0.0309758
0.568139 0 0.0315557
0.686458 0 0.0330816
0.801724 0 0.0358434
0.914611 0 0.0393378
0.0363012 0.107057 0.0735332
0.0371099 0.099794 0.0666209
0.188205 0.0876936 0.0545815
0.326055 0.0843977 0.0510872
0.454246 0.0839094 0.0502937
0.576318 0.0848859 0.0509499
0.694636 0.0873426 0.0530404
0.809949 0.0906996 0.0560159
0.922515 0.0946975 0.0596017
0.020264 0.239307 0.0834669
0.0212711 0.231418 0.0760967
0.185336 0.219745 0.064622
0.322881 0.2168 0.0615244
0.451041 0.216571 0.0610056
0.57322 0.217746 0.0618448
0.691539 0.220417 0.0641184
0.806851 0.223987 0.0672465
0.919249 0.228077 0.0708934
0.00144961 0.374212 0.0906386
0.0146029 0.364553 0.081651
0.178805 0.354131 0.071397
0.316243 0.351446 0.0685588
0.444434 0.351247 0.0680858
0.566598 0.352773 0.0692607
0.684901 0.355612 0.0716716
0.800214 0.359335 0.0749218
0.912642 0.363561 0.0786603
0 0.51075 0.0958724
0.00733959 0.499763 0.0856641
0.170123 0.490089 0.076173
0.307576 0.487572 0.0734722
0.435447 0.487434 0.0730602
0.557733 0.489235 0.074464
0.676036 0.492195 0.0769665
0.791135 0.495735 0.0800488
0.903822 0.500313 0.0840772
0 0.648066 0.0994736
0 0.636805 0.0890364
0.159701 0.627237 0.0796368
0.297078 0.624857 0.0770886
0.424887 0.624826 0.0767529
0.547127 0.626719 0.0782483
0.665537 0.629709 0.080766
0.780484 0.633341 0.0838941
0.893172 0.637964 0.0879072
0 0.786145 0.101457
0 0.774823 0.0910048
0.147845 0.765316 0.0816205
0.285145 0.762997 0.079118
0.412894 0.763012 0.0788434
0.53518 0.76492 0.0803235
0.653544 0.767926 0.0828565
0.768368 0.771572 0.0859846
0.88101 0.77615 0.0899825
0 0.925002 0.102419
0 0.913466 0.091783
0.134615 0.90399 0.0824445
0.271641 0.901411 0.0796979
0.399588 0.901717 0.0796521
0.521935 0.903563 0.0810864
0.640055 0.906447 0.0834821
0.754925 0.910155 0.0866712
0.867506 0.914672 0.0905928
0 1 0.10309
0 1 0.0921187
0.122728 1 0.0826886
0.259251 1 0.0799268
0.387076 1 0.0798199
0.509407 1 0.0811933
0.627482 1 0.0833906
0.742824 1 0.0866102
0.855512 1 0.0905318
0.0480507 0 0.164874
0.0480507 0 0.158495
0.180911 0 0.146395
0.318959 0 0.142565
0.447242 0 0.141512
0.56936 0 0.141863
0.687816 0 0.143679
0.803235 0 0.146426
0.915892 0 0.149752
0.0362554 0.109361 0.183841
0.0370794 0.1019 0.176791
0.189563 0.0900282 0.165087
0.327337 0.0867781 0.161669
0.455512 0.0863355 0.160922
0.577752 0.0872816 0.161532
0.696071 0.0897536 0.163638
0.811368 0.0931411 0.166613
0.923674 0.0970932 0.170123
0.0201572 0.241703 0.193866
0.02121 0.233433 0.186191
0.186801 0.222141 0.175158
0.324331 0.219226 0.172107
0.45243 0.219028 0.171633
0.574655 0.220203 0.172488
0.692973 0.222919 0.174762
0.808255 0.226505 0.177905
0.920577 0.23064 0.181552
0.00106813 0.376761 0.201205
0.0166476 0.36669 0.191959
0.180423 0.356558 0.182086
0.317769 0.353902 0.179294
0.445609 0.353643 0.178805
0.568048 0.355291 0.180056
0.686351 0.358144 0.182452
0.801541 0.361746 0.185565
0.913954 0.366171 0.189441
0 0.513252 0.206699
0.00921645 0.502144 0.196429
0.17174 0.492561 0.18706
0.308949 0.490105 0.184482
0.436774 0.489998 0.1841
0.559182 0.491783 0.185473
0.677455 0.494759 0.187976
0.792554 0.498299 0.191043
0.905196 0.502907 0.195071
0 0.650568 0.210086
0 0.639124 0.199542
0.161349 0.629755 0.190387
0.298344 0.627329 0.187808
0.426291 0.62742 0.187594
0.548592 0.629297 0.189075
0.666865 0.632334 0.191623
0.781903 0.635935 0.194705
0.89456 0.640543 0.198734
0 0.788693 0.212161
0 0.777234 0.201648
0.149462 0.767834 0.192432
0.28629 0.765301 0.189761
0.414374 0.765576 0.1897
0.536553 0.767514 0.191226
0.654688 0.770245 0.193484
0.769787 0.774151 0.196841
0.882383 0.778744 0.200824
0 0.92755 0.213382
0 0.915908 0.202747
0.136202 0.906508 0.19353
0.273136 0.903944 0.190829
0.401038 0.90425 0.190799
0.523354 0.906111 0.192233
0.641321 0.908827 0.194461
0.756283 0.912703 0.197772
0.868849 0.917235 0.201694
0 1 0.213931
0 1 0.202914
0.124361 1 0.193652
0.260929 1 0.190875
0.388693 1 0.190768
0.511009 1 0.192142
0.629023 1 0.194324
0.744335 1 0.197543
0.856916 1 0.20145
0.0482185 0 0.276051
0.0482032 0 0.269642
0.182483 0 0.257633
0.32047 0 0.253864
0.448722 0 0.252888
0.57084 0 0.253452
0.689265 0 0.255314
0.804715 0 0.258045
0.917342 0 0.261265
0.036286 0.11162 0.295079
0.0371252 0.104051 0.287953
0.191089 0.092256 0.276387
0.328786 0.0890516 0.27303
0.456794 0.0885023 0.272175
0.579156 0.0896315 0.272953
0.697459 0.0921187 0.275074
0.812619 0.0955673 0.278111
0.925063 0.0995041 0.281666
0.0201114 0.244053 0.305226
0.021912 0.235538 0.29749
0.188327 0.22443 0.286732
0.325795 0.221576 0.283757
0.453635 0.221134 0.283055
0.576074 0.222614 0.284184
0.694347 0.22533 0.286473
0.809247 0.228702 0.289387
0.921965 0.233112 0.293278
0.000885023 0.37908 0.312749
0.0187381 0.368887 0.303365
0.181979 0.358938 0.293675
0.319249 0.356313 0.290929
0.447028 0.356069 0.29041
0.569467 0.357748 0.291707
0.687755 0.360616 0.294148
0.802823 0.364111 0.297139
0.915343 0.368673 0.301152
0 0.515435 0.317876
0.0112764 0.504433 0.307744
0.173327 0.494987 0.298558
0.31046 0.492561 0.295995
0.438224 0.492485 0.295644
0.560616 0.494285 0.297032
0.678874 0.497276 0.29955
0.793942 0.500832 0.302602
0.906447 0.505486 0.306676
0 0.652918 0.321447
0.00117494 0.641443 0.310903
0.162936 0.632212 0.301915
0.299718 0.629648 0.299229
0.427665 0.629953 0.299214
0.550027 0.63183 0.300679
0.668162 0.634714 0.30309
0.783307 0.638468 0.306294
0.895827 0.643137 0.310353
0 0.791196 0.323827
0 0.779599 0.313191
0.151064 0.770306 0.304036
0.287755 0.767803 0.301427
0.415641 0.768154 0.301381
0.537972 0.770047 0.302846
0.655955 0.772808 0.305119
0.77116 0.776669 0.308446
0.883757 0.781277 0.312413
0 0.930053 0.324926
0 0.918303 0.314244
0.137682 0.908873 0.305028
0.274434 0.906508 0.302495
0.402472 0.906767 0.302419
0.524559 0.908675 0.303914
0.642695 0.91133 0.306096
0.757641 0.915206 0.309377
0.870176 0.919722 0.313298
0 1 0.325521
0 1 0.314504
0.125811 1 0.305043
0.262577 1 0.30251
0.39028 1 0.302449
0.512306 1 0.303563
0.630533 1 0.305974
0.745708 1 0.309194
0.858366 1 0.313054
0.0484016 0 0.387823
0.0484169 0 0.381094
0.183886 0 0.369574
0.321767 0 0.365988
0.449958 0 0.364965
0.57229 0 0.365362
0.690715 0 0.367208
0.806165 0 0.36997
0.918639 0 0.373251
0.0363622 0.113848 0.406882
0.037232 0.106081 0.399603
0.192569 0.0944533 0.38822
0.330205 0.09131 0.38497
0.458076 0.0906386 0.384146
0.58053 0.0919051 0.385122
0.698817 0.0944381 0.387274
0.813794 0.0977646 0.390158
0.926436 0.101869 0.393805
0.0201114 0.246372 0.417121
0.0242618 0.237552 0.409125
0.189837 0.226719 0.398642
0.32723 0.223896 0.395682
0.455055 0.223484 0.39501
0.577478 0.224994 0.39617
0.695735 0.227741 0.398489
0.810636 0.231144 0.401404
0.923323 0.235538 0.405295
0.00077821 0.38146 0.424674
0.0206149 0.371115 0.415167
0.18352 0.361273 0.4056
0.320592 0.358557 0.402777
0.448463 0.35848 0.402426
0.570886 0.360174 0.403738
0.689143 0.363073 0.40618
0.804028 0.366629 0.409216
0.916716 0.371145 0.413199
0 0.517876 0.429847
0.0132753 0.506691 0.419593
0.174899 0.497383 0.410529
0.311711 0.494728 0.407782
0.439643 0.494926 0.407691
0.562036 0.496757 0.40911
0.680079 0.499458 0.411368
0.795132 0.50338 0.41474
0.907805 0.507988 0.418753
0 0.655375 0.433448
0.00317388 0.643748 0.422812
0.164523 0.634638 0.413947
0.301213 0.63212 0.411292
0.429099 0.632425 0.411292
0.551431 0.634302 0.412757
0.669459 0.637064 0.415045
0.784649 0.64097 0.418402
0.897108 0.64564 0.422446
0 0.793652 0.435935
0 0.781994 0.425315
0.152605 0.772732 0.416266
0.289219 0.77026 0.413672
0.417075 0.770611 0.413642
0.539361 0.772519 0.415061
0.657328 0.77528 0.41735
0.772503 0.779156 0.4206
0.884978 0.783795 0.424567
0 0.932509 0.436988
0 0.920729 0.426261
0.139086 0.911162 0.416938
0.275914 0.908965 0.414588
0.403784 0.909255 0.414542
0.525841 0.911025 0.4159
0.643946 0.913832 0.418204
0.758968 0.917678 0.421469
0.871397 0.922087 0.425269
0 1 0.437598
0 1 0.426551
0.127489 1 0.417136
0.264027 1 0.414664
0.391806 1 0.414557
0.513756 1 0.415671
0.631998 1 0.418082
0.747082 1 0.421317
0.859571 1 0.424872
0.0485695 0 0.499992
0.0486458 0 0.493202
0.185367 0 0.481651
0.323232 0 0.478111
0.451179 0 0.476982
0.573724 0 0.477653
0.692149 0 0.47953
0.807263 0 0.482033
0.920089 0 0.485588
0.0364843 0.115908 0.518929
0.0373388 0.108186 0.511727
0.194049 0.0966506 0.500435
0.331624 0.0935531 0.497185
0.459464 0.0929122 0.4963
0.581903 0.0942245 0.497322
0.700191 0.0967727 0.499489
0.815076 0.100008 0.502358
0.927779 0.104234 0.506142
0.0201724 0.248402 0.529259
0.026627 0.239551 0.521187
0.191348 0.228992 0.510918
0.328649 0.2262 0.507988
0.456443 0.225818 0.507362
0.578836 0.227359 0.508537
0.697124 0.230121 0.510857
0.811978 0.233555 0.513802
0.924681 0.237964 0.517693
0.000732433 0.383734 0.536904
0.0226291 0.373297 0.527321
0.185046 0.363592 0.517922
0.321935 0.360784 0.515007
0.449882 0.360876 0.514809
0.572274 0.362585 0.516152
0.69041 0.365347 0.518441
0.805386 0.36907 0.521645
0.918074 0.373617 0.525643
0 0.520272 0.542199
0.0152285 0.508919 0.531823
0.176425 0.499748 0.522896
0.313176 0.497124 0.520165
0.441077 0.497368 0.520119
0.563424 0.499214 0.521538
0.681437 0.50193 0.523796
0.796506 0.505852 0.527184
0.909148 0.51046 0.531197
0 0.657801 0.545846
0.00491341 0.646097 0.535134
0.165942 0.636912 0.526223
0.302678 0.634546 0.52372
0.430533 0.634882 0.523735
0.552819 0.636774 0.5252
0.670832 0.639536 0.527504
0.78584 0.643488 0.530892
0.898451 0.648127 0.53492
0 0.796094 0.548226
0 0.784344 0.537484
0.153918 0.774884 0.528267
0.2907 0.772732 0.525902
0.418479 0.773083 0.525933
0.540551 0.774701 0.527138
0.658686 0.777752 0.529671
0.7738 0.781659 0.532998
0.886198 0.786297 0.536995
0 0.934951 0.549401
0 0.923064 0.538613
0.140612 0.913573 0.529351
0.277348 0.911391 0.527016
0.405097 0.911742 0.527031
0.527092 0.913314 0.528206
0.645182 0.916304 0.530678
0.760266 0.920119 0.533913
0.872663 0.924483 0.537652
0 1 0.550011
0 1 0.538903
0.129137 1 0.52958
0.265538 1 0.527153
0.393271 1 0.527031
0.515099 1 0.528176
0.633448 1 0.530541
0.748486 1 0.533745
0.860365 1 0.537316
0.0487526 0 0.612467
0.0488899 0 0.605615
0.186892 0 0.59411
0.324697 0 0.5906
0.452598 0 0.589532
0.575158 0 0.590234
0.693584 0 0.592142
0.808606 0 0.59469
0.921523 0 0.598245
0.0366217 0.118059 0.631418
0.0374914 0.110277 0.624155
0.195514 0.0988327 0.61297
0.332876 0.095613 0.609598
0.460853 0.0951858 0.608881
0.583093 0.0965591 0.609934
0.701534 0.0990768 0.612085
0.816419 0.102327 0.614969
0.929137 0.106584 0.618753
0.0202182 0.250706 0.641642
0.0286107 0.241657 0.633356
0.192859 0.23125 0.62327
0.329854 0.228244 0.620203
0.457847 0.228168 0.619852
0.580072 0.229755 0.621088
0.698268 0.232197 0.623163
0.813352 0.235935 0.626383
0.926024 0.240391 0.630274
0.000732433 0.386099 0.649546
0.0245975 0.375463 0.639796
0.186389 0.365972 0.630594
0.323369 0.363134 0.627665
0.451286 0.363256 0.627512
0.573465 0.365042 0.628901
0.691676 0.367636 0.631037
0.806745 0.371496 0.634379
0.919417 0.376043 0.638346
0 0.522667 0.654871
0.0169223 0.511223 0.644419
0.177752 0.502159 0.635615
0.314626 0.499519 0.632868
0.442496 0.499779 0.632822
0.564645 0.501686 0.634302
0.682826 0.504372 0.636545
0.797864 0.508293 0.639918
0.910491 0.512901 0.643946
0 0.660212 0.658518
0.00679026 0.648371 0.6477
0.167178 0.6392 0.638819
0.304128 0.636957 0.636439
0.431937 0.637308 0.636469
0.55407 0.639078 0.637827
0.672175 0.641978 0.640253
0.787167 0.645945 0.643641
0.899672 0.650446 0.647532
0 0.798535 0.660792
0 0.786664 0.650034
0.155261 0.77734 0.64097
0.292149 0.775143 0.638621
0.419898 0.775525 0.638666
0.541909 0.777142 0.639887
0.660044 0.780194 0.64242
0.774975 0.784131 0.645777
0.887312 0.788434 0.64947
0 0.937377 0.662089
0 0.925277 0.651164
0.142016 0.915999 0.6421
0.278767 0.913817 0.63975
0.40647 0.914153 0.639765
0.528435 0.915724 0.640925
0.64651 0.91873 0.643397
0.761563 0.92253 0.646632
0.873686 0.926802 0.650278
0 1 0.66273
0 1 0.651331
0.130755 1 0.642298
0.267079 1 0.639887
0.394385 1 0.639567
0.516548 1 0.640909
0.634699 1 0.643305
0.749905 1 0.646479
0.860822 1 0.65008
0.0489815 0 0.724956
0.0491646 0 0.718288
0.188388 0 0.706844
0.326101 0 0.703243
0.454047 0 0.702113
0.576577 0 0.702846
0.695003 0 0.704784
0.81004 0 0.707485
0.922942 0 0.711101
0.0367895 0.120165 0.744091
0.0376593 0.112352 0.736843
0.196948 0.100984 0.72575
0.334142 0.0976883 0.722316
0.462211 0.0974136 0.721752
0.584436 0.0988327 0.72282
0.702571 0.101244 0.724819
0.817777 0.104662 0.727764
0.93048 0.108934 0.731579
0.0202792 0.252995 0.754482
0.0307012 0.243717 0.745998
0.194125 0.233555 0.736141
0.331136 0.230549 0.733043
0.45922 0.230472 0.732677
0.581415 0.23212 0.733944
0.699458 0.234623 0.736019
0.814694 0.238315 0.739223
0.927352 0.242771 0.74316
0.000762951 0.388449 0.762295
0.0264744 0.37763 0.752392
0.187716 0.368139 0.743206
0.324742 0.365499 0.740475
0.452689 0.365637 0.740291
0.574853 0.367437 0.74168
0.692851 0.370092 0.743908
0.808103 0.373922 0.747158
0.92076 0.37847 0.75111
0 0.525032 0.767788
0.0187839 0.513466 0.757198
0.179019 0.50425 0.748272
0.315938 0.50193 0.74583
0.4439 0.502174 0.745785
0.565789 0.503807 0.747036
0.684031 0.506828 0.749554
0.799191 0.510719 0.752911
0.911818 0.515358 0.756924
0 0.662608 0.77145
0.00865187 0.650645 0.76054
0.168658 0.641596 0.751766
0.305455 0.639384 0.749432
0.433341 0.639719 0.749447
0.555184 0.641413 0.750713
0.673503 0.644419 0.753246
0.78851 0.648386 0.756634
0.900969 0.652842 0.760479
0 0.800931 0.773739
0 0.788952 0.76289
0.156756 0.779736 0.753918
0.293538 0.777569 0.751598
0.421286 0.777935 0.751659
0.543267 0.779568 0.752865
0.661372 0.78262 0.755398
0.776287 0.786557 0.758755
0.888609 0.790845 0.762448
0 0.939773 0.775036
0 0.927443 0.763897
0.143404 0.91841 0.755077
0.280201 0.916213 0.752667
0.407721 0.916411 0.752544
0.529778 0.918135 0.753826
0.647822 0.921141 0.756252
0.762783 0.924819 0.75935
0.874937 0.929198 0.763119
0 1 0.775692
0 1 0.764233
0.132174 1 0.755306
0.268605 1 0.75285
0.39585 1 0.752529
0.517983 1 0.753872
0.636103 1 0.756283
0.751049 1 0.759152
0.861311 1 0.763012
0.0492103 0 0.837903
0.0494392 0 0.831189
0.189899 0 0.819806
0.327306 0 0.816007
0.455482 0 0.815152
0.577874 0 0.815946
0.696178 0 0.817578
0.811444 0 0.820462
0.924376 0 0.824063
0.0369573 0.122332 0.857084
0.0378424 0.114382 0.849714
0.19823 0.103197 0.838804
0.335393 0.0999466 0.835401
0.463447 0.0996719 0.834852
0.585779 0.101076 0.83592
0.703822 0.103426 0.837858
0.819104 0.10695 0.840909
0.931701 0.111299 0.84477
0.020325 0.255268 0.867567
0.0327306 0.245762 0.858869
0.195575 0.235767 0.849165
0.332464 0.232837 0.846128
0.460456 0.232807 0.845823
0.582757 0.23444 0.847074
0.700771 0.236973 0.84918
0.816022 0.240681 0.852384
0.928512 0.245197 0.856367
0.000823987 0.390784 0.875334
0.0282139 0.379858 0.865309
0.189105 0.370306 0.856077
0.326055 0.36788 0.853529
0.453895 0.368032 0.853407
0.576089 0.36965 0.854612
0.694209 0.372473 0.857008
0.809445 0.376303 0.860304
0.921935 0.380743 0.864179
0 0.527398 0.880827
0.0206607 0.515694 0.8701
0.180529 0.506584 0.861311
0.317327 0.504326 0.858885
0.445106 0.504631 0.858839
0.567163 0.506203 0.860044
0.685344 0.50927 0.862531
0.800549 0.513161 0.865873
0.912947 0.517494 0.869627
0 0.664988 0.884611
0.0102998 0.652781 0.873472
0.170169 0.643946 0.864912
0.306813 0.641794 0.862623
0.434546 0.642161 0.862684
0.556542 0.643809 0.863905
0.674693 0.646891 0.866484
0.789837 0.650797 0.869825
0.90219 0.655131 0.873549
0 0.803326 0.8869
0 0.790997 0.875746
0.158251 0.782116 0.867079
0.294804 0.779995 0.86482
0.422431 0.780041 0.864561
0.544442 0.78201 0.866102
0.662684 0.785031 0.868589
0.777584 0.788968 0.871946
0.889891 0.793256 0.875624
0 0.942168 0.887968
0 0.929824 0.876814
0.1449 0.92079 0.867994
0.281621 0.918608 0.86566
0.408988 0.918669 0.865415
0.53109 0.920531 0.866835
0.649119 0.923522 0.869307
0.763836 0.92723 0.872419
0.875624 0.931563 0.876143
0 1 0.888838
0 1 0.877348
0.133745 1 0.868452
0.2701 1 0.866026
0.397314 1 0.86569
0.519402 1 0.867048
0.637491 1 0.869429
0.752407 1 0.872297
0.861799 1 0.876127
0.0494545 0 0.95108
0.0497292 0 0.944274
0.191363 0 0.932952
0.32874 0 0.929213
0.456901 0 0.928389
0.579232 0 0.929229
0.697414 0 0.930922
0.812863 0 0.933761
0.925795 0 0.937392
0.0371252 0.124498 0.970275
0.0380407 0.116396 0.962783
0.199466 0.105196 0.951843
0.336736 0.102159 0.948653
0.464729 0.101915 0.94815
0.587121 0.103334 0.949218
0.705165 0.105699 0.951156
0.820432 0.109239 0.954253
0.932952 0.113619 0.958129
0.0204013 0.257527 0.980819
0.0346685 0.247822 0.971954
0.196796 0.237751 0.962173
0.333867 0.235111 0.959411
0.461769 0.235126 0.959136
0.583886 0.236454 0.960128
0.702113 0.239307 0.962524
0.817365 0.24303 0.965743
0.929839 0.247547 0.969711
0.000900282 0.393088 0.985702
0.0301061 0.38201 0.978469
0.1906 0.37258 0.96936
0.327459 0.370184 0.966827
0.455283 0.370382 0.966735
0.577356 0.371878 0.967865
0.695552 0.374868 0.970367
0.810773 0.378698 0.973678
0.923095 0.383139 0.977539
0 0.529656 0.98526
0.0224918 0.517906 0.983169
0.182055 0.508919 0.974472
0.318746 0.506676 0.972122
0.446494 0.506996 0.972137
0.568521 0.508614 0.973342
0.686702 0.51165 0.975906
0.801862 0.515557 0.979263
0.914076 0.519966 0.983047
0 0.667201 0.9841
0.0119173 0.654871 0.982223
0.171679 0.646311 0.978012
0.308248 0.64419 0.975753
0.435813 0.644404 0.975677
0.557916 0.64622 0.977066
0.676036 0.649302 0.979629
0.791058 0.653086 0.982834
0.903471 0.657542 0.984955
0 0.805524 0.982376
0 0.793286 0.980819
0.159762 0.784466 0.977005
0.296239 0.782406 0.976547
0.423758 0.782498 0.977005
0.545785 0.784436 0.977966
0.66389 0.787472 0.979309
0.778683 0.791058 0.980911
0.891173 0.795605 0.982712
0 0.944183 0.980209
0 0.932021 0.978805
0.146365 0.923095 0.97464
0.282811 0.921004 0.97409
0.410346 0.921019 0.974487
0.532265 0.922927 0.975418
0.650401 0.925872 0.976715
0.765011 0.929397 0.978286
0.875959 0.933822 0.980041
0 1 0.978469
0 1 0.976959
0.135348 1 0.972503
0.271351 1 0.971832
0.398764 1 0.972168
0.520821 1 0.973068
0.638865 1 0.974365
0.75375 1 0.975952
0.862257 1 0.977691
