site/assets/luts/freshluts--0001239-rubio-neon.cube
# LUTr-Schema-Version: 2
# LUTr-ID: freshluts--0001239-rubio-neon
# LUTr-Title: RUBIO NEON
# LUTr-Collection: Fresh LUTs
# LUTr-Collection-ID: freshluts-community
# LUTr-Source: https://freshluts.com
# LUTr-Retrieved: 2026-07-27
# LUTr-Source-File: submissions-raw/freshluts/cubes/1239__RUBIO_NEON.cube
# LUTr-Source-Format: CUBE
# LUTr-Source-SHA256: 7627e3f7552963f6996f5868b4c4a436279f75695547aecaf25768264f00aad1
# LUTr-License: CC0-1.0
# LUTr-License-URL: https://freshluts.com/termsandconditions
# LUTr-License-Basis: site-terms
# LUTr-Transform-Class: creative-look
# LUTr-Tags: creative, freshluts, community, cube, blue, rec709
# LUTr-Input-Color-Space: rec709
# LUTr-Input-Gamut: rec709
# LUTr-Input-Transfer: rec709
# LUTr-Output-Color-Space: srgb
# LUTr-Output-Gamut: rec709
# LUTr-Output-Transfer: srgb
# LUTr-Color-Space-Confidence: declared-by-source
# LUTr-Domain-Normalized: true
# LUTr-Shaper: none
# LUTr-Original-Grid: 33x33x33
# LUTr-Conversion-Grid: 33x33x33
# LUTr-Conversion-Interpolation: none
# LUTr-Conversion-Method: Metadata normalization; numeric LUT samples preserved
# LUTr-Conversion-Tool: LUTr scripts/convert-all-to-cube.mjs 2.0.0
# LUTr-Conversion-Date: 2026-07-28
# LUTr-Asset-URL: https://freshluts.com/luts/1239
# LUTr-Author: Antony Eliezer
# LUTr-Author-URL: https://freshluts.com/users/32961
# LUTr-Attribution: Antony Eliezer via Fresh LUTs
# LUTr-Source-Labels: gamma=Rec 709; color=Blue; key=Neutral; style=Colorful
# LUTr-Note: Preserve this metadata and the upstream license notices when redistributing.
# LUTr-Upstream-Comment: VEGAS Pro LUT
TITLE "RUBIO NEON"
LUT_3D_SIZE 33
DOMAIN_MIN 0 0 0
DOMAIN_MAX 1 1 1
0.052228 0.06159313 0.09581274
0.05242776 0.06219909 0.09697367
0.05777153 0.06300755 0.09655302
0.0637687 0.0617077 0.09513493
0.07358632 0.06024397 0.09372438
0.08837361 0.06048205 0.09410856
0.09939525 0.05894015 0.09308251
0.11755659 0.05623253 0.09006563
0.13824813 0.0540239 0.08696138
0.16041076 0.05326772 0.08486678
0.19519745 0.05168559 0.08285961
0.22759645 0.0508568 0.07990962
0.25858399 0.05128968 0.07728637
0.29736871 0.05299803 0.07582223
0.33380669 0.05188469 0.07410673
0.37367553 0.05317217 0.07272179
0.41488755 0.05616341 0.07184324
0.45477197 0.0596429 0.07150175
0.49366561 0.0631239 0.07184058
0.53247458 0.06770296 0.0721831
0.57119691 0.07338934 0.07439338
0.610071 0.08020106 0.07747574
0.64125311 0.08420904 0.0800359
0.67372459 0.09143427 0.08368484
0.70357579 0.09996463 0.08763561
0.72870415 0.10663351 0.09119359
0.75273573 0.11391908 0.09499022
0.77359128 0.12163005 0.09868029
0.79370767 0.12941538 0.10234717
0.81149399 0.13675077 0.10550744
0.81913215 0.14244501 0.10683677
0.8222248 0.14834796 0.10929256
0.8247239 0.14851584 0.10936452
0.05254324 0.06508411 0.09770318
0.05149255 0.06409743 0.09795199
0.05881996 0.06582563 0.0968972
0.0645354 0.0650994 0.09589946
0.07423661 0.06313188 0.09480622
0.09113698 0.0628435 0.09462193
0.10099454 0.06248659 0.09326047
0.11847039 0.06198503 0.09042695
0.14118932 0.06070153 0.08697581
0.16758084 0.05805212 0.08359262
0.19482701 0.05760121 0.08365317
0.22843118 0.05648253 0.08158331
0.26268774 0.05632567 0.07896504
0.30077434 0.05748641 0.07660795
0.33812448 0.05797254 0.07550163
0.37531245 0.06015106 0.07450812
0.41418967 0.06340041 0.07351226
0.45284301 0.0670357 0.07232598
0.49159449 0.0699875 0.07252228
0.53462595 0.07489522 0.07315852
0.57550055 0.08068762 0.07557903
0.61048901 0.08601823 0.07826462
0.64074558 0.09111372 0.08098894
0.67131889 0.09671494 0.08405638
0.70160663 0.10419027 0.08786354
0.73105615 0.11356544 0.09235832
0.75579852 0.12176121 0.09643443
0.77703106 0.12899032 0.09992393
0.79689127 0.13572396 0.10325251
0.81401432 0.14234966 0.10627092
0.82040203 0.14735711 0.10769521
0.82572019 0.15368249 0.11172277
0.82826775 0.15385526 0.11187433
0.05162863 0.06843948 0.09801409
0.0537032 0.0671361 0.09740074
0.05752074 0.06785255 0.09674977
0.06646158 0.06783172 0.0957447
0.07755982 0.06691135 0.09451589
0.09021588 0.06601698 0.09396983
0.10351375 0.06592872 0.09297606
0.12131044 0.06567002 0.08984538
0.14398566 0.06480905 0.08708857
0.17291074 0.06306855 0.0865257
0.20210613 0.06311437 0.08476049
0.23544396 0.06302202 0.08204612
0.26805103 0.06288996 0.07902418
0.30371466 0.06280247 0.07612745
0.34028882 0.06533373 0.07592444
0.3791064 0.06776349 0.07505041
0.4174673 0.07095172 0.07473111
0.453639 0.07440393 0.07515267
0.49420556 0.07674542 0.07385167
0.53508413 0.08124747 0.07438041
0.57501888 0.086409 0.07630006
0.61151952 0.09159917 0.07900819
0.64184898 0.09750849 0.08185214
0.67292184 0.10340592 0.08504149
0.70223558 0.11051931 0.08872294
0.73032463 0.11896747 0.0928636
0.75812399 0.12821963 0.09734209
0.78019428 0.13518308 0.10083306
0.79934275 0.1419394 0.10403981
0.81507671 0.14876984 0.10683159
0.82328779 0.1546046 0.10978436
0.82685357 0.15932231 0.11294809
0.82938719 0.15947938 0.11308871
0.0506126 0.07275489 0.09864819
0.05267975 0.07140255 0.09881459
0.05848804 0.07091604 0.0987229
0.06464151 0.07169207 0.09663551
0.07548995 0.07205969 0.09403934
0.09084446 0.07071715 0.09304889
0.10479143 0.07146548 0.09284309
0.12425757 0.071371 0.09049154
0.1481251 0.07077399 0.08829071
0.17716536 0.07003273 0.08751984
0.20702726 0.07042971 0.08468181
0.24068689 0.07031772 0.08224189
0.27269518 0.07053529 0.07997584
0.30731916 0.07122837 0.07754061
0.34437692 0.07412405 0.0763118
0.38217464 0.07637478 0.07551769
0.42012674 0.07912138 0.07504478
0.45735389 0.08287161 0.07513501
0.49923423 0.0865517 0.07501508
0.53911501 0.09069301 0.07556106
0.57685125 0.09514921 0.07759967
0.61294717 0.10010514 0.08024496
0.64189196 0.1054742 0.08288071
0.67351079 0.11236711 0.08634313
0.70233631 0.11944623 0.08995449
0.72882742 0.12637043 0.09352431
0.75741643 0.13434303 0.09769017
0.78069717 0.14137852 0.10130036
0.80152309 0.14878061 0.1048094
0.81810653 0.15635997 0.10797911
0.82606047 0.16251452 0.11173116
0.82833761 0.16670786 0.11456315
0.8308363 0.16691211 0.11468794
0.05020143 0.07692793 0.09915006
0.05167682 0.07590831 0.0995836
0.05923988 0.07517295 0.10001174
0.06543559 0.07578249 0.09771699
0.07315123 0.07647765 0.09452864
0.0895994 0.07571635 0.09309646
0.10544191 0.07737332 0.09296059
0.12694654 0.07844343 0.09128692
0.15234131 0.07870318 0.08929861
0.18102449 0.07902966 0.08772715
0.21071884 0.07912424 0.08478438
0.24442442 0.07933389 0.08278162
0.27698269 0.08044878 0.08121078
0.31110612 0.08241474 0.07933035
0.34859109 0.08475842 0.07744083
0.38648856 0.08656419 0.07676574
0.42411357 0.08895312 0.07600904
0.46258146 0.09286608 0.07496506
0.50478607 0.09752268 0.07590454
0.54402733 0.10192928 0.07729602
0.58137441 0.10610125 0.07936527
0.61671317 0.11105037 0.08196221
0.64378196 0.1158499 0.08443639
0.67526925 0.12241088 0.08775736
0.70452052 0.12930085 0.09115193
0.73085427 0.13562346 0.09448692
0.75859886 0.14248064 0.09843087
0.7826919 0.14974231 0.10214199
0.80486268 0.15772302 0.10588446
0.82298064 0.16571563 0.10979672
0.82967103 0.17109877 0.11357787
0.83206123 0.17529722 0.11626212
0.83452642 0.17547199 0.11637485
0.04979604 0.08046515 0.10012928
0.05521144 0.08040006 0.09818881
0.05899391 0.0808734 0.09817017
0.07104004 0.08016574 0.09745175
0.07961097 0.07970975 0.09620569
0.0844992 0.08092224 0.09506462
0.10515651 0.08248693 0.09389826
0.12874509 0.085049 0.09170157
0.1547915 0.08760012 0.08986228
0.18433428 0.08926088 0.08928668
0.21591027 0.0889046 0.08680128
0.24980007 0.09064594 0.08467688
0.28231382 0.09321468 0.08281539
0.31649888 0.09494918 0.08076735
0.35302854 0.09739669 0.07933281
0.39389846 0.09923111 0.07871827
0.43315229 0.10200737 0.07837558
0.46783304 0.1063294 0.0778088
0.50829381 0.10914072 0.0775448
0.54812139 0.11393899 0.07925738
0.58779556 0.11862618 0.08131368
0.62329668 0.12247191 0.08374942
0.65073204 0.12821542 0.08622365
0.68058497 0.13325746 0.0891748
0.7097317 0.13893193 0.09244993
0.73814309 0.14610082 0.09621476
0.7651484 0.15453166 0.10017443
0.78968036 0.16262703 0.10402401
0.8114866 0.17030108 0.10770627
0.82838839 0.17703313 0.11138807
0.83426315 0.18044615 0.11506525
0.83847249 0.18439174 0.11810128
0.84092969 0.1845125 0.11820713
0.04282268 0.09198736 0.10152346
0.05191395 0.09035304 0.10101806
0.06386905 0.08871735 0.1007574
0.07469696 0.08802971 0.10015797
0.08273529 0.08874536 0.09896363
0.08882715 0.09089252 0.09672743
0.10461621 0.09347834 0.09568455
0.12911171 0.09597304 0.0930848
0.15773189 0.09917627 0.09119702
0.18942364 0.10276024 0.09123726
0.22517398 0.1043892 0.08815955
0.25780916 0.10628823 0.08581449
0.28849897 0.10829667 0.08436689
0.32364193 0.11023024 0.08372403
0.36181614 0.11272066 0.08209269
0.40199357 0.11500283 0.08090293
0.44242904 0.11782446 0.08023699
0.48127446 0.12140588 0.07991617
0.51974201 0.12547928 0.08105389
0.55760545 0.13084744 0.08224215
0.59559065 0.13568315 0.08360171
0.6303919 0.13919507 0.08576889
0.65926921 0.14261247 0.08819915
0.69013643 0.14760025 0.09132391
0.71975869 0.15404326 0.09478915
0.74745733 0.16184856 0.09851665
0.77397799 0.16843732 0.10231736
0.79963976 0.17601454 0.10665168
0.82075614 0.18304768 0.11156809
0.83436543 0.1883845 0.11572503
0.83955127 0.19333103 0.11807618
0.84314299 0.19594386 0.12235008
0.84568477 0.19619352 0.12250134
0.03690561 0.10333333 0.10175697
0.04970254 0.1021255 0.10169327
0.06039894 0.10194124 0.10273972
0.07357017 0.10004366 0.10123741
0.08524719 0.09912594 0.0996529
0.09621893 0.10036152 0.09959332
0.10831716 0.10323031 0.0992443
0.12938061 0.10667942 0.09824017
0.15700682 0.11056478 0.09629335
0.19078153 0.1146941 0.09355546
0.22706684 0.11776454 0.08968189
0.26220474 0.12155043 0.086573
0.29592857 0.12490298 0.08451993
0.33310765 0.12712851 0.08382519
0.37174904 0.13044308 0.08411656
0.41103736 0.13347143 0.08329875
0.44994277 0.13594776 0.08225675
0.48898503 0.13829817 0.08196419
0.52849662 0.14295024 0.08435457
0.56495202 0.14714883 0.08441976
0.60230851 0.15107414 0.08547983
0.63869965 0.15502602 0.08772936
0.66857189 0.158896 0.09037007
0.69948697 0.16386901 0.09354029
0.72800773 0.16996425 0.09690856
0.75395793 0.17648539 0.10031628
0.7814014 0.18300521 0.10497536
0.8053149 0.19016984 0.10971934
0.82376295 0.19419511 0.11443731
0.83799154 0.19875403 0.11921606
0.84444994 0.20531268 0.12262706
0.849159 0.21051724 0.12751137
0.85170084 0.21072076 0.12770057
0.03247514 0.11699927 0.1032216
0.04446292 0.11672338 0.10285834
0.05367493 0.11834861 0.10518269
0.06990169 0.11523739 0.10308906
0.08802781 0.11223722 0.10117219
0.09997668 0.11260734 0.10318312
0.11304598 0.11458091 0.1032638
0.13201745 0.11905663 0.10335027
0.15680622 0.1236079 0.10157105
0.18976109 0.12715 0.09727874
0.22436687 0.13140731 0.09349189
0.26195657 0.13752095 0.08985228
0.29967457 0.14280833 0.08699463
0.34113055 0.14557065 0.08516189
0.38208535 0.14945255 0.08606455
0.42142445 0.15253995 0.08521347
0.45582092 0.15492281 0.08410356
0.49293861 0.15710652 0.08458232
0.53282994 0.16181834 0.08744845
0.57094342 0.16496982 0.0868063
0.61011899 0.16785453 0.08727565
0.64665359 0.17211871 0.08985463
0.67716724 0.17650856 0.09244135
0.70703894 0.17999615 0.09560861
0.7338537 0.18378402 0.09897875
0.7591483 0.18947561 0.10275811
0.78651541 0.19657499 0.10817052
0.80925429 0.20338753 0.11309037
0.82883334 0.20907584 0.11801507
0.84405059 0.21385831 0.12305876
0.85068929 0.22075716 0.12785082
0.8553884 0.22566512 0.13298577
0.85792589 0.22585736 0.13319594
0.0300166 0.13630374 0.10790783
0.03377391 0.13557804 0.10674286
0.04650924 0.13558595 0.10924616
0.06673761 0.13233058 0.10781587
0.08958731 0.12936778 0.10604359
0.10270742 0.12952472 0.10694794
0.11803792 0.12992963 0.10666763
0.13654944 0.13390735 0.10547953
0.16047642 0.1393614 0.10421891
0.18774706 0.14287616 0.10297607
0.22001605 0.14894763 0.10119012
0.25696328 0.15560693 0.09804863
0.29604012 0.16158453 0.09472074
0.34364328 0.16564201 0.09182654
0.38981217 0.16965233 0.08986329
0.43104273 0.17193356 0.08763931
0.46314394 0.1739639 0.08644738
0.49442139 0.17580158 0.08778095
0.53111237 0.18039151 0.09031068
0.57520086 0.18272606 0.0897825
0.62095422 0.1855513 0.08996607
0.65526193 0.19045901 0.09329629
0.68304622 0.19327891 0.09495144
0.71285969 0.1965529 0.09857392
0.74126601 0.20132914 0.10273827
0.76797736 0.20780757 0.10725135
0.79261512 0.21453409 0.11264849
0.81824028 0.22094704 0.11832248
0.83969927 0.22704989 0.12359548
0.85336804 0.23231411 0.12806623
0.85645884 0.23713459 0.13245817
0.86108828 0.24109353 0.13835035
0.86358446 0.24121499 0.13857888
0.02034777 0.16045244 0.11484102
0.03094628 0.15772423 0.11272138
0.04542871 0.15425876 0.11148596
0.06725417 0.15159543 0.11140721
0.08981556 0.14994453 0.11143505
0.10608982 0.14898679 0.11028509
0.12576662 0.14847256 0.10979738
0.14763175 0.15115111 0.10966531
0.1719363 0.15582763 0.10985166
0.19819929 0.16174822 0.11014419
0.2243626 0.16846575 0.10917706
0.25867543 0.17399514 0.10695015
0.29645267 0.17929246 0.10377319
0.34112388 0.18252859 0.09997223
0.38637045 0.18707846 0.09630943
0.42855313 0.19151245 0.09560747
0.46327755 0.19652288 0.09500034
0.49723041 0.2025421 0.0938732
0.53462636 0.20648329 0.09657907
0.58355778 0.20536463 0.09478205
0.6284287 0.20583974 0.09416983
0.66221517 0.21011148 0.09665158
0.68988162 0.21263988 0.09959388
0.7190665 0.21778378 0.10356005
0.74840558 0.22291039 0.1077821
0.77569544 0.22698183 0.11206806
0.79931325 0.23119664 0.11650483
0.82462293 0.23807843 0.12218536
0.84619021 0.24449284 0.12806402
0.85994965 0.24908768 0.13300109
0.8643533 0.2530264 0.13667886
0.86775815 0.25695953 0.142497
0.87020439 0.25718138 0.1427606
0.01327845 0.18436211 0.11886804
0.02841149 0.18100874 0.11754447
0.04417567 0.17682071 0.11526932
0.06526943 0.17378575 0.114871
0.08686785 0.17178544 0.11523773
0.10828052 0.16975588 0.1152126
0.13286123 0.16826266 0.11552541
0.15698574 0.17049862 0.11555472
0.18112278 0.17549887 0.11544923
0.20557037 0.18217795 0.11533999
0.23070031 0.18768494 0.1152645
0.2589168 0.19161457 0.11511347
0.29258192 0.19780666 0.11345226
0.33625805 0.20382343 0.10966688
0.37881359 0.21073578 0.10757591
0.42019099 0.21836212 0.10682654
0.45725495 0.22516648 0.10649075
0.49527967 0.23034739 0.10543918
0.53681868 0.23385172 0.10478202
0.59143347 0.23177992 0.10003196
0.63601637 0.23108122 0.09872773
0.66854542 0.23256184 0.10100051
0.69465911 0.2349346 0.10455574
0.72471112 0.23940505 0.10865198
0.75432825 0.24325088 0.11311203
0.78229338 0.24672511 0.11822841
0.80519193 0.25110847 0.12291835
0.82749748 0.25661725 0.12769218
0.8492744 0.2624642 0.13321333
0.86737561 0.26808241 0.1391829
0.87117976 0.27038637 0.14311126
0.87492019 0.27542859 0.14799002
0.87738568 0.27574655 0.14823154
0.00998302 0.20766583 0.12397686
0.02542826 0.20420103 0.12322042
0.04225723 0.20085976 0.12122256
0.06520398 0.19734734 0.12004944
0.08734735 0.19496682 0.12019893
0.11307539 0.19250904 0.12129541
0.13972861 0.19098282 0.12254558
0.16539124 0.19158532 0.12262014
0.18974216 0.19429289 0.12226576
0.21227436 0.20162797 0.12214725
0.2378521 0.20739891 0.12161183
0.2655578 0.21397182 0.12285478
0.29423258 0.22120015 0.12301157
0.33450761 0.22821271 0.12039154
0.37094909 0.23709609 0.12127357
0.40914211 0.2474861 0.12179274
0.45098248 0.25526604 0.12079864
0.49281827 0.25958803 0.11950135
0.54097205 0.2615158 0.11518963
0.59966725 0.260005 0.10786594
0.6451233 0.25992563 0.10555704
0.67642003 0.25938764 0.10713813
0.70297593 0.26086557 0.11071777
0.73303771 0.26359248 0.1142316
0.76197088 0.26620904 0.1185398
0.79014707 0.26938871 0.12453246
0.81379932 0.27430892 0.1304788
0.83426511 0.27865139 0.13512458
0.85569155 0.28402397 0.14061122
0.87563652 0.29035205 0.14737651
0.87928224 0.29305834 0.15147007
0.8830933 0.29720229 0.15543129
0.88556427 0.29750666 0.15562925
0.01046257 0.23666571 0.1335471
0.02102037 0.23358195 0.13147618
0.0383382 0.23141865 0.1295637
0.06836408 0.22793506 0.12819269
0.09613848 0.22383635 0.12802815
0.12195311 0.21800412 0.1284152
0.14580333 0.21648741 0.12946896
0.17225963 0.2155135 0.13015611
0.19758588 0.21702634 0.13117915
0.21885017 0.22286111 0.13291466
0.24713367 0.23228572 0.13040406
0.27743196 0.23822154 0.13023144
0.30612317 0.24466805 0.13078226
0.33840391 0.25629491 0.13200685
0.36588851 0.26563895 0.13611618
0.39934009 0.27584881 0.1395389
0.44423378 0.2841008 0.13786916
0.49147031 0.2893618 0.13297543
0.54532063 0.29025847 0.12859708
0.60882646 0.28941447 0.12025035
0.6560483 0.29033646 0.11635117
0.68778831 0.29168943 0.11620707
0.71785975 0.29119089 0.11886596
0.74613786 0.29262745 0.12087233
0.77322733 0.29454991 0.12405448
0.8001169 0.2969712 0.12986577
0.82707906 0.30051002 0.13748153
0.84862161 0.30549219 0.14388344
0.86865753 0.31097561 0.15049614
0.88547277 0.31702295 0.15737903
0.8893922 0.32284766 0.16082624
0.89186931 0.32223657 0.16488342
0.89427942 0.32217154 0.16506959
0.01317674 0.26533848 0.14056391
0.02353954 0.26183704 0.13827951
0.03979487 0.26017416 0.13549438
0.06557281 0.25753653 0.13435276
0.09216397 0.25300029 0.1350183
0.12271952 0.24583611 0.13614297
0.14780763 0.24510549 0.13417545
0.1790694 0.2428607 0.1358954
0.20500381 0.24199569 0.13862902
0.2194774 0.24486414 0.140202
0.2495921 0.25168195 0.14072366
0.27867088 0.25967285 0.14016412
0.30671299 0.26801813 0.13917439
0.3387239 0.27760619 0.1397472
0.36308265 0.29000506 0.14714448
0.39345899 0.30113328 0.15310609
0.43823102 0.30911973 0.15265964
0.4853884 0.31537983 0.14724667
0.53692448 0.31907383 0.14342913
0.60299808 0.31872672 0.13517666
0.65870446 0.31919968 0.12988265
0.69480598 0.32144848 0.12929973
0.72635967 0.32220402 0.12941031
0.75446677 0.32300818 0.13055727
0.78111953 0.32367659 0.13235432
0.80853581 0.3254368 0.13595729
0.83572757 0.32867751 0.14322011
0.85601687 0.33310524 0.15007603
0.87425655 0.33751997 0.15708035
0.88867974 0.34098518 0.16398935
0.89469922 0.34218642 0.16886531
0.90193206 0.35040429 0.17346516
0.90437722 0.35065627 0.17370149
0.01998721 0.2901291 0.14699557
0.03090221 0.28895101 0.1449116
0.04960527 0.28777087 0.14162794
0.07241922 0.28592184 0.14127512
0.09601158 0.28290221 0.14241678
0.12332544 0.27747047 0.14211231
0.15398553 0.27495891 0.14132077
0.18394285 0.27156124 0.14268146
0.20921372 0.26899144 0.14514436
0.2301957 0.26963127 0.14753564
0.25937864 0.27376348 0.14964154
0.28196976 0.28086102 0.14950921
0.30951437 0.28971604 0.14892858
0.33879802 0.30003747 0.15056875
0.36414811 0.3139706 0.15801738
0.39463487 0.32440013 0.16261762
0.43676659 0.33224815 0.16381201
0.48048317 0.34005883 0.16232175
0.52891016 0.34815291 0.15821674
0.5902943 0.34994122 0.15215002
0.65323895 0.35051298 0.14496741
0.69696128 0.35516733 0.14344648
0.73057824 0.35577965 0.14259829
0.76226985 0.35560477 0.14285186
0.79086477 0.35530826 0.14395282
0.81748068 0.35554788 0.14641629
0.84197909 0.35671699 0.15187313
0.86261648 0.3599982 0.15780784
0.88016844 0.36451218 0.16375406
0.89481276 0.36877966 0.17035067
0.90402925 0.36884964 0.17814253
0.91056031 0.37637481 0.18268727
0.91301179 0.37677729 0.1829077
0.02747476 0.31742609 0.15251316
0.0415023 0.31767827 0.15224715
0.0615974 0.31600514 0.14895888
0.08253631 0.31422156 0.14931887
0.10464817 0.31227931 0.15058884
0.12693219 0.3097429 0.14834693
0.16005506 0.30539012 0.1495772
0.18807247 0.30107543 0.15097144
0.21339001 0.29801953 0.15263666
0.24132432 0.29784694 0.15555695
0.26858371 0.29947868 0.15760246
0.29098558 0.30478582 0.15834349
0.3165684 0.31315234 0.15929222
0.34097648 0.32490855 0.16286856
0.36689788 0.33804658 0.16795589
0.39861175 0.34748209 0.17096642
0.43605605 0.35612652 0.17321636
0.47573054 0.36585382 0.17620496
0.5223363 0.37727243 0.17438783
0.57711655 0.38222635 0.17063478
0.6425249 0.38417527 0.16184665
0.69244981 0.3906287 0.15875252
0.72868633 0.39014989 0.15728663
0.76363885 0.38998973 0.15682642
0.79538262 0.38944459 0.15729794
0.82330209 0.38839254 0.15914471
0.84760177 0.38872239 0.16227192
0.8683992 0.39029682 0.16754937
0.88661259 0.39336216 0.17271118
0.90294933 0.39744788 0.17823379
0.91414499 0.39822459 0.1862936
0.91892284 0.40283617 0.19200666
0.92128986 0.40318459 0.19222358
0.03309913 0.35196397 0.15668337
0.05285619 0.3509326 0.16040505
0.0708972 0.34708631 0.15779001
0.09320442 0.34307793 0.15829501
0.11493599 0.34085166 0.1594321
0.13596664 0.3401427 0.15729123
0.16550168 0.33563817 0.15853254
0.19242981 0.33167794 0.1601124
0.21940546 0.32970008 0.16205709
0.24563967 0.32959685 0.1643014
0.26930061 0.32962728 0.16540383
0.29837784 0.33304295 0.16707242
0.32536548 0.34052867 0.17012425
0.34769052 0.35187924 0.17488866
0.37236878 0.36339977 0.1772189
0.40230411 0.37235445 0.18007772
0.43571895 0.38241488 0.18351157
0.47339219 0.39582986 0.18753056
0.51844966 0.4061994 0.19059813
0.5691359 0.41381329 0.1897672
0.63141221 0.41819096 0.18070312
0.68206018 0.42507893 0.1763036
0.72287303 0.42403916 0.17386349
0.75639558 0.42551216 0.17224225
0.79027176 0.42588022 0.17192046
0.82312804 0.42411435 0.17283253
0.85163897 0.42600942 0.17422213
0.8737734 0.42661139 0.17946237
0.8935858 0.4262262 0.18477859
0.91054505 0.42529881 0.18878429
0.92276663 0.42684639 0.19314669
0.9265759 0.43183953 0.20027739
0.9288044 0.43221897 0.20060317
0.04696734 0.38493681 0.16555819
0.06098194 0.38568759 0.16840467
0.08147246 0.38180599 0.16576797
0.10435455 0.37789613 0.16588026
0.12803787 0.37490386 0.16782536
0.1489666 0.37320647 0.16975689
0.17070563 0.37136248 0.16917838
0.19419675 0.3675727 0.16870853
0.22147506 0.36387455 0.16958167
0.25273204 0.36066017 0.17232275
0.28037816 0.35938522 0.17572165
0.30690387 0.36006123 0.17790022
0.32912615 0.36560795 0.18052898
0.34875202 0.37756306 0.184894
0.37928867 0.38825715 0.19018479
0.41180956 0.40001059 0.1923274
0.44687083 0.41164431 0.19477561
0.48305577 0.42300457 0.19861075
0.52395129 0.43277299 0.20246562
0.56977272 0.44247448 0.20533592
0.62609208 0.44876891 0.20148136
0.67697293 0.45584571 0.19778998
0.7174567 0.46063656 0.1939005
0.75406218 0.46090332 0.18998499
0.79050732 0.46039709 0.18836181
0.82163793 0.45917594 0.18899979
0.85144526 0.45831519 0.19145899
0.87539685 0.45916015 0.19434367
0.89670867 0.45827776 0.19762164
0.91529334 0.45638677 0.20135336
0.92984515 0.46228161 0.20670457
0.93281311 0.46302521 0.21001214
0.93501681 0.46320146 0.21025057
0.06537284 0.42469606 0.17741261
0.07821905 0.42586571 0.17792715
0.09248249 0.42264852 0.17640889
0.11399876 0.42075756 0.176092
0.1381979 0.41815126 0.1773635
0.16007634 0.41369328 0.17943498
0.18357156 0.40942299 0.17986125
0.20614177 0.40653065 0.18012853
0.23050435 0.40412793 0.1804328
0.25754067 0.40213802 0.18175389
0.28872317 0.39648464 0.1881406
0.31505269 0.39636499 0.19075845
0.33894095 0.4007383 0.19338547
0.36235586 0.40854093 0.19815946
0.38958558 0.41922161 0.20291351
0.42228055 0.43138206 0.20475298
0.45782635 0.44414473 0.20718177
0.49092028 0.45591566 0.21173784
0.53244466 0.46581471 0.21653351
0.57493925 0.47320184 0.21981841
0.62511444 0.47994912 0.22102925
0.67335999 0.48788717 0.22156669
0.71070153 0.49570921 0.21883614
0.74706417 0.49927601 0.21486841
0.78427267 0.49947783 0.21228509
0.82045865 0.49941832 0.2124348
0.85173023 0.49757856 0.21346776
0.87535101 0.49866438 0.21382901
0.8981781 0.4976725 0.21545294
0.92052543 0.49525335 0.21932361
0.93705404 0.49963707 0.22463639
0.94186199 0.50093222 0.22938451
0.94407111 0.50095409 0.22960304
0.08614188 0.46203479 0.1902871
0.09757347 0.46347797 0.189686
0.10883142 0.46371692 0.18807936
0.12640257 0.46204033 0.18786278
0.14737661 0.45930389 0.18835577
0.1685707 0.45508039 0.18886252
0.19518402 0.44900215 0.19140491
0.21927185 0.44514215 0.19257931
0.24145491 0.44344959 0.19345964
0.26974303 0.44341588 0.19510761
0.29839596 0.43700999 0.20039834
0.32482779 0.43677595 0.20293541
0.35179698 0.43892035 0.20573936
0.38012552 0.44136629 0.212194
0.40497997 0.45037287 0.21682876
0.43573311 0.46173945 0.21964379
0.4680537 0.47564021 0.22269708
0.49878415 0.48935515 0.22793449
0.53771788 0.49840206 0.23408712
0.57826221 0.5058881 0.23856238
0.62200546 0.50854242 0.24126096
0.66721445 0.51592147 0.24493778
0.70456505 0.52203995 0.24472296
