site/assets/luts/freshluts--0001222-color-vegas.cube
# LUTr-Schema-Version: 2
# LUTr-ID: freshluts--0001222-color-vegas
# LUTr-Title: COLOR VEGAS
# LUTr-Collection: Fresh LUTs
# LUTr-Collection-ID: freshluts-community
# LUTr-Source: https://freshluts.com
# LUTr-Retrieved: 2026-07-27
# LUTr-Source-File: submissions-raw/freshluts/cubes/1222__VEGAS_COLOR.cube
# LUTr-Source-Format: CUBE
# LUTr-Source-SHA256: 31931c4f9bed71a513d0dd7e1697e2f393ed3e3045df4ff1365cf7ea9d78497a
# LUTr-License: CC0-1.0
# LUTr-License-URL: https://freshluts.com/termsandconditions
# LUTr-License-Basis: site-terms
# LUTr-Transform-Class: creative-look
# LUTr-Tags: creative, freshluts, community, cube, film-emulation, blue, sony-s-log3
# LUTr-Input-Color-Space:
# LUTr-Input-Gamut: sony-s-gamut3
# LUTr-Input-Transfer: sony-s-log3
# LUTr-Output-Color-Space: srgb
# LUTr-Output-Gamut: rec709
# LUTr-Output-Transfer: srgb
# LUTr-Color-Space-Confidence: camera-profile-input-required
# LUTr-Domain-Normalized: true
# LUTr-Shaper: none
# LUTr-Original-Grid: 33x33x33
# LUTr-Conversion-Grid: 33x33x33
# LUTr-Conversion-Interpolation: none
# LUTr-Conversion-Method: Metadata normalization; numeric LUT samples preserved
# LUTr-Conversion-Tool: LUTr scripts/convert-all-to-cube.mjs 2.0.0
# LUTr-Conversion-Date: 2026-07-28
# LUTr-Asset-URL: https://freshluts.com/luts/1222
# LUTr-Author: Antony Eliezer
# LUTr-Author-URL: https://freshluts.com/users/32961
# LUTr-Attribution: Antony Eliezer via Fresh LUTs
# LUTr-Source-Labels: gamma=Sony S-Log 3; color=Blue; key=Neutral; style=Film emulation
# LUTr-Note: Preserve this metadata and the upstream license notices when redistributing.
# LUTr-Upstream-Comment: VEGAS Pro LUT
TITLE "COLOR VEGAS"
LUT_3D_SIZE 33
DOMAIN_MIN 0 0 0
DOMAIN_MAX 1 1 1
0.02464357 0.02746977 0.03134248
0.02800727 0.02859663 0.03301998
0.03115472 0.02972388 0.03458561
0.03501711 0.03124426 0.03598582
0.04052653 0.03300491 0.03728237
0.04710873 0.0349091 0.03943503
0.05634934 0.03737184 0.04115544
0.06494392 0.03995487 0.04287947
0.07495502 0.04282978 0.0442568
0.09126477 0.04654913 0.04558461
0.11247016 0.05111128 0.04640604
0.13210677 0.05661295 0.04658361
0.15532032 0.06132401 0.04541821
0.18430343 0.06563699 0.04348975
0.21470712 0.06890713 0.041127
0.24351196 0.0717879 0.03673223
0.27254611 0.07431548 0.02855692
0.30135238 0.07590834 0.01918826
0.3311145 0.07733186 0.01591166
0.36336467 0.07770927 0.01599773
0.39502344 0.07709876 0.01647307
0.42854491 0.07673046 0.01707063
0.46133223 0.07471238 0.01774384
0.49154949 0.07080684 0.01848163
0.51984954 0.0644046 0.01911147
0.54296052 0.05737338 0.01980059
0.56549394 0.04853643 0.0208904
0.58812237 0.04205361 0.02249668
0.61110175 0.0388405 0.02476014
0.63097894 0.03886871 0.02656792
0.65144682 0.04006126 0.02837761
0.66937125 0.04176263 0.03033186
0.68590903 0.04396218 0.0324143
0.02520566 0.03125614 0.03357462
0.02891815 0.03265733 0.03504522
0.03225538 0.03391207 0.0365701
0.03647146 0.03549099 0.03812622
0.04229137 0.03724277 0.03966033
0.05045888 0.03959097 0.04136897
0.05894285 0.04211218 0.04290414
0.06782014 0.04499125 0.04438507
0.08030758 0.04853189 0.04589507
0.09901901 0.05240997 0.04692075
0.119867 0.05741632 0.04741704
0.13959017 0.0632739 0.04751358
0.16725917 0.06818805 0.04617292
0.19641821 0.07177185 0.04390894
0.22823429 0.07522776 0.04090457
0.25704163 0.07816938 0.03538463
0.28532708 0.08040459 0.02552189
0.31571877 0.08185428 0.01773641
0.34826982 0.08322968 0.01625995
0.38098514 0.08383744 0.01661735
0.41300422 0.0837119 0.01721045
0.44393426 0.08223046 0.01765189
0.47603497 0.08062424 0.01835639
0.5064472 0.07800111 0.0192118
0.53454483 0.07107629 0.02010658
0.55831164 0.06348619 0.0206473
0.58084667 0.05412851 0.02183564
0.60261756 0.04857695 0.02345093
0.62406242 0.04369147 0.02558599
0.64419407 0.04485015 0.02743329
0.66287231 0.04606561 0.02938175
0.68093455 0.04794181 0.03138136
0.69714761 0.05021385 0.03341722
0.02584838 0.03487109 0.03570393
0.02954268 0.03626491 0.03712142
0.03306082 0.03805139 0.03866911
0.03799752 0.03996708 0.04012069
0.04423067 0.0419535 0.04174829
0.05331954 0.04497609 0.04338243
0.0626331 0.04782636 0.04490921
0.07104069 0.05071365 0.04622599
0.08578406 0.05493245 0.04779145
0.10867902 0.05992448 0.04896382
0.12858453 0.06535979 0.04867076
0.14986102 0.0706043 0.04824885
0.1797265 0.07508481 0.04613892
0.21139675 0.07853711 0.04385482
0.24201943 0.0819709 0.03949201
0.27230483 0.08498878 0.03203991
0.30178598 0.08725565 0.02132352
0.33123091 0.08897141 0.01653933
0.36379507 0.08998649 0.016726
0.39829916 0.09041061 0.0172692
0.43091288 0.09044971 0.01797219
0.46332976 0.08935482 0.01847895
0.49344772 0.08753268 0.0193565
0.52265114 0.08405558 0.02001512
0.5503729 0.07789961 0.02085336
0.57344598 0.0697622 0.02166137
0.59583509 0.06352372 0.02238577
0.61719531 0.05710169 0.02410471
0.63709903 0.05412164 0.02621473
0.65700382 0.05437106 0.02805873
0.67469752 0.05490632 0.03014043
0.69189155 0.06069089 0.03232677
0.70824546 0.06841985 0.03448731
0.02651745 0.0388213 0.03785989
0.03014667 0.04028282 0.03923221
0.03394581 0.04240969 0.0408704
0.03897847 0.04473219 0.04235192
0.04638172 0.04700404 0.04372005
0.05572467 0.05047389 0.0454327
0.06581843 0.05461339 0.04722542
0.07698324 0.05794649 0.04860535
0.09467837 0.0624629 0.04988441
0.11748356 0.06788614 0.05037975
0.13753588 0.07339834 0.04985658
0.16216637 0.07891637 0.04883326
0.19386211 0.08313735 0.04615813
0.22686218 0.08644751 0.04374861
0.25763011 0.08984735 0.03820147
0.28716949 0.09276263 0.0289435
0.3198618 0.09514934 0.01868027
0.35091525 0.09661821 0.01705075
0.38324225 0.09758504 0.01745651
0.41593993 0.09806503 0.01798508
0.44881922 0.097351 0.01870027
0.48117507 0.09632768 0.01927653
0.51186848 0.09527061 0.02017486
0.53990841 0.09230506 0.02108499
0.5667094 0.08810879 0.02159637
0.58959466 0.08247104 0.02247995
0.61091548 0.07527156 0.02336005
0.63175583 0.06957904 0.02463893
0.65071094 0.06869682 0.02687183
0.66972321 0.07081019 0.02889898
0.68727517 0.07609764 0.03091196
0.70361769 0.08277607 0.03319842
0.7196151 0.09059092 0.0355653
0.02674443 0.04366336 0.04040964
0.03037107 0.044814 0.04138721
0.03456112 0.04698867 0.04299796
0.04034131 0.04971824 0.04462361
0.04763647 0.05225897 0.04593781
0.05761 0.05635206 0.0478141
0.06833253 0.06128064 0.04979756
0.08322019 0.06626823 0.05122551
0.10615921 0.07121655 0.05226227
0.12760973 0.07691482 0.0517519
0.14871079 0.08246063 0.05092822
0.17665307 0.08710485 0.04882602
0.21313353 0.09216415 0.04662572
0.24553031 0.0955934 0.04300468
0.27570865 0.09859632 0.03584856
0.30451488 0.10103903 0.02537007
0.33619067 0.10357507 0.01792835
0.370193 0.10501454 0.01773651
0.40446365 0.10650232 0.01825696
0.43800482 0.10747992 0.01889467
0.46926987 0.1079661 0.01953799
0.50025803 0.10749986 0.02021349
0.53017646 0.10588211 0.02112515
0.55826873 0.1040084 0.0220009
0.58475351 0.10108545 0.02272443
0.60697967 0.100096 0.02344465
0.62780392 0.09567389 0.02421595
0.64686948 0.09573571 0.02547337
0.66563833 0.09760015 0.02754508
0.68387032 0.0988199 0.02992013
0.70133626 0.10293301 0.03201704
0.71748006 0.11168124 0.03411894
0.7326299 0.12253429 0.03655721
0.02660549 0.04839715 0.04275091
0.0297749 0.05014322 0.04393175
0.03418544 0.05227141 0.04541718
0.0405244 0.05527091 0.04715542
0.04858668 0.0582666 0.04853157
0.05932942 0.06263749 0.04982024
0.07071236 0.06816394 0.05216141
0.08877116 0.07414445 0.05356752
0.11446054 0.08037096 0.05424913
0.13824616 0.08670586 0.05361024
0.16343148 0.09244339 0.05231341
0.19555569 0.09728036 0.04959355
0.23353323 0.10272999 0.04664411
0.2636303 0.106462 0.04143627
0.29494298 0.10974859 0.03187908
0.32535768 0.11212317 0.02144498
0.35728383 0.11457931 0.01807549
0.39186105 0.11650429 0.01858659
0.42633352 0.11787824 0.0191604
0.4604474 0.1198457 0.01992143
0.4932074 0.1213382 0.02081452
0.52295202 0.12203091 0.02138566
0.55033362 0.12241957 0.0221789
0.57754469 0.12241441 0.02303801
0.60464704 0.12316136 0.02386353
0.62421626 0.12195575 0.02417528
0.64509469 0.12302788 0.02497653
0.66419381 0.12321552 0.02633235
0.68196505 0.12528789 0.02854875
0.69949567 0.12805192 0.03068956
0.71554101 0.13366616 0.03281293
0.73101491 0.14115426 0.03493593
0.74518847 0.14684781 0.03740272
0.02642191 0.05432168 0.04574921
0.02966113 0.05570117 0.04644477
0.03318241 0.05764852 0.04775665
0.03990934 0.0607301 0.04963107
0.04866099 0.06409294 0.05122827
0.06120544 0.06948207 0.05323353
0.07244494 0.07459203 0.05458763
0.09311328 0.08101259 0.05592451
0.12041817 0.08883683 0.05611732
0.14655338 0.09758419 0.05539427
0.17917542 0.10526975 0.05409146
0.2151859 0.11102045 0.0508009
0.25387502 0.11714476 0.04566954
0.28433594 0.12106127 0.03771271
0.31702125 0.12469049 0.02682564
0.34906873 0.12780257 0.01887801
0.38266146 0.13066754 0.01905721
0.41623238 0.13328844 0.01956734
0.45082051 0.13541134 0.02011743
0.48415431 0.13734347 0.02075923
0.51625431 0.13863568 0.02165984
0.54547822 0.14018102 0.02247413
0.57268965 0.14134461 0.02305621
0.59804398 0.1414876 0.02389354
0.62436366 0.143108 0.02479846
0.64424187 0.14299069 0.02542984
0.66287035 0.14379486 0.02615767
0.68213731 0.14618282 0.02730579
0.6985876 0.14942782 0.02939902
0.71587324 0.15370369 0.03170628
0.73090696 0.15777996 0.0338785
0.74568188 0.16393691 0.03596698
0.7597757 0.17020099 0.03839697
0.02662621 0.06071155 0.04940673
0.03005147 0.06185379 0.04989246
0.03365822 0.06367433 0.05070475
0.0386698 0.06587815 0.05172008
0.04771775 0.0696226 0.05369375
0.0617436 0.07563253 0.05622324
0.07549336 0.08222356 0.05841253
0.09691733 0.08879279 0.05853339
0.12535468 0.09783214 0.05857746
0.15516771 0.10969441 0.05735737
0.19274776 0.1199678 0.05526599
0.23397355 0.12842758 0.05164784
0.27309108 0.13456045 0.04406131
0.30609134 0.13959494 0.03298808
0.33926508 0.14323387 0.02361632
0.37570894 0.1466099 0.01988268
0.40899047 0.14893368 0.02023538
0.44289607 0.15215881 0.02078486
0.47609782 0.15481028 0.02136062
0.50896275 0.15657803 0.021945
0.54021209 0.15834677 0.02264269
0.56844598 0.1600195 0.02352366
0.59485471 0.1611855 0.02420642
0.6202715 0.16227359 0.02477673
0.64456969 0.16272628 0.02563788
0.66394413 0.16396068 0.02641762
0.68225431 0.16531757 0.02717908
0.69932425 0.16760382 0.02834642
0.71563339 0.17128433 0.030015
0.73199791 0.17619626 0.03264515
0.74712253 0.18152933 0.03488976
0.76095653 0.18785076 0.03715426
0.77535719 0.19605537 0.03949329
0.02737997 0.0674172 0.05324177
0.03085777 0.06849702 0.05397233
0.03494021 0.07042676 0.05484293
0.03979715 0.07262208 0.05560711
0.04616481 0.07468541 0.05600505
0.06070907 0.08121378 0.05846751
0.07504901 0.08962464 0.06123602
0.10088334 0.09893761 0.06208234
0.13063319 0.10928235 0.06136328
0.16192546 0.12197223 0.05993279
0.2040325 0.1339228 0.05700109
0.2487115 0.14338942 0.05214921
0.28971723 0.15179859 0.04236756
0.32768926 0.15926889 0.02966666
0.36283529 0.16368774 0.02233343
0.39824989 0.1662309 0.02097633
0.43433166 0.16851901 0.02138988
0.46933511 0.17184085 0.02191215
0.50276279 0.17495462 0.0225047
0.53427225 0.17703328 0.02307417
0.56389308 0.17770305 0.02358515
0.59210563 0.18020247 0.02439057
0.61769104 0.18128899 0.02505068
0.64191937 0.18201903 0.02566737
0.66547638 0.18295838 0.02639082
0.68366653 0.18541862 0.02716275
0.70169157 0.18786505 0.02780952
0.71740061 0.19109757 0.0287496
0.73273712 0.19470502 0.03040918
0.7487793 0.20094262 0.03341311
0.7631402 0.20666257 0.03594096
0.77701914 0.21392015 0.03825825
0.79087734 0.22429346 0.04059057
0.02776622 0.07422248 0.05771638
0.03144471 0.07554167 0.05814151
0.03595775 0.07712768 0.05857922
0.04046769 0.07956835 0.05955213
0.04675847 0.08227599 0.06062585
0.05954644 0.08834203 0.06226053
0.07370066 0.09881005 0.06497561
0.10288242 0.1105225 0.06535598
0.13513087 0.12267859 0.06422748
0.16824961 0.13512854 0.06313867
0.21583687 0.14875212 0.05985733
0.26460823 0.16060221 0.05299365
0.30603158 0.16928224 0.04216558
0.34501058 0.17622091 0.02877474
0.38544986 0.18312061 0.02229331
0.42393494 0.18748243 0.02228301
0.4614304 0.19145153 0.02275395
0.49652198 0.1952125 0.02307806
0.53044426 0.19828321 0.0237059
0.56139672 0.20106208 0.02434833
0.59027725 0.20294128 0.02487148
0.6154604 0.20314057 0.02552374
0.64264542 0.20562242 0.02626427
0.66592115 0.20726973 0.02688919
0.68642062 0.20890266 0.02761067
0.70424819 0.2117669 0.02816316
0.72091699 0.21440376 0.02884898
0.73684096 0.21859522 0.02970778
0.75156236 0.22450425 0.03122931
0.76692033 0.23128127 0.03441253
0.7806235 0.23812948 0.03673117
0.7939918 0.2455551 0.03905452
0.80736721 0.25534946 0.0415915
0.0259481 0.08200674 0.06272674
0.02904944 0.0840281 0.06363203
0.03490561 0.08607259 0.06373621
0.0402272 0.08850081 0.06437858
0.04640622 0.09181917 0.06571152
0.05542147 0.0981178 0.06699415
0.06950983 0.10908198 0.06937516
0.10336292 0.12228285 0.0698714
0.13903829 0.13603711 0.06863144
0.17576537 0.14909904 0.06677028
0.22631924 0.16267866 0.06355994
0.27887917 0.17788757 0.05423043
0.32170367 0.18931983 0.03957103
0.36395672 0.19841315 0.02665516
0.40427011 0.206513 0.02326254
0.44670704 0.21236448 0.02337842
0.48575681 0.21771422 0.023857
0.52368075 0.2232834 0.02435417
0.5561223 0.2265061 0.02486031
0.58683872 0.22925682 0.02545169
0.61516583 0.23197025 0.02595425
0.64194381 0.23397326 0.02659141
0.66663653 0.23558487 0.02729686
0.69026446 0.23843163 0.02791364
0.70814288 0.2407838 0.02859445
0.72541583 0.24290268 0.02908116
0.74102968 0.24700174 0.02967141
0.75558954 0.25027668 0.0302876
0.76953369 0.25563005 0.03145102
0.78432566 0.26233348 0.03504043
0.79888576 0.2716828 0.03819283
0.81146687 0.27871653 0.04019801
0.82458252 0.28758436 0.04259102
0.02174183 0.09130742 0.06804487
0.02461866 0.09406538 0.06908153
0.02898557 0.09703585 0.06964214
0.03501474 0.09993607 0.06974241
0.04113998 0.10412845 0.07089641
0.04875699 0.11037738 0.072381
0.05658933 0.11872456 0.07412778
0.09978937 0.13332994 0.0752135
0.14230813 0.14975816 0.07440851
0.18525021 0.16559298 0.07185429
0.23868777 0.18126246 0.06666997
0.29234514 0.19740221 0.05451638
0.33737946 0.21188797 0.03547325
0.38243565 0.22479972 0.02510991
0.42609209 0.23488742 0.02438248
0.46881264 0.24265382 0.02467228
0.50941432 0.24787535 0.02499083
0.54810894 0.25491995 0.02541375
0.58312768 0.26049373 0.02597979
0.61272287 0.26318723 0.02664068
0.64039582 0.26585513 0.02704584
0.66654396 0.26815283 0.02759992
0.69155228 0.27123538 0.028268
0.71416527 0.27425253 0.02888139
0.73085201 0.27696565 0.0295406
0.74631542 0.2786915 0.0300313
0.7616412 0.28169402 0.03055033
0.77536273 0.28575179 0.03122195
0.78799313 0.28965878 0.03185064
0.80195415 0.29542661 0.03536842
0.81650746 0.30414346 0.03865735
0.82972705 0.3135249 0.04166187
0.84246755 0.32116234 0.04366817
0.01464345 0.10388165 0.07392067
0.01846238 0.10653318 0.07482205
0.02356603 0.10992286 0.07590697
0.0289365 0.11349136 0.07662483
0.03518368 0.11706477 0.07726333
0.03866852 0.12409244 0.07935959
0.04729279 0.13104579 0.08082675
0.07373969 0.1413376 0.08173837
0.14058305 0.16469891 0.08099178
0.19209288 0.18483208 0.07733664
0.2504864 0.20386632 0.06899706
0.30426812 0.22098918 0.05308272
0.35473803 0.2383372 0.03265856
0.40014324 0.25303894 0.02550089
0.44515896 0.26505038 0.02563628
0.48975503 0.27463591 0.02602424
0.5331552 0.2815139 0.02671912
0.56912202 0.28850415 0.02693914
0.60571593 0.29616109 0.02728635
0.63855749 0.3017306 0.02785743
0.66766793 0.30511323 0.02853644
0.69099766 0.30565757 0.02885443
0.71442753 0.30829269 0.02941902
0.73617607 0.31206563 0.0299893
0.7547887 0.31489161 0.03053648
0.76876086 0.31692535 0.03107506
0.78294748 0.31961563 0.03159948
0.79597485 0.32259408 0.03217518
0.80801713 0.32592997 0.03290937
0.82139719 0.33154556 0.03613251
0.83546716 0.33975267 0.0392111
0.84907317 0.34883425 0.04212618
0.86169988 0.35811001 0.04472965
0.01487082 0.11763559 0.08193016
0.01835238 0.12039033 0.08238936
0.02240373 0.12367678 0.08331062
0.0270336 0.12753846 0.08414973
0.03193967 0.13203979 0.0849816
0.03784502 0.13752148 0.08567141
0.0451577 0.14535785 0.08734297
0.06927131 0.15693034 0.08881669
0.13057321 0.17912836 0.08839229
0.19465178 0.20626378 0.08250565
0.26415724 0.23056519 0.06995219
0.32157946 0.24981353 0.04661854
0.37077591 0.26596317 0.03030299
0.42099074 0.28144547 0.02748124
0.46374726 0.29455662 0.02735087
0.5089801 0.30646005 0.02744201
0.55447692 0.31646982 0.02785908
0.58979398 0.32374871 0.02829045
0.62541461 0.33037344 0.02850453
0.65863639 0.3369287 0.02880287
0.68825561 0.34181991 0.02938677
0.71755731 0.34607914 0.0299782
0.73968464 0.34796381 0.0304696
0.75938058 0.35034999 0.03099307
0.77545238 0.35147417 0.03137241
0.79070908 0.35437998 0.03186626
0.80399108 0.35721907 0.03240164
0.81712544 0.36056945 0.03295136
0.82892299 0.3642281 0.03355138
0.84263402 0.37081701 0.03713866
0.85523212 0.3777267 0.04055576
0.86773139 0.3859382 0.04344061
0.87993771 0.39447099 0.04574432
0.01622562 0.13172339 0.09014571
0.01980585 0.13412951 0.09092659
0.02344548 0.13735802 0.09129774
0.02750854 0.14187765 0.0923098
0.03281112 0.14814295 0.09352862
0.03890168 0.15562014 0.09436364
0.04792066 0.16370872 0.09506937
0.06287561 0.17536286 0.09616408
0.11019766 0.19367388 0.0961213
0.18100144 0.2248363 0.08961523
0.26634359 0.25394094 0.07275091
0.33597511 0.2795192 0.04325053
0.38898051 0.29721877 0.03131997
0.4382349 0.31209287 0.02975552
0.48839468 0.32542545 0.02938539
0.53008026 0.33799589 0.02913498
0.57455826 0.34952834 0.02926855
0.61183995 0.35942438 0.02950685
0.64487636 0.36598101 0.03005276
0.67822284 0.3718082 0.03020424
0.7087701 0.37791738 0.03054054
0.73741031 0.38267031 0.03100485
0.7618345 0.38697442 0.03150906
0.78183299 0.39017227 0.03203084
0.79668236 0.39146873 0.03240518
0.81128556 0.39469373 0.03286316
0.8240484 0.39652169 0.03329396
0.83705294 0.40023935 0.03410744
0.84949076 0.40466467 0.03493288
0.86216652 0.41120115 0.03861897
0.87455034 0.41779953 0.04117034
0.88636011 0.42606276 0.04455135
0.89753878 0.43399927 0.04705955
0.0179494 0.14700563 0.09834858
0.02146464 0.14981967 0.09904265
0.02502295 0.15337698 0.09974932
0.02915363 0.15858345 0.10053319
0.03454544 0.16683517 0.10230491
0.04075819 0.17611143 0.10276273
0.04866428 0.18667607 0.10325147
0.0651867 0.19870152 0.1029502
0.09116282 0.21223293 0.10292183
0.15230589 0.23852317 0.09902254
0.25766551 0.2742427 0.07909678
0.33800787 0.30325845 0.04575177
0.40441087 0.32856715 0.03433111
0.45809227 0.34551629 0.03307667
0.50590181 0.35843515 0.03196888
0.5545224 0.37080398 0.03136653
0.59471864 0.38313702 0.03106746
0.63188124 0.39454922 0.03098115
0.66642493 0.40399173 0.03129128
0.69765651 0.41019917 0.03175204
0.72934711 0.41641924 0.03190525
0.75804222 0.42282712 0.03212894
0.78228682 0.42741209 0.03265097
0.80222577 0.43172511 0.03300113
0.81805551 0.43557423 0.03340523
0.83219039 0.43954474 0.03384928
0.84484905 0.44192567 0.03438249
0.85661489 0.44388109 0.03588016
0.86988521 0.4488827 0.03714322
0.8814792 0.45514354 0.04045071
0.89313501 0.46247643 0.04325779
0.90462446 0.46956688 0.04516592
0.91502529 0.47814929 0.0482724
0.01980158 0.1634329 0.1076913
0.023712 0.16796315 0.1087301
0.02733908 0.17272428 0.10989493
0.03138949 0.17916718 0.1114171
0.03658525 0.18803479 0.11338396
0.0427484 0.19920465 0.11330575
0.05112977 0.21170118 0.11322948
0.06311792 0.22499897 0.11287262
0.0870637 0.2375088 0.11065267
0.1170295 0.25085849 0.10896985
0.21596448 0.2855069 0.09662441
0.33611208 0.32584465 0.0496764
0.40735716 0.35371178 0.03785476
0.4748489 0.37932429 0.03635215
0.52657753 0.39474747 0.0353884
0.57163519 0.4068138 0.03422619
0.61604226 0.41818315 0.03370413
0.65037942 0.43023533 0.03277206
0.68448591 0.44087699 0.03271115
0.71705091 0.45041999 0.03280323
0.74769342 0.45763329 0.03323387
0.77741963 0.46676838 0.03343084
0.80211532 0.47339651 0.03382792
0.82194906 0.47751704 0.03434625
0.83736199 0.48118475 0.03445772
0.85206115 0.48637879 0.03484214
0.86543238 0.49001551 0.03541755
0.87724715 0.49300817 0.03704324
0.88957655 0.49710694 0.0405223
0.90064359 0.50183487 0.04288262
0.91202563 0.50958872 0.04540051
0.92307144 0.51755112 0.04763838
0.93243957 0.52315503 0.04924546
0.02151633 0.1816147 0.11643151
0.02543124 0.18777995 0.11857339
0.02927901 0.19314255 0.1199277
0.03359862 0.20035225 0.12214654
0.0388421 0.21033235 0.12450267
0.04480007 0.22137913 0.12625396
0.05139746 0.23469017 0.12594821
0.06075452 0.24916795 0.12535748
0.07919236 0.26449862 0.12327199
0.11617818 0.27732 0.11616185
0.20260392 0.30586973 0.10691325
0.32171476 0.34632418 0.06356734
0.4103626 0.38169283 0.04307482
0.48212004 0.40893391 0.0397691
0.5449782 0.43171832 0.03839429
0.59304559 0.44578913 0.03713182
0.63509721 0.45635492 0.03580148
0.66953719 0.46771261 0.03516479
0.70257211 0.4798758 0.03432227
0.73534894 0.49023524 0.03427193
0.76513749 0.49965018 0.03436401
0.79500449 0.50769526 0.03470606
0.82032245 0.51605964 0.03496372
0.83989811 0.52212971 0.03528609
0.85577184 0.52699816 0.03544912
0.87010461 0.53111964 0.03578799
0.8842271 0.53686351 0.03811268
0.8970682 0.54205638 0.04025302
0.90934229 0.54795611 0.04308818
0.91996378 0.55146819 0.04526832
0.93040323 0.55739915 0.0474573
0.94070041 0.56513423 0.0498141
0.95028663 0.57177418 0.05184348
0.023454 0.20154169 0.12792018
0.02769298 0.20888308 0.1312764
0.03170325 0.21560587 0.13402243
0.03601283 0.22322844 0.13729809
0.04126428 0.23442897 0.14089143
0.04685245 0.24591935 0.14262535
0.05237032 0.25952786 0.14204571
0.05899746 0.27513033 0.14223431
0.07454289 0.29327857 0.14261465
0.11023972 0.30700964 0.13533728
0.15950513 0.3208316 0.12691119
0.29277641 0.3610369 0.0910597
0.40335757 0.40558678 0.04989329
0.48822191 0.44056553 0.04377288
0.55521715 0.46466094 0.04176473
0.61310828 0.48678273 0.0405172
0.65710598 0.50124341 0.03916709
0.68965304 0.51000452 0.03763613
0.72314304 0.52024728 0.03701935
0.75382286 0.5317719 0.03609413
0.78304607 0.54158711 0.03599299
0.81147146 0.55084509 0.03602726
0.8385312 0.55899167 0.0361052
0.85717881 0.56419235 0.03633019
0.87232131 0.5684824 0.03641016
0.88705325 0.5749858 0.03685308
0.90041685 0.57934463 0.03914294
0.91381395 0.5856142 0.04251271
0.92647445 0.59287888 0.04532537
0.93703216 0.59794134 0.04790072
0.94649082 0.60208589 0.04983046
0.95601052 0.60824406 0.05192285
0.96456856 0.61424428 0.05414494
0.02544007 0.22233593 0.14122376
0.02974878 0.23028418 0.14492856
0.03392635 0.23790522 0.14854379
0.03865797 0.24692567 0.15270709
0.04349628 0.2586064 0.15790702
0.04886582 0.27101579 0.16027811
0.0543838 0.28479019 0.1605363
0.0600883 0.30234078 0.15934084
0.07150209 0.32252753 0.16224714
0.11199876 0.33865297 0.15789604
0.16003859 0.35348776 0.14974023
0.2424143 0.3752057 0.13349223
0.38580343 0.42547199 0.06951099
0.48289135 0.46600139 0.0488825
0.56249547 0.49735546 0.04526571
0.62474447 0.51975721 0.0437365
0.6758635 0.54263377 0.04261385
0.71162027 0.55341333 0.04105979
0.74171436 0.56142598 0.03959887
0.7740652 0.57066453 0.03873956
0.80057383 0.58155173 0.03768189
0.8279385 0.59025592 0.03769554
0.85384089 0.59984028 0.03762138
0.87432373 0.60647029 0.03754027
0.88834745 0.60818106 0.03763055
0.90254152 0.61420238 0.03795737
0.9158498 0.62023914 0.04042297
0.92844391 0.62540621 0.04385323
0.94102228 0.63259876 0.04734782
0.95155168 0.63880181 0.05000446
0.96109796 0.6442824 0.05237742
0.9692058 0.64882421 0.05414527
0.97629803 0.65306222 0.05629681
0.02798435 0.24569291 0.15647897
0.03210898 0.25324243 0.160428
0.03626262 0.2613534 0.16436926
0.0409715 0.27143821 0.16929018
0.04613806 0.28393891 0.17439307
0.05133378 0.29685417 0.17719173
0.05656538 0.31203863 0.17858522
0.06198289 0.32964876 0.17896464
0.07098544 0.35127693 0.17961626
0.10625636 0.37161013 0.17812076
0.1552819 0.38738936 0.17182229
0.247806 0.41172981 0.16120662
0.35233286 0.44668612 0.12902708
0.46309996 0.48641214 0.06224956
0.55793554 0.52304292 0.05062254
0.63266432 0.55277354 0.04748502
0.68681258 0.57412237 0.04560287
0.73111403 0.59118241 0.04442527
0.76184052 0.60057747 0.04294094
0.78955942 0.60762453 0.04132741
0.81983876 0.6164149 0.03990505
0.84423357 0.62552929 0.03930841
