site/assets/luts/freshluts--0000690-warm-redlutheart-broken.cube
# LUTr-Schema-Version: 2
# LUTr-ID: freshluts--0000690-warm-redlutheart-broken
# LUTr-Title: Warm-red/LUT(heart broken)
# LUTr-Collection: Fresh LUTs
# LUTr-Collection-ID: freshluts-community
# LUTr-Source: https://freshluts.com
# LUTr-Retrieved: 2026-07-27
# LUTr-Source-File: submissions-raw/freshluts/cubes/690__Untitled_70.A032_07220228_C115.cube
# LUTr-Source-Format: CUBE
# LUTr-Source-SHA256: 113c7c3dcee898dbd29ef40d5a1034fe44f36e4cc0141c630eb80d5e3cf981a5
# LUTr-License: CC0-1.0
# LUTr-License-URL: https://freshluts.com/termsandconditions
# LUTr-License-Basis: site-terms
# LUTr-Transform-Class: creative-look
# LUTr-Tags: creative, freshluts, community, cube, red, low-key, bmd-film, warm
# LUTr-Input-Color-Space:
# LUTr-Input-Gamut: bmd-film-gamut
# LUTr-Input-Transfer: bmd-film
# LUTr-Output-Color-Space: srgb
# LUTr-Output-Gamut: rec709
# LUTr-Output-Transfer: srgb
# LUTr-Color-Space-Confidence: camera-profile-input-required
# LUTr-Domain-Normalized: true
# LUTr-Shaper: none
# LUTr-Original-Grid: 33x33x33
# LUTr-Conversion-Grid: 33x33x33
# LUTr-Conversion-Interpolation: none
# LUTr-Conversion-Method: Metadata normalization; numeric LUT samples preserved
# LUTr-Conversion-Tool: LUTr scripts/convert-all-to-cube.mjs 2.0.0
# LUTr-Conversion-Date: 2026-07-28
# LUTr-Asset-URL: https://freshluts.com/luts/690
# LUTr-Author: lvannoeun@gmail.com
# LUTr-Author-URL: https://freshluts.com/users/57563
# LUTr-Attribution: lvannoeun@gmail.com via Fresh LUTs
# LUTr-Source-Labels: gamma=Blackmagic BMD Film; color=Red; key=Low Key; style=Cinematic/Dark
# LUTr-Note: Preserve this metadata and the upstream license notices when redistributing.
TITLE "Warm-red/LUT(heart broken)"
LUT_3D_SIZE 33
DOMAIN_MIN 0 0 0
DOMAIN_MAX 1 1 1
0 0 0
0 0 0
0.0158083 0 0
0.0595407 0 0
0.107134 0 0
0.150256 0 0.00183108
0.1897 0 0.00636301
0.22826 0 0.0107881
0.267124 0 0.015259
0.306401 0 0.019852
0.345647 0 0.0243534
0.385412 0 0.0289006
0.425711 0 0.0335088
0.466087 0 0.038117
0.507012 0 0.0444495
0.547173 0 0.0500954
0.587381 0 0.0563821
0.627497 0 0.0629892
0.667521 0 0.0706645
0.705745 0 0.0784772
0.738567 0 0.0869612
0.762646 0 0.0957046
0.77557 0 0.105013
0.777539 0 0.114839
0.776791 0 0.123156
0.770871 0 0.123018
0.567269 0.00352483 0.126192
0.528252 0.024506 0.13312
0.549874 0.0275425 0.140536
0.571496 0.0305333 0.147906
0.593118 0.0334936 0.155276
0.614862 0.0366522 0.162829
0.636561 0.0397345 0.170306
0 0 0
0 0 0
0.0217746 0 0
0.0623941 0 0
0.109285 0 0
0.153384 0 0.00146487
0.192416 0 0.00588998
0.231083 0 0.0103761
0.269856 0 0.014786
0.308751 0 0.0191958
0.347951 0 0.0236515
0.387655 0 0.0281529
0.427955 0 0.0327153
0.468528 0 0.0373846
0.508827 0 0.0419318
0.54931 0 0.0484321
0.589426 0 0.0545205
0.629572 0 0.0606699
0.669581 0 0.0678721
0.707683 0 0.0758526
0.739528 0 0.0840162
0.762829 0 0.0928054
0.774548 0 0.10222
0.775876 0 0.112093
0.771801 0 0.12224
0.781384 0 0.127306
0.710536 0 0.133822
0.544167 0.0534371 0.1458
0.565744 0.0564736 0.15314
0.58735 0.0594186 0.160494
0.609064 0.062562 0.167956
0.630793 0.0656596 0.175433
0.652354 0.0686198 0.182742
0 0.0078584 0
0.0065919 0.00654612 0
0.0348516 0.00650034 0
0.0721599 0.00546273 0
0.116045 0.00321965 0
0.15903 0.00155642 0.00164797
0.19765 0.000442512 0.00611887
0.235554 0 0.0104219
0.273945 0 0.0147707
0.312551 0 0.0191348
0.351522 0 0.0235447
0.391135 0 0.0280156
0.431571 0 0.0326543
0.471733 0 0.0371862
0.511925 0 0.0417182
0.552483 0 0.048188
0.592416 0 0.0539406
0.632502 0 0.0601053
0.672694 0 0.0671702
0.710094 0 0.0749371
0.741238 0 0.0831464
0.763638 0 0.0919661
0.774365 0 0.101488
0.775067 0 0.111696
0.770871 0.00787366 0.121767
0.771267 0.014725 0.130419
0.791455 0.00277714 0.137148
0.606378 0.0682231 0.156985
0.582025 0.0851453 0.166842
0.603769 0.088304 0.174395
0.625345 0.0913405 0.18172
0.646906 0.0943008 0.189044
0.668452 0.0972 0.196353
0.00300603 0.040177 0
0.0217136 0.0377661 0
0.0499428 0.0378271 0
0.0856336 0.0361334 0
0.126284 0.0330663 0
0.167971 0.0298466 0.00077821
0.206165 0.0270848 0.00590524
0.243549 0.0246433 0.010605
0.281407 0.0221714 0.0151522
0.319493 0.0197299 0.0196078
0.358251 0.0174563 0.0241703
0.397604 0.0149996 0.0287327
0.437369 0.0125277 0.0333104
0.477195 0.010132 0.0378882
0.517082 0.00767529 0.0424659
0.556985 0.00523384 0.0474403
0.596811 0.00328069 0.0532082
0.636835 0.000747692 0.0601663
0.6766 0 0.0667735
0.714137 0 0.0744488
0.745739 0 0.0826734
0.768124 0 0.0915541
0.778912 0.00341802 0.101503
0.778134 0.0125887 0.11162
0.77261 0.023209 0.121706
0.769085 0.0332799 0.131243
0.79762 0.034287 0.141176
0.732326 0.0641031 0.159854
0.59852 0.113893 0.180713
0.620066 0.116854 0.188037
0.641581 0.119814 0.195331
0.663127 0.122805 0.202655
0.684627 0.125689 0.209918
0.0104677 0.0747539 0
0.0329442 0.0714275 0
0.0644083 0.0700389 0
0.0968185 0.0693828 0
0.136355 0.0665141 0
0.176776 0.0630198 0
0.214954 0.0600443 0.00332647
0.252537 0.0573281 0.00881972
0.290349 0.0547189 0.013962
0.32842 0.0524453 0.0188907
0.36672 0.0500496 0.0235904
0.405753 0.0475776 0.0282444
0.445136 0.0450599 0.0328527
0.484611 0.0425727 0.0374304
0.524224 0.0400244 0.0420233
0.564157 0.0376745 0.0470283
0.603693 0.0351263 0.0535592
0.643275 0.0325933 0.0600137
0.682857 0.0300145 0.0666056
0.721431 0.0278019 0.0742351
0.755367 0.0267948 0.0824292
0.781735 0.0282139 0.0928359
0.796796 0.0327764 0.102098
0.799558 0.0406958 0.113298
0.795346 0.050721 0.124743
0.790722 0.0609293 0.135714
0.801022 0.0674754 0.14641
0.82681 0.0702068 0.158984
0.621546 0.140398 0.19353
0.636439 0.145296 0.201572
0.657938 0.148257 0.208865
0.679469 0.151217 0.21619
0.701228 0.154376 0.223728
0.0155947 0.109468 0
0.0416876 0.105821 0
0.0762798 0.103426 0
0.110246 0.101854 0
0.144259 0.100404 0
0.183566 0.0970626 0
0.222644 0.0935683 0
0.260929 0.0905013 0.00527962
0.299321 0.0879072 0.0113832
0.337392 0.0851606 0.016907
0.375753 0.0825055 0.0221256
0.414694 0.0800183 0.0271305
0.453864 0.0776074 0.0319829
0.493233 0.0752422 0.0367742
0.532631 0.0728618 0.041474
0.572015 0.0703288 0.0462043
0.611215 0.0678416 0.0529641
0.650538 0.0653697 0.0596628
0.689921 0.0628519 0.0664073
0.729122 0.0606546 0.0741436
0.764553 0.0593423 0.0823987
0.793286 0.0597848 0.0916304
0.812085 0.0630198 0.102296
0.819135 0.0696117 0.114305
0.817014 0.0788434 0.127047
0.812696 0.0891585 0.139773
0.81387 0.0975967 0.151156
0.854566 0.0956283 0.161105
0.724407 0.143481 0.194141
0.652964 0.173632 0.215076
0.674311 0.176638 0.222049
0.696147 0.179782 0.229923
0.717586 0.182696 0.237201
0.019852 0.144198 0
0.0500801 0.140322 0
0.0869764 0.136995 0
0.121813 0.134646 0
0.156069 0.132799 0
0.190082 0.131182 0
0.228489 0.128038 0
0.268132 0.12459 0
0.307134 0.121294 0.00694286
0.345724 0.118257 0.0133669
0.384436 0.115373 0.0193332
0.423651 0.112657 0.0249638
0.463004 0.11017 0.0303502
0.502266 0.107774 0.035462
0.541375 0.105241 0.0403601
0.58053 0.102754 0.0451362
0.619516 0.100298 0.0520485
0.658549 0.0978103 0.059144
0.697826 0.0955978 0.0662699
0.736904 0.0932631 0.0738079
0.773312 0.0915236 0.0818952
0.804105 0.0913252 0.0912184
0.825772 0.0936294 0.102174
0.836744 0.0990158 0.114778
0.837293 0.107698 0.128954
0.833249 0.117311 0.142885
0.831373 0.126467 0.155612
0.855833 0.128786 0.166537
0.823438 0.148089 0.18938
0.669825 0.20209 0.228779
0.691264 0.205051 0.236057
0.712673 0.207965 0.243351
0.734066 0.21091 0.250614
0.0246586 0.178729 0
0.0580758 0.174411 0
0.0965896 0.170581 0
0.132235 0.167758 0
0.167544 0.165301 0
0.201007 0.163714 0
0.235065 0.162188 0
0.273472 0.159014 0
0.313375 0.155306 0.000808728
0.352926 0.151797 0.00823987
0.392401 0.148608 0.0150912
0.432349 0.145876 0.0215915
0.471778 0.142992 0.0275731
0.511086 0.140291 0.0331884
0.550317 0.137621 0.038529
0.58941 0.135134 0.0436103
0.628458 0.132723 0.0503395
0.667399 0.130419 0.0581369
0.706264 0.127993 0.0655833
0.745144 0.125566 0.0732128
0.782238 0.123629 0.0813306
0.81416 0.123064 0.0907149
0.838636 0.124773 0.101961
0.85243 0.129366 0.115221
0.855604 0.136751 0.130037
0.852872 0.145876 0.145403
0.850553 0.154894 0.159579
0.862364 0.160327 0.171954
0.890318 0.162661 0.185412
0.696559 0.227405 0.240116
0.707973 0.233188 0.24947
0.72932 0.236088 0.256733
0.750652 0.238972 0.263996
0.0302434 0.212528 0
0.0666819 0.208042 0
0.105867 0.204013 0
0.142382 0.200824 0
0.178042 0.198474 0
0.212924 0.196109 0
0.245579 0.194675 0
0.280034 0.192905 0
0.318425 0.189776 0
0.358679 0.186069 0.00167849
0.399466 0.18265 0.00950637
0.439826 0.179278 0.0167544
0.479774 0.17612 0.0234531
0.519371 0.17319 0.0297093
0.558801 0.170352 0.0356146
0.598184 0.167681 0.0412604
0.637537 0.165148 0.0471504
0.676265 0.162676 0.0557107
0.715023 0.160189 0.0638895
0.75375 0.157794 0.07187
0.791028 0.155749 0.0801862
0.824201 0.154955 0.0899825
0.850217 0.1561 0.101518
0.866514 0.159716 0.115175
0.872312 0.166247 0.130877
0.870924 0.174762 0.147463
0.869352 0.183261 0.162753
0.885039 0.18407 0.170077
0.917128 0.18851 0.186542
0.774182 0.238193 0.238193
0.724819 0.261036 0.262821
0.746075 0.26389 0.270054
0.767575 0.266987 0.277455
0.0357977 0.246143 0
0.0753338 0.241474 0
0.114946 0.237324 0
0.15259 0.234119 0
0.188052 0.231327 0
0.223423 0.228748 0
0.257588 0.226688 0
0.290211 0.225452 0
0.325063 0.223606 0
0.363973 0.220722 0
0.404868 0.216953 0.00268559
0.446097 0.213153 0.0106508
0.486748 0.209628 0.0181277
0.526909 0.206378 0.0250858
0.56701 0.20354 0.0317082
0.606592 0.200595 0.038056
0.64596 0.197787 0.0440986
0.685039 0.195087 0.0517281
0.723812 0.192493 0.0608377
0.762585 0.190066 0.0695354
0.80029 0.188052 0.0785382
0.833829 0.186938 0.0885786
0.860975 0.187457 0.100511
0.879347 0.190387 0.114763
0.887205 0.19617 0.131426
0.8878 0.204181 0.14934
0.88957 0.210864 0.164202
0.90576 0.209491 0.168841
0.924651 0.219547 0.191592
0.847807 0.250416 0.232715
0.741756 0.288685 0.276005
0.763134 0.291737 0.28336
0.784466 0.294759 0.2907
0.0421759 0.279484 0
0.084123 0.274922 0
0.12401 0.270741 0
0.162173 0.267018 0
0.198016 0.264088 0
0.233326 0.261433 0
0.268528 0.25893 0
0.302556 0.25742 0
0.335149 0.25626 0
0.370596 0.254307 0
0.409979 0.251133 0
0.451209 0.247395 0.00367742
0.492622 0.243549 0.0117494
0.533776 0.240208 0.0194705
0.574166 0.236881 0.0266423
0.61413 0.233677 0.0333867
0.653803 0.230625 0.0403296
0.693278 0.22768 0.0469062
0.732387 0.224948 0.056199
0.77142 0.222522 0.0658579
0.809125 0.220203 0.0754711
0.842954 0.218906 0.0862287
0.871199 0.219028 0.0987106
0.890684 0.221515 0.113893
0.900862 0.226612 0.131624
0.903075 0.233997 0.150759
0.908217 0.23856 0.164462
0.924773 0.236362 0.167956
0.940871 0.244984 0.189487
0.908736 0.266468 0.22678
0.759106 0.316396 0.289372
0.780224 0.319249 0.296544
0.801373 0.322133 0.30367
0.0506142 0.31281 0
0.092607 0.308049 0
0.132708 0.303746 0
0.171328 0.29984 0
0.207858 0.296651 0
0.243183 0.29395 0
0.278813 0.291554 0
0.313848 0.289311 0
0.347066 0.287816 0
0.380087 0.286641 0
0.416556 0.28455 0
0.456291 0.281376 0
0.497749 0.277897 0.00477607
0.539223 0.274022 0.0128634
0.58027 0.270314 0.0206149
0.620874 0.266865 0.0279698
0.661006 0.2636 0.0349889
0.701106 0.2607 0.0426947
0.740612 0.257694 0.0502022
0.779675 0.254871 0.0604715
0.817426 0.252491 0.0709087
0.851652 0.250904 0.0826123
0.880217 0.250858 0.0963455
0.901366 0.25301 0.112642
0.912795 0.257542 0.131518
0.916655 0.264042 0.151736
0.925292 0.266667 0.163775
0.942138 0.264149 0.166979
0.95967 0.269581 0.184802
0.952087 0.287831 0.223239
0.776303 0.343664 0.302251
0.797375 0.346517 0.309438
0.818448 0.349371 0.316594
0.0588693 0.345846 0
0.100923 0.340978 0
0.141253 0.336583 0
0.180194 0.332586 0
0.217639 0.329351 0
0.253269 0.326604 0
0.288533 0.323919 0
0.324239 0.321386 0
0.358694 0.319356 0
0.391699 0.31809 0
0.42594 0.317098 0
0.462989 0.3149 0
0.5028 0.311666 0
0.543938 0.307942 0.00576791
0.585428 0.304021 0.0138552
0.626642 0.300221 0.0216983
0.667674 0.29691 0.0292973
0.707958 0.293553 0.0367895
0.747875 0.290394 0.0448768
0.787411 0.287327 0.0536355
0.825193 0.284733 0.0651102
0.859419 0.283116 0.0779431
0.888685 0.283009 0.09308
0.910323 0.284611 0.11046
0.923003 0.288518 0.130816
0.928481 0.294408 0.152422
0.940398 0.295125 0.162249
0.957641 0.292576 0.16553
0.976181 0.295933 0.180774
0.980362 0.312947 0.2224
0.813962 0.365347 0.30695
0.814557 0.373556 0.322072
0.835584 0.376394 0.329244
0.0669413 0.378515 0
0.109178 0.373602 0
0.149676 0.369223 0
0.189029 0.365332 0
0.226963 0.361837 0
0.262913 0.358816 0
0.298268 0.356115 0
0.333913 0.353506 0
0.36939 0.351064 0
0.403815 0.349538 0
0.437201 0.348516 0
0.471656 0.347143 0
0.509087 0.344747 0
0.548882 0.341497 0
0.58999 0.337774 0.00672923
0.631785 0.334127 0.0149081
0.673167 0.330236 0.0228733
0.713985 0.32665 0.0304417
0.754437 0.323125 0.0384375
0.794324 0.319936 0.0470741
0.832349 0.317433 0.0585031
0.866667 0.315633 0.0726177
0.895766 0.315114 0.0888533
0.917784 0.316411 0.107881
0.931685 0.31989 0.12958
0.938384 0.325154 0.152819
0.953796 0.3243 0.160159
0.971283 0.321584 0.16347
0.990265 0.323476 0.177188
0.999039 0.340642 0.223774
0.851255 0.38706 0.30988
0.831785 0.400244 0.334432
0.852995 0.403265 0.341894
0.0749676 0.410758 0
0.117281 0.405921 0
0.158251 0.401694 0
0.197604 0.397604 0
0.235843 0.393866 0
0.272312 0.390692 0
0.307851 0.387961 0
0.343542 0.385473 0
0.379614 0.383032 0
0.414878 0.380896 0
0.449073 0.379492 0
0.482368 0.3785 0
0.517266 0.376959 0
0.555215 0.374609 0
0.595178 0.371405 0
0.63624 0.367666 0.00779736
0.67776 0.363729 0.0158541
0.719188 0.359792 0.0238651
0.760174 0.356115 0.0315251
0.800473 0.352911 0.0401465
0.838392 0.350057 0.0509651
0.872587 0.348089 0.0663767
0.901671 0.347402 0.0842298
0.924178 0.348424 0.104829
0.93843 0.351476 0.128435
0.94696 0.356497 0.153353
0.964614 0.353811 0.157366
0.982452 0.350942 0.160616
1 0.352102 0.174182
1 0.368338 0.223804
0.879499 0.411002 0.314687
0.849241 0.426993 0.34667
0.870146 0.42977 0.353994
0.0830091 0.443046 0
0.125597 0.438361 0
0.166415 0.433829 0
0.205921 0.429664 0
0.244526 0.425788 0
0.281483 0.4224 0
0.317403 0.419638 0
0.353109 0.417136 0
0.388952 0.414496 0
0.425116 0.412055 0
0.460273 0.410239 0
0.493919 0.409003 0
0.527565 0.408103 0
0.563088 0.406516 0
0.601129 0.403906 0
0.641077 0.400595 0.0010071
0.682155 0.396872 0.0087892
0.723659 0.392935 0.0168307
0.765332 0.389258 0.0249332
0.805493 0.385748 0.0325017
0.843244 0.382788 0.0424964
0.877333 0.380682 0.0598001
0.906371 0.379828 0.0794232
0.928908 0.38085 0.102266
0.944106 0.383642 0.127672
0.954894 0.386801 0.150958
0.973266 0.38381 0.154208
0.991485 0.380819 0.157458
1 0.381689 0.171695
1 0.396719 0.223987
0.900008 0.437278 0.322316
0.866407 0.453483 0.358251
0.887297 0.456214 0.365698
0.0911879 0.475425 0
0.133532 0.470481 0
0.174456 0.465904 0
0.214115 0.461707 0
0.252918 0.457679 0
0.290669 0.454429 0
0.326909 0.451377 0
0.362524 0.448631 0
0.39826 0.445991 0
0.434745 0.443397 0
0.470878 0.44126 0
0.505684 0.43978 0
0.538933 0.438697 0
0.572671 0.437522 0
0.608576 0.43566 0
0.646876 0.432898 0
0.687022 0.429664 0.00205997
0.728191 0.426062 0.00987259
0.769467 0.422141 0.0178531
0.809293 0.418509 0.0255741
0.846799 0.415396 0.0347753
0.880659 0.413184 0.0532998
0.90959 0.41236 0.075227
0.932052 0.413077 0.100069
0.947768 0.415351 0.127031
0.961105 0.41706 0.147982
0.979858 0.413962 0.150973
0.998383 0.410895 0.154177
1 0.411963 0.170352
1 0.426368 0.227268
0.91162 0.46537 0.333486
0.883452 0.479912 0.369314
0.904372 0.482628 0.376974
0.0990158 0.50753 0
0.141451 0.502571 0
0.182452 0.497948 0
0.222248 0.49366 0
0.261509 0.489845 0
0.299367 0.486137 0
0.336065 0.482918 0
0.371862 0.480079 0
0.407584 0.477424 0
0.444099 0.474845 0
0.480995 0.472526 0
0.516411 0.470527 0
0.550469 0.469078 0
0.583597 0.46804 0
0.617639 0.466728 0
0.654093 0.464714 0
0.692744 0.462058 0
0.73286 0.458656 0.00306706
0.773449 0.454948 0.0107424
0.812421 0.451362 0.0183261
0.849012 0.44831 0.0271305
0.882856 0.446204 0.0478981
0.911192 0.44506 0.0719158
0.933684 0.445365 0.0985885
0.949966 0.447257 0.127337
0.965484 0.447623 0.145266
0.98471 0.444541 0.148165
1 0.441581 0.1514
1 0.442817 0.170443
1 0.457465 0.235172
0.916228 0.495048 0.348928
0.900343 0.506371 0.37995
0.921477 0.509148 0.387915
0.106798 0.53959 0
0.149248 0.5346 0
0.190326 0.529915 0
0.230564 0.525841 0
0.269703 0.521691 0
0.307897 0.517876 0
0.345052 0.514458 0
0.381079 0.511513 0
0.417197 0.509026 0
0.453559 0.506401 0
0.49041 0.503761 0
0.526558 0.501396 0
0.56144 0.499596 0
0.594995 0.498329 0
0.628443 0.497475 0
0.662913 0.49601 0
0.699596 0.493797 0
0.738277 0.490852 0
0.777584 0.487526 0.00386053
0.815793 0.484199 0.0111391
0.851164 0.481437 0.0215
0.883162 0.479149 0.0437171
0.911452 0.477775 0.0697185
0.933623 0.477928 0.0988479
0.951034 0.479362 0.128603
0.968444 0.478614 0.143282
0.987808 0.475486 0.145708
1 0.472633 0.149767
1 0.474388 0.173114
1 0.490166 0.249012
0.913878 0.526238 0.369848
0.917296 0.533028 0.39028
0.938338 0.535622 0.398337
0.114488 0.571572 0
0.157214 0.566781 0
0.198459 0.562112 0
0.238529 0.557687 0
0.277729 0.553521 0
0.316228 0.549554 0
0.353811 0.546014 0
0.390463 0.543145 0
0.426398 0.540322 0
0.462821 0.537667 0
0.499519 0.534997 0
0.536202 0.532403 0
0.571832 0.530282 0
0.606531 0.528847 0
0.639658 0.527703 0
0.672969 0.526543 0
0.707835 0.524941 0
0.744701 0.522576 0
0.782406 0.519738 0
0.819516 0.516869 0.00436408
0.853819 0.514031 0.0194705
0.883696 0.51194 0.041825
0.90988 0.510704 0.0700694
0.932525 0.510521 0.100649
0.951232 0.511803 0.131762
0.969787 0.509941 0.142123
0.989303 0.50663 0.144152
1 0.504128 0.149981
1 0.506706 0.180056
1 0.524376 0.271931
0.912917 0.557061 0.391821
0.933959 0.559533 0.400107
0.954955 0.56202 0.408225
0.122377 0.603693 0
0.16492 0.598718 0
0.206195 0.593973 0
0.246357 0.589487 0
0.285634 0.585275 0
0.324392 0.581231 0
0.362615 0.577783 0
0.39939 0.574502 0
0.435554 0.571603 0
0.471992 0.568872 0
0.508614 0.566201 0
0.545632 0.563745 0
0.581949 0.561303 0
0.617029 0.559319 0
0.650919 0.557839 0
0.683925 0.556741 0
0.717479 0.555489 0
0.752605 0.553994 0
0.788235 0.551644 0
0.823529 0.548989 0.00177005
0.856764 0.546334 0.0189975
0.885801 0.544289 0.0426337
0.909194 0.543374 0.0725109
0.930816 0.54342 0.104875
0.950439 0.543908 0.136049
0.969879 0.541314 0.142184
0.989517 0.538033 0.143786
1 0.536126 0.152865
1 0.540017 0.194324
1 0.560571 0.306813
0.929229 0.583581 0.400961
0.950347 0.585992 0.409384
0.971405 0.588388 0.4177
0.130007 0.63563 0
0.172503 0.630579 0
0.213825 0.625788 0
0.254108 0.621271 0
0.293645 0.617151 0
0.332677 0.613123 0
0.370977 0.609277 0
0.408164 0.605859 0
0.444572 0.602808 0
0.481147 0.600015 0
0.517906 0.597513 0
0.554589 0.594888 0
0.591333 0.592218 0
0.62707 0.589929 0
0.661662 0.588098 0
0.695125 0.58677 0
0.728359 0.585916 0
0.76144 0.584573 0
0.79501 0.582773 0
0.828412 0.580545 0.00233463
0.86009 0.578241 0.0204471
0.88809 0.576349 0.045304
0.911437 0.57557 0.0764935
0.930114 0.57554 0.110323
0.949615 0.575875 0.141939
0.968933 0.572747 0.143618
0.990967 0.569711 0.145968
1 0.568597 0.15938
1 0.57496 0.221164
0.975021 0.597391 0.351888
0.945312 0.610162 0.409689
0.966537 0.612406 0.418326
0.987747 0.614893 0.426825
0.137499 0.667445 0
0.179995 0.662348 0
0.221378 0.657511 0
0.261936 0.653086 0
0.301488 0.648875 0
0.340581 0.644694 0
0.379156 0.640742 0
0.416709 0.637186 0
0.453498 0.634012 0
0.490471 0.631373 0
0.52697 0.628611 0
0.563485 0.625925 0
0.600259 0.623178 0
0.636606 0.62063 0
0.672099 0.618723 0
0.70634 0.61706 0
0.739086 0.615839 0
0.771115 0.614679 0
0.802853 0.613306 0
0.834165 0.611582 0.00482185
0.86421 0.609888 0.0244602
0.89102 0.608255 0.0504311
0.913725 0.607233 0.0820478
0.933074 0.606928 0.115694
0.950195 0.606973 0.145525
0.968261 0.604028 0.14699
0.996628 0.60174 0.15108
1 0.601297 0.173983
1 0.611185 0.268055
0.946471 0.633143 0.401999
0.961135 0.636667 0.418082
0.982528 0.638911 0.426902
1 0.641489 0.435584
0.145312 0.699016 0
0.187518 0.694148 0
0.229175 0.689464 0
0.269596 0.684825 0
0.309133 0.680476 0
0.348379 0.676249 0
0.387137 0.672175 0
0.425193 0.668589 0
0.462547 0.6654 0
0.499397 0.66244 0
0.535943 0.659632 0
0.572412 0.656901 0
0.609003 0.654154 0
0.645914 0.651591 0
0.681849 0.649287 0
0.716503 0.647288 0
0.749584 0.645731 0
0.781048 0.644511 0
0.811444 0.643351 0
0.841031 0.642267 0.0099794
0.868971 0.640803 0.0305028
0.894301 0.639399 0.0575875
0.916609 0.638453 0.0894636
0.9364 0.63801 0.12256
0.954009 0.637446 0.148272
0.972244 0.635401 0.153735
1 0.633295 0.159304
1 0.635294 0.208316
0.990326 0.648966 0.336736
0.955108 0.661158 0.416968
0.977005 0.663493 0.426368
0.998276 0.665736 0.435142
1 0.66807 0.443076
0.163516 0.725277 0
0.195956 0.725551 0
0.236789 0.720989 0
0.277104 0.716411 0
0.316686 0.711986 0
0.356039 0.707713 0
0.395102 0.7037 0
0.433509 0.700008 0
0.471153 0.696544 0
0.508217 0.693462 0
0.544808 0.690532 0
0.581262 0.6878 0
0.618021 0.685313 0
0.654719 0.68249 0
0.69099 0.679866 0
0.725978 0.677546 0
0.759426 0.675639 0
0.790982 0.674342 0
0.820645 0.673304 0.000869764
0.848402 0.672206 0.0171664
0.87451 0.671107 0.0389868
0.898436 0.670024 0.0670024
0.920272 0.669184 0.0986801
0.940459 0.668894 0.131197
0.955657 0.668315 0.15848
0.984253 0.666133 0.161715
1 0.664775 0.180468
1 0.671183 0.278569
0.952132 0.685252 0.409964
0.970535 0.688121 0.424796
0.992203 0.690196 0.43386
1 0.692409 0.442252
1 0.694972 0.449271
0.248402 0.717556 0
0.240726 0.737408 0
0.255619 0.746258 0
0.285847 0.747143 0
0.324453 0.743328 0
0.363973 0.73933 0
0.402975 0.73518 0
0.44152 0.731243 0
0.479591 0.727626 0
0.51693 0.724407 0
0.553704 0.721553 0
0.590356 0.718868 0
0.626703 0.71606 0
0.663203 0.713252 0
0.69958 0.710353 0
0.734813 0.707774 0
0.768597 0.705684 0
0.80032 0.704051 0
0.829419 0.70277 0.00822461
0.856199 0.701762 0.0265965
0.880766 0.700862 0.0501717
0.903502 0.700069 0.0785382
0.924681 0.699519 0.110109
0.941497 0.698817 0.143603
0.965255 0.697948 0.16466
1 0.695903 0.17116
1 0.698146 0.242466
0.964187 0.707515 0.374884
0.963348 0.712932 0.422644
0.985443 0.714885 0.431907
1 0.716838 0.440818
1 0.719356 0.448203
1 0.722011 0.455024
0.390234 0.678691 0.102861
0.35964 0.710079 0
0.335454 0.738354 0
0.3337 0.755871 0
0.349248 0.765026 0
0.376287 0.767742 0
0.411215 0.766064 0
0.449653 0.762249 0
0.487984 0.758587 0
0.525643 0.755291 0
0.562646 0.752422 0
0.599084 0.749493 0
0.635355 0.746609 0
0.671534 0.743694 0
0.707698 0.74078 0
0.743389 0.738155 0
0.777111 0.735698 0
0.808743 0.733639 0.000366217
0.837751 0.732052 0.0176242
0.863966 0.730953 0.0383917
0.887617 0.730236 0.0638285
0.908248 0.729366 0.0945907
0.92491 0.728023 0.129183
0.94844 0.72697 0.149599
0.982361 0.725902 0.159472
0.988128 0.727001 0.232517
0.960327 0.732937 0.358984
0.955993 0.737774 0.420508
0.978012 0.739666 0.429618
0.999832 0.741543 0.438819
1 0.743984 0.446525
1 0.746563 0.453498
1 0.749401 0.460563
0.434897 0.690501 0.176425
0.457023 0.69247 0.187213
0.460121 0.705165 0.147143
0.441474 0.731075 0.0336156
0.431189 0.753414 0
0.432227 0.769909 0
0.44683 0.779629 0
0.471122 0.784253 0
0.502113 0.785687 0
