site/assets/luts/freshluts--0000162-cinelike-d-to-normal-color.cube
# LUTr-Schema-Version: 2
# LUTr-ID: freshluts--0000162-cinelike-d-to-normal-color
# LUTr-Title: Cinelike-D to normal color
# LUTr-Collection: Fresh LUTs
# LUTr-Collection-ID: freshluts-community
# LUTr-Source: https://freshluts.com
# LUTr-Retrieved: 2026-07-27
# LUTr-Source-File: submissions-raw/freshluts/cubes/162__Lumix_CinD.cube
# LUTr-Source-Format: CUBE
# LUTr-Source-SHA256: cfaf26507ee98675194f5b5192e81688dce47620a22901ea7826a4a71a2ab26b
# LUTr-License: CC0-1.0
# LUTr-License-URL: https://freshluts.com/termsandconditions
# LUTr-License-Basis: site-terms
# LUTr-Transform-Class: creative-look
# LUTr-Tags: creative, freshluts, community, cube, panasonic-cinelike-d
# LUTr-Input-Color-Space: panasonic-cinelike-d
# LUTr-Input-Gamut: rec709
# LUTr-Input-Transfer: panasonic-cinelike-d
# LUTr-Output-Color-Space: srgb
# LUTr-Output-Gamut: rec709
# LUTr-Output-Transfer: srgb
# LUTr-Color-Space-Confidence: inferred-from-source-label
# LUTr-Domain-Normalized: true
# LUTr-Shaper: none
# LUTr-Original-Grid: 33x33x33
# LUTr-Conversion-Grid: 33x33x33
# LUTr-Conversion-Interpolation: none
# LUTr-Conversion-Method: Metadata normalization; numeric LUT samples preserved
# LUTr-Conversion-Tool: LUTr scripts/convert-all-to-cube.mjs 2.0.0
# LUTr-Conversion-Date: 2026-07-28
# LUTr-Asset-URL: https://freshluts.com/luts/162
# LUTr-Author: Sander
# LUTr-Author-URL: https://freshluts.com/users/1286
# LUTr-Attribution: Sander via Fresh LUTs
# LUTr-Source-Labels: gamma=Panasonic Cinelike-D; color=None; key=Neutral; style=Correction
# LUTr-Note: Preserve this metadata and the upstream license notices when redistributing.
TITLE "Cinelike-D to normal color"
LUT_3D_SIZE 33
DOMAIN_MIN 0 0 0
DOMAIN_MAX 1 1 1
0 0 0
0.0282444 0 0
0.0572366 0 0
0.0863966 0 0
0.115465 0 0
0.144442 0 0
0.173236 0 0
0.201968 0 0
0.230686 0 0
0.259525 0 0
0.288228 0 0
0.316915 0 0
0.345708 0 0
0.374487 0 0
0.40325 0 0
0.432151 0 0
0.461021 0 0
0.489937 0 0
0.518868 0 0
0.547875 0 0
0.577356 0 0
0.606821 0 0
0.636271 0 0
0.665766 0 0
0.695476 0 0
0.725582 0 0
0.756054 0 0
0.786542 0 0
0.817182 0 0
0.848081 0 0
0.879255 0 0
0.910887 0 0
0.942199 0 0
0 0.023209 0
0.0210117 0.0210117 0
0.0500343 0.0187839 0
0.0787976 0.0162966 0
0.107607 0.0137331 0
0.136416 0.0111543 0
0.165118 0.00860609 0
0.193973 0.00621042 0
0.22266 0.00364691 0
0.251331 0.00108339 0
0.280034 0 0
0.308766 0 0
0.337697 0 0
0.366842 0 0
0.395758 0 0
0.424704 0 0
0.453788 0 0
0.48304 0 0
0.512489 0 0
0.542107 0 0
0.571756 0 0
0.601678 0 0
0.63183 0 0
0.662242 0 0
0.692805 0 0
0.723583 0 0
0.754513 0 0
0.785809 0 0
0.817456 0 0
0.849165 0 0
0.88098 0 0
0.912932 0 0
0.944518 0 0
0 0.0465248 0
0.0128939 0.0441444 0
0.0415961 0.0415961 0
0.0702983 0.0390478 0
0.0990921 0.0364538 0
0.127871 0.0338598 0
0.156695 0.0314488 0
0.185412 0.0289158 0
0.214191 0.0264286 0
0.24303 0.024033 0
0.271931 0.0216831 0
0.300862 0.0193484 0
0.330114 0.0172274 0
0.35935 0.0150912 0
0.388678 0.0131685 0
0.418112 0.0113527 0
0.447593 0.00958267 0
0.477226 0.00796521 0
0.507362 0.0068513 0
0.537636 0.00587472 0
0.5682 0.00505074 0
0.59881 0.00428778 0
0.629526 0.00375372 0
0.660838 0.00381476 0
0.692241 0.0039826 0
0.723827 0.00430304 0
0.755444 0.00468452 0
0.787167 0.00515755 0
0.819226 0.00582895 0
0.85156 0.00679026 0
0.88365 0.00762951 0
0.91577 0.00849927 0
0.947601 0.00958267 0
0 0.0693065 0
0.00436408 0.0668498 0
0.0330358 0.0642863 0
0.0617227 0.0617227 0
0.0905623 0.0591745 0
0.119615 0.0568551 0
0.148486 0.0544747 0
0.177401 0.0521401 0
0.206332 0.0498207 0
0.235355 0.0476081 0
0.264714 0.045716 0
0.294133 0.0438697 0
0.32369 0.0420539 0
0.353292 0.0402838 0
0.383017 0.0387579 0
0.413092 0.0375677 0
0.443671 0.0368963 0
0.474144 0.0361334 0
0.504707 0.0354467 0
0.535546 0.0350347 0
0.566842 0.0349432 0
0.598444 0.035172 0
0.630304 0.0357824 0
0.661952 0.0361791 0
0.693736 0.0367132 0
0.725673 0.0373999 0
0.757733 0.0382086 0
0.789883 0.0391089 0
0.82237 0.0402228 0
0.854749 0.0412146 0
0.88716 0.0423896 0
0.919661 0.0436408 0
0.951812 0.0450446 0
0 0.0920424 0
0 0.0896468 0
0.0245975 0.0872206 0
0.0535744 0.084947 0
0.0826581 0.0826581 0
0.111727 0.080354 0
0.14081 0.0781872 0
0.170092 0.0762188 0
0.199512 0.0743877 0
0.229114 0.0727398 0
0.258732 0.071107 0
0.288579 0.0697032 0
0.318868 0.0686198 0
0.349386 0.0677653 0
0.379889 0.0670176 0
0.410742 0.0666056 0
0.441733 0.0663462 0
0.47306 0.0664225 0
0.504616 0.0667277 0
0.536217 0.0670939 0
0.568017 0.0675059 0
0.600229 0.0683452 0
0.632227 0.0690776 0
0.664302 0.0699168 0
0.696406 0.0707713 0
0.728588 0.0717021 0
0.761212 0.0730755 0
0.793667 0.0742962 0
0.826307 0.0755322 0
0.858946 0.0768139 0
0.891569 0.0781872 0
0.924331 0.0796826 0
0.957061 0.0816815 0
0 0.115251 0
0 0.113024 0
0.016846 0.110857 0
0.0460975 0.108858 0
0.0755474 0.10692 0
0.105089 0.105089 0
0.134569 0.103319 0
0.164218 0.101717 0
0.194385 0.100649 0
0.224689 0.0996872 0
0.255161 0.098909 0
0.285679 0.0981765 0
0.316518 0.0976425 0
0.347875 0.0976272 0
0.379416 0.0979019 0
0.411002 0.0982376 0
0.442634 0.0986191 0
0.474357 0.0991073 0
0.506264 0.0997482 0
0.538521 0.100771 0
0.570779 0.10164 0
0.603006 0.102495 0
0.635233 0.103471 0
0.667613 0.104601 0
0.700099 0.105837 0
0.732937 0.107424 0
0.765515 0.108751 0
0.798169 0.110155 0
0.831052 0.111666 0
0.864027 0.113252 0
0.89691 0.1149 0
0.930144 0.116884 0
0.962753 0.11873 0
0 0.139208 0
0 0.137591 0
0.010544 0.135805 0
0.0400702 0.134081 0
0.0699321 0.132555 0
0.10013 0.13138 0
0.130587 0.130587 0
0.161212 0.129961 0
0.191806 0.129305 0
0.22266 0.128908 0
0.253895 0.128893 0
0.285405 0.129152 0
0.317266 0.129625 0
0.349142 0.130129 0
0.380926 0.130678 0
0.412879 0.13138 0
0.444953 0.132204 0
0.477058 0.133043 0
0.509422 0.134173 0
0.541787 0.135286 0
0.574319 0.136431 0
0.606928 0.137667 0
0.639475 0.138964 0
0.672068 0.140307 0
0.705074 0.142061 0
0.737896 0.143633 0
0.770779 0.145266 0
0.803677 0.146914 0
0.836713 0.148577 0
0.87013 0.150622 0
0.903273 0.152499 0
0.9364 0.154376 0
0.969146 0.15639 0
0 0.164706 0
0 0.163455 0
0.0059205 0.162417 0
0.036347 0.161608 0
0.0669566 0.16083 0
0.0977798 0.160281 0
0.128954 0.160204 0
0.160311 0.160311 0
0.191882 0.160632 0
0.223499 0.160998 0
0.255192 0.16144 0
0.287312 0.162325 0
0.319432 0.163043 0
0.351614 0.163867 0
0.383719 0.164721 0
0.415915 0.165667 0
0.448402 0.166888 0
0.481025 0.168276 0
0.513558 0.169543 0
0.546105 0.170855 0
0.578836 0.172198 0
0.611688 0.173678 0
0.644739 0.175479 0
0.677745 0.177234 0
0.710658 0.178897 0
0.743618 0.180606 0
0.776669 0.182406 0
0.809796 0.184283 0
0.84329 0.186404 0
0.8766 0.188342 0
0.909789 0.19028 0
0.943008 0.192248 0
0.97586 0.194354 0
0 0.192554 0
0 0.191943 0
0.00370794 0.19147 0
0.0348363 0.191348 0
0.0666667 0.191791 0
0.0983597 0.192111 0
0.129992 0.192493 0
0.161746 0.192996 0
0.193652 0.193652 0
0.225742 0.194507 0
0.258076 0.195575 0
0.290211 0.19646 0
0.32256 0.197421 0
0.355047 0.19855 0
0.387549 0.199786 0
0.420188 0.20119 0
0.452964 0.202701 0
0.485634 0.20412 0
0.518425 0.205676 0
0.551293 0.207294 0
0.584298 0.208911 0
0.617487 0.210727 0
0.650645 0.212619 0
0.683711 0.21445 0
0.716854 0.216342 0
0.749996 0.218235 0
0.783154 0.220142 0
0.816678 0.222416 0
0.850004 0.224369 0
0.88336 0.226352 0
0.916625 0.228351 0
0.949874 0.23035 0
0.982956 0.232685 0
0 0.222629 0
0 0.223011 0
0.00436408 0.223377 0
0.0363012 0.224063 0
0.0682231 0.224582 0
0.100282 0.225284 0
0.132357 0.226108 0
0.164462 0.226963 0
0.196658 0.227909 0
0.229206 0.229206 0
0.261662 0.230411 0
0.294179 0.231678 0
0.326818 0.232944 0
0.359518 0.234272 0
0.392538 0.236042 0
0.425376 0.237613 0
0.458259 0.239261 0
0.491157 0.240894 0
0.524102 0.242603 0
0.557229 0.244465 0
0.590661 0.246525 0
0.623911 0.248386 0
0.657053 0.250294 0
0.690227 0.252201 0
0.72343 0.25417 0
0.756832 0.256321 0
0.790265 0.258503 0
0.823514 0.260502 0
0.85687 0.26247 0
0.890211 0.264439 0
0.923445 0.266423 0
0.956878 0.26862 0
0.989822 0.270817 0
0 0.255207 0
0 0.256168 0
0.00672923 0.256977 0
0.038819 0.257816 0
0.0710307 0.258656 0
0.103349 0.259586 0
0.135698 0.260685 0
0.168475 0.262226 0
0.201007 0.263508 0
0.233555 0.264805 0
0.266194 0.266194 0
0.298955 0.267704 0
0.331914 0.269291 0
0.365225 0.271214 0
0.398138 0.272877 0
0.431113 0.274601 0
0.464179 0.276417 0
0.497292 0.278279 0
0.530495 0.280232 0
0.563912 0.282414 0
0.597208 0.284306 0
0.630533 0.286259 0
0.663783 0.288273 0
0.697032 0.290272 0
0.730404 0.292393 0
0.763867 0.294606 0
0.797101 0.29659 0
0.830335 0.298573 0
0.863661 0.300526 0
0.896971 0.302449 0
0.930449 0.304677 0
0.963546 0.306523 0
0.996231 0.308461 0
0 0.289311 0
0 0.290379 0
0.00988785 0.291386 0
0.0422827 0.292546 0
0.0748913 0.293767 0
0.10753 0.295033 0
0.140398 0.296651 0
0.173098 0.2981 0
0.205905 0.299657 0
0.238773 0.301274 0
0.271672 0.302922 0
0.304601 0.304601 0
0.338033 0.306645 0
0.371221 0.308461 0
0.404349 0.310338 0
0.437491 0.31223 0
0.470649 0.314153 0
0.504189 0.316426 0
0.537423 0.31841 0
0.570672 0.320424 0
0.604028 0.322393 0
0.637385 0.324376 0
0.670665 0.32639 0
0.704189 0.328679 0
0.737423 0.330663 0
0.770657 0.332647 0
0.80383 0.334569 0
0.836973 0.336461 0
0.870237 0.338354 0
0.903655 0.340383 0
0.936706 0.342184 0
0.969665 0.343908 0.000411994
1 0.345632 0.00215152
0 0.324285 0
0 0.325658 0
0.0140688 0.326955 0
0.0466773 0.328313 0
0.0797131 0.329976 0
0.112764 0.33164 0
0.145647 0.333272 0
0.178546 0.334936 0
0.211505 0.336629 0
0.244541 0.338415 0
0.277928 0.340551 0
0.311101 0.342489 0
0.344366 0.344366 0
0.37763 0.346258 0
0.410849 0.348226 0
0.444099 0.350225 0
0.477684 0.35256 0
0.510933 0.354559 0
0.544182 0.356558 0
0.577432 0.358557 0
0.610758 0.36051 0
0.644099 0.362463 0
0.677638 0.364752 0
0.710796 0.366674 0
0.743923 0.368536 0
0.776989 0.370367 0
0.810056 0.372183 0
0.843153 0.374014 0
0.876448 0.375937 0.00106813
0.909392 0.377508 0.00263981
0.942184 0.379049 0.00418097
0.97496 0.380575 0.00570687
1 0.382147 0.00727855
0 0.360128 0
0 0.361761 0
0.0191043 0.363378 0
0.0521859 0.365194 0
0.0853437 0.366964 0
0.118425 0.368673 0
0.151492 0.370489 0
0.184619 0.372366 0
0.217762 0.374258 0
0.251148 0.37641 0
0.284428 0.378439 0
0.317647 0.380407 0
0.351003 0.382376 0
0.38436 0.38436 0
0.417609 0.386358 0
0.451194 0.388693 0
0.484428 0.390677 0
0.517662 0.39266 0
0.550896 0.394644 0
0.5841 0.396597 0
0.617639 0.398764 0
0.650858 0.40061 0
0.68394 0.402426 0
0.716991 0.404242 0
0.749996 0.405982 0
0.782895 0.407645 0.00140383
0.816022 0.409522 0.00328069
0.848814 0.411063 0.00482185
0.881682 0.412543 0.00630198
0.914443 0.413931 0.00769055
0.94699 0.415229 0.00898756
0.979446 0.416434 0.010193
1 0.41796 0.0117189
0 0.396872 0
0 0.398672 0
0.0252384 0.400748 0
0.0583352 0.402594 0
0.0915694 0.404456 0
0.124819 0.406317 0
0.157977 0.40824 0
0.191333 0.410346 0
0.22475 0.412512 0
0.258 0.414511 0
0.291264 0.416526 0
0.324514 0.418524 0
0.357855 0.420478 0
0.391409 0.42266 0
0.42475 0.42475 0
0.457969 0.426734 0
0.491157 0.428656 0
0.524285 0.430533 0
0.557366 0.432364 0
0.590707 0.434455 0
0.623911 0.436271 0
0.656977 0.437964 0.00047303
0.689845 0.439582 0.00209049
0.722637 0.441138 0.00364691
0.755428 0.442664 0.00517281
0.788464 0.444465 0.00697337
0.821088 0.445838 0.00833143
0.85359 0.447074 0.00958267
0.886091 0.448203 0.0107118
0.918593 0.449332 0.011841
0.950942 0.450431 0.0129397
0.98349 0.451728 0.0142367
1 0.452766 0.0152743
0 0.434287 0
0 0.43653 0
0.0316777 0.438437 0
0.0648508 0.44036 0
0.0981765 0.442298 0
0.131518 0.444282 0
0.164904 0.446418 0
0.198367 0.448615 0
0.231617 0.450614 0
0.264851 0.452598 0
0.298085 0.454597 0
0.331319 0.45658 0
0.364813 0.458686 0
0.398215 0.460716 0
0.431327 0.462577 0
0.464408 0.464408 0
0.497475 0.466224 0
0.53048 0.467979 0
0.563729 0.469978 0.00123598
0.596567 0.47158 0.00283818
0.629465 0.473091 0.00434882
0.662333 0.474586 0.00584421
0.695033 0.476036 0.00729381
0.72784 0.477577 0.00883497
0.760372 0.478859 0.0101167
0.792767 0.480018 0.0112764
0.825147 0.481147 0.0124056
0.857481 0.482216 0.0134737
0.889815 0.483177 0.014435
0.922316 0.484306 0.0155642
0.954467 0.485206 0.0164645
0.986572 0.486061 0.017319
1 0.486992 0.0182498
0 0.472343 0
0.00517281 0.474434 0
0.0384222 0.476432 0
0.0716716 0.478431 0
0.105028 0.480415 0
0.138705 0.482719 0
0.171939 0.484703 0
0.205173 0.486686 0
0.238407 0.488655 0
0.271595 0.490608 0
0.304829 0.492592 0
0.338155 0.494667 0
0.371328 0.496452 0
0.404486 0.498238 0
0.437476 0.499977 0
0.470375 0.501625 0.00163272
0.503334 0.503334 0.00334173
0.536278 0.505028 0.00503548
0.569039 0.506539 0.00654612
0.601694 0.507942 0.00794995
0.634318 0.509194 0.00920119
0.66685 0.510353 0.0103609
0.699443 0.511696 0.0117037
0.731914 0.512901 0.0129091
0.764202 0.513954 0.013962
0.796399 0.5149 0.0149081
0.828534 0.51577 0.0157778
0.860639 0.51664 0.0166476
0.89308 0.517693 0.0177005
0.925292 0.518532 0.0185397
0.957321 0.51931 0.0193179
0.989319 0.520058 0.0200656
1 0.520912 0.0209354
0 0.51043 0
0.0120241 0.512535 0
0.0452735 0.514534 0
0.0785077 0.516518 0
0.112169 0.518807 0
0.145495 0.520745 0
0.178653 0.522667 0
0.21178 0.524544 0
0.244862 0.526375 0
0.278004 0.528252 0
0.311299 0.530297 0
0.344259 0.532006 0.000762951
0.377218 0.533593 0.00234989
0.410117 0.535119 0.00387579
0.442893 0.536645 0.00540169
0.475731 0.538231 0.00698863
0.508537 0.539788 0.00854505
0.541009 0.541009 0.00976577
0.573434 0.542184 0.0109407
0.605814 0.543328 0.0120851
0.63827 0.544381 0.013138
0.670909 0.545663 0.0144198
0.703075 0.546578 0.0153353
0.735195 0.547448 0.0162051
0.767315 0.548302 0.0170596
0.799405 0.549142 0.0178988
0.831601 0.550103 0.0188602
0.863752 0.550988 0.0197452
0.895857 0.55172 0.0204776
0.927947 0.552438 0.0211948
0.959915 0.553155 0.021912
0.991852 0.553841 0.0225986
1 0.554803 0.0235599
0 0.548501 0
0.0188296 0.550591 0
0.0520333 0.552544 0
0.0855116 0.554772 0
0.11873 0.556603 0
0.151904 0.558404 0
0.184955 0.56022 0
0.217975 0.561975 0
0.251209 0.563973 0.00148013
0.284047 0.565545 0.0030518
0.316838 0.567086 0.00459297
0.349599 0.568612 0.00611887
0.382391 0.570016 0.0075227
0.415091 0.571344 0.00885023
0.447807 0.572808 0.0103151
0.480201 0.573953 0.0114595
0.512581 0.575082 0.0125887
0.5449 0.57615 0.0136568
0.577111 0.577111 0.0146334
0.609354 0.578103 0.01561
0.641764 0.579141 0.0166476
0.673976 0.579965 0.0174716
0.70605 0.580789 0.0182956
0.738079 0.581582 0.019089
0.770092 0.582345 0.019852
0.802228 0.583215 0.020737
0.834363 0.5841 0.021622
0.866316 0.584817 0.0223239
0.898344 0.585458 0.0229648
0.930327 0.586069 0.0235752
0.962219 0.586709 0.0242161
0.994278 0.587503 0.0250248
1 0.588296 0.025803
0 0.586389 0
0.0256046 0.588617 0
0.058732 0.590494 0
0.0917678 0.592279 0
0.124865 0.593988 0.000244144
0.157839 0.595605 0.0018616
0.190661 0.597162 0.00341802
0.223758 0.599008 0.00526436
0.256504 0.600504 0.00675975
0.289143 0.601892 0.00814832
0.32166 0.603159 0.00943008
0.354086 0.604349 0.010605
0.386587 0.605463 0.0117189
0.419333 0.606836 0.0130922
0.451621 0.607874 0.0141299
0.483803 0.608804 0.0150607
0.515938 0.609689 0.0159457
0.548043 0.610544 0.0168002
0.580194 0.611444 0.0177157
0.612497 0.612497 0.0187533
0.644617 0.61323 0.0194858
0.676722 0.613962 0.0202182
0.708721 0.61471 0.0209659
0.740703 0.615442 0.0216983
0.772915 0.616419 0.0226749
0.804822 0.617075 0.023331
0.836713 0.617716 0.0239719
0.868605 0.618341 0.0245975
0.900572 0.618936 0.0251926
0.932586 0.619577 0.0258335
0.964553 0.620295 0.0265507
0.996323 0.620813 0.0270695
1 0.621439 0.0276951
0 0.624155 0
0.031632 0.626032 0.000900282
0.0644846 0.627634 0.00250248
0.0972763 0.629175 0.0040589
0.130159 0.630671 0.00555428
0.162982 0.63212 0.00700389
0.19588 0.633768 0.00865187
0.228351 0.634989 0.00987259
0.260761 0.636149 0.0110323
0.293156 0.637293 0.0121614
0.32549 0.638376 0.0132601
0.358022 0.639658 0.0145266
0.390295 0.640543 0.0154269
0.422507 0.641398 0.0162661
0.454612 0.642252 0.0171206
0.486702 0.643076 0.0179599
0.518746 0.643885 0.0187533
0.551049 0.644923 0.0198062
0.583047 0.645685 0.0205539
0.615045 0.646433 0.0213016
0.64712 0.64712 0.0219883
0.679149 0.647761 0.0226444
0.71107 0.648447 0.023331
0.743206 0.649332 0.0242008
0.775082 0.649958 0.0248417
0.806928 0.650553 0.0254368
0.838743 0.651118 0.0259861
0.870527 0.651652 0.0265202
0.90248 0.652216 0.0271
0.934524 0.652903 0.0277714
0.966262 0.653376 0.0282597
0.99794 0.653819 0.028687
1 0.654337 0.0292058
0.00453193 0.661021 0.00453193
0.0368811 0.662654 0.00614939
0.0695659 0.664073 0.00758373
0.102113 0.66537 0.00888075
0.134859 0.666743 0.0102541
0.167452 0.667964 0.0114748
0.199832 0.669093 0.0125887
0.232136 0.670146 0.0136416
0.264347 0.671107 0.0146181
0.296483 0.671992 0.0155032
0.328847 0.673106 0.0166171
0.360998 0.674006 0.0175021
0.393164 0.6748 0.0182956
0.425299 0.675547 0.0190585
0.457313 0.67631 0.0198215
0.489311 0.677058 0.0205692
0.521569 0.67808 0.0215763
0.553521 0.678782 0.0222782
0.585443 0.679454 0.0229496
0.617334 0.680095 0.0235904
0.649317 0.68069 0.0242008
0.6813 0.6813 0.0247959
0.713405 0.682155 0.0256504
0.74519 0.682689 0.0261997
0.776974 0.683223 0.0267185
0.808743 0.683742 0.0272526
0.840497 0.684245 0.0277409
0.87248 0.684977 0.0284733
0.904265 0.685374 0.0288853
0.936019 0.685756 0.0292668
0.967666 0.686168 0.0296635
0.999298 0.686534 0.030045
1 0.687037 0.0305333
0.00932326 0.697078 0.00932326
0.0413367 0.698344 0.010605
0.0737316 0.699489 0.0117494
0.106264 0.700771 0.0130312
0.13875 0.701885 0.0141451
0.171038 0.7028 0.0150454
0.203159 0.70367 0.0159152
0.235264 0.704524 0.0167849
0.267369 0.705379 0.0176242
0.299702 0.706462 0.0187228
0.331731 0.70724 0.0194858
0.363729 0.707988 0.0202487
0.395834 0.708705 0.0209659
0.427909 0.709407 0.0216678
0.46006 0.710307 0.0225681
0.492027 0.71104 0.0232853
0.523919 0.711681 0.0239261
0.555795 0.712306 0.0245518
0.587655 0.712917 0.0251621
0.619471 0.713481 0.025742
0.651621 0.714244 0.0265049
0.683513 0.714763 0.0270085
0.715282 0.715282 0.0275273
0.747021 0.71577 0.0280156
0.778714 0.716213 0.0284733
0.810391 0.71664 0.0288853
0.842313 0.717311 0.0295567
0.87396 0.717708 0.0299535
0.905669 0.718044 0.0302892
0.937346 0.718334 0.0305943
0.968902 0.718639 0.0308995
1 0.718959 0.0312047
1 0.71957 0.0318303
0.0132296 0.732235 0.0132296
0.0451514 0.733425 0.0144198
0.0775006 0.734524 0.0155337
0.109621 0.735393 0.0163882
0.141833 0.736217 0.0172274
0.174014 0.737026 0.0180362
0.206058 0.737819 0.0188144
0.238209 0.73872 0.0197299
0.270359 0.73962 0.0206149
0.302342 0.740353 0.0213626
0.33431 0.74107 0.0220798
0.366232 0.741756 0.0227512
0.39823 0.742367 0.0233616
0.430411 0.74316 0.0241703
0.462379 0.743877 0.0248875
0.494224 0.744472 0.0254826
0.526024 0.745037 0.0260319
0.557809 0.745556 0.026566
0.589578 0.74609 0.0270848
0.621576 0.746822 0.0278325
0.653437 0.747311 0.0283055
0.685222 0.747723 0.0287175
0.716884 0.748135 0.0291295
0.748531 0.748531 0.0295415
0.780179 0.748928 0.0299229
0.812039 0.749538 0.0305486
0.843595 0.749859 0.0308537
0.875151 0.750149 0.0311437
0.906783 0.750408 0.0314031
0.938399 0.750637 0.0316472
0.970138 0.751141 0.0321355
1 0.751324 0.0323186
1 0.751614 0.0326085
0.0164797 0.766735 0.0164797
0.0483864 0.76791 0.0176547
0.0804608 0.768734 0.0184787
0.11249 0.769512 0.0192569
0.144594 0.77023 0.0199893
0.176699 0.770962 0.0207065
0.208789 0.771801 0.021561
0.240909 0.772671 0.0224308
0.272831 0.773342 0.0230869
0.304723 0.773983 0.0237278
0.336599 0.774609 0.0243687
0.368475 0.775235 0.024979
0.400671 0.776059 0.025803
0.432578 0.776577 0.0263218
0.464347 0.777096 0.0268559
0.496117 0.777615 0.0273747
0.527855 0.778119 0.027863
0.559731 0.778729 0.0284886
0.591516 0.779278 0.0290227
0.623178 0.779675 0.0294347
0.654932 0.780056 0.0298009
0.686656 0.780407 0.0301518
0.718242 0.780743 0.0304875
0.749996 0.781247 0.0309911
0.781598 0.781598 0.0313573
0.813138 0.781888 0.031632
0.844633 0.782132 0.0318761
0.876097 0.782345 0.032105
0.907637 0.782498 0.0322576
0.939391 0.782895 0.032639
0.970825 0.783062 0.0328222
1 0.7832 0.0329442
1 0.783398 0.0331426
0.0195315 0.801022 0.0195315
0.0511177 0.801892 0.0203861
0.0831159 0.80264 0.0211337
0.115084 0.803357 0.0218662
0.147173 0.804059 0.0225528
0.179416 0.804929 0.0234226
0.211292 0.805554 0.0240635
0.243183 0.806195 0.0246891
0.275044 0.806806 0.0252995
0.306844 0.807355 0.025864
0.33872 0.80798 0.0264897
0.370687 0.808698 0.0272068
0.402548 0.809186 0.0276799
0.434379 0.809644 0.0281376
0.466087 0.810086 0.0285801
0.497749 0.810498 0.0290074
0.529534 0.811032 0.0295415
0.561318 0.811566 0.0300755
0.59292 0.811933 0.0304265
0.624506 0.812253 0.0307622
0.656153 0.812528 0.0310216
0.687785 0.812787 0.031281
0.719493 0.81323 0.0317388
0.751064 0.813565 0.0320592
0.782513 0.813764 0.0322576
0.813931 0.813931 0.0324407
0.84535 0.814099 0.0326085
0.876753 0.814252 0.0327611
0.908492 0.814603 0.0331121
0.93991 0.814649 0.0331579
0.971222 0.81471 0.0332189
1 0.814755 0.0332647
1 0.814893 0.033402
0.0221103 0.834852 0.0221103
0.0536202 0.835645 0.0228885
0.0855116 0.836286 0.0235294
0.117418 0.836927 0.0241855
0.14966 0.837797 0.0250401
0.181598 0.838361 0.0256046
0.213397 0.838911 0.026154
0.245182 0.839445 0.026688
0.276951 0.839963 0.0272068
0.308766 0.840528 0.0277867
0.340688 0.841215 0.0284581
0.372381 0.841642 0.0289006
0.404135 0.842023 0.0292668
0.435889 0.842405 0.0296483
0.467536 0.842786 0.030045
0.499397 0.843397 0.0306554
0.530953 0.843717 0.0309606
0.562493 0.844007 0.0312505
0.594034 0.844282 0.0315404
0.625544 0.844556 0.0317998
0.657221 0.844846 0.032105
0.688914 0.845167 0.0324254
0.720348 0.84535 0.0325933
0.751751 0.845502 0.0327611
0.783154 0.845655 0.0328985
0.814496 0.845747 0.0330053
0.84596 0.84596 0.0332189
0.877379 0.846128 0.0333715
0.908766 0.846143 0.033402
0.940139 0.846128 0.0333867
0.971359 0.846113 0.0333562
1 0.846052 0.0333104
1 0.846281 0.0335241
0.0243992 0.868391 0.0243992
0.055848 0.869108 0.0251164
0.0879377 0.869963 0.0259556
0.119738 0.870512 0.0265049
0.151614 0.871 0.0270085
0.18349 0.871504 0.0274968
0.215228 0.871992 0.027985
0.246937 0.87245 0.0284428
0.278874 0.873137 0.0291447
