site/assets/luts/freshluts--0000220-cinema-4.cube
# LUTr-Schema-Version: 2
# LUTr-ID: freshluts--0000220-cinema-4
# LUTr-Title: CINEMA 4
# LUTr-Collection: Fresh LUTs
# LUTr-Collection-ID: freshluts-community
# LUTr-Source: https://freshluts.com
# LUTr-Retrieved: 2026-07-27
# LUTr-Source-File: submissions-raw/freshluts/cubes/220__CINEMA_4.cube
# LUTr-Source-Format: CUBE
# LUTr-Source-SHA256: 2908696361ebd601720c38768ba4cb7bc6be2e538ceb4dba3b0a3a797186f6bc
# LUTr-License: CC0-1.0
# LUTr-License-URL: https://freshluts.com/termsandconditions
# LUTr-License-Basis: site-terms
# LUTr-Transform-Class: creative-look
# LUTr-Tags: creative, freshluts, community, cube, brown, rec709
# LUTr-Input-Color-Space: rec709
# LUTr-Input-Gamut: rec709
# LUTr-Input-Transfer: rec709
# LUTr-Output-Color-Space: srgb
# LUTr-Output-Gamut: rec709
# LUTr-Output-Transfer: srgb
# LUTr-Color-Space-Confidence: inferred-from-source-label
# LUTr-Domain-Normalized: true
# LUTr-Shaper: none
# LUTr-Original-Grid: 16x16x16
# LUTr-Conversion-Grid: 16x16x16
# LUTr-Conversion-Interpolation: none
# LUTr-Conversion-Method: Metadata normalization; numeric LUT samples preserved
# LUTr-Conversion-Tool: LUTr scripts/convert-all-to-cube.mjs 2.0.0
# LUTr-Conversion-Date: 2026-07-28
# LUTr-Asset-URL: https://freshluts.com/luts/220
# LUTr-Author: Andy
# LUTr-Author-URL: https://freshluts.com/users/1003
# LUTr-Attribution: Andy via Fresh LUTs
# LUTr-Source-Labels: gamma=Rec 709; color=Brown; key=Neutral; style=Cinematic light
# LUTr-Note: Preserve this metadata and the upstream license notices when redistributing.
TITLE "CINEMA 4"
LUT_3D_SIZE 16
DOMAIN_MIN 0 0 0
DOMAIN_MAX 1 1 1
0.001055 0.001055 0.001055
0.023689 0.001055 0.001055
0.044669 0.001055 0.001055
0.101212 0.004332 0.004395
0.179777 0.011163 0.011095
0.251553 0.016378 0.016132
0.319195 0.021431 0.020988
0.384732 0.026488 0.025819
0.450807 0.031728 0.030833
0.520576 0.037359 0.036226
0.597418 0.043773 0.042423
0.681486 0.05095 0.049459
0.767915 0.058294 0.056767
0.847412 0.0644 0.062989
0.90756 0.069109 0.067886
0.941554 0.071809 0.070715
0.001055 0.023783 0.001055
0.023689 0.023783 0.001055
0.044669 0.022955 0.001055
0.101212 0.025435 0.004395
0.179777 0.03151 0.011095
0.251553 0.03603 0.016132
0.319195 0.040458 0.020988
0.384732 0.045001 0.025819
0.450807 0.049873 0.030833
0.520576 0.055321 0.036226
0.597418 0.061763 0.042423
0.681486 0.069125 0.049459
0.767915 0.076685 0.056767
0.847412 0.082852 0.062989
0.90756 0.087286 0.067886
0.941554 0.089323 0.070715
0.001055 0.044854 0.001055
0.022862 0.044854 0.001055
0.044669 0.044854 0.001055
0.101212 0.046538 0.004395
0.179777 0.051857 0.011095
0.251553 0.055679 0.016132
0.319195 0.059486 0.020988
0.384732 0.063512 0.025819
0.450807 0.068017 0.030833
0.520576 0.073283 0.036226
0.597418 0.079752 0.042423
0.681486 0.0873 0.049459
0.767915 0.095077 0.056767
0.847412 0.101302 0.062989
0.90756 0.105463 0.067886
0.941554 0.106837 0.070715
0.00584 0.103059 0.005553
0.026854 0.103059 0.005553
0.047868 0.103059 0.005553
0.104386 0.104844 0.007289
0.180791 0.100712 0.012011
0.252371 0.097671 0.016929
0.319831 0.095564 0.021661
0.385208 0.094709 0.026373
0.451141 0.095692 0.031281
0.520842 0.099234 0.036651
0.59766 0.105975 0.042907
0.681732 0.115297 0.050095
0.768061 0.124866 0.05731
0.847512 0.131677 0.06363
0.90761 0.133231 0.068443
0.941568 0.128395 0.070957
0.013508 0.181489 0.012604
0.033771 0.181489 0.012604
0.054033 0.181489 0.012604
0.101716 0.182025 0.013128
0.184003 0.183868 0.014933
0.254911 0.177477 0.019395
0.322216 0.172613 0.024222
0.387439 0.169394 0.029055
0.453202 0.16873 0.034107
0.522726 0.171465 0.039731
0.599314 0.178341 0.046288
0.682825 0.187818 0.053123
0.768729 0.197725 0.060149
0.847983 0.204818 0.066806
0.907924 0.205136 0.071727
0.941766 0.197184 0.074126
0.020256 0.253193 0.018739
0.039824 0.253193 0.018739
0.059392 0.253193 0.018739
0.100312 0.253664 0.019232
0.179011 0.255031 0.02068
0.258367 0.257116 0.022911
0.324912 0.249373 0.027309
0.389904 0.244334 0.032269
0.455454 0.242237 0.037517
0.524602 0.244049 0.043105
0.600547 0.250245 0.049137
0.683737 0.260103 0.056077
0.769448 0.270831 0.063474
0.848487 0.278134 0.070342
0.908241 0.27727 0.075284
0.941977 0.266822 0.077563
0.02691 0.319757 0.024816
0.045858 0.319757 0.024816
0.064804 0.319757 0.024816
0.099819 0.320127 0.025258
0.17554 0.321477 0.026888
0.251689 0.322927 0.028697
0.328196 0.325127 0.031342
0.392359 0.317651 0.03578
0.457256 0.313755 0.040542
0.52592 0.314476 0.045856
0.60165 0.320668 0.052129
0.684668 0.331116 0.059393
0.770185 0.342546 0.067013
0.849013 0.349934 0.073968
0.908716 0.348989 0.08031
0.942329 0.336525 0.082879
0.033575 0.383517 0.031048
0.052009 0.383517 0.031048
0.070445 0.383517 0.031048
0.100623 0.383794 0.031421
0.173802 0.385099 0.033244
0.24762 0.386399 0.0351
0.320661 0.387349 0.036525
0.394249 0.388977 0.038774
0.458714 0.383516 0.043418
0.527223 0.383538 0.048928
0.602803 0.389765 0.055443
0.685633 0.400789 0.062871
0.771003 0.413106 0.070962
0.850308 0.423135 0.082078
0.909719 0.421903 0.088658
0.943003 0.407073 0.090578
0.040445 0.447448 0.037707
0.058514 0.447448 0.037707
0.076583 0.447448 0.037707
0.103294 0.447641 0.038014
0.174028 0.448522 0.039467
0.245636 0.449333 0.040894
0.317096 0.450204 0.042471
0.388417 0.451125 0.044178
0.460334 0.452804 0.04678
0.528597 0.452077 0.052323
0.603987 0.458283 0.058906
0.686919 0.470374 0.067417
0.773267 0.485942 0.079858
0.851985 0.49538 0.087221
0.910812 0.49247 0.090454
0.943731 0.475149 0.092281
0.046689 0.514499 0.044171
0.064577 0.514499 0.044171
0.082463 0.514499 0.044171
0.107362 0.514601 0.044367
0.176953 0.515341 0.04589
0.247754 0.516129 0.047537
0.318334 0.516967 0.049306
0.388745 0.517817 0.051135
0.459123 0.51869 0.053056
0.530098 0.520486 0.055932
0.606 0.527621 0.064524
0.690061 0.542253 0.076111
0.775808 0.557555 0.082961
0.853892 0.566331 0.087214
0.911936 0.561548 0.090268
0.944465 0.54166 0.092119
0.053484 0.589197 0.051696
0.0714 0.589197 0.051696
0.089313 0.589197 0.051696
0.11446 0.589294 0.051929
0.184042 0.589991 0.053663
0.254752 0.590721 0.055501
0.325292 0.591471 0.057383
0.395706 0.592294 0.059431
0.4666 0.593633 0.06271
0.538053 0.595904 0.067761
0.610141 0.599226 0.072856
0.69356 0.613396 0.078386
0.778498 0.628427 0.082821
0.854935 0.63586 0.08677
0.912399 0.629179 0.089966
0.944783 0.606473 0.091803
0.061433 0.67314 0.06077
0.079532 0.67314 0.06077
0.09763 0.67314 0.06077
0.124418 0.673241 0.061082
0.194661 0.673849 0.062943
0.266483 0.674763 0.065736
0.339059 0.676243 0.069982
0.411773 0.678052 0.074498
0.483943 0.679704 0.076933
0.555528 0.681188 0.077448
0.626266 0.682586 0.077432
0.697248 0.684817 0.078398
0.779736 0.698973 0.082492
0.85559 0.706278 0.086749
0.912804 0.698168 0.089966
0.945053 0.672387 0.091803
0.071743 0.762847 0.072677
0.090057 0.762847 0.072677
0.108371 0.762847 0.072677
0.137582 0.763106 0.073643
0.211081 0.764443 0.078327
0.285174 0.765718 0.081705
0.358728 0.76687 0.08225
0.43175 0.767932 0.082277
0.503806 0.76888 0.082158
0.573463 0.769266 0.081833
0.642619 0.769602 0.081789
0.711476 0.769933 0.081786
0.780901 0.771096 0.082666
0.856236 0.778301 0.086749
0.913177 0.768862 0.089966
0.945301 0.739706 0.091803
0.088064 0.848213 0.086906
0.106437 0.848213 0.086906
0.124811 0.848213 0.086906
0.154563 0.848376 0.086906
0.228013 0.849098 0.086906
0.301784 0.849771 0.08686
0.373534 0.850227 0.086631
0.443418 0.850462 0.086415
0.513001 0.850674 0.086415
0.582292 0.850897 0.086415
0.651211 0.851106 0.086415
0.719897 0.851314 0.086415
0.788172 0.851523 0.086415
0.857005 0.85232 0.086989
0.913505 0.841201 0.090016
0.94552 0.808815 0.091803
0.101914 0.912252 0.090447
0.120014 0.912252 0.090447
0.138114 0.912252 0.090447
0.165248 0.912324 0.090447
0.235212 0.912599 0.09017
0.304573 0.912751 0.090002
0.373321 0.912883 0.089976
0.44192 0.913026 0.089976
0.510159 0.913153 0.089976
0.578117 0.913279 0.089976
0.645642 0.913405 0.089976
0.713067 0.913532 0.089976
0.780106 0.913658 0.090075
0.84714 0.913837 0.091114
0.914225 0.914414 0.093216
0.945756 0.878711 0.093665
0.108108 0.947961 0.092218
0.125548 0.947961 0.092218
0.142989 0.947961 0.092218
0.163669 0.947968 0.092199
0.22911 0.948069 0.092046
0.295628 0.948145 0.092013
0.361767 0.948238 0.092013
0.427624 0.948315 0.092013
0.493317 0.948398 0.092013
0.558676 0.948476 0.092013
0.623675 0.948553 0.092013
0.68861 0.948638 0.092013
0.753241 0.948744 0.092759
0.817777 0.948855 0.094187
0.881954 0.948981 0.096079
0.946398 0.949344 0.098551
0.001055 0.001055 0.022517
0.023689 0.001055 0.022517
0.044669 0.001055 0.021734
0.101212 0.004332 0.024323
0.179777 0.011163 0.030309
0.251553 0.016378 0.034688
0.319195 0.021431 0.038956
0.384732 0.026488 0.0433
0.450807 0.031728 0.047967
0.520576 0.037359 0.053188
0.597418 0.043773 0.05941
0.681486 0.05095 0.066621
0.767915 0.058294 0.074134
0.847412 0.0644 0.080413
0.90756 0.069109 0.08505
0.941554 0.071809 0.087254
0.001055 0.023783 0.022517
0.023689 0.023783 0.022517
0.044669 0.023783 0.022517
0.101212 0.02706 0.025857
0.179777 0.033891 0.032557
0.251553 0.039105 0.037594
0.319195 0.044159 0.04245
0.384732 0.049215 0.047281
0.450807 0.054456 0.052295
0.520576 0.060086 0.057688
0.597418 0.0665 0.063885
0.681486 0.073678 0.070921
0.767915 0.081022 0.078229
0.847412 0.087127 0.084451
0.90756 0.091837 0.089348
0.941554 0.094537 0.092177
0.001055 0.044854 0.021734
0.023689 0.044854 0.022517
0.044669 0.044854 0.022517
0.101212 0.046971 0.025857
0.179777 0.052668 0.032557
0.251553 0.056834 0.037594
0.319195 0.060951 0.04245
0.384732 0.065241 0.047281
0.450807 0.069939 0.052295
0.520576 0.075308 0.057688
0.597418 0.081774 0.063885
0.681486 0.089236 0.070921
0.767915 0.096913 0.078229
0.847412 0.103115 0.084451
0.90756 0.10741 0.089348
0.941554 0.109121 0.092177
0.00584 0.103059 0.02548
0.028474 0.103059 0.027015
0.048299 0.103059 0.027015
0.104386 0.104844 0.028751
0.180826 0.101878 0.033504
0.252426 0.099685 0.038444
0.31991 0.098416 0.043207
0.385306 0.098227 0.047949
0.451247 0.099746 0.052884
0.520948 0.103577 0.058284
0.597756 0.110361 0.064561
0.681811 0.11954 0.07176
0.768099 0.128823 0.078911
0.847536 0.135622 0.085248
0.907626 0.137448 0.090085
0.94158 0.133373 0.092639
0.013508 0.181489 0.031819
0.036142 0.181489 0.034067
0.054838 0.181489 0.034067
0.102861 0.182043 0.034607
0.184003 0.183868 0.036395
0.254942 0.178335 0.040888
0.322266 0.174162 0.045739
0.387506 0.171533 0.050599
0.453277 0.171301 0.055677
0.522804 0.174332 0.061328
0.599379 0.181251 0.067893
0.682858 0.190619 0.074687
0.768755 0.200441 0.081725
0.848001 0.207535 0.088394
0.907937 0.208053 0.093328
0.941777 0.200659 0.095757
0.020256 0.253193 0.037295
0.042889 0.253193 0.040201
0.060542 0.253193 0.040201
0.102303 0.253697 0.040728
0.17985 0.255046 0.042159
0.258367 0.257116 0.044373
0.324935 0.250007 0.048799
0.389943 0.245488 0.053784
0.455502 0.243797 0.059055
0.524638 0.245834 0.064638
0.600576 0.252144 0.070674
0.683761 0.262002 0.077621
0.769466 0.272687 0.085023
0.848499 0.279978 0.091894
0.90825 0.279311 0.09685
0.941984 0.269276 0.099148
0.02691 0.319757 0.042784
0.049544 0.319757 0.046278
0.066262 0.319757 0.046278
0.102623 0.320174 0.046777
0.177074 0.321505 0.048384
0.25235 0.32294 0.050176
0.328196 0.325127 0.052804
0.39237 0.318108 0.057258
0.457274 0.314602 0.062035
0.52594 0.315589 0.067364
0.601671 0.321945 0.07365
0.684685 0.332419 0.080919
0.770199 0.343903 0.088543
0.849031 0.351287 0.09555
0.90873 0.350532 0.10193
0.942346 0.338387 0.104577
0.033575 0.383517 0.048529
0.056209 0.383517 0.05251
0.072164 0.383517 0.05251
0.104083 0.383854 0.052964
0.175888 0.385138 0.054759
0.248757 0.386419 0.05659
0.321185 0.387355 0.057997
0.394249 0.388977 0.060236
0.458722 0.383882 0.064896
0.527236 0.384198 0.07042
0.602817 0.390603 0.076947
0.685646 0.401687 0.084378
0.77103 0.414052 0.092545
0.850331 0.424142 0.10365
0.909735 0.423037 0.110236
0.943017 0.408431 0.112134
0.040445 0.447448 0.054842
0.063079 0.447448 0.05917
0.078497 0.447448 0.05917
0.10725 0.447706 0.05958
0.176519 0.448551 0.060976
0.247146 0.44935 0.062387
0.318004 0.450215 0.063954
0.388783 0.451129 0.065649
0.460334 0.452804 0.068242
0.528603 0.452346 0.073799
0.603996 0.458763 0.080393
0.686946 0.471009 0.088965
0.773289 0.48659 0.101383
0.852004 0.496151 0.108683
0.910827 0.493289 0.111916
0.943743 0.476145 0.113743
0.046689 0.514499 0.061133
0.069323 0.514499 0.065633
0.08448 0.514499 0.065633
0.111557 0.514645 0.065914
0.179691 0.51537 0.067414
0.249521 0.516149 0.069042
0.319491 0.516981 0.070797
0.38943 0.517825 0.072615
0.459379 0.518693 0.074525
0.530098 0.520486 0.077394
0.60601 0.527806 0.086011
0.690078 0.542616 0.0976
0.775826 0.558001 0.104423
0.853906 0.566814 0.108676
0.911941 0.562143 0.111724
0.944471 0.542445 0.113573
0.053484 0.589197 0.068683
0.076118 0.589198 0.073158
0.091325 0.589198 0.073158
0.118652 0.589335 0.07349
0.186858 0.590021 0.075199
0.256631 0.590742 0.077014
0.326558 0.591485 0.07888
0.396551 0.592305 0.08092
0.467134 0.593648 0.084207
0.538294 0.595912 0.089239
0.610141 0.599226 0.094318
0.693571 0.613591 0.099848
0.778507 0.628742 0.104281
0.854938 0.636216 0.108232
0.912402 0.629667 0.111428
0.944786 0.607071 0.113265
0.061433 0.67314 0.077932
0.084067 0.673139 0.082232
0.09956 0.673139 0.082232
0.128477 0.673275 0.08265
0.197413 0.673873 0.08448
0.26839 0.674795 0.087295
0.340401 0.676278 0.09154
0.412713 0.678075 0.096014
0.484576 0.679718 0.098405
0.55589 0.681196 0.09891
0.626501 0.68259 0.098893
0.697247 0.684817 0.09986
0.779738 0.699125 0.103954
0.855592 0.706529 0.108211
0.912806 0.698536 0.111428
0.945055 0.672755 0.113265
0.071743 0.762847 0.090044
0.094376 0.762847 0.094139
0.110198 0.762847 0.094139
0.141544 0.763175 0.095365
0.213781 0.764492 0.099948
0.287032 0.765749 0.103228
0.360054 0.766891 0.103717
0.432693 0.767946 0.103739
0.504433 0.768883 0.103616
0.573925 0.769269 0.103295
0.642842 0.769603 0.103251
0.711623 0.769934 0.103248
0.780901 0.771097 0.104128
0.856237 0.778436 0.108211
0.913179 0.769115 0.111428
0.945302 0.74 0.113265
0.088064 0.848213 0.10433
0.110697 0.848213 0.108368
0.126614 0.848213 0.108368
0.158505 0.848417 0.108368
0.230712 0.849124 0.108368
0.303636 0.849787 0.10832
0.37484 0.850232 0.108086
0.444372 0.850465 0.107877
0.5137 0.850677 0.107877
0.582786 0.850898 0.107877
0.651542 0.851107 0.107877
0.72014 0.851315 0.107877
0.788298 0.851523 0.107877
0.857005 0.85232 0.108451
0.913506 0.841246 0.111479
0.945521 0.808975 0.113265
0.101914 0.912252 0.107612
0.124547 0.912253 0.111909
0.140054 0.912253 0.111909
0.169484 0.912349 0.111909
0.238012 0.912607 0.111619
0.306559 0.912755 0.111463
0.374764 0.912885 0.111438
0.442981 0.913029 0.111438
0.510979 0.913155 0.111438
0.578723 0.913281 0.111438
0.646083 0.913407 0.111438
0.713312 0.913533 0.111438
0.780341 0.913659 0.111538
0.847259 0.913838 0.112579
0.914225 0.914414 0.114678
0.945757 0.878772 0.11513
0.108108 0.947961 0.108757
0.130742 0.947961 0.113681
0.145263 0.947961 0.113681
0.168443 0.947975 0.113641
0.232407 0.948074 0.113505
0.29796 0.948149 0.113476
0.363482 0.94824 0.113476
0.428933 0.948316 0.113476
0.494286 0.948399 0.113476
0.559461 0.948477 0.113476
0.624266 0.948554 0.113476
0.688971 0.948639 0.113476
0.753525 0.948744 0.114227
0.817983 0.948856 0.115655
0.881976 0.948981 0.117542
0.946398 0.949344 0.120013
0.001055 0.001055 0.042412
0.022862 0.001055 0.042412
0.044669 0.001055 0.042412
0.101212 0.004332 0.044249
0.179777 0.011163 0.049524
0.251553 0.016378 0.053244
0.319195 0.021431 0.056922
0.384732 0.026488 0.060783
0.450807 0.031728 0.065101
0.520576 0.037359 0.070148
0.597418 0.043773 0.076399
0.681486 0.05095 0.083784
0.767915 0.058294 0.091499
0.847412 0.0644 0.097837
0.90756 0.069109 0.102212
0.941554 0.071809 0.103794
0.001055 0.022955 0.042412
0.023689 0.023783 0.042412
0.044669 0.023783 0.042412
0.101212 0.02706 0.044659
0.179777 0.033891 0.050287
0.251553 0.039105 0.054335
0.319195 0.044159 0.058305
0.384732 0.049215 0.062413
0.450807 0.054456 0.066916
0.520576 0.060086 0.072062
0.597418 0.0665 0.078306
0.681486 0.073678 0.085614
0.767915 0.081022 0.093235
0.847412 0.087127 0.099547
0.90756 0.091837 0.104053
0.941554 0.094537 0.105948
0.001055 0.044854 0.042412
0.023689 0.044854 0.042412
0.044669 0.044854 0.042412
0.101212 0.048131 0.045752
0.179777 0.054962 0.052451
0.251553 0.060176 0.057488
0.319195 0.06523 0.062344
0.384732 0.070286 0.067176
0.450807 0.075526 0.072189
0.520576 0.081157 0.077583
0.597418 0.087571 0.083779
0.681486 0.094748 0.090816
0.767915 0.102093 0.098123
0.847413 0.108198 0.104345
0.90756 0.112908 0.109242
0.941554 0.115607 0.112072
0.00584 0.103059 0.045406
0.028474 0.103059 0.045817
0.049454 0.103059 0.046909
0.104386 0.104844 0.048645
0.180927 0.105308 0.053489
0.252625 0.106229 0.05853
0.320163 0.107393 0.06337
0.385614 0.109308 0.068202
0.451577 0.112457 0.073221
0.521284 0.1172 0.078714
0.598053 0.123996 0.08505
0.682052 0.132534 0.092278
0.768212 0.1408 0.099226
0.847609 0.147401 0.105609
0.907675 0.150335 0.11053
0.941619 0.148897 0.113217
0.013508 0.181489 0.051034
0.036142 0.181489 0.051797
0.057122 0.181489 0.053961
0.106228 0.182096 0.054552
0.184003 0.183868 0.056289
0.255034 0.180926 0.060873
0.322433 0.179064 0.06582
0.387723 0.178418 0.070759
0.45352 0.179642 0.075923
0.523055 0.183523 0.081654
0.59959 0.190635 0.088246
0.682965 0.199502 0.094907
0.768833 0.208812 0.101971
0.848055 0.215841 0.108671
0.907976 0.217218 0.11366
0.94181 0.211825 0.116193
0.020256 0.253193 0.055852
0.042889 0.253193 0.056943
0.063869 0.253193 0.060096
0.108665 0.253804 0.060734
0.182433 0.255093 0.062103
0.258367 0.257116 0.064267
0.325013 0.252106 0.068788
0.390071 0.24925 0.073851
0.45566 0.24891 0.079201
0.524757 0.251731 0.084766
0.60067 0.258324 0.090812
0.683839 0.268061 0.097779
0.769522 0.278503 0.105191
0.848539 0.285748 0.112074
0.908278 0.285755 0.117071
0.942008 0.277233 0.119442
0.02691 0.319757 0.060751
0.049544 0.319757 0.062133
0.070524 0.319757 0.066172
0.111366 0.320323 0.06685
0.181933 0.321596 0.068388
0.254374 0.32298 0.070121
0.328196 0.325127 0.072698
0.392405 0.319692 0.077211
0.457331 0.317414 0.082033
0.526009 0.319313 0.087412
0.601738 0.326059 0.093731
0.684739 0.336593 0.101016
0.77024 0.347924 0.108642
0.849086 0.355492 0.115822
0.908776 0.355393 0.122324
0.942401 0.344525 0.125248
0.033575 0.383517 0.066012
0.056209 0.383517 0.067642
0.077189 0.383517 0.072405
0.11496 0.384043 0.073113
0.18261 0.385261 0.074824
0.252505 0.386485 0.076579
0.322774 0.387375 0.077924
0.394249 0.388977 0.080131
0.458748 0.385112 0.084844
0.527278 0.386345 0.090414
0.602863 0.39327 0.096974
0.685686 0.404557 0.104418
0.771117 0.417104 0.112829
0.850402 0.427302 0.123888
0.909788 0.426617 0.130344
0.943062 0.412969 0.132345
0.040445 0.447448 0.071976
0.063079 0.447448 0.073791
0.084059 0.447448 0.079064
0.119673 0.44791 0.079798
0.184605 0.448642 0.081022
0.252162 0.449407 0.082385
0.320834 0.450249 0.083913
0.390084 0.451146 0.085575
0.460334 0.452804 0.088136
0.528623 0.453307 0.093742
0.604023 0.460333 0.100367
0.687032 0.47305 0.109135
0.773362 0.488749 0.121485
0.852059 0.498401 0.128577
0.910873 0.49592 0.13181
0.943783 0.479591 0.133638
0.046689 0.514499 0.078093
0.069323 0.514499 0.080007
0.090303 0.514499 0.085528
0.124675 0.514784 0.086077
0.188598 0.515465 0.08751
0.255354 0.516216 0.089076
0.323213 0.517026 0.090786
0.391621 0.517852 0.092567
0.460396 0.518705 0.094447
0.530098 0.520486 0.097289
0.606054 0.528604 0.106012
0.690135 0.54385 0.117586
0.775881 0.559419 0.124317
0.853954 0.568499 0.12857
0.911957 0.564113 0.131599
0.944489 0.544977 0.133442
0.053484 0.589197 0.085672
0.076118 0.589198 0.08758
0.097098 0.589197 0.093052
0.131763 0.589464 0.093693
0.195911 0.590117 0.095329
0.262755 0.590807 0.097072
0.330742 0.591529 0.098889
0.399283 0.592343 0.100905
0.468755 0.593692 0.104208
0.539051 0.595936 0.109184
0.610141 0.599226 0.114212
0.693598 0.614079 0.119743
0.778536 0.629678 0.124169
0.854948 0.637217 0.128124
0.91241 0.631095 0.131322
0.944794 0.609029 0.13316
0.061433 0.67314 0.095095
0.084067 0.673139 0.096925
0.105047 0.673139 0.102126
0.140926 0.673381 0.102871
0.206125 0.673949 0.104611
0.274484 0.674897 0.107501
0.344735 0.67639 0.111743
0.415738 0.678149 0.116082
0.486527 0.679759 0.118329
0.557062 0.68122 0.118804
0.627024 0.682599 0.118787
0.697247 0.684817 0.119755
0.779743 0.699487 0.123849
0.855599 0.707237 0.128106
0.912811 0.699498 0.131322
0.94506 0.6742 0.13316
0.071743 0.762847 0.107409
0.094376 0.762847 0.109145
0.115356 0.762847 0.114033
0.153604 0.763387 0.11605
0.222265 0.764644 0.120341
0.292948 0.765848 0.123317
0.364259 0.766953 0.123619
0.435717 0.767989 0.123634
0.50651 0.768894 0.123499
0.575313 0.769276 0.123188
0.643761 0.769607 0.123146
0.712007 0.769936 0.123142
0.780901 0.771097 0.124022
0.85624 0.778773 0.128106
0.913182 0.769737 0.131322
0.945305 0.741086 0.13316
0.088064 0.848213 0.121754
0.110697 0.848213 0.123464
0.131677 0.848213 0.128262
0.170335 0.848542 0.128262
0.2391 0.849207 0.128262
0.309473 0.849838 0.128209
0.378912 0.850246 0.127959
0.447416 0.850475 0.127771
0.51594 0.850684 0.127771
0.584376 0.850903 0.127771
0.652689 0.85111 0.127771
0.720817 0.851317 0.127771
0.788656 0.851524 0.127771
0.857005 0.85232 0.128346
0.913507 0.841559 0.131374
0.945523 0.809602 0.13316
0.101914 0.912252 0.124773
0.124547 0.912253 0.126615
0.145527 0.912253 0.131804
0.182388 0.912424 0.131804
0.246802 0.912631 0.131471
0.312747 0.912768 0.131353
0.379319 0.912892 0.131332
0.446451 0.913036 0.131332
0.513586 0.913161 0.131332
0.580643 0.913285 0.131332
0.647574 0.91341 0.131332
0.714268 0.913535 0.131332
0.780909 0.913661 0.131436
0.847565 0.913839 0.132479
0.914225 0.914414 0.134572
0.945758 0.879102 0.13504
0.108108 0.947961 0.125297
0.130742 0.947961 0.127451
0.151722 0.947961 0.133575
0.183305 0.947998 0.133472
0.242994 0.94809 0.133391
0.30557 0.94816 0.13337
0.369164 0.948244 0.13337
0.433282 0.94832 0.13337
0.497633 0.948404 0.13337
0.562001 0.948481 0.13337
0.626224 0.948557 0.13337
0.690494 0.94864 0.13337
0.754554 0.948746 0.13414
0.818622 0.948857 0.135566
0.882317 0.948982 0.137447
0.946398 0.949344 0.139907
0.002523 0.0025 0.07912
0.023537 0.0025 0.07912
0.044551 0.0025 0.07912
0.101473 0.004557 0.081225
0.179864 0.01125 0.081426
0.251613 0.016444 0.080661
0.319232 0.021481 0.080311
0.384749 0.026513 0.080862
0.450811 0.031733 0.08281
0.520576 0.037359 0.087111
0.597418 0.043773 0.093386
0.68149 0.05096 0.101686
0.767921 0.058312 0.110776
0.847416 0.064421 0.117487
0.907561 0.069116 0.120125
0.941554 0.071809 0.120331
0.002523 0.023602 0.07912
0.025157 0.025228 0.07912
0.044982 0.025228 0.07912
0.101473 0.027285 0.081225
0.179867 0.033981 0.082221
0.25162 0.039179 0.082117
0.319241 0.044221 0.082355
0.384761 0.049256 0.083392
0.450824 0.054479 0.085719
0.520588 0.060104 0.089804
0.597428 0.06652 0.096244
0.681501 0.073715 0.104704
0.767927 0.081056 0.113626
0.847418 0.087167 0.120322
0.907564 0.091863 0.123186
0.941554 0.094537 0.121566
0.002523 0.044705 0.07912
0.025157 0.045139 0.07912
0.046137 0.046299 0.07912
0.101473 0.048355 0.081225
0.179878 0.055062 0.084551
0.25164 0.060272 0.086582
0.31927 0.065329 0.088717
0.384796 0.070377 0.09134
0.450865 0.075608 0.094847
0.520631 0.081245 0.099545
0.597463 0.087661 0.106002
0.681534 0.09487 0.113982
0.767944 0.102179 0.122279
0.847426 0.108291 0.128833
0.907573 0.11299 0.132473
0.941557 0.115667 0.132275
0.006082 0.103264 0.082325
0.028716 0.103264 0.082325
0.049696 0.103264 0.082325
0.10604 0.106469 0.085415
0.182589 0.11148 0.09028
0.254452 0.116811 0.095449
0.322088 0.121999 0.100449
0.387608 0.127128 0.105384
0.453616 0.13244 0.110533
0.523281 0.138141 0.116135
0.599965 0.144641 0.122514
0.68371 0.151518 0.129465
0.769699 0.158151 0.136233
0.849052 0.164224 0.142661
0.909073 0.168956 0.14765
0.942983 0.171636 0.150519
0.013622 0.181575 0.082926
0.03626 0.181579 0.083721
0.057253 0.181589 0.08605
0.112375 0.183695 0.091279
0.18557 0.18543 0.092939
0.256765 0.186237 0.097656
