site/assets/luts/freshluts--0000887-at-museum-mood-red-look-vn-luts.cube
# LUTr-Schema-Version: 2
# LUTr-ID: freshluts--0000887-at-museum-mood-red-look-vn-luts
# LUTr-Title: At museum mood-red look-vn-LUTs
# LUTr-Collection: Fresh LUTs
# LUTr-Collection-ID: freshluts-community
# LUTr-Source: https://freshluts.com
# LUTr-Retrieved: 2026-07-27
# LUTr-Source-File: submissions-raw/freshluts/cubes/887__Red_look-VN-LUT.cube
# LUTr-Source-Format: CUBE
# LUTr-Source-SHA256: 9cc4bbfe67d17870049b743dc19bcddd0ca52c87e0555395665d60cb3aa73b3c
# LUTr-License: CC0-1.0
# LUTr-License-URL: https://freshluts.com/termsandconditions
# LUTr-License-Basis: site-terms
# LUTr-Transform-Class: creative-look
# LUTr-Tags: creative, freshluts, community, cube, red, low-key, arri-logc3-ei800
# LUTr-Input-Color-Space:
# LUTr-Input-Gamut: arri-wide-gamut-3
# LUTr-Input-Transfer: arri-logc3-ei800
# LUTr-Output-Color-Space: srgb
# LUTr-Output-Gamut: rec709
# LUTr-Output-Transfer: srgb
# LUTr-Color-Space-Confidence: camera-profile-input-required
# LUTr-Domain-Normalized: true
# LUTr-Shaper: none
# LUTr-Original-Grid: 33x33x33
# LUTr-Conversion-Grid: 33x33x33
# LUTr-Conversion-Interpolation: none
# LUTr-Conversion-Method: Metadata normalization; numeric LUT samples preserved
# LUTr-Conversion-Tool: LUTr scripts/convert-all-to-cube.mjs 2.0.0
# LUTr-Conversion-Date: 2026-07-28
# LUTr-Asset-URL: https://freshluts.com/luts/887
# LUTr-Author: lvannoeun@gmail.com
# LUTr-Author-URL: https://freshluts.com/users/57563
# LUTr-Attribution: lvannoeun@gmail.com via Fresh LUTs
# LUTr-Source-Labels: gamma=Arri log c; color=Red; key=Low Key; style=Cinematic/Dark
# LUTr-Note: Preserve this metadata and the upstream license notices when redistributing.
TITLE "At museum mood-red look-vn-LUTs"
LUT_3D_SIZE 9
DOMAIN_MIN 0 0 0
DOMAIN_MAX 1 1 1
0 0.00550851 0.00732433
0.0441901 0.0185855 0.0252842
0.129244 0.0292973 0.0371099
0.217655 0.0391394 0.0472877
0.302739 0.0502327 0.0587167
0.377707 0.0640574 0.0727092
0.443458 0.0798352 0.0879988
0.509819 0.0962539 0.104295
0.575525 0.113115 0.120897
0.0531624 0.0995193 0.0566415
0.104662 0.119005 0.0831159
0.193622 0.128756 0.0914626
0.266194 0.145251 0.0828717
0.353491 0.155444 0.0965438
0.430762 0.168063 0.112169
0.498497 0.183536 0.12958
0.566522 0.199557 0.146807
0.63209 0.216327 0.164813
0.137545 0.193088 0.113634
0.194415 0.21033 0.147127
0.233799 0.236316 0.138506
0.345327 0.238804 0.152468
0.41799 0.255085 0.1505
0.48397 0.272419 0.153017
0.542824 0.291829 0.157809
0.612482 0.307408 0.175479
0.676646 0.323842 0.199283
0.224033 0.286015 0.170901
0.281468 0.302922 0.204776
0.329931 0.324071 0.218967
0.377554 0.349233 0.194369
0.488746 0.351675 0.212421
0.563653 0.365881 0.223178
0.620813 0.386297 0.227924
0.679408 0.405097 0.244739
0.723796 0.429053 0.246509
0.311284 0.378653 0.227909
0.368933 0.395193 0.261906
0.425544 0.413062 0.287144
0.454749 0.442298 0.276112
0.522271 0.461112 0.256931
0.620081 0.467567 0.275242
0.71017 0.474723 0.31281
0.751049 0.500511 0.315618
0.797665 0.523842 0.320378
0.398627 0.471061 0.284276
0.456413 0.487587 0.318578
0.516152 0.50425 0.34757
0.565423 0.525841 0.355947
0.58677 0.558389 0.334493
0.657389 0.575708 0.325872
0.737072 0.58761 0.341527
0.81265 0.599603 0.369924
0.904082 0.60473 0.423896
0.48571 0.563546 0.340368
0.543755 0.580209 0.374746
0.603723 0.59675 0.404639
0.664103 0.61384 0.426215
0.689342 0.644083 0.415976
0.713924 0.675364 0.400809
0.763546 0.697993 0.396826
0.832837 0.713649 0.405447
0.919738 0.722759 0.432792
0.57232 0.656168 0.395682
0.630594 0.672862 0.429877
0.689174 0.689555 0.460365
0.742 0.708247 0.487037
0.778805 0.733974 0.493294
0.793332 0.767727 0.484855
0.82153 0.797253 0.477165
0.876097 0.819028 0.472313
0.950149 0.834379 0.48014
0.659236 0.748653 0.451209
0.715343 0.766125 0.486198
0.765896 0.785122 0.51989
0.818402 0.80412 0.548745
0.866423 0.826093 0.565072
0.895842 0.8551 0.56672
0.913497 0.887724 0.563592
0.94548 0.916762 0.556664
1 0.938704 0.553536
0 0.0128786 0.0550393
0.049958 0.0256504 0.0754559
0.132082 0.03682 0.0875715
0.219974 0.0470741 0.0989242
0.305394 0.0580301 0.110765
0.381659 0.0711223 0.124025
0.448554 0.0870222 0.139025
0.516075 0.103227 0.154208
0.582666 0.119661 0.169665
0.0413977 0.113252 0.090486
0.101381 0.130098 0.116945
0.183673 0.141207 0.131151
0.273396 0.151003 0.141848
0.358755 0.16202 0.153216
0.435325 0.175021 0.166293
0.504326 0.190417 0.181628
0.573159 0.206363 0.197421
0.638895 0.222812 0.214221
0.125628 0.207446 0.141588
0.188159 0.223056 0.171099
0.236973 0.244251 0.183963
0.333669 0.252445 0.1897
0.408286 0.26775 0.1897
0.482841 0.281529 0.198886
0.555825 0.29575 0.217899
0.627039 0.310719 0.237232
0.688563 0.328038 0.257267
0.21323 0.300343 0.195682
0.275181 0.315831 0.228138
0.332815 0.332845 0.257679
0.379812 0.357809 0.239506
0.492241 0.358846 0.264744
0.551507 0.379583 0.257801
0.618677 0.396262 0.271107
0.669841 0.418753 0.271611
0.725429 0.438346 0.285176
0.301488 0.392813 0.25127
0.362646 0.408362 0.284947
0.42269 0.424323 0.317403
0.463645 0.448951 0.320714
0.524422 0.469505 0.302205
0.623819 0.475166 0.32311
0.707271 0.485359 0.354574
0.737072 0.515572 0.34374
0.7991 0.532647 0.361685
0.389364 0.485069 0.306905
0.450187 0.500771 0.341497
0.510384 0.516655 0.374533
0.569787 0.534188 0.396384
0.591989 0.566018 0.379843
0.659586 0.584115 0.369451
0.741299 0.595636 0.385275
0.820172 0.606027 0.419211
0.890517 0.619898 0.448875
0.476783 0.577523 0.362463
0.537301 0.593454 0.397192
0.597482 0.609293 0.43061
0.660426 0.62504 0.458671
0.699901 0.650141 0.460883
0.717494 0.683238 0.444511
0.765866 0.706752 0.437736
0.837369 0.721889 0.446433
0.928664 0.729305 0.477043
0.563607 0.670085 0.417441
0.623789 0.686107 0.45211
0.684001 0.701991 0.486244
0.738781 0.719814 0.516793
0.782025 0.742763 0.532891
0.802106 0.77438 0.526696
0.826291 0.805219 0.518715
0.87953 0.827893 0.512001
0.95555 0.84271 0.518944
0.650767 0.762493 0.472847
0.709697 0.779141 0.508415
0.761929 0.797375 0.545129
0.814618 0.816159 0.575998
0.865324 0.83682 0.598352
0.904112 0.862226 0.605875
0.923003 0.89453 0.603296
0.951019 0.925078 0.596445
1 0.947463 0.59086
0 0.020676 0.103746
0.0543679 0.033051 0.124773
0.137728 0.044007 0.136919
0.224582 0.0545205 0.148669
0.308354 0.0658885 0.160922
0.384009 0.0788891 0.17435
0.452277 0.094667 0.189425
0.520516 0.110719 0.20412
0.588052 0.12668 0.218341
0.0343786 0.124346 0.137667
0.101472 0.138857 0.165835
0.188052 0.148653 0.18172
0.276036 0.158877 0.193194
0.361303 0.169741 0.205035
0.438224 0.182498 0.218189
0.509071 0.197681 0.233005
0.578714 0.213443 0.248325
0.644739 0.229587 0.263767
0.113115 0.221317 0.176501
0.175387 0.237095 0.201968
0.242069 0.252018 0.228916
0.327092 0.263813 0.233265
0.414084 0.273793 0.24654
0.491218 0.286732 0.259937
0.562982 0.301732 0.274937
0.633539 0.317067 0.290471
0.694728 0.334554 0.308385
0.200076 0.314549 0.226688
0.263645 0.330037 0.253452
0.329824 0.344518 0.286366
0.382147 0.366339 0.284733
0.475029 0.374868 0.294911
0.546426 0.390219 0.303059
0.608194 0.409491 0.304891
0.676966 0.424872 0.322621
0.739498 0.441581 0.345205
0.288197 0.407202 0.27895
0.352636 0.422309 0.308186
0.417441 0.436927 0.343084
0.47332 0.455421 0.364721
0.527077 0.477775 0.347784
0.627497 0.482704 0.374624
0.678309 0.506432 0.36939
0.737621 0.524376 0.388586
0.788876 0.546212 0.389563
0.377234 0.499519 0.332631
0.440986 0.514611 0.363668
0.504799 0.529427 0.399329
0.566964 0.545052 0.429618
0.599283 0.572915 0.425269
0.661936 0.592477 0.414405
0.744823 0.603616 0.431617
0.828794 0.611704 0.474647
0.86392 0.640223 0.460883
0.46569 0.591989 0.38703
0.528237 0.607187 0.418799
0.59176 0.62211 0.454765
0.654215 0.637537 0.486473
0.707256 0.657221 0.503822
0.722087 0.69102 0.489677
0.767895 0.71545 0.480354
0.842359 0.729824 0.489204
0.939391 0.734768 0.526436
0.552926 0.684413 0.440742
0.615061 0.699641 0.473564
0.678416 0.714717 0.509758
0.733104 0.732433 0.542763
0.780987 0.753063 0.567819
0.811536 0.781003 0.569909
0.831601 0.813092 0.561791
0.882582 0.836789 0.552987
0.960449 0.850919 0.559289
0.640604 0.776699 0.495674
0.702235 0.792416 0.529763
0.757275 0.809827 0.56759
0.810239 0.828489 0.601831
0.863355 0.847669 0.62887
0.908568 0.87071 0.643748
0.933379 0.901289 0.643366
0.956695 0.933242 0.636515
1 0.956451 0.628946
0 0.0284733 0.154009
0.057435 0.0403449 0.175341
0.143984 0.0508125 0.188907
0.230106 0.0615702 0.200412
0.313069 0.0728313 0.212696
0.388388 0.086244 0.226307
0.456565 0.102068 0.241276
0.524453 0.117998 0.255253
0.592355 0.134081 0.268986
0.0332189 0.133364 0.189151
0.104356 0.14638 0.215991
0.193881 0.155581 0.233646
0.280995 0.166079 0.244907
0.364202 0.176974 0.256748
0.440452 0.190417 0.270909
0.511467 0.205493 0.286122
0.582193 0.220706 0.300694
0.648981 0.236988 0.315755
0.100114 0.234257 0.221942
0.163882 0.24947 0.249226
0.241962 0.261143 0.276051
0.332021 0.270588 0.289342
0.416281 0.281163 0.300923
0.493797 0.294347 0.314611
0.566018 0.309224 0.329549
0.638193 0.323964 0.344167
0.699794 0.341588 0.361563
0.185687 0.328771 0.263249
0.249165 0.344442 0.288457
0.317876 0.358923 0.314321
0.385138 0.374258 0.333104
0.467964 0.385779 0.341054
0.545205 0.399237 0.353491
0.618433 0.413733 0.370367
0.687358 0.428901 0.386343
0.74873 0.446693 0.404898
0.273976 0.421607 0.312596
0.338048 0.437125 0.338949
0.407141 0.451194 0.367178
0.47187 0.465614 0.400534
0.529702 0.485756 0.395972
0.614221 0.497017 0.411276
0.676478 0.515419 0.420233
0.726467 0.537682 0.420096
0.788678 0.555566 0.432334
0.36231 0.514366 0.364019
0.427176 0.529519 0.391257
0.495354 0.543557 0.422248
0.558755 0.558358 0.457221
0.609949 0.578592 0.472145
0.663996 0.600839 0.46186
0.747036 0.6112 0.483024
0.808103 0.628672 0.50193
0.859525 0.651102 0.502373
0.450904 0.60708 0.415763
0.515465 0.622019 0.444495
0.582589 0.636118 0.477256
0.645609 0.651011 0.512642
0.706386 0.667094 0.541543
0.728527 0.698116 0.536904
0.769223 0.72398 0.526772
0.846876 0.737316 0.535805
0.95137 0.739284 0.585122
0.538872 0.699306 0.467994
0.603174 0.714214 0.498177
0.669306 0.72842 0.531853
0.728038 0.744869 0.568383
0.777478 0.76434 0.598749
0.818418 0.788312 0.612848
0.837812 0.820447 0.607309
0.884886 0.845304 0.595911
0.96556 0.858991 0.602853
0.627405 0.791196 0.521782
0.691615 0.80676 0.553353
0.750805 0.823117 0.589136
0.805097 0.841169 0.626719
0.858915 0.859907 0.656458
0.907546 0.881102 0.678508
0.942901 0.907973 0.685542
0.962722 0.940719 0.678157
1 0.965225 0.669444
0 0.0359503 0.20763
0.0603647 0.0479896 0.229465
0.14873 0.0577707 0.244724
0.23592 0.0680705 0.255619
0.318196 0.0794232 0.267674
0.393225 0.0932174 0.281758
0.461372 0.109071 0.296605
0.529 0.124758 0.30959
0.597345 0.141146 0.323125
0.0334325 0.14107 0.243488
0.107256 0.154055 0.269993
0.197101 0.163073 0.288716
0.286748 0.172641 0.300252
0.369375 0.183856 0.312215
0.444892 0.197482 0.326497
0.515236 0.212665 0.341802
0.585641 0.227695 0.3561
0.652399 0.244404 0.370901
0.0924392 0.244312 0.27686
0.161044 0.258686 0.304723
0.244984 0.268788 0.330037
0.33756 0.277165 0.3449
0.420356 0.288319 0.356771
0.4963 0.3019 0.370962
0.567452 0.316991 0.386297
0.640162 0.331334 0.400839
0.702876 0.348974 0.417655
0.168841 0.342519 0.309834
0.232914 0.358312 0.336172
0.303716 0.37203 0.363439
0.386389 0.381781 0.388159
0.471199 0.392737 0.400824
0.548547 0.406027 0.414679
0.620783 0.420859 0.42977
0.689815 0.43621 0.444999
0.753262 0.453498 0.462409
0.256748 0.436286 0.352285
0.321309 0.451987 0.377462
0.390341 0.466316 0.402701
0.459785 0.479835 0.42829
0.533593 0.492958 0.451606
0.602853 0.509667 0.457435
0.668193 0.526986 0.46479
0.73373 0.542885 0.484398
0.802182 0.558389 0.502281
0.3458 0.529137 0.400778
0.410483 0.544732 0.426566
0.478935 0.558862 0.452934
0.548486 0.572244 0.482139
0.614099 0.586679 0.51696
0.665278 0.609125 0.513313
0.74818 0.618524 0.54374
0.789273 0.644373 0.538552
0.84651 0.665003 0.53753
0.433875 0.622202 0.450492
0.49836 0.637537 0.47686
0.56733 0.651164 0.504601
0.635737 0.664775 0.536431
0.696971 0.680552 0.570382
0.737911 0.703822 0.585809
0.769879 0.732448 0.575738
0.85243 0.743923 0.59086
0.945342 0.750378 0.631479
0.521431 0.714611 0.500771
0.586603 0.729747 0.527916
0.655756 0.743404 0.557321
0.720104 0.758129 0.591211
0.770611 0.777157 0.626551
0.817334 0.798077 0.651469
0.845853 0.826993 0.654215
0.886152 0.853971 0.643595
0.970336 0.866712 0.65037
0.610468 0.80676 0.552483
0.676326 0.822095 0.580957
0.740536 0.837415 0.612833
0.797101 0.854612 0.649378
0.85214 0.872877 0.683238
0.903395 0.892683 0.71075
0.947967 0.915801 0.728054
0.969894 0.947692 0.724376
1 0.973785 0.712337
0 0.0432898 0.262348
0.0630655 0.0556039 0.285145
0.152041 0.0650797 0.30164
0.241184 0.0745098 0.312978
0.323674 0.0861067 0.324681
0.398352 0.100008 0.338704
0.465553 0.115877 0.352544
0.533654 0.131746 0.36585
0.602365 0.148089 0.378897
0.0351263 0.148928 0.299748
0.110018 0.161654 0.325734
0.199771 0.170611 0.345037
0.291691 0.178927 0.357794
0.375067 0.190433 0.369574
0.449973 0.204273 0.383597
0.519768 0.219348 0.399039
0.590326 0.234623 0.413016
0.656886 0.251408 0.427466
0.0896925 0.253391 0.333928
0.161288 0.266926 0.36141
0.247745 0.276371 0.385718
0.341131 0.283864 0.401801
0.425971 0.294926 0.413809
0.50132 0.30869 0.428183
0.571252 0.323507 0.443229
0.643534 0.338537 0.458717
0.706249 0.356176 0.475288
0.157275 0.354269 0.365728
0.224262 0.36907 0.39353
0.300984 0.381048 0.420722
0.389075 0.389349 0.443992
0.476661 0.399359 0.458274
0.552285 0.413123 0.472435
0.622629 0.427909 0.487495
0.691127 0.44387 0.503594
0.755459 0.460899 0.520531
0.238544 0.450752 0.399664
0.302983 0.466423 0.425513
0.37258 0.480446 0.45153
0.445182 0.493004 0.478431
0.526436 0.504021 0.501823
0.603143 0.517555 0.515862
0.673335 0.532311 0.530571
0.737362 0.549233 0.547478
0.805432 0.565026 0.562737
0.327352 0.544289 0.442206
0.392172 0.55993 0.467277
0.4607 0.573892 0.49189
0.530709 0.587701 0.516777
0.597559 0.60264 0.542107
0.666087 0.61706 0.566781
0.722652 0.636454 0.575692
0.776867 0.65745 0.579568
0.848539 0.672251 0.594125
0.416159 0.6374 0.489433
0.480537 0.652796 0.514321
0.548928 0.666575 0.539452
0.61883 0.680308 0.565301
0.685084 0.695171 0.594537
0.739239 0.712688 0.628077
0.770138 0.74081 0.625376
0.863294 0.747753 0.65745
0.915312 0.770382 0.654368
0.503777 0.72987 0.537545
0.568185 0.745052 0.562676
0.637415 0.758984 0.588724
0.706859 0.773022 0.616785
0.762875 0.790631 0.650111
0.810758 0.810513 0.68188
0.854276 0.833265 0.700755
0.886915 0.862593 0.691783
0.976577 0.872923 0.703548
0.592477 0.822248 0.58732
0.657786 0.837568 0.613306
0.725994 0.852354 0.641062
0.786038 0.869139 0.673014
0.843534 0.886427 0.706981
0.89575 0.905852 0.738888
0.94464 0.92665 0.764965
0.979828 0.953811 0.771786
1 0.982406 0.759686
0 0.0507973 0.314916
0.0658732 0.0633097 0.339849
0.154391 0.072343 0.358587
0.245655 0.0813001 0.371267
0.329198 0.0926986 0.382788
0.402457 0.106798 0.395285
0.469749 0.122911 0.409277
0.537972 0.138857 0.422492
0.606714 0.15523 0.43505
0.0380865 0.156542 0.354681
0.112688 0.169238 0.381994
0.202045 0.177951 0.40174
0.295445 0.185962 0.416266
0.380606 0.196963 0.428244
0.455467 0.210544 0.44184
0.524575 0.22591 0.456672
0.594903 0.24152 0.470573
0.661295 0.258366 0.484596
0.0897993 0.261646 0.391012
0.162768 0.274739 0.418936
0.249897 0.283574 0.442298
0.343801 0.291295 0.459617
0.431235 0.301488 0.472724
0.506569 0.315053 0.485863
0.576318 0.330175 0.501015
0.647959 0.345388 0.515938
0.710399 0.36289 0.532036
0.151522 0.364096 0.424186
0.22092 0.378195 0.452049
0.300877 0.388602 0.477882
0.391623 0.396872 0.500191
0.481071 0.406149 0.516045
0.557641 0.41944 0.529412
0.627466 0.434623 0.544182
0.694972 0.450782 0.560403
0.758663 0.467796 0.577127
0.224491 0.463233 0.455482
0.290394 0.47837 0.482658
0.363363 0.4907 0.509255
0.443168 0.501732 0.535256
0.528832 0.511528 0.557153
0.607874 0.523568 0.571817
0.677012 0.539208 0.586938
0.739254 0.556542 0.603876
0.806302 0.572442 0.619181
0.308232 0.55906 0.490242
0.372671 0.574762 0.515297
0.441398 0.588434 0.53959
0.512001 0.602045 0.564706
0.582345 0.615808 0.590387
0.654887 0.628977 0.611078
0.721447 0.644953 0.62829
0.784085 0.662135 0.64506
0.854856 0.677089 0.659327
0.396704 0.65272 0.531624
0.461112 0.66804 0.555505
0.529534 0.681758 0.578988
0.599695 0.695659 0.602899
0.667063 0.710613 0.626917
0.723964 0.727932 0.651606
0.770306 0.749294 0.674388
0.846479 0.761868 0.700725
0.899611 0.784283 0.692683
0.485313 0.745098 0.576501
0.549569 0.760204 0.600458
0.618601 0.774212 0.625025
0.688991 0.788418 0.649653
0.749493 0.805234 0.676661
0.801328 0.824155 0.706432
0.850782 0.844312 0.737301
0.887678 0.871 0.741039
0.990784 0.87541 0.770916
0.574395 0.8374 0.624399
0.639368 0.852918 0.649012
0.708721 0.867506 0.674083
0.771405 0.884169 0.70222
0.830198 0.901549 0.732052
0.886351 0.919646 0.763287
0.936614 0.939864 0.794598
0.985733 0.960983 0.817609
1 0.990753 0.808881
0 0.0584573 0.365972
0.0688334 0.0709697 0.39147
0.156512 0.0803693 0.412207
0.248219 0.0888228 0.426993
0.332845 0.0999771 0.439048
0.406424 0.114015 0.451301
0.473396 0.129976 0.464744
0.541863 0.146151 0.477409
0.610391 0.162264 0.489296
0.0422065 0.164034 0.40766
0.116121 0.176654 0.435233
0.204532 0.18555 0.457359
0.298085 0.193393 0.473304
0.385153 0.203723 0.486122
0.460685 0.217105 0.499092
0.529152 0.232685 0.51284
0.599069 0.248554 0.525902
0.664759 0.265309 0.539162
0.0927291 0.269291 0.445747
0.165469 0.28217 0.474052
0.252354 0.291066 0.497765
0.346197 0.298802 0.51548
0.43508 0.308263 0.529702
0.512032 0.321309 0.542962
0.582055 0.336599 0.557412
0.65272 0.352056 0.572061
0.714458 0.36968 0.586954
0.150774 0.372625 0.480339
0.220127 0.386435 0.508522
0.302495 0.396292 0.533715
0.39408 0.404349 0.555245
0.483513 0.413413 0.571786
0.562493 0.425605 0.585412
0.633066 0.440986 0.599771
0.699565 0.45745 0.615366
0.762676 0.47422 0.631525
0.217441 0.473457 0.512535
0.28365 0.487861 0.539727
0.360128 0.499687 0.565927
0.444114 0.509575 0.59028
0.531121 0.518914 0.610925
0.611765 0.530343 0.626932
0.682094 0.545602 0.641749
0.743572 0.563149 0.658106
0.809766 0.578698 0.673335
0.293431 0.571893 0.543587
0.357137 0.586984 0.568978
0.428702 0.600275 0.594858
0.503853 0.612345 0.620218
0.580819 0.62414 0.644724
0.658381 0.635782 0.665629
0.726177 0.651392 0.683131
0.787701 0.66894 0.699672
0.85658 0.683925 0.714061
0.377554 0.667384 0.578042
0.440696 0.682521 0.601389
0.50956 0.696513 0.624949
0.579843 0.710231 0.648661
0.647852 0.724315 0.672572
0.710323 0.740612 0.697856
0.77406 0.75613 0.729183
0.831342 0.776165 0.737438
0.904005 0.790372 0.753323
0.465934 0.760204 0.618448
0.529412 0.775265 0.640848
0.598795 0.789487 0.664271
0.669642 0.803677 0.687831
0.733471 0.819471 0.712139
0.785855 0.839078 0.738506
0.838041 0.859037 0.764553
0.891157 0.878614 0.790829
0.984298 0.885267 0.827436
0.55584 0.852476 0.662837
0.620508 0.867933 0.686397
0.690532 0.882719 0.710842
0.756344 0.898665 0.737102
0.813489 0.916655 0.76434
0.870802 0.93518 0.79115
0.926009 0.954314 0.81944
0.978729 0.973342 0.850797
1 0.998886 0.858778
0 0.0662547 0.41416
0.0720989 0.0789502 0.440208
0.158587 0.0883497 0.461494
0.25008 0.0969711 0.478004
0.335103 0.107561 0.490959
0.409735 0.121538 0.503822
0.476951 0.137423 0.517143
0.545113 0.153536 0.529381
0.613794 0.169787 0.541085
0.0467689 0.171588 0.457404
0.120195 0.184207 0.48452
0.207202 0.19321 0.507225
0.300145 0.201297 0.525277
0.387793 0.210941 0.539391
0.464347 0.224338 0.552422
0.533165 0.239841 0.565515
0.602899 0.255436 0.577996
0.668482 0.272541 0.591089
0.0969558 0.276692 0.496513
0.169574 0.289464 0.524666
0.255375 0.298589 0.549142
0.348592 0.30634 0.568597
0.437842 0.315389 0.58352
0.51635 0.327855 0.597238
0.587213 0.343145 0.611337
0.657099 0.358587 0.624781
0.718288 0.376669 0.639384
0.152605 0.380529 0.532494
0.222538 0.393881 0.560372
0.304921 0.403815 0.586587
0.396551 0.411841 0.607538
0.485756 0.420661 0.624384
0.566018 0.432532 0.639429
0.638407 0.44741 0.654093
0.704143 0.463767 0.669245
0.767452 0.480751 0.685054
0.21561 0.482307 0.565957
0.282063 0.496437 0.592996
0.359579 0.507958 0.619333
0.446006 0.517143 0.643091
0.533211 0.52604 0.662974
0.614298 0.537621 0.680217
0.686442 0.552224 0.695994
0.748241 0.569345 0.711971
0.81442 0.58526 0.726986
0.285817 0.582391 0.596857
0.349432 0.597345 0.622843
0.42237 0.610086 0.649027
0.501244 0.621088 0.673838
0.581521 0.631312 0.697154
0.660563 0.643214 0.71809
0.729091 0.658442 0.737118
0.79234 0.674968 0.753246
0.861341 0.690501 0.768032
0.363333 0.679561 0.627085
0.425101 0.695415 0.651774
0.494728 0.709041 0.676646
0.567971 0.721691 0.701839
0.639963 0.734386 0.726726
0.708888 0.749004 0.751492
0.770184 0.765972 0.776623
0.838666 0.781018 0.795117
0.909499 0.796674 0.809842
0.448218 0.773846 0.662043
0.510063 0.78996 0.685267
0.579141 0.804211 0.708888
0.649851 0.818341 0.732845
0.716579 0.833295 0.756878
0.771115 0.852384 0.783703
0.823758 0.872145 0.811002
0.887709 0.88809 0.837674
0.9635 0.902113 0.857816
0.538231 0.866682 0.703807
0.601328 0.883085 0.727001
0.671061 0.897978 0.750805
0.740047 0.91281 0.775235
0.797772 0.93109 0.801724
0.853773 0.95021 0.827649
0.908858 0.969711 0.852827
0.965331 0.988113 0.877958
1 1 0.909087
