site/assets/luts/freshluts--0000922-picturefx-french-riviera-adjust-strength-or-opacity-to-taste.cube
# LUTr-Schema-Version: 2
# LUTr-ID: freshluts--0000922-picturefx-french-riviera-adjust-strength-or-opacity-to-taste
# LUTr-Title: PictureFX French Riviera - adjust strength or opacity to taste (picture sample @ 50%)
# LUTr-Collection: Fresh LUTs
# LUTr-Collection-ID: freshluts-community
# LUTr-Source: https://freshluts.com
# LUTr-Retrieved: 2026-07-27
# LUTr-Source-File: submissions-raw/freshluts/cubes/922__PictureFX-French-Riviera-3DL25.cube
# LUTr-Source-Format: CUBE
# LUTr-Source-SHA256: 5b12400062698db00d705feac5f6b2fd3146c061541d6ed8604f116215d9a0ff
# LUTr-License: CC0-1.0
# LUTr-License-URL: https://freshluts.com/termsandconditions
# LUTr-License-Basis: site-terms
# LUTr-Transform-Class: creative-look
# LUTr-Tags: creative, freshluts, community, cube
# LUTr-Input-Color-Space:
# LUTr-Input-Gamut: unspecified
# LUTr-Input-Transfer: unspecified
# LUTr-Output-Color-Space: srgb
# LUTr-Output-Gamut: rec709
# LUTr-Output-Transfer: srgb
# LUTr-Color-Space-Confidence: camera-profile-input-required
# LUTr-Domain-Normalized: true
# LUTr-Shaper: none
# LUTr-Original-Grid: 25x25x25
# LUTr-Conversion-Grid: 25x25x25
# LUTr-Conversion-Interpolation: none
# LUTr-Conversion-Method: Metadata normalization; numeric LUT samples preserved
# LUTr-Conversion-Tool: LUTr scripts/convert-all-to-cube.mjs 2.0.0
# LUTr-Conversion-Date: 2026-07-28
# LUTr-Asset-URL: https://freshluts.com/luts/922
# LUTr-Author: MarcR.
# LUTr-Author-URL: https://freshluts.com/users/86490
# LUTr-Attribution: MarcR. via Fresh LUTs
# LUTr-Source-Labels: gamma=Other; color=None; key=Neutral; style=Correction
# LUTr-Note: Preserve this metadata and the upstream license notices when redistributing.
# LUTr-Upstream-Comment: Generated with IWLTBAP LUT Generator
# LUTr-Upstream-Comment: Website: http://luts.iwltbap.com
# LUTr-Upstream-Comment: LUT size
# LUTr-Upstream-Comment: LUT data points
TITLE "PictureFX French Riviera - adjust strength or opacity to taste (picture sample @ 50%)"
LUT_3D_SIZE 5
DOMAIN_MIN 0 0 0
DOMAIN_MAX 1 1 1
0.121569 0 0.011765
0.854902 0 0
1 0 0
1 0 0
1 0 0
0 0.482353 0
0.615686 0.360784 0
1 0 0
1 0 0
1 0 0
0 0.72549 0
0 0.721569 0
0.717647 0.588235 0
1 0 0
1 0 0
0 0.945098 0
0 0.941176 0
0 0.960784 0
0.827451 0.831373 0
1 0.521569 0
0 1 0
0 1 0
0 1 0
0 1 0
0.811765 1 0
0 0 1
1 0 0.596078
1 0 0.27451
1 0 0.247059
1 0 0.239216
0 0.482353 0.490196
0.619608 0.282353 0.45098
1 0 0.117647
1 0 0.211765
1 0 0.235294
0 0.713725 0
0 0.709804 0
0.788235 0.552941 0
1 0 0
1 0 0
0 0.956863 0
0 0.952941 0
0 0.968627 0
0.886275 0.831373 0
1 0.541176 0
0 1 0
0 1 0
0 1 0
0 1 0
0.792157 1 0
0 0 1
1 0 1
1 0 1
1 0 0.619608
1 0 0.52549
0 0.403922 1
0.741176 0 1
1 0 1
1 0 0.607843
1 0 0.513725
0 0.733333 0.792157
0 0.729412 0.772549
0.843137 0.498039 0.654902
1 0 0.313725
1 0 0.294118
0 0.968627 0
0 0.960784 0
0 0.960784 0
1 0.780392 0
1 0.552941 0
0 1 0
0 1 0
0 1 0
0 1 0
0.898039 1 0
0 0 1
1 0 1
1 0 1
1 0 1
1 0 1
0 0 1
0.258824 0 1
1 0 1
1 0 1
1 0 1
0 0.772549 1
0 0.733333 1
0.972549 0 1
1 0 1
1 0 1
0 0.992157 1
0 0.988235 1
0 0.988235 1
1 0.721569 0.87451
1 0.572549 0.643137
0 1 0.439216
0 1 0.423529
0 1 0.305882
0 1 0
1 0.996078 0.305882
0.811765 0 1
1 0 1
1 0 1
1 0 1
1 0 1
0 0 1
0.894118 0 1
1 0 1
1 0 1
1 0 1
0 0.737255 1
0 0.596078 1
0.964706 0 1
1 0 1
1 0 1
0 1 1
0 1 1
0 0.964706 1
1 0.380392 1
1 0 1
0 1 1
0 1 1
0 1 1
0 1 1
1 0.909804 1
