site/assets/luts/freshluts--0001343-warm-more-bright.cube
# LUTr-Schema-Version: 2
# LUTr-ID: freshluts--0001343-warm-more-bright
# LUTr-Title: Warm more bright
# LUTr-Collection: Fresh LUTs
# LUTr-Collection-ID: freshluts-community
# LUTr-Source: https://freshluts.com
# LUTr-Retrieved: 2026-07-27
# LUTr-Source-File: submissions-raw/freshluts/cubes/1343__Warm.more_bright.cube
# LUTr-Source-Format: CUBE
# LUTr-Source-SHA256: 69dc7c27917afa145382d706762a8c9c45169f284a110f0ea9e47c7dc779666c
# LUTr-License: CC0-1.0
# LUTr-License-URL: https://freshluts.com/termsandconditions
# LUTr-License-Basis: site-terms
# LUTr-Transform-Class: creative-look
# LUTr-Tags: creative, freshluts, community, cube, cool, high-key, rec709, warm
# LUTr-Input-Color-Space: rec709
# LUTr-Input-Gamut: rec709
# LUTr-Input-Transfer: rec709
# LUTr-Output-Color-Space: srgb
# LUTr-Output-Gamut: rec709
# LUTr-Output-Transfer: srgb
# LUTr-Color-Space-Confidence: declared-by-source
# LUTr-Domain-Normalized: true
# LUTr-Shaper: none
# LUTr-Original-Grid: 16x16x16
# LUTr-Conversion-Grid: 16x16x16
# LUTr-Conversion-Interpolation: none
# LUTr-Conversion-Method: Metadata normalization; numeric LUT samples preserved
# LUTr-Conversion-Tool: LUTr scripts/convert-all-to-cube.mjs 2.0.0
# LUTr-Conversion-Date: 2026-07-28
# LUTr-Asset-URL: https://freshluts.com/luts/1343
# LUTr-Author: lvannoeun@gmail.com
# LUTr-Author-URL: https://freshluts.com/users/57563
# LUTr-Attribution: lvannoeun@gmail.com via Fresh LUTs
# LUTr-Source-Labels: gamma=Rec 709; color=Cool; key=High Key; style=Drama
# LUTr-Note: Preserve this metadata and the upstream license notices when redistributing.
TITLE "Warm more bright"
LUT_3D_SIZE 6
DOMAIN_MIN 0 0 0
DOMAIN_MAX 1 1 1
0.098778 0 0
0.319293 -0.00075 -0.00075
0.502638 -0.0015 -0.0015
0.667631 -0.00225 -0.00225
0.821106 -0.003 -0.003
0.96267 -0.003747 -0.003747
0.098773 0.233297 -0.001197
0.319293 0.233296 -0.001346
0.502637 0.233295 -0.001816
0.667631 0.233266 -0.002444
0.821106 0.233298 -0.003133
0.96267 0.233083 -0.003846
0.098769 0.431538 -0.002394
0.319291 0.431537 -0.002454
0.502678 0.431537 -0.002692
0.66763 0.431538 -0.003101
0.821105 0.431535 -0.003631
0.962669 0.431211 -0.004233
0.098746 0.604957 -0.00359
0.319277 0.604957 -0.003625
0.502622 0.604956 -0.003768
0.667629 0.604956 -0.004038
0.821104 0.604971 -0.004423
0.962669 0.604565 -0.004897
0.09871 0.764514 -0.004787
0.319284 0.764514 -0.004811
0.50265 0.764514 -0.004908
0.667631 0.764514 -0.005099
0.821103 0.764513 -0.005384
0.962668 0.764035 -0.005751
0.098678 0.914139 -0.005979
0.319077 0.914139 -0.005996
0.502326 0.914139 -0.006068
0.66729 0.914139 -0.006211
0.820548 0.914138 -0.00643
0.962666 0.914138 -0.006724
0.098778 -0.000443 0.183983
0.319293 -0.000832 0.183983
0.502638 -0.001533 0.183982
0.667631 -0.002269 0.183964
0.821106 -0.003012 0.183983
0.96267 -0.003756 0.183759
0.098773 0.233296 0.183982
0.321124 0.232877 0.180589
0.526881 0.2051 0.14634
0.691208 0.174542 0.110443
0.839647 0.154981 0.087504
0.974174 0.143878 0.074085
0.098769 0.431538 0.183978
0.274476 0.437241 0.110002
0.50504 0.432371 0.100654
0.67833 0.426059 0.088308
0.832933 0.420715 0.077363
0.971343 0.416639 0.069455
0.098745 0.604957 0.183939
0.253223 0.608883 0.077464
0.493347 0.607565 0.075209
0.669092 0.605561 0.071602
0.826308 0.603198 0.067647
0.967971 0.600686 0.064262
0.098709 0.764514 0.183969
0.245293 0.76718 0.064769
0.488356 0.766664 0.064194
0.664237 0.766023 0.063208
0.822112 0.764897 0.062035
0.965195 0.763255 0.060971
0.098677 0.914139 0.183727
0.242584 0.915955 0.060532
0.485901 0.915758 0.060437
0.661432 0.915507 0.060285
0.819088 0.915003 0.060154
0.963245 0.914366 0.060141
0.098776 -0.000886 0.396736
0.319293 -0.001097 0.396736
0.502638 -0.001664 0.396735
0.667631 -0.002347 0.396694
0.821106 -0.003066 0.396777
0.96267 -0.003795 0.396371
0.09877 0.233297 0.396736
0.314707 0.224897 0.42956
0.524772 0.196778 0.418234
0.691033 0.165385 0.39957
0.840378 0.143586 0.386861
0.974829 0.13022 0.379235
0.098767 0.431537 0.396734
0.262603 0.436347 0.399483
0.505853 0.430871 0.391255
0.696951 0.412555 0.369487
0.86307 0.384614 0.336175
0.988523 0.375596 0.327218
0.098743 0.604956 0.39669
0.233207 0.60912 0.379909
0.461261 0.61409 0.328184
0.672772 0.606278 0.313432
0.843024 0.596301 0.294575
0.984401 0.58561 0.27471
0.098707 0.764514 0.39677
0.22015 0.767539 0.372083
0.424079 0.774196 0.274298
0.650712 0.770598 0.267281
0.825345 0.766027 0.257708
0.974048 0.760122 0.246723
0.098675 0.914139 0.396359
0.214923 0.916376 0.368348
0.400955 0.922325 0.23838
0.636203 0.920627 0.234955
0.81254 0.918286 0.230036
0.96533 0.915276 0.224
0.098771 -0.00133 0.578488
0.319281 -0.00146 0.578488
0.502627 -0.001893 0.578487
0.667631 -0.002496 0.578487
0.821106 -0.00317 0.57851
0.96267 -0.003873 0.57806
0.098767 0.23327 0.578487
0.301002 0.207595 0.628308
0.518956 0.185189 0.615299
0.687744 0.159949 0.598363
0.83867 0.141215 0.586134
0.974151 0.129164 0.578108
0.098775 0.431539 0.578487
0.257718 0.433155 0.599664
0.501578 0.425859 0.61136
0.694917 0.407103 0.601966
0.862695 0.377771 0.585793
0.988508 0.371154 0.569177
0.098751 0.604956 0.578485
0.231897 0.608251 0.580656
0.452894 0.612432 0.581367
0.672005 0.604095 0.571239
0.851932 0.589301 0.553949
0.986872 0.580984 0.546601
0.098703 0.764514 0.578507
0.219764 0.767214 0.57236
0.406105 0.77457 0.547164
0.632263 0.774561 0.516482
0.828245 0.765903 0.500792
0.983101 0.755095 0.489792
0.098671 0.914139 0.578055
0.214827 0.916204 0.56801
0.373831 0.923236 0.524153
0.591049 0.927455 0.46006
0.801363 0.922404 0.450526
0.968322 0.916113 0.438413
0.098765 -0.001773 0.744482
0.319293 -0.001863 0.744482
0.502661 -0.002195 0.744482
0.667655 -0.002711 0.744482
0.821106 -0.003328 0.744481
0.96267 -0.003993 0.743777
0.098773 0.233307 0.744482
0.284502 0.186646 0.797364
0.511948 0.171492 0.785504
0.683605 0.153025 0.770909
0.836501 0.137974 0.759441
0.973311 0.127645 0.751304
0.098769 0.431536 0.744482
0.251361 0.429186 0.772924
0.494611 0.417551 0.798905
0.691652 0.398059 0.793364
0.859257 0.370826 0.780197
0.988338 0.363688 0.759706
0.098744 0.604972 0.74448
0.229988 0.607102 0.754691
0.446935 0.608586 0.778028
0.668484 0.600001 0.775697
0.84988 0.584949 0.766214
0.986557 0.577671 0.749217
0.098697 0.764514 0.744478
0.21919 0.766745 0.745902
0.403197 0.772734 0.749015
0.627178 0.772264 0.745863
0.826655 0.763411 0.735383
0.982558 0.753237 0.725196
0.098665 0.914139 0.743773
0.214691 0.915974 0.741083
0.372337 0.922247 0.728676
0.577001 0.927521 0.706076
0.791192 0.923951 0.687219
0.969676 0.915322 0.671625
0.098769 -0.002214 0.8994
0.3191 -0.002281 0.8994
0.502346 -0.002541 0.8994
0.667172 -0.002978 0.8994
0.820553 -0.003532 0.899399
0.962669 -0.004156 0.899399
0.098769 0.233097 0.8994
0.270074 0.167959 0.946802
0.505018 0.158411 0.938753
0.678906 0.1457 0.92784
0.833442 0.134264 0.917899
0.972121 0.125789 0.910717
0.098761 0.431214 0.8994
0.244586 0.424696 0.929839
0.488238 0.410902 0.954707
0.683208 0.394038 0.953161
0.85437 0.362097 0.950029
0.987888 0.352032 0.931395
0.098742 0.604567 0.899399
0.227758 0.605201 0.913868
0.439372 0.603268 0.94915
0.663939 0.595402 0.947253
0.844342 0.581159 0.943611
0.98623 0.572638 0.926691
0.098701 0.764037 0.899397
0.218494 0.765665 0.905091
0.399427 0.769767 0.923097
0.622609 0.76824 0.934094
0.823458 0.759861 0.928458
0.981873 0.749843 0.915724
0.098669 0.914139 0.899395
0.214503 0.915801 0.900427
0.37036 0.921008 0.903675
0.573396 0.925337 0.904708
0.78772 0.921568 0.898874
0.968083 0.912811 0.88871
