site/assets/luts/freshluts--0001975-ole-world.cube
# LUTr-Schema-Version: 2
# LUTr-ID: freshluts--0001975-ole-world
# LUTr-Title: Ole World
# LUTr-Collection: Fresh LUTs
# LUTr-Collection-ID: freshluts-community
# LUTr-Source: https://freshluts.com
# LUTr-Retrieved: 2026-07-27
# LUTr-Source-File: submissions-raw/freshluts/cubes/1975__Ole_World.cube
# LUTr-Source-Format: CUBE
# LUTr-Source-SHA256: 8b1c3f7edc59f23945566c152368a1f9f160d061a7b892eae23db6932f24aeda
# LUTr-License: CC0-1.0
# LUTr-License-URL: https://freshluts.com/termsandconditions
# LUTr-License-Basis: site-terms
# LUTr-Transform-Class: creative-look
# LUTr-Tags: creative, freshluts, community, cube, brown, low-key, sony-s-log1
# LUTr-Input-Color-Space:
# LUTr-Input-Gamut: sony-s-gamut
# LUTr-Input-Transfer: sony-s-log1
# LUTr-Output-Color-Space: srgb
# LUTr-Output-Gamut: rec709
# LUTr-Output-Transfer: srgb
# LUTr-Color-Space-Confidence: camera-profile-input-required
# LUTr-Domain-Normalized: true
# LUTr-Shaper: none
# LUTr-Original-Grid: 16x16x16
# LUTr-Conversion-Grid: 16x16x16
# LUTr-Conversion-Interpolation: none
# LUTr-Conversion-Method: Metadata normalization; numeric LUT samples preserved
# LUTr-Conversion-Tool: LUTr scripts/convert-all-to-cube.mjs 2.0.0
# LUTr-Conversion-Date: 2026-07-28
# LUTr-Asset-URL: https://freshluts.com/luts/1975
# LUTr-Author: InAvision
# LUTr-Author-URL: https://freshluts.com/users/64078
# LUTr-Attribution: InAvision via Fresh LUTs
# LUTr-Source-Labels: gamma=Sony S-Log; color=Brown; key=Low Key; style=Cinematic/Dark
# LUTr-Note: Preserve this metadata and the upstream license notices when redistributing.
TITLE "Ole World"
LUT_3D_SIZE 6
DOMAIN_MIN 0 0 0
DOMAIN_MAX 1 1 1
0 0 0
0.18467 0 0
0.373477 0 0
0.535684 0 0
0.683975 0 0
0.822433 0 0
0 0.16008 0
0.18467 0.16008 0
0.373477 0.16008 0
0.535684 0.16008 0
0.683975 0.16008 0
0.822433 0.16008 0
0 0.340662 0
0.18467 0.340662 0
0.373477 0.340662 0
0.535684 0.340662 0
0.683975 0.340662 0
0.822433 0.340662 0
0 0.50054 0
0.18467 0.50054 0
0.373477 0.50054 0
0.535684 0.50054 0
0.683975 0.50054 0
0.822433 0.50054 0
0 0.649197 0
0.18467 0.649197 0
0.373477 0.649197 0
0.535684 0.649197 0
0.683975 0.649197 0
0.822433 0.649197 0
0 0.789824 0
0.18467 0.789824 0
0.373477 0.789824 0
0.535684 0.789824 0
0.683975 0.789824 0
0.822433 0.789824 0
0 0 0.113458
0.18467 0 0.113458
0.373477 0 0.113458
0.535684 0 0.113458
0.683975 0 0.113458
0.822433 0 0.113458
0 0.16008 0.113458
0.18467 0.16008 0.113458
0.373477 0.16008 0.113458
0.535684 0.16008 0.113458
0.683975 0.16008 0.113458
0.822433 0.16008 0.113458
0 0.340662 0.113458
0.18467 0.340662 0.113458
0.373477 0.340662 0.113458
0.535684 0.340662 0.113458
0.683975 0.340662 0.113458
0.822433 0.340662 0.113458
0 0.50054 0.113458
0.18467 0.50054 0.113458
0.373477 0.50054 0.113458
0.535684 0.50054 0.113458
0.683975 0.50054 0.113458
0.822433 0.50054 0.113458
0 0.649197 0.113458
0.18467 0.649197 0.113458
0.373477 0.649197 0.113458
0.535684 0.649197 0.113458
0.683975 0.649197 0.113458
0.822433 0.649197 0.113458
0 0.789824 0.113458
0.18467 0.789824 0.113458
0.373477 0.789824 0.113458
0.535684 0.789824 0.113458
0.683975 0.789824 0.113458
0.822433 0.789824 0.113458
0 0 0.276166
0.18467 0 0.276166
0.373477 0 0.276166
0.535684 0 0.276166
0.683975 0 0.276166
0.822433 0 0.276166
0 0.16008 0.276166
0.18467 0.16008 0.276166
0.373477 0.16008 0.276166
0.535684 0.16008 0.276166
0.683975 0.16008 0.276166
0.822433 0.16008 0.276166
0 0.340662 0.276166
0.18467 0.340662 0.276166
0.373477 0.340662 0.276166
0.535684 0.340662 0.276166
0.683975 0.340662 0.276166
0.822433 0.340662 0.276166
0 0.50054 0.276166
0.18467 0.50054 0.276166
0.373477 0.50054 0.276166
0.535684 0.50054 0.276166
0.683975 0.50054 0.276166
0.822433 0.50054 0.276166
0 0.649197 0.276166
0.18467 0.649197 0.276166
0.373477 0.649197 0.276166
0.535684 0.649197 0.276166
0.683975 0.649197 0.276166
0.822433 0.649197 0.276166
0 0.789824 0.276166
0.18467 0.789824 0.276166
0.373477 0.789824 0.276166
0.535684 0.789824 0.276166
0.683975 0.789824 0.276166
0.822433 0.789824 0.276166
0 0 0.42889
0.18467 0 0.42889
0.373477 0 0.42889
0.535684 0 0.42889
0.683975 0 0.42889
0.822433 0 0.42889
0 0.16008 0.42889
0.18467 0.16008 0.42889
0.373477 0.16008 0.42889
0.535684 0.16008 0.42889
0.683975 0.16008 0.42889
0.822433 0.16008 0.42889
0 0.340662 0.42889
0.18467 0.340662 0.42889
0.373477 0.340662 0.42889
0.535684 0.340662 0.42889
0.683975 0.340662 0.42889
0.822433 0.340662 0.42889
0 0.50054 0.42889
0.18467 0.50054 0.42889
0.373477 0.50054 0.42889
0.535684 0.50054 0.42889
0.683975 0.50054 0.42889
0.822433 0.50054 0.42889
0 0.649197 0.42889
0.18467 0.649197 0.42889
0.373477 0.649197 0.42889
0.535684 0.649197 0.42889
0.683975 0.649197 0.42889
0.822433 0.649197 0.42889
0 0.789824 0.42889
0.18467 0.789824 0.42889
0.373477 0.789824 0.42889
0.535684 0.789824 0.42889
0.683975 0.789824 0.42889
0.822433 0.789824 0.42889
0 0 0.576061
0.18467 0 0.576061
0.373477 0 0.576061
0.535684 0 0.576061
0.683975 0 0.576061
0.822433 0 0.576061
0 0.16008 0.576061
0.18467 0.16008 0.576061
0.373477 0.16008 0.576061
0.535684 0.16008 0.576061
0.683975 0.16008 0.576061
0.822433 0.16008 0.576061
0 0.340662 0.576061
0.18467 0.340662 0.576061
0.373477 0.340662 0.576061
0.535684 0.340662 0.576061
0.683975 0.340662 0.576061
0.822433 0.340662 0.576061
0 0.50054 0.576061
0.18467 0.50054 0.576061
0.373477 0.50054 0.576061
0.535684 0.50054 0.576061
0.683975 0.50054 0.576061
0.822433 0.50054 0.576061
0 0.649197 0.576061
0.18467 0.649197 0.576061
0.373477 0.649197 0.576061
0.535684 0.649197 0.576061
0.683975 0.649197 0.576061
0.822433 0.649197 0.576061
0 0.789824 0.576061
0.18467 0.789824 0.576061
0.373477 0.789824 0.576061
0.535684 0.789824 0.576061
0.683975 0.789824 0.576061
0.822433 0.789824 0.576061
0 0 0.718894
0.18467 0 0.718894
0.373477 0 0.718894
0.535684 0 0.718894
0.683975 0 0.718894
0.822433 0 0.718894
0 0.16008 0.718894
0.18467 0.16008 0.718894
0.373477 0.16008 0.718894
0.535684 0.16008 0.718894
0.683975 0.16008 0.718894
0.822433 0.16008 0.718894
0 0.340662 0.718894
0.18467 0.340662 0.718894
0.373477 0.340662 0.718894
0.535684 0.340662 0.718894
0.683975 0.340662 0.718894
0.822433 0.340662 0.718894
0 0.50054 0.718894
0.18467 0.50054 0.718894
0.373477 0.50054 0.718894
0.535684 0.50054 0.718894
0.683975 0.50054 0.718894
0.822433 0.50054 0.718894
0 0.649197 0.718894
0.18467 0.649197 0.718894
0.373477 0.649197 0.718894
0.535684 0.649197 0.718894
0.683975 0.649197 0.718894
0.822433 0.649197 0.718894
0 0.789824 0.718894
0.18467 0.789824 0.718894
0.373477 0.789824 0.718894
0.535684 0.789824 0.718894
0.683975 0.789824 0.718894
0.822433 0.789824 0.718894
