site/assets/luts/freshluts--0001173-blackmagic-g5-filmlook.cube
# LUTr-Schema-Version: 2
# LUTr-ID: freshluts--0001173-blackmagic-g5-filmlook
# LUTr-Title: Blackmagic G5 Filmlook
# LUTr-Collection: Fresh LUTs
# LUTr-Collection-ID: freshluts-community
# LUTr-Source: https://freshluts.com
# LUTr-Retrieved: 2026-07-27
# LUTr-Source-File: submissions-raw/freshluts/cubes/1173__BM_G5_FILM_to_Cinematic.cube
# LUTr-Source-Format: CUBE
# LUTr-Source-SHA256: 63f26cffc9ca5d22df7ce5057e180d17c94ac3f7815f3a45ecf333518dea4f71
# LUTr-License: CC0-1.0
# LUTr-License-URL: https://freshluts.com/termsandconditions
# LUTr-License-Basis: site-terms
# LUTr-Transform-Class: creative-look
# LUTr-Tags: creative, freshluts, community, cube, film-emulation, rec709, assumed-input
# LUTr-Input-Color-Space: rec709
# LUTr-Input-Gamut: rec709
# LUTr-Input-Transfer: rec709
# LUTr-Output-Color-Space: srgb
# LUTr-Output-Gamut: rec709
# LUTr-Output-Transfer: srgb
# LUTr-Color-Space-Confidence: assumed-display-referred
# LUTr-Domain-Normalized: true
# LUTr-Shaper: none
# LUTr-Original-Grid: 33x33x33
# LUTr-Conversion-Grid: 33x33x33
# LUTr-Conversion-Interpolation: none
# LUTr-Conversion-Method: Metadata normalization; numeric LUT samples preserved
# LUTr-Conversion-Tool: LUTr scripts/convert-all-to-cube.mjs 2.0.0
# LUTr-Conversion-Date: 2026-07-28
# LUTr-Asset-URL: https://freshluts.com/luts/1173
# LUTr-Author: Revirssab
# LUTr-Author-URL: https://freshluts.com/users/9194
# LUTr-Attribution: Revirssab via Fresh LUTs
# LUTr-Source-Labels: gamma=Other; color=None; key=Neutral; style=Film emulation; LUTr assumption=input Rec.709 per repository policy
# LUTr-Conversion-Warning: Input Rec.709 is a LUTr catalog assumption requested for this otherwise unspecified Fresh LUT; it is not verified by the upstream asset.
# LUTr-Note: Preserve this metadata and the upstream license notices when redistributing.
TITLE "Blackmagic G5 Filmlook"
LUT_3D_SIZE 33
DOMAIN_MIN 0 0 0
DOMAIN_MAX 1 1 1
0.0236057 0.0184634 0.0592813
0.0238651 0.0178378 0.0578927
0.0242161 0.0169375 0.0559701
0.0242618 0.0166629 0.0525368
0.0360113 0.0214694 0.0493172
0.0484321 0.0224155 0.0451057
0.074876 0.0226749 0.04094
0.098558 0.026276 0.0375982
0.128679 0.0310063 0.034287
0.180102 0.030045 0.0269017
0.23035 0.0267948 0.00918593
0.288106 0.0115053 0
0.350851 0 0
0.409079 0 0
0.466011 0 0
0.516899 0 0
0.55874 0 0
0.593378 0 0
0.621485 0 0
0.644175 0 0
0.662715 0 0
0.67805 0 0
0.690318 0 0
0.699947 0 0
0.70779 0 0
0.71458 0 0
0.718624 0 0
0.718624 0 0
0.718624 0 0
0.718624 0 0
0.718624 0 0
0.718624 0 0
0.718624 0 0
0.0238956 0.0177615 0.0577401
0.0240787 0.0172732 0.0566873
0.0242618 0.0167849 0.0546426
0.0242618 0.0166018 0.0511482
0.0337224 0.0212406 0.047715
0.0476387 0.0225071 0.0439612
0.0740063 0.0227207 0.0395819
0.0986801 0.0264134 0.0361028
0.128756 0.0309606 0.0334173
0.176455 0.0300755 0.0264591
0.224643 0.0272984 0.0113527
0.279149 0.0162509 0
0.341039 0 0
0.403494 0 0
0.460166 0 0
0.511391 0 0
0.553948 0 0
0.588952 0 0
0.617319 0 0
0.640772 0 0
0.660197 0 0
0.676143 0 0
0.689036 0 0
0.699001 0 0
0.707012 0 0
0.713939 0 0
0.718624 0 0
0.718624 0 0
0.718624 0 0
0.718624 0 0
0.718624 0 0
0.718624 0 0
0.718624 0 0
0.0238804 0.0224308 0.0560159
0.0241703 0.0182803 0.0543984
0.0242618 0.0166323 0.0518654
0.0242618 0.0164645 0.0485389
0.0326085 0.0209354 0.0452888
0.0464027 0.0226291 0.0428168
0.0658274 0.0225681 0.0387884
0.0928206 0.0251621 0.0350805
0.116884 0.0297551 0.0333562
0.159945 0.0305028 0.0280308
0.20737 0.0288243 0.0178836
0.258579 0.0227054 0.00251774
0.318624 0 0
0.383276 0 0
0.440955 0 0
0.494926 0 0
0.540398 0 0
0.57818 0 0
0.608698 0 0
0.633768 0 0
0.654475 0 0
0.671611 0 0
0.685527 0 0
0.696239 0 0
0.704784 0 0
0.712062 0 0
0.718181 0 0
0.718624 0 0
0.718624 0 0
0.718624 0 0
0.718624 0 0
0.718624 0 0
0.718624 0 0
0.022385 0.0471046 0.0538643
0.0227207 0.0447852 0.0520485
0.0233005 0.0402686 0.0494698
0.0237736 0.0356146 0.0461891
0.0294347 0.0314641 0.0428779
0.0480354 0.0298466 0.0418708
0.0599985 0.0282902 0.0382391
0.0885176 0.029221 0.0352178
0.109682 0.032929 0.0336919
0.14905 0.0328985 0.0284276
0.195972 0.0294957 0.0208896
0.245441 0.0247196 0.00534066
0.305913 0.002121 0
0.371588 0 0
0.4309 0 0
0.485969 0 0
0.533547 0 0
0.571969 0 0
0.603906 0 0
0.629877 0 0
0.651225 0 0
0.668925 0 0
0.683314 0 0
0.694514 0 0
0.70341 0 0
0.710842 0 0
0.717189 0 0
0.718624 0 0
0.718624 0 0
0.718624 0 0
0.718624 0 0
0.718624 0 0
0.718624 0 0
0.0208743 0.06598 0.0536049
0.0210574 0.0639963 0.0513771
0.0214847 0.06009 0.048188
0.0222477 0.0553445 0.0445869
0.0231174 0.049424 0.0407568
0.0497139 0.0451209 0.0409247
0.0581979 0.0438849 0.0389715
0.0878157 0.0439307 0.0369573
0.111238 0.047364 0.0355535
0.14725 0.047715 0.0303349
0.196246 0.0455177 0.024094
0.246052 0.0345617 0.00555428
0.304051 0.00309758 0
0.369619 0 0
0.429206 0 0
0.484352 0 0
0.532372 0 0
0.569589 0 0
0.60174 0 0
0.628244 0 0
0.649897 0 0
0.667796 0 0
0.682383 0 0
0.693797 0 0
0.702831 0 0
0.710292 0 0
0.716686 0 0
0.718624 0 0
0.718624 0 0
0.718624 0 0
0.718624 0 0
0.718624 0 0
0.718624 0 0
0.0168002 0.0803998 0.053193
0.0185245 0.0784161 0.0508583
0.0206455 0.0751507 0.0481422
0.0220645 0.0719921 0.0452277
0.0222171 0.0688182 0.041062
0.0456397 0.0645609 0.040528
0.0558022 0.0634012 0.0398718
0.0858778 0.0640726 0.038117
0.112947 0.0673686 0.035172
0.149279 0.0690471 0.0312047
0.204883 0.0672313 0.0252079
0.259525 0.0586862 0.00265507
0.316777 0.0331273 0
0.372671 0 0
0.431479 0 0
0.485573 0 0
0.531502 0 0
0.568887 0 0
0.601114 0 0
0.627756 0 0
0.649393 0 0
0.667338 0 0
0.682002 0 0
0.693492 0 0
0.702586 0 0
0.710155 0 0
0.716564 0 0
0.718624 0 0
0.718624 0 0
0.718624 0 0
0.718624 0 0
0.718624 0 0
0.718624 0 0
0.00561532 0.0990005 0.0517586
0.00750744 0.0963912 0.0500191
0.0107424 0.0920424 0.0476387
0.0140993 0.0877546 0.0445869
0.0163272 0.0842451 0.0414435
0.0380407 0.0797894 0.0402533
0.0519875 0.0780499 0.039765
0.08336 0.0785687 0.0383154
0.115679 0.082948 0.034226
0.160113 0.0869154 0.0318456
0.219974 0.08748 0.0240024
0.278172 0.0838026 0.00112917
0.337911 0.0675669 0
0.387854 0.0115511 0
0.43331 0 0
0.48571 0 0
0.531609 0 0
0.568887 0 0
0.601114 0 0
0.627817 0 0
0.649516 0 0
0.667491 0 0
0.682139 0 0
0.693614 0 0
0.702647 0 0
0.710124 0 0
0.716548 0 0
0.718624 0 0
0.718624 0 0
0.718624 0 0
0.718624 0 0
0.718624 0 0
0.718624 0 0
0 0.122911 0.0482032
0 0.120455 0.0463722
0 0.116213 0.0450752
0 0.112032 0.0434424
0 0.107805 0.0409552
0.00988785 0.102983 0.0384833
0.0366217 0.0991226 0.0368505
0.0713664 0.100145 0.0373541
0.116594 0.105684 0.0358434
0.165515 0.110994 0.0315404
0.229831 0.112428 0.0187228
0.292348 0.110521 0.000854505
0.355734 0.102586 0
0.412146 0.0781872 0
0.449638 0.0116732 0
0.486793 0 0
0.53257 0 0
0.569879 0 0
0.602014 0 0
0.628473 0 0
0.650095 0 0
0.667964 0 0
0.68249 0 0
0.693828 0 0
0.7028 0 0
0.710246 0 0
0.71664 0 0
0.718624 0 0
0.718624 0 0
0.718624 0 0
0.718624 0 0
0.718624 0 0
0.718624 0 0
0 0.148669 0.0450294
0 0.146319 0.0439765
0 0.142275 0.0424353
0 0.138216 0.0400549
0 0.134524 0.0386969
0 0.132067 0.038407
0.0189212 0.125536 0.0392462
0.0365301 0.126009 0.0403296
0.109621 0.131807 0.0372625
0.162158 0.140002 0.0307774
0.234821 0.144976 0.0112306
0.305043 0.148898 0.0000610361
0.37438 0.144884 0
0.437675 0.128679 0
0.483284 0.0915084 0
0.510185 0.0156252 0
0.534066 0 0
0.571252 0 0
0.603265 0 0
0.62945 0 0
0.650904 0 0
0.668574 0 0
0.682948 0 0
0.694179 0 0
0.703075 0 0
0.710521 0 0
0.716838 0 0
0.718624 0 0
0.718624 0 0
0.718624 0 0
0.718624 0 0
0.718624 0 0
0.718624 0 0
0 0.179736 0.0400702
0 0.177493 0.0401312
0 0.173068 0.0402838
0 0.168872 0.0404059
0 0.165301 0.0403906
0 0.162951 0.0403449
0.00105287 0.160739 0.0404822
0.0270085 0.154498 0.043183
0.0787823 0.159869 0.039704
0.153475 0.170336 0.0303807
0.235187 0.179782 0.00622568
0.314885 0.188907 0
0.392035 0.190982 0
0.463066 0.185336 0
0.517205 0.167056 0
0.554665 0.120455 0
0.568353 0.0225528 0
0.572641 0 0
0.604547 0 0
0.630457 0 0
0.651789 0 0
0.669322 0 0
0.683604 0 0
0.694682 0 0
0.703456 0 0
0.710811 0 0
0.717098 0 0
0.718624 0 0
0.718624 0 0
0.718624 0 0
0.718624 0 0
0.718624 0 0
0.718624 0 0
0 0.217304 0.0360418
0 0.215045 0.0363775
0 0.210483 0.0370642
0 0.206317 0.0376898
0 0.202747 0.0382086
0 0.200351 0.0385748
0 0.198566 0.0388342
0.00741588 0.19411 0.0407111
0.0349584 0.193469 0.0417792
0.123507 0.205753 0.026688
0.224964 0.221042 0.000366217
0.31931 0.236133 0
0.405661 0.243702 0
0.485466 0.243687 0
0.549065 0.234394 0
0.598627 0.21265 0
0.626902 0.170535 0
0.626062 0.0419623 0
0.605798 0 0
0.631571 0 0
0.652827 0 0
0.670237 0 0
0.684306 0 0
0.695171 0 0
0.703838 0 0
0.711131 0 0
0.717342 0 0
0.718624 0 0
0.718624 0 0
0.718624 0 0
0.718624 0 0
0.718624 0 0
0.718624 0 0
0 0.257984 0.0258335
0 0.255787 0.0266728
0 0.250935 0.0285039
0 0.246525 0.0301823
0 0.242924 0.0312963
0 0.240787 0.0316777
0 0.239185 0.0319829
0 0.237888 0.0322271
0.0126192 0.231266 0.0359503
0.0457771 0.240024 0.0171817
0.190539 0.264485 0.000015259
0.311666 0.285573 0
0.411673 0.299718 0
0.500572 0.305928 0
0.572274 0.304494 0
0.631403 0.293767 0
0.674205 0.272297 0
0.696468 0.231586 0
0.690745 0.150195 0
0.632578 0 0
0.653712 0 0
0.670985 0 0
0.684916 0 0
0.695644 0 0
0.704204 0 0
0.711467 0 0
0.717586 0 0
0.718624 0 0
0.718624 0 0
0.718624 0 0
0.718624 0 0
0.718624 0 0
0.718624 0 0
0 0.304997 0
0 0.302525 0
0 0.297215 0.00259403
0 0.292454 0.00593576
0 0.288624 0.00862135
0 0.28629 0.0102388
0 0.284566 0.0114595
0 0.283284 0.0123598
0 0.282017 0.0132448
0.016556 0.274113 0.0174716
0.0735637 0.302129 0
0.281193 0.335836 0
0.406744 0.358618 0
0.509133 0.370657 0
0.589532 0.374762 0
0.65507 0.370855 0
0.705013 0.360113 0
0.738445 0.340261 0
0.75819 0.307088 0
0.758373 0.244755 0
0.709697 0.0432136 0
0.671611 0 0
0.685466 0 0
0.696071 0 0
0.704555 0 0
0.711742 0 0
0.7178 0 0
0.718624 0 0
0.718624 0 0
0.718624 0 0
0.718624 0 0
0.718624 0 0
0.718624 0 0
0 0.355093 0
0 0.35288 0
0 0.347784 0
0 0.343252 0
0 0.339452 0
0 0.33724 0
0 0.335729 0
0 0.334554 0
0 0.333516 0
0 0.332601 0
0.0203555 0.325292 0
0.16733 0.377676 0
0.379034 0.418173 0
0.506828 0.439124 0
0.601617 0.449012 0
0.674434 0.450263 0
0.730648 0.445701 0
0.770077 0.435828 0
0.797604 0.418204 0
0.812802 0.389731 0
0.814801 0.34313 0
0.795789 0.252766 0
0.685863 0 0
0.696391 0 0
0.704829 0 0
0.711955 0 0
0.717952 0 0
0.718624 0 0
0.718624 0 0
0.718624 0 0
0.718624 0 0
0.718624 0 0
0.718624 0 0
0 0.398032 0
0 0.396002 0
0 0.391913 0
0 0.38822 0
0 0.385046 0
0 0.383185 0
0 0.381857 0
0 0.380835 0
0 0.380011 0
0 0.3794 0
0 0.378882 0
0.0262303 0.375479 0
0.285939 0.457145 0
0.479667 0.49807 0
0.601755 0.515877 0
0.686732 0.522911 0
0.75111 0.523629 0
0.796292 0.521263 0
0.830045 0.514473 0
0.851804 0.50161 0
0.863523 0.480369 0
0.865827 0.445457 0
0.857343 0.388632 0
0.831601 0.290806 0
0.704967 0 0
0.712077 0 0
0.718029 0 0
0.718624 0 0
0.718624 0 0
0.718624 0 0
0.718624 0 0
0.718624 0 0
0.718624 0 0
0 0.43624 0
0 0.434409 0
0 0.430594 0
0 0.427146 0
0 0.424506 0
0 0.422858 0
0 0.421698 0
0 0.420859 0
0 0.420142 0
0 0.419699 0
0 0.419425 0
0 0.418967 0
0.0350958 0.428351 0
0.392569 0.5364 0
0.576928 0.571847 0
0.686961 0.587259 0
0.763912 0.593027 0
0.816968 0.595376 0
0.855283 0.59382 0
0.881666 0.58912 0
0.899031 0.580453 0
0.909514 0.566308 0
0.914229 0.545434 0
0.911986 0.514595 0
0.90193 0.468757 0
0.884184 0.403967 0
0.860853 0.320882 0
0.806638 0.1841 0
0.718624 0 0
0.718624 0 0
0.718624 0 0
0.718624 0 0
0.718624 0 0
0 0.466682 0
0 0.465461 0
0 0.462608 0
0 0.460029 0
0 0.458137 0
0 0.456901 0
0 0.45594 0
0 0.455207 0
0 0.454566 0
0 0.454337 0
0 0.454002 0
0 0.453681 0
0 0.453361 0
0.0444343 0.489311 0
0.491875 0.607584 0
0.664271 0.639506 0
0.76553 0.652506 0
0.830335 0.658885 0
0.873838 0.661204 0
0.904814 0.661555 0
0.92604 0.660166 0
0.940932 0.656001 0
0.950942 0.64799 0
0.956527 0.636225 0
0.95874 0.621088 0
0.958556 0.603296 0
0.957046 0.584741 0
0.950683 0.566079 0
0.945159 0.551644 0
0.94284 0.545571 0
0.943526 0.547372 0
0.947234 0.557061 0
0.952941 0.571984 0
0 0.490486 0
0 0.489601 0
0 0.487175 0
0 0.484947 0
0 0.483391 0
0 0.482353 0
0 0.481651 0
0 0.481071 0
0 0.480659 0
0 0.48043 0
0 0.480186 0
0 0.479957 0
0 0.479774 0
0 0.479591 0
0.0592813 0.55288 0
0.588434 0.667796 0
0.743023 0.695094 0
0.830243 0.706859 0
0.883497 0.712779 0
0.920226 0.716258 0
0.944686 0.718669 0
0.962325 0.719524 0
0.975357 0.718196 0
0.98291 0.714382 0
0.988525 0.709743 0
0.993454 0.705074 0
0.997162 0.70042 0
0.99649 0.695369 0
0.995651 0.692638 0
0.995651 0.692653 0
0.996612 0.695781 0
0.998398 0.70164 0
0.998749 0.707546 0
0 0.509499 0
0 0.508659 0
0 0.506752 0
0 0.504982 0
0 0.503716 0
0 0.502892 0
0 0.502281 0
0 0.501823 0
0 0.501488 0
0 0.501183 0
0 0.500923 0
0 0.500725 0
0 0.500557 0
0 0.500404 0
0 0.500313 0
0.231952 0.61471 0
0.673075 0.719066 0
0.811124 0.742306 0
0.882918 0.752972 0
0.927306 0.758694 0
0.956512 0.763088 0
0.972534 0.764767 0
0.980621 0.763714 0
0.986435 0.761761 0
0.991394 0.759915 0
0.99556 0.758099 0
0.998993 0.756863 0
1 0.755886 0
1 0.755611 0
1 0.756588 0
1 0.758679 0
1 0.761746 0
1 0.765759 0
0 0.524971 0
0 0.524193 0
0 0.522622 0
0 0.521111 0
0 0.520073 0
0 0.519371 0
0 0.518883 0
0 0.518547 0
0 0.518227 0
0 0.517968 0
0 0.517754 0
0 0.517601 0
0 0.517449 0
0 0.517433 0
0 0.517357 0
0 0.51725 0
0.384176 0.674891 0
0.749844 0.761624 0
0.867063 0.78143 0
0.926619 0.790417 0
0.960784 0.795895 0
0.972519 0.796338 0
0.979553 0.79585 0
0.985611 0.795117 0
0.990738 0.794553 0
0.99501 0.794034 0
0.998505 0.793698 0
1 0.793667 0
1 0.794034 0
1 0.795163 0
1 0.796689 0
1 0.798733 0
1 0.801053 0
0 0.537209 0
0 0.536507 0
0 0.535149 0
0 0.533898 0
0 0.533013 0
0 0.532433 0
0 0.532036 0
0 0.53167 0
0 0.53138 0
0 0.531151 0
0 0.530953 0
0 0.530831 0
0 0.530755 0
0 0.530694 0
0 0.530648 0
0 0.530587 0
0 0.530526 0
0.519615 0.729397 0
0.81799 0.795422 0
0.912184 0.811337 0
0.95758 0.818311 0
0.970397 0.818631 0
0.978012 0.818402 0
0.984451 0.818112 0
0.989822 0.818036 0
0.994232 0.817929 0
0.997818 0.818006 0
1 0.81825 0
1 0.818708 0
1 0.819623 0
1 0.820813 0
1 0.822278 0
1 0.823941 0
0 0.549172 0
0 0.54844 0
0 0.54699 0
0 0.545586 0
0 0.544625 0
0 0.544076 0
0 0.543648 0
0 0.543282 0
0 0.543023 0
0 0.542794 0
0 0.542611 0
0 0.542535 0
0 0.542428 0
0 0.542351 0
0 0.542306 0
0 0.54226 0
0 0.542229 0
0 0.542229 0
0.65333 0.778073 0
0.875731 0.823636 0
0.948013 0.835096 0
0.967407 0.836103 0
0.975906 0.835813 0
0.982895 0.83566 0
0.988571 0.835584 0
0.993194 0.83566 0
0.996933 0.835782 0
0.999893 0.836072 0
1 0.836576 0
1 0.837293 0
1 0.838193 0
1 0.839246 0
1 0.840421 0
0 0.561181 0
0 0.560479 0
0 0.55903 0
0 0.557687 0
0 0.556786 0
0 0.55613 0
0 0.555642 0
0 0.555245 0
0 0.554955 0
0 0.554726 0
0 0.554604 0
0 0.554437 0
0 0.554345 0
0 0.554253 0
0 0.554208 0
0 0.554162 0
0 0.554177 0
0 0.554147 0
0 0.554086 0
0.768612 0.817929 0
0.924773 0.847013 0
0.96318 0.850767 0
0.973098 0.849897 0
0.980819 0.849577 0
0.986969 0.849485 0
0.991897 0.849546 0
0.995819 0.849714 0
0.998917 0.85005 0
1 0.850431 0
1 0.85098 0
1 0.851667 0
1 0.85243 0
1 0.853391 0
0 0.572152 0
0 0.571511 0
0 0.57026 0
0 0.569085 0
0 0.568261 0
0 0.567681 0
0 0.567239 0
0 0.566873 0
0 0.566598 0
0 0.566415 0
0 0.566217 0
0 0.566079 0
0 0.565972 0
0 0.565881 0
0 0.565881 0
0 0.565866 0
0 0.56582 0
0 0.565774 0
0 0.565728 0
0 0.565637 0
0.86537 0.848463 0
0.956283 0.863096 0
0.96939 0.861295 0
0.978225 0.860731 0
0.984985 0.860594 0
0.990311 0.860685 0
0.994492 0.860914 0
0.997742 0.861143 0
1 0.861448 0
1 0.86186 0
1 0.862379 0
1 0.86302 0
1 0.863676 0
0 0.581415 0
0 0.580926 0
0 0.579934 0
0 0.578912 0
0 0.578195 0
0 0.577707 0
0 0.57731 0
0 0.57705 0
0 0.576822 0
0 0.576623 0
0 0.57644 0
0 0.576318 0
0 0.576226 0
0 0.576181 0
0 0.576135 0
0 0.576089 0
0 0.576028 0
0 0.575982 0
0 0.575906 0
0 0.575891 0
0.635767 0.807797 0
0.934936 0.87068 0
0.964767 0.870832 0
0.975174 0.869642 0
0.982773 0.869307 0
0.988571 0.869383 0
0.993027 0.869596 0
0.99649 0.869795 0
0.99913 0.870069 0
1 0.87039 0
1 0.870787 0
1 0.871214 0
1 0.871717 0
0 0.5888 0
0 0.588388 0
0 0.587564 0
0 0.586755 0
0 0.586191 0
0 0.585809 0
0 0.585519 0
0 0.585321 0
0 0.585092 0
0 0.584939 0
0 0.584802 0
0 0.584665 0
0 0.584619 0
0 0.584558 0
0 0.584482 0
0 0.584421 0
0 0.584375 0
0 0.58436 0
0 0.584283 0
0 0.584192 0
0 0.584085 0
0.866941 0.86569 0
0.959106 0.879179 0
0.971756 0.877073 0
0.980362 0.876356 0
0.986709 0.876295 0
0.991516 0.876448 0
0.995193 0.876677 0
0.997986 0.876921 0
1 0.877195 0
1 0.87744 0
1 0.877729 0
1 0.87808 0
0 0.592294 0
0 0.592294 0
0 0.592294 0
0 0.592294 0
0 0.592294 0
0 0.592233 0
0 0.591989 0
0 0.591775 0
0 0.591623 0
0 0.591485 0
0 0.591379 0
0 0.591287 0
0 0.591226 0
0 0.59115 0
0 0.591089 0
0 0.591043 0
0 0.590997 0
0 0.590951 0
0 0.59086 0
0 0.590768 0
0 0.590631 0
0.649989 0.824613 0
0.950515 0.886244 0
0.968048 0.883284 0
0.977874 0.882002 0
0.984848 0.881712 0
0.990036 0.881834 0
0.993957 0.882033 0
0.996887 0.882216 0
0.999069 0.882429 0
1 0.882612 0
1 0.882811 0
1 0.88307 0
0 0.592294 0
0 0.592294 0
0 0.592294 0
0 0.592294 0
0 0.592294 0
0 0.592294 0
0 0.592294 0
0 0.592294 0
0 0.592294 0
