site/assets/luts/freshluts--0000211-monochrome-1.cube
# LUTr-Schema-Version: 2
# LUTr-ID: freshluts--0000211-monochrome-1
# LUTr-Title: MONOCHROME 1
# LUTr-Collection: Fresh LUTs
# LUTr-Collection-ID: freshluts-community
# LUTr-Source: https://freshluts.com
# LUTr-Retrieved: 2026-07-27
# LUTr-Source-File: submissions-raw/freshluts/cubes/211__MONOCHROME_1.cube
# LUTr-Source-Format: CUBE
# LUTr-Source-SHA256: a9865ae1746479443d75e9f176f6a94c4fd444774a9828a0124813ee1e6759cc
# LUTr-License: CC0-1.0
# LUTr-License-URL: https://freshluts.com/termsandconditions
# LUTr-License-Basis: site-terms
# LUTr-Transform-Class: creative-look
# LUTr-Tags: creative, freshluts, community, cube, noir, cinematic, black-and-white, rec709
# LUTr-Input-Color-Space: rec709
# LUTr-Input-Gamut: rec709
# LUTr-Input-Transfer: rec709
# LUTr-Output-Color-Space: srgb
# LUTr-Output-Gamut: rec709
# LUTr-Output-Transfer: srgb
# LUTr-Color-Space-Confidence: declared-by-source
# LUTr-Domain-Normalized: true
# LUTr-Shaper: none
# LUTr-Original-Grid: 16x16x16
# LUTr-Conversion-Grid: 16x16x16
# LUTr-Conversion-Interpolation: none
# LUTr-Conversion-Method: Metadata normalization; numeric LUT samples preserved
# LUTr-Conversion-Tool: LUTr scripts/convert-all-to-cube.mjs 2.0.0
# LUTr-Conversion-Date: 2026-07-28
# LUTr-Asset-URL: https://freshluts.com/luts/211
# LUTr-Author: Andy
# LUTr-Author-URL: https://freshluts.com/users/1003
# LUTr-Attribution: Andy via Fresh LUTs
# LUTr-Source-Labels: gamma=Rec 709; color=Black and white; key=Neutral; style=Noir
# LUTr-Duplicate-Assets: 214:https://freshluts.com/luts/214
# LUTr-Note: Preserve this metadata and the upstream license notices when redistributing.
TITLE "MONOCHROME 1"
LUT_3D_SIZE 16
DOMAIN_MIN 0 0 0
DOMAIN_MAX 1 1 1
0.008758 0.008758 0.008758
0.020334 0.020334 0.020334
0.029712 0.029712 0.029712
0.041338 0.041338 0.041338
0.058234 0.058234 0.058234
0.084265 0.084265 0.084265
0.110871 0.110871 0.110871
0.131995 0.131995 0.131995
0.153005 0.153005 0.153005
0.170478 0.170478 0.170478
0.184689 0.184689 0.184689
0.198535 0.198535 0.198535
0.210586 0.210586 0.210586
0.217507 0.217507 0.217507
0.224207 0.224207 0.224207
0.230636 0.230636 0.230636
0.031549 0.031549 0.031549
0.035197 0.035197 0.035197
0.039264 0.039264 0.039264
0.047828 0.047828 0.047828
0.061642 0.061642 0.061642
0.082636 0.082636 0.082636
0.112375 0.112375 0.112375
0.148081 0.148081 0.148081
0.176963 0.176963 0.176963
0.202772 0.202772 0.202772
0.219615 0.219615 0.219615
0.233127 0.233127 0.233127
0.246731 0.246731 0.246731
0.260491 0.260491 0.260491
0.273487 0.273487 0.273487
0.286299 0.286299 0.286299
0.042908 0.042908 0.042908
0.045277 0.045277 0.045277
0.050396 0.050396 0.050396
0.057265 0.057265 0.057265
0.070529 0.070529 0.070529
0.090855 0.090855 0.090855
0.120111 0.120111 0.120111
0.159541 0.159541 0.159541
0.19544 0.19544 0.19544
0.22704 0.22704 0.22704
0.255242 0.255242 0.255242
0.272767 0.272767 0.272767
0.289065 0.289065 0.289065
0.305123 0.305123 0.305123
0.318782 0.318782 0.318782
0.33006 0.33006 0.33006
0.054796 0.054796 0.054796
0.057365 0.057365 0.057365
0.06198 0.06198 0.06198
0.068694 0.068694 0.068694
0.08245 0.08245 0.08245
0.103267 0.103267 0.103267
0.132308 0.132308 0.132308
0.171865 0.171865 0.171865
0.215293 0.215293 0.215293
0.250324 0.250324 0.250324
0.284504 0.284504 0.284504
0.308934 0.308934 0.308934
0.32743 0.32743 0.32743
0.345532 0.345532 0.345532
0.362397 0.362397 0.362397
0.37501 0.37501 0.37501
0.071298 0.071298 0.071298
0.07385 0.07385 0.07385
0.078534 0.078534 0.078534
0.085904 0.085904 0.085904
0.096015 0.096015 0.096015
0.118623 0.118623 0.118623
0.148903 0.148903 0.148903
0.189415 0.189415 0.189415
0.239 0.239 0.239
0.278569 0.278569 0.278569
0.316885 0.316885 0.316885
0.348999 0.348999 0.348999
0.370256 0.370256 0.370256
0.389614 0.389614 0.389614
0.407617 0.407617 0.407617
0.422169 0.422169 0.422169
0.094499 0.094499 0.094499
0.097005 0.097005 0.097005
0.101919 0.101919 0.101919
0.111088 0.111088 0.111088
0.12319 0.12319 0.12319
0.136715 0.136715 0.136715
0.168992 0.168992 0.168992
0.21138 0.21138 0.21138
0.264126 0.264126 0.264126
0.310096 0.310096 0.310096
0.350593 0.350593 0.350593
0.388906 0.388906 0.388906
0.41288 0.41288 0.41288
0.432865 0.432865 0.432865
0.451393 0.451393 0.451393
0.467472 0.467472 0.467472
0.125094 0.125094 0.125094
0.124202 0.124202 0.124202
0.127901 0.127901 0.127901
0.140111 0.140111 0.140111
0.155426 0.155426 0.155426
0.172197 0.172197 0.172197
0.191027 0.191027 0.191027
0.234992 0.234992 0.234992
0.290585 0.290585 0.290585
0.342747 0.342747 0.342747
0.385793 0.385793 0.385793
0.428267 0.428267 0.428267
0.457032 0.457032 0.457032
0.477189 0.477189 0.477189
0.495532 0.495532 0.495532
0.512144 0.512144 0.512144
0.160383 0.160383 0.160383
0.15949 0.15949 0.15949
0.159787 0.159787 0.159787
0.170507 0.170507 0.170507
0.190864 0.190864 0.190864
0.212065 0.212065 0.212065
0.234422 0.234422 0.234422
0.260864 0.260864 0.260864
0.31827 0.31827 0.31827
0.373466 0.373466 0.373466
0.417975 0.417975 0.417975
0.46071 0.46071 0.46071
0.495231 0.495231 0.495231
0.515155 0.515155 0.515155
0.53314 0.53314 0.53314
0.549264 0.549264 0.549264
0.195872 0.195872 0.195872
0.195081 0.195081 0.195081
0.195091 0.195091 0.195091
0.199895 0.199895 0.199894
0.220599 0.220599 0.220599
0.247832 0.247832 0.247832
0.273988 0.273988 0.273988
0.304364 0.304364 0.304364
0.340329 0.340329 0.340329
0.399512 0.399512 0.399512
0.445844 0.445844 0.445844
0.488786 0.488786 0.488786
0.527854 0.527854 0.527854
0.549428 0.549428 0.549428
0.567501 0.567501 0.567501
0.583601 0.583601 0.583601
0.230422 0.230422 0.230422
0.229988 0.229988 0.229988
0.230962 0.230962 0.230962
0.2353 0.2353 0.2353
0.249081 0.249081 0.249081
0.280449 0.280449 0.280449
0.311752 0.311752 0.311752
0.346261 0.346261 0.346261
0.385598 0.385598 0.385598
0.424254 0.424254 0.424254
0.47266 0.47266 0.47266
0.516695 0.516695 0.516695
0.557744 0.557744 0.557744
0.583633 0.583633 0.583633
0.602007 0.602007 0.602007
0.61788 0.61788 0.61788
0.261257 0.261257 0.261257
0.26089 0.26089 0.26089
0.262715 0.262715 0.262715
0.266693 0.266693 0.266693
0.276409 0.276409 0.276409
0.306189 0.306189 0.306189
0.344089 0.344089 0.344089
0.382701 0.382701 0.382701
0.425798 0.425798 0.425798
0.469469 0.469469 0.469469
0.497847 0.497847 0.497847
0.541186 0.541186 0.541186
0.582557 0.582557 0.582557
0.612108 0.612108 0.612108
0.630224 0.630224 0.630224
0.646286 0.646286 0.646286
0.292762 0.292762 0.292762
0.292396 0.292396 0.292396
0.295114 0.295114 0.295114
0.299158 0.299158 0.299158
0.304327 0.304327 0.304327
0.33185 0.33185 0.33185
0.373899 0.373899 0.373899
0.414654 0.414654 0.414654
0.459741 0.459741 0.459741
0.502368 0.502368 0.502368
0.53307 0.53307 0.53307
0.561737 0.561737 0.561737
0.604166 0.604166 0.604166
0.637116 0.637116 0.637116
0.656111 0.656111 0.656111
0.672284 0.672284 0.672284
0.323523 0.323523 0.323523
0.323896 0.323896 0.323896
0.327556 0.327556 0.327556
0.331919 0.331919 0.331919
0.337542 0.337542 0.337542
0.349225 0.349225 0.349225
0.403075 0.403075 0.403075
0.447819 0.447819 0.447819
0.492824 0.492824 0.492824
0.535123 0.535123 0.535123
0.567182 0.567182 0.567182
0.596525 0.596525 0.596525
0.62585 0.62585 0.62585
0.661862 0.661862 0.661862
0.682466 0.682466 0.682466
0.698713 0.698713 0.698713
0.345938 0.345938 0.345938
0.348838 0.348838 0.348838
0.353136 0.353136 0.353136
0.358478 0.358478 0.358478
0.365241 0.365241 0.365241
0.3739 0.3739 0.3739
0.42549 0.42549 0.42549
0.47798 0.47798 0.47798
0.52517 0.52517 0.52517
0.566619 0.566619 0.566619
0.599305 0.599305 0.599305
0.629811 0.629811 0.629811
0.659767 0.659767 0.659767
0.686909 0.686909 0.686909
0.709102 0.709102 0.709102
0.725468 0.725468 0.725468
0.367409 0.367409 0.367409
0.371575 0.371575 0.371575
0.375757 0.375757 0.375757
0.381097 0.381097 0.381097
0.387828 0.387828 0.387828
0.397566 0.397566 0.397566
0.438256 0.438256 0.438256
0.499441 0.499441 0.499441
0.550466 0.550466 0.550466
0.593076 0.593076 0.593076
0.620378 0.620378 0.620378
0.651295 0.651295 0.651295
0.682728 0.682728 0.682728
0.713999 0.713999 0.713999
0.729611 0.729611 0.729611
0.745986 0.745986 0.745986
0.389605 0.389605 0.389605
0.393773 0.393773 0.393773
0.398088 0.398088 0.398088
0.403358 0.403358 0.403358
0.409986 0.409986 0.409986
0.418035 0.418035 0.418035
0.449307 0.449307 0.449307
0.517286 0.517286 0.517286
0.571243 0.571243 0.571243
0.616657 0.616657 0.616657
0.645058 0.645058 0.645058
0.671918 0.671918 0.671918
0.699742 0.699742 0.699742
0.73021 0.73021 0.73021
0.746676 0.746676 0.746676
0.759983 0.759983 0.759983
0.014836 0.014836 0.014836
0.035477 0.035477 0.035477
0.04311 0.04311 0.04311
0.053944 0.053944 0.053944
0.072193 0.072193 0.072193
0.096469 0.096469 0.096469
0.117236 0.117236 0.117236
0.139549 0.139549 0.139549
0.163272 0.163272 0.163272
0.177307 0.177307 0.177307
0.190984 0.190984 0.190984
0.204563 0.204563 0.204563
0.214184 0.214184 0.214184
0.220951 0.220951 0.220951
0.227473 0.227473 0.227473
0.233772 0.233772 0.233772
0.034632 0.034632 0.034632
0.04071 0.04071 0.04071
0.047284 0.047284 0.047284
0.056235 0.056235 0.056235
0.070124 0.070124 0.070124
0.091446 0.091446 0.091446
0.121777 0.121777 0.121777
0.153069 0.153069 0.153069
0.177473 0.177473 0.177473
0.197075 0.197075 0.197075
0.209184 0.209184 0.209184
0.220244 0.220244 0.220244
0.231259 0.231259 0.231259
0.242401 0.2424 0.2424
0.254226 0.254226 0.254226
0.266953 0.266953 0.266953
0.04565 0.04565 0.04565
0.049999 0.049999 0.049999
0.055593 0.055593 0.055593
0.063874 0.063874 0.063874
0.077591 0.077591 0.077591
0.098397 0.098397 0.098397
0.128724 0.128724 0.128724
0.167421 0.167421 0.167421
0.198463 0.198463 0.198463
0.22795 0.22795 0.22795
0.252517 0.252517 0.252517
0.26873 0.26873 0.26873
0.284406 0.284406 0.284406
0.299708 0.299708 0.299708
0.312474 0.312474 0.312474
0.323894 0.323894 0.323894
0.057964 0.057964 0.057964
0.062474 0.062474 0.062474
0.067651 0.067651 0.067651
0.074727 0.074727 0.074727
0.089013 0.089013 0.089013
0.11032 0.11032 0.11032
0.14035 0.14035 0.14035
0.180522 0.180522 0.180522
0.219369 0.219369 0.219369
0.252478 0.252478 0.252478
0.285365 0.285365 0.285365
0.307082 0.307082 0.307082
0.325238 0.325238 0.325238
0.342996 0.342996 0.342996
0.359203 0.359203 0.359203
0.371143 0.371143 0.371143
0.07472 0.07472 0.07472
0.078787 0.078787 0.078787
0.084221 0.084221 0.084221
0.092102 0.092102 0.092102
0.102329 0.102329 0.102329
0.1256 0.1256 0.1256
0.156889 0.156889 0.156889
0.19814 0.19814 0.19814
0.244488 0.244488 0.244488
0.281305 0.281305 0.281305
0.318974 0.318974 0.318974
0.349129 0.349129 0.349129
0.369809 0.369809 0.369809
0.389066 0.389066 0.389066
0.406893 0.406893 0.406893
0.420503 0.420503 0.420503
0.100128 0.100128 0.100128
0.101393 0.101393 0.101393
0.106981 0.106981 0.106981
0.116845 0.116845 0.116845
0.129484 0.129484 0.129484
0.143672 0.143672 0.143672
0.176963 0.176963 0.176963
0.220249 0.220249 0.220249
0.271179 0.271179 0.271179
0.313272 0.313272 0.313272
0.353325 0.353325 0.353325
0.389845 0.389845 0.389845
0.412961 0.412961 0.412961
0.432741 0.432741 0.432741
0.451127 0.451127 0.451127
0.466783 0.466783 0.466783
0.131179 0.131179 0.131179
0.129307 0.129307 0.129307
0.132587 0.132587 0.132587
0.145089 0.145089 0.145089
0.161367 0.161367 0.161367
0.178983 0.178983 0.178983
0.198661 0.198661 0.198661
0.243344 0.243344 0.243344
0.296834 0.296834 0.296834
0.345362 0.345362 0.345362
0.388055 0.388055 0.388055
0.43033 0.43033 0.43033
0.457292 0.457292 0.457292
0.477487 0.477487 0.477487
0.495879 0.495879 0.495879
0.51241 0.51241 0.51241
0.168259 0.168259 0.168259
0.166237 0.166237 0.166237
0.166295 0.166295 0.166295
0.175085 0.175085 0.175085
0.196677 0.196677 0.196677
0.218912 0.218912 0.218912
0.242004 0.242004 0.242004
0.268793 0.268793 0.268793
0.32424 0.32424 0.32424
0.376754 0.376754 0.376754
0.421064 0.421064 0.421064
0.464058 0.464058 0.464058
0.496712 0.496712 0.496712
0.516594 0.516594 0.516594
0.534539 0.534539 0.534539
0.550636 0.550636 0.550636
0.205089 0.205089 0.205089
0.202455 0.202455 0.202455
0.202486 0.202486 0.202486
0.206537 0.206537 0.206537
0.225632 0.225632 0.225632
0.254645 0.254645 0.254645
0.281977 0.281977 0.281977
0.312786 0.312786 0.312786
0.347229 0.347229 0.347229
0.403373 0.403373 0.403373
0.449071 0.449071 0.449071
0.49204 0.49204 0.49204
0.53007 0.53007 0.53007
0.551005 0.551005 0.551005
0.569069 0.569069 0.569069
0.585146 0.585146 0.585146
0.241993 0.241993 0.241993
0.238945 0.238945 0.238945
0.239996 0.239996 0.239996
0.243724 0.243724 0.243724
0.255738 0.255738 0.255738
0.287197 0.287197 0.287197
0.320246 0.320246 0.320246
0.354537 0.354537 0.354537
0.391534 0.391534 0.391534
0.428039 0.428039 0.428039
0.475945 0.475945 0.475945
0.519964 0.519964 0.519964
0.560818 0.560818 0.560818
0.585521 0.585521 0.585521
0.603848 0.603848 0.603848
0.619843 0.619843 0.619843
0.274159 0.274159 0.274159
0.270642 0.270642 0.270642
0.272744 0.272744 0.272744
0.276791 0.276791 0.276791
0.284373 0.284373 0.284373
0.313123 0.313123 0.313123
0.354177 0.354177 0.354177
0.393075 0.393075 0.393075
0.43332 0.43332 0.43332
0.473965 0.473965 0.473965
0.502044 0.502044 0.502044
0.545256 0.545256 0.545256
0.586695 0.586695 0.586695
0.615338 0.615338 0.615338
0.6334 0.6334 0.6334
0.64944 0.64944 0.64944
0.305923 0.305923 0.305923
0.302038 0.302038 0.302038
0.305269 0.305269 0.305269
0.309441 0.309441 0.309441
0.314839 0.314839 0.314839
0.33824 0.33824 0.33824
0.383694 0.383694 0.383694
0.426934 0.426934 0.426934
0.469898 0.469898 0.469898
0.508596 0.508596 0.508596
0.537791 0.537791 0.537791
0.566563 0.566563 0.566563
0.60912 0.60912 0.60912
0.641227 0.641227 0.641227
0.659826 0.659826 0.659826
0.675968 0.675968 0.675968
0.336702 0.336702 0.336702
0.33359 0.33359 0.33359
0.33743 0.33743 0.33743
0.341965 0.341965 0.341965
0.347779 0.347779 0.347779
0.355179 0.355179 0.355179
0.411357 0.411357 0.411357
0.459754 0.459754 0.459754
0.505661 0.505661 0.505661
0.543592 0.543592 0.543592
0.572327 0.572327 0.572327
0.601279 0.601279 0.601279
0.630769 0.630769 0.630769
0.666049 0.666049 0.666049
0.686252 0.686252 0.686252
0.702498 0.702498 0.702498
0.35963 0.35963 0.35963
0.35833 0.35833 0.35833
0.363174 0.363174 0.363174
0.368643 0.368643 0.368643
0.375502 0.375502 0.375502
0.383322 0.383322 0.383322
0.431367 0.431367 0.431367
0.488333 0.488333 0.488333
0.538448 0.538448 0.538448
0.579406 0.579406 0.579406
0.607935 0.607935 0.607935
0.634818 0.634818 0.634818
0.664323 0.664323 0.664323
0.69094 0.69094 0.69094
0.712749 0.712749 0.712749
0.729071 0.729071 0.729071
0.380926 0.380926 0.380926
0.380536 0.380536 0.380536
0.385482 0.385482 0.385482
0.390967 0.390967 0.390967
0.397754 0.397754 0.397754
0.406411 0.406411 0.406411
0.440852 0.440852 0.440852
0.508366 0.508366 0.508366
0.561801 0.561801 0.561801
0.605834 0.605834 0.605834
0.63495 0.63495 0.63495
0.662431 0.662431 0.662431
0.689501 0.689501 0.689501
0.718612 0.718612 0.718612
0.733917 0.733917 0.733917
0.750262 0.750262 0.750262
0.400315 0.400315 0.400315
0.400444 0.400444 0.400444
0.406103 0.406103 0.406103
0.412066 0.412066 0.412066
0.419115 0.419115 0.419115
0.427485 0.427485 0.427485
0.456678 0.456678 0.456678
0.524934 0.524934 0.524934
0.581118 0.581118 0.581118
0.627045 0.627045 0.627045
0.656987 0.656987 0.656987
0.685561 0.685561 0.685561
0.713214 0.713214 0.713214
0.740151 0.740151 0.740151
0.753437 0.753437 0.753437
0.764939 0.764939 0.764939
0.019527 0.019527 0.019527
0.041813 0.041813 0.041813
0.056725 0.056725 0.056725
0.067415 0.067415 0.067415
0.084058 0.084058 0.084058
0.104601 0.104601 0.104601
0.124328 0.124328 0.124328
0.149487 0.149487 0.149487
0.169403 0.169403 0.169403
0.182765 0.182765 0.182765
0.19628 0.19628 0.19628
0.209377 0.209377 0.209377
0.217583 0.217583 0.217583
0.22423 0.22423 0.22423
0.230623 0.230623 0.230623
0.236786 0.236786 0.236786
0.035035 0.035035 0.035035
0.044878 0.044878 0.044878
0.052145 0.052145 0.052145
0.061784 0.061784 0.061784
0.07636 0.07636 0.07636
0.098845 0.098845 0.098845
0.130832 0.130832 0.130832
0.161369 0.161369 0.161369
0.184103 0.184103 0.184103
0.199979 0.199979 0.199979
0.209527 0.209527 0.209527
0.219331 0.219331 0.219331
0.228843 0.228843 0.228843
0.239019 0.239019 0.239019
0.250371 0.250371 0.250371
0.262997 0.262997 0.262997
0.048866 0.048866 0.048866
0.053215 0.053215 0.053215
0.059347 0.059347 0.059347
0.067905 0.067905 0.067905
0.08089 0.08089 0.08089
0.101335 0.101335 0.101335
0.132303 0.132303 0.132303
0.16676 0.16676 0.16676
0.192675 0.192675 0.192675
0.214827 0.214827 0.214827
0.229526 0.229526 0.229526
0.241242 0.241242 0.241242
0.253364 0.253364 0.253364
0.265702 0.265702 0.265702
0.27753 0.27753 0.27753
0.289966 0.289966 0.289966
0.061351 0.061351 0.061351
0.06568 0.06568 0.06568
0.071081 0.071081 0.071081
0.078845 0.078845 0.078845
0.092788 0.092788 0.092788
0.113613 0.113613 0.113613
0.143793 0.143793 0.143793
0.183652 0.183652 0.183652
0.218674 0.218674 0.218674
0.249333 0.249333 0.249333
0.278621 0.278621 0.278621
0.296361 0.296361 0.296361
0.313342 0.313342 0.313342
0.330006 0.330006 0.330006
0.344335 0.344335 0.344335
0.355656 0.355656 0.355656
0.078641 0.078641 0.078641
0.082181 0.082181 0.082181
0.086793 0.086793 0.086793
0.095596 0.095596 0.095596
0.106448 0.106448 0.106448
0.12932 0.12932 0.12932
0.160528 0.160528 0.160528
0.20187 0.20187 0.20187
0.245327 0.245327 0.245327
0.280047 0.280047 0.280047
0.315276 0.315276 0.315276
0.342361 0.342361 0.342361
0.362161 0.362161 0.362161
0.380987 0.380987 0.380987
0.39846 0.39846 0.39846
0.411148 0.411148 0.411148
0.105408 0.105408 0.105408
0.105316 0.105316 0.105316
0.108597 0.108597 0.108597
0.119327 0.119327 0.119327
0.132915 0.132915 0.132915
0.147951 0.147951 0.147951
0.181174 0.181174 0.181174
0.224595 0.224595 0.224595
0.274822 0.274822 0.274822
0.314194 0.314194 0.314194
0.352289 0.352289 0.352289
0.386464 0.386464 0.386464
0.408536 0.408536 0.408536
0.42796 0.42796 0.42796
0.445937 0.445937 0.445937
0.460941 0.460941 0.460941
0.137596 0.137596 0.137596
0.135393 0.135393 0.135393
0.135074 0.135074 0.135074
0.146477 0.146477 0.146477
0.163996 0.163996 0.163996
0.182764 0.182764 0.182764
0.20346 0.20346 0.20346
0.248246 0.248246 0.248246
0.300966 0.300966 0.300966
0.346946 0.346946 0.346946
0.387521 0.387521 0.387521
0.428507 0.428507 0.428507
0.454314 0.454314 0.454314
0.474403 0.474403 0.474403
0.492698 0.492698 0.492698
0.509021 0.509021 0.509021
0.176559 0.176559 0.176559
0.174611 0.174611 0.174611
0.171207 0.171207 0.171207
0.177041 0.177041 0.177041
0.198195 0.198195 0.198195
0.222123 0.222123 0.222123
0.246475 0.246475 0.246475
0.274351 0.274351 0.274351
0.329515 0.329515 0.329515
0.379903 0.379903 0.379903
0.421934 0.421934 0.421934
0.464972 0.464972 0.464972
0.495989 0.495989 0.495989
0.515706 0.515706 0.515706
0.533536 0.533536 0.533536
0.549575 0.549575 0.549575
0.214941 0.214941 0.214941
0.212787 0.212787 0.212787
0.208092 0.208092 0.208092
0.210731 0.210731 0.210731
0.226045 0.226045 0.226045
0.257602 0.257602 0.257602
0.286656 0.286656 0.286656
0.318885 0.318885 0.318885
0.354185 0.354185 0.354185
0.408145 0.408145 0.408145
0.451191 0.451191 0.451191
0.493665 0.493665 0.493665
0.530698 0.530698 0.530698
0.551027 0.551027 0.551027
0.568934 0.568934 0.568934
0.584897 0.584897 0.584897
0.253477 0.253477 0.253477
0.251594 0.251594 0.251594
0.245794 0.245794 0.245794
0.248992 0.248992 0.248992
0.256836 0.256836 0.256836
0.288695 0.288695 0.288695
0.324685 0.324685 0.324685
0.360711 0.360711 0.360711
0.398788 0.398788 0.398788
0.433996 0.433996 0.433996
0.479169 0.479169 0.479169
0.522199 0.522199 0.522199
0.562681 0.562681 0.562681
0.586297 0.586297 0.586297
0.604498 0.604498 0.604498
0.620548 0.620548 0.620548
0.286299 0.286299 0.286299
0.284498 0.284498 0.284498
0.278218 0.278218 0.278218
0.282544 0.282544 0.282544
0.288777 0.288777 0.288777
0.313265 0.313265 0.313265
0.35808 0.35808 0.35808
0.399388 0.399388 0.399388
0.441075 0.441075 0.441075
0.480491 0.480491 0.480491
0.506648 0.506648 0.506648
0.548395 0.548395 0.548395
0.589509 0.589509 0.589509
0.617398 0.617398 0.617398
0.635309 0.635309 0.635309
0.651239 0.651239 0.651239
0.318302 0.318302 0.318302
0.31707 0.31707 0.31707
0.310155 0.310155 0.310155
0.315051 0.315051 0.315051
0.320834 0.320834 0.320834
0.338942 0.338942 0.338942
0.38576 0.38576 0.38576
0.432553 0.432553 0.432553
0.477121 0.477121 0.477121
0.516373 0.516373 0.516373
0.54381 0.54381 0.54381
0.570725 0.570725 0.570725
0.612266 0.612266 0.612266
0.643649 0.643649 0.643649
0.661972 0.661972 0.661972
0.67796 0.67796 0.67796
0.348918 0.348918 0.348918
0.349303 0.349303 0.349303
0.342181 0.342181 0.342181
0.347521 0.347521 0.347521
0.353714 0.353714 0.353714
0.360679 0.360679 0.360679
0.412284 0.412284 0.412284
0.464293 0.464293 0.464293
0.512337 0.512337 0.512337
0.551456 0.551456 0.551456
0.579839 0.579839 0.579839
0.606976 0.606976 0.606976
0.634456 0.634456 0.634456
0.66879 0.66879 0.66879
0.688559 0.688559 0.688559
0.704659 0.704659 0.704659
0.371532 0.371532 0.371532
0.37382 0.37382 0.37382
0.367491 0.367491 0.367491
0.374151 0.374151 0.374151
0.381461 0.381461 0.381461
0.389496 0.389496 0.389496
0.42941 0.42941 0.42941
0.491838 0.491838 0.491838
0.544427 0.544427 0.544427
0.58678 0.58678 0.58678
0.61613 0.61613 0.61613
0.64273 0.64273 0.64273
0.670332 0.670332 0.670332
0.694368 0.694368 0.694368
0.71519 0.71519 0.71519
0.731382 0.731382 0.731382
0.391314 0.391314 0.391314
0.393569 0.393569 0.393569
0.388476 0.388476 0.388476
0.395575 0.395575 0.395575
0.403297 0.403297 0.403297
0.411657 0.411657 0.411657
0.4365 0.4365 0.4365
0.510727 0.510727 0.510727
0.566662 0.566662 0.566662
0.612053 0.612053 0.612053
0.642823 0.642823 0.642823
0.671106 0.671106 0.671106
0.698623 0.698623 0.698623
0.725786 0.725786 0.725786
0.738945 0.738945 0.738945
0.753959 0.753959 0.753959
0.410519 0.410519 0.410519
0.412656 0.412656 0.412656
0.407892 0.407892 0.407892
0.415411 0.415411 0.415411
0.423246 0.423246 0.423246
0.432041 0.432041 0.432041
0.45514 0.45514 0.45514
0.525983 0.525983 0.525983
0.58496 0.58496 0.58496
0.632642 0.632642 0.632642
0.66351 0.66351 0.66351
0.693055 0.693055 0.693055
0.721671 0.721671 0.721671
0.749488 0.749488 0.749488
0.762119 0.762119 0.762119
0.772861 0.772861 0.772861
0.025886 0.025886 0.025886
0.052054 0.052054 0.052054
0.070603 0.070603 0.070603
0.08314 0.08314 0.08314
0.095542 0.095542 0.095542
0.113291 0.113291 0.113291
0.134521 0.134521 0.134521
0.160349 0.160349 0.160349
0.177243 0.177243 0.177243
0.191102 0.191102 0.191102
0.204371 0.204371 0.204371
0.216334 0.216334 0.216334
0.223795 0.223795 0.223795
0.230219 0.230219 0.230219
0.236191 0.236191 0.236191
0.241834 0.241834 0.241834
0.039251 0.039251 0.039251
0.050187 0.050187 0.050187
0.058562 0.058562 0.058562
0.068366 0.068366 0.068366
0.083241 0.083241 0.083241
0.106791 0.106791 0.106791
0.13961 0.13961 0.13961
0.169287 0.169287 0.169287
0.190985 0.190985 0.190985
0.205591 0.205591 0.205591
0.21446 0.21446 0.21446
0.222895 0.222895 0.222895
0.231081 0.231081 0.231081
0.240478 0.240478 0.240478
0.251181 0.251181 0.251181
0.26312 0.26312 0.26312
0.052281 0.052281 0.052281
0.057676 0.057676 0.057676
0.064039 0.064039 0.064039
0.073152 0.073152 0.073152
0.087339 0.087339 0.087339
0.109649 0.109649 0.109649
0.142533 0.142533 0.142533
0.176268 0.176268 0.176268
0.201577 0.201577 0.201577
0.221623 0.221623 0.221623
0.233471 0.233471 0.233471
0.243446 0.243446 0.243446
0.253613 0.253613 0.253613
0.264487 0.264487 0.264487
0.275778 0.275778 0.275778
0.287896 0.287896 0.287896
0.065275 0.065275 0.065275
0.069415 0.069415 0.069415
0.075445 0.075445 0.075445
0.083835 0.083835 0.083835
0.096335 0.096335 0.096335
0.115601 0.115601 0.115601
0.145234 0.145234 0.145234
0.182538 0.182538 0.182538
0.211555 0.211555 0.211555
0.237621 0.237621 0.237621
0.256217 0.256217 0.256217
0.269136 0.269136 0.269136
0.282485 0.282485 0.282485
0.295519 0.295519 0.295519
0.306681 0.306681 0.306681
0.317581 0.317581 0.317581
0.083334 0.083334 0.083334
0.086048 0.086048 0.086048
0.091466 0.091466 0.091466
0.098886 0.098886 0.098886
