site/assets/luts/freshluts--0000936-picturefx-infrared-colorbw-3dl-white-trees-and-blue-sky-at-3.cube
# LUTr-Schema-Version: 2
# LUTr-ID: freshluts--0000936-picturefx-infrared-colorbw-3dl-white-trees-and-blue-sky-at-3
# LUTr-Title: PictureFX Infrared Color/B&W 3DL - white trees and blue sky at 30% up to 70/75%
# LUTr-Collection: Fresh LUTs
# LUTr-Collection-ID: freshluts-community
# LUTr-Source: https://freshluts.com
# LUTr-Retrieved: 2026-07-27
# LUTr-Source-File: submissions-raw/freshluts/cubes/936__PictureFX-Faux-Infrared-Color-B_W-3DL25.cube
# LUTr-Source-Format: CUBE
# LUTr-Source-SHA256: 0637c7935070bfc79bad2bcc3def7293672554450d665f163fd73ec02674ff9d
# LUTr-License: CC0-1.0
# LUTr-License-URL: https://freshluts.com/termsandconditions
# LUTr-License-Basis: site-terms
# LUTr-Transform-Class: creative-look
# LUTr-Tags: creative, freshluts, community, cube, film-emulation, black-and-white, cool, rec709, assumed-input
# LUTr-Input-Color-Space: rec709
# LUTr-Input-Gamut: rec709
# LUTr-Input-Transfer: rec709
# LUTr-Output-Color-Space: srgb
# LUTr-Output-Gamut: rec709
# LUTr-Output-Transfer: srgb
# LUTr-Color-Space-Confidence: assumed-display-referred
# LUTr-Domain-Normalized: true
# LUTr-Shaper: none
# LUTr-Original-Grid: 25x25x25
# LUTr-Conversion-Grid: 25x25x25
# LUTr-Conversion-Interpolation: none
# LUTr-Conversion-Method: Metadata normalization; numeric LUT samples preserved
# LUTr-Conversion-Tool: LUTr scripts/convert-all-to-cube.mjs 2.0.0
# LUTr-Conversion-Date: 2026-07-28
# LUTr-Asset-URL: https://freshluts.com/luts/936
# LUTr-Author: MarcR.
# LUTr-Author-URL: https://freshluts.com/users/86490
# LUTr-Attribution: MarcR. via Fresh LUTs
# LUTr-Source-Labels: gamma=Other; color=None; key=Neutral; style=Film emulation; LUTr assumption=input Rec.709 per repository policy
# LUTr-Duplicate-Assets: 937:https://freshluts.com/luts/937
# LUTr-Conversion-Warning: Input Rec.709 is a LUTr catalog assumption requested for this otherwise unspecified Fresh LUT; it is not verified by the upstream asset.
# LUTr-Note: Preserve this metadata and the upstream license notices when redistributing.
# LUTr-Upstream-Comment: Generated with IWLTBAP LUT Generator
# LUTr-Upstream-Comment: Website: http://luts.iwltbap.com
# LUTr-Upstream-Comment: LUT size
# LUTr-Upstream-Comment: LUT data points
TITLE "PictureFX Infrared Color/B&W 3DL - white trees and blue sky at 30% up to 70/75%"
LUT_3D_SIZE 5
DOMAIN_MIN 0 0 0
DOMAIN_MAX 1 1 1
0 0 0
0.466667 0.466667 0.466667
0.913725 0.913725 0.913725
0.976471 0.976471 0.976471
0.984314 0.984314 0.984314
0.458824 0.458824 0.458824
0.756863 0.756863 0.756863
0.878431 0.878431 0.878431
0.968627 0.968627 0.968627
0.980392 0.980392 0.980392
0.831373 0.831373 0.831373
0.992157 0.992157 0.992157
0.976471 0.976471 0.976471
0.952941 0.952941 0.952941
0.976471 0.976471 0.976471
0.992157 0.992157 0.992157
0.992157 0.992157 0.992157
0.992157 0.992157 0.992157
0.941176 0.941176 0.941176
1 1 1
0.992157 0.992157 0.992157
0.992157 0.992157 0.992157
0.992157 0.992157 0.992157
0.992157 0.992157 0.992157
0.992157 0.992157 0.992157
0.164706 0.164706 0.164706
0.462745 0.462745 0.462745
0.909804 0.909804 0.909804
0.988235 0.988235 0.988235
0.992157 0.992157 0.992157
0.007843 0.007843 0.007843
0.505882 0.505882 0.505882
0.87451 0.87451 0.87451
0.976471 0.976471 0.976471
0.984314 0.984314 0.984314
0.443137 0.443137 0.443137
0.913725 0.913725 0.913725
0.960784 0.960784 0.960784
0.964706 0.964706 0.964706
0.980392 0.980392 0.980392
0.937255 0.937255 0.937255
0.992157 0.992157 0.992157
0.992157 0.992157 0.992157
0.94902 0.94902 0.94902
1 1 1
0.992157 0.992157 0.992157
0.992157 0.992157 0.992157
0.992157 0.992157 0.992157
0.992157 0.992157 0.992157
0.992157 0.992157 0.992157
0.337255 0.337255 0.337255
0.505882 0.505882 0.505882
0.905882 0.905882 0.905882
1 1 1
1 1 1
0.117647 0.117647 0.117647
0.407843 0.407843 0.407843
0.870588 0.870588 0.870588
1 1 1
1 1 1
0.035294 0.035294 0.035294
0.129412 0.129412 0.129412
0.847059 0.847059 0.847059
0.988235 0.988235 0.988235
1 1 1
0.282353 0.282353 0.282353
0.647059 0.647059 0.647059
0.992157 0.992157 0.992157
0.968627 0.968627 0.968627
1 1 1
0.866667 0.866667 0.866667
0.992157 0.992157 0.992157
0.992157 0.992157 0.992157
0.992157 0.992157 0.992157
0.992157 0.992157 0.992157
0.509804 0.509804 0.509804
0.623529 0.623529 0.623529
0.862745 0.862745 0.862745
1 1 1
1 1 1
0.411765 0.411765 0.411765
0.552941 0.552941 0.552941
0.858824 0.858824 0.858824
1 1 1
1 1 1
0.066667 0.066667 0.066667
0.129412 0.129412 0.129412
0.729412 0.729412 0.729412
1 1 1
1 1 1
0.082353 0.082353 0.082353
0.090196 0.090196 0.090196
0.686275 0.686275 0.686275
1 1 1
1 1 1
0.141176 0.141176 0.141176
0.4 0.4 0.4
0.960784 0.960784 0.960784
0.992157 0.992157 0.992157
0.952941 0.952941 0.952941
0.682353 0.682353 0.682353
0.764706 0.764706 0.764706
0.862745 0.862745 0.862745
0.941176 0.941176 0.941176
0.984314 0.984314 0.984314
0.619608 0.619608 0.619608
0.709804 0.709804 0.709804
0.862745 0.862745 0.862745
0.94902 0.94902 0.94902
0.992157 0.992157 0.992157
0.32549 0.32549 0.32549
0.498039 0.498039 0.498039
0.815686 0.815686 0.815686
0.968627 0.968627 0.968627
1 1 1
0.109804 0.109804 0.109804
0.117647 0.117647 0.117647
0.415686 0.415686 0.415686
1 1 1
1 1 1
0.12549 0.12549 0.12549
0.12549 0.12549 0.12549
0.266667 0.266667 0.266667
0.835294 0.835294 0.835294
0.898039 0.898039 0.898039
