site/assets/luts/freshluts--0001979-dinner-party.cube
# LUTr-Schema-Version: 2
# LUTr-ID: freshluts--0001979-dinner-party
# LUTr-Title: Dinner Party
# LUTr-Collection: Fresh LUTs
# LUTr-Collection-ID: freshluts-community
# LUTr-Source: https://freshluts.com
# LUTr-Retrieved: 2026-07-27
# LUTr-Source-File: submissions-raw/freshluts/cubes/1979__Dinner_Party.cube
# LUTr-Source-Format: CUBE
# LUTr-Source-SHA256: 788e87f03f050df465350e62ff9d83605625a7cb4d8dc3860aa7d10fab5b0a65
# LUTr-License: CC0-1.0
# LUTr-License-URL: https://freshluts.com/termsandconditions
# LUTr-License-Basis: site-terms
# LUTr-Transform-Class: creative-look
# LUTr-Tags: creative, freshluts, community, cube, teal, low-key, red-logfilm
# LUTr-Input-Color-Space:
# LUTr-Input-Gamut: red-wide-gamut-rgb
# LUTr-Input-Transfer: red-logfilm
# LUTr-Output-Color-Space: srgb
# LUTr-Output-Gamut: rec709
# LUTr-Output-Transfer: srgb
# LUTr-Color-Space-Confidence: camera-profile-input-required
# LUTr-Domain-Normalized: true
# LUTr-Shaper: none
# LUTr-Original-Grid: 16x16x16
# LUTr-Conversion-Grid: 16x16x16
# LUTr-Conversion-Interpolation: none
# LUTr-Conversion-Method: Metadata normalization; numeric LUT samples preserved
# LUTr-Conversion-Tool: LUTr scripts/convert-all-to-cube.mjs 2.0.0
# LUTr-Conversion-Date: 2026-07-28
# LUTr-Asset-URL: https://freshluts.com/luts/1979
# LUTr-Author: InAvision
# LUTr-Author-URL: https://freshluts.com/users/64078
# LUTr-Attribution: InAvision via Fresh LUTs
# LUTr-Source-Labels: gamma=RED Log Film; color=Teal; key=Low Key; style=Drama
# LUTr-Note: Preserve this metadata and the upstream license notices when redistributing.
TITLE "Dinner Party"
LUT_3D_SIZE 16
DOMAIN_MIN 0 0 0
DOMAIN_MAX 1 1 1
0 0 0
0.00945 0 0
0.035004 0 0
0.080266 0 0
0.147581 0 0
0.222596 0 0
0.295219 0 0
0.364217 0 0
0.428287 0 0
0.486546 0 0
0.542878 0 0
0.602412 0 0
0.669524 0 0
0.749023 0 0
0.84401 0 0
0.947092 0 0
0 0.012043 0
0.00945 0.012043 0
0.035004 0.013442 0
0.080266 0.015201 0
0.147581 0.016839 0
0.222596 0.018209 0
0.295219 0.019242 0
0.364217 0.019883 0
0.428287 0.020108 0
0.486546 0.019986 0
0.542878 0.019826 0
0.602412 0.019889 0
0.669524 0.020367 0
0.749023 0.021394 0
0.84401 0.023065 0
0.947092 0.025067 0
0 0.044255 0
0.010553 0.044255 0
0.035004 0.044255 0
0.080266 0.050061 0
0.147581 0.055448 0
0.222596 0.059971 0
0.295219 0.063354 0
0.364217 0.065477 0
0.428287 0.066234 0
0.486546 0.065826 0
0.542878 0.065286 0
0.602412 0.065494 0
0.669524 0.067069 0
0.749023 0.070458 0
0.84401 0.075966 0
0.947092 0.082549 0
0 0.100517 0
0.011941 0.100517 0
0.03964 0.100517 0
0.080266 0.100517 0
0.147581 0.111339 0
0.222596 0.120421 0
0.295219 0.127256 0
0.364217 0.131488 0
0.428287 0.133008 0
0.486546 0.132184 0
0.542878 0.131124 0
0.602412 0.13156 0
0.669524 0.134655 0
0.749023 0.141318 0
0.84401 0.151806 0
0.947092 0.163793 0
0 0.178363 0
0.013232 0.178363 0
0.04394 0.178363 0
0.089072 0.178363 0
0.147581 0.178363 0
0.222596 0.190666 0
0.295219 0.199629 0
0.364217 0.205042 0
0.428287 0.206978 0
0.486546 0.205921 0
0.542878 0.20457 0
0.602412 0.205112 0
0.669524 0.2091 0
0.749023 0.217524 0
0.84401 0.230818 0
0.947092 0.246056 0
0 0.258248 0
0.014319 0.258248 0
0.047567 0.258248 0
0.096475 0.258248 0
0.159234 0.258248 0
0.222596 0.258248 0
0.295219 0.269081 0
0.364217 0.275622 0
0.428287 0.277938 0
0.486546 0.276684 0
0.542878 0.275022 0
0.602412 0.2757 0
0.669524 0.280533 0
0.749023 0.290686 0
0.84401 0.306745 0
0.947092 0.325179 0
0 0.33646 0
0.015131 0.33646 0
0.050282 0.33646 0
0.102055 0.33646 0
0.167707 0.33646 0
0.232663 0.33646 0
0.295219 0.33646 0
0.364217 0.344143 0
0.428287 0.346869 0
0.486546 0.345404 0
0.542878 0.343449 0
0.602412 0.344233 0
0.669524 0.349823 0
0.749023 0.361775 0
0.84401 0.380618 0
0.947092 0.402196 0
0 0.411085 0
0.015639 0.411085 0
0.051975 0.411085 0
0.105517 0.411085 0
0.172795 0.411085 0
0.238746 0.411085 0
0.3023 0.411085 0
0.364217 0.411085 0
0.428287 0.41424 0
0.486546 0.412583 0
0.542878 0.410317 0
0.602412 0.411163 0
0.669524 0.41761 0
0.749023 0.431259 0
0.84401 0.452733 0
0.947092 0.477406 0
0 0.480361 0
0.015824 0.480361 0
0.052591 0.480361 0
0.106783 0.480361 0
0.174593 0.480361 0
0.240926 0.480361 0
0.304879 0.480361 0
0.367161 0.480361 0
0.428287 0.480361 0
0.486546 0.478456 0
0.542878 0.475966 0
0.602412 0.476921 0
0.669524 0.484192 0
0.749023 0.499487 0
0.84401 0.523678 0
0.947092 0.551423 0
0 0.543367 0
0.015723 0.543367 0
0.052266 0.543367 0
0.106102 0.543367 0
0.173657 0.543367 0
0.239757 0.543367 0
0.303469 0.543367 0
0.365627 0.543367 0
0.426532 0.543367 0
0.486546 0.543367 0
0.542878 0.540585 0
0.602412 0.541682 0
0.669524 0.54966 0
0.749023 0.566662 0
0.84401 0.593484 0
0.947092 0.624274 0
0 0.604271 0
0.015595 0.604271 0
0.051824 0.604271 0
0.105229 0.604271 0
0.172354 0.604271 0
0.238249 0.604271 0
0.301714 0.604271 0
0.363565 0.604271 0
0.424209 0.604271 0
0.48397 0.604271 0
0.542878 0.604271 0
0.602412 0.605488 0
0.669524 0.614283 0
0.749023 0.632895 0
0.84401 0.662271 0
0.947092 0.696073 0
0 0.668684 0
0.015643 0.668684 0
0.051998 0.668684 0
0.105572 0.668684 0
0.172868 0.668684 0
0.238833 0.668684 0
0.302438 0.668684 0
0.364377 0.668684 0
0.425117 0.668684 0
0.484985 0.668684 0
0.544003 0.668684 0
0.602412 0.668684 0
0.669524 0.678087 0
0.749023 0.698454 0
0.84401 0.730449 0
0.947092 0.767149 0
0 0.741169 0
0.016024 0.741169 0
0.053267 0.741169 0
0.108141 0.741169 0
0.176597 0.741169 0
0.243318 0.741169 0
0.307602 0.741169 0
0.37023 0.741169 0
0.431818 0.741169 0
0.492368 0.741169 0
0.552114 0.741169 0
0.611225 0.741169 0
0.669524 0.741169 0
0.749023 0.763029 0
0.84401 0.797679 0
0.947092 0.837302 0
0 0.8273 0
0.016838 0.8273 0
0.055983 0.8273 0
0.113731 0.8273 0
0.184509 0.8273 0
0.252756 0.8273 0
0.318621 0.8273 0
0.382888 0.8273 0
0.445987 0.8273 0
0.508071 0.8273 0
0.569342 0.8273 0
0.629942 0.8273 0
0.689745 0.8273 0
0.749023 0.8273 0
0.84401 0.86445 0
0.947092 0.906974 0
0 0.929512 0
0.018161 0.929512 0
0.060424 0.929512 0
0.122853 0.929512 0
0.196997 0.929512 0
0.267684 0.929512 0
0.336073 0.929512 0
0.402727 0.929512 0
0.468323 0.929512 0
0.532894 0.929512 0
0.596527 0.929512 0
0.659516 0.929512 0
0.721687 0.929512 0
0.783367 0.929512 0
0.84401 0.929512 0
0.947092 0.967067 0
0 1.000034 0
0.019745 1.000034 0
0.065724 1.000034 0
0.133796 1.000034 0
0.211226 1.000034 0
0.284803 1.000034 0
0.356071 1.000034 0
0.425584 1.000034 0
0.493957 1.000034 0
0.561367 1.000034 0
0.627799 1.000034 0
0.693484 1.000034 0
0.758365 1.000034 0
0.822488 1.000034 0
0.885738 1.000034 0
0.947092 1.000034 0
0 0 0.015283
0.00945 0 0.015283
0.035004 0 0.016961
0.080266 0 0.019058
0.147581 0 0.021001
0.222596 0 0.022615
0.295219 0 0.023832
0.364217 0 0.024582
0.428287 0 0.024847
0.486546 0 0.024705
0.542878 0 0.024515
0.602412 0 0.02459
0.669524 0 0.02515
0.749023 0 0.026349
0.84401 0 0.028298
0.947092 0 0.03062
0 0.012043 0.015283
0.00945 0.012043 0.015283
0.035004 0.012043 0.015283
0.080266 0.012043 0.015283
0.147581 0.012043 0.015283
0.222596 0.012043 0.015283
0.295219 0.012043 0.015283
0.364217 0.012043 0.015283
0.428287 0.012043 0.015283
0.486546 0.012043 0.015283
0.542878 0.012043 0.015283
0.602412 0.012043 0.015283
0.669524 0.012043 0.015283
0.749023 0.012043 0.015283
0.84401 0.012043 0.015283
0.947092 0.012043 0.015283
0 0.044255 0.016961
0.00945 0.044255 0.015283
0.035004 0.044255 0.015283
0.080266 0.048787 0.015283
0.147581 0.053062 0.015283
0.222596 0.056687 0.015283
0.295219 0.059428 0.015283
0.364217 0.061119 0.015283
0.428287 0.061709 0.015283
0.486546 0.061331 0.015283
0.542878 0.06086 0.015283
0.602412 0.061016 0.015283
0.669524 0.062312 0.015283
0.749023 0.065145 0.015283
0.84401 0.069766 0.015283
0.947092 0.075281 0.015283
0 0.100517 0.019058
0.00945 0.100517 0.015283
0.038624 0.100517 0.015283
0.080266 0.100517 0.015283
0.147581 0.11023 0.015283
0.222596 0.118457 0.015283
0.295219 0.12467 0.015283
0.364217 0.128468 0.015283
0.428287 0.129798 0.015283
0.486546 0.12896 0.015283
0.542878 0.127896 0.015283
0.602412 0.12825 0.015283
0.669524 0.131195 0.015283
0.749023 0.137538 0.015283
0.84401 0.147523 0.015283
0.947092 0.158957 0.015283
0 0.178363 0.021001
0.00945 0.178363 0.015283
0.042033 0.178363 0.015283
0.088175 0.178363 0.015283
0.147581 0.178363 0.015283
0.222596 0.1899 0.015283
0.295219 0.198311 0.015283
0.364217 0.203391 0.015283
0.428287 0.20516 0.015283
0.486546 0.204046 0.015283
0.542878 0.202629 0.015283
0.602412 0.203114 0.015283
0.669524 0.206964 0.015283
0.749023 0.215192 0.015283
0.84401 0.22816 0.015283
0.947092 0.243075 0.015283
0 0.258248 0.022615
0.00945 0.258248 0.015283
0.044934 0.258248 0.015283
0.094885 0.258248 0.015283
0.158503 0.258248 0.015283
0.222596 0.258248 0.015283
0.295219 0.268573 0.015283
0.364217 0.274745 0.015283
0.428287 0.276875 0.015283
0.486546 0.275521 0.015283
0.542878 0.273793 0.015283
0.602412 0.274384 0.015283
0.669524 0.279117 0.015283
0.749023 0.289101 0.015283
0.84401 0.304964 0.015283
0.947092 0.323167 0.015283
0 0.33646 0.023832
0.00945 0.33646 0.015283
0.047137 0.33646 0.015283
0.099944 0.33646 0.015283
0.166436 0.33646 0.015283
0.232202 0.33646 0.015283
0.295219 0.33646 0.015283
0.364217 0.343775 0.015283
0.428287 0.346236 0.015283
0.486546 0.34468 0.015283
0.542878 0.342614 0.015283
0.602412 0.343332 0.015283
0.669524 0.348849 0.015283
0.749023 0.360617 0.015283
0.84401 0.379272 0.015283
0.947092 0.400717 0.015283
0 0.411085 0.024582
0.00945 0.411085 0.015283
0.048482 0.411085 0.015283
0.103069 0.411085 0.015283
0.171261 0.411085 0.015283
0.237957 0.411085 0.015283
0.301971 0.411085 0.015283
0.364217 0.411085 0.015283
0.428287 0.413918 0.015283
0.486546 0.412147 0.015283
0.542878 0.409823 0.015283
0.602412 0.41063 0.015283
0.669524 0.416928 0.015283
0.749023 0.430457 0.015283
0.84401 0.451825 0.015283
0.947092 0.476381 0.015283
0 0.480361 0.024847
0.00945 0.480361 0.015283
0.048957 0.480361 0.015283
0.10413 0.480361 0.015283
0.172905 0.480361 0.015283
0.239936 0.480361 0.015283
0.304278 0.480361 0.015283
0.366876 0.480361 0.015283
0.428287 0.480361 0.015283
0.486546 0.478265 0.015283
0.542878 0.475655 0.015283
0.602412 0.476569 0.015283
0.669524 0.483688 0.015283
0.749023 0.498907 0.015283
0.84401 0.523007 0.015283
0.947092 0.550571 0.015283
0 0.543367 0.024705
0.00945 0.543367 0.015283
0.048663 0.543367 0.015283
0.103467 0.543367 0.015283
0.171836 0.543367 0.015283
0.238684 0.543367 0.015283
0.30284 0.543367 0.015283
0.365168 0.543367 0.015283
0.426376 0.543367 0.015283
0.486546 0.543367 0.015283
0.542878 0.540477 0.015283
0.602412 0.541469 0.015283
0.669524 0.549353 0.015283
0.749023 0.566182 0.015283
0.84401 0.592961 0.015283
0.947092 0.623602 0.015283
0 0.604271 0.024515
0.00945 0.604271 0.015283
0.048274 0.604271 0.015283
0.102592 0.604271 0.015283
0.170547 0.604271 0.015283
0.237064 0.604271 0.015283
0.300902 0.604271 0.015283
0.363054 0.604271 0.015283
0.423947 0.604271 0.015283
0.483838 0.604271 0.015283
0.542878 0.604271 0.015283
0.602412 0.605387 0.015283
0.669524 0.614068 0.015283
0.749023 0.632584 0.015283
0.84401 0.661897 0.015283
0.947092 0.695583 0.015283
0 0.668684 0.02459
0.00945 0.668684 0.015283
0.0484 0.668684 0.015283
0.102888 0.668684 0.015283
0.170999 0.668684 0.015283
0.237604 0.668684 0.015283
0.30156 0.668684 0.015283
0.36379 0.668684 0.015283
0.424774 0.668684 0.015283
0.484755 0.668684 0.015283
0.543904 0.668684 0.015283
0.602412 0.668684 0.015283
0.669524 0.678004 0.015283
0.749023 0.698225 0.015283
0.84401 0.730181 0.015283
0.947092 0.766728 0.015283
0 0.741169 0.02515
0.00945 0.741169 0.015283
0.049448 0.741169 0.015283
0.10529 0.741169 0.015283
0.174595 0.741169 0.015283
0.241988 0.741169 0.015283
0.306715 0.741169 0.015283
0.369674 0.741169 0.015283
0.431361 0.741169 0.015283
0.492068 0.741169 0.015283
0.551932 0.741169 0.015283
0.611185 0.741169 0.015283
0.669524 0.741169 0.015283
0.749023 0.762869 0.015283
0.84401 0.797451 0.015283
0.947092 0.837035 0.015283
0 0.8273 0.026349
0.00945 0.8273 0.015283
0.051718 0.8273 0.015283
0.110513 0.8273 0.015283
0.182334 0.8273 0.015283
0.251303 0.8273 0.015283
0.317566 0.8273 0.015283
0.382166 0.8273 0.015283
0.445422 0.8273 0.015283
0.507661 0.8273 0.015283
0.569088 0.8273 0.015283
0.62972 0.8273 0.015283
0.689722 0.8273 0.015283
0.749023 0.8273 0.015283
0.84401 0.86435 0.015283
0.947092 0.906809 0.015283
0 0.929512 0.028298
0.00945 0.929512 0.015283
0.055433 0.929512 0.015283
0.119058 0.929512 0.015283
0.19449 0.929512 0.015283
0.266024 0.929512 0.015283
0.334854 0.929512 0.015283
0.401907 0.929512 0.015283
0.467676 0.929512 0.015283
0.532427 0.929512 0.015283
0.596212 0.929512 0.015283
0.65937 0.929512 0.015283
0.721605 0.929512 0.015283
0.78324 0.929512 0.015283
0.84401 0.929512 0.015283
0.947092 0.967113 0.015283
0 1.000034 0.03062
0.00945 1.000034 0.015283
0.059869 1.000034 0.015283
0.129314 1.000034 0.015283
0.208442 1.000034 0.015283
0.282909 1.000034 0.015283
0.354702 1.000034 0.015283
0.42458 1.000034 0.015283
0.4932 1.000034 0.015283
0.560726 1.000034 0.015283
0.627263 1.000034 0.015283
0.693215 1.000034 0.015283
0.758047 1.000034 0.015283
0.822444 1.000034 0.015283
0.885785 1.000034 0.015283
0.947092 1.000034 0.015283
0 0 0.052486
0.010553 0 0.052486
0.035004 0 0.052486
0.080266 0 0.058993
0.147581 0 0.064995
0.222596 0 0.070008
0.295219 0 0.073753
0.364217 0 0.076089
0.428287 0 0.076921
0.486546 0 0.076477
0.542878 0 0.07588
0.602412 0 0.076108
0.669524 0 0.077842
0.749023 0 0.081573
0.84401 0 0.087605
0.947092 0 0.094778
0 0.013442 0.052486
0.00945 0.012043 0.052486
0.035004 0.012043 0.052486
0.080266 0.012043 0.057572
0.147581 0.012043 0.062342
0.222596 0.012043 0.066371
0.295219 0.012043 0.069412
0.364217 0.012043 0.071284
0.428287 0.012043 0.071935
0.486546 0.012043 0.071514
0.542878 0.012043 0.070996
0.602412 0.012043 0.071168
0.669524 0.012043 0.072604
0.749023 0.012043 0.075726
0.84401 0.012043 0.080808
0.947092 0.012043 0.086853
0 0.044255 0.052486
0.00945 0.044255 0.052486
0.035004 0.044255 0.052486
0.080266 0.044255 0.052486
0.147581 0.044255 0.052486
0.222596 0.044255 0.052486
0.295219 0.044255 0.052486
0.364217 0.044255 0.052486
0.428287 0.044255 0.052486
0.486546 0.044255 0.052486
0.542878 0.044255 0.052486
0.602412 0.044255 0.052486
0.669524 0.044255 0.052486
0.749023 0.044255 0.052486
0.84401 0.044255 0.052486
0.947092 0.044255 0.052486
0 0.100517 0.058993
0.00945 0.100517 0.057572
0.035004 0.100517 0.052486
0.080266 0.100517 0.052486
0.147581 0.106294 0.052486
0.222596 0.111327 0.052486
0.295219 0.115148 0.052486
0.364217 0.117474 0.052486
0.428287 0.118109 0.052486
0.486546 0.117315 0.052486
0.542878 0.116444 0.052486
0.602412 0.116584 0.052486
0.669524 0.118593 0.052486
0.749023 0.123062 0.052486
0.84401 0.13036 0.052486
0.947092 0.13904 0.052486
0 0.178363 0.064995
0.00945 0.178363 0.062342
0.035004 0.178363 0.052486
0.084957 0.178363 0.052486
0.147581 0.178363 0.052486
0.222596 0.187136 0.052486
0.295219 0.19362 0.052486
0.364217 0.197442 0.052486
0.428287 0.198537 0.052486
0.486546 0.197226 0.052486
0.542878 0.195732 0.052486
0.602412 0.19605 0.052486
0.669524 0.199336 0.052486
0.749023 0.206535 0.052486
0.84401 0.21802 0.052486
0.947092 0.231264 0.052486
0 0.258248 0.070008
0.00945 0.258248 0.066371
0.035004 0.258248 0.052486
0.089061 0.258248 0.052486
0.155909 0.258248 0.052486
0.222596 0.258248 0.052486
0.295219 0.266679 0.052486
0.364217 0.27164 0.052486
0.428287 0.273005 0.052486
0.486546 0.271346 0.052486
0.542878 0.269444 0.052486
0.602412 0.269775 0.052486
0.669524 0.274051 0.052486
0.749023 0.283335 0.052486
0.84401 0.298167 0.052486
0.947092 0.315205 0.052486
0 0.33646 0.073753
0.00945 0.33646 0.069412
0.035004 0.33646 0.052486
0.092191 0.33646 0.052486
0.16205 0.33646 0.052486
0.230453 0.33646 0.052486
0.295219 0.33646 0.052486
0.364217 0.342443 0.052486
0.428287 0.344153 0.052486
0.486546 0.342084 0.052486
0.542878 0.339748 0.052486
0.602412 0.340205 0.052486
0.669524 0.345354 0.052486
0.749023 0.356619 0.052486
0.84401 0.374429 0.052486
0.947092 0.39496 0.052486
0 0.411085 0.076089
0.00945 0.411085 0.071284
0.035004 0.411085 0.052486
0.094055 0.411085 0.052486
0.165652 0.411085 0.052486
0.235058 0.411085 0.052486
0.300757 0.411085 0.052486
0.364217 0.411085 0.052486
0.428287 0.41303 0.052486
0.486546 0.410705 0.052486
0.542878 0.407947 0.052486
0.602412 0.408426 0.052486
0.669524 0.414494 0.052486
0.749023 0.427504 0.052486
0.84401 0.448286 0.052486
0.947092 0.472101 0.052486
0 0.480361 0.076921
0.00945 0.480361 0.071935
0.035004 0.480361 0.052486
0.094584 0.480361 0.052486
0.166655 0.480361 0.052486
0.236347 0.480361 0.052486
0.302312 0.480361 0.052486
0.366097 0.480361 0.052486
0.428287 0.480361 0.052486
0.486546 0.477618 0.052486
0.542878 0.474581 0.052486
0.602412 0.475138 0.052486
0.669524 0.481973 0.052486
0.749023 0.496787 0.052486
0.84401 0.520352 0.052486
0.947092 0.547393 0.052486
0 0.543367 0.076477
0.00945 0.543367 0.071514
0.035004 0.543367 0.052486
0.093948 0.543367 0.052486
0.165417 0.543367 0.052486
0.234771 0.543367 0.052486
0.300433 0.543367 0.052486
0.363826 0.543367 0.052486
0.425761 0.543367 0.052486
0.486546 0.543367 0.052486
0.542878 0.539959 0.052486
0.602412 0.540577 0.052486
0.669524 0.54824 0.052486
0.749023 0.564774 0.052486
0.84401 0.591015 0.052486
0.947092 0.6212 0.052486
0 0.604271 0.07588
0.00945 0.604271 0.070996
0.035004 0.604271 0.052486
0.093223 0.604271 0.052486
0.164014 0.604271 0.052486
0.233018 0.604271 0.052486
0.298283 0.604271 0.052486
0.361365 0.604271 0.052486
0.422923 0.604271 0.052486
0.483367 0.604271 0.052486
0.542878 0.604271 0.052486
0.602412 0.604973 0.052486
0.669524 0.613382 0.052486
0.749023 0.631586 0.052486
0.84401 0.66052 0.052486
0.947092 0.693778 0.052486
0 0.668684 0.076108
0.00945 0.668684 0.071168
0.035004 0.668684 0.052486
0.093361 0.668684 0.052486
0.164295 0.668684 0.052486
0.233302 0.668684 0.052486
0.298676 0.668684 0.052486
0.361803 0.668684 0.052486
0.42347 0.668684 0.052486
0.483956 0.668684 0.052486
0.543534 0.668684 0.052486
0.602412 0.668684 0.052486
0.669524 0.677704 0.052486
0.749023 0.697655 0.052486
0.84401 0.729184 0.052486
0.947092 0.765396 0.052486
0 0.741169 0.077842
0.00945 0.741169 0.072604
0.035004 0.741169 0.052486
0.095003 0.741169 0.052486
0.16741 0.741169 0.052486
0.23731 0.741169 0.052486
0.303468 0.741169 0.052486
0.367371 0.741169 0.052486
0.429795 0.741169 0.052486
0.491014 0.741169 0.052486
0.5513 0.741169 0.052486
0.610839 0.741169 0.052486
0.669524 0.741169 0.052486
0.749023 0.762784 0.052486
0.84401 0.796864 0.052486
0.947092 0.836104 0.052486
0 0.8273 0.081573
0.00945 0.8273 0.075726
0.035004 0.8273 0.052486
0.098615 0.8273 0.052486
0.174183 0.8273 0.052486
0.245955 0.8273 0.052486
0.313889 0.8273 0.052486
0.379446 0.8273 0.052486
0.443448 0.8273 0.052486
0.506303 0.8273 0.052486
0.568123 0.8273 0.052486
0.629267 0.8273 0.052486
0.689447 0.8273 0.052486
0.749023 0.8273 0.052486
0.84401 0.864021 0.052486
0.947092 0.906257 0.052486
0 0.929512 0.087605
0.00945 0.929512 0.080808
0.035004 0.929512 0.052486
0.104608 0.929512 0.052486
0.184971 0.929512 0.052486
0.259716 0.929512 0.052486
0.330365 0.929512 0.052486
0.398671 0.929512 0.052486
0.465256 0.929512 0.052486
0.530564 0.929512 0.052486
0.594924 0.929512 0.052486
0.658373 0.929512 0.052486
0.720973 0.929512 0.052486
0.782967 0.929512 0.052486
0.84401 0.929512 0.052486
0.947092 0.966981 0.052486
0 1.000034 0.094778
0.00945 1.000034 0.086853
0.035004 1.000034 0.052486
0.111801 1.000034 0.052486
0.197397 1.000034 0.052486
0.275517 1.000034 0.052486
0.349346 1.000034 0.052486
0.420658 1.000034 0.052486
0.490234 1.000034 0.052486
0.558481 1.000034 0.052486
0.62563 1.000034 0.052486
0.691882 1.000034 0.052486
0.757203 1.000034 0.052486
0.821805 1.000034 0.052486
0.885505 1.000034 0.052486
0.947092 1.000034 0.052486
0 0 0.114229
0.011941 0 0.114229
0.03964 0 0.114229
0.080266 0 0.114229
0.147581 0 0.125869
0.222596 0 0.13557
0.295219 0 0.142857
0.364217 0 0.147358
0.428287 0 0.148979
0.486546 0 0.148095
0.542878 0 0.146979
0.602412 0 0.147438
0.669524 0 0.150725
0.749023 0 0.157777
0.84401 0 0.168865
0.947092 0 0.181473
0 0.015201 0.114229
0.00945 0.012043 0.114229
0.038624 0.012043 0.114229
0.080266 0.012043 0.114229
0.147581 0.012043 0.124679
0.222596 0.012043 0.133483
0.295219 0.012043 0.140105
0.364217 0.012043 0.144157
0.428287 0.012043 0.145571
0.486546 0.012043 0.144673
0.542878 0.012043 0.143544
0.602412 0.012043 0.143923
0.669524 0.012043 0.147058
0.749023 0.012043 0.153785
0.84401 0.012043 0.164345
0.947092 0.012043 0.176413
0 0.050061 0.114229
0.00945 0.048787 0.114229
0.035004 0.044255 0.114229
0.080266 0.044255 0.114229
0.147581 0.044255 0.120449
0.222596 0.044255 0.125855
0.295219 0.044255 0.12995
0.364217 0.044255 0.132437
0.428287 0.044255 0.133111
0.486546 0.044255 0.132255
0.542878 0.044255 0.131322
0.602412 0.044255 0.131483
0.669524 0.044255 0.133625
0.749023 0.044255 0.138393
0.84401 0.044255 0.146167
0.947092 0.044255 0.155372
0 0.100517 0.114229
0.00945 0.100517 0.114229
0.035004 0.100517 0.114229
0.080266 0.100517 0.114229
0.147581 0.100517 0.114229
0.222596 0.100517 0.114229
0.295219 0.100517 0.114229
0.364217 0.100517 0.114229
0.428287 0.100517 0.114229
0.486546 0.100517 0.114229
0.542878 0.100517 0.114229
0.602412 0.100517 0.114229
0.669524 0.100517 0.114229
0.749023 0.100517 0.114229
0.84401 0.100517 0.114229
0.947092 0.100517 0.114229
0 0.178363 0.125869
0.00945 0.178363 0.124679
0.035004 0.178363 0.120449
0.080266 0.178363 0.114229
0.147581 0.178363 0.114229
0.222596 0.182991 0.114229
0.295219 0.186472 0.114229
0.364217 0.188361 0.114229
0.428287 0.188576 0.114229
0.486546 0.187372 0.114229
0.542878 0.186176 0.114229
0.602412 0.186222 0.114229
0.669524 0.188376 0.114229
0.749023 0.193123 0.114229
0.84401 0.200851 0.114229
0.947092 0.209919 0.114229
0 0.258248 0.13557
0.00945 0.258248 0.133483
0.035004 0.258248 0.125855
0.080266 0.258248 0.114229
0.151968 0.258248 0.114229
0.222596 0.258248 0.114229
0.295219 0.263872 0.114229
0.364217 0.266962 0.114229
0.428287 0.267409 0.114229
0.486546 0.265412 0.114229
0.542878 0.263458 0.114229
0.602412 0.263536 0.114229
0.669524 0.266976 0.114229
0.749023 0.274686 0.114229
0.84401 0.287015 0.114229
0.947092 0.301396 0.114229
0 0.33646 0.142857
0.00945 0.33646 0.140105
0.035004 0.33646 0.12995
0.080266 0.33646 0.114229
0.155265 0.33646 0.114229
0.227843 0.33646 0.114229
0.295219 0.33646 0.114229
0.364217 0.340531 0.114229
0.428287 0.341047 0.114229
0.486546 0.338487 0.114229
0.542878 0.335925 0.114229
0.602412 0.336049 0.114229
0.669524 0.340541 0.114229
0.749023 0.350584 0.114229
0.84401 0.366667 0.114229
0.947092 0.385303 0.114229
0 0.411085 0.147358
0.00945 0.411085 0.144157
0.035004 0.411085 0.132437
0.080266 0.411085 0.114229
0.157039 0.411085 0.114229
0.230728 0.411085 0.114229
0.298969 0.411085 0.114229
0.364217 0.411085 0.114229
0.428287 0.411661 0.114229
0.486546 0.408525 0.114229
0.542878 0.405502 0.114229
0.602412 0.405695 0.114229
0.669524 0.411138 0.114229
0.749023 0.423233 0.114229
0.84401 0.442601 0.114229
0.947092 0.464977 0.114229
0 0.480361 0.148979
0.00945 0.480361 0.145571
0.035004 0.480361 0.133111
0.080266 0.480361 0.114229
