site/assets/luts/freshluts--0002098-double-coconut.cube
# LUTr-Schema-Version: 2
# LUTr-ID: freshluts--0002098-double-coconut
# LUTr-Title: Double Coconut
# LUTr-Collection: Fresh LUTs
# LUTr-Collection-ID: freshluts-community
# LUTr-Source: https://freshluts.com
# LUTr-Retrieved: 2026-07-27
# LUTr-Source-File: submissions-raw/freshluts/cubes/2098__Coconut.cube
# LUTr-Source-Format: CUBE
# LUTr-Source-SHA256: 96199134fa0e4a279cdf6a528cfa16847f69b70561a5653a8b89deeb7534c6c9
# LUTr-License: CC0-1.0
# LUTr-License-URL: https://freshluts.com/termsandconditions
# LUTr-License-Basis: site-terms
# LUTr-Transform-Class: creative-look
# LUTr-Tags: creative, freshluts, community, cube, green, high-key, bmd-film-4k
# LUTr-Input-Color-Space: bmd-film-4k
# LUTr-Input-Gamut: bmd-film-gamut
# LUTr-Input-Transfer: bmd-film-4k
# LUTr-Output-Color-Space: srgb
# LUTr-Output-Gamut: rec709
# LUTr-Output-Transfer: srgb
# LUTr-Color-Space-Confidence: inferred-from-source-label
# LUTr-Domain-Normalized: true
# LUTr-Shaper: none
# LUTr-Original-Grid: 16x16x16
# LUTr-Conversion-Grid: 16x16x16
# LUTr-Conversion-Interpolation: none
# LUTr-Conversion-Method: Metadata normalization; numeric LUT samples preserved
# LUTr-Conversion-Tool: LUTr scripts/convert-all-to-cube.mjs 2.0.0
# LUTr-Conversion-Date: 2026-07-28
# LUTr-Asset-URL: https://freshluts.com/luts/2098
# LUTr-Author: Gina
# LUTr-Author-URL: https://freshluts.com/users/90727
# LUTr-Attribution: Gina via Fresh LUTs
# LUTr-Source-Labels: gamma=Blackmagic BMD Film 4K; color=Green; key=High Key; style=color change
# LUTr-Note: Preserve this metadata and the upstream license notices when redistributing.
TITLE "Double Coconut"
LUT_3D_SIZE 16
DOMAIN_MIN 0 0 0
DOMAIN_MAX 1 1 1
0.023529 0.023529 0.023529
0.050981 0.024313 0.023529
0.101176 0.027451 0.025882
0.152941 0.02902 0.029804
0.221176 0.012549 0.021177
0.298039 0 0.019608
0.393725 0.000784 0.020392
0.497255 0.001569 0.012549
0.595294 0.002353 0.01098
0.68549 0.003922 0
0.768627 0 0.007843
0.847059 0.000784 0
0.915294 0 0
0.988235 0 0
0.996078 0 0
1 0.003922 0.003922
0.022745 0.052549 0.023529
0.047372 0.056314 0.029961
0.098824 0.056784 0.020706
0.158432 0.053804 0.025725
0.227451 0.042981 0.024
0.309804 0.021961 0.023529
0.397961 0.000628 0.013333
0.498667 0 0.016
0.594353 0.000471 0.006118
0.688941 0.000784 0.000157
0.772549 0 0
0.850353 0.003138 0.004392
0.922667 0.000314 0.003294
0.981961 0.000784 0.001255
0.996078 0 0
0.996078 0 0
0.016471 0.088627 0.039216
0.040785 0.090196 0.036863
0.088627 0.093961 0.037804
0.161725 0.095686 0.027451
0.238118 0.09302 0.026667
0.326275 0.076863 0.020392
0.414902 0.063216 0.013804
0.510902 0.01898 0.007687
0.604549 0.000628 0.004549
0.692863 0 0.000627
0.784314 0.002353 0.001569
0.854588 0 0.003294
0.926275 0.000628 0.002981
0.987294 0.001883 0.005333
0.996862 0.007059 0.002981
0.999976 0.076674 0.008589
0.01098 0.137255 0.046274
0.034981 0.134431 0.051608
0.084706 0.136 0.048
0.149176 0.148235 0.044706
0.237804 0.151686 0.03498
0.337255 0.151372 0.01098
0.430745 0.147451 0.004392
0.526117 0.132549 0
0.614118 0.118431 0.003294
0.705255 0.100392 0
0.786667 0.094902 0.003922
0.860392 0.087843 0.002353
0.921098 0.101961 0
0.992 0.123921 0.000941
0.998431 0.156392 0.001883
0.996117 0.188941 0.001553
0 0.192157 0.05804
0.01553 0.184314 0.05851
0.066824 0.18902 0.061647
0.129725 0.2 0.05098
0.227608 0.210824 0.04502
0.326274 0.220392 0.032941
0.437961 0.224784 0.000628
0.538667 0.225883 0.004079
0.631373 0.225569 0
0.716863 0.222431 0.002039
0.792157 0.221961 0
0.865725 0.222118 0.00251
0.931294 0.227451 0.001882
0.990274 0.243921 0
1 0.258039 0.004392
0.998447 0.281506 0.006243
0 0.247059 0.062745
0.003922 0.247059 0.062745
0.054118 0.243137 0.065098
0.129412 0.249412 0.062745
0.207843 0.265883 0.058824
0.309804 0.286275 0.043137
0.418824 0.29098 0.036079
0.547451 0.311372 0
0.64 0.317647 0
0.734118 0.32549 0.000784
0.803922 0.32549 0
0.875294 0.333333 0
0.935686 0.33098 0
0.989804 0.345882 0
0.996078 0.34902 0
0.999961 0.364667 0
0 0.320784 0.078431
0 0.313569 0.080784
0.022274 0.313726 0.077804
0.106666 0.316862 0.086745
0.198589 0.325334 0.080784
0.298824 0.352941 0.073726
0.406431 0.370667 0.053647
0.521255 0.379294 0.050667
0.636079 0.4 0.005334
0.730196 0.41302 0
0.811765 0.419608 0
0.883137 0.425569 0.003138
0.934588 0.428235 0.000627
0.993411 0.437176 0.004392
0.996862 0.438431 0
0.999223 0.447019 0
0.002353 0.386666 0.090196
0.000314 0.384157 0.093333
0.003137 0.380549 0.094118
0.102118 0.374902 0.101961
0.182118 0.384627 0.10102
0.27451 0.407059 0.095686
0.374902 0.431059 0.086275
0.497255 0.457726 0.06949
0.604863 0.470745 0.074353
0.716236 0.489098 0.011765
0.804706 0.509019 0
0.874196 0.50698 0.000314
0.94149 0.515608 0.003765
0.996549 0.518745 0.003137
0.998745 0.523608 0.002981
0.998408 0.526228 0
0 0.454902 0.100392
0.002353 0.451295 0.106667
0.003137 0.447059 0.105726
0.084549 0.442667 0.116078
0.170981 0.437176 0.118118
0.260392 0.460392 0.118431
0.356392 0.483138 0.114823
0.468392 0.511843 0.111059
0.581804 0.543529 0.09851
0.684863 0.556078 0.115765
0.778823 0.570196 0.072157
0.869804 0.585883 0.002196
0.931137 0.592157 0
0.992627 0.595138 0
1 0.6 0
0.999976 0.602361 0.007035
0.000784 0.521568 0.122353
0 0.516549 0.120628
0.002353 0.515451 0.122196
0.064471 0.513255 0.130823
0.164862 0.505882 0.139608
0.247059 0.517647 0.136471
0.342902 0.536471 0.141176
0.447372 0.567686 0.136941
0.551372 0.590745 0.142431
0.661961 0.623373 0.143216
0.75451 0.631372 0.16549
0.845804 0.646118 0.162824
0.919216 0.659294 0.055059
0.985883 0.660392 0
1 0.66353 0
0.996855 0.665875 0
0 0.596078 0.141176
0 0.592941 0.138039
0.004706 0.588235 0.147451
0.07451 0.584314 0.149804
0.163137 0.581176 0.158432
0.243137 0.580392 0.160784
0.338039 0.593726 0.167843
0.434509 0.621176 0.170196
0.535686 0.64 0.174902
0.629804 0.672157 0.189804
0.733333 0.698039 0.2
0.821177 0.701961 0.232157
0.900392 0.709804 0.258039
0.963921 0.723922 0.191372
0.996862 0.728628 0.080784
1 0.729412 0.035294
0.003138 0.661961 0.177255
0.002667 0.663373 0.177412
0.003451 0.666981 0.173961
0.116706 0.658824 0.185883
0.189019 0.655372 0.181804
0.260393 0.646274 0.200784
0.339451 0.652392 0.199843
0.433725 0.673568 0.212706
0.529254 0.696784 0.220706
0.617411 0.717804 0.237961
0.712941 0.739608 0.252549
0.805961 0.762196 0.275294
0.873255 0.767215 0.302902
0.941647 0.776784 0.342902
0.993255 0.781961 0.296471
1 0.778863 0.23149
0.020392 0.731764 0.209412
0.045177 0.735216 0.221176
0.110745 0.734588 0.220549
0.179451 0.729255 0.222745
0.238588 0.722667 0.231686
0.292549 0.723921 0.238431
0.356706 0.714666 0.251608
0.43749 0.732863 0.251451
0.529255 0.749176 0.26949
0.610353 0.767216 0.283451
0.703529 0.785098 0.301176
0.781019 0.800784 0.320941
0.860235 0.82102 0.340863
0.926588 0.828235 0.373804
0.980706 0.823059 0.421334
1 0.824338 0.393836
0.177255 0.80549 0.275295
0.198432 0.803765 0.277177
0.224 0.800784 0.285334
0.262902 0.798588 0.286431
0.303216 0.801412 0.291294
0.350588 0.801569 0.298824
0.399686 0.796863 0.303529
0.467451 0.793882 0.314353
0.542118 0.807843 0.327372
0.619137 0.824314 0.348549
0.701961 0.837647 0.363921
0.773647 0.849412 0.386981
0.843765 0.858667 0.40847
0.913569 0.873725 0.424627
0.969725 0.877177 0.455843
0.997647 0.873725 0.500298
0.313726 0.875294 0.371765
0.327843 0.877804 0.376157
0.34353 0.87451 0.369098
0.366431 0.876706 0.375686
0.394353 0.87451 0.382588
0.436863 0.868235 0.39451
0.473726 0.866823 0.388863
0.520941 0.864314 0.409255
0.584941 0.876863 0.422275
0.652863 0.882353 0.43749
0.72 0.890981 0.454902
0.780706 0.900236 0.465726
0.845647 0.910902 0.488157
0.903059 0.917647 0.509804
0.960941 0.925647 0.521412
0.998369 0.926322 0.541184
0.470157 0.941019 0.489922
0.477263 0.948047 0.496949
0.483608 0.944878 0.497741
0.502392 0.944941 0.504039
0.528322 0.944125 0.51258
0.55651 0.944941 0.521216
0.583278 0.93869 0.525882
0.620855 0.94331 0.536918
0.667961 0.93869 0.554902
0.711992 0.948793 0.563537
0.76847 0.952745 0.576157
0.814785 0.956706 0.585506
0.863451 0.964573 0.593435
0.910556 0.964612 0.609945
0.958423 0.970847 0.623215
0.999883 0.976315 0.631099
0.017255 0.026667 0.056471
0.052392 0.030745 0.060549
0.08549 0.032 0.06102
0.14353 0.028549 0.055215
0.221019 0.022902 0.052078
0.302745 0.003922 0.057255
0.389647 0.000628 0.06102
0.490353 0.001883 0.046902
0.583529 0.001255 0.050039
0.682196 0.000628 0.036863
0.768627 0.000784 0.025882
0.849883 0 0.01349
0.916078 0.003138 0.00502
0.986353 0 0
0.996078 0 0
0.996078 0 0
0.020235 0.06102 0.061961
0.052047 0.061396 0.056847
0.091828 0.064251 0.057067
0.15338 0.06102 0.058071
0.226949 0.052329 0.059859
0.307294 0.030432 0.054431
0.39978 0.002792 0.050384
0.493302 0.003012 0.049004
0.591184 0.000157 0.046243
0.685616 0.002667 0.03451
0.771294 0.003138 0.027137
0.848188 0.00113 0.006086
0.917333 0.002667 0.005553
0.984408 0.002981 0.005145
0.998212 0.004141 0.000126
0.996078 0 0
0.024 0.097255 0.062275
0.051921 0.096596 0.065098
0.092298 0.099357 0.065537
0.160973 0.098259 0.058824
0.233255 0.096565 0.055843
0.324549 0.083764 0.055687
0.411765 0.068863 0.052957
0.507075 0.026039 0.048031
0.600659 0.003012 0.037992
0.692079 0.001067 0.02331
0.776314 0.003451 0.016157
0.851608 0.002039 0.003859
0.92298 0.003734 0
0.986667 0.002102 0.006055
0.996078 0.014369 0.003827
0.999677 0.089566 0.003735
0.02102 0.140078 0.069961
0.045459 0.139074 0.070212
0.088408 0.136722 0.072376
0.155859 0.147294 0.0704
0.24229 0.152439 0.063341
0.335059 0.153725 0.047686
0.424722 0.14949 0.04091
0.524078 0.132298 0.0304
0.611451 0.119655 0.022557
0.707294 0.103184 0.009914
0.787764 0.098353 0.00298
0.85851 0.096502 0.00298
0.924863 0.109992 0.000941
0.988016 0.131451 0
0.998494 0.162039 0.001349
0.99965 0.195698 0.003575
0.000314 0.19702 0.072157
0.035357 0.193443 0.079498
0.080282 0.192094 0.085145
0.144596 0.201789 0.078431
0.232126 0.215686 0.077616
0.331608 0.217255 0.066824
0.440188 0.227451 0.034384
0.540204 0.227922 0.011043
0.63062 0.224471 0.000596
0.716863 0.221929 0.00091
0.792941 0.219608 0.000784
0.863843 0.225506 0.00251
0.928941 0.233255 0.001475
0.989898 0.249161 0
0.999843 0.264125 0.001663
0.999372 0.282314 0.002195
0 0.262745 0.083137
0.009568 0.254431 0.084549
0.069961 0.25349 0.091922
0.126745 0.260863 0.094118
0.216471 0.273726 0.084706
0.317647 0.29098 0.080784
0.426039 0.297569 0.079372
0.546039 0.31498 0.017098
0.64 0.317647 0
0.732079 0.327216 0
0.803922 0.32549 0
0.866667 0.328941 0.000941
0.937568 0.333333 0
0.987922 0.342117 0.001883
1 0.352941 0.003138
0.996117 0.368588 0.000063
0.005177 0.32549 0.098824
0.000784 0.319937 0.099357
0.047028 0.318117 0.104972
0.118745 0.3184 0.103843
0.20251 0.32982 0.106792
0.298981 0.350902 0.100549
0.406588 0.375341 0.093333
0.520847 0.381741 0.092769
0.637082 0.404863 0.023279
0.730541 0.418196 0.004141
0.811922 0.419765 0.000314
0.872188 0.429867 0.000878
0.938635 0.42949 0.004894
0.991153 0.435859 0.003389
0.996737 0.439875 0.001004
0.999067 0.451418 0.00268
0.005333 0.390118 0.109019
0.000377 0.389114 0.112251
0.011639 0.388831 0.112753
0.111969 0.382463 0.123043
0.188675 0.387137 0.1248
0.281098 0.403451 0.120157
0.385067 0.430023 0.121631
0.501427 0.458949 0.105004
0.60938 0.47109 0.115419
0.713443 0.491451 0.045898
0.807529 0.505882 0.000314
0.875388 0.507796 0.001098
0.938133 0.516141 0.000188
0.995639 0.519529 0.001506
0.999686 0.521631 0
0.999379 0.529396 0.000326
0.000471 0.45851 0.119059
0.001004 0.459294 0.125678
0.002949 0.455624 0.124424
0.0976 0.447686 0.133553
0.176722 0.442416 0.135843
0.264314 0.46102 0.136
0.361725 0.485898 0.136219
0.46767 0.508737 0.131482
0.584659 0.542525 0.127059
0.682604 0.552565 0.14538
0.780706 0.570196 0.125334
0.871247 0.58582 0.009223
0.93462 0.590933 0
0.994008 0.593976 0.0016
0.997866 0.596549 0.004267
0.999689 0.600637 0.003727
0 0.523765 0.137569
0 0.527529 0.140706
0 0.520627 0.147326
0.082384 0.517177 0.148267
0.17211 0.507482 0.155765
0.246745 0.518432 0.155608
0.347451 0.537726 0.15749
0.447216 0.564549 0.165051
0.552157 0.592031 0.16778
0.666667 0.623122 0.170227
0.75702 0.63451 0.192314
0.840659 0.649412 0.189145
0.918431 0.657851 0.110055
0.985412 0.661804 0.004769
1 0.668581 0.000031
0.996724 0.665588 0.000025
0.006274 0.592941 0.162353
0.00251 0.597961 0.17051
0 0.594353 0.163608
0.09302 0.590118 0.166588
0.176627 0.582274 0.180392
0.248628 0.579608 0.17804
0.341961 0.593726 0.192314
0.44 0.619294 0.192941
0.534588 0.644392 0.201098
0.631843 0.66902 0.206745
0.733333 0.693334 0.214902
0.822588 0.704941 0.247843
0.898824 0.714039 0.276863
0.958274 0.724549 0.214745
1 0.728471 0.129883
1 0.728628 0.096533
0.00502 0.666039 0.188078
0.002259 0.666039 0.190588
0.021051 0.664502 0.193474
0.128282 0.660832 0.192502
0.20273 0.657663 0.19978
0.268236 0.647529 0.213177
0.344219 0.653177 0.218447
0.433192 0.675765 0.22469
0.525302 0.694745 0.235483
0.617004 0.716298 0.250321
0.705882 0.73898 0.261491
0.803012 0.763796 0.289036
0.875043 0.76822 0.313098
0.939545 0.77211 0.358368
0.994039 0.783341 0.317082
0.999379 0.775719 0.249655
0.02102 0.738196 0.223529
0.065349 0.734965 0.227608
0.128439 0.732988 0.236926
0.184533 0.73349 0.2368
0.242322 0.727843 0.240439
0.295059 0.722823 0.249412
0.354886 0.721726 0.256283
0.440533 0.734651 0.266321
0.526212 0.749333 0.281631
0.610133 0.770667 0.291796
0.697255 0.784627 0.312941
0.778604 0.802384 0.333584
0.858385 0.81851 0.359529
0.925992 0.827043 0.388486
0.977035 0.825945 0.433757
0.99767 0.828569 0.408729
0.181177 0.807843 0.28549
0.200565 0.805522 0.290102
0.222902 0.804329 0.293772
0.262526 0.801976 0.298384
0.301929 0.802165 0.299169
0.349333 0.798275 0.306353
0.403137 0.796737 0.312251
0.462651 0.796957 0.326055
0.542902 0.80869 0.338698
0.621929 0.823185 0.36047
0.702431 0.834981 0.373177
0.773584 0.846274 0.394039
0.844863 0.861145 0.415122
0.912094 0.873161 0.439969
0.971451 0.878745 0.464784
0.999976 0.87061 0.504861
0.319686 0.877333 0.381961
0.328125 0.874949 0.376251
0.344251 0.876172 0.375373
0.366494 0.873161 0.380612
0.399027 0.87451 0.388204
0.435294 0.870588 0.396706
0.477333 0.866102 0.397459
0.51978 0.866415 0.413333
0.582557 0.873318 0.424
0.647843 0.878871 0.442008
0.719843 0.888314 0.459765
0.782839 0.899106 0.481255
0.844486 0.906321 0.495686
0.902369 0.91633 0.515075
0.96069 0.925898 0.528502
0.999942 0.926904 0.553227
0.475678 0.947977 0.504721
0.47867 0.942916 0.49633
0.485305 0.946646 0.499485
0.500831 0.943427 0.502502
0.530333 0.939964 0.510337
0.552635 0.940988 0.518871
0.583587 0.939278 0.527357
0.616533 0.940691 0.541774
0.665172 0.942883 0.554965
0.70729 0.945128 0.561423
0.767686 0.951976 0.581592
0.814769 0.956708 0.588082
0.863796 0.960972 0.605172
0.909299 0.964286 0.616762
0.959214 0.972259 0.624038
0.999921 0.972424 0.638895
0.009412 0.025882 0.100392
0.03749 0.02651 0.097882
0.091451 0.026667 0.098824
0.133177 0.045647 0.096157
0.194824 0.037334 0.094745
0.290981 0.007059 0.101961
0.385726 0.000784 0.097412
0.48549 0.003765 0.105725
0.578196 0.002667 0.101176
0.675765 0.000471 0.094275
0.763137 0 0.092549
0.841569 0 0.087059
0.91749 0.000628 0.086118
0.982432 0.002981 0.078118
0.996078 0 0.070588
1 0.001569 0.059655
0.007373 0.069333 0.098353
0.043168 0.060643 0.100141
0.094965 0.060863 0.098918
0.139671 0.071937 0.104062
0.214274 0.060455 0.105725
0.300078 0.037334 0.098667
0.39429 0.008251 0.099326
0.488345 0.002385 0.104063
0.586133 0.00069 0.096847
0.68135 0.000471 0.096565
0.769726 0.000314 0.087529
0.845992 0.002573 0.085804
0.916988 0.002667 0.078086
0.976973 0.00251 0.075232
0.995137 0.002604 0.063184
0.998754 0.000634 0.059162
0.006275 0.107764 0.096314
0.045333 0.103121 0.104753
0.100298 0.10218 0.108141
0.158118 0.103843 0.103969
0.235576 0.098165 0.105537
0.315137 0.092549 0.105098
0.406086 0.072753 0.098604
0.501396 0.040157 0.099514
0.594322 0.005961 0.097506
0.688471 0.001883 0.094369
0.775059 0 0.088157
0.850447 0.001067 0.081129
0.921882 0.002353 0.074008
0.97989 0.00251 0.070808
0.998306 0.039561 0.060643
0.99669 0.110176 0.063341
0.020392 0.153098 0.106039
0.054525 0.152847 0.10607
0.098353 0.149616 0.109804
0.161443 0.152973 0.112941
0.249286 0.1584 0.104596
0.337098 0.152627 0.096471
0.423655 0.145192 0.094369
0.516424 0.136878 0.091483
0.610573 0.125051 0.090918
0.696439 0.108957 0.082102
0.781804 0.104628 0.083765
0.854526 0.107138 0.072753
0.922918 0.119435 0.069616
0.989427 0.139263 0.058259
0.998745 0.173239 0.056314
0.997617 0.206193 0.051133
0.010666 0.212706 0.110432
0.047247 0.209286 0.111247
0.09371 0.205145 0.117176
0.151529 0.206588 0.125835
0.236769 0.220768 0.121851
0.338196 0.225098 0.113255
0.440753 0.227326 0.092894
0.533647 0.224628 0.078526
0.625067 0.222494 0.075326
0.710682 0.222275 0.069961
0.789804 0.224 0.063059
0.862589 0.227138 0.062023
0.929663 0.235733 0.051765
0.985977 0.251451 0.047373
0.996737 0.270274 0.040847
0.999534 0.289709 0.039534
0 0.272157 0.12
0.028549 0.268549 0.122667
0.091295 0.263844 0.123765
0.143529 0.262745 0.126589
0.223059 0.272628 0.130196
0.324706 0.300392 0.134118
0.430588 0.299765 0.129255
0.546039 0.317333 0.086588
0.638902 0.32 0.058667
0.728314 0.320627 0.033412
0.800784 0.327843 0.027451
0.871373 0.328471 0.02698
0.928471 0.334902 0.024314
0.986039 0.349961 0.022902
0.998745 0.356392 0.021177
1 0.374079 0.028212
0.00251 0.335373 0.132079
0.005616 0.333051 0.131043
0.074573 0.33211 0.129725
0.138102 0.325145 0.140518
0.211294 0.334839 0.140423
0.301647 0.356235 0.139765
0.418918 0.377726 0.142118
0.524611 0.387043 0.141365
0.636957 0.410479 0.100612
0.73051 0.417286 0.041004
0.81051 0.419451 0.009412
0.874667 0.426823 0.002604
0.938133 0.429176 0.003451
0.991874 0.435639 0.006463
0.999623 0.442761 0.012549
0.9989 0.453931 0.019106
0.002981 0.399215 0.144941
0 0.398682 0.140486
0.047341 0.397208 0.147043
0.129569 0.390275 0.149992
0.198274 0.388549 0.153788
0.284706 0.409569 0.157333
0.385098 0.436047 0.156894
0.504941 0.461804 0.155012
0.607561 0.471561 0.163263
0.714981 0.495216 0.120157
0.801412 0.503529 0.048784
0.874353 0.510337 0.010667
0.939169 0.517553 0.001318
0.993286 0.522008 0.000816
0.999812 0.523419 0.006965
0.995956 0.525341 0.015704
0 0.468863 0.153098
0 0.466196 0.15749
0.018981 0.464502 0.156549
0.12182 0.457569 0.164016
0.1904 0.450479 0.167247
0.269647 0.460706 0.175529
0.365522 0.489412 0.177317
0.470871 0.513474 0.175592
0.586541 0.544816 0.175498
0.683012 0.557961 0.192376
0.782745 0.575686 0.177412
0.864251 0.58607 0.0944
0.932392 0.594102 0.05211
0.986886 0.598243 0.025506
0.999812 0.60138 0.009286
0.999994 0.604072 0.020354
0.001255 0.535373 0.16502
0.001883 0.530855 0.167216
0.00709 0.530196 0.172894
0.112125 0.524612 0.17462
0.190713 0.517176 0.182902
0.255686 0.518432 0.183529
0.352345 0.538353 0.194039
0.447686 0.565804 0.194196
0.553819 0.595012 0.200596
0.66491 0.622902 0.211012
0.752784 0.634039 0.233726
0.846212 0.650447 0.234918
0.918212 0.661177 0.172925
0.985788 0.664 0.12251
0.999592 0.667483 0.104533
0.997503 0.669956 0.086828
0.001569 0.602353 0.199216
0.000471 0.602039 0.188863
0.007529 0.598274 0.190431
0.117177 0.595451 0.197804
0.19498 0.589333 0.20047
0.257255 0.581961 0.208628
0.343216 0.595137 0.213961
0.438118 0.619765 0.218196
0.536941 0.643922 0.230588
0.635765 0.670588 0.240784
0.735686 0.696471 0.253333
0.814588 0.705568 0.280471
0.895529 0.717019 0.30651
0.966902 0.723451 0.256785
0.996078 0.727216 0.192157
0.996094 0.725529 0.181145
0.003608 0.669176 0.219608
0.000251 0.671404 0.217663
0.06058 0.667796 0.215404
0.142682 0.667137 0.220173
0.212612 0.661804 0.228486
0.276079 0.652863 0.231059
0.345223 0.653772 0.238557
0.43567 0.674133 0.248063
0.52847 0.695373 0.265726
0.620706 0.71931 0.276298
0.706666 0.737725 0.291138
0.801443 0.759717 0.310369
0.874918 0.769317 0.342651
0.939169 0.777224 0.383153
0.997239 0.78102 0.340925
0.996556 0.782758 0.285566
0.050353 0.739608 0.251294
0.091012 0.738479 0.251702
0.137757 0.73782 0.25782
0.196894 0.734086 0.260141
0.249537 0.732455 0.259545
0.307137 0.72251 0.269019
0.360878 0.721757 0.272784
0.441067 0.733239 0.289255
0.528847 0.749741 0.300423
0.613114 0.770572 0.319467
0.69898 0.782745 0.334588
0.7808 0.802447 0.357522
0.858918 0.821396 0.377255
0.923765 0.826353 0.409286
0.979074 0.826102 0.454714
0.998431 0.831235 0.432386
0.190274 0.807373 0.305412
0.209976 0.807749 0.31062
0.230965 0.805961 0.312094
0.272784 0.807278 0.316486
0.31131 0.804988 0.317678
0.36047 0.798589 0.324706
0.404894 0.797522 0.329349
0.464125 0.799404 0.34309
0.54767 0.808408 0.354447
0.622682 0.821302 0.374588
0.701804 0.836392 0.391372
0.772862 0.847906 0.416345
0.84571 0.862588 0.433349
0.909396 0.874824 0.456188
0.967498 0.876047 0.486902
0.999976 0.873711 0.525594
0.320314 0.875608 0.390902
0.330855 0.877176 0.390337
0.346165 0.876047 0.39429
0.367498 0.876235 0.393568
0.401506 0.871624 0.402071
0.440627 0.872157 0.403451
0.478714 0.870024 0.416063
0.519216 0.867827 0.422651
0.58378 0.872314 0.437208
0.65211 0.881757 0.454682
0.722666 0.891451 0.469647
0.779608 0.897255 0.489569
0.844078 0.906855 0.507639
0.900832 0.916612 0.522698
0.959215 0.922353 0.53989
0.999953 0.926306 0.557639
0.469444 0.944965 0.506377
0.47807 0.94731 0.508729
0.486094 0.945868 0.510921
0.504563 0.948969 0.514955
0.527225 0.943385 0.519666
0.556526 0.944941 0.52909
0.583586 0.943363 0.534006
0.623393 0.940072 0.547484
0.6625 0.943349 0.565106
0.71325 0.944599 0.570403
0.768478 0.948887 0.591749
0.811981 0.957956 0.593917
0.864394 0.960657 0.605239
0.912891 0.96538 0.621092
0.961518 0.972723 0.635801
0.999921 0.974746 0.649875
0.001569 0.031373 0.15451
0.010824 0.029804 0.154667
0.07451 0.027451 0.15749
0.142745 0.02902 0.151216
0.199529 0.041569 0.14902
0.26902 0.049412 0.155294
0.363294 0.009882 0.156706
0.470432 0.000628 0.159373
0.568784 0.003765 0.15702
0.671059 0 0.153726
0.758431 0.003922 0.163921
0.837177 0.002353 0.161726
0.905412 0.000628 0.157961
0.978039 0.000941 0.162353
0.992157 0.002353 0.155608
0.993765 0.003883 0.158479
0.000627 0.071843 0.156706
0.014275 0.059765 0.154635
0.07862 0.05989 0.157396
0.150588 0.061365 0.157271
0.204267 0.073129 0.150839
0.276392 0.074823 0.161569
0.370509 0.038055 0.16229
0.477898 0.002165 0.161286
0.576094 0.002039 0.1584
0.67429 0.000941 0.165208
0.758118 0.003608 0.16251
0.838933 0.002416 0.16502
0.911059 0.002322 0.162667
0.971137 0.002479 0.160784
0.99611 0.000094 0.161035
0.999933 0.039294 0.166949
0.000628 0.112941 0.149176
0.027545 0.110274 0.157835
0.086243 0.104125 0.154196
0.155796 0.103686 0.160847
0.216188 0.112471 0.165521
0.297412 0.107451 0.161412
0.392721 0.084487 0.160627
0.488627 0.054275 0.158243
0.588769 0.021553 0.16091
0.676831 0.000376 0.164392
0.764862 0.000941 0.160314
0.841537 0.002071 0.16091
0.916078 0.000941 0.160816
0.976596 0.013271 0.158211
0.998933 0.074196 0.161286
0.996085 0.135599 0.162969
0.000628 0.160471 0.164706
0.026102 0.162572 0.161255
0.096094 0.161223 0.157271
0.164737 0.159529 0.161663
0.242572 0.159969 0.163796
0.325176 0.158902 0.161255
0.414432 0.150212 0.164047
0.50811 0.140267 0.163702
0.599404 0.130792 0.163388
0.693239 0.119718 0.159874
0.77553 0.112941 0.162823
0.850604 0.11589 0.158651
0.917773 0.13349 0.160345
0.983404 0.153945 0.15658
0.99818 0.187169 0.160847
0.999052 0.219828 0.157016
0.004549 0.225883 0.166275
0.037804 0.2224 0.162761
0.110745 0.222494 0.166839
0.169349 0.21807 0.168816
0.242259 0.223529 0.170886
0.339921 0.230431 0.162823
0.44251 0.225537 0.158055
0.528 0.227326 0.160188
0.617255 0.225287 0.152659
0.704188 0.219859 0.157365
0.786039 0.226667 0.152941
0.855341 0.232722 0.152063
0.921851 0.242102 0.1536
0.982275 0.261051 0.156047
0.994635 0.280879 0.156737
0.999529 0.298645 0.158566
0.004706 0.289412 0.173333
0.064628 0.287373 0.172863
0.109019 0.284706 0.174902
0.169255 0.276863 0.174118
0.229333 0.280157 0.180392
0.328627 0.298039 0.188235
0.433883 0.309019 0.185098
0.544941 0.317647 0.161726
0.637647 0.315294 0.145725
0.720627 0.321098 0.143059
0.791372 0.32549 0.143529
0.861333 0.329883 0.144784
0.926431 0.33349 0.145098
0.984157 0.353726 0.146667
0.998431 0.364549 0.150118
1 0.378824 0.16
