site/assets/luts/freshluts--0000455-bmpcc4k.cube
# LUTr-Schema-Version: 2
# LUTr-ID: freshluts--0000455-bmpcc4k
# LUTr-Title: BMPCC4K
# LUTr-Collection: Fresh LUTs
# LUTr-Collection-ID: freshluts-community
# LUTr-Source: https://freshluts.com
# LUTr-Retrieved: 2026-07-27
# LUTr-Source-File: submissions-raw/freshluts/cubes/455__BMPCC4K.cube
# LUTr-Source-Format: CUBE
# LUTr-Source-SHA256: e4f6fbfbb5dd0822d1d340d47d213ab4dd49bb19278eb2f4e62ea2ff54d7947d
# LUTr-License: CC0-1.0
# LUTr-License-URL: https://freshluts.com/termsandconditions
# LUTr-License-Basis: site-terms
# LUTr-Transform-Class: creative-look
# LUTr-Tags: creative, freshluts, community, cube, bmd-film
# LUTr-Input-Color-Space: bmd-film
# LUTr-Input-Gamut: bmd-film-gamut
# LUTr-Input-Transfer: bmd-film
# LUTr-Output-Color-Space: srgb
# LUTr-Output-Gamut: rec709
# LUTr-Output-Transfer: srgb
# LUTr-Color-Space-Confidence: inferred-from-source-label
# LUTr-Domain-Normalized: true
# LUTr-Shaper: none
# LUTr-Original-Grid: 33x33x33
# LUTr-Conversion-Grid: 33x33x33
# LUTr-Conversion-Interpolation: none
# LUTr-Conversion-Method: Metadata normalization; numeric LUT samples preserved
# LUTr-Conversion-Tool: LUTr scripts/convert-all-to-cube.mjs 2.0.0
# LUTr-Conversion-Date: 2026-07-28
# LUTr-Asset-URL: https://freshluts.com/luts/455
# LUTr-Author: Revirssab
# LUTr-Author-URL: https://freshluts.com/users/9194
# LUTr-Attribution: Revirssab via Fresh LUTs
# LUTr-Source-Labels: gamma=Blackmagic BMD Film; color=None; key=Neutral; style=Adventure
# LUTr-Note: Preserve this metadata and the upstream license notices when redistributing.
TITLE "BMPCC4K"
LUT_3D_SIZE 5
DOMAIN_MIN 0 0 0
DOMAIN_MAX 1 1 1
0 0 0
0.169909 0 0
0.704921 0 0
0.936599 0 0
1 0 0
0 0.239078 0
0.125658 0.2056 0
0.69453 0.188785 0
0.927916 0.191516 0
1 0.197116 0
0 0.741268 0
0.0750134 0.713161 0
0.661158 0.69131 0
0.897581 0.68893 0
1 0.690028 0
0 0.974807 0
0.0488136 0.950408 0
0.64152 0.926726 0
0.878492 0.923308 0
1 0.923293 0
0 1 0
0.0273136 1 0
0.626169 1 0
0.862455 1 0
1 1 0
0 0 0.310613
0.163806 0 0.26276
0.707881 0 0.237583
0.942153 0 0.243442
1 0 0.259815
0 0.237781 0.271412
0.11989 0.201709 0.234119
0.702678 0.180819 0.212894
0.933379 0.184756 0.216739
1 0.1906 0.223026
0 0.738827 0.239292
0.0431983 0.714946 0.189319
0.657801 0.687984 0.155673
0.899214 0.683726 0.164096
1 0.684367 0.173831
0 0.972839 0.222599
0.0171969 0.951873 0.177996
0.632197 0.924697 0.137087
0.874846 0.919402 0.137881
1 0.918532 0.145663
0 1 0.209506
0 1 0.168933
0.615274 1 0.124971
0.855604 1 0.121035
1 1 0.125414
0 0 0.799817
0.143297 0 0.775021
0.702876 0 0.762432
0.94551 0 0.768978
1 0 0.774227
0 0.232685 0.788052
0.113817 0.19791 0.775464
0.698543 0.17554 0.757397
0.933806 0.178592 0.748699
1 0.184573 0.746578
0 0.733547 0.760723
0.0319677 0.710323 0.737438
0.65182 0.682414 0.70901
0.906416 0.675273 0.702052
1 0.67715 0.703685
0 0.969421 0.742031
0 0.950408 0.714672
0.614679 0.923964 0.671016
0.870954 0.91577 0.662425
1 0.912627 0.670329
0 1 0.727123
0 1 0.698451
0.59852 1 0.656382
0.845197 1 0.645304
1 1 0.646922
0 0 1
0.135409 0 1
0.698756 0 1
0.943526 0 1
1 0 1
0 0.231174 1
0.112902 0.197726 1
0.689097 0.176913 1
0.928008 0.177569 0.998428
1 0.182605 0.996002
0 0.729976 1
0.0464332 0.704021 0.990234
0.647883 0.677974 0.983459
0.902327 0.670924 0.977539
1 0.672374 0.97023
0 0.96672 0.990265
0.000183108 0.945327 0.974227
0.610025 0.919615 0.951736
0.866651 0.91075 0.943114
1 0.905943 0.938003
0 1 0.978332
0 1 0.959213
0.588464 1 0.922835
0.832807 1 0.905852
1 1 0.899931
0 0 1
0.131029 0 1
0.696757 0 1
0.940795 0 1
1 0 1
0 0.230411 1
0.112383 0.197238 1
0.683146 0.177584 1
0.921859 0.177829 1
1 0.181903 1
0 0.727245 1
0.0552682 0.700099 1
0.646189 0.676463 1
0.892317 0.670863 1
1 0.670787 1
0 0.963668 1
0.0100099 0.940124 1
0.615702 0.914137 1
0.862684 0.906538 1
1 0.901625 1
0 1 1
0 1 1
0.589517 1 1
0.828687 1 1
0.998749 1 1
