site/assets/luts/freshluts--0001103-avengers-going-camping-2.cube
# LUTr-Schema-Version: 2
# LUTr-ID: freshluts--0001103-avengers-going-camping-2
# LUTr-Title: Avengers Going Camping_2
# LUTr-Collection: Fresh LUTs
# LUTr-Collection-ID: freshluts-community
# LUTr-Source: https://freshluts.com
# LUTr-Retrieved: 2026-07-27
# LUTr-Source-File: submissions-raw/freshluts/cubes/1103__Avengers_going_Camping_2.cube
# LUTr-Source-Format: CUBE
# LUTr-Source-SHA256: 7fbce304e752279a7090944723ceceeb1b879cba72225b146d810d1f48a83fdf
# LUTr-License: CC0-1.0
# LUTr-License-URL: https://freshluts.com/termsandconditions
# LUTr-License-Basis: site-terms
# LUTr-Transform-Class: creative-look
# LUTr-Tags: creative, freshluts, community, cube, panasonic-v-log
# LUTr-Input-Color-Space: panasonic-vlog-vgamut
# LUTr-Input-Gamut: panasonic-v-gamut
# LUTr-Input-Transfer: panasonic-v-log
# LUTr-Output-Color-Space: srgb
# LUTr-Output-Gamut: rec709
# LUTr-Output-Transfer: srgb
# LUTr-Color-Space-Confidence: inferred-from-source-label
# LUTr-Domain-Normalized: true
# LUTr-Shaper: none
# LUTr-Original-Grid: 35x35x35
# LUTr-Conversion-Grid: 35x35x35
# LUTr-Conversion-Interpolation: none
# LUTr-Conversion-Method: Metadata normalization; numeric LUT samples preserved
# LUTr-Conversion-Tool: LUTr scripts/convert-all-to-cube.mjs 2.0.0
# LUTr-Conversion-Date: 2026-07-28
# LUTr-Asset-URL: https://freshluts.com/luts/1103
# LUTr-Author: Camera Head Studios LUTS
# LUTr-Author-URL: https://freshluts.com/users/107973
# LUTr-Attribution: Camera Head Studios LUTS via Fresh LUTs
# LUTr-Source-Labels: gamma=Panasonic V-log; color=None; key=Neutral; style=Adventure
# LUTr-Note: Preserve this metadata and the upstream license notices when redistributing.
# LUTr-Upstream-Comment: Created by: Pixelmator Pro
# LUTr-Upstream-Comment: Color profile: "sRGB IEC61966-2.1"
# LUTr-Upstream-Comment: Data domain
# LUTr-Upstream-Comment: LUT size
TITLE "Avengers Going Camping_2"
LUT_3D_SIZE 7
DOMAIN_MIN 0.000000 0.000000 0.000000
DOMAIN_MAX 0.882353 0.882353 0.882353
0 0 0
0 0 0
0 0 0
0.031 0 0
0.179 0 0
0.376 0.001 0.001
0.645 0.025 0.025
0 0 0
0 0 0
0.037 0.014 0
0.133 0.031 0
0.247 0.044 0
0.427 0.059 0.005
0.663 0.083 0.027
0 0.085 0
0.043 0.105 0
0.128 0.128 0
0.22 0.138 0
0.344 0.147 0
0.49 0.155 0.008
0.681 0.161 0.027
0 0.244 0
0.071 0.254 0
0.167 0.269 0
0.283 0.283 0.003
0.405 0.278 0.008
0.523 0.268 0.013
0.723 0.275 0.025
0.007 0.418 0.007
0.088 0.42 0.009
0.183 0.42 0.012
0.291 0.419 0.015
0.429 0.429 0.019
0.579 0.436 0.023
0.778 0.467 0.033
0.022 0.589 0.022
0.105 0.597 0.024
0.206 0.613 0.026
0.345 0.636 0.03
0.502 0.665 0.036
0.701 0.701 0.044
0.875 0.725 0.054
0.061 0.902 0.061
0.169 0.906 0.063
0.317 0.912 0.065
0.493 0.92 0.069
0.675 0.929 0.073
0.804 0.94 0.078
0.957 0.957 0.085
0 0 0
0 0 0
0 0 0
0.075 0 0.016
0.198 0 0.034
0.38 0.004 0.051
0.636 0.029 0.081
0 0 0
0.007 0.007 0.007
0.078 0.004 0.004
0.167 0.01 0.01
0.283 0.02 0.02
0.452 0.034 0.034
0.678 0.057 0.057
0 0.102 0.042
0.018 0.133 0.018
0.143 0.143 0.023
0.25 0.139 0.025
0.376 0.139 0.031
0.505 0.142 0.043
0.692 0.145 0.058
0 0.253 0.071
0.034 0.282 0.034
0.161 0.288 0.038
0.292 0.292 0.043
0.42 0.279 0.046
0.539 0.261 0.047
0.729 0.264 0.061
0.009 0.42 0.088
0.049 0.436 0.049
0.167 0.432 0.051
0.288 0.43 0.053
0.438 0.438 0.057
0.596 0.441 0.061
0.79 0.465 0.072
0.024 0.596 0.105
0.064 0.619 0.064
0.187 0.633 0.068
0.337 0.653 0.073
0.506 0.679 0.081
0.709 0.709 0.092
0.884 0.728 0.103
0.063 0.905 0.169
0.116 0.913 0.116
0.279 0.919 0.119
0.475 0.926 0.123
0.668 0.934 0.128
0.805 0.944 0.135
0.958 0.958 0.146
0 0 0
0 0 0
0.046 0 0.046
0.144 0 0.087
0.255 0 0.111
0.425 0.005 0.131
0.651 0.03 0.153
0 0.015 0.04
0.01 0.01 0.119
0.122 0.013 0.122
0.215 0.016 0.118
0.32 0.025 0.119
0.465 0.039 0.129
0.671 0.061 0.142
0 0.123 0.123
0.022 0.141 0.141
0.149 0.149 0.149
0.288 0.122 0.122
0.405 0.109 0.109
0.53 0.11 0.11
0.708 0.111 0.111
0 0.266 0.165
0.037 0.287 0.161
0.129 0.316 0.129
0.302 0.302 0.127
0.445 0.274 0.119
0.567 0.245 0.11
0.74 0.241 0.121
0.011 0.421 0.182
0.051 0.433 0.167
0.123 0.451 0.123
0.277 0.447 0.123
0.453 0.453 0.127
0.628 0.447 0.128
0.812 0.46 0.136
0.026 0.609 0.205
0.067 0.631 0.186
0.138 0.665 0.138
0.315 0.68 0.145
0.508 0.698 0.153
0.721 0.721 0.166
0.898 0.732 0.176
0.065 0.911 0.315
0.118 0.918 0.278
0.199 0.929 0.199
0.433 0.934 0.204
0.651 0.941 0.211
0.805 0.949 0.221
0.961 0.961 0.236
0 0 0.058
0.026 0 0.114
0.104 0 0.169
0.199 0 0.199
0.324 0 0.222
0.479 0.004 0.237
0.673 0.028 0.241
0 0.039 0.157
0.017 0.017 0.24
0.141 0.022 0.255
0.256 0.026 0.256
0.386 0.03 0.252
0.511 0.042 0.244
0.687 0.059 0.234
0 0.144 0.23
0.028 0.151 0.271
0.136 0.136 0.348
0.314 0.127 0.314
0.448 0.116 0.274
0.548 0.113 0.24
0.709 0.115 0.221
0.002 0.279 0.279
0.042 0.291 0.291
0.127 0.304 0.304
0.291 0.291 0.291
0.464 0.246 0.246
0.588 0.208 0.208
0.754 0.199 0.199
0.015 0.419 0.291
0.052 0.429 0.288
0.123 0.447 0.277
0.239 0.472 0.239
0.469 0.469 0.238
0.673 0.451 0.229
0.831 0.436 0.231
0.029 0.628 0.34
0.072 0.648 0.333
0.144 0.678 0.313
0.255 0.71 0.255
0.502 0.719 0.265
0.734 0.734 0.283
0.914 0.735 0.286
0.068 0.918 0.489
0.122 0.924 0.472
0.203 0.933 0.432
0.334 0.945 0.334
0.609 0.949 0.344
0.801 0.955 0.357
0.965 0.965 0.378
0 0 0.239
0.05 0 0.274
0.138 0 0.322
0.248 0 0.365
0.38 0 0.38
0.517 0.007 0.382
0.697 0.023 0.366
0 0.058 0.31
0.025 0.025 0.405
0.153 0.03 0.419
0.286 0.036 0.431
0.418 0.04 0.418
0.544 0.045 0.398
0.713 0.058 0.372
0 0.162 0.382
0.036 0.159 0.43
0.13 0.13 0.508
0.306 0.127 0.487
0.453 0.121 0.453
0.579 0.11 0.41
0.738 0.119 0.381
0.007 0.289 0.418
0.047 0.293 0.437
0.125 0.29 0.466
0.257 0.257 0.506
0.471 0.237 0.471
0.638 0.215 0.425
0.774 0.211 0.387
0.017 0.424 0.424
0.055 0.434 0.434
0.126 0.45 0.45
0.238 0.469 0.469
0.473 0.473 0.473
0.702 0.433 0.433
0.849 0.384 0.384
0.034 0.654 0.492
0.078 0.67 0.497
0.151 0.693 0.503
0.264 0.718 0.5
0.464 0.741 0.464
0.747 0.747 0.473
0.933 0.735 0.457
0.071 0.926 0.668
0.127 0.931 0.662
0.209 0.939 0.647
0.343 0.949 0.607
0.516 0.959 0.516
0.788 0.963 0.526
0.969 0.969 0.542
0 0 0.485
0.07 0 0.503
0.166 0 0.528
0.281 0.002 0.549
0.416 0.008 0.556
0.537 0.014 0.537
0.735 0.022 0.548
0 0.074 0.522
0.036 0.036 0.589
0.163 0.04 0.595
0.293 0.045 0.596
0.432 0.05 0.587
0.559 0.051 0.559
0.754 0.059 0.573
0.004 0.177 0.554
0.045 0.166 0.596
0.126 0.126 0.668
0.285 0.124 0.646
0.447 0.123 0.63
0.609 0.121 0.609
0.793 0.128 0.617
0.014 0.291 0.559
0.052 0.288 0.583
0.123 0.277 0.63
0.239 0.239 0.698
0.469 0.238 0.693
0.681 0.234 0.681
0.851 0.232 0.667
0.023 0.445 0.591
0.063 0.453 0.614
0.134 0.466 0.653
0.244 0.475 0.699
0.461 0.461 0.741
0.734 0.453 0.734
0.901 0.424 0.698
0.041 0.688 0.688
0.088 0.699 0.699
0.162 0.714 0.714
0.278 0.73 0.73
0.472 0.746 0.746
0.754 0.754 0.754
0.942 0.718 0.718
0.076 0.936 0.796
0.133 0.94 0.797
0.218 0.946 0.799
0.354 0.954 0.798
0.524 0.962 0.786
0.745 0.972 0.745
0.973 0.973 0.746
0.009 0.009 0.744
0.09 0.011 0.744
0.183 0.014 0.742
0.293 0.016 0.744
0.435 0.02 0.753
0.62 0.028 0.778
0.815 0.039 0.815
0.014 0.091 0.743
0.052 0.052 0.761
0.167 0.053 0.761
0.294 0.056 0.765
0.451 0.062 0.778
0.651 0.072 0.807
0.841 0.087 0.841
0.018 0.186 0.746
0.056 0.17 0.765
0.126 0.126 0.806
0.288 0.13 0.814
0.474 0.138 0.829
0.692 0.15 0.856
0.878 0.164 0.878
0.025 0.323 0.768
0.066 0.318 0.788
0.137 0.301 0.828
0.248 0.248 0.884
0.492 0.257 0.893
0.726 0.273 0.907
0.915 0.287 0.915
0.037 0.507 0.816
0.082 0.511 0.836
0.156 0.515 0.867
0.27 0.509 0.904
0.467 0.467 0.94
0.75 0.478 0.944
0.945 0.48 0.945
0.056 0.735 0.887
0.107 0.74 0.898
0.185 0.747 0.913
0.309 0.756 0.931
0.492 0.76 0.95
0.757 0.757 0.964
0.968 0.736 0.968
0.083 0.952 0.952
0.143 0.954 0.954
0.232 0.958 0.958
0.373 0.963 0.963
0.539 0.967 0.967
0.746 0.973 0.973
0.974 0.974 0.974
