site/assets/luts/freshluts--0001980-celebrate.cube
# LUTr-Schema-Version: 2
# LUTr-ID: freshluts--0001980-celebrate
# LUTr-Title: Celebrate
# LUTr-Collection: Fresh LUTs
# LUTr-Collection-ID: freshluts-community
# LUTr-Source: https://freshluts.com
# LUTr-Retrieved: 2026-07-27
# LUTr-Source-File: submissions-raw/freshluts/cubes/1980__Celebrate.cube
# LUTr-Source-Format: CUBE
# LUTr-Source-SHA256: e377df4f37b069d33b0901fe0ea35d43e346ccd93f62a4cf82ebaacf1595b79d
# LUTr-License: CC0-1.0
# LUTr-License-URL: https://freshluts.com/termsandconditions
# LUTr-License-Basis: site-terms
# LUTr-Transform-Class: creative-look
# LUTr-Tags: creative, freshluts, community, cube, cool, high-key, sony-s-log2
# LUTr-Input-Color-Space:
# LUTr-Input-Gamut: sony-s-gamut
# LUTr-Input-Transfer: sony-s-log2
# LUTr-Output-Color-Space: srgb
# LUTr-Output-Gamut: rec709
# LUTr-Output-Transfer: srgb
# LUTr-Color-Space-Confidence: camera-profile-input-required
# LUTr-Domain-Normalized: true
# LUTr-Shaper: none
# LUTr-Original-Grid: 16x16x16
# LUTr-Conversion-Grid: 16x16x16
# LUTr-Conversion-Interpolation: none
# LUTr-Conversion-Method: Metadata normalization; numeric LUT samples preserved
# LUTr-Conversion-Tool: LUTr scripts/convert-all-to-cube.mjs 2.0.0
# LUTr-Conversion-Date: 2026-07-28
# LUTr-Asset-URL: https://freshluts.com/luts/1980
# LUTr-Author: InAvision
# LUTr-Author-URL: https://freshluts.com/users/64078
# LUTr-Attribution: InAvision via Fresh LUTs
# LUTr-Source-Labels: gamma=Sony S-Log 2; color=Cool; key=High Key; style=cine drama
# LUTr-Note: Preserve this metadata and the upstream license notices when redistributing.
TITLE "Celebrate"
LUT_3D_SIZE 16
DOMAIN_MIN 0 0 0
DOMAIN_MAX 1 1 1
0 0 0
0.029132 0 0
0.082547 0 0
0.146701 0 0
0.210828 0 0
0.274835 0 0
0.338766 0 0
0.402564 0 0
0.466336 0 0
0.530076 0 0
0.593683 0 0
0.657367 0 0
0.720832 0 0
0.784489 0 0
0.847822 0 0
0.910645 0 0
0 0.044368 0
0.029132 0.044368 0
0.082547 0.044368 0
0.146701 0.044368 0
0.210828 0.044368 0
0.274835 0.044368 0
0.338766 0.044368 0
0.402564 0.044368 0
0.466336 0.044368 0
0.530076 0.044368 0
0.593683 0.044368 0
0.657367 0.044368 0
0.720832 0.044368 0
0.784489 0.044368 0
0.847822 0.044368 0
0.910645 0.044368 0
0 0.109014 0
0.029132 0.109014 0
0.082547 0.109014 0
0.146701 0.109014 0
0.210828 0.109014 0
0.274835 0.109014 0
0.338766 0.109014 0
0.402564 0.109014 0
0.466336 0.109014 0
0.530076 0.109014 0
0.593683 0.109014 0
0.657367 0.109014 0
0.720832 0.109014 0
0.784489 0.109014 0
0.847822 0.109014 0
0.910645 0.109014 0
0 0.178388 0
0.029132 0.178388 0
0.082547 0.178388 0
0.146701 0.178388 0
0.210828 0.178388 0
0.274835 0.178388 0
0.338766 0.178388 0
0.402564 0.178388 0
0.466336 0.178388 0
0.530076 0.178388 0
0.593683 0.178388 0
0.657367 0.178388 0
0.720832 0.178388 0
0.784489 0.178388 0
0.847822 0.178388 0
0.910645 0.178388 0
0 0.246376 0
0.029132 0.246376 0
0.082547 0.246376 0
0.146701 0.246376 0
0.210828 0.246376 0
0.274835 0.246376 0
0.338766 0.246376 0
0.402564 0.246376 0
0.466336 0.246376 0
0.530076 0.246376 0
0.593683 0.246376 0
0.657367 0.246376 0
0.720832 0.246376 0
0.784489 0.246376 0
0.847822 0.246376 0
0.910645 0.246376 0
0 0.313421 0
0.029132 0.313421 0
0.082547 0.313421 0
0.146701 0.313421 0
0.210828 0.313421 0
0.274835 0.313421 0
0.338766 0.313421 0
0.402564 0.313421 0
0.466336 0.313421 0
0.530076 0.313421 0
0.593683 0.313421 0
0.657367 0.313421 0
0.720832 0.313421 0
0.784489 0.313421 0
0.847822 0.313421 0
0.910645 0.313421 0
0 0.379727 0
0.029132 0.379727 0
0.082547 0.379727 0
0.146701 0.379727 0
0.210828 0.379727 0
0.274835 0.379727 0
0.338766 0.379727 0
0.402564 0.379727 0
0.466336 0.379727 0
0.530076 0.379727 0
0.593683 0.379727 0
0.657367 0.379727 0
0.720832 0.379727 0
0.784489 0.379727 0
0.847822 0.379727 0
0.910645 0.379727 0
0 0.445431 0
0.029132 0.445431 0
0.082547 0.445431 0
0.146701 0.445431 0
0.210828 0.445431 0
0.274835 0.445431 0
0.338766 0.445431 0
0.402564 0.445431 0
0.466336 0.445431 0
0.530076 0.445431 0
0.593683 0.445431 0
0.657367 0.445431 0
0.720832 0.445431 0
0.784489 0.445431 0
0.847822 0.445431 0
0.910645 0.445431 0
0 0.510682 0
0.029132 0.510682 0
0.082547 0.510682 0
0.146701 0.510682 0
0.210828 0.510682 0
0.274835 0.510682 0
0.338766 0.510682 0
0.402564 0.510682 0
0.466336 0.510682 0
0.530076 0.510682 0
0.593683 0.510682 0
0.657367 0.510682 0
0.720832 0.510682 0
0.784489 0.510682 0
0.847822 0.510682 0
0.910645 0.510682 0
0 0.575567 0
0.029132 0.575567 0
0.082547 0.575567 0
0.146701 0.575567 0
0.210828 0.575567 0
0.274835 0.575567 0
0.338766 0.575567 0
0.402564 0.575567 0
0.466336 0.575567 0
0.530076 0.575567 0
0.593683 0.575567 0
0.657367 0.575567 0
0.720832 0.575567 0
0.784489 0.575567 0
0.847822 0.575567 0
0.910645 0.575567 0
0 0.639981 0
0.029132 0.639981 0
0.082547 0.639981 0
0.146701 0.639981 0
0.210828 0.639981 0
0.274835 0.639981 0
0.338766 0.639981 0
0.402564 0.639981 0
0.466336 0.639981 0
0.530076 0.639981 0
0.593683 0.639981 0
0.657367 0.639981 0
0.720832 0.639981 0
0.784489 0.639981 0
0.847822 0.639981 0
0.910645 0.639981 0
0 0.70416 0
0.029132 0.70416 0
0.082547 0.70416 0
0.146701 0.70416 0
0.210828 0.70416 0
0.274835 0.70416 0
0.338766 0.70416 0
0.402564 0.70416 0
0.466336 0.70416 0
0.530076 0.70416 0
0.593683 0.70416 0
0.657367 0.70416 0
0.720832 0.70416 0
0.784489 0.70416 0
0.847822 0.70416 0
0.910645 0.70416 0
0 0.767912 0
0.029132 0.767912 0
0.082547 0.767912 0
0.146701 0.767912 0
0.210828 0.767912 0
0.274835 0.767912 0
0.338766 0.767912 0
0.402564 0.767912 0
0.466336 0.767912 0
0.530076 0.767912 0
0.593683 0.767912 0
0.657367 0.767912 0
0.720832 0.767912 0
0.784489 0.767912 0
0.847822 0.767912 0
0.910645 0.767912 0
0 0.831596 0
0.029132 0.831596 0
0.082547 0.831596 0
0.146701 0.831596 0
0.210828 0.831596 0
0.274835 0.831596 0
0.338766 0.831596 0
0.402564 0.831596 0
0.466336 0.831596 0
0.530076 0.831596 0
0.593683 0.831596 0
0.657367 0.831596 0
0.720832 0.831596 0
0.784489 0.831596 0
0.847822 0.831596 0
0.910645 0.831596 0
0 0.894719 0
0.029132 0.894719 0
0.082547 0.894719 0
0.146701 0.894719 0
0.210828 0.894719 0
0.274835 0.894719 0
0.338766 0.894719 0
0.402564 0.894719 0
0.466336 0.894719 0
0.530076 0.894719 0
0.593683 0.894719 0
0.657367 0.894719 0
0.720832 0.894719 0
0.784489 0.894719 0
0.847822 0.894719 0
0.910645 0.894719 0
0 0.957199 0
0.029132 0.957199 0
0.082547 0.957199 0
0.146701 0.957199 0
0.210828 0.957199 0
0.274835 0.957199 0
0.338766 0.957199 0
0.402564 0.957199 0
0.466336 0.957199 0
0.530076 0.957199 0
0.593683 0.957199 0
0.657367 0.957199 0
0.720832 0.957199 0
0.784489 0.957199 0
0.847822 0.957199 0
0.910645 0.957199 0
0 0 0.040513
0.029132 0 0.040513
0.082547 0 0.040513
0.146701 0 0.040513
0.210828 0 0.040513
0.274835 0 0.040513
0.338766 0 0.040513
0.402564 0 0.040513
0.466336 0 0.040513
0.530076 0 0.040513
0.593683 0 0.040513
0.657367 0 0.040513
0.720832 0 0.040513
0.784489 0 0.040513
0.847822 0 0.040513
0.910645 0 0.040513
0 0.044368 0.040513
0.029132 0.044368 0.040513
0.082547 0.044368 0.040513
0.146701 0.044368 0.040513
0.210828 0.044368 0.040513
0.274835 0.044368 0.040513
0.338766 0.044368 0.040513
0.402564 0.044368 0.040513
0.466336 0.044368 0.040513
0.530076 0.044368 0.040513
0.593683 0.044368 0.040513
0.657367 0.044368 0.040513
0.720832 0.044368 0.040513
0.784489 0.044368 0.040513
0.847822 0.044368 0.040513
0.910645 0.044368 0.040513
0 0.109014 0.040513
0.029132 0.109014 0.040513
0.082547 0.109014 0.040513
0.146701 0.109014 0.040513
0.210828 0.109014 0.040513
0.274835 0.109014 0.040513
0.338766 0.109014 0.040513
0.402564 0.109014 0.040513
0.466336 0.109014 0.040513
0.530076 0.109014 0.040513
0.593683 0.109014 0.040513
0.657367 0.109014 0.040513
0.720832 0.109014 0.040513
0.784489 0.109014 0.040513
0.847822 0.109014 0.040513
0.910645 0.109014 0.040513
0 0.178388 0.040513
0.029132 0.178388 0.040513
0.082547 0.178388 0.040513
0.146701 0.178388 0.040513
0.210828 0.178388 0.040513
0.274835 0.178388 0.040513
0.338766 0.178388 0.040513
0.402564 0.178388 0.040513
0.466336 0.178388 0.040513
0.530076 0.178388 0.040513
0.593683 0.178388 0.040513
0.657367 0.178388 0.040513
0.720832 0.178388 0.040513
0.784489 0.178388 0.040513
0.847822 0.178388 0.040513
0.910645 0.178388 0.040513
0 0.246376 0.040513
0.029132 0.246376 0.040513
0.082547 0.246376 0.040513
0.146701 0.246376 0.040513
0.210828 0.246376 0.040513
0.274835 0.246376 0.040513
0.338766 0.246376 0.040513
0.402564 0.246376 0.040513
0.466336 0.246376 0.040513
0.530076 0.246376 0.040513
0.593683 0.246376 0.040513
0.657367 0.246376 0.040513
0.720832 0.246376 0.040513
0.784489 0.246376 0.040513
0.847822 0.246376 0.040513
0.910645 0.246376 0.040513
0 0.313421 0.040513
0.029132 0.313421 0.040513
0.082547 0.313421 0.040513
0.146701 0.313421 0.040513
0.210828 0.313421 0.040513
0.274835 0.313421 0.040513
0.338766 0.313421 0.040513
0.402564 0.313421 0.040513
0.466336 0.313421 0.040513
0.530076 0.313421 0.040513
0.593683 0.313421 0.040513
0.657367 0.313421 0.040513
0.720832 0.313421 0.040513
0.784489 0.313421 0.040513
0.847822 0.313421 0.040513
0.910645 0.313421 0.040513
0 0.379727 0.040513
0.029132 0.379727 0.040513
0.082547 0.379727 0.040513
0.146701 0.379727 0.040513
0.210828 0.379727 0.040513
0.274835 0.379727 0.040513
0.338766 0.379727 0.040513
0.402564 0.379727 0.040513
0.466336 0.379727 0.040513
0.530076 0.379727 0.040513
0.593683 0.379727 0.040513
0.657367 0.379727 0.040513
0.720832 0.379727 0.040513
0.784489 0.379727 0.040513
0.847822 0.379727 0.040513
0.910645 0.379727 0.040513
0 0.445431 0.040513
0.029132 0.445431 0.040513
0.082547 0.445431 0.040513
0.146701 0.445431 0.040513
0.210828 0.445431 0.040513
0.274835 0.445431 0.040513
0.338766 0.445431 0.040513
0.402564 0.445431 0.040513
0.466336 0.445431 0.040513
0.530076 0.445431 0.040513
0.593683 0.445431 0.040513
0.657367 0.445431 0.040513
0.720832 0.445431 0.040513
0.784489 0.445431 0.040513
0.847822 0.445431 0.040513
0.910645 0.445431 0.040513
0 0.510682 0.040513
0.029132 0.510682 0.040513
0.082547 0.510682 0.040513
0.146701 0.510682 0.040513
0.210828 0.510682 0.040513
0.274835 0.510682 0.040513
0.338766 0.510682 0.040513
0.402564 0.510682 0.040513
0.466336 0.510682 0.040513
0.530076 0.510682 0.040513
0.593683 0.510682 0.040513
0.657367 0.510682 0.040513
0.720832 0.510682 0.040513
0.784489 0.510682 0.040513
0.847822 0.510682 0.040513
0.910645 0.510682 0.040513
0 0.575567 0.040513
0.029132 0.575567 0.040513
0.082547 0.575567 0.040513
0.146701 0.575567 0.040513
0.210828 0.575567 0.040513
0.274835 0.575567 0.040513
0.338766 0.575567 0.040513
0.402564 0.575567 0.040513
0.466336 0.575567 0.040513
0.530076 0.575567 0.040513
0.593683 0.575567 0.040513
0.657367 0.575567 0.040513
0.720832 0.575567 0.040513
0.784489 0.575567 0.040513
0.847822 0.575567 0.040513
0.910645 0.575567 0.040513
0 0.639981 0.040513
0.029132 0.639981 0.040513
0.082547 0.639981 0.040513
0.146701 0.639981 0.040513
0.210828 0.639981 0.040513
0.274835 0.639981 0.040513
0.338766 0.639981 0.040513
0.402564 0.639981 0.040513
0.466336 0.639981 0.040513
0.530076 0.639981 0.040513
0.593683 0.639981 0.040513
0.657367 0.639981 0.040513
0.720832 0.639981 0.040513
0.784489 0.639981 0.040513
0.847822 0.639981 0.040513
0.910645 0.639981 0.040513
0 0.70416 0.040513
0.029132 0.70416 0.040513
0.082547 0.70416 0.040513
0.146701 0.70416 0.040513
0.210828 0.70416 0.040513
0.274835 0.70416 0.040513
0.338766 0.70416 0.040513
0.402564 0.70416 0.040513
0.466336 0.70416 0.040513
0.530076 0.70416 0.040513
0.593683 0.70416 0.040513
0.657367 0.70416 0.040513
0.720832 0.70416 0.040513
0.784489 0.70416 0.040513
0.847822 0.70416 0.040513
0.910645 0.70416 0.040513
0 0.767912 0.040513
0.029132 0.767912 0.040513
0.082547 0.767912 0.040513
0.146701 0.767912 0.040513
0.210828 0.767912 0.040513
0.274835 0.767912 0.040513
0.338766 0.767912 0.040513
0.402564 0.767912 0.040513
0.466336 0.767912 0.040513
0.530076 0.767912 0.040513
0.593683 0.767912 0.040513
0.657367 0.767912 0.040513
0.720832 0.767912 0.040513
0.784489 0.767912 0.040513
0.847822 0.767912 0.040513
0.910645 0.767912 0.040513
0 0.831596 0.040513
0.029132 0.831596 0.040513
0.082547 0.831596 0.040513
0.146701 0.831596 0.040513
0.210828 0.831596 0.040513
0.274835 0.831596 0.040513
0.338766 0.831596 0.040513
0.402564 0.831596 0.040513
0.466336 0.831596 0.040513
0.530076 0.831596 0.040513
0.593683 0.831596 0.040513
0.657367 0.831596 0.040513
0.720832 0.831596 0.040513
0.784489 0.831596 0.040513
0.847822 0.831596 0.040513
0.910645 0.831596 0.040513
0 0.894719 0.040513
0.029132 0.894719 0.040513
0.082547 0.894719 0.040513
0.146701 0.894719 0.040513
0.210828 0.894719 0.040513
0.274835 0.894719 0.040513
0.338766 0.894719 0.040513
0.402564 0.894719 0.040513
0.466336 0.894719 0.040513
0.530076 0.894719 0.040513
0.593683 0.894719 0.040513
0.657367 0.894719 0.040513
0.720832 0.894719 0.040513
0.784489 0.894719 0.040513
0.847822 0.894719 0.040513
0.910645 0.894719 0.040513
0 0.957199 0.040513
0.029132 0.957199 0.040513
0.082547 0.957199 0.040513
0.146701 0.957199 0.040513
0.210828 0.957199 0.040513
0.274835 0.957199 0.040513
0.338766 0.957199 0.040513
0.402564 0.957199 0.040513
0.466336 0.957199 0.040513
0.530076 0.957199 0.040513
0.593683 0.957199 0.040513
0.657367 0.957199 0.040513
0.720832 0.957199 0.040513
0.784489 0.957199 0.040513
0.847822 0.957199 0.040513
0.910645 0.957199 0.040513
0 0 0.103709
0.029132 0 0.103709
0.082547 0 0.103709
0.146701 0 0.103709
0.210828 0 0.103709
0.274835 0 0.103709
0.338766 0 0.103709
0.402564 0 0.103709
0.466336 0 0.103709
0.530076 0 0.103709
0.593683 0 0.103709
0.657367 0 0.103709
0.720832 0 0.103709
0.784489 0 0.103709
0.847822 0 0.103709
0.910645 0 0.103709
0 0.044368 0.103709
0.029132 0.044368 0.103709
0.082547 0.044368 0.103709
0.146701 0.044368 0.103709
0.210828 0.044368 0.103709
0.274835 0.044368 0.103709
0.338766 0.044368 0.103709
0.402564 0.044368 0.103709
0.466336 0.044368 0.103709
0.530076 0.044368 0.103709
0.593683 0.044368 0.103709
0.657367 0.044368 0.103709
0.720832 0.044368 0.103709
0.784489 0.044368 0.103709
0.847822 0.044368 0.103709
0.910645 0.044368 0.103709
0 0.109014 0.103709
0.029132 0.109014 0.103709
0.082547 0.109014 0.103709
0.146701 0.109014 0.103709
0.210828 0.109014 0.103709
0.274835 0.109014 0.103709
0.338766 0.109014 0.103709
0.402564 0.109014 0.103709
0.466336 0.109014 0.103709
0.530076 0.109014 0.103709
0.593683 0.109014 0.103709
0.657367 0.109014 0.103709
0.720832 0.109014 0.103709
0.784489 0.109014 0.103709
0.847822 0.109014 0.103709
0.910645 0.109014 0.103709
0 0.178388 0.103709
0.029132 0.178388 0.103709
0.082547 0.178388 0.103709
0.146701 0.178388 0.103709
0.210828 0.178388 0.103709
0.274835 0.178388 0.103709
0.338766 0.178388 0.103709
0.402564 0.178388 0.103709
0.466336 0.178388 0.103709
0.530076 0.178388 0.103709
0.593683 0.178388 0.103709
0.657367 0.178388 0.103709
0.720832 0.178388 0.103709
0.784489 0.178388 0.103709
0.847822 0.178388 0.103709
0.910645 0.178388 0.103709
0 0.246376 0.103709
0.029132 0.246376 0.103709
0.082547 0.246376 0.103709
0.146701 0.246376 0.103709
0.210828 0.246376 0.103709
0.274835 0.246376 0.103709
0.338766 0.246376 0.103709
0.402564 0.246376 0.103709
0.466336 0.246376 0.103709
0.530076 0.246376 0.103709
0.593683 0.246376 0.103709
0.657367 0.246376 0.103709
0.720832 0.246376 0.103709
0.784489 0.246376 0.103709
0.847822 0.246376 0.103709
0.910645 0.246376 0.103709
0 0.313421 0.103709
0.029132 0.313421 0.103709
0.082547 0.313421 0.103709
0.146701 0.313421 0.103709
0.210828 0.313421 0.103709
0.274835 0.313421 0.103709
0.338766 0.313421 0.103709
0.402564 0.313421 0.103709
0.466336 0.313421 0.103709
0.530076 0.313421 0.103709
0.593683 0.313421 0.103709
0.657367 0.313421 0.103709
0.720832 0.313421 0.103709
0.784489 0.313421 0.103709
0.847822 0.313421 0.103709
0.910645 0.313421 0.103709
0 0.379727 0.103709
0.029132 0.379727 0.103709
0.082547 0.379727 0.103709
0.146701 0.379727 0.103709
0.210828 0.379727 0.103709
0.274835 0.379727 0.103709
0.338766 0.379727 0.103709
0.402564 0.379727 0.103709
0.466336 0.379727 0.103709
0.530076 0.379727 0.103709
0.593683 0.379727 0.103709
0.657367 0.379727 0.103709
0.720832 0.379727 0.103709
0.784489 0.379727 0.103709
0.847822 0.379727 0.103709
0.910645 0.379727 0.103709
0 0.445431 0.103709
0.029132 0.445431 0.103709
0.082547 0.445431 0.103709
0.146701 0.445431 0.103709
0.210828 0.445431 0.103709
0.274835 0.445431 0.103709
0.338766 0.445431 0.103709
0.402564 0.445431 0.103709
0.466336 0.445431 0.103709
0.530076 0.445431 0.103709
0.593683 0.445431 0.103709
0.657367 0.445431 0.103709
0.720832 0.445431 0.103709
0.784489 0.445431 0.103709
0.847822 0.445431 0.103709
0.910645 0.445431 0.103709
0 0.510682 0.103709
0.029132 0.510682 0.103709
0.082547 0.510682 0.103709
0.146701 0.510682 0.103709
0.210828 0.510682 0.103709
0.274835 0.510682 0.103709
0.338766 0.510682 0.103709
0.402564 0.510682 0.103709
0.466336 0.510682 0.103709
0.530076 0.510682 0.103709
0.593683 0.510682 0.103709
0.657367 0.510682 0.103709
0.720832 0.510682 0.103709
0.784489 0.510682 0.103709
0.847822 0.510682 0.103709
0.910645 0.510682 0.103709
0 0.575567 0.103709
0.029132 0.575567 0.103709
0.082547 0.575567 0.103709
0.146701 0.575567 0.103709
0.210828 0.575567 0.103709
0.274835 0.575567 0.103709
0.338766 0.575567 0.103709
0.402564 0.575567 0.103709
0.466336 0.575567 0.103709
0.530076 0.575567 0.103709
0.593683 0.575567 0.103709
0.657367 0.575567 0.103709
0.720832 0.575567 0.103709
0.784489 0.575567 0.103709
0.847822 0.575567 0.103709
0.910645 0.575567 0.103709
0 0.639981 0.103709
0.029132 0.639981 0.103709
0.082547 0.639981 0.103709
0.146701 0.639981 0.103709
0.210828 0.639981 0.103709
0.274835 0.639981 0.103709
0.338766 0.639981 0.103709
0.402564 0.639981 0.103709
0.466336 0.639981 0.103709
0.530076 0.639981 0.103709
0.593683 0.639981 0.103709
0.657367 0.639981 0.103709
0.720832 0.639981 0.103709
0.784489 0.639981 0.103709
0.847822 0.639981 0.103709
0.910645 0.639981 0.103709
0 0.70416 0.103709
0.029132 0.70416 0.103709
0.082547 0.70416 0.103709
0.146701 0.70416 0.103709
0.210828 0.70416 0.103709
0.274835 0.70416 0.103709
0.338766 0.70416 0.103709
0.402564 0.70416 0.103709
0.466336 0.70416 0.103709
0.530076 0.70416 0.103709
0.593683 0.70416 0.103709
0.657367 0.70416 0.103709
0.720832 0.70416 0.103709
0.784489 0.70416 0.103709
0.847822 0.70416 0.103709
0.910645 0.70416 0.103709
0 0.767912 0.103709
0.029132 0.767912 0.103709
0.082547 0.767912 0.103709
0.146701 0.767912 0.103709
0.210828 0.767912 0.103709
0.274835 0.767912 0.103709
0.338766 0.767912 0.103709
0.402564 0.767912 0.103709
0.466336 0.767912 0.103709
0.530076 0.767912 0.103709
0.593683 0.767912 0.103709
0.657367 0.767912 0.103709
0.720832 0.767912 0.103709
0.784489 0.767912 0.103709
0.847822 0.767912 0.103709
0.910645 0.767912 0.103709
0 0.831596 0.103709
0.029132 0.831596 0.103709
0.082547 0.831596 0.103709
0.146701 0.831596 0.103709
0.210828 0.831596 0.103709
0.274835 0.831596 0.103709
0.338766 0.831596 0.103709
0.402564 0.831596 0.103709
0.466336 0.831596 0.103709
0.530076 0.831596 0.103709
0.593683 0.831596 0.103709
0.657367 0.831596 0.103709
0.720832 0.831596 0.103709
0.784489 0.831596 0.103709
0.847822 0.831596 0.103709
0.910645 0.831596 0.103709
0 0.894719 0.103709
0.029132 0.894719 0.103709
0.082547 0.894719 0.103709
0.146701 0.894719 0.103709
0.210828 0.894719 0.103709
0.274835 0.894719 0.103709
0.338766 0.894719 0.103709
0.402564 0.894719 0.103709
0.466336 0.894719 0.103709
0.530076 0.894719 0.103709
0.593683 0.894719 0.103709
0.657367 0.894719 0.103709
0.720832 0.894719 0.103709
0.784489 0.894719 0.103709
0.847822 0.894719 0.103709
0.910645 0.894719 0.103709
0 0.957199 0.103709
0.029132 0.957199 0.103709
0.082547 0.957199 0.103709
0.146701 0.957199 0.103709
0.210828 0.957199 0.103709
0.274835 0.957199 0.103709
0.338766 0.957199 0.103709
0.402564 0.957199 0.103709
0.466336 0.957199 0.103709
0.530076 0.957199 0.103709
0.593683 0.957199 0.103709
0.657367 0.957199 0.103709
0.720832 0.957199 0.103709
0.784489 0.957199 0.103709
0.847822 0.957199 0.103709
0.910645 0.957199 0.103709
0 0 0.173808
0.029132 0 0.173808
0.082547 0 0.173808
0.146701 0 0.173808
0.210828 0 0.173808
0.274835 0 0.173808
0.338766 0 0.173808
0.402564 0 0.173808
0.466336 0 0.173808
0.530076 0 0.173808
0.593683 0 0.173808
0.657367 0 0.173808
0.720832 0 0.173808
0.784489 0 0.173808
0.847822 0 0.173808
0.910645 0 0.173808
0 0.044368 0.173808
0.029132 0.044368 0.173808
0.082547 0.044368 0.173808
0.146701 0.044368 0.173808
0.210828 0.044368 0.173808
0.274835 0.044368 0.173808
0.338766 0.044368 0.173808
0.402564 0.044368 0.173808
0.466336 0.044368 0.173808
0.530076 0.044368 0.173808
0.593683 0.044368 0.173808
0.657367 0.044368 0.173808
0.720832 0.044368 0.173808
0.784489 0.044368 0.173808
0.847822 0.044368 0.173808
0.910645 0.044368 0.173808
0 0.109014 0.173808
0.029132 0.109014 0.173808
0.082547 0.109014 0.173808
0.146701 0.109014 0.173808
0.210828 0.109014 0.173808
0.274835 0.109014 0.173808
0.338766 0.109014 0.173808
0.402564 0.109014 0.173808
0.466336 0.109014 0.173808
0.530076 0.109014 0.173808
0.593683 0.109014 0.173808
0.657367 0.109014 0.173808
0.720832 0.109014 0.173808
0.784489 0.109014 0.173808
0.847822 0.109014 0.173808
0.910645 0.109014 0.173808
0 0.178388 0.173808
0.029132 0.178388 0.173808
0.082547 0.178388 0.173808
0.146701 0.178388 0.173808
0.210828 0.178388 0.173808
0.274835 0.178388 0.173808
0.338766 0.178388 0.173808
0.402564 0.178388 0.173808
0.466336 0.178388 0.173808
0.530076 0.178388 0.173808
0.593683 0.178388 0.173808
0.657367 0.178388 0.173808
0.720832 0.178388 0.173808
0.784489 0.178388 0.173808
0.847822 0.178388 0.173808
0.910645 0.178388 0.173808
0 0.246376 0.173808
0.029132 0.246376 0.173808
0.082547 0.246376 0.173808
0.146701 0.246376 0.173808
0.210828 0.246376 0.173808
0.274835 0.246376 0.173808
0.338766 0.246376 0.173808
0.402564 0.246376 0.173808
0.466336 0.246376 0.173808
0.530076 0.246376 0.173808
0.593683 0.246376 0.173808
0.657367 0.246376 0.173808
0.720832 0.246376 0.173808
0.784489 0.246376 0.173808
0.847822 0.246376 0.173808
0.910645 0.246376 0.173808
0 0.313421 0.173808
0.029132 0.313421 0.173808
0.082547 0.313421 0.173808
0.146701 0.313421 0.173808
0.210828 0.313421 0.173808
0.274835 0.313421 0.173808
0.338766 0.313421 0.173808
0.402564 0.313421 0.173808
0.466336 0.313421 0.173808
0.530076 0.313421 0.173808
0.593683 0.313421 0.173808
0.657367 0.313421 0.173808
0.720832 0.313421 0.173808
0.784489 0.313421 0.173808
0.847822 0.313421 0.173808
0.910645 0.313421 0.173808
0 0.379727 0.173808
0.029132 0.379727 0.173808
0.082547 0.379727 0.173808
0.146701 0.379727 0.173808
0.210828 0.379727 0.173808
0.274835 0.379727 0.173808
0.338766 0.379727 0.173808
0.402564 0.379727 0.173808
0.466336 0.379727 0.173808
0.530076 0.379727 0.173808
0.593683 0.379727 0.173808
0.657367 0.379727 0.173808
0.720832 0.379727 0.173808
0.784489 0.379727 0.173808
0.847822 0.379727 0.173808
0.910645 0.379727 0.173808
0 0.445431 0.173808
0.029132 0.445431 0.173808
0.082547 0.445431 0.173808
0.146701 0.445431 0.173808
0.210828 0.445431 0.173808
0.274835 0.445431 0.173808
0.338766 0.445431 0.173808
0.402564 0.445431 0.173808
0.466336 0.445431 0.173808
0.530076 0.445431 0.173808
0.593683 0.445431 0.173808
0.657367 0.445431 0.173808
0.720832 0.445431 0.173808
0.784489 0.445431 0.173808
0.847822 0.445431 0.173808
0.910645 0.445431 0.173808
0 0.510682 0.173808
0.029132 0.510682 0.173808
0.082547 0.510682 0.173808
0.146701 0.510682 0.173808
