site/assets/luts/freshluts--0000946-fresh-and-nut.cube
# LUTr-Schema-Version: 2
# LUTr-ID: freshluts--0000946-fresh-and-nut
# LUTr-Title: Fresh and nut
# LUTr-Collection: Fresh LUTs
# LUTr-Collection-ID: freshluts-community
# LUTr-Source: https://freshluts.com
# LUTr-Retrieved: 2026-07-27
# LUTr-Source-File: submissions-raw/freshluts/cubes/946__653_12.0154_012_A001_C012_0226G7_001-ID-145000.cube
# LUTr-Source-Format: CUBE
# LUTr-Source-SHA256: 9ab1fbbb8d8115cdd4027b0ee52ba607637fc7445c97fafe7da8f091a8dd654a
# LUTr-License: CC0-1.0
# LUTr-License-URL: https://freshluts.com/termsandconditions
# LUTr-License-Basis: site-terms
# LUTr-Transform-Class: creative-look
# LUTr-Tags: creative, freshluts, community, cube, red-logfilm
# LUTr-Input-Color-Space: red-logfilm-rwg
# LUTr-Input-Gamut: red-wide-gamut-rgb
# LUTr-Input-Transfer: red-logfilm
# LUTr-Output-Color-Space: srgb
# LUTr-Output-Gamut: rec709
# LUTr-Output-Transfer: srgb
# LUTr-Color-Space-Confidence: inferred-from-source-label
# LUTr-Domain-Normalized: true
# LUTr-Shaper: none
# LUTr-Original-Grid: 33x33x33
# LUTr-Conversion-Grid: 33x33x33
# LUTr-Conversion-Interpolation: none
# LUTr-Conversion-Method: Metadata normalization; numeric LUT samples preserved
# LUTr-Conversion-Tool: LUTr scripts/convert-all-to-cube.mjs 2.0.0
# LUTr-Conversion-Date: 2026-07-28
# LUTr-Asset-URL: https://freshluts.com/luts/946
# LUTr-Author: kosala
# LUTr-Author-URL: https://freshluts.com/users/38201
# LUTr-Attribution: kosala via Fresh LUTs
# LUTr-Source-Labels: gamma=RED Log Film; color=None; key=Neutral; style=FRESH
# LUTr-Note: Preserve this metadata and the upstream license notices when redistributing.
TITLE "Fresh and nut"
LUT_3D_SIZE 9
DOMAIN_MIN 0 0 0
DOMAIN_MAX 1 1 1
0.0473335 0.0584878 0.0750286
0.0474556 0.0585031 0.0750134
0.0525216 0.0589609 0.0740368
0.0838941 0.0665599 0.0732738
0.199557 0.0830396 0.0699779
0.498894 0.082063 0.0616617
0.643122 0.0693828 0.0657359
0.760479 0.0762951 0.0819409
0.842145 0.0814679 0.0886091
0.0472572 0.0585946 0.0750591
0.0473335 0.0585336 0.0749523
0.051957 0.0589914 0.0740063
0.0829938 0.0668956 0.0731518
0.198596 0.0848249 0.0702068
0.501213 0.0895705 0.0624704
0.643687 0.0838636 0.0686503
0.749187 0.0979171 0.0882582
0.808774 0.10959 0.100954
0.0439155 0.0623026 0.0755779
0.0442969 0.0621653 0.0754253
0.0481575 0.0623636 0.0749371
0.0805524 0.0690623 0.0729229
0.195972 0.0862898 0.0699016
0.50103 0.0962234 0.0618753
0.644587 0.104234 0.0716411
0.738598 0.133822 0.0988022
0.789563 0.156268 0.118318
0.0343633 0.0845197 0.0744793
0.0354162 0.0843366 0.0742504
0.0374762 0.083711 0.073518
0.0663005 0.0864576 0.0706188
0.195163 0.11162 0.0746014
0.509178 0.129107 0.0633555
0.64593 0.126406 0.068986
0.736065 0.156466 0.094728
0.787259 0.182849 0.117052
0.0163424 0.151385 0.0845655
0.0193637 0.15108 0.0834211
0.0217441 0.150042 0.0814527
0.0386816 0.149172 0.0742046
0.168505 0.169802 0.056672
0.535622 0.272572 0.0920729
0.679667 0.257343 0.101411
0.75874 0.276905 0.12842
0.815229 0.301167 0.151095
0.0104677 0.388724 0.105898
0.021088 0.382849 0.104952
0.0412757 0.392798 0.0898604
0.067216 0.419364 0.059968
0.183536 0.423316 0.0273899
0.494987 0.449531 0.024445
0.803403 0.489815 0.0363928
0.941115 0.50222 0.0388495
0.987488 0.514046 0.03888
0.00155642 0.675319 0.0840772
0.00155642 0.674128 0.0840162
0.0385748 0.671458 0.0776989
0.075761 0.667323 0.0691234
0.160113 0.661509 0.0445716
0.490349 0.69424 0.0237278
0.812436 0.72636 0.0768902
0.985672 0.757916 0.0522621
0.985687 0.757702 0.0522316
0.00030518 0.841886 0.0659495
0.00030518 0.841886 0.0659495
0.0135195 0.841871 0.064332
0.114473 0.844785 0.0484932
0.197482 0.852232 0.0324559
0.489998 0.900923 0.0171817
0.796445 0.921675 0.0365301
0.979141 0.935653 0.0471046
0.985336 0.934005 0.0476387
0.00030518 0.841886 0.0659495
0.00030518 0.841886 0.0659495
0.00030518 0.841886 0.0659495
0.12134 0.845197 0.0472114
0.203082 0.852872 0.0314488
0.4916 0.901183 0.017258
0.795697 0.943923 0.0334173
0.980606 0.966674 0.039292
0.987457 0.967437 0.0392157
0.0473335 0.0584421 0.0751049
0.0474556 0.0584573 0.0750896
0.0522621 0.0587625 0.0742351
0.0830854 0.0663767 0.0739452
0.197864 0.0823224 0.0711833
0.495201 0.0792401 0.0655985
0.645228 0.065095 0.0743572
0.757366 0.0704051 0.0936294
0.839307 0.0754253 0.102281
0.0471656 0.0586252 0.0752422
0.0473793 0.0585794 0.0751202
0.0516518 0.0589761 0.0743572
0.0821088 0.0668956 0.073991
0.196887 0.0843977 0.0717021
0.497444 0.0867781 0.0665293
0.643168 0.0800336 0.0771954
0.74316 0.0923323 0.0999619
0.802976 0.103532 0.113741
0.0441291 0.0620737 0.0760052
0.0446479 0.0619516 0.0759136
0.0482643 0.0621347 0.0755932
0.0795758 0.0688334 0.0742199
0.19408 0.0856947 0.071809
0.497139 0.093492 0.0666667
0.643946 0.101213 0.0813916
0.733577 0.129152 0.110155
0.784314 0.150713 0.131548
0.0343023 0.0843671 0.0761578
0.0355077 0.0842908 0.076051
0.0373693 0.083711 0.075639
0.0653697 0.0863508 0.073167
0.192218 0.110155 0.0775769
0.504356 0.124651 0.069337
0.645457 0.122393 0.0802625
0.730739 0.151537 0.108339
0.781964 0.178149 0.132845
0.0156252 0.1523 0.0900587
0.0186007 0.15172 0.0889601
0.0209964 0.150546 0.0873426
0.0367895 0.149462 0.081529
0.164477 0.168627 0.0674601
0.535348 0.271015 0.109331
0.680461 0.257099 0.122759
0.749279 0.272511 0.14873
0.805951 0.297673 0.172763
0.00634775 0.375158 0.131304
0.0118715 0.344793 0.144213
0.0219272 0.341695 0.136049
0.0351873 0.349508 0.117357
0.172808 0.409583 0.0355993
0.493339 0.448081 0.0242313
0.803128 0.493233 0.0366217
0.93164 0.503548 0.0403906
0.987137 0.516793 0.0563516
0.00155642 0.67422 0.0840314
0.00155642 0.67303 0.0839857
0.0364843 0.670283 0.0780499
0.0755016 0.666148 0.0691539
0.158419 0.660105 0.0449378
0.48806 0.692485 0.0236362
0.810773 0.724392 0.0766003
0.98529 0.755962 0.0521706
0.985763 0.755688 0.0520333
0.00030518 0.841886 0.0659495
0.00030518 0.841886 0.0659495
0.00944533 0.841871 0.0648356
0.113344 0.844724 0.0486915
0.195132 0.851957 0.0328679
0.487327 0.900465 0.0170748
0.793881 0.918196 0.0367285
0.976211 0.931991 0.0479744
0.985092 0.930449 0.0485542
0.00030518 0.841886 0.0659495
0.00030518 0.841886 0.0659495
0.00030518 0.841886 0.0659495
0.119326 0.84506 0.0476081
0.20061 0.852598 0.0318914
0.488396 0.900649 0.0171206
0.79266 0.943511 0.0331731
0.97734 0.966308 0.0393225
0.987457 0.967437 0.0392157
0.0485695 0.0591745 0.080705
0.0489204 0.0591592 0.0803998
0.0526284 0.0593118 0.0789197
0.080766 0.0661326 0.0769818
0.194018 0.0805371 0.0723125
0.488899 0.0747234 0.0681468
0.652552 0.0565499 0.0853437
0.761074 0.057557 0.110231
0.843565 0.0609903 0.122972
0.0480812 0.0594644 0.0804303
0.0484474 0.0594186 0.0799573
0.0516976 0.0597543 0.0786755
0.0797589 0.0669871 0.0767529
0.193347 0.0834516 0.0728466
0.491066 0.0832227 0.0693675
0.641993 0.0725261 0.0885023
0.739574 0.0803082 0.116442
0.799435 0.0890974 0.133593
0.0450446 0.0621805 0.0798962
0.0459297 0.0621195 0.0795911
0.0486458 0.0619821 0.0787671
0.0773632 0.0681773 0.0763409
0.190494 0.0847334 0.0729381
0.491157 0.0910811 0.0709697
0.643259 0.0959945 0.0952773
0.724697 0.118944 0.128725
0.774685 0.138262 0.152575
0.0341039 0.0835126 0.0782177
0.0358282 0.0833295 0.0777905
0.0373541 0.0826886 0.0772412
0.063447 0.0849775 0.0746319
0.187015 0.107362 0.0792248
0.495918 0.117754 0.0763867
0.644831 0.115633 0.0986038
0.719478 0.140978 0.132158
0.770321 0.167132 0.158968
0.0144503 0.151888 0.0940108
0.0176547 0.150988 0.0929732
0.0205081 0.149798 0.0921035
0.0343633 0.148638 0.0889143
0.15729 0.166171 0.0813458
0.530312 0.265675 0.137896
0.682582 0.255421 0.161578
0.732326 0.26099 0.181659
0.790005 0.286976 0.208164
0.00386053 0.403906 0.141268
0.00895705 0.347509 0.167086
0.0134432 0.328405 0.168231
0.0188296 0.324178 0.160128
0.0976425 0.3243 0.109087
0.468147 0.398383 0.0650797
0.813443 0.516564 0.157473
0.901167 0.51873 0.199115
0.960754 0.529244 0.200671
0.00180056 0.676097 0.118395
0.00178531 0.674632 0.116365
0.0198215 0.569726 0.152789
0.0549325 0.593942 0.117601
0.15407 0.656535 0.0458839
0.481971 0.687861 0.0233768
0.806729 0.719768 0.0759442
0.980484 0.750652 0.0528878
0.985916 0.751675 0.0516365
0.00030518 0.842039 0.0676432
0.00030518 0.841886 0.0659495
0.00030518 0.841886 0.0659495
0.110246 0.844541 0.0492561
0.18967 0.851331 0.0338598
0.480552 0.893172 0.0170291
0.788113 0.910094 0.0371862
0.969787 0.923613 0.0500038
0.984543 0.922469 0.0506294
0.00030518 0.841886 0.0659495
0.00030518 0.841886 0.0659495
0.00030518 0.841886 0.0659495
0.11426 0.84477 0.0485237
0.194491 0.851881 0.03299
0.480781 0.899367 0.0168002
0.785306 0.942535 0.0326085
0.96936 0.965408 0.0394141
0.987457 0.967437 0.0392157
0.0632792 0.0556497 0.118502
0.0643473 0.0560159 0.116991
0.0661631 0.0567025 0.114595
0.0834974 0.0684215 0.10338
0.18407 0.0759594 0.0949416
0.480644 0.0603037 0.0836347
0.676265 0.0382849 0.0951705
0.801724 0.0311284 0.11458
0.879255 0.0294804 0.126558
0.0601053 0.0580148 0.117632
0.061265 0.0587778 0.116182
0.062562 0.0596628 0.113939
0.0817884 0.0703593 0.103609
0.182528 0.0801556 0.0945602
0.474845 0.0710613 0.0830854
0.644938 0.0571298 0.0971542
0.744564 0.0583963 0.121065
0.820706 0.0629435 0.136507
0.055375 0.0611887 0.115709
0.0569619 0.0620584 0.114046
0.0582895 0.0624094 0.111864
0.0794537 0.0708782 0.102632
0.179461 0.0830091 0.0935073
0.477455 0.0842603 0.0841535
0.641367 0.0873884 0.104662
0.719417 0.104341 0.134447
0.770321 0.120516 0.157916
0.0344854 0.0884565 0.108888
0.0369726 0.0879225 0.108003
0.0383917 0.0869764 0.106828
0.0568551 0.086305 0.101152
0.172335 0.10071 0.0936294
0.479301 0.106676 0.0857557
0.642237 0.107149 0.107897
0.710643 0.130739 0.141314
0.760937 0.156237 0.171099
0.0119631 0.155001 0.113161
0.0151064 0.153124 0.111635
0.019501 0.150805 0.109239
0.029984 0.147158 0.104234
0.144854 0.160601 0.0958267
0.517281 0.253986 0.148745
0.681056 0.24593 0.176883
0.717647 0.243519 0.196262
0.774136 0.268482 0.227848
0.00047303 0.432593 0.138994
0.00527962 0.381445 0.161654
0.0114748 0.327474 0.179461
0.0162356 0.32163 0.173312
0.0800946 0.318196 0.135454
0.442618 0.378607 0.113313
0.822873 0.544976 0.278355
0.874983 0.52845 0.318074
0.915358 0.53695 0.338048
0.00247196 0.676341 0.166522
0.00247196 0.675029 0.165591
0.0129091 0.600824 0.189944
0.02327 0.491936 0.210803
0.0590829 0.487251 0.17554
0.445121 0.56347 0.10988
0.814817 0.666697 0.203418
0.964523 0.738888 0.123064
0.983993 0.746181 0.117662
0.00030518 0.852369 0.17789
0.00030518 0.85211 0.175174
0.00030518 0.851499 0.169024
0.0928054 0.816922 0.157931
0.167041 0.827085 0.13286
0.462669 0.840925 0.0819409
0.777783 0.884657 0.0546883
0.956741 0.907332 0.0538491
0.983474 0.906645 0.0547494
0.00030518 0.853147 0.185809
0.00030518 0.852766 0.181857
0.00030518 0.851865 0.172778
0.09337 0.817639 0.155489
0.172229 0.829786 0.124224
0.463203 0.890501 0.0574655
0.770779 0.940581 0.0314946
0.954818 0.963775 0.0395361
0.987457 0.967437 0.0392157
0.0382239 0.0292821 0.285405
0.038056 0.0291142 0.284001
0.0377813 0.0288396 0.281743
0.0687114 0.0255436 0.262837
0.172747 0.07776 0.191836
0.49427 0.0147097 0.201648
0.736171 0.00303655 0.179507
0.862943 0.00263981 0.180163
0.919875 0.0034638 0.18526
0.0379797 0.0290227 0.28333
0.0377508 0.028809 0.281544
0.0374762 0.0284581 0.278721
0.0662089 0.0257267 0.263813
0.170245 0.0881056 0.190494
0.454887 0.0328069 0.184665
0.713039 0.0112001 0.178851
0.836316 0.00251774 0.180117
0.906508 0.00328069 0.18706
0.0375067 0.0285039 0.279103
0.0373083 0.0282139 0.276844
0.0370184 0.0277867 0.27364
0.0634775 0.0254978 0.261524
0.166155 0.100328 0.1879
0.444755 0.0551461 0.174243
0.639429 0.051957 0.172503
0.706493 0.0600137 0.177905
0.762737 0.0701762 0.19321
0.0272526 0.0557717 0.274189
0.0278935 0.0540322 0.273945
0.0271153 0.0549172 0.27071
0.0850843 0.078172 0.205661
0.158831 0.11162 0.181003
0.44271 0.072221 0.168002
0.640589 0.0800641 0.175906
0.68661 0.10544 0.184863
0.73875 0.13492 0.209491
0.0143282 0.202228 0.225086
0.0234836 0.184482 0.218402
0.031632 0.17847 0.210971
0.0379187 0.172854 0.20383
0.118441 0.168612 0.187778
0.459876 0.20853 0.204639
0.673823 0.215427 0.225238
0.688014 0.205539 0.21709
0.746197 0.232364 0.244022
0 0.429755 0.227405
0 0.428946 0.226703
0.00770581 0.354238 0.243091
0.0128176 0.338003 0.236271
0.0462501 0.319966 0.212024
0.390768 0.356985 0.196704
0.81915 0.561212 0.375372
0.865888 0.538445 0.385351
0.880613 0.518883 0.376013
0.00213626 0.673152 0.240421
0.00213626 0.671458 0.238682
0.00215152 0.66772 0.234668
0.0221866 0.502068 0.26389
0.042359 0.486595 0.236622
0.379156 0.540993 0.176089
0.791821 0.654383 0.27245
0.946395 0.731777 0.243885
0.97995 0.737011 0.235264
0.0000915541 0.859022 0.243473
0.000122072 0.858686 0.240223
0.000198367 0.857923 0.232868
0.0726177 0.824689 0.220645
0.127428 0.77496 0.20914
0.418921 0.764446 0.170428
0.767193 0.809033 0.203143
0.92462 0.852674 0.216999
0.976944 0.884978 0.174243
0 0.860197 0.254643
0.000015259 0.859739 0.250278
0.000106813 0.858763 0.240879
0.06598 0.82858 0.224018
0.140276 0.805005 0.206546
0.429267 0.863386 0.164004
0.751064 0.927184 0.158267
0.933959 0.956893 0.153658
0.983703 0.963363 0.148821
0.0680858 0.0462348 0.476692
0.0679942 0.0461891 0.476143
0.0677348 0.046067 0.474357
0.0668193 0.045655 0.468482
0.206989 0.0486915 0.449714
0.443183 0.0303655 0.439002
0.734371 0.00196841 0.428702
0.916152 0.00123598 0.425361
0.916197 0.00123598 0.425025
0.0679179 0.0461585 0.475578
0.0678264 0.0461128 0.475013
0.067628 0.0460212 0.473716
0.0669871 0.0457313 0.469612
0.203662 0.0489815 0.453819
0.441169 0.030457 0.436393
0.732448 0.00184634 0.425605
0.907118 0.00123598 0.414435
0.91783 0.00122072 0.412695
0.0674907 0.0459602 0.47277
0.0673991 0.0459144 0.472221
0.0671092 0.0457923 0.470359
0.0666361 0.045594 0.467369
0.1953 0.049424 0.461219
0.391333 0.0880446 0.405203
0.728832 0.00170901 0.421942
0.855909 0.00102235 0.390295
0.920882 0.000961318 0.386465
0.0662852 0.0454414 0.465126
0.0663462 0.0454566 0.465507
0.0661326 0.0453651 0.464103
0.0656596 0.0451667 0.461128
0.184024 0.0507057 0.458854
0.380835 0.146822 0.401617
0.643153 0.0720226 0.382986
0.702327 0.0804303 0.339483
0.739971 0.0987259 0.337789
0.0392004 0.204135 0.480705
0.0419165 0.198123 0.485359
0.0502327 0.18352 0.495369
0.0575723 0.169177 0.498527
0.223301 0.177234 0.397925
0.367422 0.222019 0.392706
0.651331 0.158419 0.381964
0.705943 0.166278 0.350347
0.723354 0.174105 0.339422
0.0263981 0.429709 0.451408
0.0263371 0.42887 0.450706
0.0261845 0.427008 0.448447
0.0784924 0.374548 0.437842
0.101961 0.358633 0.413077
0.319066 0.356695 0.374182
0.774731 0.560861 0.5449
0.888075 0.584695 0.564706
0.883482 0.534691 0.515557
0.0224002 0.674846 0.446326
0.0213169 0.673274 0.444434
0.0190585 0.669184 0.439567
0.019379 0.547784 0.439963
0.0235904 0.531212 0.411994
0.199176 0.521721 0.354131
0.693584 0.633967 0.432441
0.956161 0.781491 0.516243
0.961242 0.805463 0.550393
0 0.88191 0.452644
0 0.881529 0.449088
0.000198367 0.870665 0.440742
0.0168765 0.797436 0.430411
0.0623636 0.70985 0.408347
0.248173 0.688441 0.358053
0.709194 0.785428 0.392706
0.88835 0.827848 0.41828
0.961975 0.856596 0.392782
0 0.883177 0.464607
0 0.882689 0.460075
0 0.881468 0.448631
0 0.879088 0.426535
0.104692 0.831159 0.401617
0.302129 0.794919 0.359686
0.708858 0.897932 0.361379
0.897597 0.931197 0.367269
0.972229 0.941909 0.361868
0.0988327 0.059556 0.678264
0.0987716 0.0595407 0.677821
0.0984817 0.0594492 0.675898
0.0975357 0.0591287 0.669261
0.208026 0.0637827 0.685389
0.430457 0.0710155 0.682918
0.678965 0.0527352 0.667582
0.863081 0.0273747 0.674418
0.866575 0.0277256 0.677394
0.0986954 0.0595102 0.677363
0.0986191 0.0594949 0.676814
0.098436 0.0594339 0.675532
0.0977188 0.0591897 0.670527
0.203738 0.0635691 0.687007
0.429908 0.0710002 0.683162
0.679011 0.0519875 0.666346
0.862745 0.0268864 0.672557
0.867247 0.0270848 0.675685
0.0982986 0.0593881 0.674632
0.0982223 0.0593576 0.674083
0.098024 0.0592966 0.672709
0.0976425 0.0591592 0.669978
0.193973 0.0630655 0.689586
0.427878 0.0709697 0.684779
0.67863 0.0499275 0.663417
0.85951 0.0258335 0.666392
0.86952 0.0250248 0.668956
0.0971847 0.0590066 0.66688
0.097322 0.0590524 0.667796
0.0971542 0.0589914 0.666606
0.0967575 0.0588693 0.663874
0.180987 0.0621042 0.684871
0.410193 0.143053 0.63209
0.572351 0.162493 0.581888
0.77409 0.0999313 0.613108
0.871977 0.0832685 0.634836
0.114992 0.15935 0.680186
0.114519 0.15349 0.681773
0.113237 0.140734 0.683909
0.111772 0.132204 0.681437
0.277119 0.176501 0.514824
0.40264 0.215412 0.581155
0.560296 0.237339 0.578149
0.731395 0.207034 0.590738
0.836774 0.19501 0.600671
0.0688182 0.427741 0.703639
0.0684215 0.426688 0.704509
0.0671855 0.423911 0.708141
0.0640879 0.416236 0.719493
0.159045 0.404227 0.657801
0.435966 0.375067 0.594827
0.584985 0.416815 0.614969
0.825605 0.473075 0.677684
0.890043 0.506645 0.693675
0.0509957 0.673304 0.717449
0.0511635 0.671901 0.715938
0.0511025 0.667384 0.710964
0.048127 0.658015 0.700572
0.144732 0.569787 0.677943
0.27187 0.561181 0.622751
0.578225 0.618143 0.618173
0.952193 0.843702 0.822507
0.957885 0.878904 0.855863
0.0628061 0.878264 0.72282
0.0632029 0.874327 0.71989
0.0628519 0.864286 0.712108
0.0618448 0.841184 0.694499
0.147036 0.704646 0.660807
0.136614 0.685908 0.578393
0.54696 0.743893 0.583383
0.832959 0.813016 0.659922
0.958923 0.877684 0.69424
0.0603342 0.907012 0.735531
0.0590829 0.906737 0.731334
0.0556039 0.905974 0.719799
0.0403143 0.904326 0.69189
0.0944533 0.873838 0.654521
0.196017 0.817487 0.591241
0.581796 0.848371 0.580896
0.847089 0.896086 0.632517
0.936385 0.911345 0.648768
0.109743 0.0612192 0.781247
0.109743 0.0612192 0.781247
0.109743 0.0612192 0.781247
0.109743 0.0612192 0.781247
0.201175 0.0657969 0.811872
0.426337 0.0752422 0.829343
0.64979 0.0798047 0.808545
0.839551 0.0614481 0.82182
0.84828 0.065507 0.815778
0.109743 0.0612192 0.781247
0.109743 0.0612192 0.781247
0.109743 0.0612192 0.781247
0.109743 0.0612192 0.781247
0.196475 0.0654307 0.810376
0.425834 0.0752422 0.830304
0.649561 0.0797131 0.80705
0.835401 0.0631723 0.816876
0.848325 0.0653391 0.814282
0.109743 0.0612192 0.781247
0.109743 0.0612192 0.781247
0.109743 0.0612192 0.781247
0.109743 0.0612192 0.781247
0.186481 0.064622 0.807218
0.423972 0.075227 0.833448
0.647974 0.0794995 0.803128
0.827466 0.0659648 0.806424
0.848478 0.0648661 0.810178
0.109743 0.0612192 0.781247
0.109743 0.0612192 0.781247
0.109743 0.0612192 0.781247
0.109743 0.0612192 0.781247
0.175128 0.0638743 0.803479
0.417426 0.0751202 0.839384
0.635935 0.0903334 0.787793
0.824735 0.065156 0.799207
0.848859 0.0635233 0.802243
0.128084 0.142473 0.799939
0.127413 0.136629 0.80058
0.125139 0.124727 0.800107
0.123003 0.115114 0.797665
0.186389 0.117327 0.771527
0.409308 0.153582 0.757305
0.530541 0.253193 0.671092
0.715587 0.232456 0.711742
0.825742 0.205325 0.77705
0.0819715 0.40322 0.836027
0.0830396 0.401358 0.837186
0.086244 0.396475 0.841566
0.0953231 0.383703 0.85301
0.199268 0.365881 0.786938
0.446403 0.35462 0.648264
0.580835 0.402579 0.712108
0.728344 0.415137 0.739208
0.803601 0.414359 0.757595
0.0946365 0.66537 0.874937
0.0945907 0.664027 0.87364
0.0945144 0.660594 0.870817
0.0945144 0.651301 0.864698
0.229755 0.582177 0.822828
0.352743 0.584726 0.805783
0.608652 0.604074 0.79852
0.759503 0.646632 0.76791
0.879362 0.712245 0.820569
0.0826276 0.86833 0.894499
0.082063 0.865507 0.892088
0.0804761 0.856794 0.884886
0.0753185 0.834379 0.866499
0.21593 0.710796 0.818433
0.322377 0.704356 0.786328
0.534951 0.737163 0.759091
0.793011 0.797482 0.786877
0.960204 0.890196 0.86656
0.0923934 0.91902 0.912352
0.0920882 0.918868 0.909178
0.0911727 0.918425 0.899672
0.0880903 0.917067 0.874556
0.1944 0.892515 0.836469
0.311864 0.82005 0.786969
0.531624 0.828519 0.747143
0.806745 0.873976 0.787747
0.910384 0.894591 0.803632
0.109743 0.0612192 0.781247
0.109743 0.0612192 0.781247
0.109743 0.0612192 0.781247
0.109743 0.0612192 0.781247
0.191379 0.0650187 0.808759
0.418189 0.0751812 0.855848
0.636912 0.0825818 0.852705
0.817517 0.0716564 0.851957
0.939178 0.0268559 0.941558
0.109743 0.0612192 0.781247
0.109743 0.0612192 0.781247
0.109743 0.0612192 0.781247
0.109743 0.0612192 0.781247
0.18706 0.0646677 0.807401
0.417609 0.0751659 0.855802
0.636713 0.0825971 0.852705
0.817319 0.0716716 0.851957
0.939178 0.0268559 0.941558
0.109743 0.0612192 0.781247
0.109743 0.0612192 0.781247
0.109743 0.0612192 0.781247
0.109743 0.0612192 0.781247
0.177249 0.0639963 0.804196
0.415564 0.0751202 0.855604
0.63563 0.0826429 0.85275
0.816312 0.0717479 0.851926
0.939178 0.0268559 0.941558
0.109743 0.0612192 0.781247
0.109743 0.0612192 0.781247
0.109743 0.0612192 0.781247
0.109743 0.0612192 0.781247
0.165408 0.0633097 0.800229
0.407996 0.0749981 0.854841
0.631083 0.0828717 0.852934
0.812741 0.0720226 0.85182
0.939178 0.0268559 0.941558
0.127565 0.135683 0.802884
0.126253 0.129778 0.801373
0.123323 0.116579 0.798032
0.120897 0.106096 0.795178
0.166506 0.103609 0.789242
0.396033 0.112337 0.838926
0.606165 0.179171 0.831449
0.780896 0.199252 0.831998
0.929824 0.160708 0.934127
0.101137 0.388159 0.879179
0.101991 0.386343 0.878828
0.104524 0.381003 0.877791
0.112322 0.367086 0.875257
0.158328 0.348013 0.865278
0.429191 0.341497 0.698543
0.589227 0.37351 0.773907
0.71133 0.408515 0.772168
0.801938 0.399802 0.804318
0.0983444 0.657679 0.937484
0.0982986 0.656474 0.936645
0.0982376 0.6533 0.934798
0.098146 0.643854 0.931899
0.166903 0.616281 0.91223
0.33434 0.58732 0.859556
0.616541 0.587869 0.813382
0.745129 0.635187 0.805417
0.81622 0.641855 0.812528
0.0724804 0.859052 0.962203
0.0716564 0.856718 0.961898
0.0709239 0.84921 0.9608
0.070985 0.827405 0.944213
0.211215 0.729259 0.883223
0.346914 0.707561 0.851057
0.546471 0.740017 0.84712
0.805127 0.777707 0.86183
0.87538 0.807904 0.854978
0.0916457 0.920989 0.96936
0.0916457 0.920989 0.96936
0.0916457 0.920989 0.96936
0.0919814 0.92076 0.961898
0.222538 0.882872 0.915282
0.366232 0.81117 0.868498
0.560037 0.821927 0.843336
0.795041 0.86595 0.855207
0.901091 0.888426 0.869078
