site/assets/luts/freshluts--0001568-film-4-rec709-apply-this-lutlast-node-or-layer.cube
# LUTr-Schema-Version: 2
# LUTr-ID: freshluts--0001568-film-4-rec709-apply-this-lutlast-node-or-layer
# LUTr-Title: FILM-4_Rec.709 (Apply this LUTlast node or layer)
# LUTr-Collection: Fresh LUTs
# LUTr-Collection-ID: freshluts-community
# LUTr-Source: https://freshluts.com
# LUTr-Retrieved: 2026-07-27
# LUTr-Source-File: submissions-raw/freshluts/cubes/1568__FIM_4_Rec.709.cube
# LUTr-Source-Format: CUBE
# LUTr-Source-SHA256: f514ee282828eaa8a2a20d0d23b1e4a2ca2611e7261e04a7f6907783effd5f77
# LUTr-License: CC0-1.0
# LUTr-License-URL: https://freshluts.com/termsandconditions
# LUTr-License-Basis: site-terms
# LUTr-Transform-Class: creative-look
# LUTr-Tags: creative, freshluts, community, cube, cool, rec709, cinematic
# LUTr-Input-Color-Space: rec709
# LUTr-Input-Gamut: rec709
# LUTr-Input-Transfer: rec709
# LUTr-Output-Color-Space: srgb
# LUTr-Output-Gamut: rec709
# LUTr-Output-Transfer: srgb
# LUTr-Color-Space-Confidence: inferred-from-source-label
# LUTr-Domain-Normalized: true
# LUTr-Shaper: none
# LUTr-Original-Grid: 33x33x33
# LUTr-Conversion-Grid: 33x33x33
# LUTr-Conversion-Interpolation: none
# LUTr-Conversion-Method: Metadata normalization; numeric LUT samples preserved
# LUTr-Conversion-Tool: LUTr scripts/convert-all-to-cube.mjs 2.0.0
# LUTr-Conversion-Date: 2026-07-28
# LUTr-Asset-URL: https://freshluts.com/luts/1568
# LUTr-Author: Ashikul Islam
# LUTr-Author-URL: https://freshluts.com/users/202252
# LUTr-Attribution: Ashikul Islam via Fresh LUTs
# LUTr-Source-Labels: gamma=Rec 709; color=Cool; key=Neutral; style=FRESH
# LUTr-Duplicate-Assets: 1569:https://freshluts.com/luts/1569
# LUTr-Note: Preserve this metadata and the upstream license notices when redistributing.
TITLE "FILM-4_Rec.709 (Apply this LUTlast node or layer)"
LUT_3D_SIZE 33
DOMAIN_MIN 0 0 0
DOMAIN_MAX 1 1 1
0 0 0
0 0 0
0 0 0
0.0158389 0 0.00134279
0.03505 0.000869764 0
0.0543526 0.00222782 0
0.0759289 0.00367742 0
0.100557 0.00527962 0
0.126452 0.00708019 0
0.155062 0.00901808 0
0.184527 0.0111849 0
0.217685 0.0146181 0
0.253513 0.0196078 0
0.2916 0.0248875 0
0.330571 0.0301213 0.000701915
0.372549 0.0357824 0.00508125
0.416678 0.040528 0.0108034
0.46276 0.0454871 0.0174105
0.509667 0.0505074 0.0251316
0.557794 0.0564431 0.0339361
0.60621 0.062501 0.0436255
0.654459 0.0699626 0.0548867
0.702113 0.0805829 0.0666819
0.748745 0.0919203 0.0812848
0.794171 0.103105 0.0973831
0.838437 0.117067 0.1149
0.88043 0.133501 0.133959
0.918608 0.151705 0.154513
0.955123 0.172808 0.176852
0.988739 0.197818 0.200351
1 0.225162 0.227207
1 0.255985 0.258213
1 0.292149 0.293858
0 0.00105287 0.00254826
0 0 0
0.00166323 0.000564584 0
0.0167391 0.00274662 0
0.034699 0.00590524 0
0.0554208 0.00888075 0
0.07776 0.0122377 0
0.104662 0.0157168 0
0.132097 0.0194247 0
0.162142 0.0239109 0
0.193759 0.0284581 0
0.227848 0.0332647 0
0.262852 0.0380102 0
0.301183 0.0433967 0.00155642
0.341817 0.0483558 0.00549325
0.383795 0.0529488 0.0100252
0.427543 0.0569924 0.0158083
0.472877 0.0617533 0.0223697
0.519982 0.066743 0.030045
0.566934 0.0726635 0.0385901
0.614099 0.0794995 0.0484169
0.662272 0.0886091 0.0593729
0.708949 0.0987716 0.0714122
0.754818 0.108949 0.0865187
0.800732 0.120912 0.102724
0.84332 0.133913 0.120165
0.884337 0.149126 0.138552
0.922774 0.167376 0.158587
0.958984 0.188678 0.180179
0.991119 0.211963 0.203937
1 0.239445 0.230411
1 0.269673 0.261509
1 0.304662 0.29633
0 0.0133364 0.0149081
0 0.0164645 0.00914015
0.00825513 0.0183413 0.000640879
0.0245823 0.0212253 0.000671397
0.0419776 0.0244755 0
0.0625925 0.0274052 0
0.0866407 0.0307012 0
0.114046 0.0344244 0
0.14284 0.0384375 0
0.17293 0.0426337 0
0.203906 0.0469673 0
0.238178 0.0512093 0.0000915541
0.273976 0.0552834 0.00262455
0.312627 0.0597391 0.00578317
0.352575 0.0635386 0.00978103
0.394553 0.0677501 0.0145724
0.438148 0.0724346 0.0203403
0.482338 0.0779431 0.026688
0.528161 0.0837873 0.0344549
0.575509 0.0900282 0.0430762
0.622171 0.0971084 0.0530861
0.668925 0.105638 0.0636912
0.715846 0.115175 0.0763561
0.76144 0.124926 0.0919814
0.80592 0.136187 0.10811
0.848722 0.14934 0.125429
0.888975 0.165194 0.14342
0.925582 0.182849 0.162066
0.960937 0.203113 0.183658
0.993362 0.226825 0.207904
1 0.25275 0.234195
1 0.282887 0.265156
1 0.317113 0.300404
0.0000457771 0.0273289 0.0271305
0.000213626 0.0345922 0.0208133
0.00503548 0.0372015 0.00302129
0.029633 0.0400244 0.00248722
0.0477455 0.0428473 0.0027924
0.0678874 0.046128 0.00144961
0.0938735 0.0491646 0.000839246
0.121828 0.0528115 0.000167849
0.150912 0.0557717 0
0.181506 0.0592813 0.000610361
0.213794 0.0627298 0.00175479
0.249226 0.0666361 0.00384527
0.285191 0.0706188 0.00650034
0.32343 0.0745708 0.00970474
0.362814 0.0793011 0.0135958
0.404013 0.0841688 0.0185855
0.447181 0.0889906 0.0244144
0.492042 0.0945907 0.0308995
0.536858 0.0999771 0.0386664
0.583566 0.106218 0.0473182
0.630335 0.113573 0.0574197
0.67628 0.121782 0.0684367
0.722332 0.130343 0.0820935
0.768093 0.13991 0.0973068
0.81149 0.151583 0.11313
0.852811 0.164889 0.129732
0.892607 0.179767 0.147295
0.929351 0.198184 0.166293
0.963836 0.217884 0.187945
0.994873 0.240284 0.21117
1 0.266712 0.238117
1 0.295293 0.269001
1 0.32929 0.303838
0.000274662 0.0425727 0.0394446
0.00102235 0.0511177 0.0317693
0.00425727 0.0567636 0.00982681
0.0281987 0.06009 0.00479133
0.0546426 0.0631266 0.00518807
0.0756847 0.065919 0.00505074
0.102724 0.0687266 0.00442512
0.130831 0.0717632 0.00393683
0.160494 0.0747692 0.00390631
0.192096 0.0786145 0.00466926
0.225422 0.0822156 0.00575265
0.259693 0.0861067 0.00729381
0.296223 0.0895857 0.00984207
0.334249 0.0942092 0.0135348
0.373861 0.0984512 0.0179446
0.415747 0.102907 0.0230716
0.457969 0.108034 0.0288396
0.501717 0.113115 0.0355688
0.546731 0.118486 0.0433661
0.592905 0.125521 0.0522469
0.639719 0.132372 0.0626383
0.686015 0.139742 0.0746166
0.730938 0.14844 0.088838
0.775326 0.158312 0.10338
0.817945 0.16939 0.118379
0.857984 0.183047 0.134188
0.896468 0.197772 0.151812
0.932387 0.214817 0.17084
0.966552 0.234775 0.19202
0.997604 0.256901 0.216205
1 0.281422 0.242115
1 0.310719 0.273411
1 0.343236 0.307561
0.0010071 0.062501 0.0536965
0.00196841 0.0710307 0.0417639
0.00515755 0.0779278 0.0222782
0.0223545 0.0844434 0.00810254
0.054902 0.087129 0.00714122
0.0845045 0.090013 0.00816358
0.111742 0.0932631 0.00816358
0.140398 0.095964 0.00799573
0.170382 0.0992599 0.00817884
0.201785 0.102113 0.00883497
0.23563 0.105058 0.00968948
0.271046 0.108492 0.0119326
0.308049 0.112078 0.0146181
0.346166 0.115602 0.0179599
0.385977 0.120012 0.0222324
0.427466 0.124514 0.0278019
0.470283 0.128862 0.0339666
0.513817 0.134142 0.0409247
0.558755 0.139605 0.0492256
0.604044 0.14583 0.0578775
0.650156 0.152773 0.068986
0.695842 0.160311 0.081529
0.739116 0.169284 0.0944686
0.782559 0.17911 0.108797
0.824323 0.190646 0.123659
0.864118 0.203113 0.139895
0.901244 0.218402 0.157183
0.936233 0.23534 0.175998
0.968658 0.253651 0.196918
0.999359 0.275349 0.220768
1 0.300008 0.247715
1 0.327871 0.276783
1 0.360601 0.31165
0.00158694 0.0822919 0.0640574
0.00335698 0.095079 0.0547036
0.00645457 0.102434 0.0371405
0.0128939 0.112459 0.0136416
0.0471962 0.115145 0.0106813
0.0858167 0.117433 0.011017
0.120424 0.119509 0.0122835
0.149722 0.121752 0.0121004
0.180056 0.124651 0.012665
0.212772 0.127169 0.0137789
0.24715 0.130297 0.0152438
0.282383 0.133486 0.0175326
0.319463 0.136812 0.0194858
0.359243 0.1402 0.0232548
0.398581 0.144152 0.0275731
0.44094 0.147616 0.0332189
0.483894 0.152712 0.0397192
0.52752 0.157626 0.0472114
0.571862 0.162844 0.0551461
0.615732 0.169024 0.0644694
0.661097 0.175998 0.0755932
0.705028 0.183581 0.0881361
0.748043 0.192462 0.101045
0.790509 0.202014 0.114977
0.830945 0.212787 0.129778
0.869856 0.225849 0.145815
0.906188 0.24033 0.162829
0.940627 0.256504 0.182269
0.972549 0.275502 0.202991
1 0.295949 0.225544
1 0.320211 0.252049
1 0.347799 0.282063
1 0.378256 0.315908
0.00288396 0.110628 0.0808423
0.00523384 0.12224 0.0700847
0.0084535 0.130404 0.0548867
0.0123903 0.138247 0.0340581
0.0353094 0.146731 0.0174868
0.0765545 0.149126 0.0168612
0.12256 0.14931 0.0159304
0.158465 0.151339 0.016556
0.189395 0.153643 0.0171206
0.223423 0.156115 0.0187686
0.257786 0.158709 0.0204166
0.29395 0.161166 0.0230869
0.332158 0.164508 0.0260319
0.371344 0.167437 0.0299992
0.41297 0.171084 0.0343786
0.454017 0.17499 0.0396887
0.497032 0.178592 0.0451362
0.540368 0.1841 0.0527199
0.583642 0.189075 0.0608988
0.627634 0.194659 0.0706035
0.671504 0.201358 0.082414
0.715587 0.209415 0.0948043
0.7579 0.217487 0.107866
0.798688 0.227436 0.121355
0.8383 0.238224 0.136431
0.876249 0.249851 0.152605
0.911101 0.264851 0.169223
0.944732 0.280659 0.187793
0.975525 0.298634 0.208347
1 0.319631 0.231373
1 0.342275 0.256886
1 0.368978 0.286564
1 0.398413 0.321431
0.00503548 0.142123 0.100832
0.00764477 0.151614 0.090135
0.0107271 0.159304 0.0747082
0.0141909 0.165515 0.0554665
0.0222782 0.174914 0.0307317
0.0682383 0.184634 0.0239261
0.118715 0.183536 0.0213321
0.164385 0.183505 0.02121
0.200198 0.184115 0.0223392
0.233814 0.186557 0.0239414
0.26894 0.189075 0.0261997
0.306447 0.191638 0.0290837
0.343893 0.194232 0.032578
0.383886 0.197864 0.0364538
0.424231 0.201007 0.0407263
0.466407 0.204639 0.0462043
0.508782 0.208759 0.0514687
0.552254 0.212696 0.0587778
0.596323 0.218143 0.0679789
0.639948 0.223423 0.0773022
0.683345 0.229526 0.0891585
0.724697 0.237018 0.100999
0.767773 0.245487 0.114748
0.807553 0.254582 0.128588
0.845014 0.265782 0.142565
0.882216 0.277928 0.158251
0.916396 0.291188 0.175265
0.948165 0.307149 0.193484
0.978134 0.324819 0.21387
1 0.344335 0.236912
1 0.367086 0.26331
1 0.391714 0.292409
1 0.421317 0.32694
0.00813306 0.175586 0.12311
0.0107729 0.184573 0.112932
0.0136568 0.191058 0.0990005
0.0168002 0.196765 0.0820172
0.0213169 0.203067 0.055314
0.0473182 0.213748 0.0316472
0.110796 0.2224 0.0301823
0.161318 0.220768 0.0278325
0.206531 0.218769 0.028687
0.243565 0.219471 0.0300603
0.280461 0.221759 0.0321202
0.31751 0.223987 0.0348058
0.356252 0.226841 0.0387732
0.395529 0.229496 0.0427405
0.43624 0.233097 0.0476997
0.478691 0.236103 0.0534524
0.521553 0.240208 0.0598917
0.565087 0.244144 0.0671244
0.608057 0.248417 0.0758373
0.652262 0.253819 0.0859846
0.694209 0.260029 0.0956893
0.73579 0.267109 0.107698
0.776318 0.275746 0.120775
0.81561 0.2851 0.134401
0.852384 0.295445 0.148562
0.887541 0.307057 0.164065
0.921218 0.320363 0.18117
0.951995 0.335164 0.199283
0.980987 0.3523 0.219959
1 0.370932 0.24358
1 0.392447 0.269032
1 0.416678 0.299153
1 0.444007 0.333181
0.0115206 0.210071 0.145525
0.0143435 0.21912 0.136584
0.0170901 0.22504 0.124041
0.0201267 0.230732 0.109636
0.0242924 0.235248 0.0861677
0.0356603 0.244739 0.0526894
0.0923018 0.256977 0.0401465
0.155413 0.261845 0.0377508
0.204837 0.259281 0.0364996
0.25153 0.256138 0.0373999
0.291081 0.256382 0.0383917
0.32845 0.259251 0.0410163
0.367971 0.260975 0.0450446
0.407935 0.264271 0.0496376
0.44892 0.266835 0.0549325
0.49073 0.270634 0.0611582
0.533837 0.273747 0.0679484
0.576852 0.278157 0.0753948
0.619776 0.282399 0.0835126
0.662593 0.287495 0.0930343
0.705196 0.293004 0.10277
0.745403 0.299657 0.114076
0.78526 0.30721 0.12697
0.82295 0.31667 0.140627
0.859541 0.326543 0.155337
0.893187 0.337774 0.170626
0.925536 0.350042 0.187808
0.956176 0.364614 0.206241
0.983825 0.380865 0.226246
1 0.398962 0.249699
1 0.419455 0.275776
1 0.443137 0.305272
1 0.469688 0.338918
0.0157168 0.247501 0.170413
0.0185702 0.256123 0.162051
0.0212558 0.262318 0.151446
0.0242924 0.266941 0.137713
0.0285039 0.271855 0.118013
0.0345464 0.276875 0.0856336
0.066392 0.290242 0.0511788
0.141451 0.299687 0.0493019
0.201175 0.30248 0.0471504
0.251316 0.298421 0.0463722
0.29987 0.294957 0.0473487
0.339818 0.295766 0.0483864
0.379278 0.298482 0.0520638
0.419806 0.300359 0.0567788
0.46099 0.303639 0.0623941
0.5028 0.306477 0.0680552
0.545251 0.310216 0.0753948
0.588281 0.313741 0.0832685
0.631174 0.318334 0.0918135
0.673411 0.322698 0.100526
0.714595 0.328771 0.110353
0.75584 0.333837 0.1205
0.793469 0.341222 0.133059
0.831098 0.350378 0.146944
0.865797 0.359426 0.161547
0.898848 0.370153 0.177447
0.930022 0.3823 0.194095
0.95935 0.395529 0.212848
0.985992 0.411627 0.233005
1 0.428595 0.255665
1 0.448508 0.282017
1 0.470405 0.3122
1 0.495018 0.346014
0.0206149 0.286748 0.196857
0.0232853 0.294255 0.188602
0.0262303 0.301228 0.179187
0.0292363 0.304967 0.166369
0.033463 0.30988 0.14905
0.0393988 0.314183 0.122011
0.0546273 0.324559 0.0831311
0.120272 0.336019 0.0622721
0.191791 0.344076 0.0602731
0.250507 0.345312 0.0592203
0.301137 0.34078 0.0586557
0.350851 0.335515 0.0583658
0.390158 0.336736 0.0601816
0.431205 0.339529 0.0644083
0.471885 0.341665 0.0700084
0.514977 0.344961 0.0760662
0.557229 0.347631 0.0834974
0.599435 0.351598 0.0914473
0.64155 0.355413 0.0995499
0.683909 0.359945 0.108797
0.724254 0.364508 0.118059
0.764004 0.370809 0.128206
0.80206 0.376715 0.139071
0.837293 0.384604 0.152819
0.871855 0.394476 0.167681
0.903883 0.404211 0.183642
0.933608 0.416159 0.200092
0.962249 0.428672 0.219028
0.988815 0.442435 0.239948
1 0.459648 0.262669
1 0.477684 0.288991
1 0.498634 0.318761
1 0.52192 0.353307
0.0259556 0.326528 0.223789
0.0286107 0.333486 0.215824
0.0317998 0.340185 0.20705
0.0352331 0.345586 0.196353
0.0392767 0.349035 0.180087
0.0451972 0.353307 0.156374
0.0535744 0.358816 0.120851
0.0913558 0.371939 0.0771038
0.172808 0.379477 0.0739147
0.24535 0.390799 0.0737011
0.303777 0.389151 0.0715648
0.354849 0.383658 0.0714427
0.402502 0.377386 0.0713054
0.443183 0.37882 0.0740673
0.485084 0.38143 0.0792401
0.526635 0.384192 0.0856947
0.568978 0.387045 0.0926375
0.610941 0.390494 0.100053
0.652552 0.393805 0.108324
0.693858 0.398672 0.116823
0.733013 0.403021 0.125643
0.77258 0.407889 0.13579
0.809171 0.414328 0.146197
0.844007 0.421256 0.159136
0.877668 0.42974 0.174716
0.908171 0.439902 0.19028
0.938018 0.449744 0.207614
0.964569 0.462226 0.226032
0.990417 0.475731 0.246708
1 0.490806 0.269841
1 0.508293 0.296162
1 0.527153 0.325872
1 0.549065 0.361501
0.0322423 0.368994 0.253239
0.0351873 0.376043 0.245426
0.0383307 0.38146 0.236545
0.0420386 0.387015 0.226688
0.0464637 0.391394 0.212451
0.0522164 0.394827 0.19089
0.0604105 0.399695 0.160861
0.0798352 0.407858 0.116808
0.14992 0.418402 0.0910201
0.227771 0.426078 0.088426
0.302663 0.438697 0.0895094
0.357626 0.433921 0.0873732
0.409689 0.427665 0.0874189
0.455985 0.419745 0.0866865
0.497642 0.422156 0.0905318
0.539467 0.424125 0.0958114
0.580758 0.427161 0.102449
0.621942 0.430045 0.108965
0.66276 0.433677 0.116976
0.703319 0.43682 0.125414
0.742611 0.441794 0.134539
0.779919 0.446372 0.143847
0.816358 0.452232 0.154696
0.851026 0.458152 0.16614
0.882246 0.466255 0.180789
0.912993 0.475105 0.197162
0.940963 0.485115 0.214527
0.967132 0.496071 0.233219
0.992294 0.50869 0.254414
1 0.522606 0.277882
1 0.538582 0.303517
1 0.556252 0.334264
1 0.5776 0.370993
0.0393378 0.411612 0.282795
0.0423133 0.417319 0.274983
0.045716 0.423163 0.266407
0.0493935 0.427893 0.25684
0.0543221 0.433829 0.244327
0.0602579 0.437171 0.225452
0.068101 0.440482 0.198123
0.0796826 0.446052 0.157656
0.120272 0.457069 0.109071
0.207782 0.463676 0.104723
0.286488 0.474083 0.104234
0.36022 0.485145 0.105379
0.414038 0.478111 0.102892
0.463859 0.470451 0.104143
0.509636 0.462882 0.102541
0.551919 0.465232 0.107057
0.592676 0.467262 0.112428
0.633967 0.470222 0.119142
0.673671 0.472984 0.126345
0.712886 0.476936 0.134478
0.751034 0.480339 0.143252
0.788113 0.485267 0.152819
0.823346 0.490166 0.163226
0.856321 0.495995 0.174212
0.887419 0.502678 0.187884
0.91696 0.511315 0.204334
0.944152 0.520394 0.221836
0.969924 0.530434 0.24123
0.993484 0.54168 0.261875
1 0.554543 0.28574
1 0.568765 0.312215
1 0.585916 0.342138
1 0.60557 0.382895
0.0476692 0.455848 0.314534
0.0506752 0.4607 0.306065
0.0542458 0.465919 0.298116
0.0581674 0.471077 0.289143
0.0630503 0.475868 0.276936
0.0694743 0.480339 0.259693
0.0775616 0.483757 0.235325
0.0888228 0.488319 0.200626
0.113039 0.496132 0.152804
0.18558 0.503868 0.123461
0.269245 0.5122 0.120806
0.347143 0.522972 0.120867
0.418433 0.530571 0.121431
0.472068 0.523171 0.119982
0.518624 0.514214 0.121004
0.563668 0.506096 0.118746
0.605066 0.508659 0.123369
0.644831 0.511269 0.129534
0.684703 0.513252 0.136614
0.723613 0.516594 0.14435
0.759884 0.51986 0.152819
0.795926 0.524102 0.162036
0.829343 0.528496 0.171786
0.862333 0.533959 0.183444
0.892409 0.539467 0.195865
0.920592 0.546639 0.212192
0.947295 0.555291 0.230396
0.971695 0.564706 0.248997
0.994827 0.574746 0.270115
1 0.586374 0.293721
1 0.599695 0.320668
1 0.614527 0.350317
1 0.633539 0.397589
0.0568704 0.500221 0.346227
0.0602274 0.505013 0.338994
0.0637522 0.5093 0.330388
0.0675669 0.513115 0.321233
0.0727245 0.517739 0.309789
0.0796216 0.522881 0.293996
0.0879988 0.526345 0.271855
0.0982528 0.530694 0.241596
0.11429 0.53608 0.19649
0.156085 0.544839 0.143389
0.248783 0.549737 0.138445
0.330999 0.559442 0.137087
0.409125 0.569329 0.137423
0.478248 0.574456 0.137835
0.527062 0.566003 0.137316
0.573037 0.557 0.137469
0.617975 0.549493 0.135973
0.65687 0.551034 0.14052
0.694972 0.553796 0.146944
0.732296 0.55555 0.154238
0.768521 0.559213 0.162524
0.803342 0.562203 0.171771
0.836927 0.566384 0.181521
0.867124 0.571176 0.192264
0.896925 0.57673 0.205112
0.924163 0.582452 0.220386
0.949523 0.590463 0.238392
0.973465 0.598306 0.257465
0.995911 0.607797 0.278981
1 0.618341 0.302251
1 0.629618 0.329458
1 0.642832 0.362509
1 0.66128 0.413123
0.0670634 0.543862 0.378927
0.0704051 0.548043 0.370962
0.0741436 0.552087 0.363317
0.0782635 0.556023 0.354513
0.083772 0.559869 0.343084
0.0903334 0.563775 0.328267
0.0985733 0.568429 0.30808
0.108339 0.572427 0.280705
0.120348 0.576379 0.240009
0.150332 0.585245 0.189456
0.225971 0.589136 0.158297
0.315206 0.59704 0.155261
0.396048 0.606195 0.154192
0.471794 0.614633 0.154208
0.535424 0.616648 0.154604
0.582193 0.607691 0.154681
0.626673 0.598199 0.15378
0.668482 0.591134 0.152239
0.706249 0.593194 0.157702
0.742077 0.595254 0.16463
0.777478 0.598001 0.172915
0.810346 0.600946 0.181521
0.842542 0.604776 0.191135
0.871931 0.608179 0.20209
0.901167 0.613046 0.214694
0.926863 0.618158 0.228458
0.951476 0.624369 0.246082
0.975265 0.63209 0.266545
0.996841 0.639857 0.287984
1 0.648966 0.312047
1 0.659022 0.338216
1 0.672053 0.377874
1 0.688197 0.429129
0.0777295 0.585046 0.410895
0.0818799 0.590158 0.404273
0.0858015 0.594186 0.396475
0.0898756 0.597559 0.388312
0.0948501 0.60116 0.377142
0.101137 0.605142 0.362676
0.108659 0.608454 0.343633
0.118074 0.611963 0.31754
0.129305 0.615686 0.282902
0.151873 0.621439 0.235218
0.198108 0.629526 0.179965
0.293431 0.63267 0.173846
0.378744 0.640238 0.170886
0.457954 0.647608 0.169772
0.532036 0.656535 0.17052
0.592966 0.65774 0.171344
0.636301 0.648325 0.170504
0.678111 0.6392 0.168795
0.71667 0.631739 0.169177
0.751293 0.634089 0.175448
0.784833 0.635584 0.182666
0.817884 0.638117 0.191928
0.848249 0.641047 0.201236
0.877623 0.644312 0.211597
0.904326 0.64802 0.22388
0.930053 0.653346 0.238071
0.954131 0.658152 0.25536
0.976425 0.664927 0.275502
0.997284 0.671748 0.296834
1 0.679042 0.321004
1 0.688197 0.348074
1 0.700191 0.394522
1 0.714336 0.446296
0.0894026 0.626291 0.442817
0.0932784 0.630777 0.436927
0.0973373 0.63476 0.430091
0.101457 0.638544 0.422293
0.106218 0.641733 0.411521
0.111955 0.644388 0.39762
0.119463 0.648157 0.379492
0.128328 0.651392 0.355871
0.13843 0.6533 0.322286
0.153719 0.657359 0.279072
0.18909 0.666743 0.224537
0.270085 0.670481 0.194736
0.359792 0.674479 0.189776
0.442649 0.681193 0.186847
0.51902 0.689097 0.185931
0.592142 0.697337 0.187289
0.647486 0.697032 0.187366
0.689006 0.688334 0.186343
0.727855 0.67892 0.184375
0.761639 0.670512 0.186648
0.793683 0.672053 0.193805
0.825223 0.674327 0.202884
0.854002 0.676616 0.211856
0.882429 0.679866 0.221958
0.908202 0.68275 0.234058
0.933272 0.686778 0.248249
0.955718 0.691035 0.264561
0.977005 0.695811 0.283925
0.998306 0.702007 0.306371
1 0.708476 0.33051
1 0.716594 0.365698
1 0.727047 0.412299
1 0.739391 0.465995
0.100877 0.665629 0.475319
0.104555 0.669535 0.468879
0.108278 0.672938 0.462348
0.112139 0.676051 0.454765
0.117128 0.679911 0.445426
0.122988 0.682811 0.432197
0.129931 0.685527 0.415259
0.138201 0.68806 0.392264
0.148058 0.690318 0.362661
0.160021 0.692836 0.321202
0.191043 0.700191 0.274723
0.242634 0.707515 0.217594
0.341238 0.710658 0.210666
0.42475 0.713726 0.205142
0.504372 0.719493 0.202365
0.577493 0.726131 0.20119
0.648539 0.735637 0.203433
0.699123 0.734874 0.20296
0.737102 0.725887 0.200748
0.771038 0.714595 0.200717
0.802136 0.70779 0.204761
0.831708 0.709056 0.213245
0.860685 0.711055 0.222782
0.8869 0.713298 0.232609
0.91194 0.715953 0.243534
0.935119 0.718532 0.257893
0.957259 0.722515 0.274372
0.978729 0.726116 0.294179
0.998566 0.730877 0.315785
1 0.736751 0.340414
1 0.743496 0.384848
1 0.752575 0.432502
1 0.763058 0.485893
0.111925 0.702831 0.507103
0.115419 0.706111 0.50071
0.119112 0.709422 0.494209
0.123018 0.712627 0.48719
0.12784 0.71577 0.478431
0.133532 0.718791 0.465904
0.14023 0.721614 0.449683
0.148272 0.724102 0.429282
0.157702 0.726162 0.401236
0.168627 0.72752 0.364263
0.194202 0.732952 0.320058
0.229145 0.741711 0.261341
0.319112 0.744991 0.233005
0.409613 0.747723 0.226337
0.488502 0.749935 0.220539
0.563897 0.75552 0.217609
0.636622 0.763348 0.217838
0.701335 0.771405 0.219181
0.746807 0.769574 0.217685
0.780621 0.760021 0.216831
0.810056 0.74876 0.218738
0.838437 0.742641 0.223713
0.866011 0.744121 0.233158
0.890791 0.745556 0.242725
0.915312 0.747768 0.253559
0.938094 0.749645 0.267872
0.959579 0.752392 0.284657
0.979751 0.755673 0.30396
0.999069 0.758907 0.326009
1 0.763241 0.358923
1 0.769467 0.404334
1 0.776867 0.453056
1 0.78558 0.507713
0.122942 0.739086 0.539055
0.126421 0.741833 0.532937
0.129885 0.744396 0.526299
0.133333 0.746059 0.518791
0.137987 0.748608 0.509636
0.143633 0.751583 0.498863
0.150607 0.755001 0.484306
0.158297 0.75697 0.464073
0.167102 0.758694 0.438972
0.177661 0.760449 0.405188
0.198749 0.764431 0.365179
0.232517 0.771664 0.313878
0.304082 0.777417 0.273762
0.390539 0.780728 0.249424
0.474998 0.781979 0.241627
0.549874 0.784421 0.236042
0.622049 0.789975 0.233463
0.688869 0.796597 0.233021
0.747921 0.804135 0.233936
0.789319 0.802213 0.232288
0.817456 0.791638 0.233845
0.844923 0.780453 0.236851
0.87126 0.775021 0.24332
0.895827 0.776669 0.253162
0.918624 0.777691 0.26389
0.9402 0.779751 0.276799
0.960632 0.781323 0.293538
0.980667 0.783276 0.313573
0.999023 0.785748 0.337743
1 0.789578 0.37995
1 0.794293 0.426886
1 0.799985 0.475654
1 0.807202 0.53048
0.133333 0.771649 0.568673
0.136385 0.773465 0.562142
0.139712 0.77554 0.556283
0.143282 0.777584 0.549325
0.147662 0.780011 0.540887
0.153002 0.782513 0.529946
0.159564 0.784894 0.516716
0.16762 0.787839 0.499077
0.176532 0.789899 0.475349
0.186313 0.790677 0.444648
0.203143 0.793713 0.406806
0.236439 0.801022 0.363958
0.291768 0.806622 0.316823
0.37792 0.809079 0.293431
0.457572 0.812039 0.270069
0.534554 0.813367 0.255924
0.605661 0.815549 0.250446
0.675029 0.821347 0.248615
0.736141 0.827939 0.247883
0.790585 0.834699 0.248402
0.825559 0.830823 0.249027
0.851575 0.821378 0.252491
0.876158 0.810788 0.255985
0.89958 0.806073 0.26276
0.921218 0.806912 0.27332
0.94258 0.80763 0.28542
0.962264 0.808576 0.30248
0.981064 0.809628 0.322652
0.997055 0.81178 0.359808
1 0.81416 0.404654
1 0.817395 0.450248
1 0.821637 0.499855
1 0.827497 0.554726
0.14345 0.801221 0.597467
0.14638 0.80322 0.591897
0.149386 0.805325 0.586053
0.152743 0.806653 0.57969
0.156771 0.808423 0.571466
0.161913 0.810681 0.561135
0.168185 0.813001 0.547951
0.175708 0.815305 0.532036
0.184283 0.817121 0.510292
0.194568 0.819318 0.482841
0.207996 0.821027 0.447639
0.240467 0.827771 0.409155
0.278935 0.833982 0.360616
0.366094 0.83537 0.336904
0.446662 0.837629 0.314183
0.519982 0.83946 0.289723
0.590036 0.841581 0.269749
0.657969 0.844465 0.265034
0.72163 0.849241 0.26247
0.776638 0.85507 0.261036
