site/assets/luts/freshluts--0001539-mood.cube
# LUTr-Schema-Version: 2
# LUTr-ID: freshluts--0001539-mood
# LUTr-Title: Mood
# LUTr-Collection: Fresh LUTs
# LUTr-Collection-ID: freshluts-community
# LUTr-Source: https://freshluts.com
# LUTr-Retrieved: 2026-07-27
# LUTr-Source-File: submissions-raw/freshluts/cubes/1539__mood.cube
# LUTr-Source-Format: CUBE
# LUTr-Source-SHA256: 3802fe2c0d60749b37814d9e5c9790f4641676071a108706d04f9c28d284e73b
# LUTr-License: CC0-1.0
# LUTr-License-URL: https://freshluts.com/termsandconditions
# LUTr-License-Basis: site-terms
# LUTr-Transform-Class: creative-look
# LUTr-Tags: creative, freshluts, community, cube, high-contrast, cool, high-key, linear
# LUTr-Input-Color-Space: linear-rec709
# LUTr-Input-Gamut: rec709
# LUTr-Input-Transfer: linear
# LUTr-Output-Color-Space: srgb
# LUTr-Output-Gamut: rec709
# LUTr-Output-Transfer: srgb
# LUTr-Color-Space-Confidence: declared-by-source
# LUTr-Domain-Normalized: true
# LUTr-Shaper: none
# LUTr-Original-Grid: 16x16x16
# LUTr-Conversion-Grid: 16x16x16
# LUTr-Conversion-Interpolation: none
# LUTr-Conversion-Method: Metadata normalization; numeric LUT samples preserved
# LUTr-Conversion-Tool: LUTr scripts/convert-all-to-cube.mjs 2.0.0
# LUTr-Conversion-Date: 2026-07-28
# LUTr-Asset-URL: https://freshluts.com/luts/1539
# LUTr-Author: Gina
# LUTr-Author-URL: https://freshluts.com/users/90727
# LUTr-Attribution: Gina via Fresh LUTs
# LUTr-Source-Labels: gamma=linear; color=Cool; key=High Key; style=High contrast
# LUTr-Note: Preserve this metadata and the upstream license notices when redistributing.
TITLE "Mood"
LUT_3D_SIZE 6
DOMAIN_MIN 0 0 0
DOMAIN_MAX 1 1 1
0.109804 0.054902 0.054902
0.139608 0.053333 0.061177
0.250196 0.043137 0.05804
0.493333 0 0.036078
0.758432 0 0
0.999843 0.085883 0.003883
0.12 0.092549 0.061177
0.150431 0.096471 0.057882
0.330667 0.108706 0.038588
0.575687 0.081569 0.00753
0.81302 0.098824 0.001569
0.998431 0.239137 0.004674
0.016471 0.283921 0.032941
0.134431 0.283137 0.041255
0.329568 0.337568 0.005804
0.665098 0.403137 0
0.901177 0.44 0.000314
0.995341 0.48542 0
0 0.633726 0.12549
0.005804 0.625412 0.148549
0.312941 0.624157 0.153883
0.611608 0.658667 0.000157
0.88251 0.677333 0.000314
0.996862 0.710588 0
0.31451 0.837647 0.520784
0.380078 0.840784 0.532706
0.509804 0.833255 0.547451
0.654431 0.832471 0.513569
0.856157 0.834667 0.330824
0.998431 0.837671 0.096682
0.768274 0.948902 0.807569
0.784024 0.945082 0.811553
0.812353 0.945827 0.812385
0.866471 0.945059 0.831216
0.92222 0.958322 0.81309
1 0.972392 0.772157
0.12 0.053333 0.081569
0.144157 0.059294 0.078902
0.264157 0.036079 0.08298
0.483138 0.002039 0.079373
0.747922 0 0.050824
0.997474 0.001577 0.001577
0.11749 0.097883 0.080314
0.161976 0.104471 0.084455
0.314698 0.099325 0.082949
0.560282 0.042447 0.065474
0.799655 0.030996 0.015906
0.996204 0.214238 0.001873
0.007529 0.32 0.117961
0.141584 0.32389 0.118651
0.355106 0.355451 0.047404
0.688377 0.409914 0.002981
0.89073 0.418824 0.000125
0.999686 0.468494 0.002803
0.002039 0.652863 0.272628
0.000941 0.649381 0.278432
0.355012 0.639969 0.302086
0.623216 0.666823 0.058165
0.894055 0.68229 0.004549
1 0.709773 0
0.356706 0.844392 0.576628
0.409035 0.843545 0.580329
0.529694 0.835828 0.594384
0.664471 0.838432 0.571953
0.853804 0.837584 0.424376
0.995332 0.842337 0.293034
0.770698 0.948918 0.814722
0.779403 0.947354 0.811629
0.815529 0.94347 0.821156
0.867776 0.944988 0.831293
0.928323 0.955798 0.825636
0.999961 0.971624 0.780847
0.120785 0.047059 0.229019
0.176785 0.045804 0.237177
0.330039 0.012706 0.244863
0.587922 0.003294 0.300236
0.78353 0.001883 0.259922
0.970855 0.00622 0.241498
0.066039 0.087059 0.271529
0.174306 0.092769 0.284486
0.361035 0.113694 0.293051
0.60571 0.056251 0.307671
0.787922 0.001443 0.259294
0.977828 0.16155 0.26037
0.000628 0.353569 0.350431
0.00069 0.371608 0.366839
0.410478 0.412016 0.404361
0.654306 0.396643 0.356518
0.843514 0.392721 0.317961
0.99736 0.43716 0.306831
0.001882 0.681883 0.502745
0.1536 0.684361 0.520878
0.435169 0.684549 0.534181
0.646055 0.691483 0.465914
0.900455 0.700298 0.420487
0.999975 0.706307 0.416343
0.433255 0.847215 0.678902
0.497694 0.84982 0.681506
0.580204 0.844674 0.67931
0.700392 0.836486 0.690918
0.858102 0.842478 0.592408
0.997801 0.841882 0.537994
0.782596 0.948965 0.839914
0.793653 0.950974 0.837236
0.828027 0.947078 0.843192
0.877507 0.94814 0.847746
0.92883 0.959419 0.848115
0.999929 0.976275 0.811498
0 0 0.583529
0.136784 0.003451 0.593098
0.401882 0.000628 0.614275
0.650824 0 0.62353
0.855216 0.042039 0.634039
0.999969 0.245404 0.632188
0.001569 0.060863 0.605334
0.076392 0.049882 0.622337
0.423467 0.070651 0.637145
0.664784 0.168847 0.643388
0.855122 0.266353 0.652173
0.998064 0.335134 0.635617
0 0.264314 0.615686
0.00251 0.264973 0.634447
0.399812 0.373929 0.676235
0.676863 0.497632 0.68182
0.84182 0.504628 0.664627
0.997081 0.472119 0.620718
0.000157 0.689255 0.692236
0.000879 0.690134 0.69669
0.384659 0.707388 0.7136
0.692079 0.732047 0.730196
0.846808 0.69073 0.680753
0.9993 0.672648 0.646127
0.437333 0.862118 0.766275
0.487718 0.862683 0.765898
0.614808 0.859671 0.777537
0.756392 0.854431 0.790431
0.8688 0.851043 0.749929
0.999689 0.851429 0.73051
0.728408 0.959937 0.85011
0.745757 0.961628 0.849228
0.821784 0.956148 0.871266
0.881741 0.952863 0.877732
0.935769 0.95974 0.889379
0.996753 0.970164 0.85615
0.12549 0 0.827451
0.27702 0 0.835765
0.509176 0.002196 0.843451
0.743529 0.152 0.844706
0.908235 0.320941 0.84251
0.999984 0.475106 0.842236
0.010353 0 0.835137
0.235859 0.001318 0.838149
0.508267 0.003012 0.848847
0.740172 0.309773 0.85073
0.90309 0.431404 0.848941
0.998579 0.534154 0.839489
0.004706 0.222902 0.841726
0.000941 0.249443 0.841726
0.459169 0.332549 0.851357
0.728565 0.52549 0.851953
0.887749 0.614149 0.848
0.999474 0.649665 0.847468
0.005647 0.581961 0.835608
0.000973 0.575153 0.838212
0.010039 0.556204 0.836047
0.680628 0.683733 0.855655
0.884235 0.763827 0.862463
0.99187 0.762659 0.857542
0.064471 0.860549 0.859138
0.252392 0.860455 0.859702
0.501961 0.859482 0.865004
0.727655 0.857631 0.873192
0.910588 0.868392 0.884267
0.999023 0.839719 0.846284
0.73469 0.962298 0.907388
0.747165 0.964943 0.910663
0.797341 0.964194 0.908096
0.867112 0.963404 0.912113
0.941769 0.965242 0.926083
0.999976 0.978737 0.908957
0.470274 0 0.988078
0.535435 0.001553 0.992039
0.670534 0.003138 0.987333
0.841443 0.382416 0.98102
0.956761 0.659412 0.965411
1 0.686079 0.964666
0.443631 0.000016 0.994384
0.51331 0.005294 0.987179
0.668223 0.149468 0.996227
0.835687 0.458082 0.97797
0.950678 0.686911 0.964607
0.998447 0.713475 0.960667
0.289036 0.210949 0.984314
0.409819 0.249942 0.98922
0.61437 0.379528 0.988117
0.816027 0.580097 0.981845
0.940397 0.743437 0.9624
0.999992 0.769208 0.957522
0.000784 0.47371 0.995113
0.001588 0.470453 0.992319
0.369732 0.546532 0.985942
0.750295 0.677144 0.979608
0.932982 0.798874 0.966188
0.999969 0.823513 0.966118
0.00233 0.825145 0.977914
0.005125 0.82155 0.982784
0.00686 0.812104 0.978388
0.490763 0.785159 0.979901
0.901749 0.8453 0.979349
1 0.895624 0.962283
0.564276 0.976354 0.988078
0.594305 0.978644 0.978015
0.68913 0.970133 0.977123
0.799782 0.975522 0.980228
0.910573 0.977852 0.978023
1 0.976585 0.976547
