site/assets/luts/freshluts--0001105-rfh-chemist-embakasi.cube
# LUTr-Schema-Version: 2
# LUTr-ID: freshluts--0001105-rfh-chemist-embakasi
# LUTr-Title: RFH CHEMIST EMBAKASI
# LUTr-Collection: Fresh LUTs
# LUTr-Collection-ID: freshluts-community
# LUTr-Source: https://freshluts.com
# LUTr-Retrieved: 2026-07-27
# LUTr-Source-File: submissions-raw/freshluts/cubes/1105__RFH_CHEMIST_LUT_RFH.cube
# LUTr-Source-Format: CUBE
# LUTr-Source-SHA256: f6cc5407f6db387d24ab4b8ca2a90dd8a41fb471056bf54e748ae47dbdf545d6
# LUTr-License: CC0-1.0
# LUTr-License-URL: https://freshluts.com/termsandconditions
# LUTr-License-Basis: site-terms
# LUTr-Transform-Class: creative-look
# LUTr-Tags: creative, freshluts, community, cube, magenta, high-key, bmd-film
# LUTr-Input-Color-Space:
# LUTr-Input-Gamut: bmd-film-gamut
# LUTr-Input-Transfer: bmd-film
# LUTr-Output-Color-Space: srgb
# LUTr-Output-Gamut: rec709
# LUTr-Output-Transfer: srgb
# LUTr-Color-Space-Confidence: camera-profile-input-required
# LUTr-Domain-Normalized: true
# LUTr-Shaper: none
# LUTr-Original-Grid: 33x33x33
# LUTr-Conversion-Grid: 33x33x33
# LUTr-Conversion-Interpolation: none
# LUTr-Conversion-Method: Metadata normalization; numeric LUT samples preserved
# LUTr-Conversion-Tool: LUTr scripts/convert-all-to-cube.mjs 2.0.0
# LUTr-Conversion-Date: 2026-07-28
# LUTr-Asset-URL: https://freshluts.com/luts/1105
# LUTr-Author: Sammy Sholei
# LUTr-Author-URL: https://freshluts.com/users/76663
# LUTr-Attribution: Sammy Sholei via Fresh LUTs
# LUTr-Source-Labels: gamma=Blackmagic BMD Film; color=Magenta; key=High Key; style=Adventure
# LUTr-Note: Preserve this metadata and the upstream license notices when redistributing.
TITLE "RFH CHEMIST EMBAKASI"
LUT_3D_SIZE 9
DOMAIN_MIN 0 0 0
DOMAIN_MAX 1 1 1
0 0.000793469 0
0 0.000793469 0
0 0.000793469 0
0.269001 0.0772412 0
0.363226 0.106691 0
0.893187 0.274296 0
0.893187 0.274296 0
0.893187 0.274296 0
0.893187 0.274296 0
0 0.000793469 0
0 0.000793469 0
0 0.000793469 0
0.214527 0.0611734 0.00125124
0.65069 0.263447 0
0.909453 0.327077 0
0.907225 0.318746 0
0.904784 0.310353 0
0.901839 0.30132 0
0 0.000793469 0
0 0.000793469 0
0 0.000793469 0
0.149966 0.0419623 0.0059205
0.582605 0.282765 0
0.919036 0.369329 0
0.918074 0.364263 0
0.91664 0.357717 0
0.914809 0.349371 0
0.0873579 0.0577096 0.0176547
0.0764324 0.0529183 0.0179904
0.0678264 0.0492256 0.0182498
0.0872206 0.0585031 0.0242924
0.535805 0.297261 0.000854505
0.924147 0.403738 0
0.925261 0.402609 0
0.924147 0.396612 0
0.922484 0.387686 0
0.308598 0.153979 0.000869764
0.28835 0.145159 0.00154116
0.302159 0.130129 0.00755322
0.354269 0.157992 0.0648814
0.542611 0.32697 0.125322
0.85185 0.481209 0
0.94641 0.511452 0
0.947448 0.514443 0
0.946654 0.512154 0
0.568017 0.291279 0
0.580072 0.297154 0
0.591409 0.303517 0
0.642847 0.268956 0
0.794598 0.353887 0.232807
0.970382 0.618173 0.328283
0.984817 0.719265 0.151873
0.9832 0.682902 0.0894942
0.981674 0.650141 0.0344549
0.711696 0.390265 0
0.711696 0.390265 0
0.711696 0.390265 0
0.722332 0.353628 0
0.828473 0.360967 0.136416
0.982391 0.523705 0.537102
0.979767 0.681056 0.619104
0.979995 0.688334 0.580575
0.983246 0.735286 0.326192
0.711696 0.390265 0
0.711696 0.390265 0
0.711696 0.390265 0
0.713008 0.382544 0
0.807446 0.348089 0.0843671
0.978744 0.460197 0.438651
0.979767 0.681056 0.619104
0.979767 0.681056 0.619104
0.979767 0.681056 0.619104
0.711696 0.390265 0
0.711696 0.390265 0
0.711696 0.390265 0
0.711696 0.390265 0
0.784131 0.339467 0.032517
0.940459 0.429053 0.346899
0.980758 0.626139 0.598627
0.979767 0.681056 0.619104
0.979767 0.681056 0.619104
0 0.000793469 0
0 0.000793469 0
0 0.000793469 0
0.248783 0.0715648 0.000427253
0.713146 0.220478 0
0.893187 0.274296 0
0.893187 0.274296 0
0.893187 0.274296 0
0.893187 0.274296 0
0 0.000793469 0
0 0.000793469 0
0 0.000793469 0
0.19115 0.053666 0.00236515
0.635966 0.201038 0
0.893187 0.274296 0
0.893187 0.274296 0
0.893187 0.274296 0
0.893187 0.274296 0
0 0.000793469 0
0 0.000793469 0
0 0.000793469 0
0.109392 0.0334478 0.00927749
0.584009 0.236698 0
0.906889 0.317586 0
0.904158 0.308217 0
0.901015 0.298878 0
0.897322 0.290166 0
0.0579843 0.0452277 0.0185702
0.0486 0.0414282 0.0188907
0.0390173 0.0373999 0.0183261
0.158602 0.0988022 0.0398566
0.546822 0.269261 0
0.917693 0.362509 0
0.916503 0.357137 0
0.915068 0.350607 0
0.913542 0.343847 0
0.313878 0.156817 0.000793469
0.296239 0.148592 0.00128176
0.293416 0.143557 0.000946059
0.340307 0.145449 0.0219425
0.561471 0.343252 0.121996
0.890532 0.48719 0
0.94493 0.505165 0
0.945556 0.508415 0
0.945022 0.505638 0
0.586313 0.300359 0
0.59939 0.308461 0
0.611917 0.316609 0
0.631617 0.315572 0
0.78999 0.346654 0.194797
0.97467 0.639323 0.342504
0.985153 0.731624 0.184466
0.984161 0.702785 0.123812
0.982513 0.668086 0.0621195
0.711696 0.390265 0
0.711696 0.390265 0
0.711696 0.390265 0
0.711696 0.390265 0
0.813977 0.351553 0.100481
0.982406 0.523217 0.536675
0.979767 0.681056 0.619104
0.979767 0.681056 0.619104
0.981476 0.719127 0.426444
0.711696 0.390265 0
0.711696 0.390265 0
0.711696 0.390265 0
0.711696 0.390265 0
0.784131 0.339467 0.032517
0.97792 0.457511 0.431754
0.979767 0.681056 0.619104
0.979767 0.681056 0.619104
0.979767 0.681056 0.619104
0.711696 0.390265 0
0.711696 0.390265 0
0.711696 0.390265 0
0.711696 0.390265 0
0.754482 0.337835 0.00170901
0.93489 0.425757 0.336095
0.980621 0.633478 0.601801
0.979767 0.681056 0.619104
0.979767 0.681056 0.619104
0 0.000793469 0
0 0.000793469 0
0 0.000793469 0
0.221027 0.0632944 0.00108339
0.725032 0.178882 0.111528
0.919661 0.235096 0.026276
0.911421 0.248829 0.00653086
0.901457 0.263569 0.00102235
0.893675 0.273655 0.0000610361
0 0.000793469 0
0 0.000793469 0
0 0.000793469 0
0.153597 0.0427558 0.00556954
0.638102 0.19794 0
0.893187 0.274296 0
0.893187 0.274296 0
0.893187 0.274296 0
0.893187 0.274296 0
0 0.000793469 0
0 0.000793469 0
0 0.000793469 0
0.0560616 0.022446 0.0110475
0.593133 0.183413 0
0.893187 0.274296 0
0.893187 0.274296 0
0.893187 0.274296 0
0.893187 0.274296 0
0.0324407 0.0346227 0.0178531
0.0901198 0.074815 0.0348211
0.062501 0.0470588 0.0184329
0.130632 0.0847028 0.0347295
0.58204 0.23505 0
0.904891 0.310735 0
0.90193 0.301579 0
0.899977 0.296147 0
0.898863 0.293629 0
0.31696 0.158755 0.000793469
0.312856 0.156161 0.000793469
0.31516 0.157626 0.000793469
0.331167 0.150484 0.000030518
0.591424 0.367468 0.116381
0.943709 0.498787 0
0.945281 0.506935 0
0.947478 0.514519 0
0.948379 0.517113 0
0.604532 0.311696 0
0.620233 0.322148 0
0.636378 0.332631 0
0.647929 0.340078 0
0.789639 0.342428 0.16994
0.978561 0.665965 0.343786
0.984741 0.739223 0.246036
0.985138 0.73106 0.182315
0.984115 0.701747 0.122042
0.711696 0.390265 0
0.711696 0.390265 0
0.711696 0.390265 0
0.711696 0.390265 0
0.813855 0.351476 0.100175
0.982406 0.522118 0.535698
0.979767 0.681056 0.619104
0.979767 0.681056 0.619104
0.97998 0.687861 0.583062
0.711696 0.390265 0
0.711696 0.390265 0
0.711696 0.390265 0
0.711696 0.390265 0
0.786542 0.339971 0.036286
0.977844 0.457237 0.431067
0.979767 0.681056 0.619104
0.979767 0.681056 0.619104
0.979767 0.681056 0.619104
0.711696 0.390265 0
0.711696 0.390265 0
0.711696 0.390265 0
0.711696 0.390265 0
0.757656 0.337591 0.00343328
0.934524 0.425528 0.335378
0.980621 0.632837 0.601526
0.979767 0.681056 0.619104
0.979767 0.681056 0.619104
0 0.0575418 0.111406
0 0.0512245 0.100481
0 0.0452583 0.0901198
0.159854 0.0521553 0.141268
0.722118 0.165194 0.267475
0.928069 0.223728 0.205615
0.927123 0.224369 0.184665
0.926436 0.224781 0.164172
0.925719 0.225208 0.141741
0 0.0415656 0.082536
0 0.0341039 0.0658885
0 0.0266575 0.0500801
0.0937972 0.0372168 0.0867933
0.660731 0.161425 0.15729
0.923705 0.227848 0.0681926
0.921202 0.232425 0.0353246
0.916213 0.24094 0.0145876
0.909972 0.251179 0.00523384
0 0.0289921 0.0545968
0 0.0200504 0.0373083
0 0.0101625 0.0181735
0.208133 0.0688029 0.197208
0.625162 0.170993 0.014786
0.893187 0.274296 0
0.893187 0.274296 0
0.893187 0.274296 0
0.893187 0.274296 0
0.0137331 0.19649 0.247456
0.00157168 0.154406 0.193591
0.00344854 0.118013 0.141756
0.152346 0.121752 0.108858
0.613458 0.200793 0.00396735
0.894133 0.278767 0
0.894804 0.281926 0
0.896178 0.287572 0
0.900923 0.288045 0.00030518
0.250401 0.269154 0.16582
0.320027 0.160693 0.000793469
0.328634 0.16614 0.000793469
0.338598 0.158892 0
0.613031 0.398016 0.0956893
0.944244 0.501564 0
0.946242 0.510979 0
0.949096 0.519158 0
0.950027 0.521828 0
0.615717 0.319158 0
0.62533 0.325505 0
0.637903 0.333608 0
0.646922 0.339422 0
0.800046 0.350301 0.194293
0.980499 0.69163 0.329091
0.984695 0.739391 0.249622
0.985153 0.737606 0.212558
0.985122 0.72961 0.176852
0.711696 0.390265 0
0.711696 0.390265 0
0.711696 0.390265 0
0.712505 0.385489 0
0.818555 0.354406 0.111788
0.982406 0.522728 0.536248
0.979767 0.681056 0.619104
0.979767 0.681056 0.619104
0.979767 0.681056 0.619104
0.711696 0.390265 0
0.711696 0.390265 0
0.711696 0.390265 0
0.711696 0.390265 0
0.794949 0.342428 0.0528725
0.97821 0.458412 0.434104
0.979767 0.681056 0.619104
0.979767 0.681056 0.619104
0.979767 0.681056 0.619104
0.711696 0.390265 0
0.711696 0.390265 0
0.711696 0.390265 0
0.711696 0.390265 0
0.769863 0.337362 0.0128023
0.937362 0.427222 0.340902
0.980621 0.632959 0.601587
0.979767 0.681056 0.619104
0.979767 0.681056 0.619104
0.0139467 0.273045 0.492546
0.0103456 0.268971 0.488365
0.00663767 0.258518 0.490242
0.0608682 0.282322 0.755657
0.752804 0.237797 0.73492
0.931365 0.203372 0.590509
0.93959 0.204868 0.562585
0.944091 0.205539 0.536339
0.946502 0.204349 0.505577
0.0490578 0.277775 0.471611
0.00352483 0.250126 0.459388
0.00352483 0.250141 0.459434
0.00177005 0.244022 0.644388
0.721645 0.217273 0.678721
0.944579 0.20557 0.53257
0.946731 0.204044 0.500877
0.947356 0.202487 0.47097
0.946685 0.202838 0.439307
0.151003 0.316136 0.477562
0.0530861 0.271046 0.452903
0.00299077 0.241443 0.440681
0.000244144 0.21857 0.554971
0.693156 0.200992 0.632746
0.947265 0.202991 0.481636
0.947387 0.201999 0.455528
0.946914 0.202548 0.444755
0.947051 0.202396 0.447822
0.179232 0.32781 0.475593
0.155398 0.312917 0.46743
0.124361 0.298711 0.459159
0.0154574 0.23682 0.455634
0.688563 0.205539 0.621881
0.946365 0.204532 0.508309
0.945739 0.20853 0.518166
0.943938 0.214542 0.529564
0.941588 0.221271 0.540795
0.198138 0.378378 0.453346
0.200443 0.380758 0.455863
0.20705 0.388952 0.463523
0.215412 0.398444 0.47361
0.501228 0.47805 0.520104
0.943969 0.473838 0.379568
0.94432 0.482551 0.390723
0.94461 0.490043 0.400626
0.944549 0.489845 0.401648
0.434974 0.581994 0.488304
0.419364 0.609598 0.533989
0.406332 0.633005 0.568093
0.393973 0.65304 0.598047
0.748989 0.419867 0.238254
0.983719 0.763638 0.384878
0.984344 0.76202 0.355505
0.984436 0.753475 0.322316
0.984207 0.738918 0.281483
0.468864 0.687831 0.615274
0.46688 0.689281 0.617761
0.486625 0.674876 0.593179
0.539132 0.628122 0.500877
0.788708 0.424933 0.172976
0.981857 0.53753 0.54551
0.979721 0.687037 0.626627
0.979721 0.686549 0.626017
0.979736 0.685573 0.624781
0.541146 0.626322 0.497337
0.600946 0.576913 0.380194
0.666529 0.532601 0.234134
0.713481 0.489387 0.0949569
0.78024 0.39057 0.110735
0.972564 0.472267 0.438788
0.979767 0.681056 0.619104
0.979767 0.681056 0.619104
0.979767 0.681056 0.619104
0.70808 0.497017 0.115175
0.722347 0.468482 0.0462196
0.722316 0.439918 0.0118868
0.714092 0.399847 0.000549325
0.777554 0.359548 0.0580606
0.940337 0.428977 0.34667
0.980713 0.628962 0.599863
0.979767 0.681056 0.619104
0.979767 0.681056 0.619104
0.0989395 0.323003 0.542718
0.0989395 0.323003 0.542718
0.0989395 0.323003 0.542718
0.00411994 0.291707 0.778927
0.62089 0.341054 0.995834
0.848997 0.360998 0.987396
0.848997 0.360998 0.987396
0.848997 0.360998 0.987396
0.848997 0.360998 0.987396
0.0989395 0.323003 0.542718
0.0989395 0.323003 0.542718
0.0989395 0.323003 0.542718
0 0.266453 0.691554
0.541909 0.346105 0.998825
0.848997 0.360998 0.987396
0.848997 0.360998 0.987396
0.848997 0.360998 0.987396
0.848997 0.360998 0.987396
0.185214 0.373953 0.571527
0.0989395 0.323003 0.542718
0.0989395 0.323003 0.542718
0.00129702 0.254414 0.62324
0.4813 0.347265 0.998093
0.848997 0.360998 0.987396
0.848997 0.360998 0.987396
0.848997 0.360998 0.987396
0.848997 0.360998 0.987396
0.239506 0.410574 0.596597
0.197345 0.382391 0.576196
0.183032 0.372519 0.570687
0.057969 0.306127 0.583001
0.469795 0.349676 0.997406
0.848997 0.360998 0.987396
0.848997 0.360998 0.987396
0.849363 0.362325 0.987808
0.851011 0.368307 0.989685
0.319631 0.468528 0.64506
0.320958 0.469734 0.646052
0.325093 0.473594 0.649088
0.329534 0.477745 0.652323
0.292073 0.443214 0.721492
0.893553 0.537758 0.999817
0.894728 0.542687 0.999817
0.895659 0.545968 0.999817
0.895125 0.544335 0.999817
0.407248 0.620844 0.708064
0.413733 0.628 0.714321
0.41886 0.634607 0.720317
0.422019 0.638666 0.724086
0.428901 0.64538 0.733135
0.865415 0.850095 0.902251
0.944411 0.80116 0.816678
0.935821 0.771435 0.781079
0.927153 0.738186 0.738415
0.441413 0.67512 0.743923
0.441444 0.675135 0.743969
0.440177 0.674647 0.742092
0.437232 0.673289 0.737758
0.4271 0.676738 0.72076
0.935027 0.758572 0.719036
0.979309 0.79559 0.749844
0.979614 0.806165 0.748211
0.980209 0.824872 0.741329
0.435386 0.672389 0.735073
0.43122 0.670115 0.729137
0.426413 0.66717 0.722393
0.421057 0.663615 0.715007
0.398444 0.657877 0.686595
0.908812 0.67042 0.599832
0.979278 0.76611 0.71664
0.979278 0.760647 0.710597
0.979278 0.756588 0.706111
0.417517 0.661143 0.710185
0.412161 0.657252 0.702892
0.404379 0.6533 0.695384
0.397803 0.648951 0.687114
0.374105 0.665049 0.663783
0.882445 0.594659 0.493431
0.979355 0.749462 0.703288
0.979339 0.738796 0.686259
0.979355 0.735851 0.682994
0.0989395 0.323003 0.542718
0.0989395 0.323003 0.542718
0.0989395 0.323003 0.542718
0.00250248 0.286976 0.761547
0.604532 0.342214 0.996643
0.848997 0.360998 0.987396
0.848997 0.360998 0.987396
0.848997 0.360998 0.987396
0.848997 0.360998 0.987396
0.0989395 0.323003 0.542718
0.0989395 0.323003 0.542718
0.0989395 0.323003 0.542718
0 0.261936 0.671427
0.524193 0.346731 0.998978
0.848997 0.360998 0.987396
0.848997 0.360998 0.987396
0.848997 0.360998 0.987396
0.848997 0.360998 0.987396
0.152193 0.35404 0.55938
0.0989395 0.323003 0.542718
0.0989395 0.323003 0.542718
0.00411994 0.25507 0.605875
0.463996 0.347112 0.997177
0.848997 0.360998 0.987396
0.848997 0.360998 0.987396
0.848997 0.360998 0.987396
0.848997 0.360998 0.987396
0.231769 0.40557 0.592737
0.188235 0.376043 0.572686
0.174609 0.367315 0.567391
0.0571145 0.304799 0.58027
0.468544 0.349203 0.997299
0.848997 0.360998 0.987396
0.848997 0.360998 0.987396
0.849332 0.362203 0.987778
0.85098 0.368215 0.989654
0.316869 0.466041 0.642527
0.320363 0.4692 0.645624
0.325063 0.473564 0.649058
0.329274 0.477501 0.65214
0.292042 0.443153 0.721538
0.893492 0.537514 0.999817
0.894453 0.541512 0.999817
0.89485 0.54316 0.999817
0.894102 0.540047 0.999817
0.416266 0.623697 0.719722
0.419913 0.630228 0.723537
0.423178 0.635874 0.72697
0.424765 0.638621 0.728649
0.427543 0.62681 0.73579
0.75903 0.782742 0.949844
0.947997 0.815732 0.999664
0.945464 0.792752 0.99968
0.941894 0.767651 0.99971
0.44831 0.677211 0.75436
0.44831 0.677211 0.75436
0.44831 0.677211 0.75436
0.44831 0.677211 0.75436
0.460182 0.689769 0.767651
0.497017 0.742489 0.809689
0.988693 0.995712 0.999359
0.985412 0.98735 0.999374
0.982132 0.973144 0.999481
0.44831 0.677211 0.75436
0.44831 0.677211 0.75436
0.44831 0.677211 0.75436
0.44831 0.677211 0.75436
0.455634 0.686015 0.76347
0.481697 0.71754 0.794827
0.988952 0.987778 0.983978
0.982483 0.92134 0.897551
0.981598 0.903532 0.877424
0.44831 0.677211 0.75436
0.44831 0.677211 0.75436
0.44831 0.677211 0.75436
0.44831 0.677211 0.75436
0.449683 0.681178 0.755306
0.452842 0.708354 0.750546
0.980499 0.896559 0.87042
0.979873 0.846189 0.809537
0.979568 0.827924 0.788037
0.0989395 0.323003 0.542718
0.0989395 0.323003 0.542718
0.0989395 0.323003 0.542718
0.00114443 0.282597 0.745403
0.5888 0.343313 0.997314
0.848997 0.360998 0.987396
0.848997 0.360998 0.987396
0.848997 0.360998 0.987396
0.848997 0.360998 0.987396
0.0989395 0.323003 0.542718
0.0989395 0.323003 0.542718
0.0989395 0.323003 0.542718
0.000183108 0.258259 0.652979
0.507362 0.347112 0.998871
0.848997 0.360998 0.987396
0.848997 0.360998 0.987396
0.848997 0.360998 0.987396
0.848997 0.360998 0.987396
0.117342 0.334081 0.54847
0.0989395 0.323003 0.542718
0.0989395 0.323003 0.542718
0.00791943 0.257527 0.591531
0.449409 0.34667 0.995941
0.848997 0.360998 0.987396
0.848997 0.360998 0.987396
0.848997 0.360998 0.987396
0.848997 0.360998 0.987396
0.223529 0.400092 0.58851
0.179843 0.37055 0.569436
0.167971 0.363195 0.564813
0.0559854 0.303777 0.578195
0.468391 0.349111 0.997284
0.848997 0.360998 0.987396
0.848997 0.360998 0.987396
0.849439 0.3626 0.9879
0.851057 0.368475 0.989746
0.313787 0.463264 0.639689
0.320409 0.46923 0.645655
0.325383 0.473869 0.649302
0.329427 0.477638 0.652247
0.293095 0.443778 0.721981
0.893523 0.537636 0.999817
0.894179 0.540398 0.999817
0.894179 0.540398 0.999817
0.893065 0.53576 0.999817
0.416449 0.624033 0.719921
0.420096 0.630564 0.723735
0.423041 0.63566 0.726833
0.424063 0.6374 0.727901
0.42562 0.622461 0.733593
0.745525 0.771282 0.944259
0.946654 0.803845 0.99968
0.943984 0.780056 0.999695
0.939712 0.754665 0.999725
0.44831 0.677211 0.75436
0.44831 0.677211 0.75436
0.44831 0.677211 0.75436
0.44831 0.677211 0.75436
0.459358 0.689189 0.76701
0.494469 0.737209 0.807294
0.98706 0.993042 0.999329
0.983658 0.981323 0.999435
0.980575 0.962875 0.999542
0.44831 0.677211 0.75436
0.44831 0.677211 0.75436
0.44831 0.677211 0.75436
0.44831 0.677211 0.75436
0.455131 0.685435 0.762829
0.480812 0.714351 0.794308
0.793439 0.934203 0.937881
0.990814 0.999207 0.99939
0.990814 0.999207 0.99939
0.44831 0.677211 0.75436
0.44831 0.677211 0.75436
0.44831 0.677211 0.75436
0.44831 0.677211 0.75436
0.451392 0.680919 0.758144
0.474281 0.704723 0.786053
0.579797 0.821851 0.850446
0.990814 0.999207 0.99939
0.990814 0.999207 0.99939
0.0989395 0.323003 0.542718
0.0989395 0.323003 0.542718
0.0989395 0.323003 0.542718
0.000534066 0.277165 0.727733
0.572778 0.344442 0.998001
0.848997 0.360998 0.987396
0.848997 0.360998 0.987396
0.848997 0.360998 0.987396
0.848997 0.360998 0.987396
0.0989395 0.323003 0.542718
0.0989395 0.323003 0.542718
0.0989395 0.323003 0.542718
0.000885023 0.255848 0.634318
0.490394 0.347341 0.998566
0.848997 0.360998 0.987396
0.848997 0.360998 0.987396
0.848997 0.360998 0.987396
0.848997 0.360998 0.987396
0.0989395 0.323003 0.542718
0.0989395 0.323003 0.542718
0.0989395 0.323003 0.542718
0.0158846 0.263523 0.578637
0.435981 0.346044 0.994461
0.848997 0.360998 0.987396
0.848997 0.360998 0.987396
0.848997 0.360998 0.987396
0.848997 0.360998 0.987396
0.213825 0.393606 0.583597
0.17142 0.365347 0.566155
0.162203 0.35964 0.562554
0.0561379 0.303319 0.576822
0.468482 0.349096 0.997284
0.848997 0.360998 0.987396
0.848997 0.360998 0.987396
0.849531 0.362905 0.987991
0.851057 0.368475 0.989746
0.309712 0.459693 0.636088
0.320546 0.469368 0.645762
0.325567 0.474037 0.649439
0.32961 0.477806 0.652369
0.293965 0.444251 0.722408
0.893431 0.537285 0.999817
0.893767 0.538643 0.999817
0.89337 0.536995 0.999817
0.891905 0.530877 0.999817
0.408942 0.611231 0.713314
0.420203 0.630747 0.723842
0.422736 0.635126 0.726513
0.423041 0.63566 0.726833
0.423346 0.617334 0.730999
0.729213 0.758114 0.937697
0.945327 0.791608 0.99968
0.941772 0.766964 0.99971
0.937011 0.741741 0.999725
0.44831 0.677211 0.75436
0.44831 0.677211 0.75436
0.44831 0.677211 0.75436
0.44831 0.677211 0.75436
0.458488 0.688624 0.766354
0.495811 0.735927 0.806653
0.985306 0.986969 0.99939
0.98201 0.972396 0.999481
0.978363 0.951858 0.999588
0.44831 0.677211 0.75436
0.44831 0.677211 0.75436
0.44831 0.677211 0.75436
0.44831 0.677211 0.75436
0.454627 0.68484 0.762188
0.479713 0.711925 0.79292
0.755108 0.916426 0.921996
0.990814 0.999207 0.99939
0.990814 0.999207 0.99939
0.44831 0.677211 0.75436
0.44831 0.677211 0.75436
0.44831 0.677211 0.75436
0.44831 0.677211 0.75436
0.450782 0.680217 0.757412
0.473426 0.70367 0.785031
0.560357 0.806546 0.842054
0.990814 0.999207 0.99939
0.990814 0.999207 0.99939
