site/assets/luts/freshluts--0000281-flog-to-eterna-color.cube
# LUTr-Schema-Version: 2
# LUTr-ID: freshluts--0000281-flog-to-eterna-color
# LUTr-Title: Flog to Eterna color
# LUTr-Collection: Fresh LUTs
# LUTr-Collection-ID: freshluts-community
# LUTr-Source: https://freshluts.com
# LUTr-Retrieved: 2026-07-27
# LUTr-Source-File: submissions-raw/freshluts/cubes/281__Flog_to_Eterna_Color.cube
# LUTr-Source-Format: CUBE
# LUTr-Source-SHA256: 83ee52c4080e1f089a5f6d0113357de9379fbd140c1b18b2481416c27dfb3fe1
# LUTr-License: CC0-1.0
# LUTr-License-URL: https://freshluts.com/termsandconditions
# LUTr-License-Basis: site-terms
# LUTr-Transform-Class: creative-look
# LUTr-Tags: creative, freshluts, community, cube, film-emulation
# LUTr-Input-Color-Space:
# LUTr-Input-Gamut: unspecified
# LUTr-Input-Transfer: unspecified
# LUTr-Output-Color-Space: srgb
# LUTr-Output-Gamut: rec709
# LUTr-Output-Transfer: srgb
# LUTr-Color-Space-Confidence: camera-profile-input-required
# LUTr-Domain-Normalized: true
# LUTr-Shaper: none
# LUTr-Original-Grid: 16x16x16
# LUTr-Conversion-Grid: 16x16x16
# LUTr-Conversion-Interpolation: none
# LUTr-Conversion-Method: Metadata normalization; numeric LUT samples preserved
# LUTr-Conversion-Tool: LUTr scripts/convert-all-to-cube.mjs 2.0.0
# LUTr-Conversion-Date: 2026-07-28
# LUTr-Asset-URL: https://freshluts.com/luts/281
# LUTr-Author: Andy
# LUTr-Author-URL: https://freshluts.com/users/1003
# LUTr-Attribution: Andy via Fresh LUTs
# LUTr-Source-Labels: gamma=Other; color=None; key=Neutral; style=Film emulation
# LUTr-Note: Preserve this metadata and the upstream license notices when redistributing.
TITLE "Flog to Eterna color"
LUT_3D_SIZE 16
DOMAIN_MIN 0 0 0
DOMAIN_MAX 1 1 1
0.007876 0.007876 0.007876
0.017381 0.008844 0.007472
0.116443 0.010431 0.012693
0.215987 0.011559 0.018184
0.344073 0.013339 0.029514
0.516861 0.016444 0.053963
0.688756 0.019046 0.083758
0.846645 0.023212 0.111272
0.982378 0.027155 0.134255
0.982378 0.027155 0.134255
0.982378 0.027155 0.134255
0.982378 0.027155 0.134255
0.982378 0.027155 0.134255
0.982378 0.027155 0.134255
0.982378 0.027155 0.134255
0.982378 0.027155 0.134255
0.005311 0.008731 0.006168
0.007865 0.008731 0.006485
0.086601 0.009807 0.011558
0.183085 0.011169 0.016177
0.287745 0.012522 0.02356
0.427163 0.014745 0.039885
0.590303 0.01738 0.066666
0.75124 0.020753 0.094564
0.899467 0.024173 0.120127
0.982378 0.027155 0.134255
0.982378 0.027155 0.134255
0.982378 0.027155 0.134255
0.982378 0.027155 0.134255
0.982378 0.027155 0.134255
0.982378 0.027155 0.134255
0.982378 0.027155 0.134255
0.002107 0.03318 0.002126
0.000095 0.044839 0.000923
0.052835 0.027366 0.007113
0.149307 0.015576 0.013469
0.242077 0.011755 0.020174
0.359682 0.013444 0.03081
0.510252 0.015997 0.052986
0.669349 0.019087 0.080238
0.81879 0.022464 0.1063
0.95238 0.025773 0.1289
0.982378 0.027155 0.134255
0.982378 0.027155 0.134255
0.982378 0.027155 0.134255
0.982378 0.027155 0.134255
0.982378 0.027155 0.134255
0.982378 0.027155 0.134255
0 0.098328 0.000034
0 0.120295 0.000042
0.013346 0.105897 0.000195
0.120307 0.092327 0.003548
0.214929 0.06745 0.01051
0.317913 0.03469 0.022896
0.452993 0.016871 0.043322
0.605384 0.01771 0.068944
0.754991 0.020797 0.095209
0.893813 0.024164 0.11909
0.982274 0.027155 0.134255
0.982378 0.027155 0.134255
0.982378 0.027155 0.134255
0.982378 0.027155 0.134255
0.982378 0.027155 0.134255
0.982378 0.027155 0.134255
0 0.158137 0.000055
0 0.187795 0.000065
0 0.176013 0.000062
0.075122 0.164818 0.000017
0.186732 0.152933 0.000517
0.290764 0.137176 0.005665
0.419122 0.114834 0.018673
0.562438 0.061351 0.051255
0.707193 0.022994 0.086212
0.843573 0.022846 0.110762
0.963129 0.026443 0.130851
0.982456 0.027155 0.134255
0.982378 0.027155 0.134255
0.982378 0.027155 0.134255
0.982378 0.027155 0.134255
0.982378 0.027155 0.134255
0 0.221609 0.000077
0 0.258238 0.00009
0 0.251213 0.000088
0.018865 0.239109 0.000072
0.154101 0.228589 0.000004
0.264312 0.219377 0
0.391883 0.207555 0.001256
0.535161 0.191233 0.014254
0.680788 0.160819 0.048857
0.818297 0.079662 0.094295
0.9448 0.025729 0.127677
0.983148 0.027155 0.134255
0.982775 0.027155 0.134255
0.98251 0.027155 0.134255
0.982378 0.027155 0.134255
0.982599 0.027155 0.134255
0 0.300551 0.000105
0 0.350556 0.000122
0 0.348556 0.000122
0 0.333537 0.000116
0.077405 0.320952 0.000065
0.234308 0.310738 0.000001
0.368126 0.302619 0
0.516614 0.290231 0
0.66563 0.272094 0.008614
0.805912 0.240163 0.048346
0.932475 0.168527 0.095419
0.986338 0.059541 0.128661
0.983603 0.027155 0.134254
0.983137 0.027155 0.134255
0.982922 0.027155 0.134255
0.983141 0.027155 0.134255
0 0.404636 0.000141
0 0.46663 0.000163
0 0.469894 0.000164
0 0.453499 0.000158
0.001168 0.440635 0.000153
0.155913 0.429599 0.000056
0.335763 0.422275 0
0.497186 0.411934 0
0.650019 0.398365 0
0.791347 0.375098 0.002473
0.919036 0.334315 0.033673
0.996767 0.262547 0.082619
0.992438 0.161493 0.109009
0.985407 0.04513 0.131171
0.983466 0.027155 0.134254
0.98379 0.027155 0.134254
0 0.528003 0.000184
0 0.595293 0.000208
0 0.601998 0.00021
0 0.588479 0.000205
0 0.577113 0.000202
0.01151 0.567601 0.000191
0.279768 0.558886 0.000028
0.465494 0.553539 0
0.627066 0.543349 0
0.770237 0.526997 0
0.896541 0.497953 0
0.990202 0.441422 0.006555
0.998129 0.350895 0.046182
0.996765 0.257715 0.084128
0.992053 0.148504 0.112144
0.993689 0.182794 0.105253
0 0.655778 0.000229
0 0.720769 0.000251
0 0.732169 0.000256
0 0.72055 0.000251
0 0.71083 0.000248
0 0.702275 0.000245
0.163802 0.69446 0.000142
0.426181 0.687146 0.000003
0.59372 0.68225 0
0.738898 0.670375 0
0.864417 0.651194 0
0.965312 0.614336 0
0.984824 0.537872 0.000012
0.99377 0.440656 0.004028
0.998216 0.328109 0.057396
0.998175 0.329869 0.056853
0 0.772792 0.000269
0 0.826327 0.000288
0 0.838635 0.000292
0 0.829965 0.00029
0 0.822164 0.000286
0 0.814968 0.000284
0 0.808873 0.000282
0.364986 0.803324 0.000058
0.558577 0.797418 0
0.702707 0.791614 0
0.830599 0.778837 0
0.938515 0.754666 0
0.966141 0.697399 0
0.976351 0.615383 0
0.987792 0.507928 0
0.989633 0.489458 0
0 0.8683 0.000303
0 0.913904 0.000319
0 0.926505 0.000323
0 0.919451 0.000321
0 0.913505 0.000319
0 0.908057 0.000317
0 0.903282 0.000315
0.283268 0.89886 0.000142
0.509073 0.89398 0.000006
0.665722 0.887739 0
0.792498 0.880193 0
0.907887 0.863246 0
0.948534 0.822627 0
0.957621 0.759107 0
0.969286 0.672636 0
0.97337 0.640201 0
0 0.947733 0.00033
0 0.977725 0.000341
0 0.98406 0.000343
0 0.982318 0.000343
0 0.979223 0.000342
0 0.976659 0.000341
0 0.97515 0.00034
0.170004 0.973535 0.000236
0.445516 0.972111 0.000069
0.615027 0.967915 0
0.750317 0.961229 0
0.865199 0.950857 0
0.932263 0.924248 0
0.940675 0.874689 0
0.950868 0.806239 0
0.956574 0.768145 0
0 0.984192 0.000343
0 0.984192 0.000343
0 0.984192 0.000343
0 0.984192 0.000343
0 0.984192 0.000343
0 0.985077 0.000344
0 0.987637 0.000344
0 0.990609 0.000346
0.341488 0.994119 0.000139
0.535026 0.99825 0.000026
0.686162 0.999945 0
0.813417 0.999934 0
0.906575 0.993757 0
0.922827 0.966625 0
0.934824 0.910496 0
0.941086 0.872239 0
0 0.984192 0.000343
0 0.984192 0.000343
0 0.984192 0.000343
0 0.984192 0.000343
0 0.984192 0.000343
0 0.984359 0.000343
0 0.986087 0.000344
0 0.988939 0.000345
0.167013 0.992165 0.000244
0.419667 0.995652 0.000092
0.586039 0.999335 0.000007
0.729827 0.999941 0
0.853701 0.99993 0
0.914627 0.999925 0
0.918329 0.985037 0
0.925336 0.956439 0
0 0.984192 0.000343
0 0.984192 0.000343
0 0.984192 0.000343
0 0.984192 0.000343
0 0.984192 0.000343
0 0.984192 0.000343
0 0.984808 0.000343
0 0.987117 0.000344
0.004266 0.990239 0.000343
0.280025 0.993335 0.000176
0.4675 0.996624 0.000064
0.621234 0.999682 0.000002
0.76543 0.999938 0
0.885984 0.999927 0
0.915342 0.999925 0
0.916064 0.995733 0
0.005651 0.008731 0.009505
0.013204 0.008845 0.006689
0.111902 0.010431 0.012696
0.210572 0.01156 0.017681
0.33625 0.01334 0.028366
0.497954 0.015811 0.050989
0.667621 0.019048 0.079953
0.825872 0.022419 0.107973
0.967385 0.026473 0.131418
0.982378 0.027155 0.134255
0.982378 0.027155 0.134255
0.982378 0.027155 0.134255
0.982378 0.027155 0.134255
0.982378 0.027155 0.134255
0.982378 0.027155 0.134255
0.982378 0.027155 0.134255
0.005652 0.008731 0.011515
0.009008 0.008288 0.008875
0.081796 0.009781 0.011561
0.175992 0.011169 0.015844
0.277565 0.012522 0.022646
0.412154 0.014274 0.037659
0.572779 0.017381 0.063614
0.733534 0.02044 0.091718
0.882131 0.024096 0.117318
0.981424 0.027093 0.134048
0.982378 0.027155 0.134255
0.982378 0.027155 0.134255
0.982378 0.027155 0.134255
0.982378 0.027155 0.134255
0.982378 0.027155 0.134255
0.982378 0.027155 0.134255
0.000982 0.036598 0.008639
0 0.053019 0.004355
0.045661 0.036081 0.006208
0.144169 0.01888 0.012934
0.235028 0.012781 0.019057
0.348894 0.013444 0.029617
0.496377 0.015802 0.050456
0.654701 0.018857 0.077962
0.804388 0.021704 0.103878
0.940576 0.025774 0.127003
0.982378 0.027155 0.134255
0.982378 0.027155 0.134255
0.982378 0.027155 0.134255
0.982378 0.027155 0.134255
0.982378 0.027155 0.134255
0.982378 0.027155 0.134255
0 0.103657 0.005269
0 0.127996 0.002523
0.010392 0.115315 0.000034
0.11466 0.102772 0.002517
0.209609 0.083423 0.008923
0.312196 0.0479 0.019761
0.444288 0.024006 0.040102
0.59445 0.017581 0.067312
0.74375 0.020798 0.09344
0.882577 0.024165 0.117202
0.980356 0.026999 0.133828
0.982378 0.027155 0.134255
0.982378 0.027155 0.134255
0.982378 0.027155 0.134255
0.982378 0.027155 0.134255
0.982378 0.027155 0.134255
0 0.165219 0.003277
0 0.196324 0.000249
0 0.185582 0.000065
0.062677 0.175127 0.000027
0.181105 0.164506 0
0.285415 0.15007 0.003557
0.412681 0.129888 0.015528
0.557268 0.089899 0.043526
0.700438 0.040933 0.081025
0.836474 0.022846 0.10949
0.959724 0.026139 0.130161
0.982511 0.027155 0.134255
0.982378 0.027155 0.134255
0.982378 0.027155 0.134255
0.982378 0.027155 0.134255
0.982378 0.027155 0.134255
0 0.230935 0.000409
0 0.269581 0.000094
0 0.263577 0.000092
0.010582 0.25148 0.000081
0.144161 0.240692 0.000008
0.25867 0.231341 0
0.386998 0.219601 0
0.531122 0.204141 0.010226
0.67771 0.176029 0.04348
0.816209 0.107613 0.087686
0.941414 0.025482 0.127044
0.983224 0.027155 0.134255
0.98285 0.027155 0.134255
0.98251 0.027155 0.134255
0.982411 0.027155 0.134255
0.982684 0.027155 0.134255
0 0.313589 0.000109
0 0.365497 0.000127
0 0.364605 0.000127
0 0.349044 0.000122
0.06077 0.336189 0.00008
0.224912 0.324907 0.000003
0.36318 0.316406 0
0.51357 0.303959 0
0.662766 0.286146 0.006053
0.803553 0.25534 0.04224
0.930631 0.194017 0.088989
0.987925 0.082202 0.124606
0.983743 0.027155 0.134254
0.98316 0.027155 0.134255
0.982931 0.027155 0.134255
0.983141 0.027155 0.134255
0 0.4206 0.000147
0 0.484053 0.000169
0 0.486693 0.00017
0 0.470017 0.000164
0 0.45788 0.00016
0.1282 0.446835 0.000078
0.332281 0.436811 0
0.492609 0.428462 0
0.647014 0.41445 0
0.789136 0.390853 0.00103
0.917066 0.350564 0.02432
0.997149 0.279601 0.076469
0.99354 0.181812 0.104279
0.986128 0.053882 0.129385
0.983584 0.027155 0.134254
0.983969 0.027155 0.134254
0 0.544717 0.00019
0 0.61107 0.000213
0 0.618031 0.000215
0 0.604955 0.000211
0 0.594203 0.000207
0.007155 0.584323 0.000199
0.263875 0.575212 0.000042
0.458148 0.569731 0
0.623046 0.558587 0
0.767082 0.541682 0
0.893599 0.512163 0
0.988352 0.456221 0.004386
0.997717 0.36411 0.039869
0.99699 0.269313 0.080365
0.992499 0.158592 0.10986
0.994118 0.190548 0.103347
0 0.670117 0.000234
0 0.734038 0.000256
0 0.74556 0.00026
0 0.734106 0.000256
0 0.724655 0.000253
0 0.715677 0.00025
0.142451 0.707278 0.00016
0.417396 0.698881 0.000003
0.587437 0.693364 0
0.735442 0.681008 0
0.862246 0.661517 0
0.963547 0.624415 0
0.983789 0.547742 0
0.993057 0.448913 0.001639
0.998181 0.335649 0.054388
0.998185 0.33782 0.053271
0 0.782676 0.000273
0 0.835935 0.000292
0 0.847932 0.000296
0 0.839109 0.000293
0 0.831547 0.00029
0 0.824202 0.000287
0 0.817068 0.000285
0.353362 0.81096 0.000068
0.552399 0.80395 0
0.698224 0.797816 0
0.828015 0.784635 0
0.937198 0.760979 0
0.965322 0.704214 0
0.975465 0.623106 0
0.987056 0.515854 0
0.988848 0.49795 0
0 0.876072 0.000305
0 0.921231 0.000321
0 0.932923 0.000326
0 0.926005 0.000323
0 0.919551 0.000321
0 0.913529 0.000319
0 0.908245 0.000317
0.261756 0.903216 0.000156
0.500938 0.897601 0.000012
0.660973 0.891162 0
0.788343 0.884179 0
0.905882 0.868497 0
0.947697 0.828619 0
0.956892 0.765536 0
0.968437 0.679764 0
0.972525 0.648019 0
0 0.953072 0.000333
0 0.98116 0.000342
0 0.984157 0.000343
0 0.984017 0.000343
0 0.981538 0.000342
0 0.978659 0.000341
0 0.976612 0.000341
0.131083 0.974938 0.00026
0.434072 0.974212 0.000076
0.60747 0.970262 0
0.744771 0.963758 0
0.861077 0.953731 0
0.931264 0.928834 0
0.939787 0.87988 0
0.950245 0.811717 0
0.955406 0.775778 0
0 0.983853 0.000343
0 0.984192 0.000343
0 0.984192 0.000343
0 0.984192 0.000343
0 0.984192 0.000343
0 0.984826 0.000344
0 0.987216 0.000344
0 0.990446 0.000346
0.327037 0.99394 0.000148
0.525012 0.997964 0.000031
0.679036 0.999946 0
0.809136 0.999934 0
0.904382 0.995249 0
0.921809 0.970828 0
0.933397 0.917286 0
0.939627 0.88169 0
0 0.983985 0.000343
0 0.984192 0.000343
0 0.984192 0.000343
0 0.984192 0.000343
0 0.984192 0.000343
0 0.984192 0.000343
0 0.985784 0.000344
0 0.988632 0.000345
0.137382 0.992066 0.000262
0.411353 0.995486 0.000097
0.577535 0.999193 0.000009
0.721097 0.999942 0
0.848081 0.999931 0
0.913669 0.999925 0
0.917087 0.990318 0
0.923377 0.964121 0
0 0.984161 0.000343
0 0.984192 0.000343
0 0.984192 0.000343
0 0.984192 0.000343
0 0.984192 0.000343
0 0.984192 0.000343
0 0.984581 0.000343
0 0.986826 0.000344
0.004118 0.989916 0.000343
0.27403 0.992921 0.00018
0.455779 0.996376 0.000071
0.60819 0.99955 0.000004
0.751826 0.999939 0
0.875395 0.999928 0
0.915342 0.999925 0
0.915542 0.997842 0
0.008595 0.009413 0.079125
0.011371 0.009321 0.061525
0.106492 0.009938 0.036507
0.205116 0.01156 0.017397
0.326878 0.013341 0.027304
0.481375 0.015653 0.048051
0.649331 0.018545 0.076954
0.808104 0.022378 0.104618
0.952209 0.025733 0.128808
0.982378 0.027155 0.134255
0.982378 0.027155 0.134255
0.982378 0.027155 0.134255
0.982378 0.027155 0.134255
0.982378 0.027155 0.134255
0.982378 0.027155 0.134255
0.982378 0.027155 0.134255
0.008599 0.009413 0.085875
0.008782 0.009408 0.072678
0.074471 0.009116 0.054895
0.169319 0.010745 0.019872
0.269282 0.012475 0.022086
0.400119 0.014247 0.035952
0.558337 0.016761 0.060999
0.719385 0.019962 0.089196
0.867592 0.023382 0.114699
0.980378 0.027093 0.133888
0.982378 0.027155 0.134255
0.982378 0.027155 0.134255
0.982378 0.027155 0.134255
0.982378 0.027155 0.134255
0.982378 0.027155 0.134255
0.982378 0.027155 0.134255
0.003218 0.030715 0.085015
0.000022 0.048832 0.071305
0.03515 0.034172 0.05932
0.138869 0.018585 0.036405
0.228566 0.012955 0.018706
0.340567 0.013445 0.028559
0.485858 0.015729 0.04883
0.642806 0.018316 0.075607
0.792889 0.021672 0.101936
0.931185 0.025124 0.125384
0.982378 0.027155 0.134255
0.982378 0.027155 0.134255
0.982378 0.027155 0.134255
0.982378 0.027155 0.134255
0.982378 0.027155 0.134255
0.982378 0.027155 0.134255
0.000007 0.099084 0.077362
0 0.12539 0.066784
0.007017 0.11338 0.053159
0.109055 0.102041 0.039554
0.204103 0.084788 0.013429
0.306143 0.050858 0.018893
0.437004 0.025965 0.038828
0.585923 0.017439 0.065634
0.735457 0.020258 0.09203
0.873653 0.023647 0.115706
0.978574 0.027 0.133518
0.982378 0.027155 0.134255
0.982378 0.027155 0.134255
0.982378 0.027155 0.134255
0.982378 0.027155 0.134255
0.982378 0.027155 0.134255
0 0.16267 0.073732
0 0.19455 0.064993
0 0.184278 0.051985
0.055556 0.174681 0.040503
0.177038 0.165422 0.017352
0.280014 0.15232 0.002993
0.407447 0.132941 0.014162
0.551558 0.096712 0.041158
0.694295 0.045714 0.078732
0.831112 0.022847 0.108516
0.957471 0.026139 0.129879
0.982511 0.027155 0.134255
0.982378 0.027155 0.134255
0.982378 0.027155 0.134255
0.982378 0.027155 0.134255
0.982378 0.027155 0.134255
0 0.22976 0.072243
0 0.269151 0.06206
0 0.263626 0.04635
0.008644 0.252095 0.035366
0.141273 0.241796 0.022649
0.254092 0.234175 0.000845
0.38168 0.223089 0
0.527078 0.207725 0.008537
0.675714 0.180201 0.041884
0.814397 0.115864 0.085591
0.939461 0.027195 0.126238
0.983309 0.027155 0.134254
0.982886 0.027155 0.134255
0.98251 0.027155 0.134255
0.982462 0.027155 0.134255
0.982684 0.027155 0.134255
0 0.314117 0.065321
0 0.36681 0.045772
0 0.365805 0.029789
0 0.350899 0.020686
0.056237 0.338853 0.012863
0.22041 0.329157 0.00059
0.357367 0.321888 0
0.51045 0.309026 0
0.661377 0.29083 0.005083
0.802137 0.260667 0.039538
0.929407 0.201692 0.086719
0.988501 0.091934 0.122811
0.983796 0.027155 0.134254
0.983198 0.027155 0.134255
0.982943 0.027155 0.134255
0.983141 0.027155 0.134255
0 0.423046 0.042935
0 0.486915 0.011917
0 0.489229 0.002611
0 0.473504 0.000277
0 0.462104 0.000161
0.122247 0.452225 0.000084
0.324905 0.444043 0.000001
0.487499 0.436105 0
0.644768 0.421488 0
0.788014 0.397936 0.000834
0.915955 0.357833 0.020355
0.99739 0.287654 0.073555
0.994146 0.193094 0.101932
0.987546 0.073479 0.126218
0.983598 0.027155 0.134254
0.983969 0.027155 0.134254
0 0.548315 0.003486
0 0.614717 0.000214
0 0.621426 0.000217
0 0.608566 0.000212
0 0.598346 0.000209
0.004931 0.589242 0.000203
0.254315 0.581457 0.000049
0.457819 0.574262 0
0.618761 0.56628 0
0.764618 0.54941 0
0.891857 0.520646 0
0.987227 0.465219 0.003732
0.997561 0.373015 0.034783
0.997229 0.27837 0.077137
0.992825 0.166707 0.108254
0.994425 0.197451 0.101767
0 0.673598 0.000235
0 0.735413 0.000256
0 0.745725 0.00026
0 0.735586 0.000256
0 0.726415 0.000253
0 0.71818 0.00025
0.131396 0.71141 0.000168
0.406365 0.705195 0.000004
0.581598 0.699289 0
0.731209 0.68737 0
0.860301 0.668616 0
0.962279 0.632775 0
0.982921 0.556602 0
0.992307 0.457089 0.001427
0.998116 0.342666 0.050876
0.99819 0.345139 0.049764
0 0.783226 0.000273
0 0.835046 0.000291
0 0.846543 0.000295
0 0.838153 0.000293
0 0.831107 0.00029
0 0.824773 0.000287
0 0.819424 0.000286
0.337657 0.815216 0.000079
0.545027 0.808239 0
0.693083 0.802322 0
0.823931 0.789405 0
0.936019 0.767215 0
0.964276 0.711151 0
0.974631 0.630297 0
0.986168 0.523982 0
0.988147 0.50591 0
0 0.874653 0.000305
0 0.919141 0.000321
0 0.930136 0.000324
0 0.923653 0.000322
0 0.918145 0.000321
0 0.9132 0.000319
0 0.909021 0.000317
0.236134 0.905668 0.000172
0.490608 0.900602 0.000018
0.654478 0.894402 0
0.784141 0.887354 0
0.902568 0.872375 0
0.946733 0.83448 0
0.956014 0.771848 0
0.967538 0.686793 0
0.97144 0.655549 0
0 0.950338 0.000331
0 0.977977 0.000341
0 0.981146 0.000342
0 0.981232 0.000342
0 0.979619 0.000342
0 0.977463 0.000341
0 0.976511 0.00034
0.075246 0.976454 0.000295
0.418193 0.97571 0.000086
0.597969 0.972338 0.000001
0.739531 0.965368 0
0.855842 0.955961 0
0.930079 0.932634 0
0.93891 0.885211 0
0.949329 0.816694 0
0.954504 0.782226 0
0 0.980062 0.000342
0 0.981177 0.000342
0 0.981646 0.000342
0 0.981911 0.000342
0 0.982282 0.000342
0 0.982985 0.000343
0 0.985717 0.000344
0 0.989558 0.000345
0.310755 0.993654 0.000158
0.514021 0.997747 0.000037
0.670126 0.999946 0
0.802421 0.999934 0
0.901829 0.996496 0
0.920951 0.974288 0
0.932644 0.921544 0
0.938799 0.887035 0
0 0.980433 0.000342
0 0.981655 0.000342
0 0.982181 0.000342
0 0.982404 0.000343
0 0.982781 0.000343
0 0.983531 0.000343
0 0.984979 0.000344
0 0.987222 0.000344
0.117181 0.990144 0.000274
0.40774 0.994783 0.000099
0.567775 0.999022 0.000012
0.712186 0.999943 0
0.842353 0.999931 0
0.912862 0.999925 0
0.91668 0.992021 0
0.922697 0.967433 0
0 0.980884 0.000342
0 0.982317 0.000343
0 0.982993 0.000343
0 0.983326 0.000343
0 0.983867 0.000343
0 0.984171 0.000343
0 0.984371 0.000343
0 0.986294 0.000344
0.003907 0.988153 0.000342
0.281751 0.990737 0.000174
0.451922 0.995658 0.000073
0.598912 0.999493 0.000006
0.743146 0.99994 0
0.872332 0.999928 0
0.915342 0.999925 0
0.915361 0.998435 0
0.008982 0.011567 0.161236
0.010131 0.011319 0.144929
0.095841 0.009036 0.134526
0.20142 0.010594 0.108815
0.315415 0.012865 0.043838
0.465852 0.015084 0.045849
0.632989 0.018256 0.074061
0.79207 0.021628 0.101922
0.937666 0.025595 0.126484
0.982378 0.027155 0.134255
0.982378 0.027155 0.134255
0.982378 0.027155 0.134255
0.982378 0.027155 0.134255
0.982378 0.027155 0.134255
0.982378 0.027155 0.134255
0.982378 0.027155 0.134255
0.009696 0.012262 0.167271
0.008978 0.011548 0.156016
0.052474 0.009658 0.141675
0.163118 0.009906 0.122178
0.262115 0.011657 0.072556
0.388468 0.014137 0.037495
0.545828 0.016596 0.058967
0.706429 0.019963 0.087053
0.854339 0.023336 0.112616
0.978052 0.026503 0.133353
0.982378 0.027155 0.134255
0.982378 0.027155 0.134255
0.982378 0.027155 0.134255
0.982378 0.027155 0.134255
0.982378 0.027155 0.134255
0.982378 0.027155 0.134255
0.005995 0.024687 0.169403
0.000917 0.043245 0.155119
0.019924 0.030095 0.138892
0.131216 0.017657 0.132507
0.225181 0.012137 0.108725
0.332769 0.013144 0.050798
0.476234 0.015621 0.047613
0.632867 0.018305 0.074174
0.783282 0.021673 0.100248
0.92147 0.025002 0.123831
0.982378 0.027155 0.134255
0.982378 0.027155 0.134255
0.982378 0.027155 0.134255
0.982378 0.027155 0.134255
0.982378 0.027155 0.134255
0.982378 0.027155 0.134255
0.000056 0.094506 0.1603
0.000038 0.122982 0.151679
0.001448 0.111155 0.13597
0.099313 0.10012 0.129855
0.202091 0.083954 0.115507
0.302962 0.051401 0.08556
0.430062 0.026978 0.04338
0.578736 0.017439 0.064795
0.728095 0.020242 0.090883
0.866166 0.023376 0.114519
0.976725 0.026667 0.133224
0.982378 0.027155 0.134255
0.982378 0.027155 0.134255
0.982378 0.027155 0.134255
0.982378 0.027155 0.134255
0.982378 0.027155 0.134255
0.000026 0.160481 0.158827
0.00001 0.193372 0.152784
0.000007 0.183901 0.137573
0.04242 0.174759 0.130668
0.174051 0.165359 0.121091
0.27923 0.152854 0.101966
0.403264 0.135308 0.047153
0.546561 0.101431 0.039603
0.689978 0.047538 0.077507
0.828519 0.022564 0.108012
0.955455 0.02614 0.129612
0.982511 0.027155 0.134255
0.982378 0.027155 0.134255
0.982378 0.027155 0.134255
0.982378 0.027155 0.134255
0.982378 0.027155 0.134255
0.000003 0.229888 0.16052
0 0.270348 0.154503
0 0.265227 0.139807
0.003899 0.253492 0.131541
0.133695 0.243398 0.12581
0.254114 0.235305 0.111868
0.38182 0.225197 0.083816
0.524384 0.211557 0.019357
0.673468 0.183785 0.040086
0.812835 0.121675 0.083964
0.938083 0.034086 0.124674
0.983361 0.027155 0.134254
0.982955 0.027155 0.134255
0.982514 0.027155 0.134255
0.982462 0.027155 0.134255
0.982685 0.027155 0.134255
0 0.316544 0.161701
0 0.370388 0.151903
0 0.368723 0.138322
0 0.354134 0.127876
0.042816 0.342504 0.124233
0.218597 0.332219 0.114533
0.359874 0.324625 0.091917
0.509046 0.314245 0.021844
0.659142 0.296735 0.004129
0.800999 0.265662 0.037647
0.928505 0.208336 0.084454
0.988968 0.099341 0.121482
0.983885 0.027155 0.134254
0.983329 0.027155 0.134254
0.982943 0.027155 0.134255
0.98317 0.027155 0.134255
0 0.427507 0.157721
0 0.491937 0.142867
0 0.493153 0.126953
0 0.47895 0.114353
0 0.468014 0.107816
0.115329 0.457903 0.098978
0.326199 0.448644 0.079265
0.488932 0.441753 0.024545
0.64212 0.429029 0
0.786124 0.405297 0.000639
0.915176 0.364933 0.01839
0.997521 0.295435 0.070418
0.994522 0.20239 0.099589
0.988467 0.088727 0.12359
0.983759 0.027155 0.134254
0.98397 0.027155 0.134254
0 0.55339 0.153273
0 0.619227 0.127072
0 0.625735 0.102049
0 0.613492 0.083472
