site/assets/luts/freshluts--0001281-picturefx-js-style-mystical-dusk-photographer-js-style-color.cube
# LUTr-Schema-Version: 2
# LUTr-ID: freshluts--0001281-picturefx-js-style-mystical-dusk-photographer-js-style-color
# LUTr-Title: PictureFX J.S. Style Mystical Dusk - Photographer J.S. Style - color palette and tonal repartition - add bloom, exposure, blur to taste - more info on website
# LUTr-Collection: Fresh LUTs
# LUTr-Collection-ID: freshluts-community
# LUTr-Source: https://freshluts.com
# LUTr-Retrieved: 2026-07-27
# LUTr-Source-File: submissions-raw/freshluts/cubes/1281__PictureFX_J.S._Style_Mystical_Dusk_.cube
# LUTr-Source-Format: CUBE
# LUTr-Source-SHA256: aa9b33c3d185c9ad6a0564c00547d23d0ce820c348e419d06826ce6405fb1258
# LUTr-License: CC0-1.0
# LUTr-License-URL: https://freshluts.com/termsandconditions
# LUTr-License-Basis: site-terms
# LUTr-Transform-Class: creative-look
# LUTr-Tags: creative, freshluts, community, cube, film-emulation, low-key
# LUTr-Input-Color-Space:
# LUTr-Input-Gamut: unspecified
# LUTr-Input-Transfer: unspecified
# LUTr-Output-Color-Space: srgb
# LUTr-Output-Gamut: rec709
# LUTr-Output-Transfer: srgb
# LUTr-Color-Space-Confidence: camera-profile-input-required
# LUTr-Domain-Normalized: true
# LUTr-Shaper: none
# LUTr-Original-Grid: 25x25x25
# LUTr-Conversion-Grid: 25x25x25
# LUTr-Conversion-Interpolation: none
# LUTr-Conversion-Method: Metadata normalization; numeric LUT samples preserved
# LUTr-Conversion-Tool: LUTr scripts/convert-all-to-cube.mjs 2.0.0
# LUTr-Conversion-Date: 2026-07-28
# LUTr-Asset-URL: https://freshluts.com/luts/1281
# LUTr-Author: MarcR.
# LUTr-Author-URL: https://freshluts.com/users/86490
# LUTr-Attribution: MarcR. via Fresh LUTs
# LUTr-Source-Labels: gamma=Other; color=None; key=Low Key; style=Film emulation
# LUTr-Note: Preserve this metadata and the upstream license notices when redistributing.
# LUTr-Upstream-Comment: Generated by lutCreator.js
# LUTr-Upstream-Comment: Coded by SirSerch
# LUTr-Upstream-Comment: https://github.com/SirSerch/LutCreatorJs
TITLE "PictureFX J.S. Style Mystical Dusk - Photographer J.S. Style - color palette and tonal repartition - add bloom, exposure, blur to taste - more info on website"
LUT_3D_SIZE 5
DOMAIN_MIN 0 0 0
DOMAIN_MAX 1 1 1
0 0.015686 0
0.12549 0 0
0.286275 0.090196 0
0.458824 0.160784 0.023529
0.639216 0.235294 0.047059
0.007843 0.152941 0.039216
0.133333 0.160784 0.070588
0.290196 0.188235 0.047059
0.470588 0.235294 0.054902
0.647059 0.294118 0.066667
0.113725 0.34902 0.098039
0.2 0.352941 0.105882
0.341176 0.364706 0.12549
0.501961 0.388235 0.121569
0.670588 0.423529 0.121569
0.231373 0.54902 0.156863
0.282353 0.54902 0.156863
0.403922 0.552941 0.168627
0.541176 0.560784 0.176471
0.690196 0.572549 0.168627
0.313725 0.717647 0.180392
0.34902 0.713725 0.176471
0.439216 0.709804 0.176471
0.564706 0.709804 0.180392
0.709804 0.72549 0.192157
0 0 0.211765
0.094118 0 0.172549
0.270588 0.082353 0.176471
0.447059 0.156863 0.188235
0.635294 0.235294 0.207843
0 0.145098 0.168627
0.109804 0.152941 0.145098
0.278431 0.180392 0.180392
0.458824 0.231373 0.2
0.643137 0.294118 0.211765
0.078431 0.341176 0.215686
0.180392 0.345098 0.223529
0.32549 0.360784 0.258824
0.494118 0.388235 0.243137
0.670588 0.427451 0.243137
0.223529 0.552941 0.258824
0.278431 0.552941 0.262745
0.403922 0.556863 0.27451
0.54902 0.568627 0.286275
0.701961 0.588235 0.278431
0.32549 0.733333 0.282353
0.356863 0.729412 0.278431
0.45098 0.72549 0.27451
0.576471 0.72549 0.278431
0.717647 0.733333 0.286275
0 0 0.364706
0 0.054902 0.368627
0.239216 0.094118 0.360784
0.439216 0.160784 0.376471
0.627451 0.239216 0.392157
0 0.152941 0.356863
0 0.156863 0.352941
0.258824 0.184314 0.360784
0.45098 0.231373 0.376471
0.635294 0.294118 0.392157
0 0.345098 0.376471
0.117647 0.34902 0.376471
0.313725 0.364706 0.356863
0.486275 0.392157 0.4
0.662745 0.431373 0.411765
0.192157 0.552941 0.423529
0.254902 0.556863 0.423529
0.388235 0.560784 0.439216
0.537255 0.572549 0.47451
0.694118 0.596078 0.454902
0.313725 0.737255 0.439216
0.34902 0.733333 0.435294
0.443137 0.729412 0.435294
0.572549 0.729412 0.443137
0.721569 0.74902 0.458824
0 0.082353 0.564706
0 0.090196 0.556863
0.184314 0.121569 0.556863
0.419608 0.180392 0.568627
0.615686 0.247059 0.580392
0 0.172549 0.552941
0 0.180392 0.552941
0.207843 0.203922 0.560784
0.431373 0.247059 0.572549
0.627451 0.301961 0.584314
0 0.356863 0.572549
0 0.360784 0.572549
0.27451 0.372549 0.576471
0.470588 0.396078 0.584314
0.654902 0.431373 0.592157
0.086275 0.556863 0.596078
0.184314 0.560784 0.596078
0.341176 0.564706 0.592157
0.521569 0.576471 0.564706
0.682353 0.592157 0.6
0.266667 0.733333 0.603922
0.305882 0.729412 0.6
0.411765 0.72549 0.6
0.54902 0.72549 0.607843
0.721569 0.760784 0.670588
0 0.129412 0.760784
0 0.137255 0.756863
0.023529 0.164706 0.760784
0.384314 0.211765 0.768627
0.596078 0.266667 0.776471
0 0.207843 0.756863
0 0.215686 0.756863
0.105882 0.235294 0.764706
0.396078 0.270588 0.772549
0.603922 0.317647 0.776471
0 0.372549 0.776471
0 0.376471 0.776471
0.203922 0.388235 0.776471
0.435294 0.407843 0.780392
0.627451 0.435294 0.780392
0 0.556863 0.784314
0 0.560784 0.780392
0.282353 0.564706 0.780392
0.47451 0.568627 0.776471
0.65098 0.576471 0.768627
0.145098 0.717647 0.760784
0.211765 0.713725 0.756863
0.345098 0.717647 0.756863
0.498039 0.717647 0.745098
0.698039 0.756863 0.745098
