site/assets/luts/freshluts--0000478-light-girl.cube
# LUTr-Schema-Version: 2
# LUTr-ID: freshluts--0000478-light-girl
# LUTr-Title: light girl
# LUTr-Collection: Fresh LUTs
# LUTr-Collection-ID: freshluts-community
# LUTr-Source: https://freshluts.com
# LUTr-Retrieved: 2026-07-27
# LUTr-Source-File: submissions-raw/freshluts/cubes/478__girl_1.nice-girl-at-sunshine-women-s-gray-and-beige-backless-dress-wallpaper-preview.cube
# LUTr-Source-Format: CUBE
# LUTr-Source-SHA256: e13f64e73b55bfc848be0f2a395e08ff5bad6da09965f848c5a0a57e5df6363e
# LUTr-License: CC0-1.0
# LUTr-License-URL: https://freshluts.com/termsandconditions
# LUTr-License-Basis: site-terms
# LUTr-Transform-Class: creative-look
# LUTr-Tags: creative, freshluts, community, cube, warm, high-key, rec709, assumed-input
# LUTr-Input-Color-Space: rec709
# LUTr-Input-Gamut: rec709
# LUTr-Input-Transfer: rec709
# LUTr-Output-Color-Space: srgb
# LUTr-Output-Gamut: rec709
# LUTr-Output-Transfer: srgb
# LUTr-Color-Space-Confidence: assumed-display-referred
# LUTr-Domain-Normalized: true
# LUTr-Shaper: none
# LUTr-Original-Grid: 33x33x33
# LUTr-Conversion-Grid: 33x33x33
# LUTr-Conversion-Interpolation: none
# LUTr-Conversion-Method: Metadata normalization; numeric LUT samples preserved
# LUTr-Conversion-Tool: LUTr scripts/convert-all-to-cube.mjs 2.0.0
# LUTr-Conversion-Date: 2026-07-28
# LUTr-Asset-URL: https://freshluts.com/luts/478
# LUTr-Author: Walden Creations
# LUTr-Author-URL: https://freshluts.com/users/33993
# LUTr-Attribution: Walden Creations via Fresh LUTs
# LUTr-Source-Labels: gamma=Other; color=Warm; key=High Key; style=Adventure; LUTr assumption=input Rec.709 per repository policy
# LUTr-Conversion-Warning: Input Rec.709 is a LUTr catalog assumption requested for this otherwise unspecified Fresh LUT; it is not verified by the upstream asset.
# LUTr-Note: Preserve this metadata and the upstream license notices when redistributing.
TITLE "light girl"
LUT_3D_SIZE 5
DOMAIN_MIN 0 0 0
DOMAIN_MAX 1 1 1
0 0 0
0.110521 0 0
0.335714 0 0
0.61297 0 0
0.882231 0.0240482 0
0 0.0892042 0
0.141726 0.112566 0
0.384329 0.136324 0
0.661463 0.163806 0.00308232
0.927153 0.202548 0.0375219
0.00886549 0.324712 0
0.184695 0.353323 0
0.434577 0.384192 0.0226596
0.711452 0.417304 0.0513466
0.975509 0.4607 0.0910658
0.05243 0.611002 0.017319
0.235294 0.640085 0.0431983
0.489509 0.67219 0.0730755
0.763027 0.706294 0.106905
1 0.741268 0.143236
0.12752 0.91191 0.0942092
0.310536 0.933059 0.117281
0.558572 0.953826 0.140887
0.816876 0.977768 0.168566
1 1 0.202182
0 0 0.0652018
0.111696 0 0.0759136
0.347601 0 0.095079
0.62443 0.00178531 0.122484
0.891951 0.0340276 0.160113
0 0.0983291 0.0925765
0.151446 0.122454 0.117464
0.395117 0.146899 0.142611
0.671443 0.174166 0.171145
0.936187 0.213123 0.21088
0.0188602 0.336706 0.136828
0.19527 0.364431 0.163851
0.445167 0.395163 0.193805
0.721233 0.428305 0.226322
0.98436 0.471305 0.268894
0.0623636 0.622415 0.189273
0.245655 0.650919 0.217746
0.500145 0.682795 0.25066
0.771328 0.715343 0.285588
1 0.748409 0.322469
0.136309 0.920516 0.271214
0.318532 0.940322 0.294652
0.566155 0.96054 0.319417
0.823041 0.984298 0.348806
1 1 0.384115
0 0 0.285496
0.115846 0 0.298161
0.357687 0 0.325154
0.634836 0.0105135 0.354711
0.901717 0.0442817 0.395193
0 0.106813 0.320012
0.16025 0.131472 0.346731
0.404959 0.156619 0.374655
0.681575 0.184802 0.405539
0.945998 0.224475 0.447608
0.0277104 0.347936 0.369329
0.205249 0.375616 0.397803
0.455787 0.406302 0.42887
0.731319 0.440085 0.463325
0.994003 0.483207 0.507088
0.0729686 0.63447 0.426032
0.256825 0.662699 0.45478
0.511604 0.694133 0.488411
0.779187 0.724132 0.522148
1 0.756054 0.558602
0.145388 0.929274 0.507927
0.327169 0.947967 0.530831
0.57467 0.967666 0.555795
0.829618 0.991089 0.584939
1 1 0.620478
0 0 0.532036
0.122133 0 0.553582
0.367575 0 0.583505
0.644877 0.0193332 0.613764
0.911315 0.0547951 0.654551
0 0.115328 0.577325
0.168368 0.140139 0.604303
0.414771 0.166278 0.633143
0.691478 0.195666 0.664103
0.955795 0.236393 0.70457
0.0366217 0.358968 0.628595
0.215396 0.386786 0.656352
0.466987 0.417807 0.686671
0.741451 0.452171 0.718379
1 0.496071 0.758694
0.0835889 0.646845 0.683894
0.268299 0.674525 0.710964
0.523018 0.705394 0.740764
0.787564 0.733577 0.768429
1 0.765164 0.800046
0.15462 0.937865 0.757519
0.336706 0.956191 0.776776
0.583947 0.975708 0.797177
0.837736 0.999802 0.82211
1 1 0.852552
0 0 0.781201
0.133196 0 0.80647
0.379263 0.00601205 0.831922
0.657298 0.03093 0.858366
0.923873 0.0682536 0.89543
0.0061799 0.125719 0.827314
0.179019 0.15082 0.851392
0.427359 0.178592 0.876722
0.704021 0.2094 0.904143
0.968231 0.25095 0.941802
0.0476539 0.372366 0.872709
0.228367 0.400534 0.897932
0.480491 0.432197 0.92488
0.754543 0.467338 0.954894
1 0.511009 0.992981
0.0968338 0.661677 0.922576
0.282902 0.689372 0.947982
0.536309 0.717998 0.974517
0.79794 0.744564 0.999649
1 0.775937 1
0.165927 0.948928 0.989914
0.34815 0.966674 1
0.595209 0.985733 1
0.847929 1 1
1 1 1
