site/assets/luts/freshluts--0002002-erdem-films-mini-2.cube
# LUTr-Schema-Version: 2
# LUTr-ID: freshluts--0002002-erdem-films-mini-2
# LUTr-Title: ERDEM FILMS MINI 2
# LUTr-Collection: Fresh LUTs
# LUTr-Collection-ID: freshluts-community
# LUTr-Source: https://freshluts.com
# LUTr-Retrieved: 2026-07-27
# LUTr-Source-File: submissions-raw/freshluts/cubes/2002__ERDEMFILMS__9.cube
# LUTr-Source-Format: CUBE
# LUTr-Source-SHA256: 44f1497c11d5f1eee8d719c6aaa9f8fd80b44a6d33e04c804990214d90f9760b
# LUTr-License: CC0-1.0
# LUTr-License-URL: https://freshluts.com/termsandconditions
# LUTr-License-Basis: site-terms
# LUTr-Transform-Class: creative-look
# LUTr-Tags: creative, freshluts, community, cube, cinematic, blockbuster, warm, low-key, dji-d-log
# LUTr-Input-Color-Space: dji-dlog-dgamut
# LUTr-Input-Gamut: dji-d-gamut
# LUTr-Input-Transfer: dji-d-log
# LUTr-Output-Color-Space: srgb
# LUTr-Output-Gamut: rec709
# LUTr-Output-Transfer: srgb
# LUTr-Color-Space-Confidence: inferred-from-source-label
# LUTr-Domain-Normalized: true
# LUTr-Shaper: none
# LUTr-Original-Grid: 33x33x33
# LUTr-Conversion-Grid: 33x33x33
# LUTr-Conversion-Interpolation: none
# LUTr-Conversion-Method: Metadata normalization; numeric LUT samples preserved
# LUTr-Conversion-Tool: LUTr scripts/convert-all-to-cube.mjs 2.0.0
# LUTr-Conversion-Date: 2026-07-28
# LUTr-Asset-URL: https://freshluts.com/luts/2002
# LUTr-Author: Erdem Films
# LUTr-Author-URL: https://freshluts.com/users/288176
# LUTr-Attribution: Erdem Films via Fresh LUTs
# LUTr-Source-Labels: gamma=DJI D-log; color=Warm; key=Low Key; style=Blockbuster
# LUTr-Note: Preserve this metadata and the upstream license notices when redistributing.
TITLE "ERDEM FILMS MINI 2"
LUT_3D_SIZE 33
DOMAIN_MIN 0 0 0
DOMAIN_MAX 1 1 1
0.0271763 0.0263981 0.0278935
0.0391394 0.0262608 0.0277562
0.0512703 0.0259251 0.0274052
0.0632639 0.0259403 0.0274052
0.0754864 0.0262303 0.0277104
0.0876478 0.0263676 0.0278325
0.0999924 0.0265202 0.0279393
0.1122 0.0267796 0.0281682
0.124453 0.0264591 0.0277867
0.138628 0.0261234 0.0274968
0.156649 0.0253452 0.0263981
0.177401 0.0241398 0.0246891
0.200595 0.0222019 0.0220798
0.228092 0.0196536 0.0188296
0.260624 0.0159457 0.0144808
0.29662 0.0118868 0.00970474
0.333272 0.00775158 0.00477607
0.369284 0.00354009 0
0.403693 0 0
0.432517 0 0
0.460029 0 0
0.490349 0 0
0.5243 0 0
0.55787 0 0
0.587732 0 0
0.613611 0 0
0.637232 0 0
0.659785 0 0
0.682063 0 0
0.704723 0 0
0.726253 0 0
0.745144 0 0
0.762798 0 0
0.0278782 0.0377203 0.0276951
0.0401617 0.0378729 0.0278477
0.0525673 0.0379034 0.0279088
0.0646982 0.0380407 0.0280613
0.0767987 0.0380255 0.0280461
0.0890516 0.0382544 0.0282902
0.101381 0.0383612 0.0283513
0.113268 0.0383307 0.0282902
0.12578 0.038117 0.0280308
0.13991 0.0375067 0.027451
0.158282 0.0368353 0.0264897
0.178897 0.0353704 0.0244907
0.202716 0.0334783 0.0222629
0.230426 0.0304875 0.0186618
0.263188 0.0269627 0.014435
0.299611 0.0227817 0.00965896
0.335988 0.0184634 0.00468452
0.372137 0.0143587 0
0.406317 0.0104524 0
0.434363 0.00767529 0
0.461967 0.0047303 0
0.492515 0 0
0.52665 0 0
0.560052 0 0
0.589624 0 0
0.615396 0 0
0.639002 0 0
0.661448 0 0
0.68394 0 0
0.706706 0 0
0.728023 0 0
0.747036 0 0
0.764858 0 0
0.0292515 0.0500801 0.0280766
0.0413214 0.0499428 0.0279393
0.0537881 0.0500801 0.0281071
0.0657969 0.0501259 0.0281834
0.0776074 0.0500038 0.0280766
0.0898756 0.0502022 0.0282597
0.102022 0.0500496 0.0280613
0.114015 0.0501564 0.0281071
0.126528 0.0498207 0.0277409
0.140948 0.0492561 0.0271458
0.159457 0.0484779 0.0260471
0.180362 0.0470436 0.0240787
0.204303 0.0449836 0.0217899
0.232319 0.0420691 0.018143
0.265339 0.0382696 0.0137331
0.301625 0.0343481 0.00914015
0.338231 0.0300298 0.0039826
0.374228 0.0256962 0
0.408011 0.0217441 0
0.436072 0.0187533 0
0.463783 0.0154726 0
0.495216 0.0105745 0
0.529137 0.00328069 0
0.562722 0 0
0.59176 0 0
0.617334 0 0
0.640894 0 0
0.663508 0 0
0.686 0 0
0.708904 0 0
0.730266 0 0
0.749447 0 0
0.767742 0 0
0.0303807 0.0617838 0.0281529
0.0424964 0.0617685 0.0281682
0.0548867 0.0618296 0.0282597
0.0666972 0.0616007 0.0280766
0.0786908 0.0616464 0.0281376
0.0907454 0.0616159 0.0281224
0.103029 0.0616464 0.0281224
0.115007 0.0616159 0.0280766
0.127703 0.0612497 0.0277256
0.142321 0.0607156 0.0271763
0.161028 0.0598001 0.0259098
0.182132 0.0585031 0.0240482
0.206317 0.0563668 0.0214847
0.234623 0.0534829 0.0180056
0.268299 0.0497749 0.0136263
0.304631 0.0457771 0.00862135
0.341207 0.0415198 0.00344854
0.377066 0.0373846 0
0.410391 0.0335088 0
0.438331 0.0305028 0
0.466621 0.0272526 0
0.497993 0.0220035 0
0.53254 0.0142824 0
0.565728 0.00521859 0
0.594125 0.0000610361 0
0.619623 0 0
0.643244 0 0
0.665995 0 0
0.68864 0 0
0.711955 0 0
0.733425 0 0
0.75317 0 0
0.772122 0 0
0.0317082 0.0735637 0.0284276
0.0438239 0.0735027 0.0284123
0.0559243 0.0733349 0.0283207
0.0678111 0.0733043 0.0283207
0.0795911 0.0731212 0.0281834
0.0918898 0.0732433 0.0283207
0.104234 0.0732433 0.0283055
0.116121 0.0730755 0.0281376
0.129076 0.0728313 0.0278935
0.143603 0.0721141 0.0272068
0.162829 0.0713512 0.0261387
0.1841 0.06981 0.0238651
0.208682 0.0677195 0.0215152
0.237293 0.0647288 0.0178378
0.271534 0.0609751 0.0132753
0.308339 0.0570687 0.0083772
0.344793 0.0530098 0.00315862
0.380743 0.0487831 0
0.413489 0.045304 0
0.441535 0.0426642 0
0.469978 0.0391852 0
0.502495 0.0340887 0
0.537331 0.0270542 0
0.570062 0.0184787 0
0.598337 0.0121767 0
0.623392 0.00946059 0
0.646922 0.00769055 0
0.669596 0.00595102 0
0.692821 0.00454719 0
0.716686 0.00289921 0
0.738827 0.00192264 0
0.758724 0.00123598 0
0.77847 0.000823987 0
0.032578 0.0856184 0.0287175
0.044892 0.0852216 0.0283818
0.0571298 0.0852522 0.0284733
0.068864 0.0850385 0.028336
0.0808118 0.085008 0.0283513
0.0931106 0.0851759 0.0285344
0.105211 0.085008 0.0283818
0.117403 0.0850996 0.0284733
0.130327 0.0846418 0.027985
0.145281 0.0841382 0.0274968
0.16434 0.0831617 0.0260929
0.18616 0.0816968 0.0239872
0.211002 0.0793622 0.0213931
0.24062 0.0763561 0.0178073
0.275013 0.0725567 0.0132296
0.312245 0.0685588 0.00814832
0.348913 0.0644999 0.00276188
0.384848 0.0604562 0
0.417136 0.0571603 0
0.444999 0.0545815 0
0.474296 0.0514382 0
0.508049 0.0460975 0
0.543038 0.0398718 0
0.575265 0.0320287 0
0.602945 0.0251469 0
0.628168 0.0222477 0
0.652247 0.0210117 0
0.675532 0.0200961 0
0.698894 0.0188602 0
0.723445 0.0174868 0
0.746258 0.0166934 0
0.766781 0.0164797 0
0.787991 0.0169223 0
0.0333104 0.0976272 0.0286107
0.0457771 0.0974289 0.0284886
0.0579843 0.0972305 0.0283818
0.0699168 0.0972 0.0284276
0.0819562 0.0972305 0.0285344
0.0940871 0.0972152 0.0285496
0.106386 0.0972457 0.0286107
0.11841 0.0971084 0.0284733
0.131685 0.09691 0.0282139
0.146944 0.0963302 0.0275883
0.166217 0.0953841 0.0262303
0.188434 0.0936141 0.0238804
0.213519 0.0913405 0.0211948
0.243763 0.0881971 0.0176547
0.279072 0.0844129 0.0129854
0.316548 0.0807813 0.00817884
0.353536 0.0767224 0.00292973
0.389456 0.0727092 0
0.421195 0.0697337 0
0.449271 0.0675212 0
0.479805 0.06421 0
0.514885 0.0592966 0
0.550347 0.0536202 0
0.582345 0.0479744 0
0.609705 0.0405127 0
0.63473 0.0365606 0
0.658686 0.0355688 0
0.682475 0.035172 0
0.706584 0.0344091 0
0.732006 0.0336767 0
0.756222 0.0337377 0
0.777768 0.0341802 0
0.799969 0.0347906 0
0.0340581 0.110063 0.0285039
0.0464179 0.109682 0.0282139
0.0587778 0.109712 0.0283665
0.0707103 0.109606 0.0283513
0.0826886 0.109483 0.0283055
0.0950332 0.109667 0.0285496
0.107164 0.109529 0.0284428
0.119448 0.109682 0.0286107
0.132708 0.10927 0.0281834
0.148455 0.108721 0.0275425
0.167971 0.107744 0.0262455
0.19086 0.106233 0.0240787
0.216327 0.103899 0.021088
0.247868 0.100999 0.0177462
0.283909 0.0973373 0.0131991
0.321294 0.0934615 0.00805676
0.358679 0.0895857 0.00314336
0.394949 0.0858625 0
0.426398 0.0838331 0
0.455451 0.0821851 0
0.487739 0.0790112 0
0.523934 0.0745098 0
0.559472 0.0695354 0
0.590448 0.0648661 0
0.617731 0.0603799 0
0.643 0.0560311 0
0.667033 0.0531319 0
0.691661 0.0525673 0
0.717006 0.0525063 0
0.743252 0.0520943 0
0.767956 0.0525368 0
0.790921 0.0533608 0
0.814343 0.0541543 0
0.0344701 0.122286 0.0280308
0.0469673 0.122118 0.0279698
0.0593729 0.122148 0.0281071
0.0712444 0.12195 0.0280308
0.0834669 0.121965 0.0281376
0.0955825 0.121996 0.0282444
0.107958 0.122072 0.0283665
0.120104 0.12195 0.0282902
0.133928 0.12192 0.0282444
0.149966 0.12134 0.0275425
0.170016 0.12076 0.0267033
0.193545 0.119081 0.0244144
0.220096 0.116884 0.0214084
0.25211 0.114153 0.0178988
0.28896 0.110536 0.0132448
0.327062 0.107073 0.00860609
0.365591 0.104067 0.00453193
0.402258 0.10135 0.00123598
0.433219 0.0999161 0
0.463447 0.0989395 0
0.497581 0.0960708 0
0.534997 0.0920272 0
0.571008 0.0887007 0
0.601938 0.0857557 0
0.629053 0.0833753 0
0.654353 0.0805829 0
0.679057 0.0779431 0
0.703609 0.0770428 0
0.730282 0.0769818 0
0.757336 0.0766766 0
0.782895 0.0774548 0
0.806775 0.0793164 0
0.832273 0.0819257 0
0.0345922 0.135195 0.0275425
0.047013 0.134829 0.0273136
0.0594034 0.13492 0.0275425
0.0715648 0.134905 0.0276188
0.083711 0.134798 0.0275883
0.0961776 0.135149 0.027924
0.108522 0.135195 0.0280308
0.121111 0.135393 0.028275
0.134966 0.135302 0.0281834
0.151354 0.135027 0.0277562
0.171847 0.134157 0.0265965
0.196216 0.132647 0.0244907
0.223819 0.130877 0.0218051
0.257313 0.12845 0.0184634
0.295262 0.125551 0.0147707
0.334676 0.122728 0.0107424
0.373922 0.12015 0.00715648
0.410193 0.118288 0.00469978
0.441398 0.11809 0.00419623
0.47393 0.118044 0.00433356
0.510582 0.115862 0.00292973
0.54876 0.112627 0.000869764
0.584253 0.109758 0
0.615137 0.108675 0
0.642405 0.107942 0.000411994
0.668238 0.107317 0.00128176
0.69369 0.107103 0.00257877
0.719219 0.106966 0.00341802
0.746334 0.107134 0.00410468
0.774685 0.107362 0.00456245
0.80174 0.109148 0.00596628
0.826596 0.111894 0.00790417
0.853391 0.114214 0.00941482
0.0337835 0.148684 0.0256962
0.0463874 0.148623 0.0257877
0.0587778 0.148638 0.0259251
0.0710002 0.148821 0.0262303
0.0834058 0.148974 0.0264591
0.0957961 0.149371 0.0269017
0.108385 0.149584 0.0270848
0.120958 0.149783 0.0272679
0.135027 0.149935 0.0273289
0.152117 0.149935 0.0271763
0.173465 0.149355 0.0262913
0.199176 0.148516 0.0248569
0.227787 0.147173 0.0226444
0.262715 0.145098 0.0194705
0.302007 0.142962 0.0162356
0.342596 0.140856 0.0132143
0.382727 0.139452 0.0109102
0.419898 0.139254 0.0102998
0.452018 0.139788 0.0108034
0.485649 0.139498 0.0108492
0.524544 0.137835 0.0101015
0.564065 0.135409 0.00901808
0.599115 0.133806 0.00854505
0.629328 0.133272 0.00927749
0.657176 0.133776 0.0108949
0.683421 0.134554 0.0125277
0.709392 0.135531 0.0141604
0.735851 0.136782 0.0157321
0.764889 0.137911 0.0171206
0.794293 0.138705 0.0178378
0.822232 0.140444 0.0193332
0.847898 0.143313 0.0214847
0.876112 0.145937 0.0234684
0.0312963 0.164233 0.0232242
0.0439612 0.164096 0.0232242
0.0564736 0.164309 0.0232242
0.0687266 0.164508 0.0234531
0.0812085 0.164904 0.0238804
0.093843 0.165438 0.0243839
0.106661 0.16611 0.0250095
0.119539 0.166751 0.0255741
0.134295 0.167529 0.026154
0.152224 0.168002 0.0263371
0.17467 0.167971 0.0258488
0.201205 0.16762 0.0246891
0.231479 0.166674 0.022797
0.267979 0.165698 0.0207218
0.309422 0.164599 0.0183566
0.351553 0.163806 0.0168002
0.392508 0.163119 0.0153353
0.429129 0.163531 0.0152743
0.462547 0.165103 0.0169375
0.498054 0.165286 0.0174105
0.538354 0.163485 0.0166476
0.57792 0.161563 0.0161898
0.61323 0.161013 0.0169375
0.643351 0.161913 0.0186313
0.671351 0.163119 0.0207523
0.698344 0.164736 0.0231479
0.725017 0.166583 0.0253758
0.752605 0.168154 0.0272831
0.782681 0.169497 0.0288701
0.813626 0.170565 0.0297856
0.842115 0.17319 0.0316014
0.868498 0.176226 0.0336156
0.897093 0.178683 0.0345922
0.0260624 0.18114 0.0181125
0.0388342 0.181186 0.0181888
0.0515145 0.181674 0.0186465
0.0642252 0.1823 0.019379
0.0772259 0.183246 0.0198825
0.0903029 0.184146 0.0204623
0.103853 0.185641 0.0216526
0.11693 0.186801 0.0225071
0.131838 0.187839 0.023209
0.150698 0.189242 0.0240177
0.174289 0.190051 0.024033
0.202167 0.190539 0.0235752
0.234577 0.191012 0.0227817
0.272786 0.190753 0.0211948
0.315084 0.190387 0.0193332
0.358328 0.190463 0.0179446
0.400351 0.190906 0.017731
0.436942 0.192187 0.0187686
0.470909 0.194049 0.0206455
0.509209 0.194736 0.0216831
0.550576 0.193713 0.0212863
0.590631 0.192676 0.0215152
0.624872 0.192874 0.0229801
0.655436 0.194659 0.0255894
0.683589 0.196704 0.028336
0.710842 0.198856 0.0310979
0.738247 0.200977 0.0336461
0.766415 0.20296 0.0356451
0.797742 0.204608 0.037232
0.82948 0.206165 0.0382696
0.858076 0.208682 0.0392767
0.884382 0.212085 0.0407263
0.913481 0.214603 0.0413214
0.0191501 0.200244 0.0115511
0.032166 0.200946 0.0121157
0.0452735 0.201938 0.0130159
0.0581064 0.202945 0.013901
0.0716869 0.204349 0.0152132
0.0852522 0.205692 0.0161746
0.099443 0.207523 0.0171054
0.113039 0.209735 0.0187686
0.128786 0.211749 0.0201724
0.148699 0.21384 0.0215152
0.17435 0.216159 0.0229496
0.203601 0.217502 0.0228428
0.237186 0.218479 0.0221561
0.277073 0.219409 0.0213321
0.32076 0.219867 0.0200504
0.364355 0.220264 0.0187533
0.406653 0.221332 0.0188449
0.443458 0.224216 0.0208743
0.478874 0.226825 0.0231632
0.518456 0.227619 0.0240635
0.56144 0.226886 0.0240787
0.601205 0.227131 0.0249638
0.635004 0.228275 0.0270237
0.665049 0.230442 0.0299535
0.693309 0.232868 0.0327153
0.720668 0.235386 0.0354772
0.748623 0.238178 0.0383154
0.777646 0.240223 0.0403143
0.809689 0.241459 0.0413977
0.841642 0.242893 0.0419928
0.870298 0.245472 0.0428016
0.896666 0.249058 0.0438849
0.926024 0.251423 0.0445106
0.0112001 0.221805 0.00462348
0.0242161 0.223209 0.00561532
0.0378576 0.224628 0.00701915
0.0510262 0.226154 0.00827039
0.065095 0.228443 0.0100557
0.0795758 0.230838 0.011902
0.0949416 0.233448 0.0137942
0.109209 0.236622 0.015671
0.125841 0.239536 0.0179294
0.146899 0.242466 0.0197604
0.173342 0.245228 0.0211185
0.204517 0.247654 0.0216068
0.239414 0.249332 0.0213169
0.280476 0.250614 0.0207523
0.325185 0.251896 0.019913
0.370474 0.253803 0.0195315
0.412955 0.255558 0.0196841
0.449485 0.258747 0.0222782
0.485878 0.261814 0.0247044
0.527596 0.26331 0.0256657
0.571206 0.263111 0.025803
0.610193 0.26363 0.0269474
0.643168 0.265446 0.0289769
0.672709 0.267857 0.0317693
0.700847 0.270878 0.0352026
0.728618 0.273793 0.0383764
0.756634 0.276234 0.0406806
0.786374 0.278157 0.0421759
0.819074 0.279255 0.0428168
0.851072 0.280613 0.0429084
0.879362 0.283314 0.0432136
0.905791 0.286442 0.0439002
0.934768 0.288029 0.0434424
0.000762951 0.246464 0
0.0146944 0.248631 0
0.0295567 0.251148 0.00149538
0.0437629 0.253758 0.00361639
0.0578927 0.256382 0.0055848
0.0728923 0.259571 0.0081178
0.0891737 0.26302 0.010544
0.103151 0.266453 0.0128176
0.12047 0.270024 0.0149081
0.143755 0.27425 0.0177157
0.172763 0.277836 0.0196994
0.205127 0.280812 0.0204623
0.241215 0.283421 0.0205386
0.284443 0.285664 0.0203861
0.330175 0.287617 0.0198215
0.375418 0.289906 0.019379
0.417975 0.292531 0.0200809
0.454932 0.296849 0.0230869
0.492592 0.300114 0.0253758
0.535668 0.301106 0.0258793
0.579034 0.301396 0.0261082
0.617105 0.302556 0.0271
0.649668 0.30486 0.0295872
0.678981 0.307515 0.032639
0.706661 0.31014 0.0356603
0.734096 0.312764 0.0382391
0.761852 0.315084 0.0397955
0.791959 0.316548 0.0406348
0.825055 0.317143 0.0405585
0.856977 0.318364 0.0401312
0.884398 0.320104 0.0395666
0.908995 0.321965 0.0383001
0.937301 0.322026 0.0366674
0 0.275364 0
0.0091249 0.278508 0
0.0233616 0.281331 0
0.0378119 0.284459 0
0.0524605 0.287846 0.00228885
0.0671092 0.291249 0.00477607
0.0833448 0.295369 0.00776684
0.0985275 0.299519 0.0104982
0.116106 0.303914 0.0132601
0.140246 0.308583 0.0159152
0.172107 0.313176 0.0186313
0.206149 0.316991 0.0197147
0.243671 0.320211 0.0199893
0.287739 0.322881 0.0199893
0.3346 0.32546 0.0195621
0.381033 0.32842 0.0194247
0.423026 0.331609 0.0203555
0.459678 0.336095 0.0234531
0.498772 0.339315 0.0253758
0.54229 0.340322 0.0253147
0.585397 0.340673 0.0252537
0.622751 0.342412 0.0263676
0.654414 0.344594 0.0285801
0.682872 0.346914 0.0310216
0.710018 0.34931 0.033463
0.736843 0.351629 0.0352941
0.764584 0.353063 0.0360876
0.794247 0.353246 0.0357061
0.82649 0.352499 0.0341344
0.857084 0.352209 0.0322423
0.883375 0.353002 0.0305028
0.907912 0.354116 0.0289006
0.936065 0.353399 0.0265049
0 0.307027 0
0.00616464 0.310643 0
0.0205844 0.313954 0
0.0354314 0.317678 0
0.0504158 0.32166 0
0.0653697 0.325597 0.00280766
0.0810712 0.33019 0.00602731
0.0970016 0.334752 0.00923171
0.114702 0.339788 0.0125124
0.138262 0.344869 0.0153964
0.171344 0.350027 0.0184024
0.208118 0.354482 0.0198978
0.24712 0.358099 0.0203708
0.292485 0.361685 0.0206149
0.340215 0.364599 0.0201572
0.386648 0.367315 0.0197757
0.428092 0.370993 0.0211032
0.464546 0.375601 0.0234684
0.504311 0.378408 0.0243076
0.548486 0.379217 0.023743
0.590814 0.379309 0.0232395
0.626734 0.380529 0.0243076
0.657069 0.38233 0.0255131
0.684337 0.38378 0.0268254
0.71014 0.384833 0.027512
0.735988 0.385779 0.0280003
0.763027 0.386313 0.0278172
0.792798 0.386099 0.026627
0.82501 0.384649 0.0243534
0.855238 0.383703 0.0222324
0.881605 0.384329 0.0203555
0.906935 0.38587 0.0193179
0.936385 0.385702 0.0178378
0 0.340322 0
0.00421149 0.344594 0
0.0197757 0.34905 0
0.0346685 0.353094 0
0.049958 0.357137 0
0.0653391 0.361486 0.002533
0.0819104 0.366796 0.00646983
0.0980697 0.371908 0.00991836
0.115419 0.377005 0.0132143
0.137758 0.382345 0.0167544
0.170703 0.388006 0.0195163
0.211292 0.39295 0.0213169
0.252018 0.397269 0.0223545
0.298085 0.400763 0.0223239
0.346563 0.403372 0.0214694
0.393133 0.406424 0.0212253
0.433951 0.410254 0.0219883
0.470359 0.414069 0.0235599
0.511162 0.416526 0.023743
0.554955 0.416129 0.0220188
0.595193 0.415076 0.0201114
0.628794 0.414939 0.0195163
0.65745 0.415686 0.0197757
0.684001 0.416541 0.0202792
0.709606 0.417197 0.0205844
0.735592 0.417624 0.0202182
0.763043 0.417762 0.0197299
0.793576 0.417426 0.018677
0.827131 0.4168 0.0173037
0.85861 0.416663 0.016022
0.886351 0.417899 0.0154269
0.913008 0.420096 0.0153964
0.944045 0.420676 0.0149386
0 0.375784 0
0.005066 0.380529 0
0.0208896 0.385092 0
0.0364843 0.389487 0
0.052079 0.394354 0.00114443
0.0680095 0.399207 0.00495918
0.0849928 0.404425 0.00932326
0.101717 0.409735 0.0133059
0.119631 0.414969 0.0173495
0.142199 0.420539 0.02121
0.176165 0.42652 0.0246433
0.217929 0.431113 0.0266117
0.260288 0.435172 0.0275883
0.307652 0.438178 0.0273442
0.356863 0.440864 0.0263828
0.403601 0.443214 0.0256046
0.443656 0.446723 0.0258793
0.479225 0.449149 0.0254673
0.519234 0.448829 0.0231022
0.562142 0.447089 0.0197147
0.60116 0.445548 0.0171206
0.633158 0.445289 0.0159304
0.661463 0.445701 0.0153506
0.687968 0.446723 0.0157931
0.714473 0.448096 0.0166018
0.741619 0.449424 0.017319
0.770504 0.450248 0.0174105
0.802701 0.450538 0.016907
0.837446 0.450706 0.0161898
0.870542 0.452232 0.0160525
0.899748 0.454749 0.0167239
0.927718 0.457862 0.0168307
0.959869 0.459144 0.0170138
0 0.411749 0
0.0102998 0.41677 0
0.0270085 0.421546 0
0.0432441 0.426352 0.00375372
0.0592203 0.431067 0.00805676
0.0757763 0.435813 0.0124971
0.0927291 0.441001 0.0168765
0.110369 0.446433 0.0218051
0.12874 0.452155 0.0263981
0.151217 0.457465 0.0299992
0.184573 0.462654 0.0331426
0.227665 0.467277 0.0350958
0.27126 0.470695 0.0350958
0.319356 0.473411 0.0341955
0.367971 0.474861 0.031281
0.412848 0.475868 0.0281682
0.450095 0.477852 0.0258183
0.485313 0.479469 0.0237888
0.52604 0.478599 0.019379
0.568689 0.476555 0.0138399
0.60676 0.475792 0.0114443
0.638743 0.476616 0.010544
0.667567 0.478279 0.0102846
0.69485 0.480308 0.0115816
0.722499 0.482856 0.0134279
0.7514 0.485496 0.0154879
0.782223 0.487633 0.0168307
0.815961 0.488899 0.0172274
0.851621 0.489784 0.0170596
0.884581 0.491814 0.0174258
0.914168 0.495048 0.0184482
0.941924 0.498817 0.0192569
0.973693 0.499748 0.0190738
0.00366217 0.447501 0
0.0195773 0.452598 0.00369268
0.0365759 0.457313 0.00849927
0.0527352 0.462013 0.0129702
0.0691081 0.466682 0.0174716
0.085359 0.471504 0.0217136
0.102174 0.476768 0.026154
0.119265 0.482139 0.0304723
0.137072 0.487511 0.0341955
0.158495 0.492805 0.0374151
0.191775 0.497841 0.0396735
0.234867 0.501961 0.0400397
0.278477 0.504295 0.0378729
0.324819 0.505028 0.0333715
0.372015 0.50573 0.0283513
0.415045 0.506447 0.0230716
0.450629 0.508522 0.0195315
0.486625 0.510643 0.0144961
0.529458 0.510643 0.00901808
0.572488 0.510185 0.00521859
0.610697 0.510933 0.00486763
0.643534 0.513695 0.00636301
0.673487 0.51722 0.00868238
0.701915 0.520653 0.0112612
0.73022 0.523964 0.0137636
0.75967 0.527047 0.0159457
0.791348 0.529397 0.0173648
0.825879 0.530709 0.0179751
0.861616 0.531548 0.0177462
0.894011 0.533288 0.0174716
0.921965 0.536187 0.0176089
0.949447 0.539055 0.0180056
0.980514 0.539574 0.0173648
0.0119783 0.482795 0.00691234
0.0275883 0.487877 0.0113527
0.0437934 0.492531 0.0155337
0.0599222 0.49723 0.019791
0.0756847 0.502007 0.0236515
0.0915389 0.507088 0.0274052
0.107332 0.512276 0.0309606
0.123262 0.517494 0.034165
0.140124 0.522789 0.0367742
0.159442 0.527825 0.0386358
0.19237 0.531853 0.0387274
0.234974 0.533959 0.0356756
0.277821 0.535622 0.03122
0.323751 0.535897 0.0252232
0.369589 0.536446 0.018616
0.412879 0.538781 0.0134127
0.448722 0.542519 0.00827039
0.487251 0.545785 0.00410468
0.533318 0.547738 0.00263981
0.577859 0.549416 0.00222782
0.615778 0.551812 0.00318914
0.648814 0.555474 0.00564584
0.679103 0.559472 0.00881971
0.707897 0.563409 0.0117647
0.736461 0.566827 0.0142061
0.765957 0.569543 0.0159152
0.797574 0.571267 0.0166934
0.832013 0.571893 0.0163882
0.867323 0.571969 0.0153353
0.898924 0.572732 0.0144045
0.92604 0.574395 0.013901
0.952605 0.575845 0.0128939
0.982528 0.574975 0.0113222
0.0157321 0.518608 0.0102693
0.0308232 0.52372 0.0140383
0.0461891 0.528313 0.0175021
0.0617685 0.533059 0.0211795
0.0767529 0.537774 0.0242771
0.091783 0.542473 0.0273442
0.106691 0.547204 0.0297551
0.121172 0.551736 0.0314946
0.136339 0.555856 0.032517
0.153353 0.559731 0.032639
0.187778 0.563073 0.0309453
0.231907 0.564691 0.0266728
0.275532 0.565911 0.0214237
0.322652 0.56759 0.0162509
0.369985 0.569528 0.0110018
0.413504 0.573434 0.00456245
0.451591 0.579538 0.0018616
0.49366 0.584665 0.00323491
0.541344 0.58706 0.00288396
0.586572 0.589609 0.00364691
0.624674 0.593378 0.00584421
0.657115 0.597116 0.0084535
0.686442 0.60061 0.0109712
0.714778 0.603632 0.0131991
0.743145 0.606317 0.0151064
0.772457 0.607996 0.0159762
0.803693 0.608423 0.0155642
0.837446 0.607523 0.014023
0.872099 0.606394 0.0120241
0.902754 0.606195 0.0104372
0.929442 0.60708 0.00968948
0.956497 0.607248 0.00869764
0.986343 0.605722 0.00663767
0.0157473 0.55404 0.0099031
0.0300298 0.558831 0.0130007
0.0451972 0.56286 0.0158999
0.0597848 0.566934 0.0187076
0.0735943 0.570626 0.0207675
0.087602 0.57406 0.0226291
0.101595 0.577844 0.0238956
0.115679 0.581735 0.0255741
0.130617 0.585565 0.0261387
0.14757 0.588907 0.0260929
0.186297 0.591394 0.0239414
0.232761 0.594293 0.0207523
0.27863 0.596811 0.016968
0.327749 0.599725 0.0133211
0.377234 0.60383 0.00895705
0.421714 0.609262 0.00381476
0.461128 0.616678 0.0065156
0.505806 0.621851 0.00851453
0.55465 0.624613 0.00894179
0.598795 0.62681 0.00926223
0.635233 0.629847 0.0109102
0.66685 0.633051 0.0130007
0.695201 0.635737 0.014786
0.722377 0.637598 0.0159152
0.749935 0.638865 0.0166018
0.779019 0.639445 0.0164645
0.810193 0.639048 0.0152743
0.84387 0.637552 0.0130312
0.877913 0.63563 0.0103609
0.908064 0.634668 0.00857557
0.934569 0.634684 0.00764477
0.961379 0.634714 0.00663767
0.991104 0.6327 0.00448615
0.014313 0.58616 0.00805676
0.0278477 0.589441 0.0102998
0.0421149 0.592432 0.0124514
0.0561379 0.595468 0.0145571
0.0701152 0.598718 0.0166476
0.0841077 0.601785 0.0183566
0.098024 0.60502 0.0198215
0.112383 0.608438 0.0213779
0.128191 0.612085 0.022858
0.148226 0.615976 0.0236515
0.192996 0.619623 0.0229343
0.239963 0.623789 0.0213016
0.288701 0.62829 0.0197757
0.339544 0.632593 0.0171054
0.389868 0.637705 0.0115816
0.434134 0.644419 0.0107881
0.473991 0.651789 0.0145266
0.519463 0.655833 0.0155337
0.567544 0.657786 0.0151675
0.609903 0.659419 0.0149233
0.644541 0.661357 0.0154574
