site/assets/luts/freshluts--0001335-warm-lut-use-on-footages-rec709.cube
# LUTr-Schema-Version: 2
# LUTr-ID: freshluts--0001335-warm-lut-use-on-footages-rec709
# LUTr-Title: warm lut use on footages rec.709
# LUTr-Collection: Fresh LUTs
# LUTr-Collection-ID: freshluts-community
# LUTr-Source: https://freshluts.com
# LUTr-Retrieved: 2026-07-27
# LUTr-Source-File: submissions-raw/freshluts/cubes/1335__lut._warm._lunar_cny.cube
# LUTr-Source-Format: CUBE
# LUTr-Source-SHA256: 8f966bb71d449baa0947586d2f76f06e57046e3c03153be3ba676bc1c4911f6c
# LUTr-License: CC0-1.0
# LUTr-License-URL: https://freshluts.com/termsandconditions
# LUTr-License-Basis: site-terms
# LUTr-Transform-Class: creative-look
# LUTr-Tags: creative, freshluts, community, cube, rec709, warm
# LUTr-Input-Color-Space: rec709
# LUTr-Input-Gamut: rec709
# LUTr-Input-Transfer: rec709
# LUTr-Output-Color-Space: srgb
# LUTr-Output-Gamut: rec709
# LUTr-Output-Transfer: srgb
# LUTr-Color-Space-Confidence: declared-by-source
# LUTr-Domain-Normalized: true
# LUTr-Shaper: none
# LUTr-Original-Grid: 16x16x16
# LUTr-Conversion-Grid: 16x16x16
# LUTr-Conversion-Interpolation: none
# LUTr-Conversion-Method: Metadata normalization; numeric LUT samples preserved
# LUTr-Conversion-Tool: LUTr scripts/convert-all-to-cube.mjs 2.0.0
# LUTr-Conversion-Date: 2026-07-28
# LUTr-Asset-URL: https://freshluts.com/luts/1335
# LUTr-Author: lvannoeun@gmail.com
# LUTr-Author-URL: https://freshluts.com/users/57563
# LUTr-Attribution: lvannoeun@gmail.com via Fresh LUTs
# LUTr-Source-Labels: gamma=Rec 709; color=None; key=Neutral; style=Fresh look
# LUTr-Note: Preserve this metadata and the upstream license notices when redistributing.
TITLE "warm lut use on footages rec.709"
LUT_3D_SIZE 6
DOMAIN_MIN 0 0 0
DOMAIN_MAX 1 1 1
0 0 0
0.144417 -0.000701 -0.000701
0.380314 -0.00155 -0.00155
0.605568 -0.00247 -0.00247
0.798214 -0.003363 -0.003363
0.95836 -0.004153 -0.004153
-0.001132 0.151579 -0.001132
0.144417 0.152343 -0.001269
0.380313 0.192944 -0.001885
0.605568 0.204838 -0.00269
0.798214 0.203511 -0.003517
0.95836 0.19693 -0.004266
-0.002504 0.375034 -0.002504
0.186902 0.375034 -0.002565
0.38031 0.375884 -0.002808
0.605568 0.39898 -0.003428
0.798213 0.396438 -0.004089
0.958359 0.383598 -0.004707
-0.003991 0.590274 -0.003991
0.200194 0.590274 -0.004029
0.405425 0.590274 -0.004184
0.605567 0.589436 -0.004476
0.798212 0.58559 -0.004996
0.958358 0.5667 -0.00546
-0.005433 0.774228 -0.005433
0.199049 0.774228 -0.005458
0.403187 0.774228 -0.005566
0.603167 0.774228 -0.005776
0.79821 0.77231 -0.006092
0.958357 0.747271 -0.006426
-0.00671 0.92714 -0.00671
0.19176 0.92714 -0.006728
0.389012 0.92714 -0.006807
0.582189 0.927139 -0.006962
0.772768 0.927138 -0.007202
0.958356 0.926358 -0.007523
-0.000424 -0.000424 0.134062
0.144417 -0.000782 0.13556
0.380314 -0.001586 0.175661
0.605568 -0.002492 0.187399
0.798214 -0.003378 0.186066
0.95836 -0.004164 0.179593
-0.001175 0.151579 0.13482
0.145157 0.1515 0.13306
0.401098 0.134659 0.113282
0.625827 0.109592 0.085647
0.813355 0.095458 0.070073
0.95836 0.151888 0.134059
-0.002523 0.375034 0.17526
0.107978 0.379974 0.087479
0.382277 0.376513 0.081265
0.614534 0.386289 0.07097
0.807527 0.377481 0.063867
0.958359 0.370735 0.134055
-0.004003 0.590274 0.187679
0.089366 0.593296 0.064185
0.388667 0.592324 0.062896
0.606593 0.589813 0.060905
0.802234 0.580402 0.05846
0.958358 0.561073 0.134041
-0.005441 0.774228 0.186599
0.0827 0.776087 0.056979
0.380211 0.776009 0.056735
0.596311 0.775443 0.056323
0.798821 0.772402 0.055892
0.958357 0.745124 0.134025
-0.006716 0.92714 0.179772
0.08039 0.928673 0.055577
0.364719 0.928615 0.055591
0.572356 0.928249 0.055612
0.7694 0.927803 0.055729
0.958356 0.926326 0.134029
-0.000939 -0.000939 0.354415
0.186455 -0.001151 0.354415
0.380314 -0.001729 0.356014
0.605568 -0.002584 0.378866
0.798214 -0.003441 0.376281
0.95836 -0.00421 0.363693
-0.001483 0.192098 0.354415
0.14118 0.145961 0.377216
0.399077 0.127133 0.371459
0.625035 0.101735 0.371832
0.813504 0.086713 0.358714
0.95836 0.151552 0.35059
-0.0026 0.375033 0.355267
0.095273 0.378878 0.357683
0.382047 0.37475 0.352184
0.629014 0.358898 0.336184
0.833398 0.331519 0.308092
0.958359 0.373237 0.354403
-0.004051 0.590274 0.379426
0.06988 0.593312 0.360422
0.332372 0.597911 0.299461
0.609354 0.590395 0.284962
0.817874 0.566027 0.265264
0.958358 0.562193 0.35444
-0.005473 0.774228 0.377363
0.061299 0.776342 0.351902
0.279854 0.782749 0.243433
0.571908 0.779868 0.236386
0.801514 0.773346 0.226787
0.958357 0.745515 0.354431
-0.006739 0.92714 0.364074
0.059119 0.928821 0.336997
0.34226 0.92964 0.31732
0.560431 0.92965 0.306708
0.762898 0.929625 0.275891
0.958355 0.926349 0.354418
-0.001496 -0.001496 0.56798
0.200501 -0.001636 0.56798
0.405979 -0.002101 0.56798
0.605568 -0.002756 0.566406
0.798213 -0.003565 0.562635
0.95836 -0.004301 0.544013
-0.001891 0.20541 0.56798
0.127524 0.131936 0.60268
0.408502 0.11529 0.594734
0.622138 0.097862 0.580739
0.812084 0.085182 0.563696
0.95836 0.151552 0.538302
-0.002921 0.400115 0.56798
0.088032 0.391754 0.582947
0.376873 0.370407 0.592288
0.627197 0.355186 0.583718
0.832366 0.328408 0.559034
0.958359 0.375044 0.54087
-0.004145 0.590274 0.567223
0.068964 0.59264 0.568893
0.328232 0.596162 0.570493
0.607853 0.589807 0.564864
0.821689 0.577764 0.55341
0.958358 0.588739 0.567978
-0.005539 0.774228 0.564202
0.061083 0.776086 0.556537
0.270583 0.782425 0.529156
0.570663 0.781866 0.527014
0.802887 0.774193 0.514111
0.958357 0.756153 0.567977
-0.006787 0.92714 0.544557
0.059101 0.928604 0.533448
0.344226 0.929611 0.526987
0.588357 0.929592 0.551882
0.772886 0.929503 0.541656
0.958355 0.926452 0.567975
-0.002037 -0.002037 0.750496
0.199632 -0.002135 0.750496
0.404363 -0.002497 0.750496
0.604842 -0.003067 0.750495
0.798213 -0.003751 0.746374
0.958359 -0.004443 0.721724
-0.002328 0.20459 0.750496
0.110556 0.114699 0.787089
0.397166 0.104274 0.779113
0.612493 0.092289 0.769054
0.810148 0.083109 0.756728
0.958359 0.15155 0.719556
-0.003217 0.398516 0.750495
0.082082 0.384146 0.769495
0.36872 0.363084 0.7889
0.612208 0.347103 0.785081
0.829977 0.320947 0.773635
0.958359 0.375042 0.72088
-0.00438 0.588726 0.750494
0.067137 0.585892 0.757356
0.320498 0.580188 0.775829
0.603664 0.586686 0.773266
0.819896 0.575872 0.764719
0.958358 0.590273 0.73275
-0.005642 0.774228 0.748483
0.060778 0.775869 0.749495
0.266847 0.781001 0.752827
0.570126 0.779995 0.752079
0.800983 0.773599 0.746599
0.958357 0.773623 0.750491
-0.006862 0.92714 0.722544
0.059079 0.928519 0.718934
0.339645 0.929681 0.716284
0.58967 0.929662 0.727582
0.789856 0.929447 0.740547
0.958355 0.926681 0.750488
-0.002515 -0.002515 0.901535
0.192338 -0.002587 0.901534
0.390169 -0.002867 0.901534
0.583872 -0.003342 0.901534
0.774969 -0.003948 0.90151
0.958359 -0.004633 0.898179
-0.002734 0.197692 0.901534
0.123449 0.129424 0.918802
0.377326 0.121198 0.918647
0.585162 0.10121 0.918445
0.782584 0.081281 0.914781
0.958359 0.151568 0.898024
-0.003472 0.385124 0.901534
0.093577 0.368677 0.918504
0.372172 0.368158 0.91834
0.581786 0.362735 0.918299
0.783074 0.352695 0.917961
0.958359 0.37504 0.898363
-0.004524 0.568877 0.901509
0.066098 0.563814 0.911403
0.355208 0.561961 0.917965
0.601987 0.58717 0.917593
0.789172 0.582372 0.917097
0.958358 0.590272 0.899453
-0.005714 0.750121 0.901507
0.060614 0.749272 0.905537
0.299862 0.748966 0.916362
0.585072 0.758873 0.915854
0.798066 0.772397 0.9146
0.958357 0.774226 0.900508
-0.006968 0.927139 0.898998
0.059047 0.928479 0.899907
0.331312 0.929706 0.90083
0.585878 0.929656 0.901564
0.788306 0.929308 0.901623
0.958355 0.926725 0.901555
