site/assets/luts/freshluts--0000986-ocean.cube
# LUTr-Schema-Version: 2
# LUTr-ID: freshluts--0000986-ocean
# LUTr-Title: Ocean
# LUTr-Collection: Fresh LUTs
# LUTr-Collection-ID: freshluts-community
# LUTr-Source: https://freshluts.com
# LUTr-Retrieved: 2026-07-27
# LUTr-Source-File: submissions-raw/freshluts/cubes/986__Ocean.cube
# LUTr-Source-Format: CUBE
# LUTr-Source-SHA256: ac7021fd9fe30fc31434df5a5f283c0ed83f879f808f7305548a64909710fe65
# LUTr-License: CC0-1.0
# LUTr-License-URL: https://freshluts.com/termsandconditions
# LUTr-License-Basis: site-terms
# LUTr-Transform-Class: creative-look
# LUTr-Tags: creative, freshluts, community, cube, blue, high-key, rec709
# LUTr-Input-Color-Space: rec709
# LUTr-Input-Gamut: rec709
# LUTr-Input-Transfer: rec709
# LUTr-Output-Color-Space: srgb
# LUTr-Output-Gamut: rec709
# LUTr-Output-Transfer: srgb
# LUTr-Color-Space-Confidence: declared-by-source
# LUTr-Domain-Normalized: true
# LUTr-Shaper: none
# LUTr-Original-Grid: 32x32x32
# LUTr-Conversion-Grid: 32x32x32
# LUTr-Conversion-Interpolation: none
# LUTr-Conversion-Method: Metadata normalization; numeric LUT samples preserved
# LUTr-Conversion-Tool: LUTr scripts/convert-all-to-cube.mjs 2.0.0
# LUTr-Conversion-Date: 2026-07-28
# LUTr-Asset-URL: https://freshluts.com/luts/986
# LUTr-Author: ButterflyBD
# LUTr-Author-URL: https://freshluts.com/users/53416
# LUTr-Attribution: ButterflyBD via Fresh LUTs
# LUTr-Source-Labels: gamma=Rec 709; color=Blue; key=High Key; style=Colorful
# LUTr-Note: Preserve this metadata and the upstream license notices when redistributing.
# LUTr-Upstream-Comment: Created by: Adobe Photoshop Export Color Lookup Plugin
# LUTr-Upstream-Comment: LUT size
# LUTr-Upstream-Comment: data domain
# LUTr-Upstream-Comment: LUT data points
TITLE "Ocean"
LUT_3D_SIZE 8
DOMAIN_MIN 0.000000 0.000000 0.000000
DOMAIN_MAX 0.903226 0.903226 0.903226
0 0 0
0.151062 0 0
0.314819 0 0
0.47171 0 0
0.629425 0 0
0.765259 0 0
0.885712 0 0
1 0 0
0 0.141205 0
0.151062 0.141205 0
0.314819 0.113617 0
0.47171 0.086761 0
0.629425 0.073242 0
0.765259 0.064911 0
0.885712 0.059479 0
1 0.055511 0
0 0.315338 0
0.126434 0.315338 0
0.314819 0.315338 0
0.47171 0.289642 0
0.629425 0.266388 0
0.765259 0.251892 0
0.885712 0.242523 0
1 0.235535 0
0 0.487396 0
0.102722 0.487396 0
0.289459 0.487396 0
0.47171 0.487396 0
0.629425 0.446106 0
0.765259 0.423248 0
0.885712 0.408813 0
1 0.398254 0
0 0.645752 0
0.090912 0.645752 0
0.266846 0.645752 0
0.437286 0.645752 0
0.629425 0.645752 0
0.765259 0.618713 0
0.885712 0.598999 0
1 0.584534 0
0 0.765167 0
0.08371 0.765167 0
0.252899 0.765167 0
0.417358 0.765167 0
0.59967 0.765167 0
0.765259 0.765167 0
0.885712 0.743774 0
1 0.730133 0
0 0.905365 0
0.078888 0.905365 0
0.243958 0.905365 0
0.40387 0.905365 0
0.579102 0.905365 0
0.744324 0.905365 0
0.885712 0.905365 0
1 0.885651 0
0 1 0
0.075439 1 0
0.237274 1 0
0.394043 1 0
0.564392 1 0
0.729095 1 0
0.869263 1 0
1 1 0
0 0 0.154022
0.151062 0 0.154022
0.314819 0 0.129974
0.47171 0 0.107056
0.629425 0 0.095642
0.765259 0 0.088531
0.885712 0 0.083954
1 0 0.080597
0 0.141205 0.154022
0.126434 0.113617 0.129974
0.290924 0.085419 0.105865
0.450836 0.056366 0.08139
0.633179 0.031342 0.056885
0.790375 0.017792 0.032074
0.929016 0.003876 0.006775
1 0.013458 0.024109
0 0.315338 0.129974
0.101501 0.290985 0.105865
0.290924 0.290985 0.105865
0.450836 0.266388 0.08139
0.633179 0.241119 0.056885
0.790375 0.215363 0.032074
0.929016 0.189056 0.006775
1 0.192383 0.024109
0 0.487396 0.107056
0.076233 0.462646 0.08139
0.266846 0.462646 0.08139
0.450836 0.462646 0.08139
0.633179 0.434174 0.056885
0.790375 0.408752 0.032074
0.929016 0.383545 0.006775
1 0.372253 0.024109
0 0.645752 0.095642
0.050629 0.649048 0.056885
0.242645 0.649048 0.056885
0.427338 0.649048 0.056885
0.633179 0.649048 0.056885
0.790375 0.625824 0.032074
0.929016 0.600494 0.006775
1 0.573029 0.024109
0 0.765167 0.088531
0.024445 0.79361 0.032074
0.218414 0.79361 0.032074
0.403809 0.79361 0.032074
0.607208 0.79361 0.032074
0.790375 0.79361 0.032074
0.929016 0.769165 0.006775
1 0.73468 0.024109
0 0.905365 0.083954
0.003723 0.957397 0.006775
0.194244 0.957397 0.006775
0.380249 0.957397 0.006775
0.580688 0.957397 0.006775
0.768738 0.957397 0.006775
0.929016 0.957397 0.006775
1 0.906006 0.024109
0 1 0.080597
0.016022 1 0.024109
0.197296 1 0.024109
0.36969 1 0.024109
0.553162 1 0.024109
0.734222 1 0.024109
0.8862 1 0.024109
1 1 0.024109
0 0 0.31488
0.126434 0 0.31488
0.314819 0 0.31488
0.47171 0 0.289917
0.629425 0 0.267395
0.765259 0 0.253754
0.885712 0 0.244934
1 0 0.238434
0 0.113617 0.31488
0.101501 0.085419 0.291229
0.290924 0.085419 0.291229
0.450836 0.056366 0.267395
0.633179 0.031342 0.243622
0.790375 0.017792 0.219849
0.929016 0.003876 0.196075
1 0.013458 0.199066
0 0.315338 0.31488
0.101501 0.290985 0.291229
0.266846 0.266388 0.267395
0.427429 0.24115 0.243652
0.6073 0.215363 0.219849
0.768677 0.189087 0.196106
0.908997 0.162018 0.172211
1 0.153503 0.164673
0 0.487396 0.289917
0.076233 0.462646 0.267395
0.242676 0.434265 0.243652
0.427429 0.434265 0.243652
0.6073 0.408813 0.219849
0.768677 0.383575 0.196106
0.908997 0.358032 0.172211
1 0.343262 0.164673
0 0.645752 0.267395
0.050629 0.649048 0.243622
0.218414 0.625885 0.219849
0.40387 0.625885 0.219849
0.6073 0.625885 0.219849
0.768677 0.600433 0.196106
0.908997 0.573029 0.172211
1 0.548035 0.164673
0 0.765167 0.253754
0.024445 0.79361 0.219849
0.194275 0.769104 0.196106
0.38028 0.769104 0.196106
0.580597 0.769104 0.196106
0.768677 0.769104 0.196106
0.908997 0.745941 0.172211
1 0.723145 0.164673
0 0.905365 0.244934
0.003723 0.957397 0.196075
0.169769 0.933289 0.172211
0.356506 0.933289 0.172211
0.553162 0.933289 0.172211
0.746613 0.933289 0.172211
0.908997 0.933289 0.172211
1 0.899017 0.164673
0 1 0.238434
0.016022 1 0.199066
0.162018 1 0.164673
0.342438 1 0.164673
0.5289 1 0.164673
0.721069 1 0.164673
0.880493 1 0.164673
1 1 0.164673
0 0 0.469788
0.102722 0 0.469788
0.289459 0 0.469788
0.47171 0 0.469788
0.629425 0 0.436462
0.765259 0 0.416595
0.885712 0 0.403198
1 0 0.393341
0 0.086761 0.469788
0.076233 0.056366 0.449951
0.266846 0.056366 0.449951
0.450836 0.056366 0.449951
0.633179 0.031342 0.426483
0.790375 0.017792 0.403137
0.929016 0.003876 0.379669
1 0.013458 0.369232
0 0.289642 0.469788
0.076233 0.266388 0.449951
0.242676 0.24115 0.426575
0.427429 0.24115 0.426575
0.6073 0.215363 0.403198
0.768677 0.189087 0.3797
0.908997 0.162018 0.356171
1 0.153503 0.342255
0 0.487396 0.469788
0.076233 0.462646 0.449951
0.242676 0.434265 0.426575
0.403809 0.408752 0.403137
0.580597 0.383606 0.37973
0.746613 0.358032 0.356171
0.888794 0.333344 0.332489
1 0.309235 0.308868
0 0.645752 0.436462
0.050629 0.649048 0.426483
0.218414 0.625885 0.403198
0.38031 0.600433 0.37973
0.580597 0.600433 0.37973
0.746613 0.573029 0.356171
0.888794 0.544159 0.332489
1 0.514526 0.308868
0 0.765167 0.416595
0.024445 0.79361 0.403137
0.194275 0.769104 0.3797
0.356506 0.745941 0.356171
0.553162 0.745941 0.356171
0.746613 0.745941 0.356171
0.888794 0.725708 0.332489
1 0.705902 0.308868
0 0.905365 0.403198
0.003723 0.957397 0.379669
0.169769 0.933289 0.356171
0.332672 0.908997 0.332489
0.525208 0.908997 0.332489
0.72403 0.908997 0.332489
0.888794 0.908997 0.332489
1 0.884735 0.308868
0 1 0.393341
0.016022 1 0.369232
0.162018 1 0.342255
0.308746 1 0.308868
0.49707 1 0.308868
0.700806 1 0.308868
0.868469 1 0.308868
1 1 0.308868
0 0 0.637451
0.090912 0 0.637451
0.266846 0 0.637451
0.437286 0 0.637451
0.629425 0 0.637451
0.765259 0 0.60321
0.885712 0 0.578644
1 0 0.560791
0 0.073242 0.637451
0.050629 0.031342 0.641602
0.242645 0.031342 0.641602
0.427338 0.031342 0.641602
0.633179 0.031342 0.641602
0.790375 0.017792 0.612183
0.929016 0.003876 0.580505
1 0.013458 0.547058
0 0.266388 0.637451
0.050629 0.241119 0.641602
0.218414 0.215363 0.612274
0.40387 0.215363 0.612274
0.6073 0.215363 0.612274
0.768677 0.189087 0.580414
0.908997 0.162018 0.547058
1 0.153503 0.517944
0 0.446106 0.637451
0.050629 0.434174 0.641602
0.218414 0.408813 0.612274
0.38031 0.383606 0.580414
0.580597 0.383606 0.580414
0.746613 0.358032 0.547058
0.888794 0.333344 0.514282
1 0.309235 0.490967
0 0.645752 0.637451
0.050629 0.649048 0.641602
0.218414 0.625885 0.612274
0.38031 0.600433 0.580414
0.553162 0.573029 0.547058
0.723999 0.54425 0.514343
0.86853 0.514557 0.490997
1 0.484711 0.46759
0 0.765167 0.60321
0.024445 0.79361 0.612183
0.194275 0.769104 0.580414
0.356506 0.745941 0.547058
0.525269 0.725677 0.514343
0.723999 0.725677 0.514343
0.86853 0.705933 0.490997
1 0.686127 0.46759
0 0.905365 0.578644
0.003723 0.957397 0.580505
0.169769 0.933289 0.547058
0.332672 0.908997 0.514282
0.497131 0.884796 0.490997
0.700836 0.884796 0.490997
0.86853 0.884796 0.490997
1 0.860596 0.46759
0 1 0.560791
0.016022 1 0.547058
0.162018 1 0.517944
0.308746 1 0.490967
0.469177 1 0.46759
0.677216 1 0.46759
0.848114 1 0.46759
1 1 0.46759
0 0 0.756622
0.08371 0 0.756622
0.252899 0 0.756622
0.417358 0 0.756622
0.59967 0 0.756622
0.765259 0 0.756622
0.885712 0 0.741211
1 0 0.729584
0 0.064911 0.756622
0.024445 0.017792 0.774963
0.218414 0.017792 0.774963
0.403809 0.017792 0.774963
0.607208 0.017792 0.774963
0.790375 0.017792 0.774963
0.929016 0.003876 0.759186
1 0.013458 0.733551
0 0.251892 0.756622
0.024445 0.215363 0.774963
0.194275 0.189087 0.759155
0.38028 0.189087 0.759155
0.580597 0.189087 0.759155
0.768677 0.189087 0.759155
0.908997 0.162018 0.742981
1 0.153503 0.723389
0 0.423248 0.756622
0.024445 0.408752 0.774963
0.194275 0.383575 0.759155
0.356506 0.358032 0.742981
0.553162 0.358032 0.742981
0.746613 0.358032 0.742981
0.888794 0.333344 0.725708
1 0.309235 0.706909
0 0.618713 0.756622
0.024445 0.625824 0.774963
0.194275 0.600433 0.759155
0.356506 0.573029 0.742981
0.525269 0.54425 0.725708
0.723999 0.54425 0.725708
0.86853 0.514557 0.70694
1 0.484711 0.685883
0 0.765167 0.756622
0.024445 0.79361 0.774963
0.194275 0.769104 0.759155
0.356506 0.745941 0.742981
0.525269 0.725677 0.725708
0.700806 0.705902 0.706909
0.848114 0.686157 0.685913
0.983734 0.665527 0.661865
0 0.905365 0.741211
0.003723 0.957397 0.759186
0.169769 0.933289 0.742981
0.332672 0.908997 0.725708
0.497131 0.884796 0.70694
0.677246 0.860596 0.685913
0.848114 0.860596 0.685913
0.983734 0.836212 0.661865
0 1 0.729584
0.016022 1 0.733551
0.162018 1 0.723389
0.308746 1 0.706909
0.469177 1 0.685883
0.652496 0.99057 0.661865
0.827332 0.99057 0.661865
0.983734 0.99057 0.661865
0 0 0.8703
0.078888 0 0.8703
0.243958 0 0.8703
0.40387 0 0.8703
0.579102 0 0.8703
0.744324 0 0.8703
0.885712 0 0.8703
1 0 0.851593
0 0.059479 0.8703
0.003723 0.003876 0.919861
0.194244 0.003876 0.919861
0.380249 0.003876 0.919861
0.580688 0.003876 0.919861
0.768738 0.003876 0.919861
0.929016 0.003876 0.919861
1 0.013458 0.87085
0 0.242523 0.8703
0.003723 0.189056 0.919861
0.169769 0.162018 0.896729
0.356506 0.162018 0.896729
0.553162 0.162018 0.896729
0.746613 0.162018 0.896729
0.908997 0.162018 0.896729
1 0.153503 0.864288
0 0.408813 0.8703
0.003723 0.383545 0.919861
0.169769 0.358032 0.896729
0.332672 0.333344 0.873688
0.525208 0.333344 0.873688
0.72403 0.333344 0.873688
0.888794 0.333344 0.873688
1 0.309235 0.850677
0 0.598999 0.8703
0.003723 0.600494 0.919861
0.169769 0.573029 0.896729
0.332672 0.544159 0.873688
0.497131 0.514557 0.850739
0.700836 0.514557 0.850739
0.86853 0.514557 0.850739
1 0.484711 0.827728
0 0.743774 0.8703
0.003723 0.769165 0.919861
0.169769 0.745941 0.896729
0.332672 0.725708 0.873688
0.497131 0.705933 0.850739
0.677246 0.686157 0.827728
0.848114 0.686157 0.827728
0.983734 0.665527 0.804626
0 0.905365 0.8703
0.003723 0.957397 0.919861
0.169769 0.933289 0.896729
0.332672 0.908997 0.873688
0.497131 0.884796 0.850739
0.677246 0.860596 0.827728
0.827332 0.836212 0.804626
0.963959 0.811829 0.787018
0 1 0.851593
0.016022 1 0.87085
0.162018 1 0.864288
0.308746 1 0.850677
0.469177 1 0.827728
0.652496 0.99057 0.804626
0.806244 0.979004 0.787018
0.963959 0.979004 0.787018
0 0 1
0.075439 0 1
0.237274 0 1
0.394043 0 1
0.564392 0 1
0.729095 0 1
0.869263 0 1
1 0 1
0 0.055511 1
0.016022 0.013458 1
0.197296 0.013458 1
0.36969 0.013458 1
0.553162 0.013458 1
0.734222 0.013458 1
0.8862 0.013458 1
1 0.013458 1
0 0.235535 1
0.016022 0.192383 1
0.162018 0.153503 1
0.342438 0.153503 1
0.5289 0.153503 1
0.721069 0.153503 1
0.880493 0.153503 1
1 0.153503 1
0 0.398254 1
0.016022 0.372253 1
0.162018 0.343262 1
0.308746 0.309235 1
0.49707 0.309235 1
0.700806 0.309235 1
0.868469 0.309235 1
1 0.309235 1
0 0.584534 1
0.016022 0.573029 1
0.162018 0.548035 1
0.308746 0.514526 1
0.469177 0.484711 1
0.677216 0.484711 1
0.848114 0.484711 1
1 0.484711 1
0 0.730133 1
0.016022 0.73468 1
0.162018 0.723145 1
0.308746 0.705902 1
0.469177 0.686127 1
0.652496 0.665527 0.983154
0.827332 0.665527 0.983154
0.983734 0.665527 0.983154
0 0.885651 1
0.016022 0.906006 1
0.162018 0.899017 1
0.308746 0.884735 1
0.469177 0.860596 1
0.652496 0.836212 0.983154
0.806244 0.811829 0.960083
0.963959 0.811829 0.960083
0 1 1
0.016022 1 1
0.162018 1 1
0.308746 1 1
0.469177 1 1
0.652496 0.99057 0.983154
0.806244 0.979004 0.960083
0.944 0.967468 0.937073
