site/assets/luts/freshluts--0001709-car.cube
# LUTr-Schema-Version: 2
# LUTr-ID: freshluts--0001709-car
# LUTr-Title: Car
# LUTr-Collection: Fresh LUTs
# LUTr-Collection-ID: freshluts-community
# LUTr-Source: https://freshluts.com
# LUTr-Retrieved: 2026-07-27
# LUTr-Source-File: submissions-raw/freshluts/cubes/1709__Car_lut.cube
# LUTr-Source-Format: CUBE
# LUTr-Source-SHA256: c339aaa5e8855fffb905df5d7a9f456cb0440dc97971baab19ccc496e3191324
# LUTr-License: CC0-1.0
# LUTr-License-URL: https://freshluts.com/termsandconditions
# LUTr-License-Basis: site-terms
# LUTr-Transform-Class: creative-look
# LUTr-Tags: creative, freshluts, community, cube, orange, low-key, rec709, assumed-input
# LUTr-Input-Color-Space: rec709
# LUTr-Input-Gamut: rec709
# LUTr-Input-Transfer: rec709
# LUTr-Output-Color-Space: srgb
# LUTr-Output-Gamut: rec709
# LUTr-Output-Transfer: srgb
# LUTr-Color-Space-Confidence: assumed-display-referred
# LUTr-Domain-Normalized: true
# LUTr-Shaper: none
# LUTr-Original-Grid: 25x25x25
# LUTr-Conversion-Grid: 25x25x25
# LUTr-Conversion-Interpolation: none
# LUTr-Conversion-Method: Metadata normalization; numeric LUT samples preserved
# LUTr-Conversion-Tool: LUTr scripts/convert-all-to-cube.mjs 2.0.0
# LUTr-Conversion-Date: 2026-07-28
# LUTr-Asset-URL: https://freshluts.com/luts/1709
# LUTr-Author: Muffin_7
# LUTr-Author-URL: https://freshluts.com/users/231912
# LUTr-Attribution: Muffin_7 via Fresh LUTs
# LUTr-Source-Labels: gamma=Other; color=Orange; key=Low Key; style=Cinematic light; LUTr assumption=input Rec.709 per repository policy
# LUTr-Conversion-Warning: Input Rec.709 is a LUTr catalog assumption requested for this otherwise unspecified Fresh LUT; it is not verified by the upstream asset.
# LUTr-Note: Preserve this metadata and the upstream license notices when redistributing.
# LUTr-Upstream-Comment: Generated by lutCreator.js
# LUTr-Upstream-Comment: Coded by SirSerch
# LUTr-Upstream-Comment: https://github.com/SirSerch/LutCreatorJs
TITLE "Car"
LUT_3D_SIZE 9
DOMAIN_MIN 0 0 0
DOMAIN_MAX 1 1 1
0 0 0
0 0 0
0 0 0
0 0 0
0.003922 0 0
0.011765 0.003922 0
0.039216 0.011765 0.003922
0.082353 0.027451 0.007843
0.137255 0.058824 0.019608
0 0 0
0 0 0
0 0 0
0.003922 0 0
0.007843 0 0
0.019608 0.007843 0
0.05098 0.015686 0.003922
0.094118 0.035294 0.011765
0.14902 0.070588 0.023529
0 0 0
0.003922 0 0
0.003922 0.003922 0
0.007843 0.003922 0
0.019608 0.007843 0.003922
0.039216 0.015686 0.003922
0.07451 0.035294 0.011765
0.121569 0.058824 0.019608
0.176471 0.094118 0.039216
0.011765 0.011765 0.003922
0.015686 0.015686 0.003922
0.019608 0.019608 0.003922
0.031373 0.023529 0.007843
0.054902 0.035294 0.011765
0.082353 0.05098 0.015686
0.121569 0.07451 0.023529
0.164706 0.101961 0.039216
0.223529 0.133333 0.062745
0.058824 0.062745 0.015686
0.062745 0.062745 0.019608
0.070588 0.070588 0.019608
0.090196 0.078431 0.023529
0.109804 0.094118 0.031373
0.141176 0.109804 0.043137
0.184314 0.133333 0.058824
0.231373 0.164706 0.07451
0.290196 0.196078 0.098039
0.133333 0.141176 0.054902
0.137255 0.141176 0.058824
0.14902 0.14902 0.062745
0.164706 0.156863 0.066667
0.188235 0.172549 0.078431
0.223529 0.188235 0.090196
0.266667 0.215686 0.105882
0.317647 0.243137 0.12549
0.380392 0.282353 0.14902
0.239216 0.247059 0.117647
0.243137 0.25098 0.121569
0.25098 0.254902 0.121569
0.270588 0.266667 0.129412
0.298039 0.278431 0.137255
0.329412 0.298039 0.152941
0.376471 0.32549 0.168627
0.431373 0.356863 0.188235
0.494118 0.396078 0.211765
0.372549 0.384314 0.196078
0.376471 0.388235 0.2
0.384314 0.392157 0.203922
0.403922 0.403922 0.207843
0.431373 0.419608 0.219608
0.466667 0.439216 0.231373
0.513725 0.462745 0.247059
0.572549 0.498039 0.270588
0.639216 0.537255 0.294118
0.537255 0.552941 0.294118
0.541176 0.556863 0.294118
0.54902 0.560784 0.298039
0.568627 0.572549 0.305882
0.596078 0.588235 0.317647
0.635294 0.607843 0.329412
0.682353 0.635294 0.345098
0.741176 0.670588 0.368627
0.811765 0.709804 0.396078
0 0 0
0 0 0
0 0 0
0.003922 0 0
0.011765 0.003922 0.003922
0.035294 0.011765 0.003922
0.070588 0.023529 0.011765
0.117647 0.047059 0.023529
0.176471 0.082353 0.043137
0 0 0
0 0 0
0.003922 0 0
0.007843 0.003922 0
0.019608 0.007843 0.003922
0.043137 0.015686 0.007843
0.082353 0.031373 0.015686
0.129412 0.058824 0.027451
0.184314 0.090196 0.047059
0.003922 0.003922 0
0.003922 0.003922 0
0.007843 0.003922 0.003922
0.015686 0.007843 0.003922
0.035294 0.015686 0.007843
0.066667 0.031373 0.011765
0.105882 0.05098 0.023529
0.152941 0.082353 0.039216
0.211765 0.113725 0.058824
0.019608 0.023529 0.007843
0.023529 0.023529 0.007843
0.031373 0.027451 0.011765
0.05098 0.039216 0.011765
0.07451 0.05098 0.019608
0.105882 0.070588 0.027451
0.145098 0.094118 0.043137
0.196078 0.121569 0.062745
0.254902 0.156863 0.086275
0.07451 0.078431 0.027451
0.078431 0.082353 0.031373
0.090196 0.086275 0.031373
0.105882 0.094118 0.039216
0.133333 0.109804 0.047059
0.164706 0.129412 0.062745
0.207843 0.152941 0.078431
0.258824 0.184314 0.098039
0.321569 0.219608 0.121569
0.152941 0.156863 0.07451
0.156863 0.160784 0.07451
0.164706 0.164706 0.078431
0.184314 0.176471 0.086275
0.211765 0.192157 0.094118
0.247059 0.207843 0.105882
0.290196 0.235294 0.12549
0.345098 0.266667 0.145098
0.407843 0.301961 0.168627
0.254902 0.266667 0.137255
0.262745 0.266667 0.137255
0.270588 0.27451 0.141176
0.290196 0.282353 0.14902
0.317647 0.298039 0.156863
0.352941 0.317647 0.168627
0.4 0.345098 0.188235
0.454902 0.376471 0.207843
0.521569 0.415686 0.235294
0.392157 0.403922 0.215686
0.396078 0.407843 0.215686
0.403922 0.411765 0.219608
0.423529 0.423529 0.227451
0.45098 0.439216 0.235294
0.490196 0.458824 0.25098
0.537255 0.486275 0.266667
0.596078 0.517647 0.290196
0.666667 0.556863 0.313725
0.556863 0.576471 0.313725
0.560784 0.576471 0.313725
0.572549 0.584314 0.317647
0.592157 0.592157 0.32549
0.619608 0.607843 0.337255
0.654902 0.631373 0.34902
0.705882 0.658824 0.368627
0.764706 0.690196 0.388235
0.839216 0.733333 0.415686
0 0 0
0 0 0
0.003922 0 0
0.011765 0.003922 0.003922
0.031373 0.007843 0.007843
0.070588 0.023529 0.019608
0.117647 0.047059 0.035294
0.172549 0.082353 0.058824
0.239216 0.117647 0.086275
0 0 0
0 0 0
0.007843 0.003922 0.003922
0.015686 0.007843 0.007843
0.043137 0.015686 0.011765
0.078431 0.031373 0.023529
0.129412 0.058824 0.039216
0.184314 0.090196 0.062745
0.247059 0.129412 0.090196
0.007843 0.007843 0.003922
0.011765 0.011765 0.007843
0.019608 0.015686 0.007843
0.039216 0.019608 0.011765
0.066667 0.035294 0.023529
0.105882 0.054902 0.035294
0.152941 0.082353 0.054902
0.207843 0.117647 0.078431
0.27451 0.152941 0.101961
0.039216 0.043137 0.019608
0.047059 0.047059 0.023529
0.058824 0.05098 0.027451
0.078431 0.062745 0.031373
0.109804 0.078431 0.043137
0.14902 0.101961 0.058824
0.196078 0.12549 0.078431
0.25098 0.160784 0.101961
0.317647 0.2 0.129412
0.105882 0.109804 0.058824
0.109804 0.109804 0.058824
0.121569 0.117647 0.062745
0.141176 0.129412 0.070588
0.172549 0.145098 0.082353
0.207843 0.164706 0.098039
0.258824 0.192157 0.117647
0.313725 0.223529 0.141176
0.384314 0.262745 0.164706
0.188235 0.192157 0.105882
0.192157 0.196078 0.109804
0.203922 0.2 0.113725
0.223529 0.211765 0.121569
0.254902 0.227451 0.133333
0.290196 0.25098 0.145098
0.341176 0.27451 0.164706
0.4 0.309804 0.188235
0.466667 0.34902 0.215686
0.298039 0.305882 0.172549
0.301961 0.309804 0.176471
0.313725 0.313725 0.180392
0.333333 0.32549 0.188235
0.364706 0.341176 0.2
0.4 0.360784 0.211765
0.45098 0.388235 0.231373
0.509804 0.423529 0.254902
0.580392 0.462745 0.282353
0.435294 0.447059 0.254902
0.439216 0.45098 0.258824
0.45098 0.454902 0.262745
0.470588 0.466667 0.270588
0.501961 0.482353 0.278431
0.537255 0.505882 0.294118
0.588235 0.533333 0.313725
0.65098 0.568627 0.337255
0.72549 0.607843 0.364706
0.6 0.619608 0.356863
0.607843 0.623529 0.356863
0.619608 0.627451 0.360784
0.639216 0.639216 0.368627
0.670588 0.654902 0.380392
0.709804 0.678431 0.396078
0.760784 0.705882 0.411765
0.823529 0.741176 0.435294
0.898039 0.784314 0.462745
0 0 0
0 0 0
0.007843 0.003922 0.003922
0.023529 0.007843 0.011765
0.062745 0.019608 0.023529
0.109804 0.043137 0.043137
0.164706 0.078431 0.07451
0.235294 0.117647 0.101961
0.309804 0.160784 0.137255
0 0.003922 0.003922
0.003922 0.003922 0.003922
0.011765 0.007843 0.007843
0.035294 0.015686 0.015686
0.07451 0.031373 0.031373
0.121569 0.058824 0.05098
0.176471 0.090196 0.078431
0.243137 0.129412 0.109804
0.321569 0.172549 0.145098
0.015686 0.019608 0.015686
0.023529 0.023529 0.015686
0.035294 0.027451 0.023529
0.062745 0.043137 0.031373
0.101961 0.062745 0.05098
0.14902 0.086275 0.070588
0.203922 0.117647 0.098039
0.270588 0.156863 0.12549
0.34902 0.2 0.160784
0.066667 0.070588 0.047059
0.07451 0.07451 0.05098
0.090196 0.082353 0.054902
0.113725 0.094118 0.066667
0.152941 0.113725 0.082353
0.196078 0.137255 0.101961
0.25098 0.168627 0.129412
0.317647 0.207843 0.156863
0.396078 0.25098 0.188235
0.141176 0.145098 0.094118
0.145098 0.14902 0.098039
0.160784 0.156863 0.105882
0.184314 0.168627 0.113725
0.219608 0.188235 0.129412
0.266667 0.211765 0.14902
0.321569 0.239216 0.168627
0.388235 0.278431 0.196078
0.462745 0.321569 0.227451
0.231373 0.239216 0.156863
0.239216 0.243137 0.156863
0.25098 0.247059 0.160784
0.27451 0.262745 0.172549
0.309804 0.278431 0.184314
0.352941 0.301961 0.203922
0.407843 0.333333 0.223529
0.47451 0.368627 0.25098
0.552941 0.411765 0.282353
0.352941 0.360784 0.227451
0.356863 0.364706 0.231373
0.368627 0.368627 0.235294
0.392157 0.380392 0.243137
0.427451 0.4 0.258824
0.470588 0.423529 0.27451
0.52549 0.45098 0.294118
0.592157 0.490196 0.321569
0.666667 0.533333 0.352941
0.498039 0.509804 0.317647
0.501961 0.513725 0.321569
0.513725 0.517647 0.32549
0.537255 0.529412 0.333333
0.568627 0.54902 0.345098
0.611765 0.572549 0.360784
0.666667 0.6 0.380392
0.733333 0.639216 0.407843
0.811765 0.682353 0.439216
0.670588 0.690196 0.423529
0.67451 0.694118 0.427451
0.690196 0.698039 0.431373
0.709804 0.709804 0.439216
0.745098 0.729412 0.45098
0.784314 0.752941 0.466667
0.843137 0.780392 0.486275
0.909804 0.819608 0.513725
0.988235 0.862745 0.541176
0 0.003922 0.003922
0.003922 0.003922 0.003922
0.011765 0.007843 0.011765
0.043137 0.019608 0.027451
0.094118 0.043137 0.05098
0.14902 0.07451 0.082353
0.215686 0.113725 0.117647
0.298039 0.156863 0.156863
0.384314 0.211765 0.196078
0.003922 0.007843 0.007843
0.007843 0.011765 0.011765
0.023529 0.019608 0.019608
0.058824 0.031373 0.039216
0.105882 0.058824 0.062745
0.160784 0.086275 0.090196
0.231373 0.12549 0.12549
0.309804 0.172549 0.164706
0.396078 0.223529 0.203922
0.031373 0.039216 0.031373
0.039216 0.043137 0.039216
0.058824 0.05098 0.047059
0.094118 0.070588 0.066667
0.141176 0.094118 0.086275
0.196078 0.121569 0.113725
0.262745 0.160784 0.145098
0.337255 0.203922 0.184314
0.427451 0.254902 0.223529
0.094118 0.101961 0.082353
0.101961 0.105882 0.086275
0.121569 0.113725 0.094118
0.152941 0.129412 0.109804
0.196078 0.152941 0.129412
0.247059 0.180392 0.152941
0.313725 0.215686 0.180392
0.388235 0.258824 0.215686
0.478431 0.305882 0.254902
0.180392 0.184314 0.141176
0.188235 0.188235 0.145098
0.203922 0.2 0.152941
0.231373 0.211765 0.164706
0.27451 0.235294 0.180392
0.32549 0.262745 0.203922
0.388235 0.294118 0.231373
0.462745 0.337255 0.266667
0.552941 0.384314 0.301961
0.286275 0.290196 0.211765
0.290196 0.294118 0.215686
0.305882 0.301961 0.219608
0.333333 0.317647 0.231373
0.372549 0.337255 0.247059
0.423529 0.360784 0.266667
0.486275 0.396078 0.294118
0.560784 0.435294 0.32549
0.647059 0.486275 0.360784
0.415686 0.423529 0.294118
0.419608 0.427451 0.298039
0.435294 0.435294 0.305882
0.462745 0.447059 0.313725
0.498039 0.466667 0.329412
0.545098 0.494118 0.34902
0.607843 0.52549 0.372549
0.682353 0.564706 0.403922
0.768627 0.611765 0.439216
0.572549 0.584314 0.396078
0.576471 0.588235 0.396078
0.592157 0.596078 0.403922
0.615686 0.607843 0.411765
0.65098 0.627451 0.427451
0.698039 0.65098 0.443137
0.760784 0.686275 0.466667
0.835294 0.72549 0.498039
0.921569 0.772549 0.533333
0.756863 0.776471 0.509804
0.760784 0.780392 0.513725
0.776471 0.784314 0.517647
0.8 0.8 0.52549
0.835294 0.815686 0.541176
0.882353 0.843137 0.556863
0.941176 0.87451 0.580392
1 0.913725 0.607843
1 0.960784 0.643137
0 0.007843 0.011765
0.007843 0.011765 0.015686
0.023529 0.023529 0.031373
0.066667 0.043137 0.054902
0.12549 0.070588 0.086275
0.192157 0.105882 0.121569
0.270588 0.14902 0.164706
0.360784 0.2 0.211765
0.462745 0.258824 0.262745
0.011765 0.023529 0.023529
0.015686 0.027451 0.031373
0.043137 0.039216 0.047059
0.086275 0.058824 0.066667
0.141176 0.086275 0.098039
0.203922 0.121569 0.133333
0.282353 0.164706 0.172549
0.372549 0.215686 0.219608
0.47451 0.27451 0.270588
0.05098 0.062745 0.062745
0.062745 0.070588 0.066667
0.086275 0.082353 0.082353
0.12549 0.101961 0.101961
0.176471 0.129412 0.129412
0.239216 0.160784 0.160784
0.317647 0.203922 0.2
0.403922 0.25098 0.243137
0.505882 0.309804 0.290196
0.12549 0.133333 0.121569
0.133333 0.137255 0.12549
0.156863 0.14902 0.133333
0.192157 0.168627 0.152941
0.239216 0.192157 0.176471
0.301961 0.223529 0.203922
0.376471 0.262745 0.243137
0.462745 0.313725 0.282353
0.560784 0.368627 0.329412
0.219608 0.231373 0.192157
0.227451 0.235294 0.196078
0.247059 0.243137 0.203922
0.282353 0.258824 0.219608
0.329412 0.282353 0.239216
0.384314 0.313725 0.266667
0.458824 0.352941 0.298039
0.545098 0.4 0.337255
0.643137 0.45098 0.380392
0.337255 0.345098 0.270588
0.345098 0.34902 0.27451
0.360784 0.360784 0.282353
0.392157 0.372549 0.294118
0.435294 0.396078 0.313725
0.494118 0.427451 0.341176
0.564706 0.462745 0.368627
0.647059 0.505882 0.407843
0.741176 0.560784 0.45098
0.482353 0.494118 0.368627
0.486275 0.494118 0.372549
0.501961 0.501961 0.376471
0.533333 0.517647 0.392157
0.576471 0.541176 0.407843
0.627451 0.568627 0.431373
0.698039 0.603922 0.458824
0.780392 0.647059 0.494118
0.87451 0.698039 0.533333
0.65098 0.666667 0.478431
0.658824 0.670588 0.482353
0.67451 0.678431 0.490196
0.701961 0.690196 0.498039
0.741176 0.709804 0.517647
0.792157 0.737255 0.537255
0.858824 0.772549 0.564706
0.941176 0.815686 0.596078
1 0.866667 0.635294
0.85098 0.870588 0.607843
0.854902 0.870588 0.607843
0.870588 0.878431 0.615686
0.898039 0.894118 0.623529
0.937255 0.913725 0.639216
0.988235 0.941176 0.658824
1 0.972549 0.686275
1 0.996078 0.72549
1 0.996078 0.776471
0.003922 0.027451 0.035294
0.011765 0.035294 0.043137
0.043137 0.05098 0.062745
0.098039 0.07451 0.094118
0.160784 0.109804 0.129412
0.235294 0.145098 0.172549
0.32549 0.196078 0.219608
0.427451 0.25098 0.27451
0.541176 0.317647 0.333333
0.019608 0.047059 0.054902
0.031373 0.054902 0.062745
0.066667 0.070588 0.082353
0.113725 0.094118 0.109804
0.180392 0.12549 0.141176
0.25098 0.164706 0.184314
0.341176 0.211765 0.231373
0.443137 0.266667 0.286275
0.556863 0.329412 0.341176
0.07451 0.098039 0.101961
0.086275 0.101961 0.105882
0.113725 0.117647 0.121569
0.160784 0.137255 0.145098
0.219608 0.168627 0.176471
0.290196 0.203922 0.215686
0.376471 0.25098 0.258824
0.478431 0.305882 0.309804
0.588235 0.368627 0.368627
0.156863 0.176471 0.164706
0.168627 0.180392 0.172549
0.192157 0.192157 0.184314
0.231373 0.211765 0.203922
0.290196 0.239216 0.231373
0.356863 0.27451 0.266667
0.443137 0.321569 0.309804
0.537255 0.372549 0.356863
0.65098 0.435294 0.411765
0.266667 0.282353 0.247059
0.27451 0.286275 0.25098
0.294118 0.294118 0.262745
0.333333 0.313725 0.278431
0.384314 0.341176 0.305882
0.45098 0.372549 0.337255
0.533333 0.415686 0.372549
0.627451 0.466667 0.419608
0.737255 0.52549 0.470588
0.392157 0.407843 0.341176
0.4 0.411765 0.345098
0.423529 0.423529 0.352941
0.454902 0.439216 0.368627
0.505882 0.462745 0.392157
0.568627 0.494118 0.419608
0.647059 0.537255 0.454902
0.741176 0.584314 0.498039
0.847059 0.643137 0.545098
0.552941 0.568627 0.45098
0.560784 0.572549 0.454902
0.576471 0.580392 0.462745
0.611765 0.596078 0.47451
0.654902 0.619608 0.498039
0.717647 0.65098 0.521569
0.792157 0.690196 0.556863
0.882353 0.737255 0.596078
0.988235 0.792157 0.643137
0.737255 0.752941 0.576471
0.745098 0.756863 0.580392
0.760784 0.768627 0.588235
0.792157 0.780392 0.6
0.835294 0.803922 0.619608
0.894118 0.835294 0.643137
0.968627 0.870588 0.67451
1 0.917647 0.709804
1 0.996078 0.752941
0.952941 0.972549 0.717647
0.956863 0.976471 0.721569
0.976471 0.984314 0.72549
1 1 0.737255
1 0.996078 0.760784
1 0.996078 0.788235
1 0.996078 0.827451
1 0.996078 0.87451
1 1 0.929412
0.011765 0.066667 0.07451
0.027451 0.07451 0.082353
0.070588 0.090196 0.105882
0.129412 0.117647 0.137255
0.2 0.152941 0.180392
0.286275 0.196078 0.227451
0.384314 0.247059 0.282353
0.498039 0.309804 0.345098
0.623529 0.380392 0.411765
0.035294 0.086275 0.098039
0.054902 0.094118 0.105882
0.094118 0.109804 0.12549
0.14902 0.137255 0.156863
0.219608 0.172549 0.196078
0.301961 0.211765 0.239216
0.4 0.266667 0.294118
0.513725 0.32549 0.356863
0.639216 0.396078 0.423529
0.098039 0.141176 0.145098
0.113725 0.145098 0.152941
0.145098 0.160784 0.168627
0.196078 0.184314 0.196078
0.262745 0.215686 0.231373
0.345098 0.258824 0.27451
0.439216 0.309804 0.329412
0.552941 0.368627 0.384314
0.678431 0.435294 0.45098
0.192157 0.223529 0.219608
0.203922 0.227451 0.223529
0.231373 0.243137 0.239216
0.278431 0.262745 0.262745
0.341176 0.294118 0.294118
0.415686 0.333333 0.333333
0.509804 0.380392 0.380392
0.619608 0.439216 0.435294
0.741176 0.505882 0.498039
0.309804 0.337255 0.309804
0.321569 0.341176 0.317647
0.345098 0.352941 0.329412
0.388235 0.372549 0.34902
0.447059 0.4 0.376471
0.517647 0.439216 0.411765
0.607843 0.486275 0.454902
0.713725 0.541176 0.509804
0.835294 0.603922 0.568627
0.454902 0.47451 0.415686
0.462745 0.478431 0.419608
0.482353 0.490196 0.431373
0.521569 0.509804 0.447059
0.576471 0.537255 0.47451
0.647059 0.572549 0.505882
0.733333 0.615686 0.54902
0.835294 0.670588 0.596078
0.952941 0.733333 0.65098
0.627451 0.647059 0.541176
0.635294 0.65098 0.545098
0.654902 0.662745 0.552941
0.690196 0.678431 0.568627
0.741176 0.705882 0.592157
0.807843 0.737255 0.623529
0.890196 0.780392 0.658824
0.992157 0.831373 0.705882
1 0.894118 0.756863
0.827451 0.85098 0.682353
0.835294 0.854902 0.686275
0.854902 0.862745 0.694118
0.886275 0.878431 0.705882
0.937255 0.901961 0.729412
1 0.933333 0.756863
1 0.980392 0.788235
1 0.996078 0.843137
1 0.996078 0.905882
1 0.996078 0.854902
1 0.996078 0.858824
1 0.996078 0.866667
1 0.996078 0.882353
1 0.996078 0.905882
1 1 0.937255
1 1 0.980392
1 1 1
1 1 1
0.023529 0.109804 0.12549
0.047059 0.117647 0.133333
0.098039 0.137255 0.156863
0.164706 0.168627 0.192157
0.243137 0.203922 0.239216
0.337255 0.25098 0.290196
0.447059 0.309804 0.352941
0.572549 0.372549 0.423529
0.709804 0.45098 0.498039
0.058824 0.133333 0.14902
0.078431 0.141176 0.156863
0.121569 0.160784 0.176471
0.184314 0.188235 0.211765
0.262745 0.223529 0.254902
0.356863 0.270588 0.305882
0.462745 0.32549 0.368627
0.588235 0.392157 0.435294
0.72549 0.466667 0.509804
0.129412 0.188235 0.2
0.145098 0.196078 0.207843
0.180392 0.211765 0.227451
0.239216 0.239216 0.254902
0.313725 0.27451 0.298039
0.4 0.317647 0.345098
0.505882 0.372549 0.403922
0.631373 0.435294 0.466667
0.768627 0.509804 0.541176
0.231373 0.278431 0.278431
0.243137 0.282353 0.286275
0.27451 0.298039 0.301961
0.32549 0.321569 0.32549
0.396078 0.356863 0.364706
0.478431 0.396078 0.407843
0.580392 0.45098 0.462745
0.701961 0.513725 0.52549
0.835294 0.584314 0.596078
0.360784 0.4 0.380392
0.372549 0.403922 0.388235
0.4 0.415686 0.4
0.443137 0.439216 0.423529
0.509804 0.470588 0.454902
0.588235 0.509804 0.494118
0.690196 0.560784 0.545098
0.803922 0.619608 0.603922
0.937255 0.690196 0.670588
0.513725 0.54902 0.498039
0.52549 0.552941 0.505882
0.54902 0.564706 0.513725
0.592157 0.584314 0.537255
0.65098 0.615686 0.564706
0.72549 0.65098 0.6
0.823529 0.701961 0.647059
0.933333 0.756863 0.701961
1 0.827451 0.764706
0.701961 0.733333 0.639216
0.713725 0.737255 0.643137
0.733333 0.74902 0.65098
0.772549 0.764706 0.670588
0.827451 0.796078 0.694118
0.901961 0.831373 0.729412
0.992157 0.878431 0.772549
1 0.933333 0.823529
1 0.996078 0.886275
0.921569 0.94902 0.792157
0.929412 0.952941 0.796078
0.94902 0.964706 0.807843
0.984314 0.980392 0.823529
1 0.996078 0.847059
1 0.996078 0.886275
1 1 0.933333
1 1 0.992157
1 1 1
1 1 1
1 1 1
1 1 1
1 1 1
1 1 1
1 1 1
1 1 1
1 1 1
1 1 1
