site/assets/luts/freshluts--0000186-glut003.cube
# LUTr-Schema-Version: 2
# LUTr-ID: freshluts--0000186-glut003
# LUTr-Title: gLUT003
# LUTr-Collection: Fresh LUTs
# LUTr-Collection-ID: freshluts-community
# LUTr-Source: https://freshluts.com
# LUTr-Retrieved: 2026-07-27
# LUTr-Source-File: submissions-raw/freshluts/cubes/186__GRL_2.P2640005.cube
# LUTr-Source-Format: CUBE
# LUTr-Source-SHA256: d6f4a828f3dbe65e8c4d8d5df3f77c3c4b6e97a417e870f05cdef227e6e50881
# LUTr-License: CC0-1.0
# LUTr-License-URL: https://freshluts.com/termsandconditions
# LUTr-License-Basis: site-terms
# LUTr-Transform-Class: creative-look
# LUTr-Tags: creative, freshluts, community, cube, green, high-key, rec709
# LUTr-Input-Color-Space: rec709
# LUTr-Input-Gamut: rec709
# LUTr-Input-Transfer: rec709
# LUTr-Output-Color-Space: srgb
# LUTr-Output-Gamut: rec709
# LUTr-Output-Transfer: srgb
# LUTr-Color-Space-Confidence: inferred-from-source-label
# LUTr-Domain-Normalized: true
# LUTr-Shaper: none
# LUTr-Original-Grid: 33x33x33
# LUTr-Conversion-Grid: 33x33x33
# LUTr-Conversion-Interpolation: none
# LUTr-Conversion-Method: Metadata normalization; numeric LUT samples preserved
# LUTr-Conversion-Tool: LUTr scripts/convert-all-to-cube.mjs 2.0.0
# LUTr-Conversion-Date: 2026-07-28
# LUTr-Asset-URL: https://freshluts.com/luts/186
# LUTr-Author: directorgodfrey_M
# LUTr-Author-URL: https://freshluts.com/users/1455
# LUTr-Attribution: directorgodfrey_M via Fresh LUTs
# LUTr-Source-Labels: gamma=Rec 709; color=Green; key=High Key; style=green shadow
# LUTr-Note: Preserve this metadata and the upstream license notices when redistributing.
TITLE "gLUT003"
LUT_3D_SIZE 33
DOMAIN_MIN 0 0 0
DOMAIN_MAX 1 1 1
0 0.00181582 0.00546273
0.0438697 0 0.0552224
0.0532235 0 0.0536049
0 0.00181582 0.00546273
0 0.00181582 0.00546273
0 0.00181582 0.00546273
0.0147402 0 0.0089723
0.0523384 0 0.0155184
0.108446 0.03122 0.005066
0.183749 0.0858473 0.005066
0.238392 0.103593 0.00842298
0.283864 0.118471 0.0117952
0.326146 0.130709 0.01561
0.369818 0.14197 0.0201114
0.416876 0.152255 0.0251774
0.466484 0.161471 0.0305791
0.518257 0.170336 0.036286
0.569314 0.177508 0.041825
0.618112 0.183383 0.0471809
0.66601 0.188739 0.0523995
0.713054 0.194049 0.0575418
0.761364 0.200214 0.0628519
0.808515 0.207446 0.0680705
0.855161 0.216968 0.0730449
0.897673 0.243259 0.0767224
0.934234 0.280705 0.0802625
0.964706 0.32224 0.124453
0.980316 0.355962 0.154543
0.992309 0.387167 0.170001
1 0.417685 0.183551
1 0.447745 0.197604
1 0.479271 0.212879
1 0.509773 0.228428
0 0.00181582 0.00546273
0 0.00181582 0.00546273
0 0.00181582 0.00546273
0 0.00181582 0.00546273
0 0.00181582 0.00546273
0 0.00181582 0.00546273
0 0.00181582 0.00546273
0.0497597 0 0.0144656
0.111101 0.0421607 0.00367742
0.183673 0.0859236 0.005066
0.237461 0.103685 0.00833143
0.283085 0.118593 0.0117189
0.325109 0.130816 0.0154879
0.369589 0.142168 0.0200656
0.416922 0.152453 0.0251621
0.466743 0.161685 0.0306096
0.518685 0.17055 0.0363165
0.569726 0.177646 0.0418708
0.618418 0.18352 0.0472114
0.666316 0.188937 0.05243
0.713466 0.194186 0.0575875
0.761654 0.200336 0.0628824
0.808804 0.207584 0.0680858
0.855451 0.217121 0.0730602
0.897932 0.243519 0.0767376
0.934127 0.280583 0.0802319
0.964828 0.322484 0.124804
0.980377 0.3561 0.154635
0.99237 0.387304 0.170077
1 0.417929 0.183642
1 0.447883 0.197635
1 0.477821 0.212177
1 0.509239 0.228138
0 0.00181582 0.00546273
0 0.00181582 0.00546273
0 0.00181582 0.00546273
0 0.00181582 0.00546273
0 0.00181582 0.00546273
0 0.00181582 0.00546273
0 0.00181582 0.00546273
0.051545 0.0284733 0.00242618
0.117479 0.0639506 0.00216678
0.181872 0.0859388 0.00491341
0.233616 0.104143 0.00798047
0.279347 0.119219 0.0113375
0.322347 0.131594 0.0151522
0.368963 0.143175 0.0199741
0.417792 0.153658 0.0252232
0.46833 0.162905 0.0307469
0.520592 0.171633 0.0364996
0.571389 0.178607 0.0420233
0.620493 0.184497 0.047425
0.668498 0.189761 0.0526436
0.715938 0.195026 0.0578317
0.763821 0.201114 0.0630961
0.811261 0.208469 0.0683452
0.857862 0.218189 0.0732891
0.899382 0.244953 0.0768444
0.935012 0.281697 0.0806439
0.965682 0.323629 0.126894
0.980713 0.357015 0.155169
0.992813 0.388479 0.170596
1 0.419135 0.184207
1 0.449454 0.198367
1 0.480858 0.213672
1 0.511498 0.229328
0 0.00181582 0.00546273
0 0.00181582 0.00546273
0 0.00181582 0.00546273
0 0.00181582 0.00546273
0 0.00181582 0.00546273
0 0.00181582 0.00546273
0 0.0232242 0.000534066
0.0730755 0.051667 0.000671397
0.125093 0.0675669 0.00224308
0.180423 0.088365 0.00460822
0.229908 0.106523 0.00750744
0.276905 0.121813 0.010956
0.3234 0.13463 0.0151369
0.37203 0.146395 0.0202335
0.421836 0.156527 0.0255894
0.473381 0.165743 0.0312505
0.526238 0.174243 0.0370489
0.577234 0.180941 0.0426184
0.62649 0.186648 0.0480354
0.673808 0.191623 0.0531777
0.721309 0.196765 0.0583658
0.770214 0.203021 0.0637522
0.818158 0.210712 0.0690471
0.863355 0.2206 0.0738079
0.903868 0.249424 0.0771801
0.938827 0.285924 0.0823835
0.967651 0.326268 0.130785
0.98201 0.360433 0.157031
0.994278 0.392309 0.172274
1 0.423255 0.18613
1 0.454658 0.200809
1 0.487556 0.217014
1 0.528603 0.238514
0 0.00181582 0.00546273
0 0.00181582 0.00546273
0 0.00181582 0.00546273
0 0.00181582 0.00546273
0 0.00181582 0.00546273
0 0.00181582 0.00546273
0 0.00479133 0.00430304
0.0761273 0.0559396 0.000411994
0.1411 0.076936 0.00254826
0.198047 0.0990005 0.00515755
0.245914 0.116136 0.00836194
0.291173 0.129946 0.0118868
0.338354 0.142306 0.0165408
0.38703 0.153094 0.0217288
0.437049 0.1626 0.0271305
0.488396 0.171145 0.0328374
0.540276 0.17879 0.0384985
0.591134 0.185336 0.0440528
0.639506 0.190463 0.0493477
0.687327 0.195331 0.0545357
0.734173 0.200366 0.0597238
0.782971 0.206714 0.065095
0.830228 0.215152 0.0702373
0.875731 0.225528 0.0749981
0.913466 0.259144 0.0778515
0.947295 0.296223 0.0868238
0.973144 0.336797 0.141299
0.985367 0.369284 0.161547
0.997543 0.400732 0.175952
1 0.432593 0.190494
1 0.464286 0.205463
1 0.501183 0.223896
1 0.548608 0.249485
0 0.00181582 0.00546273
0 0.00181582 0.00546273
0 0.00181582 0.00546273
0 0.00181582 0.00546273
0 0.00181582 0.00546273
0 0.00181582 0.00546273
0 0.0210269 0.000717174
0.0579995 0.06392 0
0.129473 0.0825055 0.00120546
0.196445 0.107897 0.00437934
0.256107 0.127398 0.00854505
0.307485 0.141436 0.0131228
0.357595 0.15288 0.0183566
0.406119 0.162127 0.0235752
0.456474 0.170855 0.0291447
0.50811 0.178973 0.0348211
0.559228 0.185794 0.0404059
0.608576 0.191318 0.0458228
0.656611 0.195926 0.0510567
0.703944 0.200473 0.0562448
0.75256 0.205798 0.0616159
0.801236 0.212711 0.0669718
0.848432 0.222248 0.0719921
0.893309 0.238911 0.0763867
0.931365 0.277501 0.0791028
0.961868 0.315251 0.0999161
0.97911 0.352804 0.152667
0.991791 0.38584 0.169436
1 0.418204 0.18378
1 0.450126 0.198688
1 0.483146 0.214817
1 0.53782 0.24358
1 0.56907 0.261341
0 0.0477455 0
0 0.0535286 0
0 0.0680095 0
0 0.083711 0.0218662
0 0.088365 0.0267796
0 0.0868086 0.0252995
0 0.0857252 0.024155
0.0486305 0.0920882 0
0.122744 0.105882 0
0.186862 0.125582 0.00236515
0.245884 0.141985 0.00672923
0.300069 0.154406 0.0116274
0.35378 0.16466 0.0173953
0.407752 0.173617 0.0233768
0.461234 0.18143 0.0293431
0.515267 0.188464 0.0352331
0.568734 0.194568 0.0411688
0.620066 0.199359 0.0468452
0.669337 0.203311 0.0522316
0.718181 0.207385 0.0576181
0.768399 0.21268 0.0631418
0.817731 0.220966 0.0684672
0.866163 0.231098 0.073579
0.91017 0.255695 0.0776379
0.946456 0.295186 0.0863355
0.973342 0.337331 0.141756
0.986053 0.371023 0.162478
0.998871 0.404181 0.177462
1 0.437873 0.192935
1 0.470298 0.208423
1 0.505364 0.226108
1 0.553811 0.252476
1 0.585138 0.270741
0 0.121355 0.0546426
0 0.127687 0.0589303
0 0.146777 0.0692149
0 0.155795 0.0683146
0 0.153628 0.0615549
0 0.14551 0.0539559
0 0.139956 0.050309
0.0523537 0.145464 0.0493019
0.117632 0.150149 0.00630198
0.181003 0.158541 0.000640879
0.235676 0.167315 0.00476081
0.289219 0.175555 0.00955215
0.342397 0.183001 0.0152743
0.395987 0.1897 0.0212711
0.450568 0.195834 0.0274968
0.506813 0.201617 0.0337377
0.561578 0.206195 0.0398871
0.615045 0.209644 0.0458839
0.667414 0.212711 0.0516518
0.718379 0.215793 0.0572976
0.770016 0.221363 0.0629435
0.821622 0.229282 0.0684672
0.872221 0.239445 0.0738689
0.918395 0.264286 0.0781872
0.956008 0.307195 0.0922103
0.977829 0.349386 0.150561
0.991135 0.384131 0.168688
1 0.41796 0.183688
1 0.451591 0.199374
1 0.483818 0.215152
1 0.519661 0.233677
1 0.561242 0.256779
1 0.592645 0.27538
0 0.0171206 0.0645304
0 0.0158541 0.0588235
0 0.210132 0.0956436
0 0.220615 0.0894484
0 0.212406 0.0767681
0 0.204318 0.0735332
0 0.198566 0.061387
0.0607156 0.199466 0.0614786
0.106447 0.200977 0.0538796
0.166674 0.19968 0.0101167
0.225208 0.201175 0.00436408
0.277363 0.204211 0.00796521
0.329641 0.208026 0.0130312
0.382391 0.211627 0.0186923
0.436759 0.215427 0.0248417
0.490822 0.218906 0.0310826
0.545754 0.221912 0.0372931
0.598856 0.223972 0.0433509
0.652049 0.225391 0.0493629
0.705379 0.227893 0.0552682
0.757961 0.23209 0.0610819
0.81178 0.238895 0.0669108
0.864729 0.248341 0.0726177
0.91574 0.261463 0.0780041
0.956146 0.307362 0.0923323
0.978408 0.350942 0.151507
0.992142 0.38677 0.169833
1 0.421927 0.185489
1 0.456291 0.201617
1 0.490257 0.218402
1 0.524895 0.23653
1 0.560327 0.25626
1 0.592523 0.275288
0 0.169162 0.0835431
0 0.19617 0.0938125
0 0.272328 0.108721
0 0.26981 0.0964523
0 0.259785 0.0846876
0 0.250782 0.0668193
0.00195315 0.245731 0.066453
0.0599832 0.245274 0.067689
0.100481 0.2439 0.0636454
0.146227 0.243854 0.0527657
0.203586 0.240421 0.01355
0.261982 0.238712 0.00975052
0.315038 0.238148 0.0112612
0.367361 0.238987 0.0162203
0.4206 0.239918 0.0218662
0.474403 0.241169 0.0279393
0.527779 0.242206 0.0341344
0.581323 0.242847 0.0403449
0.633814 0.243244 0.0464027
0.685527 0.244587 0.0522774
0.738354 0.247028 0.0582132
0.792477 0.251972 0.0641642
0.846113 0.259373 0.0699474
0.89897 0.269718 0.0756085
0.948348 0.297536 0.0874342
0.975982 0.344427 0.147234
0.990417 0.382284 0.167849
1 0.418585 0.183963
1 0.454124 0.200565
1 0.48864 0.217594
1 0.521401 0.234607
1 0.555032 0.253178
1 0.58819 0.272602
0 0.313726 0.115404
0 0.316686 0.115343
0 0.32192 0.113878
0 0.311788 0.082002
0.030518 0.306661 0.070634
0.0158694 0.297871 0.0701152
0.0277104 0.292638 0.0704967
0.0527657 0.288167 0.0703441
0.091783 0.28426 0.0679789
0.127825 0.283238 0.0631266
0.174975 0.280064 0.0316777
0.234028 0.27628 0.0162814
0.293431 0.272496 0.0137179
0.348898 0.269566 0.0145418
0.402289 0.268177 0.0190585
0.455253 0.267338 0.0245365
0.508721 0.266636 0.0305333
0.562036 0.265949 0.0367285
0.613642 0.265599 0.0427863
0.665827 0.265675 0.0488594
0.717311 0.26659 0.0547951
0.770855 0.269642 0.0608377
0.824735 0.275425 0.0667582
0.878325 0.28397 0.0725567
0.930358 0.295613 0.0791028
0.971939 0.333425 0.138415
0.98677 0.372854 0.163394
1 0.410101 0.180087
1 0.446296 0.196887
1 0.480766 0.213657
1 0.512306 0.22977
1 0.546593 0.248356
1 0.580621 0.268101
0 0.361456 0.0943465
0 0.362127 0.0919966
0 0.36257 0.084062
0 0.353597 0.0728618
0.00408942 0.347753 0.0678569
0.0336156 0.34197 0.0692149
0.0331884 0.335027 0.069749
0.0395514 0.329015 0.0700389
0.0708171 0.323812 0.069276
0.109682 0.319753 0.0661479
0.145357 0.318212 0.0598001
0.19675 0.312917 0.025864
0.258244 0.308919 0.0184329
0.320195 0.30399 0.0167391
0.379446 0.300038 0.018143
0.433845 0.297322 0.0213626
0.486854 0.295125 0.0267491
0.540063 0.293324 0.0326085
0.592325 0.291707 0.0386969
0.644739 0.290867 0.0448615
0.696574 0.290715 0.0509804
0.749783 0.292454 0.0570993
0.803204 0.29688 0.0630961
0.856947 0.303731 0.0690623
0.909941 0.314046 0.0748913
0.962325 0.329976 0.100191
0.98323 0.363684 0.158724
0.997818 0.401419 0.176272
1 0.437888 0.192935
1 0.468864 0.207721
1 0.504021 0.225376
1 0.53872 0.244007
1 0.572686 0.263478
0 0.402502 0.0800183
0 0.402914 0.0799115
0 0.401602 0.0767376
0 0.393591 0.0675059
0 0.384207 0.0603952
0.0391241 0.38349 0.0626078
0.0310369 0.375616 0.0648203
0.0224765 0.36849 0.0663157
0.0121614 0.360449 0.0671397
0.0735637 0.356588 0.0661936
0.111208 0.353857 0.0625315
0.14995 0.349584 0.0380865
0.209567 0.345464 0.0264439
0.274464 0.341131 0.0204471
0.340688 0.33637 0.019089
0.402472 0.331228 0.0209964
0.46009 0.327153 0.023331
0.515053 0.323903 0.0284886
0.568154 0.321386 0.0342107
0.620874 0.319509 0.0402838
0.674495 0.318944 0.0465248
0.727703 0.319921 0.0527504
0.78201 0.3234 0.0589761
0.83682 0.329137 0.0651713
0.890303 0.33817 0.0711528
0.943725 0.350561 0.0864118
0.978988 0.367956 0.152941
0.995392 0.395209 0.17351
1 0.426444 0.187579
1 0.461997 0.204318
1 0.496925 0.221759
1 0.531929 0.240345
1 0.566155 0.259617
0 0.438483 0.0703746
0 0.43859 0.0703593
0 0.439124 0.0699779
0 0.431342 0.057023
0 0.420356 0.0329747
0.00636301 0.418341 0.0333867
0.0182498 0.412467 0.0356146
0.0180362 0.4065 0.0494087
0.015198 0.399649 0.0573892
0.00300603 0.390951 0.0603952
0 0.381048 0.0607919
0.0547951 0.385885 0.0605631
0.133425 0.381781 0.0343023
0.212192 0.377249 0.0278782
0.285145 0.373556 0.0222934
0.354757 0.368261 0.0207675
0.420829 0.362753 0.0231632
0.482765 0.358404 0.025864
0.539544 0.354971 0.0297093
0.59469 0.352499 0.0355077
0.650019 0.351415 0.0416571
0.704616 0.351888 0.0478828
0.760784 0.354864 0.0543069
0.817304 0.359991 0.0607462
0.872053 0.367803 0.0669108
0.925933 0.378561 0.0796674
0.972564 0.396231 0.140597
0.98735 0.407324 0.165225
1 0.419806 0.184543
1 0.456535 0.201709
1 0.491997 0.219303
1 0.526864 0.237568
1 0.561242 0.256764
0 0.470481 0.0339666
0 0.470603 0.0339055
0 0.470741 0.0337682
0 0.46775 0.0312047
0 0.457801 0.0267491
0 0.450065 0.0257877
0 0.444022 0.026276
0.00575265 0.441703 0.0288243
0.00485237 0.434607 0.0297704
0 0.424125 0.029633
0 0.416419 0.031632
0 0.413001 0.0453498
0 0.41059 0.0573587
0 0.404425 0.0577096
0.200443 0.40914 0.0296025
0.285359 0.405585 0.0240787
0.362051 0.401205 0.0220188
0.433921 0.396643 0.0245823
0.500603 0.392447 0.0278172
0.561868 0.389288 0.0313573
0.62153 0.388067 0.0365148
0.680049 0.388525 0.0427863
0.739193 0.391333 0.0492561
0.797147 0.395422 0.055787
0.853284 0.402213 0.0621347
0.906615 0.410986 0.0737774
0.952773 0.424247 0.0933394
0.979904 0.440406 0.156069
0.998779 0.446342 0.179721
1 0.452796 0.199954
1 0.48957 0.218051
1 0.524178 0.236103
1 0.558602 0.255238
0 0.504387 0.0249943
0 0.504509 0.0249943
0 0.50425 0.0250248
0 0.503532 0.0251469
0 0.496742 0.0242313
0 0.488533 0.0230259
0 0.48101 0.022858
0 0.474342 0.0231785
0 0.467445 0.023743
0 0.460822 0.0243687
0 0.453925 0.0251926
0 0.448966 0.0263523
0 0.446632 0.0283665
0 0.44358 0.0322728
0 0.438666 0.0524605
0.13373 0.441199 0.0294652
0.269459 0.43978 0.0264897
0.359304 0.437308 0.0232395
0.440085 0.43389 0.0249485
0.515404 0.430884 0.0293278
0.585168 0.429694 0.0334325
0.651087 0.429984 0.0378882
0.713207 0.431754 0.0438697
0.77557 0.435218 0.0505531
0.831357 0.440452 0.0567025
0.868284 0.450675 0.0640116
0.92314 0.460166 0.0810254
0.973373 0.475227 0.143557
0.992523 0.480797 0.174533
1 0.486137 0.196994
1 0.491356 0.21709
1 0.523415 0.235706
1 0.55726 0.254444
0 0.540322 0.0207218
0 0.540444 0.0207218
0 0.540475 0.0206912
0 0.539483 0.020798
0 0.53518 0.0211948
0 0.528466 0.0209964
0 0.521096 0.0207675
0 0.513436 0.0208133
0 0.505898 0.0211032
0 0.498558 0.0215305
0 0.491569 0.0220493
0 0.486152 0.0227665
0 0.482521 0.0238346
0 0.480018 0.0257572
0 0.476814 0.0285191
0 0.474083 0.0317388
0 0.467857 0.0334173
0.233616 0.476738 0.0292668
0.353933 0.477302 0.0245365
0.447654 0.476356 0.0250553
0.530922 0.475181 0.0302739
0.608713 0.474922 0.0351263
0.68101 0.475776 0.0400092
0.740261 0.479164 0.04448
0.782712 0.485649 0.0482338
0.842588 0.491295 0.0596017
0.901503 0.498268 0.0750896
0.956847 0.507851 0.0993057
0.986908 0.5178 0.169329
1 0.522164 0.193668
1 0.52636 0.215656
1 0.531197 0.235782
1 0.558053 0.254917
0 0.580331 0.0179904
0 0.580468 0.0179904
0 0.580606 0.0179904
0 0.579202 0.0180514
0 0.575021 0.018265
0 0.56907 0.0186007
0 0.562829 0.0188907
0 0.555184 0.0189212
0 0.54728 0.0191043
0 0.539467 0.01944
0 0.531701 0.019852
0 0.525811 0.0203708
0 0.521508 0.021088
0 0.519005 0.0222782
0 0.515801 0.0233768
0 0.511055 0.0240177
0 0.507164 0.0245823
0 0.505089 0.0248875
0.163638 0.517739 0.0271458
0.349905 0.521279 0.0259251
0.453574 0.522515 0.0253452
0.525475 0.523598 0.0287175
0.58439 0.525887 0.0331426
0.665156 0.527947 0.0386206
0.741238 0.53048 0.045182
0.815442 0.534127 0.0562905
0.879896 0.539071 0.0708171
0.938689 0.546624 0.0910658
0.981414 0.556939 0.164355
1 0.560418 0.191592
1 0.563928 0.214633
1 0.567422 0.235523
1 0.571252 0.25594
0.0605936 0.634302 0.0228885
0.0621805 0.634836 0.0229343
0.0636454 0.635279 0.0229648
0.0589303 0.633753 0.0228275
0.0441291 0.629145 0.0224155
0.0271305 0.621714 0.0217288
0.0168002 0.614633 0.0210117
0 0.601099 0.0178836
0 0.592996 0.0176699
0 0.585046 0.017792
0 0.577691 0.0181125
0 0.570886 0.0184482
0 0.565347 0.0188144
0 0.561013 0.0191043
0 0.556451 0.0194095
0 0.5523 0.0196994
0 0.547845 0.0200504
0 0.543938 0.0203861
0 0.541558 0.0206149
0 0.536843 0.0210422
0 0.5364 0.0211032
0.293782 0.566964 0.0296635
0.464195 0.573022 0.0259709
0.591531 0.575051 0.0323491
0.694469 0.576593 0.0442054
0.779141 0.579065 0.0554665
0.854124 0.582666 0.0672923
0.917922 0.588022 0.0856336
0.975341 0.59884 0.160082
0.99559 0.600549 0.190036
1 0.602853 0.214481
1 0.605707 0.23621
1 0.60885 0.257237
0.190631 0.68455 0.0394141
0.192172 0.685267 0.039765
0.193362 0.685924 0.0400549
0.189456 0.683894 0.0391394
0.179812 0.679149 0.0370336
0.163333 0.67129 0.0337377
0.146868 0.664256 0.0309758
0.129381 0.657252 0.028336
0.108873 0.649485 0.0257725
0.08542 0.641703 0.0234989
0.0575723 0.633341 0.022797
0.033753 0.62594 0.0221103
0.0233768 0.619043 0.0214542
0.0138552 0.612909 0.020798
0 0.602472 0.0180667
0 0.590249 0.0177005
0 0.58378 0.0178531
0 0.578378 0.0180819
0 0.573648 0.0183413
0 0.572152 0.0184024
0 0.573251 0.0183566
0 0.576837 0.0181735
0.258076 0.612421 0.0295872
0.493248 0.621302 0.0294041
0.62768 0.62359 0.0409094
0.731975 0.625391 0.0545815
0.818418 0.627497 0.0671092
0.892943 0.631296 0.0817578
0.96051 0.640345 0.155444
0.990051 0.642603 0.190005
1 0.64361 0.214618
1 0.645441 0.23798
1 0.647547 0.259556
0.296956 0.740963 0.111498
0.29955 0.742367 0.114061
0.300816 0.742977 0.115282
0.293614 0.739147 0.107759
0.278767 0.731075 0.0751354
0.262226 0.722118 0.0633097
0.247837 0.714153 0.0566567
0.232288 0.705791 0.0509346
0.213993 0.696376 0.0453498
0.196536 0.687541 0.0408026
0.181445 0.679942 0.0373846
0.162478 0.670893 0.0335851
0.145754 0.663752 0.0307927
0.130068 0.657511 0.0284428
0.114641 0.65156 0.0264134
0.0970169 0.645441 0.0245212
0.0737163 0.638346 0.0232242
0.0546731 0.632471 0.0227359
0.0425116 0.628702 0.022385
0.0319982 0.624826 0.0220035
0.0319524 0.624811 0.0220035
0.0383459 0.627436 0.0222629
0.0552529 0.632624 0.0227359
0.271427 0.660487 0.0361334
0.529778 0.6701 0.0406806
0.667063 0.672328 0.0534829
0.773541 0.673716 0.0699321
0.858396 0.675685 0.0872358
0.933928 0.682353 0.149706
0.983383 0.685313 0.191592
1 0.685206 0.216785
1 0.685679 0.240406
1 0.686915 0.262531
0.384634 0.790036 0.167666
0.385611 0.790555 0.16817
0.382391 0.7888 0.166506
0.374716 0.784283 0.162539
0.363928 0.778042 0.15671
0.347204 0.768551 0.147555
0.333059 0.760784 0.139147
0.319249 0.753185 0.129992
0.30454 0.745083 0.118547
0.288182 0.736263 0.0995804
0.269917 0.726314 0.0678264
0.256062 0.7187 0.0602426
0.24155 0.71075 0.0542
0.229831 0.704494 0.0501259
0.219028 0.698894 0.0467842
0.208865 0.693797 0.0439307
0.198108 0.68835 0.0411841
0.186236 0.682277 0.0384222
0.176135 0.677378 0.0362707
0.170047 0.674418 0.0350347
0.166079 0.672541 0.0342565
0.168261 0.673594 0.0346838
0.17644 0.677516 0.0363317
0.191943 0.685222 0.0397192
0.360769 0.710262 0.0569619
0.584817 0.717678 0.0612497
0.716213 0.719738 0.0795911
0.818906 0.723354 0.134844
0.904311 0.725414 0.164508
0.975067 0.728145 0.195438
0.998413 0.72668 0.220905
1 0.725978 0.244297
1 0.726513 0.267399
0.463691 0.833753 0.20705
0.464195 0.834012 0.207309
0.459144 0.831296 0.204776
0.451987 0.82742 0.201251
0.440574 0.821332 0.195544
0.424765 0.812467 0.187625
0.411872 0.805234 0.181109
0.398627 0.797803 0.174609
0.385595 0.790539 0.16817
0.372824 0.78323 0.161486
0.360052 0.77586 0.15465
0.346685 0.768277 0.147234
0.335225 0.761944 0.14049
0.324437 0.756115 0.133547
0.315801 0.751324 0.127474
0.307942 0.746914 0.121477
0.300786 0.742947 0.11519
0.292729 0.738659 0.106752
0.281453 0.732555 0.0785382
0.275669 0.729427 0.0721447
0.275181 0.729168 0.0717174
0.277409 0.730312 0.0736858
0.289158 0.736782 0.101442
0.303105 0.744289 0.117235
0.334432 0.753399 0.130098
0.452979 0.762585 0.134051
0.64181 0.767102 0.143648
0.767468 0.767834 0.1626
0.868116 0.768277 0.18378
0.952743 0.769268 0.206775
0.990173 0.768444 0.226703
1 0.766491 0.250446
1 0.76582 0.273259
0.537835 0.87277 0.245701
0.538201 0.872969 0.245914
0.534554 0.871046 0.243885
0.525902 0.866529 0.239216
0.514885 0.860792 0.233417
0.499992 0.853117 0.225696
0.486748 0.846189 0.218845
0.474769 0.839704 0.212711
0.462776 0.833234 0.206592
0.450095 0.826398 0.200259
0.438392 0.820188 0.194446
0.427131 0.813886 0.188785
0.415625 0.80737 0.183001
0.406271 0.802045 0.178363
0.398306 0.797635 0.174441
0.391806 0.793988 0.171267
0.386419 0.791058 0.168566
0.381292 0.788174 0.165972
0.376394 0.785275 0.163439
0.371267 0.782284 0.160662
0.369192 0.781125 0.159548
0.370809 0.78204 0.160449
0.374426 0.784131 0.162371
0.382406 0.7888 0.166552
0.395438 0.795575 0.17258
0.456489 0.801266 0.175158
0.54696 0.807874 0.180087
0.709392 0.809476 0.189563
0.836866 0.80943 0.207874
0.921508 0.809079 0.224567
0.980941 0.809018 0.241505
1 0.805692 0.25835
1 0.803906 0.281514
0.612665 0.910964 0.287922
0.612909 0.911101 0.28806
0.607553 0.9084 0.284932
0.599466 0.90428 0.280186
0.589899 0.899458 0.274632
0.575341 0.89189 0.26627
0.563897 0.886046 0.259937
0.552483 0.880247 0.253666
0.540642 0.87425 0.247227
0.526909 0.867063 0.23978
0.5149 0.860807 0.233433
0.503426 0.854902 0.227481
0.493233 0.849653 0.222232
0.483757 0.844587 0.217319
0.475624 0.840162 0.213153
0.469932 0.837079 0.210224
0.464561 0.834226 0.207477
0.460349 0.831968 0.205386
0.456748 0.829984 0.203601
0.45362 0.828351 0.202029
0.450187 0.82649 0.200336
0.449989 0.826368 0.200229
0.452842 0.827878 0.201663
0.457099 0.830182 0.203754
0.465583 0.834775 0.20798
0.505409 0.839231 0.21146
0.558999 0.843839 0.215671
0.637018 0.8486 0.221866
0.792584 0.848585 0.234409
0.886717 0.847501 0.247776
0.95819 0.846891 0.262028
0.997803 0.844434 0.274189
1 0.829221 0.306981
0.676616 0.944472 0.327581
0.676661 0.944503 0.327657
0.675868 0.94406 0.327123
0.664118 0.937789 0.319585
0.654765 0.932845 0.313664
0.641947 0.926192 0.305638
0.631525 0.92076 0.299184
0.621683 0.915633 0.293294
0.611627 0.910445 0.287312
0.60145 0.905303 0.281376
0.591577 0.900298 0.275593
0.581659 0.895186 0.269871
0.572 0.890196 0.264439
0.563088 0.885649 0.259525
0.555108 0.881605 0.255131
0.545647 0.876844 0.249912
0.541009 0.874449 0.247425
0.53637 0.872007 0.244892
0.533196 0.870329 0.243198
0.530739 0.869047 0.241856
0.528389 0.867826 0.240589
0.526726 0.866972 0.239673
0.528023 0.867613 0.24036
0.531807 0.869642 0.24239
0.537148 0.87245 0.245304
0.566918 0.875593 0.248508
0.63743 0.878599 0.252659
0.686915 0.882002 0.258198
0.749142 0.885161 0.265507
0.852567 0.883955 0.275685
0.929046 0.882322 0.286442
1 0.868727 0.302098
1 0.857542 0.325002
0.720867 0.963455 0.359518
0.720775 0.963424 0.359487
0.717006 0.961868 0.356619
0.710948 0.959381 0.352178
0.70518 0.957031 0.347951
0.696849 0.953628 0.341833
0.69015 0.950896 0.33695
0.683925 0.948363 0.332433
0.675364 0.943816 0.326802
0.666529 0.939071 0.321126
0.657603 0.934325 0.31545
0.648722 0.929702 0.309895
0.640528 0.925444 0.304753
0.632609 0.921324 0.29984
0.625376 0.917525 0.295445
0.619516 0.914488 0.292012
0.615183 0.912291 0.289433
0.612284 0.910796 0.287694
0.609903 0.909575 0.286305
0.608972 0.909102 0.285786
0.60734 0.908263 0.284794
0.606424 0.907774 0.28426
0.606378 0.90779 0.28426
0.609079 0.909148 0.285817
