site/assets/luts/freshluts--0001105-rfh-chemist-embakasi.cube
# LUTr-Schema-Version: 2
# LUTr-ID: freshluts--0001105-rfh-chemist-embakasi
# LUTr-Title: RFH CHEMIST EMBAKASI
# LUTr-Collection: Fresh LUTs
# LUTr-Collection-ID: freshluts-community
# LUTr-Source: https://freshluts.com
# LUTr-Retrieved: 2026-07-27
# LUTr-Source-File: submissions-raw/freshluts/cubes/1105__RFH_CHEMIST_LUT_RFH.cube
# LUTr-Source-Format: CUBE
# LUTr-Source-SHA256: f6cc5407f6db387d24ab4b8ca2a90dd8a41fb471056bf54e748ae47dbdf545d6
# LUTr-License: CC0-1.0
# LUTr-License-URL: https://freshluts.com/termsandconditions
# LUTr-License-Basis: site-terms
# LUTr-Transform-Class: creative-look
# LUTr-Tags: creative, freshluts, community, cube, magenta, high-key, bmd-film
# LUTr-Input-Color-Space:
# LUTr-Input-Gamut: bmd-film-gamut
# LUTr-Input-Transfer: bmd-film
# LUTr-Output-Color-Space: srgb
# LUTr-Output-Gamut: rec709
# LUTr-Output-Transfer: srgb
# LUTr-Color-Space-Confidence: camera-profile-input-required
# LUTr-Domain-Normalized: true
# LUTr-Shaper: none
# LUTr-Original-Grid: 33x33x33
# LUTr-Conversion-Grid: 33x33x33
# LUTr-Conversion-Interpolation: none
# LUTr-Conversion-Method: Metadata normalization; numeric LUT samples preserved
# LUTr-Conversion-Tool: LUTr scripts/convert-all-to-cube.mjs 2.0.0
# LUTr-Conversion-Date: 2026-07-28
# LUTr-Asset-URL: https://freshluts.com/luts/1105
# LUTr-Author: Sammy Sholei
# LUTr-Author-URL: https://freshluts.com/users/76663
# LUTr-Attribution: Sammy Sholei via Fresh LUTs
# LUTr-Source-Labels: gamma=Blackmagic BMD Film; color=Magenta; key=High Key; style=Adventure
# LUTr-Note: Preserve this metadata and the upstream license notices when redistributing.
TITLE "RFH CHEMIST EMBAKASI"
LUT_3D_SIZE 33
DOMAIN_MIN 0 0 0
DOMAIN_MAX 1 1 1
0 0.000793469 0
0 0.000793469 0
0 0.000793469 0
0 0.000793469 0
0 0.000793469 0
0 0.000793469 0
0 0.000793469 0
0 0.000793469 0
0 0.000793469 0
0 0.000793469 0
0 0.000793469 0
0 0.000793469 0
0.269001 0.0772412 0
0.275929 0.0794537 0
0.295476 0.0856641 0
0.328954 0.0959182 0
0.363226 0.106691 0
0.811276 0.253819 0
0.893187 0.274296 0
0.893187 0.274296 0
0.893187 0.274296 0
0.893187 0.274296 0
0.893187 0.274296 0
0.893187 0.274296 0
0.893187 0.274296 0
0.893187 0.274296 0
0.893187 0.274296 0
0.893187 0.274296 0
0.893187 0.274296 0
0.893187 0.274296 0
0.893187 0.274296 0
0.893187 0.274296 0
0.893187 0.274296 0
0 0.000793469 0
0 0.000793469 0
0 0.000793469 0
0 0.000793469 0
0 0.000793469 0
0 0.000793469 0
0 0.000793469 0
0 0.000793469 0
0 0.000793469 0
0 0.000793469 0
0 0.000793469 0
0 0.000793469 0
0.256031 0.0735637 0.000244144
0.264698 0.0759594 0.0000457771
0.285695 0.0825513 0
0.320623 0.0933394 0
0.357137 0.104723 0
0.797833 0.262562 0
0.884535 0.286687 0
0.895476 0.285145 0
0.894514 0.280613 0
0.893767 0.277012 0
0.893187 0.274296 0
0.893187 0.274296 0
0.893187 0.274296 0
0.893187 0.274296 0
0.893187 0.274296 0
0.893187 0.274296 0
0.893187 0.274296 0
0.893187 0.274296 0
0.893187 0.274296 0
0.893187 0.274296 0
0.893187 0.274296 0
0 0.000793469 0
0 0.000793469 0
0 0.000793469 0
0 0.000793469 0
0 0.000793469 0
0 0.000793469 0
0 0.000793469 0
0 0.000793469 0
0 0.000793469 0
0 0.000793469 0
0 0.000793469 0
0 0.000793469 0
0.242435 0.0698253 0.000579843
0.252018 0.0724651 0.000350958
0.275929 0.0794537 0
0.312078 0.0907301 0
0.350713 0.102708 0
0.782742 0.272786 0
0.8719 0.297368 0
0.901946 0.301625 0
0.900679 0.297902 0
0.899443 0.294957 0
0.898329 0.292439 0
0.897292 0.290089 0
0.896254 0.287739 0
0.895491 0.285237 0
0.894926 0.282567 0
0.894392 0.279988 0
0.893858 0.277455 0
0.893339 0.275029 0
0.893187 0.274296 0
0.893187 0.274296 0
0.893187 0.274296 0
0 0.000793469 0
0 0.000793469 0
0 0.000793469 0
0 0.000793469 0
0 0.000793469 0
0 0.000793469 0
0 0.000793469 0
0 0.000793469 0
0 0.000793469 0
0 0.000793469 0
0 0.000793469 0
0 0.000793469 0
0.228534 0.0657511 0.000900282
0.239078 0.0688945 0.000656138
0.265995 0.0763104 0.000015259
0.303655 0.0881666 0
0.344366 0.100725 0
0.768353 0.282139 0
0.859648 0.306264 0
0.906645 0.316747 0
0.905745 0.313664 0
0.904982 0.311009 0
0.90425 0.308537 0
0.903532 0.306325 0
0.902739 0.303975 0
0.901915 0.301534 0
0.901122 0.299184 0
0.900313 0.296925 0
0.899336 0.294697 0
0.89839 0.292561 0
0.897429 0.29041 0
0.896483 0.288273 0
0.895674 0.286061 0
0 0.000793469 0
0 0.000793469 0
0 0.000793469 0
0 0.000793469 0
0 0.000793469 0
0 0.000793469 0
0 0.000793469 0
0 0.000793469 0
0 0.000793469 0
0 0.000793469 0
0 0.000793469 0
0 0.000793469 0
0.214527 0.0611734 0.00125124
0.226368 0.0650492 0.000961318
0.254994 0.0732738 0.000274662
0.295476 0.0856641 0
0.65069 0.263447 0
0.752804 0.289616 0
0.844968 0.313695 0
0.910109 0.329549 0
0.909453 0.327077 0
0.908873 0.324819 0
0.908339 0.322805 0
0.907805 0.32076 0
0.907225 0.318746 0
0.906645 0.316747 0
0.90605 0.314687 0
0.905425 0.312551 0
0.904784 0.310353 0
0.904112 0.30808 0
0.903395 0.305943 0
0.902602 0.303593 0
0.901839 0.30132 0
0 0.000793469 0
0 0.000793469 0
0 0.000793469 0
0 0.000793469 0
0 0.000793469 0
0 0.000793469 0
0 0.000793469 0
0 0.000793469 0
0 0.000793469 0
0 0.000793469 0
0 0.000793469 0
0 0.000793469 0
0.200214 0.0565042 0.00161746
0.213764 0.0609293 0.0012665
0.244373 0.0703593 0.000534066
0.287968 0.0832837 0
0.632258 0.268574 0
0.737362 0.295949 0
0.831891 0.320302 0
0.911162 0.340719 0
0.912428 0.33904 0
0.911971 0.337118 0
0.911543 0.335256 0
0.911131 0.333455 0
0.910674 0.331701 0
0.910185 0.329854 0
0.909697 0.327993 0
0.909194 0.326055 0
0.90866 0.324041 0
0.908125 0.321996 0
0.907561 0.31986 0
0.906981 0.317861 0
0.906371 0.315816 0
0 0.000793469 0
0 0.000793469 0
0 0.000793469 0
0 0.000793469 0
0 0.000793469 0
0 0.000793469 0
0 0.000793469 0
0 0.000793469 0
0 0.000793469 0
0 0.000793469 0
0 0.000793469 0
0 0.000793469 0
0.183581 0.0513008 0.00300603
0.201678 0.0569772 0.00155642
0.234287 0.0675822 0.000762951
0.281041 0.0810712 0
0.612863 0.27361 0
0.721462 0.301839 0
0.81944 0.326375 0
0.898238 0.347234 0
0.914931 0.34995 0
0.914565 0.348272 0
0.914229 0.346807 0
0.913878 0.345296 0
0.913481 0.343618 0
0.913085 0.341878 0
0.912657 0.340078 0
0.91223 0.338216 0
0.911772 0.336248 0
0.911299 0.334218 0
0.910811 0.332219 0
0.910307 0.330312 0
0.909789 0.328313 0
0 0.000793469 0
0 0.000793469 0
0 0.000793469 0
0 0.000793469 0
0 0.000793469 0
0 0.000793469 0
0 0.000793469 0
0 0.000793469 0
0 0.000793469 0
0 0.000793469 0
0 0.000793469 0
0 0.000793469 0
0.167117 0.046128 0.00436408
0.188342 0.052781 0.00260929
0.225223 0.0646677 0.000991836
0.477668 0.245274 0.000442512
0.596368 0.278492 0
0.708171 0.307271 0
0.807996 0.331945 0
0.887114 0.353368 0
0.917159 0.360113 0
0.916884 0.358816 0
0.916594 0.357534 0
0.916289 0.3561 0
0.915938 0.354543 0
0.915587 0.352926 0
0.915206 0.351186 0
0.914794 0.34931 0
0.914366 0.347387 0
0.913939 0.345586 0
0.913497 0.343679 0
0.913024 0.34165 0
0.912551 0.339559 0
0 0.000793469 0
0 0.000793469 0
0 0.000793469 0
0 0.000793469 0
0 0.000793469 0
0 0.000793469 0
0 0.000793469 0
0 0.000793469 0
0 0.000793469 0
0 0.000793469 0
0 0.000793469 0
0 0.000793469 0
0.149966 0.0419623 0.0059205
0.176165 0.0489662 0.00361639
0.217716 0.062211 0.00117494
0.460365 0.246479 0.000976577
0.582605 0.282765 0
0.697154 0.312383 0
0.798169 0.337423 0
0.878752 0.359106 0
0.919036 0.369329 0
0.918837 0.368277 0
0.918608 0.367056 0
0.918349 0.365682 0
0.918074 0.364263 0
0.917739 0.362768 0
0.917403 0.361212 0
0.917037 0.359533 0
0.91664 0.357717 0
0.916213 0.355779 0
0.91577 0.35378 0
0.915297 0.351644 0
0.914809 0.349371 0
0 0.000793469 0
0 0.000793469 0
0 0.000793469 0
0 0.000793469 0
0 0.000793469 0
0 0.000793469 0
0 0.000793469 0
0 0.000793469 0
0 0.000793469 0
0 0.000793469 0
0 0.000793469 0
0.112749 0.0376898 0.0102083
0.134813 0.0386358 0.00732433
0.166964 0.0460822 0.00437934
0.21326 0.0607614 0.00128176
0.451408 0.248524 0.00190738
0.574929 0.286793 0
0.691157 0.317693 0
0.792782 0.342885 0
0.874617 0.364584 0
0.920516 0.377157 0
0.920363 0.376318 0
0.920165 0.375326 0
0.919951 0.374197 0
0.919692 0.372824 0
0.919402 0.371237 0
0.919066 0.369482 0
0.918715 0.36759 0
0.918318 0.36553 0
0.917922 0.363607 0
0.917494 0.361608 0
0.917021 0.359472 0
0.916533 0.357275 0
0 0.000793469 0
0 0.000793469 0
0 0.000793469 0
0 0.000793469 0
0 0.000793469 0
0 0.000793469 0
0 0.000793469 0
0 0.000793469 0
0 0.000793469 0
0 0.000793469 0
0 0.000793469 0
0.0933089 0.0500496 0.0177462
0.119646 0.0353399 0.0087129
0.157229 0.0435492 0.00523384
0.330144 0.208209 0.019913
0.439689 0.250156 0.00347906
0.563577 0.290242 0
0.681666 0.322774 0
0.784543 0.348119 0
0.868589 0.370077 0
0.922057 0.385397 0
0.921965 0.384848 0
0.921813 0.38407 0
0.92163 0.383078 0
0.921401 0.381857 0
0.921126 0.380423 0
0.920821 0.37882 0
0.920501 0.377081 0
0.920134 0.375097 0
0.919722 0.372976 0
0.919295 0.370703 0
0.918837 0.368277 0
0.918349 0.365682 0
0.0885023 0.0582132 0.0176242
0.0859998 0.0571145 0.0177005
0.0834058 0.0559701 0.0177768
0.0809033 0.0548714 0.0178531
0 0.000793469 0
0 0.000793469 0
0 0.000793469 0
0 0.000793469 0
0 0.000793469 0
0 0.000793469 0
0 0.000793469 0
0.0830701 0.0573587 0.025391
0.102098 0.0405432 0.0125582
0.146517 0.0411994 0.00624094
0.318944 0.205112 0.0259403
0.426078 0.251072 0.00636301
0.550637 0.293736 0.000122072
0.670848 0.327916 0
0.775753 0.35404 0
0.862287 0.377234 0
0.923705 0.394232 0
0.923674 0.39408 0
0.923568 0.39353 0
0.92343 0.392737 0
0.923217 0.391638 0
0.922972 0.390295 0
0.922698 0.3888 0
0.922362 0.386984 0
0.922011 0.385077 0
0.921614 0.383001 0
0.921187 0.380728 0
0.92076 0.378439 0
0.920287 0.375937 0
0.0873579 0.0577096 0.0176547
0.0845502 0.0564736 0.0177462
0.0817426 0.0552377 0.0178225
0.0790417 0.0540475 0.0179141
0.0764324 0.0529183 0.0179904
0.074052 0.0518654 0.0180514
0.0717632 0.0508583 0.0181277
0.0697185 0.0499886 0.0181888
0.0678264 0.0492256 0.0182498
0.0657511 0.0483711 0.0183261
0.0666514 0.0483101 0.0194553
0.0755474 0.0525368 0.0272679
0.0872206 0.0585031 0.0242924
0.239933 0.151553 0.0490272
0.306752 0.200732 0.0343023
0.409766 0.251514 0.0111849
0.535805 0.297261 0.000854505
0.658854 0.333486 0
0.766323 0.360647 0
0.855207 0.385199 0
0.924147 0.403738 0
0.925582 0.404334 0
0.925536 0.404105 0
0.925429 0.403555 0
0.925261 0.402609 0
0.925063 0.401495 0
0.924788 0.400076 0
0.924498 0.398505 0
0.924147 0.396612 0
0.923781 0.394629 0
0.923369 0.392416 0
0.922942 0.390127 0
0.922484 0.387686 0
0.0945296 0.060853 0.0174411
0.0918288 0.0596628 0.0175326
0.089128 0.0584878 0.0176089
0.0866255 0.0573892 0.0176852
0.0842298 0.0563363 0.0177462
0.0821546 0.0554208 0.0178073
0.0803845 0.0546426 0.0178683
0.0788281 0.0539559 0.0179141
0.176516 0.0898299 0.0412909
0.182788 0.0953231 0.0478218
0.190158 0.101717 0.0527047
0.200031 0.10988 0.0556649
0.213016 0.120974 0.0582132
0.238254 0.143542 0.0593729
0.297353 0.193332 0.0493172
0.391348 0.252735 0.020798
0.514214 0.302052 0.00344854
0.640635 0.340581 0
0.751797 0.369406 0
0.842313 0.393011 0
0.915114 0.412375 0
0.927886 0.416129 0
0.927932 0.416358 0
0.927901 0.416205 0
0.927825 0.415747 0
0.927672 0.414984 0
0.927474 0.414008 0
0.92723 0.412787 0
0.92697 0.411414 0
0.92665 0.409812 0
0.926314 0.408072 0
0.925948 0.406165 0
0.925551 0.404181 0
0.221302 0.114916 0.00688182
0.213397 0.111086 0.0075227
0.205631 0.107271 0.00807202
0.198886 0.102434 0.00834669
0.193774 0.0959945 0.00877394
0.190799 0.0920119 0.0111238
0.191333 0.0912184 0.016968
0.196231 0.0931106 0.0259098
0.201816 0.0961624 0.0350958
0.20885 0.100771 0.0448005
0.21735 0.106615 0.0537728
0.226871 0.113497 0.0622263
0.239002 0.122606 0.0703593
0.261997 0.141848 0.0797894
0.307622 0.186282 0.0770581
0.382696 0.254063 0.0443122
0.490822 0.311879 0.0133974
0.615579 0.35346 0.000427253
0.729732 0.384039 0
0.821897 0.408209 0
0.896483 0.426413 0
0.93167 0.435843 0
0.931868 0.436957 0
0.932021 0.437736 0
0.932082 0.438056 0
0.932082 0.438056 0
0.932021 0.437736 0
0.931899 0.43711 0
0.931731 0.43624 0
0.931548 0.435203 0
0.931334 0.434104 0
0.931075 0.432761 0
0.9308 0.43125 0
0.260578 0.132296 0.00347906
0.252949 0.129137 0.00396735
0.245701 0.126131 0.00442512
0.239155 0.123308 0.00492866
0.234531 0.117174 0.00451667
0.232883 0.110796 0.00451667
0.23386 0.107454 0.00737011
0.237507 0.107652 0.0137789
0.244373 0.110353 0.0228122
0.254047 0.114794 0.0340581
0.264652 0.121065 0.0479744
0.276143 0.127901 0.0622873
0.289128 0.136202 0.0801556
0.308385 0.148196 0.0994888
0.347951 0.182162 0.118868
0.412161 0.248142 0.100832
0.490013 0.328298 0.0444953
0.597986 0.376471 0.00813306
0.705959 0.409812 0.000183108
0.797513 0.431922 0
0.870359 0.449287 0
0.931182 0.464195 0
0.937575 0.467552 0
0.937911 0.4692 0
0.938125 0.470283 0
0.938262 0.471015 0
0.938369 0.471519 0
0.938399 0.471672 0
0.938369 0.471519 0
0.938293 0.471183 0
0.938186 0.470603 0
0.938018 0.46978 0
0.937789 0.46862 0
0.308598 0.153979 0.000869764
0.302602 0.151369 0.00106813
0.297185 0.149004 0.00125124
0.292439 0.146944 0.00140383
0.28835 0.145159 0.00154116
0.286488 0.137652 0.000854505
0.287541 0.131456 0.00103761
0.293004 0.128847 0.00283818
0.302159 0.130129 0.00755322
0.312093 0.13402 0.0157321
0.32491 0.140536 0.0287938
0.33875 0.148318 0.0444953
0.354269 0.157992 0.0648814
0.372854 0.171084 0.094728
0.406867 0.191577 0.14139
0.472496 0.235721 0.172198
0.542611 0.32697 0.125322
0.611154 0.409522 0.0428168
0.702068 0.44387 0.00508125
0.782208 0.465064 0
0.85185 0.481209 0
0.908537 0.497261 0
0.945403 0.507576 0
0.945891 0.509957 0
0.94641 0.511452 0
0.946853 0.512703 0
0.947173 0.513649 0
0.947372 0.514199 0
0.947448 0.514443 0
0.947417 0.514366 0
0.94728 0.51397 0
0.947036 0.513252 0
0.946654 0.512154 0
0.364782 0.184802 0
0.361334 0.182879 0
0.358587 0.181353 0
0.35639 0.180255 0.0000457771
0.355032 0.179583 0.0000915541
0.354437 0.179294 0.000122072
0.35613 0.170626 0
0.361089 0.163348 0
0.370031 0.159731 0.000595102
0.381872 0.161761 0.00242618
0.396902 0.167941 0.00753796
0.414771 0.175433 0.0172427
0.433783 0.184421 0.0337682
0.453361 0.196017 0.0633707
0.483421 0.215579 0.12018
0.540337 0.246937 0.201862
0.619394 0.301747 0.236103
0.680629 0.412284 0.148196
0.726497 0.485344 0.045182
0.793454 0.510063 0.00677501
0.853574 0.524285 0.000610361
0.904341 0.536843 0
0.951308 0.54876 0
0.961318 0.55201 0
0.961608 0.552789 0
0.961852 0.553414 0
0.961975 0.553765 0
0.962005 0.553841 0
0.961929 0.553628 0
0.961715 0.553063 0
0.961395 0.552224 0
0.960906 0.550973 0
0.960357 0.549493 0
0.430457 0.219974 0
0.429358 0.219394 0
0.429053 0.219242 0
0.429633 0.219532 0
0.430915 0.220218 0
0.432929 0.221302 0
0.435508 0.22266 0
0.441169 0.214252 0
0.451331 0.206806 0
0.464561 0.203677 0.000030518
0.480659 0.204532 0.000518807
0.498863 0.208087 0.00315862
0.519081 0.214023 0.0106203
0.542565 0.224063 0.0339666
0.568185 0.241382 0.085481
0.617182 0.275898 0.180697
0.6822 0.312383 0.277958
0.768475 0.37113 0.295781
0.809003 0.486458 0.180407
0.833799 0.558114 0.0688487
0.881178 0.577691 0.0205539
0.924651 0.586999 0.00503548
0.9635 0.595712 0.00180056
0.978195 0.598901 0.000671397
0.977798 0.597589 0.000610361
0.977386 0.596277 0.000549325
0.976944 0.594827 0.000488289
0.976455 0.593225 0.000411994
0.975906 0.591424 0.000335698
0.975296 0.58941 0.000244144
0.974609 0.587198 0.000137331
0.973861 0.584772 0.000030518
0.972946 0.582254 0
0.502922 0.255955 0
0.504402 0.256657 0
0.506554 0.257633 0
0.509163 0.258839 0
0.51223 0.260258 0
0.515679 0.26186 0
0.51931 0.263539 0
0.523125 0.265293 0
0.531273 0.257053 0
0.541466 0.247791 0
0.554574 0.242588 0
0.571298 0.241703 0.000396735
0.59173 0.2439 0.00299077
0.617014 0.250385 0.0154269
0.644907 0.265476 0.0564584
0.6907 0.301564 0.153643
0.74905 0.340444 0.262638
0.8224 0.37113 0.352834
0.895903 0.436667 0.337194
0.9196 0.547295 0.227451
0.926726 0.62443 0.129183
0.955062 0.652674 0.0845655
0.978485 0.663523 0.0633707
0.982269 0.662715 0.052781
0.98201 0.65716 0.0446937
0.98175 0.651774 0.0368353
0.981506 0.646387 0.0289769
0.981247 0.641169 0.0226139
0.980987 0.636088 0.018204
0.980743 0.631083 0.0138705
0.980499 0.62623 0.00965896
0.980224 0.621241 0.00648508
0.979919 0.616037 0.00497444
0.568017 0.291279 0
0.570779 0.292638 0
0.573709 0.294057 0
0.576898 0.295613 0
0.580072 0.297154 0
0.583246 0.298711 0
0.586175 0.300282 0
0.588724 0.301854 0
0.591409 0.303517 0
0.600748 0.291752 0
0.611749 0.279637 0
0.626032 0.272023 0
0.642847 0.268956 0
0.666407 0.27155 0.00404364
0.695491 0.282277 0.026276
0.739086 0.312932 0.11725
0.794598 0.353887 0.232807
0.859861 0.39115 0.341329
0.93022 0.419425 0.407019
0.973068 0.500114 0.384237
0.970382 0.618173 0.328283
0.97734 0.691661 0.243549
0.985153 0.73167 0.184634
0.985092 0.727306 0.168078
0.984817 0.719265 0.151873
0.984482 0.71017 0.1364
0.98407 0.700954 0.120684
0.983627 0.691859 0.105135
0.9832 0.682902 0.0894942
0.982788 0.674128 0.0732891
0.982406 0.665675 0.0576791
0.982025 0.657649 0.0454108
0.981674 0.650141 0.0344549
0.630701 0.328969 0
0.634653 0.331518 0
0.638514 0.333989 0
0.642161 0.336355 0
0.645808 0.338704 0
0.649729 0.341299 0
0.654383 0.344762 0
0.659251 0.348394 0
0.664118 0.352026 0
0.670588 0.352148 0
0.682292 0.336934 0
0.694697 0.325948 0
0.708339 0.320241 0
0.722179 0.313848 0.000701915
0.741222 0.31017 0.0116121
0.771847 0.322652 0.0754101
0.81651 0.356435 0.185092
0.874159 0.395651 0.300603
0.943191 0.423362 0.403845
0.98088 0.480293 0.455909
0.980377 0.582574 0.471153
0.980865 0.686671 0.433005
0.982391 0.729107 0.37113
0.983078 0.734188 0.334752
0.983856 0.73753 0.296529
0.984588 0.739818 0.258396
0.985016 0.738094 0.222889
0.985183 0.733684 0.192248
0.985092 0.726864 0.16643
0.98468 0.715709 0.145815
0.984253 0.704448 0.12668
0.983719 0.693843 0.108537
0.983246 0.683909 0.0913405
0.711696 0.390265 0
0.711696 0.390265 0
0.711696 0.390265 0
0.711696 0.390265 0
0.711696 0.390265 0
0.711696 0.390265 0
0.711696 0.390265 0
0.711696 0.390265 0
0.711696 0.390265 0
0.711696 0.390265 0
0.714183 0.375753 0
0.720287 0.356817 0
0.730953 0.345617 0
0.748119 0.339239 0.000671397
0.768338 0.337209 0.0109255
0.799893 0.344457 0.0654917
0.833082 0.364233 0.147967
0.877348 0.394339 0.243977
0.939223 0.426886 0.354208
0.981155 0.469657 0.463172
0.981659 0.560098 0.540795
0.980438 0.653498 0.558175
0.980041 0.689647 0.573632
0.980331 0.697597 0.531518
0.980758 0.70721 0.480766
0.98143 0.718425 0.429541
0.9823 0.728405 0.376211
0.983322 0.735546 0.322667
0.984298 0.739178 0.274907
0.984909 0.738537 0.232105
0.985199 0.734646 0.19588
0.985092 0.727337 0.168246
0.984695 0.716106 0.146487
0.711696 0.390265 0
0.711696 0.390265 0
0.711696 0.390265 0
0.711696 0.390265 0
0.711696 0.390265 0
0.711696 0.390265 0
0.711696 0.390265 0
0.711696 0.390265 0
0.711696 0.390265 0
0.711696 0.390265 0
0.711696 0.390265 0
0.716915 0.365515 0
0.72578 0.348959 0
0.743328 0.340352 0
0.76466 0.337072 0.00723278
0.797498 0.343465 0.0594034
0.831449 0.363073 0.143862
0.875212 0.393042 0.237568
0.934401 0.425467 0.335134
0.979995 0.464317 0.449241
0.982269 0.540795 0.552239
0.980575 0.635401 0.60264
0.979767 0.681056 0.619104
0.979767 0.681056 0.619104
0.979767 0.681056 0.619104
0.979873 0.684352 0.601648
0.980224 0.695186 0.544274
0.980758 0.70721 0.480766
0.981567 0.720714 0.419379
0.98262 0.73077 0.359289
0.983703 0.736965 0.304067
0.984619 0.739681 0.255695
0.985122 0.737697 0.214572
0.711696 0.390265 0
0.711696 0.390265 0
0.711696 0.390265 0
0.711696 0.390265 0
0.711696 0.390265 0
0.711696 0.390265 0
0.711696 0.390265 0
0.711696 0.390265 0
0.711696 0.390265 0
0.711696 0.390265 0
0.711696 0.390265 0
0.714382 0.37499 0
0.722332 0.353628 0
0.73872 0.342061 0
0.760754 0.337362 0.00511177
0.794079 0.342061 0.0506447
0.828473 0.360967 0.136416
0.870787 0.390494 0.229374
0.928237 0.421836 0.323751
0.978027 0.457832 0.432578
0.982391 0.523705 0.537102
0.980987 0.614984 0.593759
0.979767 0.681056 0.619104
0.979767 0.681056 0.619104
0.979767 0.681056 0.619104
0.979767 0.681056 0.619104
0.979767 0.681056 0.619104
0.979767 0.681056 0.619104
0.979995 0.688334 0.580575
0.980484 0.700969 0.51371
0.981186 0.714488 0.447044
0.982132 0.727184 0.384955
0.983246 0.735286 0.326192
0.711696 0.390265 0
0.711696 0.390265 0
0.711696 0.390265 0
0.711696 0.390265 0
0.711696 0.390265 0
0.711696 0.390265 0
0.711696 0.390265 0
0.711696 0.390265 0
0.711696 0.390265 0
0.711696 0.390265 0
0.711696 0.390265 0
0.712337 0.386481 0
0.719234 0.359487 0
0.733928 0.343847 0
0.756664 0.337667 0.00288396
0.789059 0.340505 0.040238
0.824079 0.35787 0.125429
0.864561 0.385718 0.216007
0.919539 0.4168 0.309102
0.972854 0.45008 0.411307
0.982376 0.503273 0.515496
0.981521 0.586572 0.58053
0.980026 0.66569 0.614054
0.979767 0.681056 0.619104
0.979767 0.681056 0.619104
0.979767 0.681056 0.619104
0.979767 0.681056 0.619104
0.979767 0.681056 0.619104
0.979767 0.681056 0.619104
0.979767 0.681056 0.619104
0.979812 0.682368 0.612177
0.980224 0.695308 0.543679
0.980835 0.708721 0.472755
0.711696 0.390265 0
0.711696 0.390265 0
0.711696 0.390265 0
0.711696 0.390265 0
0.711696 0.390265 0
0.711696 0.390265 0
0.711696 0.390265 0
0.711696 0.390265 0
0.711696 0.390265 0
0.711696 0.390265 0
0.711696 0.390265 0
0.711696 0.390265 0
0.716701 0.366339 0
0.729915 0.346288 0
0.752789 0.338186 0.00134279
0.782864 0.339208 0.0305486
0.818875 0.354604 0.112581
0.857679 0.379934 0.200458
0.909636 0.411322 0.293126
0.964309 0.442588 0.388998
0.982071 0.483986 0.490227
0.981994 0.558831 0.564355
0.980484 0.64004 0.604639
0.979767 0.681056 0.619104
0.979767 0.681056 0.619104
0.979767 0.681056 0.619104
0.979767 0.681056 0.619104
0.979767 0.681056 0.619104
0.979767 0.681056 0.619104
0.979767 0.681056 0.619104
0.979767 0.681056 0.619104
0.979767 0.681056 0.619104
0.979767 0.681056 0.619104
0.711696 0.390265 0
0.711696 0.390265 0
0.711696 0.390265 0
0.711696 0.390265 0
0.711696 0.390265 0
0.711696 0.390265 0
0.711696 0.390265 0
0.711696 0.390265 0
0.711696 0.390265 0
