site/assets/luts/freshluts--0000396-kenya-crizo-mzeyah.cube
# LUTr-Schema-Version: 2
# LUTr-ID: freshluts--0000396-kenya-crizo-mzeyah
# LUTr-Title: Kenya Crizo Mzeyah
# LUTr-Collection: Fresh LUTs
# LUTr-Collection-ID: freshluts-community
# LUTr-Source: https://freshluts.com
# LUTr-Retrieved: 2026-07-27
# LUTr-Source-File: submissions-raw/freshluts/cubes/396__KENYA_Crizo_Mzeyah.cube
# LUTr-Source-Format: CUBE
# LUTr-Source-SHA256: a15f4f691e6c6df7e654a954e686a13c03ae9cd7e0d04e1f26bfb3d709e1d3b4
# LUTr-License: CC0-1.0
# LUTr-License-URL: https://freshluts.com/termsandconditions
# LUTr-License-Basis: site-terms
# LUTr-Transform-Class: creative-look
# LUTr-Tags: creative, freshluts, community, cube, cool, bmd-film-4k
# LUTr-Input-Color-Space:
# LUTr-Input-Gamut: bmd-film-gamut
# LUTr-Input-Transfer: bmd-film-4k
# LUTr-Output-Color-Space: srgb
# LUTr-Output-Gamut: rec709
# LUTr-Output-Transfer: srgb
# LUTr-Color-Space-Confidence: camera-profile-input-required
# LUTr-Domain-Normalized: true
# LUTr-Shaper: none
# LUTr-Original-Grid: 33x33x33
# LUTr-Conversion-Grid: 33x33x33
# LUTr-Conversion-Interpolation: none
# LUTr-Conversion-Method: Metadata normalization; numeric LUT samples preserved
# LUTr-Conversion-Tool: LUTr scripts/convert-all-to-cube.mjs 2.0.0
# LUTr-Conversion-Date: 2026-07-28
# LUTr-Asset-URL: https://freshluts.com/luts/396
# LUTr-Author: Crizo
# LUTr-Author-URL: https://freshluts.com/users/10814
# LUTr-Attribution: Crizo via Fresh LUTs
# LUTr-Source-Labels: gamma=Blackmagic BMD Film 4K; color=Cool; key=Neutral; style=Colorful
# LUTr-Note: Preserve this metadata and the upstream license notices when redistributing.
TITLE "Kenya Crizo Mzeyah"
LUT_3D_SIZE 9
DOMAIN_MIN 0 0 0
DOMAIN_MAX 1 1 1
0 0 0
0.168414 0 0
0.462089 0 0
0.748165 0 0
1 0 0
1 0 0
1 0 0
1 0 0
1 0 0
0 0.0770275 0
0.0362402 0.0466926 0
0.33109 0.0163119 0
0.616876 0 0
0.898466 0 0
1 0 0
1 0 0
1 0 0
1 0 0
0 0.310109 0
0 0.276188 0
0.201709 0.24387 0
0.486503 0.213565 0
0.767361 0.18407 0
1 0.155077 0
1 0.126436 0
1 0.0980697 0
1 0.0699016 0
0 0.533089 0
0 0.498375 0
0.0770886 0.465339 0
0.36144 0.43444 0
0.641901 0.404456 0
0.919768 0.375006 0
1 0.345968 0
1 0.317235 0
1 0.288762 0
0 0.752422 0
0 0.71725 0
0 0.683757 0
0.238529 0.652476 0
0.518715 0.622126 0
0.796338 0.592371 0
1 0.563043 0
1 0.534035 0
1 0.505302 0
0 0.969421 0
0 0.933959 0
0 0.900114 0
0.11696 0.868544 0
0.396948 0.837919 0
0.674388 0.807919 0
0.949905 0.778347 0
1 0.749126 0
1 0.72018 0
0 1 0
0 1 0
0 1 0
0 1 0
0.276219 1 0
0.553506 1 0
0.82887 0.992294 0
1 0.96289 0
1 0.933776 0
0 1 0
0 1 0
0 1 0
0 1 0
0.156298 1 0
0.433448 1 0
0.70869 1 0
0.982406 1 0
1 1 0
0 1 0
0 1 0
0 1 0
0 1 0
0.0370336 1 0
0.314076 1 0
0.589212 1 0
0.862821 1 0
1 1 0
0 0 0.209949
0.153903 0 0.176287
0.447761 0 0.145144
0.734173 0 0.117052
1 0 0.0921645
1 0 0.0659648
1 0 0.039292
1 0 0.0125277
1 0 0
0 0.0636759 0.0795148
0.0222934 0.0331121 0.0491798
0.316808 0.00230411 0.0185855
0.602426 0 0
0.883909 0 0
1 0 0
1 0 0
1 0 0
1 0 0
0 0.295842 0
0 0.261814 0
0.187015 0.229389 0
0.471748 0.199008 0
0.75256 0.169451 0
1 0.140398 0
1 0.111711 0
1 0.0832837 0
1 0.0550851 0
0 0.518517 0
0 0.483742 0
0.0621958 0.450645 0
0.346517 0.419699 0
0.626947 0.389654 0
0.904784 0.360189 0
1 0.331106 0
1 0.302342 0
1 0.273823 0
0 0.737652 0
0 0.702464 0
0 0.668925 0
0.223484 0.637598 0
0.503655 0.607233 0
0.781262 0.577432 0
1 0.548074 0
1 0.519051 0
1 0.490288 0
0 0.954528 0
0 0.919066 0
0 0.885176 0
0.101839 0.853574 0
0.381826 0.822934 0
0.659236 0.792905 0
0.934737 0.763317 0
1 0.734066 0
1 0.705104 0
0 1 0
0 1 0
0 1 0
0 1 0
0.261021 1 0
0.538293 1 0
0.813642 0.977188 0
1 0.947768 0
1 0.918624 0
0 1 0
0 1 0
0 1 0
0 1 0
0.141039 1 0
0.418189 1 0
0.693416 1 0
0.967117 1 0
1 1 0
0 1 0
0 1 0
0 1 0
0 1 0
0.0217288 1 0
0.298772 1 0
0.573892 1 0
0.847486 1 0
1 1 0
0 0 0.563699
0.140276 0 0.530175
0.434363 0 0.499229
0.721248 0 0.471672
1 0 0.446586
1 0 0.419928
1 0 0.393042
1 0 0.36611
1 0 0.339193
0 0.052018 0.434974
0.00900282 0.0202335 0.403388
0.303288 0 0.372473
0.588769 0 0.343206
0.870161 0 0.314565
1 0 0.28632
1 0 0.25832
1 0 0.230549
1 0 0.202945
0 0.282445 0.312383
0 0.24831 0.278447
0.173129 0.215793 0.246143
0.457832 0.185351 0.215885
0.738582 0.155734 0.186481
1 0.126619 0.15758
1 0.0978866 0.129046
1 0.0694285 0.100801
1 0.0411994 0.0727703
0 0.504829 0.192752
0 0.470024 0.158145
0.0481575 0.436866 0.1252
0.332448 0.405875 0.0944228
0.612848 0.375799 0.0645457
0.890669 0.346288 0.0352483
1 0.317174 0.00634775
1 0.28838 0
1 0.259831 0
0 0.723827 0.0747997
0 0.688609 0.0397955
0 0.655009 0.00640879
0.209323 0.623667 0
0.489464 0.593256 0
0.767056 0.563439 0
1 0.534051 0
1 0.504997 0
1 0.476219 0
0 0.940581 0
0 0.905089 0
0 0.871183 0
0.0875868 0.839551 0
0.367559 0.808881 0
0.644968 0.778836 0
0.920439 0.749218 0
1 0.719951 0
1 0.690974 0
0 1 0
0 1 0
0 1 0
0 1 0
0.246708 1 0
0.523964 0.992844 0
0.799313 0.963043 0
1 0.933593 0
1 0.904448 0
0 1 0
0 1 0
0 1 0
0 1 0
0.12668 1 0
0.403815 1 0
0.679042 1 0
0.952728 1 0
1 1 0
0 1 0
0 1 0
0 1 0
0 1 0
0.00732433 1 0
0.284352 1 0
0.559472 1 0
0.833066 1 0
1 1 0
0 0 0.907347
0.127443 0 0.873976
0.421805 0 0.843305
0.709773 0 0.816983
0.993149 0 0.790692
1 0 0.763729
1 0 0.73666
1 0 0.709606
1 0 0.682582
0 0.0404517 0.779599
0 0.00802625 0.747433
0.290471 0 0.716197
0.57583 0 0.686778
0.85713 0 0.65803
1 0 0.629679
1 0 0.601617
1 0 0.57377
1 0 0.546105
0 0.26981 0.655894
0 0.235584 0.621866
0.159976 0.202976 0.589456
0.444617 0.172457 0.559136
0.725338 0.142779 0.529656
1 0.113634 0.50071
1 0.0848554 0.472129
1 0.0563516 0.443824
1 0.0280766 0.415763
0 0.491936 0.535973
0 0.457069 0.50132
0.0348363 0.42385 0.468299
0.318608 0.39266 0.437781
0.599619 0.362646 0.407507
0.877256 0.33315 0.37821
1 0.304021 0.349279
1 0.275196 0.320653
1 0.246616 0.292287
0 0.710765 0.417838
0 0.675517 0.382803
0 0.641901 0.349371
0.195865 0.610498 0.318196
0.476005 0.580056 0.287953
0.753567 0.550225 0.25832
1 0.520806 0.229114
1 0.491737 0.200244
1 0.462928 0.171633
0 0.927413 0.300877
0 0.891905 0.265583
0 0.857954 0.23183
0.0740673 0.826291 0.200381
0.354025 0.795605 0.169894
0.631403 0.76553 0.140017
0.906874 0.735897 0.110597
1 0.706615 0.0815137
1 0.677607 0.0527199
0 1 0.184817
0 1 0.14931
0 1 0.115297
0 1 0.0836194
0.232929 1 0.0525521
0.510353 0.979477 0.022797
0.785687 0.94966 0
1 0.920211 0
1 0.891035 0
0 1 0.0694438
0 1 0.0337835
0 1 0
0 1 0
0.113039 1 0
0.390158 1 0
0.66537 1 0
0.939055 1 0
1 1 0
0 1 0
0 1 0
0 1 0
0 1 0
0 1 0
0.270665 1 0
0.545769 1 0
0.819364 1 0
1 1 0
0 0 1
0.115038 0 1
0.409766 0 1
0.698085 0 1
0.980896 0 1
1 0 1
1 0 1
1 0 1
1 0 1
0 0.0289158 1
0 0 1
0.277928 0 1
0.563195 0 1
0.844419 0 0.996674
1 0 0.968246
1 0 0.940108
1 0 0.9122
1 0 0.884474
0 0.257511 0.994598
0 0.223194 0.960479
0.146288 0.190829 0.943633
0.431739 0.15993 0.897597
0.712428 0.13019 0.868055
0.990494 0.100999 0.839063
1 0.0721752 0.810437
1 0.0436408 0.782086
1 0.0153201 0.753979
0 0.479377 0.874418
0 0.44448 0.839704
0.0218357 0.411215 0.806638
0.306081 0.380133 0.775753
0.586435 0.349981 0.7458
0.864195 0.320394 0.716411
1 0.291218 0.687449
1 0.262379 0.658793
1 0.233768 0.630396
0 0.698054 0.756115
0 0.662791 0.721035
0 0.629114 0.687572
0.182757 0.597696 0.656352
0.462745 0.567208 0.626154
0.740917 0.537179 0.596307
1 0.507927 0.567178
1 0.478828 0.538277
1 0.450004 0.509636
0 0.914611 0.639033
0 0.879088 0.603708
0 0.84509 0.569909
0.0465705 0.819104 0.538064
0.340826 0.782696 0.507912
0.618189 0.752605 0.478019
0.893645 0.722957 0.448569
1 0.693645 0.419471
1 0.664622 0.390646
0 1 0.52285
0 1 0.487343
0 1 0.453285
0 1 0.421592
0.219852 0.996765 0.390875
0.497093 0.966491 0.360784
0.772412 0.93666 0.331151
1 0.907179 0.301885
1 0.877989 0.272892
0 1 0.407401
0 1 0.37174
0 1 0.337469
0 1 0.305577
0.099733 1 0.274693
0.376761 1 0.244266
0.652003 1 0.21445
0.925719 1 0.185229
1 1 0.1561
0 1 0.292561
0 1 0.256764
0 1 0.222293
0 1 0.190249
0 1 0.159213
0.257298 1 0.128817
0.532403 1 0.0988937
0.805982 1 0.069337
1 1 0.0400854
0 0 1
0.102937 0 1
0.398215 0 1
0.68632 0 1
0.96878 0 1
1 0 1
1 0 1
1 0 1
1 0 1
0 0.0174411 1
0 0 1
0.265599 0 1
0.550759 0 1
0.831907 0 1
1 0 1
1 0 1
1 0 1
1 0 1
0 0.245426 1
0 0.211032 1
0.134524 0.178271 1
0.419089 0.147616 1
0.699718 0.117845 1
0.977752 0.0885939 1
1 0.0597238 1
1 0.0311589 1
1 0.00280766 1
0 0.467063 1
0 0.43212 1
0.00907912 0.398795 1
0.292271 0.368246 1
0.573617 0.337484 1
0.851362 0.307881 1
1 0.278676 1
1 0.24979 0.993744
1 0.221164 0.965316
0 0.685603 1
0 0.650309 1
0 0.616587 1
0.169863 0.585138 0.991333
0.449973 0.55465 0.961028
0.727489 0.524758 0.931334
1 0.495293 0.902068
1 0.466163 0.873137
1 0.437324 0.84448
0 0.902052 0.973999
0 0.866499 0.938643
0 0.832486 0.90483
0.0479286 0.800763 0.87332
0.32784 0.770031 0.842771
0.605203 0.73991 0.812848
0.880644 0.710246 0.783383
1 0.680919 0.754253
1 0.651881 0.725414
0 1 0.857725
0 1 0.822202
0 1 0.788113
0 1 0.75639
0.194507 0.988525 0.725292
0.484047 0.953735 0.695552
0.75935 0.923888 0.665888
1 0.894392 0.636606
1 0.865187 0.607599
0 1 0.742199
0 1 0.706523
0 1 0.672221
0 1 0.640314
0.086656 1 0.6094
0.36376 1 0.579141
0.638956 1 0.549325
0.912612 1 0.51989
1 1 0.490745
0 1 0.627283
0 1 0.591485
0 1 0.556985
0 1 0.52491
0 1 0.493858
0.244175 1 0.463447
0.519265 1 0.433509
0.792844 1 0.403937
1 1 0.37467
0 0 1
0.0911269 0 1
0.387503 0 1
0.674556 0 1
0.956756 0 1
1 0 1
1 0 1
1 0 1
1 0 1
0 0.00602731 1
0 0 1
0.253391 0 1
0.538476 0 1
0.819562 0 1
1 0 1
1 0 1
1 0 1
1 0 1
0 0.233494 1
0 0.199039 1
0.122057 0.166201 1
0.406577 0.135485 1
0.68719 0.105653 1
0.965194 0.0763714 1
1 0.0474556 1
1 0.0188449 1
1 0 1
0 0.454917 1
0 0.419928 1
0 0.386572 1
0.280659 0.355413 1
0.560967 0.325185 1
0.838682 0.295537 1
1 0.2663 1
1 0.237385 1
1 0.208743 1
0 0.67332 1
0 0.637995 1
0 0.604242 1
0.157153 0.572763 1
0.436332 0.54258 1
0.714748 0.512322 1
0.990326 0.482841 1
1 0.453681 1
1 0.424811 1
0 0.889662 1
0 0.854093 1
0 0.82005 1
0.0351263 0.788312 1
0.315038 0.757549 1
0.592386 0.727413 1
0.867811 0.697719 1
1 0.668376 1
1 0.639323 1
0 1 1
0 1 1
0 1 1
0 1 1
0.193957 0.971496 1
0.471168 0.941176 1
0.746471 0.911299 0.998245
1 0.881788 0.968948
1 0.852583 0.939925
0 1 1
0 1 1
0 1 1
0 1 0.972656
0.0737316 1 0.941741
0.342199 1 0.911101
0.626032 1 0.881636
0.899687 1 0.852171
1 1 0.823011
0 1 0.959625
0 1 0.923827
0 1 0.889296
0 1 0.857206
0 1 0.826139
0.23122 1 0.795712
0.50631 1 0.765759
0.779873 1 0.736171
1 1 0.706889
0 0 1
0.0796216 0 1
0.376287 0 1
0.662821 0 1
0.944839 0 1
1 0 1
1 0 1
1 0 1
1 0 1
0 0 1
0 0 1
0.241291 0 1
0.526299 0 1
0.807324 0 1
1 0 1
1 0 1
1 0 1
1 0 1
0 0.221698 1
0 0.187167 1
0.109728 0.154253 1
0.394202 0.123491 1
0.674784 0.0936141 1
0.952743 0.064271 1
1 0.0353399 1
1 0.00668345 1
1 0 1
0 0.442908 1
0 0.407889 1
0 0.374472 1
0.268162 0.343267 1
0.54844 0.313008 1
0.826139 0.28333 1
1 0.254063 1
1 0.225132 1
1 0.19646 1
0 0.661173 1
0 0.625834 1
0 0.592035 1
0.144564 0.560525 1
0.424628 0.529976 1
0.702113 0.500023 1
0.977691 0.470527 1
1 0.441352 1
1 0.412451 1
0 0.877424 1
0 0.84184 1
0 0.807752 1
0.0224613 0.775998 1
0.302373 0.745205 1
0.579705 0.715053 1
0.855116 0.685344 1
1 0.65597 1
1 0.626902 1
0 1 1
0 1 1
0 1 1
0 0.990066 1
0.181231 0.959091 1
0.458442 0.928756 1
0.73373 0.898863 1
1 0.869337 1
1 0.840101 1
0 1 1
0 1 1
0 1 1
0 1 1
0.0609598 1 1
0.338048 1 1
0.61323 1 1
0.886885 1 1
1 1 1
0 1 1
0 1 1
0 1 1
0 1 1
0 1 1
0.218387 1 1
0.493477 1 1
0.767025 1 1
1 1 1
0 0 1
0.0685435 0 1
0.36492 0 1
0.651118 0 1
0.932967 0 1
1 0 1
1 0 1
1 0 1
1 0 1
0 0 1
0 0 1
0.229267 0 1
0.514214 0 1
0.795178 0 1
1 0 1
1 0 1
1 0 1
1 0 1
0 0.209979 1
0 0.175402 1
0.0974746 0.142428 1
0.381933 0.111604 1
0.66247 0.0816815 1
0.940414 0.0523079 1
1 0.0233158 1
1 0 1
1 0 1
0 0.431006 1
0 0.395956 1
0 0.362478 1
0.255772 0.331243 1
0.536019 0.300954 1
0.813703 0.271244 1
1 0.241947 1
1 0.212985 1
1 0.184283 1
0 0.649149 1
0 0.613779 1
0 0.57995 1
0.132082 0.548409 1
0.412131 0.51783 1
0.689601 0.487861 1
0.965164 0.45832 1
1 0.429129 1
1 0.400214 1
0 0.865293 1
0 0.829694 1
0 0.795575 1
0.00991836 0.76379 1
0.289799 0.732982 1
0.567132 0.7028 1
0.842527 0.673075 1
1 0.643702 1
1 0.614603 1
0 1 1
0 1 1
0 1 1
0 0.977798 1
0.168612 0.946807 1
0.445808 0.916442 1
0.72108 0.886549 1
0.994827 0.857008 1
1 0.827756 1
0 1 1
0 1 1
0 1 1
0 1 1
0.0482948 1 1
0.325383 1 1
0.600549 1 1
0.874189 1 1
1 1 1
0 1 1
0 1 1
0 1 1
0 1 1
0 1 1
0.205676 1 1
0.480751 1 1
0.754299 1 1
1 1 1
