site/assets/luts/freshluts--0000397-yellow-and-green.cube
# LUTr-Schema-Version: 2
# LUTr-ID: freshluts--0000397-yellow-and-green
# LUTr-Title: Yellow and Green
# LUTr-Collection: Fresh LUTs
# LUTr-Collection-ID: freshluts-community
# LUTr-Source: https://freshluts.com
# LUTr-Retrieved: 2026-07-27
# LUTr-Source-File: submissions-raw/freshluts/cubes/397__Green_and_Yellow_.cube
# LUTr-Source-Format: CUBE
# LUTr-Source-SHA256: d8c811977e9e9f811ee52df809a1e5850b947e87b7ed9d1905268e5909f9f24b
# LUTr-License: CC0-1.0
# LUTr-License-URL: https://freshluts.com/termsandconditions
# LUTr-License-Basis: site-terms
# LUTr-Transform-Class: creative-look
# LUTr-Tags: creative, freshluts, community, cube, yellow, arri-logc3-ei800
# LUTr-Input-Color-Space: arri-logc3-ei800-awg3
# LUTr-Input-Gamut: arri-wide-gamut-3
# LUTr-Input-Transfer: arri-logc3-ei800
# LUTr-Output-Color-Space: srgb
# LUTr-Output-Gamut: rec709
# LUTr-Output-Transfer: srgb
# LUTr-Color-Space-Confidence: inferred-from-source-label
# LUTr-Domain-Normalized: true
# LUTr-Shaper: none
# LUTr-Original-Grid: 33x33x33
# LUTr-Conversion-Grid: 33x33x33
# LUTr-Conversion-Interpolation: none
# LUTr-Conversion-Method: Metadata normalization; numeric LUT samples preserved
# LUTr-Conversion-Tool: LUTr scripts/convert-all-to-cube.mjs 2.0.0
# LUTr-Conversion-Date: 2026-07-28
# LUTr-Asset-URL: https://freshluts.com/luts/397
# LUTr-Author: gabriel s
# LUTr-Author-URL: https://freshluts.com/users/3294
# LUTr-Attribution: gabriel s via Fresh LUTs
# LUTr-Source-Labels: gamma=Arri log c; color=Yellow; key=Neutral; style=Cinematic light
# LUTr-Note: Preserve this metadata and the upstream license notices when redistributing.
TITLE "Yellow and Green"
LUT_3D_SIZE 5
DOMAIN_MIN 0 0 0
DOMAIN_MAX 1 1 1
0.0228122 0 0
0.519051 0 0
0.998306 0 0
1 0 0
1 0 0
0 0.255558 0
0.223148 0.192584 0
0.784344 0.0762036 0
1 0 0
1 0 0
0 0.663493 0
0 0.618845 0
0.617136 0.553292 0
1 0.446632 0
1 0.185504 0
0 1 0
0 1 0
0.411902 0.96791 0
0.989319 0.906081 0
1 0.821424 0
0 1 0
0 1 0
0 1 0
0.798383 1 0
1 1 0
0.011902 0 0.43859
0.445518 0 0.331518
0.959197 0 0.214221
1 0 0.100862
1 0 0
0 0.230091 0.028809
0.175555 0.166155 0
0.764233 0.0421454 0
1 0 0
1 0 0
0 0.651225 0
0 0.60647 0
0.594965 0.539849 0
1 0.430411 0
1 0.158038 0
0 1 0
0 1 0
0.379782 0.957839 0
0.977478 0.89543 0
1 0.810178 0
0 1 0
0 1 0
0 1 0
0.78262 1 0
1 1 0
0 0 0.971725
0.207874 0 0.860166
0.871565 0 0.762402
1 0 0.689113
1 0 0.599985
0 0.107988 0.653544
0.0119478 0.0377356 0.606348
0.685863 0 0.551797
1 0 0.488746
1 0 0.402243
0 0.605798 0.369314
0 0.560357 0.32694
0.510613 0.491524 0.274617
1 0.375265 0.207874
1 0.0575723 0.106874
0 1 0
0 0.992279 0
0.27248 0.937957 0
0.952041 0.874632 0
1 0.786084 0
0 1 0
0 1 0
0 1 0
0.74876 1 0
1 0.997818 0
0 0 1
0.178347 0 1
0.626932 0 1
1 0 1
1 0 1
0 0.0239719 1
0 0 1
0.434592 0 1
1 0 1
1 0 0.999786
0 0.495018 1
0 0.445853 0.983215
0.215198 0.369589 0.932265
1 0.225925 0.878401
1 0 0.819043
0 1 0.800885
0 0.960037 0.756878
0 0.904982 0.709453
0.89778 0.839429 0.652338
1 0.737896 0.58407
0 1 0
0 1 0
0 1 0
0.655863 1 0
1 0.976349 0
0 0 1
0.160922 0 1
0.367483 0 1
1 0 1
1 0 1
0 0.00691234 1
0 0 1
0.18587 0 1
0.93695 0 1
1 0 1
0 0.0793469 1
0 0.0248875 1
0.0100862 0 1
0.77673 0 1
1 0 1
0 0.918547 1
0 0.872755 1
0 0.81387 1
0.554604 0.730312 1
1 0.551888 0.98941
0 1 1
0 1 0.954772
0 1 0.898009
0.0824292 1 0.840284
1 0.946395 0.780911
