site/assets/luts/freshluts--0001223-rosa-natural.cube
# LUTr-Schema-Version: 2
# LUTr-ID: freshluts--0001223-rosa-natural
# LUTr-Title: ROSA NATURAL
# LUTr-Collection: Fresh LUTs
# LUTr-Collection-ID: freshluts-community
# LUTr-Source: https://freshluts.com
# LUTr-Retrieved: 2026-07-27
# LUTr-Source-File: submissions-raw/freshluts/cubes/1223__ROSA_NATURAL.cube
# LUTr-Source-Format: CUBE
# LUTr-Source-SHA256: f48eab5e311356cad8e8a69f8a5d637d8f031d8d037001d7b0976411a5929c26
# LUTr-License: CC0-1.0
# LUTr-License-URL: https://freshluts.com/termsandconditions
# LUTr-License-Basis: site-terms
# LUTr-Transform-Class: creative-look
# LUTr-Tags: creative, freshluts, community, cube, orange, sony-s-log2
# LUTr-Input-Color-Space:
# LUTr-Input-Gamut: sony-s-gamut
# LUTr-Input-Transfer: sony-s-log2
# LUTr-Output-Color-Space: srgb
# LUTr-Output-Gamut: rec709
# LUTr-Output-Transfer: srgb
# LUTr-Color-Space-Confidence: camera-profile-input-required
# LUTr-Domain-Normalized: true
# LUTr-Shaper: none
# LUTr-Original-Grid: 33x33x33
# LUTr-Conversion-Grid: 33x33x33
# LUTr-Conversion-Interpolation: none
# LUTr-Conversion-Method: Metadata normalization; numeric LUT samples preserved
# LUTr-Conversion-Tool: LUTr scripts/convert-all-to-cube.mjs 2.0.0
# LUTr-Conversion-Date: 2026-07-28
# LUTr-Asset-URL: https://freshluts.com/luts/1223
# LUTr-Author: Antony Eliezer
# LUTr-Author-URL: https://freshluts.com/users/32961
# LUTr-Attribution: Antony Eliezer via Fresh LUTs
# LUTr-Source-Labels: gamma=Sony S-Log 2; color=Orange; key=Neutral; style=Colorful
# LUTr-Note: Preserve this metadata and the upstream license notices when redistributing.
# LUTr-Upstream-Comment: VEGAS Pro LUT
TITLE "ROSA NATURAL"
LUT_3D_SIZE 9
DOMAIN_MIN 0 0 0
DOMAIN_MAX 1 1 1
0.02413614 0.02413614 0.02413614
0.06051883 0.02653995 0.02620865
0.13971291 0.04400085 0.03811063
0.26172903 0.05903114 0.04460938
0.42381474 0.05605164 0.03319442
0.58389819 0.04216863 0.02033942
0.69369531 0.02712954 0.01062799
0.7481209 0.02008639 0.00749623
0.78771335 0.01972798 0.01356806
0.02904697 0.0624836 0.02871252
0.06299611 0.06257105 0.02897035
0.14014482 0.07728934 0.03869572
0.26186138 0.09168221 0.04473029
0.42372265 0.08856153 0.03321786
0.58331728 0.074728 0.02043578
0.69346493 0.05964598 0.01069491
0.74809748 0.05257285 0.00749623
0.78771335 0.05221444 0.01359955
0.05727133 0.15078244 0.04950422
0.08941042 0.14870018 0.04936788
0.14757043 0.14552225 0.0538093
0.2753152 0.14361665 0.05122662
0.43020403 0.12791838 0.03357752
0.58321124 0.10824996 0.02043663
0.69245654 0.09237085 0.0108484
0.7479614 0.08507185 0.00750878
0.78773081 0.0847009 0.01353097
0.04800015 0.29208222 0.03105711
0.08092111 0.29063633 0.03132495
0.12357006 0.28665352 0.03296138
0.29185134 0.28142434 0.04361077
0.49061024 0.25700453 0.03562735
0.63343829 0.19974843 0.01255389
0.70654386 0.13384435 0.008374
0.74855536 0.11779641 0.00741392
0.78785318 0.11718737 0.01417525
0.00985003 0.44807842 0.00382542
0.04249597 0.44750077 0.00394577
0.07618301 0.44509578 0.00462444
0.19266982 0.4439747 0.0047244
0.49552742 0.44470721 0.0392119
0.66971129 0.41771021 0.05845617
0.76433516 0.33680609 0.02582248
0.79467213 0.19980024 -0.00214987
0.79013318 0.15055519 0.01569409
0.02964657 0.5839417 -0.01325757
0.06203557 0.58357584 -0.01325757
0.09410466 0.58260334 -0.01325757
0.14370216 0.5798763 -0.01316547
0.40400198 0.59916461 0.02645219
0.67384398 0.59970349 0.10878985
0.79930079 0.56883895 0.12931608
0.84192622 0.49175143 0.09152288
0.83744532 0.29595321 0.03046098
0.06290675 0.68375069 -0.01325977
0.09525282 0.68358034 -0.01325977
0.12756835 0.6832059 -0.01325977
0.16197567 0.68252927 -0.01325977
0.29428998 0.6868915 0.00066825
0.60223997 0.72550476 0.11236485
0.80386299 0.72171545 0.17731011
0.85663527 0.69443774 0.18819009
0.88854986 0.63542932 0.15950613
0.07993875 0.74608165 -0.01325977
0.11235175 0.74600816 -0.01325977
0.14480822 0.74590468 -0.01325977
0.17729218 0.74567771 -0.01325977
0.24591164 0.7440871 -0.01306798
0.50166112 0.7793588 0.08168347
0.76857996 0.80186456 0.17808633
0.8565098 0.80084848 0.21662034
0.88912171 0.78772861 0.21808781
0.07052583 0.78930616 0.03668821
0.10316412 0.78923273 0.03563516
0.13584645 0.78910428 0.03414374
0.16864094 0.78893888 0.03249024
0.21912327 0.7874434 0.03066345
0.44209298 0.80071062 0.0894454
0.72462934 0.8449071 0.19484527
0.85550922 0.84697998 0.22798757
0.88912171 0.84784484 0.22971782
0.02492855 0.02518953 0.05824798
0.06064233 0.02706506 0.0598391
0.13950197 0.04407716 0.07101985
0.26155242 0.05910145 0.07740425
0.42367491 0.05607507 0.0657583
0.58380127 0.04209572 0.05282587
0.69373876 0.02703263 0.04311445
0.74823034 0.02001292 0.0398374
0.78778678 0.01963107 0.04390398
0.02877968 0.06228663 0.06176466
0.06273513 0.06249758 0.06204908
0.13967803 0.07725991 0.0714726
0.26167646 0.09175254 0.07748655
0.42367578 0.08858497 0.06578718
0.58324432 0.07467853 0.05292223
0.69346493 0.05954907 0.04318137
0.74815685 0.05247594 0.0398374
0.78773677 0.05211753 0.04397745
0.05693318 0.14990741 0.0822894
0.08907226 0.14782199 0.08211217
0.14705361 0.144988 0.08645983
0.27495444 0.14346401 0.08387714
0.43008029 0.12801188 0.06617028
0.58318722 0.10824996 0.05292309
0.69245654 0.09227993 0.04333486
0.74797988 0.08499838 0.03986084
0.78778678 0.08460399 0.04406726
0.04811994 0.29167429 0.06367645
0.0810675 0.29008976 0.06393285
0.1234846 0.28623044 0.06550726
0.29145485 0.28122169 0.07627644
0.49048048 0.25705606 0.06822556
0.63360035 0.20004229 0.04500177
0.70690209 0.1339407 0.04077555
0.74857825 0.11776043 0.03977853
0.78789669 0.1171139 0.04478161
0.00992351 0.4477697 0.03635876
0.04251397 0.44711313 0.03659716
0.076201 0.44475815 0.03723124
0.19222987 0.44356361 0.03731976
0.49514523 0.44449538 0.07162489
0.66960949 0.41759208 0.09093773
0.76456755 0.33697215 0.05808252
0.79516762 0.20021661 0.02977478
0.79030961 0.15055029 0.04631614
0.02947564 0.58352637 0.01922888
0.06186574 0.58323622 0.01922888
0.09399031 0.58231258 0.01922888
0.14344947 0.57952422 0.01930954
0.4035506 0.59887445 0.05878396
0.67365021 0.59945691 0.1411783
0.79922676 0.56878841 0.16179544
0.84208459 0.49181178 0.1236457
0.83810991 0.29588208 0.06153028
0.06274293 0.68350691 0.01922668
0.09515591 0.68338001 0.01922668
0.12747145 0.68302464 0.01922668
0.16180529 0.68228549 0.01922668
0.29380655 0.68666232 0.03300602
0.60166681 0.72531092 0.14458947
0.80383956 0.72154504 0.20972309
0.85663527 0.69450521 0.22073746
0.88854986 0.63529432 0.19188912
0.07963715 0.74600816 0.01922668
0.1121236 0.74597216 0.01922668
0.14458008 0.74581867 0.01922668
0.1771135 0.74559283 0.01922668
0.24532954 0.74399561 0.01941848
0.5008707 0.77905607 0.11406767
0.76831216 0.80177367 0.21057712
0.85650986 0.80084842 0.24905677
0.88912171 0.78768665 0.25057426
0.0693143 0.78989428 0.07859115
0.10191621 0.78984737 0.07767279
0.13472694 0.7896564 0.07543278
0.16760632 0.78948063 0.07289311
0.2182208 0.78788221 0.07043047
0.44011778 0.79998964 0.12720686
0.722844 0.84500784 0.23054665
0.8554607 0.84711778 0.26187125
0.88912171 0.8478449 0.26224625
0.03060409 0.03642347 0.11605266
0.06432679 0.03674987 0.11636076
0.13358855 0.04705802 0.12272726
0.25532857 0.06179987 0.12350272
0.42141205 0.05745324 0.10743932
0.58309466 0.0427332 0.0870551
0.69339204 0.02704802 0.07568527
0.74834132 0.01977507 0.07222545
0.78784174 0.01939812 0.07249503
0.03145071 0.07013842 0.11687614
0.06469177 0.07009439 0.11685524
0.13326064 0.07980655 0.123092
0.25510302 0.09442466 0.123764
0.42115334 0.08997513 0.10770062
0.58247995 0.07531601 0.0871869
0.69307077 0.05956446 0.07571526
0.74826783 0.05226153 0.07222545
0.78784174 0.05188457 0.07249503
0.05264753 0.14445139 0.13384598
0.08476634 0.14255151 0.13302353
0.13935511 0.14029697 0.13426936
0.26457441 0.14116354 0.12846252
0.42509219 0.12771797 0.10815838
0.58183426 0.10878279 0.08744045
0.69214672 0.09235625 0.0758802
0.74816436 0.08477797 0.07228637
0.78784174 0.08437105 0.07256741
0.04614997 0.28996202 0.10615041
0.07913242 0.28843725 0.10632679
0.12098266 0.28407049 0.10745881
0.2845318 0.2779513 0.12299782
0.4831112 0.25326237 0.11319166
0.62967074 0.1978579 0.08215974
0.70670402 0.13396414 0.07345877
0.74874914 0.11755856 0.07214314
0.78797013 0.11687605 0.07292315
0.00901026 0.44631797 0.06967027
0.04167365 0.44571748 0.0698412
0.07531096 0.44338048 0.07041586
0.18860847 0.44110021 0.07188907
0.49100661 0.44295633 0.11187475
0.66700846 0.4165388 0.12894642
0.76417917 0.33706266 0.09197975
0.79659933 0.2012818 0.06132429
0.79065108 0.15037841 0.073617
0.02811109 0.58250928 0.05171534
0.06051808 0.58221853 0.05171534
0.09269497 0.58117139 0.0517159
0.14238721 0.57833493 0.05187611
0.40053183 0.59720558 0.09214829
0.67255479 0.59852946 0.17459901
0.79900718 0.56862003 0.19463183
0.84249598 0.4919925 0.15495381
0.83972186 0.29641381 0.08949365
0.06185811 0.68309391 0.05171315
0.09427109 0.6829235 0.05171315
0.12660407 0.68254906 0.05171315
0.16090359 0.68186641 0.05171315
0.29107741 0.68555838 0.06508154
0.59981173 0.72444391 0.17717037
0.80349278 0.72114223 0.24221957
0.85663521 0.69442081 0.25315702
0.88861793 0.63514745 0.22417317
0.07692391 0.74638373 0.05484899
0.10943381 0.74634773 0.05465137
0.14199264 0.74614584 0.0543525
0.1746719 0.74589002 0.0539149
0.24180634 0.74399287 0.05392726
0.49800393 0.77713972 0.15130869
0.76685119 0.80166483 0.24526609
0.85649723 0.80073243 0.28177723
0.88912165 0.78765512 0.28306076
0.06394143 0.79367775 0.16988279
0.09650136 0.79358685 0.16887797
0.12911732 0.79343885 0.16674806
0.16198321 0.7932505 0.16357394
0.21983536 0.79085493 0.15612006
0.43986636 0.79631275 0.1993548
0.71132785 0.84563702 0.29329836
0.85514361 0.848481 0.30814528
0.88912171 0.84795427 0.29596561
0.03284467 0.05475917 0.21606216
0.06556661 0.05472113 0.21585944
0.12183148 0.05707231 0.22664949
0.24988534 0.06395358 0.22701278
0.41077673 0.06112222 0.20600668
0.57575023 0.04563883 0.17502238
0.69092399 0.02869883 0.13452147
0.74812347 0.02004686 0.10630465
0.78792661 0.0189704 0.10354771
0.0328921 0.08734049 0.21601585
0.06555518 0.08726701 0.21579283
0.12107167 0.08956476 0.22636019
0.24956603 0.09644004 0.22715142
0.41041026 0.09363211 0.20620476
0.57510728 0.0782222 0.17540118
0.69047326 0.0612822 0.13478877
0.74803859 0.05253331 0.10634119
0.78792661 0.05145685 0.10355914
0.03881228 0.13797881 0.22328737
0.07097826 0.13650459 0.22225368
0.11718376 0.13431641 0.22756852
0.2476556 0.13532764 0.22932543
0.40966108 0.12842923 0.206321
0.57369244 0.11132019 0.17593387
0.68944246 0.09405653 0.1355263
0.74787909 0.08504976 0.10642719
0.78790373 0.08394331 0.10355914
0.041674 0.28651068 0.25027698
0.07448607 0.28502935 0.24963406
0.11279852 0.27967146 0.24841477
0.25552031 0.2677668 0.25203657
0.44920564 0.23928225 0.22353752
0.60633343 0.18424162 0.17822132
0.69923043 0.13387929 0.13615941
0.74820507 0.1178429 0.10679154
0.78786236 0.11644123 0.10360262
0.00337316 0.45006022 0.20396058
0.03611546 0.44926873 0.2033399
0.06958032 0.4469083 0.20157756
0.16751194 0.44042185 0.19606042
0.45845234 0.44035673 0.24646114
0.63786781 0.41081268 0.24321713
0.74525517 0.32990596 0.17847343
0.79286277 0.19966668 0.10379016
0.79085296 0.14996758 0.10318778
0.01032547 0.58588773 0.15497503
0.04265355 0.58544952 0.15384813
0.07503939 0.58438492 0.15127596
0.12881313 0.58038998 0.14540383
0.37683144 0.58911794 0.1919601
0.65247899 0.59992683 0.27410859
0.7849499 0.56835186 0.26983634
0.83900815 0.49164167 0.20010172
0.84151793 0.29722103 0.11853033
0.04694147 0.68724334 0.13517655
0.07942792 0.68699956 0.13437951
0.1119873 0.68653423 0.13225961
0.14612265 0.68556482 0.12901413
0.2757901 0.68107212 0.14170645
0.58037525 0.71997297 0.25474298
0.79717547 0.72217119 0.30474201
0.8566156 0.69383651 0.29241714
0.88862449 0.63500142 0.2568005
0.06253164 0.75222325 0.16534297
0.09509211 0.75206429 0.16434895
0.12776299 0.75182587 0.16207959
0.16053963 0.75137848 0.15885994
0.22337592 0.7485972 0.15523265
0.48458073 0.76633447 0.23458646
0.75283933 0.80418611 0.31955564
0.85637176 0.80132473 0.3267957
0.88912165 0.78755164 0.31598589
0.06320328 0.79892427 0.2887738
0.09562282 0.79882729 0.28771785
0.12804891 0.79874128 0.28622264
0.16056655 0.79852688 0.28387898
0.21969695 0.7961477 0.2747409
0.44653526 0.79468894 0.29501301
0.68972832 0.84487218 0.38812548
0.85231853 0.85431862 0.39821759
0.88912171 0.84919274 0.34154037
0.03245453 0.07173365 0.34173796
0.06495897 0.07166019 0.34145662
0.10345912 0.07192399 0.35020036
0.236166 0.06716163 0.37374407
0.40161321 0.05958628 0.3624078
0.56197113 0.04690428 0.33014199
0.67466003 0.03243852 0.28356153
0.74066967 0.02369328 0.23279205
0.78722906 0.01983183 0.15983526
0.03245453 0.10414119 0.34145749
0.06494098 0.1041232 0.34121907
0.10303866 0.10433097 0.34930247
0.23544218 0.09967154 0.37362143
0.4010638 0.09210162 0.36231026
0.56127214 0.07948764 0.32995474
0.67418581 0.06507191 0.28345373
0.74056017 0.05617973 0.2328046
0.78719795 0.05231284 0.15981947
0.03273601 0.13994522 0.34200782
0.06516644 0.13955365 0.34149927
0.10069792 0.13898174 0.34588516
0.22753184 0.13369387 0.37244293
0.39776817 0.12527978 0.36130756
0.55944252 0.11232086 0.32953194
0.67315394 0.09777878 0.28332481
0.74034578 0.08873967 0.2328715
0.7869606 0.08483963 0.15984687
0.02976339 0.2722244 0.38992026
0.06244311 0.27045032 0.38898784
0.09639835 0.26511225 0.3873705
0.20884165 0.24429306 0.40772352
0.41174766 0.20362377 0.38043025
0.56921697 0.16283317 0.33375001
0.67688626 0.13416931 0.28484464
0.74013102 0.12138245 0.23418252
0.78635293 0.11747619 0.16062818
0.00454947 0.45546362 0.40547431
0.03711105 0.45478904 0.40505296
0.07019001 0.45210814 0.40397435
0.15390354 0.44455045 0.40595803
0.41971466 0.42899334 0.41629413
0.5979166 0.39373681 0.38412637
0.71036708 0.30812281 0.32319742
0.768933 0.18530104 0.24198952
0.78916413 0.15079437 0.16327713
0.02027183 0.59591568 0.39347038
0.05256992 0.59559554 0.39286125
0.08451495 0.59443039 0.39160201
0.13076648 0.59124589 0.38940009
0.35074261 0.58727527 0.38647631
0.61208791 0.59907484 0.44074228
0.74355996 0.56799585 0.42797002
0.80275071 0.48692775 0.34886315
0.83107817 0.2963742 0.19717716
0.04742438 0.69814163 0.37177253
0.07980194 0.69800925 0.37102133
0.11192705 0.69750589 0.36946222
0.1446645 0.69661969 0.36719227
0.25371006 0.68935907 0.35315022
0.5505355 0.71085221 0.4075453
0.76853341 0.73009181 0.47088757
0.85102773 0.69930065 0.4409107
0.88345259 0.63616306 0.34097582
0.06347346 0.76255065 0.37078309
0.09586299 0.76241624 0.37008902
0.12819053 0.76222676 0.36872527
0.16043489 0.76185942 0.36676225
0.2142611 0.7593773 0.35967046
0.46788955 0.76069391 0.37382206
0.7187776 0.80858159 0.46747935
0.85473335 0.81138295 0.47633472
0.88912165 0.79078025 0.40398011
0.07416525 0.8074218 0.41866738
0.10653626 0.80732501 0.41804078
0.13888177 0.80722547 0.41703945
0.17120561 0.80704308 0.41560534
0.22330554 0.8049975 0.41078842
0.44255731 0.80193198 0.40684551
0.67716604 0.84294057 0.49105456
0.84342802 0.86418504 0.52666682
0.88912171 0.85904884 0.47167706
0.03287955 0.08348288 0.4671298
0.06536601 0.08345944 0.46708289
0.09828851 0.08346599 0.47104236
0.19944893 0.07584103 0.52534413
0.39119697 0.05767227 0.51916546
0.55458558 0.04166481 0.50363195
0.67503744 0.02600742 0.46281296
0.73672432 0.02309031 0.41606757
0.77644473 0.0239262 0.36258945
0.03287955 0.11589643 0.4668662
0.06536601 0.11587244 0.46667182
0.09821875 0.11587954 0.470139
0.19818562 0.10844783 0.52439737
0.39057297 0.09025564 0.51871091
0.55395573 0.07424763 0.50317305
0.67445278 0.05859134 0.46230727
0.73668838 0.05557732 0.41548294
0.77637124 0.05641266 0.3620185
0.03287955 0.14863656 0.46540773
0.065366 0.14857823 0.46525195
0.09793967 0.14847644 0.46686772
0.18928099 0.14209989 0.51895416
0.38638267 0.12330271 0.51735866
0.55201 0.10705686 0.50200516
0.67341709 0.09137168 0.46132782
0.73637539 0.08816724 0.41434342
0.77622426 0.08895404 0.36119696
0.03003998 0.23180217 0.50257152
0.06265823 0.23014273 0.50134605
0.09555838 0.22510986 0.49830818
0.16317727 0.20969324 0.53255999
0.3794108 0.17143308 0.53142804
0.55081868 0.14693569 0.50472963
0.67309332 0.12538448 0.46131399
0.73622024 0.12074461 0.41391349
0.7761786 0.12145906 0.36154535
-0.00174999 0.44902733 0.55068678
0.03079249 0.44805944 0.55042005
0.06358649 0.44519138 0.54987258
0.11463865 0.43764117 0.55337363
0.37075719 0.401586 0.57344735
0.56594664 0.34650573 0.53201908
0.68612266 0.26750544 0.4731544
0.74671125 0.16864769 0.41715693
0.7771259 0.1543984 0.36331439
0.02553394 0.60177493 0.54403353
0.05775366 0.60146075 0.54374278
0.08959034 0.60036415 0.54318935
0.13028729 0.59791285 0.54315484
0.33688796 0.59267437 0.55781174
0.58312309 0.59045511 0.57593405
0.71306747 0.56311601 0.55125535
0.77018684 0.47120753 0.48945943
0.79963082 0.28836146 0.39127794
0.06803233 0.71246094 0.53829795
0.10042132 0.71233344 0.53802407
0.13261391 0.71189803 0.53745377
0.165654 0.71103644 0.53690034
0.27375135 0.70596516 0.53964961
0.54397112 0.71539819 0.56072462
0.74204469 0.73211402 0.61074775
0.82764661 0.70705634 0.5980702
0.85140139 0.64371318 0.53137833
0.08554245 0.77794379 0.53034049
0.11793201 0.7777968 0.53011072
0.1502215 0.7776199 0.52943546
0.18250988 0.77724653 0.52883464
0.23066489 0.77556455 0.52793342
0.46373385 0.77442962 0.53245819
0.70697653 0.80928117 0.59821522
0.84675747 0.82116926 0.63130111
0.88884306 0.80273771 0.59988326
0.09273452 0.82130969 0.54127949
0.12509204 0.82116336 0.54081523
0.15746905 0.8210538 0.54027039
0.18979342 0.82091296 0.53954661
0.2363984 0.81965852 0.53893477
0.44016197 0.81632924 0.54088247
0.68365479 0.84701377 0.5980854
0.82935822 0.87196165 0.64300448
0.88903069 0.8714481 0.63328236
0.03202356 0.08901106 0.57104504
0.06451002 0.0890045 0.57097155
0.09699647 0.08901106 0.57174402
0.15408695 0.08442541 0.63140208
0.36246261 0.05843874 0.66722018
0.53750747 0.0383381 0.64086455
0.66636902 0.02137129 0.62067026
0.74026215 0.01698379 0.59474558
0.77866781 0.01678887 0.57765359
0.03202356 0.12149096 0.57085776
0.06451002 0.12149752 0.57083434
0.09699647 0.12149096 0.57148254
0.15230761 0.11719549 0.62951243
0.36123165 0.09113155 0.66684943
0.53678566 0.07092147 0.64048672
0.66582131 0.05402813 0.62037951
0.74022615 0.04947024 0.59411258
0.77876472 0.04927533 0.5768702
0.03209049 0.15390395 0.56985354
0.06457694 0.15390395 0.56976324
0.09704596 0.15390395 0.57006925
0.14487933 0.15076894 0.62103933
0.35503599 0.12458456 0.6658802
0.53439081 0.10387163 0.6396203
0.66457671 0.08675954 0.61961335
0.73996758 0.08198669 0.59302795
0.77912498 0.08176179 0.57522953
0.03124921 0.19871396 0.58183801
0.06381404 0.19822168 0.58127767
0.09639686 0.19686235 0.57991189
0.13305047 0.1934496 0.61067039
0.33766785 0.16329533 0.67018914
0.52776521 0.13858148 0.63987845
0.66270846 0.11997559 0.61912113
0.73979437 0.11454063 0.59223723
0.77974313 0.11424825 0.57337511
0.00082977 0.41039747 0.66899198
0.03352258 0.40921554 0.66859901
0.06705996 0.40487054 0.66739255
0.10353696 0.39450684 0.66946119
0.30206931 0.35097048 0.71333343
0.53041226 0.28393385 0.67139816
0.67057556 0.21598791 0.63147402
0.74537289 0.15516864 0.59474826
0.78113151 0.14680193 0.5718382
0.00657379 0.5924527 0.65966797
0.03886588 0.59201449 0.65949702
0.07077003 0.59087652 0.65912312
0.10580935 0.58848947 0.65908688
0.28420475 0.58485729 0.67126215
0.54524601 0.57070392 0.69287133
0.68352973 0.52919602 0.6603995
0.7533499 0.42436126 0.61345255
0.78988588 0.25027749 0.57596302
0.07138113 0.71929747 0.66059029
0.10369721 0.7190302 0.66041994
0.1358718 0.71852136 0.66012549
0.16831031 0.71761572 0.65992749
0.2616086 0.71580553 0.66550112
0.537691 0.7210924 0.69652164
0.72351354 0.72742051 0.71722138
0.80954891 0.709176 0.70061499
0.82856643 0.64038169 0.65318674
0.10022872 0.79290748 0.6541779
0.1326417 0.79280454 0.65395743
0.16498122 0.79253411 0.65371305
0.19731966 0.79226571 0.65341866
0.24167414 0.79156089 0.65424287
0.47037631 0.79306877 0.67707509
0.70789403 0.81494641 0.71599287
0.83376175 0.82533038 0.74365008
0.88628411 0.81186402 0.73282087
0.10702271 0.83580989 0.65173072
0.13945425 0.83571297 0.65138996
0.17186069 0.83562696 0.65106404
0.20425515 0.83548599 0.65068471
0.24507055 0.83510613 0.65107989
0.44392377 0.83479166 0.66904771
0.68821847 0.85710973 0.70965886
0.82096738 0.87739903 0.74588269
0.88834876 0.87930769 0.75151682
0.03128777 0.09038045 0.63906717
0.06377422 0.09038045 0.63899368
0.09624325 0.09039789 0.63925159
0.13037646 0.08908762 0.67638141
0.32124293 0.06212052 0.76011276
0.51310343 0.03726534 0.73266953
0.65337723 0.02012975 0.71822208
0.73723477 0.01587355 0.70557475
0.77617657 0.01530253 0.69904417
0.03128777 0.1228669 0.63887334
0.06377422 0.1228669 0.63886076
0.09626068 0.12288434 0.6390664
0.13023527 0.12171786 0.67452168
0.31869045 0.09504464 0.75989455
0.51201081 0.06991018 0.73275453
0.65270174 0.05278059 0.71812516
0.73710191 0.04836 0.70529491
0.77626747 0.04778899 0.69863635
0.03128777 0.15535337 0.63841939
0.06377422 0.15535337 0.63837594
0.09626068 0.15535337 0.6385029
0.12990561 0.15467086 0.66656357
0.30969819 0.12907231 0.75870711
0.50828725 0.10303128 0.73293835
0.6512813 0.08556148 0.71756345
0.73659194 0.08087645 0.70484096
0.77630496 0.08034891 0.69785708
0.03102528 0.19144998 0.64246428
0.06353573 0.19120982 0.64211577
0.09609456 0.1907492 0.64145762
0.1291787 0.18964915 0.65517741
0.28690353 0.16590329 0.75532866
0.49908835 0.13724315 0.73414302
0.64803964 0.11855963 0.7166912
0.7361815 0.11341894 0.70443612
0.77635992 0.11283538 0.69739604
0.01029021 0.35683885 0.73633623
0.04297049 0.35565859 0.73588651
0.07623797 0.35139722 0.73390251
0.11028167 0.34281057 0.73384959
0.23908807 0.3064118 0.79847616
0.49507183 0.23137175 0.77963734
0.65089035 0.17452739 0.7304616
0.73789579 0.14987768 0.70752484
0.77638435 0.14544329 0.69730729
-0.00753907 0.56999266 0.73842907
0.02485103 0.56956702 0.73835564
0.05709584 0.56841701 0.7383436
0.08952726 0.5658716 0.73868376
0.2242143 0.56167036 0.75076073
0.50274998 0.54315269 0.77989256
0.6561982 0.48137829 0.74288964
0.74092728 0.37101883 0.71736836
0.7815966 0.22469041 0.70243186
0.05555419 0.70823163 0.73996794
0.08787027 0.70798773 0.73993194
0.11987992 0.70742494 0.73979098
0.15165263 0.70624346 0.73964894
0.22655296 0.70464718 0.74328172
0.50533026 0.7110489 0.76947665
0.69955879 0.71409351 0.79152948
0.78729481 0.69048476 0.77516341
0.80887896 0.60843754 0.73540539
0.10145085 0.79819101 0.74339175
0.13386384 0.79811752 0.74331832
0.16624685 0.79794061 0.74323231
0.1985178 0.7976402 0.74329323
0.23836415 0.79716235 0.74414343
0.44955283 0.80151963 0.76673222
0.70374346 0.81687951 0.80424267
0.82306653 0.82353604 0.81883037
0.88071769 0.8146919 0.807863
0.11307716 0.84575737 0.73840052
0.14549614 0.84575737 0.73832703
0.1779826 0.84574485 0.73830193
0.21045052 0.84572625 0.73830193
0.24694526 0.84568918 0.7388109
0.43031219 0.84894329 0.75818241
0.68880951 0.86606085 0.79987985
0.82175446 0.88061768 0.82291669
0.88667631 0.88342756 0.83116794
0.03098734 0.09020367 0.68237609
0.0634738 0.09020367 0.68237603
0.09596025 0.09020367 0.68242836
0.12922537 0.08975209 0.70102936
0.28597236 0.06630589 0.80741978
0.49248636 0.03804446 0.78758734
0.63850474 0.02087628 0.77098787
0.73366845 0.01545127 0.77097517
0.7686404 0.0153562 0.76968282
0.03098734 0.12269013 0.68235749
0.0634738 0.12269013 0.68237603
0.09596025 0.12269013 0.68239349
0.1291272 0.12231485 0.69866186
0.2817781 0.09949674 0.80673277
0.49032804 0.07087167 0.7881279
0.63753796 0.05352112 0.77104932
0.73361397 0.04796117 0.77098608
0.76894403 0.04784266 0.76966429
0.03098734 0.15517659 0.68228406
0.0634738 0.15517659 0.68228406
0.09596025 0.15517659 0.68231893
0.12879577 0.15501092 0.69533759
0.26935324 0.13409418 0.8039276
0.48446143 0.10426322 0.78960311
0.63507801 0.086338 0.77111191
0.73312896 0.08049766 0.77098048
0.76977217 0.08027419 0.76950032
0.03085665 0.18940596 0.684641
0.06335455 0.18926328 0.68447548
0.09589594 0.1889573 0.6840297
0.12828124 0.18850921 0.69123232
0.24657483 0.17099138 0.79593408
0.4732289 0.13879666 0.7927984
0.63006955 0.1194651 0.77109122
0.73262632 0.11300811 0.77066296
0.77148956 0.11263227 0.76899797
0.01397913 0.33290872 0.77914393
0.04668884 0.33143952 0.77853978
0.07986376 0.32762724 0.77693665
0.11374073 0.32019162 0.77682871
0.20874117 0.28875872 0.83912885
0.46604076 0.21966641 0.84168708
0.63084441 0.16986129 0.78679204
0.73175359 0.14948331 0.77316552
0.77309823 0.14511177 0.76827604
-0.01194433 0.55742627 0.79162163
0.02054212 0.5569337 0.79162163
0.05292078 0.55581254 0.79167813
0.08532029 0.55312228 0.79211199
0.18379284 0.54711026 0.80198252
0.47312036 0.52989465 0.83717793
0.63914889 0.4598819 0.80221808
0.73208481 0.35705683 0.77759027
0.77913326 0.22114731 0.77229166
0.0410306 0.69607866 0.78906971
0.07332324 0.69586635 0.78904629
0.10523394 0.6951865 0.78890532
0.13682307 0.69398701 0.7887758
0.19738881 0.69218844 0.79104847
0.47645742 0.70058578 0.81595266
0.68246871 0.70441484 0.83961332
0.77453876 0.67516583 0.82298988
0.79828209 0.58899641 0.79012305
0.09478001 0.79327983 0.79673898
0.12715702 0.79310942 0.79666555
0.159484 0.79286391 0.79659206
0.19160256 0.7923997 0.79650605
0.23162162 0.79169327 0.79722136
0.44365194 0.79651874 0.81855834
0.69190294 0.81157166 0.85057294
0.81374717 0.81942379 0.86740828
0.867109 0.81116432 0.86200035
0.1138181 0.84977007 0.79797274
0.14630456 0.84977007 0.79797274
0.17879102 0.84975153 0.79808259
0.21118549 0.84967804 0.79808259
0.2461727 0.84956753 0.79849571
0.41090545 0.85327572 0.81540442
0.68404484 0.86885422 0.85408819
0.8192116 0.88003153 0.87540227
0.8823328 0.88255244 0.88089693
