site/assets/luts/freshluts--0000676-canon-footages-color-correction.cube
# LUTr-Schema-Version: 2
# LUTr-ID: freshluts--0000676-canon-footages-color-correction
# LUTr-Title: Canon-footages ,COLOR-Correction
# LUTr-Collection: Fresh LUTs
# LUTr-Collection-ID: freshluts-community
# LUTr-Source: https://freshluts.com
# LUTr-Retrieved: 2026-07-27
# LUTr-Source-File: submissions-raw/freshluts/cubes/676__canon-correction_16.00052.cube
# LUTr-Source-Format: CUBE
# LUTr-Source-SHA256: 072aec2eaf16c8efcf3b9e260831269558613cd630089531b277d90e2f44d570
# LUTr-License: CC0-1.0
# LUTr-License-URL: https://freshluts.com/termsandconditions
# LUTr-License-Basis: site-terms
# LUTr-Transform-Class: creative-look
# LUTr-Tags: creative, freshluts, community, cube, rec709, correction
# LUTr-Input-Color-Space: rec709
# LUTr-Input-Gamut: rec709
# LUTr-Input-Transfer: rec709
# LUTr-Output-Color-Space: srgb
# LUTr-Output-Gamut: rec709
# LUTr-Output-Transfer: srgb
# LUTr-Color-Space-Confidence: declared-by-source
# LUTr-Domain-Normalized: true
# LUTr-Shaper: none
# LUTr-Original-Grid: 33x33x33
# LUTr-Conversion-Grid: 33x33x33
# LUTr-Conversion-Interpolation: none
# LUTr-Conversion-Method: Metadata normalization; numeric LUT samples preserved
# LUTr-Conversion-Tool: LUTr scripts/convert-all-to-cube.mjs 2.0.0
# LUTr-Conversion-Date: 2026-07-28
# LUTr-Asset-URL: https://freshluts.com/luts/676
# LUTr-Author: lvannoeun@gmail.com
# LUTr-Author-URL: https://freshluts.com/users/57563
# LUTr-Attribution: lvannoeun@gmail.com via Fresh LUTs
# LUTr-Source-Labels: gamma=Rec 709; color=None; key=Neutral; style=Colorful
# LUTr-Note: Preserve this metadata and the upstream license notices when redistributing.
TITLE "Canon-footages ,COLOR-Correction"
LUT_3D_SIZE 9
DOMAIN_MIN 0 0 0
DOMAIN_MAX 1 1 1
0 0 0
0 0 0
0.0239109 0 0
0.218723 0 0
0.41062 0 0
0.596201 0 0
0.7664 0 0
0.986221 0 0
1 0 0
0 0 0
0 0 0
0.0478676 0 0
0.263005 0 0
0.549874 0 0
0.75555 0 0
0.928054 0.0240787 0
1 0.0585794 0
1 0.0948043 0
0 0.116777 0
0.00396735 0.16585 0
0.201144 0.189776 0
0.471305 0.185214 0
0.642527 0.217563 0
0.831006 0.239414 0
0.997726 0.261555 0
1 0.286381 0
1 0.311604 0
0 0.404837 0
0.0587472 0.422965 0
0.249958 0.441306 0
0.46215 0.449287 0
0.701167 0.441428 0
0.932036 0.430564 0
1 0.455299 0
1 0.486015 0
1 0.509346 0
0 0.643809 0
0.089601 0.650828 0
0.270314 0.659022 0
0.473915 0.658488 0
0.668864 0.65742 0
0.854765 0.655238 0
1 0.631128 0
1 0.628672 0.0311589
1 0.637064 0.0491798
0 0.846403 0
0.10161 0.84654 0
0.274388 0.847135 0
0.469627 0.838315 0
0.655879 0.828443 0
0.827588 0.819196 0
0.969146 0.815152 0
1 0.810468 0
1 0.791562 0
0 1 0
0.110002 1 0
0.273625 0.995972 0
0.460349 0.978714 0
0.638956 0.961059 0
0.803861 0.944778 0
0.939513 0.934432 0
1 0.929747 0
1 0.927153 0
0 1 0
0.113909 1 0
0.270542 1 0
0.451331 1 0
0.624994 1 0
0.786023 1 0
0.9187 1 0
1 1 0
1 1 0
0 1 0
0.109056 1 0
0.261677 1 0
0.439384 1 0
0.610803 1 0
0.770291 1 0
0.902037 1 0
1 1 0
1 1 0
0 0 0
0 0 0
0.0203555 0 0
0.216373 0 0
0.410101 0 0
0.598993 0 0
0.779171 0 0
1 0 0
1 0 0.0431525
0 0 0
0 0 0
0.0389105 0 0
0.310719 0 0
0.558679 0 0
0.761273 0.00234989 0.0160983
0.933471 0.0302739 0.0445869
1 0.0645609 0.0793164
1 0.0999161 0.115084
0 0.143725 0
0.0107881 0.173449 0.0176394
0.206622 0.196094 0.0409247
0.426795 0.210788 0.0577249
0.637858 0.227207 0.073518
0.834913 0.244099 0.0910506
1 0.264866 0.112367
1 0.288472 0.1364
1 0.31313 0.161425
0 0.410941 0.053254
0.0633555 0.428351 0.0713359
0.253346 0.445518 0.089128
0.464073 0.452049 0.0964065
0.716365 0.437201 0.147173
0.871427 0.455695 0.130343
1 0.475578 0.122316
1 0.492378 0.139071
1 0.509667 0.156725
0 0.646052 0.0924849
0.0905165 0.652522 0.0996414
0.270512 0.66006 0.107805
0.473365 0.658778 0.107271
0.667491 0.65687 0.106096
0.871717 0.646784 0.12166
1 0.628107 0.182345
1 0.637156 0.194324
1 0.656413 0.177386
0 0.846387 0.110277
0.0999313 0.845655 0.110262
0.271778 0.845365 0.110597
0.466056 0.835599 0.101595
0.651392 0.824796 0.0915236
0.822278 0.814725 0.0821241
0.963455 0.809796 0.0780194
1 0.795209 0.105348
1 0.775982 0.155352
0 1 0.125795
0.105196 1 0.116823
0.267979 0.991211 0.108492
0.453971 0.97322 0.0912795
0.631937 0.954925 0.0737316
0.796292 0.938048 0.0575418
0.931548 0.92723 0.047303
1 0.922179 0.04271
1 0.917952 0.0424506
0 1 0.135927
0.106691 1 0.119753
0.262776 1 0.105058
0.443091 1 0.0822766
0.616449 1 0.0600137
0.777234 1 0.0400092
0.909743 1 0.0266728
1 1 0.0196841
1 1 0.0155032
0 1 0.135531
0.10045 1 0.114977
0.252781 1 0.0968795
0.430274 1 0.0713817
0.601587 1 0.0469825
0.761028 1 0.025391
0.89279 1 0.010956
0.998718 1 0.00335698
1 1 0
0 0 0.0400092
0 0 0.031632
0.0178836 0 0.0282444
0.215274 0 0.022034
0.4112 0 0.0230259
0.604456 0 0.0372778
0.814282 0 0.103746
1 0 0.188403
1 0 0.228992
0 0 0.0312352
0 0 0.0372625
0.047715 0 0.0597543
0.341985 0 0.1505
0.566247 0 0.179736
0.767498 0.00933852 0.201724
0.93959 0.0371252 0.230076
1 0.0709697 0.264393
1 0.105287 0.299153
0 0.157275 0.17937
0.0175174 0.180941 0.203754
0.212711 0.202991 0.226459
0.431907 0.217945 0.242191
0.643137 0.23331 0.25832
0.839048 0.249012 0.274693
1 0.268315 0.29456
1 0.291051 0.317754
1 0.315068 0.342184
0 0.417533 0.238529
0.0682841 0.434028 0.255741
0.256931 0.449912 0.272282
0.466194 0.454978 0.278126
0.672587 0.456931 0.289921
0.852918 0.465293 0.289876
1 0.476631 0.301762
1 0.49247 0.318059
1 0.508858 0.334859
0 0.648768 0.273991
0.0918746 0.654643 0.280583
0.271138 0.661494 0.28809
0.473182 0.659419 0.286793
0.666468 0.656657 0.284794
0.89395 0.636072 0.323507
1 0.639979 0.331716
1 0.660243 0.30518
1 0.67158 0.302708
0 0.846708 0.289479
0.0986191 0.845106 0.288609
0.269474 0.8439 0.288075
0.462806 0.833173 0.278141
0.647257 0.821469 0.267201
0.817365 0.81059 0.257023
0.963897 0.802777 0.255695
1 0.779171 0.304875
1 0.7729 0.329335
0 1 0.301976
0.100771 0.996567 0.29218
0.262745 0.986801 0.283101
0.44802 0.968124 0.265217
0.62536 0.949172 0.247059
0.789212 0.931762 0.230365
0.924056 0.920501 0.219715
1 0.915099 0.214786
1 0.906035 0.222202
0 1 0.309621
0.0999161 1 0.292866
0.255467 1 0.277714
0.435386 1 0.254566
0.608438 1 0.232013
0.769009 1 0.21178
0.901366 1 0.198276
1 1 0.19118
1 1 0.186938
0 1 0.307683
0.0923629 1 0.286885
0.244434 1 0.268589
0.421759 1 0.242954
0.592981 1 0.218479
0.752377 1 0.196841
0.884169 1 0.182406
0.990127 1 0.174853
1 1 0.16965
0 0 0.242878
0 0 0.235309
0.013489 0 0.233036
0.212467 0 0.228428
0.411063 0 0.232059
0.61059 0 0.252567
0.856748 0 0.355291
1 0 0.402914
1 0 0.442008
0 0 0.238437
0 0 0.247898
0.0603952 0 0.281621
0.352941 0 0.370626
0.570626 0 0.393301
0.771267 0.0140078 0.414633
0.943313 0.0416876 0.442908
1 0.0748302 0.476524
1 0.108003 0.510109
0 0.164828 0.395193
0.0215763 0.185855 0.416938
0.216419 0.207614 0.439368
0.435386 0.222339 0.454871
0.645716 0.236805 0.470085
0.840375 0.251209 0.485176
1 0.269032 0.503563
1 0.291188 0.526192
1 0.314549 0.549966
0 0.421637 0.450935
0.0704662 0.437064 0.467063
0.257679 0.45156 0.482216
0.465797 0.455512 0.486946
0.665583 0.459327 0.491508
0.851286 0.464515 0.497398
1 0.475059 0.508476
1 0.490043 0.523934
1 0.505531 0.539818
0 0.649073 0.482582
0.0906996 0.654307 0.488533
0.269169 0.660441 0.495323
0.47039 0.657557 0.493217
0.662837 0.653925 0.490349
0.846647 0.648508 0.494667
0.987869 0.652766 0.490455
1 0.658778 0.496925
1 0.665476 0.504021
0 0.844511 0.495567
0.094667 0.842023 0.493812
0.264561 0.839902 0.492348
0.456916 0.828229 0.481468
0.640513 0.815656 0.469657
0.809873 0.803998 0.458701
0.984695 0.784558 0.479561
1 0.776669 0.501305
1 0.787289 0.477485
0 1 0.504952
0.0937667 0.990448 0.494316
0.254948 0.97995 0.48452
0.439536 0.960586 0.46595
0.616266 0.941024 0.447181
0.77966 0.923125 0.429984
0.914153 0.911452 0.418921
1 0.905211 0.414466
1 0.883879 0.447898
0 1 0.510079
0.0906691 1 0.49276
0.245716 1 0.477165
0.425269 1 0.453666
0.598032 1 0.430823
0.758404 1 0.410361
0.890639 1 0.396674
0.99675 0.996414 0.389456
1 0.991684 0.385153
0 1 0.506645
0.0819104 1 0.485573
0.233738 1 0.467109
0.41091 1 0.441321
0.58204 1 0.416739
0.741421 1 0.395056
0.873259 1 0.380606
0.978759 1 0.37258
1 1 0.367651
0 0 0.43714
0 0 0.430457
0.0103456 0 0.429404
0.21117 0 0.426642
0.413138 0 0.433677
0.62327 0 0.464714
0.869154 0 0.567102
1 0 0.607584
1 0 0.645975
0 0 0.437659
0 0 0.451759
0.112413 0 0.53315
0.360525 0 0.577752
0.575402 0 0.597589
0.775753 0.0193637 0.618585
0.947631 0.0468147 0.646616
1 0.0790723 0.679332
1 0.110964 0.711635
0 0.17145 0.600443
0.026215 0.191318 0.621027
0.220905 0.212985 0.643351
0.439353 0.227207 0.658335
0.648661 0.24062 0.672496
0.841978 0.253635 0.686198
1 0.270283 0.703395
1 0.291844 0.725414
1 0.314519 0.748486
0 0.426139 0.654047
0.0729534 0.440375 0.668971
0.258656 0.453407 0.682673
0.46598 0.45658 0.686595
0.665141 0.45977 0.690517
0.850141 0.46421 0.695659
1 0.47393 0.705928
1 0.488045 0.7205
1 0.502617 0.735454
0 0.649912 0.682002
0.0900282 0.654459 0.687266
0.267704 0.659846 0.693294
0.468086 0.656138 0.690364
0.659648 0.651621 0.68658
0.836545 0.647715 0.683375
0.982879 0.648569 0.684779
1 0.653696 0.690364
1 0.659617 0.696681
0 0.842756 0.692363
0.0911727 0.839368 0.689677
0.26006 0.836286 0.687266
0.451484 0.823697 0.675471
0.634272 0.8103 0.662821
0.80293 0.797879 0.651102
0.952834 0.78645 0.656474
1 0.789014 0.64329
1 0.788708 0.643381
0 0.996963 0.698604
0.0872511 0.984787 0.68716
0.247669 0.973587 0.676631
0.431601 0.953582 0.65742
0.607767 0.93344 0.638056
0.770748 0.915068 0.620401
0.904921 0.903029 0.608957
1 0.888975 0.618692
1 0.87628 0.642161
0 1 0.701289
0.0820172 1 0.683421
0.236606 1 0.667445
0.415808 1 0.64358
0.588327 1 0.620462
0.748516 1 0.599786
0.880659 0.99498 0.585946
0.986694 0.987167 0.578622
1 0.981857 0.575067
0 1 0.696452
0.0721447 1 0.67512
0.223743 1 0.656489
0.400778 1 0.630564
0.571847 1 0.605905
0.731243 1 0.584161
0.863127 1 0.569711
0.968505 1 0.561502
1 1 0.556497
0 0 0.614603
0 0 0.608881
0.00920119 0 0.609232
0.212222 0 0.608682
0.418738 0 0.620188
0.673442 0 0.695735
0.878538 0 0.757259
1 0 0.794675
1 0 0.832731
0 0 0.620935
0 0 0.641855
0.138003 0 0.739635
0.367834 0 0.765927
0.581476 0.00595102 0.784482
0.781735 0.0261234 0.805341
0.95317 0.0530861 0.832853
1 0.0843061 0.864515
1 0.114824 0.895445
0 0.17879 0.787823
0.0322271 0.198093 0.807813
0.226764 0.219669 0.83003
0.444495 0.233158 0.844266
0.652613 0.24538 0.857221
0.844511 0.256931 0.869429
1 0.27274 0.885786
1 0.293675 0.907134
1 0.315618 0.929458
0 0.431678 0.839551
0.0764324 0.444602 0.853162
0.26067 0.45623 0.865415
0.467414 0.458839 0.868772
0.665934 0.461357 0.872007
0.850202 0.465034 0.876356
1 0.473915 0.885771
1 0.487144 0.899413
1 0.500786 0.913451
0 0.651926 0.863905
0.0905776 0.655772 0.868452
0.267414 0.66038 0.873686
0.466941 0.655818 0.869886
0.657618 0.650401 0.865187
0.833616 0.645548 0.86099
0.979049 0.645457 0.861448
1 0.649744 0.866163
1 0.654917 0.871702
0 0.8421 0.871504
0.0888228 0.837781 0.867887
0.256718 0.833768 0.86453
0.447242 0.820294 0.85182
0.629236 0.806088 0.838331
0.797208 0.792935 0.825864
0.93547 0.785321 0.818784
1 0.782834 0.816739
1 0.782071 0.816373
0 0.99324 0.874571
0.0819562 0.980301 0.862333
0.241657 0.968414 0.851133
0.424933 0.947768 0.83125
0.60058 0.927108 0.811337
0.76318 0.908309 0.79324
0.897047 0.895918 0.781415
1 0.88571 0.785763
1 0.885817 0.772183
0 1 0.874876
0.0746929 1 0.856519
0.228855 1 0.840116
0.407752 1 0.815961
0.580011 1 0.792554
0.740063 1 0.771664
0.872129 0.987198 0.757656
0.978103 0.979309 0.750225
1 0.966415 0.761837
0 1 0.868696
0.0638132 1 0.847105
0.215213 1 0.82829
0.392126 1 0.802258
0.563149 1 0.777523
0.72256 1 0.755734
0.854459 1 0.741222
0.959716 1 0.73283
1 1 0.727733
0 0 0.757336
0 0 0.752697
0.0116732 0 0.75465
0.217441 0 0.756802
0.430533 0 0.774868
0.70573 0 0.870832
0.889021 0 0.910475
1 0 0.946502
1 0 0.984405
0 0 0.770703
0 0 0.803861
0.153429 0 0.897917
0.377356 0 0.918288
0.590417 0.01561 0.936217
0.790616 0.0356756 0.956939
0.961395 0.0619059 0.983703
1 0.0919509 1
1 0.121019 1
0 0.188663 0.939818
0.0411994 0.207691 0.959503
0.235431 0.229007 0.981445
0.452232 0.241596 0.994751
0.659068 0.252522 1
0.849546 0.262623 1
1 0.277867 1
1 0.298116 1
1 0.31931 1
0 0.439658 0.989563
0.0823835 0.451164 1
0.265476 0.461723 1
0.471641 0.463737 1
0.669459 0.465553 1
0.852979 0.468437 1
1 0.476463 1
1 0.488777 1
1 0.501488 1
0 0.65655 1
0.093843 0.659678 1
0.269856 0.663478 1
0.468482 0.658061 1
0.658259 0.651713 1
0.833326 0.645884 1
0.97792 0.644892 1
1 0.648386 1
1 0.652827 1
0 0.843992 1
0.089128 0.838727 1
0.256046 0.833783 1
0.445686 0.819455 0.992737
0.626932 0.804486 0.978469
0.794232 0.790631 0.965255
0.931914 0.782345 0.957504
1 0.779324 0.95491
1 0.778149 0.954086
0 0.992096 1
0.0794232 0.978408 1
0.238392 0.965866 0.99025
0.421057 0.944625 0.969757
0.596246 0.923476 0.949325
0.758465 0.90428 0.930816
0.892073 0.891554 0.918639
0.999191 0.884993 0.912505
1 0.881025 0.908904
0 1 1
0.070222 1 0.994308
0.224002 1 0.977554
0.402579 1 0.953079
0.574639 1 0.929427
0.734554 0.996963 0.908339
0.866545 0.982269 0.894194
0.972503 0.974289 0.886671
1 0.967666 0.886992
0 1 1
0.0584115 1 0.983902
0.209628 1 0.96492
0.386435 1 0.938781
0.557427 1 0.913954
0.716869 1 0.892134
0.848371 1 0.877134
0.953902 1 0.868955
1 1 0.863752
0 0 0.871717
0 0 0.868299
0.0173495 0 0.87216
0.226596 0 0.877791
0.451194 0 0.907301
0.724163 0 1
0.901122 0 1
1 0 1
1 0 1
0 0 0.894057
0 0 0.977081
0.167636 0 1
0.388983 0.0106203 1
0.601785 0.0275425 1
0.801755 0.047364 1
0.971679 0.072694 1
1 0.101442 1
1 0.129046 1
0 0.200687 1
0.0526131 0.219623 1
0.246281 0.240436 1
0.461997 0.251942 1
0.66746 0.261479 1
0.85684 0.270436 1
1 0.285084 1
1 0.304631 1
1 0.325048 1
0 0.4495 1
0.0902419 0.459525 1
0.272541 0.469337 1
0.47805 0.470726 1
0.675151 0.471809 1
0.857893 0.473884 1
1 0.481025 1
1 0.492424 1
1 0.504158 1
0 0.663279 1
0.0992905 0.665629 1
0.274403 0.668605 1
0.472145 0.662303 1
0.661006 0.655024 1
0.835157 0.648234 1
0.978927 0.646372 1
1 0.649088 1
1 0.652827 1
0 0.847868 1
0.0915389 0.841672 1
0.257496 0.835813 1
0.446311 0.820661 1
0.62681 0.804944 1
0.793469 0.790402 1
0.930587 0.781506 1
1 0.777996 1
1 0.77641 1
0 0.993011 1
0.0790723 0.978607 1
0.237339 0.965408 1
0.419425 0.943603 1
0.594171 0.921996 1
0.756069 0.902434 1
0.889433 0.889418 1
0.996353 0.882628 1
1 0.878492 1
0 1 1
0.0680552 1 1
0.221439 1 1
0.399741 1 1
0.571618 1 1
0.731426 0.994415 1
0.863371 0.979599 1
0.969314 0.971588 0.99472
1 0.966735 0.990265
0 1 1
0.055375 1 1
0.206424 1 1
0.383154 1 1
0.554131 1 1
0.713603 1 1
0.844984 1 0.985016
0.950469 1 0.976745
1 1 0.97145
0 0 0.975998
0 0 0.973999
0.0248722 0 0.980133
0.238834 0 0.990463
0.511864 0 1
0.739513 0 1
0.913756 0 1
1 0 1
1 0 1
0 0 1
0 0 1
0.18114 0.00759899 1
0.401328 0.0235294 1
0.614023 0.0403449 1
0.813535 0.0596475 1
0.982437 0.0839094 1
1 0.111254 1
1 0.137713 1
0 0.213489 1
0.0648051 0.232303 1
0.257694 0.252369 1
0.47219 0.262684 1
0.676204 0.270741 1
0.864836 0.278904 1
1 0.292912 1
1 0.311727 1
1 0.331319 1
0 0.459693 1
0.0985733 0.468315 1
0.280278 0.477592 1
0.485115 0.478309 1
0.681453 0.47863 1
0.863401 0.479866 1
1 0.486091 1
1 0.496559 1
1 0.507347 1
0 0.670573 1
0.105318 0.672129 1
0.279545 0.674266 1
0.476371 0.667063 1
0.664286 0.658824 1
0.837537 0.651118 1
0.980529 0.648417 1
1 0.65037 1
1 0.653422 1
0 0.852277 1
0.0944839 0.845106 1
0.25951 0.838376 1
0.447532 0.822431 1
0.627329 0.805982 1
0.793362 0.790784 1
0.929931 0.781308 1
1 0.77734 1
1 0.775372 1
0 0.994507 1
0.0793317 0.979385 1
0.236942 0.965576 1
0.418494 0.943252 1
0.592844 0.921233 1
0.754437 0.90132 1
0.887572 0.888014 1
0.994324 0.88101 1
1 0.876738 1
0 1 1
0.0666209 1 1
0.219638 1 1
0.397696 1 1
0.569406 1 1
0.729122 0.992645 1
0.861036 0.977737 1
0.966964 0.96968 1
1 0.964858 1
0 1 1
0.0531472 1 1
0.204059 1 1
0.380713 1 1
0.551675 1 1
0.710842 1 1
0.842435 1 1
0.947875 1 1
1 1 1
