site/assets/luts/freshluts--0001252-san-lut.cube
# LUTr-Schema-Version: 2
# LUTr-ID: freshluts--0001252-san-lut
# LUTr-Title: SAN LUT
# LUTr-Collection: Fresh LUTs
# LUTr-Collection-ID: freshluts-community
# LUTr-Source: https://freshluts.com
# LUTr-Retrieved: 2026-07-27
# LUTr-Source-File: submissions-raw/freshluts/cubes/1252__SAN_LUT.cube
# LUTr-Source-Format: CUBE
# LUTr-Source-SHA256: 30ea07879c2820e8dfb9e4d3318a13a907e7d0941659207863793824442e79eb
# LUTr-License: CC0-1.0
# LUTr-License-URL: https://freshluts.com/termsandconditions
# LUTr-License-Basis: site-terms
# LUTr-Transform-Class: creative-look
# LUTr-Tags: creative, freshluts, community, cube, sony-s-log3
# LUTr-Input-Color-Space:
# LUTr-Input-Gamut: sony-s-gamut3
# LUTr-Input-Transfer: sony-s-log3
# LUTr-Output-Color-Space: srgb
# LUTr-Output-Gamut: rec709
# LUTr-Output-Transfer: srgb
# LUTr-Color-Space-Confidence: camera-profile-input-required
# LUTr-Domain-Normalized: true
# LUTr-Shaper: none
# LUTr-Original-Grid: 33x33x33
# LUTr-Conversion-Grid: 33x33x33
# LUTr-Conversion-Interpolation: none
# LUTr-Conversion-Method: Metadata normalization; numeric LUT samples preserved
# LUTr-Conversion-Tool: LUTr scripts/convert-all-to-cube.mjs 2.0.0
# LUTr-Conversion-Date: 2026-07-28
# LUTr-Asset-URL: https://freshluts.com/luts/1252
# LUTr-Author: Antony Eliezer
# LUTr-Author-URL: https://freshluts.com/users/32961
# LUTr-Attribution: Antony Eliezer via Fresh LUTs
# LUTr-Source-Labels: gamma=Sony S-Log 3; color=None; key=Neutral; style=Teal - Orange
# LUTr-Note: Preserve this metadata and the upstream license notices when redistributing.
# LUTr-Upstream-Comment: VEGAS Pro LUT
TITLE "SAN LUT"
LUT_3D_SIZE 9
DOMAIN_MIN 0 0 0
DOMAIN_MAX 1 1 1
0.09412502 0.07135916 0.06501074
0.11043032 0.0694951 0.06284005
0.22237241 0.06260681 0.05564015
0.45582592 0.0371149 0.02802914
0.70030934 0.01950359 0.00888604
0.86146283 0.01091505 -0.00019707
0.95860016 0.0057298 -0.00585986
0.97051799 0.00483468 -0.00722188
0.97948641 0.00412288 -0.00863182
0.09048926 0.08906927 0.06879356
0.10322887 0.08471864 0.0637891
0.17902802 0.07475591 0.05620713
0.3953816 0.05056094 0.03216396
0.65093988 0.02994103 0.00949318
0.83405352 0.02017923 -0.00120773
0.94212365 0.01468465 -0.00758805
0.96902859 0.01328554 -0.00996558
0.97811115 0.01275806 -0.01162542
0.07207531 0.15642704 0.10991877
0.08482902 0.14445418 0.09690644
0.14476153 0.1335316 0.06904529
0.36031172 0.11135911 0.04055793
0.62453824 0.08045346 0.01356875
0.81452334 0.0579256 -0.00070367
0.92928559 0.04537137 -0.00947748
0.96869928 0.04022827 -0.01309423
0.97785836 0.03751628 -0.0146162
0.03960276 0.29248655 0.23336324
0.05155818 0.27727377 0.20971869
0.0882798 0.26112241 0.15092507
0.28584638 0.24928008 0.06835104
0.57790321 0.23991013 0.02543733
0.78321409 0.20978115 0.00659626
0.91169143 0.18365741 -0.00510614
0.96976137 0.16927814 -0.01010474
0.978944 0.16092952 -0.01120433
0.04390231 0.47148624 0.39079785
0.05181739 0.46050748 0.37324026
0.06386183 0.456292 0.3524588
0.20072572 0.43638986 0.20471598
0.50546145 0.43150315 0.10786758
0.76937103 0.41502252 0.03439263
0.89957637 0.38496304 0.01717712
0.96913463 0.36297622 0.01032579
0.98178667 0.34824568 0.00867352
0.05686338 0.64164871 0.4985998
0.06520827 0.63554883 0.48550063
0.07475953 0.63832831 0.48163769
0.1327405 0.6369381 0.41265801
0.45574379 0.62092507 0.2508609
0.71600592 0.61377406 0.18718955
0.89555717 0.57369214 0.12709008
0.97297221 0.53928065 0.10685152
0.99149984 0.52471524 0.10223672
0.06393033 0.76690316 0.54719049
0.07280976 0.76281691 0.53928566
0.08202668 0.76179814 0.53763896
0.11811247 0.76547116 0.51458448
0.39666158 0.75588197 0.37661672
0.67454672 0.74899387 0.32479084
0.85902822 0.7335456 0.28384915
0.95399815 0.69501227 0.26487765
0.98932761 0.67539877 0.26310498
0.06581108 0.82116449 0.54570168
0.07506137 0.81937349 0.54682928
0.0845906 0.82034463 0.55468684
0.11273488 0.82992482 0.55720913
0.33926368 0.82969582 0.45079073
0.6469878 0.82596308 0.42286932
0.81962299 0.81891078 0.38704437
0.93601674 0.80854839 0.36731631
0.97277069 0.79353404 0.36952513
0.06649195 0.85130405 0.53897214
0.07587838 0.84924936 0.54543912
0.0855593 0.84929699 0.55416435
0.10906804 0.85959327 0.56068498
0.31467748 0.8605631 0.45641172
0.63172078 0.8581934 0.42753106
0.80127221 0.85243857 0.38776329
0.92411292 0.84752506 0.36303434
0.96921575 0.84079945 0.36171547
0.09306681 0.07422762 0.08585133
0.10878938 0.07043955 0.07637756
0.21174203 0.06327274 0.0658549
0.44276014 0.03770502 0.03828838
0.69060278 0.0195049 0.01846274
0.85632658 0.01067993 0.00907549
0.95576024 0.00542955 0.0032836
0.97048384 0.00444612 0.00174176
0.97947294 0.00377502 0.00027625
0.08906811 0.08784294 0.08366122
0.10262414 0.08299059 0.07440714
0.17088132 0.07358566 0.06526509
0.38336122 0.05134875 0.04257011
0.64171672 0.03000084 0.01902726
0.82930946 0.02000838 0.00798336
0.93927622 0.01447008 0.00146371
0.96903706 0.01297139 -0.00110557
0.97814196 0.01246961 -0.00278068
0.05571027 0.15770122 0.15249258
0.06946457 0.14588472 0.13801457
0.13788259 0.13096994 0.0885426
0.35081911 0.10871418 0.05302393
0.6163559 0.07819372 0.02294253
0.80991036 0.05673962 0.00835746
0.92686129 0.04436449 -0.00050529
0.96873391 0.03909475 -0.00422125
0.97791708 0.03634096 -0.00562021
0.03670681 0.28930193 0.28453252
0.04569233 0.27653572 0.26451957
0.067166 0.26871207 0.22301273
0.27936345 0.24578279 0.10212087
0.57138371 0.23599941 0.04022155
0.77933872 0.20772281 0.01562652
0.90950429 0.18125653 0.00392087
0.9697938 0.16614386 -0.00109017
0.97899401 0.15735126 -0.00199984
0.04507945 0.46623069 0.43904647
0.05309863 0.45606357 0.42186785
0.06412818 0.45333877 0.40453061
0.1702984 0.44225281 0.29261965
0.49984819 0.42725071 0.15910563
0.76713884 0.40980923 0.05737921
0.8982203 0.38013938 0.02990884
0.96965611 0.35725829 0.02178444
0.98228222 0.34218833 0.0197704
0.05805769 0.63845307 0.54892111
0.06643322 0.6326111 0.53640616
0.07586932 0.63517225 0.53342831
0.12361802 0.63727802 0.48279113
0.45216316 0.61568648 0.32063353
0.71400309 0.60911298 0.25088251
0.89780021 0.56793952 0.17950459
0.97741675 0.53359133 0.15410636
0.99628532 0.51937997 0.14974609
0.06497978 0.76498139 0.59917867
0.07385284 0.76074982 0.59268606
0.08307882 0.75910467 0.5920279
0.11631198 0.76357901 0.57580054
0.37143093 0.75605577 0.45942786
0.67636162 0.74468678 0.39921135
0.85910976 0.73020333 0.35693437
0.95559478 0.69333649 0.33517596
0.99101025 0.6749534 0.33255339
0.06681347 0.82032865 0.60060608
0.07613362 0.8183971 0.60283768
0.08580276 0.81895977 0.61046499
0.11236165 0.82892907 0.61599237
0.30880168 0.83248276 0.54052252
0.65972948 0.82314521 0.49664259
0.82251704 0.81712431 0.46366876
0.93635303 0.80780584 0.44317234
0.97269344 0.79400694 0.4446969
0.06728776 0.85059047 0.59670657
0.07679029 0.84840959 0.60296047
0.08652428 0.84833211 0.61110687
0.10897593 0.85906345 0.61847311
0.28985536 0.86279726 0.54030263
0.64843637 0.85559028 0.49961093
0.80647844 0.85083747 0.46303669
0.92549467 0.84651607 0.43826777
0.96972924 0.84041846 0.43684411
0.08824665 0.09565774 0.19496484
0.10168982 0.08891971 0.16140029
0.19486803 0.08095653 0.12363736
0.43180257 0.05084829 0.08274785
0.68192536 0.02825291 0.04320162
0.85061044 0.02038099 0.02028953
0.95229816 0.01335628 0.01256118
0.97055107 0.01006971 0.01059814
0.97953701 0.00708169 0.00902684
0.07480662 0.113797 0.1733586
0.08969357 0.10284141 0.14577276
0.15798581 0.08971258 0.10600375
0.37011281 0.0668746 0.070878
0.63306797 0.03773493 0.03592435
0.82362372 0.0256592 0.01834761
0.93639117 0.01793859 0.01048183
0.9690842 0.01407367 0.00766512
0.97818083 0.01218757 0.00607396
0.052278 0.15611526 0.19772676
0.06268515 0.14556874 0.18086426
0.12949513 0.1306334 0.12089147
0.33977902 0.10602273 0.07237568
0.60912216 0.07402305 0.03423686
0.80531108 0.05572868 0.0174084
0.92452198 0.04339828 0.0084751
0.96877712 0.03796135 0.00468977
0.97798371 0.03511709 0.00344263
0.03787245 0.2850315 0.33212528
0.04617221 0.27281249 0.31206912
0.06262159 0.26685241 0.27643803
0.27315518 0.24210733 0.15107641
0.56688243 0.22966351 0.06582229
0.77588212 0.20437135 0.02758512
0.90738225 0.1787546 0.01300258
0.96983206 0.16280809 0.00799725
0.97905648 0.15367348 0.00732081
0.04639372 0.46174201 0.4875814
0.05447574 0.45212016 0.47055438
0.06530087 0.44984823 0.45443401
0.14468676 0.44676995 0.37271845
0.49417245 0.42257583 0.21851447
0.76659101 0.40309268 0.09343757
0.89848357 0.37336674 0.05193792
0.97103631 0.35038456 0.03837555
0.98357433 0.33516073 0.03512871
0.05926121 0.63536918 0.59902656
0.06768978 0.6296407 0.58706397
0.07709071 0.63174927 0.58460099
0.12107526 0.63410807 0.54042387
0.44225436 0.61234295 0.39297029
0.71177959 0.60405397 0.32131058
0.89965504 0.56256348 0.24109152
0.98149693 0.52946001 0.2131491
1.0005865 0.51561862 0.20793228
0.06617187 0.76274937 0.65022206
0.07508318 0.75804365 0.64478099
0.08433035 0.75593984 0.6452046
0.11630343 0.76026124 0.63112748
0.33037651 0.75884283 0.55392802
0.68178409 0.73979843 0.47188282
0.85866827 0.72705001 0.4312571
0.95568645 0.69297457 0.40762386
0.99082518 0.6764434 0.40453279
0.06804124 0.81906205 0.65402389
0.07740392 0.81702894 0.65741551
0.08709541 0.81736982 0.66539097
0.11271432 0.82745111 0.6714468
0.2775068 0.8351891 0.62645525
0.66936034 0.82115567 0.56077933
0.82685637 0.81532609 0.53411591
0.93638909 0.80725646 0.51524276
0.97202164 0.79515713 0.5159241
0.06855431 0.84918374 0.65096033
0.07807827 0.84701014 0.65713698
0.08781675 0.84687841 0.66470963
0.10965361 0.85783267 0.67198229
0.26471737 0.86501545 0.62053233
0.65715438 0.85405421 0.56029564
0.81371862 0.84902894 0.53377277
0.9268406 0.84539759 0.51099098
0.96977079 0.84023756 0.5095095
0.07963386 0.15756987 0.39044487
0.09656548 0.13524197 0.34425962
0.17110747 0.12494688 0.28223458
0.40951961 0.10769087 0.22189438
0.67492485 0.06405789 0.13835013
0.84191608 0.04150751 0.07100157
0.94567764 0.03403868 0.03452855
0.97047573 0.0273562 0.0296367
0.9793579 0.02266013 0.02497667
0.06646606 0.18032493 0.36071262
0.0809142 0.16128768 0.32551739
0.13184941 0.14785939 0.26220587
0.34889144 0.12606871 0.1894431
0.63048941 0.07965876 0.10367977
0.81679749 0.05354173 0.04382703
0.93147945 0.04329699 0.02504886
0.96915096 0.03569856 0.0185162
0.97819823 0.02706739 0.0159649
0.04884347 0.21290469 0.34764889
0.05887973 0.19773559 0.32243785
0.08292878 0.18868929 0.27307573
0.31988114 0.14992784 0.15860374
0.60479158 0.10102657 0.07227754
0.80049622 0.07684806 0.03327809
0.9220013 0.05541046 0.01836271
0.96906722 0.04445616 0.01392852
0.97826999 0.03895228 0.01270288
0.03966777 0.28347597 0.38298154
0.04794069 0.272154 0.36326745
0.0629703 0.26543668 0.32834834
0.26817718 0.23936044 0.19922425
0.55896795 0.22311196 0.1075995
0.77389914 0.19859318 0.04549349
0.9065209 0.1747347 0.02468782
0.97022384 0.15912844 0.01784849
0.97943741 0.14974 0.01720916
0.04799388 0.4604657 0.5395273
0.05610097 0.45109636 0.52238834
0.06671085 0.44852179 0.50662255
0.13372178 0.44647276 0.43592167
0.48940024 0.41805133 0.28096944
0.76142806 0.3996833 0.14907511
0.90022326 0.36644393 0.08602954
0.97433013 0.34246552 0.06258008
0.98639685 0.32731512 0.05744704
0.06053127 0.63323933 0.64982283
0.06899946 0.62740886 0.63837171
0.07837795 0.62887412 0.63635546
0.12029612 0.63048083 0.59541547
0.40412408 0.61640018 0.47980335
0.70986271 0.59928948 0.39253193
0.89901829 0.55987966 0.31177321
0.98176897 0.53316802 0.28789413
1.0021434 0.52038592 0.28399348
0.06736141 0.7608282 0.70173973
0.07630974 0.75561327 0.69737196
0.08557913 0.75311059 0.69890583
0.11624402 0.75733715 0.6865865
0.29981819 0.76002187 0.63679105
0.68561316 0.73666024 0.53485727
0.85829872 0.72512442 0.50113124
0.95619309 0.69358909 0.47727898
0.99117649 0.67939526 0.47308671
0.06928264 0.81769377 0.70742375
0.07867211 0.81549281 0.71177351
0.08836854 0.81573433 0.72005093
0.1128379 0.82599175 0.72664654
0.26036406 0.83553821 0.69552857
0.65904713 0.82216299 0.6195488
0.83140212 0.81421316 0.59427708
0.93679905 0.80681336 0.57936472
0.97172421 0.79696363 0.5793469
0.06981622 0.84774387 0.70503116
0.07934988 0.84562695 0.71116698
0.08907029 0.84549928 0.71799427
0.11022739 0.85664713 0.72504854
0.24766587 0.86580634 0.6891371
0.64754188 0.85495681 0.61516398
0.82088542 0.84790987 0.5944913
0.92903209 0.84454829 0.57660007
0.97000921 0.84038574 0.57559025
0.06604395 0.27847514 0.62322074
0.07637415 0.25482622 0.59192985
0.13112764 0.24266732 0.53672183
0.38275936 0.21729122 0.42906582
0.66175199 0.20068651 0.34655422
0.84760505 0.14511381 0.22983178
0.95323247 0.11080816 0.13591979
0.98027581 0.08893003 0.1043883
0.9853276 0.06888725 0.0818826
0.05738773 0.30180159 0.59732294
0.06697345 0.27585039 0.56290418
0.09342845 0.25823814 0.50675243
0.32097054 0.22854301 0.38794139
0.61055684 0.21348475 0.29723507
0.81770402 0.15277486 0.17079416
0.93231177 0.12100916 0.08525158
0.97432274 0.1013565 0.05757063
0.981574 0.08361779 0.04676344
0.04972427 0.33739138 0.58394253
0.05865545 0.31602085 0.55446845
0.07638925 0.3000845 0.50549406
0.26477718 0.26081207 0.37143725
0.58253717 0.22735178 0.24064946
0.79704845 0.16789988 0.11207578
0.91793293 0.14291963 0.05447759
0.97190547 0.124917 0.03820441
0.98040432 0.11510691 0.03377679
0.0451552 0.34827372 0.52917486
0.05263669 0.32533282 0.49431682
0.0657943 0.308139 0.44764164
0.19786148 0.28407934 0.33962071
0.54727912 0.235742 0.18192686
0.77354383 0.19358163 0.07757721
0.90667242 0.17038834 0.04280635
0.9715457 0.16032586 0.03218377
0.98136687 0.16339435 0.03501976
0.0496328 0.46001118 0.59236723
0.05784246 0.4515605 0.57609546
0.06832492 0.44949886 0.56169552
0.13328938 0.44285789 0.48896632
0.4850727 0.41391814 0.33779159
0.75074863 0.39910924 0.22384706
0.90376407 0.35768718 0.13179272
0.9799642 0.33272293 0.0997341
0.99175555 0.31783929 0.09459586
0.06174573 0.63087696 0.70014381
0.07026191 0.62498516 0.68945128
0.07963093 0.62587976 0.68813682
0.11976568 0.6268599 0.65016162
0.35363638 0.62258065 0.57430458
0.70862514 0.59471416 0.45616502
0.88930911 0.56369764 0.39113221
0.9769035 0.54018164 0.36532602
1.0010841 0.52622616 0.35773396
0.06852935 0.75886786 0.75337136
0.07751264 0.75315553 0.75014204
0.08679999 0.75025809 0.75268239
0.11628278 0.75441754 0.74214184
0.28743702 0.75811023 0.70312732
0.67606211 0.7365309 0.60222495
0.85831738 0.72355312 0.56208485
0.95768636 0.6952517 0.53743178
0.99234068 0.68390006 0.53295285
0.07049497 0.81631738 0.7610122
0.07990633 0.81396633 0.7661249
0.08959965 0.81407458 0.77444965
0.11299059 0.82460958 0.78133821
0.25696206 0.83417422 0.75231177
0.62480593 0.82738632 0.69481796
0.83626294 0.81339955 0.64831668
0.9373616 0.80686688 0.63450885
0.97209936 0.79881924 0.63429374
0.07104088 0.84634453 0.75888747
0.08058094 0.84430701 0.76479781
0.0902879 0.84419984 0.77093548
0.11082424 0.85554379 0.77749866
0.24389125 0.86487007 0.74439842
0.62025356 0.85892963 0.68218976
0.82845432 0.84716511 0.64847362
0.93127251 0.84392118 0.6333344
0.97047198 0.84028023 0.63293499
0.06777261 0.38998076 0.79399258
0.07643335 0.37188131 0.77549654
0.10959563 0.37340635 0.75196171
0.37297335 0.34904265 0.64483267
0.6381821 0.33780247 0.58145326
0.83147717 0.31864008 0.50415331
0.9541719 0.28621352 0.42237046
0.99705154 0.25414157 0.36942086
1.0049823 0.2215326 0.32359263
0.06288746 0.41850799 0.77827525
0.07032448 0.39687389 0.75618094
0.08936496 0.38938504 0.72888005
0.27509192 0.37560076 0.64850408
0.59044987 0.35212487 0.53746706
0.80614412 0.33109838 0.44554502
0.93591869 0.29092976 0.34921283
0.99111199 0.25388861 0.27759838
1.0019865 0.22227886 0.22206089
0.05977981 0.45831314 0.76888341
0.06740829 0.44086811 0.74922979
0.08130603 0.43448946 0.72724193
0.20249039 0.41489011 0.64562792
0.55841011 0.3680366 0.48250136
0.7906884 0.33812687 0.36664787
0.92919546 0.28789628 0.24847339
0.99129641 0.25879854 0.18589075
1.0007431 0.24581744 0.16969471
0.05673715 0.47573492 0.72937989
0.06382735 0.45535484 0.70392245
0.07426975 0.44344181 0.67772716
0.15483063 0.4204942 0.58837903
0.51360738 0.37181041 0.41298965
0.76728046 0.34876183 0.29666746
0.9186393 0.30828491 0.19474301
0.98963737 0.30060691 0.17041345
1.0013285 0.31182697 0.19470206
0.05327312 0.48376355 0.6719206
0.06021844 0.46038875 0.63939303
0.07013743 0.45430085 0.62189275
0.13164878 0.44326669 0.54735959
0.47496471 0.41173097 0.39851323
0.7425946 0.40235668 0.30210429
0.90838754 0.37184185 0.21550255
0.98461813 0.3786236 0.22690812
1.0026369 0.39523339 0.27184027
0.06273925 0.62633526 0.74805474
0.0713304 0.62070006 0.73870581
0.08069637 0.62100995 0.73824042
0.11946075 0.62277317 0.70439261
0.33525634 0.6208449 0.64573681
0.71170789 0.58905196 0.51150846
0.88078266 0.56855905 0.46246541
0.97522891 0.54508233 0.43140179
1.0006614 0.53226447 0.4222281
0.06960556 0.75587958 0.80437773
0.07862794 0.74984676 0.80241483
0.08792207 0.7464565 0.80567455
0.11649752 0.75064403 0.7966674
0.2848841 0.75469381 0.76113445
0.6426295 0.74149001 0.68693471
0.8593626 0.72184914 0.61692983
0.95738769 0.70004761 0.59418094
0.99128425 0.69147682 0.59073693
0.07167228 0.81486428 0.81464285
0.0810898 0.81226403 0.82016969
0.0907626 0.81209385 0.82817692
0.1132845 0.82300645 0.83516896
0.25558883 0.83286887 0.8071568
0.58355737 0.83323568 0.7745105
0.83533585 0.8138923 0.70458013
0.93790472 0.80734974 0.68582022
0.97247273 0.80134183 0.68550748
0.07222735 0.84499401 0.81244117
0.08177089 0.84305406 0.81799453
0.09146435 0.84297973 0.82341701
0.11153892 0.85452211 0.82947332
0.24354735 0.86389899 0.7969268
0.57894295 0.86460268 0.75997525
0.83309877 0.84713113 0.70111603
0.93336207 0.84353709 0.68474674
0.97107053 0.84055728 0.6844207
0.07103314 0.4625425 0.89431286
0.07956894 0.44868413 0.88285613
0.10359442 0.45692441 0.87443006
0.33381414 0.44787198 0.81315225
0.62859058 0.44767866 0.73648375
0.8152892 0.42894274 0.69304079
0.93265879 0.40853089 0.62401313
0.98409522 0.38529533 0.58272886
1.0061157 0.36223835 0.54781038
0.06827483 0.49464494 0.88503855
0.07672314 0.47797844 0.87114066
0.09061725 0.47807804 0.86230391
0.23420817 0.48082343 0.82106864
0.58563638 0.46927443 0.70719779
0.78947431 0.45083115 0.65135545
0.92081773 0.42975149 0.57509667
0.98455888 0.40451151 0.52644187
1.0054447 0.38362554 0.49548274
0.06712747 0.53540522 0.87664855
0.07527968 0.52301461 0.86520809
0.08625552 0.52399796 0.85864538
0.18454057 0.52087325 0.81012177
0.53708178 0.49500963 0.68486786
0.76993668 0.47226691 0.60260761
0.91300541 0.45311478 0.5291788
0.98534375 0.43554163 0.49103138
1.0048256 0.42781878 0.48299342
0.06596039 0.56171709 0.85253459
0.07390173 0.54825139 0.83750141
0.08312716 0.54495662 0.82822794
0.14967392 0.54139978 0.77451885
0.4630118 0.51803023 0.66981345
0.74863708 0.49778578 0.56371266
0.90236944 0.49172488 0.51388353
0.98189378 0.49110657 0.50340462
1.0031048 0.49734977 0.51959562
0.0641441 0.58368248 0.81806594
0.0716182 0.56790823 0.7982288
0.08036052 0.56369478 0.78942239
0.13155603 0.564623 0.74421251
0.38226816 0.56104547 0.68431336
0.72563201 0.54660314 0.56806499
0.88848305 0.55407727 0.54441684
0.97291148 0.56269675 0.55116874
0.99970829 0.57151222 0.57052267
0.06352397 0.6198718 0.79312062
0.07218982 0.6144067 0.78536254
0.08153829 0.61395282 0.78561997
0.11933613 0.61621708 0.75572789
0.33091509 0.6253978 0.71575338
0.68479866 0.62166548 0.62652886
0.87506777 0.6220932 0.58766377
0.96432161 0.62513483 0.58897573
0.99654615 0.6274758 0.59831327
0.0701115 0.74651134 0.84821945
0.07912879 0.73967826 0.84688133
0.08834846 0.73486382 0.84963274
0.11638162 0.74049944 0.84318566
0.28318056 0.75014305 0.81660527
0.61372191 0.74495101 0.76519036
0.86249626 0.71957767 0.66669238
0.95370287 0.7079258 0.65085071
0.98726285 0.70197809 0.64809114
0.07271998 0.81218708 0.86705822
0.08213267 0.809304 0.87266463
0.09166782 0.80747342 0.87855411
0.11370621 0.81959271 0.88620025
0.254161 0.83091676 0.86064041
0.56349021 0.83538902 0.83799499
0.81829697 0.817469 0.77033651
0.93865108 0.80804485 0.73257077
0.97299135 0.8040539 0.73218465
0.07333651 0.84322047 0.86519527
0.0828696 0.8412388 0.87010849
0.0925426 0.84110683 0.87468898
0.11238615 0.85301447 0.88023299
0.2430785 0.86291832 0.84924161
0.55199885 0.86761695 0.82644564
0.82027525 0.84990871 0.76175117
0.93532175 0.8432923 0.73158348
0.97175962 0.84127092 0.73132253
0.07270303 0.45496422 0.92398983
0.08127892 0.45141834 0.92011714
0.10205824 0.46677077 0.92221248
0.31038889 0.47257227 0.88292027
0.62042224 0.49581152 0.81572664
0.79165494 0.48880965 0.79083675
0.91846299 0.48137605 0.76056606
0.96685135 0.47299674 0.73346448
1.0020395 0.45370546 0.70226884
0.06922852 0.50413585 0.93006289
0.07773705 0.49828365 0.92465919
0.09017928 0.50917399 0.92718184
0.21358097 0.52293772 0.90365988
0.56920964 0.5367434 0.817756
0.76943201 0.53937685 0.77969885
0.90561217 0.52026922 0.73531544
0.96501738 0.50229001 0.69279861
1.0009313 0.48711446 0.66804481
0.06887051 0.55881488 0.93055648
0.07758699 0.55673164 0.92615396
0.0878303 0.56906724 0.9305802
0.16925663 0.58063477 0.91020578
0.50342715 0.5802803 0.83241171
0.75684345 0.56874901 0.74927413
0.89666158 0.55370647 0.7042821
0.96451825 0.54284281 0.6732462
0.99928313 0.53750467 0.66710985
0.0688793 0.60378784 0.92051655
0.07771124 0.60270923 0.91466928
0.08680457 0.60441583 0.9109081
0.1470726 0.60945755 0.88577831
0.41663119 0.61687118 0.84413499
0.73543018 0.6043812 0.73411524
0.88604033 0.59875792 0.70075351
0.96058065 0.59839284 0.68799037
0.99326992 0.6015293 0.69632781
0.06875473 0.64300579 0.90319753
0.07735327 0.63481671 0.89286125
0.0863491 0.632065 0.88758302
0.13176224 0.64332855 0.86927146
0.35116184 0.65851212 0.84963715
0.68298751 0.65963978 0.7733193
0.87371933 0.65574729 0.72471261
0.9539836 0.65930498 0.72091001
0.98570806 0.66338766 0.73057806
0.06868558 0.67470306 0.88258201
0.07759149 0.66851032 0.87694001
0.08699307 0.67071658 0.8797617
0.12180816 0.68825573 0.87548953
0.31050658 0.70973003 0.86519396
0.62884337 0.7213279 0.83083838
0.85741037 0.71185511 0.7551018
0.94787371 0.71240693 0.74522829
0.98067153 0.71327806 0.74810219
0.0702559 0.73285419 0.88678873
0.07929353 0.7255584 0.88618946
0.08858162 0.72184247 0.8899039
0.11635479 0.73832071 0.8939302
0.27840799 0.76130158 0.88438678
0.59310335 0.7758007 0.86388022
0.83297253 0.76298332 0.78666103
0.94399524 0.75648993 0.75493377
0.97752512 0.75528127 0.75465345
0.07287607 0.79910576 0.90718555
0.08218584 0.79476357 0.9111973
0.09171427 0.79284203 0.9165194
0.11361207 0.80514079 0.92372465
0.2530798 0.82445788 0.90786141
0.55918193 0.83402634 0.88866252
0.79895139 0.82083714 0.83300757
0.93912858 0.80843318 0.77448428
0.97356373 0.80618858 0.77377546
0.07412211 0.83803546 0.91327876
0.0835465 0.83477211 0.91611463
0.0931422 0.83380961 0.91905898
0.1130856 0.84727544 0.92550975
0.24272329 0.86128086 0.89994258
0.54569292 0.86762547 0.87812203
0.79739648 0.85408509 0.82722265
0.93625051 0.84307945 0.77428114
0.97244465 0.84176362 0.77315652
0.07421646 0.4437775 0.94575775
0.08303034 0.43920538 0.94355553
0.10188236 0.45385784 0.94641167
0.30435205 0.46053827 0.91130024
0.61227107 0.49287382 0.85400999
0.77951121 0.48690662 0.82820648
0.91328979 0.47995427 0.80665022
0.96581441 0.47406587 0.78252596
1.000546 0.46854848 0.76514661
0.07068795 0.49008098 0.9545821
0.07922938 0.48439705 0.94911098
0.09088299 0.49616653 0.95306379
0.21391939 0.50967616 0.93016714
0.56167215 0.53004646 0.85342956
0.75973165 0.54011256 0.81789893
0.89776385 0.5331493 0.79582751
0.95982206 0.52873707 0.76995474
0.99451894 0.52397293 0.75665611
0.06894474 0.54741538 0.9618175
0.07770041 0.54555893 0.95718998
0.08773787 0.55718434 0.96087384
0.17033601 0.56959271 0.94164526
0.49418634 0.58237964 0.8780731
0.74893367 0.59462893 0.81053478
0.88625216 0.58691078 0.78924906
0.95664108 0.58240789 0.76744848
0.99071991 0.57766044 0.76070583
0.06888238 0.59215474 0.95179391
0.07778863 0.59187227 0.94645596
0.08743238 0.60172802 0.94772768
0.1440725 0.6166414 0.93447405
0.40377754 0.63585085 0.90803772
0.72829306 0.64234227 0.81525296
0.87539542 0.63618767 0.79010689
0.95446384 0.63147908 0.77525151
0.98782134 0.62743682 0.77306306
0.06920122 0.63868344 0.93995029
0.07825232 0.63872492 0.93522334
0.08777113 0.64474189 0.9361136
0.12931281 0.6603114 0.93039668
0.33903649 0.6803385 0.92064118
0.67899477 0.68719804 0.84811944
0.86553615 0.68021894 0.79672092
0.95085037 0.67565483 0.78646725
0.9837997 0.67284566 0.78473973
0.06984724 0.68518871 0.93056166
0.07900459 0.68367743 0.92901838
0.08849189 0.68574744 0.93266284
0.12116563 0.69950229 0.93424225
0.30253142 0.71791637 0.9258675
0.62884319 0.72802019 0.88340247
0.84940839 0.72140241 0.81202453
0.94692075 0.71643656 0.79281044
0.98040485 0.71467292 0.79039878
0.07074925 0.72838175 0.92841256
0.07998427 0.72466576 0.93070143
0.08947174 0.72389579 0.93632859
0.11576433 0.73668867 0.94162327
0.27868655 0.75498831 0.92987078
0.58634269 0.77132952 0.90984052
0.8249355 0.76427072 0.83636987
0.94384527 0.75679004 0.79525918
0.9775188 0.75566709 0.7931571
0.07278119 0.78320396 0.94286823
0.08209152 0.77872884 0.94640166
0.09160826 0.77669543 0.95085347
0.11313295 0.7892648 0.95781606
0.26542136 0.80926752 0.94358617
0.55730355 0.82597303 0.92954564
0.77656251 0.82345301 0.89310944
0.9361214 0.80880916 0.81628323
0.97358739 0.80741036 0.8119573
0.07403834 0.82228088 0.94899172
0.08347128 0.81920385 0.95112139
0.09306981 0.81838191 0.95341003
0.11273303 0.83214533 0.95993245
0.25032699 0.85305697 0.94256759
0.54539239 0.86606139 0.92557383
0.7654686 0.85918951 0.89709717
0.92996794 0.84444553 0.82126433
0.97232294 0.84226918 0.81202954
