site/assets/luts/freshluts--0000343-stranest-things.cube
# LUTr-Schema-Version: 2
# LUTr-ID: freshluts--0000343-stranest-things
# LUTr-Title: STRANEST THINGS
# LUTr-Collection: Fresh LUTs
# LUTr-Collection-ID: freshluts-community
# LUTr-Source: https://freshluts.com
# LUTr-Retrieved: 2026-07-27
# LUTr-Source-File: submissions-raw/freshluts/cubes/343__STRANGEST_THINGS.cube
# LUTr-Source-Format: CUBE
# LUTr-Source-SHA256: 6a0d59c990140a02be2b5096c8501cb6039a8d581122b53ced70dd4dfe1a2fcb
# LUTr-License: CC0-1.0
# LUTr-License-URL: https://freshluts.com/termsandconditions
# LUTr-License-Basis: site-terms
# LUTr-Transform-Class: creative-look
# LUTr-Tags: creative, freshluts, community, cube, brown, rec709, assumed-input
# LUTr-Input-Color-Space: rec709
# LUTr-Input-Gamut: rec709
# LUTr-Input-Transfer: rec709
# LUTr-Output-Color-Space: srgb
# LUTr-Output-Gamut: rec709
# LUTr-Output-Transfer: srgb
# LUTr-Color-Space-Confidence: assumed-display-referred
# LUTr-Domain-Normalized: true
# LUTr-Shaper: none
# LUTr-Original-Grid: 32x32x32
# LUTr-Conversion-Grid: 32x32x32
# LUTr-Conversion-Interpolation: none
# LUTr-Conversion-Method: Metadata normalization; numeric LUT samples preserved
# LUTr-Conversion-Tool: LUTr scripts/convert-all-to-cube.mjs 2.0.0
# LUTr-Conversion-Date: 2026-07-28
# LUTr-Asset-URL: https://freshluts.com/luts/343
# LUTr-Author: I WANT TO MAKE A FILM PODCAST
# LUTr-Author-URL: https://freshluts.com/users/15633
# LUTr-Attribution: I WANT TO MAKE A FILM PODCAST via Fresh LUTs
# LUTr-Source-Labels: gamma=Other; color=Brown; key=Neutral; style=Hipster; LUTr assumption=input Rec.709 per repository policy
# LUTr-Conversion-Warning: Input Rec.709 is a LUTr catalog assumption requested for this otherwise unspecified Fresh LUT; it is not verified by the upstream asset.
# LUTr-Note: Preserve this metadata and the upstream license notices when redistributing.
# LUTr-Upstream-Comment: Created by: Adobe Photoshop Export Color Lookup Plugin
# LUTr-Upstream-Comment: LUT size
# LUTr-Upstream-Comment: data domain
# LUTr-Upstream-Comment: LUT data points
TITLE "STRANEST THINGS"
LUT_3D_SIZE 32
DOMAIN_MIN 0 0 0
DOMAIN_MAX 1 1 1
0.004761 0 0.007629
0.004913 0 0.007111
0.005371 0 0.006348
0.010071 0 0.007019
0.025604 0 0.008545
0.044037 0 0.011047
0.061371 0 0.012665
0.083771 0 0.014557
0.107178 0.002075 0.016663
0.132019 0.007904 0.019531
0.160156 0.012787 0.022552
0.190521 0.017731 0.026154
0.223816 0.022491 0.030945
0.25882 0.027252 0.035156
0.296295 0.031708 0.039917
0.335358 0.03598 0.045319
0.376892 0.039612 0.051788
0.417114 0.044189 0.056915
0.455933 0.049652 0.060822
0.493896 0.05484 0.064697
0.531738 0.060425 0.069275
0.567719 0.065308 0.07547
0.602936 0.07019 0.080658
0.637543 0.07489 0.086151
0.671722 0.079803 0.091492
0.705536 0.084351 0.097168
0.73999 0.088867 0.102142
0.775085 0.093384 0.107391
0.810791 0.097778 0.112732
0.847839 0.102936 0.1185
0.885864 0.108307 0.124786
0.923737 0.113892 0.131653
0.006531 0 0.008209
0.006836 0 0.009308
0.008453 0 0.01004
0.014801 0 0.011566
0.031403 0 0.01358
0.046936 0.000763 0.015076
0.066284 0.005127 0.017456
0.086853 0.010986 0.01886
0.110992 0.015594 0.021332
0.136414 0.020569 0.023987
0.164215 0.025391 0.027039
0.193298 0.031281 0.029816
0.226044 0.035736 0.033844
0.260834 0.040558 0.037598
0.297546 0.045502 0.042267
0.336029 0.050018 0.04657
0.377136 0.053589 0.052948
0.418732 0.057037 0.058899
0.460358 0.060242 0.065491
0.501129 0.06308 0.072571
0.539307 0.068085 0.077911
0.575317 0.072845 0.083466
0.610443 0.077606 0.088348
0.644958 0.082275 0.09375
0.678925 0.087006 0.099365
0.712769 0.091522 0.104462
0.747101 0.095886 0.109741
0.782806 0.100922 0.115662
0.819733 0.106628 0.121918
0.857269 0.11203 0.128357
0.895203 0.117706 0.13446
0.933411 0.123108 0.141235
0.011719 0 0.010529
0.011902 0 0.012177
0.011841 0 0.012787
0.016998 0 0.013763
0.034851 0.00415 0.016205
0.052826 0.011017 0.019073
0.07016 0.018341 0.02179
0.091492 0.023468 0.023712
0.114777 0.028442 0.025269
0.13916 0.034088 0.027496
0.166321 0.039246 0.029785
0.195465 0.044434 0.032379
0.227234 0.049835 0.035339
0.261749 0.054657 0.038757
0.297974 0.059357 0.042877
0.336578 0.063446 0.047638
0.376587 0.067841 0.053009
0.417419 0.071472 0.058167
0.458618 0.074646 0.064697
0.499847 0.077209 0.071747
0.540283 0.080292 0.079102
0.580627 0.081879 0.088531
0.617798 0.084869 0.096313
0.6521 0.089355 0.101654
0.686188 0.093781 0.106506
0.721008 0.099335 0.11261
0.756409 0.104706 0.118652
0.792419 0.110382 0.12558
0.829468 0.115845 0.131653
0.866852 0.121521 0.138367
0.904999 0.127045 0.144379
0.94339 0.132812 0.151489
0.016235 0.00943 0.012939
0.017151 0.008057 0.014771
0.016144 0.007629 0.016205
0.021332 0.006287 0.017395
0.038086 0.012024 0.019562
0.055908 0.018585 0.022003
0.073273 0.025757 0.023804
0.093719 0.033203 0.026154
0.116547 0.040741 0.02774
0.14093 0.047791 0.029785
0.167786 0.053162 0.031891
0.19696 0.058289 0.034058
0.228302 0.063477 0.036682
0.262085 0.068726 0.039673
0.298035 0.073547 0.043243
0.335449 0.078217 0.046906
0.374847 0.082428 0.051697
0.415253 0.086273 0.056396
0.456207 0.089569 0.062531
0.496918 0.092224 0.069183
0.536987 0.095215 0.07663
0.57663 0.097137 0.085449
0.615875 0.098938 0.094788
0.653992 0.10257 0.103271
0.691589 0.10611 0.11261
0.72998 0.109467 0.121979
0.766357 0.114563 0.128967
0.80246 0.119965 0.135681
0.839508 0.125854 0.141693
0.877167 0.131287 0.148285
0.915405 0.137177 0.155029
0.953827 0.142792 0.161865
0.021881 0.025757 0.014252
0.022675 0.0242 0.01651
0.022339 0.023071 0.018494
0.028839 0.021881 0.020905
0.042694 0.020782 0.022308
0.058716 0.026855 0.023865
0.075775 0.034149 0.025635
0.096802 0.041199 0.026978
0.118683 0.049133 0.028961
0.143158 0.056458 0.031006
0.169403 0.064362 0.033173
0.197876 0.072113 0.0354
0.228851 0.077698 0.037567
0.262451 0.082703 0.040222
0.298004 0.087585 0.043762
0.334808 0.092529 0.046875
0.37381 0.096893 0.051208
0.413666 0.1008 0.055603
0.454132 0.104095 0.061005
0.4935 0.107483 0.065887
0.533112 0.11142 0.072998
0.571442 0.115967 0.08078
0.608887 0.120789 0.088409
0.645782 0.125153 0.096375
0.682922 0.129456 0.104767
0.72052 0.133514 0.112946
0.75827 0.137543 0.121857
0.797974 0.141052 0.131409
0.838806 0.143951 0.141663
0.881104 0.146759 0.15271
0.925598 0.148102 0.165192
0.964722 0.15329 0.172546
0.02478 0.04422 0.015015
0.025543 0.042816 0.016602
0.026886 0.040344 0.018524
0.033264 0.039398 0.020935
0.047974 0.038483 0.024994
0.060883 0.03772 0.025696
0.078522 0.042633 0.027222
0.098724 0.050049 0.028656
0.121674 0.056915 0.030548
0.14505 0.064911 0.032166
0.171478 0.072235 0.034485
0.200043 0.079987 0.036255
0.230438 0.087799 0.038391
0.263489 0.095337 0.040985
0.298248 0.10141 0.044281
0.335449 0.10611 0.047516
0.37381 0.110504 0.051392
0.41333 0.114563 0.055389
0.452667 0.119781 0.059479
0.490845 0.125732 0.064117
0.529449 0.131897 0.069824
0.566956 0.137054 0.076843
0.603302 0.142395 0.083923
0.638885 0.148132 0.090515
0.674896 0.15332 0.097107
0.710785 0.1586 0.104645
0.747131 0.163727 0.111725
0.785522 0.167969 0.120087
0.824524 0.172516 0.128601
0.865204 0.176666 0.137878
0.907227 0.179871 0.148285
0.950134 0.182617 0.159302
0.031006 0.062439 0.014526
0.031067 0.061127 0.016663
0.03299 0.058411 0.018097
0.038788 0.057526 0.021149
0.052979 0.056519 0.024719
0.064331 0.054749 0.028809
0.081268 0.054077 0.028931
0.101868 0.058441 0.030457
0.123932 0.065491 0.032166
0.147217 0.073303 0.033478
0.173798 0.080566 0.03537
0.202026 0.088135 0.037323
0.232635 0.095642 0.039673
0.265045 0.103424 0.041931
0.299774 0.110626 0.045044
0.336273 0.117798 0.048004
0.374084 0.126587 0.051727
0.413116 0.132935 0.055298
0.451874 0.139099 0.059418
0.48941 0.145477 0.063232
0.527222 0.15213 0.068542
0.56427 0.158234 0.074768
0.600098 0.164062 0.080841
0.635132 0.170319 0.086823
0.670044 0.176483 0.093018
0.705383 0.182007 0.099762
0.74115 0.188019 0.106537
0.777954 0.193542 0.11319
0.816101 0.198517 0.120728
0.855194 0.203705 0.128845
0.895081 0.208435 0.137085
0.935944 0.212646 0.14563
0.036011 0.08252 0.013885
0.037689 0.080322 0.015808
0.037994 0.078156 0.017944
0.044189 0.077057 0.020813
0.058502 0.075623 0.023834
0.072052 0.07431 0.027863
0.085022 0.071808 0.031921
0.104248 0.070679 0.032349
0.125946 0.07489 0.03302
0.14975 0.082092 0.034546
0.175751 0.089508 0.036224
0.204254 0.096649 0.0383
0.234833 0.104004 0.040802
0.267395 0.111267 0.043243
0.302124 0.118622 0.045624
0.338409 0.128601 0.048981
0.376068 0.138428 0.052307
0.413971 0.148865 0.056
0.452087 0.159302 0.059601
0.489166 0.166473 0.063141
0.526764 0.173401 0.067993
0.563171 0.179688 0.07428
0.598419 0.18631 0.079346
0.633301 0.192902 0.085449
0.667755 0.199432 0.09082
0.702148 0.205597 0.097107
0.737488 0.21167 0.103027
0.773804 0.217987 0.109558
0.811127 0.22348 0.116211
0.849274 0.22937 0.12323
0.888367 0.234619 0.130524
0.927948 0.240173 0.13855
0.04306 0.103729 0.01297
0.044678 0.101135 0.014862
0.045197 0.098999 0.016388
0.051392 0.097321 0.020203
0.065063 0.09552 0.023499
0.077484 0.094696 0.027435
0.093231 0.092621 0.032074
0.108368 0.089264 0.035065
0.129272 0.08786 0.035126
0.152863 0.091309 0.036346
0.178497 0.098541 0.037476
0.207031 0.105408 0.039917
0.237366 0.112549 0.041962
0.269775 0.120667 0.043945
0.304413 0.130188 0.047028
0.34082 0.140259 0.050446
0.378021 0.150635 0.05304
0.415955 0.160797 0.056702
0.453613 0.171631 0.060089
0.490753 0.182312 0.063843
0.527466 0.193481 0.068542
0.56308 0.202881 0.074158
0.598083 0.209351 0.079285
0.632202 0.216278 0.084991
0.666473 0.223206 0.090302
0.700714 0.229858 0.095825
0.735626 0.236572 0.101013
0.771179 0.242706 0.107239
0.808258 0.249146 0.113159
0.845703 0.255127 0.120178
0.884155 0.260986 0.126862
0.923065 0.266602 0.134064
0.051636 0.126251 0.011505
0.053009 0.123474 0.013458
0.054169 0.120819 0.015564
0.060577 0.118958 0.018433
0.072906 0.117096 0.022186
0.084167 0.115814 0.026672
0.098572 0.11438 0.031586
0.11615 0.112183 0.036194
0.133087 0.107635 0.037994
0.156036 0.105194 0.038269
0.181671 0.107849 0.039368
0.20932 0.114929 0.041321
0.239899 0.12323 0.043427
0.272797 0.132904 0.04599
0.307159 0.142731 0.048065
0.343384 0.152832 0.0513
0.380646 0.163452 0.054504
0.418518 0.174194 0.057709
0.455933 0.18512 0.06134
0.492523 0.196075 0.064423
0.529358 0.207397 0.069153
0.564423 0.218231 0.074768
0.59903 0.229187 0.079742
0.632782 0.240417 0.085052
0.666321 0.248505 0.090088
0.700409 0.255463 0.095093
0.734955 0.262299 0.100494
0.770294 0.268799 0.106262
0.806427 0.275299 0.112061
0.844055 0.281555 0.118256
0.88208 0.287872 0.124908
0.920135 0.293793 0.131256
0.062469 0.150482 0.009399
0.064117 0.147858 0.011658
0.064423 0.145386 0.013702
0.071259 0.143646 0.016296
0.081635 0.142059 0.020935
0.092468 0.140717 0.025146
0.105438 0.139801 0.030731
0.123077 0.137665 0.035278
0.14209 0.135315 0.04068
0.16037 0.129272 0.042053
0.18515 0.126007 0.042053
0.213043 0.127594 0.042908
0.243225 0.137024 0.045074
0.275909 0.146973 0.047272
0.310333 0.156708 0.049835
0.346191 0.167206 0.052795
0.38385 0.177856 0.055847
0.421356 0.188568 0.05899
0.458771 0.199646 0.062378
0.495148 0.210693 0.065887
0.53183 0.222382 0.070038
0.567017 0.233246 0.0755
0.601044 0.244476 0.080688
0.634735 0.255402 0.085907
0.668213 0.266754 0.090393
0.701538 0.277527 0.096039
0.735474 0.288391 0.101135
0.770203 0.296265 0.106415
0.806458 0.302795 0.11203
0.843506 0.309052 0.117767
0.88092 0.315491 0.123657
0.918854 0.321777 0.129852
0.074677 0.177429 0.006714
0.076263 0.174957 0.00882
0.076965 0.17276 0.010895
0.083435 0.171295 0.014526
0.092957 0.170227 0.019196
0.101807 0.169678 0.023834
0.115021 0.168579 0.028656
0.131104 0.167542 0.033966
0.150513 0.165527 0.039429
0.171143 0.162933 0.044952
0.190887 0.156036 0.046631
0.217346 0.152435 0.046448
0.247681 0.152954 0.047455
0.279846 0.161987 0.0495
0.314514 0.171875 0.052002
0.349884 0.182648 0.054779
0.387085 0.193512 0.057739
0.424622 0.204529 0.060425
0.461853 0.215668 0.063782
0.498169 0.226868 0.066772
0.534454 0.238403 0.07135
0.56955 0.249603 0.076508
0.603668 0.260559 0.081512
0.63736 0.271973 0.086853
0.670563 0.282867 0.091766
0.70401 0.293915 0.09671
0.737976 0.304596 0.101624
0.772186 0.31546 0.107239
0.807831 0.325989 0.112762
0.844177 0.336243 0.118408
0.881042 0.344543 0.123596
0.918732 0.350861 0.12973
0.088379 0.206665 0.003021
0.089478 0.204865 0.006042
0.091583 0.202332 0.008514
0.097229 0.201569 0.012085
0.104889 0.201202 0.016479
0.113281 0.2005 0.021484
0.125885 0.200195 0.026306
0.141327 0.199585 0.032196
0.159821 0.197968 0.037506
0.180664 0.195953 0.043365
0.203125 0.193542 0.048859
0.224182 0.185791 0.051636
0.252411 0.181641 0.051727
0.284424 0.18222 0.052582
0.318481 0.189087 0.054321
0.354218 0.19989 0.056824
0.391113 0.210815 0.059326
0.428497 0.221924 0.062317
0.465637 0.233124 0.065399
0.501831 0.244293 0.068542
0.537964 0.25589 0.073547
0.572906 0.267029 0.078094
0.606873 0.278381 0.083252
0.640503 0.289429 0.088104
0.673492 0.300507 0.093079
0.70694 0.311584 0.097778
0.740479 0.322205 0.103058
0.775085 0.332886 0.108093
0.810547 0.343475 0.113464
0.846924 0.353638 0.119263
0.883453 0.363342 0.124908
0.920471 0.37323 0.130554
0.103027 0.23822 0
0.105591 0.236359 0.001892
0.106232 0.234833 0.004425
0.112091 0.234222 0.009277
0.119019 0.233948 0.013336
0.126373 0.233582 0.018219
0.138153 0.233734 0.02356
0.153168 0.23349 0.029999
0.170166 0.233063 0.035431
0.190491 0.231293 0.041656
0.212616 0.229462 0.047546
0.237488 0.226898 0.05368
0.259369 0.218811 0.056732
0.290039 0.214355 0.056702
0.323456 0.214386 0.057587
0.358917 0.218353 0.059174
0.395935 0.229401 0.061951
0.432892 0.240448 0.064789
0.46994 0.25174 0.067383
0.505554 0.263184 0.070221
0.542114 0.274689 0.074951
0.57663 0.285889 0.079865
0.610321 0.297028 0.084534
0.643707 0.308258 0.089355
0.67688 0.319153 0.094452
0.710114 0.329956 0.099274
0.743713 0.34079 0.104248
0.778473 0.351105 0.109253
0.813873 0.361572 0.11496
0.849823 0.371155 0.119873
0.886505 0.381409 0.125763
0.923248 0.390961 0.131409
0.119202 0.271423 0
0.12149 0.270203 0
0.122742 0.268677 0.000946
0.128479 0.268341 0.004852
0.134094 0.26828 0.009796
0.14035 0.26825 0.01474
0.151459 0.268951 0.020874
0.166107 0.269409 0.026611
0.182098 0.26947 0.032806
0.201202 0.268463 0.039246
0.223358 0.26709 0.045166
0.247955 0.264984 0.051422
0.274414 0.262482 0.058167
0.297485 0.253754 0.062714
0.32959 0.249329 0.062469
0.364105 0.248901 0.062897
0.400879 0.249298 0.063995
0.437805 0.260468 0.066803
0.474396 0.271851 0.069275
0.510162 0.28299 0.072205
0.546448 0.294586 0.076935
0.580811 0.305756 0.081848
0.61438 0.317108 0.086487
0.647705 0.327972 0.091309
0.680725 0.338745 0.096008
0.713898 0.349457 0.100739
0.747437 0.359833 0.105896
0.781982 0.370026 0.11087
0.817383 0.380402 0.11618
0.853424 0.389954 0.121307
0.889923 0.399353 0.126892
0.926758 0.409027 0.132477
0.135498 0.305511 0
0.137543 0.304962 0
0.140015 0.304108 0
0.144989 0.303986 0.000549
0.149811 0.304169 0.005127
0.155579 0.304077 0.010315
0.16626 0.305145 0.01651
0.179657 0.306335 0.023193
0.195557 0.306641 0.029602
0.213806 0.306641 0.035797
0.234985 0.305756 0.042511
0.259003 0.304382 0.049103
0.28537 0.302399 0.056213
0.313904 0.299866 0.063385
0.33786 0.290497 0.068207
0.370972 0.286499 0.067902
0.406555 0.285431 0.068481
0.443146 0.285614 0.069794
0.479889 0.292816 0.071838
0.515411 0.303955 0.074341
0.551086 0.31546 0.079437
0.58551 0.326599 0.084198
0.61911 0.337372 0.088684
0.652161 0.348145 0.093414
0.684753 0.358856 0.098206
0.718048 0.369385 0.102753
0.751678 0.379852 0.107452
0.786133 0.389465 0.112579
0.821381 0.399292 0.117798
0.857391 0.409027 0.122681
0.89389 0.417999 0.128174
0.930511 0.427307 0.133606
0.151978 0.34021 0
0.154663 0.339722 0
0.157257 0.339417 0
0.161407 0.339661 0
0.166016 0.340088 0.002014
0.171204 0.340179 0.005157
0.181458 0.341827 0.012177
0.194366 0.343445 0.018768
0.209839 0.344238 0.025208
0.227417 0.344635 0.032196
0.247833 0.344513 0.039215
0.270752 0.343842 0.04599
0.296967 0.34259 0.05304
0.325073 0.340576 0.059998
0.355621 0.337982 0.067841
0.384308 0.332703 0.074249
0.414062 0.324951 0.073914
0.449463 0.32309 0.074249
0.485413 0.323425 0.075531
0.521057 0.326019 0.077209
0.55658 0.337219 0.081573
0.590393 0.347931 0.086365
0.623871 0.358612 0.090881
0.656586 0.369446 0.095428
0.689606 0.379669 0.100189
0.722473 0.389771 0.104889
0.756134 0.399719 0.109314
0.790741 0.409546 0.114594
0.825928 0.418793 0.119446
0.861816 0.428131 0.124512
0.898071 0.437164 0.129578
0.93457 0.446075 0.135376
0.168518 0.374084 0
0.171234 0.374084 0
0.173828 0.374115 0
0.177795 0.374359 0
0.181885 0.374725 0.002014
0.186279 0.375183 0.0047
0.196594 0.377686 0.009888
0.209351 0.379761 0.014587
0.224091 0.381165 0.02124
0.240936 0.382172 0.027924
0.260284 0.382843 0.034698
0.283203 0.382385 0.042267
0.308441 0.381775 0.049286
0.337006 0.380615 0.056702
0.366364 0.378662 0.06488
0.397827 0.376617 0.072662
0.431366 0.373779 0.079651
0.457001 0.363373 0.079132
0.492004 0.361389 0.079559
0.526855 0.361908 0.080963
0.562134 0.362457 0.084808
0.5961 0.369751 0.089142
0.629211 0.380249 0.093536
0.661957 0.390442 0.098206
0.69455 0.400452 0.102386
0.727356 0.41037 0.106903
0.760895 0.420013 0.11145
0.79538 0.429382 0.116486
0.830475 0.438721 0.121277
0.866364 0.447815 0.126404
0.902466 0.456635 0.1315
0.939026 0.465424 0.137207
0.184052 0.406891 0
0.186981 0.407257 0
0.190277 0.407227 0
0.193665 0.407623 0
0.197052 0.408112 0.001953
0.201324 0.408691 0.004517
0.211273 0.411377 0.009949
0.223297 0.41394 0.014832
0.23764 0.41629 0.019958
0.254486 0.417877 0.024628
0.273468 0.418915 0.030548
0.295807 0.419342 0.037872
0.320251 0.419342 0.04541
0.347717 0.41861 0.053284
0.377502 0.41745 0.061218
0.408569 0.415924 0.069061
0.441315 0.413727 0.077148
0.47467 0.411133 0.085205
0.499512 0.401245 0.084198
0.533661 0.398834 0.085236
0.56842 0.399506 0.088715
0.601868 0.399811 0.092194
0.634583 0.401703 0.096191
0.667084 0.411469 0.100098
0.69989 0.421387 0.104736
0.732513 0.430878 0.108948
0.766205 0.440308 0.113312
0.800262 0.449677 0.118561
0.835419 0.458496 0.123291
0.871185 0.467377 0.128296
0.90741 0.476227 0.133514
0.943756 0.484558 0.138428
0.199005 0.43811 0
0.202362 0.43866 0
0.205292 0.439056 0
0.208923 0.439423 0
0.211975 0.440155 0.00238
0.215973 0.440552 0.004822
0.225677 0.443481 0.010132
0.237518 0.446228 0.015167
0.251129 0.448608 0.020294
0.266815 0.450745 0.025146
0.285187 0.452515 0.03006
0.30661 0.453735 0.034637
0.330688 0.454102 0.041168
0.357239 0.454193 0.048523
0.386902 0.453583 0.056763
0.418152 0.452515 0.065063
0.450287 0.450867 0.073517
0.483459 0.449036 0.081573
0.516357 0.446808 0.089691
0.540588 0.437073 0.089539
0.574982 0.435242 0.092682
0.607788 0.435699 0.096283
0.640533 0.436096 0.099335
0.672699 0.436218 0.102722
0.7052 0.441986 0.107025
0.738068 0.451233 0.111206
0.771179 0.46048 0.115723
0.805664 0.469482 0.120392
0.84082 0.478546 0.125305
0.87616 0.487091 0.130493
0.912354 0.495453 0.135559
0.948456 0.50412 0.140686
0.213318 0.467407 0
0.216797 0.468323 0
0.220276 0.468964 0
0.223724 0.469696 0.000214
0.227356 0.470856 0.002991
0.231232 0.471741 0.006012
0.240723 0.474579 0.010864
0.251801 0.477417 0.01593
0.265167 0.480255 0.021301
0.28064 0.482697 0.026184
0.298492 0.484741 0.031403
0.319641 0.48645 0.036072
0.342865 0.487732 0.040924
0.369232 0.488251 0.046936
0.397827 0.488007 0.054871
0.428619 0.487366 0.063416
0.46051 0.48645 0.071228
0.492798 0.484741 0.079224
0.525421 0.483093 0.08725
0.557251 0.480896 0.095642
0.581177 0.471954 0.09668
0.614136 0.46991 0.100006
0.646484 0.470673 0.103149
0.678528 0.471008 0.106659
0.710693 0.471222 0.110107
0.743286 0.471466 0.113312
0.776794 0.480377 0.117859
0.810883 0.489349 0.122742
0.845856 0.497894 0.127502
0.881378 0.506439 0.132263
0.917694 0.515198 0.137634
0.953705 0.523621 0.142303
0.226562 0.495087 0
0.230377 0.496521 0
0.234039 0.497498 0
0.237732 0.498535 0.000732
0.24176 0.499908 0.003601
0.245941 0.500977 0.006775
0.254974 0.504028 0.011566
0.265778 0.507263 0.016693
0.279114 0.51001 0.022095
0.294128 0.512878 0.027222
0.311676 0.515442 0.032471
0.33194 0.517395 0.037384
0.355194 0.519226 0.042389
0.38092 0.520355 0.046997
0.408997 0.520874 0.053284
0.43924 0.520752 0.061432
0.471191 0.520142 0.069855
0.503815 0.519257 0.078278
0.535919 0.517883 0.086395
0.567169 0.516357 0.094208
0.598236 0.514679 0.101929
0.620209 0.50528 0.104034
0.652679 0.503723 0.107117
0.684387 0.504089 0.110107
0.716187 0.504456 0.113495
0.748718 0.50473 0.116913
0.78186 0.504761 0.120667
0.816284 0.508667 0.125031
0.851318 0.517212 0.129608
0.887024 0.525848 0.134277
0.922729 0.53418 0.139343
0.958832 0.542511 0.144043
0.239258 0.521637 0
0.243103 0.523163 0
0.24704 0.524292 0
0.251129 0.525879 0.001129
0.255127 0.527374 0.004242
0.259857 0.5289 0.007477
0.268524 0.531799 0.012268
0.279175 0.535217 0.01767
0.291626 0.538513 0.022888
0.306976 0.541534 0.028351
0.32431 0.544373 0.033508
0.343903 0.546906 0.038574
0.366516 0.54895 0.043762
0.392059 0.550751 0.048553
0.419891 0.55191 0.053406
0.44989 0.552399 0.059509
0.481445 0.552277 0.068115
0.513733 0.551758 0.076691
0.545898 0.550934 0.085327
0.577148 0.54953 0.093536
0.607452 0.548309 0.101166
0.637665 0.546722 0.108978
0.662079 0.540131 0.111481
0.69046 0.535522 0.113403
0.722107 0.536255 0.117096
0.754181 0.536621 0.1203
0.787415 0.536865 0.123962
0.821381 0.537109 0.12793
0.856537 0.537048 0.131958
0.89212 0.544495 0.13681
0.92804 0.552795 0.141388
0.964203 0.561707 0.146423
0.251434 0.546967 0
0.255737 0.548615 0
0.259796 0.55011 0
0.263672 0.552032 0.001495
0.268555 0.553589 0.004639
0.273132 0.555542 0.008209
0.281647 0.558716 0.012848
0.292389 0.562225 0.018311
0.304443 0.565765 0.02359
0.319244 0.569031 0.029114
0.336273 0.571899 0.034424
0.355896 0.574768 0.039795
0.377991 0.577393 0.044952
0.403168 0.579529 0.050232
0.430603 0.581146 0.054901
0.460205 0.582336 0.059509
0.491516 0.582916 0.065887
0.523468 0.582672 0.075012
0.555634 0.582214 0.083893
0.58667 0.581512 0.091736
0.616913 0.580627 0.099609
0.646545 0.579285 0.107574
0.676422 0.578094 0.11554
0.703735 0.574005 0.118744
0.728058 0.566711 0.12027
0.759888 0.567261 0.123383
0.792664 0.567566 0.12738
0.826691 0.567749 0.131165
0.861603 0.568054 0.134888
0.897217 0.568176 0.139008
0.933136 0.571106 0.143707
0.969147 0.579712 0.148621
0.263275 0.57132 0
0.267578 0.573486 0
0.271881 0.575317 0
0.276337 0.577332 0.00177
0.280823 0.579224 0.005157
0.286194 0.58139 0.00882
0.294403 0.584656 0.013519
0.304779 0.588287 0.018921
0.317322 0.591888 0.0242
0.331543 0.59549 0.029816
0.348236 0.598969 0.035278
0.367249 0.602142 0.040833
0.389313 0.605042 0.046143
0.41394 0.6073 0.051422
0.441132 0.609528 0.056366
0.470154 0.611115 0.06131
0.501221 0.612518 0.065796
0.533173 0.612946 0.073029
0.565094 0.612885 0.081146
0.596222 0.612518 0.089874
0.626373 0.611603 0.098206
0.655609 0.610901 0.106018
0.685181 0.610077 0.11377
0.7146 0.608917 0.122253
0.743896 0.606384 0.12558
0.765808 0.597015 0.126953
0.79834 0.597687 0.130524
0.832031 0.598114 0.134308
0.866638 0.598328 0.138092
0.9021 0.598541 0.141907
0.937958 0.598755 0.146088
0.974213 0.598602 0.150391
0.274902 0.595398 0
0.279449 0.597778 0
0.284027 0.599792 0
0.288513 0.602051 0.001984
0.293365 0.604309 0.005829
0.299042 0.606628 0.009369
0.306915 0.610107 0.01413
0.317444 0.613892 0.019592
0.329346 0.617645 0.024841
0.343567 0.621429 0.030609
0.359894 0.625153 0.036072
0.378967 0.628601 0.041779
0.400635 0.631805 0.047211
0.424591 0.634674 0.052643
0.451263 0.637024 0.057739
0.480164 0.639191 0.062805
0.511078 0.640686 0.067444
0.542755 0.64212 0.072052
0.574188 0.642609 0.078979
0.60556 0.642487 0.088074
0.635651 0.642303 0.096161
0.664886 0.641815 0.104462
0.69397 0.641052 0.112091
0.723206 0.640259 0.119965
0.75296 0.639343 0.128601
0.783325 0.637054 0.132416
0.803955 0.627197 0.133698
0.837585 0.627686 0.137634
0.872192 0.628143 0.140961
0.907349 0.628357 0.144836
0.942963 0.628448 0.149445
0.978912 0.628723 0.153137
0.286285 0.618988 0
0.290955 0.621704 0
0.295868 0.624176 0
0.300507 0.626373 0.002289
