site/assets/luts/freshluts--0000154-morning-contrast.cube
# LUTr-Schema-Version: 2
# LUTr-ID: freshluts--0000154-morning-contrast
# LUTr-Title: MORNING CONTRAST
# LUTr-Collection: Fresh LUTs
# LUTr-Collection-ID: freshluts-community
# LUTr-Source: https://freshluts.com
# LUTr-Retrieved: 2026-07-27
# LUTr-Source-File: submissions-raw/freshluts/cubes/154__MORNING__6.C0007.cube
# LUTr-Source-Format: CUBE
# LUTr-Source-SHA256: 50943c238d73786f92fe9cb613e8a7ce516bca892870baada81845d700bd3ad6
# LUTr-License: CC0-1.0
# LUTr-License-URL: https://freshluts.com/termsandconditions
# LUTr-License-Basis: site-terms
# LUTr-Transform-Class: creative-look
# LUTr-Tags: creative, freshluts, community, cube, film-emulation, low-key, rec709
# LUTr-Input-Color-Space: rec709
# LUTr-Input-Gamut: rec709
# LUTr-Input-Transfer: rec709
# LUTr-Output-Color-Space: srgb
# LUTr-Output-Gamut: rec709
# LUTr-Output-Transfer: srgb
# LUTr-Color-Space-Confidence: declared-by-source
# LUTr-Domain-Normalized: true
# LUTr-Shaper: none
# LUTr-Original-Grid: 33x33x33
# LUTr-Conversion-Grid: 33x33x33
# LUTr-Conversion-Interpolation: none
# LUTr-Conversion-Method: Metadata normalization; numeric LUT samples preserved
# LUTr-Conversion-Tool: LUTr scripts/convert-all-to-cube.mjs 2.0.0
# LUTr-Conversion-Date: 2026-07-28
# LUTr-Asset-URL: https://freshluts.com/luts/154
# LUTr-Author: Shamoon Abbasi
# LUTr-Author-URL: https://freshluts.com/users/1258
# LUTr-Attribution: Shamoon Abbasi via Fresh LUTs
# LUTr-Source-Labels: gamma=Rec 709; color=None; key=Low Key; style=Film emulation
# LUTr-Note: Preserve this metadata and the upstream license notices when redistributing.
TITLE "MORNING CONTRAST"
LUT_3D_SIZE 33
DOMAIN_MIN 0 0 0
DOMAIN_MAX 1 1 1
0 0 0
0 0 0
0.00329595 0 0
0.0291142 0 0
0.0517281 0 0
0.0749065 0 0
0.100374 0 0
0.129717 0 0
0.164385 0 0
0.206378 0 0
0.253056 0 0
0.302068 0 0
0.351598 0 0
0.399603 0 0
0.446036 0 0
0.493019 0 0
0.539498 0 0
0.584405 0 0
0.626734 0 0
0.665522 0 0
0.700206 0 0
0.731121 0 0
0.758694 0 0
0.783383 0 0
0.8056 0 0
0.826001 0 0
0.84506 0 0
0.863142 0 0
0.880629 0 0
0.897871 0 0
0.915236 0 0
0.933043 0 0
0.951415 0 0
0 0 0
0 0 0
0.00386053 0 0
0.0302892 0 0
0.0537423 0 0
0.0783551 0 0
0.10692 0 0
0.13724 0 0
0.171511 0 0
0.210758 0 0
0.255283 0 0
0.303151 0 0
0.351934 0 0
0.399451 0 0
0.445579 0 0
0.492393 0 0
0.538811 0 0
0.583749 0 0
0.6262 0 0
0.665187 0 0
0.70013 0 0
0.731365 0 0
0.759335 0 0
0.784466 0 0
0.807157 0 0
0.828092 0 0
0.847761 0 0
0.866529 0 0
0.884794 0 0
0.902876 0 0
0.921111 0 0
0.939818 0 0
0.959121 0 0
0 0.00111391 0
0 0.00228885 0
0.00314336 0.00314336 0
0.0321813 0.00563058 0
0.0560769 0.00720226 0
0.0797436 0.0080415 0
0.105104 0.00793469 0
0.133791 0.00663767 0
0.167086 0.00386053 0
0.205692 0 0
0.24979 0 0
0.297398 0 0
0.346059 0 0
0.393545 0 0
0.43975 0 0
0.486717 0 0
0.533349 0 0
0.578592 0 0
0.621393 0 0
0.660777 0 0
0.696178 0 0
0.727916 0 0
0.756451 0 0
0.782208 0 0
0.805631 0 0
0.827375 0 0
0.847883 0 0
0.867536 0 0
0.886717 0 0
0.90573 0 0
0.924941 0 0
0.94464 0 0
0.964965 0 0
0 0.0326085 0
0 0.0337377 0
0.00627146 0.0328069 0
0.0323796 0.0323796 0
0.054963 0.032639 0
0.0777905 0.032639 0
0.102602 0.0319829 0
0.130938 0.0303197 0
0.164019 0.0273442 0
0.202533 0.0229191 0
0.246662 0.0170291 0
0.294362 0.0102388 0
0.343206 0.00323491 0
0.390936 0 0
0.437446 0 0
0.484779 0 0
0.531838 0 0
0.577554 0 0
0.620874 0 0
0.660838 0 0
0.696925 0 0
0.729412 0 0
0.75877 0 0
0.785397 0 0
0.809705 0 0
0.832364 0 0
0.853834 0 0
0.874464 0 0
0.894636 0 0
0.914687 0 0
0.934951 0 0
0.955734 0.00236515 0
0.977157 0.00885023 0
0 0.0576028 0
0 0.0576181 0
0.0071107 0.0559854 0
0.0327459 0.0550698 0
0.0550393 0.0550393 0
0.0776989 0.0548714 0
0.102464 0.0541695 0
0.130846 0.0525521 0
0.16405 0.0497139 0
0.202777 0.0454871 0
0.247166 0.0398566 0
0.295201 0.033402 0
0.344427 0.0267948 0
0.392615 0.0206607 0
0.439612 0.0150454 0
0.48748 0.00943008 0
0.535164 0.0041352 0
0.581567 0 0
0.625681 0 0
0.666499 0 0
0.703441 0 0
0.736843 0 0
0.767117 0 0
0.794705 0 0
0.820005 0 0
0.843687 0.00434882 0
0.866194 0.00943008 0
0.887892 0.0151522 0
0.909148 0.0214084 0
0.930312 0.0281224 0
0.951705 0.0352178 0
0.973617 0.0425727 0
0.996109 0.0501411 0
0 0.0803082 0
0 0.0800946 0
0.00662242 0.0783246 0
0.0322576 0.077409 0
0.054612 0.0774395 0
0.0774395 0.0774395 0
0.102419 0.0769665 0
0.13109 0.075639 0
0.16466 0.0731518 0
0.2038 0.069337 0
0.248646 0.0641794 0
0.2972 0.0582284 0
0.34699 0.0521859 0
0.395819 0.0466926 0
0.443534 0.041825 0
0.492226 0.0370031 0
0.540764 0.032578 0
0.588052 0.0288243 0
0.633082 0.0260471 0
0.67483 0.024506 0
0.712749 0.0243992 0
0.747143 0.0256199 0
0.778454 0.0280613 0
0.80708 0.0316472 0
0.833463 0.0362554 0
0.858228 0.0417182 0
0.881849 0.0479286 0
0.904692 0.0547951 0
0.927062 0.0621653 0
0.949279 0.0699168 0
0.971618 0.0779583 0
0.994354 0.0861372 0
1 0.0944228 0
0 0.10341 0
0 0.103304 0
0.00456245 0.101717 0
0.0304417 0.101061 0
0.0531167 0.101411 0
0.0763256 0.101778 0
0.101732 0.101732 0
0.130892 0.100893 0
0.164981 0.0989242 0
0.2047 0.0957046 0
0.250233 0.0912184 0
0.29955 0.0860304 0
0.350164 0.0808118 0
0.399847 0.0761883 0
0.448478 0.0722057 0
0.498085 0.0683299 0
0.54757 0.0648356 0
0.59585 0.0620737 0
0.641871 0.0603037 0
0.684657 0.0598001 0
0.723644 0.0607309 0
0.759121 0.063035 0
0.791531 0.0666056 0
0.821286 0.0713207 0
0.848798 0.0770581 0
0.874662 0.0836194 0
0.899306 0.090837 0
0.923033 0.0985885 0
0.946197 0.106752 0
0.969085 0.11519 0
0.992004 0.123796 0
1 0.132464 0
1 0.141115 0
0 0.12845 0
0 0.128679 0
0.000335698 0.127504 0
0.0266728 0.127291 0
0.049836 0.12813 0
0.0735943 0.129046 0
0.0996262 0.129625 0
0.129488 0.129488 0
0.16437 0.128313 0
0.204944 0.125933 0
0.251347 0.122332 0
0.301564 0.118044 0
0.353124 0.113771 0
0.403769 0.110109 0
0.453391 0.107118 0
0.504005 0.10425 0
0.554543 0.101808 0
0.603876 0.100099 0
0.650996 0.0994125 0
0.694896 0.100023 0
0.735012 0.102098 0
0.771603 0.105531 0
0.805081 0.11017 0
0.835828 0.115846 0
0.864195 0.122454 0
0.890806 0.129763 0
0.916091 0.137621 0
0.940368 0.145922 0
0.963958 0.154513 0
0.987182 0.163287 0
1 0.172137 0
1 0.180926 0.00030518
1 0.189639 0.00900282
0 0.156588 0
0 0.157321 0
0 0.15671 0
0.0204776 0.157153 0
0.0443885 0.15874 0
0.0689555 0.160464 0
0.0958419 0.161913 0
0.126604 0.162661 0
0.162402 0.162402 0
0.203906 0.160967 0
0.251286 0.158328 0
0.302495 0.155047 0
0.355077 0.151797 0
0.40679 0.149187 0
0.457481 0.147265 0
0.509194 0.145495 0
0.560861 0.144183 0
0.611337 0.143618 0
0.659556 0.14403 0
0.704494 0.145693 0
0.745541 0.148699 0
0.782956 0.152941 0
0.817151 0.158282 0
0.848493 0.164569 0
0.877363 0.171679 0
0.904372 0.17937 0
0.929946 0.187533 0
0.954421 0.196033 0
0.978134 0.20473 0
1 0.213519 0
1 0.222293 0.00560006
1 0.230915 0.0142367
1 0.239368 0.0226749
0 0.188678 0
0 0.190188 0
0 0.190402 0
0.0121004 0.191714 0
0.0368963 0.194186 0
0.0623941 0.196857 0
0.0902419 0.199252 0
0.121981 0.200977 0
0.158785 0.201724 0
0.201328 0.201328 0
0.249775 0.199756 0
0.302068 0.197559 0
0.355764 0.195407 0
0.408591 0.193927 0
0.46041 0.193149 0
0.513222 0.192462 0
0.565881 0.192157 0
0.617243 0.192477 0
0.666255 0.193668 0
0.711864 0.196002 0
0.753475 0.199573 0
0.791348 0.204288 0
0.82591 0.209979 0
0.857511 0.216541 0
0.886534 0.223804 0
0.913634 0.231586 0
0.939178 0.239719 0
0.963546 0.248096 0
0.987045 0.256596 0
1 0.26511 0.00547799
1 0.273487 0.0138552
1 0.281651 0.0220188
1 0.28957 0.0299382
0 0.225574 0
0 0.227985 0
0 0.229145 0
0.00178531 0.231418 0
0.0275883 0.234897 0
0.0540932 0.238575 0
0.0829938 0.242008 0
0.115785 0.244816 0
0.153689 0.246647 0
0.19736 0.247364 0
0.246937 0.246937 0
0.300343 0.245853 0
0.355108 0.24477 0
0.408896 0.244251 0
0.46157 0.244312 0
0.515114 0.244373 0
0.568414 0.244694 0
0.62031 0.245548 0
0.669734 0.247166 0
0.715663 0.249821 0
0.757504 0.25362 0
0.795514 0.258457 0
0.830106 0.264195 0
0.861662 0.270695 0
0.890547 0.277821 0
0.917388 0.285359 0
0.942626 0.293187 0
0.966583 0.301152 0
0.989593 0.309163 0
1 0.317159 0.0075227
1 0.325277 0.0156252
1 0.333394 0.0237583
1 0.341512 0.0318761
0 0.266911 0
0 0.270329 0
0 0.272526 0
0 0.275837 0
0.0185855 0.2804 0
0.0462043 0.285176 0
0.0762188 0.289738 0
0.110155 0.293675 0
0.149157 0.29662 0
0.193866 0.298375 0
0.244358 0.298848 0
0.298589 0.298589 0
0.35404 0.298192 0
0.408423 0.298283 0
0.461585 0.298833 0
0.515526 0.299275 0
0.5691 0.299886 0
0.62118 0.300923 0
0.67071 0.302647 0
0.716655 0.305303 0
0.758404 0.30901 0
0.796246 0.31368 0
0.830564 0.319142 0
0.861753 0.325292 0
0.890211 0.331975 0
0.916533 0.33901 0
0.941344 0.346395 0
0.965103 0.354162 0
0.988159 0.362234 0
1 0.370459 0.00631724
1 0.378775 0.0146334
1 0.387045 0.0229038
1 0.39527 0.0311284
0 0.312108 0
0 0.316609 0
0 0.319905 0
0 0.324361 0
0.0124056 0.330053 0
0.0411078 0.335912 0
0.0721141 0.341466 0
0.106935 0.346273 0
0.146715 0.349996 0
0.192065 0.352407 0
0.243107 0.353445 0
0.297795 0.353628 0
0.353597 0.353597 0
0.40824 0.353933 0
0.461555 0.354635 0
0.515557 0.355154 0
0.569116 0.355734 0
0.621073 0.356649 0
0.67039 0.35816 0
0.716045 0.360525 0
0.757397 0.363851 0
0.794766 0.368048 0
0.828565 0.372992 0
0.859419 0.37879 0
0.887755 0.385367 0
0.914229 0.392523 0
0.939269 0.400153 0
0.963211 0.408118 0
0.986404 0.416312 0
1 0.424613 0.00463874
1 0.432959 0.0129854
1 0.44123 0.0212558
1 0.449378 0.0294041
0 0.360616 0
0 0.366232 0
0 0.370581 0
0 0.375998 0
0.0105592 0.382513 0
0.0399939 0.389105 0
0.0716259 0.395285 0
0.106966 0.400626 0
0.147158 0.404746 0
0.192828 0.407477 0
0.244099 0.408728 0
0.298894 0.409033 0
0.354726 0.409033 0
0.409308 0.409308 0
0.46247 0.409857 0
0.516228 0.410132 0
0.569451 0.410376 0
0.620996 0.41088 0
0.669825 0.411902 0
0.714977 0.413764 0
0.756085 0.416846 0
0.793423 0.421012 0
0.827436 0.426169 0
0.858503 0.432181 0
0.887007 0.438926 0
0.913603 0.446204 0
0.938704 0.453895 0
0.962661 0.461875 0
0.985824 0.470024 0
1 0.478264 0.0039826
1 0.486473 0.012192
1 0.494575 0.0202792
1 0.50251 0.0282139
0 0.41207 0
0 0.418494 0
0 0.423545 0
0 0.429526 0
0.0119783 0.43653 0
0.0417792 0.443503 0
0.0736858 0.449958 0
0.109209 0.455467 0
0.149493 0.459693 0
0.195148 0.462425 0
0.246326 0.463584 0
0.300938 0.463706 0
0.356497 0.463432 0
0.410727 0.463325 0
0.463447 0.463447 0
0.51667 0.463188 0
0.569482 0.46302 0
0.620859 0.463355 0
0.669764 0.464454 0
0.715145 0.466545 0
0.756451 0.46981 0
0.793942 0.474144 0
0.828061 0.479393 0
0.859159 0.485451 0
0.887663 0.492195 0
0.914199 0.499428 0
0.939208 0.507012 0
0.963027 0.514839 0
0.985992 0.52282 0
1 0.530816 0.00392157
1 0.53875 0.0118563
1 0.546532 0.0196231
1 0.554086 0.0271916
0 0.466041 0
0 0.472908 0
0 0.478294 0
0 0.484535 0
0.0136263 0.491691 0
0.0434882 0.498711 0
0.0753643 0.505135 0
0.11075 0.510506 0
0.15082 0.514519 0
0.19617 0.51693 0
0.246952 0.517708 0
0.301091 0.517342 0
0.35613 0.516548 0
0.41004 0.516136 0
0.462669 0.516167 0
0.516075 0.516075 0
0.5691 0.516136 0
0.620661 0.51664 0
0.669688 0.517861 0
0.71516 0.520043 0
0.756481 0.523339 0
0.793957 0.527642 0
0.828 0.53283 0
0.858991 0.538781 0
0.887343 0.545357 0
0.913664 0.552392 0
0.93843 0.559731 0
0.961944 0.567254 0
0.984573 0.574899 0
1 0.582513 0.002121
1 0.590036 0.0096437
1 0.59733 0.0169375
1 0.604395 0.0240024
0 0.520974 0
0 0.527947 0
0 0.533349 0
0 0.539528 0
0.0154879 0.546502 0
0.0450904 0.553277 0
0.0766308 0.559365 0
0.111589 0.564324 0
0.151156 0.567819 0
0.196033 0.569772 0
0.246586 0.570306 0
0.300725 0.569955 0
0.355993 0.569375 0
0.410101 0.569177 0
0.462898 0.56936 0
0.516396 0.569375 0
0.569497 0.569497 0
0.621057 0.570016 0
0.670039 0.571206 0
0.715434 0.573297 0
0.756634 0.576471 0
0.793927 0.580591 0
0.827741 0.58555 0
0.858488 0.591241 0
0.886519 0.597513 0
0.91249 0.604181 0
0.936843 0.611124 0
0.95993 0.618219 0
0.982086 0.625376 0
1 0.632471 0
1 0.639414 0.00605783
1 0.646113 0.0127565
1 0.652537 0.0191653
0 0.575357 0
0 0.582147 0
0 0.587259 0
0 0.593057 0
0.0175326 0.599588 0
0.0466163 0.605844 0
0.07776 0.611536 0
0.112566 0.616342 0
0.152224 0.619944 0
0.197345 0.622126 0
0.248096 0.622858 0
0.302373 0.622644 0
0.357733 0.622156 0
0.411872 0.621988 0
0.464668 0.622171 0
0.51812 0.622141 0
0.571115 0.622156 0
0.622538 0.622538 0
0.671321 0.623514 0
0.716472 0.625391 0
0.757397 0.62826 0
0.794369 0.632074 0
0.827817 0.636667 0
0.858122 0.641932 0
0.88571 0.647745 0
0.911192 0.653925 0
0.935012 0.660334 0
0.957519 0.66685 0
0.979049 0.673381 0
0.999939 0.67982 0
1 0.686061 0.00166323
1 0.692027 0.00762951
1 0.697673 0.0132601
0 0.627817 0
0 0.634119 0
0 0.638727 0
0 0.644221 0
0.0208286 0.65069 0
0.0500954 0.65713 0
0.0814679 0.66305 0
0.116457 0.668025 0
0.156222 0.671748 0
0.201434 0.674006 0
0.252201 0.674754 0
0.306447 0.674525 0
0.36173 0.673961 0
0.415778 0.673686 0
0.468391 0.673701 0
0.52163 0.673457 0
0.57438 0.673228 0
0.625498 0.673304 0
0.673945 0.673945 0
0.718715 0.675425 0
0.759197 0.677882 0
0.795712 0.681208 0
0.828641 0.685298 0
0.858412 0.690013 0
0.88539 0.695232 0
0.910246 0.700771 0
0.933379 0.706508 0
0.955169 0.712306 0
0.975952 0.71809 0
0.996048 0.723735 0
1 0.729168 0
1 0.73431 0.00210575
1 0.739147 0.0069276
0 0.677653 0
0 0.68397 0
0 0.688823 0
0 0.69453 0
0.027985 0.701152 0
0.0573587 0.707683 0
0.0887922 0.713664 0
0.123781 0.718654 0
0.163516 0.722332 0
0.208637 0.724498 0
0.259251 0.725109 0
0.313344 0.724697 0
0.368383 0.723903 0
0.422156 0.723354 0
0.474464 0.723064 0
0.527352 0.722454 0
0.57969 0.721828 0
0.630365 0.721462 0
0.678325 0.721614 0
0.722576 0.722576 0
0.762493 0.724453 0
0.798383 0.727184 0
0.830671 0.730617 0
0.859754 0.734646 0
0.886015 0.739132 0
0.910094 0.743908 0
0.932433 0.748837 0
0.953399 0.753826 0
0.973373 0.758785 0
0.99266 0.763638 0
1 0.768292 0
1 0.772671 0
1 0.776761 0.00125124
0 0.726513 0
0 0.732967 0
0 0.737911 0
0.0101167 0.743633 0
0.0390631 0.750256 0
0.0683757 0.756725 0
0.0997024 0.7626 0
0.134539 0.767437 0
0.174075 0.770916 0
0.218952 0.772854 0
0.269291 0.773175 0
0.323033 0.772427 0
0.377722 0.771282 0
0.431067 0.770306 0
0.482918 0.769558 0
0.535302 0.768444 0
0.587106 0.767269 0
0.637201 0.766323 0
0.684535 0.765866 0
0.728115 0.766155 0
0.76733 0.76733 0
0.802487 0.769314 0
0.833997 0.771969 0
0.862257 0.775189 0
0.887709 0.778866 0
0.910964 0.782818 0
0.932509 0.786954 0
0.952712 0.79118 0
0.971923 0.795377 0
0.990478 0.799481 0
1 0.803418 0
1 0.807095 0
1 0.810498 0
0 0.774243 0
0 0.780682 0
0 0.785534 0
0.0244755 0.79115 0
0.0532387 0.797604 0
0.0823377 0.803861 0
0.11339 0.809476 0
0.147936 0.814008 0
0.187137 0.817151 0
0.231617 0.818677 0
0.281514 0.81857 0
0.334798 0.817365 0
0.388968 0.815686 0
0.441749 0.81416 0
0.493004 0.812802 0
0.544747 0.811063 0
0.59588 0.809216 0
0.645258 0.807553 0
0.691844 0.806332 0
0.73463 0.805829 0
0.773022 0.806195 0
0.807355 0.807355 0
0.838056 0.809201 0
0.865538 0.811627 0
0.890211 0.814542 0
0.912734 0.817761 0
0.933547 0.821164 0
0.953033 0.824659 0
0.971542 0.828168 0
0.989425 0.831601 0
1 0.834867 0
1 0.837903 0
1 0.840681 0
0 0.820462 0
0 0.826719 0
0.00926223 0.831342 0
0.0411536 0.836683 0
0.0696117 0.842817 0
0.0983291 0.848707 0
0.129 0.853925 0
0.163088 0.858015 0
0.201801 0.860655 0
0.245747 0.861662 0
0.295079 0.86099 0
0.347738 0.859159 0
0.401266 0.85684 0
0.453361 0.854627 0
0.503883 0.852537 0
0.554864 0.850019 0
0.605173 0.847364 0
0.653727 0.844877 0
0.699504 0.842847 0
0.741497 0.84155 0
0.77911 0.841138 0
0.81268 0.841535 0
0.842634 0.842634 0
0.869398 0.844343 0
0.893355 0.84654 0
0.91519 0.849058 0
0.935332 0.851804 0
0.954162 0.854643 0
0.972045 0.857511 0
0.989288 0.860319 0
1 0.862989 0
1 0.865431 0
1 0.867628 0
0 0.864805 0
0 0.870726 0
0.0278477 0.874983 0
0.0593118 0.879896 0
0.0872969 0.885573 0
0.115526 0.890959 0
0.145647 0.895628 0
0.179141 0.899123 0
0.217227 0.901137 0.000534066
0.260517 0.901488 0.000885023
0.309148 0.900099 0
0.361059 0.897536 0
0.413794 0.894423 0
0.46508 0.891386 0
0.514778 0.888487 0
0.56495 0.885161 0
0.614481 0.881712 0
0.662257 0.878462 0
0.707271 0.875669 0
0.748516 0.873625 0
0.785428 0.872496 0
0.818296 0.872206 0
0.847562 0.872618 0
0.873655 0.873655 0
0.896971 0.875212 0
0.918166 0.877104 0
0.937697 0.87921 0
0.955932 0.881468 0
0.97322 0.883757 0
0.989914 0.886 0
1 0.888106 0
1 0.890013 0
1 0.891691 0
0 0.90692 0
0.0130922 0.912367 0
0.0471809 0.916091 0
0.0780957 0.920455 0
0.105486 0.925521 0.00314336
0.133074 0.930266 0.00790417
0.162509 0.934249 0.0118715
0.195285 0.937041 0.0146639
0.232609 0.938293 0.0159152
0.27509 0.937835 0.0154726
0.322911 0.935637 0.0132601
0.374014 0.93225 0.00987259
0.42594 0.928344 0.00596628
0.476448 0.924529 0.00215152
0.525383 0.920851 0
0.574792 0.916777 0
0.62359 0.912596 0
0.670665 0.908629 0
0.714977 0.90515 0
0.75555 0.902434 0
0.791806 0.900649 0
0.824033 0.899702 0
0.852674 0.899489 0
0.878157 0.899916 0
0.900877 0.900877 0
0.921492 0.90219 0
0.940459 0.903746 0
0.95816 0.905455 0
0.974914 0.90721 0
0.991089 0.908934 0
1 0.910552 0
1 0.911986 0
1 0.913222 0
0.00488289 0.946563 0.00488289
0.0328069 0.951385 0.00970474
0.0662547 0.954467 0.0127871
0.0964675 0.958129 0.0164492
0.123125 0.962463 0.0207828
0.149935 0.96643 0.0247654
0.178561 0.969604 0.0279393
0.210529 0.971572 0.0298924
0.247028 0.972015 0.0303349
0.288716 0.970764 0.0290837
0.33576 0.967788 0.0261082
0.386099 0.963638 0.0219577
0.437278 0.958984 0.0173037
0.487068 0.954452 0.0127718
0.535286 0.950072 0.00839246
0.584024 0.945312 0.00363165
0.632151 0.940459 0
0.678569 0.935836 0
0.722255 0.931716 0
0.762203 0.928374 0
0.797833 0.925978 0
0.82948 0.924453 0
0.857557 0.923674 0
0.88249 0.923552 0
0.904662 0.923964 0
0.924758 0.924758 0
0.943221 0.925811 0
0.960418 0.927016 0
0.976715 0.928313 0
0.992462 0.92961 0
1 0.930831 0
1 0.931899 0
1 0.932784 0
0.0243381 0.983429 0.0243381
0.0515145 0.987503 0.0284123
0.0841688 0.989792 0.0307012
0.113573 0.992645 0.0335546
0.139406 0.996155 0.0370642
0.165408 0.999329 0.040238
0.193256 1 0.0426184
0.224445 1 0.0438087
0.260197 1 0.0435035
0.301152 1 0.0415198
0.347463 0.996918 0.0378271
0.397116 0.992065 0.0329747
0.447608 0.986725 0.0276341
0.496727 0.981521 0.0224308
0.544305 0.976501 0.0174105
0.592401 0.971115 0.0120241
0.639918 0.965652 0.00656138
0.68574 0.960433 0.00134279
0.728847 0.955734 0
0.768231 0.951827 0
0.803326 0.948882 0
0.834424 0.946822 0
0.861982 0.945525 0
0.886412 0.9449 0
0.90811 0.944823 0
0.927749 0.945159 0
0.945785 0.945785 0
0.9626 0.946624 0
0.978546 0.947555 0
0.993957 0.948516 0
1 0.949416 0
1 0.950179 0
1 0.950774 0
0.0421759 1 0.0421759
0.0685283 1 0.0454261
0.100374 1 0.0469062
0.129 1 0.0489815
0.15407 1 0.0517281
0.179324 1 0.0541543
0.206439 1 0.0558022
0.236927 1 0.0562905
0.271977 1 0.0552834
