site/assets/luts/freshluts--0000152-rest-sony-a7s2.cube
# LUTr-Schema-Version: 2
# LUTr-ID: freshluts--0000152-rest-sony-a7s2
# LUTr-Title: REST SONY A7S2
# LUTr-Collection: Fresh LUTs
# LUTr-Collection-ID: freshluts-community
# LUTr-Source: https://freshluts.com
# LUTr-Retrieved: 2026-07-27
# LUTr-Source-File: submissions-raw/freshluts/cubes/152__REST_33.C0075.cube
# LUTr-Source-Format: CUBE
# LUTr-Source-SHA256: ab15ee9aa3d5513d11baa779b7062abd556507ad08e4318f004cfaba641abd43
# LUTr-License: CC0-1.0
# LUTr-License-URL: https://freshluts.com/termsandconditions
# LUTr-License-Basis: site-terms
# LUTr-Transform-Class: creative-look
# LUTr-Tags: creative, freshluts, community, cube, film-emulation, blue, low-key, rec709
# LUTr-Input-Color-Space: rec709
# LUTr-Input-Gamut: rec709
# LUTr-Input-Transfer: rec709
# LUTr-Output-Color-Space: srgb
# LUTr-Output-Gamut: rec709
# LUTr-Output-Transfer: srgb
# LUTr-Color-Space-Confidence: inferred-from-source-label
# LUTr-Domain-Normalized: true
# LUTr-Shaper: none
# LUTr-Original-Grid: 33x33x33
# LUTr-Conversion-Grid: 33x33x33
# LUTr-Conversion-Interpolation: none
# LUTr-Conversion-Method: Metadata normalization; numeric LUT samples preserved
# LUTr-Conversion-Tool: LUTr scripts/convert-all-to-cube.mjs 2.0.0
# LUTr-Conversion-Date: 2026-07-28
# LUTr-Asset-URL: https://freshluts.com/luts/152
# LUTr-Author: Shamoon Abbasi
# LUTr-Author-URL: https://freshluts.com/users/1258
# LUTr-Attribution: Shamoon Abbasi via Fresh LUTs
# LUTr-Source-Labels: gamma=Rec 709; color=Blue; key=Low Key; style=Film emulation
# LUTr-Note: Preserve this metadata and the upstream license notices when redistributing.
TITLE "REST SONY A7S2"
LUT_3D_SIZE 9
DOMAIN_MIN 0 0 0
DOMAIN_MAX 1 1 1
0.0434424 0.0638743 0.0654154
0.0550851 0.076173 0.0757916
0.0896315 0.0839246 0.0833448
0.166369 0.0809491 0.0852522
0.268467 0.0797436 0.0856184
0.397726 0.0685893 0.0844434
0.544533 0.0454719 0.0807355
0.704982 0.0234226 0.0711833
0.847166 0.0437171 0.0537575
0.0899825 0.113313 0.107652
0.110048 0.1337 0.124651
0.142092 0.157443 0.137194
0.241718 0.16553 0.129732
0.381399 0.151904 0.127245
0.532525 0.129488 0.124132
0.678325 0.129381 0.114076
0.811536 0.1458 0.0995651
0.919554 0.185748 0.0794232
0.143343 0.197955 0.157565
0.199893 0.231525 0.186252
0.248295 0.266499 0.193454
0.337789 0.299886 0.183368
0.475349 0.316426 0.171298
0.633143 0.315602 0.162112
0.782162 0.303044 0.156497
0.901488 0.289158 0.153384
0.983169 0.322438 0.13193
0.186267 0.308186 0.198352
0.274174 0.34995 0.221607
0.361746 0.392523 0.236789
0.461875 0.437156 0.234485
0.575677 0.474357 0.222477
0.709636 0.504234 0.207446
0.821927 0.512734 0.196277
0.919982 0.513054 0.188449
1 0.505165 0.182162
0.264363 0.435508 0.243503
0.369497 0.480095 0.261616
0.475761 0.525948 0.276112
0.576791 0.570428 0.281117
0.67599 0.612818 0.274403
0.757412 0.637675 0.263615
0.853956 0.666224 0.250248
0.938872 0.668986 0.238254
1 0.666484 0.222873
0.383764 0.583612 0.287251
0.48629 0.614237 0.309255
0.582254 0.649531 0.32314
0.668528 0.682765 0.332891
0.744915 0.715068 0.334951
0.818326 0.747143 0.326818
0.882155 0.765347 0.31162
0.954467 0.78732 0.286793
1 0.792203 0.262058
0.524636 0.71516 0.343694
0.607477 0.728542 0.380865
0.676738 0.755657 0.394995
0.739666 0.783871 0.406302
0.80177 0.810788 0.411582
0.864607 0.834119 0.407279
0.924025 0.853468 0.390158
0.972122 0.863706 0.357092
0.989929 0.868864 0.339513
0.647395 0.835035 0.446464
0.707683 0.840452 0.505211
0.760754 0.85742 0.518425
0.815335 0.87335 0.527703
0.866911 0.888823 0.531762
0.913054 0.90547 0.526268
0.95964 0.924163 0.504723
1 0.938781 0.45069
1 0.938766 0.447471
0.733883 0.897093 0.557168
0.783459 0.894636 0.600259
0.821454 0.900923 0.599664
0.85861 0.908629 0.590753
0.895979 0.917021 0.575036
0.935607 0.92578 0.54847
0.98204 0.9346 0.502815
1 0.938933 0.469093
1 0.938918 0.468376
0.0469825 0.0679637 0.0686809
0.0590372 0.0809033 0.0796674
0.0829175 0.0929122 0.0935683
0.152575 0.0938888 0.106218
0.245945 0.098909 0.112993
0.366552 0.0975052 0.117113
0.50782 0.0901961 0.11841
0.667735 0.0833448 0.115068
0.817197 0.101167 0.106249
0.0964828 0.11989 0.113207
0.11722 0.141512 0.130953
0.142473 0.167025 0.150729
0.213001 0.186221 0.165362
0.35584 0.17232 0.171481
0.493126 0.169726 0.171221
0.638972 0.174807 0.166567
0.77821 0.190677 0.158785
0.8934 0.224475 0.147494
0.168093 0.209232 0.17879
0.218814 0.242588 0.205219
0.257588 0.27834 0.231418
0.309499 0.313344 0.250095
0.444465 0.33315 0.241367
0.606729 0.33109 0.238071
0.761822 0.316976 0.239155
0.872847 0.326757 0.232258
0.958267 0.358602 0.217533
0.210849 0.318791 0.241672
0.317754 0.362814 0.276326
0.398733 0.402686 0.312779
0.462318 0.442695 0.321523
0.559533 0.482277 0.312886
0.689067 0.513191 0.30309
0.803922 0.522057 0.296605
0.904799 0.522515 0.294148
0.997879 0.514687 0.293355
0.289372 0.445594 0.293904
0.401709 0.488197 0.321798
0.506401 0.53344 0.348379
0.592004 0.575921 0.36582
0.673747 0.616815 0.368093
0.74876 0.643977 0.363546
0.840681 0.671489 0.358099
0.925719 0.675807 0.350256
0.999939 0.673991 0.34078
0.398596 0.594446 0.333242
0.506325 0.616342 0.369665
0.600107 0.651942 0.392691
0.679057 0.685161 0.414542
0.746227 0.717556 0.428519
0.812604 0.750027 0.43032
0.873564 0.770474 0.423835
0.942931 0.79263 0.411597
0.998596 0.79704 0.39173
0.52842 0.721004 0.388251
0.616281 0.727825 0.442344
0.683391 0.755566 0.465446
0.743633 0.784405 0.487327
0.802121 0.81178 0.503349
0.860197 0.835538 0.509575
0.914992 0.855314 0.503395
0.960739 0.866316 0.48368
0.980362 0.872374 0.469718
0.642939 0.838911 0.487861
0.707515 0.842741 0.54757
0.763165 0.856535 0.574807
0.816754 0.872801 0.587945
0.866011 0.888884 0.596963
0.909438 0.906294 0.598733
0.953796 0.925917 0.58912
0.999969 0.939834 0.557656
0.999985 0.939788 0.554452
0.728969 0.900114 0.585748
0.783429 0.897429 0.626917
0.824643 0.901427 0.641047
0.860182 0.909773 0.637797
0.895857 0.918639 0.630045
0.933669 0.927657 0.61532
0.977981 0.936492 0.589029
0.99881 0.940032 0.573754
0.998871 0.940032 0.573175
0.0486458 0.072221 0.0851911
0.0672923 0.084184 0.089189
0.0980545 0.0936446 0.108156
0.150271 0.104677 0.126711
0.236439 0.109987 0.13962
0.346593 0.11426 0.149279
0.475624 0.119524 0.156344
0.628046 0.125261 0.158862
0.78201 0.142794 0.156435
0.0961624 0.127596 0.124956
0.125399 0.14966 0.137423
0.152483 0.176761 0.157977
0.201114 0.20441 0.183047
0.335943 0.194278 0.207248
0.458091 0.202365 0.214252
0.598611 0.211719 0.216144
0.741176 0.227054 0.21413
0.863508 0.256107 0.209216
0.158297 0.219043 0.198062
0.231891 0.25449 0.214115
0.270848 0.290105 0.240757
0.31339 0.32697 0.268254
0.408194 0.356069 0.289265
0.580392 0.349447 0.298314
0.733181 0.340627 0.304021
0.84097 0.360204 0.297169
0.931029 0.389288 0.287892
0.222446 0.328954 0.277394
0.354849 0.376867 0.303502
0.42446 0.415717 0.333486
0.474769 0.454612 0.360052
0.533928 0.4934 0.378195
0.662699 0.527092 0.37348
0.783642 0.53402 0.372717
0.888808 0.532372 0.376455
0.983642 0.525979 0.380102
0.303029 0.464805 0.33051
0.430869 0.498558 0.366201
0.548806 0.545449 0.402304
0.621881 0.58526 0.442023
0.671168 0.621698 0.455741
0.735897 0.652064 0.453498
0.822843 0.679026 0.452888
0.90901 0.684581 0.449195
0.987503 0.683391 0.445289
0.404852 0.607965 0.372854
0.524651 0.620066 0.422339
0.620584 0.656382 0.456428
0.694682 0.689693 0.495552
0.749691 0.72137 0.523674
0.804547 0.753445 0.533227
0.860517 0.776379 0.532326
0.927077 0.799695 0.528679
0.986542 0.803616 0.514138
0.526406 0.728985 0.431479
0.622065 0.732921 0.493355
0.690425 0.756451 0.531472
0.749996 0.785931 0.561028
0.805508 0.813428 0.584741
0.857298 0.837339 0.597467
0.90602 0.857557 0.598611
0.948547 0.869627 0.589624
0.969406 0.876112 0.579965
0.634668 0.844419 0.528115
0.706233 0.847059 0.584619
0.767422 0.855985 0.622385
0.820722 0.872541 0.637263
0.867735 0.889143 0.650095
0.908415 0.907362 0.657374
0.950576 0.928084 0.655528
0.992264 0.941115 0.637949
0.992584 0.941054 0.634852
0.72018 0.903853 0.611765
0.781476 0.900938 0.651225
0.828061 0.901961 0.678981
0.862593 0.911147 0.680186
0.897353 0.920714 0.678294
0.934234 0.930068 0.671504
0.97702 0.938872 0.656794
0.990814 0.941405 0.651942
0.99086 0.94139 0.651438
0.0417945 0.0796063 0.124498
0.0700542 0.0907912 0.130663
0.107424 0.0985275 0.141878
0.16614 0.104479 0.158724
0.257588 0.101808 0.173739
0.373693 0.0856031 0.180484
0.504158 0.0612497 0.184176
0.648096 0.050309 0.191806
0.786923 0.0742199 0.195865
0.0719463 0.139254 0.171374
0.130159 0.15787 0.168017
0.169131 0.184848 0.175204
0.234241 0.203571 0.208103
0.327092 0.213489 0.237385
0.431388 0.228504 0.251728
0.561151 0.239902 0.258701
0.701793 0.253788 0.260639
0.830121 0.277668 0.259434
0.134569 0.234897 0.23624
0.233249 0.26659 0.231525
0.285389 0.303181 0.249805
0.328267 0.339117 0.277958
0.39321 0.373144 0.309957
0.565744 0.366186 0.341161
0.700832 0.367819 0.348867
0.809323 0.385519 0.345937
0.903151 0.411765 0.340734
0.208637 0.354864 0.30605
0.34406 0.386419 0.324544
0.441016 0.428275 0.342824
0.491249 0.467643 0.368963
0.542214 0.509194 0.395026
0.630152 0.544854 0.419043
0.762203 0.54905 0.432517
0.872312 0.543374 0.446952
0.958587 0.550439 0.446433
0.292729 0.48954 0.361089
0.443351 0.507988 0.400397
0.583246 0.55938 0.430625
0.641199 0.596933 0.466529
0.674784 0.629374 0.501518
0.713848 0.660945 0.528206
0.798383 0.689525 0.533272
0.888319 0.69572 0.536614
0.969558 0.694347 0.54023
0.393927 0.625132 0.409186
0.536492 0.629358 0.466285
0.638605 0.662989 0.509194
0.718288 0.697948 0.559335
0.763897 0.728252 0.603037
0.797894 0.757656 0.61648
0.846479 0.783383 0.615412
0.909789 0.807065 0.615595
0.969177 0.812329 0.608164
0.514229 0.739605 0.474449
0.623041 0.742061 0.536507
0.697627 0.75874 0.585809
0.761151 0.789303 0.616968
0.816449 0.816541 0.64506
0.859998 0.839918 0.662943
0.899992 0.860288 0.668193
0.939101 0.874128 0.664302
0.964141 0.882567 0.657465
0.620218 0.851911 0.565087
0.702815 0.852979 0.616342
0.772808 0.856687 0.660441
0.826596 0.872969 0.678004
0.871916 0.889906 0.695338
0.909758 0.90866 0.709743
0.949065 0.930526 0.715557
0.985214 0.942657 0.705348
0.985641 0.942565 0.701442
0.70489 0.908492 0.634852
0.776089 0.905058 0.673609
0.829938 0.903319 0.712596
0.864775 0.912688 0.721065
0.899687 0.923308 0.724849
0.93666 0.93315 0.725383
0.978439 0.941985 0.719066
0.983444 0.943084 0.721141
0.983474 0.943069 0.720775
0.0257572 0.0874037 0.179385
0.0705882 0.101595 0.18529
0.114275 0.115312 0.200427
0.173632 0.117784 0.22034
0.264347 0.11754 0.239567
0.37966 0.106371 0.251438
0.521355 0.0690776 0.256977
0.679332 0.00254826 0.251698
0.820462 0 0.236225
0.0496681 0.148074 0.224643
0.120363 0.170214 0.234119
0.183032 0.187732 0.24007
0.25182 0.20557 0.25185
0.337682 0.217182 0.272419
0.449577 0.217044 0.287907
0.581338 0.209735 0.295262
0.714382 0.211551 0.299046
0.83267 0.234226 0.299123
0.0601663 0.249577 0.28777
0.209552 0.279011 0.298482
0.294255 0.313497 0.290684
0.351064 0.350042 0.300206
0.436667 0.377096 0.338506
0.570825 0.37438 0.374456
0.673838 0.387747 0.38146
0.778256 0.402701 0.382376
0.87425 0.425864 0.380835
0.0999161 0.379171 0.33727
0.322408 0.393881 0.366705
0.446708 0.441566 0.35993
0.509804 0.482521 0.377569
0.555962 0.520729 0.404746
0.61416 0.556085 0.438437
0.74725 0.564019 0.479835
0.853071 0.558709 0.504891
0.930892 0.572763 0.501305
0.193698 0.518578 0.383749
0.436973 0.523201 0.433112
0.572351 0.567788 0.452293
0.652445 0.607614 0.478355
0.686702 0.641245 0.513359
0.715206 0.67068 0.548928
0.76965 0.698466 0.580163
0.868025 0.7084 0.598901
0.952956 0.705684 0.611307
0.348028 0.646403 0.446479
0.532555 0.646769 0.501854
0.643702 0.669184 0.549462
0.73872 0.708278 0.590127
0.775998 0.737163 0.62385
0.801205 0.765164 0.64918
0.831434 0.792111 0.666667
0.891478 0.814679 0.669703
0.953689 0.821744 0.669413
0.481498 0.753414 0.515267
0.614847 0.754192 0.573266
0.702571 0.76199 0.626627
0.773281 0.79472 0.653834
0.835767 0.8224 0.686046
0.870695 0.844114 0.716167
0.895171 0.863493 0.727153
0.930007 0.880003 0.724727
0.959014 0.888853 0.71899
0.594064 0.861646 0.597238
0.694347 0.860853 0.643153
0.775464 0.861723 0.687236
0.832486 0.874479 0.713481
0.877882 0.891676 0.735775
0.914275 0.910552 0.759243
0.949645 0.933288 0.774838
0.977386 0.944488 0.772152
0.978042 0.944335 0.766796
0.677562 0.914382 0.655344
0.764096 0.910079 0.694377
0.827176 0.907637 0.736767
0.866545 0.91426 0.759854
0.902663 0.926268 0.768566
0.941634 0.937057 0.77705
0.976028 0.944823 0.783246
0.975174 0.945068 0.790417
0.975174 0.945052 0.790311
0.0125887 0.0969406 0.250797
0.0578927 0.111131 0.258015
0.126711 0.130846 0.272358
0.198688 0.144991 0.295003
0.286229 0.139178 0.319631
0.391043 0.131518 0.334157
0.530083 0.106569 0.347875
0.682734 0.0460365 0.351431
0.829526 0 0.348196
0.0182498 0.162371 0.293065
0.105303 0.178607 0.301656
0.19202 0.212222 0.314244
0.26717 0.228016 0.332769
0.353353 0.234989 0.346426
0.467079 0.235935 0.361212
0.602121 0.222187 0.369985
0.742763 0.189944 0.369848
0.865187 0.148669 0.355322
0.0240635 0.254841 0.340368
0.172213 0.287144 0.353536
0.290852 0.326619 0.36965
0.382086 0.344381 0.369848
0.468132 0.367315 0.383886
0.553124 0.386191 0.398627
0.65594 0.391821 0.408423
0.763165 0.395819 0.412634
0.860136 0.411841 0.412726
0.0215305 0.385687 0.4
0.235248 0.41912 0.407828
0.420111 0.447868 0.423331
0.520455 0.493202 0.416587
0.578378 0.532631 0.426947
0.65156 0.566445 0.472938
0.751537 0.569345 0.523369
0.830823 0.574029 0.541863
0.905226 0.586709 0.541955
0.0117037 0.526528 0.434424
0.366583 0.555749 0.460945
0.545403 0.570199 0.500099
0.654856 0.61854 0.499245
0.696071 0.650813 0.525719
0.724697 0.680705 0.560662
0.761501 0.708278 0.598795
0.85565 0.720073 0.637598
0.94136 0.715618 0.6589
0.158892 0.663874 0.474556
0.497719 0.668803 0.537789
0.635828 0.672282 0.589197
0.729778 0.71426 0.609308
0.785031 0.747158 0.632654
0.808927 0.773877 0.657237
0.832364 0.79971 0.679835
0.873121 0.821698 0.699596
0.939452 0.831861 0.71284
0.352361 0.771832 0.531609
0.588525 0.769787 0.604791
0.699107 0.773251 0.652094
0.77731 0.800122 0.679805
0.851728 0.829908 0.706645
0.879423 0.850462 0.732815
0.895949 0.868269 0.756725
0.91696 0.885969 0.774594
0.956161 0.89781 0.77232
0.540429 0.873899 0.62327
0.674113 0.870985 0.666346
0.772152 0.870024 0.709468
0.836149 0.877211 0.746334
0.88397 0.895232 0.768872
0.924849 0.913878 0.797894
0.957137 0.936324 0.824598
0.970657 0.946578 0.829618
0.971359 0.946303 0.823255
0.625834 0.922469 0.673503
0.739513 0.916533 0.71368
0.818998 0.91284 0.758389
0.867369 0.915282 0.794629
0.905989 0.929152 0.806012
0.950454 0.941588 0.819776
0.969924 0.946899 0.836347
0.968887 0.947417 0.846845
0.968826 0.947463 0.847547
0 0.107988 0.331441
0.0269932 0.122484 0.339162
0.131472 0.142473 0.352636
0.228748 0.171298 0.372412
0.323217 0.181827 0.396414
0.432471 0.165835 0.421561
0.547387 0.147982 0.434287
0.695201 0.11107 0.452598
0.829358 0.0529641 0.457649
0.000320439 0.176196 0.36643
0.085008 0.191028 0.37438
0.199695 0.223575 0.385916
0.29987 0.264256 0.403708
0.390112 0.27364 0.425147
0.487022 0.26949 0.441108
0.615824 0.260777 0.459495
0.74403 0.242664 0.467323
0.86276 0.215885 0.465171
0.00169375 0.268544 0.397177
0.159503 0.299626 0.414527
0.283879 0.329488 0.429618
0.395209 0.375631 0.446448
0.479118 0.379049 0.456672
0.582589 0.382528 0.465156
0.689113 0.38085 0.473716
0.794705 0.371954 0.477516
0.893126 0.359808 0.471077
0 0.38764 0.453147
0.205005 0.416938 0.466163
0.381292 0.457206 0.486107
0.521859 0.499687 0.504479
0.614557 0.52784 0.511849
0.689494 0.550835 0.536736
0.749035 0.567452 0.557916
0.808759 0.578515 0.564965
0.880522 0.588983 0.565927
0 0.530694 0.513237
0.243885 0.560098 0.524941
0.496513 0.594461 0.546792
0.626032 0.620462 0.569863
0.700282 0.659998 0.569512
0.737346 0.689738 0.585168
0.782742 0.717021 0.629709
0.859556 0.724971 0.667887
0.934493 0.723278 0.691035
0 0.665141 0.545769
0.366186 0.683909 0.568292
0.609827 0.69398 0.619425
0.707851 0.715053 0.644724
0.785275 0.754818 0.647425
0.817243 0.783062 0.665034
0.839887 0.808057 0.687144
0.868269 0.82974 0.712764
0.930159 0.840696 0.745418
0.156985 0.783597 0.586755
0.488441 0.788449 0.617563
0.678325 0.790188 0.672724
0.770443 0.80267 0.706096
0.845884 0.835081 0.720897
0.885054 0.856535 0.740887
0.901564 0.874311 0.76492
0.917754 0.891829 0.788373
0.949569 0.907637 0.80557
0.382528 0.891081 0.632303
0.618921 0.884749 0.683299
0.756771 0.88101 0.730953
0.835874 0.881727 0.777127
0.88542 0.900191 0.795621
0.93669 0.91986 0.816617
0.967971 0.94435 0.837766
0.968383 0.947707 0.852155
0.967575 0.94818 0.860792
0.471687 0.93669 0.672068
0.682322 0.926146 0.729885
0.799344 0.919661 0.778347
0.864668 0.917845 0.82034
0.907469 0.931029 0.835035
0.960555 0.945739 0.848234
0.966751 0.94873 0.869902
0.965072 0.950027 0.889036
0.964782 0.95024 0.892363
0 0.121935 0.417304
0.0100099 0.136858 0.424643
0.13846 0.157778 0.437201
0.259815 0.187442 0.455833
0.378546 0.228428 0.481331
0.48632 0.226581 0.509026
0.602411 0.200305 0.538384
0.706813 0.177752 0.550332
0.831281 0.152483 0.572229
0 0.192126 0.446662
0.059617 0.207797 0.454261
0.208011 0.239429 0.46595
0.331167 0.278782 0.483894
0.445762 0.325872 0.510048
0.542412 0.32195 0.53608
0.637507 0.307652 0.554513
0.749706 0.297597 0.57322
0.857404 0.285985 0.585061
0 0.294286 0.474952
0.144411 0.316472 0.490745
0.277821 0.338155 0.504921
0.413413 0.382834 0.523461
0.520684 0.430106 0.548653
0.604318 0.426093 0.568307
0.692912 0.425269 0.579843
0.788327 0.423133 0.589731
0.882155 0.417853 0.591272
0 0.398077 0.516167
0.152758 0.420096 0.525017
0.353414 0.456275 0.54786
0.506172 0.502037 0.576532
0.602319 0.541482 0.596384
0.676768 0.543069 0.591531
0.751019 0.546258 0.591882
0.821393 0.552392 0.599374
0.902663 0.552422 0.602548
0 0.533654 0.582544
0.202045 0.557336 0.595071
0.432731 0.590219 0.613779
0.592523 0.630747 0.634852
0.694484 0.663706 0.648539
0.757961 0.69102 0.657725
0.813214 0.710323 0.676921
0.873732 0.719371 0.700404
0.923537 0.727352 0.705791
0 0.666529 0.630854
0.244953 0.683207 0.638483
0.501472 0.704921 0.649531
0.687663 0.724071 0.681361
0.763989 0.755535 0.692363
0.820203 0.789609 0.693202
0.849928 0.815106 0.703365
0.881178 0.835142 0.736904
0.931685 0.8448 0.774701
0 0.785443 0.654658
0.357916 0.795727 0.663813
0.597116 0.808438 0.684337
0.754406 0.813367 0.730297
0.828779 0.837034 0.750622
0.88542 0.862074 0.754803
0.90692 0.880125 0.772931
0.923598 0.898253 0.796139
0.949004 0.917464 0.819303
0.178042 0.902235 0.689158
0.490837 0.901717 0.702174
0.702785 0.896361 0.74699
0.825116 0.894102 0.797803
0.880949 0.905913 0.824048
0.935027 0.928512 0.83122
0.969253 0.947234 0.843153
0.967941 0.947936 0.856672
0.966781 0.94873 0.869703
0.286229 0.945602 0.731029
0.537575 0.940932 0.745037
0.735851 0.931258 0.787503
0.851331 0.924941 0.836423
0.90454 0.930953 0.859586
0.963195 0.947829 0.868345
0.965423 0.949752 0.884978
0.96408 0.950774 0.900282
0.962982 0.951705 0.913497
0 0.141421 0.517784
0.0000457771 0.157198 0.525368
0.151125 0.179446 0.538582
0.296864 0.210208 0.557916
0.430274 0.25153 0.583093
0.550698 0.30135 0.612329
0.649592 0.287282 0.638056
0.751247 0.259419 0.663767
0.830945 0.242237 0.669413
0 0.213916 0.54638
0.0282597 0.230884 0.553613
0.21825 0.261479 0.565499
0.362722 0.299474 0.582986
0.489586 0.346258 0.606088
0.59527 0.394858 0.632547
0.682445 0.383032 0.654673
0.767086 0.364218 0.671412
0.852842 0.359823 0.682658
0 0.328786 0.575051
0.105348 0.334112 0.585824
0.274449 0.354223 0.598169
0.428687 0.396979 0.613657
0.551354 0.449668 0.633783
0.641352 0.494469 0.655528
0.71632 0.485466 0.673182
0.786587 0.480064 0.681056
0.874372 0.480354 0.692668
0 0.419547 0.596216
0.116411 0.439429 0.608835
0.354391 0.472282 0.630182
0.495796 0.503777 0.647272
0.616449 0.55996 0.664652
0.689158 0.592279 0.680873
0.748425 0.5888 0.686732
0.820951 0.588373 0.691127
0.902312 0.586297 0.693629
0 0.542626 0.649607
0.127398 0.557214 0.653117
0.38349 0.579889 0.660365
0.557076 0.614984 0.675151
0.682399 0.662684 0.700481
0.746685 0.680201 0.704204
0.798825 0.689433 0.698573
0.855711 0.702358 0.705364
0.916259 0.710826 0.710338
0 0.674952 0.694835
0.208972 0.685771 0.699138
0.464179 0.702754 0.707668
0.621668 0.729381 0.719829
0.74847 0.759213 0.739498
0.815732 0.793378 0.750957
0.863493 0.819379 0.763363
0.900481 0.835935 0.784176
0.94316 0.84271 0.810849
0 0.786297 0.723201
0.232563 0.796567 0.726314
0.483726 0.810773 0.730602
0.682338 0.830106 0.747707
0.812726 0.837858 0.788937
0.868772 0.863981 0.799359
0.907958 0.885191 0.801587
0.931502 0.904173 0.811475
0.956268 0.920684 0.837507
0 0.90988 0.766079
0.340642 0.910414 0.769741
0.588388 0.912993 0.779232
0.78027 0.911498 0.81416
0.875792 0.914488 0.851499
0.926604 0.937911 0.859129
0.968353 0.947723 0.852522
0.967544 0.948196 0.861143
0.966384 0.949004 0.874052
0 0.948989 0.814496
0.393988 0.945006 0.817975
0.623041 0.942168 0.824491
0.796292 0.937194 0.844633
0.900023 0.932464 0.880827
0.955474 0.947875 0.889967
0.964538 0.950408 0.895003
0.963714 0.95108 0.904738
0.9626 0.95201 0.917998
