site/assets/luts/freshluts--0000549-red-window-film-4k-green-shadow.cube
# LUTr-Schema-Version: 2
# LUTr-ID: freshluts--0000549-red-window-film-4k-green-shadow
# LUTr-Title: Red Window Film 4K Green Shadow
# LUTr-Collection: Fresh LUTs
# LUTr-Collection-ID: freshluts-community
# LUTr-Source: https://freshluts.com
# LUTr-Retrieved: 2026-07-27
# LUTr-Source-File: submissions-raw/freshluts/cubes/549__Green_Shadow_1.000_1209__2841_29.cube
# LUTr-Source-Format: CUBE
# LUTr-Source-SHA256: 2ad94e672c7f190ef9b5c1a536c2b53a2acfb6176c0545deb48151583aadac0f
# LUTr-License: CC0-1.0
# LUTr-License-URL: https://freshluts.com/termsandconditions
# LUTr-License-Basis: site-terms
# LUTr-Transform-Class: creative-look
# LUTr-Tags: creative, freshluts, community, cube, green, low-key, sony-s-log2, cinematic
# LUTr-Input-Color-Space: sony-slog2-sgamut
# LUTr-Input-Gamut: sony-s-gamut
# LUTr-Input-Transfer: sony-s-log2
# LUTr-Output-Color-Space: srgb
# LUTr-Output-Gamut: rec709
# LUTr-Output-Transfer: srgb
# LUTr-Color-Space-Confidence: inferred-from-source-label
# LUTr-Domain-Normalized: true
# LUTr-Shaper: none
# LUTr-Original-Grid: 33x33x33
# LUTr-Conversion-Grid: 33x33x33
# LUTr-Conversion-Interpolation: none
# LUTr-Conversion-Method: Metadata normalization; numeric LUT samples preserved
# LUTr-Conversion-Tool: LUTr scripts/convert-all-to-cube.mjs 2.0.0
# LUTr-Conversion-Date: 2026-07-28
# LUTr-Asset-URL: https://freshluts.com/luts/549
# LUTr-Author: Hussain Khan
# LUTr-Author-URL: https://freshluts.com/users/46536
# LUTr-Attribution: Hussain Khan via Fresh LUTs
# LUTr-Source-Labels: gamma=Sony S-Log 2; color=Green; key=Low Key; style=Cinematic/Dark
# LUTr-Note: Preserve this metadata and the upstream license notices when redistributing.
TITLE "Red Window Film 4K Green Shadow"
LUT_3D_SIZE 9
DOMAIN_MIN 0 0 0
DOMAIN_MAX 1 1 1
0 0 0
0.0429236 0 0
0.371954 0 0
0.662242 0 0
0.914061 0 0
1 0 0
1 0 0
1 0 0
1 0 0
0 0.0838483 0
0 0.0878004 0
0.368307 0.102113 0
0.735821 0.0840009 0
1 0.068925 0
1 0.0570077 0
1 0.047303 0
1 0.0388952 0
1 0.0311437 0
0 0.229313 0
0 0.236561 0
0.181048 0.23946 0
0.563149 0.305364 0
0.926406 0.320104 0
1 0.31519 0
1 0.304784 0
1 0.292836 0
1 0.280247 0
0 0.391989 0
0 0.398123 0
0.171008 0.399039 0
0.405005 0.41677 0
0.710933 0.491051 0
1 0.543404 0
1 0.556603 0
1 0.551431 0
1 0.538582 0
0 0.564126 0
0 0.569604 0
0.167971 0.569146 0
0.382101 0.567025 0
0.578424 0.59472 0
0.857466 0.670512 0
1 0.737896 0
1 0.765499 0
1 0.768902 0
0 0.734966 0
0 0.74023 0
0.172091 0.740414 0
0.383551 0.736324 0
0.551827 0.735622 0
0.749676 0.768002 0
1 0.837064 0
1 0.90457 0
1 0.946578 0
0 0.902174 0
0 0.906416 0
0.183444 0.90573 0
0.390967 0.899123 0
0.554696 0.894377 0
0.720928 0.895094 0
0.909056 0.929274 0
1 0.992233 0
1 1 0
0 1 0
0 1 0
0.190723 1 0
0.395254 1 0
0.55613 1 0
0.716579 1 0
0.875944 1 0
1 1 0
1 1 0
0 1 0
0 1 0
0.190768 1 0
0.394614 1 0
0.554452 1 0
0.713619 1 0
0.865995 1 0
1 1 0
1 1 0
0 0.00387579 0.0475776
0 0 0.107652
0.180438 0 0.111879
0.395392 0 0.113054
0.589334 0 0.114977
0.808377 0 0.118914
1 0 0.12462
1 0 0.129397
1 0 0.133989
0 0.0870069 0.0217746
0 0.0899825 0.0627756
0.287449 0.0718853 0.0986954
0.611048 0.0781415 0.113664
0.866178 0.0708324 0.111696
1 0.066865 0.112856
1 0.060441 0.111589
1 0.0595865 0.115892
1 0.0518959 0.113375
0 0.187549 0.0486152
0 0.232105 0.100603
0.179019 0.241077 0.105577
0.635538 0.330846 0.0682841
0.962051 0.32636 0.0523995
1 0.314992 0.0478218
1 0.303502 0.0468452
1 0.292409 0.0470436
1 0.281849 0.0478828
0 0.360281 0.0569314
0 0.400473 0.101579
0.174075 0.405325 0.112123
0.400977 0.416358 0.108324
0.76704 0.524239 0.0501869
1 0.565011 0
1 0.564767 0
1 0.552758 0
1 0.53666 0
0 0.548775 0.0726177
0 0.572778 0.101854
0.17113 0.575525 0.110353
0.383032 0.571359 0.111421
0.576532 0.596551 0.110521
0.891691 0.69633 0.0537118
1 0.763714 0
1 0.780118 0
1 0.775601 0
0 0.730129 0.087129
0 0.743496 0.106538
0.174548 0.745892 0.114565
0.383337 0.739437 0.112947
0.549187 0.736492 0.113863
0.747341 0.76939 0.113024
1 0.854795 0.0592508
1 0.929854 0
1 0.967208 0
0 0.902373 0.106279
0 0.909407 0.119203
0.185046 0.910307 0.125536
0.391226 0.902571 0.122179
0.55288 0.89604 0.119142
0.716335 0.893889 0.120867
0.90602 0.929946 0.115557
1 1 0.0611276
1 1 0
0 1 0.120851
0 1 0.128832
0.19118 1 0.132616
0.395483 1 0.127993
0.554513 1 0.122332
0.713954 1 0.119646
0.870878 1 0.125124
1 1 0.114778
1 1 0.0627604
0 1 0.125826
0 1 0.131212
0.190631 1 0.133608
0.394949 1 0.128954
0.55346 1 0.122683
0.711452 1 0.118334
0.863325 1 0.118853
1 1 0.12752
1 1 0.114229
0 0.0069276 0.221454
0 0 0.252277
0.17583 0 0.25594
0.389212 0 0.257496
0.556588 0 0.258137
0.720882 0 0.259953
0.877592 0 0.265614
1 0 0.277012
1 0 0.291447
0 0.0996719 0.0680095
0 0.0884413 0.171832
0.17641 0.0883803 0.25835
0.391745 0.0855268 0.261601
0.56379 0.0846571 0.266056
0.762188 0.0857404 0.281224
0.981765 0.0877546 0.302388
1 0.0887617 0.321248
1 0.0886549 0.336736
0 0.149828 0.0621958
0 0.180163 0.128832
0.163592 0.244846 0.233768
0.530297 0.264454 0.292439
0.839521 0.304067 0.34226
1 0.302876 0.346334
1 0.297353 0.34609
1 0.292973 0.346853
1 0.28806 0.347066
0 0.277424 0.110552
0 0.338964 0.180423
0.175067 0.409918 0.260151
0.395377 0.414572 0.259525
0.850828 0.571237 0.284016
1 0.579217 0.277928
1 0.566567 0.27042
1 0.551278 0.264591
1 0.534966 0.258915
0 0.483116 0.146853
0 0.548104 0.219257
0.172885 0.58088 0.259251
0.386481 0.578408 0.261784
0.571176 0.595056 0.262089
0.951705 0.736996 0.238453
1 0.790265 0.196994
1 0.791516 0.174411
1 0.779309 0.158953
0 0.690166 0.185763
0 0.738033 0.243854
0.17525 0.750057 0.262547
0.385718 0.745174 0.262211
0.548577 0.739574 0.260029
0.744106 0.770138 0.266835
1 0.881422 0.226993
1 0.961135 0.155566
1 0.988205 0.111666
0 0.87953 0.222553
0 0.909941 0.263355
0.184833 0.913527 0.272755
0.39237 0.907057 0.270497
0.550988 0.89781 0.263981
0.711666 0.892989 0.262654
0.902159 0.930022 0.268513
1 1 0.223041
1 1 0.141405
0 1 0.250172
0 1 0.273838
0.189929 1 0.279057
0.395697 1 0.275746
0.55317 1 0.267979
0.710857 1 0.263203
0.864927 1 0.266758
1 1 0.267613
1 1 0.22118
0 1 0.263264
0 1 0.276112
0.188922 1 0.279835
0.394888 1 0.276585
0.552865 1 0.269413
0.709056 1 0.262852
0.859998 1 0.262226
1 1 0.271305
1 1 0.266957
0 0 0.404166
0 0 0.416266
0.170596 0 0.419364
0.383719 0 0.421225
0.55021 0 0.422019
0.713878 0 0.424155
0.868955 0 0.429206
1 0 0.435935
1 0 0.443519
0 0.104433 0.21033
0 0.0677653 0.349355
0.171023 0.0879683 0.421332
0.386114 0.0857404 0.425406
0.555337 0.0840314 0.428855
0.722484 0.0843671 0.434226
0.881086 0.0878767 0.44242
1 0.095201 0.454932
1 0.103502 0.473793
0 0.16022 0.0751659
0 0.152819 0.146899
0.12903 0.219974 0.383398
0.389914 0.243656 0.430716
0.56289 0.245472 0.437613
0.737758 0.252796 0.450294
0.935531 0.268803 0.4804
1 0.280385 0.511421
1 0.28835 0.537896
0 0.220966 0.107225
0 0.209506 0.132891
0.0707408 0.332769 0.290227
0.382971 0.416464 0.421729
0.733242 0.47982 0.507561
1 0.547478 0.583474
1 0.545617 0.587076
1 0.535851 0.582849
1 0.526787 0.579217
0 0.364889 0.176181
0 0.399664 0.224811
0.126787 0.53959 0.379049
0.389105 0.58555 0.432074
0.562814 0.590951 0.43122
1 0.798047 0.518105
1 0.80911 0.516899
1 0.794461 0.50576
1 0.777173 0.496056
0 0.586725 0.235752
0 0.65977 0.320256
0.161303 0.741375 0.415473
0.389349 0.752758 0.43331
0.551904 0.747036 0.431144
0.736568 0.766949 0.436561
1 0.927993 0.448539
1 0.996628 0.428916
1 1 0.414511
0 0.808164 0.301274
0 0.872419 0.38172
0.180819 0.913954 0.435477
0.392737 0.911406 0.438041
0.551553 0.902251 0.431907
0.708751 0.89424 0.426978
0.897002 0.929305 0.441016
1 1 0.423011
1 1 0.374441
0 1 0.357122
0 1 0.415946
0.186191 1 0.441886
0.394583 1 0.441505
0.553002 1 0.435019
0.707301 1 0.42678
0.858228 1 0.42652
1 1 0.440162
1 1 0.413123
0 1 0.389456
0 1 0.429892
0.185061 1 0.442542
0.393286 1 0.441733
0.552316 1 0.436027
0.706783 1 0.427893
0.855741 1 0.42504
1 1 0.430869
1 1 0.439536
0 0 0.584894
0 0 0.590234
0.165026 0 0.594263
0.378256 0 0.596231
0.544381 0 0.597223
0.707637 0 0.59939
0.862455 0 0.604593
1 0 0.611673
1 0 0.61941
0 0.100191 0.408179
0 0.0570535 0.53228
0.160372 0.0831311 0.590921
0.381186 0.0859541 0.60087
0.54992 0.0844587 0.604532
0.716014 0.0843671 0.609461
0.874098 0.0879683 0.617807
1 0.0933089 0.627741
1 0.0987259 0.637736
0 0.17351 0.207462
0 0.136339 0.296468
0.0973983 0.185367 0.529198
0.385702 0.24445 0.606744
0.557382 0.246128 0.613519
0.726497 0.249012 0.621393
0.886717 0.254749 0.631769
1 0.260838 0.642283
1 0.270039 0.656336
0 0.226047 0.101671
0 0.182193 0.118608
0 0.246555 0.286839
0.362066 0.390951 0.583337
0.556985 0.415686 0.614191
0.72781 0.420081 0.623423
0.895109 0.433066 0.641123
1 0.457206 0.678401
1 0.475181 0.714885
0 0.295781 0.152636
0 0.260273 0.154894
0 0.306676 0.237095
0.271992 0.501411 0.462913
0.54638 0.592935 0.600168
0.909407 0.688014 0.722408
1 0.772427 0.81471
1 0.759228 0.806882
1 0.752819 0.806119
0 0.442115 0.24036
0 0.461707 0.281376
0 0.548318 0.384176
0.350118 0.720882 0.572824
0.556146 0.755703 0.615534
0.725689 0.760647 0.614725
1 1 0.760098
1 1 0.76878
1 1 0.760174
0 0.666957 0.3196
0 0.735378 0.40032
0.0883955 0.836164 0.519203
0.384329 0.907927 0.608743
0.555886 0.910491 0.616495
0.712306 0.902129 0.611231
0.887922 0.924804 0.621027
1 1 0.67216
1 1 0.676356
0 0.899489 0.406058
0 0.970626 0.494347
0.147448 1 0.58175
0.390982 1 0.617456
0.553582 1 0.615549
0.707698 1 0.607431
0.854643 1 0.602731
1 1 0.624537
1 1 0.63447
0 1 0.474861
0 1 0.546807
0.167559 1 0.604395
0.389822 1 0.617807
0.551858 1 0.615381
0.707149 1 0.608454
0.851987 1 0.601007
0.99678 1 0.601953
1 1 0.623911
0 0 0.752529
0 0 0.756512
0.159823 0 0.76202
0.37351 0 0.764202
0.539635 0 0.765316
0.702861 0 0.76762
0.857542 0 0.772839
1 0 0.77995
1 0 0.787778
0 0.0888685 0.613275
0 0.0546883 0.708995
0.149386 0.077821 0.753338
0.37673 0.0861524 0.768719
0.545785 0.0853742 0.772869
0.71191 0.0856947 0.778073
0.869413 0.0890516 0.786023
1 0.0942855 0.795712
1 0.0997177 0.805615
0 0.18114 0.383673
0 0.139879 0.521447
0.0778058 0.168231 0.685145
0.377447 0.240635 0.770459
0.554055 0.247745 0.78233
0.722362 0.250401 0.789731
0.880858 0.254795 0.798596
1 0.260761 0.80882
1 0.266773 0.819089
0 0.238926 0.210849
0 0.198627 0.268498
0 0.19118 0.420554
0.310155 0.344381 0.707301
0.553506 0.416983 0.782574
0.72285 0.420859 0.790982
0.883116 0.427207 0.801556
1 0.434791 0.813123
1 0.441032 0.823377
0 0.294087 0.131731
0 0.24918 0.141375
0 0.217243 0.178607
0.0581674 0.365225 0.433341
0.520043 0.557824 0.750225
0.720485 0.59234 0.789258
0.881712 0.599405 0.800427
1 0.614038 0.818662
1 0.640848 0.856062
0 0.371817 0.198886
0 0.336416 0.201343
0 0.301106 0.203967
0.00480659 0.423255 0.355749
0.416098 0.648829 0.609644
0.706798 0.762631 0.770947
1 0.876463 0.915862
1 0.974212 1
1 0.965103 1
0 0.519921 0.301137
0 0.528649 0.335943
0 0.574899 0.40354
0.145937 0.702235 0.548043
0.511604 0.873762 0.74255
0.717647 0.911589 0.788312
0.876341 0.917403 0.7888
1 1 0.982132
1 1 0.999954
0 0.740017 0.395682
0 0.796796 0.466438
0 0.891844 0.581094
0.30074 0.991852 0.702052
0.544686 1 0.777478
0.713542 1 0.785229
0.859709 1 0.780896
1 1 0.795163
1 1 0.880934
0 0.977737 0.494743
0 1 0.582162
0.0725109 1 0.681163
0.355703 1 0.755978
0.549325 1 0.783475
0.709377 1 0.782116
0.853849 1 0.775448
0.994232 1 0.771557
1 1 0.79939
0 0 0.907713
0 0 0.911681
0.155245 0 0.9178
0.36997 0 0.920806
0.53611 0 0.921981
0.699519 0 0.92459
0.854322 0 0.930083
1 0 0.937285
1 0 0.94522
0 0.0789807 0.796536
0 0.0533761 0.869825
0.14081 0.0742351 0.905913
0.373022 0.0867628 0.924987
0.542733 0.0868086 0.929808
0.709346 0.0878462 0.935592
0.866865 0.0915084 0.943786
1 0.0965133 0.953185
1 0.101701 0.962768
0 0.181582 0.578225
0 0.139834 0.728084
0.0772564 0.169924 0.848905
0.364309 0.232258 0.918257
0.551034 0.249073 0.939101
0.719799 0.252491 0.947021
0.878035 0.256992 0.955917
1 0.262257 0.965438
1 0.267918 0.975341
0 0.250629 0.366003
0 0.212177 0.466407
0 0.201953 0.651286
0.273365 0.31339 0.838148
0.543969 0.411246 0.932937
0.720531 0.423163 0.948363
0.879835 0.428992 0.958343
1 0.434684 0.968124
1 0.440574 0.978012
0 0.304982 0.218143
0 0.261967 0.261097
0 0.228916 0.33756
0 0.271641 0.544427
0.456703 0.493477 0.849607
0.717693 0.593973 0.945983
0.877089 0.600015 0.956024
1 0.606241 0.966155
1 0.611826 0.975555
0 0.364019 0.165362
0 0.318822 0.16997
0 0.271748 0.181689
0 0.269673 0.248539
0.163455 0.46714 0.541588
0.674617 0.72079 0.904479
0.871229 0.76112 0.950607
1 0.767117 0.960723
1 0.780392 0.978134
0 0.448875 0.24654
0 0.413825 0.249104
0 0.378851 0.251911
0 0.352316 0.25864
0.093431 0.516655 0.447807
0.554437 0.789548 0.750149
0.85568 0.919753 0.929778
1 1 1
1 1 1
0 0.598352 0.359152
0 0.598505 0.388403
0 0.623377 0.439353
0 0.687709 0.524224
0.282414 0.82385 0.682933
0.664698 1 0.895064
0.866712 1 0.947784
1 1 0.950561
1 1 1
0 0.811734 0.465751
0 0.856092 0.529397
0 0.933989 0.62681
0.165911 1 0.74374
0.452674 1 0.84918
0.700969 1 0.932448
0.862013 1 0.943664
1 1 0.939696
1 1 0.958236
0 0 1
0 0 1
0.150576 0 1
0.366705 0 1
0.532937 0 1
0.696529 0 1
0.851606 0 1
1 0 1
1 0 1
0 0.071809 0.964431
0 0.0523995 1
0.133318 0.0714427 1
0.367636 0.085771 1
0.540108 0.0884413 1
0.70695 0.0898756 1
0.864805 0.0940566 1
1 0.0992447 1
1 0.104189 1
0 0.177554 0.769848
0 0.141314 0.907134
0.0754864 0.171115 1
0.352575 0.22536 1
0.547601 0.24979 1
0.717144 0.254124 1
0.875776 0.259312 1
1 0.264805 1
1 0.269947 1
0 0.258946 0.537148
0 0.219242 0.673899
0 0.218555 0.850431
0.268498 0.312581 0.990906
0.527047 0.397574 1
0.717266 0.423957 1
0.877226 0.430854 1
1 0.436683 1
1 0.441398 1
0 0.317266 0.353933
0 0.277714 0.427375
0 0.252506 0.559243
0.0084535 0.290059 0.763821
0.412833 0.450996 0.96434
0.706127 0.585443 1
0.874296 0.601663 1
1 0.60708 1
1 0.610254 1
0 0.372045 0.229679
0 0.327565 0.262882
0 0.286824 0.314
0 0.267826 0.401358
0.0420233 0.346212 0.623316
0.598062 0.642344 0.985245
0.867536 0.761715 1
1 0.766598 1
1 0.770489 1
0 0.435798 0.20206
0 0.390738 0.203708
0 0.343191 0.208499
0 0.30016 0.220356
0 0.3149 0.296178
0.270726 0.5691 0.645502
0.818967 0.871717 1
1 0.916884 1
1 0.922728 1
0 0.526864 0.295338
0 0.492119 0.298253
0 0.457404 0.301289
0 0.427008 0.304082
0 0.406653 0.311849
0.187137 0.609827 0.54052
0.68896 0.920409 0.882399
0.997055 1 1
1 1 1
0 0.677501 0.416098
0 0.672206 0.441993
0 0.683268 0.482383
0 0.720119 0.54342
0.0624552 0.790097 0.634089
0.413901 0.938979 0.808576
0.809476 1 1
1 1 1
1 1 1
0 0 1
0 0 1
0.145525 0 1
0.362829 0 1
0.529778 0 1
0.693599 0 1
0.848936 0 1
0.999939 0 1
1 0 1
0 0.0660716 1
0 0.0513161 1
0.126238 0.0690318 1
0.361196 0.0840009 1
0.537469 0.090074 1
0.704585 0.0918135 1
0.862638 0.0963455 1
1 0.101884 1
1 0.106905 1
0 0.171862 0.95758
0 0.142794 1
0.0726482 0.171725 1
0.342168 0.219745 1
0.540825 0.24715 1
0.714549 0.255711 1
0.873289 0.261158 1
1 0.267277 1
1 0.272557 1
0 0.263233 0.717769
0 0.223087 0.872755
0 0.231312 1
0.264363 0.312474 1
0.512062 0.386007 1
0.713146 0.423728 1
0.874159 0.431891 1
1 0.438651 1
1 0.443427 1
0 0.329061 0.505196
0 0.291402 0.610666
0 0.270924 0.778454
0.052842 0.321492 0.963851
0.407889 0.449882 1
0.684962 0.566339 1
0.870008 0.601251 1
1 0.607843 1
1 0.611093 1
0 0.383734 0.347097
0 0.342138 0.405539
0 0.3093 0.495247
0 0.30544 0.640574
0.0950637 0.376165 0.8448
0.543893 0.589075 1
0.853513 0.75053 1
1 0.767178 1
1 0.770275 1
0 0.440467 0.24596
0 0.395239 0.271321
0 0.351125 0.309483
0 0.318593 0.362463
0 0.310628 0.4486
0.121202 0.423072 0.700008
0.732555 0.782223 1
1 0.91693 1
1 0.921675 1
0 0.508934 0.242679
0 0.464408 0.241382
0 0.417105 0.242603
0 0.373327 0.246906
0 0.335546 0.257343
0 0.36173 0.345144
0.372 0.670954 0.742596
0.954787 1 1
1 1 1
0 0.606012 0.345357
0 0.571664 0.348592
0 0.537255 0.351919
0 0.507042 0.35494
0 0.481422 0.357565
0 0.462348 0.366613
0.282902 0.700969 0.631998
0.811643 1 1
1 1 1
