site/assets/luts/freshluts--0001220-rd-cube.cube
# LUTr-Schema-Version: 2
# LUTr-ID: freshluts--0001220-rd-cube
# LUTr-Title: RD CUBE
# LUTr-Collection: Fresh LUTs
# LUTr-Collection-ID: freshluts-community
# LUTr-Source: https://freshluts.com
# LUTr-Retrieved: 2026-07-27
# LUTr-Source-File: submissions-raw/freshluts/cubes/1220__RD_CUBE.cube
# LUTr-Source-Format: CUBE
# LUTr-Source-SHA256: 8fdc54064e88d6075b8f339b11fe88277024432e93570b1e641117b2e105d5ee
# LUTr-License: CC0-1.0
# LUTr-License-URL: https://freshluts.com/termsandconditions
# LUTr-License-Basis: site-terms
# LUTr-Transform-Class: creative-look
# LUTr-Tags: creative, freshluts, community, cube, blue, sony-s-log3
# LUTr-Input-Color-Space:
# LUTr-Input-Gamut: sony-s-gamut3
# LUTr-Input-Transfer: sony-s-log3
# LUTr-Output-Color-Space: srgb
# LUTr-Output-Gamut: rec709
# LUTr-Output-Transfer: srgb
# LUTr-Color-Space-Confidence: camera-profile-input-required
# LUTr-Domain-Normalized: true
# LUTr-Shaper: none
# LUTr-Original-Grid: 33x33x33
# LUTr-Conversion-Grid: 33x33x33
# LUTr-Conversion-Interpolation: none
# LUTr-Conversion-Method: Metadata normalization; numeric LUT samples preserved
# LUTr-Conversion-Tool: LUTr scripts/convert-all-to-cube.mjs 2.0.0
# LUTr-Conversion-Date: 2026-07-28
# LUTr-Asset-URL: https://freshluts.com/luts/1220
# LUTr-Author: Antony Eliezer
# LUTr-Author-URL: https://freshluts.com/users/32961
# LUTr-Attribution: Antony Eliezer via Fresh LUTs
# LUTr-Source-Labels: gamma=Sony S-Log 3; color=Blue; key=Neutral; style=Adventure
# LUTr-Note: Preserve this metadata and the upstream license notices when redistributing.
# LUTr-Upstream-Comment: VEGAS Pro LUT
TITLE "RD CUBE"
LUT_3D_SIZE 9
DOMAIN_MIN 0 0 0
DOMAIN_MAX 1 1 1
0.04055658 0.04035254 0.04058388
0.05556593 0.04873101 0.04775911
0.09661085 0.06668251 0.06185738
0.17943968 0.0946449 0.08221063
0.28880256 0.11562093 0.09250111
0.41043034 0.1225928 0.0915207
0.52678967 0.12748146 0.08799502
0.61845434 0.13226902 0.08814476
0.68186289 0.1340808 0.0873308
0.05591928 0.05487563 0.05020173
0.07639538 0.06581125 0.05853607
0.1407664 0.09035014 0.07692864
0.24040236 0.11749288 0.09315742
0.35553727 0.1305669 0.09610668
0.4791216 0.14099799 0.09148534
0.57978767 0.14491709 0.09065606
0.66494757 0.1492887 0.08726678
0.70812535 0.14618209 0.08938669
0.08755034 0.08702438 0.07111972
0.11882527 0.10311002 0.07954463
0.18676314 0.12599115 0.09292934
0.30420929 0.15220691 0.10073073
0.44246954 0.1691577 0.09634575
0.559196 0.18274929 0.09285258
0.65354824 0.18963084 0.09190103
0.71082723 0.1930642 0.09323707
0.75009495 0.17886956 0.09139304
0.1207241 0.17298509 0.09486322
0.15830187 0.19973543 0.09984538
0.27212352 0.23027171 0.10729116
0.4055931 0.24300742 0.10379588
0.52583683 0.25564826 0.0960106
0.63003278 0.26785371 0.09736124
0.7028631 0.28170171 0.10714453
0.75476444 0.27944568 0.11373687
0.78394371 0.26916951 0.1149782
0.1319346 0.29589045 0.08403792
0.19395043 0.32394511 0.08424708
0.36666304 0.35843128 0.09363938
0.52229351 0.3778626 0.11866935
0.59962767 0.3763144 0.12603654
0.67255789 0.37928972 0.13290496
0.73701978 0.39233464 0.14580023
0.78237695 0.40111649 0.15544888
0.81718957 0.38690168 0.1533664
0.20386255 0.41918314 0.07172871
0.32202363 0.44555873 0.08690916
0.48057842 0.47921509 0.12803128
0.5971185 0.50259483 0.16891333
0.67073911 0.51021373 0.18858722
0.72364175 0.50542641 0.19340348
0.77661562 0.51009548 0.20583431
0.81852084 0.51896614 0.21564366
0.8499099 0.51569164 0.20945287
0.36387789 0.53807712 0.11217315
0.46278039 0.56560153 0.15334792
0.55647892 0.58885157 0.19904123
0.64232796 0.6103816 0.24117224
0.71278501 0.62534237 0.26706168
0.7659415 0.62856513 0.27229047
0.81400311 0.62894124 0.27341837
0.84931272 0.63604957 0.27959096
0.86853993 0.64714718 0.28285658
0.44445011 0.63406318 0.21007748
0.50692528 0.65275693 0.24326032
0.57932222 0.67609757 0.28240848
0.65357554 0.69563836 0.31378093
0.72032386 0.71128958 0.33329788
0.78320348 0.72155392 0.34101844
0.83113658 0.72861642 0.33492887
0.85664231 0.74473995 0.34023628
0.87627077 0.76879311 0.35286382
0.43725842 0.6922462 0.26376909
0.49642581 0.70819652 0.2955685
0.56249827 0.72929132 0.3287071
0.63163179 0.7527231 0.36199597
0.70634753 0.77111709 0.38935426
0.77320266 0.78701293 0.40832627
0.83038181 0.802589 0.42550743
0.86203182 0.82118893 0.44382507
0.87965775 0.84441817 0.52747917
0.04284345 0.04424442 0.04600833
0.05660246 0.05335356 0.05603768
0.10352311 0.07329072 0.07130013
0.19050276 0.09869792 0.08788976
0.29785147 0.11770128 0.09682793
0.41367999 0.12327902 0.09444758
0.52410275 0.12629022 0.09130626
0.6151827 0.12940723 0.09054001
0.67903024 0.1318388 0.09051653
0.05258988 0.05859608 0.05580968
0.07309359 0.07317673 0.06908433
0.14114241 0.09838796 0.0869903
0.25377059 0.12565285 0.10354476
0.37473485 0.1377463 0.10323586
0.49217078 0.14265276 0.09962784
0.58710063 0.14689226 0.0984941
0.66696763 0.15094569 0.09735916
0.70836645 0.14923251 0.10102534
0.08065415 0.09144706 0.07497288
0.11476881 0.11599041 0.08949797
0.19384904 0.14685108 0.10898256
0.33329681 0.17635447 0.11893225
0.46706513 0.18922578 0.11566024
0.57944769 0.20345172 0.11427937
0.663194 0.20127974 0.11434702
0.71687174 0.20843267 0.11829843
0.75225854 0.18411806 0.11270896
0.10679401 0.17434342 0.0963043
0.13715328 0.21092606 0.10284162
0.25773671 0.25435096 0.11205793
0.42271316 0.2775251 0.12468006
0.54187632 0.29513073 0.13719295
0.63389283 0.31058323 0.15104543
0.70563251 0.31834698 0.16230071
0.75015247 0.31745747 0.1717668
0.78705883 0.29641786 0.1547268
0.10485933 0.28867432 0.08637181
0.13736768 0.32501143 0.08345014
0.30826643 0.37205052 0.09572873
0.51229602 0.40287393 0.14061096
0.60135436 0.41123179 0.16893376
0.67454922 0.42340735 0.19578283
0.73280054 0.43975437 0.21844932
0.78086472 0.44217739 0.22762005
0.80963224 0.43295944 0.21746548
0.10070562 0.40296662 0.0744319
0.20322786 0.43514365 0.07555761
0.408921 0.48589131 0.12012828
0.57109827 0.51718146 0.18436842
0.66397059 0.5325219 0.21862978
0.7227422 0.5349111 0.24237554
0.77465421 0.54663718 0.27282113
0.81844431 0.55508912 0.28206587
0.84779412 0.5533793 0.27412644
0.2235854 0.51544607 0.08383486
0.35330352 0.54889941 0.1215504
0.49848276 0.58932567 0.194316
0.61344212 0.61832964 0.25559917
0.69701177 0.6376 0.28998661
0.75943238 0.64302218 0.30077979
0.81123161 0.64733875 0.30924135
0.84774864 0.6634534 0.33942503
0.86999166 0.67191827 0.33263856
0.3468014 0.61696869 0.17938708
0.43284231 0.63958335 0.22544758
0.52757031 0.67061603 0.27922741
0.61638391 0.69576848 0.32358795
0.69814986 0.71706277 0.35521042
0.77011448 0.73024642 0.37093183
0.82575542 0.73874921 0.37191948
0.8565414 0.75647241 0.38329992
0.87743968 0.78250247 0.41276702
0.37146974 0.68199331 0.25503358
0.44435832 0.69930607 0.29325092
0.52400166 0.72148067 0.33407605
0.60190153 0.75053656 0.37959331
0.68210471 0.77217823 0.41306072
0.75778818 0.79163837 0.43921533
0.82291746 0.80842263 0.46036658
0.86090207 0.82679075 0.48331732
0.8805548 0.85104656 0.57430655
0.04646074 0.05062445 0.05455211
0.05531884 0.06023604 0.06664728
0.1024043 0.08080554 0.08392306
0.20061149 0.10825931 0.10072789
0.31342784 0.12388606 0.10573243
0.42884508 0.13108443 0.10256125
0.53276616 0.13123721 0.09996817
0.61906016 0.13572343 0.09837753
0.67998266 0.1363095 0.09950065
0.05611743 0.06774897 0.06925877
0.06515298 0.0777569 0.07990687
0.121263 0.11124614 0.11170658
0.27043846 0.1415922 0.12381265
0.40137187 0.1510528 0.11847694
0.50781584 0.15302432 0.11395731
0.59732842 0.15871188 0.11245956
0.66815746 0.15924653 0.11242985
0.71009135 0.15994495 0.11852179
0.07502519 0.10248163 0.08975898
0.09251349 0.12662876 0.11043765
0.149895 0.17687024 0.1464054
0.32678455 0.213672 0.16772209
0.4808065 0.22675925 0.16363689
0.58957732 0.23188773 0.16228569
0.66118735 0.23766947 0.16922654
0.72009808 0.23531817 0.16805819
0.75032371 0.21189544 0.16215543
0.10422665 0.19711685 0.11592262
0.1191821 0.24099995 0.12642887
0.20771916 0.30280009 0.15395163
0.40330565 0.34078279 0.20491916
0.53741246 0.35510436 0.23333906
0.62786311 0.36268717 0.24267676
0.69557822 0.36660674 0.2499557
0.74024808 0.36440906 0.25069708
0.78044266 0.33349124 0.23016626
0.09468085 0.31844226 0.10661248
0.11081829 0.36361697 0.10744458
0.25621593 0.41529581 0.14244224
0.47323343 0.4613142 0.23564473
0.58863533 0.47754765 0.28968197
0.66401839 0.48227677 0.31007239
0.7263881 0.48758408 0.32164291
0.76658809 0.4919129 0.32842189
0.80037332 0.47209167 0.31149486
0.07878485 0.42792165 0.0900321
0.1442553 0.46183369 0.10228237
0.33431703 0.51035035 0.17541614
0.51696169 0.56132871 0.27344888
0.63496655 0.58259064 0.33188936
0.70527655 0.58620083 0.35907745
0.76396167 0.59150648 0.37971225
0.80990219 0.5967918 0.38569093
0.83761263 0.58876419 0.36765832
0.12009978 0.52050561 0.11107674
0.24249877 0.55019504 0.1468654
0.40660572 0.59464049 0.23201084
0.55132806 0.63981736 0.31830043
0.65674889 0.66460836 0.37389883
0.73342073 0.67626095 0.40077877
0.79791665 0.68573993 0.41965619
0.84349549 0.69594574 0.43826738
0.86864746 0.70125538 0.42900813
0.2123857 0.60611743 0.16972087
0.32681304 0.62994003 0.22650488
0.45132014 0.66206127 0.29346558
0.56317127 0.69755059 0.36144382
0.65995103 0.7280187 0.41352245
0.74487704 0.7468583 0.44410455
0.81307948 0.75947559 0.45744008
0.85538787 0.77637696 0.47586241
0.87857449 0.79939085 0.50505632
0.27047905 0.67824066 0.26095688
0.35586172 0.69238025 0.29553419
0.47526324 0.71239805 0.34493336
0.56600982 0.74434334 0.40176988
0.65342402 0.77261037 0.44917396
0.73552161 0.79761374 0.4872475
0.81114256 0.81780624 0.52018845
0.8588801 0.83536744 0.54814249
0.88138831 0.85788023 0.62543219
0.05142227 0.05954065 0.06688379
0.05895014 0.07057033 0.07907157
0.07944919 0.08494664 0.09834345
0.19894396 0.12135567 0.12173577
0.32685959 0.1392677 0.12573776
0.44789171 0.14581087 0.12136105
0.54805726 0.14741303 0.11700966
0.63240784 0.15020923 0.11465422
0.68516517 0.15067209 0.11957987
0.06054287 0.07570136 0.08048617
0.06534638 0.0831061 0.09150804
0.08814646 0.11082434 0.12231764
0.25629523 0.16827698 0.16696778
0.42658484 0.17610157 0.15134208
0.53200388 0.1752366 0.13842884
0.6140272 0.17604272 0.13249119
0.67140669 0.17280625 0.13562272
0.71408141 0.1806296 0.14089669
0.07789578 0.11477111 0.11526863
0.08517446 0.12882455 0.13422371
0.1049298 0.17204107 0.17981681
0.25070301 0.24883361 0.25438106
0.48364556 0.26452067 0.23785706
0.59370869 0.2660822 0.22481272
0.66063869 0.26633123 0.2232213
0.71783108 0.2551986 0.21995395
0.7428984 0.24799654 0.22459641
0.09544511 0.21567434 0.16862647
0.09466548 0.24836856 0.19272961
0.10934283 0.32659972 0.26055184
0.29363012 0.39209956 0.33041117
0.50691587 0.41000545 0.35056415
0.61038697 0.41189283 0.3467074
0.67545986 0.41560993 0.34334576
0.72641712 0.40511638 0.33530879
0.76588213 0.37447083 0.31953663
0.07857461 0.34287411 0.17273954
0.0799374 0.38940352 0.20740911
0.14561185 0.44993442 0.26882052
0.3856951 0.50421447 0.34987441
0.54724962 0.52994186 0.406432
0.64922255 0.53198457 0.42185989
0.71434289 0.53471428 0.42574465
0.75748056 0.5300926 0.42420012
0.78866559 0.50995964 0.40760177
0.06574039 0.4615216 0.19856979
0.10992966 0.50205606 0.23842664
0.27055028 0.54250634 0.29092023
0.4561272 0.58732384 0.37157798
0.5901413 0.62137765 0.44192922
0.68334293 0.63285279 0.47460908
0.75313997 0.63384825 0.48758167
0.79898185 0.63292384 0.48701116
0.82853287 0.62405759 0.47501391
0.1044257 0.55792677 0.24676575
0.20366226 0.58435839 0.28282562
0.35337719 0.6145457 0.32979524
0.49970129 0.65381986 0.40380973
0.61265117 0.68795443 0.46818817
0.70180118 0.70926815 0.50738734
0.78007072 0.72000146 0.52959186
0.83609349 0.72566289 0.53926474
0.86658263 0.72810572 0.53251982
0.16848075 0.63315517 0.30369058
0.27102101 0.6507442 0.32834634
0.39548364 0.67413247 0.3696236
0.52897143 0.7041626 0.42947784
0.62627596 0.73728842 0.48932344
0.71574861 0.76346087 0.53190345
0.79295683 0.77893317 0.5575515
0.85142386 0.79533559 0.5779565
0.87942594 0.814116 0.59744692
0.22248669 0.69536126 0.34935907
0.30119422 0.70381153 0.36641699
0.43842208 0.71934205 0.39843297
0.5427444 0.7465744 0.4553014
0.63622373 0.77580982 0.51004875
0.7188856 0.80332494 0.55697542
0.79712325 0.82760662 0.59578097
0.85405308 0.84509528 0.62553287
0.88243949 0.8646124 0.67092258
0.05793559 0.07088704 0.08041702
0.06317645 0.07935729 0.09228034
0.07074986 0.08998526 0.10705633
0.13804287 0.12703487 0.14994429
0.33004662 0.15990034 0.15647006
0.45361647 0.16756696 0.15120493
0.5588572 0.17601997 0.14618516
0.64153725 0.17496747 0.14443403
0.69273102 0.17654175 0.14741139
0.06415963 0.08336107 0.09338932
0.06898797 0.09247201 0.10463352
0.07907943 0.11127814 0.12868237
0.15175773 0.17636943 0.20047718
0.41876814 0.21295421 0.20233199
0.54351723 0.21176407 0.17983066
0.6222263 0.20392001 0.16827087
0.6753726 0.20424066 0.16628721
0.71966153 0.2063324 0.16899002
0.0795517 0.1228546 0.13700278
0.08293689 0.13358223 0.1542069
0.09128236 0.16470718 0.19519384
0.13611558 0.25345454 0.2972362
0.43250611 0.30583185 0.33897194
0.57789683 0.30974159 0.30640015
0.65755576 0.2986035 0.28672013
0.70510989 0.28748035 0.28300083
0.73131806 0.27991024 0.28288451
0.08986304 0.22289293 0.22104596
0.08806324 0.24571005 0.248844
0.08913187 0.31821033 0.32353109
0.15611918 0.39983115 0.40324137
0.43785203 0.43738204 0.45843682
0.58582956 0.44593087 0.43895271
0.65841961 0.44226426 0.42267883
0.70972544 0.42886871 0.41176435
0.7460044 0.4107396 0.40153563
0.06884281 0.36012772 0.28715307
0.06604289 0.38564211 0.31012169
0.07332949 0.45597857 0.37720531
0.22972681 0.51811296 0.44964048
0.48157147 0.56124377 0.5024122
0.61960512 0.57146412 0.51832664
0.69737762 0.57067704 0.51356494
0.74371701 0.56517839 0.50651777
0.77666765 0.54622042 0.49126613
0.05482762 0.47664168 0.32245892
0.06927742 0.51129633 0.35782933
0.14298521 0.56170976 0.41007298
0.3457422 0.60168451 0.46166918
0.54220957 0.64196694 0.51930326
0.65135735 0.66001779 0.55891901
0.73682547 0.66414797 0.56992322
0.79145849 0.66259021 0.57146364
0.81970876 0.65350336 0.56282037
0.09468227 0.57898688 0.36797753
0.14781703 0.60804683 0.39954633
0.27880573 0.63670826 0.43451235
0.45114401 0.66703296 0.47825953
0.58366901 0.7010234 0.53614455
0.67782438 0.72385186 0.5809269
0.75944197 0.74094081 0.60888338
0.82823491 0.74934608 0.62169164
0.86359572 0.74979979 0.62106514
0.15656362 0.65702581 0.41353455
0.23125426 0.67417222 0.43168414
0.36292166 0.69037902 0.45474914
0.50325614 0.71580595 0.49490568
0.61235547 0.74431628 0.5513286
0.6975494 0.77227569 0.60018468
0.77594846 0.79215676 0.63322467
0.84159321 0.80931622 0.65550536
0.87960494 0.82481843 0.6713255
0.21537903 0.71511358 0.44394296
0.28470004 0.72242969 0.45669326
0.41100204 0.73469311 0.47449198
0.53016543 0.75712222 0.51984173
0.62908292 0.78365397 0.57160211
0.71470618 0.80965579 0.61917156
0.78694737 0.83410817 0.65981483
0.84717512 0.85183841 0.68789506
0.8817665 0.86920309 0.71723163
0.06285065 0.08103108 0.09580189
0.06627859 0.08687888 0.10453962
0.07250371 0.09920988 0.12006627
0.09631921 0.12795563 0.1580541
0.28486222 0.18628503 0.20941453
0.45680988 0.19414295 0.18645297
0.5629611 0.20442751 0.18156293
0.63960278 0.20586053 0.18190601
0.69560784 0.2171461 0.18775317
0.06863431 0.09476089 0.10869968
0.07297157 0.1034852 0.12094097
0.07887524 0.11788289 0.14358819
0.1013569 0.16669841 0.20514259
0.3252103 0.25440213 0.28601485
0.5401628 0.25095215 0.2354437
0.61514294 0.24611853 0.21754032
0.67310625 0.24711816 0.21196668
0.72138566 0.24139069 0.21746267
0.08045239 0.13299225 0.15968156
0.08198254 0.14352523 0.17797726
0.08562125 0.16635919 0.21531001
0.09984595 0.24243112 0.31295192
0.28741369 0.32993263 0.42375323
0.54664069 0.34593865 0.39214313
0.63339168 0.34069386 0.36869693
0.68121547 0.3318114 0.35782126
0.71487832 0.32079676 0.35184488
0.08464267 0.22546214 0.25959268
0.08228564 0.24483657 0.28624907
0.08171928 0.30445546 0.35286295
0.09558181 0.39610282 0.43903363
0.31646818 0.45471078 0.51049793
0.54206431 0.46526575 0.52698249
0.63823217 0.45916289 0.49657184
0.6910907 0.44869855 0.48294124
0.72493666 0.44055286 0.47379455
0.06513702 0.36583829 0.34797072
0.06323751 0.38466561 0.37026525
0.06743561 0.4524112 0.43342534
0.13929324 0.52052701 0.49774995
0.38008592 0.56483382 0.55561
0.57140917 0.58640635 0.58797783
0.67259753 0.58887368 0.58457762
0.72866416 0.58634466 0.5752629
0.76168251 0.57822561 0.56614625
0.0507166 0.49057689 0.40920171
0.05785568 0.50762916 0.42670652
0.0852086 0.55416232 0.46978873
0.19683664 0.60708636 0.52773738
0.4462634 0.64442456 0.58299243
0.60962629 0.67133349 0.62141061
0.71153075 0.68373984 0.63648105
0.77514225 0.6856873 0.63978839
0.80950171 0.67815399 0.63275254
0.09012122 0.58977526 0.45385736
0.10878212 0.61150336 0.47249547
0.15998159 0.64428079 0.50687581
0.33235553 0.67256159 0.5497036
0.52474159 0.70461279 0.59662145
0.64959556 0.73117441 0.63711196
0.73589098 0.7506333 0.66741306
0.8152141 0.76431364 0.68702376
0.85608906 0.76498348 0.68941885
0.14386575 0.67139089 0.48672581
0.18296148 0.68974066 0.50642639
0.29264373 0.70487016 0.53134555
0.45205319 0.72477442 0.5629068
0.58619446 0.7520411 0.60573947
0.68249065 0.77740335 0.65330678
0.75925851 0.79799384 0.68922716
0.82880986 0.81768256 0.71627384
0.87788206 0.83286446 0.73234648
0.19674137 0.7319302 0.51525974
0.25180474 0.73982668 0.52942431
0.37161821 0.74978352 0.55043495
0.50205898 0.76792997 0.58291233
0.61822259 0.79142082 0.62602335
0.70942634 0.81587726 0.67138356
0.78123283 0.83777851 0.71133614
0.83921981 0.85621238 0.73983788
0.87913263 0.87236953 0.76380366
0.06686439 0.09122987 0.11051342
0.07074717 0.09864528 0.12057654
0.07600426 0.11049143 0.13777789
0.08622552 0.13220823 0.16819933
0.17336293 0.20921902 0.25773427
0.45675239 0.2393927 0.24573235
0.57282293 0.23234025 0.22169168
0.63834172 0.24693853 0.22808118
0.69463187 0.254859 0.24022876
0.07291709 0.10737096 0.12891488
0.07619394 0.1152772 0.14279409
0.079956 0.12743983 0.16696684
0.08825249 0.162332 0.21920647
0.16212915 0.26879367 0.34461859
0.49693573 0.30972692 0.3465091
0.60980773 0.29401487 0.28100687
0.66972303 0.28820685 0.2692394
0.70586014 0.29762733 0.29017565
0.08029754 0.14679088 0.18819761
0.08113483 0.15711662 0.20915303
0.08225986 0.17546855 0.2448751
0.08686242 0.23525453 0.33150426
0.15596181 0.34812465 0.46664178
0.47039101 0.37043709 0.50269389
0.60632932 0.36737239 0.45168364
0.65983057 0.36412501 0.42724168
0.69570053 0.35320562 0.41735658
0.07882847 0.23720992 0.29669929
0.07709707 0.25476602 0.32069522
0.07537656 0.29242116 0.36718583
0.07683482 0.37918553 0.45247656
0.19213025 0.46872562 0.53708947
0.46447596 0.48947838 0.58879709
0.60926515 0.47757098 0.57057852
0.67298841 0.46837294 0.5462594
0.70949835 0.46415424 0.53380609
0.06181519 0.37072131 0.39377224
0.05999075 0.38942471 0.41624033
0.06217128 0.4499242 0.47251803
0.09962288 0.51880699 0.53129321
0.26871821 0.56591117 0.58142632
0.50365543 0.5951277 0.6307286
0.64008158 0.60060042 0.64003056
0.708772 0.59691226 0.62862378
0.7480244 0.59210485 0.61956823
0.04997236 0.49718595 0.45876944
0.05503004 0.51143754 0.47536159
0.07755306 0.55397546 0.51603049
0.1682978 0.60995936 0.5713827
0.3786031 0.64552361 0.62140697
0.55589628 0.67339826 0.6606887
0.67664057 0.68945152 0.68333644
0.75130075 0.69479519 0.6876927
0.79422295 0.69328648 0.68577003
0.09138202 0.60177314 0.51523554
0.09916575 0.61457026 0.52721149
0.12071778 0.64039516 0.55118376
0.20057206 0.67821121 0.59244525
0.42319486 0.70676422 0.64118123
0.6049034 0.73344123 0.68399721
0.70843643 0.75209546 0.71040171
0.78931683 0.76780748 0.73125184
0.83972836 0.77212507 0.73654008
0.13985813 0.68250978 0.55239731
0.15482782 0.6963985 0.56413537
0.19346507 0.71504664 0.58501637
0.31233162 0.73336238 0.61621487
0.51260024 0.75586808 0.65996498
0.64988518 0.78010416 0.69800955
0.7400161 0.79904824 0.72967601
0.81193709 0.81861001 0.7573958
0.87200004 0.83529156 0.7772947
0.1861036 0.7442984 0.57416856
0.2125936 0.75416905 0.58672625
0.29380277 0.7651664 0.60916126
0.44643283 0.77804911 0.64118153
0.59046829 0.79899257 0.67896175
0.69474816 0.82053518 0.71534365
0.7722832 0.83924997 0.74923921
0.83120757 0.85722256 0.77818406
0.87455994 0.87285328 0.80026394
0.07143965 0.10449385 0.13100757
0.07453664 0.11102682 0.14178245
0.07828805 0.12187444 0.16177024
0.08177153 0.13851188 0.191496
0.10591986 0.20536518 0.27379426
0.39944199 0.29872453 0.35351565
0.57721519 0.30120638 0.30524135
0.64483523 0.29493111 0.28866628
0.68391132 0.30645984 0.31144926
0.07600216 0.12069821 0.155965
0.07794908 0.12725054 0.17174791
0.07875872 0.14030936 0.20022124
0.0823372 0.16654301 0.25141424
0.10307172 0.25554225 0.3708134
0.37697482 0.3381024 0.47875977
0.58528787 0.34827569 0.40983316
0.65350044 0.34213462 0.36160228
0.68374467 0.34999269 0.37115079
0.07905824 0.16287777 0.22587919
0.08019845 0.17534147 0.24927883
0.07931971 0.19143926 0.2845771
0.07950979 0.23666872 0.35627493
0.10159712 0.35723737 0.4925735
0.3560285 0.40337422 0.57815373
0.56182879 0.39320451 0.54894644
0.63893914 0.37805423 0.49774462
0.6798709 0.36808079 0.48539144
0.07421464 0.25747216 0.33604723
0.07301108 0.27523765 0.35918641
0.07140458 0.30175337 0.39552402
0.06992292 0.36490825 0.46276572
0.10447244 0.47297472 0.5566591
0.37983322 0.51455355 0.6232214
0.56823725 0.51164019 0.63388878
0.65255445 0.49155489 0.60325563
0.69335634 0.48133537 0.58767891
0.05791019 0.38597801 0.43795976
0.05689099 0.40467447 0.45942092
0.05636077 0.4447298 0.49748638
0.06862644 0.50640666 0.54757762
0.17346199 0.56384671 0.59822553
0.42266294 0.60163742 0.65170217
0.59903276 0.61825299 0.68267059
0.68889093 0.61131775 0.67279816
0.73380911 0.60458052 0.66098678
0.04957512 0.50678807 0.50416392
0.05536256 0.5211671 0.52160186
0.07361954 0.55922729 0.55710167
0.14543772 0.61261612 0.60624802
0.31238908 0.64714587 0.64876491
0.49791223 0.67449152 0.68523657
0.63930088 0.69473833 0.71417868
0.72774732 0.69979858 0.72104132
0.77666038 0.6995036 0.71950537
0.09198505 0.61032695 0.55816066
0.09967324 0.62278432 0.57189506
0.11772177 0.64528358 0.59491885
0.18254104 0.68428892 0.63438106
0.37516281 0.71173769 0.67649788
0.56906432 0.7362743 0.71639067
0.68399698 0.75556707 0.74342471
0.76246244 0.76539862 0.7572735
0.81702584 0.7725957 0.76435703
0.14234553 0.69550085 0.60367107
0.15048778 0.70560074 0.61390686
0.16501415 0.7195276 0.62849027
0.21628161 0.74020469 0.65245146
0.40674505 0.760077 0.69185305
0.60147691 0.78351814 0.7350353
0.71947581 0.80239046 0.76465952
0.79094952 0.81410879 0.78312749
0.85220873 0.82958341 0.80151474
0.18381783 0.7580303 0.63418853
0.19457658 0.76628911 0.64254493
0.22320639 0.77724504 0.65676856
0.33402643 0.78835171 0.68123418
0.52527201 0.80540144 0.72049707
0.66691792 0.82538545 0.75680047
0.75972116 0.84254283 0.78352636
0.82018161 0.85557163 0.80402434
0.86780024 0.87057608 0.82446301
0.07484137 0.11808205 0.1576121
0.07641042 0.12285855 0.16989882
0.07752264 0.13285169 0.19526196
0.07804286 0.1486436 0.23542409
0.0874458 0.19356301 0.31208798
0.20601211 0.31429681 0.46117166
0.54188371 0.35375601 0.44765118
0.6332885 0.35728365 0.41192365
0.66594088 0.35440788 0.40276584
0.07618974 0.13434096 0.19118731
0.07694309 0.14293852 0.21056879
0.07733094 0.15720104 0.24469997
0.07821683 0.17801879 0.29905024
0.08764338 0.26099953 0.4156689
0.20923175 0.35874835 0.55820078
0.51382071 0.3475742 0.5533604
0.62546259 0.36303118 0.49040279
0.66652572 0.36581972 0.45246974
0.07809375 0.18206967 0.27121192
0.07710012 0.1945218 0.29445997
0.07530782 0.2118479 0.33006209
0.07496182 0.25566864 0.39558285
0.08189509 0.36460623 0.51607716
0.24019121 0.44300202 0.61004519
0.50726402 0.42852184 0.63384491
0.61520636 0.39879772 0.59178305
0.66747236 0.37691361 0.55250418
0.07053153 0.28192669 0.37715879
0.06954623 0.30035275 0.4010641
0.06652232 0.32683271 0.43487743
0.06527279 0.3735483 0.48833525
0.07106022 0.47157067 0.57192975
0.27669409 0.53122258 0.63631564
0.519436 0.54716039 0.67993605
0.63434023 0.52597886 0.65995055
0.68417186 0.50407535 0.63525069
0.05520594 0.40835619 0.47972062
0.05353121 0.42549103 0.49716672
0.05150172 0.45198616 0.52346432
0.05282623 0.49586251 0.56090808
0.10209295 0.55872637 0.61138475
0.33903074 0.60660797 0.66631281
0.55042821 0.62984401 0.70435095
0.66816765 0.62973017 0.71086335
0.72325748 0.61806524 0.69627684
0.05277701 0.52134699 0.54769671
0.05801448 0.5361346 0.56446171
0.06868874 0.56500506 0.59079075
0.1136428 0.60974389 0.62995553
0.21611573 0.64495403 0.66325742
0.41020608 0.67405474 0.69939739
0.59996116 0.69917524 0.73443019
0.70639211 0.70867962 0.74973869
0.76472241 0.70680225 0.74643886
0.09321228 0.62016958 0.60005128
0.10058218 0.63249326 0.61416161
0.11673318 0.65251088 0.63667876
0.17181726 0.68930924 0.66897959
0.33600041 0.71503681 0.70384347
0.53205639 0.73825341 0.73955393
0.6548481 0.75809628 0.76576942
0.74662697 0.76963961 0.78155375
0.80192512 0.77324182 0.78475648
0.14403433 0.70510298 0.64526445
0.15163909 0.71485251 0.65602732
0.16415696 0.72798038 0.67035937
0.20206594 0.74884653 0.69222075
0.37064552 0.7686469 0.72594386
0.58071166 0.78945166 0.76566267
0.71028167 0.80746192 0.79396039
0.78436023 0.81873906 0.80992866
0.83254069 0.82392609 0.8163873
0.18560188 0.76926184 0.67950565
0.1947805 0.77682656 0.68797863
0.20947807 0.78571421 0.6982916
0.26828241 0.7968387 0.71497828
0.47286093 0.8120032 0.7516253
0.64998907 0.83158147 0.78910804
0.75294048 0.84809536 0.81580508
0.81668061 0.85926831 0.83143222
0.85650092 0.86477089 0.84061217
