site/assets/luts/freshluts--0000544-moody-rain-black-vcs-log-slog-and-any-kind-of-footage-cyberp.cube
# LUTr-Schema-Version: 2
# LUTr-ID: freshluts--0000544-moody-rain-black-vcs-log-slog-and-any-kind-of-footage-cyberp
# LUTr-Title: Moody rain black vcs ( log , slog and any kind of footage ) cyberpunk
# LUTr-Collection: Fresh LUTs
# LUTr-Collection-ID: freshluts-community
# LUTr-Source: https://freshluts.com
# LUTr-Retrieved: 2026-07-27
# LUTr-Source-File: submissions-raw/freshluts/cubes/544__my_cyber_punk.cube
# LUTr-Source-Format: CUBE
# LUTr-Source-SHA256: f0ae4f6c83e8f10bf7af75327a217c0fb0b58dbf774fab4d5a6745f5f2b7df50
# LUTr-License: CC0-1.0
# LUTr-License-URL: https://freshluts.com/termsandconditions
# LUTr-License-Basis: site-terms
# LUTr-Transform-Class: creative-look
# LUTr-Tags: creative, freshluts, community, cube, cool, rec709, assumed-input
# LUTr-Input-Color-Space: rec709
# LUTr-Input-Gamut: rec709
# LUTr-Input-Transfer: rec709
# LUTr-Output-Color-Space: srgb
# LUTr-Output-Gamut: rec709
# LUTr-Output-Transfer: srgb
# LUTr-Color-Space-Confidence: assumed-display-referred
# LUTr-Domain-Normalized: true
# LUTr-Shaper: none
# LUTr-Original-Grid: 16x16x16
# LUTr-Conversion-Grid: 16x16x16
# LUTr-Conversion-Interpolation: none
# LUTr-Conversion-Method: Metadata normalization; numeric LUT samples preserved
# LUTr-Conversion-Tool: LUTr scripts/convert-all-to-cube.mjs 2.0.0
# LUTr-Conversion-Date: 2026-07-28
# LUTr-Asset-URL: https://freshluts.com/luts/544
# LUTr-Author: extreme papercraft
# LUTr-Author-URL: https://freshluts.com/users/40933
# LUTr-Attribution: extreme papercraft via Fresh LUTs
# LUTr-Source-Labels: gamma=Other; color=Cool; key=Neutral; style=cool rain; LUTr assumption=input Rec.709 per repository policy
# LUTr-Conversion-Warning: Input Rec.709 is a LUTr catalog assumption requested for this otherwise unspecified Fresh LUT; it is not verified by the upstream asset.
# LUTr-Note: Preserve this metadata and the upstream license notices when redistributing.
TITLE "Moody rain black vcs ( log , slog and any kind of footage ) cyberpunk"
LUT_3D_SIZE 16
DOMAIN_MIN 0 0 0
DOMAIN_MAX 1 1 1
0.050276 0.051183 0.054682
0.050389 0.051192 0.054824
0.050831 0.051066 0.055247
0.052435 0.051185 0.056534
0.054984 0.051497 0.057269
0.059833 0.05135 0.060412
0.068705 0.050936 0.064506
0.083344 0.050797 0.068591
0.108538 0.050518 0.076633
0.15402 0.050148 0.090381
0.23725 0.049412 0.115212
0.379513 0.049599 0.155574
0.557911 0.049597 0.198349
0.729593 0.049597 0.229953
0.884132 0.049597 0.252423
1.000023 0.049597 0.27095
0.050315 0.05144 0.054669
0.050409 0.051223 0.054706
0.051426 0.05154 0.054669
0.052553 0.051209 0.055274
0.055055 0.051556 0.055667
0.060474 0.051383 0.057416
0.068781 0.051 0.059423
0.083418 0.050829 0.063018
0.108532 0.050541 0.068912
0.154039 0.050162 0.079424
0.237241 0.04943 0.098662
0.379552 0.049609 0.130646
0.557911 0.049597 0.164673
0.729593 0.049597 0.189847
0.884132 0.049597 0.207353
1.000023 0.049597 0.221036
0.050444 0.052625 0.054625
0.050966 0.05234 0.054749
0.051492 0.051702 0.054625
0.052668 0.051216 0.055316
0.055258 0.051538 0.055708
0.060204 0.051361 0.056948
0.069205 0.050978 0.058901
0.08377 0.050807 0.061961
0.108614 0.050534 0.066802
0.154034 0.050154 0.075611
0.237379 0.049428 0.091946
0.379542 0.049599 0.119114
0.557911 0.049597 0.147671
0.729592 0.049597 0.168146
0.884132 0.049597 0.181868
1.000023 0.049597 0.191991
0.05073 0.055148 0.054545
0.051791 0.054865 0.054645
0.052406 0.052876 0.054532
0.053067 0.052054 0.055207
0.055542 0.051538 0.055822
0.061236 0.051365 0.057442
0.069921 0.050976 0.05904
0.084937 0.050806 0.062205
0.110494 0.05051 0.067166
0.15712 0.050134 0.076213
0.241745 0.049405 0.092873
0.382878 0.049586 0.119824
0.559203 0.049597 0.147787
0.729593 0.049597 0.167635
0.884123 0.049597 0.18061
1.000023 0.049597 0.189975
0.051279 0.059966 0.054344
0.052995 0.059506 0.054328
0.055456 0.057651 0.054846
0.055432 0.05378 0.055409
0.055967 0.05208 0.055838
0.061273 0.051333 0.057215
0.070681 0.050964 0.05921
0.086313 0.050779 0.062464
0.112899 0.050485 0.067638
0.161767 0.050105 0.077125
0.249536 0.049378 0.094437
0.394325 0.049552 0.12178
0.569857 0.049597 0.149185
0.739475 0.049597 0.168628
0.889495 0.049597 0.180972
1.000023 0.049597 0.189974
0.052307 0.068576 0.053805
0.055261 0.068202 0.053661
0.059894 0.066156 0.054282
0.059779 0.058445 0.054795
0.060171 0.054054 0.055069
0.061747 0.052459 0.05674
0.070962 0.051251 0.05903
0.087528 0.050784 0.062702
0.115449 0.050464 0.068098
0.165442 0.050083 0.077844
0.25765 0.049355 0.095984
0.405623 0.049525 0.123705
0.581889 0.049597 0.150777
0.748265 0.049597 0.169482
0.898298 0.049597 0.18161
1.000023 0.049597 0.189964
0.054192 0.083267 0.052639
0.059129 0.082764 0.052562
0.066869 0.080004 0.052639
0.069308 0.069448 0.053685
0.069582 0.060113 0.054609
0.070249 0.054823 0.054633
0.072051 0.052586 0.057762
0.08763 0.051288 0.062065
0.117542 0.050484 0.06848
0.170193 0.050049 0.07879
0.267695 0.049377 0.098151
0.416963 0.0495 0.125636
0.59437 0.049597 0.152412
0.760899 0.049597 0.170688
0.910667 0.049597 0.18246
1.000023 0.049597 0.189959
0.058509 0.108188 0.051257
0.066885 0.107297 0.051186
0.079708 0.103737 0.051257
0.086922 0.088775 0.0523
0.083224 0.070694 0.053449
0.084896 0.062168 0.054331
0.085879 0.056249 0.055715
0.089611 0.053072 0.059707
0.117195 0.05128 0.066921
0.172745 0.050132 0.079195
0.273782 0.049618 0.09925
0.430777 0.049578 0.128197
0.60454 0.049597 0.153659
0.769442 0.049597 0.171384
0.919172 0.049597 0.183024
1.000023 0.049597 0.189954
0.068075 0.151501 0.049924
0.082405 0.149861 0.049845
0.104283 0.145149 0.049369
0.113502 0.117607 0.050952
0.109639 0.091721 0.052212
0.111201 0.075077 0.053303
0.112686 0.065209 0.053901
0.114275 0.057595 0.056137
0.120729 0.053549 0.062819
0.171747 0.051284 0.075753
0.278415 0.049645 0.099717
0.439446 0.049622 0.129612
0.615668 0.049597 0.155115
0.781671 0.049597 0.172496
0.927507 0.049597 0.183611
1.000023 0.049597 0.189952
0.087838 0.226534 0.049597
0.113442 0.223539 0.049597
0.151086 0.216988 0.049597
0.15988 0.167892 0.049597
0.16783 0.132007 0.050466
0.15785 0.098908 0.051788
0.161994 0.082856 0.052697
0.164561 0.070807 0.053469
0.166794 0.05968 0.056613
0.178369 0.054088 0.068283
0.27566 0.051106 0.092422
0.441619 0.050176 0.128388
0.627255 0.049597 0.156537
0.789987 0.049597 0.173236
0.939427 0.049597 0.184427
1.000023 0.049597 0.189948
0.126352 0.347683 0.049597
0.17044 0.342997 0.049597
0.233312 0.334797 0.049597
0.24349 0.256333 0.049597
0.265479 0.202905 0.049418
0.241807 0.144482 0.050216
0.253745 0.115576 0.051079
0.258447 0.09771 0.051883
0.262165 0.08193 0.052738
0.26599 0.063448 0.057406
0.286213 0.054756 0.078903
0.437603 0.051947 0.115417
0.625568 0.050152 0.152896
0.798211 0.049597 0.173923
0.94773 0.049597 0.185029
1.000023 0.049597 0.189947
0.183251 0.502666 0.049597
0.252874 0.496878 0.049597
0.346703 0.487639 0.049597
0.373844 0.391513 0.049597
0.404739 0.310112 0.049667
0.402037 0.230166 0.049511
0.400394 0.171083 0.049667
0.412219 0.141678 0.050066
0.416913 0.119794 0.050803
0.420911 0.100228 0.051833
0.425623 0.07188 0.057586
0.449666 0.056248 0.092099
0.622385 0.052954 0.134157
0.796435 0.050152 0.168046
0.951855 0.049612 0.18528
1.000023 0.049597 0.189947
0.249788 0.655954 0.049597
0.345908 0.650226 0.049597
0.469814 0.641389 0.049597
0.531815 0.551091 0.049597
0.563094 0.436229 0.049597
0.591743 0.334695 0.049597
0.57432 0.241476 0.049597
0.592941 0.189074 0.049597
0.598919 0.161169 0.049597
0.603624 0.13891 0.049685
0.604902 0.116288 0.050706
0.610726 0.082323 0.058153
0.632042 0.057692 0.100246
0.792783 0.053511 0.143386
0.949831 0.050902 0.176255
1.000023 0.049603 0.189955
0.322467 0.795283 0.049597
0.443084 0.789684 0.049597
0.592956 0.782377 0.049597
0.683622 0.699598 0.049597
0.715465 0.559982 0.049597
0.745964 0.431551 0.049597
0.739594 0.316322 0.049597
0.759547 0.235607 0.049597
0.769597 0.194515 0.049597
0.773046 0.170211 0.049597
0.775272 0.147187 0.049597
0.777785 0.125062 0.049597
0.783345 0.091449 0.057731
0.797353 0.059427 0.102215
0.946582 0.05491 0.146851
1.000023 0.051461 0.176896
0.402439 0.921219 0.049597
0.544565 0.915796 0.049597
0.714134 0.909192 0.049597
0.823943 0.831406 0.049597
0.854274 0.675555 0.049597
0.880993 0.526276 0.049597
0.89269 0.394067 0.049597
0.908777 0.287933 0.049597
0.923494 0.222501 0.049597
0.927628 0.196073 0.049597
0.930724 0.172829 0.049597
0.932445 0.150279 0.049597
0.933762 0.12839 0.049528
0.938051 0.098415 0.055738
0.947215 0.061246 0.098345
1.000023 0.056223 0.142017
0.481438 1.000023 0.049597
0.642867 1.000023 0.049597
0.827485 1.000023 0.049597
0.924808 0.921323 0.049597
0.946216 0.763384 0.049597
0.967966 0.610605 0.049597
0.990095 0.471816 0.049597
1.000023 0.360162 0.049597
1.000023 0.269915 0.049597
1.000023 0.224191 0.049597
1.000011 0.200544 0.049597
1.000023 0.177431 0.049597
1.000023 0.15498 0.049871
1.000023 0.13304 0.049704
1.000023 0.107634 0.053221
1.000023 0.063314 0.085947
0.050264 0.051464 0.056145
0.050254 0.051389 0.056308
0.050823 0.052021 0.060182
0.052111 0.051921 0.062697
0.054352 0.051408 0.062179
0.059586 0.050692 0.06906
0.068075 0.050849 0.074343
0.083111 0.050692 0.084992
0.108487 0.050445 0.095794
0.154102 0.050136 0.111129
0.238416 0.049889 0.145552
0.379623 0.049581 0.194261
0.557911 0.049597 0.248059
0.729593 0.049597 0.287654
0.884132 0.049597 0.315131
1.000023 0.049597 0.337683
0.050282 0.051581 0.055442
0.050361 0.051616 0.056109
0.050837 0.051579 0.057153
0.052266 0.051596 0.058407
0.054546 0.051416 0.059561
0.059972 0.051291 0.065652
0.069127 0.050859 0.070933
0.083775 0.050732 0.077443
0.109567 0.050457 0.088701
0.156078 0.050135 0.103617
0.241458 0.049901 0.134367
0.3856 0.04958 0.182694
0.564738 0.049597 0.232814
0.735567 0.049597 0.269382
0.888614 0.049597 0.294934
1.000023 0.049597 0.315908
0.050371 0.05266 0.054652
0.050586 0.052725 0.055695
0.051487 0.052259 0.055789
0.052031 0.051022 0.056265
0.055307 0.051534 0.057157
0.060395 0.051347 0.059484
0.069145 0.050977 0.062686
0.083989 0.050793 0.066713
0.10962 0.050514 0.074186
0.156125 0.050135 0.087119
0.241554 0.049408 0.110675
0.385662 0.049582 0.148434
0.565038 0.049597 0.188452
0.735567 0.049597 0.217508
0.888815 0.049597 0.238288
1.000023 0.049597 0.254896
0.050538 0.055215 0.054488
0.050975 0.055186 0.055104
0.052208 0.054204 0.05504
0.052645 0.052368 0.055669
0.0556 0.051573 0.056928
0.060424 0.051371 0.058037
0.069765 0.051016 0.060156
0.084683 0.050817 0.063109
0.11025 0.050528 0.068353
0.156344 0.050144 0.07796
0.241327 0.049423 0.096397
0.38459 0.049595 0.126524
0.565038 0.049597 0.158984
0.735567 0.049597 0.182135
0.888815 0.049597 0.198056
1.000023 0.049597 0.210357
0.050832 0.06011 0.054294
0.05173 0.06002 0.054453
0.054191 0.059526 0.054553
0.054962 0.055418 0.054971
0.056052 0.052861 0.056492
0.060933 0.051399 0.057555
0.07056 0.051182 0.059741
0.085922 0.050843 0.062858
0.112494 0.050511 0.067857
0.160027 0.050123 0.076967
0.247589 0.049405 0.09425
0.391673 0.049565 0.121633
0.566433 0.049597 0.149154
0.736485 0.049597 0.16904
0.888925 0.049597 0.181814
1.000023 0.049597 0.191041
0.051344 0.068771 0.05382
0.053147 0.068717 0.053723
0.057176 0.068163 0.053676
0.060544 0.063307 0.054253
0.060182 0.056083 0.05453
0.06154 0.052718 0.056102
0.070969 0.051764 0.058873
0.087291 0.05104 0.062588
0.115133 0.050525 0.068131
0.164478 0.050082 0.077741
0.257117 0.049419 0.096058
0.402752 0.049527 0.12325
0.579638 0.049597 0.150592
0.74536 0.049597 0.169189
0.897605 0.049597 0.181575
1.000023 0.049597 0.189968
0.052136 0.083571 0.052683
0.055738 0.083462 0.052589
0.062373 0.08291 0.052616
0.069656 0.076975 0.053153
0.068902 0.064468 0.054095
0.070259 0.057442 0.054434
0.071977 0.053783 0.056544
0.087649 0.051967 0.061149
0.117168 0.050815 0.067913
0.168868 0.050122 0.078498
0.26313 0.049709 0.097201
0.41359 0.049564 0.125005
0.590535 0.049597 0.151888
0.756132 0.049597 0.170193
0.905708 0.049597 0.182148
1.000023 0.049597 0.189959
0.054437 0.108797 0.051282
0.061174 0.1084 0.051208
0.07218 0.107293 0.051282
0.083701 0.098146 0.051208
0.084292 0.079843 0.052916
0.084692 0.066849 0.054215
0.085624 0.059191 0.054609
0.089396 0.054556 0.057438
0.117123 0.052192 0.065143
0.172395 0.050541 0.077975
0.272314 0.049417 0.098824
0.427403 0.049435 0.127539
0.602638 0.049597 0.153485
0.767567 0.049597 0.171302
0.917073 0.049597 0.182913
1.000023 0.049597 0.189955
0.060553 0.152604 0.049966
0.072622 0.151617 0.049883
0.09075 0.148937 0.049415
0.111095 0.136475 0.050439
0.116078 0.107585 0.051309
0.109233 0.08271 0.052772
0.112208 0.070418 0.05355
0.113822 0.061649 0.054466
0.120318 0.055352 0.059306
0.171459 0.052469 0.072321
0.276358 0.0503 0.096813
0.43756 0.049687 0.129132
0.614117 0.049597 0.154906
0.776992 0.049597 0.172064
0.924871 0.049597 0.183481
1.000023 0.049597 0.189955
0.073858 0.22856 0.049597
0.096745 0.226361 0.049597
0.128011 0.222526 0.049597
0.161635 0.203015 0.049597
0.166575 0.152824 0.049481
0.154347 0.11292 0.051338
0.160755 0.090838 0.05226
0.163849 0.077351 0.053018
0.166172 0.065852 0.054288
0.177468 0.056254 0.06222
0.273474 0.05306 0.085747
0.441779 0.050626 0.123801
0.622073 0.049597 0.155445
0.786326 0.049597 0.172943
0.935855 0.049597 0.184189
1.000023 0.049597 0.189949
0.100192 0.351012 0.049597
0.141642 0.347055 0.049597
0.195733 0.342403 0.049597
0.251705 0.315756 0.049597
0.250625 0.230132 0.049594
0.26219 0.178635 0.049751
0.24807 0.129895 0.0507
0.256973 0.10762 0.051412
0.261172 0.090586 0.052227
0.264484 0.074545 0.054151
0.283815 0.057772 0.066953
0.435965 0.054293 0.104308
0.625039 0.051266 0.145406
0.796435 0.049597 0.173276
0.943427 0.049599 0.18472
1.000023 0.049597 0.189947
0.139579 0.506555 0.049597
0.208273 0.501452 0.049597
0.290484 0.495689 0.049597
0.381617 0.471062 0.049597
0.38168 0.351078 0.049602
0.418563 0.279268 0.049806
0.388952 0.197719 0.049602
0.408398 0.155737 0.049806
0.415854 0.131687 0.050324
0.419927 0.111168 0.051148
0.42312 0.09022 0.053679
0.447284 0.059319 0.071517
0.619802 0.055468 0.118773
0.794601 0.051822 0.157431
0.950959 0.049857 0.183815
1.000023 0.049598 0.189947
0.185374 0.66003 0.049597
0.284747 0.654436 0.049597
0.394746 0.647743 0.049597
0.518243 0.626133 0.049597
0.543485 0.499844 0.049597
0.579633 0.391876 0.049597
0.572535 0.288064 0.049597
0.584526 0.214319 0.049597
0.596825 0.175709 0.049597
0.601813 0.151125 0.049617
0.605188 0.129064 0.049597
0.607731 0.103656 0.052959
0.627612 0.060726 0.070836
0.790969 0.05627 0.124474
0.94835 0.052708 0.162938
1.000023 0.050084 0.186845
0.236137 0.799214 0.049597
0.367365 0.79356 0.049597
0.502373 0.786313 0.049597
0.653624 0.769325 0.049597
0.696978 0.639147 0.049597
0.730483 0.503931 0.049597
0.752406 0.380449 0.049597
0.74921 0.27665 0.049597
0.766172 0.212569 0.049597
0.771081 0.18339 0.049597
0.774744 0.159859 0.049597
0.777705 0.137408 0.049597
0.779453 0.112822 0.052113
0.795463 0.063489 0.065997
0.944882 0.05798 0.123931
1.000023 0.053658 0.160621
0.29402 0.925113 0.049597
0.456317 0.919449 0.049597
0.612584 0.913096 0.049597
0.78632 0.899983 0.049597
0.837973 0.765308 0.049597
0.867213 0.610562 0.049597
0.891959 0.466813 0.049597
0.897861 0.344137 0.049597
0.916147 0.253646 0.049597
0.925439 0.209646 0.049597
0.928967 0.185675 0.049597
0.931821 0.162609 0.049597
0.933018 0.140388 0.049847
0.935703 0.118383 0.05013
0.944847 0.072763 0.062998
1.000023 0.059751 0.115516
0.351015 1.000023 0.049597
0.543712 1.000023 0.049597
0.718093 1.000023 0.049597
0.892998 0.988364 0.049597
0.934131 0.854037 0.049597
0.955778 0.696462 0.049597
0.977475 0.548362 0.049597
0.99719 0.420148 0.049597
1.000023 0.316431 0.049597
1.000023 0.242954 0.049597
1.000004 0.213741 0.049597
1.000023 0.190255 0.049597
1.000023 0.167341 0.049793
1.000023 0.145025 0.049682
1.000023 0.123173 0.049793
1.000023 0.086868 0.059892
0.050186 0.052457 0.060525
0.050176 0.052105 0.060713
0.050186 0.05205 0.061108
0.050176 0.053132 0.069689
0.052003 0.054272 0.086065
0.058139 0.054328 0.102674
0.064653 0.05329 0.102849
0.074891 0.050961 0.113948
0.104306 0.050538 0.146706
0.159351 0.050054 0.186744
0.240532 0.049433 0.224458
0.382751 0.049501 0.288507
0.559662 0.049597 0.347121
0.730492 0.049597 0.37988
0.884453 0.049597 0.399088
1.000023 0.049597 0.422782
0.050209 0.053148 0.060175
0.05024 0.052755 0.060401
0.050209 0.052218 0.06076
0.051349 0.053043 0.069365
0.054173 0.052619 0.073227
0.057971 0.051234 0.073579
0.065726 0.050941 0.084825
0.082063 0.05068 0.104093
0.112078 0.050383 0.131975
0.155401 0.050039 0.1529
0.242801 0.049832 0.195129
0.386019 0.049484 0.251129
0.565069 0.049597 0.308788
0.735567 0.049597 0.341608
0.888843 0.049597 0.370916
1.000023 0.049597 0.394222
0.050291 0.053082 0.057511
0.050276 0.053181 0.058735
0.050846 0.053252 0.060406
0.051948 0.052901 0.062237
0.054553 0.052689 0.064732
0.059108 0.051688 0.070478
0.06755 0.051572 0.079635
0.085788 0.051131 0.098292
0.109901 0.050681 0.110008
0.158291 0.050126 0.133104
0.245754 0.049569 0.16402
0.390474 0.049571 0.222863
0.569082 0.049597 0.273866
0.739475 0.049597 0.315295
0.89308 0.049597 0.343627
1.000023 0.049597 0.366617
0.050488 0.055259 0.055363
0.050469 0.055301 0.05586
0.051043 0.055431 0.059384
0.052143 0.053602 0.059893
0.054613 0.052262 0.060533
0.059932 0.051934 0.063845
0.069378 0.051705 0.06777
0.084471 0.05138 0.072133
0.110608 0.05086 0.082565
0.158113 0.050255 0.098372
0.245719 0.049753 0.127844
0.391615 0.049699 0.17299
0.569295 0.049597 0.218785
0.740433 0.049597 0.253228
0.893265 0.049597 0.277077
1.000023 0.049597 0.296535
0.050824 0.060147 0.054343
0.050826 0.060222 0.054604
0.051936 0.059567 0.056886
0.054752 0.058481 0.05816
0.055318 0.054298 0.059889
0.060722 0.052602 0.062862
0.07009 0.052051 0.064864
0.085397 0.051488 0.067581
0.11184 0.050861 0.073798
0.159375 0.050249 0.085288
0.246504 0.049753 0.106902
0.390657 0.049693 0.141372
0.569295 0.049597 0.177485
0.740433 0.049597 0.204514
0.893265 0.049597 0.22356
1.000023 0.049597 0.238501
0.05135 0.068859 0.053812
0.051442 0.068977 0.053883
0.054159 0.068859 0.055816
0.059006 0.067762 0.056577
0.059872 0.05976 0.057658
0.061037 0.055439 0.060073
0.070645 0.052956 0.06321
0.086716 0.052054 0.066384
0.114127 0.051259 0.072359
0.163334 0.05042 0.082853
0.252857 0.049593 0.101785
0.399585 0.049864 0.130094
0.575876 0.049597 0.157918
0.742437 0.049597 0.177121
0.89432 0.049597 0.190153
1.000023 0.049597 0.200553
0.052138 0.083743 0.052678
0.052502 0.08386 0.052667
0.057392 0.083743 0.053736
0.065443 0.081889 0.053765
0.069543 0.071546 0.054863
0.069382 0.061165 0.056825
0.071579 0.056098 0.059622
0.087346 0.053398 0.064237
0.116477 0.0519 0.070743
0.167896 0.050893 0.081331
0.260664 0.050233 0.1009
0.410723 0.049782 0.128985
0.586349 0.049597 0.154485
0.753135 0.049597 0.171471
0.902963 0.049597 0.183129
1.000023 0.049597 0.191001
0.054343 0.109128 0.051244
0.055538 0.10915 0.051271
0.064134 0.108377 0.051244
0.077212 0.105411 0.051271
0.086239 0.091093 0.052432
0.083725 0.072874 0.053864
0.085252 0.063133 0.055822
0.08909 0.05702 0.059289
0.116935 0.053801 0.066734
0.171521 0.051701 0.078825
0.269322 0.051001 0.099022
0.421794 0.04948 0.127792
0.599212 0.049597 0.154362
0.763744 0.049597 0.171785
0.912316 0.049597 0.182911
1.000023 0.049597 0.189962
0.05986 0.153167 0.049947
0.062861 0.152918 0.049934
0.078675 0.152242 0.049391
0.10145 0.149249 0.049381
0.114238 0.123792 0.049954
0.111171 0.095363 0.052324
0.11172 0.076484 0.053303
0.113475 0.06622 0.054571
0.119842 0.057994 0.057901
0.171154 0.054268 0.070712
0.27556 0.051726 0.094406
0.432784 0.050902 0.124682
0.61072 0.049597 0.153576
0.774194 0.049597 0.172116
0.922533 0.049597 0.183278
1.000023 0.049597 0.189957
0.071309 0.229609 0.049597
0.078479 0.228766 0.049597
0.106834 0.225967 0.049597
0.14556 0.221527 0.049597
0.162273 0.178851 0.049623
0.170123 0.138453 0.050385
0.157862 0.101851 0.051844
0.16326 0.084659 0.052614
0.165755 0.071997 0.053558
0.17663 0.060337 0.05725
0.274252 0.054742 0.078585
0.439173 0.051667 0.115903
0.62022 0.050724 0.149148
0.784422 0.050152 0.170923
0.931439 0.049621 0.183829
1.000023 0.049597 0.189951
0.0932 0.352796 0.049597
0.109028 0.350845 0.049597
0.159831 0.345625 0.049597
0.224015 0.340792 0.049597
0.249262 0.275387 0.049625
0.264617 0.211235 0.049852
0.244172 0.151169 0.050174
0.255479 0.118447 0.050965
0.260225 0.09997 0.051766
0.264029 0.083562 0.052677
0.281506 0.065289 0.056858
0.434014 0.056117 0.090287
0.623965 0.052723 0.134078
0.792783 0.050728 0.165009
0.939501 0.049937 0.182408
1.000023 0.049626 0.189902
0.124076 0.508877 0.049597
0.154337 0.505978 0.049597
0.236997 0.500752 0.049597
0.330831 0.49239 0.049597
0.379185 0.415671 0.049597
0.400301 0.321548 0.049636
0.410151 0.24285 0.049597
0.400301 0.177211 0.049636
0.413681 0.144853 0.050001
0.418911 0.122294 0.050691
0.422396 0.102286 0.051667
0.444841 0.075613 0.057475
0.619171 0.057259 0.097893
0.793649 0.053833 0.142899
0.948931 0.051042 0.175168
1.000023 0.049926 0.187961
0.157052 0.662344 0.049597
0.208057 0.659096 0.049597
0.32427 0.653562 0.049597
0.448664 0.645702 0.049597
0.530825 0.573859 0.049597
0.559258 0.452842 0.049597
0.593488 0.349583 0.049597
0.573 0.251279 0.049597
0.593238 0.193699 0.049597
0.600104 0.164018 0.049597
0.605219 0.141336 0.049597
0.607239 0.118859 0.050706
0.625494 0.085973 0.056698
0.789052 0.060101 0.099951
0.946888 0.055078 0.145741
1.000023 0.05155 0.176294
0.190485 0.801624 0.049597
0.267306 0.798155 0.049597
0.416465 0.791558 0.049597
0.566856 0.785243 0.049597
0.67832 0.721196 0.049597
0.711497 0.580895 0.049597
0.743026 0.448918 0.049597
0.73464 0.329042 0.049597
0.758408 0.243737 0.049597
0.770248 0.19791 0.049597
0.773552 0.17273 0.049597
0.776781 0.149673 0.049597
0.778036 0.127015 0.049637
0.792783 0.094747 0.056178
0.942976 0.061594 0.094891
1.000023 0.056456 0.140313
0.22931 0.927804 0.049597
0.334365 0.923967 0.049597
0.51419 0.917428 0.049597
0.684749 0.910366 0.049597
0.814994 0.85154 0.049597
0.851145 0.699139 0.049597
0.877922 0.546487 0.049597
0.897024 0.411515 0.049597
0.907029 0.299784 0.049597
0.923093 0.226821 0.049597
0.927156 0.198824 0.049597
0.93025 0.175301 0.049597
0.932009 0.152508 0.049795
0.934849 0.130419 0.049622
0.942336 0.102084 0.054832
1.000023 0.063865 0.080901
0.265245 1.000023 0.049597
0.400881 1.000023 0.049597
0.609375 1.000023 0.049597
0.795678 1.000023 0.049597
0.916984 0.940975 0.049597
0.942947 0.786414 0.049597
0.964916 0.631507 0.049597
0.986862 0.48976 0.049597
1.000023 0.373803 0.049597
1.000023 0.279484 0.049597
1.000023 0.227184 0.049597
1.000015 0.203283 0.049597
1.000023 0.179888 0.049597
1.000023 0.15708 0.049404
1.000023 0.13494 0.049597
1.000023 0.110691 0.052189
0.050046 0.054715 0.069588
0.050044 0.05374 0.070048
0.050046 0.053679 0.070204
0.050044 0.053547 0.071281
0.050261 0.056597 0.088195
0.051486 0.060593 0.116931
0.056449 0.059867 0.164667
0.075246 0.059649 0.228555
0.095693 0.05853 0.245135
0.11842 0.051703 0.262998
0.16352 0.050602 0.366398
0.293246 0.049482 0.483905
0.538783 0.049597 0.584321
0.738569 0.049597 0.613408
0.8899 0.049597 0.60986
1.000023 0.049597 0.615896
0.050015 0.056393 0.068838
0.050043 0.055276 0.069414
0.050015 0.05429 0.07006
0.050043 0.053917 0.071264
0.050644 0.055945 0.087105
0.054449 0.055955 0.115759
0.064659 0.055879 0.141862
0.075899 0.054202 0.144117
0.091126 0.050876 0.166212
0.135363 0.050473 0.227851
0.240185 0.049764 0.323148
0.401737 0.049365 0.420216
0.570509 0.049597 0.484893
0.740433 0.049597 0.524488
0.893246 0.049597 0.539528
1.000023 0.049597 0.55337
0.050022 0.056848 0.067925
0.050013 0.056775 0.068673
0.050022 0.055651 0.069143
0.05057 0.054843 0.070509
0.052955 0.055531 0.0854
0.057786 0.054276 0.093832
0.064792 0.053031 0.095676
0.075933 0.051463 0.114413
0.100234 0.050966 0.152762
0.158622 0.050277 0.213451
0.264987 0.049857 0.296402
0.396038 0.049719 0.359231
0.574442 0.049597 0.42742
0.743382 0.049597 0.462152
0.895827 0.049597 0.475522
1.000023 0.049597 0.488771
0.050212 0.055828 0.060475
0.050112 0.056011 0.062557
0.050212 0.056569 0.065804
0.051225 0.056344 0.069161
0.053918 0.05577 0.072889
