site/assets/luts/freshluts--0001222-color-vegas.cube
# LUTr-Schema-Version: 2
# LUTr-ID: freshluts--0001222-color-vegas
# LUTr-Title: COLOR VEGAS
# LUTr-Collection: Fresh LUTs
# LUTr-Collection-ID: freshluts-community
# LUTr-Source: https://freshluts.com
# LUTr-Retrieved: 2026-07-27
# LUTr-Source-File: submissions-raw/freshluts/cubes/1222__VEGAS_COLOR.cube
# LUTr-Source-Format: CUBE
# LUTr-Source-SHA256: 31931c4f9bed71a513d0dd7e1697e2f393ed3e3045df4ff1365cf7ea9d78497a
# LUTr-License: CC0-1.0
# LUTr-License-URL: https://freshluts.com/termsandconditions
# LUTr-License-Basis: site-terms
# LUTr-Transform-Class: creative-look
# LUTr-Tags: creative, freshluts, community, cube, film-emulation, blue, sony-s-log3
# LUTr-Input-Color-Space:
# LUTr-Input-Gamut: sony-s-gamut3
# LUTr-Input-Transfer: sony-s-log3
# LUTr-Output-Color-Space: srgb
# LUTr-Output-Gamut: rec709
# LUTr-Output-Transfer: srgb
# LUTr-Color-Space-Confidence: camera-profile-input-required
# LUTr-Domain-Normalized: true
# LUTr-Shaper: none
# LUTr-Original-Grid: 33x33x33
# LUTr-Conversion-Grid: 33x33x33
# LUTr-Conversion-Interpolation: none
# LUTr-Conversion-Method: Metadata normalization; numeric LUT samples preserved
# LUTr-Conversion-Tool: LUTr scripts/convert-all-to-cube.mjs 2.0.0
# LUTr-Conversion-Date: 2026-07-28
# LUTr-Asset-URL: https://freshluts.com/luts/1222
# LUTr-Author: Antony Eliezer
# LUTr-Author-URL: https://freshluts.com/users/32961
# LUTr-Attribution: Antony Eliezer via Fresh LUTs
# LUTr-Source-Labels: gamma=Sony S-Log 3; color=Blue; key=Neutral; style=Film emulation
# LUTr-Note: Preserve this metadata and the upstream license notices when redistributing.
# LUTr-Upstream-Comment: VEGAS Pro LUT
TITLE "COLOR VEGAS"
LUT_3D_SIZE 5
DOMAIN_MIN 0 0 0
DOMAIN_MAX 1 1 1
0.02464357 0.02746977 0.03134248
0.07495502 0.04282978 0.0442568
0.27254611 0.07431548 0.02855692
0.51984954 0.0644046 0.01911147
0.68590903 0.04396218 0.0324143
0.02737997 0.0674172 0.05324177
0.13063319 0.10928235 0.06136328
0.43433166 0.16851901 0.02138988
0.66547638 0.18295838 0.02639082
0.79087734 0.22429346 0.04059057
0.01980158 0.1634329 0.1076913
0.0870637 0.2375088 0.11065267
0.61604226 0.41818315 0.03370413
0.83736199 0.48118475 0.03445772
0.93243957 0.52315503 0.04924546
0.03776988 0.34813437 0.2224424
0.08781894 0.4821322 0.265118
0.68837345 0.67529988 0.12378003
0.9488197 0.77461195 0.04665478
0.99204433 0.80156291 0.0644609
0.07089201 0.6235438 0.40185261
0.45070869 0.77062243 0.44333717
0.73501325 0.83930051 0.42644849
0.94388074 0.89029497 0.37483042
0.99490219 0.89760947 0.31801292
0.02286026 0.03208274 0.0556417
0.06646636 0.04656285 0.07169204
0.30419022 0.09075837 0.06967959
0.54930484 0.06137992 0.0471454
0.7011587 0.05282162 0.10280694
0.02475955 0.07519364 0.08581727
0.10123386 0.11124349 0.10884371
0.4663935 0.19856881 0.10787237
0.69000399 0.21431851 0.09083154
0.8011381 0.25794336 0.16746698
0.0236687 0.19420746 0.19111755
0.05138073 0.24252261 0.20878488
0.6109032 0.45848277 0.22040384
0.83770353 0.50816697 0.10102555
0.9252699 0.55219495 0.25473371
0.03664776 0.37991536 0.3359834
0.0810736 0.51261485 0.40364736
0.65462399 0.70430565 0.42535156
0.92026043 0.78791696 0.3181152
0.99171507 0.81875676 0.36827338
0.06183002 0.60788608 0.48792893
0.21845552 0.74615145 0.54839891
0.69972515 0.85554439 0.58951592
0.93084824 0.91440988 0.58705324
0.99501479 0.9265402 0.55374891
0.02237574 0.04567165 0.0998655
0.05259717 0.05496996 0.12094527
0.25372219 0.09612659 0.15908626
0.57407635 0.11228194 0.20812741
0.71671736 0.1019937 0.24116696
0.01239644 0.09330022 0.15493658
0.03887364 0.11969757 0.19071589
0.36463174 0.22956091 0.2871896
0.72168577 0.32250664 0.35721797
0.81963372 0.33278537 0.35940817
0.02778907 0.21988827 0.2972073
0.06308436 0.3112008 0.37535766
0.51651335 0.49301037 0.47281873
0.84774882 0.61572152 0.53063041
0.92617756 0.60618651 0.49087557
0.05260111 0.46163821 0.49460682
0.08137233 0.55500156 0.53968835
0.53504592 0.69655663 0.58998024
0.90164441 0.82987618 0.62894303
0.98508751 0.85157043 0.60871953
0.05110522 0.59269226 0.5741201
0.08525535 0.70819825 0.62588137
0.64615828 0.85856622 0.71212059
0.90746081 0.92892694 0.75310427
0.9895519 0.94643039 0.73065335
0.00649648 0.05988273 0.17392443
0.02433627 0.06697382 0.19833803
0.16953178 0.11720929 0.29477537
0.56546539 0.18023624 0.40254647
0.77444386 0.25949714 0.50189942
0.01381812 0.10915723 0.25449675
0.04086784 0.14736067 0.3211312
0.25272483 0.25947082 0.43059608
0.6857183 0.39277163 0.546978
0.8539778 0.48035917 0.6194064
0.03393833 0.26207238 0.42501748
0.0645689 0.35669431 0.50863975
0.37323493 0.49008766 0.58602661
0.78373331 0.64335048 0.67705464
0.91597956 0.70331514 0.72366643
0.05694887 0.50136876 0.60720623
0.0832376 0.59364927 0.65209591
0.48640943 0.70633459 0.69874901
0.85277051 0.83752578 0.78170365
0.96821946 0.87777251 0.81203735
0.05836054 0.63982266 0.69013113
0.08448783 0.72304392 0.72144866
0.52633542 0.83971667 0.77821261
0.874134 0.93009382 0.84900576
0.98286372 0.95859909 0.86748552
0.01660364 0.04815872 0.31185868
0.03519075 0.06986818 0.3536132
0.10509853 0.14689672 0.42951369
0.56396091 0.26550201 0.5967899
0.7919625 0.34258395 0.66914225
0.02646541 0.14683387 0.42820871
0.05119196 0.22004025 0.50699806
0.15175053 0.32155022 0.58350086
0.66607279 0.46816891 0.70782077
0.85783243 0.55777621 0.76297361
0.0417699 0.34447092 0.59502769
0.07016523 0.4468466 0.66626596
0.33601516 0.56336397 0.72215986
0.73944336 0.67469603 0.78964162
0.90528917 0.74878877 0.83200657
0.059935 0.55418003 0.7229194
0.08467551 0.64222431 0.76062477
0.42846555 0.74109137 0.79683065
0.77946913 0.83191788 0.84805751
0.94535071 0.89088875 0.8901422
0.06360258 0.67147547 0.77437454
0.08744284 0.74709517 0.8000437
0.49317691 0.84305805 0.83853966
0.85467255 0.92793143 0.89723617
0.98002714 0.96467423 0.93182397
