site/assets/luts/freshluts--0001092-arri-crosstalk-custom-look-2-by-tjtop.cube
# LUTr-Schema-Version: 2
# LUTr-ID: freshluts--0001092-arri-crosstalk-custom-look-2-by-tjtop
# LUTr-Title: Arri_Crosstalk_Custom_Look_2_by_TJTOP
# LUTr-Collection: Fresh LUTs
# LUTr-Collection-ID: freshluts-community
# LUTr-Source: https://freshluts.com
# LUTr-Retrieved: 2026-07-27
# LUTr-Source-File: submissions-raw/freshluts/cubes/1092__LogC_CCL_2_33.cube
# LUTr-Source-Format: CUBE
# LUTr-Source-SHA256: b80ddfcf881eea0cba929fb3a9715c81d8d17c1fd84122e8e155204fae276774
# LUTr-License: CC0-1.0
# LUTr-License-URL: https://freshluts.com/termsandconditions
# LUTr-License-Basis: site-terms
# LUTr-Transform-Class: creative-look
# LUTr-Tags: creative, freshluts, community, cube, film-emulation, teal, arri-logc3-ei800
# LUTr-Input-Color-Space:
# LUTr-Input-Gamut: arri-wide-gamut-3
# LUTr-Input-Transfer: arri-logc3-ei800
# LUTr-Output-Color-Space: srgb
# LUTr-Output-Gamut: rec709
# LUTr-Output-Transfer: srgb
# LUTr-Color-Space-Confidence: camera-profile-input-required
# LUTr-Domain-Normalized: true
# LUTr-Shaper: none
# LUTr-Original-Grid: 33x33x33
# LUTr-Conversion-Grid: 33x33x33
# LUTr-Conversion-Interpolation: none
# LUTr-Conversion-Method: Metadata normalization; numeric LUT samples preserved
# LUTr-Conversion-Tool: LUTr scripts/convert-all-to-cube.mjs 2.0.0
# LUTr-Conversion-Date: 2026-07-28
# LUTr-Asset-URL: https://freshluts.com/luts/1092
# LUTr-Author: tjtop
# LUTr-Author-URL: https://freshluts.com/users/10151
# LUTr-Attribution: tjtop via Fresh LUTs
# LUTr-Source-Labels: gamma=Arri log c; color=Teal; key=Neutral; style=Film emulation
# LUTr-Note: Preserve this metadata and the upstream license notices when redistributing.
TITLE "Arri_Crosstalk_Custom_Look_2_by_TJTOP"
LUT_3D_SIZE 5
DOMAIN_MIN 0 0 0
DOMAIN_MAX 1 1 1
0.054757 0.031285 0.027843
0.2696 0.031285 0.027843
0.502075 0.031285 0.027843
0.750204 0.031285 0.027843
1.00002 0.031285 0.027843
-0.138513 0.169794 -0.020781
0.174142 0.169794 -0.020781
0.494566 0.169794 -0.020781
0.749483 0.169794 -0.020781
0.99995 0.169794 -0.020781
-0.642555 0.474143 -0.393748
-0.326883 0.474143 -0.393748
0.472084 0.474143 -0.393748
0.747578 0.474143 -0.393748
0.999766 0.474143 -0.393748
0.604634 0.772631 0.641619
0.609096 0.772631 0.641619
0.639444 0.772631 0.641619
0.774781 0.772631 0.641619
1.002682 0.772631 0.641619
0.875638 1.026887 0.912269
0.876003 1.026887 0.912269
0.878883 1.026887 0.912269
0.904686 1.026887 0.912269
1.029325 1.026887 0.912269
0.071242 0.091692 0.242917
0.274863 0.091692 0.242917
0.502691 0.091692 0.242917
0.750265 0.091692 0.242917
1.000026 0.091692 0.242917
-0.122028 0.210894 0.220295
0.186523 0.210894 0.220295
0.495227 0.210894 0.220295
0.749544 0.210894 0.220295
0.999956 0.210894 0.220295
-0.62607 0.477044 -0.123374
-0.310398 0.477044 -0.123374
0.472899 0.477044 -0.123374
0.747641 0.477044 -0.123374
0.999772 0.477044 -0.123374
0.604871 0.772813 0.644349
0.609324 0.772813 0.644349
0.639616 0.772813 0.644349
0.77483 0.772813 0.644349
1.002687 0.772813 0.644349
0.875657 1.026904 0.912491
0.876022 1.026904 0.912491
0.878901 1.026904 0.912491
0.9047 1.026904 0.912491
1.02933 1.026904 0.912491
0.191673 0.220764 0.494683
0.309188 0.220764 0.494683
0.507429 0.220764 0.494683
0.750747 0.220764 0.494683
1.000073 0.220764 0.494683
0.007811 0.276134 0.492711
0.253024 0.276134 0.492711
0.500298 0.276134 0.492711
0.750029 0.276134 0.492711
1.000003 0.276134 0.492711
-0.496231 0.484316 0.476238
-0.180559 0.484316 0.476238
0.479109 0.484316 0.476238
0.748135 0.484316 0.476238
0.99982 0.484316 0.476238
0.606725 0.77329 0.666072
0.611103 0.77329 0.666072
0.64096 0.77329 0.666072
0.775213 0.77329 0.666072
1.002733 0.77329 0.666072
0.875807 1.026949 0.914454
0.876171 1.026949 0.914454
0.879047 1.026949 0.914454
0.904815 1.026949 0.914454
1.029366 1.026949 0.914454
-5.908772 -2.258919 0.756395
-5.593101 -2.258919 0.756395
-3.060299 -2.258919 0.756395
0.725355 -2.258919 0.756395
0.997833 -2.258919 0.756395
-6.102043 -2.118398 0.756224
-5.786371 -2.118398 0.756224
-3.253569 -2.118398 0.756224
0.724445 -2.118398 0.756224
0.997761 -2.118398 0.756224
-6.606084 -0.042384 0.754904
-6.290412 -0.042384 0.754904
-3.757611 -0.042384 0.754904
0.722035 -0.042384 0.754904
0.997574 -0.042384 0.754904
0.430853 0.765485 0.788116
0.45169 0.765485 0.788116
0.546368 0.765485 0.788116
0.755506 0.765485 0.788116
1.000549 0.765485 0.788116
0.868511 1.026238 0.93486
0.868901 1.026238 0.93486
0.871975 1.026238 0.93486
0.899292 1.026238 0.93486
1.027665 1.026238 0.93486
-72.631935 -28.651175 1.007631
-72.316261 -28.651175 1.007631
-69.783463 -28.651175 1.007631
-43.783718 -28.651175 1.007631
0.96974 -28.651175 1.007631
-72.825203 -28.510653 1.007615
-72.509529 -28.510653 1.007615
-69.97673 -28.510653 1.007615
-43.97699 -28.510653 1.007615
0.969647 -28.510653 1.007615
-73.329247 -26.434639 1.007489
-73.013573 -26.434639 1.007489
-70.480766 -26.434639 1.007489
-44.481033 -26.434639 1.007489
0.969404 -26.434639 1.007489
-65.207245 0.596327 1.011128
-64.891579 0.596327 1.011128
-62.358784 0.596327 1.011128
-36.359035 0.596327 1.011128
0.973255 0.596327 1.011128
0.711667 1.018459 1.044623
0.713335 1.018459 1.044623
0.725857 1.018459 1.044623
0.80704 1.018459 1.044623
1.007093 1.018459 1.044623
