site/assets/luts/freshluts--0000201-nightcity.cube
# LUTr-Schema-Version: 2
# LUTr-ID: freshluts--0000201-nightcity
# LUTr-Title: NightCity
# LUTr-Collection: Fresh LUTs
# LUTr-Collection-ID: freshluts-community
# LUTr-Source: https://freshluts.com
# LUTr-Retrieved: 2026-07-27
# LUTr-Source-File: submissions-raw/freshluts/cubes/201__NightCity_1.H004_C006_1211TB.cube
# LUTr-Source-Format: CUBE
# LUTr-Source-SHA256: eaf94fbb09555fe289858dfddeab25fd032164036beea7bd5f64488ba8a93514
# LUTr-License: CC0-1.0
# LUTr-License-URL: https://freshluts.com/termsandconditions
# LUTr-License-Basis: site-terms
# LUTr-Transform-Class: creative-look
# LUTr-Tags: creative, freshluts, community, cube, cinematic, blockbuster, low-key, red-logfilm
# LUTr-Input-Color-Space:
# LUTr-Input-Gamut: red-wide-gamut-rgb
# LUTr-Input-Transfer: red-logfilm
# LUTr-Output-Color-Space: srgb
# LUTr-Output-Gamut: rec709
# LUTr-Output-Transfer: srgb
# LUTr-Color-Space-Confidence: camera-profile-input-required
# LUTr-Domain-Normalized: true
# LUTr-Shaper: none
# LUTr-Original-Grid: 33x33x33
# LUTr-Conversion-Grid: 33x33x33
# LUTr-Conversion-Interpolation: none
# LUTr-Conversion-Method: Metadata normalization; numeric LUT samples preserved
# LUTr-Conversion-Tool: LUTr scripts/convert-all-to-cube.mjs 2.0.0
# LUTr-Conversion-Date: 2026-07-28
# LUTr-Asset-URL: https://freshluts.com/luts/201
# LUTr-Author: escapes
# LUTr-Author-URL: https://freshluts.com/users/117
# LUTr-Attribution: escapes via Fresh LUTs
# LUTr-Source-Labels: gamma=RED Log Film; color=None; key=Low Key; style=Blockbuster
# LUTr-Note: Preserve this metadata and the upstream license notices when redistributing.
TITLE "NightCity"
LUT_3D_SIZE 9
DOMAIN_MIN 0 0 0
DOMAIN_MAX 1 1 1
0.00392157 0 0
0.00392157 0 0
0.0229191 0.0037995 0
0.0807813 0.0156863 0.0159457
0.21474 0.00517281 0.0235294
0.39411 0 0.033463
0.537346 0 0.0418402
0.674723 0 0.0592813
0.789502 0 0.0839246
0.00392157 0 0
0.00392157 0 0
0.0230716 0.00383001 0
0.0813306 0.0156863 0.0160067
0.216022 0.0049897 0.0235294
0.396323 0 0.0336004
0.538994 0 0.0419318
0.676097 0 0.0594339
0.789776 0 0.0840772
0.0188144 0.018616 0.0111696
0.0189364 0.0187686 0.0112612
0.0272374 0.0263218 0.0112154
0.0917983 0.0287785 0.0194095
0.220188 0.0071107 0.0252842
0.399145 0 0.0336614
0.547066 0 0.042298
0.696773 0 0.0614633
0.810727 0 0.0938888
0.0483406 0.073167 0.0437629
0.0482795 0.0730449 0.0436866
0.0523537 0.074464 0.0474403
0.0845655 0.0893416 0.0369726
0.253849 0.060853 0.0300145
0.466865 0.000274662 0.0412604
0.632914 0 0.0586252
0.783078 0 0.0855879
0.836759 0.0148318 0.117525
0.090074 0.174884 0.103059
0.0952163 0.186892 0.111635
0.103914 0.204761 0.124285
0.150408 0.231937 0.148058
0.25655 0.271641 0.104509
0.544854 0.25098 0.0915999
0.712306 0.253483 0.125246
0.842313 0.295766 0.175631
0.879805 0.354437 0.22417
0.228824 0.404013 0.261524
0.252201 0.434806 0.288243
0.27837 0.469413 0.316426
0.323629 0.498955 0.346578
0.426871 0.495888 0.373007
0.489525 0.544442 0.290944
0.698817 0.574197 0.277577
0.823316 0.593423 0.335576
0.862074 0.619058 0.393057
0.457679 0.648417 0.50544
0.488228 0.672557 0.539208
0.509178 0.693233 0.564904
0.539849 0.702235 0.585763
0.596582 0.685878 0.5944
0.590555 0.697307 0.547753
0.656916 0.715541 0.50837
0.786191 0.735409 0.494087
0.828428 0.743389 0.529412
0.655055 0.802045 0.733486
0.664759 0.806897 0.743709
0.664866 0.80441 0.743008
0.676051 0.8038 0.747402
0.694728 0.790814 0.73843
0.716701 0.785107 0.737591
0.709514 0.799084 0.704662
0.760189 0.810361 0.688045
0.793286 0.816205 0.689525
0.705882 0.827451 0.784314
0.703395 0.826215 0.783078
0.698619 0.823529 0.776471
0.708278 0.823529 0.782788
0.747189 0.827451 0.797116
0.782879 0.834577 0.822812
0.784314 0.84686 0.815885
0.805814 0.861738 0.815686
0.819608 0.862745 0.819608
0.00392157 0 0
0.00392157 0 0
0.0229191 0.0037995 0
0.0809186 0.0156863 0.0159609
0.214954 0.00514229 0.0235294
0.394369 0 0.0334783
0.537346 0 0.0418402
0.675547 0 0.0593729
0.789502 0 0.0839246
0.00392157 0 0
0.00392157 0 0
0.0230716 0.00383001 0
0.0813306 0.0156863 0.0160067
0.216663 0.00489815 0.0235294
0.396323 0 0.0336004
0.53872 0 0.0419165
0.676371 0 0.0594644
0.790341 0 0.0843977
0.0188144 0.018616 0.0111696
0.0189975 0.0188449 0.0113069
0.0271916 0.0261997 0.0111696
0.0917525 0.0287327 0.0193942
0.220432 0.00708019 0.0252995
0.400992 0 0.033753
0.550942 0 0.0424659
0.703166 0 0.0620737
0.811978 0 0.0941176
0.0483406 0.073167 0.0437629
0.0484627 0.0734112 0.0439155
0.0527504 0.0751354 0.0479896
0.0868086 0.0915999 0.0374914
0.260182 0.0638743 0.0303807
0.475212 0 0.0423438
0.643137 0 0.0612345
0.793545 0 0.0890364
0.839216 0.0166629 0.120592
0.0916304 0.178531 0.105669
0.097612 0.192462 0.115618
0.107805 0.212665 0.129564
0.158923 0.24213 0.155428
0.268467 0.282399 0.110643
0.554406 0.2645 0.0964828
0.722622 0.267277 0.131167
0.848737 0.31284 0.185992
0.880293 0.364736 0.22858
0.236973 0.414496 0.270832
0.261006 0.447364 0.298283
0.288243 0.481697 0.326223
0.334874 0.509758 0.357473
0.439048 0.50544 0.384573
0.498436 0.553506 0.299199
0.70367 0.581048 0.285328
0.826291 0.599054 0.342031
0.861341 0.622736 0.396185
0.468742 0.65716 0.517662
0.497841 0.680125 0.549828
0.51751 0.700069 0.573953
0.546639 0.706615 0.592874
0.600549 0.689418 0.599603
0.592874 0.699641 0.55108
0.657984 0.717113 0.511055
0.786816 0.736355 0.495369
0.828305 0.743725 0.5299
0.659342 0.804181 0.737774
0.666896 0.807889 0.745998
0.666957 0.805707 0.744991
0.677562 0.804501 0.748806
0.695644 0.791302 0.739239
0.717342 0.785657 0.73843
0.709957 0.799466 0.705196
0.760754 0.810864 0.689113
0.793149 0.816617 0.690715
0.704509 0.826764 0.78294
0.702556 0.825925 0.781994
0.699474 0.823529 0.777295
0.708919 0.823529 0.783261
0.747372 0.827451 0.797208
0.782971 0.834623 0.822858
0.784314 0.846906 0.815839
0.805951 0.861799 0.815686
0.819608 0.862745 0.819608
0.0166629 0.00637827 0.0127413
0.0165408 0.00631724 0.0126192
0.0293126 0.0130312 0.0154574
0.0836805 0.0212253 0.0217136
0.216098 0.00593576 0.0263371
0.394369 0 0.0334783
0.537621 0 0.0418555
0.676097 0 0.0594339
0.789502 0 0.0839246
0.0167849 0.00643931 0.0128634
0.0166629 0.00637827 0.0127413
0.0295872 0.0132448 0.0157168
0.084123 0.0212863 0.0218509
0.21799 0.0056611 0.0265965
0.396078 0 0.0335851
0.53872 0 0.0419165
0.676661 0 0.0594949
0.791028 0 0.0847791
0.0288548 0.02533 0.0180514
0.0289006 0.0253605 0.0180819
0.0366064 0.0326696 0.0210269
0.094316 0.0319219 0.0272374
0.22266 0.00799573 0.0284123
0.40296 0 0.033875
0.555993 0 0.0431373
0.71104 0 0.0655528
0.814862 0 0.100099
0.0575418 0.07776 0.0464485
0.0582132 0.0785534 0.046891
0.0615854 0.0814984 0.0538338
0.0953689 0.0942702 0.0468757
0.272236 0.0677195 0.039292
0.487434 0 0.0495613
0.653284 0 0.0720531
0.805264 0.000564584 0.1093
0.843259 0.018555 0.141222
0.0934768 0.182818 0.108736
0.100099 0.19826 0.119768
0.117098 0.225071 0.137224
0.17435 0.257008 0.168795
0.285786 0.296818 0.123812
0.567544 0.279622 0.109682
0.735363 0.285756 0.149142
0.854948 0.3308 0.209247
0.879164 0.383307 0.250813
0.245136 0.424964 0.28014
0.269886 0.459251 0.307881
0.300404 0.491905 0.335256
0.350942 0.5234 0.371633
0.453452 0.515312 0.399145
0.513512 0.562005 0.310628
0.708888 0.58819 0.297063
0.831983 0.606058 0.358419
0.859724 0.627802 0.405875
0.47306 0.658503 0.520119
0.495888 0.677623 0.544839
0.523003 0.702235 0.58085
0.550332 0.711803 0.599573
0.605142 0.694438 0.607507
0.599496 0.705333 0.558206
0.661707 0.719448 0.51812
0.791318 0.737484 0.500542
0.828183 0.746807 0.537774
0.655406 0.799268 0.733837
0.664164 0.804425 0.742596
0.671901 0.808499 0.751507
0.68127 0.806973 0.753567
0.703471 0.796811 0.748547
0.721386 0.786816 0.742519
0.713588 0.801419 0.708659
0.762707 0.813184 0.694118
0.793118 0.818341 0.698878
0.701793 0.823529 0.780224
0.7019 0.824826 0.780331
0.702602 0.82417 0.784268
0.711192 0.823529 0.788022
0.748898 0.827451 0.807233
0.78584 0.834165 0.8262
0.784314 0.847395 0.819745
0.8065 0.861845 0.819135
0.819608 0.862745 0.823529
0.0438697 0.0219425 0.0501259
0.0437476 0.0218814 0.0499428
0.0472419 0.0254978 0.053315
0.0963912 0.0368811 0.0582895
0.219821 0.0208591 0.0578775
0.403296 0 0.0537728
0.540459 0 0.0628214
0.676051 0 0.0785992
0.789227 0 0.104082
0.0440528 0.022034 0.0504005
0.0438697 0.0219425 0.0501259
0.0474556 0.0256199 0.0536202
0.0973068 0.0370947 0.0589151
0.221912 0.0206302 0.0586862
0.404913 0 0.0542916
0.541787 0 0.0631723
0.676585 0 0.0788281
0.791897 0 0.106203
0.0555276 0.0407874 0.061387
0.0553597 0.04065 0.0611429
0.0565499 0.044007 0.0649577
0.105043 0.047715 0.0653544
0.231189 0.0220493 0.0598001
0.414374 0 0.0566415
0.564508 0 0.0687114
0.716472 0 0.0932021
0.815229 0 0.12578
0.0670634 0.0928511 0.0646983
0.0675517 0.0941329 0.0653239
0.0686046 0.102434 0.0746929
0.126223 0.109773 0.0830243
0.286625 0.0699474 0.074403
0.500282 0 0.0843519
0.662455 0.000274662 0.10692
0.81059 0.002533 0.149203
0.847623 0.0224155 0.182101
0.118624 0.204013 0.123156
0.129839 0.223529 0.136294
0.148211 0.25478 0.161105
0.208362 0.288472 0.194827
0.318608 0.315312 0.164828
0.583444 0.297826 0.155489
0.738979 0.307836 0.192111
0.857313 0.355001 0.254292
0.878614 0.398306 0.293629
0.266697 0.430106 0.290318
0.29929 0.467536 0.322057
0.325887 0.509117 0.353155
0.37998 0.542733 0.396475
0.479179 0.533974 0.424414
0.534676 0.572595 0.343359
0.716945 0.596353 0.334462
0.833829 0.61593 0.391424
0.861708 0.635035 0.438407
0.485832 0.666239 0.532662
0.508888 0.689281 0.561517
0.535592 0.71191 0.595209
0.566232 0.722911 0.61828
0.616709 0.706737 0.624186
0.614511 0.707393 0.5794
0.669337 0.722576 0.536355
0.792996 0.737774 0.521385
0.831678 0.74699 0.555367
0.661357 0.803845 0.742931
0.669444 0.808621 0.751492
0.678264 0.814435 0.758206
0.685634 0.811048 0.757595
0.710048 0.799847 0.756924
0.72755 0.790478 0.751583
0.720577 0.803922 0.720165
0.767926 0.814679 0.704143
0.797604 0.818265 0.706447
0.705837 0.827451 0.788144
0.705898 0.827466 0.788251
0.706386 0.827451 0.78819
0.717464 0.828641 0.793179
0.751583 0.832135 0.811154
0.790768 0.838544 0.834318
0.788754 0.850675 0.824201
0.810407 0.86183 0.824002
0.820035 0.862745 0.823957
0.0960708 0.0607767 0.210788
0.0958267 0.0605325 0.209934
0.0952316 0.063508 0.212421
0.143084 0.0702983 0.200275
0.300206 0.0766003 0.18117
0.474754 0.0290074 0.168353
0.584451 0.016022 0.1673
0.688609 0.0139162 0.169512
0.790265 0.0120241 0.179049
0.0963302 0.0610361 0.211643
0.0960708 0.0607767 0.210788
0.0954604 0.0638437 0.213596
0.14432 0.0707713 0.201877
0.302876 0.0769207 0.183154
0.476692 0.0302129 0.170016
0.585428 0.016083 0.168215
0.690318 0.0138247 0.170962
0.794919 0.0138705 0.185733
0.110277 0.0673838 0.21619
0.109789 0.0671092 0.21529
0.110796 0.0724498 0.219928
0.158679 0.076585 0.210666
0.309346 0.0785687 0.188891
0.488502 0.0340581 0.178424
0.609979 0.0136721 0.186206
0.731197 0.0065156 0.204105
0.825666 0.0227665 0.247852
0.114305 0.11603 0.196567
0.116167 0.117922 0.199145
0.113527 0.128969 0.212558
0.1785 0.144183 0.228977
0.35877 0.14931 0.227207
0.549126 0.125536 0.230945
0.688029 0.102861 0.253819
0.814878 0.115969 0.286625
0.845472 0.192035 0.32755
0.091722 0.243626 0.176852
0.104341 0.269306 0.197177
0.120836 0.305211 0.225086
0.192844 0.344228 0.258686
0.402457 0.351247 0.284123
0.594965 0.321904 0.272908
0.732906 0.327077 0.293904
0.845975 0.363165 0.336736
0.864988 0.397101 0.369268
0.281117 0.483452 0.333928
0.305791 0.51194 0.360647
0.327871 0.54995 0.396567
0.379248 0.575799 0.429679
0.513588 0.567407 0.464317
0.586328 0.585351 0.422919
0.73196 0.601404 0.425803
0.837064 0.614572 0.465614
0.862974 0.630289 0.501625
0.486168 0.685695 0.557534
0.50367 0.70692 0.58381
0.513634 0.726665 0.607996
0.555367 0.732845 0.630213
0.623301 0.717418 0.637354
0.652506 0.709682 0.623316
0.689067 0.723049 0.578576
0.797879 0.736034 0.569116
0.837003 0.747448 0.601236
0.647044 0.813962 0.748348
0.651835 0.817441 0.754818
0.657023 0.822263 0.761395
0.676249 0.818128 0.76582
0.705608 0.80528 0.7608
0.741878 0.792126 0.76582
0.736294 0.804807 0.744137
0.772778 0.813153 0.72047
0.81004 0.819532 0.72224
0.692287 0.836728 0.794644
0.692226 0.837263 0.794919
0.694759 0.83917 0.798566
0.711421 0.837018 0.803815
0.7514 0.838834 0.817594
0.794324 0.842039 0.843091
0.804074 0.850385 0.842161
0.813901 0.863249 0.83711
0.829206 0.866667 0.837049
0.133913 0.124331 0.411856
0.134051 0.124056 0.411261
0.137377 0.126421 0.418082
0.185519 0.134798 0.423224
0.348669 0.133379 0.379004
0.528908 0.151583 0.358785
0.648249 0.17229 0.361929
0.743236 0.183108 0.36585
0.826276 0.169619 0.366262
0.13373 0.124697 0.41265
0.133913 0.124331 0.411856
0.137469 0.126726 0.418845
0.18735 0.135698 0.425635
0.351354 0.134691 0.381033
0.530251 0.152285 0.360159
0.64892 0.173007 0.362966
0.746075 0.186587 0.369268
0.832792 0.18706 0.378363
0.152651 0.123445 0.412055
0.152453 0.123079 0.411154
0.156069 0.124346 0.420111
0.201465 0.13312 0.427085
0.360708 0.137896 0.387945
0.543801 0.158846 0.372107
0.679332 0.198016 0.395254
0.790097 0.236271 0.423316
0.865934 0.298039 0.47744
0.176181 0.155138 0.390738
0.17705 0.158862 0.394522
0.181125 0.168307 0.410681
0.236912 0.189425 0.432837
0.41706 0.205478 0.430823
0.608698 0.234485 0.438682
0.745541 0.306569 0.483543
0.849393 0.386511 0.541024
0.866255 0.445289 0.591516
0.215839 0.289006 0.370764
0.225437 0.314137 0.394675
0.236652 0.348104 0.430045
0.291722 0.383139 0.466102
0.457633 0.395438 0.472053
0.629496 0.424247 0.486503
0.750423 0.471733 0.529534
0.841932 0.497856 0.564614
0.856458 0.527474 0.594858
0.264347 0.51339 0.422095
0.28249 0.54931 0.459571
0.301915 0.585367 0.499489
0.353307 0.610162 0.528313
0.482521 0.607431 0.532967
0.644709 0.602487 0.546822
0.744137 0.594903 0.541207
0.829282 0.591043 0.54818
0.859953 0.597681 0.563119
0.425574 0.721523 0.592096
0.445014 0.737972 0.616571
0.455436 0.752758 0.631983
0.488121 0.757122 0.647364
0.580056 0.742153 0.657664
0.694392 0.723064 0.681819
0.72929 0.730938 0.656977
0.81323 0.739879 0.656825
0.849531 0.746349 0.677668
0.599496 0.835538 0.76286
0.604196 0.838117 0.767987
0.612238 0.839872 0.773373
0.619699 0.838407 0.773846
0.671809 0.822293 0.770733
0.746975 0.804242 0.784604
0.765805 0.805829 0.78529
0.792248 0.818021 0.762814
0.831022 0.824628 0.766293
0.654902 0.857542 0.810483
0.654643 0.857603 0.810285
0.655131 0.857694 0.810346
0.668635 0.857954 0.812024
0.729946 0.856413 0.830076
0.793561 0.855039 0.851774
0.821134 0.857618 0.86537
0.828367 0.868986 0.863615
0.838819 0.87039 0.861952
0.228611 0.20116 0.598688
0.228305 0.200855 0.598108
0.222675 0.208164 0.607584
0.252903 0.214176 0.60029
0.40238 0.214786 0.560189
0.569818 0.227543 0.51635
0.681315 0.253193 0.516518
0.765255 0.286366 0.515023
0.846464 0.341009 0.533394
0.228916 0.201465 0.599268
0.228763 0.201312 0.598978
0.223316 0.20911 0.609277
0.254368 0.215061 0.602106
0.404349 0.215473 0.561334
0.57113 0.228367 0.51751
0.682277 0.253864 0.517357
0.768734 0.290135 0.520043
0.851682 0.358358 0.551095
0.242878 0.194736 0.600717
0.242176 0.194354 0.599557
0.236072 0.201968 0.607736
0.267491 0.210178 0.606867
0.413901 0.217243 0.568826
0.589563 0.241138 0.537499
0.711513 0.27863 0.555215
0.807294 0.337148 0.583429
0.869978 0.432364 0.646586
0.257404 0.215366 0.571893
0.261784 0.22121 0.579034
0.262104 0.236896 0.599268
0.309545 0.26154 0.617777
0.469093 0.275608 0.609842
0.648524 0.317006 0.61004
0.77113 0.38088 0.64445
0.848066 0.468635 0.689143
0.861921 0.515511 0.722347
0.286641 0.330846 0.529351
0.303426 0.356497 0.558267
0.320409 0.399786 0.600381
0.373816 0.440574 0.636011
0.506401 0.450401 0.639963
0.667765 0.48014 0.645914
0.77229 0.529992 0.677562
0.842496 0.585443 0.715923
0.852201 0.613199 0.737255
0.351995 0.556207 0.582712
0.375113 0.588052 0.619959
0.390356 0.62443 0.660487
0.430884 0.645319 0.68365
0.530098 0.640986 0.681651
0.662699 0.634806 0.673899
0.747463 0.64979 0.686946
0.820264 0.665019 0.701915
0.848203 0.669718 0.711772
0.458885 0.737789 0.693355
0.475425 0.754391 0.715785
0.488197 0.768277 0.736767
0.509361 0.772244 0.743587
0.573739 0.755718 0.727047
0.67538 0.742 0.715892
0.748806 0.737957 0.722957
0.814542 0.730251 0.715038
0.852171 0.728786 0.718196
0.58436 0.838087 0.778088
0.589899 0.839918 0.782925
0.591775 0.843793 0.788464
0.603204 0.842863 0.784588
0.6392 0.82768 0.778607
0.717037 0.815534 0.786892
0.778851 0.813214 0.808972
0.809689 0.81973 0.797345
0.842985 0.825803 0.803937
0.647944 0.862745 0.817456
0.647883 0.862776 0.817578
0.647776 0.863325 0.818219
0.663249 0.866468 0.820722
0.70576 0.863767 0.831632
0.770336 0.861494 0.848875
0.820844 0.862959 0.87013
0.83418 0.869078 0.875547
0.845197 0.87451 0.87657
0.321965 0.290593 0.73048
0.321538 0.290166 0.729931
0.311833 0.293248 0.73283
0.335164 0.298161 0.730877
0.440406 0.291325 0.69427
0.601251 0.307195 0.658503
0.699367 0.326543 0.644373
0.780911 0.356237 0.64593
0.84921 0.407935 0.648508
0.322393 0.29102 0.731029
0.321965 0.290593 0.73048
0.31284 0.294713 0.734722
0.336706 0.299321 0.73254
0.442542 0.29247 0.695293
0.602029 0.307851 0.659358
0.700816 0.328115 0.646067
0.785931 0.363149 0.653315
0.85539 0.428946 0.670314
0.330877 0.286336 0.732143
0.329839 0.285573 0.731029
0.321675 0.287526 0.737423
0.344305 0.296056 0.735958
0.458686 0.300252 0.706966
0.624674 0.328542 0.683467
0.738613 0.371588 0.694026
0.82858 0.427314 0.723873
0.867216 0.49398 0.75082
0.331197 0.292378 0.712474
0.338964 0.302327 0.721508
0.345403 0.326665 0.740612
0.397452 0.358038 0.760662
0.525872 0.373297 0.756741
0.689097 0.418936 0.753841
0.796155 0.490425 0.78024
0.86302 0.561028 0.810803
0.867597 0.601495 0.832029
0.352697 0.3897 0.68101
0.37705 0.423926 0.711711
0.401526 0.470268 0.748684
0.454734 0.512444 0.776806
0.567178 0.527581 0.777096
0.707256 0.55816 0.777935
0.796582 0.601968 0.800565
0.853391 0.644648 0.822461
0.857862 0.667689 0.834089
0.436194 0.607111 0.720363
0.467994 0.642039 0.753536
0.485237 0.672969 0.784772
0.524651 0.694102 0.802853
0.590875 0.684306 0.79443
0.691966 0.671443 0.785061
0.772595 0.687831 0.789853
0.828199 0.702632 0.799039
0.847898 0.717998 0.804639
0.5467 0.772457 0.806912
0.569238 0.789364 0.823819
0.580652 0.796811 0.836866
0.598642 0.80145 0.837461
0.629145 0.783169 0.821332
0.695689 0.762097 0.804044
0.759609 0.757168 0.801328
0.815045 0.763149 0.804486
0.846876 0.770459 0.811826
0.641413 0.85153 0.85539
0.645594 0.85301 0.858167
0.64155 0.854307 0.856245
0.647623 0.852552 0.856123
0.666392 0.839979 0.837751
0.716381 0.82623 0.825055
0.76994 0.824369 0.828367
0.820569 0.822461 0.833158
0.850797 0.816144 0.828061
0.678065 0.862745 0.858396
0.678157 0.862745 0.858717
0.678721 0.866346 0.859312
0.685588 0.866667 0.857466
0.712459 0.866667 0.855116
0.761746 0.871046 0.859022
0.807721 0.870985 0.872496
0.846677 0.871473 0.885435
0.852018 0.871626 0.887312
0.441276 0.412634 0.833661
0.440589 0.412116 0.833249
0.443168 0.417182 0.836286
0.454353 0.419165 0.836408
0.522911 0.408011 0.814817
0.638392 0.41709 0.78674
0.728481 0.437232 0.774212
0.800168 0.467979 0.773236
0.861143 0.502632 0.774243
0.441947 0.413153 0.834058
0.441276 0.412634 0.833661
0.445472 0.419333 0.837568
0.45565 0.42031 0.837217
0.524819 0.409522 0.815534
0.639063 0.4177 0.787198
0.731167 0.44123 0.777096
0.806683 0.478996 0.783123
0.866377 0.528984 0.797314
0.45124 0.413947 0.838849
0.450111 0.413153 0.838148
0.450462 0.416052 0.839826
0.466865 0.422049 0.843763
0.54519 0.425803 0.826734
0.669795 0.449699 0.811521
0.770047 0.497505 0.819654
0.845258 0.553277 0.837354
0.87451 0.600458 0.851438
0.452598 0.422827 0.832242
0.468345 0.438071 0.841871
0.487465 0.463844 0.856992
0.516808 0.482933 0.858824
0.615045 0.502876 0.854902
0.734966 0.540902 0.853254
0.815778 0.582345 0.853986
0.867643 0.623346 0.853971
0.870588 0.635111 0.856825
0.466239 0.506508 0.8177
0.495842 0.538903 0.835859
0.526589 0.579477 0.861341
0.548745 0.592828 0.860441
0.633005 0.6103 0.861357
0.742473 0.636347 0.862196
0.811948 0.65771 0.857359
0.858839 0.688426 0.861295
0.862745 0.697139 0.862058
0.550942 0.683421 0.838758
0.580209 0.712077 0.857908
0.595285 0.731899 0.866667
0.607843 0.739803 0.868727
0.652491 0.728099 0.86865
0.728283 0.719982 0.864561
0.789776 0.728893 0.864408
0.84303 0.742275 0.867674
0.858824 0.751293 0.868345
0.641733 0.805539 0.873625
0.64744 0.812299 0.874586
0.645914 0.819181 0.878965
0.655497 0.820279 0.879942
0.684993 0.807157 0.876249
0.731197 0.788296 0.874571
0.782071 0.783459 0.873045
0.83183 0.790768 0.875914
0.854795 0.794186 0.875792
0.699077 0.864958 0.886824
0.700404 0.86569 0.88716
0.697154 0.865278 0.890196
0.706233 0.864286 0.887449
0.717372 0.85594 0.884871
0.755505 0.843748 0.887617
0.793851 0.842603 0.886656
0.831708 0.839231 0.889326
0.858824 0.842741 0.888762
0.729412 0.878431 0.890196
0.729213 0.878431 0.890196
0.72549 0.874952 0.890196
0.733791 0.874739 0.894118
0.750546 0.876036 0.890196
0.784314 0.876188 0.894118
0.814832 0.877241 0.898039
0.847395 0.878431 0.900465
0.862745 0.878431 0.901961
