site/assets/luts/freshluts--0000175-night-blade.cube
# LUTr-Schema-Version: 2
# LUTr-ID: freshluts--0000175-night-blade
# LUTr-Title: Night Blade
# LUTr-Collection: Fresh LUTs
# LUTr-Collection-ID: freshluts-community
# LUTr-Source: https://freshluts.com
# LUTr-Retrieved: 2026-07-27
# LUTr-Source-File: submissions-raw/freshluts/cubes/175__Night_Blade_4.1.cube
# LUTr-Source-Format: CUBE
# LUTr-Source-SHA256: bea075d05cc014bbbc0d58331c9cad49c92c4148518dd3e34d263ef9abd59b0c
# LUTr-License: CC0-1.0
# LUTr-License-URL: https://freshluts.com/termsandconditions
# LUTr-License-Basis: site-terms
# LUTr-Transform-Class: creative-look
# LUTr-Tags: creative, freshluts, community, cube, cinematic, blockbuster, warm, low-key
# LUTr-Input-Color-Space:
# LUTr-Input-Gamut: unspecified
# LUTr-Input-Transfer: unspecified
# LUTr-Output-Color-Space: srgb
# LUTr-Output-Gamut: rec709
# LUTr-Output-Transfer: srgb
# LUTr-Color-Space-Confidence: camera-profile-input-required
# LUTr-Domain-Normalized: true
# LUTr-Shaper: none
# LUTr-Original-Grid: 33x33x33
# LUTr-Conversion-Grid: 33x33x33
# LUTr-Conversion-Interpolation: none
# LUTr-Conversion-Method: Metadata normalization; numeric LUT samples preserved
# LUTr-Conversion-Tool: LUTr scripts/convert-all-to-cube.mjs 2.0.0
# LUTr-Conversion-Date: 2026-07-28
# LUTr-Asset-URL: https://freshluts.com/luts/175
# LUTr-Author: Cube Frames
# LUTr-Author-URL: https://freshluts.com/users/1308
# LUTr-Attribution: Cube Frames via Fresh LUTs
# LUTr-Source-Labels: gamma=Other; color=Warm; key=Low Key; style=Blockbuster
# LUTr-Duplicate-Assets: 176:https://freshluts.com/luts/176
# LUTr-Note: Preserve this metadata and the upstream license notices when redistributing.
TITLE "Night Blade"
LUT_3D_SIZE 9
DOMAIN_MIN 0 0 0
DOMAIN_MAX 1 1 1
0.0477607 0.0569162 0.06392
0.0527504 0.0577096 0.0636606
0.143984 0.0675364 0.0608072
0.300679 0.0725261 0.0482185
0.499733 0.0838026 0.057847
0.696956 0.102358 0.0716716
0.828885 0.119265 0.0836957
0.891203 0.129183 0.088014
0.916014 0.127596 0.0863355
0.0471351 0.0625315 0.0639963
0.0521248 0.0631113 0.0636149
0.142229 0.0720226 0.0598459
0.299809 0.0771801 0.047303
0.499046 0.0881971 0.0573587
0.695415 0.106203 0.0712749
0.827222 0.122179 0.0831617
0.890776 0.131502 0.0875715
0.915541 0.129747 0.0858778
0.0406653 0.125078 0.0539712
0.0452735 0.125582 0.0543526
0.124544 0.128054 0.0492561
0.300298 0.127855 0.0439002
0.500053 0.142901 0.0565652
0.694179 0.163043 0.0713359
0.821851 0.180423 0.0827649
0.900236 0.195422 0.0876631
0.922469 0.187793 0.0864576
0.0376898 0.199023 0.0484016
0.0400854 0.19855 0.0482795
0.0858625 0.210193 0.0469215
0.293233 0.20351 0.0437018
0.52105 0.210636 0.0581216
0.714229 0.240925 0.0730297
0.847669 0.281224 0.0695354
0.938811 0.314916 0.0606699
0.964843 0.309651 0.0590066
0.035996 0.294209 0.0493477
0.0383612 0.293629 0.0491493
0.0753338 0.304631 0.0476692
0.2309 0.34287 0.0433967
0.546456 0.308568 0.0514076
0.739605 0.329046 0.0666972
0.860578 0.369146 0.0594339
0.948028 0.414649 0.0526589
0.987747 0.421607 0.0512245
0.0408484 0.404013 0.0555276
0.0431983 0.403326 0.055314
0.0740368 0.40972 0.0530556
0.196277 0.4533 0.0472114
0.516915 0.529274 0.063386
0.750179 0.457938 0.0472572
0.862287 0.46746 0.0486152
0.946303 0.51162 0.0514229
0.988113 0.532433 0.0539406
0.0476539 0.51458 0.0615702
0.0499733 0.513787 0.061326
0.0753338 0.510231 0.0586404
0.182605 0.556878 0.0520638
0.482795 0.640284 0.0481575
0.699351 0.691447 0.0720989
0.838544 0.629175 0.0629587
0.933623 0.62826 0.0628061
0.977096 0.645579 0.0661173
0.0555734 0.615763 0.0670939
0.0578775 0.614984 0.0668345
0.0808576 0.606806 0.0640269
0.192554 0.652125 0.056611
0.465019 0.726848 0.0500801
0.682979 0.784237 0.0646067
0.810346 0.815442 0.0774395
0.913619 0.762036 0.077821
0.963882 0.753491 0.078233
0.0602731 0.736065 0.0690623
0.0626993 0.735897 0.0688945
0.0868544 0.734035 0.0670024
0.173114 0.772976 0.0619669
0.45069 0.825116 0.0555581
0.661768 0.869307 0.055787
0.794553 0.890684 0.0706798
0.882277 0.899046 0.0866102
0.956909 0.857755 0.0755627
0.0475013 0.0578164 0.0708476
0.052491 0.0585794 0.0705577
0.141833 0.0673381 0.0678569
0.301778 0.071397 0.053254
0.501411 0.0821698 0.0624704
0.697551 0.100954 0.0758984
0.828428 0.119615 0.0873274
0.891066 0.129427 0.0911879
0.915938 0.12752 0.0890822
0.0468757 0.0627451 0.070573
0.0518502 0.0633555 0.070222
0.139956 0.0720836 0.0669871
0.300404 0.0765087 0.0523384
0.49987 0.0870985 0.0618601
0.695705 0.105104 0.0753185
0.826795 0.122301 0.0866407
0.890654 0.131594 0.0905928
0.915465 0.129671 0.0886091
0.0402838 0.12578 0.0614023
0.0449226 0.125963 0.061326
0.122072 0.128405 0.0555581
0.298909 0.127611 0.0474708
0.49926 0.142596 0.0595254
0.693568 0.162722 0.0739605
0.821469 0.180087 0.0853742
0.900053 0.195102 0.0903487
0.922301 0.187488 0.089128
0.0375525 0.198886 0.0513924
0.0399481 0.198398 0.0512245
0.0856336 0.209827 0.0496376
0.292485 0.203143 0.0462959
0.520302 0.210361 0.0606851
0.713573 0.240513 0.0756237
0.847196 0.280812 0.0721904
0.938567 0.314534 0.0633097
0.964675 0.309316 0.0616312
0.0359045 0.293904 0.051957
0.0382696 0.293324 0.0517586
0.0751507 0.304189 0.0502632
0.230137 0.342351 0.0459754
0.545647 0.308186 0.0539559
0.738949 0.328557 0.0693065
0.860166 0.368673 0.0620737
0.947723 0.41416 0.0552377
0.987594 0.421225 0.0537881
0.0407416 0.403662 0.0580911
0.0431067 0.402975 0.0578927
0.0738537 0.409216 0.0556191
0.195331 0.452705 0.0497902
0.516045 0.528603 0.0658732
0.749645 0.457252 0.0497902
0.861982 0.46685 0.0511788
0.946029 0.511086 0.0539254
0.988052 0.532052 0.0564431
0.0475319 0.514183 0.0641031
0.0498512 0.513405 0.063859
0.0751812 0.509743 0.0611734
0.181598 0.556283 0.054612
0.481773 0.639628 0.05066
0.698817 0.690867 0.0746014
0.838239 0.628595 0.0654154
0.933425 0.627665 0.0652171
0.977035 0.645121 0.0685588
0.055436 0.615396 0.0696117
0.0577401 0.614618 0.0693523
0.0807202 0.606424 0.0665446
0.191455 0.65156 0.0591592
0.463951 0.726116 0.0525826
0.682383 0.783688 0.0670787
0.809995 0.815076 0.0799268
0.91339 0.761578 0.080293
0.96379 0.753079 0.080705
0.0601968 0.735988 0.0716106
0.062623 0.735821 0.0714427
0.0867781 0.733974 0.0695506
0.172473 0.772473 0.0644846
0.449836 0.824643 0.0580606
0.661158 0.868849 0.0582589
0.794247 0.890364 0.0731518
0.881971 0.898772 0.0890822
0.956741 0.85742 0.0780957
0.0438697 0.0725414 0.14815
0.0486152 0.0730144 0.14757
0.114595 0.0773327 0.141833
0.273472 0.0775921 0.130709
0.469306 0.0883803 0.122728
0.685802 0.114015 0.125093
0.823484 0.133883 0.133501
0.88864 0.142718 0.136614
0.913603 0.139986 0.133608
0.0432288 0.0758373 0.147036
0.0479133 0.0763104 0.146715
0.112673 0.0814832 0.141421
0.27216 0.0821241 0.129946
0.470726 0.0920424 0.120989
0.684565 0.116503 0.123796
0.821744 0.135607 0.132464
0.888197 0.144549 0.135775
0.913161 0.141833 0.132784
0.0381933 0.118166 0.137865
0.0423285 0.118715 0.138094
0.0980545 0.126345 0.137804
0.27126 0.135927 0.11812
0.493233 0.139208 0.104158
0.690303 0.154467 0.116075
0.817945 0.170031 0.125689
0.896864 0.184222 0.13048
0.919829 0.178103 0.127703
0.035111 0.22884 0.132586
0.0374456 0.228061 0.13196
0.0813001 0.21445 0.113359
0.264439 0.211551 0.0912032
0.508965 0.213092 0.0949721
0.708339 0.244953 0.105745
0.843519 0.279042 0.100893
0.933913 0.30959 0.0918441
0.961013 0.304265 0.0900587
0.0305638 0.311345 0.0961929
0.0329595 0.310521 0.0958267
0.0703136 0.304311 0.0901808
0.192004 0.335698 0.0820935
0.532006 0.311315 0.0863813
0.731548 0.326513 0.0977188
0.854994 0.366064 0.0904402
0.942977 0.410559 0.0833143
0.985199 0.418784 0.0813001
0.0366827 0.40763 0.0957351
0.0390936 0.406744 0.0953536
0.070161 0.403998 0.0899977
0.170306 0.444266 0.0818952
0.498741 0.521553 0.0928664
0.742657 0.451957 0.0774701
0.858045 0.460853 0.0782635
0.942367 0.505257 0.0800031
0.987366 0.528084 0.0823224
0.0454261 0.507683 0.0954299
0.047776 0.506996 0.0950027
0.0730297 0.503136 0.0903792
0.166522 0.548836 0.0825055
0.468406 0.631983 0.0767834
0.692943 0.685008 0.100481
0.834791 0.621775 0.0904097
0.930999 0.621118 0.0899214
0.976349 0.640162 0.0936751
0.0539406 0.610224 0.0968948
0.05626 0.609491 0.0965591
0.0791485 0.601587 0.0928817
0.178943 0.644862 0.0852369
0.45301 0.718715 0.0782635
0.676005 0.777874 0.0924086
0.805844 0.81088 0.105272
0.910597 0.756466 0.105303
0.962631 0.74844 0.105867
0.0593729 0.735195 0.0977188
0.0617838 0.735012 0.0975357
0.0859693 0.733166 0.0955673
0.165011 0.766476 0.0902724
0.440711 0.819593 0.0836957
0.654368 0.863478 0.0833143
0.790585 0.886625 0.0982986
0.879026 0.895262 0.113878
0.955047 0.853834 0.103731
0.0445563 0.0996262 0.257023
0.0486305 0.0996414 0.255482
0.0916915 0.101579 0.242283
0.200809 0.100923 0.226368
0.432746 0.0988174 0.202304
0.641871 0.127367 0.207599
0.810071 0.15639 0.209583
0.901167 0.183398 0.201266
0.925216 0.179599 0.195468
0.044007 0.103243 0.256214
0.0480201 0.103334 0.255253
0.0908827 0.104936 0.2421
0.198505 0.105531 0.226352
0.431266 0.103059 0.201892
0.640726 0.129793 0.206439
0.807706 0.157351 0.208209
0.900511 0.184985 0.199527
0.924468 0.181033 0.194156
0.0395361 0.138552 0.243748
0.0430304 0.138933 0.24416
0.0837873 0.144625 0.248554
0.180255 0.154864 0.23125
0.4318 0.161349 0.205951
0.667308 0.179049 0.197482
0.825864 0.209583 0.187396
0.918837 0.23505 0.172656
0.939651 0.22678 0.168795
0.0400854 0.19942 0.236942
0.0424201 0.198947 0.236316
0.079118 0.207279 0.241733
0.160784 0.222629 0.241306
0.464088 0.235325 0.196384
0.70486 0.244709 0.16051
0.837766 0.268833 0.148226
0.927764 0.295995 0.134798
0.955932 0.289998 0.132555
0.049958 0.384329 0.29543
0.0522316 0.383368 0.29424
0.0809644 0.376547 0.271153
0.131289 0.348745 0.202136
0.476478 0.344335 0.145418
0.715618 0.347921 0.138598
0.843534 0.390829 0.129503
0.931746 0.430503 0.125582
0.975509 0.436912 0.122942
0.0455634 0.485267 0.225269
0.0477302 0.483955 0.223621
0.0708782 0.46566 0.196735
0.121462 0.442908 0.156603
0.402686 0.5131 0.13341
0.715541 0.490288 0.134493
0.843458 0.484855 0.124865
0.931228 0.522179 0.125277
0.984817 0.545663 0.127337
0.0431678 0.554772 0.183627
0.0453193 0.553567 0.182269
0.0677195 0.540536 0.168887
0.120714 0.534844 0.145541
0.383368 0.613611 0.127687
0.66566 0.686793 0.144472
0.82324 0.63566 0.136248
0.923812 0.626932 0.131899
0.974365 0.643763 0.134768
0.0476387 0.627573 0.183932
0.0498665 0.626169 0.182818
0.0720684 0.612284 0.170794
0.1252 0.623026 0.142916
0.391546 0.702678 0.12604
0.64445 0.771084 0.128344
0.796384 0.810864 0.145495
0.905043 0.757122 0.141741
0.961059 0.746242 0.14136
0.0501106 0.733928 0.159228
0.0526589 0.733318 0.158709
0.0781262 0.72639 0.153048
0.125658 0.75108 0.138705
0.397543 0.810605 0.125978
0.627848 0.856413 0.121843
0.779004 0.881773 0.132113
0.873075 0.891981 0.147189
0.95288 0.850477 0.136187
0.0514687 0.140993 0.394827
0.0555581 0.140963 0.392798
0.0968948 0.140627 0.371313
0.143435 0.143557 0.354162
0.305608 0.141726 0.320119
0.621546 0.139788 0.27747
0.802029 0.184298 0.288991
0.886259 0.23003 0.308339
0.911818 0.228061 0.305074
0.0509499 0.144732 0.394369
0.0549477 0.144793 0.393149
0.0962081 0.144396 0.372442
0.142763 0.146914 0.354177
0.303395 0.145281 0.319707
0.618402 0.141878 0.276524
0.799634 0.184863 0.287449
0.885985 0.232074 0.307424
0.911574 0.230091 0.304158
0.0469368 0.181247 0.383139
0.0502327 0.181613 0.383505
0.0903487 0.187869 0.39324
0.137819 0.188617 0.366796
0.292271 0.199908 0.331334
0.612512 0.204501 0.287999
0.79324 0.252186 0.302586
0.899428 0.298817 0.324102
0.923903 0.289708 0.314824
0.0462043 0.225345 0.376883
0.0485084 0.224781 0.375982
0.0846571 0.231952 0.384192
0.132921 0.244953 0.399619
0.286213 0.269703 0.361654
0.619043 0.301549 0.323507
0.799405 0.351034 0.338033
0.917967 0.382147 0.32813
0.952483 0.37435 0.31223
0.049012 0.298726 0.380667
0.0513313 0.298039 0.379644
0.0820935 0.300359 0.379156
0.129931 0.321675 0.396109
0.271702 0.371252 0.403479
0.637278 0.425437 0.363516
0.816709 0.454551 0.336828
0.920928 0.468605 0.296498
0.970871 0.464302 0.262669
0.0700542 0.516747 0.51133
0.072343 0.516197 0.510338
0.0987411 0.519081 0.505302
0.143191 0.547204 0.502388
0.221485 0.529015 0.383993
0.649668 0.553094 0.258305
0.812375 0.567742 0.266499
0.907881 0.595026 0.237919
0.972763 0.603708 0.222232
0.0847028 0.689616 0.595224
0.0868696 0.688594 0.59321
0.108537 0.676524 0.56791
0.139361 0.642115 0.467994
0.214618 0.609644 0.316381
0.587213 0.684199 0.258106
0.806638 0.682246 0.213474
0.905837 0.671183 0.21651
0.972717 0.676387 0.211246
0.0823529 0.76202 0.519188
0.0843977 0.760357 0.516182
0.104509 0.74168 0.483879
0.130648 0.698344 0.388876
0.22797 0.693584 0.280751
0.570245 0.761074 0.255436
0.772808 0.811109 0.200397
0.893416 0.77763 0.202197
0.960418 0.755581 0.200702
0.073106 0.830243 0.406577
0.0751812 0.829465 0.403494
0.0953078 0.818311 0.370443
0.121706 0.798199 0.311147
0.247578 0.80885 0.218799
0.565957 0.848371 0.223728
0.746578 0.878416 0.198764
0.859663 0.892164 0.198657
0.950469 0.852934 0.187472
0.0608988 0.19379 0.552331
0.0649424 0.193576 0.550301
0.105898 0.1897 0.520226
0.152041 0.190448 0.494148
0.20853 0.196475 0.468635
0.531075 0.199023 0.373846
0.780804 0.209369 0.353353
0.875105 0.238239 0.366339
0.900282 0.235447 0.362158
0.0603189 0.197498 0.551873
0.0643015 0.197467 0.550698
0.105241 0.193866 0.522332
0.151308 0.193683 0.49424
0.207492 0.198734 0.467735
0.526314 0.200183 0.373724
0.778241 0.209842 0.351659
0.874739 0.240055 0.365194
0.899916 0.237324 0.361059
0.0567788 0.235203 0.543862
0.0598611 0.235309 0.543969
0.0996567 0.240818 0.552087
0.146242 0.238468 0.518914
0.201053 0.239002 0.478828
0.518196 0.255772 0.392676
0.765942 0.269032 0.370489
0.883986 0.313848 0.400595
0.908324 0.305241 0.390509
0.0561532 0.280644 0.5393
0.0584573 0.280018 0.538323
0.0940871 0.286275 0.545098
0.141649 0.298558 0.562432
0.199802 0.300999 0.524025
0.521965 0.340352 0.439979
0.758877 0.366384 0.423072
0.888151 0.418372 0.466804
0.92369 0.417655 0.463767
0.0571756 0.332921 0.540978
0.0594797 0.332204 0.53994
0.0897993 0.333974 0.539773
0.137209 0.351965 0.557916
0.200076 0.378927 0.581811
0.508644 0.454963 0.528618
0.757198 0.492821 0.512428
0.88217 0.52871 0.53463
0.939467 0.527993 0.520378
0.0631723 0.419928 0.556008
0.0654459 0.419074 0.554894
0.0910201 0.414038 0.546746
0.13698 0.434211 0.560189
0.195727 0.466651 0.582284
0.472358 0.565148 0.587549
0.758373 0.611734 0.563027
0.879423 0.627115 0.546441
0.954894 0.62594 0.514015
0.0821088 0.587869 0.640192
0.0843824 0.587274 0.639277
0.107591 0.582071 0.630381
0.1514 0.611551 0.647059
0.201755 0.647257 0.660578
0.400259 0.683528 0.581537
0.763958 0.712901 0.462898
0.875654 0.716289 0.474739
0.961227 0.719203 0.427131
0.100298 0.754971 0.741299
0.102556 0.754559 0.740459
0.125124 0.750729 0.731807
0.160937 0.762036 0.726604
0.204303 0.773312 0.694026
0.410788 0.757229 0.511879
0.722469 0.804196 0.454871
0.873198 0.799863 0.302434
0.957626 0.77583 0.310658
0.108202 0.863996 0.780957
0.110521 0.864103 0.780301
0.133227 0.862425 0.769848
0.162448 0.863859 0.737041
0.200214 0.851316 0.622889
0.428748 0.852094 0.432883
0.699779 0.869703 0.431495
0.838666 0.890135 0.369253
0.946944 0.859281 0.260121
0.0712444 0.252232 0.695247
0.0753033 0.251987 0.693965
0.116289 0.246036 0.666438
0.162097 0.242481 0.636545
0.211246 0.248631 0.617899
0.388586 0.278401 0.596628
0.749004 0.29366 0.506111
0.861143 0.315633 0.529335
0.887373 0.308202 0.515999
0.0706188 0.255879 0.694865
0.0746319 0.255818 0.694163
0.115648 0.250462 0.668376
0.161364 0.245808 0.636912
0.210254 0.250324 0.616053
0.383764 0.27837 0.594125
0.745586 0.293889 0.502647
0.861051 0.316197 0.525719
0.887282 0.308812 0.512459
0.0674601 0.293904 0.688548
0.0704051 0.293873 0.688319
0.109926 0.297856 0.692393
0.15642 0.293156 0.662943
0.204532 0.289754 0.627024
0.358053 0.329259 0.613062
0.73196 0.344701 0.522744
0.867155 0.371069 0.543984
0.89308 0.358801 0.52488
0.0668193 0.33933 0.68397
0.0691386 0.338735 0.683177
0.104158 0.342931 0.686519
0.151064 0.351247 0.696544
0.200305 0.350652 0.669642
0.335454 0.388571 0.648341
0.716411 0.426978 0.579828
0.86804 0.448768 0.58201
0.908537 0.443107 0.568673
0.0673838 0.388846 0.682643
0.0697032 0.388205 0.681834
0.0995346 0.388693 0.680354
0.146334 0.403098 0.692424
0.197391 0.41912 0.70927
0.322942 0.454261 0.690501
0.710735 0.516732 0.638254
0.859007 0.545373 0.638666
0.919356 0.556802 0.647639
0.0704051 0.44654 0.688289
0.072694 0.445731 0.687373
0.0978561 0.440421 0.680003
0.142901 0.454612 0.689509
0.194018 0.477119 0.705989
0.316503 0.528038 0.724544
0.706615 0.619837 0.688807
0.850416 0.643458 0.684153
0.929778 0.652186 0.682673
0.0771801 0.536904 0.701518
0.0794385 0.536034 0.700496
0.102251 0.527276 0.68983
0.143893 0.53959 0.694743
0.193393 0.559609 0.706294
0.295659 0.608545 0.726055
0.703624 0.719585 0.704555
0.846387 0.7308 0.689509
0.938827 0.729747 0.669001
0.0923018 0.661768 0.747234
0.0945754 0.661097 0.746365
0.117174 0.654063 0.736919
0.154116 0.66247 0.737835
0.202701 0.687984 0.750164
0.275242 0.733928 0.76907
0.65095 0.801877 0.677287
0.845411 0.80911 0.601556
0.940551 0.798779 0.60058
0.10605 0.783429 0.809873
0.108415 0.783368 0.809491
0.132052 0.78262 0.805432
0.164797 0.792355 0.805982
0.20972 0.814328 0.807584
0.278538 0.851606 0.798596
0.636439 0.872099 0.609323
0.811551 0.88481 0.588067
0.933257 0.86807 0.449119
0.0729229 0.265934 0.74638
0.0771038 0.266484 0.74609
0.119371 0.266255 0.730846
0.166934 0.270527 0.716258
0.21796 0.28452 0.716655
0.311376 0.320287 0.724804
0.696498 0.341665 0.687236
0.840497 0.3561 0.669139
0.865354 0.354543 0.667628
0.0725872 0.27097 0.748043
0.0767071 0.27158 0.748272
0.118975 0.271839 0.734768
0.166415 0.274754 0.718868
0.217166 0.287068 0.71696
0.307439 0.320958 0.724071
0.689677 0.343145 0.687907
0.84004 0.358267 0.668727
0.864897 0.356725 0.667216
0.0725261 0.32224 0.764874
0.0753338 0.322286 0.764935
0.115511 0.329854 0.773068
0.163577 0.331991 0.76109
0.213886 0.33843 0.749508
0.285344 0.363378 0.751247
0.648646 0.398413 0.743221
0.848264 0.409216 0.692988
0.873243 0.404242 0.684321
0.0744793 0.380499 0.782162
0.0768597 0.380179 0.781918
0.111864 0.384878 0.786877
0.159075 0.393881 0.797086
0.209781 0.400732 0.790707
0.277409 0.416648 0.778851
0.615228 0.475029 0.775387
0.84683 0.474159 0.720409
0.889357 0.472633 0.710216
0.0763714 0.435386 0.791897
0.0787213 0.434882 0.791394
0.108354 0.435523 0.790845
0.154421 0.44564 0.797253
0.204196 0.457115 0.807248
0.276265 0.476493 0.803723
0.608881 0.556069 0.797147
0.836698 0.547555 0.742977
0.903075 0.555703 0.735271
0.0787366 0.486564 0.794919
0.0810254 0.485893 0.794217
0.105882 0.480812 0.788235
0.150286 0.491417 0.792828
0.200153 0.507607 0.802915
0.274327 0.535775 0.817258
0.610498 0.636103 0.811337
0.82858 0.638697 0.773571
0.913664 0.652918 0.767315
0.0821241 0.551293 0.797894
0.0843977 0.550469 0.797101
0.107149 0.542031 0.788815
0.147723 0.549554 0.790463
0.196414 0.56611 0.798917
0.26862 0.599664 0.814038
0.60238 0.696971 0.814801
0.822263 0.732097 0.791623
0.9178 0.737591 0.781735
0.0884871 0.631815 0.805371
0.0907759 0.631098 0.804608
0.113375 0.62327 0.795987
0.149081 0.626291 0.793744
0.196384 0.640589 0.799893
0.264881 0.669001 0.811826
0.533989 0.748745 0.814801
0.808911 0.812314 0.787823
0.914321 0.808148 0.769085
0.0992294 0.723095 0.828626
0.101579 0.722774 0.828046
0.125063 0.719158 0.821775
0.156832 0.720729 0.81828
0.202625 0.734691 0.821134
0.251469 0.755764 0.828199
0.373098 0.821073 0.845991
0.777737 0.881453 0.752438
0.910307 0.875013 0.702907
0.0715343 0.263676 0.76939
0.0757 0.264317 0.769131
0.118013 0.264546 0.754482
0.165759 0.269627 0.740688
0.216815 0.283574 0.740963
0.306569 0.318044 0.748928
0.688258 0.340322 0.712963
0.839933 0.355566 0.693584
0.86479 0.354025 0.692088
0.0711833 0.268711 0.771008
0.0753033 0.269429 0.771328
0.117617 0.270039 0.758251
0.165179 0.273472 0.742809
0.215946 0.285786 0.740887
0.302754 0.318685 0.74815
0.681514 0.341833 0.714122
0.839475 0.357733 0.693172
0.864332 0.356191 0.691676
0.0717479 0.320729 0.788586
0.074403 0.320668 0.788556
0.114305 0.328161 0.796658
0.16231 0.330114 0.78439
0.212589 0.336492 0.772808
0.281987 0.360143 0.773785
0.638224 0.397696 0.769162
0.845975 0.407935 0.719676
0.871565 0.403861 0.714916
0.0737316 0.379065 0.806043
0.0760967 0.378744 0.805783
0.110689 0.383124 0.810498
0.157992 0.392844 0.821897
0.209155 0.401923 0.819471
0.273152 0.418235 0.811841
0.588357 0.487831 0.819013
0.841489 0.47776 0.771542
0.887556 0.475929 0.763958
0.076463 0.438117 0.822599
0.0788434 0.437766 0.822324
0.108324 0.439185 0.823636
0.154757 0.451148 0.833616
0.205005 0.465034 0.847379
0.267002 0.483299 0.850813
0.556664 0.572961 0.856794
0.824628 0.560113 0.836103
0.899367 0.558145 0.809506
0.0803845 0.496193 0.838071
0.0827344 0.495766 0.837781
0.10779 0.492821 0.835904
0.152407 0.504646 0.8439
0.202335 0.521202 0.856336
0.258824 0.540139 0.870344
0.512703 0.622614 0.872023
0.80177 0.652552 0.872145
0.906859 0.644083 0.841443
0.0848859 0.563394 0.852216
0.0872206 0.562829 0.851896
0.110491 0.556863 0.848463
0.150988 0.563943 0.853498
0.199695 0.579675 0.864286
0.251835 0.600855 0.876631
0.438468 0.65626 0.881636
0.780865 0.738811 0.879637
0.903273 0.728099 0.853513
0.0904555 0.634699 0.866957
0.0927749 0.634073 0.866621
0.115785 0.627222 0.863005
0.151141 0.628946 0.86424
0.197864 0.64062 0.869795
0.248142 0.657618 0.877348
0.384848 0.700542 0.879973
0.764813 0.801709 0.877073
0.895628 0.807004 0.857481
0.096437 0.703944 0.880003
0.0987869 0.703517 0.879576
0.122179 0.698955 0.874784
0.153079 0.697795 0.871092
0.198001 0.706706 0.87303
0.246387 0.719936 0.875822
0.355657 0.75494 0.87715
0.731304 0.854124 0.87924
0.880659 0.878401 0.845533
