site/assets/luts/freshluts--0001347-green-til-nightbright.cube
# LUTr-Schema-Version: 2
# LUTr-ID: freshluts--0001347-green-til-nightbright
# LUTr-Title: green til nightbright
# LUTr-Collection: Fresh LUTs
# LUTr-Collection-ID: freshluts-community
# LUTr-Source: https://freshluts.com
# LUTr-Retrieved: 2026-07-27
# LUTr-Source-File: submissions-raw/freshluts/cubes/1347__green_til_hightbright.cube
# LUTr-Source-Format: CUBE
# LUTr-Source-SHA256: 90c8046a329a218c6fa1525843a917f4bb8da5434e10de699ef1fc0b3a439ba1
# LUTr-License: CC0-1.0
# LUTr-License-URL: https://freshluts.com/termsandconditions
# LUTr-License-Basis: site-terms
# LUTr-Transform-Class: creative-look
# LUTr-Tags: creative, freshluts, community, cube, warm, high-key, rec709
# LUTr-Input-Color-Space: rec709
# LUTr-Input-Gamut: rec709
# LUTr-Input-Transfer: rec709
# LUTr-Output-Color-Space: srgb
# LUTr-Output-Gamut: rec709
# LUTr-Output-Transfer: srgb
# LUTr-Color-Space-Confidence: declared-by-source
# LUTr-Domain-Normalized: true
# LUTr-Shaper: none
# LUTr-Original-Grid: 16x16x16
# LUTr-Conversion-Grid: 16x16x16
# LUTr-Conversion-Interpolation: none
# LUTr-Conversion-Method: Metadata normalization; numeric LUT samples preserved
# LUTr-Conversion-Tool: LUTr scripts/convert-all-to-cube.mjs 2.0.0
# LUTr-Conversion-Date: 2026-07-28
# LUTr-Asset-URL: https://freshluts.com/luts/1347
# LUTr-Author: lvannoeun@gmail.com
# LUTr-Author-URL: https://freshluts.com/users/57563
# LUTr-Attribution: lvannoeun@gmail.com via Fresh LUTs
# LUTr-Source-Labels: gamma=Rec 709; color=Warm; key=High Key; style=Colorful
# LUTr-Note: Preserve this metadata and the upstream license notices when redistributing.
TITLE "green til nightbright"
LUT_3D_SIZE 16
DOMAIN_MIN 0 0 0
DOMAIN_MAX 1 1 1
0 0 0
0 -0.000246 -0.000246
0.040722 -0.000543 -0.000543
0.163649 -0.000861 -0.000861
0.279057 -0.001194 -0.001194
0.380834 -0.001536 -0.001536
0.474495 -0.001886 -0.001886
0.566065 -0.002239 -0.002239
0.654334 -0.002584 -0.002584
0.7335 -0.002914 -0.002914
0.800587 -0.003227 -0.003227
0.857109 -0.003519 -0.003519
0.905317 -0.003786 -0.003786
0.946129 -0.00402 -0.00402
0.98853 -0.004208 -0.004208
1.01318 -0.004314 -0.004314
-0.00038 0 -0.00038
0 0.00072 -0.000431
0.040721 0.032896 -0.000649
0.163664 0.046197 -0.00093
0.279057 0.05045 -0.001243
0.380834 0.051172 -0.001574
0.474495 0.050707 -0.001916
0.566065 0.05019 -0.002263
0.654334 0.049516 -0.002604
0.7335 0.048278 -0.002931
0.800587 0.046431 -0.003242
0.857109 0.044259 -0.003532
0.905317 0.041988 -0.003797
0.946129 0.039701 -0.00403
0.98853 0.037959 -0.004217
1.01318 0.035705 -0.004322
-0.000838 0.079871 -0.000838
0.001334 0.079871 -0.000861
0.040721 0.086124 -0.00095
0.163664 0.120954 -0.001166
0.279057 0.132019 -0.001428
0.380834 0.133869 -0.001721
0.474495 0.132694 -0.002037
0.566065 0.131369 -0.002364
0.654334 0.129619 -0.00269
0.7335 0.126426 -0.003005
0.800587 0.121591 -0.003305
0.857109 0.11591 -0.003588
0.905317 0.109974 -0.003845
0.946129 0.103992 -0.004072
0.988529 0.099439 -0.004254
1.01318 0.093527 -0.004354
-0.001329 0.199874 -0.001329
0.008944 0.199874 -0.001343
0.070748 0.199873 -0.0014
0.163663 0.203544 -0.001508
0.279057 0.219272 -0.001725
0.380833 0.22189 -0.001977
0.474495 0.22022 -0.002255
0.566065 0.218348 -0.002553
0.654336 0.215877 -0.002853
0.7335 0.211327 -0.003147
0.800587 0.204444 -0.00343
0.857109 0.196225 -0.003697
0.905317 0.187486 -0.003941
0.946129 0.178442 -0.004157
0.988529 0.171492 -0.004328
1.01318 0.162229 -0.004419
-0.001842 0.302767 -0.001842
0.012364 0.302767 -0.001852
0.084258 0.302766 -0.001893
0.181689 0.302766 -0.001972
0.279056 0.302743 -0.00209
0.380832 0.30613 -0.002309
0.474494 0.303985 -0.002554
0.566064 0.30156 -0.00282
0.654335 0.298389 -0.00309
0.733499 0.292537 -0.003357
0.800587 0.28368 -0.003616
0.857109 0.273104 -0.003862
0.905316 0.26187 -0.004088
0.946128 0.250312 -0.004287
0.988529 0.241329 -0.004444
1.01318 0.229452 -0.00452
-0.002371 0.391062 -0.002371
0.013237 0.391062 -0.002378
0.087605 0.391062 -0.002409
0.187025 0.391062 -0.00247
0.286107 0.391061 -0.002564
0.380831 0.387843 -0.002689
0.474494 0.385199 -0.002908
0.566064 0.382326 -0.003146
0.654335 0.378398 -0.003388
0.733499 0.371299 -0.003627
0.800586 0.360524 -0.00386
0.857109 0.347648 -0.004081
0.905316 0.333924 -0.004285
0.946128 0.319888 -0.004464
0.988529 0.308998 -0.004601
1.01318 0.294499 -0.004659
-0.00291 0.469787 -0.00291
0.013064 0.469787 -0.002916
0.086943 0.469787 -0.00294
0.185975 0.469787 -0.00299
0.284729 0.469787 -0.003066
0.382961 0.469787 -0.00317
0.474493 0.464601 -0.003301
0.566064 0.461133 -0.003517
0.654335 0.456647 -0.003734
0.733498 0.448241 -0.003946
0.800586 0.435576 -0.004152
0.857108 0.420427 -0.004348
0.905316 0.404374 -0.004528
0.946128 0.387821 -0.004683
0.988529 0.37501 -0.004799
1.013179 0.358046 -0.004834
-0.003455 0.543889 -0.003455
0.012654 0.543889 -0.003459
0.085371 0.543889 -0.003479
0.183488 0.543888 -0.00352
0.281405 0.543888 -0.003584
0.378865 0.543888 -0.003671
0.475927 0.543888 -0.003783
0.566063 0.538521 -0.003918
0.654334 0.533357 -0.004115
0.733496 0.523753 -0.004303
0.800585 0.509189 -0.004485
0.857108 0.49185 -0.004655
0.905315 0.473403 -0.00481
0.946127 0.454471 -0.004941
0.988529 0.439739 -0.005032
1.013179 0.420267 -0.005043
-0.003987 0.614909 -0.003987
0.012191 0.614909 -0.003991
0.083609 0.614909 -0.004008
0.18066 0.614909 -0.004042
0.277669 0.614909 -0.004096
0.374192 0.614909 -0.004171
0.470388 0.614909 -0.004267
0.566263 0.614909 -0.004384
0.654334 0.608914 -0.004522
0.733495 0.598106 -0.004691
0.800585 0.581711 -0.00485
0.857107 0.562204 -0.004996
0.905315 0.541442 -0.005127
0.946127 0.520098 -0.005233
0.988528 0.503505 -0.005299
1.013179 0.481626 -0.005283
-0.004496 0.680013 -0.004496
0.011484 0.680013 -0.0045
0.08089 0.680013 -0.004514
0.176283 0.680013 -0.004543
0.271905 0.680013 -0.00459
0.367006 0.680013 -0.004654
0.461762 0.680012 -0.004737
0.556194 0.680012 -0.00484
0.65046 0.680012 -0.004961
0.733493 0.671411 -0.0051
0.800584 0.653227 -0.005239
0.857107 0.631602 -0.005363
0.905314 0.608473 -0.005471
0.946126 0.584769 -0.005553
0.988528 0.566371 -0.005594
1.013179 0.542057 -0.005551
-0.004979 0.736682 -0.004979
0.010457 0.736682 -0.004982
0.076875 0.736682 -0.004995
0.169747 0.736682 -0.00502
0.263231 0.736682 -0.00506
0.356201 0.736682 -0.005115
0.448828 0.736682 -0.005188
0.541182 0.736681 -0.005278
0.633333 0.736681 -0.005384
0.72531 0.73668 -0.005508
0.800584 0.723848 -0.005648
0.857106 0.700048 -0.005752
0.905314 0.674636 -0.005838
0.946125 0.648719 -0.005897
0.988527 0.628449 -0.005913
1.013179 0.601695 -0.005842
-0.00543 0.783905 -0.00543
0.009169 0.783905 -0.005433
0.071716 0.783905 -0.005444
0.161157 0.783904 -0.005465
0.251837 0.783904 -0.0055
0.342012 0.784001 -0.005549
0.43187 0.784 -0.005612
0.521477 0.784 -0.005692
0.610858 0.784 -0.005785
0.700097 0.784 -0.005896
0.788969 0.784 -0.00602
0.857105 0.767956 -0.006159
0.905313 0.740261 -0.006225
0.946124 0.711982 -0.006262
0.988527 0.689935 -0.006254
1.013179 0.660822 -0.006154
-0.005841 0.823446 -0.005841
0.007787 0.823446 -0.005844
0.066088 0.823446 -0.005853
0.151506 0.823445 -0.005872
0.239073 0.823445 -0.005902
0.32615 0.823445 -0.005946
0.412845 0.823445 -0.006001
0.499391 0.823445 -0.006071
0.585632 0.823445 -0.006154
0.671696 0.823445 -0.006252
0.75763 0.823445 -0.006363
0.843457 0.823445 -0.006488
0.905312 0.80505 -0.006626
0.946124 0.774391 -0.006642
0.988526 0.750645 -0.00661
1.013178 0.719225 -0.006483
-0.006203 0.85602 -0.006203
0.006406 0.85602 -0.006204
0.060272 0.85602 -0.006213
0.141229 0.85602 -0.00623
0.225465 0.85602 -0.006256
0.30919 0.856019 -0.006294
0.392602 0.856019 -0.006343
0.475805 0.856019 -0.006404
0.558842 0.856019 -0.006479
0.641622 0.856019 -0.006565
0.724096 0.856019 -0.006665
0.806831 0.856019 -0.006777
0.889074 0.856018 -0.0069
0.946123 0.83655 -0.007036
0.988525 0.811041 -0.006982
1.013178 0.7773 -0.006827
-0.006493 0.881406 -0.006493
0.005062 0.881406 -0.006495
0.054353 0.881406 -0.006502
0.130444 0.881406 -0.006517
0.211148 0.881406 -0.00654
0.291372 0.881406 -0.006573
0.371408 0.881406 -0.006617
0.451039 0.881406 -0.00667
0.530554 0.881406 -0.006736
0.609869 0.881406 -0.006813
0.688984 0.881406 -0.006901
0.768099 0.881405 -0.007001
0.846925 0.881405 -0.007111
0.92587 0.881405 -0.007233
0.988525 0.870753 -0.007365
1.013178 0.834659 -0.007183
-0.006657 0.895401 -0.006657
0.003658 0.895401 -0.006658
0.04782 0.895401 -0.006665
0.11801 0.895401 -0.006677
0.194689 0.895401 -0.006698
0.27096 0.895401 -0.006727
0.346862 0.895401 -0.006764
0.422529 0.895401 -0.006812
0.498088 0.895401 -0.006868
0.573456 0.895401 -0.006936
0.648592 0.895401 -0.007014
0.723651 0.8954 -0.007101
0.798639 0.8954 -0.007199
0.873594 0.8954 -0.007307
0.947273 0.894692 -0.007424
1.013177 0.891741 -0.007551
-0.000136 -0.000136 0
0 -0.00027 0
0.040722 -0.000553 0.01076
0.163649 -0.000867 0.020107
0.279057 -0.001198 0.023276
0.380834 -0.00154 0.02382
0.474495 -0.001888 0.023474
0.566065 -0.002241 0.023084
0.654334 -0.002585 0.022574
0.7335 -0.002916 0.021652
0.800587 -0.003228 0.020279
0.85711 -0.00352 0.018685
0.905317 -0.003787 0.017043
0.946129 -0.004021 0.01542
0.98853 -0.004208 0.014198
1.01318 -0.004315 0.012643
-0.000393 0 0
0 0.000679 0
0.048497 0.011623 0
0.173427 0.013779 0
0.285601 0.013748 0
0.385245 0.013193 0
0.477726 0.012586 0
0.568628 0.012113 0
0.65635 0.011766 0
0.735023 0.011419 0
0.801671 0.011015 0
0.858104 0.010628 0
0.906034 0.010279 0
0.946801 0.00999 0
0.98853 0.009922 0
1.01318 0.009922 0
-0.000844 0.079871 0.0092
0 0.082025 0
0.041908 0.086356 0
0.168351 0.115113 0
0.283221 0.122405 0
0.384156 0.122517 0
0.477112 0.120512 0
0.568304 0.118786 0
0.656168 0.116867 0
0.734855 0.113739 0
0.801613 0.10928 0
0.85797 0.104099 0
0.905991 0.098765 0
0.946721 0.093433 0
0.98853 0.089309 0
1.01318 0.084115 0
-0.001332 0.199874 0.019398
0 0.201366 0
0.064994 0.20086 0
0.164536 0.20358 0
0.280995 0.216625 0
0.382874 0.217679 0
0.476355 0.215104 0
0.56775 0.212699 0
0.655775 0.209901 0
0.734587 0.205152 0
0.801613 0.198267 0
0.857882 0.190104 0
0.905836 0.181478 0
0.946719 0.172668 0
0.98853 0.16574 0
1.01318 0.156772 0
-0.001845 0.302767 0.023276
0 0.303611 0
0.074704 0.303465 0
0.178715 0.303199 0
0.279472 0.302739 0
0.381764 0.304652 0
0.475626 0.301657 0
0.567322 0.298675 0
0.655404 0.295149 0
0.734519 0.289048 0
0.801475 0.280084 0
0.857718 0.269443 0
0.905871 0.258287 0
0.946741 0.246806 0
0.988529 0.23777 0
1.01318 0.226053 0
-0.002372 0.391062 0.024248
0 0.391547 0
0.076442 0.391505 0
0.182078 0.391372 0
0.284461 0.391251 0
0.381117 0.387743 0
0.475085 0.384325 0
0.566794 0.38082 0
0.655087 0.376558 0
0.734122 0.369173 0
0.801173 0.358274 0
0.857588 0.345267 0
0.905703 0.331605 0
0.946546 0.317567 0
0.988529 0.306539 0
1.01318 0.29216 0
-0.002911 0.469787 0.024048
0 0.470103 0
0.075171 0.470102 0
0.180085 0.47002 0
0.281963 0.469949 0
0.381979 0.469883 0
0.474695 0.464546 0
0.566464 0.46054 0
0.654831 0.455582 0
0.734074 0.446942 0
0.801041 0.43413 0
0.857465 0.418815 0
0.905694 0.402736 0
0.946524 0.386229 0
0.988529 0.373236 0
1.013179 0.35631 0
-0.003456 0.543889 0.023591
0 0.544173 0
0.073387 0.544145 0
0.177069 0.544064 0
0.277946 0.544024 0
0.37709 0.544003 0
0.475323 0.543945 0
0.566161 0.538488 0
0.654604 0.532866 0
0.733892 0.522965 0
0.800889 0.508282 0
0.857388 0.490783 0
0.905559 0.472288 0
0.9465 0.4533 0
0.988529 0.438461 0
1.013179 0.419064 0
-0.003988 0.614909 0.023082
0 0.615089 0
0.071563 0.615081 0
0.173986 0.615066 0
0.273829 0.615043 0
0.372002 0.615014 0
0.469172 0.615017 0
0.565842 0.614994 0
0.654482 0.608855 0
0.733725 0.59769 0
0.800868 0.581179 0
0.857266 0.561461 0
0.905464 0.540591 0
0.946412 0.519247 0
0.988528 0.502527 0
1.013179 0.480661 0
-0.004497 0.680013 0.022292
0 0.680119 0
0.069058 0.680109 0
0.169519 0.680306 0
0.267828 0.680279 0
0.364416 0.680117 0
0.46021 0.68011 0
0.555454 0.680062 0
0.650225 0.680064 0
0.733407 0.671251 0
0.800808 0.652993 0
0.857228 0.631013 0
0.905427 0.60792 0
0.946302 0.584188 0
0.988528 0.565619 0
1.013179 0.54133 0
-0.00498 0.736682 0.021133
0 0.736858 0
0.065462 0.736809 0
0.162966 0.736872 0
0.259069 0.736831 0
0.353492 0.736776 0
0.447054 0.736705 0
0.540087 0.736769 0
0.632658 0.736682 0
0.7252 0.736687 0
0.800667 0.723849 0
0.857222 0.699736 0
0.905407 0.674393 0
0.946314 0.648248 0
0.988528 0.627861 0
1.013179 0.601194 0
-0.005431 0.783905 0.019642
0 0.784039 0
0.060903 0.784036 0
0.154503 0.78403 0
0.247706 0.784021 0
0.339269 0.784008 0
0.430007 0.783992 0
0.5202 0.783974 0
0.610035 0.783954 0
0.699558 0.783954 0
0.788924 0.783934 0
0.857197 0.767893 0
0.90535 0.740103 0
0.946337 0.71175 0
0.988527 0.689485 0
1.013179 0.660414 0
-0.005842 0.823446 0.018016
0 0.823545 0
0.055975 0.823542 0
0.145059 0.823538 0
0.234994 0.823531 0
0.32335 0.823521 0
0.410906 0.823509 0
0.497955 0.823495 0
0.584664 0.823479 0
0.671207 0.823463 0
0.757325 0.823446 0
0.843372 0.823468 0
0.905307 0.805031 0
0.946211 0.774308 0
0.988526 0.750386 0
1.013178 0.718932 0
-0.006204 0.85602 0.016332
0 0.856145 0
0.050938 0.856143 0
0.135076 0.856138 0
0.221565 0.856132 0
0.306507 0.856124 0
0.390699 0.856115 0
0.474374 0.856103 0
0.557813 0.856091 0
0.640924 0.856077 0
0.723677 0.856063 0
0.806549 0.856049 0
0.889001 0.856036 0
0.946116 0.836477 0
0.988526 0.810852 0
1.013178 0.777153 0
-0.006493 0.881406 0.014624
0 0.881402 0
0.045857 0.8814 0
0.124573 0.881397 0
0.207409 0.881393 0
0.28885 0.881386 0
0.369481 0.881378 0
0.449649 0.881369 0
0.529492 0.881358 0
0.609141 0.881469 0
0.688451 0.881457 0
0.76777 0.881445 0
0.84679 0.881429 0
0.925894 0.881418 0
0.988525 0.870753 0
1.013178 0.834584 0
-0.006658 0.895401 0.012745
0 0.895515 0
0.040305 0.895513 0
0.112546 0.895511 0
0.191199 0.895507 0
0.268497 0.895502 0
0.345062 0.895495 0
0.421186 0.895487 0
0.497034 0.895478 0
0.572687 0.895468 0
0.647983 0.895453 0
0.72342 0.895443 0
0.79828 0.895432 0
0.87345 0.895423 0
0.947251 0.894707 0
1.013177 0.89172 0
-0.0003 -0.0003 0.04111
0.000513 -0.000382 0.04111
0.040721 -0.000594 0.051914
0.163649 -0.000893 0.082006
0.279057 -0.001216 0.091913
0.380834 -0.001553 0.093605
0.474495 -0.001899 0.092544
0.566065 -0.00225 0.091311
0.654334 -0.002593 0.089747
0.7335 -0.002922 0.086867
0.800587 -0.003234 0.082569
0.857109 -0.003525 0.077541
0.905317 -0.003791 0.072355
0.946129 -0.004024 0.067155
0.98853 -0.004212 0.063219
1.01318 -0.004317 0.058161
-0.000489 0.027925 0.04111
0 0 0.048518
0.048045 0 0.05606
0.173963 0 0.076829
0.286368 0 0.081525
0.385919 0 0.081075
0.478248 0 0.079226
0.569113 0 0.077722
0.6567 0 0.076041
0.735216 0 0.073338
0.802015 0 0.069498
0.85822 0 0.065074
0.906135 0 0.060512
0.946948 0 0.055967
0.98853 0 0.052444
1.01318 0 0.047989
-0.000867 0.079871 0.046687
0 0.081882 0.046728
0.042172 0.080171 0.038902
0.174646 0.076586 0.03282
0.294916 0.065415 0.021221
0.397127 0.053469 0.010077
0.489409 0.044994 0.003006
0.579628 0.039992 0.000057
0.665977 0.037156 0
0.74281 0.035239 0
0.808046 0.033629 0
0.863288 0.032234 0
0.910645 0.031083 0
0.951057 0.030171 0
0.98853 0.07528 0.041075
1.01318 0.075277 0.041072
-0.001347 0.199874 0.079775
0 0.201701 0.069792
0.033756 0.203226 0.020907
0.16693 0.201448 0.015968
0.288585 0.202164 0.009232
0.391894 0.196474 0.003749
0.485618 0.190057 0.000504
0.57688 0.185375 0
0.664018 0.181103 0
0.741605 0.175683 0
0.807234 0.168761 0
0.862851 0.161068 0
0.91022 0.153208 0
0.950742 0.145361 0
0.98853 0.158204 0.041073
1.01318 0.151814 0.04107
-0.001855 0.302767 0.091913
0 0.30385 0.077741
0.024359 0.306324 0.004961
0.164591 0.304981 0.003452
0.281569 0.301874 0.001725
0.38675 0.297706 0.000143
0.481666 0.291084 0
0.573829 0.285959 0
0.661887 0.280896 0
0.740122 0.273718 0
0.806272 0.264281 0
0.862061 0.253569 0
0.909706 0.242564 0
0.950324 0.231486 0
0.988529 0.233211 0.04107
1.01318 0.223032 0.041072
-0.00238 0.391062 0.094949
0 0.391788 0.07931
0.019207 0.393789 0
0.159042 0.393155 0
0.277805 0.39227 0
0.382612 0.387354 0
0.47831 0.380382 0
0.571085 0.374747 0
0.65974 0.368901 0
0.738555 0.36037 0
0.805149 0.348746 0
0.861229 0.335456 0
0.909105 0.321734 0
0.949827 0.307806 0
0.988529 0.303437 0.04107
1.01318 0.290103 0.041068
-0.002917 0.469787 0.094342
0 0.470263 0.07836
0.016154 0.471844 0
0.152734 0.471534 0
0.270003 0.471095 0
0.378307 0.47054 0
0.47581 0.464324 0
0.568847 0.4581 0
0.657855 0.451639 0
0.737132 0.441833 0
0.804078 0.428226 0
0.86043 0.412456 0
0.90837 0.396109 0
0.949371 0.379611 0
0.988529 0.371025 0.041065
1.013179 0.354883 0.041064
-0.003461 0.543889 0.092934
0 0.544218 0.07697
0.014206 0.5455 0
0.147522 0.545378 0
0.263117 0.545148 0
0.369948 0.544776 0
0.473072 0.544385 0
0.567116 0.538364 0
0.656349 0.531218 0
0.736001 0.520141 0
0.803104 0.50464 0
0.859626 0.486603 0
0.907765 0.467815 0
0.948766 0.448741 0
0.988529 0.436862 0.041069
1.013179 0.417915 0.041069
-0.003992 0.614909 0.091354
0 0.615179 0.075508
0.012978 0.616304 0
0.143332 0.616196 0
0.257359 0.616081 0
0.362793 0.615848 0
0.464575 0.615555 0
0.564404 0.615318 0
0.655192 0.608777 0
0.73477 0.596438 0
0.802317 0.579086 0
0.858907 0.558797 0
0.907185 0.537619 0
0.948215 0.516048 0
0.988528 0.501321 0.041065
1.013179 0.479825 0.041065
-0.004501 0.680013 0.088909
0 0.680314 0.073337
0.012001 0.681097 0
0.138498 0.681042 0
0.250472 0.680951 0
0.354029 0.68083 0
0.45406 0.680719 0
0.552196 0.680433 0
0.649339 0.680424 0
0.734107 0.671254 0
0.801641 0.652068 0
0.858302 0.629463 0
0.906636 0.605994 0
0.94768 0.581974 0
0.988528 0.56475 0.041065
1.013179 0.540704 0.041063
-0.004983 0.736682 0.085293
0 0.736864 0.070192
0.011024 0.737617 0
0.132231 0.737636 0
0.241392 0.737507 0
0.342352 0.737381 0
0.43995 0.737319 0
0.535738 0.737188 0
0.630639 0.737069 0
0.724573 0.736944 0
0.801106 0.723669 0
0.857903 0.699044 0
0.906248 0.673095 0
0.947347 0.646809 0
0.988528 0.627213 0.041051
1.013179 0.600721 0.041053
-0.005433 0.783905 0.080634
0 0.784139 0.066144
0.010001 0.784619 0
0.124512 0.784611 0
0.23015 0.784605 0
0.327913 0.78461 0
0.422376 0.784486 0
0.515203 0.784458 0
0.607002 0.784427 0
0.698003 0.784319 0
0.788439 0.784179 0
0.857542 0.767691 0
0.905859 0.739481 0
0.947 0.710803 0
0.988527 0.689068 0.041042
1.013179 0.660086 0.041046
-0.005844 0.823446 0.075518
0 0.823548 0.061701
0.009075 0.824001 0
0.116178 0.823995 0
0.217881 0.823967 0
0.312046 0.823941 0
0.403124 0.823875 0
0.492647 0.823816 0
0.581078 0.823731 0
0.668883 0.823732 0
0.756202 0.823708 0
0.84317 0.823563 0
0.905633 0.804888 0
0.946714 0.773872 0
0.988526 0.750136 0.041026
1.013178 0.718695 0.041032
-0.006205 0.85602 0.070189
0 0.856096 0.057089
0.008302 0.856572 0
0.107552 0.856536 0
0.205093 0.85648 0
0.295517 0.856537 0
0.383019 0.856493 0
0.46886 0.856516 0
0.553912 0.856418 0
0.638372 0.85643 0
0.722057 0.856326 0
0.805754 0.856236 0
0.888975 0.856182 0
0.946519 0.836493 0
0.988526 0.810771 0.041012
1.013178 0.776954 0.041018
-0.006495 0.881406 0.064718
0 0.881381 0.05232
0.007729 0.881731 0
0.098725 0.881822 0
0.191827 0.881774 0
0.278306 0.881713 0
0.361965 0.881746 0
0.44416 0.881746 0
0.525514 0.881681 0
0.606326 0.881671 0
0.686526 0.881535 0
0.766608 0.881552 0
0.846258 0.88151 0
0.92582 0.881465 0
0.988525 0.870709 0.041009
1.013178 0.834528 0.041007
-0.006659 0.895401 0.058617
0 0.895626 0.04695
0.007433 0.89598 0
0.089241 0.895953 0
0.176856 0.895911 0
0.258723 0.895919 0
0.338045 0.895893 0
0.416011 0.895801 0
0.493211 0.895847 0
0.569875 0.895719 0
0.645996 0.895722 0
0.722006 0.895666 0
0.797504 0.895665 0
0.873075 0.895581 0
0.947276 0.894691 0
1.013177 0.891705 0.041003
-0.000476 -0.000476 0.153741
0.008197 -0.00053 0.153741
0.067673 -0.000705 0.153741
0.163664 -0.000942 0.161979
0.279057 -0.001252 0.177758
0.380834 -0.001581 0.180381
0.474495 -0.001921 0.178713
0.566065 -0.002268 0.176812
0.654334 -0.002608 0.174329
0.7335 -0.002935 0.169794
0.800587 -0.003245 0.162896
0.857109 -0.003535 0.154673
0.905317 -0.003799 0.145984
0.946129 -0.004032 0.13704
0.98853 -0.004218 0.130118
1.01318 -0.004323 0.120966
-0.000614 0.044023 0.153741
0 0 0.169656
0.069779 0 0.167059
0.172737 0 0.168081
0.285789 0 0.1768
0.385564 0 0.176092
0.478116 0 0.172843
0.568955 0 0.170209
0.656684 0 0.167231
0.735241 0 0.162432
0.801981 0 0.155485
0.858191 0 0.147344
0.906111 0 0.138761
0.947007 0 0.129984
0.98853 0 0.123047
1.01318 0 0.114081
-0.000964 0.115248 0.15374
0 0.111409 0.162228
0.042415 0.077987 0.163567
0.174009 0.071572 0.161245
0.294727 0.058441 0.158952
0.397967 0.042395 0.14998
0.490865 0.029218 0.141024
0.581267 0.019796 0.134823
0.667547 0.013539 0.129637
0.744336 0.009495 0.123736
0.80936 0.006884 0.116617
0.864312 0.005184 0.10887
0.911599 0.004118 0.101151
0.951967 0.003431 0.093555
0.98853 0.079844 0.118698
1.01318 0.079846 0.112492
-0.001375 0.199874 0.158339
0 0.201363 0.158685
0.027277 0.20251 0.154154
0.166311 0.199262 0.149563
0.290024 0.192316 0.142654
0.397023 0.180771 0.130644
0.495253 0.164307 0.112196
0.589704 0.146845 0.092456
0.677561 0.131037 0.075417
0.754075 0.1176 0.061882
0.818059 0.106672 0.051477
0.872447 0.098049 0.043612
0.91909 0.091391 0.037752
0.952029 0.150689 0.106989
0.98853 0.190352 0.153706
1.01318 0.190349 0.153703
-0.001875 0.302767 0.177753
0 0.303751 0.172884
0.008635 0.306728 0.145136
0.149328 0.305749 0.128022
0.282922 0.300764 0.119243
0.392199 0.290054 0.10581
0.490144 0.278108 0.090876
0.584547 0.267931 0.076428
0.673241 0.258346 0.063966
0.750731 0.247991 0.053828
0.815752 0.236701 0.045804
0.870735 0.225315 0.039578
0.91772 0.214445 0.034816
0.951993 0.231988 0.101053
0.988529 0.253612 0.153703
1.01318 0.248087 0.15371
-0.002395 0.391062 0.182408
0 0.391697 0.175415
0.000299 0.394444 0.135669
0.122486 0.395448 0.094359
0.267763 0.393655 0.088259
0.384677 0.386676 0.080696
0.483772 0.374723 0.070657
0.578765 0.365469 0.060924
0.668465 0.356642 0.052448
0.74729 0.345789 0.04538
0.813036 0.332616 0.039604
0.868514 0.318661 0.034995
0.91612 0.304827 0.031395
0.952103 0.305823 0.091967
0.988529 0.317562 0.153709
1.013179 0.307683 0.153707
-0.002929 0.469787 0.181477
0 0.470241 0.17356
0 0.47248 0.128661
0.098424 0.474108 0.066773
0.249467 0.473085 0.063351
0.372119 0.471695 0.059034
0.477797 0.463836 0.054141
0.573422 0.454137 0.047825
0.663885 0.44509 0.042287
0.74352 0.433157 0.037588
0.810246 0.418171 0.033643
0.866445 0.401659 0.030432
0.914354 0.385078 0.027861
0.952053 0.376061 0.078491
0.988529 0.381223 0.153705
1.013179 0.367713 0.153704
-0.00347 0.543889 0.179311
0 0.544198 0.170953
0 0.546113 0.123939
0.081547 0.547873 0.047732
0.235251 0.547167 0.04588
0.35719 0.546322 0.043463
0.469302 0.545274 0.040649
0.568903 0.538088 0.037593
0.660029 0.528377 0.034026
0.740483 0.515372 0.030987
0.807805 0.498434 0.028413
0.864424 0.479558 0.026253
0.912545 0.460335 0.024522
0.952018 0.444281 0.058686
0.988529 0.444477 0.153715
1.013179 0.42761 0.153714
-0.004 0.614909 0.17689
0 0.615174 0.168245
0 0.616807 0.120302
0.070905 0.618469 0.035408
