site/assets/luts/freshluts--0000683-canon-footage-correction.cube
# LUTr-Schema-Version: 2
# LUTr-ID: freshluts--0000683-canon-footage-correction
# LUTr-Title: Canon footage( Correction)
# LUTr-Collection: Fresh LUTs
# LUTr-Collection-ID: freshluts-community
# LUTr-Source: https://freshluts.com
# LUTr-Retrieved: 2026-07-27
# LUTr-Source-File: submissions-raw/freshluts/cubes/683__corr-canon_9.C2AIAEP200081.cube
# LUTr-Source-Format: CUBE
# LUTr-Source-SHA256: d596fc445eac3b657829fdf08ea3be3c36ac3d6af12bbe72fe7a64659ef2f648
# LUTr-License: CC0-1.0
# LUTr-License-URL: https://freshluts.com/termsandconditions
# LUTr-License-Basis: site-terms
# LUTr-Transform-Class: creative-look
# LUTr-Tags: creative, freshluts, community, cube, high-key, rec709, correction
# LUTr-Input-Color-Space: rec709
# LUTr-Input-Gamut: rec709
# LUTr-Input-Transfer: rec709
# LUTr-Output-Color-Space: srgb
# LUTr-Output-Gamut: rec709
# LUTr-Output-Transfer: srgb
# LUTr-Color-Space-Confidence: declared-by-source
# LUTr-Domain-Normalized: true
# LUTr-Shaper: none
# LUTr-Original-Grid: 33x33x33
# LUTr-Conversion-Grid: 33x33x33
# LUTr-Conversion-Interpolation: none
# LUTr-Conversion-Method: Metadata normalization; numeric LUT samples preserved
# LUTr-Conversion-Tool: LUTr scripts/convert-all-to-cube.mjs 2.0.0
# LUTr-Conversion-Date: 2026-07-28
# LUTr-Asset-URL: https://freshluts.com/luts/683
# LUTr-Author: lvannoeun@gmail.com
# LUTr-Author-URL: https://freshluts.com/users/57563
# LUTr-Attribution: lvannoeun@gmail.com via Fresh LUTs
# LUTr-Source-Labels: gamma=Rec 709; color=None; key=High Key; style=Colorful
# LUTr-Note: Preserve this metadata and the upstream license notices when redistributing.
TITLE "Canon footage( Correction)"
LUT_3D_SIZE 33
DOMAIN_MIN 0 0 0
DOMAIN_MAX 1 1 1
0 0 0
0 0 0
0 0 0
0 0 0
0 0 0
0 0 0
0.0195468 0 0
0.0587778 0 0
0.0998856 0 0
0.14435 0 0
0.192462 0 0
0.244038 0 0
0.298589 0 0
0.360403 0 0
0.420493 0 0
0.475547 0 0
0.527764 0 0
0.577585 0 0
0.625193 0 0
0.670069 0 0
0.711788 0 0
0.750134 0 0
0.785489 0 0
0.81799 0 0
0.847974 0 0
0.875975 0 0
0.902159 0 0
0.927275 0 0
0.951659 0 0
0.975631 0 0
0.999542 0 0
1 0 0
1 0 0
0 0 0
0 0 0
0 0 0
0 0 0
0 0 0
0 0 0
0.0322576 0 0
0.0730602 0 0
0.116793 0 0
0.165942 0 0
0.227634 0 0
0.285389 0 0
0.341665 0 0
0.39472 0 0
0.4448 0 0
0.494057 0 0
0.543038 0 0
0.590723 0 0
0.636881 0 0
0.680751 0 0
0.721798 0 0
0.759823 0 0
0.794842 0 0
0.827268 0 0
0.857359 0 0
0.885573 0 0
0.912139 0 0
0.937728 0 0
0.962631 0 0
0.987182 0 0
1 0 0
1 0 0
1 0 0
0 0 0
0 0 0
0 0 0
0 0 0
0 0 0
0.014023 0 0
0.0592508 0 0
0.112215 0 0
0.159747 0 0
0.208392 0 0
0.258045 0 0
0.308965 0 0
0.360098 0 0
0.410239 0 0
0.45864 0 0
0.506722 0 0
0.554894 0 0
0.602029 0 0
0.647837 0 0
0.691508 0 0
0.732494 0 0
0.770504 0 0
0.805844 0 0
0.838605 0 0
0.869108 0 0
0.897826 0 0
0.92488 0 0
0.95108 0 0
0.976577 0 0
1 0 0
1 0 0
1 0.00706493 0
1 0.0142672 0
0 0 0
0 0 0
0 0 0
0 0 0
0.0194095 0 0
0.0616007 0 0
0.100771 0.00378424 0
0.140276 0.00704967 0
0.181872 0.00866712 0
0.226474 0.00875868 0
0.27393 0.00761425 0
0.323629 0.00555428 0
0.373678 0.00320439 0
0.423087 0.0009308 0
0.471122 0 0
0.519097 0 0
0.567224 0 0
0.614374 0 0
0.660426 0 0
0.704372 0 0
0.745678 0 0
0.784024 0 0
0.819699 0 0
0.852857 0.000976577 0
0.883879 0.00546273 0
0.91284 0.0108034 0
0.940658 0.0167239 0
0.967269 0.0232853 0
0.993484 0.0302434 0
1 0.0375525 0
1 0.0453956 0
1 0.0532692 0
1 0.0611734 0
0 0.00915541 0
0 0.0200351 0
0 0.0290379 0
0.00848402 0.0361181 0
0.047013 0.0391699 0
0.0820172 0.0422827 0
0.117556 0.0446326 0
0.154986 0.046067 0
0.195331 0.0464485 0
0.239124 0.0457313 0
0.286107 0.0440681 0
0.335302 0.0417945 0
0.385519 0.0392767 0
0.434699 0.0371405 0
0.482643 0.035462 0
0.531106 0.0338293 0
0.579461 0.0324407 0
0.627329 0.0314336 0
0.673579 0.0310979 0
0.71783 0.0315862 0
0.75964 0.0329747 0
0.798642 0.0354162 0
0.834684 0.0389563 0
0.868391 0.0433967 0
0.900099 0.048661 0
0.929763 0.0548257 0
0.958373 0.0615396 0
0.985748 0.0688792 0
1 0.0766155 0
1 0.0846113 0
1 0.0930343 0
1 0.101396 0.000381476
1 0.109697 0.00868238
0 0.0618296 0
0 0.0665446 0
0 0.0707408 0
0.0270237 0.0752422 0
0.0610513 0.077821 0
0.0946059 0.0799573 0
0.129091 0.0817121 0
0.166247 0.0826734 0
0.206439 0.0828412 0
0.250141 0.0821088 0
0.297307 0.0805524 0
0.346777 0.0785077 0
0.397223 0.0764324 0
0.447105 0.0747234 0
0.495598 0.0736095 0
0.544457 0.0727092 0
0.593393 0.0720226 0
0.641596 0.0717937 0
0.688548 0.0721904 0
0.733364 0.0734569 0
0.775601 0.0757153 0
0.815106 0.0789807 0
0.851652 0.0833906 0
0.885939 0.088716 0
0.918273 0.0948043 0
0.948516 0.101732 0
0.977676 0.109117 0
1 0.117006 0
1 0.125246 0
1 0.133806 0.00598154
1 0.142321 0.0140688
1 0.15079 0.0225528
1 0.159258 0.0306096
0 0.101244 0
0 0.104509 0
0.0101778 0.107607 0
0.0410468 0.110903 0
0.0708171 0.114931 0
0.103914 0.117021 0
0.138552 0.118746 0
0.175723 0.119921 0
0.21622 0.120378 0
0.260578 0.120012 0
0.30837 0.118944 0
0.35848 0.11751 0
0.409247 0.116167 0
0.4598 0.115129 0
0.50901 0.114748 0
0.558541 0.114549 0
0.608301 0.11458 0
0.65713 0.115175 0
0.704417 0.116472 0
0.749752 0.118624 0
0.792538 0.121752 0
0.832471 0.125902 0
0.869627 0.131044 0
0.904295 0.137011 0
0.936751 0.143755 0
0.967437 0.151064 0
0.996582 0.158892 0.00183108
1 0.167041 0.00984207
1 0.175357 0.0177157
1 0.184024 0.026154
1 0.192569 0.0341802
1 0.200977 0.0421607
1 0.209232 0.0498512
0 0.138552 0
0 0.141451 0
0.0200809 0.144442 0
0.0515145 0.147433 0
0.0793011 0.152346 0
0.111208 0.155734 0
0.146151 0.157992 0
0.18381 0.159762 0
0.224979 0.160815 0
0.270115 0.161059 0
0.318654 0.160678 0
0.369528 0.15993 0
0.42118 0.159274 0
0.472221 0.159075 0
0.522393 0.159396 0
0.572656 0.160021 0
0.622919 0.160937 0
0.672435 0.162356 0
0.720363 0.164446 0
0.766018 0.167361 0
0.808988 0.171176 0
0.849012 0.175921 0
0.886259 0.181521 0
0.921096 0.187823 0
0.953597 0.194781 0.00471504
0.984115 0.202274 0.011841
1 0.210163 0.0191653
1 0.218235 0.0269017
1 0.226734 0.0347448
1 0.235004 0.0424506
1 0.243229 0.049958
1 0.251408 0.0568551
1 0.259251 0.0638437
0 0.176684 0
0 0.179858 0
0.0276493 0.183261 0
0.0601053 0.186465 0
0.0887312 0.191455 0
0.117754 0.197192 0
0.15256 0.200595 0
0.190906 0.203052 0
0.232837 0.204837 0
0.278752 0.205829 0
0.328161 0.20618 0
0.379828 0.20621 0
0.432227 0.206363 0
0.484001 0.206989 0
0.534905 0.208118 0
0.586038 0.209415 0
0.636774 0.211032 0
0.686503 0.213092 0
0.734554 0.215717 0
0.780194 0.219089 0
0.823133 0.223239 0
0.863127 0.228168 0.000732433
0.900053 0.233951 0.00608835
0.934661 0.240269 0.0122072
0.966842 0.247242 0.0182803
0.99707 0.254566 0.0253147
1 0.262226 0.0322271
1 0.270039 0.0394293
1 0.27808 0.0466926
1 0.286015 0.0533608
1 0.293828 0.0600748
1 0.301472 0.0668345
1 0.308949 0.0731975
0 0.217456 0
0.00247196 0.221271 0
0.0340124 0.225269 0
0.0673228 0.229038 0
0.096849 0.234424 0
0.12578 0.240879 0
0.158053 0.246876 0
0.196872 0.25034 0
0.239643 0.252872 0
0.286366 0.254673 0
0.336614 0.255818 0
0.389044 0.256641 0
0.442054 0.257511 0
0.494347 0.258778 0
0.545495 0.260502 0
0.596918 0.262257 0
0.647807 0.264225 0
0.697719 0.266484 0
0.745724 0.269276 0
0.791104 0.272755 0.00241093
0.833753 0.276921 0.00622568
0.873228 0.281849 0.0107576
0.910018 0.287358 0.0160372
0.943908 0.293568 0.0213169
0.975738 0.300114 0.0274662
1 0.307088 0.0336004
1 0.31426 0.0400854
1 0.32163 0.0465553
1 0.32932 0.0529335
1 0.336721 0.0592508
1 0.344228 0.0654917
1 0.351629 0.0719768
1 0.358938 0.0784009
0 0.261707 0
0.00717174 0.266239 0
0.0393072 0.271015 0
0.0732891 0.275578 0
0.104051 0.281437 0.000427253
0.134295 0.288136 0
0.164889 0.295811 0
0.201678 0.301732 0
0.245014 0.30518 0
0.292317 0.307668 0
0.343313 0.309331 0
0.396262 0.310613 0
0.449424 0.31191 0
0.502037 0.313451 0
0.553399 0.315328 0
0.604593 0.317266 0
0.655375 0.31928 0.000900282
0.70489 0.321553 0.00294499
0.752575 0.324224 0.00537118
0.797711 0.327428 0.00854505
0.839887 0.331304 0.0120546
0.878828 0.335866 0.0161898
0.915038 0.340993 0.0205234
0.948638 0.346639 0.0257115
0.979767 0.352789 0.0311131
1 0.359258 0.0369573
1 0.366018 0.042771
1 0.373068 0.0487984
1 0.380499 0.055024
1 0.387945 0.0611276
1 0.395346 0.0675212
1 0.402716 0.0738842
1 0.41001 0.0800183
0 0.309514 0
0.0117342 0.314809 0
0.0447089 0.320378 0
0.0791485 0.325841 0.00320439
0.11107 0.332341 0.00694286
0.142199 0.339513 0.0087892
0.17406 0.347143 0.00637827
0.208026 0.355123 0
0.249393 0.360418 0
0.297124 0.363256 0
0.348226 0.365209 0
0.401343 0.366598 0
0.454643 0.367956 0
0.507057 0.369497 0
0.55816 0.371313 0.00123598
0.609094 0.373053 0.00276188
0.659739 0.374746 0.00425727
0.708843 0.376684 0.0059968
0.75584 0.379004 0.00808728
0.800458 0.381765 0.0105898
0.842313 0.385092 0.0138552
0.880796 0.389212 0.0172122
0.916457 0.393866 0.0213626
0.949569 0.399069 0.0262608
0.980529 0.404898 0.0313268
1 0.411276 0.0368048
1 0.418006 0.0427405
1 0.424994 0.0487678
1 0.432395 0.0546731
1 0.439628 0.0608835
1 0.446921 0.0670176
1 0.454109 0.0731823
1 0.461082 0.0792859
0 0.360571 0
0.0175021 0.366629 0.0010071
0.0512398 0.372915 0.00488289
0.0859236 0.37911 0.00877394
0.118318 0.386023 0.0138247
0.150439 0.393286 0.0174868
0.182956 0.400854 0.0177005
0.217014 0.408682 0.0113375
0.254734 0.415976 0
0.300801 0.419867 0
0.351888 0.421744 0
0.404929 0.42298 0
0.457801 0.424155 0.000640879
0.510124 0.425345 0.00167849
0.56083 0.42678 0.00291447
0.611307 0.428061 0.00404364
0.661265 0.429328 0.00517281
0.710079 0.430732 0.00643931
0.756603 0.432563 0.00813306
0.800778 0.434836 0.0102083
0.842115 0.437827 0.0129397
0.880354 0.441672 0.0164034
0.916167 0.446174 0.0203403
0.94902 0.451438 0.0250248
0.980041 0.457145 0.0302586
1 0.463401 0.0356909
1 0.469978 0.0415503
1 0.476905 0.047303
1 0.483955 0.0532235
1 0.491005 0.0590219
1 0.497963 0.0650645
1 0.504799 0.0710307
1 0.511498 0.0766461
0 0.414069 0.00308232
0.0249485 0.420539 0.00714122
0.0592508 0.4271 0.0116732
0.0939345 0.433631 0.0158236
0.126299 0.440772 0.021088
0.158816 0.447929 0.0257725
0.191867 0.455192 0.0273136
0.226749 0.462226 0.0250858
0.262913 0.469718 0.0137026
0.305089 0.475288 0.0021973
0.354879 0.47744 0.00030518
0.407263 0.478355 0.00108339
0.4598 0.479011 0.00167849
0.511467 0.479744 0.00239567
0.561959 0.480613 0.00326543
0.61207 0.481407 0.00402838
0.661555 0.4822 0.00476081
0.710079 0.483238 0.00575265
0.756436 0.484871 0.00726329
0.80058 0.487098 0.009308
0.841871 0.490059 0.0119936
0.880049 0.493828 0.0153811
0.915572 0.498299 0.0189975
0.94847 0.503334 0.0237736
0.979156 0.508934 0.028687
1 0.514885 0.0340887
1 0.521279 0.0395056
1 0.52781 0.0451667
1 0.534661 0.0506447
1 0.541299 0.0562905
1 0.547921 0.0618143
1 0.554376 0.0673381
1 0.560571 0.0727398
0 0.46836 0.0107271
0.034165 0.474891 0.0152743
0.0690471 0.481361 0.0196536
0.103029 0.488045 0.0239567
0.135073 0.495125 0.0290837
0.16759 0.501976 0.0337835
0.200839 0.508675 0.0364691
0.235569 0.515145 0.035462
0.272129 0.521431 0.0286107
0.311101 0.527703 0.0129702
0.35761 0.530999 0.00302129
0.409171 0.53167 0.00201419
0.461204 0.531868 0.0021973
0.512383 0.532189 0.00248722
0.562325 0.532845 0.00308232
0.612406 0.533471 0.00363165
0.661875 0.534234 0.00434882
0.710231 0.535271 0.00531014
0.756588 0.536797 0.00671397
0.800595 0.538903 0.00862135
0.841733 0.541711 0.0111543
0.879896 0.545205 0.0145571
0.915022 0.549447 0.0183719
0.947662 0.554284 0.0222629
0.978195 0.559533 0.0271305
1 0.565209 0.0320287
1 0.571176 0.0373388
1 0.57734 0.0424353
1 0.583719 0.0477913
1 0.589975 0.0528267
1 0.596078 0.0580758
1 0.60206 0.0630198
1 0.607721 0.0679637
0.00840772 0.522774 0.0188144
0.0432288 0.529076 0.0231479
0.0783398 0.535195 0.027039
0.11133 0.541741 0.0313115
0.142977 0.54844 0.0360113
0.174823 0.55491 0.0403449
0.208286 0.560815 0.0434882
0.242863 0.566583 0.043183
0.279591 0.571908 0.0389258
0.317769 0.577462 0.0262303
0.360418 0.582086 0.00918593
0.409949 0.583642 0.00225834
0.461814 0.58381 0.00202945
0.512963 0.584115 0.00230411
0.562829 0.58471 0.00283818
0.612818 0.585245 0.00329595
0.66215 0.58587 0.00387579
0.710216 0.58677 0.00469978
0.756481 0.588052 0.00588998
0.800244 0.589929 0.00759899
0.841123 0.592447 0.00987259
0.878828 0.595697 0.0127871
0.913603 0.599619 0.0162814
0.946166 0.603983 0.0200504
0.976181 0.608881 0.0243839
1 0.614099 0.0290074
1 0.619623 0.033875
1 0.625254 0.0386816
1 0.631128 0.0436408
1 0.636851 0.0481575
1 0.642374 0.0529335
1 0.647745 0.057496
1 0.652857 0.0618753
0.0164187 0.57644 0.0256657
0.0507515 0.58233 0.029633
0.0856031 0.587945 0.0328985
0.117876 0.594049 0.0369573
0.148821 0.600366 0.041062
0.180362 0.606271 0.045182
0.213535 0.611658 0.048249
0.248524 0.616724 0.0490272
0.285359 0.621637 0.0460212
0.324208 0.626505 0.0375525
0.364843 0.631754 0.0196689
0.411048 0.634958 0.00537118
0.461784 0.635691 0.00128176
0.512764 0.635843 0.00141909
0.562448 0.636271 0.00178531
0.612238 0.636576 0.00204471
0.661326 0.636942 0.00239567
0.709133 0.637552 0.00297551
0.755108 0.638514 0.00386053
0.798581 0.640009 0.0052491
0.839124 0.642145 0.007187
0.876616 0.644938 0.00985733
0.911269 0.648325 0.0129854
0.943084 0.652308 0.0165408
0.9729 0.656672 0.0200351
1 0.661357 0.0244297
1 0.666316 0.0287327
1 0.671382 0.0333257
1 0.676692 0.0378119
1 0.681727 0.0421607
1 0.686732 0.0461738
1 0.691447 0.0503243
1 0.695964 0.0541238
0.0231479 0.628443 0.0314183
0.0568399 0.633921 0.0348211
0.0915084 0.638941 0.0378576
0.123171 0.644694 0.0415656
0.153872 0.650706 0.0455482
0.185367 0.656474 0.049546
0.218662 0.661753 0.0527962
0.254002 0.666575 0.0543221
0.29131 0.671107 0.0525063
0.330739 0.675349 0.0467231
0.371206 0.680064 0.0325322
0.414191 0.684428 0.0133669
0.462379 0.68629 0.00265507
0.512642 0.686503 0.00062562
0.562036 0.686625 0.000717174
0.611505 0.686595 0.000686656
0.660258 0.68661 0.000717174
0.707698 0.686824 0.000915541
0.753307 0.687358 0.00143435
0.796399 0.688396 0.00241093
0.836576 0.690044 0.00392157
0.873533 0.692363 0.00602731
0.907729 0.695232 0.00860609
0.939284 0.698619 0.0116426
0.968566 0.702388 0.0151827
0.995743 0.706554 0.0186465
1 0.710918 0.0225528
1 0.715312 0.0267033
1 0.720043 0.0308232
1 0.724422 0.0348516
1 0.728786 0.0384985
1 0.732937 0.041886
1 0.736736 0.045304
0.0293736 0.678569 0.0368353
0.0629129 0.683803 0.0401007
0.0974441 0.688762 0.0430915
0.129107 0.694469 0.0467536
0.159762 0.700404 0.0508736
0.19118 0.706065 0.0545815
0.224338 0.711208 0.057908
0.260197 0.715587 0.0599527
0.297581 0.719707 0.0589761
0.337133 0.723461 0.0542306
0.378134 0.72723 0.0439918
0.419425 0.731655 0.0250858
0.464332 0.734661 0.00790417
0.512734 0.73547 0.000640879
0.561578 0.735317 0
0.610636 0.734859 0
0.658946 0.734417 0
0.706035 0.734127 0
0.751125 0.734173 0
0.793759 0.734676 0
0.833494 0.735759 0.00015259
0.870008 0.737499 0.00177005
0.903761 0.739788 0.00386053
0.934874 0.74258 0.00639353
0.96379 0.745708 0.00949111
0.9906 0.749218 0.0126955
1 0.753033 0.0157626
1 0.756802 0.019501
1 0.760845 0.0231937
1 0.76466 0.0265965
1 0.768261 0.030045
1 0.77174 0.0330968
1 0.774945 0.035874
0.0368505 0.727733 0.0433661
0.0705272 0.732799 0.0467231
0.105058 0.737621 0.0495155
0.136339 0.743236 0.053254
0.166949 0.748928 0.0571756
0.198337 0.754314 0.0608377
0.231373 0.759152 0.0639811
0.266896 0.76321 0.066041
0.304707 0.766705 0.0657969
0.344335 0.769879 0.061738
0.385611 0.772793 0.0538186
0.426581 0.776425 0.0380407
0.468605 0.780087 0.0172122
0.514168 0.781704 0.00404364
0.561624 0.781674 0
0.610132 0.780743 0
0.657938 0.779782 0
0.704631 0.778897 0
0.749096 0.778424 0
0.791241 0.778347 0
0.830488 0.778866 0
0.866728 0.779965 0
0.899809 0.781689 0
0.930449 0.783856 0.00115969
0.958907 0.786374 0.00347906
0.985229 0.789227 0.00637827
1 0.792325 0.00921645
1 0.795514 0.012192
1 0.798886 0.015198
1 0.802045 0.0181888
1 0.805097 0.0210269
1 0.807965 0.0236667
1 0.810513 0.0262608
0.0461891 0.775601 0.051606
0.0799115 0.780392 0.0548104
0.114229 0.784985 0.0574044
0.145342 0.790265 0.0610666
0.17554 0.795697 0.0647288
0.206607 0.800748 0.0682231
0.239475 0.805158 0.0709697
0.274968 0.808713 0.0729992
0.312703 0.811612 0.0729839
0.352132 0.814191 0.0694591
0.393271 0.816403 0.0624399
0.434379 0.818998 0.0497444
0.474769 0.822339 0.0296941
0.51751 0.824613 0.011017
0.562768 0.82501 0.00122072
0.610178 0.823896 0
0.657481 0.822354 0
0.703624 0.82092 0
0.747539 0.819852 0
0.789136 0.819211 0
0.827863 0.819104 0
0.863584 0.819577 0
0.896345 0.82063 0
0.926482 0.822156 0
0.954238 0.824094 0
0.980056 0.826322 0.0000762951
1 0.828824 0.00242618
1 0.831342 0.00505074
1 0.834058 0.00761425
1 0.836759 0.0101625
1 0.839261 0.0125582
1 0.84155 0.0146029
1 0.843641 0.0166476
0.0575723 0.821546 0.0616617
0.0912184 0.825986 0.0643473
0.125429 0.830137 0.0668345
0.155688 0.835218 0.0701915
0.185702 0.840162 0.0737011
0.216358 0.844785 0.0766461
0.248692 0.848783 0.079057
0.283879 0.851789 0.0806897
0.321355 0.854078 0.0806592
0.360723 0.855909 0.0775311
0.40148 0.857466 0.0707408
0.442649 0.859083 0.0601816
0.482246 0.861677 0.0421912
0.522499 0.864179 0.0209506
0.565545 0.864927 0.00628672
0.6112 0.863951 0
0.657862 0.861921 0
0.703395 0.859907 0
0.746517 0.858335 0
0.787549 0.857069 0
0.825681 0.856336 0
0.860868 0.856184 0
0.893095 0.856611 0
0.922713 0.857527 0
0.949996 0.858869 0
0.975357 0.860548 0
0.999176 0.862409 0
1 0.864439 0
1 0.86656 0.000579843
1 0.868849 0.00276188
1 0.870863 0.00468452
1 0.872724 0.00646983
1 0.874281 0.00825513
0.0704509 0.865309 0.0729381
0.104417 0.869154 0.0750591
0.137758 0.872984 0.0773175
0.167346 0.877653 0.0803693
0.196765 0.882155 0.0833906
0.227085 0.886213 0.0860151
0.259007 0.889647 0.0879072
0.293584 0.892149 0.0888838
0.330922 0.893736 0.0887312
0.370077 0.894835 0.0858015
0.410086 0.895842 0.0791791
0.450904 0.896651 0.0696422
0.490593 0.898177 0.0539406
0.529335 0.900313 0.0327153
0.569833 0.901427 0.0138094
0.613352 0.900664 0.00201419
0.658793 0.898466 0
0.703517 0.895903 0
0.746334 0.893614 0
0.786648 0.891798 0
0.824292 0.890486 0
0.858824 0.889799 0
0.890578 0.889662 0
0.919722 0.890059 0
0.946731 0.890822 0
0.971481 0.892042 0
0.994797 0.893462 0
1 0.894987 0
1 0.89659 0
1 0.898451 0
1 0.900023 0
1 0.901457 0
1 0.902678 0.000534066
0.0844434 0.90663 0.085008
0.119142 0.909667 0.0862593
0.150607 0.913359 0.088304
0.179721 0.917449 0.0910658
0.20853 0.921431 0.0935683
0.238376 0.92491 0.0957504
0.269871 0.927764 0.0970626
0.303838 0.929717 0.0975662
0.340505 0.930755 0.0968643
0.379324 0.931136 0.0939498
0.419043 0.93138 0.0875868
0.459464 0.931456 0.0783246
0.498634 0.932113 0.0644083
0.536675 0.933486 0.0442359
0.574853 0.934691 0.0228885
0.616556 0.934051 0.00714122
0.660197 0.931899 0
0.704128 0.928939 0
0.746441 0.926085 0
0.78613 0.923781 0
0.823362 0.92192 0
0.857389 0.920729 0
0.888685 0.920119 0
0.917403 0.920027 0
0.943999 0.920333 0
0.968536 0.92105 0
0.991455 0.922026 0
1 0.923201 0
1 0.924453 0
1 0.925872 0
1 0.927062 0
1 0.928069 0
1 0.928878 0
0.0988327 0.945418 0.0970932
0.133791 0.947677 0.0977646
0.163882 0.951034 0.0995651
0.192187 0.95465 0.101701
0.220569 0.958007 0.103822
0.249668 0.960983 0.105303
0.280583 0.963241 0.10605
0.31397 0.964614 0.105974
0.350072 0.965042 0.104814
0.388434 0.964736 0.101717
0.427848 0.964202 0.0953994
0.467369 0.963684 0.0861677
0.506539 0.963394 0.0734264
0.543832 0.964019 0.0548104
0.580652 0.96492 0.0326848
0.62005 0.964569 0.0132448
0.662211 0.962463 0.000976577
0.705196 0.959304 0
0.746761 0.956069 0
0.78613 0.953231 0
0.822858 0.950912 0
0.856474 0.949279 0
0.887175 0.948302 0
0.915618 0.947738 0
0.941741 0.947662 0
0.965896 0.947967 0
0.988464 0.948562 0
1 0.94934 0
1 0.95021 0
1 0.951125 0
1 0.95201 0
1 0.952697 0
1 0.953201 0
0.113695 0.981491 0.109102
0.147738 0.983276 0.109102
0.176944 0.986145 0.110445
0.2047 0.989151 0.112215
0.232258 0.992004 0.113619
0.260761 0.994385 0.114519
0.291066 0.996033 0.114656
0.323873 0.99678 0.114031
0.359472 0.996567 0.112261
0.397253 0.995636 0.108934
0.436088 0.994461 0.102724
0.475166 0.993317 0.09337
0.513787 0.99234 0.0814069
0.550988 0.992142 0.0641337
0.586603 0.992676 0.0423133
0.624201 0.992416 0.0204929
0.664881 0.990402 0.00509651
0.706538 0.987305 0
0.747631 0.983688 0
0.786465 0.980453 0
0.822538 0.977798 0
0.855879 0.975738 0
0.886381 0.974273 0
0.914458 0.973342 0
0.940032 0.972946 0
0.963851 0.972885 0
0.986099 0.973114 0
1 0.973526 0
1 0.974014 0
1 0.97467 0
1 0.975265 0
1 0.975662 0
1 0.975906 0
0.128664 1 0.120043
0.161105 1 0.119799
0.189364 1 0.120638
0.216403 1 0.121828
0.24332 1 0.122591
0.271199 1 0.122835
0.300908 1 0.122408
0.333211 1 0.121172
0.368124 1 0.119005
0.405447 1 0.11548
0.443992 1 0.109285
0.482185 1 0.0999466
0.52076 1 0.0883803
0.557427 1 0.0723583
0.592599 1 0.0514839
0.628824 1 0.0283055
0.667704 1 0.00985733
0.70837 1 0
0.748486 1 0
0.786984 1 0
0.822568 1 0
0.855543 1 0
0.885679 0.998459 0
0.913405 0.997177 0
0.938674 0.996429 0
0.962188 0.996017 0
0.984146 0.995926 0
1 0.996048 0
1 0.996277 0
1 0.996658 0
1 0.99704 0
1 0.997208 0
1 0.997238 0
0.142397 1 0.129809
0.173205 1 0.129259
0.200534 1 0.12961
0.226886 1 0.130114
0.25333 1 0.130556
0.280644 1 0.130388
0.309819 1 0.129503
0.341619 1 0.127764
0.375952 1 0.12517
