site/assets/luts/freshluts--0000696-vfb21.cube
# LUTr-Schema-Version: 2
# LUTr-ID: freshluts--0000696-vfb21
# LUTr-Title: VFB21
# LUTr-Collection: Fresh LUTs
# LUTr-Collection-ID: freshluts-community
# LUTr-Source: https://freshluts.com
# LUTr-Retrieved: 2026-07-27
# LUTr-Source-File: submissions-raw/freshluts/cubes/696__VFB21.cube
# LUTr-Source-Format: CUBE
# LUTr-Source-SHA256: aad136bfd422a47cabc7229a6329761a539a9072ffd760d41ad4d4a99db67f90
# LUTr-License: CC0-1.0
# LUTr-License-URL: https://freshluts.com/termsandconditions
# LUTr-License-Basis: site-terms
# LUTr-Transform-Class: creative-look
# LUTr-Tags: creative, freshluts, community, cube, vintage, blue, low-key, canon-cinestyle
# LUTr-Input-Color-Space:
# LUTr-Input-Gamut: rec709
# LUTr-Input-Transfer: canon-cinestyle
# LUTr-Output-Color-Space: srgb
# LUTr-Output-Gamut: rec709
# LUTr-Output-Transfer: srgb
# LUTr-Color-Space-Confidence: camera-profile-input-required
# LUTr-Domain-Normalized: true
# LUTr-Shaper: none
# LUTr-Original-Grid: 16x16x16
# LUTr-Conversion-Grid: 16x16x16
# LUTr-Conversion-Interpolation: none
# LUTr-Conversion-Method: Metadata normalization; numeric LUT samples preserved
# LUTr-Conversion-Tool: LUTr scripts/convert-all-to-cube.mjs 2.0.0
# LUTr-Conversion-Date: 2026-07-28
# LUTr-Asset-URL: https://freshluts.com/luts/696
# LUTr-Author: InAvision
# LUTr-Author-URL: https://freshluts.com/users/64078
# LUTr-Attribution: InAvision via Fresh LUTs
# LUTr-Source-Labels: gamma=Canon Cinestyle; color=Blue; key=Low Key; style=Vintage
# LUTr-Note: Preserve this metadata and the upstream license notices when redistributing.
TITLE "VFB21"
LUT_3D_SIZE 6
DOMAIN_MIN 0 0 0
DOMAIN_MAX 1 1 1
-0.02006 -0.020784 0.010505
0.176843 -0.017296 0.005066
0.448742 -0.033483 -0.000235
0.591224 -0.028956 0
0.689081 -0.029175 0
0.762783 -0.03792 0
-0.011304 0.138178 0.03747
0.084661 0.145808 0.016284
0.324661 0.189143 -0.00066
0.593013 0.21186 0
0.730406 0.225224 0
0.831547 0.2488 0
-0.000194 0.294074 0.077912
0.025845 0.310445 0.041109
0.284329 0.36224 -0.002124
0.58231 0.416495 0
0.787501 0.444963 0
0.922412 0.462863 0
0 0.427557 0.130896
-0.020229 0.448683 0.08789
0.246698 0.504516 -0.016153
0.566556 0.568249 0
0.817528 0.614319 0
0.958873 0.633765 0
0 0.533314 0.219634
-0.000544 0.565625 0.186086
0.184333 0.628879 0.118769
0.553095 0.706589 -0.018892
0.831563 0.754771 0
0.970323 0.772206 0
-0.026843 0.647925 0.333021
-0.113193 0.682878 0.316289
-0.168836 0.745675 0.280313
0.515669 0.824311 0.195235
0.813381 0.872666 0.07307
0.975515 0.897249 0
0.034974 -0.247313 0.150407
0.368359 -0.258782 -0.047644
0.555171 -0.280603 -0.09347
0.668829 -0.305628 -0.098661
0.724062 -0.321125 -0.088899
0.784016 -0.326891 -0.076718
-0.007943 0.150827 0.217043
0.096525 0.160093 0.180162
0.370928 0.190734 0.151385
0.626811 0.200892 0.110429
0.771482 0.21066 0.069372
0.858536 0.233542 0.030146
0 0.322868 0.268282
-0.055066 0.338994 0.2321
0.320601 0.387015 0.195557
0.622686 0.431736 0.143096
0.815611 0.454592 0.083198
0.943439 0.470331 -0.006809
0 0.464557 0.31376
-0.009119 0.491043 0.293458
0.248437 0.544934 0.250889
0.58649 0.598282 0.194648
0.83457 0.638183 0.127957
0.98008 0.65617 0.042364
0 0.574781 0.371406
0 0.609661 0.353311
0.150483 0.675382 0.326106
0.556945 0.743838 0.277779
0.835996 0.781768 0.218583
0.980588 0.79807 0.164804
-0.086325 0.684333 0.455154
-0.190888 0.718684 0.441323
-0.223912 0.783179 0.422316
0.500962 0.858567 0.369051
0.822886 0.906977 0.327493
0.976117 0.925983 0.292003
0.333413 -0.262967 0.379001
0.679703 -0.274438 0.373886
0.641583 -0.296573 0.299932
0.724689 -0.319158 0.286763
0.768556 -0.333377 0.276338
0.826839 -0.338019 0.271722
-0.022057 0.158151 0.408314
0.141917 0.172311 0.394506
0.424371 0.191753 0.379424
0.661245 0.191611 0.362214
0.811707 0.194571 0.344332
0.886541 0.214879 0.327641
0 0.353484 0.467361
-0.066552 0.375691 0.453118
0.382513 0.421365 0.436591
0.670162 0.446982 0.408295
0.841278 0.460018 0.380828
0.962725 0.475292 0.358169
0 0.507312 0.509336
-0.00843 0.537108 0.504359
0.276286 0.592999 0.486123
0.611277 0.635939 0.453166
0.848065 0.665597 0.422563
0.997453 0.679097 0.395307
0 0.6263 0.551083
0 0.663329 0.548699
0.14925 0.731403 0.545104
0.561922 0.781976 0.502795
0.837168 0.811519 0.470677
0.98767 0.825559 0.44112
-0.187042 0.731144 0.604183
-0.259644 0.766669 0.603416
-0.266196 0.834962 0.60615
0.483389 0.90339 0.578368
0.824222 0.946878 0.544833
0.975545 0.959381 0.51319
0.612911 -0.278742 0.527177
0.76463 -0.290172 0.527993
0.807615 -0.312471 0.489812
0.76225 -0.331948 0.459924
0.798564 -0.344807 0.459083
0.842363 -0.34926 0.462618
0.077712 0.148648 0.555614
0.269892 0.162553 0.56028
0.503992 0.168221 0.553995
0.695962 0.164576 0.551827
0.827853 0.1699 0.546541
0.902231 0.194431 0.539897
-0.008311 0.380532 0.627886
0.117705 0.403264 0.628099
0.442129 0.427032 0.626422
0.718289 0.445628 0.618366
0.863494 0.452651 0.603127
0.971502 0.463497 0.587867
0 0.551515 0.67257
-0.036068 0.579794 0.671169
0.369285 0.631291 0.672566
0.659118 0.660702 0.658044
0.862749 0.673464 0.63833
1.006402 0.682608 0.619396
0 0.6777 0.707288
-0.000804 0.712812 0.707739
0.257777 0.771459 0.711194
0.591322 0.809819 0.692877
0.844368 0.832747 0.67256
0.995665 0.843708 0.652358
-0.254 0.780991 0.754867
-0.285183 0.81666 0.757197
-0.242261 0.883957 0.763584
0.511042 0.93721 0.746672
0.822472 0.974827 0.721758
0.980398 0.987814 0.700059
0.757152 -0.294105 0.597055
0.823626 -0.306395 0.591165
0.858168 -0.327119 0.578126
0.815186 -0.34273 0.546574
0.827558 -0.353441 0.572864
0.848691 -0.357511 0.587841
0.266543 0.121252 0.653432
0.415408 0.12183 0.662898
0.613027 0.109148 0.669483
0.737649 0.103437 0.675544
0.841867 0.115566 0.682019
0.913826 0.149931 0.684324
0.080669 0.393341 0.733981
0.309045 0.406172 0.749962
0.535617 0.419182 0.756831
0.748721 0.43151 0.758579
0.8917 0.440241 0.760463
0.979181 0.452235 0.755781
-0.002894 0.588936 0.781866
0.126175 0.620161 0.796025
0.452221 0.648809 0.807599
0.739259 0.66947 0.810185
0.885199 0.674757 0.8038
1.009201 0.681067 0.796735
0 0.722903 0.811039
-0.046801 0.754645 0.822773
0.371804 0.798052 0.835388
0.657023 0.828729 0.837315
0.862127 0.844536 0.831524
1.006745 0.853151 0.823169
-0.287871 0.825283 0.845314
-0.303283 0.86299 0.858815
0.201037 0.922856 0.877307
0.568904 0.964913 0.879191
0.833644 0.995259 0.871489
0.991002 1.006898 0.862181
0.826633 -0.310851 0.634765
0.849905 -0.322284 0.632365
0.866778 -0.336689 0.628842
0.864083 -0.349565 0.622548
0.826984 -0.357299 0.609564
0.847274 -0.361275 0.63397
0.451752 -0.036279 0.723172
0.56915 -0.061377 0.728379
0.669038 -0.06973 0.727965
0.78809 -0.072933 0.736333
0.855272 -0.061942 0.741028
0.923246 0.076638 0.748271
0.348013 0.383557 0.825205
0.467676 0.391253 0.828717
0.658888 0.403163 0.834067
0.791391 0.409249 0.830157
0.923164 0.418356 0.833462
0.98752 0.43109 0.830832
0.168591 0.624972 0.878087
0.368268 0.639783 0.887445
0.563971 0.648567 0.891157
0.783644 0.661551 0.890791
0.918164 0.66689 0.884837
1.01627 0.672015 0.877798
-0.034252 0.767157 0.905432
0.259783 0.794898 0.916597
0.483611 0.814916 0.92036
0.757351 0.840047 0.923294
0.892957 0.845034 0.915042
1.025529 0.852958 0.907785
0 0.848848 0.921634
0.12878 0.880997 0.931851
0.417148 0.912492 0.937512
0.682139 0.948156 0.940848
0.861739 0.966636 0.935677
1.002299 0.978692 0.928227
