site/assets/luts/freshluts--0000123-toastedgarden.cube
# LUTr-Schema-Version: 2
# LUTr-ID: freshluts--0000123-toastedgarden
# LUTr-Title: ToastedGarden
# LUTr-Collection: Fresh LUTs
# LUTr-Collection-ID: freshluts-community
# LUTr-Source: https://freshluts.com
# LUTr-Retrieved: 2026-07-27
# LUTr-Source-File: submissions-raw/freshluts/cubes/123__ToastedGarden.cube
# LUTr-Source-Format: CUBE
# LUTr-Source-SHA256: dc2bb9ec4f0eb2df7b2bbb67680d280a8cce4d689e522c9613814a0f4f633560
# LUTr-License: CC0-1.0
# LUTr-License-URL: https://freshluts.com/termsandconditions
# LUTr-License-Basis: site-terms
# LUTr-Transform-Class: creative-look
# LUTr-Tags: creative, freshluts, community, cube, brown, canon-cinestyle
# LUTr-Input-Color-Space:
# LUTr-Input-Gamut: rec709
# LUTr-Input-Transfer: canon-cinestyle
# LUTr-Output-Color-Space: srgb
# LUTr-Output-Gamut: rec709
# LUTr-Output-Transfer: srgb
# LUTr-Color-Space-Confidence: camera-profile-input-required
# LUTr-Domain-Normalized: true
# LUTr-Shaper: none
# LUTr-Original-Grid: 33x33x33
# LUTr-Conversion-Grid: 33x33x33
# LUTr-Conversion-Interpolation: none
# LUTr-Conversion-Method: Metadata normalization; numeric LUT samples preserved
# LUTr-Conversion-Tool: LUTr scripts/convert-all-to-cube.mjs 2.0.0
# LUTr-Conversion-Date: 2026-07-28
# LUTr-Asset-URL: https://freshluts.com/luts/123
# LUTr-Author: J. T. Semple
# LUTr-Author-URL: https://freshluts.com/users/120
# LUTr-Attribution: J. T. Semple via Fresh LUTs
# LUTr-Source-Labels: gamma=Canon Cinestyle; color=Brown; key=Neutral; style=Hipster
# LUTr-Note: Preserve this metadata and the upstream license notices when redistributing.
TITLE "ToastedGarden"
LUT_3D_SIZE 33
DOMAIN_MIN 0 0 0
DOMAIN_MAX 1 1 1
0 0 0
0 0 0
0 0 0
0 0 0
0 0 0
0 0 0
0 0 0
0 0 0
0 0 0
0 0 0
0.0232547 0 0
0.0496071 0 0
0.0773175 0 0
0.107027 0 0
0.139712 0 0
0.174914 0 0
0.213031 0 0
0.253605 0 0
0.295705 0 0
0.338262 0 0
0.380682 0 0
0.421607 0 0
0.462593 0 0
0.503182 0 0
0.542885 0 0
0.581262 0 0
0.618341 0 0
0.652873 0 0
0.685267 0 0
0.715251 0 0
0.743572 0 0
0.770397 0 0
0.795331 0 0
0 0 0
0 0 0
0 0 0
0 0 0
0 0 0
0 0 0
0 0 0
0 0 0
0 0 0
0.00588998 0 0
0.0314336 0 0
0.0580301 0 0
0.0861372 0 0
0.116625 0 0
0.149722 0 0
0.185443 0 0
0.224308 0 0
0.265309 0 0
0.307927 0 0
0.350545 0 0
0.392248 0 0
0.433112 0 0
0.474037 0 0
0.514275 0 0
0.554086 0 0
0.591775 0 0
0.628412 0 0
0.662593 0 0
0.694575 0 0
0.724361 0 0
0.752392 0 0
0.778393 0 0
0.802976 0 0
0 0 0
0 0 0
0 0 0
0 0 0
0 0 0
0 0 0
0 0 0
0 0 0
0 0 0
0.013901 0 0
0.0397803 0 0
0.0666056 0 0
0.0952926 0 0
0.12604 0 0
0.159594 0 0
0.196124 0 0
0.23537 0 0
0.277226 0 0
0.319615 0 0
0.36199 0 0
0.403403 0 0
0.444282 0 0
0.484825 0 0
0.525628 0 0
0.564996 0 0
0.602731 0 0
0.638636 0 0
0.672236 0 0
0.703624 0 0
0.733227 0 0
0.760525 0 0
0.786236 0 0
0.810666 0 0
0 0 0
0 0 0
0 0 0
0 0 0
0 0 0
0 0 0
0 0 0
0 0 0
0 0 0
0.0218967 0 0
0.0480659 0 0
0.0753185 0 0
0.104219 0 0
0.135546 0 0
0.169726 0 0
0.206897 0 0
0.24712 0 0
0.288792 0 0
0.331273 0 0
0.373342 0 0
0.414664 0 0
0.45594 0 0
0.496941 0 0
0.536965 0 0
0.575799 0 0
0.613077 0 0
0.648386 0 0
0.68188 0 0
0.712947 0 0
0.741894 0 0
0.768933 0 0
0.794522 0 0
0.818967 0 0
0 0 0
0 0 0
0 0 0
0 0 0
0 0 0
0 0 0
0 0 0
0 0 0
0.00427253 0 0
0.0301823 0 0
0.0564431 0 0
0.0839246 0 0
0.113237 0 0
0.145174 0 0
0.180102 0 0
0.217807 0 0
0.25835 0 0
0.300435 0 0
0.343069 0 0
0.385199 0 0
0.426368 0 0
0.467491 0 0
0.508095 0 0
0.547723 0 0
0.586328 0 0
0.623468 0 0
0.658686 0 0
0.691676 0 0
0.722423 0 0
0.751186 0 0
0.778149 0 0
0.80383 0 0
0.828687 0 0
0 0 0
0 0 0
0 0 0
0 0 0
0 0 0
0 0 0
0 0 0
0 0 0
0.0124666 0 0
0.0382086 0 0
0.0646982 0 0
0.0925917 0 0
0.122072 0 0
0.15491 0 0
0.190814 0 0
0.229145 0 0
0.270115 0 0
0.312245 0 0
0.354665 0 0
0.396841 0 0
0.43772 0 0
0.478676 0 0
0.519234 0 0
0.558938 0 0
0.597559 0 0
0.634607 0 0
0.66952 0 0
0.702281 0 0
0.732921 0 0
0.761791 0 0
0.789075 0 0
0.815 0 0
0.839979 0 0
0 0 0
0 0 0
0 0 0
0 0 0
0 0.000656138 0
0 0.00163272 0
0 0.00283818 0
0 0.00393683 0
0.0204166 0.00494392 0
0.0463417 0.00563058 0
0.073518 0.00639353 0
0.101839 0.00682078 0
0.13254 0.0068513 0
0.165713 0.00588998 0
0.201816 0.00411994 0
0.240314 0.00177005 0
0.281422 0 0
0.323812 0 0
0.366735 0 0
0.408423 0 0
0.449424 0 0
0.490517 0 0
0.531182 0 0
0.571084 0 0
0.609842 0 0
0.646601 0 0
0.681285 0 0
0.714031 0 0
0.744823 0 0
0.773999 0 0
0.801587 0 0
0.828016 0 0
0.853513 0 0
0 0.0231327 0
0 0.0238193 0
0 0.0246891 0
0 0.0256046 0
0 0.026566 0
0 0.0274052 0
0 0.0287633 0
0.00283818 0.0298619 0
0.0285496 0.0309453 0
0.054551 0.0319066 0
0.0815442 0.0325475 0
0.110643 0.0329137 0
0.141588 0.0325017 0
0.175326 0.0313878 0
0.212177 0.0294804 0
0.251789 0.0268864 0
0.293538 0.0238193 0
0.336568 0.0207828 0
0.379339 0.0176242 0
0.421118 0.014847 0
0.462318 0.0123751 0
0.503716 0.00999466 0
0.545144 0.0081178 0
0.585046 0.0065156 0
0.623636 0.00547799 0
0.660548 0.00509651 0
0.695552 0.00547799 0
0.728405 0.00679026 0
0.759808 0.00898756 0
0.789242 0.0116579 0
0.817044 0.0150912 0
0.844068 0.018967 0
0.87013 0.0234073 0
0 0.0491493 0
0 0.049836 0
0 0.0504921 0
0 0.0515297 0
0 0.0527962 0
0 0.0538186 0
0 0.0549325 0
0.0108949 0.0559091 0
0.0363775 0.0569467 0
0.0628672 0.0579232 0
0.0903182 0.0585336 0
0.119554 0.0586557 0
0.151232 0.0581826 0
0.185885 0.0570077 0
0.223255 0.0552224 0
0.26424 0.0528725 0
0.306493 0.0500191 0
0.34963 0.0470741 0
0.392447 0.0444038 0
0.434409 0.0420996 0
0.476356 0.0400092 0
0.518669 0.0383917 0
0.559625 0.0370794 0
0.599939 0.0361639 0
0.638865 0.0358892 0
0.67599 0.0363775 0
0.711208 0.037705 0
0.74464 0.0401007 0
0.776165 0.0429084 0
0.805783 0.0465248 0
0.834119 0.0507515 0
0.861616 0.0554971 0
0.888594 0.0608377 0
0 0.0751965 0
0 0.0759442 0
0 0.076936 0
0 0.0779736 0
0 0.0789349 0
0 0.0799268 0
0 0.0810101 0
0.0183719 0.0820325 0
0.04448 0.0831922 0
0.0707866 0.0842603 0
0.0986191 0.0849165 0
0.128557 0.0851148 0
0.161105 0.0847334 0
0.196689 0.0836957 0
0.235584 0.0822156 0
0.276951 0.0800031 0
0.319783 0.0775769 0
0.363455 0.0751049 0
0.406607 0.0729992 0
0.448905 0.0713817 0
0.491875 0.0702525 0
0.534096 0.0692302 0
0.575616 0.0686656 0
0.616266 0.0686198 0
0.655467 0.0692454 0
0.693233 0.0709697 0
0.728573 0.073167 0
0.76202 0.0761883 0
0.793667 0.0799878 0
0.823819 0.0844434 0
0.852491 0.0896162 0
0.880858 0.095613 0
0.908446 0.101595 0
0 0.101656 0
0 0.102464 0
0 0.103487 0
0 0.104448 0
0 0.105486 0
0 0.106584 0
0 0.107759 0
0.025391 0.109239 0
0.0513924 0.110521 0
0.078294 0.111696 0
0.106569 0.112657 0
0.137484 0.113054 0
0.171328 0.113054 0
0.20795 0.112459 0
0.247669 0.111147 0
0.289906 0.109377 0
0.333501 0.10753 0
0.377768 0.105776 0
0.42182 0.104662 0
0.464652 0.103944 0
0.507774 0.103365 0
0.550576 0.103151 0
0.592477 0.103456 0
0.633402 0.104311 0
0.673259 0.106188 0
0.710735 0.108598 0
0.74612 0.111833 0
0.779965 0.115724 0
0.811658 0.1205 0
0.842069 0.125826 0
0.871656 0.132128 0
0.899962 0.13846 0
0.927703 0.145037 0
0 0.129 0
0 0.129809 0
0 0.130816 0
0 0.131914 0
0 0.133181 0
0 0.134798 0
0.00474556 0.136416 0
0.0307774 0.138033 0
0.0573739 0.139635 0
0.0848859 0.141192 0
0.114061 0.142519 0
0.145998 0.143526 0
0.180896 0.143984 0
0.218677 0.143786 0
0.259541 0.143053 0
0.3028 0.141939 0
0.347417 0.14078 0
0.392386 0.140108 0
0.436545 0.139773 0
0.480079 0.139773 0
0.523491 0.140078 0
0.566735 0.140749 0
0.608988 0.141985 0
0.650858 0.144091 0
0.690394 0.146624 0
0.727993 0.14995 0
0.763668 0.153994 0
0.797238 0.158831 0
0.829694 0.164569 0
0.860014 0.170642 0
0.889235 0.17705 0
0.917678 0.18378 0
0.945678 0.190707 0
0 0.157488 0
0 0.158541 0
0 0.159884 0
0 0.161379 0
0 0.163043 0
0 0.16524 0
0.00860609 0.167147 0
0.0350347 0.169284 0
0.0622416 0.171435 0
0.0903792 0.173617 0
0.121035 0.175799 0
0.154116 0.177218 0
0.190158 0.178134 0
0.229221 0.178561 0
0.271382 0.178454 0
0.315892 0.178195 0
0.361318 0.178058 0
0.406683 0.177981 0
0.450858 0.178531 0
0.495018 0.17937 0
0.538964 0.18056 0
0.583017 0.1823 0
0.625818 0.184558 0
0.667185 0.187228 0
0.706752 0.19057 0
0.744396 0.194537 0
0.779767 0.199268 0
0.813657 0.204929 0
0.845579 0.210941 0
0.875792 0.217334 0
0.904891 0.224048 0
0.933227 0.231006 0
0.961105 0.238071 0
0 0.188113 0
0 0.189578 0
0 0.191363 0
0 0.193668 0
0 0.195819 0
0 0.198367 0
0.0111086 0.200977 0
0.0382544 0.2038 0
0.0660716 0.20679 0
0.0957961 0.209842 0
0.127169 0.212421 0
0.16141 0.214527 0
0.198871 0.216052 0
0.239353 0.217075 0
0.282856 0.217746 0
0.328267 0.218418 0
0.37438 0.21886 0
0.420005 0.219715 0
0.46479 0.221073 0
0.509499 0.222705 0
0.554147 0.224857 0
0.598169 0.227344 0
0.640726 0.230106 0
0.682155 0.23328 0
0.721523 0.237156 0
0.758862 0.241642 0
0.794339 0.247242 0
0.827756 0.252857 0
0.859098 0.259037 0
0.889006 0.265614 0
0.917937 0.272419 0
0.946166 0.279744 0
0.973434 0.287037 0
0 0.221454 0
0 0.223468 0
0 0.226215 0
0 0.22884 0
0 0.2318 0
0 0.23505 0
0.0129702 0.238407 0
0.0406806 0.2421 0
0.0698711 0.246052 0
0.100237 0.249561 0
0.13286 0.252781 0
0.16846 0.255528 0
0.207401 0.257664 0
0.249653 0.259739 0
0.294057 0.261051 0
0.34023 0.262135 0
0.386969 0.26331 0
0.433143 0.264851 0
0.478141 0.267002 0
0.5234 0.26952 0
0.56817 0.27187 0
0.611856 0.274647 0
0.65449 0.27779 0
0.695506 0.281376 0
0.734676 0.285725 0
0.771832 0.290715 0
0.806546 0.29604 0
0.839414 0.301808 0
0.870497 0.307973 0
0.899855 0.314549 0
0.928435 0.321538 0
0.956313 0.328496 0
0.983032 0.335439 0
0 0.258167 0
0 0.260899 0
0 0.264073 0
0 0.267491 0
0 0.271183 0
0 0.275166 0
0.0151369 0.279744 0
0.044007 0.284077 0
0.0737163 0.288502 0
0.105531 0.292638 0
0.139498 0.296513 0
0.176471 0.299855 0
0.21709 0.303029 0
0.26041 0.305196 0
0.305791 0.307012 0
0.352682 0.308583 0
0.39971 0.310231 0
0.445884 0.312352 0
0.491554 0.315114 0
0.536599 0.317617 0
0.58114 0.320287 0
0.624842 0.323232 0
0.667033 0.326589 0
0.707973 0.330419 0
0.746746 0.335012 0
0.783108 0.339773 0
0.817151 0.345068 0
0.849531 0.350698 0
0.880003 0.35671 0
0.909209 0.363577 0
0.937331 0.37026 0
0.965057 0.377111 0
0.991897 0.384268 0
0 0.297704 0
0 0.301122 0
0 0.305028 0
0 0.309148 0
0 0.313695 0
0 0.318715 0
0.0189822 0.323705 0
0.0487678 0.328786 0
0.0797742 0.333806 0
0.112642 0.338582 0
0.147936 0.342962 0
0.186603 0.347127 0
0.227863 0.350225 0
0.272084 0.352667 0
0.31841 0.354711 0
0.365515 0.356619 0
0.41326 0.358968 0
0.459358 0.361227 0
0.504463 0.36379 0
0.549493 0.366384 0
0.594018 0.36907 0
0.637263 0.372107 0
0.679744 0.375753 0
0.719676 0.379461 0
0.757504 0.383627 0
0.793393 0.388174 0
0.826902 0.393378 0
0.859022 0.399161 0
0.889632 0.405707 0
0.918654 0.412314 0
0.946746 0.419196 0
0.974121 0.426307 0
1 0.433417 0
0 0.339788 0
0 0.343969 0
0 0.348562 0
0 0.353765 0
0 0.359106 0
0 0.364523 0
0.0254368 0.370169 0
0.0563516 0.375753 0
0.0883345 0.381186 0
0.122545 0.386618 0
0.159014 0.391287 0
0.198322 0.395178 0
0.240436 0.398428 0
0.285557 0.4009 0
0.332113 0.403052 0
0.37995 0.405432 0
0.427283 0.407385 0
0.472908 0.409781 0
0.518074 0.412222 0
0.562936 0.414664 0
0.606836 0.417288 0
0.650172 0.420493 0
0.691371 0.423636 0
0.731121 0.427222 0
0.768566 0.43151 0
0.804089 0.436362 0
0.837674 0.441871 0
0.869718 0.448188 0
0.899947 0.454551 0
0.929015 0.461204 0
0.956985 0.468193 0
0.984222 0.475319 0
1 0.482887 0
0 0.384131 0
0 0.388998 0
0 0.394583 0
0 0.40032 0
0 0.406027 0
0.00448615 0.411948 0
0.035111 0.417945 0
0.0666056 0.42385 0
0.0995956 0.429847 0
0.134401 0.435187 0
0.171359 0.439841 0
0.211582 0.443656 0
0.254353 0.446815 0
0.299626 0.449302 0
0.34699 0.451759 0
0.394156 0.453651 0
0.440848 0.455558 0
0.486107 0.457786 0
0.530694 0.46006 0
0.575509 0.46273 0
0.619364 0.465324 0
0.66186 0.468315 0
0.703105 0.471687 0
0.742504 0.475578 0
0.779721 0.48011 0
0.81532 0.485603 0
0.848417 0.491218 0
0.879881 0.497261 0
0.909819 0.503685 0
0.938628 0.510338 0
0.966674 0.517189 0
0.99379 0.524758 0
1 0.531685 0
0 0.430854 0
0 0.436744 0
0 0.442542 0
0 0.448447 0
0 0.454582 0
0.0145113 0.460731 0
0.0457465 0.467109 0
0.0776226 0.473442 0
0.110887 0.479103 0
0.145968 0.484276 0
0.183749 0.488731 0
0.22414 0.492439 0
0.267659 0.495583 0
0.313405 0.497932 0
0.35996 0.499763 0
0.406729 0.501411 0
0.453162 0.503182 0
0.497963 0.505501 0
0.543145 0.508232 0
0.587823 0.510811 0
0.631342 0.513634 0
0.673884 0.516747 0
0.714687 0.520333 0
0.753811 0.524346 0
0.790997 0.529442 0
0.825971 0.534524 0
0.858778 0.540124 0
0.889738 0.546166 0
0.919326 0.552514 0
0.947829 0.55903 0
0.975464 0.566247 0
1 0.573022 0
1 0.579675 0
0 0.479683 0
0 0.48542 0
0 0.491463 0
0 0.497612 0
0 0.503868 0
0.0251926 0.510231 0
0.0566873 0.516716 0
0.0887312 0.522652 0
0.122011 0.528222 0
0.157549 0.533089 0
0.195727 0.537163 0
0.2365 0.540764 0
0.280262 0.543435 0
0.32575 0.545495 0
0.372686 0.547265 0
0.419577 0.549096 0
0.465766 0.551171 0
0.511315 0.554025 0
0.556054 0.556558 0
0.600473 0.559167 0
0.644038 0.562005 0
0.686122 0.56524 0
0.727214 0.56907 0
0.765866 0.573297 0
0.802304 0.577859 0
0.836469 0.582971 0
0.868986 0.588403 0
0.899458 0.594293 0
0.928893 0.600809 0
0.956939 0.607141 0
0.983917 0.613565 0
1 0.619974 0
1 0.626215 0.000762951
0 0.528756 0
0 0.5346 0
0 0.540658 0
0 0.546853 0
0.00518807 0.553521 0
0.0364691 0.559564 0
0.0677348 0.565515 0
0.0998093 0.57116 0
0.133196 0.576364 0
0.169116 0.581003 0
0.207919 0.585245 0
0.249256 0.58851 0
0.29337 0.591073 0
0.339681 0.593133 0
0.386679 0.595041 0
0.433799 0.597162 0
0.480278 0.599527 0
0.525078 0.602029 0
0.569726 0.604562 0
0.61416 0.60708 0
0.657252 0.609934 0
0.699428 0.613306 0
0.739681 0.616983 0
0.777722 0.62092 0
0.813474 0.625391 0
0.847379 0.630198 0
0.879286 0.635401 0
0.909499 0.641337 0
0.938186 0.647196 0
0.965591 0.653117 0
0.99202 0.659113 0
1 0.664973 0.0000762951
1 0.670665 0.00450141
0 0.5776 0
0 0.583368 0
0 0.589273 0
0 0.595773 0
0.0168917 0.601633 0
0.0477607 0.607431 0
0.0792706 0.613123 0
0.111696 0.618662 0
0.145754 0.623957 0
0.182589 0.628916 0
0.222049 0.632761 0
0.264027 0.635981 0
0.308843 0.638437 0
0.355276 0.640497 0
0.402548 0.642527 0
0.449866 0.644678 0
0.495445 0.64686 0
0.540139 0.649256 0
0.584772 0.651591 0
0.62855 0.654093 0
0.671916 0.657115 0
0.713329 0.660014 0
0.75288 0.66331 0
0.790372 0.666957 0
0.825437 0.671153 0
0.85893 0.675837 0
0.89012 0.680934 0
0.919631 0.68603 0
0.947478 0.691402 0
0.974426 0.696742 0
1 0.702144 0.000167849
1 0.707713 0.0043183
1 0.712856 0.00839246
0 0.62533 0
0 0.630808 0
0 0.636896 0
0 0.642802 0
0.0301366 0.64863 0
0.0614176 0.654566 0
0.0932021 0.660395 0
0.126619 0.666377 0
0.161257 0.671534 0
0.198611 0.675959 0
0.238407 0.679744 0
0.281102 0.68275 0
0.326284 0.6851 0
0.37348 0.687327 0
0.420508 0.689067 0
0.467109 0.690822 0
0.512078 0.692958 0
0.55671 0.695048 0
0.601129 0.69723 0
0.644862 0.699748 0
0.687114 0.702113 0
0.728038 0.704662 0
0.766903 0.707591 0
0.803479 0.710964 0
0.838193 0.714824 0
0.870726 0.719142 0
0.901106 0.723491 0
0.929747 0.728084 0
0.957229 0.732738 0
0.983063 0.737621 0.00117494
1 0.74255 0.00517281
1 0.747356 0.00885023
1 0.751751 0.0124361
0 0.671901 0
0 0.677516 0
0 0.683314 0
0.0146639 0.689387 0
0.0464942 0.695232 0
0.0780804 0.701167 0
0.110689 0.707362 0
0.143999 0.712856 0
0.179294 0.717784 0
0.217197 0.721965 0
0.25742 0.725521 0
0.300587 0.728206 0
0.346319 0.730709 0
0.393011 0.732311 0
0.439887 0.733745 0
0.485786 0.735332 0
0.530373 0.737163 0
0.574517 0.739055 0
0.618753 0.741085 0
0.661524 0.742916 0
0.703258 0.744823 0
0.743313 0.74699 0
0.781384 0.749477 0
0.817487 0.752712 0
0.851286 0.75584 0
0.882765 0.759365 0
0.912276 0.76318 0
0.940215 0.767178 0
0.966964 0.771435 0.00329595
0.992477 0.775891 0.00704967
1 0.780072 0.0103456
1 0.784054 0.0137179
1 0.7879 0.0167391
0 0.717693 0
0 0.723308 0
0.00190738 0.729305 0
0.0337987 0.735149 0
0.0657816 0.740932 0
0.0980087 0.747204 0
0.130312 0.752834 0
0.164004 0.758068 0
0.19971 0.762692 0
0.237583 0.766659 0
0.278965 0.770092 0
0.322103 0.772519 0
0.367529 0.774166 0
0.413886 0.775433 0
0.460319 0.776547 0
0.50547 0.777844 0
0.549798 0.779675 0
0.593439 0.781018 0
0.636408 0.782315 0
0.678798 0.783551 0
0.719661 0.78497 0
0.758846 0.786633 0
0.796368 0.788891 0
0.831312 0.79118 0
0.863874 0.793896 0
0.894713 0.796811 0.00103761
0.92343 0.800076 0.00369268
0.950744 0.803616 0.00656138
0.976944 0.807416 0.00982681
1 0.811124 0.0128634
1 0.814649 0.0159609
1 0.818112 0.0187839
1 0.821363 0.0214237
0 0.762676 0
0 0.768383 0
0.0233768 0.774105 0
0.0556649 0.780072 0
0.0875868 0.785916 0
0.119265 0.791577 0
0.151995 0.796841 0
0.185916 0.801709 0
0.221469 0.806043 0
0.260365 0.809766 0
0.301167 0.812543 0
0.344549 0.814374 0
0.389609 0.815595 0
0.435584 0.816419 0
0.481102 0.817166 0
0.526131 0.818311 0
0.569116 0.819303 0
0.6121 0.82005 0
0.654337 0.820783 0
0.695781 0.8215 0
0.735714 0.8224 0.000717174
0.774517 0.823789 0.00183108
0.810834 0.825177 0.00302129
0.844938 0.826932 0.004654
0.876829 0.829068 0.00643931
0.906676 0.83154 0.00851453
0.93492 0.834607 0.0110628
0.961578 0.837476 0.0137026
0.986465 0.840635 0.0163577
1 0.843732 0.0189517
1 0.846708 0.0216831
1 0.849653 0.024155
1 0.852567 0.0265965
0 0.806638 0
0.0145724 0.812146 0
0.0465553 0.817975 0
0.0788891 0.82356 0
0.110689 0.828931 0
0.142458 0.83418 0
0.174777 0.839185 0
0.208667 0.843595 0
0.245136 0.8477 0.00256352
