site/assets/luts/freshluts--0002701-cinematic-blue-for-slog.cube
# LUTr-Schema-Version: 2
# LUTr-ID: freshluts--0002701-cinematic-blue-for-slog
# LUTr-Title: Cinematic blue for slog
# LUTr-Collection: Fresh LUTs
# LUTr-Collection-ID: freshluts-community
# LUTr-Source: https://freshluts.com
# LUTr-Retrieved: 2026-07-27
# LUTr-Source-File: submissions-raw/freshluts/cubes/2701__Ramazan-Kocaturk-Slog3_to_cinematic-dis-cekim-108.cube
# LUTr-Source-Format: CUBE
# LUTr-Source-SHA256: 70fa1305987a70eea406fe1b58ff655f3499a6480bfb1ddf057f063e110cb2e7
# LUTr-License: CC0-1.0
# LUTr-License-URL: https://freshluts.com/termsandconditions
# LUTr-License-Basis: site-terms
# LUTr-Transform-Class: creative-look
# LUTr-Tags: creative, freshluts, community, cube, blue, high-key, sony-s-log3, cool, cinematic
# LUTr-Input-Color-Space:
# LUTr-Input-Gamut: sony-s-gamut3
# LUTr-Input-Transfer: sony-s-log3
# LUTr-Output-Color-Space: srgb
# LUTr-Output-Gamut: rec709
# LUTr-Output-Transfer: srgb
# LUTr-Color-Space-Confidence: camera-profile-input-required
# LUTr-Domain-Normalized: true
# LUTr-Shaper: none
# LUTr-Original-Grid: 16x16x16
# LUTr-Conversion-Grid: 16x16x16
# LUTr-Conversion-Interpolation: none
# LUTr-Conversion-Method: Metadata normalization; numeric LUT samples preserved
# LUTr-Conversion-Tool: LUTr scripts/convert-all-to-cube.mjs 2.0.0
# LUTr-Conversion-Date: 2026-07-28
# LUTr-Asset-URL: https://freshluts.com/luts/2701
# LUTr-Author: RKctr
# LUTr-Author-URL: https://freshluts.com/users/114065
# LUTr-Attribution: RKctr via Fresh LUTs
# LUTr-Source-Labels: gamma=Sony S-Log 3; color=Blue; key=High Key; style=cine drama
# LUTr-Note: Preserve this metadata and the upstream license notices when redistributing.
TITLE "Cinematic blue for slog"
LUT_3D_SIZE 6
DOMAIN_MIN 0 0 0
DOMAIN_MAX 1 1 1
0.110379 0.130406 0.138212
0.142773 0.14242 0.149888
0.335931 0.142897 0.150102
0.639543 0.087108 0.090944
0.918052 0.060825 0.06307
0.979569 0.057737 0.059813
0.122228 0.186933 0.154483
0.142068 0.18081 0.156015
0.351364 0.140915 0.147395
0.655945 0.084692 0.088366
0.922512 0.060731 0.062975
0.979569 0.057735 0.05981
-0.157609 0.450566 -0.155033
-0.14662 0.437853 -0.146378
0.324793 0.388101 0.160366
0.626587 0.249189 0.082909
0.898038 0.068996 0.064173
0.979569 0.109429 0.058508
-0.287387 0.770939 -0.287142
-0.278718 0.747927 -0.278658
-0.17454 0.724326 -0.264486
0.611203 0.666208 0.478831
0.891813 0.626908 0.111915
0.955593 0.768279 0.360409
-0.386279 1.01661 -0.386041
-0.385192 1.013835 -0.385057
-0.362943 1.009371 -0.382104
0.548161 0.996523 -0.314277
0.893683 0.948824 0.780861
0.952393 0.980799 0.966179
-0.387235 1.018852 -0.386335
-0.387244 1.018846 -0.386673
-0.299451 1.017617 -0.381402
0.695743 1.005345 -0.245037
0.953833 0.982052 0.967313
0.9537 0.981963 0.967268
0.117529 0.09468 0.195211
0.135276 0.100791 0.183175
0.331127 0.103722 0.149734
0.639356 -0.091888 0.072024
0.918128 -0.1023 0.049513
0.979569 -0.102819 0.047712
0.120759 0.177618 0.196571
0.134659 0.171005 0.192729
0.391848 0.132772 0.141506
0.706455 0.077879 0.081138
0.956326 0.059372 0.061537
0.979513 0.057738 0.059813
-0.159177 0.444176 -0.098086
-0.1589 0.449495 -0.137775
0.32005 0.383671 0.155436
0.647533 0.232317 0.081893
0.916336 0.053085 0.058062
0.979569 0.067898 0.059945
-0.28575 0.761119 -0.266593
-0.284521 0.761661 -0.279252
-0.203512 0.731555 -0.266627
0.612138 0.666816 0.480731
0.901016 0.625837 0.091692
0.95971 0.75731 0.328155
-0.387349 1.015286 -0.372602
-0.386779 1.016528 -0.382074
-0.374684 1.01062 -0.381229
0.536511 0.997743 -0.318743
0.893929 0.949204 0.78055
0.952403 0.980809 0.966188
-0.389752 1.019027 -0.365867
-0.387752 1.018881 -0.382547
-0.353405 1.018324 -0.383968
0.674068 1.006085 -0.262261
0.951125 0.980823 0.955051
0.953701 0.981964 0.967269
0.124686 0.110525 0.41931
0.124712 0.110254 0.40563
0.312411 0.091464 0.388636
0.633476 -0.092167 0.281548
0.914123 -0.102292 0.185446
0.979569 -0.103058 0.283192
0.127681 0.146331 0.408409
0.127653 0.145807 0.443354
0.372144 0.12737 0.424764
0.694741 0.078064 0.309914
0.949457 0.05958 0.193958
0.9796 0.056744 0.234712
-0.185596 0.417924 0.428008
-0.183761 0.414776 0.425174
0.267626 0.350158 0.383142
0.657229 0.179739 0.257048
0.922749 0.053902 0.104918
0.979569 0.052896 0.056524
-0.30115 0.744216 0.287932
-0.297795 0.742958 0.25037
-0.276281 0.731913 0.147091
0.603856 0.657916 0.476982
0.912309 0.613611 0.071914
0.977568 0.690152 0.129868
-0.400546 1.011901 -0.15856
-0.398696 1.012817 -0.216307
-0.392516 1.011853 -0.306495
0.487425 0.999447 -0.325441
0.890396 0.945683 0.777493
0.950732 0.979248 0.966064
-0.411061 1.020522 0.24776
-0.407157 1.020268 0.134146
-0.391885 1.019166 -0.352335
0.564461 1.009479 -0.316943
0.944019 0.980668 0.904328
0.953669 0.981938 0.967212
0.102223 0.062318 0.727064
0.104327 0.06759 0.717402
0.204973 0.035351 0.70432
0.613317 -0.09576 0.66597
0.902212 -0.102742 0.635916
0.979569 -0.104054 0.774984
0.112749 0.1289 0.724068
0.106309 0.121205 0.796848
0.265104 0.114738 0.783396
0.664565 0.073279 0.719521
0.929151 0.049475 0.669849
0.979569 0.041635 0.768839
0.090651 0.290328 0.723391
0.08913 0.286904 0.758011
0.206936 0.247458 0.733942
0.609657 0.086335 0.667624
0.904792 0.058301 0.608522
0.979569 0.041883 0.668364
-0.330351 0.709341 0.700078
-0.329349 0.707266 0.697623
-0.320829 0.693522 0.685385
0.547658 0.633603 0.630255
0.925896 0.489558 0.520208
0.979569 0.420087 0.470677
-0.439188 1.006573 0.637251
-0.438818 1.008432 0.627781
-0.434608 1.008533 0.588854
-0.15514 1.006695 0.333
0.881283 0.93848 0.771141
0.941982 0.970968 0.961967
-0.462778 1.022867 0.793048
-0.460431 1.022847 0.772094
-0.448247 1.02255 0.662538
-0.340909 1.019431 0.190925
0.918282 0.987018 0.744079
0.954131 0.982321 0.968173
0.069089 -0.082813 0.987779
0.069481 -0.082349 0.985518
0.095519 -0.082347 0.983924
0.581019 -0.099362 0.96599
0.880574 -0.104032 0.945831
0.979569 -0.104057 0.990969
0.085767 0.096097 0.989171
0.083543 0.093373 1.000033
0.160458 0.092412 0.999662
0.630422 0.06731 0.987129
0.900354 0.041621 0.962999
0.979569 0.041623 0.990787
0.083379 0.147715 0.989938
0.082051 0.123455 0.998643
0.103018 0.095143 0.997959
0.577225 0.070797 0.977186
0.8766 0.042693 0.944004
0.979569 0.041623 0.982526
0.040096 0.640597 0.971531
0.040092 0.6437 0.979592
0.039278 0.640453 0.985196
0.459595 0.503635 0.992645
0.897712 0.348266 0.968112
0.979569 0.277494 0.977641
-0.46789 0.990609 0.982616
-0.468997 0.992127 0.984406
-0.467734 0.99038 0.982394
-0.390846 0.98354 0.977887
0.823653 0.916708 0.9308
0.979569 0.871566 0.894264
-0.487538 1.021821 1.01942
-0.487539 1.021827 1.019419
-0.487359 1.021869 1.015967
-0.477526 1.022022 0.996989
0.669925 1.012349 0.790367
0.966514 0.991869 0.986603
0.094361 0.027342 1.002526
0.094361 0.027337 1.002526
0.218166 -0.025826 1.002346
0.708212 -0.09828 1.000304
0.949563 -0.10406 1.000033
0.979569 -0.104055 1.000033
0.109185 0.125065 1.002514
0.109185 0.125065 1.002514
0.243822 0.122172 1.002284
0.734528 0.069613 1.000206
0.954903 0.041623 1.000033
0.979569 0.041623 1.000033
0.103252 0.23456 1.00206
0.106543 0.185708 1.002307
0.107258 0.123396 1.002519
0.641184 0.085772 1.000579
0.928649 0.041623 1.000033
0.979569 0.041623 1.000033
-0.382479 0.777329 1.052158
-0.382345 0.776906 1.052178
-0.328002 0.733808 1.043493
0.425209 0.455191 1.000033
0.909608 0.305026 1.00001
0.979569 0.231982 1.000033
-0.486667 1.019849 1.019724
-0.486666 1.019848 1.019725
-0.486611 1.019741 1.019741
-0.412542 1.005788 1.020877
0.80035 0.874249 1.000033
0.979568 0.820213 1.000033
-0.486611 1.019741 1.019741
-0.486612 1.019744 1.019741
-0.486614 1.019747 1.01974
-0.48347 1.019717 1.019691
0.582199 1.012058 1.012018
0.967012 0.999955 1.000765
