site/assets/luts/freshluts--0001551-black-woo-by-suchithya.cube
# LUTr-Schema-Version: 2
# LUTr-ID: freshluts--0001551-black-woo-by-suchithya
# LUTr-Title: Black Woo by Suchithya
# LUTr-Collection: Fresh LUTs
# LUTr-Collection-ID: freshluts-community
# LUTr-Source: https://freshluts.com
# LUTr-Retrieved: 2026-07-27
# LUTr-Source-File: submissions-raw/freshluts/cubes/1551__Black_Woo.cube
# LUTr-Source-Format: CUBE
# LUTr-Source-SHA256: 11bbe93977d5d151e6754736ef5088e68024c4e0cf099b436326711a65ad87f9
# LUTr-License: CC0-1.0
# LUTr-License-URL: https://freshluts.com/termsandconditions
# LUTr-License-Basis: site-terms
# LUTr-Transform-Class: creative-look
# LUTr-Tags: creative, freshluts, community, cube, noir, cinematic, black-and-white, arri-logc3-ei800
# LUTr-Input-Color-Space:
# LUTr-Input-Gamut: arri-wide-gamut-3
# LUTr-Input-Transfer: arri-logc3-ei800
# LUTr-Output-Color-Space: srgb
# LUTr-Output-Gamut: rec709
# LUTr-Output-Transfer: srgb
# LUTr-Color-Space-Confidence: camera-profile-input-required
# LUTr-Domain-Normalized: true
# LUTr-Shaper: none
# LUTr-Original-Grid: 33x33x33
# LUTr-Conversion-Grid: 33x33x33
# LUTr-Conversion-Interpolation: none
# LUTr-Conversion-Method: Metadata normalization; numeric LUT samples preserved
# LUTr-Conversion-Tool: LUTr scripts/convert-all-to-cube.mjs 2.0.0
# LUTr-Conversion-Date: 2026-07-28
# LUTr-Asset-URL: https://freshluts.com/luts/1551
# LUTr-Author: Suchithya
# LUTr-Author-URL: https://freshluts.com/users/192577
# LUTr-Attribution: Suchithya via Fresh LUTs
# LUTr-Source-Labels: gamma=Arri log c; color=Black and white; key=Neutral; style=Noir
# LUTr-Note: Preserve this metadata and the upstream license notices when redistributing.
TITLE "Black Woo by Suchithya"
LUT_3D_SIZE 33
DOMAIN_MIN 0 0 0
DOMAIN_MAX 1 1 1
0.000076 0 0.000528
0.000166 0 0.001029
0.00028 0 0.001567
0.000415 0 0.002137
0.000573 0 0.002736
0.000798 0.000091 0.003345
0.001345 0.000809 0.004076
0.002117 0.001754 0.005035
0.003057 0.002868 0.006163
0.004113 0.0041 0.007409
0.005236 0.0054 0.008724
0.006888 0.007477 0.010805
0.008601 0.009677 0.013009
0.010168 0.011734 0.015069
0.011559 0.013618 0.016955
0.01279 0.015344 0.018685
0.014202 0.016977 0.020251
0.015833 0.018606 0.021755
0.017562 0.020332 0.023357
0.019349 0.022116 0.025016
0.02118 0.023944 0.026719
0.023786 0.0264 0.029002
0.027521 0.029774 0.032136
0.031335 0.033226 0.035347
0.035207 0.036736 0.038614
0.039119 0.040284 0.04192
0.043341 0.044288 0.045845
0.048072 0.04906 0.050834
0.05273 0.053761 0.055752
0.057316 0.05839 0.060598
0.061832 0.062949 0.065375
0.066288 0.067755 0.070557
0.070686 0.073025 0.076474
0.000563 0 0.002699
0.000743 0.000012 0.003263
0.001215 0.000645 0.003909
0.001907 0.001501 0.004778
0.002771 0.002532 0.005823
0.003762 0.003692 0.006997
0.004835 0.004936 0.008254
0.006216 0.00662 0.009947
0.007924 0.008803 0.012133
0.009522 0.01088 0.014213
0.010961 0.012801 0.016137
0.012237 0.014561 0.0179
0.01342 0.016197 0.01953
0.015017 0.017791 0.021002
0.016667 0.019438 0.022527
0.018405 0.021174 0.024139
0.02019 0.022955 0.025798
0.022016 0.024779 0.027497
0.025411 0.027866 0.030363
0.02914 0.031239 0.033498
0.03294 0.034681 0.036701
0.036791 0.038172 0.039953
0.040671 0.041692 0.043231
0.04518 0.046143 0.047784
0.049841 0.050846 0.052702
0.054433 0.05548 0.057551
0.058955 0.060045 0.062332
0.063411 0.064544 0.067047
0.067816 0.069584 0.07261
0.072159 0.074794 0.078463
0.07646 0.079963 0.084277
0.080751 0.085125 0.090084
0.085074 0.09032 0.095926
0.003409 0.003281 0.006581
0.004363 0.00439 0.007703
0.00539 0.005577 0.008903
0.006987 0.007602 0.010931
0.008582 0.009653 0.012984
0.010063 0.011595 0.014929
0.011396 0.013395 0.016732
0.012589 0.015058 0.018398
0.013853 0.016629 0.01993
0.015411 0.018184 0.021365
0.017048 0.019819 0.02288
0.01876 0.021527 0.024468
0.020517 0.023282 0.026102
0.022356 0.02511 0.027805
0.025947 0.028351 0.030813
0.029626 0.031679 0.033907
0.033376 0.035075 0.037068
0.037175 0.038521 0.040277
0.041002 0.041991 0.043511
0.04552 0.046486 0.048142
0.050119 0.051126 0.052995
0.054652 0.055701 0.057782
0.05912 0.060211 0.062506
0.063525 0.064659 0.067167
0.067883 0.069664 0.0727
0.072182 0.074821 0.078493
0.076441 0.07994 0.084251
0.080692 0.085053 0.090004
0.084975 0.0902 0.095792
0.090615 0.096122 0.102668
0.096812 0.102381 0.110001
0.103072 0.108702 0.117399
0.109389 0.115081 0.124857
0.009487 0.010833 0.014166
0.010764 0.012534 0.01587
0.011943 0.014151 0.017489
0.013025 0.01568 0.019021
0.014392 0.017167 0.020426
0.015902 0.018675 0.021819
0.017513 0.020283 0.023311
0.019185 0.021952 0.024863
0.020904 0.023668 0.026462
0.023038 0.025725 0.028375
0.026564 0.028909 0.031331
0.030179 0.032179 0.034372
0.033863 0.035517 0.037479
0.037598 0.038904 0.040634
0.041359 0.042315 0.043812
0.045879 0.046848 0.048521
0.050404 0.051414 0.053296
0.054868 0.05592 0.058011
0.059273 0.060366 0.062668
0.06362 0.064755 0.067268
0.067924 0.069713 0.072755
0.072172 0.074809 0.07848
0.076384 0.079871 0.084173
0.080588 0.084929 0.089864
0.084825 0.090021 0.095591
0.090339 0.095844 0.102342
0.096474 0.10204 0.109602
0.102673 0.108299 0.116928
0.10893 0.114617 0.124315
0.115241 0.120989 0.131759
0.124512 0.129554 0.141487
0.135225 0.139202 0.152345
0.14605 0.148961 0.163315
0.015237 0.01801 0.021205
0.01666 0.019432 0.022521
0.018195 0.020964 0.023944
0.019796 0.022562 0.025431
0.021453 0.024216 0.026972
0.023999 0.026592 0.02918
0.02743 0.029691 0.032059
0.030953 0.03288 0.035024
0.034548 0.036138 0.038058
0.038198 0.039449 0.041142
0.041929 0.042862 0.044356
0.046408 0.047382 0.049079
0.050839 0.051853 0.053755
0.055218 0.056272 0.05838
0.059544 0.060639 0.062954
0.063819 0.064955 0.067478
0.068056 0.069871 0.072933
0.072243 0.074894 0.078576
0.076397 0.079887 0.084192
0.080548 0.08488 0.089809
0.084732 0.08991 0.095465
0.090136 0.095638 0.102101
0.0962 0.101762 0.109277
0.102329 0.107952 0.116521
0.108518 0.114202 0.123829
0.114763 0.120507 0.131196
0.123607 0.128739 0.14057
0.134212 0.13829 0.151318
0.14493 0.147951 0.16218
0.155776 0.157737 0.173169
0.166652 0.167551 0.18419
0.178334 0.178798 0.196792
0.190527 0.190951 0.210397
0.022456 0.0252 0.027889
0.02554 0.027983 0.030472
0.028784 0.030916 0.033198
0.032147 0.033962 0.036031
0.0356 0.037092 0.038946
0.039123 0.040287 0.041923
0.042908 0.04385 0.045388
0.047244 0.048225 0.04996
0.051546 0.052567 0.054502
0.05581 0.05687 0.059006
0.060032 0.061132 0.063471
0.064213 0.065354 0.067896
0.068366 0.070243 0.07335
0.072475 0.075173 0.078889
0.076558 0.080081 0.08441
0.080644 0.084996 0.089939
0.084767 0.08995 0.095511
0.090099 0.095601 0.102058
0.096081 0.101642 0.109137
0.102131 0.107752 0.116287
0.108243 0.113923 0.123504
0.114412 0.120153 0.130782
0.1229 0.128102 0.139853
0.133385 0.137544 0.15048
0.143983 0.147097 0.16122
0.15471 0.156774 0.172089
0.165491 0.166504 0.183013
0.176914 0.177382 0.195208
0.189001 0.18943 0.208694
0.201122 0.201511 0.222218
0.213385 0.213734 0.235886
0.22591 0.226219 0.24982
0.238538 0.23933 0.263409
0.037425 0.038747 0.040488
0.040661 0.041682 0.043222
0.044506 0.045463 0.047073
0.048603 0.049596 0.051395
0.052704 0.053735 0.055725
0.056795 0.057865 0.060048
0.060867 0.061975 0.064355
0.064918 0.066116 0.068719
0.068953 0.070946 0.074139
0.072957 0.075751 0.079539
0.076947 0.080549 0.084936
0.08095 0.085363 0.090353
0.084997 0.090227 0.095822
0.090323 0.095827 0.102322
0.096206 0.101769 0.109285
0.102161 0.107783 0.116323
0.108182 0.113862 0.123433
0.114264 0.120003 0.130607
0.122512 0.127753 0.13946
0.132858 0.13707 0.149946
0.143322 0.1465 0.16055
0.153915 0.156057 0.171284
0.164582 0.165684 0.182092
0.17576 0.176232 0.193921
0.187727 0.18816 0.207272
0.19972 0.200114 0.220654
0.211844 0.212198 0.23417
0.224215 0.224529 0.247936
0.23676 0.237416 0.261553
0.249058 0.250665 0.274398
0.261211 0.263773 0.287101
0.273237 0.276756 0.299678
0.285156 0.289633 0.312148
0.054768 0.055818 0.057905
0.058497 0.059583 0.061848
0.062295 0.063417 0.065866
0.066129 0.067565 0.070344
0.069976 0.072173 0.075518
0.073823 0.076792 0.08071
0.07768 0.081431 0.085928
0.081569 0.086107 0.09119
0.085515 0.090849 0.096522
0.090923 0.096433 0.103033
0.096681 0.102249 0.109847
0.102518 0.108143 0.116745
0.108427 0.11411 0.123722
0.114403 0.120143 0.13077
0.122572 0.127807 0.139521
0.132756 0.136978 0.149843
0.143063 0.146267 0.160288
0.153503 0.155685 0.170867
0.16403 0.165186 0.181532
0.174986 0.175461 0.193058
0.18681 0.187246 0.206249
0.198659 0.199056 0.21947
0.210633 0.210991 0.23282
0.222842 0.22316 0.246409
0.235276 0.235817 0.260003
0.247472 0.248956 0.272741
0.25953 0.261959 0.285343
0.271464 0.27484 0.297823
0.283293 0.287619 0.310198
0.294616 0.300571 0.322428
0.304647 0.314204 0.334414
0.314643 0.327811 0.346369
0.324639 0.341426 0.358329
0.071862 0.074436 0.078061
0.075378 0.078662 0.082813
0.078992 0.083008 0.087703
0.08269 0.087455 0.092706
0.086613 0.09208 0.097928
0.092089 0.097611 0.104414
0.097671 0.103248 0.111017
0.103346 0.108979 0.117723
0.109105 0.114794 0.124522
0.114942 0.120687 0.131406
0.123255 0.128422 0.140213
0.133236 0.13741 0.150329
0.143351 0.146526 0.160579
0.153608 0.15578 0.170973
0.163959 0.165123 0.181461
0.174721 0.175196 0.192762
0.186371 0.186808 0.205759
0.198051 0.19845 0.218792
0.209856 0.210216 0.231955
0.22189 0.222212 0.245352
0.234183 0.23464 0.258862
0.246252 0.247641 0.271467
0.258191 0.260515 0.283944
0.270013 0.273274 0.296306
0.281735 0.285936 0.308568
0.293189 0.298632 0.320724
0.303133 0.312144 0.332604
0.313042 0.32563 0.344454
0.322948 0.339123 0.356306
0.332887 0.352656 0.368195
0.343394 0.36641 0.380211
0.357781 0.381369 0.392749
0.372375 0.396537 0.405491
0.089219 0.094712 0.101015
0.094265 0.099809 0.106989
0.099516 0.105111 0.113197
0.104918 0.110566 0.119579
0.110443 0.116145 0.1261
0.116073 0.121829 0.132739
0.124834 0.129843 0.141814
0.134538 0.138583 0.151648
0.144398 0.147471 0.161641
0.15442 0.156513 0.171795
0.16454 0.165646 0.18205
0.175138 0.175612 0.193227
0.186565 0.187002 0.205976
0.198039 0.198438 0.218778
0.209646 0.210007 0.23172
0.221485 0.221808 0.244901
0.2336 0.234012 0.258253
0.245508 0.246839 0.27069
0.257298 0.259551 0.28301
0.26898 0.272158 0.295224
0.280569 0.284676 0.307348
0.292079 0.297126 0.319399
0.30192 0.310495 0.331154
0.311727 0.323841 0.342882
0.321532 0.337194 0.354612
0.331368 0.350588 0.366378
0.34127 0.364059 0.378216
0.35531 0.3788 0.390594
0.369737 0.393796 0.403186
0.384418 0.409047 0.416027
0.399324 0.424524 0.429089
0.414255 0.440027 0.442171
0.428252 0.455639 0.457355
0.113064 0.118791 0.129192
0.118912 0.124513 0.135811
0.127888 0.132593 0.144909
0.137126 0.140915 0.154271
0.146589 0.149447 0.163861
0.156264 0.158178 0.173664
0.166045 0.167004 0.183575
0.176503 0.176973 0.19475
0.187627 0.18806 0.207161
0.19883 0.199226 0.219661
0.210189 0.210548 0.232326
0.221796 0.222118 0.245247
0.233683 0.234102 0.258339
0.24538 0.246702 0.270556
0.256977 0.259204 0.282674
0.26848 0.271618 0.294702
0.279903 0.283956 0.306651
0.291262 0.296234 0.318539
0.301087 0.309363 0.330159
0.310773 0.322542 0.34174
0.32046 0.335733 0.353328
0.330177 0.348968 0.364954
0.339961 0.362279 0.376652
0.353276 0.376686 0.388822
0.367525 0.391498 0.401254
0.382024 0.406561 0.413931
0.396758 0.421859 0.426838
0.411572 0.43724 0.439821
0.42562 0.452695 0.454481
0.439409 0.46812 0.469538
0.453136 0.483486 0.484536
0.466816 0.498808 0.499489
0.480465 0.514103 0.514414
0.150998 0.153424 0.168328
0.159905 0.161464 0.177353
0.16905 0.169713 0.186619
0.179334 0.179795 0.197908
0.189982 0.190407 0.209788
0.200783 0.201173 0.22184
0.211797 0.212151 0.234118
0.223098 0.223416 0.246695
0.234669 0.235163 0.259369
0.246076 0.247451 0.271283
0.257411 0.259673 0.283128
0.268676 0.271831 0.294907
0.279882 0.283934 0.30663
0.291041 0.295995 0.318308
0.300738 0.308888 0.329741
0.310274 0.321862 0.341143
0.319817 0.334858 0.35256
0.329396 0.347905 0.36402
0.339044 0.361033 0.375556
0.35178 0.375131 0.387517
0.365835 0.389741 0.399778
0.380135 0.404599 0.412278
0.394679 0.419701 0.425016
0.409347 0.43493 0.437872
0.423398 0.450211 0.452056
0.437065 0.465497 0.466978
0.450674 0.480729 0.481846
0.46424 0.495921 0.496672
0.477775 0.511088 0.511472
0.492907 0.525274 0.524133
0.509039 0.538865 0.53548
0.525193 0.552472 0.546839
0.54138 0.566107 0.558221
0.194818 0.195227 0.215185
0.204761 0.205138 0.226275
0.21514 0.215484 0.237841
0.225938 0.226247 0.249851
0.236987 0.237659 0.261789
0.247951 0.249472 0.273242
0.2589 0.26128 0.284685
0.269827 0.273073 0.29611
0.28073 0.28485 0.307517
0.291617 0.296618 0.318911
0.30102 0.309272 0.330079
0.310362 0.321981 0.341248
0.319724 0.334732 0.352448
0.329133 0.347547 0.363706
0.338619 0.360454 0.375048
0.350951 0.374269 0.386795
0.364786 0.388651 0.398862
0.378866 0.40328 0.411168
0.393199 0.418164 0.423718
0.407684 0.433203 0.436416
0.421677 0.448287 0.450178
0.435198 0.463408 0.464939
0.448666 0.478481 0.479651
0.462095 0.493519 0.494328
0.475499 0.508537 0.508983
0.490038 0.522856 0.522114
0.506018 0.53632 0.533356
0.522022 0.549801 0.544609
0.538062 0.563312 0.555887
0.554149 0.576864 0.567201
0.568683 0.590358 0.57857
0.581254 0.603772 0.590004
0.593889 0.617251 0.601498
0.241833 0.24288 0.266851
0.251851 0.253676 0.277317
0.262084 0.264715 0.288014
0.272434 0.275888 0.298837
0.282856 0.287147 0.309741
0.29315 0.29858 0.320678
0.302182 0.310852 0.331468
0.31125 0.323191 0.34231
0.320367 0.335607 0.353217
0.329553 0.348117 0.364207
0.338831 0.360743 0.375302
0.350978 0.374297 0.386818
0.364549 0.388405 0.398655
0.378375 0.40277 0.410738
0.392461 0.417399 0.423072
0.406721 0.432203 0.435572
0.420576 0.447057 0.448976
0.433915 0.461973 0.463538
0.447211 0.476852 0.478061
0.460476 0.491706 0.492558
0.473723 0.506547 0.507041
0.487739 0.520919 0.520496
0.503543 0.534235 0.531615
0.519375 0.547571 0.542748
0.535247 0.560941 0.553908
0.551171 0.574355 0.565106
0.566249 0.587761 0.576357
0.578696 0.601042 0.587677
0.591212 0.614395 0.599063
0.603727 0.627749 0.610444
0.616193 0.641056 0.621775
0.628283 0.654149 0.633362
0.639394 0.666713 0.645734
0.287404 0.292063 0.314501
0.296297 0.302854 0.324436
0.304754 0.31435 0.334542
0.313359 0.326063 0.344834
0.32209 0.337954 0.355279
0.330943 0.350011 0.365871
0.33993 0.362237 0.376615
0.352166 0.375532 0.387854
0.365395 0.389284 0.399394
0.378901 0.403317 0.411198
0.392683 0.417629 0.423267
0.406654 0.432133 0.435513
0.420261 0.446704 0.448632
0.433366 0.461359 0.462939
0.446445 0.475994 0.477224
0.459506 0.49062 0.491498
0.47256 0.505244 0.50577
0.486135 0.519567 0.519367
0.501729 0.532706 0.530339
0.51736 0.545874 0.541331
0.533037 0.55908 0.552354
0.548772 0.572334 0.563419
0.564248 0.585625 0.574537
0.576554 0.598757 0.585729
0.588933 0.611964 0.596989
0.601337 0.625199 0.608272
0.613696 0.63839 0.619506
0.625956 0.651519 0.630771
0.636971 0.663972 0.643035
0.648001 0.676445 0.655318
0.659067 0.688956 0.667638
0.670186 0.701524 0.680016
0.681347 0.714122 0.692414
0.325865 0.343095 0.359795
0.334003 0.354176 0.36953
0.342759 0.36575 0.379658
0.355126 0.37861 0.390435
0.367828 0.391812 0.401519
0.380874 0.405366 0.412925
0.394231 0.419236 0.424623
0.407798 0.433321 0.436515
0.420988 0.447517 0.449426
0.433778 0.461819 0.463388
0.446568 0.476132 0.477359
0.459364 0.49046 0.491342
0.472172 0.504809 0.505345
0.485397 0.518946 0.518848
0.500733 0.531867 0.529638
0.516119 0.544829 0.540459
0.531564 0.557838 0.551318
0.547075 0.570904 0.562226
0.562662 0.584037 0.573191
0.574911 0.597004 0.584234
0.587132 0.610043 0.595351
0.599401 0.623132 0.606511
0.611631 0.636186 0.61763
0.623839 0.64922 0.628722
0.634903 0.661635 0.640733
0.645824 0.673982 0.652893
0.656778 0.686369 0.665091
0.667786 0.698811 0.677345
0.678865 0.711329 0.689673
0.689702 0.723466 0.701523
0.700586 0.73563 0.713383
0.711587 0.747914 0.725363
0.722735 0.760347 0.73749
0.373289 0.397487 0.40629
0.385332 0.409996 0.416827
0.397908 0.423053 0.427847
0.410777 0.436415 0.439125
0.423237 0.450031 0.45188
0.435546 0.463797 0.465319
0.447915 0.47764 0.478831
0.460337 0.49155 0.492406
0.472808 0.505521 0.50604
0.485789 0.519276 0.519124
0.500788 0.531914 0.529677
0.515862 0.544612 0.540278
0.531014 0.557375 0.550932
0.54625 0.57021 0.561646
0.561576 0.583122 0.572427
0.573877 0.5959 0.583294
0.585913 0.608742 0.594241
0.598013 0.621651 0.605249
0.610088 0.634538 0.616226
0.622145 0.647411 0.627183
0.63326 0.659777 0.638904
0.644053 0.67198 0.650922
0.654882 0.684225 0.66298
0.665765 0.696527 0.675095
0.676718 0.708904 0.687285
0.687508 0.721014 0.699132
0.69827 0.733042 0.71086
0.709146 0.745189 0.722705
0.720164 0.757481 0.734695
0.731318 0.769912 0.746823
0.742747 0.780567 0.75787
0.754312 0.790284 0.768343
0.765884 0.800004 0.778821
0.42835 0.455749 0.457462
0.439626 0.468363 0.469775
0.451212 0.481331 0.482433
0.462999 0.494532 0.495316
0.474935 0.507905 0.508367
0.487775 0.52095 0.520522
0.502289 0.533179 0.530733
0.516928 0.54551 0.541028
0.531685 0.55794 0.551404
0.546559 0.570469 0.561862
0.561549 0.583098 0.572407
0.573612 0.595618 0.583053
0.585419 0.608215 0.593792
0.597307 0.620898 0.604606
0.609185 0.633575 0.615406
0.621057 0.64625 0.626195
0.632131 0.658499 0.637646
0.642772 0.670532 0.649495
0.653454 0.68261 0.66139
0.664193 0.694751 0.673346
0.675006 0.706969 0.685379
0.68572 0.719013 0.697182
0.696346 0.730893 0.708764
0.707088 0.742892 0.720464
0.717967 0.755031 0.732305
0.728991 0.767319 0.744292
0.74024 0.778461 0.755599
0.751697 0.788087 0.765975
0.763171 0.797725 0.776365
0.774652 0.807366 0.786759
0.786189 0.817059 0.797207
0.797249 0.826445 0.807339
0.807708 0.835437 0.817068
0.479873 0.51344 0.513767
0.492478 0.524912 0.523831
0.50609 0.536381 0.533407
0.519995 0.548094 0.543184
0.534131 0.56 0.553123
0.548463 0.572074 0.563202
0.562973 0.584299 0.57341
0.574381 0.596438 0.583752
0.585882 0.608709 0.594213
0.597486 0.621089 0.604769
0.609103 0.633488 0.615332
0.620735 0.645906 0.625902
0.631643 0.657948 0.637103
0.642096 0.669767 0.648742
0.6526 0.681644 0.660438
0.663168 0.693592 0.672204
0.673815 0.705624 0.684054
0.684414 0.717554 0.695759
0.694889 0.729264 0.707176
0.70548 0.741096 0.718713
0.716207 0.753069 0.73039
0.727085 0.765196 0.742221
0.738149 0.776705 0.753706
0.749481 0.786225 0.763968
0.76084 0.795768 0.774254
0.772206 0.805312 0.784544
0.783623 0.814903 0.794882
0.794841 0.824375 0.8051
0.805201 0.833281 0.814736
0.815594 0.842217 0.824403
0.825983 0.851145 0.834065
0.836309 0.860007 0.843662
0.845877 0.868266 0.852632
0.53992 0.564877 0.557194
0.553086 0.575968 0.566453
0.5659 0.587388 0.57604
0.576711 0.598924 0.585871
0.587734 0.610684 0.595898
0.598909 0.622608 0.606064
0.610146 0.634601 0.61628
0.62144 0.646658 0.626542
0.631999 0.658351 0.6375
0.642203 0.669889 0.648862
0.652477 0.681505 0.660301
0.662829 0.693209 0.671827
0.673273 0.705012 0.683451
0.683704 0.71676 0.694985
0.693999 0.72827 0.706206
0.704416 0.739908 0.717555
0.714972 0.75169 0.729046
0.725684 0.763634 0.740697
0.736553 0.775364 0.752261
0.747738 0.78476 0.762389
0.758961 0.794189 0.772552
0.770195 0.803623 0.782724
0.781478 0.8131 0.792939
0.792797 0.822619 0.803199
0.803045 0.831428 0.81273
0.813334 0.840274 0.822301
0.823633 0.849126 0.831879
0.833888 0.857931 0.841413
0.844007 0.8666 0.850811
0.851551 0.873311 0.858153
0.859006 0.879932 0.865406
0.866487 0.886576 0.872684
0.873982 0.893232 0.879975
0.592202 0.615451 0.599963
0.602444 0.62638 0.609278
0.612972 0.637617 0.618848
0.623692 0.649062 0.628588
0.63358 0.660138 0.639259
0.643411 0.671254 0.650206
0.653354 0.682498 0.661279
0.663411 0.693866 0.672475
0.673584 0.705363 0.683797
0.683763 0.716825 0.695049
0.693831 0.728082 0.706024
0.704034 0.739482 0.717139
0.714385 0.751036 0.728408
0.724901 0.762761 0.739846
0.73556 0.77453 0.751362
0.746568 0.783778 0.76133
0.757626 0.793068 0.771344
0.768704 0.802371 0.781374
0.779831 0.811716 0.791448
0.791032 0.821129 0.801593
0.801302 0.829929 0.811109
0.811469 0.838671 0.820567
0.821659 0.84743 0.830044
0.831822 0.856158 0.839492
0.841888 0.864786 0.848843
0.849894 0.871839 0.856541
0.857283 0.878401 0.863729
0.864692 0.884982 0.870938
0.872121 0.89158 0.878165
0.879556 0.898182 0.885398
0.885651 0.903546 0.89143
0.891374 0.908564 0.897128
0.897075 0.91356 0.902805
0.63746 0.664525 0.64358
0.646487 0.674732 0.653631
0.655819 0.685284 0.664023
0.665378 0.69609 0.674664
0.675129 0.707109 0.685517
0.684899 0.718095 0.696287
0.694649 0.728997 0.706915
0.704564 0.740073 0.717716
0.714649 0.75133 0.728695
0.724916 0.762778 0.739862
0.735335 0.774341 0.751158
0.746119 0.7834 0.760923
0.756968 0.792515 0.770748
0.767851 0.801655 0.780602
0.77879 0.810842 0.790506
0.789812 0.820104 0.800488
0.800053 0.828856 0.809948
0.810077 0.837473 0.819271
0.820133 0.846118 0.828624
0.830178 0.854747 0.837965
0.840148 0.863296 0.847227
0.848515 0.870613 0.855199
0.855834 0.877115 0.86232
0.863162 0.883623 0.869449
0.870514 0.890153 0.876601
0.877878 0.896692 0.883765
0.884305 0.902365 0.89009
0.88998 0.907343 0.895741
0.895639 0.912302 0.901375
0.901271 0.917233 0.906983
0.906866 0.922125 0.912553
0.911894 0.926517 0.917536
0.916596 0.930633 0.922176
0.678997 0.711478 0.68982
0.687867 0.721415 0.699523
0.697032 0.73166 0.709512
0.706467 0.742198 0.719788
0.716143 0.752997 0.730321
0.726047 0.764039 0.741092
0.736158 0.775032 0.751903
0.746632 0.783831 0.761388
0.757197 0.792708 0.770956
0.767822 0.80163 0.780575
0.77852 0.810615 0.790261
0.789317 0.819688 0.800039
0.799419 0.82831 0.809357
0.809264 0.836774 0.818515
0.819154 0.845277 0.827715
0.829049 0.853778 0.836916
0.838888 0.862217 0.846058
0.847475 0.869688 0.854187
0.85471 0.876117 0.861227
0.861943 0.88254 0.868263
0.869205 0.88899 0.875328
0.876485 0.895455 0.88241
0.88317 0.901369 0.888959
0.888788 0.906298 0.894554
0.894396 0.911213 0.900137
0.899981 0.916104 0.905698
0.905534 0.920961 0.911227
0.910747 0.925514 0.916404
0.915381 0.929568 0.920977
0.920124 0.93373 0.925659
0.924975 0.937998 0.930448
0.929926 0.942364 0.935337
0.934681 0.946546 0.939996
0.719956 0.75725 0.734469
0.729077 0.767415 0.744386
0.738638 0.777115 0.754149
0.748591 0.785477 0.763162
0.75871 0.793978 0.772325
0.768944 0.802572 0.781591
0.7793 0.811271 0.790968
0.789788 0.820084 0.800466
0.799588 0.828455 0.809514
0.809198 0.836718 0.818454
0.818872 0.845035 0.827452
0.828569 0.853366 0.836469
0.838229 0.861653 0.845445
0.846856 0.869137 0.853584
0.853981 0.875469 0.860517
0.861099 0.881791 0.867442
0.868253 0.888145 0.874402
0.875432 0.89452 0.881386
0.882284 0.900592 0.888077
0.887834 0.905461 0.893604
0.893378 0.910321 0.899124
0.898906 0.915163 0.904628
0.904407 0.919975 0.910104
0.909769 0.924661 0.915439
0.914335 0.928652 0.919944
0.919008 0.932749 0.924557
0.92379 0.936953 0.929277
0.928673 0.941258 0.9341
0.933576 0.945584 0.938933
0.93781 0.949273 0.943005
0.942077 0.952994 0.94711
0.946358 0.956727 0.951227
0.950629 0.960449 0.955335
0.762623 0.797265 0.775868
0.772017 0.805153 0.784373
0.781741 0.813322 0.793178
0.791711 0.8217 0.802208
0.800916 0.829598 0.81075
0.810178 0.83756 0.819365
0.819539 0.845608 0.828072
0.828953 0.853696 0.836826
0.838359 0.861763 0.845565
0.846781 0.86907 0.853512
0.853753 0.875266 0.860295
0.860726 0.881459 0.867078
0.867744 0.887692 0.873907
0.874797 0.893956 0.880767
0.881702 0.900082 0.887498
0.887168 0.904877 0.892941
0.892633 0.909668 0.898382
0.898088 0.914447 0.903814
0.903522 0.919202 0.909224
0.908925 0.923924 0.914603
0.913481 0.927904 0.919101
0.918081 0.931936 0.923642
0.92279 0.936074 0.928291
0.927603 0.940314 0.933043
0.932507 0.944644 0.937887
0.936804 0.948395 0.942037
0.941025 0.952076 0.946098
0.945267 0.955775 0.950178
0.949506 0.959471 0.954255
0.953719 0.963139 0.958305
0.956838 0.965806 0.961283
0.959738 0.968269 0.964045
0.962592 0.970685 0.96676
0.804418 0.832608 0.814008
0.812924 0.839922 0.82192
0.821702 0.847467 0.830084
0.830634 0.855138 0.838388
0.839624 0.862847 0.846741
0.847468 0.869681 0.85418
0.854205 0.875668 0.860735
0.860978 0.881683 0.867324
0.867813 0.887754 0.873974
0.874698 0.893868 0.880672
0.881507 0.89991 0.887304
0.886863 0.904609 0.892637
