site/assets/luts/freshluts--0000613-sea.cube
# LUTr-Schema-Version: 2
# LUTr-ID: freshluts--0000613-sea
# LUTr-Title: Sea
# LUTr-Collection: Fresh LUTs
# LUTr-Collection-ID: freshluts-community
# LUTr-Source: https://freshluts.com
# LUTr-Retrieved: 2026-07-27
# LUTr-Source-File: submissions-raw/freshluts/cubes/613__lut_1.sea-5499649_1920.cube
# LUTr-Source-Format: CUBE
# LUTr-Source-SHA256: befc175cbafdb727f8c4e361fe20f1aef9d2c2b74de09bd323dbada57103b698
# LUTr-License: CC0-1.0
# LUTr-License-URL: https://freshluts.com/termsandconditions
# LUTr-License-Basis: site-terms
# LUTr-Transform-Class: creative-look
# LUTr-Tags: creative, freshluts, community, cube, blue
# LUTr-Input-Color-Space:
# LUTr-Input-Gamut: unspecified
# LUTr-Input-Transfer: unspecified
# LUTr-Output-Color-Space: srgb
# LUTr-Output-Gamut: rec709
# LUTr-Output-Transfer: srgb
# LUTr-Color-Space-Confidence: camera-profile-input-required
# LUTr-Domain-Normalized: true
# LUTr-Shaper: none
# LUTr-Original-Grid: 33x33x33
# LUTr-Conversion-Grid: 33x33x33
# LUTr-Conversion-Interpolation: none
# LUTr-Conversion-Method: Metadata normalization; numeric LUT samples preserved
# LUTr-Conversion-Tool: LUTr scripts/convert-all-to-cube.mjs 2.0.0
# LUTr-Conversion-Date: 2026-07-28
# LUTr-Asset-URL: https://freshluts.com/luts/613
# LUTr-Author: Youssef
# LUTr-Author-URL: https://freshluts.com/users/52679
# LUTr-Attribution: Youssef via Fresh LUTs
# LUTr-Source-Labels: gamma=Other; color=Blue; key=Neutral; style=Colorful
# LUTr-Note: Preserve this metadata and the upstream license notices when redistributing.
TITLE "Sea"
LUT_3D_SIZE 33
DOMAIN_MIN 0 0 0
DOMAIN_MAX 1 1 1
0 0 0.0371405
0.0419013 0 0.0327306
0.0914473 0 0.0289616
0.141009 0 0.0248417
0.190799 0 0.0206607
0.240711 0 0.0164797
0.290669 0 0.0122988
0.340581 0 0.00816358
0.390723 0 0.00433356
0.440406 0 0.000259403
0.489555 0 0
0.538262 0 0
0.586465 0 0
0.634134 0 0
0.681315 0 0
0.72755 0 0
0.773159 0 0
0.818128 0 0
0.862287 0 0
0.906004 0 0
0.949325 0 0
0.99205 0 0
1 0 0
1 0 0
1 0 0
1 0 0
1 0 0
1 0 0
1 0 0
1 0 0
1 0 0
1 0 0
1 0 0
0 0.0349279 0.0241093
0.0297093 0.0313726 0.0205539
0.0790417 0.0273747 0.016556
0.128664 0.0233005 0.0124819
0.1785 0.0191958 0.0083772
0.228473 0.0150454 0.00422675
0.278462 0.0109102 0.0000915541
0.328679 0.00708019 0
0.378592 0.00300603 0
0.428321 0 0
0.477501 0 0
0.526238 0 0
0.574731 0 0
0.622385 0 0
0.669367 0 0
0.715618 0 0
0.761242 0 0
0.806241 0 0
0.850675 0 0
0.894301 0 0
0.937453 0 0
0.980179 0 0
1 0 0
1 0 0
1 0 0
1 0 0
1 0 0
1 0 0
1 0 0
1 0 0
1 0 0
1 0 0
1 0 0
0 0.075349 0.0108644
0.0162814 0.0715953 0.0071107
0.0656291 0.067628 0.00314336
0.115282 0.0635843 0
0.165164 0.0595102 0
0.215396 0.0556497 0
0.265476 0.0515908 0
0.31545 0.0475166 0
0.365377 0.0434577 0
0.415122 0.0394598 0
0.464332 0.0356298 0
0.513375 0.0321965 0
0.561624 0.0286259 0
0.609277 0.0252232 0
0.656275 0.0220035 0
0.702541 0.0189822 0
0.74818 0.0161288 0
0.793454 0.0137331 0
0.837629 0.0112612 0
0.881254 0.00895705 0
0.924392 0.00677501 0
0.967117 0.00469978 0
1 0.00276188 0
1 0.00109865 0
1 0 0
1 0 0
1 0 0
1 0 0
1 0 0
1 0 0
1 0 0
1 0 0
1 0 0
0 0.115663 0
0.00291447 0.11194 0
0.0523079 0.108019 0
0.101991 0.104021 0
0.152102 0.100175 0
0.202213 0.0961624 0
0.252277 0.0920882 0
0.302266 0.0880446 0
0.352209 0.0840162 0
0.401984 0.0800336 0
0.451484 0.0764935 0
0.500267 0.0728008 0
0.548516 0.0692302 0
0.596185 0.0658427 0
0.643183 0.062623 0
0.689708 0.0598611 0
0.735363 0.0570382 0
0.780362 0.0543526 0
0.824537 0.0518807 0
0.868147 0.0495766 0
0.911284 0.0473793 0
0.954284 0.0455634 0
0.996643 0.0435645 0
1 0.0416419 0
1 0.0397498 0
1 0.0378729 0
1 0.0360723 0
1 0.0345312 0
1 0.0327306 0
1 0.0309148 0
1 0.0290379 0
1 0.0271153 0
1 0.0252079 0
0 0.156176 0
0 0.152483 0
0.0390173 0.148699 0
0.0888991 0.144884 0
0.138827 0.140856 0
0.188876 0.136797 0
0.238956 0.132738 0
0.288945 0.12871 0
0.339101 0.124865 0
0.388983 0.121004 0
0.438209 0.117189 0
0.486992 0.113497 0
0.535241 0.109926 0
0.58291 0.106538 0
0.630152 0.103548 0
0.676463 0.100572 0
0.722087 0.0977188 0
0.767056 0.0950179 0
0.811215 0.092546 0
0.854826 0.0902113 0
0.898222 0.0882887 0
0.940917 0.086183 0
0.983261 0.0841535 0
1 0.0822003 0
1 0.0802777 0
1 0.0783703 0
1 0.0767987 0
1 0.0749676 0
1 0.0731212 0
1 0.0712596 0
1 0.0693523 0
1 0.0676738 0
1 0.0656291 0
0 0.196811 0
0 0.193256 0
0.025742 0.189532 0
0.0754711 0.185565 0
0.125414 0.181552 0
0.175479 0.177508 0
0.225574 0.173465 0
0.275731 0.169604 0
0.325826 0.165713 0
0.375616 0.161746 0
0.424842 0.157931 0
0.47361 0.154223 0
0.521874 0.150668 0
0.569802 0.147539 0
0.616785 0.144305 0
0.663035 0.141268 0
0.708659 0.138399 0
0.753613 0.135683 0
0.797955 0.133394 0
0.841611 0.131106 0
0.884703 0.128862 0
0.927367 0.126726 0
0.96968 0.124681 0
1 0.122698 0
1 0.120974 0
1 0.119051 0
1 0.117174 0
1 0.115297 0
1 0.113405 0
1 0.111482 0
1 0.109804 0
1 0.107805 0
1 0.105715 0
0 0.237797 0
0 0.234134 0
0.0123445 0.230259 0
0.062089 0.226307 0
0.112032 0.222293 0
0.162173 0.218341 0
0.212467 0.214496 0
0.26247 0.210468 0
0.312444 0.206455 0
0.362219 0.202472 0
0.411429 0.198642 0
0.460319 0.195071 0
0.508705 0.191638 0
0.556344 0.18822 0
0.603326 0.18497 0
0.649546 0.181903 0
0.695125 0.179004 0
0.740246 0.17644 0
0.784451 0.174014 0
0.828 0.171633 0
0.871046 0.16936 0
0.91368 0.167178 0
0.955947 0.165087 0
0.998154 0.163302 0
1 0.161334 0
1 0.159335 0
1 0.157397 0
1 0.155474 0
1 0.153536 0
1 0.151843 0
1 0.149813 0
1 0.147738 0
1 0.145602 0
0 0.278508 0
0 0.274861 0
0 0.270985 0
0.0487678 0.267033 0
0.0987716 0.263066 0
0.14905 0.259251 0
0.19913 0.255192 0
0.249134 0.251148 0
0.299077 0.24712 0
0.348852 0.243137 0
0.398154 0.239399 0
0.447074 0.235843 0
0.495277 0.232227 0
0.542885 0.228779 0
0.589822 0.225513 0
0.636027 0.222416 0
0.681865 0.21976 0
0.726757 0.216983 0
0.770825 0.21442 0
0.814328 0.211994 0
0.857343 0.209689 0
0.900084 0.207614 0
0.942428 0.205585 0
0.984344 0.20351 0
1 0.20145 0
1 0.19942 0
1 0.197421 0
1 0.195621 0
1 0.193698 0
1 0.191669 0
1 0.189593 0
1 0.187457 0
1 0.185229 0
0 0.319158 0
0 0.315496 0
0 0.31162 0
0.035874 0.307942 0
0.0858015 0.303914 0
0.135851 0.299855 0
0.185916 0.295781 0
0.235889 0.291722 0
0.285847 0.287709 0
0.335836 0.28394 0
0.385 0.280064 0
0.433722 0.27631 0
0.48191 0.272679 0
0.529488 0.2692 0
0.576455 0.265949 0
0.622812 0.26302 0
0.66833 0.260044 0
0.713191 0.257237 0
0.757214 0.254612 0
0.800656 0.252125 0
0.843748 0.249897 0
0.886442 0.247776 0
0.928618 0.245594 0
0.970459 0.243442 0
1 0.241321 0
1 0.239216 0
1 0.237354 0
1 0.235386 0
1 0.23331 0
1 0.231189 0
1 0.229053 0
1 0.226856 0
1 0.224826 0
0 0.359716 0
0 0.356039 0
0 0.352438 0
0.0228275 0.348455 0
0.0727398 0.344411 0
0.122759 0.340322 0
0.172793 0.336217 0
0.222751 0.332143 0
0.272923 0.328344 0
0.322637 0.3243 0
0.371756 0.320378 0
0.420432 0.316579 0
0.468574 0.312917 0
0.516182 0.309453 0
0.563256 0.30631 0
0.609369 0.30312 0
0.65481 0.300099 0
0.699626 0.29723 0
0.743603 0.294575 0
0.787274 0.292317 0
0.830182 0.289876 0
0.872648 0.287541 0
0.914763 0.285298 0
0.956558 0.283101 0
0.998306 0.28101 0
1 0.278996 0
1 0.276875 0
1 0.274754 0
1 0.272618 0
1 0.270436 0
1 0.26833 0
1 0.266163 0
1 0.263798 0
0 0.400168 0
0 0.39675 0
0 0.392828 0
0.00982681 0.388815 0
0.0597238 0.384741 0
0.109712 0.380636 0
0.159976 0.376776 0
0.209903 0.372656 0
0.25977 0.368536 0
0.309438 0.364462 0
0.358541 0.36051 0
0.407172 0.356664 0
0.455528 0.353216 0
0.503014 0.34963 0
0.549828 0.346227 0
0.595895 0.343008 0
0.641291 0.33991 0
0.686046 0.337011 0
0.730205 0.334524 0
0.773556 0.331945 0
0.816403 0.329458 0
0.858793 0.327047 0
0.900816 0.324712 0
0.942626 0.322515 0
0.984405 0.32047 0
1 0.318212 0
1 0.316014 0
1 0.313787 0
1 0.311574 0
1 0.309453 0
1 0.307271 0
1 0.304891 0
1 0.302419 0
0 0.440543 0
0 0.43682 0
0 0.432868 0
0 0.428824 0
0.0472267 0.42472 0
0.0974136 0.420798 0
0.147433 0.416678 0
0.197299 0.412512 0
0.24712 0.408331 0
0.296727 0.404196 0
0.345769 0.400198 0
0.394629 0.396582 0
0.442664 0.392813 0
0.490089 0.389166 0
0.536828 0.385687 0
0.582834 0.382406 0
0.628183 0.379278 0
0.673136 0.376547 0
0.71696 0.373739 0
0.76022 0.371069 0
0.803006 0.368521 0
0.845335 0.366049 0
0.887572 0.363912 0
0.929198 0.361563 0
0.970687 0.359213 0
1 0.356893 0
1 0.35462 0
1 0.352377 0
1 0.350256 0
1 0.347906 0
1 0.34551 0
1 0.343053 0
1 0.340505 0
0 0.480339 0
0 0.47657 0
0 0.472587 0
0 0.468513 0
0.0353552 0.464637 0
0.0852674 0.460426 0
0.135164 0.456199 0
0.185 0.451987 0
0.23476 0.447776 0
0.284535 0.443793 0
0.333562 0.439796 0
0.382086 0.435828 0
0.430076 0.431998 0
0.47744 0.428305 0
0.524117 0.424765 0
0.570291 0.421637 0
0.615564 0.418448 0
0.660182 0.415396 0
0.70396 0.412528 0
0.747143 0.409781 0
0.789822 0.407126 0
0.832334 0.404837 0
0.874235 0.402365 0
0.915801 0.399954 0
0.957198 0.397513 0
0.998474 0.395087 0
1 0.392737 0
1 0.3906 0
1 0.388205 0
1 0.385748 0
1 0.383246 0
1 0.380682 0
1 0.378119 0
0 0.519783 0
0 0.515984 0
0 0.512062 0
0 0.50808 0
0.0235752 0.503883 0
0.0734264 0.499626 0
0.123278 0.495338 0
0.173037 0.491051 0
0.222919 0.486961 0
0.272526 0.482811 0
0.321431 0.478691 0
0.369879 0.474647 0
0.417777 0.470741 0
0.46508 0.466972 0
0.511925 0.4636 0
0.557824 0.460197 0
0.602991 0.456901 0
0.647517 0.453742 0
0.691203 0.450797 0
0.73434 0.44799 0
0.777203 0.445533 0
0.819348 0.442878 0
0.861128 0.440299 0
0.902617 0.437797 0
0.943954 0.435294 0
0.985397 0.433036 0
1 0.430549 0
1 0.428077 0
1 0.425589 0
1 0.423056 0
1 0.420462 0
1 0.418036 0
1 0.415305 0
0 0.558816 0
0 0.555077 0
0 0.551141 0
0 0.546944 0
0.012192 0.542672 0
0.0619821 0.538369 0
0.111788 0.534035 0
0.161746 0.529961 0
0.211368 0.525597 0
0.260792 0.521263 0
0.309651 0.517082 0
0.358038 0.512993 0
0.406012 0.509163 0
0.45333 0.505409 0
0.499855 0.501717 0
0.545632 0.498207 0
0.590753 0.49485 0
0.635187 0.491615 0
0.678981 0.488762 0
0.722057 0.485908 0
0.764599 0.483101 0
0.806668 0.480385 0
0.848371 0.477714 0
0.889738 0.47509 0
0.931182 0.472709 0
0.97232 0.47013 0
1 0.467582 0
1 0.465003 0
1 0.462409 0
1 0.459785 0
1 0.457359 0
1 0.454627 0
1 0.451789 0
0 0.597665 0
0 0.593744 0
0 0.589593 0
0 0.585351 0
0.0012665 0.581003 0
0.0510567 0.576699 0
0.100969 0.572473 0
0.150591 0.568063 0
0.200168 0.563653 0
0.2495 0.559243 0
0.298253 0.554955 0
0.346685 0.550896 0
0.394583 0.54699 0
0.441718 0.543069 0
0.488151 0.539269 0
0.533822 0.535653 0
0.578851 0.532204 0
0.623392 0.529061 0
0.666987 0.526024 0
0.709911 0.523003 0
0.752316 0.520088 0
0.794293 0.517266 0
0.83592 0.514534 0
0.877455 0.512078 0
0.918578 0.509361 0
0.959564 0.506645 0
1 0.504005 0
1 0.501366 0
1 0.498894 0
1 0.496208 0
1 0.493446 0
1 0.490623 0
1 0.487739 0
0 0.635767 0
0 0.631769 0
0 0.627527 0
0 0.623209 0
0 0.618875 0
0.0406806 0.614618 0
0.0903182 0.610117 0
0.139849 0.605615 0
0.189334 0.601129 0
0.238621 0.596658 0
0.287556 0.592554 0
0.33576 0.588281 0
0.383413 0.584115 0
0.430472 0.580102 0
0.476829 0.576257 0
0.522515 0.572656 0
0.56759 0.569238 0
0.611841 0.56582 0
0.655268 0.5626 0
0.698116 0.559518 0
0.740429 0.556512 0
0.782452 0.553719 0
0.824063 0.550973 0
0.865278 0.548196 0
0.906325 0.545403 0
0.947234 0.542611 0
0.987823 0.539879 0
1 0.537316 0
1 0.534646 0
1 0.531853 0
1 0.529015 0
1 0.526116 0
1 0.52314 0
0 0.673365 0
0 0.669322 0
0 0.665003 0
0 0.660853 0
0 0.656367 0
0.0304265 0.651835 0
0.0799878 0.647272 0
0.129442 0.642695 0
0.178851 0.638117 0
0.22826 0.633768 0
0.27686 0.629343 0
0.324987 0.624994 0
0.372549 0.620737 0
0.419486 0.616602 0
0.465827 0.612726 0
0.511513 0.609125 0
0.556344 0.605478 0
0.600504 0.601953 0
0.643809 0.598627 0
0.686549 0.595438 0
0.728923 0.592477 0
0.770855 0.589609 0
0.812284 0.586664 0
0.853376 0.58378 0
0.894347 0.580911 0
0.93521 0.578073 0
0.975982 0.575509 0
1 0.572686 0
1 0.569848 0
1 0.56701 0
1 0.564111 0
1 0.561303 0
1 0.558343 0
0 0.710536 0
0 0.706401 0
0 0.702296 0
0 0.69781 0
0 0.693233 0
0.020264 0.688594 0
0.069749 0.68394 0
0.119142 0.679286 0
0.168688 0.674861 0
0.217762 0.670176 0
0.266239 0.665629 0
0.314275 0.661189 0
0.361776 0.656855 0
0.408881 0.652903 0
0.455024 0.648829 0
0.50042 0.644938 0
0.545174 0.641199 0
0.589258 0.637629 0
0.632547 0.634272 0
0.67538 0.631174 0
0.71754 0.628 0
0.759274 0.624933 0
0.800641 0.621927 0
0.841672 0.618967 0
0.882643 0.616114 0
0.923568 0.613321 0
0.964034 0.610468 0
1 0.607599 0
1 0.6047 0
1 0.60177 0
1 0.598947 0
1 0.596048 0
1 0.59295 0
0 0.747387 0
0 0.743206 0
0 0.738735 0
0 0.734157 0
0 0.729519 0
0.010544 0.724788 0
0.0601511 0.720256 0
0.109438 0.715496 0
0.158648 0.710735 0
0.20766 0.705989 0
0.256046 0.70135 0
0.30396 0.696788 0
0.351598 0.692607 0
0.398367 0.688319 0
0.444465 0.684184 0
0.489769 0.680201 0
0.534417 0.676371 0
0.578439 0.672724 0
0.621836 0.669474 0
0.664424 0.666133 0
0.706493 0.662882 0
0.748135 0.659709 0
0.789425 0.656641 0
0.830488 0.653696 0
0.871473 0.650858 0
0.912169 0.647868 0
0.952575 0.644923 0
0.992874 0.641993 0
1 0.639048 0
1 0.636316 0
1 0.633295 0
1 0.630213 0
1 0.627085 0
0 0.783597 0
0 0.779278 0
0 0.774701 0
0 0.770016 0
0 0.76527 0
0.00114443 0.760693 0
0.0504616 0.755871 0
0.0996262 0.751003 0
0.14873 0.74612 0
0.197635 0.741268 0
0.24596 0.736568 0
0.294057 0.732189 0
0.341344 0.727657 0
0.388022 0.723262 0
0.434028 0.719051 0
0.479286 0.715023 0
0.524102 0.71136 0
0.568017 0.707607 0
0.611109 0.704051 0
0.65362 0.700633 0
0.695659 0.697337 0
0.73724 0.694118 0
0.778683 0.691203 0
0.819593 0.688121 0
0.860365 0.685069 0
0.90103 0.682017 0
0.94136 0.679026 0
0.981659 0.676066 0
1 0.673259 0
1 0.670237 0
1 0.667185 0
1 0.664057 0
1 0.660868 0
0 0.819257 0
0 0.814847 0
0 0.810208 0
0 0.805585 0
0 0.800824 0
0 0.795911 0
0.0407874 0.790982 0
0.0898756 0.786038 0
0.138903 0.781079 0
0.1879 0.776333 0
0.236194 0.771572 0
0.28397 0.766888 0
0.331197 0.762295 0
0.377798 0.757839 0
0.423713 0.753536 0
0.469123 0.749645 0
0.513664 0.745708 0
0.557519 0.741894 0
0.600534 0.738277 0
0.642985 0.734783 0
0.684947 0.731426 0
0.726726 0.728389 0
0.76788 0.7252 0
0.808743 0.722057 0
0.849439 0.718929 0
0.890043 0.715816 0
0.930373 0.712825 0
0.970779 0.709987 0
1 0.706935 0
1 0.703868 0
1 0.700755 0
1 0.697612 0
1 0.694606 0
0 0.854505 0
0 0.849989 0
0 0.845365 0
0 0.84065 0
0 0.835706 0
0 0.830716 0
0.0311284 0.825681 0
0.0801404 0.820661 0
0.129274 0.815808 0
0.178103 0.81088 0
0.226246 0.805982 0
0.273945 0.801205 0
0.321111 0.796551 0
0.367651 0.792035 0
0.413748 0.787915 0
0.458854 0.783734 0
0.503304 0.77969 0
0.547112 0.77583 0
0.590082 0.772168 0
0.632685 0.768826 0
0.674617 0.765438 0
0.716091 0.762097 0
0.757198 0.758862 0
0.798016 0.755673 0
0.838682 0.752514 0
0.879454 0.749584 0
0.919707 0.746502 0
0.959869 0.74342 0
1 0.740337 0
1 0.737224 0
1 0.734081 0
1 0.731106 0
1 0.727855 0
0 0.889342 0
0 0.884993 0
0 0.88014 0
0 0.875212 0
0 0.870192 0
0 0.865141 0
0.0216068 0.860136 0
0.0706798 0.855177 0
0.119554 0.850065 0
0.168246 0.844999 0
0.216342 0.840055 0
0.263966 0.835218 0
0.311192 0.830625 0
0.357778 0.826139 0
0.403586 0.821729 0
0.448646 0.817502 0
0.493034 0.813413 0
0.536767 0.809476 0
0.579873 0.805936 0
0.622278 0.802411 0
0.664134 0.798947 0
0.705562 0.79556 0
0.746624 0.792264 0
0.787396 0.789029 0
0.828229 0.786053 0
0.868757 0.782864 0
0.908965 0.779736 0
0.949081 0.776623 0
0.989197 0.773495 0
1 0.770367 0
1 0.767407 0
1 0.764187 0
1 0.760891 0
0 0.924025 0
0 0.919371 0
0 0.914473 0
0 0.909453 0
0 0.904356 0
0 0.89929 0
0.0120851 0.894301 0
0.0609598 0.889143 0
0.109758 0.88397 0
0.158373 0.878828 0
0.206409 0.873823 0
0.254108 0.869047 0
0.301274 0.864393 0
0.347677 0.859739 0
0.393423 0.855268 0
0.438437 0.85098 0
0.482795 0.84686 0
0.526726 0.843122 0
0.569589 0.839338 0
0.611887 0.835706 0
0.653696 0.832197 0
0.695094 0.828779 0
0.736278 0.825605 0
0.777066 0.8224 0
0.817655 0.81915 0
0.858137 0.81593 0
0.898314 0.812787 0
0.938399 0.809628 0
0.978668 0.806668 0
1 0.803525 0
1 0.80032 0
1 0.797086 0
1 0.793759 0
0 0.95819 0
0 0.953445 0
0 0.94847 0
0 0.943404 0
0 0.938491 0
0 0.933288 0
0.00228885 0.928054 0
0.0511025 0.922835 0
0.0998703 0.917617 0
0.148486 0.912474 0
0.196643 0.907591 0
0.24416 0.902632 0
0.291142 0.89781 0
0.33753 0.893141 0
0.38323 0.888609 0
0.428275 0.884367 0
0.472709 0.880323 0
0.516381 0.87631 0
0.559213 0.872511 0
0.601465 0.868833 0
0.643244 0.865278 0
0.684718 0.861952 0
0.725811 0.858686 0
0.766506 0.85539 0
0.807065 0.85211 0
0.847501 0.848844 0
0.887648 0.84567 0
0.927901 0.842664 0
0.968002 0.839551 0
1 0.836347 0
1 0.833112 0
1 0.829847 0
1 0.82652 0
0 0.992157 0
0 0.98735 0
0 0.9823 0
0 0.977401 0
0 0.972183 0
0 0.966934 0
0 0.961654 0
0.0410315 0.956374 0
0.0897688 0.951125 0
0.138491 0.94609 0
0.186419 0.940978 0
0.23389 0.935973 0
0.280827 0.931105 0
0.327169 0.926375 0
0.3729 0.921889 0
0.41799 0.917678 0
0.462242 0.913451 0
0.505852 0.909407 0
0.548653 0.905562 0
0.59089 0.901854 0
0.632853 0.898497 0
0.674174 0.895003 0
0.715129 0.891615 0
0.75581 0.888289 0
0.796338 0.884978 0
0.836866 0.881819 0
0.877104 0.878721 0
0.917144 0.875517 0
0.957183 0.872328 0
0.997253 0.869108 0
1 0.865858 0
1 0.86273 0
1 0.859449 0
0 1 0
0 1 0
0 1 0
0 1 0
0 1 0
0 1 0
0 0.994965 0
0.0312963 0.989868 0
0.079942 0.984543 0
