site/assets/luts/freshluts--0000996-behind-blue-eyes.cube
# LUTr-Schema-Version: 2
# LUTr-ID: freshluts--0000996-behind-blue-eyes
# LUTr-Title: Behind Blue Eyes
# LUTr-Collection: Fresh LUTs
# LUTr-Collection-ID: freshluts-community
# LUTr-Source: https://freshluts.com
# LUTr-Retrieved: 2026-07-27
# LUTr-Source-File: submissions-raw/freshluts/cubes/996__bbe3_cube_150.A042_05040056_C023.cube
# LUTr-Source-Format: CUBE
# LUTr-Source-SHA256: 61853baa55ab866a04aef4e72c4066140dc3fcdaf57ed868c9fb553d6c116e57
# LUTr-License: CC0-1.0
# LUTr-License-URL: https://freshluts.com/termsandconditions
# LUTr-License-Basis: site-terms
# LUTr-Transform-Class: creative-look
# LUTr-Tags: creative, freshluts, community, cube, bmd-film-4k, cool
# LUTr-Input-Color-Space: bmd-film-4k
# LUTr-Input-Gamut: bmd-film-gamut
# LUTr-Input-Transfer: bmd-film-4k
# LUTr-Output-Color-Space: srgb
# LUTr-Output-Gamut: rec709
# LUTr-Output-Transfer: srgb
# LUTr-Color-Space-Confidence: inferred-from-source-label
# LUTr-Domain-Normalized: true
# LUTr-Shaper: none
# LUTr-Original-Grid: 33x33x33
# LUTr-Conversion-Grid: 33x33x33
# LUTr-Conversion-Interpolation: none
# LUTr-Conversion-Method: Metadata normalization; numeric LUT samples preserved
# LUTr-Conversion-Tool: LUTr scripts/convert-all-to-cube.mjs 2.0.0
# LUTr-Conversion-Date: 2026-07-28
# LUTr-Asset-URL: https://freshluts.com/luts/996
# LUTr-Author: Le Salon des Inconnus
# LUTr-Author-URL: https://freshluts.com/users/102026
# LUTr-Attribution: Le Salon des Inconnus via Fresh LUTs
# LUTr-Source-Labels: gamma=Blackmagic BMD Film 4K; color=None; key=Neutral; style=Colorful
# LUTr-Note: Preserve this metadata and the upstream license notices when redistributing.
TITLE "Behind Blue Eyes"
LUT_3D_SIZE 9
DOMAIN_MIN 0 0 0
DOMAIN_MAX 1 1 1
0 0 0
0.0125582 0.0124208 0.0124514
0.0791791 0.0387579 0.0399634
0.376349 0.0043183 0.00399786
1 0 0
1 0 0
1 0 0
1 0 0
1 0 0
0.0262608 0.0451514 0.0345464
0.0343175 0.0512093 0.0378271
0.282658 0.0706951 0
0.642527 0 0
1 0 0
1 0 0
1 0 0
1 0 0
1 0 0
0 0.373022 0
0 0.364324 0
0.284169 0.349142 0
0.748119 0.311986 0
1 0.255528 0
1 0.228733 0
1 0.163027 0
1 0.0591897 0
1 0 0
0 0.694759 0
0 0.689326 0
0.0369573 0.678676 0
0.567147 0.647089 0
0.994003 0.599054 0
1 0.554742 0
1 0.515877 0
1 0.488273 0
1 0.468956 0
0 0.985031 0
0 0.982544 0
0 0.977676 0
0.284916 0.944717 0
0.780957 0.882811 0
1 0.837247 0
1 0.80737 0
1 0.788998 0
1 0.77789 0
0 1 0
0 1 0
0 1 0
0 1 0
0.593698 1 0
0.972259 1 0.344259
1 0.993164 0.796689
1 0.994079 0.889494
1 0.991867 0.845914
0.256947 1 0.211429
0.250401 1 0.204089
0.233646 1 0.186374
0.206531 1 0.157351
0.881743 1 0.799237
1 1 1
1 1 1
1 1 1
1 1 1
0.360967 1 0.320439
0.360967 1 0.320439
0.360967 1 0.320439
0.360967 1 0.320439
0.629404 1 0.551553
1 1 1
1 1 1
1 1 1
1 1 1
0.360967 1 0.320439
0.360967 1 0.320439
0.360967 1 0.320439
0.360967 1 0.320439
0.360967 1 0.320439
1 1 1
1 1 1
1 1 1
1 1 1
0 0 0
0.0154574 0.0150759 0.0155947
0.0890822 0.0393072 0.0625162
0.426078 0 0.0514534
1 0 0
1 0 0
1 0 0
1 0 0
1 0 0
0.0246433 0.0289769 0.0302281
0.0272984 0.0306249 0.0326848
0.14844 0.0537575 0.0710002
0.394705 0.00262455 0.0226291
0.998749 0 0
1 0 0
1 0 0
1 0 0
1 0 0
0 0.346258 0
0 0.337743 0
0.273167 0.321294 0
0.767803 0.276234 0
1 0.223209 0
1 0.194736 0
1 0.110124 0
1 0 0
1 0 0
0 0.677699 0
0 0.672297 0
0.0265049 0.662165 0
0.565515 0.631418 0
0.997223 0.583886 0
1 0.538659 0
1 0.500557 0
1 0.471931 0
1 0.452155 0
0 0.976776 0
0 0.974319 0
0 0.969848 0
0.28336 0.935927 0
0.782467 0.874296 0
1 0.828748 0
1 0.798459 0
1 0.779522 0
1 0.767956 0
0 1 0
0 1 0
0 1 0
0 1 0
0.583734 1 0
0.971481 1 0.289784
1 0.991913 0.75404
1 0.992218 0.852872
1 0.989349 0.796017
0.228153 1 0.181369
0.220401 1 0.172122
0.20621 1 0.157015
0.185275 1 0.135027
0.856855 1 0.757351
1 1 1
1 1 1
1 1 1
1 1 1
0.360967 1 0.320439
0.360967 1 0.320439
0.360967 1 0.320439
0.360967 1 0.320439
0.613519 1 0.536126
1 1 1
1 1 1
1 1 1
1 1 1
0.360967 1 0.320439
0.360967 1 0.320439
0.360967 1 0.320439
0.360967 1 0.320439
0.360967 1 0.320439
1 1 1
1 1 1
1 1 1
1 1 1
0.000167849 0.000167849 0.000167849
0.0160372 0.015671 0.0178683
0.106493 0.0375677 0.124529
0.55964 0 0.274678
1 0 0.3028
1 0 0.275074
1 0 0.247196
1 0 0.210346
1 0 0.182666
0.00639353 0.00640879 0.00642405
0.00758373 0.00758373 0.00764477
0.0770581 0.0373693 0.094316
0.494118 0 0.243519
1 0 0.272816
1 0 0.24445
1 0 0.21445
1 0 0.172457
1 0 0.141909
0 0.298634 0.306371
0 0.289036 0.303822
0.253742 0.271305 0.281971
0.675608 0.235111 0.245182
1 0.177157 0.220645
1 0.117784 0.204868
1 0.00375372 0.160571
1 0 0.100221
1 0 0.0602121
0 0.64744 0.180819
0 0.641581 0.173022
0.0104677 0.629877 0.161227
0.559579 0.599939 0.129427
1 0.549706 0
1 0.503746 0
1 0.4757 0
1 0.444816 0
1 0.423346 0
0 0.964569 0
0 0.961257 0
0 0.956359 0
0.281178 0.921736 0
0.785687 0.860166 0
1 0.815549 0
1 0.783703 0
1 0.763439 0
1 0.751339 0
0 1 0
0 1 0
0 1 0
0 1 0
0.571893 1 0
0.969436 1 0.208042
1 0.989395 0.668956
1 0.988296 0.774426
1 0.985367 0.718837
0.188083 1 0.139071
0.182254 1 0.132342
0.166354 1 0.115953
0.143359 1 0.0914473
0.814328 1 0.686183
1 1 1
1 1 1
1 1 1
1 1 1
0.360967 1 0.320439
0.360967 1 0.320439
0.360967 1 0.320439
0.360967 1 0.320439
0.590616 1 0.514565
1 1 1
1 1 1
1 1 1
1 1 1
0.360967 1 0.320439
0.360967 1 0.320439
0.360967 1 0.320439
0.360967 1 0.320439
0.360967 1 0.320439
1 1 1
1 1 1
1 1 1
1 1 1
0 0 0
0.0112459 0.0112612 0.0120851
0.162356 0.0341344 0.281605
0.655039 0 0.581125
1 0 0.631846
1 0 0.597955
1 0 0.584192
1 0 0.565652
1 0 0.552651
0 0 0
0.000686656 0.000686656 0.000686656
0.147112 0.0365911 0.271092
0.596582 0 0.544381
1 0 0.615839
1 0 0.581994
1 0 0.56762
1 0 0.548363
1 0 0.535271
0 0.237034 0.963897
0 0.222171 0.951156
0.336385 0.264546 0.937896
0.66714 0.113313 0.610178
1 0.0259709 0.600427
1 0 0.558358
1 0 0.539803
1 0 0.51931
1 0 0.505852
0 0.591348 0.577157
0 0.585061 0.573724
0 0.574441 0.566598
0.550713 0.544762 0.543862
0.982925 0.495598 0.510338
1 0.458213 0.494575
1 0.427741 0.485008
1 0.394751 0.470878
1 0.370626 0.460975
0 0.927382 0.429221
0 0.924147 0.425711
0 0.91873 0.420356
0.278126 0.887877 0.380118
0.77232 0.81593 0.32874
1 0.764721 0.170626
1 0.71635 0.104555
1 0.699397 0.0970169
1 0.68893 0.0858625
0 1 0.263005
0 1 0.257939
0 1 0.249348
0 1 0.233036
0.535424 1 0.125689
0.959243 0.997269 0.358587
1 0.983322 0.714199
1 0.983246 0.792874
1 0.978073 0.71603
0.177691 1 0.2748
0.165698 1 0.257954
0.145418 1 0.228031
0.116976 1 0.176898
0.757961 1 0.621927
1 1 1
1 1 1
1 1 1
1 1 1
0.360967 1 0.320439
0.360967 1 0.320439
0.360967 1 0.320439
0.360967 1 0.320439
0.544656 1 0.47306
1 1 1
1 1 1
1 1 1
1 1 1
0.360967 1 0.320439
0.360967 1 0.320439
0.363973 1 0.323659
0.360967 1 0.320439
0.360967 1 0.320439
1 1 1
1 1 1
1 1 1
1 1 1
0.00015259 0.00015259 0.00015259
0.0133974 0.0135805 0.0161746
0.259968 0.0122377 0.630106
0.74255 0 0.996719
1 0 0.959594
1 0 0.918059
1 0 0.910979
1 0 0.898573
1 0 0.890455
0 0 0
0 0 0
0.170855 0.0314031 0.443198
0.701183 0 0.974807
1 0 0.948821
1 0 0.907988
1 0 0.900053
1 0 0.88716
1 0 0.879118
0.0189364 0.0236515 0.0441138
0.0154879 0.0166781 0.0221866
0.0871595 0.0400092 0.273213
0.626291 0 0.922011
1 0 0.930968
1 0 0.890913
1 0 0.881697
1 0 0.868513
1 0 0.860334
0 0.550118 1
0 0.543282 1
0 0.533486 1
0.852827 0.724788 1
0.986938 0.394537 0.912673
1 0.351003 0.912963
1 0.313207 0.889189
1 0.267277 0.877089
1 0.23183 0.867109
0 0.8654 0.84715
0 0.861646 0.845136
0 0.856138 0.842924
0.246342 0.817914 0.81004
0.765606 0.75729 0.758007
1 0.710994 0.724834
1 0.67274 0.701778
1 0.653132 0.693858
1 0.641093 0.68954
0 1 0.700877
0 1 0.698817
0 1 0.695109
0 1 0.687449
0.507561 1 0.599603
0.943557 0.968917 0.67921
1 0.96994 0.835294
1 0.973724 0.878355
1 0.965454 0.840208
0.220752 1 0.694087
0.208057 1 0.687587
0.193774 1 0.678859
0.159854 1 0.660716
0.799237 1 0.859785
1 1 1
1 1 1
1 1 1
1 1 1
0.692561 1 0.848524
0.692073 1 0.847211
0.688243 1 0.844205
0.685069 1 0.839826
0.75079 1 0.863539
1 1 1
1 1 1
1 1 1
1 1 1
0.659907 1 0.815946
0.658457 1 0.814038
0.656001 1 0.810803
0.648707 1 0.803632
0.63859 1 0.792477
1 1 1
1 1 1
1 1 1
1 1 1
0.019028 0.0200504 0.0360113
0.024033 0.0249332 0.0620584
0.340124 0 1
0.791485 0 1
1 0 1
1 0 1
1 0 1
1 0 1
1 0 1
0.018616 0.0195773 0.0339513
0.0185245 0.0194705 0.0335393
0.241443 0.000350958 0.86804
0.766873 0 1
1 0 1
1 0 1
1 0 1
1 0 1
1 0 1
0.0178225 0.0187076 0.0305943
0.0177157 0.0185855 0.0301823
0.10959 0.0372015 0.428168
0.714641 0 1
1 0 1
1 0 1
1 0 1
1 0 1
1 0 1
0 0.41915 1
0 0.40911 1
0 0.392691 1
0.81738 0.477668 1
1 0.345235 1
1 0.171832 1
1 0.0961318 1
1 0 1
1 0 1
0 0.785687 1
0 0.782422 1
0 0.777386 1
0.0208133 0.816144 1
1 1 1
1 0.634913 1
1 0.592309 1
1 0.569726 1
1 0.555611 1
0 1 1
0 1 1
0 1 1
0 1 1
0.463279 0.986542 0.980163
0.936049 0.927687 0.928649
1 0.939467 0.94432
1 0.946303 0.951827
1 0.934249 0.942824
0.179202 1 0.952392
0.168734 1 0.951064
0.150805 1 0.948455
0.118532 1 0.944762
0.720836 1 0.947829
1 1 1
1 1 1
1 1 1
1 1 1
0.8822 1 0.979355
0.880949 1 0.978927
0.879973 1 0.978469
0.878096 1 0.977615
0.87686 1 0.97641
1 1 1
1 1 1
1 1 1
1 1 1
0.87126 1 0.973953
0.869093 1 0.973358
0.868544 1 0.972824
0.866575 1 0.971756
0.860349 1 0.969375
1 1 1
1 1 1
1 1 1
1 1 1
0.0346227 0.0348821 0.174182
0.0345006 0.0348058 0.173022
0.365042 0 1
0.82501 0 1
1 0 1
1 0 1
1 0 1
1 0 1
1 0 1
0.0341344 0.0345159 0.168307
0.0340276 0.0344244 0.167147
0.273579 0 1
0.79736 0 1
1 0 1
1 0 1
1 0 1
1 0 1
1 0 1
0.033402 0.0340429 0.160342
0.0333104 0.0339818 0.159243
0.129534 0.0267185 0.691371
0.746334 0 1
1 0 1
1 0 1
1 0 1
1 0 1
1 0 1
0 0.159457 1
0 0.13843 1
0 0.105074 1
0.684581 0.0606851 1
0.986938 0 1
1 0 1
1 0 1
1 0 1
1 0 1
0 0.783185 1
0 0.778759 1
0 0.771664 1
0.18201 0.799435 1
1 1 1
1 0.750134 1
1 0.509819 1
1 0.482368 1
1 0.466331 1
0 1 1
0 1 1
0 1 1
0 0.993576 1
0.281132 1 1
1 1 1
1 0.885252 1
1 0.889952 1
1 0.87274 1
0.112306 1 1
0.101305 1 1
0.0878767 1 1
0.0641947 1 1
0.583841 1 1
1 1 1
1 1 1
1 1 1
1 1 1
0.981445 1 1
0.980652 1 1
0.980087 1 1
0.968017 1 1
0.935195 1 1
1 1 1
1 1 1
1 1 1
1 1 1
0.973648 1 1
0.973816 1 1
0.972839 1 1
0.972839 1 1
0.969909 1 1
1 1 1
1 1 1
1 1 1
1 1 1
0.0383459 0.0375525 0.220432
0.0383459 0.0375525 0.220432
0.336156 0 1
0.828275 0 1
1 0 1
1 0 1
1 0 1
1 0 1
1 0 1
0.0383459 0.0375525 0.220432
0.0383459 0.0375525 0.220432
0.244831 0 1
0.799146 0 1
1 0 1
1 0 1
1 0 1
1 0 1
1 0 1
0.0383459 0.0375525 0.220432
0.0383459 0.0375525 0.220432
0.110292 0.030808 0.657816
0.744991 0 1
1 0 1
1 0 1
1 0 1
1 0 1
1 0 1
0.0383459 0.0375525 0.220432
0.0383459 0.0375525 0.220432
0.0383459 0.0375525 0.220432
0.594522 0 1
1 0 1
1 0 1
1 0 1
1 0 1
1 0 1
0 0.716014 1
0 0.710369 1
0 0.702571 1
0.25713 0.755673 1
1 1 1
1 0.789593 1
1 0.470024 1
1 0.427848 1
1 0.408469 1
0 0.972839 1
0 0.971542 1
0 0.96936 1
0 0.965927 1
0.640986 0.997421 1
1 1 1
1 1 1
1 0.869093 1
1 0.844053 1
0.0445411 1 1
0.0359808 1 1
0.0223239 1 1
0.00471504 1 1
0.457984 1 1
1 1 1
1 1 1
1 1 1
1 1 1
0.959777 1 1
0.953216 1 1
0.939406 1 1
0.913649 1 1
0.865721 1 1
1 1 1
1 1 1
1 1 1
1 1 1
0.998444 1 1
0.998428 1 1
0.998337 1 1
0.998108 1 1
0.997955 1 1
1 1 1
1 1 1
1 1 1
1 1 1
0.0383459 0.0375525 0.220432
0.0383459 0.0375525 0.220432
0.309361 0 1
0.819089 0 1
1 0 1
1 0 1
1 0 1
1 0 1
1 0 1
0.0383459 0.0375525 0.220432
0.0383459 0.0375525 0.220432
0.216571 0 1
0.789761 0 1
1 0 1
1 0 1
1 0 1
1 0 1
1 0 1
0.0383459 0.0375525 0.220432
0.0383459 0.0375525 0.220432
0.0918135 0.0370642 0.547326
0.733608 0 1
1 0 1
1 0 1
1 0 1
1 0 1
1 0 1
0.0383459 0.0375525 0.220432
0.0383459 0.0375525 0.220432
0.0383459 0.0375525 0.220432
0.575265 0 1
1 0 1
1 0 1
1 0 1
1 0 1
1 0 1
0 0.658259 1
0 0.652415 1
0 0.64303 1
0.262135 0.695705 1
1 0.915816 1
1 0.630549 1
1 0.411597 1
1 0.364294 1
1 0.33959 1
0 0.96144 1
0 0.960906 1
0 0.960266 1
0 0.958312 1
0.697688 0.991791 1
1 1 1
1 1 1
1 0.827588 1
1 0.807782 1
0 1 1
0 1 1
0 1 1
0 1 1
0.354025 1 1
1 1 1
1 1 1
1 1 1
1 1 1
0.890593 1 1
0.882582 1 1
0.867323 1 1
0.833875 1 1
0.778805 1 1
1 1 1
1 1 1
1 1 1
1 1 1
1 1 1
1 1 1
1 1 1
1 1 1
1 1 1
1 1 1
1 1 1
1 1 1
1 1 1
