site/assets/luts/freshluts--0002277-picturefx-lac-du-connemara.cube
# LUTr-Schema-Version: 2
# LUTr-ID: freshluts--0002277-picturefx-lac-du-connemara
# LUTr-Title: PictureFX Lac du Connemara
# LUTr-Collection: Fresh LUTs
# LUTr-Collection-ID: freshluts-community
# LUTr-Source: https://freshluts.com
# LUTr-Retrieved: 2026-07-27
# LUTr-Source-File: submissions-raw/freshluts/cubes/2277__PictureFX-Lac-du-Connemara.cube
# LUTr-Source-Format: CUBE
# LUTr-Source-SHA256: e402155d753ef647fefee141136a681e18b38a3101062120c11208d7e8cc8bb3
# LUTr-License: CC0-1.0
# LUTr-License-URL: https://freshluts.com/termsandconditions
# LUTr-License-Basis: site-terms
# LUTr-Transform-Class: creative-look
# LUTr-Tags: creative, freshluts, community, cube, warm
# LUTr-Input-Color-Space:
# LUTr-Input-Gamut: unspecified
# LUTr-Input-Transfer: unspecified
# LUTr-Output-Color-Space: srgb
# LUTr-Output-Gamut: rec709
# LUTr-Output-Transfer: srgb
# LUTr-Color-Space-Confidence: camera-profile-input-required
# LUTr-Domain-Normalized: true
# LUTr-Shaper: none
# LUTr-Original-Grid: 25x25x25
# LUTr-Conversion-Grid: 25x25x25
# LUTr-Conversion-Interpolation: none
# LUTr-Conversion-Method: Metadata normalization; numeric LUT samples preserved
# LUTr-Conversion-Tool: LUTr scripts/convert-all-to-cube.mjs 2.0.0
# LUTr-Conversion-Date: 2026-07-28
# LUTr-Asset-URL: https://freshluts.com/luts/2277
# LUTr-Author: MarcR.
# LUTr-Author-URL: https://freshluts.com/users/86490
# LUTr-Attribution: MarcR. via Fresh LUTs
# LUTr-Source-Labels: gamma=Other; color=Warm; key=Neutral; style=NEUTRAL
# LUTr-Note: Preserve this metadata and the upstream license notices when redistributing.
# LUTr-Upstream-Comment: Generated with IWLTBAP LUT Generator
# LUTr-Upstream-Comment: Website: http://luts.iwltbap.com
# LUTr-Upstream-Comment: LUT size
# LUTr-Upstream-Comment: LUT data points
TITLE "PictureFX Lac du Connemara"
LUT_3D_SIZE 5
DOMAIN_MIN 0 0 0
DOMAIN_MAX 1 1 1
0.011765 0.011765 0.011765
0.196078 0.019608 0.027451
0.482353 0 0.031373
0.658824 0 0.054902
0.698039 0 0.082353
0.047059 0.180392 0.023529
0.231373 0.192157 0.015686
0.533333 0.164706 0.007843
0.705882 0.090196 0.035294
0.733333 0.031373 0.07451
0.078431 0.415686 0
0.290196 0.454902 0
0.615686 0.47451 0
0.823529 0.447059 0
0.862745 0.443137 0
0.176471 0.647059 0
0.368627 0.686275 0
0.678431 0.737255 0
0.894118 0.760784 0
0.898039 0.694118 0
0.301961 0.756863 0
0.411765 0.784314 0
0.635294 0.815686 0
0.811765 0.847059 0
0.894118 0.858824 0
0 0.011765 0.203922
0.176471 0.015686 0.207843
0.482353 0 0.203922
0.662745 0 0.215686
0.701961 0 0.25098
0.011765 0.176471 0.2
0.207843 0.192157 0.207843
0.537255 0.172549 0.2
0.713725 0.090196 0.215686
0.745098 0.003922 0.254902
0.066667 0.423529 0.141176
0.254902 0.466667 0.105882
0.619608 0.498039 0.011765
0.843137 0.482353 0.031373
0.882353 0.470588 0.156863
0.117647 0.65098 0
0.341176 0.694118 0
0.67451 0.756863 0
0.894118 0.796078 0
0.905882 0.756863 0
0.329412 0.760784 0
0.427451 0.784314 0
0.643137 0.839216 0
0.807843 0.898039 0
0.905882 0.933333 0
0 0 0.462745
0.086275 0 0.470588
0.454902 0 0.482353
0.662745 0 0.478431
0.709804 0 0.490196
0 0.133333 0.482353
0.098039 0.14902 0.498039
0.509804 0.12549 0.513725
0.709804 0.007843 0.501961
0.741176 0 0.509804
0 0.411765 0.494118
0.015686 0.466667 0.513725
0.584314 0.52549 0.517647
0.854902 0.498039 0.52549
0.905882 0.478431 0.54902
0 0.666667 0.462745
0 0.756863 0.454902
0.639216 0.843137 0.435294
0.937255 0.866667 0.435294
0.964706 0.815686 0.501961
0.298039 0.901961 0.427451
0.427451 0.917647 0.423529
0.662745 0.952941 0.423529
0.870588 0.972549 0.439216
0.968627 0.984314 0.490196
0 0 0.65098
0 0 0.65098
0.392157 0 0.694118
0.654902 0 0.698039
0.72549 0 0.709804
0 0.070588 0.67451
0 0.070588 0.67451
0.423529 0.062745 0.72549
0.682353 0 0.721569
0.721569 0 0.705882
0 0.384314 0.729412
0 0.4 0.74902
0.462745 0.494118 0.831373
0.823529 0.462745 0.847059
0.905882 0.443137 0.854902
0 0.6 0.760784
0 0.690196 0.803922
0.517647 0.843137 0.862745
0.937255 0.870588 0.878431
0.996078 0.882353 0.894118
0.576471 0.972549 0.827451
0.67451 0.984314 0.843137
0.815686 0.992157 0.862745
0.933333 1 0.878431
1 0.996078 0.898039
0 0 0.709804
0 0 0.709804
0.145098 0 0.741176
0.572549 0 0.764706
0.74902 0 0.768627
0 0 0.705882
0 0 0.705882
0.215686 0 0.745098
0.588235 0 0.768627
0.780392 0 0.8
0 0.356863 0.784314
0 0.376471 0.803922
0.282353 0.466667 0.890196
0.701961 0.462745 0.92549
0.913725 0.47451 0.937255
0 0.631373 0.901961
0 0.709804 0.937255
0.588235 0.803922 0.984314
0.866667 0.854902 0.996078
0.996078 0.878431 0.996078
0.564706 0.972549 0.992157
0.67451 0.984314 0.996078
0.898039 1 1
1 1 1
1 1 1
