site/assets/luts/freshluts--0000878-picturefx-velvia.cube
# LUTr-Schema-Version: 2
# LUTr-ID: freshluts--0000878-picturefx-velvia
# LUTr-Title: PictureFX Velvia
# LUTr-Collection: Fresh LUTs
# LUTr-Collection-ID: freshluts-community
# LUTr-Source: https://freshluts.com
# LUTr-Retrieved: 2026-07-27
# LUTr-Source-File: submissions-raw/freshluts/cubes/878__PictureFX-Velvia.cube
# LUTr-Source-Format: CUBE
# LUTr-Source-SHA256: cef82367677e86b25732557c5ff4baf234c3a26620431032b0bfff8812740dda
# LUTr-License: CC0-1.0
# LUTr-License-URL: https://freshluts.com/termsandconditions
# LUTr-License-Basis: site-terms
# LUTr-Transform-Class: creative-look
# LUTr-Tags: creative, freshluts, community, cube, film-emulation
# LUTr-Input-Color-Space:
# LUTr-Input-Gamut: unspecified
# LUTr-Input-Transfer: unspecified
# LUTr-Output-Color-Space: srgb
# LUTr-Output-Gamut: rec709
# LUTr-Output-Transfer: srgb
# LUTr-Color-Space-Confidence: camera-profile-input-required
# LUTr-Domain-Normalized: true
# LUTr-Shaper: none
# LUTr-Original-Grid: 25x25x25
# LUTr-Conversion-Grid: 25x25x25
# LUTr-Conversion-Interpolation: none
# LUTr-Conversion-Method: Metadata normalization; numeric LUT samples preserved
# LUTr-Conversion-Tool: LUTr scripts/convert-all-to-cube.mjs 2.0.0
# LUTr-Conversion-Date: 2026-07-28
# LUTr-Asset-URL: https://freshluts.com/luts/878
# LUTr-Author: MarcR.
# LUTr-Author-URL: https://freshluts.com/users/86490
# LUTr-Attribution: MarcR. via Fresh LUTs
# LUTr-Source-Labels: gamma=Other; color=None; key=Neutral; style=Film emulation
# LUTr-Note: Preserve this metadata and the upstream license notices when redistributing.
# LUTr-Upstream-Comment: Generated with IWLTBAP LUT Generator
# LUTr-Upstream-Comment: Website: http://luts.iwltbap.com
# LUTr-Upstream-Comment: LUT size
# LUTr-Upstream-Comment: LUT data points
TITLE "PictureFX Velvia"
LUT_3D_SIZE 9
DOMAIN_MIN 0 0 0
DOMAIN_MAX 1 1 1
0 0 0
0.015686 0 0
0.14902 0 0
0.411765 0 0
0.631373 0 0
0.835294 0 0
0.996078 0 0
1 0 0
1 0 0
0 0.039216 0
0.043137 0.043137 0
0.180392 0.078431 0
0.431373 0.12549 0
0.643137 0.117647 0
0.839216 0.062745 0
0.996078 0 0
1 0 0
1 0 0
0 0.243137 0
0.090196 0.25098 0
0.258824 0.258824 0
0.462745 0.294118 0
0.658824 0.298039 0
0.85098 0.278431 0
1 0.223529 0
1 0.141176 0
1 0 0
0 0.482353 0
0 0.482353 0
0.282353 0.482353 0
0.478431 0.486275 0
0.678431 0.482353 0
0.847059 0.466667 0
1 0.411765 0
1 0.372549 0
1 0.345098 0
0 0.678431 0
0 0.678431 0
0.192157 0.678431 0
0.462745 0.67451 0
0.654902 0.67451 0
0.843137 0.65098 0
0.976471 0.615686 0
1 0.580392 0
1 0.545098 0
0 0.831373 0
0 0.827451 0
0 0.827451 0
0.376471 0.819608 0
0.596078 0.815686 0
0.792157 0.807843 0
0.952941 0.780392 0
1 0.745098 0
1 0.709804 0
0 0.929412 0
0 0.929412 0
0 0.929412 0
0.364706 0.921569 0
0.576471 0.913725 0
0.729412 0.909804 0
0.894118 0.898039 0
1 0.878431 0
1 0.839216 0
0 1 0
0 1 0
0.086275 1 0
0.360784 0.996078 0
0.537255 0.988235 0
0.694118 0.980392 0
0.839216 0.972549 0
0.968627 0.964706 0
1 0.94902 0
0.141176 1 0
0.207843 1 0
0.317647 1 0
0.443137 1 0
0.568627 1 0
0.694118 1 0
0.815686 1 0.027451
0.92549 1 0.066667
1 1 0.101961
0 0 0.015686
0.035294 0 0.035294
0.180392 0 0.062745
0.45098 0 0.062745
0.686275 0 0
0.882353 0 0
1 0 0
1 0 0
1 0 0
0 0.043137 0.043137
0.043137 0.043137 0.043137
0.219608 0.019608 0.023529
0.47451 0 0
0.682353 0 0
0.882353 0 0
1 0 0
1 0 0
1 0 0
0 0.254902 0
0 0.258824 0
0.258824 0.262745 0
0.482353 0.278431 0
0.686275 0.258824 0
0.882353 0.207843 0
1 0.121569 0
1 0 0
1 0 0
0 0.490196 0
0 0.490196 0
0.247059 0.486275 0
0.478431 0.486275 0
0.686275 0.478431 0
0.858824 0.454902 0
1 0.407843 0
1 0.372549 0
1 0.34902 0
0 0.686275 0
0 0.686275 0
0.141176 0.682353 0
0.45098 0.67451 0
0.658824 0.67451 0
0.847059 0.647059 0
0.980392 0.615686 0
1 0.576471 0
1 0.552941 0
0 0.831373 0
0 0.831373 0
0 0.827451 0
0.372549 0.823529 0
0.603922 0.815686 0
0.792157 0.807843 0
0.952941 0.780392 0
1 0.745098 0
1 0.709804 0
0 0.929412 0
0 0.929412 0
0 0.92549 0
0.372549 0.921569 0
0.580392 0.913725 0
0.733333 0.909804 0
0.894118 0.898039 0
1 0.878431 0
1 0.839216 0
0 1 0
0 1 0
0.137255 0.996078 0
0.372549 0.996078 0
0.545098 0.988235 0
0.698039 0.980392 0
0.839216 0.972549 0
0.968627 0.964706 0
1 0.945098 0
0.192157 1 0.156863
0.243137 1 0.156863
0.341176 1 0.160784
0.454902 1 0.164706
0.576471 1 0.172549
0.698039 1 0.160784
0.815686 1 0.172549
0.929412 1 0.184314
1 1 0.2
0 0 0.207843
0.094118 0 0.223529
0.243137 0 0.243137
0.466667 0 0.286275
0.690196 0 0.278431
0.898039 0 0.243137
1 0 0.231373
1 0 0.227451
1 0 0.231373
0 0.062745 0.262745
0 0.023529 0.270588
0.266667 0 0.266667
0.505882 0 0.278431
0.705882 0 0.258824
0.898039 0 0.235294
1 0 0.227451
1 0 0.227451
1 0 0.231373
0 0.266667 0.270588
0 0.266667 0.270588
0.262745 0.262745 0.262745
0.509804 0.231373 0.235294
0.705882 0.211765 0.231373
0.890196 0.172549 0.223529
1 0.121569 0.223529
1 0.086275 0.227451
1 0.101961 0.235294
0 0.494118 0.231373
0 0.498039 0.219608
0.180392 0.494118 0.2
0.482353 0.486275 0.2
0.694118 0.470588 0.203922
0.870588 0.447059 0.196078
1 0.415686 0.203922
1 0.392157 0.215686
1 0.380392 0.235294
0 0.690196 0.152941
0 0.686275 0.152941
0 0.686275 0.141176
0.431373 0.682353 0.129412
0.662745 0.67451 0.145098
0.85098 0.647059 0.172549
0.980392 0.615686 0.192157
1 0.584314 0.215686
1 0.564706 0.231373
0 0.831373 0.117647
0 0.831373 0.117647
0 0.827451 0.086275
0.368627 0.823529 0.078431
0.607843 0.815686 0.12549
0.796078 0.807843 0.098039
0.952941 0.780392 0.129412
1 0.745098 0.211765
1 0.717647 0.243137
0 0.929412 0.164706
0 0.929412 0.152941
0 0.92549 0.156863
0.384314 0.921569 0.141176
0.576471 0.913725 0.152941
0.737255 0.909804 0.14902
0.894118 0.898039 0.14902
1 0.87451 0.176471
1 0.843137 0.266667
0 1 0.239216
0 0.996078 0.239216
0.231373 0.996078 0.239216
0.407843 0.992157 0.243137
0.564706 0.988235 0.243137
0.705882 0.980392 0.231373
0.843137 0.972549 0.239216
0.968627 0.960784 0.243137
1 0.945098 0.262745
0.278431 1 0.32549
0.313725 1 0.329412
0.388235 1 0.329412
0.486275 1 0.329412
0.6 1 0.333333
0.713725 1 0.333333
0.823529 1 0.32549
0.929412 1 0.333333
1 1 0.337255
0 0 0.447059
0.12549 0 0.458824
0.298039 0 0.47451
0.482353 0 0.486275
0.698039 0 0.498039
0.909804 0 0.478431
1 0 0.443137
1 0 0.427451
1 0 0.431373
0 0.011765 0.529412
0 0 0.513725
0.301961 0 0.513725
0.513725 0 0.509804
0.717647 0 0.498039
0.905882 0 0.47451
1 0 0.443137
1 0 0.431373
1 0 0.435294
0 0.266667 0.521569
0 0.258824 0.52549
0.235294 0.239216 0.513725
0.505882 0.215686 0.505882
0.717647 0.180392 0.486275
0.890196 0.152941 0.458824
1 0.145098 0.443137
1 0.192157 0.439216
1 0.235294 0.439216
0 0.494118 0.498039
0 0.494118 0.498039
0.109804 0.494118 0.494118
0.486275 0.486275 0.486275
0.713725 0.447059 0.45098
0.882353 0.431373 0.439216
1 0.419608 0.435294
1 0.415686 0.435294
1 0.423529 0.439216
0 0.690196 0.454902
0 0.690196 0.45098
0 0.690196 0.435294
0.407843 0.682353 0.415686
0.666667 0.67451 0.415686
0.85098 0.643137 0.423529
0.976471 0.619608 0.423529
1 0.596078 0.431373
1 0.588235 0.439216
0 0.831373 0.407843
0 0.831373 0.407843
0 0.827451 0.407843
0.376471 0.823529 0.396078
0.611765 0.815686 0.396078
0.8 0.803922 0.388235
0.94902 0.776471 0.4
1 0.74902 0.431373
1 0.729412 0.443137
0 0.92549 0.419608
0 0.92549 0.419608
0.164706 0.92549 0.415686
0.411765 0.917647 0.411765
0.592157 0.913725 0.411765
0.745098 0.905882 0.403922
0.898039 0.898039 0.4
1 0.87451 0.411765
1 0.847059 0.454902
0.12549 0.996078 0.443137
0.207843 0.996078 0.443137
0.32549 0.992157 0.443137
0.458824 0.988235 0.443137
0.592157 0.984314 0.443137
0.72549 0.976471 0.443137
0.847059 0.968627 0.431373
0.968627 0.960784 0.435294
1 0.945098 0.443137
0.356863 1 0.482353
0.384314 1 0.482353
0.443137 1 0.482353
0.52549 1 0.482353
0.623529 1 0.482353
0.729412 1 0.482353
0.827451 1 0.470588
0.929412 1 0.47451
1 1 0.478431
0 0 0.686275
0.058824 0 0.670588
0.290196 0 0.67451
0.482353 0 0.686275
0.694118 0 0.698039
0.905882 0 0.698039
1 0 0.65098
1 0 0.611765
1 0 0.588235
0 0 0.74902
0 0 0.745098
0.27451 0 0.729412
0.494118 0 0.721569
0.705882 0 0.713725
0.901961 0 0.694118
1 0 0.647059
1 0 0.611765
1 0 0.592157
0 0.247059 0.733333
0 0.239216 0.729412
0.231373 0.227451 0.721569
0.486275 0.211765 0.713725
0.701961 0.176471 0.701961
0.894118 0.117647 0.682353
1 0.109804 0.639216
1 0.2 0.611765
1 0.278431 0.6
0 0.47451 0.717647
0 0.47451 0.717647
0.090196 0.466667 0.717647
0.447059 0.45098 0.705882
0.690196 0.439216 0.694118
0.878431 0.423529 0.662745
1 0.427451 0.631373
1 0.447059 0.619608
1 0.47451 0.615686
0 0.678431 0.686275
0 0.678431 0.686275
0 0.678431 0.682353
0.4 0.678431 0.678431
0.666667 0.670588 0.666667
0.847059 0.639216 0.639216
0.972549 0.623529 0.623529
1 0.615686 0.615686
1 0.615686 0.615686
0 0.827451 0.623529
0 0.827451 0.623529
0 0.827451 0.627451
0.384314 0.819608 0.623529
0.611765 0.811765 0.611765
0.8 0.803922 0.603922
0.937255 0.776471 0.611765
1 0.756863 0.611765
1 0.741176 0.611765
0 0.92549 0.607843
0 0.92549 0.607843
0.239216 0.921569 0.607843
0.439216 0.917647 0.603922
0.603922 0.909804 0.6
0.756863 0.901961 0.6
0.894118 0.894118 0.588235
1 0.87451 0.588235
1 0.85098 0.611765
0.266667 0.992157 0.607843
0.305882 0.992157 0.607843
0.388235 0.988235 0.607843
0.498039 0.984314 0.607843
0.615686 0.980392 0.603922
0.737255 0.976471 0.603922
0.85098 0.968627 0.596078
0.964706 0.960784 0.592157
1 0.945098 0.596078
0.419608 1 0.619608
0.443137 1 0.619608
0.490196 1 0.619608
0.560784 1 0.619608
0.647059 1 0.619608
0.745098 1 0.619608
0.839216 1 0.619608
0.933333 1 0.607843
1 1 0.607843
0 0 0.827451
0 0 0.827451
0.247059 0 0.839216
0.45098 0 0.847059
0.658824 0 0.878431
0.862745 0 0.862745
1 0 0.85098
1 0 0.796078
1 0 0.756863
0 0 0.898039
0 0 0.894118
0.223529 0 0.886275
0.462745 0 0.878431
0.654902 0 0.87451
0.85098 0 0.866667
1 0 0.847059
1 0 0.796078
1 0 0.756863
0 0.247059 0.894118
0 0.235294 0.890196
0.196078 0.227451 0.882353
0.454902 0.215686 0.870588
0.654902 0.2 0.866667
0.854902 0.152941 0.85098
1 0.117647 0.835294
1 0.180392 0.788235
1 0.270588 0.756863
0 0.454902 0.882353
0 0.45098 0.878431
0.172549 0.45098 0.866667
0.443137 0.447059 0.862745
0.65098 0.439216 0.854902
0.843137 0.427451 0.839216
0.996078 0.427451 0.815686
1 0.447059 0.780392
1 0.47451 0.756863
0 0.639216 0.847059
0 0.639216 0.847059
0.12549 0.639216 0.847059
0.431373 0.639216 0.839216
0.639216 0.635294 0.831373
0.823529 0.631373 0.823529
0.960784 0.623529 0.796078
1 0.623529 0.772549
1 0.631373 0.756863
0 0.815686 0.815686
0 0.811765 0.815686
0.058824 0.811765 0.811765
0.407843 0.811765 0.811765
0.623529 0.803922 0.803922
0.8 0.8 0.8
0.921569 0.776471 0.776471
1 0.760784 0.760784
1 0.752941 0.752941
0 0.921569 0.764706
0 0.921569 0.764706
0.258824 0.917647 0.764706
0.447059 0.913725 0.764706
0.607843 0.909804 0.760784
0.760784 0.901961 0.756863
0.894118 0.894118 0.74902
0.992157 0.87451 0.74902
1 0.854902 0.745098
0.286275 0.988235 0.741176
0.329412 0.988235 0.741176
0.411765 0.984314 0.741176
0.521569 0.984314 0.741176
0.635294 0.976471 0.741176
0.745098 0.972549 0.741176
0.854902 0.964706 0.737255
0.960784 0.956863 0.729412
1 0.941176 0.729412
0.454902 1 0.737255
0.478431 1 0.737255
0.52549 1 0.741176
0.592157 1 0.741176
0.670588 1 0.741176
0.756863 1 0.737255
0.847059 1 0.737255
0.933333 1 0.729412
1 1 0.729412
0 0 1
0 0 1
0.133333 0 1
0.411765 0 1
0.627451 0 0.984314
0.8 0 0.984314
0.972549 0 0.976471
1 0 0.960784
1 0 0.905882
0 0 1
0 0 1
0.152941 0 1
0.423529 0 0.996078
0.623529 0 0.984314
0.796078 0 0.988235
0.968627 0 0.972549
1 0 0.956863
1 0 0.905882
0 0.239216 1
0 0.239216 1
0.211765 0.235294 0.992157
0.439216 0.227451 0.984314
0.607843 0.231373 0.988235
0.796078 0.207843 0.980392
0.960784 0.196078 0.960784
1 0.2 0.945098
1 0.286275 0.898039
0 0.447059 0.980392
0 0.45098 0.980392
0.247059 0.45098 0.980392
0.45098 0.447059 0.972549
0.631373 0.443137 0.964706
0.8 0.439216 0.956863
0.94902 0.447059 0.945098
1 0.45098 0.929412
1 0.482353 0.890196
0 0.619608 0.960784
0 0.619608 0.960784
0.27451 0.623529 0.956863
0.470588 0.631373 0.94902
0.635294 0.627451 0.945098
0.788235 0.623529 0.937255
0.929412 0.623529 0.92549
1 0.623529 0.905882
1 0.635294 0.878431
0 0.776471 0.933333
0.003922 0.776471 0.933333
0.290196 0.776471 0.933333
0.466667 0.776471 0.929412
0.627451 0.776471 0.921569
0.772549 0.772549 0.913725
0.909804 0.768627 0.905882
1 0.760784 0.890196
1 0.756863 0.866667
0.117647 0.905882 0.905882
0.211765 0.905882 0.901961
0.345098 0.901961 0.901961
0.490196 0.901961 0.901961
0.627451 0.898039 0.898039
0.768627 0.894118 0.894118
0.890196 0.890196 0.890196
0.976471 0.87451 0.87451
1 0.862745 0.858824
0.309804 0.988235 0.866667
0.34902 0.984314 0.866667
0.423529 0.984314 0.862745
0.529412 0.980392 0.862745
0.639216 0.976471 0.862745
0.764706 0.968627 0.862745
0.866667 0.960784 0.862745
0.956863 0.956863 0.858824
1 0.941176 0.85098
0.470588 1 0.843137
0.490196 1 0.843137
0.533333 1 0.843137
0.6 1 0.843137
0.682353 1 0.843137
0.768627 1 0.847059
0.85098 1 0.843137
0.933333 1 0.839216
1 1 0.831373
0 0 1
0 0 1
0.113725 0 1
0.384314 0 1
0.596078 0 1
0.745098 0 1
0.913725 0 1
1 0 1
1 0 1
0 0 1
0 0 1
0.215686 0 1
0.423529 0 1
0.603922 0 1
0.74902 0 1
0.909804 0 1
1 0 1
1 0 1
0 0.25098 1
0 0.25098 1
0.262745 0.25098 1
0.447059 0.243137 1
0.588235 0.262745 1
0.752941 0.258824 1
0.905882 0.258824 1
1 0.27451 1
1 0.309804 1
0.078431 0.45098 1
0.184314 0.45098 1
0.321569 0.45098 1
0.470588 0.45098 1
0.631373 0.45098 1
0.772549 0.454902 1
0.905882 0.462745 1
1 0.47451 1
1 0.490196 1
0.192157 0.615686 1
0.262745 0.619608 1
0.376471 0.623529 1
0.509804 0.627451 1
0.639216 0.627451 1
0.768627 0.627451 1
0.894118 0.627451 1
1 0.631373 1
1 0.639216 0.988235
0.254902 0.752941 1
0.309804 0.752941 1
0.407843 0.756863 1
0.521569 0.760784 1
0.65098 0.760784 1
0.768627 0.760784 0.996078
0.878431 0.760784 0.988235
0.988235 0.756863 0.984314
1 0.756863 0.972549
0.341176 0.870588 0.984314
0.376471 0.870588 0.984314
0.45098 0.870588 0.984314
0.54902 0.870588 0.984314
0.654902 0.870588 0.980392
0.764706 0.870588 0.972549
0.870588 0.870588 0.964706
0.964706 0.866667 0.964706
1 0.862745 0.952941
0.407843 0.968627 0.968627
0.435294 0.968627 0.964706
0.490196 0.968627 0.964706
0.572549 0.964706 0.964706
0.670588 0.964706 0.960784
0.776471 0.960784 0.956863
0.870588 0.956863 0.956863
0.952941 0.952941 0.952941
1 0.941176 0.941176
0.517647 1 0.941176
0.533333 1 0.941176
0.572549 1 0.937255
0.611765 1 0.937255
0.686275 1 0.937255
0.776471 1 0.937255
0.862745 1 0.937255
0.937255 1 0.933333
1 1 0.933333
0 0 1
0 0 1
0.239216 0 1
0.423529 0 1
0.568627 0 1
0.705882 0 1
0.843137 0.082353 1
0.968627 0.152941 1
1 0.231373 1
0 0 1
0.117647 0.035294 1
0.278431 0.015686 1
0.431373 0.05098 1
0.580392 0.094118 1
0.709804 0.160784 1
0.843137 0.2 1
0.968627 0.239216 1
1 0.298039 1
0.168627 0.290196 1
0.231373 0.290196 1
0.333333 0.294118 1
0.454902 0.305882 1
0.592157 0.313725 1
0.721569 0.329412 1
0.85098 0.34902 1
0.968627 0.376471 1
1 0.415686 1
0.301961 0.466667 1
0.337255 0.466667 1
0.411765 0.470588 1
0.513725 0.47451 1
0.627451 0.482353 1
0.74902 0.490196 1
0.854902 0.505882 1
0.964706 0.52549 1
1 0.541176 1
0.415686 0.627451 1
0.443137 0.627451 1
0.494118 0.631373 1
0.568627 0.631373 1
0.658824 0.635294 1
0.760784 0.639216 1
0.862745 0.643137 1
0.960784 0.65098 1
1 0.662745 1
0.454902 0.741176 1
0.478431 0.745098 1
0.529412 0.74902 1
0.603922 0.752941 1
0.690196 0.756863 1
0.772549 0.760784 1
0.862745 0.760784 1
0.952941 0.764706 1
1 0.768627 1
0.494118 0.847059 1
0.513725 0.85098 1
0.552941 0.85098 1
0.619608 0.85098 1
0.698039 0.854902 1
0.784314 0.858824 1
0.866667 0.858824 1
0.945098 0.858824 1
1 0.858824 1
0.545098 0.937255 1
0.552941 0.941176 1
0.588235 0.941176 1
0.647059 0.941176 1
0.713725 0.941176 1
0.788235 0.941176 1
0.862745 0.937255 1
0.937255 0.937255 1
1 0.937255 1
0.603922 1 1
0.615686 1 1
0.643137 1 1
0.686275 1 1
0.745098 1 1
0.807843 1 1
0.87451 1 1
0.941176 1 1
1 1 1
