site/assets/luts/freshluts--0000638-golden-time.cube
# LUTr-Schema-Version: 2
# LUTr-ID: freshluts--0000638-golden-time
# LUTr-Title: Golden Time
# LUTr-Collection: Fresh LUTs
# LUTr-Collection-ID: freshluts-community
# LUTr-Source: https://freshluts.com
# LUTr-Retrieved: 2026-07-27
# LUTr-Source-File: submissions-raw/freshluts/cubes/638__yangabuz_8.A040_02111302_S.cube
# LUTr-Source-Format: CUBE
# LUTr-Source-SHA256: 9d64783621633903aa35dd8d186a3f8698e2609f0cbe2de84484b682ab3f53e6
# LUTr-License: CC0-1.0
# LUTr-License-URL: https://freshluts.com/termsandconditions
# LUTr-License-Basis: site-terms
# LUTr-Transform-Class: creative-look
# LUTr-Tags: creative, freshluts, community, cube, vintage, warm, bmd-film-4k
# LUTr-Input-Color-Space:
# LUTr-Input-Gamut: bmd-film-gamut
# LUTr-Input-Transfer: bmd-film-4k
# LUTr-Output-Color-Space: srgb
# LUTr-Output-Gamut: rec709
# LUTr-Output-Transfer: srgb
# LUTr-Color-Space-Confidence: camera-profile-input-required
# LUTr-Domain-Normalized: true
# LUTr-Shaper: none
# LUTr-Original-Grid: 33x33x33
# LUTr-Conversion-Grid: 33x33x33
# LUTr-Conversion-Interpolation: none
# LUTr-Conversion-Method: Metadata normalization; numeric LUT samples preserved
# LUTr-Conversion-Tool: LUTr scripts/convert-all-to-cube.mjs 2.0.0
# LUTr-Conversion-Date: 2026-07-28
# LUTr-Asset-URL: https://freshluts.com/luts/638
# LUTr-Author: berat
# LUTr-Author-URL: https://freshluts.com/users/10185
# LUTr-Attribution: berat via Fresh LUTs
# LUTr-Source-Labels: gamma=Blackmagic BMD Film 4K; color=Warm; key=Neutral; style=Vintage
# LUTr-Note: Preserve this metadata and the upstream license notices when redistributing.
TITLE "Golden Time"
LUT_3D_SIZE 5
DOMAIN_MIN 0 0 0
DOMAIN_MAX 1 1 1
0 0 0
0.0917983 0 0
0.220523 0 0
0.356664 0 0
0.497765 0 0
0 0.0867781 0
0.09131 0.09131 0
0.232227 0.0901656 0
0.379934 0.0878004 0
0.555901 0.0871595 0
0 0.222599 0
0.0918746 0.254444 0
0.299855 0.289967 0
0.593194 0.307881 0
0.820279 0.342092 0
0 0.545785 0
0.121584 0.598352 0
0.390448 0.627268 0.00874342
0.677226 0.641749 0.0179904
0.887755 0.661585 0.0316472
0.0472725 0.815839 0.0159457
0.195438 0.835142 0.0405127
0.444541 0.851759 0.0457465
0.717311 0.868589 0.0458381
0.910491 0.874586 0.0489052
0 0 0.0935073
0.0907301 0 0.0907301
0.219577 0 0.0775158
0.356847 0 0.0647135
0.499931 0 0.0571756
0 0.0875257 0.0875257
0.0942855 0.0942855 0.0942855
0.235355 0.0932937 0.0932937
0.383383 0.0912032 0.0912032
0.589837 0.093904 0.0915999
0 0.230076 0.0833143
0.0980697 0.272099 0.102388
0.321141 0.30724 0.0966354
0.616464 0.32665 0.0938582
0.833051 0.36173 0.117327
0 0.562966 0.0796521
0.141192 0.618799 0.115038
0.410224 0.645075 0.133623
0.692363 0.656672 0.142
0.896452 0.673442 0.154543
0.0584878 0.823316 0.138323
0.205112 0.842298 0.16289
0.455329 0.858991 0.167407
0.725643 0.875334 0.166964
0.917021 0.881148 0.170123
0 0 0.231418
0.0861524 0 0.228214
0.215396 0 0.215396
0.35407 0 0.204013
0.501869 0 0.198657
0 0.0857099 0.227771
0.093904 0.093904 0.235966
0.235126 0.0930648 0.235126
0.390799 0.0912337 0.23331
0.635111 0.0967117 0.256748
0 0.241184 0.238087
0.100328 0.288853 0.277913
0.33669 0.319295 0.299977
0.631189 0.339391 0.317174
0.844358 0.374212 0.350301
0 0.576944 0.29366
0.153643 0.631525 0.345632
0.42031 0.654841 0.366735
0.698772 0.663005 0.373938
0.904112 0.677943 0.387228
0.0648814 0.831586 0.365057
0.209628 0.850477 0.396246
0.459648 0.867414 0.401679
0.72932 0.883803 0.400931
0.926055 0.890288 0.405035
0 0 0.376394
0.0810864 0 0.37322
0.210971 0 0.361044
0.351751 0 0.351751
0.509758 0 0.352453
0 0.0840009 0.376135
0.0930037 0.0930037 0.385138
0.234455 0.0923934 0.384527
0.408042 0.0921492 0.401434
0.682673 0.0959945 0.473014
0 0.253712 0.430304
0.100572 0.301701 0.508797
0.348379 0.328267 0.557275
0.643275 0.349691 0.5823
0.854215 0.383841 0.619303
0.00621042 0.587839 0.561318
0.16289 0.640986 0.613428
0.426719 0.661173 0.633173
0.702281 0.666484 0.638346
0.91043 0.679469 0.651102
0.0688945 0.840146 0.636683
0.212406 0.858412 0.663432
0.461769 0.875288 0.667552
0.731273 0.891829 0.666545
0.934356 0.898741 0.671901
0 0 0.521874
0.0760357 0 0.518776
0.207126 0 0.507805
0.351156 0 0.502022
0.519066 0 0.513375
0 0.0829175 0.525673
0.0920424 0.0920424 0.534798
0.233783 0.091722 0.537575
0.437095 0.0950484 0.584787
0.716335 0.0973526 0.673533
0 0.265278 0.625986
0.104829 0.315175 0.71989
0.363073 0.34052 0.758709
0.658366 0.362646 0.779126
0.859037 0.393286 0.794827
0.0129549 0.600992 0.771771
0.173938 0.652308 0.808728
0.434607 0.669108 0.82681
0.708446 0.672541 0.840024
0.913985 0.683375 0.848905
0.0713359 0.841962 0.813153
0.213687 0.859632 0.830747
0.463188 0.877195 0.848066
0.733898 0.895079 0.865736
0.937026 0.901457 0.872023
