site/assets/luts/freshluts--0000775-glut013.cube
# LUTr-Schema-Version: 2
# LUTr-ID: freshluts--0000775-glut013
# LUTr-Title: gLut013
# LUTr-Collection: Fresh LUTs
# LUTr-Collection-ID: freshluts-community
# LUTr-Source: https://freshluts.com
# LUTr-Retrieved: 2026-07-27
# LUTr-Source-File: submissions-raw/freshluts/cubes/775__Untitled_1.MVI_0401.cube
# LUTr-Source-Format: CUBE
# LUTr-Source-SHA256: 13a2b0c4e45c3f51cc944700b4110db9efce8207509b895f4e06a2296741f586
# LUTr-License: CC0-1.0
# LUTr-License-URL: https://freshluts.com/termsandconditions
# LUTr-License-Basis: site-terms
# LUTr-Transform-Class: creative-look
# LUTr-Tags: creative, freshluts, community, cube, warm, low-key, canon-cinestyle
# LUTr-Input-Color-Space:
# LUTr-Input-Gamut: rec709
# LUTr-Input-Transfer: canon-cinestyle
# LUTr-Output-Color-Space: srgb
# LUTr-Output-Gamut: rec709
# LUTr-Output-Transfer: srgb
# LUTr-Color-Space-Confidence: camera-profile-input-required
# LUTr-Domain-Normalized: true
# LUTr-Shaper: none
# LUTr-Original-Grid: 33x33x33
# LUTr-Conversion-Grid: 33x33x33
# LUTr-Conversion-Interpolation: none
# LUTr-Conversion-Method: Metadata normalization; numeric LUT samples preserved
# LUTr-Conversion-Tool: LUTr scripts/convert-all-to-cube.mjs 2.0.0
# LUTr-Conversion-Date: 2026-07-28
# LUTr-Asset-URL: https://freshluts.com/luts/775
# LUTr-Author: directorgodfrey_M
# LUTr-Author-URL: https://freshluts.com/users/1455
# LUTr-Attribution: directorgodfrey_M via Fresh LUTs
# LUTr-Source-Labels: gamma=Canon Cinestyle; color=Warm; key=Low Key; style=Cinematic light
# LUTr-Note: Preserve this metadata and the upstream license notices when redistributing.
TITLE "gLut013"
LUT_3D_SIZE 5
DOMAIN_MIN 0 0 0
DOMAIN_MAX 1 1 1
0 0.00270085 0.027039
0.39823 0 0
0.937301 0 0
1 0 0
1 0 0.000610361
0 0.3514 0
0.307637 0.328969 0
0.85774 0.30222 0
1 0.318868 0
1 0.359304 0
0 0.741299 0
0.188022 0.716121 0
0.701823 0.681788 0
1 0.674708 0
1 0.689067 0
0 1 0
0.146929 1 0
0.625559 0.95758 0
1 0.93167 0
1 0.928374 0
0 1 0
0.14519 1 0
0.603616 1 0
1 1 0
1 1 0
0 0 0.443549
0.391104 0 0.396292
0.964355 0 0.362524
1 0 0.366445
1 0 0.400381
0 0.342535 0.352361
0.296712 0.320287 0.330144
0.822293 0.299062 0.308751
1 0.310735 0.319982
1 0.34522 0.353536
0 0.731594 0.274266
0.173983 0.705623 0.248005
0.682536 0.669642 0.212467
1 0.660685 0.203616
1 0.676173 0.229313
0 1 0.267597
0.125811 0.993347 0.224308
0.599374 0.938979 0.170352
1 0.911437 0.14313
1 0.906752 0.138399
0 1 0.28748
0.11754 1 0.227436
0.573098 1 0.159548
0.977691 1 0.120043
1 1 0.10515
0 0 0.839673
0.375952 0 0.806745
0.946273 0 0.78114
1 0 0.784955
1 0 0.812451
0 0.331395 0.773083
0.283452 0.30959 0.754833
0.82974 0.281407 0.731304
1 0.285161 0.734173
1 0.313909 0.757702
0 0.719997 0.706279
0.157092 0.692714 0.682765
0.659358 0.654932 0.650309
1 0.651469 0.648524
1 0.666712 0.662165
0 1 0.695735
0.101213 0.974304 0.65658
0.571649 0.917998 0.608576
0.991196 0.888685 0.582666
1 0.883009 0.578607
0 1 0.707729
0.0872511 1 0.655146
0.54139 1 0.595453
0.938155 1 0.557107
1 1 0.541726
0 0 1
0.374105 0 1
0.945586 0 1
1 0 1
1 0 1
0 0.332403 1
0.283146 0.31043 1
0.829007 0.281987 0.997147
1 0.284611 0.999069
1 0.312352 1
0 0.719341 0.971099
0.152987 0.690257 0.94609
0.652232 0.651072 0.912474
1 0.637949 0.901488
1 0.646693 0.908782
0 1 0.955474
0.0901045 0.965835 0.914824
0.558129 0.907668 0.865431
0.967529 0.878172 0.842969
1 0.877729 0.844785
0 1 0.962661
0.0702525 1 0.909255
0.523674 1 0.848554
0.914977 1 0.812863
1 1 0.79855
0 0 1
0.383658 0 1
0.95935 0 1
1 0 1
1 0 1
0 0.343435 1
0.293919 0.321111 1
0.842283 0.292363 1
1 0.293919 1
1 0.320073 1
0 0.727871 1
0.160418 0.697292 1
0.65832 0.65594 1
1 0.641032 1
1 0.6477 1
0 1 1
0.0898451 0.966278 1
0.555886 0.906386 1
0.968505 0.874357 0.995865
1 0.865736 0.988403
0 1 1
0.064683 1 1
0.517189 1 1
0.905638 1 0.966812
1 1 0.95816
