site/assets/luts/freshluts--0000292-redmood.cube
# LUTr-Schema-Version: 2
# LUTr-ID: freshluts--0000292-redmood
# LUTr-Title: RedMood
# LUTr-Collection: Fresh LUTs
# LUTr-Collection-ID: freshluts-community
# LUTr-Source: https://freshluts.com
# LUTr-Retrieved: 2026-07-27
# LUTr-Source-File: submissions-raw/freshluts/cubes/292__redmood_49.cube
# LUTr-Source-Format: CUBE
# LUTr-Source-SHA256: 86a711489df6b65eab14f3b161ebc2cc1d60ca73bb434fdd4a514d12e3c75c02
# LUTr-License: CC0-1.0
# LUTr-License-URL: https://freshluts.com/termsandconditions
# LUTr-License-Basis: site-terms
# LUTr-Transform-Class: creative-look
# LUTr-Tags: creative, freshluts, community, cube, blue, rec709
# LUTr-Input-Color-Space: rec709
# LUTr-Input-Gamut: rec709
# LUTr-Input-Transfer: rec709
# LUTr-Output-Color-Space: srgb
# LUTr-Output-Gamut: rec709
# LUTr-Output-Transfer: srgb
# LUTr-Color-Space-Confidence: inferred-from-source-label
# LUTr-Domain-Normalized: true
# LUTr-Shaper: none
# LUTr-Original-Grid: 33x33x33
# LUTr-Conversion-Grid: 33x33x33
# LUTr-Conversion-Interpolation: none
# LUTr-Conversion-Method: Metadata normalization; numeric LUT samples preserved
# LUTr-Conversion-Tool: LUTr scripts/convert-all-to-cube.mjs 2.0.0
# LUTr-Conversion-Date: 2026-07-28
# LUTr-Asset-URL: https://freshluts.com/luts/292
# LUTr-Author: Emanouil Koutsios
# LUTr-Author-URL: https://freshluts.com/users/10778
# LUTr-Attribution: Emanouil Koutsios via Fresh LUTs
# LUTr-Source-Labels: gamma=Rec 709; color=Blue; key=Neutral; style=Drama
# LUTr-Note: Preserve this metadata and the upstream license notices when redistributing.
TITLE "RedMood"
LUT_3D_SIZE 9
DOMAIN_MIN 0 0 0
DOMAIN_MAX 1 1 1
0.00357061 0.0131991 0.0136568
0.0916762 0.0251926 0.0225528
0.174273 0.0358434 0.0290227
0.258427 0.0466773 0.0336614
0.350332 0.0558328 0.0333867
0.440436 0.0632639 0.0378424
0.52343 0.0692454 0.0449226
0.605417 0.0771496 0.0528267
0.644434 0.0834211 0.0585946
0.00917067 0.111177 0.121187
0.0881056 0.123461 0.134463
0.187366 0.136675 0.144091
0.282261 0.14992 0.150103
0.38085 0.160586 0.153536
0.478782 0.169772 0.153811
0.568582 0.178012 0.156909
0.654261 0.188052 0.165515
0.684138 0.194644 0.172107
0.019913 0.206729 0.227695
0.100252 0.223926 0.248829
0.168872 0.23537 0.262425
0.306477 0.254414 0.271794
0.416556 0.272053 0.28333
0.523323 0.286427 0.292134
0.618875 0.300557 0.304326
0.706798 0.317983 0.320851
0.724636 0.325093 0.328283
0.036347 0.31429 0.348638
0.116762 0.341924 0.38024
0.187839 0.361013 0.403464
0.284932 0.370947 0.412879
0.456184 0.39501 0.423758
0.569451 0.416526 0.439948
0.664286 0.438102 0.458274
0.749142 0.46006 0.477913
0.758572 0.4663 0.484062
0.059266 0.43563 0.482261
0.138613 0.464164 0.514366
0.21091 0.490196 0.544167
0.279576 0.505272 0.561395
0.45243 0.525444 0.574807
0.606546 0.553445 0.587381
0.705242 0.577829 0.603937
0.784802 0.597208 0.620676
0.787655 0.60061 0.624048
0.0842756 0.548821 0.605554
0.16257 0.576593 0.636545
0.233753 0.602838 0.664851
0.302541 0.625116 0.687205
0.440589 0.644068 0.700679
0.620783 0.671473 0.714015
0.73402 0.694957 0.726146
0.810742 0.7122 0.740215
0.811048 0.714076 0.742184
0.107362 0.655039 0.720607
0.184405 0.677211 0.74435
0.254398 0.70013 0.768017
0.322667 0.724498 0.790921
0.436942 0.744427 0.806806
0.625254 0.770077 0.819425
0.745953 0.790539 0.830976
0.827863 0.805982 0.839887
0.827985 0.806561 0.840513
0.124987 0.74818 0.820478
0.201236 0.766049 0.839002
0.270314 0.787106 0.86009
0.337407 0.810925 0.881865
0.417288 0.832792 0.900526
0.612039 0.854734 0.912444
0.740414 0.873182 0.921904
0.83267 0.884382 0.926879
0.834363 0.878798 0.920699
0.127962 0.775662 0.84979
0.203662 0.791485 0.866468
0.272175 0.809613 0.88423
0.33753 0.831571 0.904097
0.399115 0.851408 0.921324
0.577508 0.869688 0.931182
0.710674 0.887114 0.939345
0.810391 0.900053 0.946273
0.834333 0.901564 0.946197
0.00198367 0.0354925 0.0373541
0.092546 0.0480964 0.0481117
0.176791 0.0586404 0.05449
0.262501 0.0691234 0.0591287
0.356252 0.0786755 0.0593576
0.447517 0.0865339 0.0601053
0.531106 0.0922713 0.0677195
0.61416 0.10045 0.0758526
0.652232 0.10663 0.0816358
0.0105287 0.134401 0.147127
0.0895247 0.147173 0.161913
0.185962 0.160784 0.172869
0.286549 0.17557 0.180789
0.387945 0.18793 0.185107
0.488472 0.198459 0.18883
0.57995 0.208103 0.194736
0.666545 0.220813 0.206012
0.694728 0.227466 0.212146
0.0221561 0.233341 0.258091
0.102831 0.253727 0.282246
0.172091 0.266499 0.298299
0.307134 0.283131 0.306371
0.424857 0.302586 0.318624
0.533318 0.317998 0.329259
0.629709 0.334279 0.343145
0.717708 0.352941 0.360586
0.734249 0.360357 0.368277
0.0406195 0.34757 0.385092
0.121218 0.375799 0.417502
0.192813 0.398703 0.444694
0.272435 0.406271 0.453559
0.457786 0.42945 0.464378
0.579339 0.453651 0.479881
0.674098 0.476158 0.498985
0.758206 0.497719 0.517617
0.766629 0.503136 0.522896
0.0647593 0.467002 0.516701
0.144015 0.495201 0.54786
0.216342 0.52253 0.579126
0.28513 0.540475 0.598978
0.44622 0.559472 0.611704
0.611307 0.588159 0.624063
0.71429 0.612375 0.63949
0.792493 0.631312 0.655909
0.794491 0.634241 0.658854
0.0901808 0.579431 0.639124
0.168307 0.606119 0.668223
0.239307 0.630716 0.694453
0.30808 0.654307 0.717296
0.442405 0.672923 0.731548
0.622003 0.699886 0.744869
0.738537 0.723095 0.756649
0.816434 0.739956 0.768795
0.816754 0.741604 0.77052
0.113436 0.682734 0.750484
0.190204 0.704021 0.773022
0.259983 0.72607 0.795621
0.327962 0.751217 0.81857
0.438529 0.772259 0.835767
0.625315 0.796918 0.848569
0.74641 0.816297 0.859953
0.831647 0.832013 0.868437
0.831724 0.832502 0.868971
0.130297 0.771176 0.844968
0.206271 0.788464 0.863172
0.274891 0.808179 0.882582
0.341894 0.831678 0.903944
0.417212 0.853483 0.922759
0.608698 0.875319 0.934752
0.737514 0.89279 0.943725
0.831785 0.903288 0.948302
0.834455 0.898344 0.942519
0.133242 0.800137 0.876066
0.208621 0.814923 0.891951
0.2766 0.831174 0.907622
0.34136 0.853117 0.927291
0.402045 0.87274 0.944396
0.564752 0.891264 0.95523
0.703227 0.908125 0.963348
0.805829 0.920363 0.969787
0.832898 0.922576 0.970443
0.00248722 0.0535744 0.056672
0.0921035 0.0660716 0.0686656
0.17908 0.0772106 0.0753796
0.266514 0.0879683 0.0800488
0.362036 0.0985428 0.0816968
0.453895 0.105501 0.0780346
0.538308 0.111009 0.0856336
0.621912 0.118914 0.0940414
0.658869 0.125124 0.0997482
0.011902 0.154208 0.169039
0.0910201 0.168475 0.186633
0.177157 0.180758 0.196979
0.290394 0.196811 0.205524
0.394156 0.210468 0.211704
0.496422 0.222385 0.217487
0.589746 0.233768 0.225727
0.675975 0.246799 0.237491
0.703639 0.254826 0.245258
0.024506 0.256214 0.284047
0.105501 0.280735 0.312291
0.175525 0.296254 0.331716
0.300832 0.310338 0.341207
0.433524 0.33315 0.353933
0.543648 0.350805 0.366461
0.639628 0.368643 0.381613
0.726925 0.38703 0.399039
0.742321 0.393698 0.40589
0.0446021 0.375128 0.415534
0.125505 0.404608 0.449256
0.197345 0.429038 0.477729
0.265812 0.436912 0.488792
0.453864 0.460639 0.502861
0.588022 0.487526 0.516091
0.683497 0.511437 0.535714
0.766369 0.531518 0.552728
0.774304 0.537194 0.558221
0.0696574 0.49369 0.54583
0.148913 0.521935 0.576745
0.221195 0.549508 0.608255
0.290105 0.57026 0.629831
0.443061 0.58851 0.642649
0.615579 0.616953 0.655314
0.722057 0.641077 0.669215
0.798932 0.658473 0.684077
0.800198 0.661387 0.687007
0.0957351 0.606668 0.668605
0.173724 0.631724 0.695583
0.244373 0.655772 0.720638
0.313069 0.679362 0.74374
0.44123 0.698054 0.758358
0.623758 0.725521 0.772137
0.742748 0.748455 0.783581
0.820813 0.764324 0.794797
0.820844 0.765576 0.796216
0.118853 0.70631 0.775769
0.195529 0.72665 0.796994
0.26479 0.748135 0.819074
0.332769 0.773999 0.842084
0.437705 0.79498 0.860105
0.626596 0.818784 0.872984
0.747921 0.838315 0.884001
0.833951 0.853178 0.89221
0.833997 0.853498 0.892561
0.135683 0.794659 0.870146
0.211215 0.810681 0.887404
0.279591 0.828733 0.904784
0.346212 0.85214 0.925872
0.41825 0.874281 0.945129
0.600809 0.895781 0.957549
0.733761 0.912459 0.966033
0.829786 0.922057 0.970001
0.833555 0.917449 0.964492
0.137957 0.821241 0.899153
0.21297 0.835203 0.913466
0.280324 0.850034 0.928267
0.344518 0.872053 0.94757
0.404242 0.892256 0.965301
0.542092 0.911559 0.978241
0.694347 0.927916 0.985473
0.801495 0.939941 0.991135
0.831632 0.941665 0.99115
0.00360113 0.071046 0.0760662
0.0898146 0.0829023 0.0885176
0.180346 0.095613 0.0964218
0.270115 0.105913 0.100282
0.36614 0.115694 0.1019
0.459434 0.123842 0.0968643
0.545922 0.130205 0.103319
0.630518 0.138628 0.112352
0.666514 0.145174 0.118532
0.0133059 0.175219 0.192828
0.092607 0.190509 0.211276
0.169284 0.201923 0.222309
0.293523 0.219593 0.23125
0.400641 0.234379 0.239719
0.505058 0.246921 0.246677
0.599512 0.260334 0.256413
0.686488 0.274769 0.270649
0.712352 0.282918 0.279484
0.0271305 0.281041 0.311589
0.108537 0.307988 0.342382
0.179278 0.326009 0.364569
0.284749 0.336614 0.374273
0.44184 0.36144 0.385199
0.552636 0.379812 0.399435
0.648661 0.399008 0.416159
0.735027 0.418402 0.433906
0.749554 0.426032 0.441306
0.0488136 0.402075 0.44538
0.129809 0.432807 0.479896
0.201999 0.457465 0.508461
0.273823 0.469581 0.523507
0.44831 0.49102 0.537163
0.59556 0.518914 0.550332
0.691859 0.542947 0.568276
0.774075 0.56318 0.585641
0.780667 0.56791 0.590295
0.0746777 0.520729 0.575311
0.154025 0.549264 0.606744
0.2262 0.576288 0.636545
0.295033 0.598459 0.659083
0.434974 0.616297 0.671977
0.616144 0.644678 0.68513
0.728206 0.66833 0.697704
0.805386 0.686168 0.712978
0.805951 0.688853 0.715785
0.101137 0.632074 0.695811
0.179217 0.656001 0.721691
0.249622 0.68011 0.746456
0.318166 0.70428 0.769879
0.438621 0.7243 0.785428
0.625086 0.751064 0.798962
0.746654 0.772671 0.810285
0.824491 0.788373 0.820996
0.824765 0.789578 0.822293
0.124346 0.729885 0.801053
0.200687 0.748684 0.820478
0.269718 0.770489 0.842557
0.337392 0.795895 0.865461
0.432609 0.817838 0.88394
0.624857 0.840299 0.896101
0.748333 0.859754 0.906996
0.834241 0.87425 0.915755
0.834241 0.87425 0.915755
0.140749 0.816449 0.893858
0.216022 0.8318 0.909819
0.28368 0.847959 0.925811
0.350393 0.871824 0.946792
0.415747 0.894011 0.966278
0.586069 0.914641 0.978759
0.729809 0.929824 0.985245
0.827283 0.938216 0.98793
0.831647 0.933425 0.982879
0.142351 0.840787 0.920027
0.217029 0.854292 0.933669
0.283574 0.867414 0.947082
0.346929 0.888472 0.96527
0.405051 0.908797 0.982376
0.524315 0.928145 0.995514
0.687694 0.944244 1
0.797879 0.956344 1
0.831266 0.958556 1
0.00457771 0.0890211 0.0964981
0.0861982 0.100923 0.109285
0.181369 0.113924 0.117876
0.273274 0.125566 0.122927
0.370596 0.135424 0.124941
0.466331 0.14432 0.123568
0.553445 0.151293 0.123186
0.638498 0.15996 0.132982
0.674067 0.167422 0.140124
0.0145876 0.195117 0.214755
0.0945144 0.211826 0.235309
0.165347 0.224369 0.249241
0.298299 0.242634 0.258213
0.407324 0.259846 0.269444
0.513634 0.273976 0.277989
0.609339 0.288731 0.290074
0.696208 0.303197 0.304677
0.720806 0.312184 0.313832
0.0298772 0.305791 0.339223
0.11165 0.334432 0.371908
0.182681 0.353353 0.394766
0.273503 0.361563 0.403586
0.446769 0.386099 0.413947
0.560494 0.406928 0.430182
0.656275 0.428611 0.448142
0.742809 0.449088 0.466911
0.756725 0.457664 0.474998
0.053254 0.430213 0.476295
0.134112 0.458961 0.508568
0.206455 0.48455 0.538048
0.275319 0.500282 0.555947
0.442695 0.519921 0.569177
0.600046 0.547951 0.582406
0.699916 0.57322 0.599329
0.780896 0.593118 0.616632
0.787152 0.598321 0.621729
0.0797436 0.546349 0.602884
0.158877 0.574548 0.634318
0.230869 0.601114 0.663081
0.299733 0.623407 0.685435
0.431983 0.64242 0.699474
0.616541 0.670268 0.713207
0.731746 0.694133 0.725383
0.810742 0.712215 0.74023
0.811154 0.714549 0.742672
0.106477 0.656672 0.722377
0.184253 0.6795 0.746807
0.254368 0.702495 0.770581
0.323079 0.727611 0.794202
0.437781 0.74844 0.811002
0.626596 0.774853 0.824491
0.746715 0.795193 0.836225
0.82887 0.811505 0.845853
0.828901 0.812482 0.846906
0.129473 0.7523 0.824826
0.2056 0.77023 0.843473
0.273976 0.791104 0.864332
0.341726 0.815747 0.886839
0.430182 0.837812 0.905364
0.621637 0.860243 0.917571
0.748196 0.879927 0.92871
0.834394 0.89369 0.93724
0.834394 0.893141 0.936629
0.145144 0.836362 0.915312
0.220096 0.851164 0.930297
0.287602 0.866026 0.945495
0.353948 0.889616 0.965972
0.415869 0.912749 0.985519
0.573358 0.932158 0.996933
0.726894 0.945693 1
0.82565 0.952865 1
0.831449 0.948135 0.997635
0.146624 0.861112 0.941588
0.220813 0.874113 0.954772
0.286549 0.886046 0.96643
0.34931 0.906889 0.984482
0.406561 0.927398 1
0.500908 0.94493 1
0.675044 0.959518 1
0.789395 0.972076 1
0.826596 0.975219 1
0.00544747 0.107698 0.117357
0.0840925 0.119402 0.130205
0.182483 0.132631 0.139635
0.276188 0.145449 0.145708
0.375082 0.155993 0.148852
0.472755 0.165805 0.149706
0.562097 0.174517 0.152499
0.647883 0.184146 0.160983
0.682826 0.191348 0.168231
0.0157931 0.215946 0.23798
0.0961929 0.234028 0.260456
0.165469 0.247547 0.276677
0.297444 0.264073 0.284901
0.41355 0.283726 0.297215
0.521614 0.298863 0.307271
0.617655 0.314458 0.32047
0.705562 0.33106 0.336263
0.728435 0.338964 0.344656
0.0327153 0.33196 0.368032
0.115145 0.361212 0.401175
0.186648 0.383764 0.428122
0.268513 0.392142 0.438163
0.446937 0.415198 0.449042
0.569055 0.438941 0.464714
0.66453 0.460914 0.482719
0.750362 0.481437 0.501564
0.763516 0.48896 0.508385
0.0572518 0.455756 0.504463
0.138262 0.484001 0.535775
0.21091 0.511772 0.567422
0.279637 0.530236 0.588235
0.434531 0.549279 0.601511
0.603372 0.578393 0.614862
0.707286 0.60293 0.629923
0.787625 0.623056 0.647608
0.792813 0.626917 0.651347
0.0846418 0.573053 0.632013
0.163973 0.601175 0.662821
0.235798 0.626368 0.689906
0.304662 0.649973 0.712978
0.432639 0.668742 0.727657
0.616983 0.696422 0.741619
0.735515 0.719692 0.753292
0.816022 0.737789 0.766567
0.816464 0.740078 0.768933
0.111299 0.679332 0.746853
0.18883 0.701106 0.769894
0.258701 0.723018 0.792386
0.327184 0.748791 0.816098
0.438666 0.770504 0.83389
0.625925 0.795743 0.847211
0.747189 0.815671 0.85919
0.831647 0.831968 0.868376
0.83183 0.833112 0.869627
0.134127 0.773281 0.847196
0.21001 0.790799 0.865705
0.278157 0.811048 0.885603
0.345617 0.835279 0.907591
0.42742 0.857664 0.926894
0.616358 0.880339 0.939544
0.745541 0.899718 0.950881
0.834241 0.912566 0.958785
0.834302 0.911131 0.957122
0.149798 0.858198 0.938445
0.224231 0.8719 0.952499
0.291325 0.886046 0.966293
0.357458 0.909728 0.986893
0.418677 0.932769 1
0.552056 0.950683 1
0.716915 0.962768 1
0.820737 0.969314 1
0.83006 0.963256 1
0.150134 0.879362 0.960586
0.223453 0.892119 0.973159
0.288869 0.903685 0.9841
0.351034 0.923949 1
0.407431 0.943435 1
0.469566 0.961883 1
0.659434 0.976181 1
0.782101 0.987854 1
0.82417 0.990494 1
0.00570687 0.125978 0.137789
0.084596 0.138598 0.151888
0.181292 0.151476 0.162325
0.278065 0.165408 0.169162
0.37966 0.17789 0.173953
0.479591 0.187518 0.176181
0.570291 0.196872 0.181064
0.655924 0.207156 0.188724
0.690501 0.214649 0.196704
0.0170901 0.237568 0.262776
0.0980392 0.259556 0.288746
0.167803 0.274434 0.307164
0.292058 0.289082 0.315785
0.419806 0.31078 0.328878
0.529519 0.327413 0.340566
0.62594 0.343404 0.353704
0.714305 0.361776 0.370977
0.7364 0.369619 0.379461
0.0356756 0.358709 0.397391
0.118364 0.387717 0.430457
0.190051 0.412116 0.459251
0.261402 0.42089 0.470909
0.442664 0.443793 0.483635
0.576516 0.470939 0.498665
0.672389 0.494453 0.518105
0.758129 0.515435 0.536812
0.770993 0.522316 0.543328
0.0611887 0.481178 0.532204
0.142107 0.510002 0.563836
0.214786 0.53814 0.596033
0.283803 0.559182 0.618296
0.428153 0.577478 0.63183
0.605142 0.606302 0.645121
0.71368 0.631098 0.659175
0.793378 0.649836 0.675349
0.798596 0.653574 0.678981
0.0889448 0.598306 0.659724
0.168276 0.625208 0.688533
0.239933 0.649699 0.71426
0.308904 0.674113 0.73817
0.431006 0.69337 0.754116
0.616449 0.720592 0.767742
0.738445 0.744595 0.77998
0.820493 0.762249 0.792493
0.820813 0.764202 0.794659
0.116274 0.705303 0.774716
0.193713 0.726131 0.79646
0.263447 0.747463 0.818418
0.331914 0.773983 0.842115
0.435813 0.7953 0.860533
0.625422 0.819211 0.873518
0.747677 0.839185 0.884978
0.834043 0.854734 0.893965
0.834119 0.855482 0.894774
0.138216 0.794491 0.869963
0.213794 0.811154 0.887892
0.28191 0.829923 0.905943
0.349248 0.854429 0.928115
0.42359 0.877119 0.94786
0.606882 0.899214 0.9608
0.741375 0.918013 0.971725
0.832059 0.929747 0.978683
0.832441 0.928038 0.976715
0.153185 0.877485 0.958633
0.227405 0.891081 0.972076
0.294362 0.904753 0.985016
0.360128 0.927184 1
0.419867 0.948211 1
0.523003 0.965621 1
0.703792 0.977554 1
0.813748 0.984268 1
0.825788 0.978317 1
0.153811 0.901198 0.982956
0.226215 0.913603 0.994919
0.291051 0.924224 1
0.35201 0.941772 1
0.40737 0.959396 1
0.467277 0.976562 1
0.655665 0.990234 1
0.779034 1 1
0.825116 1 1
0.00593576 0.144732 0.158495
0.0850233 0.158801 0.175555
0.171878 0.170901 0.186221
0.280705 0.185824 0.193622
0.384466 0.198932 0.198795
0.485924 0.209888 0.202869
0.577356 0.219715 0.209277
0.6645 0.232319 0.221103
0.698756 0.240436 0.227985
0.0181582 0.259388 0.287526
0.099733 0.284794 0.316655
0.170321 0.301427 0.337469
0.28098 0.313588 0.346746
0.425864 0.336919 0.358968
0.537041 0.355459 0.372076
0.633097 0.372824 0.386954
0.722011 0.392691 0.405585
0.743969 0.401205 0.414725
0.0385443 0.385489 0.4271
0.121752 0.415549 0.460975
0.193591 0.440299 0.490135
0.262242 0.452979 0.505776
0.434485 0.47393 0.519768
0.581872 0.501579 0.532464
0.679728 0.526284 0.551339
0.765179 0.547387 0.569467
0.77763 0.553521 0.575631
0.0649271 0.50779 0.561242
0.146212 0.537621 0.593759
0.219074 0.565286 0.624994
0.288106 0.588342 0.648539
0.421057 0.60502 0.661372
0.604868 0.633768 0.675105
0.718654 0.658183 0.687739
0.799298 0.677272 0.703822
0.804257 0.680888 0.707439
0.0933089 0.624903 0.688167
0.172549 0.649317 0.714504
0.244297 0.673533 0.739544
0.313268 0.698741 0.764202
0.42443 0.718608 0.780392
0.616632 0.746029 0.7944
0.740902 0.768795 0.806607
0.824063 0.785977 0.818418
0.824369 0.787625 0.820172
0.12047 0.728054 0.79913
0.197574 0.747189 0.818891
0.267399 0.768902 0.841001
0.335561 0.794995 0.8645
0.427832 0.817304 0.883619
0.62179 0.839902 0.895903
0.747036 0.860197 0.907546
0.834211 0.875273 0.916884
0.834226 0.875837 0.917494
0.142428 0.818173 0.895735
0.2177 0.833463 0.911574
0.28574 0.850553 0.928649
0.352651 0.874723 0.949813
0.417716 0.897429 0.969787
0.594339 0.91986 0.983581
0.737942 0.937591 0.992477
0.831495 0.948501 0.997986
0.831479 0.946258 0.995758
0.156069 0.895491 0.977096
0.230015 0.908965 0.990204
0.296895 0.921904 1
0.361654 0.942687 1
0.420249 0.962539 1
0.520516 0.979065 1
0.700801 0.990753 1
0.81181 0.997559 1
0.824353 0.992386 1
0.152667 0.900999 0.982773
0.224918 0.913756 0.995087
0.289631 0.924926 1
0.350347 0.943389 1
0.405524 0.962203 1
0.464805 0.980987 1
0.650614 0.996307 1
0.775006 1 1
0.825589 1 1
0.00619516 0.162982 0.17882
0.0854658 0.177737 0.197009
0.160372 0.188647 0.207538
0.28217 0.204746 0.215381
0.388754 0.218402 0.221622
0.492058 0.230396 0.227558
0.583993 0.240009 0.233417
0.671839 0.25417 0.246113
0.705943 0.262196 0.254353
0.019379 0.279881 0.310185
0.101549 0.306554 0.340841
0.172351 0.324865 0.363088
0.268421 0.333974 0.372473
0.429755 0.358557 0.383429
0.542885 0.377676 0.397482
0.639139 0.395804 0.412787
0.727291 0.414618 0.43032
0.748898 0.423285 0.438437
0.0410925 0.406104 0.44976
0.124422 0.436622 0.483955
0.196399 0.460761 0.512016
0.264927 0.474876 0.529076
0.429603 0.492668 0.540612
0.584466 0.519631 0.55256
0.683574 0.543496 0.569345
0.768841 0.56437 0.58706
0.781033 0.569604 0.59202
0.0675822 0.525078 0.579965
0.148547 0.553735 0.611612
0.221378 0.579721 0.640421
0.290349 0.602884 0.663584
0.414527 0.618647 0.675883
0.604562 0.646372 0.688487
0.720836 0.67039 0.700557
0.801678 0.688792 0.715892
0.806424 0.691646 0.718685
0.0955062 0.637095 0.701167
0.174319 0.659922 0.725933
0.246098 0.683543 0.750225
0.314946 0.708354 0.774121
0.422827 0.727459 0.789731
0.616449 0.75433 0.803235
0.741238 0.77641 0.815091
0.825284 0.792813 0.825833
0.825559 0.794034 0.827146
0.12224 0.737438 0.809094
0.199237 0.756054 0.828351
0.268894 0.777356 0.849775
0.336889 0.80264 0.872801
0.424338 0.82472 0.891554
0.620569 0.847211 0.903899
0.746075 0.867552 0.915389
0.83447 0.882429 0.924636
0.834409 0.882795 0.925048
0.142885 0.822812 0.900877
0.21828 0.83772 0.916075
0.286122 0.854154 0.932708
0.353063 0.878218 0.953628
0.416724 0.900832 0.97351
0.590448 0.922988 0.986908
0.736614 0.940566 0.995514
0.831464 0.951125 1
0.831479 0.948669 0.998154
0.155932 0.898009 0.97969
0.229923 0.91133 0.992584
0.296757 0.923842 1
0.361181 0.944259 1
0.419501 0.964126 1
0.514473 0.981247 1
0.696391 0.994781 1
0.809476 1 1
0.824811 0.999191 1
0.151232 0.900755 0.982528
0.22327 0.91342 0.994766
0.287938 0.924605 1
0.348272 0.942657 1
0.403464 0.961471 1
0.462531 0.980514 1
0.643977 0.995682 1
0.770428 1 1
0.825589 1 1
