site/assets/luts/freshluts--0000127-softskn.cube
# LUTr-Schema-Version: 2
# LUTr-ID: freshluts--0000127-softskn
# LUTr-Title: softskn
# LUTr-Collection: Fresh LUTs
# LUTr-Collection-ID: freshluts-community
# LUTr-Source: https://freshluts.com
# LUTr-Retrieved: 2026-07-27
# LUTr-Source-File: submissions-raw/freshluts/cubes/127__softskn.cube
# LUTr-Source-Format: CUBE
# LUTr-Source-SHA256: dc23960f7f68cffab1e1cd85f353c92fa8c0b4cd9eebf6106fb12e8ea7c2115d
# LUTr-License: CC0-1.0
# LUTr-License-URL: https://freshluts.com/termsandconditions
# LUTr-License-Basis: site-terms
# LUTr-Transform-Class: creative-look
# LUTr-Tags: creative, freshluts, community, cube, yellow, arri-logc3-ei800
# LUTr-Input-Color-Space: arri-logc3-ei800-awg3
# LUTr-Input-Gamut: arri-wide-gamut-3
# LUTr-Input-Transfer: arri-logc3-ei800
# LUTr-Output-Color-Space: srgb
# LUTr-Output-Gamut: rec709
# LUTr-Output-Transfer: srgb
# LUTr-Color-Space-Confidence: inferred-from-source-label
# LUTr-Domain-Normalized: true
# LUTr-Shaper: none
# LUTr-Original-Grid: 33x33x33
# LUTr-Conversion-Grid: 33x33x33
# LUTr-Conversion-Interpolation: none
# LUTr-Conversion-Method: Metadata normalization; numeric LUT samples preserved
# LUTr-Conversion-Tool: LUTr scripts/convert-all-to-cube.mjs 2.0.0
# LUTr-Conversion-Date: 2026-07-28
# LUTr-Asset-URL: https://freshluts.com/luts/127
# LUTr-Author: Remzi Bayram
# LUTr-Author-URL: https://freshluts.com/users/326
# LUTr-Attribution: Remzi Bayram via Fresh LUTs
# LUTr-Source-Labels: gamma=Arri log c; color=Yellow; key=Neutral; style=Retro
# LUTr-Note: Preserve this metadata and the upstream license notices when redistributing.
TITLE "softskn"
LUT_3D_SIZE 5
DOMAIN_MIN 0 0 0
DOMAIN_MAX 1 1 1
0 0 0
0 0 0
0.207538 0 0
1 0 0
1 0 0
0 0.321218 0
0.356985 0.329961 0
0.974945 0.309087 0
1 0.324437 0
1 0.361181 0
0 0.895247 0
0.270832 0.894118 0
0.847929 0.878111 0
1 0.904845 0.158648
1 1 0.818998
0.376165 1 0.376165
0.905562 1 0.823285
1 1 0.915465
1 1 1
1 1 1
1 1 1
1 1 1
1 1 1
1 1 1
1 1 1
0 0 0
0 0 0
0.427665 0 0.143236
1 0 0.272374
1 0 0.320089
0 0.330877 0.27834
0.358923 0.331273 0.276722
0.993484 0.302312 0.242863
1 0.318837 0.259373
1 0.35581 0.296345
0 0.896101 0.192493
0.272206 0.895506 0.191897
0.848264 0.876707 0.228977
1 0.922515 0.587854
1 1 0.915953
0.644953 1 0.750027
0.934386 1 0.92192
1 1 1
1 1 1
1 1 1
1 1 1
1 1 1
1 1 1
1 1 1
1 1 1
0 0 0
0 0 0
0.597147 0 0.420966
1 0 0.667903
1 0 0.729168
0 0.338994 0.665431
0.365408 0.338399 0.664836
0.965774 0.316732 0.658793
1 0.328069 0.685161
1 0.363424 0.723812
0 0.903181 0.579309
0.27924 0.902541 0.578668
0.857618 0.883024 0.616678
1 0.953063 0.854902
1 1 1
0.787701 1 0.916426
0.964096 1 1
1 1 1
1 1 1
1 1 1
1 1 1
1 1 1
1 1 1
1 1 1
1 1 1
0 0 0
0.05832 0 0.153292
0.728496 0 0.924269
1 0 1
1 0 1
0 0.332143 1
0.358328 0.331319 1
0.936736 0.317311 1
1 0.342626 1
1 0.381216 1
0 0.89633 1
0.277714 0.893874 1
0.863233 0.88455 1
1 0.98761 1
1 1 1
0.814481 1 1
0.99089 1 1
1 1 1
1 1 1
1 1 1
1 1 1
1 1 1
1 1 1
1 1 1
1 1 1
0 0 0
0.139925 0 0.59266
0.816114 0 1
1 0 1
1 0 1
0 0.32076 1
0.346639 0.319631 1
0.925338 0.305913 1
1 0.331914 1
1 0.378683 1
0 0.884932 1
0.29041 0.879896 1
0.878737 0.895109 1
1 1 1
1 1 1
0.83978 1 1
1 1 1
1 1 1
1 1 1
1 1 1
1 1 1
1 1 1
1 1 1
1 1 1
1 1 1
