site/assets/luts/freshluts--0000186-glut003.cube
# LUTr-Schema-Version: 2
# LUTr-ID: freshluts--0000186-glut003
# LUTr-Title: gLUT003
# LUTr-Collection: Fresh LUTs
# LUTr-Collection-ID: freshluts-community
# LUTr-Source: https://freshluts.com
# LUTr-Retrieved: 2026-07-27
# LUTr-Source-File: submissions-raw/freshluts/cubes/186__GRL_2.P2640005.cube
# LUTr-Source-Format: CUBE
# LUTr-Source-SHA256: d6f4a828f3dbe65e8c4d8d5df3f77c3c4b6e97a417e870f05cdef227e6e50881
# LUTr-License: CC0-1.0
# LUTr-License-URL: https://freshluts.com/termsandconditions
# LUTr-License-Basis: site-terms
# LUTr-Transform-Class: creative-look
# LUTr-Tags: creative, freshluts, community, cube, green, high-key, rec709
# LUTr-Input-Color-Space: rec709
# LUTr-Input-Gamut: rec709
# LUTr-Input-Transfer: rec709
# LUTr-Output-Color-Space: srgb
# LUTr-Output-Gamut: rec709
# LUTr-Output-Transfer: srgb
# LUTr-Color-Space-Confidence: inferred-from-source-label
# LUTr-Domain-Normalized: true
# LUTr-Shaper: none
# LUTr-Original-Grid: 33x33x33
# LUTr-Conversion-Grid: 33x33x33
# LUTr-Conversion-Interpolation: none
# LUTr-Conversion-Method: Metadata normalization; numeric LUT samples preserved
# LUTr-Conversion-Tool: LUTr scripts/convert-all-to-cube.mjs 2.0.0
# LUTr-Conversion-Date: 2026-07-28
# LUTr-Asset-URL: https://freshluts.com/luts/186
# LUTr-Author: directorgodfrey_M
# LUTr-Author-URL: https://freshluts.com/users/1455
# LUTr-Attribution: directorgodfrey_M via Fresh LUTs
# LUTr-Source-Labels: gamma=Rec 709; color=Green; key=High Key; style=green shadow
# LUTr-Note: Preserve this metadata and the upstream license notices when redistributing.
TITLE "gLUT003"
LUT_3D_SIZE 9
DOMAIN_MIN 0 0 0
DOMAIN_MAX 1 1 1
0 0.00181582 0.00546273
0 0.00181582 0.00546273
0.108446 0.03122 0.005066
0.326146 0.130709 0.01561
0.518257 0.170336 0.036286
0.713054 0.194049 0.0575418
0.897673 0.243259 0.0767224
0.992309 0.387167 0.170001
1 0.509773 0.228428
0 0.00181582 0.00546273
0 0.00181582 0.00546273
0.1411 0.076936 0.00254826
0.338354 0.142306 0.0165408
0.540276 0.17879 0.0384985
0.734173 0.200366 0.0597238
0.913466 0.259144 0.0778515
0.997543 0.400732 0.175952
1 0.548608 0.249485
0 0.0171206 0.0645304
0 0.212406 0.0767681
0.106447 0.200977 0.0538796
0.329641 0.208026 0.0130312
0.545754 0.221912 0.0372931
0.757961 0.23209 0.0610819
0.956146 0.307362 0.0923323
1 0.456291 0.201617
1 0.592523 0.275288
0 0.402502 0.0800183
0 0.384207 0.0603952
0.0121614 0.360449 0.0671397
0.209567 0.345464 0.0264439
0.46009 0.327153 0.023331
0.674495 0.318944 0.0465248
0.890303 0.33817 0.0711528
1 0.426444 0.187579
1 0.566155 0.259617
0 0.540322 0.0207218
0 0.53518 0.0211948
0 0.505898 0.0211032
0 0.482521 0.0238346
0 0.467857 0.0334173
0.530922 0.475181 0.0302739
0.782712 0.485649 0.0482338
0.986908 0.5178 0.169329
1 0.558053 0.254917
0.296956 0.740963 0.111498
0.278767 0.731075 0.0751354
0.213993 0.696376 0.0453498
0.145754 0.663752 0.0307927
0.0737163 0.638346 0.0232242
0.0319524 0.624811 0.0220035
0.529778 0.6701 0.0406806
0.933928 0.682353 0.149706
1 0.686915 0.262531
0.612665 0.910964 0.287922
0.589899 0.899458 0.274632
0.540642 0.87425 0.247227
0.493233 0.849653 0.222232
0.464561 0.834226 0.207477
0.450187 0.82649 0.200336
0.465583 0.834775 0.20798
0.792584 0.848585 0.234409
1 0.829221 0.306981
0.724804 0.965087 0.362509
0.724804 0.965087 0.362509
0.724804 0.965087 0.362509
0.724804 0.965087 0.362509
0.721035 0.963531 0.359625
0.716213 0.961547 0.356039
0.718624 0.962539 0.357839
0.87483 0.955108 0.354269
1 0.898787 0.32575
0.724804 0.965087 0.362509
0.724804 0.965087 0.362509
0.724804 0.965087 0.362509
0.724804 0.965087 0.362509
0.724804 0.965087 0.362509
0.724804 0.965087 0.362509
0.724804 0.965087 0.362509
0.770825 0.962753 0.359976
0.926299 0.943725 0.347799
0 0.0199283 0.077409
0.0294652 0 0.0545357
0.156054 0.00422675 0.00953689
0.3346 0.132219 0.0164492
0.507118 0.168765 0.03505
0.69221 0.192126 0.0552224
0.879103 0.225406 0.0754101
0.990875 0.383474 0.168383
1 0.537392 0.24332
0 0.00595102 0.0207675
0 0.00181582 0.00546273
0.116976 0.0683604 0.00164797
0.314687 0.138186 0.0140536
0.50782 0.175967 0.0349126
0.69543 0.196551 0.0553902
0.873426 0.22359 0.0748302
0.984741 0.367605 0.160708
1 0.491051 0.218784
0 0.0164797 0.0616007
0 0.207248 0.0787976
0.128985 0.198154 0.0644999
0.334646 0.205798 0.0136263
0.548577 0.219791 0.0377356
0.751873 0.228504 0.0605478
0.933898 0.2804 0.0801404
1 0.41529 0.182437
1 0.525917 0.237034
0 0.401373 0.127687
0.0641184 0.389136 0.111543
0.0955062 0.356817 0.0641947
0.251179 0.339178 0.0217746
0.476646 0.319646 0.0248112
0.689555 0.310582 0.0488594
0.908446 0.330327 0.0738689
1 0.440299 0.194095
1 0.574502 0.264485
0 0.534752 0.0213321
0 0.527626 0.0200504
0.0626535 0.505501 0.0256657
0.130663 0.480262 0.0276799
0.340108 0.471443 0.0247044
0.619379 0.460136 0.0357671
0.858381 0.467842 0.0621805
1 0.497063 0.18883
1 0.572931 0.2636
0.271672 0.727291 0.0690471
0.272267 0.727565 0.0694438
0.215228 0.696941 0.0456855
0.159274 0.66952 0.0330205
0.23212 0.658991 0.0333562
0.509773 0.657206 0.0367437
0.803952 0.651621 0.0693065
0.990448 0.660197 0.194171
1 0.664469 0.2766
0.598825 0.90396 0.279805
0.579309 0.89395 0.268559
0.536812 0.872282 0.245151
0.497307 0.851728 0.224292
0.47393 0.839261 0.212284
0.506355 0.841581 0.21387
0.748257 0.837369 0.218769
0.971435 0.828992 0.25182
1 0.818662 0.312261
0.724804 0.965087 0.362509
0.724804 0.965087 0.362509
0.724804 0.965087 0.362509
0.724804 0.965087 0.362509
0.718242 0.962386 0.357549
0.715267 0.961151 0.355322
0.759991 0.963363 0.360555
0.893126 0.95227 0.352575
1 0.898436 0.325643
0.724804 0.965087 0.362509
0.724804 0.965087 0.362509
0.724804 0.965087 0.362509
0.724804 0.965087 0.362509
0.724804 0.965087 0.362509
0.724804 0.965087 0.362509
0.724804 0.965087 0.362509
0.772137 0.962676 0.359884
0.927153 0.943465 0.347677
0 0.0491646 0.19942
0 0 0.16585
0.222507 0.0831006 0.167208
0.409522 0.158068 0.160342
0.58819 0.187503 0.140078
0.7299 0.197925 0.0663157
0.912001 0.259037 0.0776989
1 0.432029 0.190188
1 0.624979 0.295796
0 0.0669871 0.270466
0 0.056733 0.107301
0.176898 0.0982986 0.144686
0.377447 0.158648 0.1449
0.537713 0.186648 0.127398
0.69424 0.196292 0.0560922
0.878523 0.226551 0.075288
0.990021 0.381231 0.167376
1 0.508019 0.227481
0 0.072343 0.292927
0 0.213703 0.17879
0.128527 0.1935 0.145632
0.295659 0.208957 0.127825
0.465766 0.221714 0.105119
0.645975 0.22269 0.0487984
0.823774 0.235721 0.0684215
0.974273 0.339834 0.143786
1 0.46363 0.205158
0 0.348943 0.224033
0 0.376165 0.162173
0.0991989 0.347448 0.131777
0.267704 0.327688 0.0949416
0.477852 0.307561 0.0398413
0.694789 0.298924 0.0502327
0.901869 0.316503 0.0737926
1 0.40882 0.179522
1 0.521538 0.234699
0 0.523919 0.162509
0 0.519539 0.146944
0.112383 0.495354 0.13933
0.215976 0.469001 0.129122
0.411948 0.452338 0.0237888
0.646891 0.440284 0.0376135
0.875105 0.45037 0.0657511
1 0.480415 0.190875
1 0.572259 0.263203
0.212421 0.713375 0.20621
0.225544 0.717586 0.200076
0.235447 0.68835 0.179187
0.253971 0.658274 0.127581
0.391318 0.638392 0.0312352
0.605707 0.636027 0.039704
0.844999 0.629526 0.0718242
0.99501 0.640528 0.195972
1 0.646891 0.277104
0.571756 0.890608 0.269276
0.554711 0.882139 0.262165
0.514 0.86096 0.238987
0.478492 0.841718 0.214603
0.469017 0.829282 0.202518
0.613336 0.824399 0.197314
0.818586 0.818051 0.211795
0.988739 0.808286 0.245243
1 0.80087 0.310506
0.724804 0.965087 0.362509
0.724804 0.965087 0.362509
0.724804 0.965087 0.362509
0.720653 0.963378 0.35938
0.706813 0.957702 0.349157
0.702922 0.956085 0.346258
0.809323 0.95787 0.353735
0.946487 0.937957 0.344701
1 0.891417 0.322957
0.724804 0.965087 0.362509
0.724804 0.965087 0.362509
0.724804 0.965087 0.362509
0.724804 0.965087 0.362509
0.724804 0.965087 0.362509
0.724804 0.965087 0.362509
0.724804 0.965087 0.362509
0.783581 0.962005 0.359274
0.931121 0.942428 0.347097
0 0.103212 0.43032
0.140642 0.106661 0.376226
0.280797 0.132845 0.382422
0.463798 0.167254 0.336126
0.650019 0.205692 0.295399
0.862684 0.243824 0.268391
0.989578 0.391577 0.261692
1 0.533562 0.266621
1 0.690425 0.341314
0 0.103212 0.43032
0.0770275 0.100069 0.282689
0.233326 0.131487 0.352361
0.429877 0.169146 0.318502
0.622599 0.206302 0.281498
0.832273 0.238102 0.252598
0.976867 0.358831 0.239857
1 0.474922 0.225788
1 0.586877 0.271809
0 0.103212 0.43032
0.111192 0.232593 0.381125
0.124071 0.218738 0.282078
0.352361 0.213519 0.280842
0.543099 0.228641 0.239887
0.70074 0.236179 0.204334
0.858656 0.253895 0.185534
0.981491 0.363882 0.179339
1 0.477409 0.211978
0 0.34844 0.449516
0 0.388128 0.333654
0.0886854 0.352804 0.28127
0.272694 0.321614 0.235019
0.439918 0.313863 0.203494
0.608118 0.30898 0.176684
0.790738 0.316197 0.162188
0.971862 0.350378 0.156588
1 0.461097 0.203937
0 0.506539 0.319066
0 0.516167 0.258412
0.106889 0.486076 0.221332
0.214633 0.457588 0.188174
0.416358 0.441749 0.131441
0.641718 0.431449 0.122194
0.872206 0.437858 0.0776226
1 0.468223 0.184649
1 0.54316 0.246494
0.0128176 0.68278 0.278737
0.152361 0.703593 0.248249
0.221851 0.673899 0.215244
0.243519 0.644816 0.192218
0.394491 0.626719 0.168017
0.620859 0.622934 0.141619
0.844511 0.616083 0.124331
0.995071 0.625559 0.193347
1 0.632792 0.274403
0.543664 0.883207 0.312367
0.528923 0.872847 0.282658
0.487297 0.850965 0.259754
0.450416 0.831495 0.245548
0.468498 0.817014 0.231708
0.627756 0.807675 0.210025
0.830182 0.801343 0.200488
0.988998 0.79263 0.235904
1 0.787655 0.305364
0.724804 0.965087 0.362509
0.724804 0.965087 0.362509
0.724804 0.965087 0.362509
0.70811 0.958221 0.350072
0.694392 0.952621 0.340047
0.690852 0.951186 0.337469
0.827131 0.948821 0.341527
0.968032 0.931411 0.341512
1 0.883909 0.321675
0.724804 0.965087 0.362509
0.724804 0.965087 0.362509
0.724804 0.965087 0.362509
0.724804 0.965087 0.362509
0.724804 0.965087 0.362509
0.724804 0.965087 0.362509
0.724804 0.965087 0.362509
0.819745 0.959609 0.357336
0.949676 0.936965 0.344213
0 0.103212 0.43032
0.210193 0.140505 0.556649
0.341344 0.157458 0.607523
0.517266 0.181308 0.559716
0.727398 0.207355 0.497688
0.897215 0.288914 0.446159
1 0.44744 0.446113
1 0.592004 0.468055
1 0.721294 0.511727
0 0.000183108 0.421973
0.163729 0.151553 0.478264
0.302983 0.159747 0.573343
0.485405 0.183612 0.539925
0.699626 0.207584 0.479286
0.880232 0.268467 0.424155
1 0.423468 0.417105
1 0.5561 0.418006
1 0.673457 0.418845
0 0.249912 0.64564
0.19968 0.248356 0.565957
0.17612 0.23859 0.454398
0.40354 0.220325 0.485832
0.611749 0.22945 0.420554
0.796948 0.251118 0.364294
0.965026 0.361349 0.350088
1 0.475639 0.335988
1 0.568185 0.320134
0 0.406973 0.707683
0.00646983 0.390555 0.543633
0.181109 0.35494 0.474998
0.272602 0.336049 0.383932
0.503548 0.310857 0.351812
0.69041 0.307012 0.306981
0.85095 0.325505 0.284825
0.985489 0.38146 0.279225
1 0.485771 0.274128
0 0.537301 0.547234
0 0.525277 0.438972
0.11667 0.494667 0.391592
0.230259 0.462074 0.348104
0.430426 0.438621 0.30399
0.611612 0.438437 0.28687
0.792493 0.451545 0.275654
0.96257 0.478065 0.269917
1 0.49221 0.254124
0 0.70454 0.461265
0.00247196 0.70251 0.404776
0.2159 0.675181 0.364218
0.240818 0.642145 0.325963
0.398886 0.61944 0.289296
0.619944 0.609674 0.228779
0.840894 0.607965 0.22974
0.99501 0.614816 0.214313
1 0.621286 0.26804
0.488548 0.885618 0.467857
0.481621 0.874098 0.422431
0.443305 0.849729 0.374258
0.407919 0.827115 0.337514
0.459815 0.808026 0.301488
0.623926 0.794385 0.262348
0.828473 0.787198 0.21001
0.986114 0.77882 0.226978
1 0.77557 0.300633
0.711131 0.96939 0.446525
0.717876 0.967468 0.408515
0.71284 0.963211 0.384024
0.694621 0.95436 0.357183
0.681956 0.947936 0.335927
0.689311 0.943053 0.32636
0.827558 0.9346 0.325734
0.979843 0.927504 0.339757
1 0.880156 0.322362
0.724804 0.965087 0.362509
0.724804 0.965087 0.362509
0.724804 0.965087 0.362509
0.724804 0.965087 0.362509
0.724804 0.965087 0.362509
0.724804 0.965087 0.362509
0.724804 0.965087 0.362509
0.838193 0.958221 0.356344
0.963058 0.932937 0.34226
0 0 0.430945
0.290318 0.170993 0.707088
0.476188 0.175784 0.753811
0.588113 0.200443 0.786099
0.783062 0.224369 0.726619
0.942061 0.342367 0.678233
1 0.498161 0.66421
1 0.638437 0.681468
1 0.749249 0.713466
0 0.127214 0.598672
0.262837 0.187747 0.667445
0.416373 0.180041 0.741772
0.560723 0.201328 0.767605
0.759655 0.216052 0.705486
0.926421 0.32256 0.652583
1 0.470512 0.624308
1 0.602792 0.626261
1 0.716213 0.628702
0.247837 0.248096 0.764279
0.238132 0.27335 0.699077
0.260273 0.251896 0.639902
0.473426 0.228107 0.700404
0.674098 0.229175 0.63946
0.877989 0.2607 0.572457
0.990814 0.411902 0.542763
1 0.539025 0.53341
1 0.653849 0.527459
0 0.421607 0.823468
0.2757 0.389532 0.77232
0.232258 0.368368 0.59881
0.308568 0.33846 0.56907
0.570459 0.305455 0.558083
0.770367 0.307256 0.494041
0.951812 0.357443 0.463813
1 0.488899 0.458839
1 0.587259 0.444556
0 0.584115 0.781888
0.148562 0.538308 0.662974
0.237568 0.497932 0.601404
0.292485 0.468345 0.543481
0.465232 0.447364 0.485084
0.67715 0.439689 0.4486
0.868498 0.454276 0.421668
0.995911 0.4851 0.404013
1 0.52723 0.390066
0 0.742855 0.705242
0.0394598 0.716594 0.610391
0.252552 0.689632 0.562097
0.269902 0.656092 0.51667
0.434379 0.621866 0.477821
0.63946 0.610346 0.432273
0.822248 0.616876 0.419745
0.970886 0.635218 0.409384
1 0.640787 0.389242
0.173968 0.891188 0.63299
0.188556 0.885405 0.600092
0.420447 0.85919 0.56495
0.404639 0.832441 0.519783
0.473426 0.807721 0.479912
0.633036 0.79295 0.432395
0.831464 0.781826 0.364462
0.988952 0.77705 0.362066
1 0.767422 0.33193
0.658137 0.979995 0.637949
0.672724 0.977661 0.596887
0.669947 0.971267 0.560845
0.654231 0.960739 0.522042
0.64181 0.950881 0.48603
0.687449 0.940169 0.447776
0.831357 0.92668 0.402762
0.984222 0.91664 0.329885
1 0.876371 0.32314
0.70547 0.97084 0.474601
0.712749 0.968963 0.437949
0.716854 0.967788 0.41471
0.719753 0.966888 0.397024
0.722332 0.966003 0.379965
0.724804 0.965087 0.362509
0.729656 0.964874 0.362264
0.856703 0.956725 0.355291
0.97348 0.929595 0.340673
0.179171 0.104936 0.642481
0.450111 0.181125 0.750286
0.62594 0.179324 0.800916
0.712993 0.24744 0.855482
0.796262 0.316869 0.909285
0.939834 0.414252 0.912276
1 0.550774 0.909224
1 0.67866 0.910597
1 0.732082 0.804303
0.290059 0.165621 0.705867
0.413382 0.204227 0.757107
0.581277 0.178378 0.785748
0.695781 0.233921 0.844648
0.779553 0.302296 0.898314
0.929061 0.394125 0.886305
1 0.52015 0.863554
1 0.644373 0.84715
1 0.730526 0.796292
0.556344 0.256611 0.81883
0.324498 0.289845 0.808591
0.396109 0.259342 0.794202
0.610483 0.226307 0.815854
0.732433 0.256107 0.853574
0.894118 0.336049 0.809537
0.998413 0.461952 0.777325
1 0.584115 0.74789
1 0.698772 0.735744
0.390723 0.386114 0.887175
0.451652 0.379141 0.887953
0.30071 0.380179 0.728954
0.389838 0.336599 0.75523
0.639109 0.306355 0.771237
0.846464 0.309499 0.722011
0.988434 0.410895 0.688991
1 0.540627 0.666316
1 0.654932 0.656229
0.00784314 0.566339 0.930266
0.372595 0.53669 0.883055
0.363134 0.495155 0.808591
0.314809 0.492683 0.665446
0.50663 0.453849 0.682429
0.756542 0.441764 0.666651
0.946197 0.462547 0.623331
1 0.520729 0.596201
1 0.624491 0.584833
0.0348974 0.766232 0.913695
0.325368 0.735836 0.836271
0.378134 0.697383 0.781476
0.376043 0.664942 0.735225
0.492317 0.63888 0.677989
0.683482 0.622309 0.634012
0.874556 0.6224 0.597025
1 0.637919 0.566506
1 0.647135 0.538994
0.12546 0.918853 0.883406
0.244846 0.898039 0.809079
0.464591 0.875563 0.76585
0.446235 0.848737 0.721431
0.513741 0.820676 0.679301
0.664683 0.798886 0.636545
0.847913 0.787762 0.590265
0.987533 0.790799 0.574182
1 0.791653 0.553552
0.502113 1 0.823255
0.54699 0.997818 0.795743
0.594049 0.989242 0.76556
0.58706 0.974899 0.726833
0.610025 0.960052 0.687495
0.699107 0.94403 0.641566
0.839643 0.930556 0.592004
0.988006 0.918044 0.519081
1 0.880293 0.474754
0.642039 0.982284 0.676677
0.660212 0.97969 0.632486
0.669612 0.978195 0.606302
0.67628 0.977035 0.585916
0.682704 0.975845 0.564858
0.689738 0.974426 0.539849
0.746471 0.970672 0.503899
0.877287 0.959289 0.44799
0.988495 0.924605 0.338567
0.494072 0.152224 0.746929
0.586847 0.175509 0.786389
0.718746 0.252186 0.859144
0.809293 0.32845 0.918105
0.873899 0.393927 0.939971
0.953246 0.491295 0.9673
0.999847 0.615427 1
1 0.739605 1
1 0.718471 0.942657
0.510658 0.178943 0.764797
0.56257 0.192676 0.786267
0.693477 0.232013 0.843168
0.793118 0.314076 0.907164
0.860243 0.379385 0.935775
0.936538 0.467887 0.960662
0.994675 0.582696 0.985336
1 0.687434 0.982208
1 0.719982 0.940856
0.62414 0.25391 0.833112
0.501701 0.2878 0.828931
0.580362 0.242908 0.816526
0.734981 0.265217 0.869474
0.817838 0.336461 0.923278
0.894514 0.416846 0.946441
0.985824 0.523766 0.953704
1 0.626978 0.945541
1 0.727565 0.933562
0.69749 0.369268 0.910307
0.539193 0.38613 0.900267
0.414557 0.382696 0.878233
0.54931 0.332601 0.865293
0.76907 0.303792 0.895689
0.867781 0.376501 0.930907
0.98146 0.477485 0.921096
1 0.58436 0.89482
1 0.695537 0.865583
0.603754 0.55581 0.965118
0.581964 0.520714 0.956085
0.456062 0.512337 0.928084
0.394842 0.510903 0.82652
0.57908 0.464057 0.870573
0.828061 0.448814 0.882765
0.987198 0.467521 0.848188
1 0.56492 0.818967
1 0.674846 0.79527
0.291341 0.749599 0.970581
0.487175 0.734813 0.963455
0.50782 0.69662 0.947066
0.500298 0.66833 0.927428
0.504097 0.668589 0.804532
0.73164 0.633692 0.824994
0.938262 0.62916 0.81088
1 0.6383 0.764523
1 0.677852 0.73463
0.213504 0.908812 0.963226
0.483497 0.907408 0.957931
0.551156 0.880751 0.938445
0.540169 0.857481 0.92195
0.58323 0.833844 0.880781
0.718471 0.811322 0.830304
0.878386 0.799268 0.792386
1 0.797375 0.752651
1 0.796918 0.715434
0.226566 1 0.957732
0.344488 1 0.944717
0.62945 1 0.939467
0.628183 0.995392 0.912963
0.646311 0.975174 0.874434
0.733196 0.952377 0.836927
0.858747 0.938949 0.792325
0.994034 0.927581 0.749752
1 0.893751 0.69044
0.333577 1 0.851148
0.508171 1 0.820111
0.548531 0.997589 0.794568
0.570413 0.994141 0.77731
0.587411 0.991058 0.761517
0.643061 0.985916 0.739437
0.763928 0.980072 0.699214
0.888685 0.965667 0.641169
0.997513 0.929793 0.537789
0.734813 0.264988 0.869368
0.748074 0.275822 0.877852
0.82034 0.338796 0.923964
0.892195 0.414237 0.945708
0.948074 0.482826 0.964904
0.986694 0.574609 0.991073
1 0.672038 1
1 0.696529 1
1 0.723888 1
0.616236 0.171664 0.794858
0.687404 0.227314 0.839353
0.794903 0.315587 0.908354
0.878218 0.398688 0.941329
0.933608 0.464149 0.959609
0.977707 0.546304 0.983001
1 0.64268 1
1 0.69752 1
1 0.725414 1
0.669505 0.251911 0.844373
0.637507 0.263142 0.841093
0.727138 0.258915 0.8645
0.828428 0.346868 0.926299
0.895994 0.418509 0.946914
0.954711 0.49395 0.968048
0.990616 0.586892 0.994598
1 0.682612 1
1 0.73286 1
0.784115 0.357931 0.923308
0.613825 0.398032 0.915328
0.605539 0.374197 0.899214
0.735103 0.320012 0.893523
0.859297 0.378378 0.9355
0.927031 0.455848 0.957214
0.977539 0.54583 0.982849
1 0.64152 0.994858
1 0.731517 0.986694
0.803037 0.539422 0.962219
0.722866 0.524987 0.955932
0.538827 0.538735 0.960479
0.507607 0.52369 0.954986
0.713878 0.474357 0.943465
0.922744 0.453498 0.956252
0.976852 0.534707 0.975647
1 0.62063 0.968612
1 0.710323 0.959792
0.710369 0.737377 1
0.697688 0.717159 1
0.644022 0.686412 0.997772
0.550286 0.688746 0.96701
0.561654 0.687938 0.939361
0.774334 0.643275 0.953353
0.972763 0.632151 0.957671
1 0.6318 0.944976
1 0.714641 0.935027
0.189929 0.910277 1
0.605509 0.899763 1
0.633341 0.872755 1
0.622126 0.849363 0.993057
0.653239 0.830289 0.972427
0.713191 0.836423 0.933455
0.905882 0.807889 0.942489
1 0.798566 0.937072
1 0.795026 0.897688
0.250797 0.999283 1
0.538109 0.999008 1
0.661723 0.994141 1
0.678431 0.990936 0.997253
0.691722 0.973831 0.981186
0.767865 0.957778 0.967117
0.886564 0.944381 0.952544
1 0.935851 0.933059
1 0.890379 0.848371
0.202518 1 0.975235
0.256657 1 0.953841
0.487724 1 0.946029
0.561425 1 0.940063
0.578332 1 0.934569
0.66656 1 0.913893
0.78677 0.988251 0.881682
0.899001 0.969192 0.826658
1 0.935912 0.756817
