site/assets/luts/freshluts--0000541-yelloworange.cube
# LUTr-Schema-Version: 2
# LUTr-ID: freshluts--0000541-yelloworange
# LUTr-Title: yellow+orange
# LUTr-Collection: Fresh LUTs
# LUTr-Collection-ID: freshluts-community
# LUTr-Source: https://freshluts.com
# LUTr-Retrieved: 2026-07-27
# LUTr-Source-File: submissions-raw/freshluts/cubes/541__yellow_orange_33pt.cube_4.A008_04270543_C022.cube
# LUTr-Source-Format: CUBE
# LUTr-Source-SHA256: 9d7bcad84c4569be1faac1fa27a8557c026d197c5c6a9e0177abd885e4b57b86
# LUTr-License: CC0-1.0
# LUTr-License-URL: https://freshluts.com/termsandconditions
# LUTr-License-Basis: site-terms
# LUTr-Transform-Class: creative-look
# LUTr-Tags: creative, freshluts, community, cube, warm, bmd-film-4k
# LUTr-Input-Color-Space:
# LUTr-Input-Gamut: bmd-film-gamut
# LUTr-Input-Transfer: bmd-film-4k
# LUTr-Output-Color-Space: srgb
# LUTr-Output-Gamut: rec709
# LUTr-Output-Transfer: srgb
# LUTr-Color-Space-Confidence: camera-profile-input-required
# LUTr-Domain-Normalized: true
# LUTr-Shaper: none
# LUTr-Original-Grid: 33x33x33
# LUTr-Conversion-Grid: 33x33x33
# LUTr-Conversion-Interpolation: none
# LUTr-Conversion-Method: Metadata normalization; numeric LUT samples preserved
# LUTr-Conversion-Tool: LUTr scripts/convert-all-to-cube.mjs 2.0.0
# LUTr-Conversion-Date: 2026-07-28
# LUTr-Asset-URL: https://freshluts.com/luts/541
# LUTr-Author: sswyft
# LUTr-Author-URL: https://freshluts.com/users/10877
# LUTr-Attribution: sswyft via Fresh LUTs
# LUTr-Source-Labels: gamma=Blackmagic BMD Film 4K; color=Warm; key=Neutral; style=Colorful
# LUTr-Note: Preserve this metadata and the upstream license notices when redistributing.
TITLE "yellow+orange"
LUT_3D_SIZE 5
DOMAIN_MIN 0 0 0
DOMAIN_MAX 1 1 1
0 0 0
0.102602 0 0
0.351293 0 0
0.634104 0 0
0.914565 0 0
0 0.103944 0
0.161715 0.126268 0
0.523171 0.120134 0
0.869017 0.134646 0
1 0.176745 0.0158236
0 0.471 0
0.119966 0.522622 0
0.527352 0.526436 0
0.873594 0.543008 0
1 0.583261 0.0214237
0 0.857832 0
0.17319 0.90454 0.0128481
0.561822 0.891493 0.000869764
0.884565 0.884565 0
1 0.896452 0.00770581
0.0604715 1 0.0604868
0.239445 1 0.0796979
0.60972 1 0.0648203
0.953216 1 0.624079
1 1 1
0 0 0.0861219
0.0905776 0 0.0905776
0.36318 0 0.0571603
0.662623 0 0.0278172
0.955139 0 0.0325475
0 0.109773 0.109773
0.141741 0.141741 0.141741
0.539849 0.136843 0.136843
0.886397 0.152163 0.152163
1 0.194781 0.194781
0 0.48809 0.0852979
0.138399 0.540917 0.138399
0.548501 0.546197 0.106081
0.890959 0.56051 0.15877
1 0.598367 0.197086
0 0.87451 0.142626
0.18732 0.918349 0.18732
0.57261 0.902174 0.171939
0.892592 0.892592 0.163195
1 0.90219 0.17351
0.0677806 1 0.227634
0.24445 1 0.24445
0.660639 1 0.325307
0.991272 1 0.943648
1 1 1
0 0 0.338048
0.0804456 0 0.365072
0.362325 0 0.362325
0.681178 0 0.37995
0.964462 0 0.429435
0 0.100999 0.485237
0.138964 0.138964 0.542016
0.539757 0.136782 0.539742
0.885969 0.151858 0.55465
1 0.195712 0.598245
0 0.488197 0.488197
0.13959 0.542 0.542
0.544793 0.544793 0.544793
0.890196 0.559884 0.559884
1 0.595285 0.595285
0 0.873152 0.542947
0.18323 0.914 0.584192
0.565332 0.894759 0.565332
0.886748 0.884459 0.517632
1 0.892607 0.510536
0.0568093 1 0.616571
0.231434 1 0.631006
0.734295 1 0.734295
1 1 1
1 1 1
0 0 0.555688
0.0727703 0 0.610529
0.366781 0 0.641032
0.703578 0 0.703563
0.967483 0 0.763485
0 0.100023 0.824445
0.142535 0.14255 0.877089
0.545083 0.142138 0.876509
0.891112 0.157153 0.891112
1 0.202014 0.935454
0 0.493919 0.825101
0.14583 0.548119 0.879026
0.550256 0.550256 0.880812
0.893797 0.563607 0.893797
1 0.595972 0.92578
0 0.875731 0.875731
0.182971 0.913436 0.913436
0.562173 0.891478 0.891478
0.87631 0.87631 0.87631
1 0.881605 0.881605
0.0502632 1 0.938643
0.245197 1 0.951064
0.840955 1 0.957397
1 1 1
1 1 1
0 0 0.709789
0.0713054 0 0.785565
0.380072 0 0.844144
0.732876 0 0.933684
0.980209 0 0.980194
0 0.109682 1
0.156344 0.156359 1
0.559396 0.156527 1
0.905913 0.172107 1
1 0.217609 1
0 0.509178 1
0.161196 0.563378 1
0.564553 0.564569 1
0.905638 0.57557 1
1 0.605051 1
0 0.886427 1
0.191043 0.921233 1
0.567193 0.896391 1
0.878935 0.878935 1
1 0.883879 1
0.0524453 1 1
0.34902 1 1
0.978088 1 1
1 1 1
1 1 1
