site/assets/luts/freshluts--0000478-light-girl.cube
# LUTr-Schema-Version: 2
# LUTr-ID: freshluts--0000478-light-girl
# LUTr-Title: light girl
# LUTr-Collection: Fresh LUTs
# LUTr-Collection-ID: freshluts-community
# LUTr-Source: https://freshluts.com
# LUTr-Retrieved: 2026-07-27
# LUTr-Source-File: submissions-raw/freshluts/cubes/478__girl_1.nice-girl-at-sunshine-women-s-gray-and-beige-backless-dress-wallpaper-preview.cube
# LUTr-Source-Format: CUBE
# LUTr-Source-SHA256: e13f64e73b55bfc848be0f2a395e08ff5bad6da09965f848c5a0a57e5df6363e
# LUTr-License: CC0-1.0
# LUTr-License-URL: https://freshluts.com/termsandconditions
# LUTr-License-Basis: site-terms
# LUTr-Transform-Class: creative-look
# LUTr-Tags: creative, freshluts, community, cube, warm, high-key, rec709, assumed-input
# LUTr-Input-Color-Space: rec709
# LUTr-Input-Gamut: rec709
# LUTr-Input-Transfer: rec709
# LUTr-Output-Color-Space: srgb
# LUTr-Output-Gamut: rec709
# LUTr-Output-Transfer: srgb
# LUTr-Color-Space-Confidence: assumed-display-referred
# LUTr-Domain-Normalized: true
# LUTr-Shaper: none
# LUTr-Original-Grid: 33x33x33
# LUTr-Conversion-Grid: 33x33x33
# LUTr-Conversion-Interpolation: none
# LUTr-Conversion-Method: Metadata normalization; numeric LUT samples preserved
# LUTr-Conversion-Tool: LUTr scripts/convert-all-to-cube.mjs 2.0.0
# LUTr-Conversion-Date: 2026-07-28
# LUTr-Asset-URL: https://freshluts.com/luts/478
# LUTr-Author: Walden Creations
# LUTr-Author-URL: https://freshluts.com/users/33993
# LUTr-Attribution: Walden Creations via Fresh LUTs
# LUTr-Source-Labels: gamma=Other; color=Warm; key=High Key; style=Adventure; LUTr assumption=input Rec.709 per repository policy
# LUTr-Conversion-Warning: Input Rec.709 is a LUTr catalog assumption requested for this otherwise unspecified Fresh LUT; it is not verified by the upstream asset.
# LUTr-Note: Preserve this metadata and the upstream license notices when redistributing.
TITLE "light girl"
LUT_3D_SIZE 9
DOMAIN_MIN 0 0 0
DOMAIN_MAX 1 1 1
0 0 0
0.0214847 0 0
0.110521 0 0
0.213092 0 0
0.335714 0 0
0.471855 0 0
0.61297 0 0
0.749218 0.00627146 0
0.882231 0.0240482 0
0 0.0118563 0
0.030045 0.0151675 0
0.12285 0.0218814 0
0.234867 0.0297246 0
0.360296 0.0386969 0
0.494667 0.0491646 0
0.635538 0.0613413 0
0.770489 0.0776226 0
0.902495 0.0967117 0.0117952
0 0.0892042 0
0.0440223 0.100984 0
0.141726 0.112566 0
0.256916 0.124132 0
0.384329 0.136324 0
0.520317 0.149371 0
0.661463 0.163806 0.00308232
0.794919 0.182055 0.0188907
0.927153 0.202548 0.0375219
0 0.198291 0
0.0611582 0.211337 0
0.161959 0.225025 0
0.280018 0.239063 0
0.409049 0.253468 0.00125124
0.546227 0.26836 0.0130159
0.686641 0.284245 0.0262913
0.819348 0.304082 0.0442664
0.951446 0.32578 0.0641184
0.00886549 0.324712 0
0.0810407 0.337987 0
0.184695 0.353323 0
0.304341 0.368841 0.0100862
0.434577 0.384192 0.0226596
0.572259 0.399954 0.0360723
0.711452 0.417304 0.0513466
0.843626 0.438254 0.0703441
0.975509 0.4607 0.0910658
0.0291142 0.46363 0
0.103655 0.476997 0.00541695
0.209079 0.492683 0.0187686
0.329671 0.508583 0.0323491
0.461036 0.524956 0.0463722
0.599207 0.54136 0.0610666
0.736461 0.559838 0.0777447
0.867704 0.581231 0.0975357
0.999207 0.603494 0.118364
0.05243 0.611002 0.017319
0.128588 0.624186 0.029221
0.235294 0.640085 0.0431983
0.357259 0.656092 0.0579385
0.489509 0.67219 0.0730755
0.628641 0.68867 0.0892653
0.763027 0.706294 0.106905
0.891585 0.724224 0.125277
1 0.741268 0.143236
0.0861524 0.761486 0.0517891
0.164218 0.774075 0.0645304
0.272786 0.789334 0.079881
0.396063 0.804166 0.0955367
0.52697 0.817426 0.109575
0.66186 0.829023 0.122286
0.790066 0.842969 0.137728
0.916182 0.858396 0.154772
1 0.873899 0.172152
0.12752 0.91191 0.0942092
0.204517 0.921904 0.104875
0.310536 0.933059 0.117281
0.430045 0.943572 0.129046
0.558572 0.953826 0.140887
0.691463 0.964508 0.153262
0.816876 0.977768 0.168566
0.941588 0.992355 0.18526
1 1 0.202182
0 0 0
0.0235599 0 0
0.110124 0 0
0.216571 0 0
0.340871 0 0
0.477409 0 0.0109407
0.61854 0 0.0233158
0.754238 0.0109865 0.0393072
0.886839 0.0287938 0.0584421
0 0.0109407 0
0.0321813 0.0173648 0
0.126513 0.0254673 0.00370794
0.239567 0.0340734 0.011902
0.365393 0.043595 0.0216373
0.500313 0.0542458 0.0324559
0.640818 0.0664073 0.0446784
0.774914 0.0824903 0.0613718
0.907073 0.101396 0.0806744
0 0.0933852 0
0.0480812 0.105608 0.0110933
0.146517 0.117601 0.021622
0.262257 0.129427 0.0325933
0.389746 0.141711 0.0442359
0.525261 0.154498 0.0561532
0.666163 0.168734 0.0698253
0.799359 0.186923 0.0875563
0.931289 0.207385 0.107805
0 0.203937 0.0171206
0.0660716 0.216678 0.0287327
0.167391 0.230686 0.041413
0.285206 0.244602 0.0543374
0.414267 0.258473 0.0670634
0.551202 0.273274 0.0806592
0.691157 0.289128 0.0957046
0.823545 0.30898 0.114717
0.955581 0.330617 0.135592
0.0137636 0.330465 0.0376898
0.0864576 0.343618 0.0497749
0.1897 0.358709 0.0632944
0.309239 0.373678 0.0772259
0.439414 0.389197 0.0912184
0.576989 0.404837 0.105989
0.715816 0.422187 0.122271
0.847623 0.443122 0.142229
0.979507 0.465476 0.163729
0.0339055 0.468894 0.0607004
0.108598 0.482155 0.0730144
0.213657 0.497856 0.087541
0.334554 0.513542 0.102052
0.465827 0.529686 0.117082
0.603998 0.546075 0.132723
0.740719 0.564569 0.150164
0.871748 0.585733 0.170626
1 0.607874 0.19205
0.057023 0.616251 0.0867628
0.133333 0.629282 0.0991379
0.240024 0.645014 0.114168
0.361959 0.660914 0.129427
0.494209 0.67686 0.145312
0.632776 0.693004 0.161822
0.766567 0.710369 0.180133
0.894652 0.727794 0.198657
1 0.744335 0.216754
0.0907607 0.766445 0.1234
0.16907 0.778851 0.136492
0.277729 0.793835 0.152468
0.400275 0.808148 0.168292
0.530495 0.820798 0.182147
0.665339 0.832258 0.195315
0.793118 0.846143 0.211048
0.919219 0.861418 0.228687
1 0.876783 0.246418
0.131411 0.915969 0.166659
0.20856 0.925505 0.177508
0.313985 0.936172 0.189731
0.433677 0.946685 0.202045
0.562158 0.956817 0.214252
0.694499 0.967422 0.227283
0.819501 0.980652 0.242878
0.943984 0.995163 0.259876
1 1 0.277485
0 0 0.0652018
0.026627 0 0.074464
0.111696 0 0.0759136
0.220951 0 0.0829786
0.347601 0 0.095079
0.483284 0 0.108324
0.62443 0.00178531 0.122484
0.759426 0.0163272 0.139773
0.891951 0.0340276 0.160113
0 0.0127565 0.0759899
0.0360571 0.0210422 0.0856641
0.131319 0.029572 0.0962539
0.244877 0.0385901 0.106813
0.370764 0.0485084 0.118441
0.505745 0.0594339 0.130983
0.646159 0.0714733 0.144564
0.780209 0.0881514 0.162417
0.912139 0.10724 0.18291
0 0.0983291 0.0925765
0.0529335 0.110613 0.10518
0.151446 0.122454 0.117464
0.267353 0.134539 0.129946
0.395117 0.146899 0.142611
0.531136 0.160006 0.156497
0.671443 0.174166 0.171145
0.804227 0.192569 0.189899
0.936187 0.213123 0.21088
0.00164797 0.209918 0.113664
0.0713207 0.222354 0.126116
0.17261 0.23624 0.13994
0.290578 0.250126 0.153521
0.419776 0.264378 0.167865
0.556588 0.278889 0.182315
0.696529 0.295003 0.198383
0.828733 0.314824 0.218189
0.960494 0.336446 0.239826
0.0188602 0.336706 0.136828
0.0914626 0.349584 0.149386
0.19527 0.364431 0.163851
0.314733 0.379736 0.178759
0.445167 0.395163 0.193805
0.582788 0.41088 0.209186
0.721233 0.428305 0.226322
0.852979 0.449226 0.247013
0.98436 0.471305 0.268894
0.0391394 0.475242 0.161761
0.113802 0.488304 0.174578
0.219364 0.503746 0.189639
0.340276 0.519753 0.205066
0.471275 0.535653 0.220737
0.609293 0.551934 0.236683
0.745647 0.570459 0.254932
0.8766 0.591852 0.276127
1 0.613092 0.297246
0.0623636 0.622415 0.189273
0.138933 0.635294 0.202243
0.245655 0.650919 0.217746
0.367941 0.666957 0.233967
0.500145 0.682795 0.25066
0.638666 0.698665 0.267445
0.771328 0.715343 0.285588
0.898436 0.731914 0.303883
1 0.748409 0.322469
0.0969253 0.772457 0.228061
0.174929 0.784634 0.241321
0.28336 0.799405 0.257496
0.405753 0.81323 0.273228
0.535561 0.825208 0.287175
0.669718 0.836347 0.300465
0.796796 0.850034 0.316548
0.922469 0.865217 0.33434
1 0.880354 0.3523
0.136309 0.920516 0.271214
0.212924 0.929824 0.281956
0.318532 0.940322 0.294652
0.437888 0.950439 0.306996
0.566155 0.96054 0.319417
0.698222 0.970962 0.332692
0.823041 0.984298 0.348806
0.947265 0.998505 0.366033
1 1 0.384115
0 0 0.169986
0.0271916 0 0.17818
0.113619 0 0.181338
0.225208 0 0.191028
0.35288 0 0.205341
0.488609 0 0.219333
0.629374 0.00613413 0.233661
0.764691 0.0212711 0.252293
0.896834 0.0393835 0.273259
0 0.0143893 0.181338
0.0388647 0.0238193 0.192767
0.134722 0.0328222 0.203937
0.249149 0.0426184 0.216159
0.375677 0.0528878 0.228763
0.510582 0.0639048 0.241733
0.651408 0.0765087 0.256458
0.784924 0.0932174 0.275212
0.917052 0.112474 0.296315
0 0.102541 0.20087
0.0565652 0.114977 0.214145
0.155917 0.127062 0.227222
0.272267 0.139315 0.240345
0.400259 0.151934 0.254322
0.536019 0.165072 0.268254
0.676524 0.179721 0.28397
0.8094 0.198245 0.303532
0.941207 0.218952 0.325231
0.00543221 0.214923 0.223911
0.075761 0.227619 0.236896
0.177691 0.241398 0.251072
0.29575 0.255543 0.265644
0.425177 0.269612 0.280156
0.562264 0.28452 0.295415
0.701625 0.30071 0.31191
0.833631 0.32076 0.332372
0.965377 0.342519 0.354559
0.0234989 0.342397 0.248508
0.0966964 0.355276 0.261433
0.200366 0.37026 0.276204
0.320333 0.385382 0.291676
0.450752 0.400717 0.307134
0.588296 0.416449 0.322896
0.726177 0.434089 0.340475
0.857618 0.45507 0.361669
0.989227 0.477409 0.384192
0.0441596 0.481193 0.274815
0.11931 0.494255 0.287831
0.224689 0.509819 0.30309
0.345708 0.525429 0.318959
0.476982 0.54139 0.334951
0.615076 0.557839 0.351461
0.750866 0.576455 0.370199
0.881376 0.597467 0.391333
1 0.618296 0.412375
0.0677348 0.628656 0.30341
0.144381 0.641459 0.316365
0.251209 0.656825 0.332219
0.373358 0.672694 0.348547
0.505577 0.688441 0.365484
0.643732 0.703822 0.382376
0.775128 0.719829 0.400153
0.902022 0.736233 0.418662
1 0.752209 0.43714
0.102495 0.778363 0.343099
0.181033 0.790478 0.356619
0.289326 0.804852 0.372732
0.41062 0.817716 0.387884
0.539925 0.829145 0.401587
0.673716 0.840055 0.414923
0.800641 0.853864 0.431418
0.925917 0.868772 0.449165
1 0.88394 0.467384
0.141009 0.925093 0.385977
0.217426 0.933761 0.396277
0.322789 0.94406 0.408804
0.442298 0.954223 0.421454
0.570657 0.964233 0.43415
0.701793 0.974395 0.447135
0.82623 0.987701 0.463539
0.950408 1 0.480812
1 1 0.49897
0 0 0.285496
0.0247654 0 0.290517
0.115846 0 0.298161
0.229236 0 0.310048
0.357687 0 0.325154
0.493492 0 0.339361
0.634836 0.0105135 0.354711
0.769177 0.0259861 0.373587
0.901717 0.0442817 0.395193
0 0.0162051 0.298085
0.041413 0.0262455 0.310079
0.138598 0.0360571 0.322744
0.25333 0.0460975 0.335241
0.380224 0.0568093 0.348455
0.515709 0.0684367 0.362646
0.656184 0.0811475 0.377798
0.789609 0.098558 0.397177
0.921752 0.118059 0.418738
0 0.106813 0.320012
0.0602884 0.118883 0.333089
0.16025 0.131472 0.346731
0.276951 0.143969 0.360891
0.404959 0.156619 0.374655
0.541466 0.170153 0.389563
0.681575 0.184802 0.405539
0.814069 0.203632 0.425635
0.945998 0.224475 0.447608
0.00914015 0.220005 0.344121
0.0800793 0.232334 0.356954
0.18201 0.246342 0.371618
0.300786 0.260502 0.386496
0.430243 0.27509 0.401511
0.567285 0.28986 0.416983
0.706462 0.306233 0.434028
0.838361 0.326421 0.454871
0.970184 0.348241 0.477287
0.0277104 0.347936 0.369329
0.101106 0.360693 0.382315
0.205249 0.375616 0.397803
0.325353 0.390982 0.413245
0.455787 0.406302 0.42887
0.593729 0.422339 0.445243
0.731319 0.440085 0.463325
0.862318 0.460883 0.484443
0.994003 0.483207 0.507088
0.0488441 0.487129 0.396475
0.124224 0.499992 0.409644
0.23006 0.515435 0.425055
0.351186 0.531228 0.441306
0.48246 0.547265 0.457481
0.620325 0.563592 0.473854
0.755627 0.58233 0.492866
0.885878 0.603357 0.514153
1 0.623133 0.534508
0.0729686 0.63447 0.426032
0.149599 0.647288 0.438849
0.256825 0.662699 0.45478
0.379171 0.678264 0.471321
0.511604 0.694133 0.488411
0.649027 0.708721 0.504936
0.779187 0.724132 0.522148
0.905623 0.740124 0.540398
1 0.756054 0.558602
0.108309 0.784024 0.4663
0.186572 0.796002 0.479698
0.294469 0.809705 0.495323
0.415335 0.821942 0.509819
0.544198 0.833143 0.523339
0.677501 0.843885 0.536629
0.803983 0.857649 0.553124
0.92929 0.872618 0.571069
1 0.887358 0.588998
0.145388 0.929274 0.507927
0.221744 0.937942 0.518303
0.327169 0.947967 0.530831
0.446525 0.9579 0.543313
0.57467 0.967666 0.555795
0.705699 0.977996 0.568948
0.829618 0.991089 0.584939
0.953719 1 0.602396
1 1 0.620478
0 0 0.407477
0.0248722 0 0.412985
0.118914 0 0.423224
0.23476 0 0.437446
0.362615 0 0.452018
0.498634 0.00325017 0.46685
0.639551 0.0147402 0.482109
0.774121 0.0308995 0.501778
0.906584 0.0495766 0.523445
0 0.0183413 0.422766
0.0441901 0.0290074 0.435615
0.142123 0.0394293 0.448478
0.257588 0.0498817 0.46183
0.384878 0.0610208 0.475486
0.52047 0.0727245 0.489723
0.661082 0.0861524 0.505287
0.794385 0.103532 0.524926
0.92639 0.123354 0.546822
0 0.111025 0.446036
0.0637675 0.12311 0.459205
0.164218 0.135576 0.47335
0.281392 0.148363 0.487358
0.41004 0.161501 0.501961
0.546349 0.175067 0.516808
0.686488 0.190326 0.533272
0.818814 0.209415 0.553628
0.950668 0.230289 0.575662
0.0126802 0.224887 0.471015
0.0842145 0.23743 0.483909
0.186984 0.251408 0.498863
0.305669 0.265873 0.513817
0.435248 0.280247 0.529137
0.572702 0.295445 0.545083
0.711589 0.312047 0.562432
0.843549 0.332372 0.583154
0.975021 0.354192 0.605493
0.0320745 0.353231 0.496895
0.10602 0.36614 0.50985
0.210605 0.381216 0.525536
0.330449 0.396429 0.540856
0.461372 0.412085 0.556863
0.599039 0.427955 0.573083
0.736187 0.445899 0.591318
0.867521 0.467002 0.61268
0.998734 0.489128 0.635035
0.0536355 0.492836 0.5243
0.129244 0.505684 0.537285
0.235203 0.521096 0.55314
0.35642 0.537118 0.569116
0.487724 0.553017 0.585214
0.625711 0.569329 0.601724
0.760464 0.58819 0.620783
0.890166 0.60882 0.64152
1 0.627848 0.660548
0.0778058 0.640452 0.553994
0.155047 0.653025 0.567117
0.262348 0.668421 0.58294
0.385077 0.684199 0.599756
0.517189 0.69958 0.616632
0.653941 0.713497 0.632212
0.783154 0.728573 0.648951
0.909041 0.744091 0.6663
1 0.760235 0.683635
0.114199 0.78999 0.595178
0.192416 0.801419 0.608011
0.299687 0.814435 0.622889
0.420157 0.826352 0.636942
0.54876 0.837018 0.64976
0.681819 0.847761 0.662684
0.80763 0.861509 0.678279
0.93286 0.876371 0.69485
1 0.891188 0.711055
0.149584 0.933303 0.634897
0.226062 0.941711 0.644892
0.331456 0.951659 0.657176
0.450858 0.961547 0.669154
0.578714 0.971283 0.68072
0.709239 0.981674 0.69279
0.833265 0.994888 0.707576
0.957565 1 0.723613
1 1 0.739162
0 0 0.532036
0.0256962 0 0.541268
0.122133 0 0.553582
0.239551 0 0.568963
0.367575 0 0.583505
0.503365 0.00717174 0.597925
0.644877 0.0193332 0.613764
0.778805 0.0357519 0.633066
0.911315 0.0547951 0.654551
0 0.0207218 0.552865
0.0472114 0.0319982 0.565789
0.145861 0.0425422 0.579049
0.261601 0.0535744 0.592416
0.389593 0.0650339 0.606317
0.525628 0.0774243 0.620981
0.666072 0.0909285 0.636408
0.79913 0.108766 0.655848
0.931426 0.128862 0.67689
0 0.115328 0.577325
0.0674601 0.127001 0.590051
0.168368 0.140139 0.604303
0.286168 0.153109 0.618845
0.414771 0.166278 0.633143
0.551583 0.180377 0.648188
0.691478 0.195666 0.664103
0.823865 0.215061 0.683619
0.955795 0.236393 0.70457
0.0164034 0.229908 0.602365
0.0883955 0.242237 0.615213
0.191348 0.256443 0.630014
0.310613 0.27097 0.645075
0.440894 0.285771 0.660243
0.578164 0.300954 0.67509
0.716701 0.317937 0.691463
0.848417 0.338582 0.71107
0.980179 0.360769 0.731929
0.0366217 0.358968 0.628595
0.110811 0.371664 0.641413
0.215396 0.386786 0.656352
0.336187 0.402243 0.671748
0.466987 0.417807 0.686671
0.604685 0.433921 0.701503
0.741451 0.452171 0.718379
0.872618 0.473548 0.738048
1 0.496071 0.758694
0.0586404 0.498924 0.655879
0.1346 0.511788 0.668376
0.240665 0.527352 0.683055
0.362264 0.543069 0.697871
0.493736 0.559091 0.712657
0.632029 0.575753 0.727977
0.766018 0.594598 0.744793
0.895064 0.614725 0.762875
1 0.633539 0.779492
0.0835889 0.646845 0.683894
0.160494 0.659236 0.695872
0.268299 0.674525 0.710964
0.391379 0.690303 0.726238
0.523018 0.705394 0.740764
0.659007 0.7187 0.75378
0.787564 0.733577 0.768429
0.913268 0.749096 0.783825
1 0.765164 0.800046
0.120287 0.796033 0.722591
0.198428 0.807263 0.734249
0.305104 0.819623 0.746868
0.425284 0.831022 0.758633
0.553826 0.841581 0.769467
0.686717 0.852476 0.780713
0.812558 0.866438 0.795026
0.937255 0.881117 0.810162
1 0.895949 0.825452
0.15462 0.937865 0.757519
0.231006 0.946227 0.766323
0.336706 0.956191 0.776776
0.456001 0.966125 0.787015
0.583947 0.975708 0.797177
0.713878 0.986267 0.808148
0.837736 0.999802 0.82211
0.962036 1 0.837491
1 1 0.852552
0 0 0.660945
0.0282597 0 0.671855
0.12697 0 0.685008
0.24445 0 0.698863
0.372747 0.00077821 0.711696
0.509499 0.0120241 0.724941
0.650553 0.0246128 0.738659
0.784558 0.0416266 0.756512
0.917449 0.0611124 0.776471
0 0.0240635 0.683818
0.0504463 0.0352331 0.695979
0.150027 0.0466468 0.7084
0.26685 0.0580606 0.720745
0.39501 0.070161 0.73312
0.53135 0.0827192 0.745922
0.672023 0.0970779 0.75996
0.80502 0.115404 0.777844
0.937423 0.135882 0.797696
0.00180056 0.119768 0.706966
0.071809 0.131838 0.719051
0.173312 0.144961 0.731685
0.291325 0.158404 0.744762
0.420874 0.172168 0.757733
0.557855 0.186328 0.770947
0.697551 0.20209 0.785565
0.82977 0.221881 0.803937
0.961959 0.243412 0.823835
0.0208743 0.23537 0.729961
0.0936141 0.247929 0.741863
0.197024 0.262516 0.755383
0.316808 0.277195 0.768826
0.446891 0.29221 0.782101
0.584497 0.307607 0.79585
0.722835 0.32488 0.811337
0.854505 0.345754 0.830243
0.986465 0.368032 0.85037
0.0415503 0.365362 0.753429
0.116243 0.378088 0.765164
0.221622 0.393256 0.778805
0.342473 0.408957 0.792981
0.47335 0.424735 0.806653
0.611399 0.44094 0.820829
0.747692 0.459434 0.83711
0.878782 0.480934 0.856138
1 0.503426 0.875914
0.0646525 0.505867 0.778042
0.140963 0.518669 0.789593
0.247333 0.534279 0.803418
0.368917 0.550118 0.81738
0.500755 0.566491 0.831678
0.638788 0.583032 0.845914
0.772107 0.602045 0.862364
0.900191 0.621118 0.879149
1 0.639307 0.894713
0.0899825 0.654047 0.804181
0.167651 0.666575 0.815869
0.275669 0.68188 0.830091
0.398276 0.697292 0.844602
0.529671 0.711604 0.858091
0.665003 0.724376 0.8701
0.792767 0.738964 0.884092
0.918456 0.754589 0.899123
1 0.770535 0.914412
0.127092 0.80293 0.841428
0.204761 0.813581 0.852049
0.311315 0.825406 0.864012
0.431281 0.836271 0.874784
0.559411 0.846754 0.885023
0.692027 0.857679 0.895933
0.817456 0.871626 0.909789
0.94197 0.886198 0.924407
1 0.901091 0.939239
0.160037 0.94316 0.873808
0.236606 0.951415 0.8822
0.342199 0.961349 0.892287
0.461585 0.971084 0.902144
0.589456 0.980591 0.911727
0.719066 0.99118 0.922316
0.842908 1 0.936095
0.966964 1 0.950973
1 1 0.965866
0 0 0.781201
0.0324712 0 0.792966
0.133196 0 0.80647
0.250568 0 0.819287
0.379263 0.00601205 0.831922
0.515831 0.0176699 0.84445
0.657298 0.03093 0.858366
0.791119 0.0484016 0.875975
0.923873 0.0682536 0.89543
0 0.0287175 0.804761
0.0553902 0.0399329 0.816464
0.155261 0.0515602 0.828305
0.272419 0.0634775 0.840375
0.401205 0.0758831 0.85272
0.538003 0.089128 0.865415
0.678416 0.103593 0.879118
0.811475 0.12224 0.896757
0.943801 0.143038 0.916213
0.0061799 0.125719 0.827314
0.0769818 0.137499 0.838575
0.179019 0.15082 0.851392
0.297597 0.164523 0.863874
0.427359 0.178592 0.876722
0.564508 0.193027 0.889632
0.704021 0.2094 0.904143
0.836179 0.229358 0.922255
0.968231 0.25095 0.941802
0.0261692 0.242161 0.850004
0.0992905 0.254597 0.861234
0.203433 0.269047 0.874495
0.323217 0.284123 0.887587
0.453666 0.299153 0.90071
0.591531 0.314839 0.91426
0.729656 0.33257 0.929702
0.861204 0.353429 0.948089
0.99295 0.375723 0.967819
0.0476539 0.372366 0.872709
0.122683 0.385107 0.884123
0.228367 0.400534 0.897932
0.349142 0.416236 0.911238
0.480491 0.432197 0.92488
0.618708 0.4486 0.938781
0.754543 0.467338 0.954894
0.885374 0.488609 0.973434
1 0.511009 0.992981
0.0709087 0.513375 0.896803
0.147417 0.526177 0.90808
0.254231 0.541711 0.921645
0.376242 0.557855 0.9355
0.507744 0.57406 0.949035
0.645762 0.590585 0.963088
0.77818 0.609262 0.978973
0.905119 0.627604 0.994629
1 0.645335 1
0.0968338 0.661677 0.922576
0.174853 0.674098 0.934051
0.282902 0.689372 0.947982
0.4056 0.704479 0.961975
0.536309 0.717998 0.974517
0.670832 0.730144 0.985824
0.79794 0.744564 0.999649
0.923568 0.760235 1
1 0.775937 1
0.133837 0.809689 0.959045
0.211429 0.819837 0.968765
0.317662 0.831128 0.980026
0.43711 0.841764 0.990265
0.565469 0.852079 1
0.697627 0.863096 1
0.8224 0.876951 1
0.946761 0.891417 1
1 0.906294 1
0.165927 0.948928 0.989914
0.242588 0.956802 0.997955
0.34815 0.966674 1
0.467765 0.976349 1
0.595209 0.985733 1
0.724193 0.996307 1
0.847929 1 1
0.971588 1 1
1 1 1
