site/assets/luts/freshluts--0000676-canon-footages-color-correction.cube
# LUTr-Schema-Version: 2
# LUTr-ID: freshluts--0000676-canon-footages-color-correction
# LUTr-Title: Canon-footages ,COLOR-Correction
# LUTr-Collection: Fresh LUTs
# LUTr-Collection-ID: freshluts-community
# LUTr-Source: https://freshluts.com
# LUTr-Retrieved: 2026-07-27
# LUTr-Source-File: submissions-raw/freshluts/cubes/676__canon-correction_16.00052.cube
# LUTr-Source-Format: CUBE
# LUTr-Source-SHA256: 072aec2eaf16c8efcf3b9e260831269558613cd630089531b277d90e2f44d570
# LUTr-License: CC0-1.0
# LUTr-License-URL: https://freshluts.com/termsandconditions
# LUTr-License-Basis: site-terms
# LUTr-Transform-Class: creative-look
# LUTr-Tags: creative, freshluts, community, cube, rec709, correction
# LUTr-Input-Color-Space: rec709
# LUTr-Input-Gamut: rec709
# LUTr-Input-Transfer: rec709
# LUTr-Output-Color-Space: srgb
# LUTr-Output-Gamut: rec709
# LUTr-Output-Transfer: srgb
# LUTr-Color-Space-Confidence: declared-by-source
# LUTr-Domain-Normalized: true
# LUTr-Shaper: none
# LUTr-Original-Grid: 33x33x33
# LUTr-Conversion-Grid: 33x33x33
# LUTr-Conversion-Interpolation: none
# LUTr-Conversion-Method: Metadata normalization; numeric LUT samples preserved
# LUTr-Conversion-Tool: LUTr scripts/convert-all-to-cube.mjs 2.0.0
# LUTr-Conversion-Date: 2026-07-28
# LUTr-Asset-URL: https://freshluts.com/luts/676
# LUTr-Author: lvannoeun@gmail.com
# LUTr-Author-URL: https://freshluts.com/users/57563
# LUTr-Attribution: lvannoeun@gmail.com via Fresh LUTs
# LUTr-Source-Labels: gamma=Rec 709; color=None; key=Neutral; style=Colorful
# LUTr-Note: Preserve this metadata and the upstream license notices when redistributing.
TITLE "Canon-footages ,COLOR-Correction"
LUT_3D_SIZE 33
DOMAIN_MIN 0 0 0
DOMAIN_MAX 1 1 1
0 0 0
0 0 0
0 0 0
0 0 0
0 0 0
0 0 0
0 0 0
0 0 0
0.0239109 0 0
0.0715343 0 0
0.120409 0 0
0.169726 0 0
0.218723 0 0
0.266728 0 0
0.314549 0 0
0.362631 0 0
0.41062 0 0
0.458228 0 0
0.50518 0 0
0.551232 0 0
0.596201 0 0
0.639872 0 0
0.682506 0 0
0.724483 0 0
0.7664 0 0
0.809262 0 0
0.855833 0 0
0.933074 0 0
0.986221 0 0
1 0 0
1 0 0
1 0 0
1 0 0
0 0 0
0 0 0
0 0 0
0 0 0
0 0 0
0 0 0
0 0 0
0 0 0
0.018204 0 0
0.0665141 0 0
0.116152 0 0
0.166293 0 0
0.21622 0 0
0.265278 0 0
0.31426 0 0
0.363653 0 0
0.413169 0 0
0.462577 0 0
0.511696 0 0
0.560403 0 0
0.608759 0 0
0.657099 0 0
0.706722 0 0
0.762203 0 0
0.846677 0 0
0.89691 0 0
0.939483 0 0
0.978424 0 0
1 0 0
1 0 0
1 0 0
1 0 0
1 0 0
0 0 0
0 0 0
0 0 0
0 0 0
0 0 0
0 0 0
0 0 0
0 0 0
0.0134127 0 0
0.0626688 0 0
0.11339 0 0
0.164782 0 0
0.216129 0 0
0.266835 0 0
0.317739 0 0
0.369467 0 0
0.421897 0 0
0.475105 0 0
0.529549 0 0
0.586786 0 0
0.658076 0 0
0.740139 0 0
0.792432 0 0
0.838743 0 0
0.881361 0 0
0.921279 0 0
0.959106 0 0
0.995499 0 0
1 0 0
1 0 0
1 0 0
1 0 0
1 0 0
0 0 0
0 0 0
0 0 0
0 0 0
0 0 0
0 0 0
0 0 0
0 0 0
0.0200198 0 0
0.0707408 0 0
0.123201 0 0
0.176638 0 0
0.230518 0 0
0.284413 0 0
0.339574 0 0
0.397498 0 0
0.460868 0 0
0.556313 0 0
0.622309 0 0
0.678203 0 0
0.729427 0 0
0.777142 0 0
0.822065 0 0
0.864637 0 0
0.905241 0 0
0.944015 0 0
0.981247 0 0
1 0 0
1 0 0
1 0.00775158 0
1 0.0171206 0
1 0.0265354 0
1 0.0358892 0
0 0 0
0 0 0
0 0 0
0 0 0
0 0 0
0 0 0
0 0 0
0.00939956 0 0
0.0478676 0 0
0.0897078 0 0
0.14342 0 0
0.201709 0 0
0.263005 0 0
0.332403 0 0
0.428687 0 0
0.492134 0 0
0.549874 0 0
0.604562 0 0
0.656977 0 0
0.707286 0 0
0.75555 0 0
0.801648 0.00225834 0
0.84567 0.00910964 0
0.88777 0.0163882 0
0.928054 0.0240787 0
0.966644 0.0322118 0
1 0.0407263 0
1 0.049546 0
1 0.0585794 0
1 0.0677043 0
1 0.0768444 0
1 0.085893 0
1 0.0948043 0
0 0 0
0 0 0
0 0 0
0 0 0
0 0 0
0 0 0
0 0 0
0.0268254 0 0
0.0929885 0 0
0.149355 0 0
0.225757 0 0
0.295293 0 0
0.356466 0.0107729 0
0.414099 0.0188144 0
0.469444 0.0252537 0
0.523781 0.0306859 0
0.577142 0.0356756 0
0.62948 0.040589 0
0.680583 0.0456397 0
0.73019 0.0509499 0
0.778042 0.0566415 0
0.823911 0.0628214 0
0.867781 0.0695201 0
0.909834 0.0767071 0
0.950103 0.0843824 0
0.988647 0.0924392 0
1 0.100786 0
1 0.109331 0
1 0.117952 0
1 0.126604 0
1 0.135164 0
1 0.143603 0
1 0.151812 0
0 0 0
0 0 0
0 0 0
0 0 0
0 0 0
0 0 0
0 0 0
0.0886091 0.0350347 0
0.172946 0.0454414 0
0.250309 0.0482032 0
0.307439 0.0551003 0
0.350469 0.0659648 0
0.39176 0.076524 0
0.44007 0.0835279 0
0.492256 0.0885786 0
0.545541 0.0929732 0
0.598337 0.0973831 0
0.650339 0.10193 0
0.701228 0.106752 0
0.750713 0.11194 0
0.79855 0.117586 0
0.844373 0.12372 0
0.888182 0.130312 0
0.930037 0.137301 0
0.969985 0.14464 0
1 0.152255 0
1 0.160098 0
1 0.168048 0
1 0.176013 0
1 0.183948 0
1 0.19176 0
1 0.199374 0
1 0.206744 0
0 0 0
0 0.00476081 0
0 0.0145724 0
0 0.0393683 0
0 0.086244 0
0.0254826 0.101671 0
0.0776379 0.112016 0
0.129854 0.119692 0
0.183215 0.125658 0
0.253986 0.124559 0
0.334066 0.11902 0
0.393256 0.121019 0
0.440589 0.127642 0
0.478141 0.13817 0
0.518608 0.147509 0
0.565896 0.154101 0
0.616876 0.159136 0
0.668788 0.163684 0
0.719631 0.168444 0
0.769024 0.173495 0
0.816602 0.178882 0
0.862089 0.184649 0
0.905455 0.190768 0
0.946761 0.197223 0
0.98613 0.203922 0
1 0.210864 0
1 0.217975 0
1 0.225132 0
1 0.232288 0
1 0.239353 0
1 0.246265 0
1 0.252964 0
1 0.259525 0
0 0.116777 0
0 0.138476 0
0 0.148058 0
0 0.157519 0
0.00396735 0.16585 0
0.0508888 0.173175 0
0.0990005 0.179522 0
0.14902 0.185031 0
0.201144 0.189776 0
0.255192 0.193866 0
0.322042 0.193362 0
0.407065 0.185595 0
0.471305 0.185214 0
0.523507 0.189456 0
0.565927 0.197696 0
0.602579 0.208347 0
0.642527 0.217563 0
0.687724 0.224414 0
0.735576 0.229847 0
0.783978 0.234592 0
0.831006 0.239414 0
0.875868 0.244526 0
0.918563 0.249958 0
0.959136 0.25565 0
0.997726 0.261555 0
1 0.267659 0
1 0.273869 0
1 0.280125 0
1 0.286381 0
1 0.292699 0
1 0.299062 0
1 0.305379 0
1 0.311604 0
0 0.209155 0
0 0.215076 0
0 0.218555 0
0 0.224857 0
0.0206455 0.231434 0
0.0665904 0.237781 0
0.114137 0.243595 0
0.16379 0.248768 0
0.215686 0.253315 0
0.269612 0.257313 0
0.324697 0.261006 0
0.387182 0.262013 0
0.471901 0.254414 0
0.543084 0.251011 0
0.599405 0.25301 0
0.648249 0.257832 0
0.688441 0.26598 0
0.723507 0.275975 0
0.760311 0.284886 0
0.800793 0.291844 0
0.843122 0.29749 0
0.885496 0.302495 0
0.92694 0.30724 0
0.966659 0.312032 0
1 0.317021 0
1 0.322255 0
1 0.32781 0
1 0.333577 0
1 0.339483 0
1 0.34548 0
1 0.351461 0
1 0.357412 0
1 0.363241 0
0 0.276234 0
0 0.280781 0
0 0.283467 0
0 0.289296 0
0.0340734 0.295598 0
0.0798505 0.301793 0
0.127306 0.30753 0
0.176913 0.312673 0
0.228717 0.317174 0
0.282475 0.321019 0
0.337285 0.324437 0
0.392233 0.327626 0
0.450034 0.329534 0
0.527062 0.323964 0
0.605814 0.316808 0
0.667842 0.315435 0
0.72047 0.317342 0
0.765972 0.321736 0
0.803586 0.328954 0
0.836042 0.337819 0
0.868101 0.346288 0
0.902022 0.353399 0
0.937377 0.359518 0
0.97319 0.365072 0
1 0.370398 0
1 0.375677 0
1 0.380972 0
1 0.386374 0
1 0.391897 0
1 0.397482 0
1 0.403052 0
1 0.40856 0
1 0.413947 0
0 0.34078 0
0 0.345144 0
0 0.347662 0
0.00128176 0.353429 0
0.0466926 0.359686 0
0.0923781 0.365789 0
0.13962 0.371344 0
0.188876 0.376196 0
0.240238 0.38027 0
0.293477 0.383612 0
0.347707 0.38645 0
0.402014 0.388998 0
0.455634 0.391424 0
0.508995 0.393545 0
0.57644 0.390143 0
0.65803 0.380758 0
0.727214 0.375143 0
0.782803 0.374182 0
0.831128 0.375647 0
0.873091 0.379431 0
0.908309 0.385702 0
0.938399 0.393744 0
0.966445 0.402258 0
0.994751 0.410315 0
1 0.417639 0
1 0.424323 0
1 0.43061 0
1 0.436591 0
1 0.442344 0
1 0.447883 0
1 0.453239 0
1 0.458351 0
1 0.463249 0
0 0.404837 0
0 0.409171 0
0 0.411551 0
0.0136873 0.41706 0
0.0587472 0.422965 0
0.10396 0.428626 0
0.150652 0.433646 0
0.199298 0.437888 0
0.249958 0.441306 0
0.302464 0.443931 0
0.355901 0.445991 0
0.409384 0.4477 0
0.46215 0.449287 0
0.513481 0.450904 0
0.564019 0.452369 0
0.624063 0.450202 0
0.701167 0.441428 0
0.776654 0.432532 0
0.837049 0.42887 0
0.887587 0.428687 0
0.932036 0.430564 0
0.970855 0.434363 0
1 0.440024 0
1 0.447227 0
1 0.455299 0
1 0.463554 0
1 0.471534 0
1 0.479026 0
1 0.486015 0
1 0.4925 0
1 0.498527 0
1 0.504143 0
1 0.509346 0
0 0.468025 0
0 0.472007 0
0 0.473854 0
0.02533 0.478798 0
0.0697795 0.484077 0
0.114275 0.489036 0
0.160204 0.493324 0
0.208042 0.496773 0
0.257862 0.499352 0
0.309453 0.501122 0
0.36199 0.502281 0
0.414572 0.50309 0
0.466575 0.503899 0
0.517357 0.504936 0
0.567361 0.506065 0
0.617273 0.507073 0
0.67219 0.506127 0
0.742031 0.499443 0
0.818799 0.489525 0
0.884382 0.483146 0
0.937469 0.481071 0
0.982818 0.48159 0.0049897
1 0.483757 0.0112306
1 0.487312 0.0148318
1 0.49221 0.0157015
1 0.498299 0.0141299
1 0.505272 0.0107424
1 0.512764 0.00627146
1 0.520378 0.00161746
1 0.527962 0
1 0.535149 0
1 0.541848 0
1 0.548028 0
0 0.529213 0
0 0.53257 0
0 0.533684 0
0.0354162 0.53785 0
0.0790417 0.542321 0
0.122698 0.546426 0
0.167712 0.549844 0
0.214603 0.552377 0
0.263539 0.554101 0
0.314443 0.555169 0
0.366461 0.555825 0
0.418692 0.556298 0
0.47039 0.556771 0
0.520806 0.557443 0
0.570428 0.55819 0
0.619959 0.558801 0
0.668971 0.559396 0
0.719905 0.55906 0
0.782071 0.554391 0
0.854414 0.545403 0
0.923095 0.537057 0
0.9794 0.532753 0
1 0.531701 0.0068513
1 0.53257 0.0157015
1 0.534707 0.0223697
1 0.537865 0.0272374
1 0.541924 0.0303197
1 0.546792 0.031632
1 0.552346 0.0311589
1 0.558434 0.029099
1 0.564889 0.0257115
1 0.571527 0.0213321
1 0.578073 0.0164645
0 0.588006 0
0 0.590585 0
0 0.590799 0
0.0424964 0.594064 0
0.0852216 0.597604 0
0.128054 0.600931 0
0.172442 0.603708 0
0.218875 0.605814 0
0.267445 0.607233 0
0.317998 0.60795 0
0.369635 0.608255 0
0.421485 0.608331 0
0.472786 0.608408 0
0.522805 0.608667 0
0.571984 0.608972 0
0.621073 0.60914 0
0.669627 0.609262 0
0.717357 0.609445 0
0.764889 0.6094 0
0.819593 0.60647 0
0.883833 0.599573 0
0.950713 0.591028 0
1 0.584604 0
1 0.581399 0.00155642
1 0.580621 0.0132753
1 0.581415 0.0222019
1 0.583261 0.0292668
1 0.585794 0.0350042
1 0.588876 0.0394751
1 0.592432 0.0426032
1 0.596429 0.0442054
1 0.600824 0.0442359
1 0.605585 0.0425879
0 0.643809 0
0 0.645502 0
0.00273136 0.644968 0
0.0472419 0.647669 0
0.089601 0.650828 0
0.132097 0.653819 0
0.17612 0.65626 0
0.222156 0.658 0
0.270314 0.659022 0
0.320439 0.659358 0
0.371649 0.65922 0
0.423056 0.658869 0
0.473915 0.658488 0
0.523491 0.658274 0
0.572213 0.658106 0
0.620783 0.657801 0
0.668864 0.65742 0
0.716091 0.657084 0
0.762097 0.656886 0
0.806714 0.656855 0
0.854765 0.655238 0
0.909529 0.650767 0
0.969619 0.643778 0
1 0.636469 0
1 0.631128 0
1 0.628244 0.00297551
1 0.627268 0.0145571
1 0.627558 0.0237125
1 0.628672 0.0311589
1 0.63032 0.0372931
1 0.632288 0.0423896
1 0.634546 0.0463874
1 0.637064 0.0491798
0 0.697032 0
0 0.698436 0
0.00714122 0.697536 0
0.0513313 0.69987 0
0.0933242 0.702647 0
0.135393 0.705242 0
0.178973 0.707271 0
0.224567 0.708583 0
0.272267 0.709163 0
0.32192 0.709056 0
0.372656 0.708461 0
0.423606 0.707622 0
0.47396 0.706752 0
0.523049 0.706035 0
0.571252 0.705364 0
0.619333 0.704524 0
0.666896 0.703624 0
0.713573 0.70277 0
0.759075 0.702007 0
0.803021 0.701457 0
0.845182 0.701198 0
0.887312 0.700526 0
0.933684 0.697948 0
0.984756 0.693202 0
1 0.6869 0
1 0.680644 0
1 0.675761 0
1 0.672602 0
1 0.670924 0.0104067
1 0.670314 0.0199741
1 0.67042 0.0278325
1 0.67097 0.0343786
1 0.671824 0.039765
0 0.748745 0
0 0.749798 0
0.0110781 0.748455 0
0.0548867 0.750362 0
0.0964523 0.752712 0
0.138094 0.754864 0
0.181186 0.756436 0
0.226276 0.75729 0
0.273472 0.757397 0
0.322621 0.756771 0
0.372854 0.755688 0
0.423285 0.754345 0
0.473136 0.752941 0
0.521721 0.751705 0
0.569375 0.750484 0
0.616907 0.749111 0
0.66392 0.747662 0
0.710063 0.746227 0
0.754986 0.744915 0
0.798398 0.743786 0
0.839979 0.742931 0
0.879469 0.742428 0
0.917159 0.742153 0
0.956771 0.740826 0
0.999496 0.737987 0
1 0.733623 0
1 0.728252 0
1 0.722713 0
1 0.717845 0
1 0.714046 0
1 0.71136 0.00155642
1 0.709575 0.0117189
1 0.708461 0.0201267
0 0.798627 0
0 0.799268 0
0.0146944 0.797452 0
0.0580911 0.798886 0
0.0991684 0.800748 0
0.140307 0.802426 0
0.182879 0.80351 0
0.227466 0.803861 0
0.274113 0.803449 0
0.322728 0.802319 0
0.372412 0.800702 0
0.422309 0.79881 0
0.471611 0.796872 0
0.519646 0.795056 0
0.566751 0.793286 0
0.613733 0.791348 0
0.660166 0.789319 0
0.705745 0.787305 0
0.750103 0.785397 0
0.792935 0.783688 0
0.833967 0.782269 0
0.872908 0.781201 0
0.909728 0.780514 0
0.944518 0.780179 0
0.978836 0.779675 0
1 0.77818 0
1 0.775601 0
1 0.771832 0
1 0.767071 0
1 0.761868 0
1 0.756695 0
1 0.752102 0
1 0.748211 0
0 0.846403 0
0 0.846601 0
0.0180972 0.844266 0
0.0610361 0.845182 0
0.10161 0.84654 0
0.142229 0.847684 0
0.184268 0.848249 0
0.228275 0.848081 0
0.274388 0.847135 0
0.322423 0.845457 0
0.371542 0.843275 0
0.420874 0.840833 0
0.469627 0.838315 0
0.517098 0.835935 0
0.563622 0.83357 0
0.61001 0.831037 0
0.655879 0.828443 0
0.700893 0.825864 0
0.744717 0.823407 0
0.787045 0.821149 0
0.827588 0.819196 0
0.866041 0.817624 0
0.902358 0.816449 0
0.936706 0.815625 0
0.969146 0.815152 0
0.999878 0.814954 0
1 0.814328 0
1 0.812879 0
1 0.810468 0
1 0.806973 0
1 0.802502 0
1 0.797208 0
1 0.791562 0
0 0.891829 0
0 0.891524 0
0.0214847 0.88867 0
0.0639353 0.889036 0
0.103975 0.88986 0
0.144045 0.890455 0
0.185504 0.890471 0
0.228962 0.889738 0
0.274464 0.888243 0
0.321904 0.886 0
0.370459 0.883238 0
0.419181 0.880201 0
0.467384 0.877104 0
0.514275 0.874144 0
0.560265 0.871229 0
0.606104 0.868162 0
0.651438 0.865034 0
0.695964 0.861936 0
0.7393 0.858976 0
0.78114 0.856229 0
0.821225 0.853803 0
0.859236 0.851774 0
0.895155 0.850126 0
0.929061 0.848859 0
0.961089 0.847944 0
0.991318 0.847364 0
1 0.847074 0
1 0.84686 0
1 0.846067 0
1 0.844495 0
1 0.842008 0
1 0.838468 0
1 0.833783 0
0 0.934768 0
0 0.933944 0
0.0248264 0.93051 0
0.0667582 0.930327 0
0.106264 0.930587 0
0.145754 0.930617 0
0.186618 0.930068 0
0.229465 0.928756 0
0.274372 0.92668 0
0.321218 0.923858 0
0.369192 0.920531 0
0.41738 0.916945 0
0.465034 0.913314 0
0.511437 0.909819 0
0.556893 0.906401 0
0.602258 0.902831 0
0.64712 0.899214 0
0.691173 0.895644 0
0.734051 0.892226 0
0.775479 0.889036 0
0.815137 0.886168 0
0.85275 0.883696 0
0.888258 0.881636 0
0.921782 0.879957 0
0.953429 0.878645 0
0.983276 0.877668 0
1 0.876997 0
1 0.876539 0
1 0.876249 0
1 0.875807 0
1 0.874754 0
1 0.872908 0
1 0.870085 0
0 0.975158 0
0 0.9738 0
0.0279698 0.969787 0
0.0693675 0.969009 0
0.108293 0.968673 0
0.147173 0.968124 0
0.187457 0.966995 0
0.229709 0.965133 0
0.274052 0.962509 0
0.320363 0.959167 0
0.367803 0.955337 0
0.415503 0.951247 0
0.462684 0.947112 0
0.508614 0.943145 0
0.553613 0.939269 0
0.598505 0.935241 0
0.642939 0.931182 0
0.686564 0.927184 0
0.729046 0.923323 0
0.770062 0.919722 0
0.809339 0.916442 0
0.846555 0.913573 0
0.881712 0.911116 0
0.914885 0.909072 0
0.946181 0.907393 0
0.975723 0.906081 0
1 0.905089 0
1 0.904326 0
1 0.903746 0
1 0.903288 0
1 0.902876 0
1 0.902113 0
1 0.900603 0
0 1 0
0 1 0
0.0307469 1 0
0.0716106 1 0
0.110002 1 0
0.148333 1 0
0.188083 1 0
0.229801 0.999084 0
0.273625 0.995972 0
0.319432 0.992142 0
0.366384 0.987839 0
0.413626 0.983276 0
0.460349 0.978714 0
0.505867 0.974289 0
0.550423 0.969985 0
0.594919 0.96553 0
0.638956 0.961059 0
0.682185 0.956664 0
0.724285 0.952422 0
0.764935 0.94844 0
0.803861 0.944778 0
0.840772 0.941543 0
0.875608 0.938766 0
0.908492 0.9364 0
0.939513 0.934432 0
0.96878 0.93283 0
0.99646 0.931579 0
1 0.930571 0
1 0.929747 0
1 0.929061 0
1 0.92845 0
1 0.927855 0
1 0.927153 0
0 1 0
0 1 0
0.0331884 1 0
0.0735943 1 0
0.111467 1 0
0.14931 1 0
0.18854 1 0
0.229786 1 0
0.273136 1 0
0.318471 1 0
0.364996 1 0
0.411795 1 0
0.458122 1 0
0.503243 1 0
0.547417 0.998703 0
0.591516 0.993881 0
0.635187 0.989029 0
0.678065 0.984253 0
0.719829 0.979675 0
0.760174 0.975357 0
0.798825 0.971405 0
0.835447 0.96788 0
0.870024 0.964828 0
0.902678 0.962188 0
0.933486 0.95996 0
0.962539 0.958129 0
0.990005 0.956664 0
1 0.955428 0
1 0.954421 0
1 0.953552 0
1 0.952758 0
1 0.951995 0
1 0.951202 0
0 1 0
0 1 0
0.0353094 1 0
0.075288 1 0
0.112703 1 0
0.150103 1 0
0.188876 1 0
0.229664 1 0
0.272557 1 0
0.317479 1 0
0.363592 1 0
0.41001 1 0
0.455955 1 0
0.50071 1 0
0.544533 1 0
0.588296 1 0
0.631662 1 0
0.67425 1 0
0.715755 1 0
0.755856 1 0
0.794247 0.996551 0
0.830655 0.992782 0
0.865049 0.989487 0
0.89749 0.986633 0
0.9281 0.984207 0
0.956985 0.982177 0
0.984283 0.980514 0
1 0.979126 0
1 0.977951 0
1 0.976913 0
1 0.975982 0
1 0.975082 0
1 0.974182 0
0 1 0
0 1 0
0.0369726 1 0
0.0765698 1 0
0.113558 1 0
0.150515 1 0
0.188876 1 0
0.229236 1 0
0.271733 1 0
