site/assets/luts/freshluts--0000692-rec-709-to-red-log-film-conversion.cube
# LUTr-Schema-Version: 2
# LUTr-ID: freshluts--0000692-rec-709-to-red-log-film-conversion
# LUTr-Title: REC 709 to RED Log Film (conversion)
# LUTr-Collection: Fresh LUTs
# LUTr-Collection-ID: freshluts-community
# LUTr-Source: https://freshluts.com
# LUTr-Retrieved: 2026-07-27
# LUTr-Source-File: submissions-raw/freshluts/cubes/692__REC709_to_Red_Log_Film_33.cube
# LUTr-Source-Format: CUBE
# LUTr-Source-SHA256: f3792e94d5793db00968541cffdd7bf64d89fc71bb2457af8515fe636ce24726
# LUTr-License: CC0-1.0
# LUTr-License-URL: https://freshluts.com/termsandconditions
# LUTr-License-Basis: site-terms
# LUTr-Transform-Class: creative-look
# LUTr-Tags: creative, freshluts, community, cube, rec709, cinematic
# LUTr-Input-Color-Space: rec709
# LUTr-Input-Gamut: rec709
# LUTr-Input-Transfer: rec709
# LUTr-Output-Color-Space: srgb
# LUTr-Output-Gamut: rec709
# LUTr-Output-Transfer: srgb
# LUTr-Color-Space-Confidence: declared-by-source
# LUTr-Domain-Normalized: true
# LUTr-Shaper: none
# LUTr-Original-Grid: 33x33x33
# LUTr-Conversion-Grid: 33x33x33
# LUTr-Conversion-Interpolation: none
# LUTr-Conversion-Method: Metadata normalization; numeric LUT samples preserved
# LUTr-Conversion-Tool: LUTr scripts/convert-all-to-cube.mjs 2.0.0
# LUTr-Conversion-Date: 2026-07-28
# LUTr-Asset-URL: https://freshluts.com/luts/692
# LUTr-Author: François Bélanger
# LUTr-Author-URL: https://freshluts.com/users/7358
# LUTr-Attribution: François Bélanger via Fresh LUTs
# LUTr-Source-Labels: gamma=Rec 709; color=None; key=Neutral; style=Correction
# LUTr-Note: Preserve this metadata and the upstream license notices when redistributing.
# LUTr-Upstream-Comment: INPUTGAMMA Rec709
# LUTr-Upstream-Comment: IMAGEPROFILE sRGB
# LUTr-Upstream-Comment: OUTPUTGAMMA RedLogFilm
# LUTr-Upstream-Comment: 64BLOB
# LUTr-Upstream-Comment: TFVUQwAAAAAzAAAAAAAAAEN0clYsAgAAigAAAAAAwP8AAAA/AAAAPwAAAD8A
# LUTr-Upstream-Comment: AAA/AAAAP+Q4jj8AAIA/AACAPwAAAAAAAAA/AAAAAAAAAAAAAAAAAAAAAAAA
# LUTr-Upstream-Comment: AAAAAAAAAACAPwAAAD8AAAA/sPgKPwAAAAAAAAA/AAAAP7D4Cj++914/AACA
# LUTr-Upstream-Comment: PwAAAAAAAAAAAAAAPwAAAD8AAAAAAACAPwAAAAAAAAAAAAAAPwghhD4AAAAA
# LUTr-Upstream-Comment: AAAAAAAAAAAAAAAAAAAAAAAAAAAAAAAAAADA/wAAAAAAAEA/AAAAAAAAAAAA
# LUTr-Upstream-Comment: AEA/AABAPwAAQD8AAAAAAAAAPwAAAAAAAAA/AAAAPwAAgD8AAAAAAAAAPwAA
# LUTr-Upstream-Comment: QD8AAMD/AACAPwAAgD8AAIA/AAAAAAAAAAAAAAA/AAAAPwAAAD8AAAAAAACA
# LUTr-Upstream-Comment: PwAAAACttdY+AABAPwAAgD8AAAAAAADA/wAAAAAAAAAAAACAPwAAgD8AAIA/
# LUTr-Upstream-Comment: AACAPwAAwP8AAMD/AADA/wAAwP8AAMD/AADA/wAAAD8AAAAAAAAAPwAAAD8A
# LUTr-Upstream-Comment: AAA/AAAAPwAAAD8AAAA/AAAAPwAAAD8AAAA/AAAAAAAAAD8AAIA/AAAAPwAA
# LUTr-Upstream-Comment: AAAAAAA/AAAAAAAAgD8AAMD/AADA/wAAwP8AAMD/AADA/wAAwP8AAAAAAADA
# LUTr-Upstream-Comment: /wAAwP8AAMD/AADA/wAAwP8AAMD/AADA/wAAwP8AAMD/AADA/wAAwP8AAMD/
# LUTr-Upstream-Comment: AADA/wAAwP8AAMD/AADA/wAAwP8AAMD/AADA/wAAwP8AAMD/AAAAAERHUkQC
# LUTr-Upstream-Comment: EAICBhVmYmJvaXNjbGFpckBnbWFpbC5jb20JA277A277A5IEA5IEAggCCAIy
# LUTr-Upstream-Comment: AAAAAAAAAAAAAAAAAAAAAAAAAAAAAAAAAAAAAAAAAAABAAABAAAAAAAAAAAA
# LUTr-Upstream-Comment: AAAAAAAAAAAAAAAAAAAAAAAAAAAAAAAAAAAAAAAAAAAAAAAAAAEAAAElSRI+
# LUTr-Upstream-Comment: AAAAAAAAAAAAAAAAAAAAAAAAAAAAAAAAAAAAAAAAAAAAAAAAAAAAAAAAAQAA
# LUTr-Upstream-Comment: ASVJkj4AAAAAAAAAAAAAAAAAAAAAAAAAAAAAAAAAAAAAAAAAAAAAAAAAAAAA
# LUTr-Upstream-Comment: AAABAAABt23bPgAAAAAAAAAAAAAAAAAAAAAAAAAAAAAAAAAAAAAAAAAAAAAA
# LUTr-Upstream-Comment: AAAAAAAAAAEAAAElSRI/AAAAAAAAAAAAAAAAAAAAAAAAAAAAAAAAAAAAAAAA
# LUTr-Upstream-Comment: AAAAAAAAAAAAAAAAAQAAAW7bNj8AAAAAAAAAAAAAAAAAAAAAAAAAAAAAAAAA
# LUTr-Upstream-Comment: AAAAAAAAAAAAAAAAAAAAAAABAAABt21bPwAAAAAAAAAAAAAAAAAAAAAAAAAA
# LUTr-Upstream-Comment: AAAAAAAAAAAAAAAAAAAAAAAAAAAAAAEAAAEAAIA/AAAAAAAAAAAAAAAAAACn
# LUTr-Upstream-Comment: AAAAAAAAAAAAAAAAAAAAAAAAAAAAAAAAAAAAAAAAAQAAAAAlSRI+AAAAAAAA
# LUTr-Upstream-Comment: dgAAAHYAAAAAAAAAAAAAAAAAAAAAAAAAAAAAAAAAAAAAAAABJUkSPiVJEj4A
# LUTr-Upstream-Comment: AAAAAACnAAAAAAAAAAAAAAAAAAAAAAAAAAAAAAAAAAAAAAAAAAAAAAElSZI+
TITLE "REC 709 to RED Log Film (conversion)"
LUT_3D_SIZE 5
DOMAIN_MIN 0 0 0
DOMAIN_MAX 1 1 1
0.09259 0.09259 0.09259
0.359451 0.09259 0.09259
0.500998 0.09259 0.09259
0.596848 0.09259 0.09259
0.668717 0.09259 0.09259
0.09259 0.35955 0.09259
0.35955 0.35955 0.09259
0.500932 0.35955 0.09259
0.596901 0.35955 0.09259
0.668808 0.35955 0.09259
0.09259 0.500932 0.09259
0.35955 0.500932 0.09259
0.500998 0.500998 0.09259
0.596848 0.500998 0.09259
0.668853 0.500998 0.09259
0.09259 0.596901 0.09259
0.35955 0.596901 0.09259
0.500998 0.596848 0.09259
0.596848 0.596848 0.09259
0.668853 0.596901 0.09259
0.09259 0.668853 0.09259
0.35955 0.668808 0.09259
0.500932 0.668808 0.09259
0.596901 0.668853 0.09259
0.668808 0.668808 0.09259
0.09259 0.09259 0.359252
0.359451 0.09259 0.359451
0.500998 0.09259 0.35955
0.596848 0.09259 0.35955
0.668899 0.09259 0.359649
0.09259 0.35955 0.35955
0.35955 0.35955 0.35955
0.500998 0.35955 0.35955
0.596901 0.35955 0.35955
0.668808 0.35955 0.35955
0.09259 0.500998 0.35955
0.35955 0.500998 0.35955
0.500998 0.500998 0.35955
0.596848 0.500932 0.35955
0.668853 0.500998 0.35955
0.09259 0.596901 0.35955
0.35955 0.596901 0.35955
0.500932 0.596848 0.35955
0.596848 0.596848 0.35955
0.668853 0.596848 0.35955
0.09259 0.668808 0.35955
0.35955 0.668808 0.35955
0.500998 0.668853 0.35955
0.596901 0.668853 0.35955
0.668808 0.668808 0.35955
0.09259 0.09259 0.500998
0.35955 0.09259 0.500932
0.501064 0.09259 0.501064
0.596901 0.09259 0.500998
0.668808 0.09259 0.500932
0.09259 0.359649 0.501064
0.35955 0.35955 0.500998
0.500932 0.35955 0.500932
0.596848 0.35955 0.500932
0.668853 0.35955 0.500998
0.09259 0.500998 0.500998
0.35955 0.500998 0.500998
0.500998 0.500998 0.500998
0.596901 0.500998 0.500998
0.668808 0.500932 0.500932
0.09259 0.596848 0.500932
0.35955 0.596848 0.500932
0.500998 0.596848 0.500998
0.596848 0.596848 0.500998
0.668808 0.596848 0.500932
0.09259 0.668853 0.500998
0.35955 0.668853 0.500998
0.500998 0.668808 0.500998
0.596848 0.668808 0.500998
0.668853 0.668853 0.500998
0.09259 0.09259 0.596743
0.35955 0.09259 0.596795
0.500998 0.09259 0.596901
0.596848 0.09259 0.596848
0.668762 0.09259 0.596795
0.09259 0.35955 0.596901
0.35955 0.35955 0.596901
0.500932 0.35955 0.596795
0.596901 0.35955 0.596901
0.668808 0.35955 0.596848
0.09259 0.500932 0.596848
0.35955 0.500932 0.596848
0.500998 0.500998 0.596848
0.596848 0.500998 0.596848
0.668808 0.500932 0.596848
0.09259 0.596901 0.596901
0.35955 0.596901 0.596901
0.500998 0.596848 0.596848
0.596848 0.596848 0.596848
0.668853 0.596901 0.596901
0.09259 0.668853 0.596901
0.35955 0.668853 0.596848
0.500932 0.668808 0.596848
0.596901 0.668853 0.596901
0.668808 0.668808 0.596848
0.09259 0.09259 0.66899
0.359649 0.09259 0.668899
0.500932 0.09259 0.668762
0.596795 0.09259 0.668762
0.668853 0.09259 0.668853
0.09259 0.35955 0.668762
0.35955 0.35955 0.668762
0.500998 0.35955 0.668853
0.596848 0.35955 0.668808
0.668762 0.35955 0.668808
0.09259 0.500998 0.668853
0.35955 0.500998 0.668853
0.500932 0.500932 0.668808
0.596848 0.500932 0.668808
0.668853 0.500998 0.668853
0.09259 0.596848 0.668808
0.35955 0.596848 0.668808
0.500998 0.596901 0.668853
0.596901 0.596901 0.668853
0.668808 0.596848 0.668808
0.09259 0.668808 0.668808
0.35955 0.668808 0.668808
0.500998 0.668853 0.668853
0.596848 0.668808 0.668808
0.668808 0.668808 0.668808
