site/assets/luts/freshluts--0000946-fresh-and-nut.cube
# LUTr-Schema-Version: 2
# LUTr-ID: freshluts--0000946-fresh-and-nut
# LUTr-Title: Fresh and nut
# LUTr-Collection: Fresh LUTs
# LUTr-Collection-ID: freshluts-community
# LUTr-Source: https://freshluts.com
# LUTr-Retrieved: 2026-07-27
# LUTr-Source-File: submissions-raw/freshluts/cubes/946__653_12.0154_012_A001_C012_0226G7_001-ID-145000.cube
# LUTr-Source-Format: CUBE
# LUTr-Source-SHA256: 9ab1fbbb8d8115cdd4027b0ee52ba607637fc7445c97fafe7da8f091a8dd654a
# LUTr-License: CC0-1.0
# LUTr-License-URL: https://freshluts.com/termsandconditions
# LUTr-License-Basis: site-terms
# LUTr-Transform-Class: creative-look
# LUTr-Tags: creative, freshluts, community, cube, red-logfilm
# LUTr-Input-Color-Space: red-logfilm-rwg
# LUTr-Input-Gamut: red-wide-gamut-rgb
# LUTr-Input-Transfer: red-logfilm
# LUTr-Output-Color-Space: srgb
# LUTr-Output-Gamut: rec709
# LUTr-Output-Transfer: srgb
# LUTr-Color-Space-Confidence: inferred-from-source-label
# LUTr-Domain-Normalized: true
# LUTr-Shaper: none
# LUTr-Original-Grid: 33x33x33
# LUTr-Conversion-Grid: 33x33x33
# LUTr-Conversion-Interpolation: none
# LUTr-Conversion-Method: Metadata normalization; numeric LUT samples preserved
# LUTr-Conversion-Tool: LUTr scripts/convert-all-to-cube.mjs 2.0.0
# LUTr-Conversion-Date: 2026-07-28
# LUTr-Asset-URL: https://freshluts.com/luts/946
# LUTr-Author: kosala
# LUTr-Author-URL: https://freshluts.com/users/38201
# LUTr-Attribution: kosala via Fresh LUTs
# LUTr-Source-Labels: gamma=RED Log Film; color=None; key=Neutral; style=FRESH
# LUTr-Note: Preserve this metadata and the upstream license notices when redistributing.
TITLE "Fresh and nut"
LUT_3D_SIZE 5
DOMAIN_MIN 0 0 0
DOMAIN_MAX 1 1 1
0.0473335 0.0584878 0.0750286
0.0525216 0.0589609 0.0740368
0.199557 0.0830396 0.0699779
0.643122 0.0693828 0.0657359
0.842145 0.0814679 0.0886091
0.0439155 0.0623026 0.0755779
0.0481575 0.0623636 0.0749371
0.195972 0.0862898 0.0699016
0.644587 0.104234 0.0716411
0.789563 0.156268 0.118318
0.0163424 0.151385 0.0845655
0.0217441 0.150042 0.0814527
0.168505 0.169802 0.056672
0.679667 0.257343 0.101411
0.815229 0.301167 0.151095
0.00155642 0.675319 0.0840772
0.0385748 0.671458 0.0776989
0.160113 0.661509 0.0445716
0.812436 0.72636 0.0768902
0.985687 0.757702 0.0522316
0.00030518 0.841886 0.0659495
0.00030518 0.841886 0.0659495
0.203082 0.852872 0.0314488
0.795697 0.943923 0.0334173
0.987457 0.967437 0.0392157
0.0485695 0.0591745 0.080705
0.0526284 0.0593118 0.0789197
0.194018 0.0805371 0.0723125
0.652552 0.0565499 0.0853437
0.843565 0.0609903 0.122972
0.0450446 0.0621805 0.0798962
0.0486458 0.0619821 0.0787671
0.190494 0.0847334 0.0729381
0.643259 0.0959945 0.0952773
0.774685 0.138262 0.152575
0.0144503 0.151888 0.0940108
0.0205081 0.149798 0.0921035
0.15729 0.166171 0.0813458
0.682582 0.255421 0.161578
0.790005 0.286976 0.208164
0.00180056 0.676097 0.118395
0.0198215 0.569726 0.152789
0.15407 0.656535 0.0458839
0.806729 0.719768 0.0759442
0.985916 0.751675 0.0516365
0.00030518 0.841886 0.0659495
0.00030518 0.841886 0.0659495
0.194491 0.851881 0.03299
0.785306 0.942535 0.0326085
0.987457 0.967437 0.0392157
0.0382239 0.0292821 0.285405
0.0377813 0.0288396 0.281743
0.172747 0.07776 0.191836
0.736171 0.00303655 0.179507
0.919875 0.0034638 0.18526
0.0375067 0.0285039 0.279103
0.0370184 0.0277867 0.27364
0.166155 0.100328 0.1879
0.639429 0.051957 0.172503
0.762737 0.0701762 0.19321
0.0143282 0.202228 0.225086
0.031632 0.17847 0.210971
0.118441 0.168612 0.187778
0.673823 0.215427 0.225238
0.746197 0.232364 0.244022
0.00213626 0.673152 0.240421
0.00215152 0.66772 0.234668
0.042359 0.486595 0.236622
0.791821 0.654383 0.27245
0.97995 0.737011 0.235264
0 0.860197 0.254643
0.000106813 0.858763 0.240879
0.140276 0.805005 0.206546
0.751064 0.927184 0.158267
0.983703 0.963363 0.148821
0.0988327 0.059556 0.678264
0.0984817 0.0594492 0.675898
0.208026 0.0637827 0.685389
0.678965 0.0527352 0.667582
0.866575 0.0277256 0.677394
0.0982986 0.0593881 0.674632
0.098024 0.0592966 0.672709
0.193973 0.0630655 0.689586
0.67863 0.0499275 0.663417
0.86952 0.0250248 0.668956
0.114992 0.15935 0.680186
0.113237 0.140734 0.683909
0.277119 0.176501 0.514824
0.560296 0.237339 0.578149
0.836774 0.19501 0.600671
0.0509957 0.673304 0.717449
0.0511025 0.667384 0.710964
0.144732 0.569787 0.677943
0.578225 0.618143 0.618173
0.957885 0.878904 0.855863
0.0603342 0.907012 0.735531
0.0556039 0.905974 0.719799
0.0944533 0.873838 0.654521
0.581796 0.848371 0.580896
0.936385 0.911345 0.648768
0.109743 0.0612192 0.781247
0.109743 0.0612192 0.781247
0.191379 0.0650187 0.808759
0.636912 0.0825818 0.852705
0.939178 0.0268559 0.941558
0.109743 0.0612192 0.781247
0.109743 0.0612192 0.781247
0.177249 0.0639963 0.804196
0.63563 0.0826429 0.85275
0.939178 0.0268559 0.941558
0.127565 0.135683 0.802884
0.123323 0.116579 0.798032
0.166506 0.103609 0.789242
0.606165 0.179171 0.831449
0.929824 0.160708 0.934127
0.0983444 0.657679 0.937484
0.0982376 0.6533 0.934798
0.166903 0.616281 0.91223
0.616541 0.587869 0.813382
0.81622 0.641855 0.812528
0.0916457 0.920989 0.96936
0.0916457 0.920989 0.96936
0.222538 0.882872 0.915282
0.560037 0.821927 0.843336
0.901091 0.888426 0.869078
