site/assets/luts/freshluts--0000928-picturefx-louvre-paris-classic-chrome-3dl25.cube
# LUTr-Schema-Version: 2
# LUTr-ID: freshluts--0000928-picturefx-louvre-paris-classic-chrome-3dl25
# LUTr-Title: PictureFX-Louvre-Paris-Classic-Chrome-3DL25
# LUTr-Collection: Fresh LUTs
# LUTr-Collection-ID: freshluts-community
# LUTr-Source: https://freshluts.com
# LUTr-Retrieved: 2026-07-27
# LUTr-Source-File: submissions-raw/freshluts/cubes/928__PictureFX-Louvre-Paris-Classic-Chrome-3DL25.cube
# LUTr-Source-Format: CUBE
# LUTr-Source-SHA256: 2976a748d070faaa435781a498aea95be1a454b3b4a4cce2ab8cffb660b8bef0
# LUTr-License: CC0-1.0
# LUTr-License-URL: https://freshluts.com/termsandconditions
# LUTr-License-Basis: site-terms
# LUTr-Transform-Class: creative-look
# LUTr-Tags: creative, freshluts, community, cube, rec709, assumed-input
# LUTr-Input-Color-Space: rec709
# LUTr-Input-Gamut: rec709
# LUTr-Input-Transfer: rec709
# LUTr-Output-Color-Space: srgb
# LUTr-Output-Gamut: rec709
# LUTr-Output-Transfer: srgb
# LUTr-Color-Space-Confidence: assumed-display-referred
# LUTr-Domain-Normalized: true
# LUTr-Shaper: none
# LUTr-Original-Grid: 25x25x25
# LUTr-Conversion-Grid: 25x25x25
# LUTr-Conversion-Interpolation: none
# LUTr-Conversion-Method: Metadata normalization; numeric LUT samples preserved
# LUTr-Conversion-Tool: LUTr scripts/convert-all-to-cube.mjs 2.0.0
# LUTr-Conversion-Date: 2026-07-28
# LUTr-Asset-URL: https://freshluts.com/luts/928
# LUTr-Author: MarcR.
# LUTr-Author-URL: https://freshluts.com/users/86490
# LUTr-Attribution: MarcR. via Fresh LUTs
# LUTr-Source-Labels: gamma=Other; color=None; key=Neutral; style=Correction; LUTr assumption=input Rec.709 per repository policy
# LUTr-Conversion-Warning: Input Rec.709 is a LUTr catalog assumption requested for this otherwise unspecified Fresh LUT; it is not verified by the upstream asset.
# LUTr-Note: Preserve this metadata and the upstream license notices when redistributing.
# LUTr-Upstream-Comment: Generated with IWLTBAP LUT Generator
# LUTr-Upstream-Comment: Website: http://luts.iwltbap.com
# LUTr-Upstream-Comment: LUT size
# LUTr-Upstream-Comment: LUT data points
TITLE "PictureFX-Louvre-Paris-Classic-Chrome-3DL25"
LUT_3D_SIZE 5
DOMAIN_MIN 0 0 0
DOMAIN_MAX 1 1 1
0.054902 0 0
0.2 0.105882 0.054902
0.360784 0.227451 0.113725
0.556863 0.337255 0.219608
0.760784 0.462745 0.329412
0.211765 0.243137 0.137255
0.294118 0.258824 0.160784
0.431373 0.313725 0.2
0.596078 0.407843 0.270588
0.788235 0.513725 0.364706
0.396078 0.482353 0.298039
0.447059 0.486275 0.309804
0.556863 0.513725 0.345098
0.701961 0.568627 0.4
0.858824 0.643137 0.454902
0.592157 0.729412 0.470588
0.623529 0.729412 0.478431
0.701961 0.741176 0.494118
0.811765 0.760784 0.52549
0.945098 0.803922 0.564706
0.760784 0.94902 0.619608
0.780392 0.94902 0.623529
0.843137 0.956863 0.635294
0.937255 0.972549 0.658824
1 0.988235 0.686275
0.090196 0.019608 0.109804
0.223529 0.113725 0.172549
0.384314 0.227451 0.219608
0.552941 0.34902 0.290196
0.752941 0.466667 0.392157
0.219608 0.25098 0.235294
0.301961 0.262745 0.254902
0.435294 0.321569 0.27451
0.576471 0.423529 0.313725
0.772549 0.517647 0.415686
0.396078 0.482353 0.364706
0.443137 0.490196 0.372549
0.556863 0.513725 0.403922
0.694118 0.568627 0.45098
0.839216 0.643137 0.490196
0.584314 0.72549 0.509804
0.615686 0.729412 0.517647
0.694118 0.741176 0.533333
0.811765 0.764706 0.568627
0.941176 0.803922 0.607843
0.760784 0.94902 0.65098
0.780392 0.952941 0.654902
0.839216 0.960784 0.670588
0.937255 0.972549 0.690196
1 0.996078 0.717647
0.196078 0.105882 0.254902
0.270588 0.14902 0.286275
0.411765 0.239216 0.345098
0.580392 0.34902 0.411765
0.760784 0.47451 0.490196
0.266667 0.262745 0.341176
0.329412 0.278431 0.356863
0.458824 0.329412 0.396078
0.611765 0.419608 0.443137
0.776471 0.52549 0.509804
0.407843 0.490196 0.470588
0.45098 0.498039 0.482353
0.560784 0.521569 0.509804
0.698039 0.572549 0.533333
0.819608 0.654902 0.54902
0.584314 0.72549 0.6
0.611765 0.729412 0.607843
0.694118 0.741176 0.623529
0.811765 0.764706 0.654902
0.941176 0.807843 0.698039
0.756863 0.952941 0.729412
0.780392 0.952941 0.733333
0.839216 0.960784 0.745098
0.933333 0.976471 0.764706
1 0.996078 0.796078
0.282353 0.168627 0.388235
0.329412 0.196078 0.411765
0.447059 0.266667 0.458824
0.607843 0.368627 0.529412
0.784314 0.486275 0.607843
0.333333 0.286275 0.454902
0.376471 0.301961 0.466667
0.486275 0.352941 0.505882
0.635294 0.431373 0.560784
0.803922 0.533333 0.627451
0.45098 0.501961 0.580392
0.486275 0.509804 0.588235
0.584314 0.533333 0.611765
0.717647 0.584314 0.65098
0.858824 0.65098 0.686275
0.6 0.733333 0.713725
0.627451 0.737255 0.717647
0.701961 0.74902 0.733333
0.815686 0.772549 0.760784
0.945098 0.815686 0.780392
0.760784 0.956863 0.831373
0.780392 0.960784 0.831373
0.839216 0.968627 0.843137
0.933333 0.980392 0.862745
1 0.996078 0.882353
0.364706 0.227451 0.521569
0.4 0.247059 0.537255
0.498039 0.309804 0.580392
0.643137 0.4 0.647059
0.811765 0.513725 0.729412
0.407843 0.321569 0.572549
0.439216 0.337255 0.584314
0.533333 0.384314 0.623529
0.670588 0.458824 0.678431
0.831373 0.556863 0.74902
0.509804 0.521569 0.694118
0.541176 0.529412 0.701961
0.623529 0.560784 0.72549
0.74902 0.607843 0.764706
0.882353 0.666667 0.803922
0.639216 0.745098 0.819608
0.662745 0.74902 0.823529
0.729412 0.760784 0.835294
0.831373 0.780392 0.858824
0.960784 0.823529 0.890196
0.776471 0.960784 0.937255
0.792157 0.964706 0.941176
0.847059 0.972549 0.94902
0.933333 0.984314 0.964706
1 0.992157 0.980392
