site/assets/luts/freshluts--0000983-metro.cube
# LUTr-Schema-Version: 2
# LUTr-ID: freshluts--0000983-metro
# LUTr-Title: Metro
# LUTr-Collection: Fresh LUTs
# LUTr-Collection-ID: freshluts-community
# LUTr-Source: https://freshluts.com
# LUTr-Retrieved: 2026-07-27
# LUTr-Source-File: submissions-raw/freshluts/cubes/983__Metro.cube
# LUTr-Source-Format: CUBE
# LUTr-Source-SHA256: 9136f63f59e4f15d96a5fc3dff104220e0efadb0aed1fd3a028b0ae0a0881301
# LUTr-License: CC0-1.0
# LUTr-License-URL: https://freshluts.com/termsandconditions
# LUTr-License-Basis: site-terms
# LUTr-Transform-Class: creative-look
# LUTr-Tags: creative, freshluts, community, cube, warm, rec709, assumed-input
# LUTr-Input-Color-Space: rec709
# LUTr-Input-Gamut: rec709
# LUTr-Input-Transfer: rec709
# LUTr-Output-Color-Space: srgb
# LUTr-Output-Gamut: rec709
# LUTr-Output-Transfer: srgb
# LUTr-Color-Space-Confidence: assumed-display-referred
# LUTr-Domain-Normalized: true
# LUTr-Shaper: none
# LUTr-Original-Grid: 32x32x32
# LUTr-Conversion-Grid: 32x32x32
# LUTr-Conversion-Interpolation: none
# LUTr-Conversion-Method: Metadata normalization; numeric LUT samples preserved
# LUTr-Conversion-Tool: LUTr scripts/convert-all-to-cube.mjs 2.0.0
# LUTr-Conversion-Date: 2026-07-28
# LUTr-Asset-URL: https://freshluts.com/luts/983
# LUTr-Author: ButterflyBD
# LUTr-Author-URL: https://freshluts.com/users/53416
# LUTr-Attribution: ButterflyBD via Fresh LUTs
# LUTr-Source-Labels: gamma=Other; color=Warm; key=Neutral; style=Teal - Orange; LUTr assumption=input Rec.709 per repository policy
# LUTr-Conversion-Warning: Input Rec.709 is a LUTr catalog assumption requested for this otherwise unspecified Fresh LUT; it is not verified by the upstream asset.
# LUTr-Note: Preserve this metadata and the upstream license notices when redistributing.
# LUTr-Upstream-Comment: Created by: Adobe Photoshop Export Color Lookup Plugin
# LUTr-Upstream-Comment: LUT size
# LUTr-Upstream-Comment: data domain
# LUTr-Upstream-Comment: LUT data points
TITLE "Metro"
LUT_3D_SIZE 8
DOMAIN_MIN 0.000000 0.000000 0.000000
DOMAIN_MAX 0.903226 0.903226 0.903226
0 0 0
0.108643 0.001526 0.00177
0.253235 0.005493 0.0065
0.418579 0.013 0.01532
0.545532 0.024323 0.028656
0.657501 0.0401 0.04715
0.786926 0.055817 0.065491
0.912231 0.069489 0.081329
0.003418 0.114777 0.004395
0.110199 0.115356 0.006165
0.254211 0.117004 0.010956
0.419128 0.119873 0.019714
0.545776 0.124268 0.033081
0.657715 0.130188 0.050964
0.787109 0.137115 0.068604
0.912445 0.144135 0.083923
0.012665 0.244263 0.016235
0.114227 0.244629 0.018005
0.256805 0.245514 0.022736
0.420563 0.247131 0.031372
0.546478 0.249603 0.044647
0.658325 0.253082 0.060425
0.78772 0.257294 0.076233
0.912933 0.261658 0.090576
0.029602 0.402618 0.037781
0.121429 0.402863 0.039581
0.261475 0.403503 0.044098
0.423187 0.404755 0.051758
0.54776 0.406647 0.062378
0.659393 0.409271 0.075226
0.788757 0.412567 0.088989
0.913879 0.415955 0.101685
0.05191 0.567963 0.065643
0.13205 0.568115 0.066895
0.268616 0.56839 0.07019
0.427155 0.569031 0.075806
0.549744 0.569916 0.083984
0.661072 0.571198 0.094391
0.790283 0.572754 0.105957
0.915283 0.574371 0.116943
0.075378 0.681061 0.093933
0.14624 0.681183 0.094879
0.278381 0.681396 0.09729
0.432587 0.681793 0.101685
0.552429 0.682434 0.108124
0.663452 0.683319 0.116577
0.792542 0.684448 0.126221
0.917297 0.685577 0.135651
0.098633 0.804077 0.120667
0.16272 0.804138 0.121399
0.289978 0.804352 0.123383
0.439056 0.804749 0.126923
0.555756 0.805359 0.132202
0.666351 0.806183 0.139221
0.795227 0.80722 0.14743
0.919708 0.808289 0.155579
0.119781 0.923004 0.143799
0.17923 0.923065 0.14444
0.301788 0.923279 0.146088
0.445587 0.923615 0.149078
0.559174 0.924164 0.153534
0.669342 0.924927 0.159637
0.798096 0.925842 0.166809
0.922302 0.926819 0.174011
0 0 0.131073
0.108643 0.001526 0.131775
0.253235 0.005493 0.133575
0.418579 0.013 0.136841
0.545532 0.024323 0.141724
0.657501 0.0401 0.148315
0.786926 0.055817 0.156036
0.912231 0.069489 0.163727
0.003418 0.114777 0.132782
0.110199 0.115356 0.133453
0.26181 0.09787 0.1138
0.4245 0.088287 0.102875
0.54834 0.088348 0.102966
0.659424 0.093536 0.108887
0.788147 0.101349 0.117706
0.91275 0.10965 0.127045
0.012665 0.244263 0.137177
0.080475 0.25238 0.099884
0.266144 0.253448 0.102844
0.426056 0.239929 0.108917
0.549042 0.235931 0.108765
0.660065 0.236267 0.114319
0.788757 0.238983 0.122711
0.913269 0.242676 0.131714
0.029602 0.402618 0.144928
0.083923 0.40979 0.103882
0.250854 0.410553 0.106384
0.42923 0.411926 0.11084
0.550385 0.402924 0.118774
0.661194 0.400421 0.123688
0.789764 0.40097 0.13147
0.914215 0.402985 0.139801
0.05191 0.567963 0.156097
0.095306 0.571228 0.116943
0.251251 0.571564 0.11911
0.423584 0.572144 0.122894
0.552521 0.57312 0.128601
0.662903 0.569702 0.136078
0.791382 0.56897 0.14389
0.915619 0.569305 0.151489
0.075378 0.681061 0.170502
0.11145 0.682922 0.134827
0.258392 0.683136 0.136627
0.424835 0.683563 0.139923
0.551117 0.684235 0.144867
0.665375 0.68515 0.151459
0.79364 0.683441 0.158752
0.917664 0.683197 0.166473
0.098633 0.804077 0.186584
0.129913 0.805206 0.154419
0.269165 0.80542 0.156006
0.429474 0.805817 0.158844
0.552429 0.806427 0.163147
0.665283 0.807281 0.168976
0.796387 0.808319 0.175812
0.920166 0.807312 0.18222
0.119781 0.923004 0.202057
0.14798 0.923462 0.17276
0.280853 0.923615 0.174164
0.435272 0.923981 0.176666
0.55481 0.92453 0.180481
0.666748 0.925323 0.18573
0.797058 0.926239 0.191925
0.922729 0.927216 0.198212
0 0 0.264465
0.108643 0.001526 0.264801
0.253235 0.005493 0.265656
0.418579 0.013 0.267212
0.545532 0.024323 0.269623
0.657501 0.0401 0.272919
0.786926 0.055817 0.276947
0.912231 0.069489 0.281097
0.003418 0.114777 0.265259
0.074066 0.079071 0.272522
0.263031 0.081757 0.27359
0.424622 0.085358 0.260162
0.54834 0.087494 0.256744
0.659454 0.093231 0.257294
0.788147 0.101227 0.26004
0.91275 0.109589 0.263672
0.012665 0.244263 0.267365
0.080475 0.25238 0.275085
0.256805 0.245514 0.268555
0.430481 0.226837 0.250488
0.552979 0.20697 0.230743
0.663452 0.196503 0.220154
0.790955 0.193268 0.216858
0.914001 0.194031 0.217621
0.029602 0.402618 0.27121
0.083923 0.40979 0.262726
0.199921 0.418671 0.220917
0.436188 0.42038 0.223572
0.554352 0.39447 0.23587
0.664642 0.380585 0.225311
0.792053 0.374176 0.221954
0.914978 0.372131 0.222595
0.05191 0.567963 0.276978
0.095306 0.571228 0.263123
0.191315 0.577087 0.213348
0.409027 0.577728 0.215729
0.557495 0.578766 0.21936
0.666504 0.565979 0.23053
0.793701 0.559906 0.229553
0.916412 0.556946 0.230042
0.075378 0.681061 0.284851
0.11145 0.682922 0.268982
0.196014 0.686859 0.217499
0.400787 0.687347 0.219666
0.5466 0.688019 0.222961
0.669464 0.688995 0.227478
0.796143 0.680817 0.233673
0.918518 0.677551 0.240082
0.098633 0.804077 0.294189
0.129913 0.805206 0.27771
0.206818 0.807831 0.226898
0.401123 0.808228 0.228882
0.543091 0.808868 0.231934
0.662201 0.809753 0.236115
0.799103 0.810852 0.241119
0.921082 0.804718 0.244598
0.119781 0.923004 0.30368
0.14798 0.923462 0.28714
0.219666 0.9245 0.237854
0.405304 0.924866 0.239685
0.54303 0.925415 0.242493
0.659882 0.926208 0.246399
0.794312 0.927185 0.251099
0.923767 0.928192 0.25592
0 0 0.399567
0.108643 0.001526 0.39978
0.253235 0.005493 0.400299
0.418579 0.013 0.401276
0.545532 0.024323 0.40274
0.657501 0.0401 0.404816
0.786926 0.055817 0.407318
0.912231 0.069489 0.409943
0.003418 0.114777 0.400085
0.067566 0.072327 0.405334
0.242584 0.074921 0.405884
0.424866 0.079498 0.406921
0.54837 0.085968 0.399902
0.659454 0.092743 0.398132
0.788147 0.101013 0.398682
0.91275 0.109467 0.400269
0.012665 0.244263 0.401367
0.073639 0.234924 0.406738
0.192261 0.190674 0.412872
0.43277 0.193359 0.414154
0.553284 0.197876 0.392059
0.663544 0.193024 0.382416
0.790955 0.191681 0.377991
0.914001 0.193115 0.376678
0.029602 0.402618 0.403748
0.083923 0.40979 0.409271
0.199921 0.418671 0.416016
0.423187 0.404755 0.405396
0.555389 0.38559 0.390442
0.667542 0.358856 0.368958
0.794647 0.34024 0.353516
0.915924 0.329956 0.344818
0.05191 0.567963 0.407349
0.095306 0.571228 0.404236
0.191315 0.577087 0.391693
0.363678 0.580597 0.354553
0.560211 0.581818 0.356995
0.669434 0.562042 0.373535
0.796356 0.547974 0.358185
0.91748 0.53894 0.349518
0.075378 0.681061 0.412354
0.11145 0.682922 0.405396
0.196014 0.686859 0.384552
0.343475 0.691345 0.338104
0.535278 0.692078 0.340363
0.67395 0.693207 0.343475
0.799072 0.677246 0.355774
0.919617 0.670258 0.355957
0.098633 0.804077 0.418365
0.129913 0.805206 0.409637
0.206818 0.807831 0.384918
0.339355 0.811432 0.334778
0.524719 0.812103 0.336884
0.655823 0.813049 0.339783
0.802673 0.814209 0.343323
0.922394 0.800476 0.345703
0.119781 0.923004 0.424622
0.14798 0.923462 0.415009
0.219666 0.9245 0.38855
0.342133 0.926117 0.337036
0.520996 0.926697 0.33902
0.647858 0.927521 0.341797
0.789337 0.928528 0.345154
0.925262 0.929596 0.348663
0 0 0.53656
0.108643 0.001526 0.536682
0.253235 0.005493 0.537048
0.418579 0.013 0.53772
0.545532 0.024323 0.538727
0.657501 0.0401 0.540161
0.786926 0.055817 0.541931
0.912231 0.069489 0.543762
0.003418 0.114777 0.536896
0.065308 0.070007 0.540283
0.235321 0.07254 0.540649
0.415009 0.077026 0.541351
0.548431 0.083496 0.542419
0.659454 0.091949 0.538635
0.788147 0.100647 0.537811
0.91275 0.109283 0.5383
0.012665 0.244263 0.537781
0.071228 0.22879 0.541199
0.174072 0.174774 0.547363
0.400513 0.177246 0.548126
0.553802 0.18103 0.549316
0.663666 0.187347 0.534302
0.790985 0.189148 0.527863
0.914001 0.191711 0.525055
0.029602 0.402618 0.539429
0.081268 0.398285 0.542938
0.180969 0.38147 0.549255
0.356171 0.334198 0.552765
0.557556 0.337158 0.554169
0.668182 0.342285 0.527985
0.7948 0.332306 0.514923
0.915985 0.325378 0.507111
0.05191 0.567963 0.541931
0.095306 0.571228 0.545563
0.191315 0.577087 0.552185
0.363678 0.580597 0.556213
0.549744 0.569916 0.544098
0.669067 0.55899 0.532257
0.797791 0.540558 0.51358
0.918335 0.524689 0.498688
0.075378 0.681061 0.545441
0.11145 0.682922 0.543823
0.196014 0.686859 0.538239
0.343475 0.691345 0.524475
0.513123 0.69281 0.498688
0.674835 0.694031 0.500885
0.800293 0.676727 0.517792
0.920532 0.66507 0.50293
0.098633 0.804077 0.549713
0.129913 0.805206 0.545502
0.206818 0.807831 0.533844
0.339355 0.811432 0.511475
0.495331 0.814484 0.478027
0.645752 0.815552 0.480103
0.80542 0.816803 0.482605
0.923492 0.796906 0.48996
0.119781 0.923004 0.554169
0.14798 0.923462 0.548615
0.219666 0.9245 0.533783
0.342133 0.926117 0.506958
0.487671 0.927887 0.469482
0.632111 0.928802 0.471466
0.782501 0.929871 0.473846
0.926697 0.930969 0.476379
0 0 0.675232
0.108643 0.001526 0.675354
0.253235 0.005493 0.675629
0.418579 0.013 0.676117
0.545532 0.024323 0.67688
0.657501 0.0401 0.677948
0.786926 0.055817 0.67926
0.912231 0.069489 0.680634
0.003418 0.114777 0.675507
0.064301 0.068939 0.677521
0.232056 0.071472 0.677795
0.4104 0.075897 0.678284
0.54422 0.082306 0.679077
0.659485 0.09079 0.680176
0.788147 0.100189 0.678223
0.91275 0.109039 0.677887
0.012665 0.244263 0.676178
0.07016 0.225922 0.678192
0.166107 0.167694 0.682495
0.385254 0.170074 0.683014
0.539856 0.173706 0.683838
0.663849 0.17865 0.685028
0.791077 0.185425 0.675415
0.914001 0.189728 0.671143
0.029602 0.402618 0.677399
0.080109 0.393066 0.679443
0.172668 0.365265 0.683807
0.326477 0.306396 0.688507
0.529022 0.309082 0.689423
0.669006 0.312836 0.690704
0.795044 0.320068 0.670929
0.915985 0.318726 0.661438
0.05191 0.567963 0.67926
0.093964 0.566376 0.681366
0.182556 0.560913 0.685852
0.333679 0.546997 0.690765
0.508453 0.518463 0.692078
0.671539 0.521027 0.693512
0.798523 0.523468 0.66803
0.918427 0.513794 0.654846
0.075378 0.681061 0.681885
0.11145 0.682922 0.684082
0.196014 0.686859 0.688721
0.343475 0.691345 0.693939
0.513123 0.69281 0.695648
0.663452 0.683319 0.68457
0.79895 0.676575 0.676514
0.920746 0.665558 0.663147
0.098633 0.804077 0.68512
0.129913 0.805206 0.68399
0.206818 0.807831 0.680725
0.339355 0.811432 0.67395
0.495331 0.814484 0.663239
0.635193 0.814728 0.652313
0.804688 0.816101 0.654114
0.92337 0.800629 0.666779
0.119781 0.923004 0.688477
0.14798 0.923462 0.685669
0.219666 0.9245 0.678192
0.342133 0.926117 0.664978
0.487671 0.927887 0.647339
0.61911 0.929352 0.632935
0.77655 0.930481 0.634674
0.927399 0.931641 0.636475
0 0 0.806519
0.108643 0.001526 0.80658
0.253235 0.005493 0.806793
0.418579 0.013 0.80719
0.545532 0.024323 0.8078
0.657501 0.0401 0.808655
0.786926 0.055817 0.809692
0.912231 0.069489 0.810791
0.003418 0.114777 0.806702
0.063812 0.06842 0.807709
0.230408 0.070892 0.807922
0.408112 0.075317 0.808319
0.542145 0.081757 0.80896
0.656525 0.090118 0.809814
0.788177 0.099609 0.810883
0.91275 0.108765 0.809906
0.012665 0.244263 0.80722
0.069641 0.224579 0.808258
0.16214 0.164154 0.810577
0.377411 0.166473 0.811005
0.532684 0.170013 0.811646
0.653687 0.174866 0.812531
0.791107 0.180725 0.813629
0.914001 0.187256 0.807709
0.029602 0.402618 0.808197
0.079498 0.390442 0.809235
0.168518 0.357178 0.811615
0.311493 0.292908 0.814758
0.514099 0.29541 0.81543
0.647919 0.298981 0.816406
0.795288 0.303284 0.817566
0.916016 0.309998 0.80423
0.05191 0.567963 0.809692
0.093292 0.563904 0.81076
0.178101 0.552246 0.813202
0.318451 0.527985 0.816437
0.484924 0.485962 0.819061
0.639252 0.488708 0.820099
0.799377 0.492004 0.821381
0.918549 0.49765 0.801147
0.075378 0.681061 0.811798
0.110657 0.680084 0.812897
0.191254 0.677246 0.815399
0.328003 0.671356 0.818817
0.489685 0.662262 0.821625
0.631409 0.653259 0.821686
0.801117 0.654694 0.823029
0.921082 0.6539 0.802551
0.098633 0.804077 0.814362
0.129913 0.805206 0.815491
0.206818 0.807831 0.818115
0.339355 0.811432 0.821686
0.495331 0.814484 0.824738
0.635193 0.814728 0.824982
0.795227 0.80722 0.817505
0.922394 0.802643 0.812927
0.119781 0.923004 0.817047
0.14798 0.923462 0.816132
0.219666 0.9245 0.81366
0.342133 0.926117 0.809235
0.487671 0.927887 0.803314
0.61911 0.929352 0.798584
0.777252 0.929474 0.800537
0.926331 0.930634 0.80188
0 0 0.919739
0.108643 0.001526 0.9198
0.253235 0.005493 0.919983
0.418579 0.013 0.920319
0.545532 0.024323 0.920837
0.657501 0.0401 0.921539
0.786926 0.055817 0.922424
0.912231 0.069489 0.92334
0.003418 0.114777 0.919922
0.063538 0.068115 0.920227
0.229523 0.070648 0.92041
0.40686 0.075043 0.920746
0.541016 0.081451 0.921265
0.654999 0.089783 0.921967
0.78598 0.099243 0.922852
0.91275 0.108398 0.923798
0.012665 0.244263 0.920349
0.069366 0.223816 0.920654
0.160034 0.162262 0.921417
0.373169 0.164551 0.921753
0.528809 0.16806 0.922302
0.648346 0.172852 0.923035
0.783447 0.17865 0.92395
0.914001 0.18457 0.924896
0.029602 0.402618 0.921173
0.079193 0.389099 0.921509
0.16629 0.352875 0.922272
0.303436 0.285736 0.923401
0.505829 0.288177 0.923981
0.636993 0.291626 0.924744
0.779022 0.295837 0.92569
0.916046 0.300232 0.926697
0.05191 0.567963 0.922424
0.092926 0.562561 0.92276
0.175781 0.547485 0.923584
0.310272 0.517059 0.924774
0.471283 0.466797 0.926086
0.622528 0.469574 0.92691
0.773407 0.47287 0.927917
0.91864 0.476379 0.928986
0.075378 0.681061 0.924194
0.11026 0.678619 0.924561
0.188751 0.67218 0.925415
0.319641 0.66098 0.926697
0.476105 0.646454 0.928101
0.611938 0.634796 0.92926
0.769745 0.636169 0.930298
0.921387 0.637604 0.931396
0.098633 0.804077 0.926361
0.129395 0.803101 0.926727
0.204071 0.800568 0.927673
0.330811 0.79599 0.929047
0.481842 0.789917 0.930603
0.615448 0.785095 0.931824
0.773804 0.787079 0.931976
0.923279 0.788391 0.933044
0.119781 0.923004 0.928619
0.14798 0.923462 0.929047
0.219666 0.9245 0.930023
0.342133 0.926117 0.931519
0.487671 0.927887 0.933197
0.61911 0.929352 0.93454
0.777252 0.929474 0.934662
0.922302 0.926819 0.93219
