site/assets/luts/freshluts--0000675-sad-cinestylelut.cube
# LUTr-Schema-Version: 2
# LUTr-ID: freshluts--0000675-sad-cinestylelut
# LUTr-Title: SAD Cinestyle(LUT)
# LUTr-Collection: Fresh LUTs
# LUTr-Collection-ID: freshluts-community
# LUTr-Source: https://freshluts.com
# LUTr-Retrieved: 2026-07-27
# LUTr-Source-File: submissions-raw/freshluts/cubes/675__SAD.HOPE_28.00068.cube
# LUTr-Source-Format: CUBE
# LUTr-Source-SHA256: 7a1da6d19289317ade10c63c160e71521f2c7bd3be81e0082298d22d36891871
# LUTr-License: CC0-1.0
# LUTr-License-URL: https://freshluts.com/termsandconditions
# LUTr-License-Basis: site-terms
# LUTr-Transform-Class: creative-look
# LUTr-Tags: creative, freshluts, community, cube, magenta, low-key, canon-cinestyle
# LUTr-Input-Color-Space: canon-cinestyle
# LUTr-Input-Gamut: rec709
# LUTr-Input-Transfer: canon-cinestyle
# LUTr-Output-Color-Space: srgb
# LUTr-Output-Gamut: rec709
# LUTr-Output-Transfer: srgb
# LUTr-Color-Space-Confidence: inferred-from-source-label
# LUTr-Domain-Normalized: true
# LUTr-Shaper: none
# LUTr-Original-Grid: 33x33x33
# LUTr-Conversion-Grid: 33x33x33
# LUTr-Conversion-Interpolation: none
# LUTr-Conversion-Method: Metadata normalization; numeric LUT samples preserved
# LUTr-Conversion-Tool: LUTr scripts/convert-all-to-cube.mjs 2.0.0
# LUTr-Conversion-Date: 2026-07-28
# LUTr-Asset-URL: https://freshluts.com/luts/675
# LUTr-Author: lvannoeun@gmail.com
# LUTr-Author-URL: https://freshluts.com/users/57563
# LUTr-Attribution: lvannoeun@gmail.com via Fresh LUTs
# LUTr-Source-Labels: gamma=Canon Cinestyle; color=Magenta; key=Low Key; style=Cinematic/Dark
# LUTr-Note: Preserve this metadata and the upstream license notices when redistributing.
TITLE "SAD Cinestyle(LUT)"
LUT_3D_SIZE 9
DOMAIN_MIN 0 0 0
DOMAIN_MAX 1 1 1
0.0465095 0.00813306 0.0597391
0.0466468 0.00523384 0.0557565
0.147372 0 0.0424811
0.29427 0 0.0368048
0.434073 0 0.0347448
0.584955 0 0.0348363
0.745632 0 0.0368963
0.903471 0 0.0403754
0.9149 0 0.0397192
0.0338903 0.128023 0.075227
0.0342718 0.12462 0.0699931
0.166018 0.111711 0.0576181
0.311604 0.105882 0.0532998
0.451637 0.102129 0.0520485
0.604517 0.0998245 0.0529335
0.765148 0.0988479 0.0557259
0.922469 0.0987259 0.060029
0.922499 0.0925154 0.0593423
0.0180056 0.25655 0.0843671
0.0187533 0.251545 0.07776
0.175982 0.239506 0.0661021
0.32018 0.234455 0.0625925
0.460197 0.231144 0.0619364
0.614221 0.229099 0.0632486
0.774701 0.228595 0.0667124
0.919249 0.228077 0.0708934
0.919493 0.22179 0.0704356
0.000946059 0.387076 0.0907301
0.0207065 0.379477 0.0816205
0.182071 0.369451 0.0718853
0.325002 0.364981 0.0690166
0.465187 0.362112 0.0687572
0.620264 0.360449 0.0705425
0.780301 0.359945 0.0742351
0.912886 0.359319 0.0784466
0.913252 0.353079 0.0781415
0 0.5187 0.0952316
0.0291447 0.509102 0.0841688
0.185733 0.500526 0.0759747
0.327626 0.496513 0.0735637
0.468025 0.494011 0.0737011
0.623926 0.492561 0.0757305
0.783566 0.492409 0.0797284
0.904448 0.491493 0.0838178
0.904891 0.485222 0.0836194
0 0.65069 0.0982528
0.0352483 0.639841 0.0858015
0.187411 0.632593 0.0788891
0.328328 0.628992 0.0769207
0.468803 0.626688 0.0772717
0.625681 0.625559 0.0796826
0.784909 0.625574 0.0838636
0.894286 0.624399 0.0876326
0.894804 0.617945 0.0874952
0 0.783307 0.0997177
0.0375677 0.771542 0.0865034
0.187335 0.765286 0.0805066
0.327352 0.762142 0.0788739
0.46836 0.759854 0.0793774
0.62591 0.758923 0.0818799
0.784634 0.759167 0.086305
0.882734 0.757412 0.0897993
0.88333 0.750942 0.0897383
0 0.91635 0.0999924
0.0377966 0.904448 0.0865492
0.185733 0.898894 0.0811017
0.325002 0.895811 0.0796521
0.466377 0.893721 0.0802777
0.624506 0.892897 0.0830243
0.783093 0.893065 0.0874495
0.869902 0.890929 0.0906233
0.870542 0.884581 0.0906386
0 1 0.0995499
0.038819 1 0.0860761
0.184421 1 0.0810559
0.322881 1 0.0796521
0.464302 1 0.080415
0.622827 1 0.0832227
0.780697 1 0.0876631
0.856504 1 0.0903944
0.856779 0.999741 0.0903639
0.0468452 0.00624094 0.0586099
0.0469215 0.0043183 0.054902
0.139422 0 0.0418555
0.287373 0 0.0359808
0.427268 0 0.0337835
0.577493 0 0.0337224
0.73843 0 0.0356756
0.896483 0 0.0390021
0.914611 0 0.0393378
0.0345617 0.122133 0.0747539
0.0349126 0.119112 0.0699931
0.159365 0.105974 0.0573739
0.305715 0.0999771 0.0528573
0.445701 0.0960861 0.0514687
0.598001 0.0937667 0.0522316
0.758907 0.0925765 0.0549172
0.917235 0.0924392 0.0591745
0.922469 0.0864729 0.0586252
0.0187991 0.250614 0.0874495
0.01944 0.24625 0.0833143
0.169711 0.233783 0.0711986
0.314397 0.228611 0.0658885
0.454536 0.225101 0.0623026
0.607935 0.222873 0.0626841
0.768643 0.222171 0.0660868
0.919493 0.221912 0.0704509
0.919738 0.215625 0.0699931
0.00114443 0.381521 0.104692
0.0139773 0.374502 0.0981918
0.176379 0.363836 0.0878767
0.319692 0.359121 0.0830854
0.459739 0.356161 0.0800641
0.614206 0.354208 0.0779889
0.774426 0.353658 0.0771649
0.913252 0.353216 0.0781415
0.913619 0.346853 0.077821
0 0.513176 0.119738
0.021561 0.504204 0.111192
0.18024 0.495247 0.102434
0.322499 0.490913 0.098146
0.462608 0.488151 0.0953841
0.618158 0.486656 0.0937819
0.777966 0.486412 0.0933242
0.905013 0.485588 0.0925002
0.905379 0.479026 0.0865797
0 0.645502 0.132906
0.0281987 0.635142 0.12314
0.182116 0.627497 0.115511
0.3234 0.623575 0.11162
0.463661 0.621073 0.109026
0.620142 0.619883 0.107744
0.779568 0.619791 0.1075
0.895048 0.618677 0.106416
0.895491 0.612085 0.100694
0 0.778454 0.144488
0.0321508 0.76701 0.133745
0.182391 0.76022 0.127184
0.322637 0.756848 0.123629
0.463279 0.754482 0.121431
0.620569 0.753582 0.120333
0.779477 0.753475 0.120241
0.883589 0.751812 0.1187
0.884108 0.745174 0.112917
0 0.911772 0.154864
0.0322423 0.900008 0.143847
0.180896 0.893843 0.137774
0.3205 0.89073 0.134447
0.461631 0.888502 0.132372
0.619394 0.887831 0.131411
0.778103 0.887602 0.13138
0.870909 0.885451 0.129458
0.871458 0.87892 0.123674
0 1 0.164202
0.0327306 1 0.15288
0.179446 1 0.147265
0.318135 1 0.144198
0.459419 1 0.142123
0.617533 1 0.141283
0.775433 1 0.141131
0.857237 0.999878 0.138811
0.857862 0.997055 0.133135
0.0471351 0.00650034 0.20235
0.0471809 0.00515755 0.2009
0.136889 0 0.188144
0.285267 0 0.180591
0.424933 0 0.17554
0.57467 0 0.171679
0.735744 0 0.169039
0.894026 0 0.167575
0.916091 0 0.162478
0.0349584 0.12163 0.230808
0.0352483 0.119005 0.228382
0.157626 0.105837 0.215641
0.304082 0.0996872 0.209384
0.444007 0.0958114 0.205219
0.595911 0.0932479 0.202243
0.756848 0.0920119 0.200534
0.91519 0.0918441 0.199664
0.924056 0.0858778 0.193469
0.0191348 0.25037 0.251514
0.0202792 0.246296 0.247776
0.16817 0.233951 0.235737
0.313161 0.228336 0.230182
0.453071 0.224918 0.226642
0.606302 0.222766 0.224262
0.766812 0.221881 0.223072
0.921538 0.221805 0.222553
0.921706 0.215366 0.216312
0.000869764 0.381552 0.269413
0.0154879 0.374685 0.263249
0.174884 0.36379 0.25272
0.318486 0.359106 0.247852
0.458534 0.355993 0.244816
0.612772 0.354177 0.242802
0.773007 0.353689 0.241993
0.915465 0.353307 0.241337
0.915755 0.346777 0.235203
0 0.513222 0.284657
0.0196841 0.504341 0.276417
0.178851 0.495155 0.267491
0.32137 0.490898 0.263203
0.461387 0.488151 0.260441
0.616663 0.486686 0.258824
0.776532 0.486336 0.258244
0.90724 0.485618 0.25742
0.907637 0.479026 0.251377
0 0.645594 0.298222
0.0254826 0.635401 0.288609
0.180758 0.627451 0.280858
0.322377 0.623438 0.277043
0.46244 0.621027 0.274388
0.618555 0.619593 0.273075
0.778119 0.619623 0.27274
0.897322 0.618616 0.271489
0.89778 0.612024 0.265629
0 0.778393 0.309941
0.0307469 0.767208 0.299428
0.181125 0.760479 0.292668
0.321645 0.756786 0.289067
0.461967 0.75462 0.286778
0.618906 0.753384 0.285573
0.778027 0.753384 0.285389
0.886 0.751858 0.284001
0.886503 0.745388 0.278264
0 0.911513 0.320272
0.0305333 0.900206 0.309331
0.179797 0.894179 0.303288
0.319432 0.890593 0.299886
0.460273 0.888426 0.297749
0.618006 0.887449 0.296681
0.776547 0.88751 0.296681
0.873289 0.885435 0.294835
0.873869 0.879011 0.289189
0 1 0.329442
0.0310369 1 0.318395
0.178134 1 0.312688
0.316838 1 0.309468
0.457984 1 0.307408
0.615839 1 0.306493
0.773816 1 0.306325
0.859373 0.998672 0.304204
0.860044 0.99649 0.298604
0.0475319 0.00646983 0.354482
0.0475166 0.00587472 0.35346
0.135195 0.000198367 0.34052
0.28394 0 0.333028
0.423972 0 0.328206
0.57319 0 0.324331
0.734432 0 0.322026
0.893324 0 0.321126
0.918044 0 0.316381
0.0353399 0.121996 0.383108
0.0356298 0.119402 0.380743
0.15671 0.106325 0.36791
0.303304 0.10013 0.361837
0.443229 0.0962692 0.357687
0.59472 0.0935988 0.354757
0.75584 0.0925002 0.353079
0.914275 0.092256 0.352407
0.925872 0.0864576 0.3467
0.0194705 0.250889 0.40351
0.0216068 0.246616 0.399756
0.167269 0.234257 0.387793
0.31249 0.22884 0.382391
0.452415 0.225223 0.378866
0.605142 0.222919 0.376455
0.765759 0.222202 0.375311
0.923384 0.222278 0.375067
0.923552 0.215869 0.369177
0.00077821 0.382101 0.421118
0.0161135 0.375326 0.414862
0.174182 0.364355 0.404395
0.317906 0.359442 0.399558
0.45774 0.356329 0.396445
0.611719 0.354528 0.394598
0.772 0.354055 0.393942
0.917403 0.353857 0.393606
0.917678 0.347356 0.387655
0 0.51371 0.435904
0.0187381 0.504982 0.427649
0.178256 0.495674 0.418662
0.320775 0.491279 0.414435
0.460761 0.488548 0.411749
0.615793 0.487053 0.410285
0.775692 0.486793 0.409949
0.909209 0.486259 0.409461
0.909606 0.479698 0.403769
0 0.646296 0.448493
0.0244297 0.635966 0.438972
0.180209 0.627924 0.431144
0.321798 0.623819 0.427329
0.461936 0.621485 0.42504
0.617823 0.620218 0.423926
0.777401 0.620111 0.42385
0.899351 0.619242 0.423102
0.89984 0.61265 0.417472
0 0.778836 0.459571
0.0297246 0.767941 0.44918
0.180331 0.76083 0.442237
0.321172 0.757229 0.438697
0.461372 0.755016 0.436667
0.618158 0.753735 0.435752
0.77734 0.75378 0.435889
0.887953 0.752239 0.434897
0.888457 0.745754 0.429557
0 0.912215 0.469276
0.029572 0.900572 0.458228
0.179065 0.894392 0.452049
0.319051 0.890929 0.448859
0.459586 0.888914 0.446906
0.61709 0.887861 0.446082
0.775677 0.887968 0.446311
0.875288 0.885817 0.444968
0.875837 0.879347 0.439689
0 1 0.477821
0.0297246 1 0.46656
0.17734 1 0.460929
0.316243 1 0.457877
0.457176 1 0.455817
0.614801 1 0.455146
0.772808 0.999634 0.455177
0.861372 0.998413 0.45362
0.862013 0.996872 0.448493
0.0478523 0.00622568 0.492729
0.0478828 0.00601205 0.491371
0.134234 0.000976577 0.478737
0.283024 0 0.471473
0.423133 0 0.466636
0.572106 0 0.463096
0.733501 0 0.46099
0.892699 0 0.460731
0.919676 0 0.456321
0.0357214 0.122484 0.520317
0.035996 0.120043 0.518059
0.155932 0.106752 0.505272
0.302739 0.10071 0.499199
0.442512 0.0967422 0.495262
0.593851 0.0940566 0.492836
0.755138 0.0928817 0.491585
0.913634 0.0928817 0.491417
0.927459 0.087129 0.485893
0.0198215 0.25127 0.539849
0.0225071 0.247303 0.536065
0.166735 0.234745 0.524147
0.311925 0.229114 0.518975
0.451911 0.225879 0.515587
0.604486 0.223606 0.513634
0.765194 0.222904 0.513054
0.923537 0.222873 0.513344
0.925322 0.216526 0.507866
0.000961318 0.382589 0.556451
0.0167086 0.376028 0.55021
0.173556 0.36492 0.539406
0.317372 0.360006 0.534874
0.45742 0.356863 0.532097
0.611124 0.355184 0.530709
0.771435 0.354726 0.530495
0.919219 0.354498 0.530785
0.919524 0.348028 0.525551
0 0.514504 0.570123
0.0181582 0.505531 0.5617
0.177722 0.496193 0.552575
0.320378 0.491905 0.548653
0.460349 0.489052 0.546181
0.615198 0.487694 0.545266
0.775113 0.487282 0.545312
0.910933 0.486885 0.54548
0.91136 0.4804 0.540444
0 0.646738 0.581872
0.0234989 0.636759 0.572229
0.179675 0.628367 0.564218
0.321401 0.62446 0.560693
0.461479 0.622202 0.558587
0.617182 0.620584 0.557733
0.77673 0.620645 0.558251
0.900938 0.619669 0.558053
0.901396 0.613245 0.553033
0 0.779629 0.592004
0.0286412 0.768582 0.581323
0.179995 0.761349 0.574365
0.320775 0.757671 0.570977
0.461006 0.755322 0.569162
0.617487 0.754162 0.568627
0.77673 0.754101 0.56907
0.889677 0.752926 0.56878
0.890227 0.746334 0.563958
0 0.912795 0.600595
0.0289921 0.901122 0.589273
0.178729 0.894881 0.583154
0.318608 0.891524 0.580056
0.459007 0.889052 0.578378
0.616251 0.888258 0.577951
0.775082 0.888243 0.578592
0.877058 0.886458 0.577905
0.877638 0.879866 0.573251
0 1 0.607797
0.0287785 1 0.59649
0.176776 1 0.590814
0.315755 1 0.587793
0.456306 1 0.586145
0.613977 1 0.585763
0.772137 0.999115 0.586542
0.86273 0.998581 0.585504
0.863478 0.997574 0.580926
0.0481727 0.00570687 0.607752
0.0482185 0.00585946 0.606027
0.133257 0.00158694 0.593713
0.282292 0.000015259 0.58645
0.422354 0 0.582193
0.57116 0 0.579477
0.732982 0 0.578744
0.892256 0 0.579583
0.921202 0 0.576516
0.0360876 0.122728 0.633616
0.036347 0.120409 0.631022
0.1552 0.107134 0.618387
0.302129 0.100938 0.612406
0.442084 0.0969558 0.608972
0.592966 0.0944686 0.60708
0.754391 0.0934005 0.606699
0.913054 0.0931563 0.607279
0.928878 0.0876478 0.603174
0.0201267 0.251591 0.651438
0.0229648 0.247776 0.647486
0.166033 0.235096 0.635477
0.311391 0.229511 0.630365
0.451423 0.225971 0.627649
0.603708 0.22414 0.626413
0.76463 0.223133 0.626322
0.922988 0.22327 0.62742
0.926772 0.217029 0.623041
0.00123598 0.38294 0.666743
0.0168002 0.376623 0.660334
0.172854 0.365255 0.649531
0.317067 0.360342 0.64509
0.456947 0.357305 0.642725
0.610361 0.355398 0.641886
0.770871 0.35491 0.642267
0.920607 0.354849 0.643336
0.920913 0.348379 0.638956
0 0.514748 0.679118
0.0175937 0.505867 0.670512
0.177096 0.496696 0.661418
0.319997 0.492241 0.657557
0.459907 0.489494 0.655512
0.614313 0.48806 0.654826
0.774548 0.487572 0.655665
0.912337 0.48719 0.656458
0.912718 0.480659 0.65214
0 0.647196 0.689799
0.0226749 0.63714 0.679911
0.179095 0.628824 0.671977
0.320989 0.624872 0.668528
0.461051 0.622339 0.666697
0.61651 0.621073 0.666316
0.776074 0.620874 0.667216
0.902388 0.62005 0.667811
0.902846 0.613626 0.663554
0 0.77995 0.698863
0.0273899 0.768994 0.688075
0.179492 0.761639 0.681025
0.320424 0.758221 0.677821
0.460578 0.755566 0.676173
0.616861 0.754376 0.675929
0.77612 0.754437 0.677028
0.89102 0.753277 0.677394
0.891585 0.7467 0.673198
0 0.913085 0.706386
0.0287175 0.901473 0.695033
0.178225 0.895399 0.68893
0.318212 0.891722 0.685893
0.458534 0.889357 0.684398
0.615641 0.888441 0.684306
0.774517 0.888426 0.68545
0.878462 0.886717 0.685374
0.879057 0.880293 0.681254
0 1 0.712856
0.0280461 1 0.701442
0.176089 1 0.695521
0.31519 1 0.692744
0.455604 1 0.691371
0.613108 0.999817 0.69131
0.771511 0.998947 0.692393
0.863355 0.998993 0.69189
0.864164 0.998367 0.687968
0.0484779 0.00503548 0.708278
0.0485389 0.00560006 0.706691
0.132296 0.00192264 0.694316
0.281498 0.000335698 0.687129
0.421775 0.000015259 0.682811
0.570275 0 0.679942
0.732433 0 0.679545
0.891752 0 0.680293
0.922499 0 0.677256
0.0364233 0.123003 0.734447
0.0366522 0.12076 0.731945
0.154452 0.107561 0.71928
0.301686 0.100984 0.713283
0.441703 0.0971237 0.70988
0.592279 0.0947738 0.708049
0.753857 0.0938582 0.70753
0.912428 0.093492 0.70808
0.930053 0.0879072 0.703883
0.0204318 0.251789 0.752331
0.0232242 0.248234 0.748623
0.165545 0.235355 0.736339
0.311116 0.229862 0.731395
0.45098 0.226444 0.728573
0.603082 0.224338 0.727199
0.764157 0.223423 0.727184
0.922591 0.22359 0.728328
0.928008 0.217411 0.724086
0.00151064 0.383276 0.767697
0.0166934 0.377157 0.761456
0.172396 0.365621 0.750546
0.316701 0.360571 0.746105
0.456565 0.357671 0.743709
0.609796 0.355886 0.74284
0.770336 0.355245 0.743191
0.921859 0.35523 0.744305
0.922148 0.348745 0.73991
0 0.515297 0.780301
0.0181582 0.50631 0.771725
0.176654 0.497108 0.762585
0.319615 0.492622 0.758724
0.459495 0.489876 0.756664
0.613916 0.488167 0.755978
0.774014 0.487831 0.756695
0.913634 0.487633 0.757626
0.914015 0.481102 0.753277
0 0.647623 0.790845
0.022034 0.637583 0.781003
0.178897 0.629252 0.773022
0.320668 0.625162 0.769558
0.460655 0.622705 0.767697
0.616007 0.621363 0.767361
0.775631 0.621225 0.7682
0.9037 0.620447 0.768826
0.904158 0.614038 0.764599
0 0.780163 0.8
0.0261082 0.769467 0.789364
0.179141 0.761929 0.782254
0.320134 0.758526 0.779095
0.460105 0.755856 0.777295
0.616373 0.754726 0.777188
0.775525 0.754818 0.778164
0.892317 0.753674 0.7785
0.892851 0.747112 0.774304
0 0.913497 0.80766
0.0286717 0.902144 0.796307
0.17789 0.895659 0.790066
0.317968 0.892149 0.78706
0.458228 0.889693 0.785504
0.615152 0.888624 0.785397
0.77406 0.888731 0.786542
0.879637 0.887129 0.786572
0.880247 0.880674 0.782467
0 1 0.81413
0.0273899 1 0.802731
0.175677 1 0.79678
0.314839 1 0.793973
0.455146 1 0.792538
0.612558 0.999344 0.792477
0.771023 0.999054 0.793515
0.863874 0.999634 0.793103
0.864698 0.999405 0.789166
0.0487678 0.00427253 0.807355
0.0488594 0.00515755 0.805859
0.131746 0.00201419 0.793576
0.280964 0.000595102 0.786404
0.421424 0.000167849 0.782025
0.569772 0 0.779507
0.732067 0 0.77911
0.891417 0 0.779782
0.923674 0 0.77673
0.0367437 0.123323 0.833646
0.0369573 0.121309 0.831281
0.153964 0.108019 0.818692
0.301411 0.101595 0.812711
0.441367 0.0976425 0.80943
0.591775 0.0951705 0.807462
0.753353 0.0941482 0.806928
0.912047 0.093904 0.807462
0.931197 0.0884871 0.803296
0.020676 0.252308 0.85182
0.023331 0.248905 0.84828
0.165255 0.235996 0.835981
0.310796 0.230533 0.830945
0.45069 0.226871 0.828092
0.602625 0.224903 0.826719
0.76379 0.224002 0.826703
0.92221 0.22417 0.827909
0.929183 0.218051 0.823575
0.00177005 0.383841 0.86717
0.0166629 0.377768 0.861067
0.172198 0.366079 0.850004
0.316411 0.361181 0.845594
0.456275 0.358267 0.84332
0.609384 0.356313 0.842313
0.770001 0.355962 0.84268
0.923125 0.355932 0.843885
0.923461 0.349493 0.839506
0 0.515785 0.879911
0.0189059 0.507378 0.871504
0.176486 0.497444 0.862196
0.31957 0.492958 0.858305
0.459297 0.490196 0.856199
0.613489 0.488762 0.855604
0.77377 0.488319 0.856245
0.91487 0.48809 0.85716
0.915251 0.481575 0.852811
0 0.648142 0.890517
0.0217594 0.638132 0.880705
0.178607 0.629862 0.872694
0.320592 0.625895 0.869215
0.460502 0.623163 0.867475
0.615549 0.621912 0.866987
0.775311 0.621744 0.867811
0.904936 0.621073 0.868482
0.905409 0.614527 0.86421
0 0.780835 0.899748
0.0252995 0.770062 0.889067
0.179019 0.762676 0.881865
0.319951 0.758953 0.87863
0.459998 0.756481 0.876905
0.616037 0.755291 0.876753
0.77525 0.755245 0.877699
0.893568 0.754269 0.878096
0.894102 0.747723 0.873915
0 0.914031 0.907057
0.0286412 0.902724 0.895781
0.177783 0.896132 0.889464
0.317891 0.892424 0.886381
0.457984 0.89041 0.884962
0.614832 0.889036 0.885023
0.773785 0.889113 0.886122
0.880812 0.887709 0.886168
0.881437 0.881148 0.882063
0 1 0.913359
0.026978 1 0.902022
0.175525 1 0.896117
0.314473 1 0.893172
0.454765 1 0.891768
0.612192 0.999222 0.891691
0.770718 0.999359 0.892699
0.864408 1 0.892805
0.865202 1 0.888777
0.0490578 0.00354009 0.904906
0.0491646 0.00451667 0.903365
0.131319 0.00202945 0.891112
0.280705 0.000732433 0.88397
0.421164 0.000167849 0.879561
0.569421 0 0.877348
0.731914 0 0.876829
0.891234 0 0.877623
0.92491 0 0.874754
0.0370489 0.123888 0.931411
0.0372778 0.121813 0.929061
0.15375 0.108659 0.916472
0.30135 0.102281 0.910552
0.441138 0.0982834 0.907073
0.591501 0.0956588 0.905104
0.752972 0.0947738 0.904601
0.911681 0.0945296 0.90515
0.93228 0.089189 0.901152
0.0209049 0.252964 0.949554
0.0233463 0.249683 0.94609
0.165225 0.236606 0.933867
0.310735 0.23093 0.928649
0.450492 0.227527 0.925841
0.602426 0.225284 0.924453
0.76347 0.224689 0.924605
0.92192 0.224811 0.925658
0.930343 0.218616 0.921386
0.00204471 0.38436 0.96463
0.0165866 0.378714 0.959197
0.172137 0.366918 0.948043
0.31635 0.361837 0.943587
0.456184 0.358801 0.941299
0.609247 0.357015 0.940307
0.769863 0.35639 0.940627
0.924285 0.356649 0.941833
0.92462 0.350179 0.937514
0 0.516335 0.974182
0.0195315 0.50808 0.969406
0.17644 0.498131 0.960082
0.319524 0.493782 0.956222
0.45919 0.491173 0.954162
0.613214 0.489418 0.953536
0.773556 0.489204 0.954223
0.91606 0.488823 0.955108
0.916472 0.482307 0.950759
0 0.648753 0.979629
0.0215763 0.638956 0.976074
0.178607 0.630426 0.970626
0.32047 0.626459 0.967147
0.460349 0.623865 0.96527
0.61529 0.622629 0.964904
0.77525 0.622324 0.965682
0.906157 0.621775 0.966217
0.90663 0.615244 0.962066
0 0.781476 0.982223
0.0246891 0.770764 0.980072
0.179004 0.763394 0.977203
0.319997 0.759701 0.975906
0.459968 0.757214 0.974334
0.615885 0.7561 0.973861
0.775143 0.756024 0.973541
0.894789 0.754818 0.973205
0.895308 0.748409 0.969833
0 0.914519 0.980697
0.0283513 0.903288 0.977432
0.177646 0.896635 0.974899
0.317845 0.893187 0.97464
0.457893 0.890822 0.975372
0.614679 0.889754 0.976928
0.773556 0.889738 0.977874
0.88159 0.888197 0.977249
0.882307 0.881773 0.974472
0 1 0.978469
0.026154 1 0.974701
0.175051 1 0.97232
0.314275 1 0.972061
0.454536 0.999725 0.972763
0.611948 0.999161 0.974319
0.770504 0.999786 0.976547
0.864866 1 0.978149
0.86566 1 0.976791
