site/assets/luts/freshluts--0000553-logc-teal-orange-709-v1.cube
# LUTr-Schema-Version: 2
# LUTr-ID: freshluts--0000553-logc-teal-orange-709-v1
# LUTr-Title: LogC_Teal_Orange_709_V1
# LUTr-Collection: Fresh LUTs
# LUTr-Collection-ID: freshluts-community
# LUTr-Source: https://freshluts.com
# LUTr-Retrieved: 2026-07-27
# LUTr-Source-File: submissions-raw/freshluts/cubes/553__LogC_Teal_Orange_709_V1.cube
# LUTr-Source-Format: CUBE
# LUTr-Source-SHA256: 98d1691ebac29306da451e47d3fc17e3e86b683bb618c31752a287196ab59944
# LUTr-License: CC0-1.0
# LUTr-License-URL: https://freshluts.com/termsandconditions
# LUTr-License-Basis: site-terms
# LUTr-Transform-Class: creative-look
# LUTr-Tags: creative, freshluts, community, cube, teal, arri-logc3-ei800
# LUTr-Input-Color-Space:
# LUTr-Input-Gamut: arri-wide-gamut-3
# LUTr-Input-Transfer: arri-logc3-ei800
# LUTr-Output-Color-Space: srgb
# LUTr-Output-Gamut: rec709
# LUTr-Output-Transfer: srgb
# LUTr-Color-Space-Confidence: camera-profile-input-required
# LUTr-Domain-Normalized: true
# LUTr-Shaper: none
# LUTr-Original-Grid: 33x33x33
# LUTr-Conversion-Grid: 33x33x33
# LUTr-Conversion-Interpolation: none
# LUTr-Conversion-Method: Metadata normalization; numeric LUT samples preserved
# LUTr-Conversion-Tool: LUTr scripts/convert-all-to-cube.mjs 2.0.0
# LUTr-Conversion-Date: 2026-07-28
# LUTr-Asset-URL: https://freshluts.com/luts/553
# LUTr-Author: tjtop
# LUTr-Author-URL: https://freshluts.com/users/10151
# LUTr-Attribution: tjtop via Fresh LUTs
# LUTr-Source-Labels: gamma=Arri log c; color=Teal; key=Neutral; style=Teal - Orange
# LUTr-Note: Preserve this metadata and the upstream license notices when redistributing.
TITLE "LogC_Teal_Orange_709_V1"
LUT_3D_SIZE 5
DOMAIN_MIN 0 0 0
DOMAIN_MAX 1 1 1
0 0 0
0.0183566 0 0
0.195209 0 0
0.43856 0 0
0.663493 0 0
0 0.0774853 0
0.0127871 0.0947738 0
0.340322 0.0778973 0
0.718227 0 0
0.933425 0 0
0 0.497902 0
0 0.563317 0
0.145266 0.613931 0
0.812879 0.623224 0
1 0.646647 0
0 0.971618 0
0 0.998901 0
0 1 0
0.694774 1 0
1 1 0
0 1 0.294057
0 1 0.178637
0.422965 1 0.00308232
0.722881 1 0.0719463
0.945693 1 0.410346
0 0 0.0229343
0.0740063 0 0.0799573
0.364141 0 0.0656138
0.557534 0 0.000030518
0.715297 0 0
0 0.107698 0.113207
0.00746166 0.0984665 0.12221
0.522377 0.0122988 0.0133211
0.854246 0 0
0.983429 0.0062562 0
0 0.567864 0.0173037
0 0.624903 0
0.39144 0.637949 0
0.986786 0.622034 0
1 0.662379 0
0 0.994919 0.230137
0 1 0.00347906
0 1 0
0.778439 1 0
1 1 0.0531319
0 1 0.500511
0 1 0.42501
0.454139 1 0.393729
0.785016 1 0.497017
0.981048 1 0.638254
0 0 0.170581
0 0 0.135866
0.428779 0 0.39028
0.710445 0 0.33193
0.821332 0 0.243793
0 0.00170901 0.447303
0 0 0.458534
0.625956 0 0.581033
0.995666 0 0.433738
1 0 0.342901
0 0.61178 0.540856
0 0.626474 0.582528
0.516365 0.600381 0.59556
1 0.56791 0.46244
1 0.647532 0.461616
0 1 0.631449
0 1 0.596963
0 1 0.493309
0.888243 1 0.480323
1 0.999603 0.582498
0 1 0.72546
0 1 0.684153
0.459373 1 0.658808
0.859632 1 0.748211
0.998871 1 0.848478
0 0 0.397421
0 0 0.331487
0.265507 0 0.560891
0.649027 0 0.559182
0.792935 0 0.526543
0 0 0.742458
0 0 0.725017
0.0856489 0 0.913375
0.920501 0 0.800046
1 0 0.745663
0 0.614664 0.871885
0 0.589441 0.891493
0 0.568795 1
1 0.292668 1
1 0.531579 0.938903
0 1 0.944808
0 1 0.974075
0 1 0.980865
0.967987 0.973312 0.94667
1 0.964385 0.893065
0 1 0.944945
0 1 0.931579
0.532876 1 0.904479
0.927596 1 0.935195
1 1 0.980774
0 0 0.607538
0 0 0.554376
0 0 0.57615
0.547646 0 0.677134
0.749264 0 0.670207
0 0 0.911162
0 0 0.892454
0 0 0.943694
0.772091 0 0.979065
1 0 0.934218
0 0.660151 1
0 0.622339 1
0 0.662531 1
0.897032 0.542931 1
1 0.603937 1
0 1 1
0 1 1
0 1 1
0.766567 0.997345 1
1 0.955962 1
0 1 1
0 1 1
0.661189 1 1
0.957046 1 1
1 1 1
