site/assets/luts/freshluts--0000396-kenya-crizo-mzeyah.cube
# LUTr-Schema-Version: 2
# LUTr-ID: freshluts--0000396-kenya-crizo-mzeyah
# LUTr-Title: Kenya Crizo Mzeyah
# LUTr-Collection: Fresh LUTs
# LUTr-Collection-ID: freshluts-community
# LUTr-Source: https://freshluts.com
# LUTr-Retrieved: 2026-07-27
# LUTr-Source-File: submissions-raw/freshluts/cubes/396__KENYA_Crizo_Mzeyah.cube
# LUTr-Source-Format: CUBE
# LUTr-Source-SHA256: a15f4f691e6c6df7e654a954e686a13c03ae9cd7e0d04e1f26bfb3d709e1d3b4
# LUTr-License: CC0-1.0
# LUTr-License-URL: https://freshluts.com/termsandconditions
# LUTr-License-Basis: site-terms
# LUTr-Transform-Class: creative-look
# LUTr-Tags: creative, freshluts, community, cube, cool, bmd-film-4k
# LUTr-Input-Color-Space:
# LUTr-Input-Gamut: bmd-film-gamut
# LUTr-Input-Transfer: bmd-film-4k
# LUTr-Output-Color-Space: srgb
# LUTr-Output-Gamut: rec709
# LUTr-Output-Transfer: srgb
# LUTr-Color-Space-Confidence: camera-profile-input-required
# LUTr-Domain-Normalized: true
# LUTr-Shaper: none
# LUTr-Original-Grid: 33x33x33
# LUTr-Conversion-Grid: 33x33x33
# LUTr-Conversion-Interpolation: none
# LUTr-Conversion-Method: Metadata normalization; numeric LUT samples preserved
# LUTr-Conversion-Tool: LUTr scripts/convert-all-to-cube.mjs 2.0.0
# LUTr-Conversion-Date: 2026-07-28
# LUTr-Asset-URL: https://freshluts.com/luts/396
# LUTr-Author: Crizo
# LUTr-Author-URL: https://freshluts.com/users/10814
# LUTr-Attribution: Crizo via Fresh LUTs
# LUTr-Source-Labels: gamma=Blackmagic BMD Film 4K; color=Cool; key=Neutral; style=Colorful
# LUTr-Note: Preserve this metadata and the upstream license notices when redistributing.
TITLE "Kenya Crizo Mzeyah"
LUT_3D_SIZE 5
DOMAIN_MIN 0 0 0
DOMAIN_MAX 1 1 1
0 0 0
0.462089 0 0
1 0 0
1 0 0
1 0 0
0 0.310109 0
0.201709 0.24387 0
0.767361 0.18407 0
1 0.126436 0
1 0.0699016 0
0 0.752422 0
0 0.683757 0
0.518715 0.622126 0
1 0.563043 0
1 0.505302 0
0 1 0
0 1 0
0.276219 1 0
0.82887 0.992294 0
1 0.933776 0
0 1 0
0 1 0
0.0370336 1 0
0.589212 1 0
1 1 0
0 0 0.563699
0.434363 0 0.499229
1 0 0.446586
1 0 0.393042
1 0 0.339193
0 0.282445 0.312383
0.173129 0.215793 0.246143
0.738582 0.155734 0.186481
1 0.0978866 0.129046
1 0.0411994 0.0727703
0 0.723827 0.0747997
0 0.655009 0.00640879
0.489464 0.593256 0
1 0.534051 0
1 0.476219 0
0 1 0
0 1 0
0.246708 1 0
0.799313 0.963043 0
1 0.904448 0
0 1 0
0 1 0
0.00732433 1 0
0.559472 1 0
1 1 0
0 0 1
0.409766 0 1
0.980896 0 1
1 0 1
1 0 1
0 0.257511 0.994598
0.146288 0.190829 0.943633
0.712428 0.13019 0.868055
1 0.0721752 0.810437
1 0.0153201 0.753979
0 0.698054 0.756115
0 0.629114 0.687572
0.462745 0.567208 0.626154
1 0.507927 0.567178
1 0.450004 0.509636
0 1 0.52285
0 1 0.453285
0.219852 0.996765 0.390875
0.772412 0.93666 0.331151
1 0.877989 0.272892
0 1 0.292561
0 1 0.222293
0 1 0.159213
0.532403 1 0.0988937
1 1 0.0400854
0 0 1
0.387503 0 1
0.956756 0 1
1 0 1
1 0 1
0 0.233494 1
0.122057 0.166201 1
0.68719 0.105653 1
1 0.0474556 1
1 0 1
0 0.67332 1
0 0.604242 1
0.436332 0.54258 1
0.990326 0.482841 1
1 0.424811 1
0 1 1
0 1 1
0.193957 0.971496 1
0.746471 0.911299 0.998245
1 0.852583 0.939925
0 1 0.959625
0 1 0.889296
0 1 0.826139
0.50631 1 0.765759
1 1 0.706889
0 0 1
0.36492 0 1
0.932967 0 1
1 0 1
1 0 1
0 0.209979 1
0.0974746 0.142428 1
0.66247 0.0816815 1
1 0.0233158 1
1 0 1
0 0.649149 1
0 0.57995 1
0.412131 0.51783 1
0.965164 0.45832 1
1 0.400214 1
0 1 1
0 1 1
0.168612 0.946807 1
0.72108 0.886549 1
1 0.827756 1
0 1 1
0 1 1
0 1 1
0.480751 1 1
1 1 1
