site/assets/luts/freshluts--0002710-mahaicony.cube
# LUTr-Schema-Version: 2
# LUTr-ID: freshluts--0002710-mahaicony
# LUTr-Title: Mahaicony
# LUTr-Collection: Fresh LUTs
# LUTr-Collection-ID: freshluts-community
# LUTr-Source: https://freshluts.com
# LUTr-Retrieved: 2026-07-27
# LUTr-Source-File: submissions-raw/freshluts/cubes/2710__MAHAICONY.cube
# LUTr-Source-Format: CUBE
# LUTr-Source-SHA256: 3a47e505303a7f1f0971911bacf381ba05913c09ea1bc70c260f48c301911cb5
# LUTr-License: CC0-1.0
# LUTr-License-URL: https://freshluts.com/termsandconditions
# LUTr-License-Basis: site-terms
# LUTr-Transform-Class: creative-look
# LUTr-Tags: creative, freshluts, community, cube, teal, high-key, sony-s-log2
# LUTr-Input-Color-Space:
# LUTr-Input-Gamut: sony-s-gamut
# LUTr-Input-Transfer: sony-s-log2
# LUTr-Output-Color-Space: srgb
# LUTr-Output-Gamut: rec709
# LUTr-Output-Transfer: srgb
# LUTr-Color-Space-Confidence: camera-profile-input-required
# LUTr-Domain-Normalized: true
# LUTr-Shaper: none
# LUTr-Original-Grid: 33x33x33
# LUTr-Conversion-Grid: 33x33x33
# LUTr-Conversion-Interpolation: none
# LUTr-Conversion-Method: Metadata normalization; numeric LUT samples preserved
# LUTr-Conversion-Tool: LUTr scripts/convert-all-to-cube.mjs 2.0.0
# LUTr-Conversion-Date: 2026-07-28
# LUTr-Asset-URL: https://freshluts.com/luts/2710
# LUTr-Author: Daniel Fordyce
# LUTr-Author-URL: https://freshluts.com/users/30654
# LUTr-Attribution: Daniel Fordyce via Fresh LUTs
# LUTr-Source-Labels: gamma=Sony S-Log 2; color=Teal; key=High Key; style=Colorful
# LUTr-Note: Preserve this metadata and the upstream license notices when redistributing.
TITLE "Mahaicony"
LUT_3D_SIZE 9
DOMAIN_MIN 0 0 0
DOMAIN_MAX 1 1 1
0.0266423 0 0.0276341
0.131075 0 0.002533
0.267277 0 0
0.468238 0 0
0.692485 0 0
0.889281 0 0
1 0 0
1 0 0
1 0 0
0 0.0685435 0.00347906
0.0892195 0.0601663 0
0.226871 0.045182 0
0.428885 0.015198 0
0.656886 0 0
0.858396 0 0
1 0 0
1 0 0
1 0 0
0 0.184634 0
0.0158846 0.183368 0
0.169345 0.175006 0
0.384558 0.153872 0
0.617761 0.131182 0
0.818647 0.115206 0
0.995468 0.107836 0
1 0.109407 0
1 0.117052 0
0 0.355795 0
0 0.36614 0
0.0718242 0.364553 0
0.298466 0.347219 0
0.541863 0.326833 0
0.745754 0.313344 0
0.92285 0.308339 0
1 0.310552 0
1 0.318563 0
0 0.549798 0
0 0.561486 0
0 0.563333 0
0.208621 0.543755 0
0.458244 0.521553 0
0.666804 0.505211 0
0.847074 0.497169 0
0.999084 0.496208 0
1 0.49987 0
0 0.728054 0
0 0.74023 0
0 0.745434 0
0.127672 0.725994 0
0.386725 0.699504 0
0.597345 0.68014 0
0.778775 0.667994 0
0.930022 0.662867 0
1 0.662776 0
0 0.902861 0
0 0.913588 0
0 0.918761 0
0.0612955 0.898085 0
0.324681 0.866056 0
0.539345 0.840116 0
0.720684 0.822873 0
0.871565 0.81294 0
1 0.80795 0
0 1 0
0 1 0
0 1 0
0.00898756 1 0
0.270878 1 0
0.489784 0.977707 0
0.674388 0.954757 0
0.824887 0.940719 0
0.952987 0.931731 0
0 1 0
0 1 0
0 1 0
0 1 0
0.218082 1 0
0.440589 1 0
0.630228 1 0
0.782452 1 0
0.910124 1 0
0 0 0.157198
0.137545 0 0.130877
0.280873 0 0.0909895
0.483268 0 0.0395209
0.704295 0 0
0.896605 0 0
1 0 0
1 0 0
1 0 0
0 0.0879835 0.0478523
0.0902113 0.0534066 0.0970321
0.23122 0.0383307 0.0668956
0.43859 0.00762951 0.0223239
0.667643 0 0
0.867338 0 0
1 0 0
1 0 0
1 0 0
0 0.179019 0.0566262
0.0202182 0.178302 0.0514687
0.178103 0.170733 0.0250858
0.393973 0.150347 0
0.626535 0.128695 0
0.82649 0.113176 0
1 0.106157 0
1 0.108003 0
1 0.115785 0
0 0.348287 0
0 0.361715 0
0.07776 0.363806 0
0.312901 0.34464 0
0.553292 0.324865 0
0.753277 0.312306 0
0.929046 0.307179 0
1 0.309606 0
1 0.31754 0
0 0.542809 0
0 0.55697 0
0 0.562264 0
0.220966 0.541497 0
0.471824 0.518563 0
0.676677 0.502678 0
0.854826 0.495033 0
1 0.494133 0
1 0.49781 0
0 0.721187 0
0 0.735332 0
0 0.743633 0
0.133989 0.725124 0
0.397604 0.69688 0
0.606607 0.677012 0
0.786221 0.664668 0
0.93547 0.659571 0
1 0.659434 0
0 0.895842 0
0 0.90811 0
0 0.9149 0
0.0643473 0.896254 0
0.330892 0.863081 0
0.546715 0.836042 0
0.72694 0.818433 0
0.876173 0.808301 0
1 0.803067 0
0 1 0
0 1 0
0 1 0
0.0116121 1 0
0.272923 1 0
0.494408 0.972976 0
0.679469 0.949325 0
0.828443 0.935195 0
0.955367 0.925933 0
0 1 0
0 1 0
0 1 0
0 1 0
0.217441 1 0
0.441978 1 0
0.633158 1 0
0.78526 1 0
0.911955 1 0
0 0 0.336156
0.105821 0 0.298283
0.290562 0 0.246143
0.50634 0 0.177539
0.727352 0 0.112795
0.913893 0 0.0589761
1 0 0.0163729
1 0 0
1 0 0
0 0.122286 0.13901
0.0168002 0.064271 0.266972
0.242191 0.0256962 0.219684
0.457008 0 0.157015
0.683574 0 0.100343
0.877974 0 0.0547646
1 0 0.0212863
1 0 0
1 0 0
0 0.237568 0.0141756
0 0.203784 0.0952926
0.184436 0.16376 0.184405
0.403632 0.144839 0.139437
0.638498 0.123857 0.0923476
0.837537 0.10927 0.0526436
1 0.10367 0.0222477
1 0.106264 0.000381476
1 0.114656 0
0 0.36968 0.0479744
0 0.355489 0.134066
0.0852827 0.356741 0.126757
0.324651 0.339193 0.0788739
0.561898 0.321035 0.0397955
0.760143 0.309819 0.00144961
0.936492 0.305196 0
1 0.308278 0
1 0.316014 0
0 0.541207 0.0688792
0 0.545571 0.104387
0 0.552483 0.0725567
0.225513 0.537118 0.0111238
0.48159 0.513008 0
0.684398 0.498207 0
0.860212 0.491814 0
1 0.491615 0
1 0.495277 0
0 0.711421 0.0714275
0 0.722789 0.07364
0 0.73225 0.0354772
0.134874 0.719631 0
0.404166 0.691478 0
0.613901 0.671107 0
0.791424 0.659113 0
0.938842 0.654963 0
1 0.655467 0
0 0.882521 0.0788739
0 0.894545 0.0622568
0 0.90132 0.019852
0.0670176 0.887373 0
0.330999 0.856931 0
0.550988 0.829084 0
0.731106 0.811444 0
0.878737 0.801755 0
1 0.797009 0
0 1 0.0954299
0 1 0.0656291
0 1 0.0198825
0.0155947 1 0
0.269139 0.998215 0
0.494392 0.965194 0
0.681422 0.941299 0
0.829725 0.927337 0
0.956237 0.918288 0
0 1 0.112612
0 1 0.0732891
0 1 0.0238193
0 1 0
0.212924 1 0
0.438453 1 0
0.632776 1 0
0.785641 1 0
0.912352 1 0
0 0 0.595315
0.0449226 0 0.556039
0.256336 0 0.503212
0.508995 0 0.413245
0.739391 0 0.331823
0.925795 0 0.261753
1 0 0.204532
1 0 0.160769
1 0 0.126452
0 0.135164 0.344732
0 0.0683146 0.520668
0.192294 0.0205234 0.473915
0.464775 0 0.396582
0.700236 0 0.322362
0.892744 0 0.262074
1 0 0.216678
1 0 0.181323
1 0 0.152483
0 0.292622 0.0577401
0 0.246891 0.226001
0.0674144 0.184741 0.434669
0.418418 0.127687 0.376837
0.653498 0.109209 0.310323
0.8477 0.098085 0.257221
1 0.0955825 0.214237
1 0.100404 0.181521
1 0.109987 0.157504
0 0.449012 0
0 0.42031 0.0787213
0.0031281 0.389029 0.211383
0.329595 0.32639 0.317235
0.565362 0.310246 0.267002
0.764385 0.299138 0.221317
0.941039 0.295232 0.182513
1 0.299306 0.151751
1 0.307774 0.126162
0 0.585077 0.0588998
0 0.561715 0.19617
0.00347906 0.539437 0.293675
0.228885 0.523186 0.268849
0.485084 0.500893 0.210208
0.684794 0.487511 0.173236
0.859281 0.48188 0.13492
1 0.482277 0.10277
1 0.486015 0.0753643
0 0.726314 0.169833
0 0.717556 0.261585
0 0.713237 0.289662
0.14435 0.702403 0.235431
0.400595 0.679881 0.158465
0.614237 0.658183 0.118883
0.790143 0.646738 0.088014
0.935424 0.643549 0.0567941
1 0.644678 0.0262303
0 0.881148 0.244312
0 0.880827 0.290974
0 0.881254 0.281773
0.0779278 0.867643 0.219287
0.323033 0.843442 0.13608
0.548196 0.815335 0.0742046
0.728603 0.797421 0.0411688
0.874968 0.788037 0.0139315
1 0.783902 0
0 1 0.295506
0 1 0.310155
0 1 0.282109
0.0262303 1 0.216358
0.262791 0.981537 0.131609
0.486198 0.950866 0.0519875
0.676722 0.926604 0.00674449
0.824811 0.912306 0
0.9505 0.903822 0
0 1 0.330648
0 1 0.323705
0 1 0.284581
0 1 0.216648
0.209583 1 0.131426
0.427344 1 0.0438849
0.624796 1 0
0.779141 1 0
0.905867 1 0
0 0.000198367 0.859297
0 0 0.846876
0.186938 0 0.76759
0.476997 0 0.698711
0.737118 0 0.605951
0.928664 0 0.530617
1 0 0.46743
1 0 0.41474
1 0 0.371771
0 0.140291 0.613733
0 0.0730449 0.785443
0.11191 0.0224918 0.753048
0.426581 0 0.68307
0.702022 0 0.599191
0.900511 0 0.534295
1 0 0.480064
1 0 0.437736
1 0 0.403311
0 0.319707 0.255543
0 0.264302 0.487892
0 0.198947 0.695583
0.358511 0.128603 0.65507
0.662776 0.0895552 0.588403
0.862226 0.0782025 0.528084
1 0.0775158 0.47808
1 0.0840925 0.440101
1 0.095491 0.407141
0 0.510689 0.00108339
0 0.478447 0.169055
0 0.436637 0.381872
0.173556 0.358999 0.588113
0.578317 0.29218 0.530694
0.774899 0.282902 0.472099
0.946731 0.281636 0.426749
1 0.287663 0.389029
1 0.297368 0.35874
0 0.659693 0
0 0.63473 0.103212
0 0.606485 0.249928
0.129946 0.554574 0.377035
0.486717 0.487282 0.467048
0.68426 0.475074 0.423102
0.859342 0.468986 0.384298
1 0.469245 0.352071
1 0.472663 0.32369
0 0.78352 0.109651
0 0.757992 0.260243
0 0.730694 0.394522
0.163226 0.686473 0.461631
0.400137 0.663874 0.428977
0.613138 0.643458 0.37409
0.785489 0.632975 0.34081
0.929488 0.630045 0.306386
1 0.630671 0.274189
0 0.910536 0.281971
0 0.892531 0.392935
0 0.873075 0.465019
0.103243 0.845457 0.466346
0.327733 0.824048 0.405554
0.540612 0.800671 0.330999
0.724178 0.781582 0.294957
0.868574 0.772396 0.267369
0.992386 0.768612 0.237186
0 1 0.399008
0 1 0.469047
0 1 0.499245
0.0474556 0.985214 0.467094
0.270115 0.959991 0.396277
0.475288 0.934691 0.315892
0.669734 0.91014 0.259022
0.817792 0.895445 0.230121
0.942824 0.886931 0.204761
0 1 0.475822
0 1 0.519142
0 1 0.521935
0 1 0.469871
0.217426 1 0.392248
0.418524 1 0.310079
0.613748 1 0.237446
0.771084 1 0.198138
0.897856 0.993606 0.172717
0 0.00280766 1
0 0 1
0.11548 0 1
0.411612 0 0.958831
0.713008 0 0.874891
0.924239 0 0.797513
1 0 0.736568
1 0 0.688334
1 0 0.644816
0 0.146014 0.868452
0 0.0793317 1
0.0317845 0.0255589 1
0.346197 0 0.937072
0.677134 0 0.869459
0.899718 0 0.799863
1 0 0.748623
1 0 0.706828
1 0 0.669001
0 0.336583 0.517037
0 0.278126 0.747036
0 0.213092 0.936294
0.251438 0.145678 0.923217
0.630945 0.0838026 0.860548
0.866682 0.0617838 0.79559
1 0.0594492 0.745953
1 0.066804 0.704219
1 0.0783551 0.667567
0 0.544457 0.186755
0 0.50399 0.413581
0 0.455726 0.644572
0.0355688 0.388937 0.844892
0.523766 0.295811 0.794461
0.784268 0.265171 0.738689
0.959457 0.263371 0.688396
1 0.270298 0.646204
1 0.281041 0.613016
0 0.714977 0.0130007
0 0.688914 0.17583
0 0.656138 0.358831
0 0.614359 0.560342
0.340917 0.517082 0.725582
0.694804 0.459098 0.673365
0.867109 0.454597 0.623011
1 0.456306 0.585489
1 0.460868 0.551461
0 0.855451 0.0322271
0 0.833219 0.173693
0 0.806378 0.316747
0 0.765988 0.442741
0.312352 0.692897 0.535744
0.612833 0.629725 0.617105
0.7832 0.620111 0.576715
0.927428 0.61651 0.542565
1 0.616617 0.51107
0 0.970123 0.202426
0 0.943328 0.343633
0 0.915358 0.477729
0.0501411 0.862043 0.574029
0.343603 0.807645 0.621347
0.537545 0.784817 0.58735
0.720836 0.766812 0.535866
0.862699 0.758053 0.506325
0.985122 0.754513 0.473075
0 1 0.390753
0 1 0.508217
0 1 0.607202
0.0548867 0.97499 0.646143
0.291325 0.938201 0.633234
0.477317 0.915724 0.572839
0.661311 0.895232 0.502892
0.812009 0.879591 0.470344
0.9355 0.871199 0.444526
0 1 0.533135
0 1 0.621515
0 1 0.67541
0.0209812 1 0.675608
0.236744 1 0.633249
0.423362 1 0.564095
0.602625 1 0.489616
0.762829 0.989364 0.43859
0.89041 0.977325 0.412604
0 0.00906386 1
0 0 1
0.0495308 0 1
0.327825 0 1
0.666072 0 1
0.908415 0 1
1 0 0.977966
1 0 0.931487
1 0 0.894484
0 0.155428 1
0 0.0899519 1
0 0.0331579 1
0.256657 0 1
0.622629 0 1
0.88365 0 1
1 0 0.99704
1 0 0.958709
1 0 0.927031
0 0.351858 0.766415
0 0.294057 0.973129
0 0.231815 1
0.13489 0.169909 1
0.556222 0.098085 1
0.848447 0.0559396 1
1 0.0465248 1
1 0.0521096 0.964813
1 0.0624704 0.931517
0 0.565103 0.442664
0 0.523079 0.667735
0 0.474632 0.884535
0 0.415778 1
0.420233 0.318273 1
0.758602 0.262211 0.990753
0.96495 0.249714 0.943267
1 0.254566 0.905821
1 0.265003 0.871153
0 0.749477 0.18854
0 0.718181 0.392508
0 0.681773 0.602014
0 0.637339 0.81355
0.188571 0.550057 0.963104
0.649226 0.462089 0.914137
0.875715 0.439902 0.873091
1 0.440543 0.83357
1 0.444633 0.798566
0 0.909621 0.0808118
0 0.886931 0.238819
0 0.860059 0.398505
0 0.827863 0.562539
0.0521401 0.762707 0.723827
0.491646 0.657237 0.849317
0.790921 0.605814 0.806607
0.932738 0.603265 0.764645
1 0.604044 0.730999
0 1 0.139849
0 1 0.276738
0 0.98352 0.405386
0 0.9505 0.52813
0.140978 0.881743 0.616419
0.467704 0.807736 0.690684
0.719478 0.754696 0.755657
0.859144 0.746502 0.722942
0.982712 0.742031 0.692546
0 1 0.307774
0 1 0.439017
0 1 0.570031
0 1 0.673121
0.245563 0.9523 0.732174
0.490959 0.901381 0.761852
0.657389 0.881453 0.73138
0.808179 0.866682 0.689265
0.930068 0.858259 0.6636
0 1 0.491447
0 1 0.614328
0 1 0.717372
0 1 0.769131
0.244938 1 0.782467
0.442496 1 0.765881
0.603784 0.992508 0.714412
0.755489 0.976623 0.658183
0.885771 0.963897 0.631785
0 0.0185855 1
0 0 1
0 0 1
0.244541 0 1
0.599542 0 1
0.87895 0 1
1 0 1
1 0 1
1 0 1
0 0.168933 1
0 0.104891 1
0 0.046479 1
0.166659 0.00308232 1
0.546868 0 1
0.850767 0 1
1 0 1
1 0 1
1 0 1
0 0.369787 0.977707
0 0.313573 1
0 0.255344 1
0.0268254 0.197391 1
0.463661 0.122087 1
0.803326 0.0649424 1
1 0.0429236 1
1 0.0434119 1
1 0.0516976 1
0 0.583703 0.686183
0 0.542275 0.890715
0 0.494911 1
0 0.439429 1
0.291112 0.350912 1
0.693904 0.279255 1
0.951644 0.246937 1
1 0.245243 1
1 0.252979 1
0 0.771771 0.433677
0 0.73875 0.635874
0 0.702022 0.837644
0 0.656397 1
0.0434882 0.585184 1
0.563592 0.482368 1
0.855634 0.438361 1
1 0.42977 1
1 0.431678 1
0 0.945144 0.246906
0 0.919142 0.425666
0 0.88957 0.605814
0 0.852354 0.794247
0 0.800595 0.960769
0.364248 0.690105 1
0.753918 0.609125 1
0.940307 0.59086 0.970672
1 0.590311 0.935531
0 1 0.190249
0 1 0.333211
0 1 0.473869
0 1 0.617609
0 0.95761 0.752026
0.246571 0.872175 0.851972
0.617533 0.777432 0.94612
0.86569 0.734707 0.910765
0.987945 0.730922 0.8748
0 1 0.256214
0 1 0.38291
0 1 0.506035
0 1 0.627802
0 1 0.709468
0.325261 0.965057 0.761959
0.601862 0.89926 0.818112
0.807385 0.856809 0.869551
0.927825 0.848707 0.841321
0 1 0.404059
0 1 0.534264
0 1 0.656031
0 1 0.755764
0.12047 1 0.808789
0.40444 1 0.847852
0.615854 0.980392 0.871336
0.753155 0.965515 0.846448
0.883772 0.95349 0.811673
0 0.0296788 1
0 0 1
0 0 1
0.162631 0 1
0.517266 0 1
0.836591 0 1
1 0 1
1 0 1
1 0 1
0 0.185657 1
0 0.122271 1
0 0.0645457 1
0.0806592 0.0225986 1
0.459709 0 1
0.801556 0 1
1 0 1
1 0 1
1 0 1
0 0.390463 1
0 0.336187 1
0 0.279561 1
0 0.222919 1
0.355901 0.151431 1
0.736904 0.0856794 1
1 0.0491951 1
1 0.0410925 1
1 0.0460517 1
0 0.603296 0.894408
0 0.562951 1
0 0.516884 1
0 0.462364 1
0.151095 0.388006 1
0.613916 0.304417 1
0.913191 0.257053 1
1 0.243549 1
1 0.246235 1
0 0.791577 0.669093
0 0.759182 0.857908
0 0.722789 1
0 0.678218 1
0 0.618463 1
0.456779 0.510277 1
0.801404 0.451743 1
1 0.427222 1
1 0.423407 1
0 0.969467 0.47042
0 0.941649 0.652018
0 0.910903 0.835599
0 0.874922 1
0 0.828733 1
0.227924 0.726055 1
0.680186 0.626764 1
0.923308 0.589288 1
1 0.580606 1
0 1 0.33666
0 1 0.492821
0 1 0.655177
0 1 0.813458
0 0.992782 0.960525
0.0710155 0.913558 1
0.507424 0.804608 1
0.83505 0.736645 1
0.994873 0.720043 1
0 1 0.297246
0 1 0.429633
0 1 0.564004
0 1 0.690791
0 1 0.807065
0.0691386 1 0.880903
0.409384 0.95552 0.949172
0.723156 0.875029 1
0.933913 0.838788 1
0 1 0.356054
0 1 0.479973
0 1 0.602655
0 1 0.710231
0 1 0.789715
0.18088 1 0.830213
0.472892 1 0.868544
0.708324 0.980224 0.920363
0.883772 0.945129 0.966705
