site/assets/luts/freshluts--0002335-retro-bl.cube
# LUTr-Schema-Version: 2
# LUTr-ID: freshluts--0002335-retro-bl
# LUTr-Title: retro bl
# LUTr-Collection: Fresh LUTs
# LUTr-Collection-ID: freshluts-community
# LUTr-Source: https://freshluts.com
# LUTr-Retrieved: 2026-07-27
# LUTr-Source-File: submissions-raw/freshluts/cubes/2335__retro_bl_10.C0133.cube
# LUTr-Source-Format: CUBE
# LUTr-Source-SHA256: 9397e95e58c574333709b15290279ca8cb9851b487c46880404bc519dd1a7dae
# LUTr-License: CC0-1.0
# LUTr-License-URL: https://freshluts.com/termsandconditions
# LUTr-License-Basis: site-terms
# LUTr-Transform-Class: creative-look
# LUTr-Tags: creative, freshluts, community, cube, cool, high-key, sony-s-log1, vintage
# LUTr-Input-Color-Space:
# LUTr-Input-Gamut: sony-s-gamut
# LUTr-Input-Transfer: sony-s-log1
# LUTr-Output-Color-Space: srgb
# LUTr-Output-Gamut: rec709
# LUTr-Output-Transfer: srgb
# LUTr-Color-Space-Confidence: camera-profile-input-required
# LUTr-Domain-Normalized: true
# LUTr-Shaper: none
# LUTr-Original-Grid: 17x17x17
# LUTr-Conversion-Grid: 17x17x17
# LUTr-Conversion-Interpolation: none
# LUTr-Conversion-Method: Metadata normalization; numeric LUT samples preserved
# LUTr-Conversion-Tool: LUTr scripts/convert-all-to-cube.mjs 2.0.0
# LUTr-Conversion-Date: 2026-07-28
# LUTr-Asset-URL: https://freshluts.com/luts/2335
# LUTr-Author: abhijith t s
# LUTr-Author-URL: https://freshluts.com/users/267812
# LUTr-Attribution: abhijith t s via Fresh LUTs
# LUTr-Source-Labels: gamma=Sony S-Log; color=Cool; key=High Key; style=Teal - Orange
# LUTr-Note: Preserve this metadata and the upstream license notices when redistributing.
TITLE "retro bl"
LUT_3D_SIZE 5
DOMAIN_MIN 0 0 0
DOMAIN_MAX 1 1 1
0.021088 0 0.0209812
0.145861 0 0.0544442
0.672618 0.113481 0.197803
1 0.268086 0.357534
1 0.277562 0.365179
0.0534524 0.0690471 0.0254826
0.0808881 0.0551614 0.0278325
0.632334 0.145434 0.163134
1 0.294102 0.343099
1 0.318761 0.363745
0.0428168 0.390768 0.170306
0.0450294 0.378271 0.1664
0.439094 0.348104 0.101122
0.997101 0.510842 0.103395
0.985107 0.578103 0.139635
0 0.746426 0.172961
0 0.736019 0.181796
0.208728 0.703639 0.197711
0.864363 0.725078 0
0.916823 0.87454 0
0 0.862486 0.00746166
0 0.86154 0.00729381
0 0.872938 0.00283818
0.857542 0.927092 0
0.895552 0.946822 0
0.0633707 0.00706493 0.297368
0.0705882 0.00697337 0.281956
0.607858 0.0163119 0.465599
1 0.163653 0.442557
1 0.153368 0.474159
0.0351873 0.102235 0.209659
0.0477302 0.0813306 0.190005
0.592767 0.110109 0.201465
1 0.269825 0.367147
1 0.278386 0.372854
0.0110475 0.386816 0.191333
0.0372473 0.376593 0.169497
0.430243 0.34197 0.103212
0.999756 0.497398 0.112459
0.989166 0.55787 0.160723
0 0.741604 0.177417
0 0.735058 0.183398
0.189837 0.699748 0.20029
0.860853 0.719738 0
0.918883 0.867109 0
0 0.86125 0
0 0.862089 0
0 0.870756 0
0.851164 0.924514 0
0.895552 0.946822 0
0.0373999 0.247745 0.781338
0.0833448 0.116396 0.779751
0.129747 0.0343786 0.796689
0.85655 0.0358282 1
0.847974 0.0386206 1
0 0.375875 0.68217
0 0.357168 0.695567
0.0788586 0.145083 0.702327
0.866148 0.209842 0.949325
0.94287 0.303639 1
0 0.40441 0.561669
0 0.395239 0.553872
0.0366979 0.405982 0.524453
0.946639 0.52726 0.549325
0.964431 0.541802 0.581765
0 0.762173 0.436011
0 0.751141 0.422431
0 0.712108 0.377325
0.754879 0.734905 0.338399
0.911208 0.853971 0.171542
0 0.867826 0.231296
0 0.864195 0.198627
0 0.863981 0.0679942
0.828412 0.9187 0
0.895521 0.946822 0
0 0.613657 0.938704
0 0.597833 0.954177
0.365057 0.360739 1
0.8038 0.0421454 1
0.995575 0.0782788 1
0 0.670497 0.922728
0 0.658289 0.926482
0.201724 0.49099 0.988525
0.750744 0.227543 1
1 0.141466 1
0 0.70898 0.880674
0 0.702953 0.879744
0 0.714336 0.914076
0.678111 0.49221 0.950149
0.946502 0.486305 1
0 0.820935 0.806638
0 0.809262 0.80238
0 0.779278 0.794293
0.369467 0.78526 0.771282
0.869612 0.878111 0.846922
0 0.956466 0.774136
0 0.953094 0.755673
0 0.940368 0.682826
0.38851 0.909194 0.509972
0.858839 0.973388 0.585336
0 0.614588 0.93106
0 0.591394 0.955383
0.561578 0.254902 1
1 0.0837415 1
1 0.0819867 1
0 0.680171 0.921981
0 0.658534 0.92752
0.396155 0.429023 0.994263
0.986404 0.137819 1
1 0.141649 1
0 0.770474 0.904555
0 0.762905 0.9066
0 0.775952 0.947143
0.8748 0.543862 1
0.969894 0.445151 1
0 0.936233 0.886351
0 0.926604 0.887312
0 0.89839 0.896284
0.535943 0.849989 0.911467
0.876173 0.808804 0.981369
0 0.971771 0.877791
0 0.971771 0.877791
0 0.972045 0.878798
0 0.991547 0.910567
0.841443 0.960754 0.903441
