site/assets/luts/freshluts--0001173-blackmagic-g5-filmlook.cube
# LUTr-Schema-Version: 2
# LUTr-ID: freshluts--0001173-blackmagic-g5-filmlook
# LUTr-Title: Blackmagic G5 Filmlook
# LUTr-Collection: Fresh LUTs
# LUTr-Collection-ID: freshluts-community
# LUTr-Source: https://freshluts.com
# LUTr-Retrieved: 2026-07-27
# LUTr-Source-File: submissions-raw/freshluts/cubes/1173__BM_G5_FILM_to_Cinematic.cube
# LUTr-Source-Format: CUBE
# LUTr-Source-SHA256: 63f26cffc9ca5d22df7ce5057e180d17c94ac3f7815f3a45ecf333518dea4f71
# LUTr-License: CC0-1.0
# LUTr-License-URL: https://freshluts.com/termsandconditions
# LUTr-License-Basis: site-terms
# LUTr-Transform-Class: creative-look
# LUTr-Tags: creative, freshluts, community, cube, film-emulation, rec709, assumed-input
# LUTr-Input-Color-Space: rec709
# LUTr-Input-Gamut: rec709
# LUTr-Input-Transfer: rec709
# LUTr-Output-Color-Space: srgb
# LUTr-Output-Gamut: rec709
# LUTr-Output-Transfer: srgb
# LUTr-Color-Space-Confidence: assumed-display-referred
# LUTr-Domain-Normalized: true
# LUTr-Shaper: none
# LUTr-Original-Grid: 33x33x33
# LUTr-Conversion-Grid: 33x33x33
# LUTr-Conversion-Interpolation: none
# LUTr-Conversion-Method: Metadata normalization; numeric LUT samples preserved
# LUTr-Conversion-Tool: LUTr scripts/convert-all-to-cube.mjs 2.0.0
# LUTr-Conversion-Date: 2026-07-28
# LUTr-Asset-URL: https://freshluts.com/luts/1173
# LUTr-Author: Revirssab
# LUTr-Author-URL: https://freshluts.com/users/9194
# LUTr-Attribution: Revirssab via Fresh LUTs
# LUTr-Source-Labels: gamma=Other; color=None; key=Neutral; style=Film emulation; LUTr assumption=input Rec.709 per repository policy
# LUTr-Conversion-Warning: Input Rec.709 is a LUTr catalog assumption requested for this otherwise unspecified Fresh LUT; it is not verified by the upstream asset.
# LUTr-Note: Preserve this metadata and the upstream license notices when redistributing.
TITLE "Blackmagic G5 Filmlook"
LUT_3D_SIZE 5
DOMAIN_MIN 0 0 0
DOMAIN_MAX 1 1 1
0.0236057 0.0184634 0.0592813
0.128679 0.0310063 0.034287
0.55874 0 0
0.70779 0 0
0.718624 0 0
0 0.148669 0.0450294
0.109621 0.131807 0.0372625
0.534066 0 0
0.703075 0 0
0.718624 0 0
0 0.466682 0
0 0.454566 0
0.76553 0.652506 0
0.95874 0.621088 0
0.952941 0.571984 0
0 0.581415 0
0 0.576822 0
0 0.576028 0
0.982773 0.869307 0
1 0.871717 0
0 0.592294 0
0 0.592294 0
0 0.592294 0
0.967559 0.885298 0
0.999969 0.884611 0
0.00628672 0.0000457771 0.177325
0.158541 0.0208286 0.160906
0.569482 0 0
0.712779 0 0
0.718624 0 0
0 0.157382 0.180346
0.104479 0.130129 0.134218
0.526909 0 0
0.701747 0 0
0.718624 0 0
0 0.465583 0
0 0.452964 0
0.757549 0.647501 0
0.955627 0.614923 0
0.948867 0.561334 0
0 0.580682 0
0 0.575891 0
0 0.575067 0
0.982162 0.868406 0
1 0.870771 0
0 0.592294 0
0 0.592294 0
0 0.592294 0
0.965331 0.885634 0
0.999939 0.884611 0
0 0 0.50956
0.0375677 0 0.51281
0.647654 0 0.584543
0.787594 0 0.58381
0.78114 0 0.458701
0 0 0.497795
0.00332647 0 0.485893
0.617411 0 0.556191
0.778378 0 0.5355
0.718624 0 0
0 0.604898 0.751659
0 0.590616 0.733349
0.745876 0.753689 0.761212
0.949203 0.661036 0.662791
0.9252 0.50013 0
0 0.579293 0
0 0.574624 0
0 0.57377 0
0.981582 0.867109 0
1 0.869703 0
0 0.592294 0
0 0.592294 0
0 0.592294 0
0.963333 0.885985 0
0.999725 0.884596 0
0 0 0.602258
0 0 0.601724
0.583062 0 0.68983
0.801541 0 0.725368
0.811688 0 0.72697
0 0 0.599802
0 0 0.598138
0.530251 0 0.68014
0.796231 0 0.720729
0.811643 0 0.722789
0 0 0.601511
0 0 0.599573
0.393698 0 0.661967
0.795834 0 0.720577
0.811627 0 0.721645
0 0.696925 0.859403
0 0.692393 0.856275
0 0.691478 0.85565
0.969451 0.961395 0.946334
0.999603 0.964782 0.945525
0 0.717189 0.862989
0 0.717189 0.860487
0 0.717189 0.859632
0.904143 0.97351 0.938567
0.998367 0.98294 0.944045
0 0 0.603922
0 0 0.603922
0.494636 0 0.680583
0.799558 0 0.725795
0.811688 0 0.727672
0 0 0.603922
0 0 0.603922
0.337484 0 0.659571
0.793942 0 0.724697
0.811688 0 0.727672
0 0 0.603922
0 0 0.603922
0 0 0.603922
0.793301 0 0.72459
0.811688 0 0.727672
0 0.689693 0.86125
0 0.683803 0.859739
0 0.682704 0.859495
0.964034 0.953994 0.952651
0.999329 0.956298 0.954452
0 0.717189 0.869368
0 0.717189 0.869368
0 0.717189 0.869368
0.842893 0.964843 0.944808
0.997391 0.983032 0.955749
