site/assets/luts/freshluts--0002290-day-f-knight.cube
# LUTr-Schema-Version: 2
# LUTr-ID: freshluts--0002290-day-f-knight
# LUTr-Title: Day F. Knight
# LUTr-Collection: Fresh LUTs
# LUTr-Collection-ID: freshluts-community
# LUTr-Source: https://freshluts.com
# LUTr-Retrieved: 2026-07-27
# LUTr-Source-File: submissions-raw/freshluts/cubes/2290__Day_F._Knight.cube
# LUTr-Source-Format: CUBE
# LUTr-Source-SHA256: 1aa7cac15f611d0b1bb91561e47616a8ba00eb30051dc6852d536f4e2c971aba
# LUTr-License: CC0-1.0
# LUTr-License-URL: https://freshluts.com/termsandconditions
# LUTr-License-Basis: site-terms
# LUTr-Transform-Class: creative-look
# LUTr-Tags: creative, freshluts, community, cube, blue, low-key, canon-log2
# LUTr-Input-Color-Space:
# LUTr-Input-Gamut: canon-cinema-gamut
# LUTr-Input-Transfer: canon-log2
# LUTr-Output-Color-Space: srgb
# LUTr-Output-Gamut: rec709
# LUTr-Output-Transfer: srgb
# LUTr-Color-Space-Confidence: camera-profile-input-required
# LUTr-Domain-Normalized: true
# LUTr-Shaper: none
# LUTr-Original-Grid: 16x16x16
# LUTr-Conversion-Grid: 16x16x16
# LUTr-Conversion-Interpolation: none
# LUTr-Conversion-Method: Metadata normalization; numeric LUT samples preserved
# LUTr-Conversion-Tool: LUTr scripts/convert-all-to-cube.mjs 2.0.0
# LUTr-Conversion-Date: 2026-07-28
# LUTr-Asset-URL: https://freshluts.com/luts/2290
# LUTr-Author: InAvision
# LUTr-Author-URL: https://freshluts.com/users/64078
# LUTr-Attribution: InAvision via Fresh LUTs
# LUTr-Source-Labels: gamma=Canon C-Log 2; color=Blue; key=Low Key; style=Cinematic/Dark
# LUTr-Note: Preserve this metadata and the upstream license notices when redistributing.
TITLE "Day F. Knight"
LUT_3D_SIZE 6
DOMAIN_MIN 0 0 0
DOMAIN_MAX 1 1 1
-0.063414 -0.080171 -0.109654
0.011054 -0.080171 -0.109654
0.047262 -0.080171 -0.109654
0.103743 -0.080171 -0.109654
0.163253 -0.080171 -0.109654
0.218719 -0.080171 -0.109654
-0.063414 0.026219 -0.109654
0.011054 0.026219 -0.109654
0.047262 0.015773 -0.109654
0.103743 0.014018 -0.109654
0.163253 0.0132 -0.109654
0.218719 0.01267 -0.109654
-0.063414 0.106498 -0.109654
0.006533 0.106498 -0.109654
0.047262 0.106498 -0.109654
0.103743 0.101421 -0.109654
0.163253 0.099078 -0.109654
0.218719 0.097574 -0.109654
-0.063414 0.202377 -0.109654
0.005783 0.202377 -0.109654
0.044922 0.202377 -0.109654
0.103743 0.202377 -0.109654
0.163253 0.199253 -0.109654
0.218719 0.19721 -0.109654
-0.063414 0.289344 -0.109654
0.005432 0.289344 -0.109654
0.043837 0.289344 -0.109654
0.101561 0.289344 -0.109654
0.163253 0.289344 -0.109654
0.218719 0.286828 -0.109654
-0.063414 0.371226 -0.109654
0.005206 0.371226 -0.109654
0.043159 0.371226 -0.109654
0.100161 0.371226 -0.109654
0.161518 0.371226 -0.109654
0.218719 0.371226 -0.109654
-0.063414 -0.080171 0.062429
0.011054 -0.080171 0.062429
0.047262 -0.080171 0.037763
0.103743 -0.080171 0.033602
0.163253 -0.080171 0.031663
0.218719 -0.080171 0.030403
-0.063414 0.026219 0.062429
0.011054 0.026219 0.062429
0.047262 0.026219 0.062429
0.103743 0.026219 0.062429
0.163253 0.026219 0.062429
0.218719 0.026219 0.062429
-0.063414 0.106498 0.037763
0.011054 0.106498 0.062429
0.047262 0.106498 0.062429
0.103743 0.106345 0.062429
0.163253 0.105631 0.062429
0.218719 0.104938 0.062429
-0.063414 0.202377 0.033602
0.011054 0.202377 0.062429
0.047179 0.202377 0.062429
0.103743 0.202377 0.062429
0.163253 0.201331 0.062429
0.218719 0.200222 0.062429
-0.063414 0.289344 0.031663
0.011054 0.289344 0.062429
0.046871 0.289344 0.062429
0.103023 0.289344 0.062429
0.163253 0.289344 0.062429
0.218719 0.287939 0.062429
-0.063414 0.371226 0.030403
0.011054 0.371226 0.062429
0.046544 0.371226 0.062429
0.102262 0.371226 0.062429
0.162283 0.371226 0.062429
0.218719 0.371226 0.062429
-0.063414 -0.080171 0.228963
0.006533 -0.080171 0.228963
0.047262 -0.080171 0.228963
0.103743 -0.080171 0.220689
0.163253 -0.080171 0.216831
0.218719 -0.080171 0.214312
-0.063414 0.015773 0.228963
0.011054 0.026219 0.228963
0.047262 0.026219 0.228963
0.103743 0.026219 0.22868
0.163253 0.026219 0.227567
0.218719 0.026219 0.226451
-0.063414 0.106498 0.228963
0.011054 0.106498 0.228963
0.047262 0.106498 0.228963
0.103743 0.106498 0.228963
0.163253 0.106498 0.228963
0.218719 0.106498 0.228963
-0.063414 0.202377 0.220689
0.011054 0.202377 0.22868
0.047262 0.202378 0.228963
0.103743 0.202378 0.228963
0.163253 0.201585 0.228963
0.218719 0.200869 0.228963
-0.063414 0.289344 0.216831
0.011054 0.289344 0.227567
0.047262 0.289344 0.228963
0.103186 0.289344 0.228963
0.163253 0.289344 0.228963
0.218719 0.288185 0.228963
-0.063414 0.371226 0.214312
0.011054 0.371226 0.226451
0.047262 0.371226 0.228963
0.102692 0.371226 0.228963
0.162426 0.371226 0.228963
0.218719 0.371226 0.228963
-0.063414 -0.080171 0.380756
0.005783 -0.080171 0.380756
0.044922 -0.080171 0.380756
0.103743 -0.080171 0.380756
0.163253 -0.080171 0.375828
0.218719 -0.080171 0.372543
-0.063414 0.014018 0.380756
0.011054 0.026219 0.380756
0.047179 0.026219 0.380756
0.103743 0.026219 0.380756
0.163253 0.026219 0.379161
0.218719 0.026219 0.377346
-0.063414 0.101421 0.380756
0.011054 0.106345 0.380756
0.047262 0.106498 0.380757
0.103743 0.106498 0.380757
0.163253 0.106498 0.379551
0.218719 0.106498 0.378373
-0.063414 0.202377 0.380756
0.011054 0.202377 0.380756
0.047262 0.202378 0.380757
0.103743 0.202377 0.380756
0.163253 0.202377 0.380756
0.218719 0.202377 0.380756
-0.063414 0.289344 0.375828
0.011054 0.289344 0.379161
0.047262 0.289344 0.379551
0.103743 0.289344 0.380756
0.163253 0.289344 0.380756
0.218719 0.288753 0.380756
-0.063414 0.371226 0.372543
0.011054 0.371226 0.377346
0.047262 0.371226 0.378373
0.103743 0.371226 0.380756
0.162816 0.371226 0.380756
0.218719 0.371226 0.380756
-0.063414 -0.080171 0.517655
0.005432 -0.080171 0.517655
0.043837 -0.080171 0.517655
0.101561 -0.080171 0.517655
0.163253 -0.080171 0.517655
0.218719 -0.080171 0.513709
-0.063414 0.0132 0.517655
0.011054 0.026219 0.517655
0.046871 0.026219 0.517655
0.103023 0.026219 0.517655
0.163253 0.026219 0.517655
0.218719 0.026219 0.515473
-0.063414 0.099078 0.517655
0.011054 0.105631 0.517655
0.047262 0.106498 0.517655
0.103186 0.106498 0.517655
0.163253 0.106498 0.517655
0.218719 0.106498 0.515894
-0.063414 0.199253 0.517655
0.011054 0.201331 0.517655
0.047262 0.201585 0.517655
0.103743 0.202377 0.517656
0.163253 0.202377 0.517656
0.218719 0.202377 0.516733
-0.063414 0.289344 0.517655
0.011054 0.289344 0.517655
0.047262 0.289344 0.517655
0.103743 0.289344 0.517656
0.163253 0.289344 0.517655
0.218719 0.289344 0.517655
-0.063414 0.371226 0.513709
0.011054 0.371226 0.515473
0.047262 0.371226 0.515894
0.103743 0.371226 0.516733
0.163253 0.371226 0.517655
0.218719 0.371226 0.517655
-0.063414 -0.080171 0.645753
0.005206 -0.080171 0.645753
0.043159 -0.080171 0.645753
0.100161 -0.080171 0.645753
0.161518 -0.080171 0.645753
0.218719 -0.080171 0.645753
-0.063414 0.01267 0.645753
0.011054 0.026219 0.645753
0.046544 0.026219 0.645753
0.102262 0.026219 0.645753
0.162283 0.026219 0.645753
0.218719 0.026219 0.645753
-0.063414 0.097574 0.645753
0.011054 0.104938 0.645753
0.047262 0.106498 0.645753
0.102692 0.106498 0.645753
0.162426 0.106498 0.645753
0.218719 0.106498 0.645753
-0.063414 0.19721 0.645753
0.011054 0.200222 0.645753
0.047262 0.200869 0.645753
0.103743 0.202377 0.645753
0.162816 0.202377 0.645753
0.218719 0.202377 0.645753
-0.063414 0.286828 0.645753
0.011054 0.287939 0.645753
0.047262 0.288185 0.645753
0.103743 0.288753 0.645753
0.163253 0.289344 0.645753
0.218719 0.289344 0.645753
-0.063414 0.371226 0.645753
0.011054 0.371226 0.645753
0.047262 0.371226 0.645753
0.103743 0.371226 0.645753
0.163253 0.371226 0.645753
0.218719 0.371226 0.645753
