site/assets/luts/freshluts--0002722-aliyen.cube
# LUTr-Schema-Version: 2
# LUTr-ID: freshluts--0002722-aliyen
# LUTr-Title: Aliyen
# LUTr-Collection: Fresh LUTs
# LUTr-Collection-ID: freshluts-community
# LUTr-Source: https://freshluts.com
# LUTr-Retrieved: 2026-07-27
# LUTr-Source-File: submissions-raw/freshluts/cubes/2722__Alien_Covenant_-_S-Log2-vk.com-3dluts.cube
# LUTr-Source-Format: CUBE
# LUTr-Source-SHA256: 342566c0620174264a94e503634fece486fd29829b697515f439ae90f88b1fe7
# LUTr-License: CC0-1.0
# LUTr-License-URL: https://freshluts.com/termsandconditions
# LUTr-License-Basis: site-terms
# LUTr-Transform-Class: creative-look
# LUTr-Tags: creative, freshluts, community, cube, blue, sony-s-log2
# LUTr-Input-Color-Space: sony-slog2-sgamut
# LUTr-Input-Gamut: sony-s-gamut
# LUTr-Input-Transfer: sony-s-log2
# LUTr-Output-Color-Space: srgb
# LUTr-Output-Gamut: rec709
# LUTr-Output-Transfer: srgb
# LUTr-Color-Space-Confidence: inferred-from-source-label
# LUTr-Domain-Normalized: true
# LUTr-Shaper: none
# LUTr-Original-Grid: 16x16x16
# LUTr-Conversion-Grid: 16x16x16
# LUTr-Conversion-Interpolation: none
# LUTr-Conversion-Method: Metadata normalization; numeric LUT samples preserved
# LUTr-Conversion-Tool: LUTr scripts/convert-all-to-cube.mjs 2.0.0
# LUTr-Conversion-Date: 2026-07-28
# LUTr-Asset-URL: https://freshluts.com/luts/2722
# LUTr-Author: Foysal Fahid
# LUTr-Author-URL: https://freshluts.com/users/521596
# LUTr-Attribution: Foysal Fahid via Fresh LUTs
# LUTr-Source-Labels: gamma=Sony S-Log 2; color=Blue; key=Neutral; style=Colorful
# LUTr-Note: Preserve this metadata and the upstream license notices when redistributing.
TITLE "Aliyen"
LUT_3D_SIZE 6
DOMAIN_MIN 0 0 0
DOMAIN_MAX 1 1 1
0 0 0
0.169817 0.02486 0.0358
0.584762 0.033162 0.198828
0.945055 0 0.311795
0.945299 0.002637 0.377045
0.945299 0.004393 0.397285
0.013236 0.138657 0.021099
0.107175 0.146452 0.029753
0.580669 0.104127 0.188777
0.945094 0.01893 0.304977
0.945299 0.002071 0.372005
0.945299 0.004002 0.392886
0 0.408889 0.224274
0 0.407814 0.223658
0.363868 0.455854 0.149158
0.957421 0.501607 0.195604
0.989724 0.470115 0.310183
0.98911 0.457212 0.340078
0 0.651038 0.383346
0 0.650384 0.383004
0 0.644405 0.379644
0.63873 0.739077 0.24043
0.995839 0.821216 0.043487
0.996336 0.815931 0.075664
0 0.784127 0.45177
0 0.784127 0.45177
0 0.784108 0.451751
0.168293 0.791971 0.432879
0.81812 0.916298 0.338647
0.912917 0.947156 0.244593
0 0.784127 0.45177
0 0.784127 0.45177
0 0.784127 0.45177
0.016737 0.789834 0.438124
0.708736 0.884251 0.426088
0.899661 0.946691 0.263965
0.002344 0.009719 0.11326
0.147106 0.048537 0.159844
0.583795 0.039072 0.243214
0.945221 0.000645 0.342398
0.945309 0.004698 0.400791
0.945397 0.0062 0.419703
0.008928 0.149197 0.180571
0.098364 0.151643 0.175092
0.580302 0.153139 0.232518
0.945733 0.045888 0.324671
0.94922 0.045562 0.38469
0.949303 0.046765 0.4027
0 0.407971 0.233035
0.000023 0.406726 0.233047
0.36682 0.453204 0.197421
0.95859 0.47698 0.264567
0.989839 0.467972 0.345725
0.989802 0.466269 0.369029
0 0.649602 0.382593
0 0.648235 0.381894
0 0.641973 0.378196
0.651681 0.737235 0.237074
0.997269 0.802852 0.110566
0.998211 0.792583 0.209132
0 0.784127 0.45177
0 0.784127 0.45177
0 0.783889 0.451643
0.180019 0.793493 0.432176
0.828435 0.918273 0.327287
0.914821 0.945994 0.240122
0 0.784127 0.45177
0 0.784127 0.45177
0 0.784127 0.45177
0.03867 0.789278 0.436575
0.722746 0.888547 0.418416
0.908389 0.949554 0.25499
0 0.060415 0.363175
0.107829 0.077158 0.355858
0.46991 0.132005 0.438164
0.902711 0.044874 0.535521
0.877011 0.065895 0.560674
0.866829 0.074079 0.568974
0 0.075731 0.366193
0.056768 0.084825 0.358676
0.442299 0.140882 0.43249
0.89054 0.044173 0.524077
0.886826 0.057991 0.551859
0.878459 0.064664 0.558692
0.127228 0.415551 0.445226
0.127516 0.414017 0.44566
0.359125 0.436132 0.470103
0.9466 0.487902 0.518826
0.990541 0.486928 0.548683
0.990262 0.487293 0.561316
0.037451 0.663766 0.544557
0.04101 0.662992 0.545872
0.074569 0.658329 0.555364
0.633358 0.745282 0.543541
0.998568 0.788482 0.503863
0.99836 0.781061 0.52176
0 0.794872 0.514081
0 0.794944 0.51546
0 0.79985 0.54427
0.168457 0.829939 0.604093
0.82266 0.947229 0.598627
0.927177 0.966472 0.551418
0 0.794484 0.504438
0 0.794621 0.505551
0 0.795988 0.513246
0.012898 0.823019 0.576528
0.707358 0.926379 0.631207
0.908133 0.972147 0.538869
0 0.109792 0.59116
0.042188 0.108972 0.553065
0.406252 0.17223 0.585221
0.660523 0.226862 0.659341
0.647219 0.235155 0.669353
0.643082 0.237748 0.673303
0 0.109431 0.58948
0.024643 0.105889 0.556032
0.398463 0.169706 0.583156
0.65787 0.226448 0.657592
0.654468 0.230578 0.665149
0.652145 0.231997 0.666597
0.059761 0.379009 0.60086
0.055658 0.375238 0.601565
0.242129 0.377848 0.636995
0.68554 0.39631 0.71243
0.722837 0.393032 0.728041
0.71067 0.385564 0.728067
0.276943 0.64675 0.64886
0.277896 0.644915 0.648541
0.284056 0.639156 0.649821
0.666419 0.716958 0.7366
0.952334 0.77188 0.807072
0.950899 0.773886 0.812942
0.183131 0.828611 0.742857
0.186567 0.828486 0.743621
0.202751 0.825659 0.74609
0.365371 0.846367 0.778552
0.81119 0.931882 0.838787
0.913817 0.948054 0.818004
0.151119 0.834433 0.739987
0.156167 0.834531 0.741101
0.175186 0.834873 0.74569
0.260233 0.848897 0.767902
0.708143 0.931149 0.854219
0.863437 0.969907 0.830326
0 0.147888 0.741539
0.019858 0.138169 0.692992
0.39117 0.179009 0.701978
0.617524 0.248742 0.757324
0.617299 0.248791 0.759414
0.617192 0.248791 0.760146
0 0.147546 0.740366
0.011046 0.138737 0.701279
0.382498 0.177106 0.700943
0.61708 0.248582 0.757212
0.6172 0.248822 0.760109
0.61725 0.248791 0.759669
0 0.3124 0.720127
0 0.302332 0.725163
0.171413 0.271226 0.728653
0.601983 0.305758 0.774316
0.626063 0.303092 0.782804
0.627201 0.307438 0.785098
0.325246 0.626432 0.730002
0.32185 0.623355 0.730409
0.314237 0.618491 0.735543
0.600198 0.700447 0.865174
0.758011 0.74323 0.963091
0.758487 0.747542 0.965993
0.37474 0.811155 0.800655
0.376668 0.809038 0.800039
0.384328 0.804699 0.800537
0.521729 0.825993 0.826925
0.891862 0.899272 0.901949
0.924954 0.913131 0.920437
0.357134 0.8379 0.81212
0.359576 0.8379 0.813194
0.366872 0.837821 0.816123
0.436328 0.853609 0.838091
0.844759 0.923435 0.908378
0.935911 0.93952 0.929313
0 0.153846 0.764591
0.016948 0.142711 0.713895
0.388183 0.180171 0.714432
0.617094 0.24884 0.760928
0.617094 0.24884 0.760928
0.617094 0.24884 0.760928
0 0.153846 0.764591
0.009523 0.144332 0.724015
0.379751 0.178501 0.713534
0.616625 0.248664 0.760791
0.617094 0.24884 0.760928
0.617094 0.24884 0.760928
0 0.244608 0.764695
0 0.242224 0.76366
0.175883 0.239256 0.739345
0.597935 0.29348 0.778735
0.621358 0.285554 0.778073
0.620425 0.281412 0.776188
0.30285 0.62062 0.76995
0.298182 0.617231 0.770507
0.288817 0.612057 0.775725
0.582481 0.697163 0.90991
0.748128 0.730369 0.975253
0.747168 0.727133 0.974566
0.418358 0.802261 0.816777
0.419421 0.799429 0.815353
0.42464 0.795307 0.815734
0.550549 0.816845 0.839776
0.870269 0.893704 0.922371
0.886847 0.900387 0.939112
0.406537 0.837363 0.834159
0.407661 0.837363 0.834506
0.412992 0.837363 0.837436
0.477805 0.853779 0.858987
0.870993 0.920208 0.915575
0.937168 0.931343 0.933285
