site/assets/luts/freshluts--0001238-correction-cine1.cube
# LUTr-Schema-Version: 2
# LUTr-ID: freshluts--0001238-correction-cine1
# LUTr-Title: Correction-cine1
# LUTr-Collection: Fresh LUTs
# LUTr-Collection-ID: freshluts-community
# LUTr-Source: https://freshluts.com
# LUTr-Retrieved: 2026-07-27
# LUTr-Source-File: submissions-raw/freshluts/cubes/1238__correction-cine1.cube
# LUTr-Source-Format: CUBE
# LUTr-Source-SHA256: 48c18b40689fdc9670b7b95fd0941c548b97752e20d3aae32e233394878a0301
# LUTr-License: CC0-1.0
# LUTr-License-URL: https://freshluts.com/termsandconditions
# LUTr-License-Basis: site-terms
# LUTr-Transform-Class: creative-look
# LUTr-Tags: creative, freshluts, community, cube, purple, low-key, sony-s-log3, correction
# LUTr-Input-Color-Space: sony-slog3-sgamut3
# LUTr-Input-Gamut: sony-s-gamut3
# LUTr-Input-Transfer: sony-s-log3
# LUTr-Output-Color-Space: srgb
# LUTr-Output-Gamut: rec709
# LUTr-Output-Transfer: srgb
# LUTr-Color-Space-Confidence: inferred-from-source-label
# LUTr-Domain-Normalized: true
# LUTr-Shaper: none
# LUTr-Original-Grid: 16x16x16
# LUTr-Conversion-Grid: 16x16x16
# LUTr-Conversion-Interpolation: none
# LUTr-Conversion-Method: Metadata normalization; numeric LUT samples preserved
# LUTr-Conversion-Tool: LUTr scripts/convert-all-to-cube.mjs 2.0.0
# LUTr-Conversion-Date: 2026-07-28
# LUTr-Asset-URL: https://freshluts.com/luts/1238
# LUTr-Author: lvannoeun@gmail.com
# LUTr-Author-URL: https://freshluts.com/users/57563
# LUTr-Attribution: lvannoeun@gmail.com via Fresh LUTs
# LUTr-Source-Labels: gamma=Sony S-Log 3; color=Purple; key=Low Key; style=cine drama
# LUTr-Note: Preserve this metadata and the upstream license notices when redistributing.
TITLE "Correction-cine1"
LUT_3D_SIZE 6
DOMAIN_MIN 0 0 0
DOMAIN_MAX 1 1 1
0 0 0
0.149009 -0.000773 -0.000773
0.361881 -0.001589 -0.001589
0.58383 -0.002406 -0.002406
0.799731 -0.003181 -0.003181
0.96931 -0.003828 -0.003828
-0.001372 0.158877 -0.001372
0.149008 0.158877 -0.001507
0.361881 0.164183 -0.002006
0.58383 0.166119 -0.002669
0.799731 0.16446 -0.003362
0.96931 0.156849 -0.003957
-0.002818 0.372808 -0.002818
0.154312 0.372808 -0.002874
0.361904 0.372807 -0.003095
0.58383 0.376852 -0.003521
0.79973 0.373312 -0.004017
0.96931 0.357356 -0.004454
-0.004267 0.595643 -0.004267
0.156231 0.595643 -0.004299
0.365863 0.595643 -0.004433
0.583828 0.595643 -0.004688
0.799728 0.590241 -0.005018
0.969309 0.56551 -0.005277
-0.005643 0.812185 -0.005643
0.154588 0.812185 -0.005665
0.362422 0.812184 -0.005755
0.578498 0.812184 -0.005931
0.799726 0.812183 -0.006199
0.969307 0.778548 -0.006308
-0.00679 0.994634 -0.00679
0.147016 0.994634 -0.006805
0.346558 0.994634 -0.006868
0.553866 0.994634 -0.006995
0.766238 0.994633 -0.007191
0.969304 0.994633 -0.007458
-0.000565 -0.000565 0.121184
0.149009 -0.000908 0.121184
0.361881 -0.001646 0.127283
0.58383 -0.002439 0.129501
0.799731 -0.003204 0.127595
0.96931 -0.003843 0.118883
-0.001437 0.158877 0.121183
0.14648 0.15918 0.124272
0.383183 0.144767 0.110629
0.616109 0.118751 0.086238
0.830961 0.098258 0.068098
0.986411 0.086315 0.058497
-0.002844 0.372808 0.127278
0.095873 0.37839 0.084346
0.36007 0.375071 0.067236
0.5989 0.370386 0.056268
0.820789 0.35996 0.046753
0.983523 0.34039 0.040578
-0.004283 0.595643 0.129495
0.069237 0.600073 0.065098
0.343576 0.60003 0.040884
0.582744 0.597417 0.038053
0.807382 0.588255 0.035074
0.977391 0.561233 0.033095
-0.005653 0.812185 0.127593
0.059758 0.815502 0.058777
0.331423 0.816125 0.030294
0.567966 0.814938 0.029453
0.798897 0.813571 0.028349
0.972304 0.778283 0.027952
-0.006797 0.994634 0.118869
0.148988 0.994634 0.121175
0.347208 0.994634 0.121174
0.554169 0.994634 0.121187
0.766326 0.994633 0.121183
0.969304 0.994633 0.121178
-0.00116 -0.00116 0.368446
0.154324 -0.001336 0.368446
0.361881 -0.001865 0.368445
0.58383 -0.002576 0.373152
0.799731 -0.003297 0.369054
0.96931 -0.00391 0.35048
-0.001726 0.164184 0.368445
0.138598 0.152606 0.399874
0.380227 0.137743 0.394725
0.612964 0.114539 0.383992
0.8291 0.096256 0.366936
0.985815 0.085312 0.342195
-0.002953 0.372808 0.368443
0.09278 0.376497 0.375907
0.356393 0.373512 0.37526
0.607593 0.362334 0.364466
0.843566 0.344693 0.347456
0.991219 0.342221 0.342666
-0.004346 0.595643 0.373148
0.068557 0.599459 0.362044
0.302865 0.605392 0.332426
0.57886 0.599598 0.318621
0.824066 0.584274 0.303206
0.98932 0.55899 0.307616
-0.005696 0.812184 0.369074
0.059593 0.815247 0.35134
0.2509 0.824144 0.290696
0.535113 0.822924 0.263567
0.795438 0.817209 0.253338
0.981017 0.779444 0.248866
-0.006826 0.994634 0.350468
0.148988 0.994634 0.351353
0.361873 0.994634 0.368421
0.561093 0.994634 0.36842
0.769116 0.994633 0.368418
0.969304 0.994633 0.368416
-0.001756 -0.001756 0.628007
0.156245 -0.001863 0.628007
0.365874 -0.002246 0.628007
0.58383 -0.002825 0.628006
0.799731 -0.003475 0.621707
0.96931 -0.004039 0.592865
-0.002138 0.166121 0.628007
0.122065 0.138878 0.679762
0.375769 0.125037 0.674321
0.607413 0.107451 0.659931
0.82531 0.092687 0.639101
0.984627 0.083445 0.601466
-0.003188 0.376853 0.628006
0.087117 0.375476 0.651858
0.3502 0.368308 0.668354
0.604208 0.356935 0.662518
0.84147 0.339133 0.646038
0.991074 0.338445 0.60831
-0.004472 0.595643 0.628005
0.067321 0.598414 0.633386
0.297327 0.602475 0.643666
0.575273 0.596685 0.638648
0.822083 0.587069 0.629171
0.988658 0.580558 0.620639
-0.005781 0.812184 0.621704
0.059262 0.814904 0.617915
0.248208 0.822487 0.60642
0.527762 0.823182 0.600578
0.791729 0.816714 0.590444
0.982436 0.786749 0.585606
-0.006887 0.994634 0.59286
0.148987 0.994634 0.593212
0.361872 0.994634 0.601343
0.583824 0.994634 0.628
0.778379 0.994633 0.627999
0.969304 0.994633 0.627999
-0.002323 -0.002323 0.880951
0.154601 -0.002395 0.880951
0.362442 -0.002675 0.880951
0.578502 -0.003143 0.88095
0.79973 -0.003735 0.880949
0.96931 -0.004236 0.841599
-0.002593 0.164464 0.880951
0.104255 0.124146 0.939451
0.363357 0.111706 0.93605
0.594676 0.099619 0.922443
0.82076 0.088052 0.909013
0.982917 0.080901 0.859855
-0.003456 0.373315 0.88095
0.081407 0.368149 0.913304
0.344489 0.362535 0.935237
0.590613 0.352872 0.933282
0.833297 0.335755 0.92972
0.990714 0.332171 0.874653
-0.004625 0.590242 0.880948
0.065988 0.590987 0.894503
0.290971 0.592399 0.926416
0.57089 0.592412 0.923236
0.817675 0.582978 0.918699
0.988127 0.576902 0.878588
-0.005913 0.812184 0.880945
0.05882 0.814288 0.884763
0.244134 0.820205 0.897218
0.522072 0.820157 0.901553
0.788241 0.813551 0.89518
0.979741 0.806168 0.887857
-0.006983 0.994634 0.841593
0.148985 0.994634 0.841739
0.361871 0.994634 0.844983
0.583824 0.994633 0.855968
0.799723 0.994633 0.880941
0.969304 0.994632 0.88094
-0.002794 -0.002794 1.078649
0.147043 -0.002846 1.078649
0.346578 -0.003052 1.078649
0.553873 -0.00342 1.078649
0.766244 -0.003915 1.078649
0.96931 -0.004494 1.078648
-0.002991 0.156856 1.078649
0.149012 0.158871 1.078649
0.347249 0.158882 1.078649
0.554178 0.15888 1.078649
0.766194 0.158877 1.078648
0.969309 0.158872 1.078648
-0.003678 0.35736 1.078649
0.149007 0.358049 1.078649
0.3619 0.372803 1.078648
0.561099 0.372802 1.078648
0.769122 0.372799 1.078648
0.969309 0.372796 1.078648
-0.004693 0.56551 1.078648
0.149009 0.56586 1.078648
0.361893 0.572818 1.078648
0.583828 0.595642 1.078648
0.778383 0.595641 1.078648
0.969307 0.595641 1.078647
-0.005866 0.778549 1.078647
0.149002 0.778655 1.078647
0.361884 0.781483 1.078647
0.583826 0.790952 1.078647
0.799725 0.812183 1.078647
0.969306 0.812182 1.078647
-0.007115 0.994634 1.078646
0.148983 0.994634 1.078646
0.361869 0.994633 1.078646
0.583824 0.994633 1.078646
0.799723 0.994633 1.078646
0.969303 0.994632 1.078646
