site/assets/luts/freshluts--0000985-night-shift.cube
# LUTr-Schema-Version: 2
# LUTr-ID: freshluts--0000985-night-shift
# LUTr-Title: Night Shift
# LUTr-Collection: Fresh LUTs
# LUTr-Collection-ID: freshluts-community
# LUTr-Source: https://freshluts.com
# LUTr-Retrieved: 2026-07-27
# LUTr-Source-File: submissions-raw/freshluts/cubes/985__Night_Shift.cube
# LUTr-Source-Format: CUBE
# LUTr-Source-SHA256: 1e03f8a8cab47819b52040200311b9463520c71527185f35eee79dd2b84da8ec
# LUTr-License: CC0-1.0
# LUTr-License-URL: https://freshluts.com/termsandconditions
# LUTr-License-Basis: site-terms
# LUTr-Transform-Class: creative-look
# LUTr-Tags: creative, freshluts, community, cube, high-contrast, high-key, rec709
# LUTr-Input-Color-Space: rec709
# LUTr-Input-Gamut: rec709
# LUTr-Input-Transfer: rec709
# LUTr-Output-Color-Space: srgb
# LUTr-Output-Gamut: rec709
# LUTr-Output-Transfer: srgb
# LUTr-Color-Space-Confidence: declared-by-source
# LUTr-Domain-Normalized: true
# LUTr-Shaper: none
# LUTr-Original-Grid: 32x32x32
# LUTr-Conversion-Grid: 32x32x32
# LUTr-Conversion-Interpolation: none
# LUTr-Conversion-Method: Metadata normalization; numeric LUT samples preserved
# LUTr-Conversion-Tool: LUTr scripts/convert-all-to-cube.mjs 2.0.0
# LUTr-Conversion-Date: 2026-07-28
# LUTr-Asset-URL: https://freshluts.com/luts/985
# LUTr-Author: ButterflyBD
# LUTr-Author-URL: https://freshluts.com/users/53416
# LUTr-Attribution: ButterflyBD via Fresh LUTs
# LUTr-Source-Labels: gamma=Rec 709; color=None; key=High Key; style=High contrast
# LUTr-Note: Preserve this metadata and the upstream license notices when redistributing.
# LUTr-Upstream-Comment: Created by: Adobe Photoshop Export Color Lookup Plugin
# LUTr-Upstream-Comment: LUT size
# LUTr-Upstream-Comment: data domain
# LUTr-Upstream-Comment: LUT data points
TITLE "Night Shift"
LUT_3D_SIZE 32
DOMAIN_MIN 0 0 0
DOMAIN_MAX 1 1 1
0.017639 0.019226 0.018311
0.041779 0.015045 0.017761
0.065979 0.010895 0.017242
0.103333 0.00412 0.016693
0.13623 0.00293 0.018311
0.167023 0.003845 0.020599
0.197906 0.004761 0.023071
0.228821 0.005829 0.025574
0.280762 0.007019 0.029572
0.317719 0.008148 0.032776
0.3526 0.00946 0.035919
0.386932 0.01062 0.039124
0.421082 0.012054 0.04248
0.455261 0.013977 0.045929
0.489746 0.016602 0.049347
0.52417 0.019287 0.052765
0.558441 0.022156 0.056335
0.592529 0.025238 0.059998
0.626282 0.028381 0.063904
0.659637 0.031464 0.067963
0.692261 0.034607 0.072113
0.724487 0.037598 0.076569
0.756409 0.04071 0.081238
0.787567 0.043884 0.086121
0.817963 0.046936 0.091003
0.848236 0.049957 0.095978
0.878693 0.05307 0.100922
0.904205 0.061279 0.107727
0.928528 0.070953 0.115112
0.952972 0.080811 0.122498
0.977539 0.090454 0.129883
0.996826 0.098938 0.136505
0.016907 0.05011 0.013977
0.042877 0.04776 0.013397
0.066162 0.040619 0.009827
0.103516 0.027893 0.002869
0.136444 0.025085 0.00473
0.167236 0.026428 0.008972
0.19812 0.027954 0.012451
0.229004 0.029388 0.015747
0.280975 0.031097 0.020599
0.317871 0.032745 0.024048
0.352722 0.034698 0.027313
0.387054 0.036438 0.030701
0.421265 0.038239 0.03421
0.455444 0.040314 0.037781
0.489838 0.042389 0.041473
0.524292 0.044495 0.045258
0.558594 0.046692 0.049164
0.592651 0.04892 0.053253
0.626404 0.05127 0.057373
0.659729 0.053558 0.061737
0.692352 0.055939 0.066193
0.724579 0.058258 0.070831
0.7565 0.060638 0.075867
0.787689 0.063202 0.080872
0.818054 0.065796 0.085876
0.848358 0.068237 0.091095
0.878784 0.070923 0.09613
0.904205 0.078766 0.103271
0.928558 0.08786 0.111115
0.953003 0.097198 0.118896
0.977539 0.106659 0.126648
0.996826 0.114594 0.133392
0.016083 0.091217 0.007874
0.043976 0.091309 0.006592
0.07132 0.09021 0.006775
0.103729 0.076691 0.003418
0.136719 0.066376 0.001617
0.167572 0.06076 0.002045
0.198364 0.057129 0.002533
0.229248 0.055969 0.004547
0.281158 0.057281 0.010803
0.318054 0.058716 0.014893
0.352936 0.060211 0.018738
0.387268 0.06189 0.02243
0.421478 0.063477 0.026276
0.455658 0.065125 0.030243
0.490021 0.066864 0.03421
0.524445 0.068634 0.038239
0.558746 0.070496 0.042328
0.592773 0.072327 0.04657
0.626587 0.07428 0.050995
0.659882 0.076233 0.055511
0.692505 0.078369 0.060059
0.724792 0.080353 0.064911
0.756653 0.082458 0.069977
0.787842 0.084686 0.075195
0.818207 0.086792 0.080322
0.848511 0.089111 0.08551
0.878937 0.091309 0.090698
0.904236 0.098877 0.098297
0.928589 0.10791 0.106506
0.953033 0.11676 0.114746
0.97757 0.125885 0.122711
0.996826 0.133514 0.129761
0.015991 0.129883 0.003632
0.042877 0.130127 0.001373
0.07074 0.130249 0.001556
0.106415 0.123749 0.00177
0.137177 0.110931 0.002167
0.167969 0.102448 0.002594
0.198669 0.096985 0.003113
0.229523 0.093079 0.003723
0.281525 0.087219 0.004425
0.31839 0.084961 0.005859
0.353241 0.086365 0.010132
0.387543 0.087738 0.014282
0.421722 0.089111 0.018463
0.455902 0.090546 0.022644
0.490265 0.092102 0.026825
0.524689 0.093658 0.031006
0.55899 0.095276 0.035309
0.593048 0.096985 0.039764
0.626801 0.098663 0.044312
0.660095 0.100433 0.04895
0.692719 0.102112 0.053772
0.725037 0.104004 0.058716
0.756836 0.105957 0.063843
0.788055 0.107788 0.069183
0.81839 0.109711 0.074341
0.848694 0.111786 0.07959
0.879089 0.113708 0.084839
0.904297 0.121155 0.092987
0.928619 0.129791 0.101562
0.953033 0.138458 0.110077
0.97757 0.147156 0.118469
0.996826 0.15448 0.125885
0.018127 0.162231 0.005188
0.04248 0.162445 0.002136
0.067871 0.162537 0.002289
0.106262 0.162689 0.002533
0.136871 0.152435 0.002838
0.168488 0.143768 0.003418
0.199097 0.136627 0.003906
0.229919 0.13147 0.004547
0.282043 0.124115 0.00528
0.318756 0.120667 0.006073
0.353577 0.117981 0.007019
0.387848 0.115601 0.008148
0.422058 0.11496 0.010712
0.456268 0.116272 0.015076
0.490601 0.117615 0.019501
0.524994 0.119049 0.023865
0.559296 0.120514 0.028442
0.593414 0.122009 0.03302
0.627045 0.123596 0.037689
0.6604 0.125092 0.042511
0.693024 0.126709 0.047394
0.725281 0.128326 0.05246
0.757141 0.130096 0.057739
0.78833 0.131683 0.06311
0.818634 0.133545 0.068237
0.848907 0.135162 0.073578
0.879333 0.136993 0.078857
0.904327 0.14447 0.087433
0.92865 0.15274 0.096588
0.953125 0.161224 0.105408
0.977631 0.169586 0.114258
0.996857 0.176819 0.121826
0.020416 0.194 0.006927
0.043091 0.194275 0.003113
0.067047 0.194366 0.003296
0.10321 0.194519 0.003479
0.141663 0.194702 0.003784
0.167236 0.181519 0.00415
0.199677 0.17572 0.004913
0.230469 0.169434 0.005585
0.282593 0.160767 0.006287
0.319244 0.156738 0.007141
0.354034 0.153412 0.008148
0.388275 0.150726 0.009308
0.422485 0.148254 0.010498
0.456665 0.146179 0.01181
0.490997 0.144226 0.013275
0.52536 0.14447 0.016907
0.559662 0.145813 0.021576
0.59375 0.147247 0.026367
0.62738 0.148682 0.031128
0.660767 0.150085 0.036072
0.69339 0.15152 0.041107
0.725647 0.152985 0.046356
0.757507 0.154541 0.051758
0.788605 0.156036 0.056976
0.81897 0.157593 0.062286
0.849213 0.159241 0.067596
0.879639 0.16095 0.072845
0.904388 0.168243 0.082031
0.928711 0.176422 0.091522
0.953186 0.184601 0.1008
0.977692 0.192902 0.110016
0.996918 0.199829 0.117767
0.022827 0.225403 0.009094
0.04425 0.225739 0.004333
0.0672 0.22583 0.004456
0.101807 0.225922 0.0047
0.138794 0.226074 0.004974
0.172668 0.223114 0.005371
0.197601 0.210663 0.005829
0.23111 0.207031 0.006866
0.283264 0.196991 0.007629
0.319885 0.192352 0.008545
0.354584 0.188538 0.009521
0.388824 0.185394 0.01062
0.423004 0.182617 0.01181
0.457153 0.180237 0.013153
0.491455 0.178009 0.014587
0.525787 0.175903 0.016205
0.56015 0.174133 0.017914
0.594208 0.172394 0.019867
0.627899 0.173645 0.024841
0.661194 0.174988 0.029877
0.693817 0.176392 0.035065
0.726074 0.177734 0.040375
0.757935 0.179138 0.045807
0.789001 0.180481 0.051056
0.819366 0.189911 0.053894
0.849579 0.194885 0.058075
0.879974 0.198059 0.062866
0.904449 0.206604 0.072571
0.928772 0.215485 0.082428
0.953278 0.22403 0.092194
0.977722 0.232574 0.101868
0.996948 0.239929 0.110046
0.025299 0.256439 0.011353
0.045837 0.256866 0.005768
0.067932 0.256958 0.00592
0.10144 0.257019 0.006134
0.137238 0.257202 0.006439
0.173218 0.257355 0.006805
0.203094 0.25116 0.007294
0.228058 0.239685 0.007874
0.284088 0.253571 0.009247
0.320618 0.248566 0.010132
0.355255 0.24469 0.011108
0.389435 0.241577 0.012238
0.423645 0.2388 0.013367
0.457733 0.236633 0.014709
0.492004 0.234467 0.016205
0.526398 0.232452 0.017792
0.560669 0.230865 0.019562
0.594757 0.229095 0.021423
0.628387 0.227692 0.023438
0.661682 0.226288 0.025665
0.694336 0.224976 0.028076
0.726593 0.223663 0.030609
0.758392 0.223114 0.033569
0.789459 0.224792 0.03891
0.819763 0.22641 0.044128
0.849976 0.227966 0.049316
0.880341 0.229584 0.054626
0.90448 0.237457 0.06543
0.928833 0.245422 0.076019
0.953339 0.253448 0.086365
0.977814 0.261475 0.096527
0.996948 0.268066 0.105072
0.029694 0.31073 0.013916
0.048981 0.311279 0.007507
0.070007 0.31134 0.007629
0.102264 0.311401 0.007874
0.136566 0.311615 0.00824
0.171234 0.311768 0.008606
0.206146 0.312012 0.009094
0.238007 0.308868 0.009674
0.278381 0.292419 0.010376
0.321442 0.291779 0.011902
0.356018 0.286926 0.012878
0.390167 0.282928 0.013977
0.424316 0.279449 0.015228
0.458405 0.276642 0.016571
0.492706 0.273956 0.018066
0.527008 0.271515 0.019684
0.56134 0.269348 0.021423
0.595398 0.267181 0.023346
0.629089 0.265259 0.025391
0.662292 0.263702 0.027649
0.694977 0.261932 0.029999
0.727173 0.260406 0.032471
0.758911 0.259064 0.034882
0.789948 0.257782 0.037415
0.820221 0.256439 0.039948
0.850464 0.255493 0.042511
0.880432 0.257141 0.048279
0.904572 0.264893 0.059479
0.928925 0.272491 0.070465
0.9534 0.280273 0.08136
0.977875 0.287994 0.091949
0.997009 0.294556 0.100708
0.032928 0.345184 0.016693
0.051422 0.345886 0.009583
0.071777 0.345917 0.009735
0.103241 0.346008 0.01001
0.13681 0.34613 0.010254
0.170868 0.346344 0.010651
0.205109 0.346527 0.011108
0.239838 0.346771 0.011658
0.284607 0.335846 0.012329
0.315674 0.323883 0.013092
0.356964 0.325195 0.015015
0.391022 0.320648 0.016083
0.42511 0.316803 0.017334
0.459198 0.313538 0.018677
0.493469 0.310486 0.020172
0.527771 0.3078 0.02182
0.562042 0.305389 0.02356
0.59613 0.302979 0.025543
0.629822 0.300873 0.027649
0.662994 0.298981 0.029846
0.695648 0.29718 0.032135
0.727753 0.295441 0.034485
0.759521 0.294067 0.036926
0.790497 0.29248 0.039307
0.820801 0.291046 0.041809
0.851013 0.289917 0.044373
0.880524 0.289185 0.047668
0.904694 0.293701 0.056458
0.928986 0.298981 0.06543
0.953491 0.306488 0.07666
0.977936 0.314117 0.087585
0.99707 0.320404 0.09668
0.036163 0.378082 0.019745
0.054077 0.378906 0.011871
0.07373 0.378967 0.011993
0.104828 0.379089 0.012238
0.137482 0.379211 0.012512
0.170898 0.379364 0.012848
0.204742 0.379547 0.013336
0.238953 0.379761 0.013916
0.290802 0.376648 0.014557
0.321838 0.365265 0.01535
0.350281 0.354858 0.016235
0.392059 0.357361 0.018463
0.426025 0.352997 0.019714
0.460114 0.349396 0.021118
0.494354 0.346039 0.022614
0.528656 0.343109 0.024261
0.562927 0.340393 0.026093
0.596924 0.337799 0.028046
0.630646 0.33548 0.030151
0.663727 0.333527 0.032288
0.696411 0.331543 0.034485
0.728455 0.32959 0.036804
0.760223 0.328003 0.039062
0.791199 0.326416 0.041443
0.821411 0.324951 0.043854
0.851654 0.323242 0.046326
0.880646 0.322937 0.050018
0.904755 0.327057 0.058746
0.929108 0.331604 0.067596
0.953522 0.336273 0.076538
0.977997 0.341431 0.085358
0.997101 0.3461 0.093109
0.039581 0.410309 0.02301
0.056824 0.411285 0.014435
0.075806 0.411346 0.014557
0.106567 0.411438 0.01474
0.138519 0.41153 0.015076
0.171326 0.411682 0.015472
0.204681 0.411835 0.0159
0.238464 0.412048 0.016449
0.29306 0.412354 0.01712
0.327972 0.405151 0.017853
0.356476 0.39505 0.018738
0.384369 0.385162 0.019745
0.427124 0.388885 0.0224
0.46109 0.384796 0.023804
0.4953 0.381042 0.025391
0.529572 0.377838 0.027069
0.563843 0.374939 0.0289
0.597839 0.372192 0.030853
0.6315 0.36969 0.032806
0.664581 0.367432 0.034882
0.697205 0.365356 0.037048
0.729218 0.363281 0.039154
0.760895 0.361511 0.041443
0.79184 0.359894 0.043701
0.822113 0.358093 0.046112
0.852264 0.356567 0.048401
0.880768 0.356476 0.052582
0.904907 0.359955 0.06134
0.929199 0.36377 0.070038
0.953613 0.368195 0.078796
0.978149 0.372742 0.087677
0.997192 0.376923 0.095306
0.04303 0.442047 0.026794
0.059784 0.443268 0.017273
0.078735 0.443298 0.017456
0.10849 0.443359 0.017639
0.139771 0.443451 0.017883
0.17215 0.443604 0.01828
0.204987 0.443787 0.018707
0.238342 0.444031 0.019318
0.29245 0.444275 0.019958
0.33432 0.444031 0.020691
0.362671 0.434235 0.021606
0.390564 0.424622 0.022583
0.418243 0.4151 0.023712
0.462372 0.419952 0.026917
0.49646 0.415955 0.028503
0.53067 0.412384 0.030182
0.56485 0.40918 0.031891
0.598816 0.406189 0.033722
0.632446 0.403595 0.035675
0.665558 0.401062 0.037689
0.698059 0.398773 0.039673
0.730042 0.396729 0.041809
0.761658 0.394745 0.043945
0.792603 0.392975 0.046234
0.822784 0.391266 0.048401
0.852905 0.389526 0.05069
0.88089 0.389404 0.055359
0.905029 0.392334 0.063965
0.929321 0.39563 0.072571
0.953766 0.399597 0.081299
0.978271 0.403625 0.090088
0.997284 0.407684 0.097687
0.046722 0.473541 0.030853
0.062866 0.474945 0.020447
0.081757 0.474976 0.020569
0.110626 0.475037 0.020782
0.141327 0.475189 0.021118
0.173035 0.475281 0.021454
0.205444 0.475433 0.021912
0.238556 0.475647 0.022461
0.292114 0.475861 0.023163
0.33429 0.476135 0.023895
0.36908 0.472717 0.02478
0.396851 0.463379 0.025818
0.42453 0.454071 0.026978
0.452301 0.444702 0.028229
0.497681 0.450623 0.031799
0.531891 0.446808 0.033386
0.56604 0.443329 0.035095
0.599854 0.440094 0.036865
0.633453 0.437164 0.038666
0.666504 0.434479 0.040527
0.698944 0.432159 0.04248
0.730896 0.429993 0.044556
0.762543 0.427734 0.0466
0.793396 0.425903 0.048737
0.823608 0.424133 0.050934
0.853668 0.422272 0.053192
0.881042 0.422333 0.058289
0.905182 0.424591 0.066742
0.929443 0.427521 0.075317
0.953888 0.430786 0.084015
0.978394 0.43454 0.092712
0.997345 0.438049 0.100189
0.050629 0.504852 0.034912
0.066071 0.50647 0.023956
0.085144 0.506531 0.024109
0.113007 0.506622 0.024292
0.143036 0.506714 0.024628
0.174316 0.506805 0.024994
0.206177 0.506958 0.025452
0.238953 0.507172 0.026031
0.292114 0.507385 0.026733
0.333984 0.507629 0.027496
0.372467 0.507935 0.028412
0.403259 0.50177 0.029388
0.430908 0.492645 0.030518
0.458557 0.48349 0.031708
0.486359 0.474243 0.03299
0.533112 0.481171 0.036804
0.567169 0.477417 0.038391
0.600952 0.473969 0.040009
0.634491 0.470856 0.041779
0.667511 0.467926 0.043579
0.69989 0.465424 0.045502
0.731873 0.463074 0.047424
0.763397 0.460663 0.049408
0.794312 0.458679 0.051483
0.824371 0.456757 0.053619
0.854401 0.454956 0.055756
0.881226 0.454803 0.06134
0.905334 0.456757 0.069733
0.929596 0.459076 0.078247
0.95401 0.461853 0.086853
0.978516 0.465088 0.09552
0.997437 0.468384 0.102905
0.055023 0.536041 0.039032
0.069092 0.537659 0.027954
0.088654 0.537964 0.028046
0.11554 0.538025 0.028259
0.144806 0.538116 0.028595
0.175446 0.538239 0.028931
0.207092 0.538361 0.029388
0.239471 0.538544 0.029938
0.292328 0.538757 0.030609
0.334076 0.539001 0.031342
0.372101 0.539276 0.032135
0.409668 0.539581 0.033081
0.437347 0.530701 0.034149
0.464966 0.521667 0.035278
0.492737 0.512604 0.036499
0.520599 0.503479 0.037842
0.568359 0.511566 0.041779
0.602142 0.507812 0.043365
0.63559 0.504425 0.045013
0.668549 0.501434 0.046753
0.700928 0.498688 0.048553
0.73288 0.496124 0.050385
0.764435 0.493713 0.052399
0.795197 0.491455 0.054321
0.825256 0.489502 0.056366
0.855225 0.487518 0.05838
0.881348 0.487396 0.064545
0.905518 0.488525 0.072937
0.929779 0.490417 0.08136
0.954193 0.493011 0.089905
0.978729 0.495697 0.09848
0.997559 0.498505 0.105713
0.059448 0.567139 0.043152
0.072266 0.568573 0.032104
0.092407 0.569366 0.032227
0.118347 0.569458 0.03241
0.14682 0.569519 0.032623
0.177002 0.569641 0.03299
0.208252 0.569763 0.033417
0.240295 0.569946 0.033966
0.292725 0.570099 0.034515
0.334229 0.570374 0.035278
0.371979 0.570618 0.036072
0.409363 0.570892 0.036926
0.443787 0.568604 0.037903
0.471405 0.559662 0.03891
0.499115 0.55072 0.040039
0.526917 0.541718 0.04129
0.554749 0.532684 0.042633
0.603455 0.541809 0.046753
0.63678 0.538208 0.04834
0.669678 0.534912 0.050018
0.701996 0.531982 0.051758
0.733887 0.529205 0.053558
0.765411 0.526611 0.05542
0.796082 0.524261 0.057251
0.826141 0.522156 0.059204
0.85614 0.519867 0.061218
0.881561 0.519897 0.068024
0.90567 0.520477 0.076263
0.929932 0.521942 0.084656
0.954346 0.523865 0.093048
0.978882 0.526276 0.101501
0.99765 0.528656 0.108643
0.063965 0.598206 0.047363
0.075592 0.599518 0.036285
0.096405 0.600739 0.036438
0.121246 0.6008 0.036591
0.149048 0.600861 0.036835
0.178711 0.600983 0.03717
0.209503 0.601105 0.037537
0.241119 0.601288 0.038025
0.293274 0.60144 0.038544
0.334534 0.601624 0.039154
0.372009 0.601898 0.039917
0.40918 0.602142 0.040741
0.446228 0.602448 0.041656
0.477844 0.597473 0.042633
0.505554 0.588562 0.043732
0.533264 0.579681 0.044891
0.561005 0.57074 0.046204
0.588715 0.561859 0.047485
0.638062 0.571991 0.051788
0.670837 0.568665 0.053406
0.703217 0.56543 0.055054
0.734955 0.562469 0.056732
0.766357 0.55957 0.058441
0.797089 0.557281 0.060272
0.827087 0.55481 0.062225
0.857025 0.552582 0.064148
0.881805 0.552063 0.071625
0.905884 0.552399 0.079773
0.930176 0.553284 0.088043
0.954529 0.554718 0.096344
0.979034 0.556641 0.104706
0.997742 0.558777 0.111816
0.06842 0.629333 0.051483
0.078979 0.630463 0.040436
0.100494 0.632172 0.040588
0.124481 0.632202 0.040741
0.151337 0.632263 0.040955
0.180511 0.632355 0.04126
0.210785 0.632446 0.041656
0.242249 0.632599 0.042084
0.29422 0.632782 0.042603
0.335052 0.632996 0.043182
0.372284 0.633209 0.043884
0.409241 0.633453 0.044647
0.446167 0.633759 0.045532
0.483154 0.634094 0.046478
0.512054 0.626404 0.047485
0.539673 0.617584 0.048553
0.567505 0.608704 0.049744
0.594971 0.599884 0.051025
0.622437 0.591064 0.052399
0.672028 0.602386 0.056763
0.704346 0.598907 0.05835
0.736084 0.595825 0.059967
0.767456 0.592773 0.061707
0.798096 0.590332 0.063507
0.828094 0.587738 0.065338
0.85788 0.585327 0.067322
0.882019 0.584503 0.075317
0.906097 0.584259 0.083344
0.930359 0.584564 0.091583
0.954742 0.585449 0.099762
0.979248 0.58725 0.108124
0.997864 0.588928 0.115082
0.072998 0.660461 0.055664
0.08252 0.661438 0.044708
0.104828 0.663574 0.04483
0.127838 0.663635 0.044983
0.153961 0.663696 0.045258
0.182526 0.663788 0.045502
0.212372 0.66391 0.045837
0.243408 0.664032 0.046234
0.295349 0.664215 0.046722
0.335663 0.664398 0.047272
0.372864 0.664551 0.047913
0.409424 0.664795 0.048584
0.446136 0.66507 0.049408
0.482941 0.665375 0.050262
0.518463 0.664185 0.05127
0.546234 0.655334 0.052338
0.573822 0.646576 0.053436
0.601471 0.637695 0.054596
0.628662 0.629089 0.055908
0.655731 0.620361 0.057159
0.705505 0.632782 0.061798
0.737244 0.629395 0.063416
0.768555 0.62616 0.065033
0.799194 0.623535 0.066711
0.829102 0.62085 0.068512
0.858154 0.618317 0.071228
0.882233 0.616852 0.079041
0.906281 0.616058 0.087036
0.930573 0.615875 0.095184
0.954956 0.616669 0.103363
0.979431 0.617706 0.111603
0.997986 0.619415 0.1185
0.077515 0.691742 0.059753
0.088196 0.692932 0.04895
0.109406 0.69516 0.049103
0.131195 0.695221 0.049225
0.156769 0.695282 0.049377
0.184662 0.695374 0.049683
0.214172 0.695496 0.049957
0.244812 0.695587 0.050323
0.296448 0.69577 0.050812
0.336456 0.695923 0.051331
0.373352 0.696106 0.051941
0.409912 0.69632 0.052643
0.446198 0.696564 0.053406
0.48291 0.696869 0.05423
0.519897 0.697174 0.055145
0.552765 0.693268 0.056122
0.580353 0.684479 0.057129
0.607849 0.67569 0.058228
0.63501 0.667023 0.059387
0.662048 0.658325 0.060699
0.688538 0.649841 0.062073
0.738464 0.66333 0.066803
0.769745 0.660095 0.06842
0.800262 0.657043 0.070068
0.83017 0.654053 0.071747
0.858398 0.651489 0.075226
0.882477 0.649475 0.082977
0.906525 0.648102 0.090912
0.930756 0.647614 0.098938
0.95517 0.647644 0.107025
0.979614 0.648407 0.115234
0.998138 0.649658 0.12204
0.083221 0.723358 0.063904
0.093689 0.724487 0.053284
0.113892 0.726929 0.053345
0.134918 0.726959 0.053467
0.159668 0.727051 0.05368
0.186981 0.727112 0.053833
0.215973 0.727234 0.054169
0.246307 0.727325 0.054535
0.297821 0.727448 0.054962
0.337402 0.727631 0.05545
0.374023 0.727814 0.05603
0.410278 0.728058 0.056641
0.446503 0.728241 0.057312
0.483185 0.728485 0.058075
0.519928 0.72879 0.058899
0.556976 0.729095 0.059845
0.586853 0.722504 0.060883
0.614258 0.713776 0.061981
0.64151 0.705078 0.06311
0.668427 0.696503 0.064331
0.694885 0.687958 0.065582
0.720947 0.679565 0.066956
0.771027 0.694061 0.071869
0.801453 0.690796 0.073486
0.831329 0.687775 0.075073
0.858704 0.684753 0.079224
0.882751 0.682037 0.087006
0.90683 0.680298 0.094818
0.93103 0.679199 0.102783
0.955414 0.678772 0.11084
0.979828 0.679108 0.118958
0.998291 0.680115 0.125671
0.089996 0.755371 0.068085
0.099335 0.756378 0.057495
0.118652 0.758881 0.057526
0.138824 0.758911 0.057648
0.162842 0.759003 0.057831
0.189484 0.759064 0.058014
0.218018 0.759155 0.058319
0.247925 0.759277 0.058624
0.2995 0.759399 0.059021
0.338593 0.759552 0.059509
0.374939 0.759735 0.060028
0.41095 0.759918 0.060608
0.446991 0.760162 0.06131
0.483246 0.760437 0.062103
0.519836 0.760712 0.062897
0.556946 0.760986 0.063782
0.593353 0.760925 0.064697
0.620728 0.752075 0.065735
0.647888 0.743347 0.066803
0.674713 0.734802 0.067963
0.701263 0.726227 0.069183
0.727203 0.717834 0.070465
0.752869 0.709473 0.071808
0.802673 0.72464 0.076904
0.832428 0.721405 0.078522
0.858978 0.71759 0.083405
0.883026 0.714508 0.091156
0.907104 0.712158 0.098907
0.931274 0.710388 0.10675
0.955658 0.709503 0.114746
0.980133 0.709473 0.122742
0.998444 0.710022 0.129364
0.096771 0.787079 0.072266
0.105042 0.787903 0.061707
0.123596 0.790588 0.061798
0.1427 0.790619 0.06192
0.166016 0.79071 0.062103
0.192047 0.790741 0.062256
0.220123 0.790802 0.0625
0.249756 0.790924 0.062866
0.301361 0.791077 0.063232
0.339813 0.791199 0.06369
0.375946 0.791382 0.064178
0.411743 0.791534 0.064728
0.44754 0.791748 0.065369
0.483704 0.791992 0.066071
0.520142 0.792236 0.066803
0.556946 0.792511 0.067688
0.593628 0.792847 0.068573
0.627258 0.789948 0.06955
0.654358 0.781128 0.070587
0.681122 0.772461 0.071655
0.70752 0.763947 0.072815
0.733429 0.755554 0.074036
0.759033 0.747162 0.075378
0.784393 0.7388 0.07666
0.833588 0.754578 0.08194
0.859283 0.750214 0.087677
0.883362 0.746429 0.095337
0.90741 0.7435 0.103088
0.931549 0.741516 0.110809
0.955933 0.740234 0.118713
0.980377 0.739502 0.126678
0.998596 0.739838 0.133179
0.103302 0.818542 0.076447
0.110809 0.819244 0.065979
0.12851 0.822052 0.066071
0.146881 0.822052 0.066193
0.169464 0.822113 0.066284
0.194855 0.822205 0.066467
0.222443 0.822296 0.066742
0.251617 0.822388 0.067078
0.303009 0.822479 0.067444
0.341125 0.822601 0.06781
0.376984 0.822754 0.068298
0.412445 0.822937 0.068817
0.448181 0.82312 0.069458
0.484283 0.823364 0.070099
0.520477 0.823578 0.070831
0.557098 0.823853 0.071625
0.593781 0.824188 0.072449
0.63028 0.824463 0.073395
0.660583 0.818787 0.074341
0.687347 0.810059 0.075439
0.713562 0.801544 0.076508
0.739502 0.79306 0.077728
0.765167 0.784546 0.078949
0.790375 0.776245 0.0802
0.814972 0.768188 0.081604
0.859619 0.783142 0.092072
0.883636 0.778809 0.099579
0.907684 0.77533 0.107208
0.931915 0.772705 0.11496
0.956207 0.770966 0.122742
0.980652 0.769867 0.130646
0.998779 0.769806 0.137115
0.109985 0.850311 0.080597
0.116577 0.850861 0.070282
0.134155 0.852417 0.071686
0.151672 0.852417 0.071777
0.173187 0.852417 0.071991
0.197876 0.852448 0.072235
0.224976 0.852478 0.072479
0.253662 0.852509 0.072784
0.305054 0.852509 0.073242
0.342255 0.852539 0.07373
0.377472 0.85257 0.07428
0.412689 0.852631 0.074921
0.447937 0.852661 0.075653
0.483582 0.852722 0.076385
0.519409 0.852783 0.077301
0.555542 0.852875 0.078247
0.591431 0.852936 0.079254
0.627533 0.852997 0.080353
0.663239 0.853088 0.081482
0.690033 0.844727 0.082764
0.716064 0.836212 0.084076
0.741638 0.82782 0.085541
0.766693 0.819611 0.086945
0.791687 0.811371 0.088531
0.815918 0.803497 0.090149
0.839813 0.795593 0.091827
0.883972 0.811371 0.103943
0.90799 0.807434 0.111481
0.932159 0.804199 0.119202
0.956482 0.802032 0.126923
0.980927 0.800385 0.134735
