site/assets/luts/freshluts--0000831-cold-lut-teal-orange.cube
# LUTr-Schema-Version: 2
# LUTr-ID: freshluts--0000831-cold-lut-teal-orange
# LUTr-Title: cold LUT (Teal - Orange)
# LUTr-Collection: Fresh LUTs
# LUTr-Collection-ID: freshluts-community
# LUTr-Source: https://freshluts.com
# LUTr-Retrieved: 2026-07-27
# LUTr-Source-File: submissions-raw/freshluts/cubes/831__richtige_6.pexels-andrea-piacquadio-839586.cube
# LUTr-Source-Format: CUBE
# LUTr-Source-SHA256: f87c6a48ba8d3829d66249fd1dd5a53fed843846dead8d82e5434311ed714417
# LUTr-License: CC0-1.0
# LUTr-License-URL: https://freshluts.com/termsandconditions
# LUTr-License-Basis: site-terms
# LUTr-Transform-Class: creative-look
# LUTr-Tags: creative, freshluts, community, cube, cool, low-key, panasonic-v-log-l, warm
# LUTr-Input-Color-Space: panasonic-vlogl-vgamut
# LUTr-Input-Gamut: panasonic-v-gamut
# LUTr-Input-Transfer: panasonic-v-log-l
# LUTr-Output-Color-Space: srgb
# LUTr-Output-Gamut: rec709
# LUTr-Output-Transfer: srgb
# LUTr-Color-Space-Confidence: inferred-from-source-label
# LUTr-Domain-Normalized: true
# LUTr-Shaper: none
# LUTr-Original-Grid: 17x17x17
# LUTr-Conversion-Grid: 17x17x17
# LUTr-Conversion-Interpolation: none
# LUTr-Conversion-Method: Metadata normalization; numeric LUT samples preserved
# LUTr-Conversion-Tool: LUTr scripts/convert-all-to-cube.mjs 2.0.0
# LUTr-Conversion-Date: 2026-07-28
# LUTr-Asset-URL: https://freshluts.com/luts/831
# LUTr-Author: LutMaster
# LUTr-Author-URL: https://freshluts.com/users/57203
# LUTr-Attribution: LutMaster via Fresh LUTs
# LUTr-Source-Labels: gamma=Panasonic V-log L; color=Cool; key=Low Key; style=Teal - Orange
# LUTr-Note: Preserve this metadata and the upstream license notices when redistributing.
TITLE "cold LUT (Teal - Orange)"
LUT_3D_SIZE 9
DOMAIN_MIN 0 0 0
DOMAIN_MAX 1 1 1
0.0345312 0.0722057 0.0807813
0.036286 0.0737163 0.0823072
0.0845197 0.0802625 0.0840314
0.181048 0.0839246 0.0842603
0.292912 0.0857404 0.076112
0.412253 0.0864881 0.0595712
0.541634 0.0823682 0.045243
0.669856 0.076997 0.0407263
0.799985 0.0734417 0.033814
0.0352483 0.0770275 0.0858167
0.0368811 0.0761578 0.0850996
0.0851453 0.0813916 0.0852827
0.186389 0.0830701 0.0835431
0.301534 0.0836652 0.07364
0.422873 0.0840162 0.0561837
0.551324 0.0800488 0.0418097
0.676844 0.0753185 0.038407
0.787778 0.0768597 0.0380102
0.0100252 0.130312 0.093431
0.0333257 0.122164 0.0951247
0.0875563 0.118654 0.106905
0.17525 0.139406 0.116854
0.32343 0.146029 0.0985885
0.461814 0.153643 0.0853285
0.603006 0.155627 0.0719463
0.741436 0.153994 0.070573
0.807889 0.171069 0.0941176
0.0727092 0.188174 0.114565
0.0907149 0.180468 0.123751
0.0984207 0.19855 0.134493
0.156832 0.213016 0.142596
0.345861 0.226444 0.108324
0.486137 0.237827 0.0899214
0.628748 0.246464 0.0860456
0.767529 0.253605 0.0858778
0.863416 0.268406 0.103334
0.0825971 0.27892 0.130465
0.104967 0.269123 0.145068
0.1346 0.280293 0.157992
0.22475 0.297566 0.181094
0.353109 0.323476 0.148119
0.509987 0.329046 0.10277
0.662898 0.340246 0.0990311
0.797833 0.355138 0.0995804
0.891035 0.371618 0.121263
0.0895399 0.381506 0.147005
0.120745 0.367864 0.169436
0.175967 0.369192 0.200961
0.261189 0.380133 0.232532
0.39237 0.423911 0.223331
0.521523 0.440497 0.155795
0.696071 0.442786 0.0961471
0.831296 0.452247 0.0915999
0.922835 0.470481 0.120272
0.0801709 0.462989 0.144045
0.113558 0.459388 0.171328
0.162432 0.472068 0.195422
0.262882 0.485008 0.219699
0.43505 0.524025 0.253956
0.553811 0.55491 0.248249
0.687541 0.555779 0.149905
0.820111 0.553536 0.095552
0.90454 0.561746 0.132082
0.0892653 0.571328 0.160098
0.130648 0.562692 0.194186
0.183795 0.573724 0.217258
0.295018 0.590082 0.239658
0.47483 0.63093 0.284337
0.614221 0.673304 0.301869
0.720394 0.703655 0.271626
0.830213 0.69276 0.157794
0.934066 0.692607 0.145251
0.119066 0.670405 0.191638
0.141833 0.670863 0.21149
0.195193 0.684825 0.226337
0.315724 0.710719 0.257206
0.510063 0.758633 0.298238
0.677226 0.815625 0.32285
0.785458 0.847623 0.320058
0.885298 0.872221 0.298192
0.979629 0.85716 0.22179
0.049424 0.0767987 0.0834058
0.0449683 0.078172 0.0860304
0.089189 0.0846723 0.088838
0.19202 0.0852064 0.0856031
0.302083 0.0861982 0.076173
0.416403 0.0878462 0.0607156
0.528176 0.0893263 0.0538338
0.632715 0.0932326 0.0601968
0.769757 0.0916457 0.0546426
0.0462196 0.0770581 0.0838941
0.0449378 0.0767376 0.0839704
0.0861372 0.0827497 0.0863813
0.189731 0.0818799 0.082414
0.301411 0.0820172 0.0719463
0.421088 0.0831464 0.0554055
0.537041 0.0849775 0.0482795
0.643473 0.0899214 0.0559548
0.764797 0.0929274 0.0562142
0.0320592 0.127504 0.0983291
0.047303 0.121263 0.0988022
0.0877546 0.119753 0.107713
0.177188 0.13727 0.112184
0.319661 0.14255 0.0953231
0.454643 0.15024 0.0829175
0.57908 0.157382 0.0785992
0.690181 0.164904 0.090425
0.772992 0.178927 0.107286
0.0870069 0.184283 0.122515
0.0994583 0.178317 0.128679
0.105592 0.19617 0.138293
0.156786 0.211368 0.144717
0.342977 0.224857 0.108064
0.481636 0.235569 0.0891432
0.614054 0.246464 0.0923629
0.729824 0.260304 0.107286
0.828641 0.276509 0.123568
0.0847334 0.280034 0.132387
0.0976577 0.274098 0.140795
0.124407 0.285542 0.150347
0.215808 0.301396 0.164874
0.352987 0.321813 0.137072
0.505699 0.325551 0.100359
0.647669 0.338338 0.107225
0.75906 0.358892 0.128038
0.850263 0.377249 0.149432
0.0918593 0.378958 0.148409
0.106355 0.372412 0.158801
0.135393 0.383917 0.167636
0.229435 0.392294 0.190661
0.389273 0.42443 0.201785
0.517845 0.437919 0.15671
0.678569 0.44213 0.118715
0.795895 0.45597 0.132799
0.889296 0.47538 0.155215
0.0800336 0.484657 0.14757
0.107424 0.474693 0.16878
0.155276 0.482475 0.190234
0.257435 0.493309 0.212039
0.438651 0.532113 0.249119
0.565789 0.567056 0.250767
0.705287 0.572091 0.162051
0.839841 0.572869 0.114595
0.928542 0.577295 0.137484
0.0892958 0.580346 0.161471
0.118669 0.568048 0.184771
0.170138 0.575814 0.205097
0.283116 0.593088 0.225467
0.474891 0.637858 0.276493
0.62797 0.688396 0.308934
0.74229 0.725338 0.289113
0.854139 0.715709 0.1776
0.95378 0.709148 0.155047
0.115755 0.678035 0.189776
0.127337 0.67277 0.199176
0.178607 0.681651 0.210803
0.30042 0.705516 0.240726
0.503853 0.75172 0.293187
0.676188 0.810956 0.331579
0.78439 0.845273 0.329015
0.881636 0.868666 0.297871
0.97084 0.849241 0.218723
0.0467536 0.0792248 0.118532
0.0411383 0.0802167 0.127367
0.083299 0.0853437 0.13695
0.193194 0.0874342 0.134249
0.319615 0.0838788 0.12163
0.449134 0.0827192 0.104402
0.566796 0.0850233 0.0919661
0.659144 0.0927901 0.100816
0.787228 0.0932174 0.100252
0.0455024 0.0798199 0.12079
0.0421759 0.0802014 0.125216
0.0822309 0.0852216 0.134234
0.193362 0.0859693 0.133455
0.311986 0.0839704 0.120134
0.439231 0.0833906 0.103975
0.556207 0.0860609 0.092134
0.662943 0.090837 0.0982986
0.789593 0.0925154 0.0988022
0.0532692 0.126955 0.142809
0.0522164 0.126787 0.14284
0.0749371 0.134218 0.150866
0.185504 0.145205 0.156497
0.325872 0.152285 0.153231
0.469062 0.157397 0.140581
0.593835 0.161471 0.122728
0.701671 0.162829 0.131212
0.820676 0.16643 0.134096
0.0362402 0.210773 0.157763
0.0404974 0.208301 0.15729
0.0918288 0.21091 0.171069
0.145754 0.214649 0.180896
0.327321 0.237186 0.179278
0.484062 0.246113 0.156878
0.619669 0.254414 0.138888
0.739773 0.263874 0.149264
0.841611 0.275181 0.162905
0.0896315 0.284932 0.178378
0.103166 0.279667 0.183169
0.131304 0.294331 0.195026
0.198962 0.30663 0.204028
0.35581 0.332311 0.195758
0.512215 0.33576 0.150729
0.654673 0.347234 0.151385
0.767712 0.363684 0.169528
0.862745 0.38378 0.189639
0.0966354 0.380682 0.195254
0.111513 0.374746 0.20267
0.142245 0.392538 0.21442
0.197223 0.40235 0.217212
0.390188 0.436652 0.222904
0.528527 0.447959 0.179858
0.694026 0.447379 0.150591
0.809934 0.462516 0.170642
0.89987 0.482963 0.19588
0.0838788 0.489708 0.198627
0.11043 0.481727 0.215091
0.14963 0.49778 0.229816
0.220111 0.507927 0.234806
0.433326 0.541009 0.277836
0.57557 0.578134 0.28893
0.7131 0.583169 0.213199
0.852934 0.583597 0.162081
0.944091 0.58883 0.179263
0.0938125 0.594659 0.214878
0.124788 0.583139 0.235248
0.179156 0.591028 0.256565
0.267033 0.608179 0.26421
0.475929 0.647471 0.31545
0.641169 0.703151 0.350317
0.757458 0.741176 0.329747
0.871183 0.732525 0.219867
0.972076 0.726665 0.198825
0.104829 0.706004 0.233326
0.134951 0.69398 0.254032
0.188693 0.703624 0.268879
0.288792 0.7205 0.276051
0.504082 0.761364 0.3308
0.685481 0.822477 0.37203
0.80267 0.860014 0.38468
0.895949 0.885359 0.359197
0.986282 0.865705 0.250858
0.030457 0.0839246 0.22182
0.0300298 0.0838636 0.222416
0.0612802 0.0855726 0.221149
0.195132 0.0909895 0.215076
0.327123 0.0912947 0.20621
0.468025 0.09131 0.192493
0.61265 0.086183 0.164218
0.75256 0.0787213 0.160922
0.886641 0.074403 0.159823
0.0297551 0.0846265 0.225208
0.035584 0.0840162 0.20763
0.0638743 0.0860914 0.204364
0.194003 0.0902266 0.215015
0.332113 0.0884718 0.207202
0.479973 0.086656 0.191836
0.608881 0.0865339 0.163287
0.71899 0.0882887 0.164462
0.831968 0.0903639 0.167605
0.0479438 0.132692 0.218036
0.0471656 0.132097 0.217777
0.0709239 0.139315 0.231357
0.190219 0.14902 0.243336
0.344045 0.156771 0.240421
0.505425 0.158083 0.228534
0.630014 0.162463 0.200885
0.733898 0.16437 0.200427
0.855039 0.164843 0.203387
0.0497139 0.2168 0.250462
0.0478676 0.21593 0.249729
0.0797742 0.22829 0.265476
0.129335 0.231907 0.267964
0.312352 0.2486 0.270054
0.483314 0.25861 0.264897
0.631678 0.26041 0.246418
0.750713 0.26186 0.231312
0.867185 0.262287 0.225849
0.0585184 0.321782 0.280064
0.0561074 0.322423 0.279927
0.0874189 0.332097 0.286732
0.11281 0.34403 0.288777
0.260258 0.346014 0.286809
0.511559 0.361456 0.285222
0.658335 0.371466 0.267369
0.774945 0.382193 0.261448
0.886519 0.391989 0.257343
0.10135 0.400061 0.288411
0.117113 0.394675 0.290623
0.149264 0.411521 0.30544
0.191638 0.420539 0.302251
0.364248 0.443671 0.328374
0.537514 0.470741 0.293233
0.70898 0.464958 0.234501
0.830045 0.475608 0.245853
0.923888 0.494163 0.267872
0.0859846 0.496071 0.29279
0.115282 0.487373 0.302556
0.156847 0.509026 0.322026
0.211109 0.521172 0.321462
0.393805 0.542031 0.358389
0.580102 0.592004 0.348837
0.729168 0.598154 0.265797
0.879667 0.58761 0.22182
0.968505 0.594919 0.252277
0.101534 0.594247 0.310399
0.125536 0.585718 0.320165
0.168093 0.611276 0.340368
0.226642 0.627512 0.334035
0.429084 0.657465 0.370001
0.635843 0.714595 0.397223
0.771954 0.757214 0.36376
0.89955 0.748302 0.272023
0.996933 0.73872 0.275837
0.107927 0.714473 0.334005
0.134844 0.702693 0.345907
0.177584 0.723552 0.363424
0.244663 0.740917 0.347173
0.469261 0.772427 0.389258
0.679667 0.82945 0.440757
0.826947 0.883375 0.458228
0.926116 0.914717 0.433356
1 0.896117 0.326848
0.028397 0.0896468 0.319921
0.0273289 0.0894789 0.322713
0.0564584 0.0901045 0.323003
0.159487 0.0886702 0.320073
0.343755 0.0976577 0.303792
0.490883 0.0986801 0.289158
0.641276 0.0964523 0.265095
0.785733 0.0860609 0.24828
0.919753 0.0797436 0.244205
0.0273289 0.0893873 0.321828
0.0272831 0.0891127 0.320287
0.0555886 0.0896162 0.319951
0.156405 0.0879683 0.316396
0.341985 0.0957809 0.302434
0.494713 0.0948959 0.289235
0.653849 0.0910048 0.265126
0.805188 0.0800793 0.247425
0.933165 0.0771496 0.244038
0.0304417 0.140688 0.336004
0.0304417 0.140108 0.335042
0.0669413 0.147982 0.332967
0.131487 0.148836 0.342626
0.354482 0.166003 0.339437
0.523522 0.16817 0.328634
0.689509 0.164446 0.311971
0.838788 0.153002 0.293523
0.959564 0.149111 0.283604
0.0382239 0.227665 0.355856
0.0445716 0.225666 0.34847
0.0776837 0.237781 0.362905
0.120455 0.243397 0.374899
0.326635 0.2589 0.373342
0.515541 0.26656 0.370001
0.674891 0.265751 0.352453
0.792035 0.264424 0.336996
0.896559 0.264469 0.327153
0.0550088 0.330083 0.383703
0.0534676 0.330571 0.384543
0.0883497 0.348913 0.406409
0.133242 0.360983 0.423239
0.237247 0.35848 0.412314
0.48867 0.377737 0.413321
0.663218 0.384192 0.403204
0.775464 0.391821 0.396811
0.883406 0.396246 0.393668
0.067628 0.459983 0.434974
0.0659342 0.45977 0.434424
0.104555 0.481941 0.458701
0.149401 0.481468 0.451194
0.219989 0.468482 0.413779
0.525643 0.497032 0.437644
0.706264 0.505257 0.422721
0.831662 0.520897 0.42359
0.94464 0.53547 0.424125
0.037171 0.584817 0.4589
0.0372168 0.58468 0.458381
0.0694591 0.590906 0.460853
0.155673 0.582467 0.453483
0.276402 0.561044 0.430243
0.570794 0.60705 0.496437
0.729656 0.627085 0.417838
0.890089 0.613825 0.362417
1 0.621042 0.338598
0.0996414 0.652506 0.455268
0.138308 0.639216 0.460121
0.180789 0.648508 0.473762
0.239078 0.655619 0.47483
0.306233 0.669413 0.448753
0.611933 0.720256 0.526696
0.776822 0.774411 0.463249
0.913817 0.773159 0.373312
1 0.759793 0.360372
0.111635 0.754955 0.4748
0.14583 0.741527 0.481621
0.183429 0.760235 0.501137
0.241718 0.764187 0.493172
0.322698 0.788983 0.458518
0.640299 0.838605 0.533974
0.82562 0.898985 0.509224
0.942977 0.93225 0.51017
1 0.922255 0.351614
0.0252232 0.0986343 0.43357
0.0252232 0.0985428 0.432731
0.0545968 0.0981765 0.432166
0.11632 0.091371 0.425696
0.312245 0.100526 0.415167
0.522713 0.104189 0.394797
0.688289 0.0973831 0.374472
0.837095 0.0867323 0.356832
0.965484 0.079408 0.34493
0.0252232 0.0984054 0.431586
0.0251926 0.0981613 0.430137
0.0538491 0.097734 0.428977
0.114427 0.0908217 0.421729
0.308156 0.0997177 0.411154
0.516915 0.103471 0.391104
0.68188 0.0969863 0.37116
0.829679 0.0870222 0.353933
0.955474 0.0809796 0.342382
0.028748 0.151919 0.446357
0.028748 0.151492 0.445914
0.0603342 0.160769 0.459251
0.110903 0.157153 0.455436
0.315587 0.170703 0.45301
0.539635 0.180529 0.434424
0.710857 0.173007 0.419883
0.858213 0.162753 0.403815
0.981064 0.157153 0.388235
0.0313115 0.240177 0.469932
0.0312963 0.239582 0.469276
0.0641794 0.252903 0.487434
0.114656 0.261509 0.501579
0.245228 0.257984 0.496422
0.53106 0.278172 0.477806
0.707973 0.274998 0.464546
0.857527 0.267903 0.453468
0.988861 0.26215 0.443076
0.0338445 0.34638 0.506691
0.0361334 0.345403 0.50428
0.0800488 0.363134 0.519707
0.131319 0.37293 0.532937
0.184482 0.367636 0.533867
0.49659 0.389639 0.5243
0.695445 0.39324 0.519509
0.849302 0.387289 0.507164
0.977462 0.383322 0.498207
0.043946 0.472496 0.551934
0.0576944 0.468437 0.544579
0.100877 0.489616 0.566995
0.149187 0.508415 0.591028
0.19527 0.512825 0.600259
0.437171 0.512627 0.57705
0.676295 0.534432 0.582116
0.822614 0.546044 0.582498
0.936751 0.553017 0.58233
0.0361791 0.623941 0.616098
0.0361791 0.622827 0.614862
0.0680858 0.646937 0.640818
0.118563 0.668315 0.661448
0.173968 0.663111 0.64416
0.375082 0.636744 0.574517
0.725307 0.665675 0.600671
0.891081 0.673609 0.591302
1 0.691356 0.591745
0.0364233 0.764523 0.659571
0.0363928 0.762097 0.657115
0.0678264 0.773754 0.668055
0.118502 0.767208 0.654582
0.189868 0.758297 0.62797
0.413138 0.737743 0.584619
0.77055 0.794247 0.665248
0.907668 0.809644 0.589975
1 0.798886 0.55819
0.0372625 0.871855 0.666041
0.0372625 0.870314 0.664363
0.0684825 0.873976 0.666606
0.134798 0.861936 0.651835
0.267491 0.839231 0.636561
0.480858 0.843839 0.616785
0.810605 0.906538 0.702296
0.947738 0.952895 0.641764
1 0.950469 0.557839
0.022797 0.107973 0.542275
0.0228122 0.107927 0.541665
0.0523842 0.106966 0.540734
0.102968 0.0987259 0.531411
0.268223 0.101061 0.5308
0.479271 0.114473 0.511147
0.709636 0.106905 0.481621
0.862593 0.0936446 0.460838
0.991363 0.0838941 0.445899
0.0228428 0.107866 0.540963
0.022858 0.107774 0.540139
0.0518044 0.106813 0.538872
0.101884 0.098497 0.528908
0.264775 0.100511 0.52752
0.474052 0.11368 0.507088
0.702449 0.106157 0.477089
0.854246 0.0930648 0.456489
0.981582 0.0835889 0.441398
0.0270085 0.163485 0.556176
0.026978 0.162966 0.555657
0.0587015 0.175326 0.573251
0.106813 0.171359 0.569604
0.246754 0.16939 0.569345
0.493736 0.18999 0.549355
0.725216 0.18175 0.521019
0.871611 0.171176 0.505058
0.995407 0.163836 0.492531
0.0300145 0.252979 0.58201
0.029984 0.252125 0.580865
0.0624857 0.266529 0.600122
0.11162 0.278141 0.622232
0.173678 0.262852 0.607843
0.476265 0.28246 0.592767
0.717479 0.281514 0.566003
0.862577 0.274586 0.556039
0.98883 0.271794 0.550225
0.0323186 0.363119 0.624277
0.0323186 0.362203 0.623133
0.0646067 0.382483 0.648936
0.115267 0.390738 0.661479
0.171588 0.386938 0.663218
0.417517 0.385855 0.646372
0.699397 0.399435 0.62414
0.853712 0.397101 0.616068
0.981094 0.397208 0.614237
0.0340276 0.483635 0.670329
0.0343786 0.48246 0.668696
0.0708629 0.502434 0.691463
0.128756 0.516243 0.706645
0.188632 0.519356 0.710552
0.309743 0.509941 0.701289
0.677638 0.53434 0.688182
0.852888 0.540337 0.690822
0.982788 0.541756 0.689647
0.0350652 0.616144 0.718975
0.03505 0.615228 0.717952
0.0666514 0.637522 0.743923
0.11664 0.656977 0.767361
0.17116 0.676936 0.792248
0.237583 0.669657 0.782483
0.644373 0.6813 0.760449
0.859617 0.698604 0.764797
0.999878 0.708888 0.767437
0.0356451 0.759228 0.768322
0.0356146 0.757351 0.766323
0.0665904 0.778759 0.788922
0.116289 0.798688 0.810056
0.170291 0.81828 0.830182
0.226947 0.817594 0.808255
0.628107 0.805417 0.753063
0.883833 0.835874 0.779263
1 0.847105 0.775738
0.0359197 0.896437 0.811643
0.0359045 0.895109 0.810193
0.0662394 0.912276 0.83125
0.115892 0.919799 0.839033
0.170581 0.918303 0.829602
0.245457 0.908553 0.785168
0.66482 0.906126 0.773877
0.93022 0.955901 0.841291
1 0.970657 0.778378
0.0199283 0.115892 0.638773
0.0199435 0.115801 0.63801
0.0489509 0.115724 0.637476
0.0953994 0.106966 0.628199
0.200809 0.100465 0.627756
0.439384 0.119951 0.610468
0.656001 0.120577 0.587488
0.854154 0.101061 0.547036
0.986572 0.0940566 0.534874
0.0199741 0.115755 0.637308
0.0199893 0.115679 0.636576
0.0484169 0.115633 0.636103
0.0946517 0.106966 0.626902
0.198444 0.100252 0.626307
0.437018 0.119722 0.609201
0.653452 0.120562 0.586404
0.852125 0.101091 0.546014
0.984817 0.0939651 0.533684
0.024918 0.172946 0.653941
0.0248112 0.171786 0.650996
0.0554665 0.184222 0.666484
0.102235 0.181048 0.663645
0.171099 0.169497 0.658793
0.446189 0.189532 0.644602
0.663737 0.190845 0.619593
0.850919 0.173556 0.582742
0.978286 0.168734 0.57528
0.0280156 0.256733 0.670604
0.0280003 0.255955 0.669642
0.059144 0.271748 0.6907
0.106447 0.286824 0.716121
0.158633 0.268147 0.701274
0.412665 0.274907 0.691752
0.64445 0.28603 0.663661
0.839292 0.27425 0.634043
0.961715 0.270909 0.628916
0.0301061 0.366278 0.715145
0.0301061 0.365469 0.714168
0.0610666 0.382773 0.736461
0.108751 0.390875 0.749874
0.160327 0.395117 0.768002
0.310369 0.371893 0.741939
0.621729 0.394461 0.718822
0.826932 0.390555 0.694057
0.946548 0.391623 0.694591
0.0318151 0.477989 0.756741
0.0318303 0.477134 0.755718
0.0624399 0.497429 0.780896
0.110307 0.512154 0.80177
0.168231 0.516442 0.806226
0.244999 0.500618 0.799573
0.593042 0.51368 0.783551
0.816922 0.52549 0.769619
0.941878 0.53283 0.775174
0.0330663 0.598993 0.801282
0.0330663 0.598123 0.800305
0.0633402 0.616968 0.823255
0.11133 0.631235 0.842023
0.163714 0.646494 0.865034
0.219211 0.6421 0.866453
0.512001 0.651728 0.862226
0.817365 0.677913 0.845441
0.954818 0.690929 0.853986
0.0339055 0.724559 0.840742
0.0339055 0.723674 0.839734
0.0637369 0.744701 0.863233
0.111879 0.764111 0.886442
0.164492 0.783795 0.910979
0.219043 0.802823 0.928939
0.371267 0.806897 0.918959
0.818051 0.828504 0.901366
0.978805 0.844282 0.909392
0.0341802 0.840665 0.86659
0.0341344 0.83856 0.864302
0.0628061 0.856596 0.884703
0.109819 0.872816 0.903212
0.161318 0.889067 0.920958
0.214817 0.915846 0.94136
0.307103 0.916655 0.914748
0.846952 0.915724 0.891096
0.972992 0.94995 0.916716
0.0164797 0.119036 0.698024
0.0164797 0.118959 0.697307
0.0436866 0.118761 0.696483
0.0858167 0.110689 0.687129
0.154833 0.101106 0.683665
0.392279 0.11577 0.674952
0.581796 0.123491 0.654108
0.776776 0.110811 0.620981
0.923522 0.0988174 0.589151
0.0165103 0.118898 0.696666
0.0165255 0.118837 0.695994
0.0432441 0.118715 0.695247
0.0852064 0.110658 0.685939
0.153536 0.101061 0.682277
0.390204 0.115511 0.673854
0.579263 0.123445 0.653025
0.774823 0.110842 0.620035
0.921874 0.0987564 0.588144
0.0223697 0.175158 0.719951
0.0223392 0.174578 0.719081
0.0514382 0.18706 0.735256
0.0959793 0.184817 0.734859
0.147448 0.171405 0.725948
0.39704 0.182986 0.720592
0.596231 0.192477 0.696193
0.786419 0.180743 0.664622
0.926696 0.170642 0.635264
0.0248264 0.244694 0.707729
0.0248112 0.243992 0.706859
0.0530404 0.260639 0.728832
0.0959335 0.275212 0.752377
0.142382 0.260288 0.742809
0.317632 0.250736 0.731884
0.551995 0.269841 0.707012
0.736904 0.265309 0.683925
0.875517 0.259144 0.673045
0.0268559 0.34461 0.749279
0.0268406 0.343877 0.748379
0.0547951 0.358923 0.767254
0.0979629 0.366537 0.780087
0.144793 0.376043 0.803876
0.222446 0.344182 0.778164
0.529473 0.362768 0.76112
0.714763 0.368963 0.741543
0.856367 0.368154 0.739406
0.0284428 0.44567 0.787442
0.0284428 0.444907 0.786557
0.0561227 0.461555 0.806516
0.0995041 0.472679 0.822873
0.146639 0.479408 0.836713
0.200656 0.469047 0.846799
0.4692 0.464897 0.824918
0.70161 0.484337 0.809293
0.848264 0.489906 0.809018
0.0298619 0.548333 0.821241
0.0298619 0.547585 0.820371
0.0571908 0.563485 0.840253
0.100618 0.577523 0.858198
0.148043 0.592264 0.879927
0.197345 0.592874 0.889876
0.360906 0.595575 0.895567
0.696422 0.611582 0.878614
0.855451 0.628763 0.875227
0.0307469 0.663127 0.863371
0.0307469 0.662318 0.862425
0.0576944 0.680079 0.883238
0.101305 0.694514 0.901122
0.14902 0.707835 0.918166
0.198474 0.719539 0.932616
0.307561 0.721996 0.933623
0.667216 0.747372 0.931716
0.875013 0.767178 0.92401
0.0317998 0.775937 0.89604
0.0317998 0.775174 0.895155
0.0583352 0.791455 0.913329
0.102022 0.805264 0.929595
0.149767 0.818784 0.944274
0.199039 0.838239 0.963287
0.254948 0.847501 0.966995
0.592035 0.864622 0.95555
0.870039 0.872526 0.936706
