site/assets/luts/freshluts--0000881-picturefx-cross-process-methode-1-color-toning-adjustments.cube
# LUTr-Schema-Version: 2
# LUTr-ID: freshluts--0000881-picturefx-cross-process-methode-1-color-toning-adjustments
# LUTr-Title: PictureFX Cross Process Methode 1 – Color Toning adjustments
# LUTr-Collection: Fresh LUTs
# LUTr-Collection-ID: freshluts-community
# LUTr-Source: https://freshluts.com
# LUTr-Retrieved: 2026-07-27
# LUTr-Source-File: submissions-raw/freshluts/cubes/881__PictureFX-Cross-Process-Methode-1.cube
# LUTr-Source-Format: CUBE
# LUTr-Source-SHA256: 790886c6afd574acc3945fd230651ba3689a907dd6e4fe11e9a4553039955d11
# LUTr-License: CC0-1.0
# LUTr-License-URL: https://freshluts.com/termsandconditions
# LUTr-License-Basis: site-terms
# LUTr-Transform-Class: creative-look
# LUTr-Tags: creative, freshluts, community, cube, cross-process
# LUTr-Input-Color-Space:
# LUTr-Input-Gamut: unspecified
# LUTr-Input-Transfer: unspecified
# LUTr-Output-Color-Space: srgb
# LUTr-Output-Gamut: rec709
# LUTr-Output-Transfer: srgb
# LUTr-Color-Space-Confidence: camera-profile-input-required
# LUTr-Domain-Normalized: true
# LUTr-Shaper: none
# LUTr-Original-Grid: 25x25x25
# LUTr-Conversion-Grid: 25x25x25
# LUTr-Conversion-Interpolation: none
# LUTr-Conversion-Method: Metadata normalization; numeric LUT samples preserved
# LUTr-Conversion-Tool: LUTr scripts/convert-all-to-cube.mjs 2.0.0
# LUTr-Conversion-Date: 2026-07-28
# LUTr-Asset-URL: https://freshluts.com/luts/881
# LUTr-Author: MarcR.
# LUTr-Author-URL: https://freshluts.com/users/86490
# LUTr-Attribution: MarcR. via Fresh LUTs
# LUTr-Source-Labels: gamma=Other; color=None; key=Neutral; style=Cross Process
# LUTr-Note: Preserve this metadata and the upstream license notices when redistributing.
# LUTr-Upstream-Comment: Generated with IWLTBAP LUT Generator
# LUTr-Upstream-Comment: Website: http://luts.iwltbap.com
# LUTr-Upstream-Comment: LUT size
# LUTr-Upstream-Comment: LUT data points
TITLE "PictureFX Cross Process Methode 1 – Color Toning adjustments"
LUT_3D_SIZE 9
DOMAIN_MIN 0 0 0
DOMAIN_MAX 1 1 1
0 0 0
0 0 0
0 0 0
0.086275 0 0.031373
0.341176 0 0.196078
0.580392 0 0.34902
0.74902 0.45098 0.462745
0.996078 0.427451 0.196078
1 0.427451 0.25098
0 0 0
0 0 0
0.011765 0 0
0.121569 0.011765 0.054902
0.376471 0 0.211765
0.592157 0.129412 0.360784
0.752941 0.482353 0.462745
1 0.443137 0.2
1 0.447059 0.258824
0 0.058824 0.023529
0 0.058824 0.023529
0.054902 0.07451 0.031373
0.207843 0.117647 0.090196
0.431373 0.160784 0.239216
0.607843 0.294118 0.384314
0.772549 0.52549 0.423529
1 0.486275 0.223529
1 0.494118 0.27451
0 0.317647 0.168627
0 0.321569 0.172549
0 0.329412 0.176471
0.278431 0.345098 0.203922
0.466667 0.372549 0.301961
0.627451 0.470588 0.419608
0.811765 0.588235 0.258824
1 0.564706 0.262745
1 0.572549 0.305882
0.12549 0.556863 0.368627
0.129412 0.560784 0.372549
0.137255 0.564706 0.376471
0.278431 0.576471 0.388235
0.478431 0.592157 0.403922
0.635294 0.662745 0.447059
0.854902 0.686275 0.243137
1 0.670588 0.321569
1 0.678431 0.356863
0.345098 0.796078 0.305882
0.345098 0.8 0.298039
0.341176 0.8 0.278431
0.345098 0.8 0.278431
0.517647 0.803922 0.290196
0.701961 0.8 0.305882
0.890196 0.8 0.329412
1 0.784314 0.380392
1 0.784314 0.407843
0.447059 0.898039 0.380392
0.466667 0.898039 0.384314
0.517647 0.898039 0.384314
0.592157 0.894118 0.388235
0.690196 0.894118 0.396078
0.8 0.894118 0.403922
0.905882 0.890196 0.411765
1 0.882353 0.431373
1 0.878431 0.45098
0.568627 0.968627 0.458824
0.580392 0.968627 0.458824
0.615686 0.968627 0.462745
0.666667 0.964706 0.462745
0.737255 0.964706 0.466667
0.819608 0.960784 0.47451
0.901961 0.960784 0.478431
0.984314 0.956863 0.486275
1 0.956863 0.490196
0.654902 1 0.509804
0.666667 1 0.509804
0.690196 1 0.509804
0.729412 1 0.513725
0.780392 1 0.517647
0.843137 1 0.521569
0.909804 1 0.52549
0.980392 1 0.529412
0.992157 1 0.533333
0 0 0
0 0 0
0.003922 0 0
0.113725 0 0.062745
0.372549 0 0.223529
0.592157 0.058824 0.368627
0.756863 0.470588 0.466667
1 0.423529 0.2
1 0.427451 0.25098
0 0 0
0 0 0
0.031373 0.003922 0.015686
0.152941 0.015686 0.086275
0.4 0 0.239216
0.603922 0.164706 0.376471
0.764706 0.486275 0.454902
1 0.443137 0.203922
1 0.447059 0.258824
0 0.070588 0.043137
0 0.078431 0.047059
0.070588 0.094118 0.054902
0.243137 0.129412 0.121569
0.447059 0.180392 0.270588
0.615686 0.317647 0.4
0.784314 0.52549 0.403922
1 0.486275 0.227451
1 0.494118 0.27451
0 0.333333 0.2
0 0.333333 0.203922
0 0.341176 0.211765
0.298039 0.356863 0.231373
0.47451 0.384314 0.32549
0.635294 0.486275 0.431373
0.827451 0.588235 0.215686
1 0.564706 0.262745
1 0.576471 0.305882
0.141176 0.568627 0.384314
0.141176 0.568627 0.388235
0.14902 0.576471 0.392157
0.298039 0.588235 0.4
0.486275 0.603922 0.415686
0.639216 0.67451 0.458824
0.870588 0.686275 0.25098
1 0.670588 0.321569
1 0.682353 0.356863
0.345098 0.8 0.286275
0.341176 0.8 0.278431
0.341176 0.8 0.278431
0.34902 0.803922 0.282353
0.541176 0.803922 0.294118
0.717647 0.8 0.309804
0.894118 0.796078 0.333333
1 0.784314 0.380392
1 0.788235 0.407843
0.454902 0.898039 0.384314
0.47451 0.898039 0.384314
0.521569 0.898039 0.384314
0.6 0.898039 0.388235
0.698039 0.894118 0.396078
0.8 0.894118 0.403922
0.905882 0.890196 0.411765
1 0.882353 0.431373
1 0.882353 0.45098
0.572549 0.968627 0.458824
0.584314 0.968627 0.458824
0.619608 0.968627 0.462745
0.670588 0.968627 0.466667
0.741176 0.964706 0.466667
0.819608 0.960784 0.47451
0.901961 0.960784 0.478431
0.984314 0.956863 0.486275
1 0.956863 0.490196
0.658824 1 0.509804
0.666667 1 0.509804
0.690196 1 0.509804
0.729412 1 0.513725
0.784314 1 0.517647
0.847059 1 0.521569
0.913725 1 0.52549
0.980392 1 0.533333
0.992157 1 0.533333
0 0 0
0 0 0.007843
0.035294 0 0.043137
0.164706 0 0.129412
0.419608 0 0.290196
0.619608 0.184314 0.411765
0.792157 0.462745 0.431373
1 0.423529 0.243137
1 0.431373 0.266667
0 0.007843 0.035294
0.007843 0.011765 0.047059
0.066667 0.019608 0.07451
0.223529 0.019608 0.168627
0.45098 0.019608 0.305882
0.627451 0.25098 0.419608
0.8 0.478431 0.407843
1 0.443137 0.247059
1 0.45098 0.266667
0 0.109804 0.113725
0 0.121569 0.12549
0.117647 0.137255 0.145098
0.301961 0.172549 0.231373
0.482353 0.223529 0.337255
0.639216 0.372549 0.443137
0.823529 0.513725 0.329412
1 0.486275 0.258824
1 0.498039 0.27451
0 0.364706 0.278431
0 0.364706 0.282353
0.109804 0.372549 0.290196
0.341176 0.384314 0.309804
0.501961 0.415686 0.384314
0.654902 0.529412 0.466667
0.858824 0.580392 0.207843
1 0.564706 0.27451
1 0.580392 0.309804
0.176471 0.596078 0.427451
0.176471 0.596078 0.427451
0.184314 0.603922 0.431373
0.333333 0.611765 0.439216
0.509804 0.631373 0.45098
0.666667 0.690196 0.458824
0.894118 0.682353 0.262745
1 0.67451 0.329412
1 0.686275 0.360784
0.345098 0.803922 0.282353
0.345098 0.803922 0.282353
0.345098 0.803922 0.282353
0.431373 0.803922 0.286275
0.6 0.803922 0.298039
0.752941 0.803922 0.313725
0.909804 0.796078 0.341176
1 0.784314 0.384314
1 0.788235 0.407843
0.47451 0.898039 0.384314
0.494118 0.898039 0.384314
0.541176 0.898039 0.388235
0.615686 0.898039 0.392157
0.709804 0.898039 0.4
0.811765 0.894118 0.407843
0.913725 0.890196 0.415686
1 0.882353 0.435294
1 0.882353 0.45098
0.580392 0.968627 0.462745
0.592157 0.968627 0.462745
0.627451 0.968627 0.462745
0.678431 0.968627 0.466667
0.745098 0.964706 0.470588
0.823529 0.964706 0.47451
0.905882 0.960784 0.482353
0.988235 0.956863 0.486275
1 0.956863 0.494118
0.662745 1 0.509804
0.67451 1 0.509804
0.698039 1 0.509804
0.737255 1 0.513725
0.788235 1 0.517647
0.847059 1 0.521569
0.913725 1 0.52549
0.980392 1 0.533333
0.992157 1 0.533333
0 0.031373 0.192157
0.027451 0.035294 0.207843
0.141176 0.031373 0.247059
0.286275 0 0.298039
0.470588 0 0.396078
0.643137 0.27451 0.490196
0.835294 0.454902 0.4
1 0.447059 0.411765
1 0.470588 0.419608
0 0.070588 0.247059
0.003922 0.070588 0.258824
0.156863 0.066667 0.282353
0.313725 0.054902 0.32549
0.490196 0.109804 0.411765
0.65098 0.341176 0.498039
0.85098 0.462745 0.368627
1 0.466667 0.411765
1 0.486275 0.423529
0 0.2 0.317647
0 0.203922 0.32549
0.188235 0.211765 0.345098
0.364706 0.235294 0.380392
0.521569 0.305882 0.443137
0.670588 0.470588 0.509804
0.882353 0.501961 0.384314
1 0.509804 0.419608
1 0.533333 0.427451
0 0.4 0.396078
0 0.403922 0.4
0.227451 0.419608 0.411765
0.4 0.431373 0.423529
0.541176 0.478431 0.47451
0.694118 0.584314 0.498039
0.905882 0.580392 0.4
1 0.584314 0.427451
1 0.603922 0.435294
0.231373 0.643137 0.498039
0.235294 0.647059 0.498039
0.239216 0.65098 0.501961
0.388235 0.658824 0.505882
0.54902 0.67451 0.517647
0.733333 0.698039 0.396078
0.917647 0.686275 0.415686
1 0.686275 0.439216
1 0.701961 0.447059
0.372549 0.803922 0.407843
0.372549 0.803922 0.407843
0.431373 0.803922 0.407843
0.541176 0.803922 0.411765
0.666667 0.803922 0.415686
0.796078 0.803922 0.419608
0.921569 0.8 0.435294
1 0.792157 0.454902
1 0.796078 0.462745
0.513725 0.901961 0.45098
0.529412 0.901961 0.45098
0.572549 0.901961 0.45098
0.643137 0.901961 0.45098
0.729412 0.898039 0.454902
0.823529 0.898039 0.458824
0.921569 0.894118 0.466667
1 0.886275 0.478431
1 0.886275 0.486275
0.6 0.972549 0.494118
0.615686 0.972549 0.498039
0.643137 0.968627 0.498039
0.694118 0.968627 0.498039
0.756863 0.968627 0.501961
0.831373 0.964706 0.505882
0.909804 0.960784 0.509804
0.988235 0.960784 0.517647
1 0.960784 0.521569
0.682353 1 0.54902
0.690196 1 0.54902
0.713725 1 0.54902
0.74902 1 0.552941
0.8 1 0.556863
0.858824 1 0.560784
0.917647 1 0.568627
0.984314 1 0.572549
0.992157 1 0.576471
0 0.129412 0.470588
0.007843 0.129412 0.470588
0.196078 0.12549 0.486275
0.352941 0.121569 0.501961
0.517647 0.156863 0.533333
0.670588 0.388235 0.596078
0.87451 0.47451 0.521569
1 0.501961 0.552941
1 0.529412 0.564706
0 0.168627 0.486275
0 0.168627 0.490196
0.2 0.172549 0.501961
0.368627 0.188235 0.513725
0.529412 0.235294 0.545098
0.678431 0.439216 0.6
0.886275 0.490196 0.529412
1 0.517647 0.556863
1 0.545098 0.568627
0 0.301961 0.521569
0.058824 0.309804 0.521569
0.247059 0.317647 0.529412
0.403922 0.333333 0.541176
0.556863 0.384314 0.564706
0.709804 0.517647 0.580392
0.909804 0.529412 0.545098
1 0.556863 0.568627
1 0.584314 0.576471
0.098039 0.462745 0.552941
0.14902 0.470588 0.552941
0.298039 0.490196 0.560784
0.447059 0.509804 0.568627
0.584314 0.568627 0.584314
0.784314 0.584314 0.541176
0.929412 0.603922 0.564706
1 0.623529 0.580392
1 0.647059 0.584314
0.286275 0.682353 0.596078
0.294118 0.686275 0.592157
0.32549 0.690196 0.576471
0.498039 0.690196 0.556863
0.635294 0.694118 0.54902
0.811765 0.698039 0.560784
0.929412 0.705882 0.576471
1 0.713725 0.588235
1 0.729412 0.592157
0.478431 0.807843 0.564706
0.501961 0.807843 0.568627
0.54902 0.807843 0.568627
0.623529 0.807843 0.572549
0.721569 0.807843 0.572549
0.827451 0.807843 0.576471
0.929412 0.807843 0.588235
1 0.807843 0.6
1 0.815686 0.607843
0.584314 0.901961 0.596078
0.596078 0.901961 0.596078
0.631373 0.901961 0.6
0.686275 0.901961 0.6
0.756863 0.901961 0.603922
0.839216 0.898039 0.603922
0.921569 0.898039 0.607843
1 0.894118 0.615686
1 0.894118 0.623529
0.658824 0.968627 0.627451
0.666667 0.968627 0.627451
0.694118 0.968627 0.627451
0.733333 0.968627 0.631373
0.788235 0.968627 0.631373
0.85098 0.964706 0.635294
0.917647 0.964706 0.639216
0.988235 0.960784 0.643137
1 0.960784 0.647059
0.72549 1 0.662745
0.733333 1 0.662745
0.752941 1 0.666667
0.784314 1 0.666667
0.823529 1 0.666667
0.87451 1 0.670588
0.929412 1 0.67451
0.984314 1 0.678431
0.996078 1 0.682353
0.219608 0.419608 0.682353
0.219608 0.419608 0.682353
0.223529 0.423529 0.686275
0.368627 0.439216 0.690196
0.533333 0.454902 0.698039
0.701961 0.490196 0.694118
0.909804 0.501961 0.658824
1 0.54902 0.67451
1 0.584314 0.686275
0.231373 0.454902 0.690196
0.235294 0.454902 0.690196
0.235294 0.458824 0.690196
0.380392 0.47451 0.694118
0.541176 0.490196 0.698039
0.721569 0.501961 0.686275
0.917647 0.517647 0.662745
1 0.568627 0.682353
1 0.6 0.690196
0.266667 0.533333 0.698039
0.266667 0.533333 0.694118
0.262745 0.529412 0.694118
0.423529 0.533333 0.694118
0.584314 0.537255 0.690196
0.760784 0.537255 0.662745
0.92549 0.568627 0.678431
1 0.611765 0.694118
1 0.639216 0.701961
0.278431 0.6 0.682353
0.27451 0.6 0.67451
0.376471 0.596078 0.666667
0.513725 0.6 0.666667
0.662745 0.603922 0.670588
0.819608 0.619608 0.682353
0.929412 0.647059 0.698039
1 0.678431 0.709804
1 0.698039 0.713725
0.337255 0.705882 0.670588
0.380392 0.705882 0.670588
0.494118 0.705882 0.678431
0.615686 0.705882 0.686275
0.729412 0.705882 0.694118
0.839216 0.721569 0.705882
0.929412 0.733333 0.713725
1 0.752941 0.721569
1 0.764706 0.721569
0.552941 0.815686 0.694118
0.572549 0.815686 0.694118
0.619608 0.815686 0.701961
0.686275 0.815686 0.705882
0.760784 0.815686 0.709804
0.843137 0.819608 0.713725
0.929412 0.823529 0.717647
1 0.827451 0.72549
1 0.835294 0.733333
0.647059 0.905882 0.717647
0.658824 0.905882 0.721569
0.686275 0.905882 0.721569
0.729412 0.905882 0.72549
0.788235 0.905882 0.72549
0.854902 0.901961 0.72549
0.92549 0.901961 0.729412
0.992157 0.901961 0.737255
1 0.905882 0.741176
0.709804 0.968627 0.741176
0.717647 0.968627 0.741176
0.737255 0.968627 0.745098
0.772549 0.968627 0.745098
0.815686 0.964706 0.745098
0.866667 0.964706 0.74902
0.92549 0.964706 0.74902
0.984314 0.964706 0.752941
1 0.964706 0.756863
0.768627 1 0.764706
0.776471 1 0.764706
0.788235 1 0.764706
0.815686 1 0.764706
0.85098 1 0.768627
0.890196 1 0.768627
0.937255 1 0.772549
0.988235 1 0.772549
0.996078 1 0.776471
0.427451 0.517647 0.764706
0.45098 0.517647 0.764706
0.505882 0.517647 0.764706
0.592157 0.517647 0.768627
0.701961 0.517647 0.776471
0.827451 0.517647 0.780392
0.937255 0.537255 0.776471
1 0.584314 0.776471
1 0.611765 0.780392
0.45098 0.529412 0.768627
0.47451 0.529412 0.768627
0.52549 0.529412 0.768627
0.607843 0.533333 0.772549
0.713725 0.533333 0.776471
0.831373 0.533333 0.784314
0.941176 0.552941 0.780392
1 0.6 0.780392
1 0.627451 0.784314
0.505882 0.568627 0.776471
0.521569 0.568627 0.776471
0.568627 0.568627 0.776471
0.643137 0.572549 0.780392
0.737255 0.576471 0.784314
0.847059 0.580392 0.788235
0.941176 0.6 0.784314
1 0.639216 0.788235
1 0.666667 0.788235
0.560784 0.639216 0.784314
0.576471 0.639216 0.788235
0.615686 0.643137 0.788235
0.678431 0.643137 0.788235
0.760784 0.647059 0.792157
0.854902 0.65098 0.796078
0.941176 0.67451 0.796078
1 0.705882 0.796078
1 0.72549 0.803922
0.588235 0.729412 0.792157
0.603922 0.729412 0.792157
0.643137 0.733333 0.796078
0.705882 0.737255 0.8
0.776471 0.741176 0.8
0.854902 0.745098 0.803922
0.933333 0.760784 0.807843
1 0.780392 0.815686
1 0.796078 0.819608
0.619608 0.827451 0.796078
0.635294 0.827451 0.8
0.670588 0.827451 0.8
0.721569 0.827451 0.803922
0.788235 0.827451 0.807843
0.858824 0.831373 0.811765
0.929412 0.839216 0.819608
0.992157 0.847059 0.823529
1 0.854902 0.827451
0.690196 0.909804 0.807843
0.701961 0.909804 0.807843
0.72549 0.909804 0.811765
0.768627 0.909804 0.815686
0.811765 0.909804 0.819608
0.870588 0.909804 0.823529
0.929412 0.909804 0.823529
0.984314 0.909804 0.831373
1 0.913725 0.835294
0.756863 0.968627 0.827451
0.764706 0.968627 0.827451
0.780392 0.968627 0.831373
0.803922 0.968627 0.835294
0.839216 0.968627 0.835294
0.886275 0.964706 0.835294
0.933333 0.964706 0.839216
0.984314 0.964706 0.839216
1 0.968627 0.843137
0.807843 1 0.847059
0.811765 1 0.847059
0.823529 1 0.847059
0.843137 1 0.847059
0.87451 1 0.847059
0.909804 1 0.847059
0.94902 1 0.85098
0.988235 1 0.85098
1 1 0.854902
0.623529 0.576471 0.866667
0.635294 0.576471 0.866667
0.666667 0.576471 0.866667
0.717647 0.580392 0.866667
0.792157 0.584314 0.870588
0.878431 0.588235 0.870588
0.964706 0.592157 0.87451
1 0.619608 0.866667
1 0.643137 0.866667
0.627451 0.592157 0.866667
0.643137 0.592157 0.866667
0.670588 0.592157 0.866667
0.72549 0.596078 0.870588
0.796078 0.6 0.870588
0.878431 0.603922 0.87451
0.964706 0.607843 0.87451
1 0.635294 0.866667
1 0.658824 0.866667
0.643137 0.627451 0.870588
0.654902 0.627451 0.870588
0.686275 0.631373 0.870588
0.733333 0.631373 0.870588
0.803922 0.635294 0.87451
0.882353 0.639216 0.87451
0.960784 0.647059 0.87451
1 0.67451 0.870588
1 0.694118 0.870588
0.666667 0.690196 0.87451
0.67451 0.690196 0.87451
0.701961 0.690196 0.87451
0.74902 0.694118 0.87451
0.811765 0.698039 0.87451
0.882353 0.701961 0.878431
0.952941 0.709804 0.878431
1 0.733333 0.87451
1 0.74902 0.87451
0.686275 0.768627 0.878431
0.698039 0.768627 0.878431
0.72549 0.772549 0.878431
0.764706 0.772549 0.878431
0.819608 0.776471 0.882353
0.882353 0.776471 0.882353
0.945098 0.784314 0.882353
1 0.8 0.882353
1 0.811765 0.886275
0.701961 0.843137 0.878431
0.713725 0.847059 0.878431
0.737255 0.847059 0.882353
0.776471 0.847059 0.882353
0.823529 0.847059 0.886275
0.878431 0.85098 0.890196
0.937255 0.854902 0.890196
0.988235 0.866667 0.894118
1 0.87451 0.898039
0.729412 0.917647 0.882353
0.741176 0.917647 0.882353
0.760784 0.913725 0.882353
0.792157 0.913725 0.886275
0.835294 0.913725 0.890196
0.882353 0.913725 0.898039
0.933333 0.913725 0.898039
0.984314 0.921569 0.901961
1 0.92549 0.905882
0.784314 0.972549 0.890196
0.792157 0.972549 0.890196
0.807843 0.972549 0.894118
0.831373 0.968627 0.898039
0.866667 0.968627 0.901961
0.901961 0.968627 0.905882
0.941176 0.968627 0.905882
0.984314 0.968627 0.905882
1 0.972549 0.909804
0.835294 1 0.901961
0.839216 1 0.901961
0.85098 1 0.905882
0.870588 1 0.909804
0.894118 1 0.909804
0.92549 1 0.909804
0.956863 1 0.913725
0.988235 1 0.913725
1 1 0.913725
0.709804 0.643137 0.933333
0.717647 0.647059 0.933333
0.745098 0.647059 0.933333
0.784314 0.647059 0.933333
0.839216 0.65098 0.933333
0.901961 0.654902 0.933333
0.972549 0.658824 0.937255
1 0.666667 0.937255
1 0.678431 0.937255
0.713725 0.658824 0.933333
0.72549 0.658824 0.933333
0.74902 0.658824 0.933333
0.788235 0.658824 0.933333
0.839216 0.662745 0.933333
0.905882 0.666667 0.937255
0.972549 0.67451 0.937255
1 0.678431 0.937255
1 0.694118 0.937255
0.72549 0.686275 0.933333
0.733333 0.686275 0.933333
0.756863 0.690196 0.933333
0.796078 0.690196 0.933333
0.847059 0.694118 0.937255
0.905882 0.698039 0.937255
0.968627 0.701961 0.937255
1 0.713725 0.937255
1 0.72549 0.937255
0.741176 0.737255 0.937255
0.74902 0.737255 0.937255
0.768627 0.741176 0.937255
0.803922 0.741176 0.937255
0.85098 0.745098 0.937255
0.905882 0.74902 0.937255
0.964706 0.752941 0.941176
1 0.760784 0.941176
1 0.776471 0.941176
0.760784 0.803922 0.941176
0.768627 0.803922 0.941176
0.784314 0.803922 0.941176
0.815686 0.807843 0.941176
0.854902 0.807843 0.941176
0.901961 0.811765 0.941176
0.956863 0.815686 0.941176
1 0.819608 0.941176
1 0.831373 0.941176
0.772549 0.862745 0.941176
0.780392 0.866667 0.941176
0.796078 0.866667 0.941176
0.823529 0.866667 0.945098
0.862745 0.870588 0.945098
0.901961 0.870588 0.945098
0.94902 0.87451 0.94902
0.996078 0.878431 0.94902
1 0.886275 0.94902
0.788235 0.92549 0.941176
0.796078 0.92549 0.941176
0.811765 0.92549 0.945098
0.835294 0.92549 0.945098
0.870588 0.92549 0.94902
0.905882 0.92549 0.952941
0.945098 0.92549 0.952941
0.988235 0.929412 0.952941
1 0.937255 0.956863
0.815686 0.976471 0.945098
0.819608 0.976471 0.945098
0.831373 0.972549 0.945098
0.854902 0.972549 0.94902
0.882353 0.972549 0.952941
0.913725 0.972549 0.952941
0.952941 0.972549 0.956863
0.988235 0.976471 0.960784
1 0.980392 0.960784
0.858824 1 0.94902
0.862745 1 0.94902
0.870588 1 0.94902
0.890196 1 0.952941
0.913725 1 0.956863
0.941176 1 0.960784
0.964706 1 0.960784
0.992157 1 0.964706
1 1 0.964706
