site/assets/luts/freshluts--0001220-rd-cube.cube
# LUTr-Schema-Version: 2
# LUTr-ID: freshluts--0001220-rd-cube
# LUTr-Title: RD CUBE
# LUTr-Collection: Fresh LUTs
# LUTr-Collection-ID: freshluts-community
# LUTr-Source: https://freshluts.com
# LUTr-Retrieved: 2026-07-27
# LUTr-Source-File: submissions-raw/freshluts/cubes/1220__RD_CUBE.cube
# LUTr-Source-Format: CUBE
# LUTr-Source-SHA256: 8fdc54064e88d6075b8f339b11fe88277024432e93570b1e641117b2e105d5ee
# LUTr-License: CC0-1.0
# LUTr-License-URL: https://freshluts.com/termsandconditions
# LUTr-License-Basis: site-terms
# LUTr-Transform-Class: creative-look
# LUTr-Tags: creative, freshluts, community, cube, blue, sony-s-log3
# LUTr-Input-Color-Space:
# LUTr-Input-Gamut: sony-s-gamut3
# LUTr-Input-Transfer: sony-s-log3
# LUTr-Output-Color-Space: srgb
# LUTr-Output-Gamut: rec709
# LUTr-Output-Transfer: srgb
# LUTr-Color-Space-Confidence: camera-profile-input-required
# LUTr-Domain-Normalized: true
# LUTr-Shaper: none
# LUTr-Original-Grid: 33x33x33
# LUTr-Conversion-Grid: 33x33x33
# LUTr-Conversion-Interpolation: none
# LUTr-Conversion-Method: Metadata normalization; numeric LUT samples preserved
# LUTr-Conversion-Tool: LUTr scripts/convert-all-to-cube.mjs 2.0.0
# LUTr-Conversion-Date: 2026-07-28
# LUTr-Asset-URL: https://freshluts.com/luts/1220
# LUTr-Author: Antony Eliezer
# LUTr-Author-URL: https://freshluts.com/users/32961
# LUTr-Attribution: Antony Eliezer via Fresh LUTs
# LUTr-Source-Labels: gamma=Sony S-Log 3; color=Blue; key=Neutral; style=Adventure
# LUTr-Note: Preserve this metadata and the upstream license notices when redistributing.
# LUTr-Upstream-Comment: VEGAS Pro LUT
TITLE "RD CUBE"
LUT_3D_SIZE 33
DOMAIN_MIN 0 0 0
DOMAIN_MAX 1 1 1
0.04055658 0.04035254 0.04058388
0.04417796 0.04239856 0.04235345
0.04780249 0.04445051 0.04412895
0.05165602 0.04652953 0.04590658
0.05556593 0.04873101 0.04775911
0.0629444 0.05221126 0.05053343
0.0719927 0.05638324 0.05388546
0.08114927 0.0606398 0.05728523
0.09661085 0.06668251 0.06185738
0.11403308 0.07379542 0.0670786
0.13353837 0.0810556 0.07239605
0.15588775 0.08796161 0.07739396
0.17943968 0.0946449 0.08221063
0.20320836 0.10001449 0.08561445
0.23172228 0.10565685 0.08857183
0.259781 0.11109512 0.09070574
0.28880256 0.11562093 0.09250111
0.32024327 0.11808749 0.09281649
0.34962431 0.11964978 0.092565
0.38058272 0.12102439 0.09218749
0.41043034 0.1225928 0.0915207
0.44219184 0.12480956 0.09022841
0.47273144 0.12702857 0.08910023
0.50018984 0.12773354 0.08813438
0.52678967 0.12748146 0.08799502
0.55114532 0.12633672 0.08808307
0.57515204 0.12792048 0.08822744
0.59727067 0.13118364 0.08860184
0.61845434 0.13226902 0.08814476
0.63927341 0.13372643 0.08783251
0.65472513 0.13437894 0.08712719
0.67033583 0.1356184 0.08667361
0.68186289 0.1340808 0.0873308
0.04425801 0.04411958 0.04318698
0.04710378 0.04578105 0.04454437
0.05060377 0.04772922 0.04621609
0.05461985 0.0497811 0.04798671
0.06037066 0.05261545 0.05026929
0.06848406 0.05629708 0.05319259
0.07828246 0.06064475 0.05675666
0.08989856 0.0660219 0.06087763
0.10745984 0.07306334 0.06614719
0.12588648 0.07987619 0.07123949
0.14677431 0.08657496 0.07601613
0.16877937 0.09279732 0.08049446
0.1923538 0.09890722 0.08473217
0.2168652 0.1043715 0.08793352
0.24596618 0.11035054 0.09050498
0.27397835 0.11488988 0.09208803
0.30320871 0.1183868 0.09343038
0.33356774 0.12051357 0.09354717
0.36301062 0.12165695 0.09301322
0.39337039 0.12319967 0.09251196
0.42494363 0.12642874 0.09189293
0.45631787 0.128178 0.09024114
0.48506561 0.12967037 0.08916371
0.51263905 0.13037083 0.08911311
0.53792274 0.12939328 0.08875091
0.56231165 0.12937747 0.08879851
0.58636045 0.13260335 0.08887619
0.60764217 0.13459276 0.08870277
0.62948018 0.1360224 0.08831922
0.64799941 0.13694504 0.08765347
0.66313505 0.13720663 0.08690943
0.67718589 0.13724163 0.08704887
0.68785971 0.13659801 0.08813272
0.04796259 0.04789254 0.04579601
0.05066925 0.04942939 0.04703747
0.05326699 0.05085653 0.04818817
0.05819721 0.05318439 0.0501481
0.06529417 0.05651939 0.05274024
0.07419873 0.06043234 0.05585185
0.08467792 0.06603289 0.06030865
0.1004327 0.07256115 0.06520619
0.11918584 0.07948656 0.07040444
0.13842167 0.08584394 0.07508565
0.15976405 0.0920613 0.07952809
0.18225396 0.098212 0.08394653
0.20663841 0.10422583 0.08756139
0.23351973 0.11016442 0.09033819
0.26249182 0.1156342 0.09253168
0.2889905 0.11962122 0.09438352
0.31982762 0.12170429 0.09451203
0.34887177 0.12326504 0.09432149
0.37842786 0.1251689 0.0938458
0.41071758 0.12812349 0.09306636
0.44103044 0.13057171 0.09207356
0.47275424 0.13249508 0.09040695
0.49930987 0.13278691 0.08998058
0.52575469 0.13287687 0.09008133
0.55070484 0.13258936 0.08966401
0.57446867 0.13457902 0.08948634
0.59769607 0.13730548 0.08986051
0.61884207 0.13847443 0.08896023
0.64176726 0.14059475 0.0883136
0.65711039 0.14046969 0.08754932
0.67162246 0.14009671 0.0871273
0.68345368 0.14009534 0.0881009
0.6939255 0.13983661 0.08933726
0.05178239 0.05127902 0.04783637
0.05419638 0.05252651 0.04881299
0.05724857 0.05409254 0.05003687
0.06325914 0.05682671 0.05221134
0.07055122 0.06052019 0.05505471
0.08054871 0.06602539 0.05948084
0.09347179 0.07192206 0.06396408
0.11004094 0.07854458 0.06906588
0.13053946 0.08549288 0.07421205
0.15109277 0.0915512 0.07856039
0.17311153 0.09754262 0.08288142
0.19775845 0.10458164 0.08727467
0.22343373 0.11110184 0.09077852
0.25049135 0.11617307 0.09279794
0.27898383 0.12053737 0.09481677
0.30663729 0.12322861 0.09557313
0.33623353 0.12495415 0.09551429
0.36572644 0.12714927 0.09499522
0.39666998 0.13011767 0.09422228
0.42787573 0.13295281 0.09350734
0.45858529 0.13493349 0.09192298
0.48818079 0.13609083 0.09067003
0.51409459 0.1359693 0.09100837
0.53994679 0.1363599 0.09067924
0.56479675 0.13838589 0.09028289
0.58793277 0.14034684 0.090272
0.61032605 0.14198495 0.0900415
0.63329208 0.14395677 0.08883259
0.65343702 0.14500134 0.08801413
0.66765779 0.14404403 0.08701357
0.68046302 0.14395256 0.08783519
0.6911577 0.14349677 0.08879863
0.7012831 0.14299378 0.08964285
0.05591928 0.05487563 0.05020173
0.05923271 0.05641896 0.05136395
0.06417453 0.05887903 0.05322699
0.07083572 0.06270528 0.05613716
0.07639538 0.06581125 0.05853607
0.0877135 0.07161381 0.06316891
0.10203202 0.07755712 0.06765813
0.11944746 0.08367725 0.0721091
0.1407664 0.09035014 0.07692864
0.16321832 0.09694612 0.08164549
0.18689893 0.10509218 0.08686938
0.21330898 0.11186117 0.09064969
0.24040236 0.11749288 0.09315742
0.26790023 0.12192862 0.09500217
0.29560822 0.12586892 0.09681683
0.32465288 0.12728836 0.09653844
0.35553727 0.1305669 0.09610668
0.38562012 0.13433622 0.09587715
0.41703698 0.13654071 0.09469402
0.44796485 0.1387423 0.09326801
0.4791216 0.14099799 0.09148534
0.50562572 0.14044538 0.09161112
0.53045279 0.14098738 0.09154142
0.55669117 0.1433838 0.09100485
0.57978767 0.14491709 0.09065606
0.60293424 0.14723785 0.09095154
0.626351 0.14822806 0.08933364
0.64870584 0.1496046 0.08833949
0.66494757 0.1492887 0.08726678
0.67753643 0.14947718 0.08791738
0.68868417 0.14803903 0.08835108
0.69921172 0.14731835 0.08919127
0.70812535 0.14618209 0.08938669
0.06347668 0.06085616 0.05401371
0.06779006 0.0633414 0.05579555
0.07269006 0.06608199 0.05780218
0.07840819 0.06919204 0.06021062
0.08411799 0.07240763 0.0626512
0.09564645 0.07728746 0.06618139
0.11003742 0.08284533 0.07036316
0.12818548 0.08897047 0.07474338
0.14992309 0.09600033 0.07953686
0.17421603 0.10473949 0.08518874
0.20084617 0.112751 0.09015154
0.2285334 0.11905932 0.093364
0.25648075 0.1244926 0.09566231
0.2848089 0.12794383 0.09715981
0.31402329 0.13084017 0.09777491
0.3449932 0.13487911 0.09753329
0.37643361 0.13834579 0.09692308
0.40690371 0.14103159 0.09611435
0.43898311 0.14382327 0.09487577
0.46962562 0.14506145 0.09274112
0.49768174 0.14561303 0.09235866
0.52315468 0.14736767 0.0928202
0.54823577 0.1487405 0.09211835
0.57306308 0.15043344 0.09152803
0.59653896 0.15340883 0.09166522
0.62083191 0.15602276 0.090906
0.64332581 0.15553989 0.0887867
0.66233212 0.15592547 0.08786332
0.67559028 0.15637749 0.08821242
0.68739688 0.15568924 0.08880606
0.69823146 0.15369922 0.08934613
0.70802766 0.15237142 0.08948369
0.71831167 0.15479095 0.08996381
0.07313489 0.06919278 0.05945233
0.07666926 0.07111657 0.0608906
0.08153979 0.07372823 0.06288937
0.08677592 0.07636958 0.06493798
0.09535355 0.07966895 0.06728257
0.10730448 0.08441705 0.07085759
0.11944704 0.0884148 0.07345979
0.1392145 0.0956406 0.07823452
0.16124725 0.10440315 0.08357984
0.1849734 0.11231483 0.08861679
0.21328452 0.11981454 0.09285507
0.24361329 0.12578437 0.0951632
0.27167857 0.13044721 0.0972874
0.30148289 0.13532905 0.09863218
0.33406177 0.13955927 0.09840959
0.36529118 0.14321724 0.09782635
0.39751652 0.14664796 0.09702313
0.42980739 0.14966398 0.09582128
0.4613761 0.15131877 0.09391389
0.49098316 0.15282059 0.09268904
0.51706207 0.15510136 0.09305339
0.54218644 0.15674233 0.09291079
0.56756032 0.15846889 0.09195366
0.59301424 0.16196468 0.09156256
0.61621362 0.16513467 0.09162302
0.64026356 0.16540894 0.08937818
0.66037846 0.1649143 0.08870457
0.67372495 0.16441338 0.0884246
0.68650442 0.16440228 0.08943798
0.69733191 0.16167565 0.08924715
0.70870531 0.16260821 0.09015854
0.71896464 0.16267917 0.08979531
0.72894305 0.16437514 0.09053881
0.08106015 0.07754247 0.06491554
0.08416194 0.07943657 0.06633619
0.089832 0.08214042 0.06833007
0.0974626 0.08507921 0.0704212
0.10597164 0.0881367 0.07254438
0.11926106 0.0939602 0.07579467
0.13155843 0.09999713 0.07906609
0.14983076 0.10628422 0.0828005
0.17293091 0.11473373 0.08802352
0.19784975 0.12193485 0.09224438
0.22590257 0.12860365 0.09568421
0.25667077 0.1340261 0.09731443
0.28776506 0.14047712 0.09900001
0.31995779 0.14558895 0.09944897
0.35278878 0.14943086 0.09893494
0.3873224 0.15428741 0.09811726
0.42027861 0.15695922 0.0966249
0.4525741 0.15882149 0.09522627
0.48366615 0.16210051 0.09306692
0.510876 0.16405293 0.09304886
0.53673869 0.16544344 0.09345983
0.56333661 0.16917484 0.0924134
0.58977383 0.17328805 0.09164965
0.61370009 0.1747046 0.0915209
0.63624513 0.17567685 0.09055255
0.6571334 0.17600328 0.09000435
0.67240745 0.17504604 0.08967841
0.68538392 0.17365208 0.08994436
0.69740534 0.17352533 0.09026964
0.70915103 0.17598648 0.09143852
0.72032273 0.17548123 0.09115075
0.73080021 0.17464884 0.09054853
0.73994607 0.17199846 0.0903348
0.08755034 0.08702438 0.07111972
0.09212164 0.08988489 0.07259623
0.10043771 0.09437014 0.07482456
0.10853784 0.09869616 0.07701519
0.11882527 0.10311002 0.07954463
0.13183185 0.1082503 0.08246895
0.14621022 0.11374366 0.08564989
0.1657322 0.12011161 0.08947326
0.18676314 0.12599115 0.09292934
0.2131733 0.13227785 0.09622187
0.24215767 0.13927849 0.09801081
0.27197894 0.14621773 0.09926491
0.30420929 0.15220691 0.10073073
0.33967477 0.15751664 0.10019377
0.37428427 0.16236432 0.09905139
0.40933153 0.16663682 0.09807482
0.44246954 0.1691577 0.09634575
0.47411296 0.17257029 0.09425687
0.50435853 0.17534085 0.09302207
0.53071094 0.1777024 0.09337544
0.559196 0.18274929 0.09285258
0.58657247 0.18700442 0.09176216
0.61159891 0.18931977 0.09160192
0.63286752 0.19041251 0.09304216
0.65354824 0.18963084 0.09190103
0.67258954 0.18954003 0.09172892
0.68488777 0.18856178 0.09211406
0.69774777 0.19228923 0.09394248
0.71082723 0.1930642 0.09323707
0.72228485 0.19378051 0.09350012
0.73320085 0.19193634 0.09233836
0.74254608 0.18579531 0.09154996
0.75009495 0.17886956 0.09139304
0.09906613 0.10367706 0.07844421
0.10358579 0.10659867 0.07990521
0.11173488 0.11143232 0.08237277
0.11957183 0.11571028 0.08492959
0.13142192 0.12138449 0.08813144
0.14589418 0.12647319 0.09128472
0.16143067 0.1315085 0.09437641
0.18371131 0.13819262 0.09686079
0.2063987 0.14514466 0.09876446
0.23004735 0.15024249 0.09979432
0.26139086 0.15731411 0.10112751
0.2924484 0.16332439 0.10226164
0.32520494 0.16885644 0.10257197
0.36174226 0.1741811 0.1014558
0.3956632 0.17780107 0.09957564
0.43027806 0.18233083 0.09759614
0.46290746 0.18514085 0.09576704
0.49485469 0.1876145 0.09311359
0.52443469 0.19288024 0.09247991
0.55179238 0.19713685 0.09305381
0.58137602 0.20151623 0.09147599
0.60695964 0.20415005 0.0912716
0.62956762 0.20530376 0.09318503
0.65043992 0.20497595 0.09298675
0.67077148 0.20415507 0.09255163
0.68458837 0.20812845 0.09405982
0.69616359 0.21126604 0.09676909
0.71023393 0.21261743 0.09629653
0.72394311 0.21236894 0.0949638
0.73463148 0.2093274 0.09475792
0.74484134 0.20530768 0.0945036
0.75268358 0.19532737 0.09318807
0.76007289 0.1859535 0.09257179
0.10679913 0.12280379 0.08639412
0.11185897 0.12629329 0.08815079
0.12039107 0.13143897 0.09092202
0.12767166 0.13616499 0.09303005
0.14006406 0.14320758 0.09526965
0.15726842 0.15057425 0.09738665
0.17603606 0.156657 0.09939335
0.20079385 0.16300021 0.10160422
0.22650141 0.17014539 0.10306486
0.2554051 0.17481315 0.10442209
0.28408739 0.17927158 0.10498255
0.31758347 0.1846852 0.10606856
0.34978557 0.18889931 0.10411337
0.38358647 0.19344459 0.10177805
0.41807875 0.19784011 0.10003046
0.45123485 0.19958183 0.09730502
0.48335582 0.2048738 0.09502204
0.51566643 0.21072762 0.09264678
0.54439229 0.21365616 0.09207471
0.57282186 0.21785745 0.09199052
0.6010406 0.22222845 0.09197948
0.62432599 0.2227436 0.09274471
0.64680886 0.22274925 0.09402705
0.66498452 0.22651748 0.09623978
0.68152189 0.23097023 0.09862939
0.69526994 0.23378226 0.09986164
0.70846605 0.23584782 0.10104743
0.72344083 0.23597266 0.10060625
0.73628795 0.23221329 0.09965479
0.74704343 0.22643387 0.09856293
0.75597072 0.21873493 0.09768572
0.76239884 0.21066518 0.09820843
0.76848805 0.20824102 0.09854841
0.1147538 0.14590679 0.09237216
0.11971731 0.15058559 0.09350953
0.12683588 0.15648712 0.09519354
0.13382025 0.16207856 0.09685013
0.14971386 0.17018996 0.09849755
0.16869342 0.17856564 0.10042848
0.19325733 0.18631892 0.10353784
0.22100958 0.19266082 0.10634791
0.25059626 0.19860107 0.10766939
0.28123382 0.20343898 0.10765739
0.31477317 0.20764172 0.10752761
0.34315789 0.20935465 0.10605135
0.37702414 0.21326722 0.10382122
0.40938556 0.21676236 0.10221585
0.44073218 0.22029401 0.10015054
0.47363171 0.2248015 0.09758365
0.50362593 0.22831683 0.09472182
0.53483039 0.23326828 0.09301805
0.5627594 0.23618534 0.09338333
0.5912478 0.23943324 0.09271105
0.61840624 0.24270634 0.0928454
0.63877636 0.24440685 0.09592163
0.65821165 0.24937652 0.09920158
0.67618954 0.25370237 0.10203728
0.6913982 0.25681689 0.10329384
0.70605952 0.25853065 0.10518734
0.72241288 0.25768295 0.10404161
0.73725837 0.25742906 0.10407267
0.74817258 0.25074962 0.10283668
0.7569117 0.24738324 0.10502657
0.76305073 0.24385549 0.10641776
0.76852596 0.23974666 0.10856521
0.77541423 0.23835377 0.10639574
0.1207241 0.17298509 0.09486322
0.12530375 0.17841621 0.09542179
0.13172317 0.18498178 0.09617528
0.14098276 0.1916339 0.09739082
0.15830187 0.19973543 0.09984538
0.17905535 0.20845005 0.10233577
0.20537634 0.21673401 0.10484407
0.23589322 0.22443366 0.10657628
0.27212352 0.23027171 0.10729116
0.30893856 0.23534036 0.10710534
0.34451142 0.24018335 0.10632713
0.37554631 0.24178529 0.10511993
0.4055931 0.24300742 0.10379588
0.43960243 0.24709076 0.1037796
0.46701285 0.24805547 0.10053682
0.49612319 0.25134999 0.098255
0.52583683 0.25564826 0.0960106
0.55361509 0.25692192 0.09462324
0.58116025 0.25930461 0.09449828
0.60787487 0.26366425 0.09530708
0.63003278 0.26785371 0.09736124
0.6492821 0.27088895 0.10138081
0.6688664 0.27548915 0.10350639
0.68686682 0.27989885 0.10619564
0.7028631 0.28170171 0.10714453
0.71861845 0.28214675 0.10838015
0.73496097 0.28119746 0.10736941
0.74674946 0.281587 0.11029747
0.75476444 0.27944568 0.11373687
0.7619862 0.27799386 0.11665356
0.76895779 0.27538833 0.1178804
0.77594763 0.27282536 0.116955
0.78394371 0.26916951 0.1149782
0.12436578 0.20297824 0.09502429
0.12810592 0.20905972 0.09541722
0.13428123 0.21584971 0.09607476
0.14553942 0.22298215 0.09735241
0.16437291 0.2311306 0.09962275
0.18443783 0.23998077 0.10080516
0.21298879 0.24879627 0.10076822
0.25192812 0.25728875 0.10171191
0.29434183 0.26460633 0.10251191
0.33505383 0.2693626 0.10416751
0.37331572 0.27283445 0.10414558
0.40759537 0.27458096 0.10474664
0.43937162 0.27573186 0.10472497
0.46459687 0.27555108 0.10330027
0.49184722 0.2769523 0.10060957
0.5188297 0.27853858 0.098998
0.54540652 0.28016853 0.09791148
0.57095212 0.2822288 0.09853109
0.59422112 0.28588986 0.10043274
0.61930954 0.29109886 0.10250229
0.63973844 0.29403523 0.10402855
0.65938628 0.29804793 0.10686792
0.67895627 0.30341765 0.11011089
0.69677365 0.30586892 0.1114578
0.71377379 0.3070333 0.11172248
0.72865027 0.3083005 0.11472581
0.74295723 0.30981305 0.11844429
0.75196707 0.31028521 0.12196417
0.76031977 0.30958539 0.12566394
0.7676875 0.30909163 0.12809029
0.77581275 0.30703416 0.12858362
0.7859115 0.30211672 0.12432347
0.7945531 0.2959331 0.12090974
0.12584126 0.23299854 0.09426645
0.13265221 0.2387723 0.09443255
0.14114906 0.24581517 0.09411094
0.15260275 0.25347805 0.0938289
0.16948223 0.26205719 0.0937862
0.19430794 0.27108109 0.09383266
0.22859715 0.27978483 0.09520762
0.27279606 0.28835735 0.09759194
0.32062039 0.29647276 0.10035188
0.36340538 0.30221236 0.10212162
0.4051508 0.305704 0.10391494
0.44071868 0.30787945 0.10518172
0.47066069 0.30941427 0.1057703
0.49395853 0.30930501 0.1041535
0.51711553 0.30907193 0.10523754
0.54300737 0.3113189 0.10656573
0.56403375 0.31118122 0.10675346
0.58623874 0.31150299 0.10681342
0.60917896 0.31608784 0.10908071
0.63047391 0.31892562 0.10987985
0.65009052 0.3218472 0.11172705
0.6699028 0.32618856 0.1138029
0.68929523 0.33122611 0.11588515
0.70625192 0.33214635 0.11813226
0.72261006 0.33331355 0.12127414
0.73620474 0.33682385 0.12552269
0.74855506 0.33827326 0.12956892
0.75780952 0.33942214 0.13268538
0.76690686 0.3410005 0.13454106
0.77536571 0.34170589 0.13661648
0.78476387 0.33817455 0.13466629
0.7946918 0.33280995 0.13171631
0.8038131 0.32386747 0.12848629
0.12792124 0.26474789 0.08900447
0.13535923 0.27109137 0.08850804
0.14449961 0.27760246 0.08820766
0.15705913 0.28576115 0.08777355
0.1784493 0.29411259 0.08804951
0.20705362 0.30266252 0.08909383
0.25300291 0.31168175 0.09224478
0.29523608 0.32039896 0.09424493
0.34377936 0.32838428 0.09696534
0.38748434 0.33457828 0.09874721
0.43499178 0.34031111 0.10289612
0.46814281 0.34223974 0.10489836
0.49571738 0.34361708 0.10743917
0.52061629 0.34415314 0.11142143
0.54384261 0.34389722 0.11431023
0.56201226 0.34278998 0.11513285
0.58227247 0.34273762 0.11552874
0.60159564 0.34341818 0.11648835
0.62187207 0.34618041 0.11852645
0.64177918 0.34777361 0.11803285
0.65989113 0.34992629 0.11965502
0.67993677 0.35409865 0.12277345
0.69872743 0.35776529 0.12644345
0.71493542 0.35927698 0.12951978
0.73035568 0.36133876 0.13294107
0.74389625 0.36554527 0.13688578
0.7545917 0.36967388 0.13992417
0.7640571 0.37107593 0.14273012
0.77352899 0.3728908 0.14368893
0.78341812 0.3727411 0.14511107
0.7933051 0.36724591 0.14474544
0.80248547 0.3607716 0.14432448
0.81062579 0.35378149 0.14073814
0.1319346 0.29589045 0.08403792
0.13979545 0.3019267 0.08332111
0.14886004 0.30836633 0.08273245
0.16919631 0.31553245 0.08340427
0.19395043 0.32394511 0.08424708
0.23273177 0.33325976 0.08619855
0.27261987 0.34256229 0.08750652
0.31655234 0.35143235 0.08932985
0.36666304 0.35843128 0.09363938
0.41776609 0.36525795 0.09983756
0.46187469 0.37147167 0.10685253
0.4931637 0.37609172 0.11288273
0.52229351 0.3778626 0.11866935
0.54871833 0.37903479 0.12486562
0.56752783 0.37856495 0.12542272
0.58391696 0.37767556 0.12602305
0.59962767 0.3763144 0.12603654
0.61889797 0.37738907 0.1279384
0.63662463 0.37822929 0.13040867
0.65386939 0.37661794 0.12964384
0.67255789 0.37928972 0.13290496
0.69101614 0.38192576 0.13617724
0.70815015 0.38413331 0.13906547
0.72380418 0.38711759 0.14216171
0.73701978 0.39233464 0.14580023
0.74990976 0.39717156 0.14974894
0.76029652 0.40049765 0.15142573
0.77140647 0.40190271 0.15298343
0.78237695 0.40111649 0.15544888
0.79270893 0.39882043 0.15656859
0.80163121 0.39585534 0.15803905
0.80978549 0.39087734 0.15661313
0.81718957 0.38690168 0.1533664
0.13662612 0.32652998 0.07964899
0.1472207 0.33235577 0.07968812
0.160826 0.33847797 0.08004884
0.18684708 0.34677127 0.08084685
0.21795619 0.3554745 0.08137603
0.25807714 0.36535639 0.0818742
0.29921958 0.37433621 0.08341233
0.34985575 0.38155642 0.08992795
0.40380952 0.38937518 0.09834255
0.45082444 0.39661899 0.10619292
0.48431575 0.4025844 0.11411039
0.51890993 0.40765408 0.12332423
0.54829198 0.41164014 0.13040791
0.56977534 0.41232795 0.13444242
0.58719474 0.41213921 0.13587879
0.60361105 0.41158029 0.13776202
0.62081969 0.41076431 0.14103793
0.63614118 0.409374 0.14189008
0.65214646 0.40893662 0.14413679
0.66769105 0.40722236 0.1445259
0.68441355 0.4089621 0.14740486
0.70245087 0.41276973 0.15170343
0.71652168 0.41504821 0.15360154
0.7310968 0.41885734 0.15694043
0.7438525 0.42488796 0.16061097
0.75697178 0.42753902 0.16289908
0.76978064 0.42750573 0.1640505
0.78151363 0.42797372 0.16551761
0.79209095 0.42893738 0.16937624
0.80136198 0.42738399 0.16999926
0.80933368 0.42716214 0.17147212
0.81556809 0.42724371 0.16952209
0.8221724 0.42357418 0.16586687
0.14834784 0.35694712 0.07795523
0.16199748 0.36307618 0.07743583
0.18378332 0.37014067 0.07667696
0.2140955 0.3789674 0.07646336
0.24774684 0.38750637 0.07738641
0.28592715 0.39607489 0.08025774
0.33597296 0.4033227 0.08760162
0.38443282 0.41162941 0.09572376
0.43131518 0.41960827 0.10375167
0.46963254 0.42613083 0.11403675
0.50234342 0.43249691 0.12278775
0.53856462 0.43771994 0.13314493
0.56657803 0.44214562 0.14145905
0.58758903 0.4454678 0.14634366
0.60685474 0.44593874 0.15122041
0.62435806 0.44612652 0.15550192
0.64103842 0.44545645 0.15838343
0.65420264 0.44393772 0.15928455
0.66725171 0.44152126 0.15942647
0.68261385 0.4415333 0.16132891
0.69781089 0.44313392 0.16479358
0.71226847 0.44413519 0.16652006
0.72602224 0.44692457 0.16898012
0.73996449 0.44856921 0.171094
0.75432074 0.45150867 0.17356241
0.76736701 0.45289245 0.17550047
0.78006011 0.45357609 0.17710915
0.79082119 0.45623049 0.18045287
0.8005088 0.45959195 0.18389523
0.80873078 0.46122694 0.1855513
0.81577504 0.46224371 0.18576287
0.82298785 0.46054649 0.18239249
0.83027971 0.45494345 0.17911682
0.17230035 0.38919535 0.07372835
0.18980312 0.39559942 0.07298189
0.21398152 0.40252 0.07381614
0.24429552 0.40942186 0.07517222
0.27946475 0.41687834 0.07888464
0.32780126 0.42464685 0.08659051
0.3697769 0.43291759 0.09390615
0.41695303 0.4428423 0.10226072
0.4545058 0.44960138 0.11293297
0.49158359 0.45607078 0.12481637
0.53206193 0.46265572 0.13853811
0.56213689 0.46865943 0.14838889
0.58523697 0.47347853 0.15630127
0.60779858 0.47769514 0.16372226
0.62758529 0.48029473 0.16967057
0.64510804 0.48043293 0.17478554
0.65800226 0.47938448 0.17556743
0.67038107 0.4779956 0.17582051
0.68380052 0.47658333 0.17776269
0.69678003 0.47497681 0.17771304
0.71166724 0.47578394 0.18022621
0.72414082 0.474884 0.18174855
0.73708385 0.47480986 0.18226106
0.75122035 0.47706985 0.18546773
0.76524979 0.4790816 0.18860854
0.77789265 0.48143515 0.19136381
0.78956503 0.48501673 0.19507891
0.79983532 0.48935887 0.19950292
0.80867964 0.49264792 0.20182338
0.81755912 0.49219906 0.20152244
0.82505912 0.4915939 0.1998509
0.83275908 0.4876329 0.19581926
0.84017813 0.48312867 0.19276804
0.20386255 0.41918314 0.07172871
0.22258577 0.42407978 0.07312804
0.2445911 0.42954242 0.07432108
0.28481629 0.43763548 0.08125465
0.32202363 0.44555873 0.08690916
0.36505118 0.45610353 0.09404738
0.40619609 0.46583578 0.10261341
0.44201568 0.47237656 0.11512284
0.48057842 0.47921509 0.12803128
0.51905173 0.48598447 0.14164107
0.552598 0.49205875 0.15375128
0.57624602 0.49763975 0.16169897
0.5971185 0.50259483 0.16891333
0.62193239 0.50671387 0.177481
0.64202189 0.50955671 0.1836561
0.65691322 0.51095337 0.18637301
0.67073911 0.51021373 0.18858722
0.68363774 0.50941795 0.18942687
0.69722962 0.50840342 0.19160867
0.71171433 0.50738162 0.19360399
0.72364175 0.50542641 0.19340348
0.73661143 0.50521231 0.19587076
0.74982482 0.50576502 0.19878435
