site/assets/luts/freshluts--0000395-crizo-mzeyah-model-lut.cube
# LUTr-Schema-Version: 2
# LUTr-ID: freshluts--0000395-crizo-mzeyah-model-lut
# LUTr-Title: Crizo Mzeyah Model Lut
# LUTr-Collection: Fresh LUTs
# LUTr-Collection-ID: freshluts-community
# LUTr-Source: https://freshluts.com
# LUTr-Retrieved: 2026-07-27
# LUTr-Source-File: submissions-raw/freshluts/cubes/395__Model_Lut_1.cube
# LUTr-Source-Format: CUBE
# LUTr-Source-SHA256: a05b64db0e9ee63205c6737e071ad962ee9a83c4878d26c0c3fa8510b78e4a92
# LUTr-License: CC0-1.0
# LUTr-License-URL: https://freshluts.com/termsandconditions
# LUTr-License-Basis: site-terms
# LUTr-Transform-Class: creative-look
# LUTr-Tags: creative, freshluts, community, cube, orange, low-key, bmd-film-4k
# LUTr-Input-Color-Space:
# LUTr-Input-Gamut: bmd-film-gamut
# LUTr-Input-Transfer: bmd-film-4k
# LUTr-Output-Color-Space: srgb
# LUTr-Output-Gamut: rec709
# LUTr-Output-Transfer: srgb
# LUTr-Color-Space-Confidence: camera-profile-input-required
# LUTr-Domain-Normalized: true
# LUTr-Shaper: none
# LUTr-Original-Grid: 33x33x33
# LUTr-Conversion-Grid: 33x33x33
# LUTr-Conversion-Interpolation: none
# LUTr-Conversion-Method: Metadata normalization; numeric LUT samples preserved
# LUTr-Conversion-Tool: LUTr scripts/convert-all-to-cube.mjs 2.0.0
# LUTr-Conversion-Date: 2026-07-28
# LUTr-Asset-URL: https://freshluts.com/luts/395
# LUTr-Author: Crizo
# LUTr-Author-URL: https://freshluts.com/users/10814
# LUTr-Attribution: Crizo via Fresh LUTs
# LUTr-Source-Labels: gamma=Blackmagic BMD Film 4K; color=Orange; key=Low Key; style=Teal - Orange
# LUTr-Note: Preserve this metadata and the upstream license notices when redistributing.
TITLE "Crizo Mzeyah Model Lut"
LUT_3D_SIZE 9
DOMAIN_MIN 0 0 0
DOMAIN_MAX 1 1 1
0 0 0
0.114778 0 0
0.270176 0 0
0.422415 0 0
0.557366 0 0
0.683711 0 0
0.801907 0 0
0.91693 0 0
1 0 0
0 0.10013 0
0.10071 0.10071 0
0.271351 0.100435 0
0.424002 0.101335 0
0.559213 0.104128 0
0.685344 0.109377 0
0.803723 0.117449 0
0.918471 0.126482 0
1 0.135317 0
0 0.27097 0
0.100816 0.271717 0
0.271992 0.271717 0
0.423957 0.27216 0
0.558846 0.274464 0
0.684489 0.27892 0
0.802243 0.285863 0
0.916228 0.293553 0
1 0.300771 0
0 0.424887 0
0.103243 0.425223 0
0.274296 0.425055 0
0.424353 0.424338 0
0.558358 0.425483 0
0.683055 0.428412 0
0.79971 0.433387 0
0.912474 0.438895 0
1 0.443702 0
0 0.563104 0
0.107759 0.562219 0
0.276631 0.560723 0
0.426596 0.559472 0
0.559228 0.559228 0
0.682704 0.560937 0
0.797879 0.564416 0
0.90898 0.568261 0
1 0.571313 0
0 0.694591 0
0.117952 0.692454 0
0.284703 0.68954 0
0.43212 0.686778 0
0.562997 0.684764 0
0.684718 0.684718 0
0.797909 0.686229 0
0.90695 0.688014 0
1 0.689464 0
0 0.818265 0
0.13048 0.814542 0
0.294438 0.80975 0
0.438682 0.80502 0
0.567681 0.801129 0
0.687724 0.799405 0
0.799481 0.799481 0
0.907225 0.799969 0
1 0.800458 0
0 0.934524 0
0.139223 0.929122 0
0.300847 0.922652 0
0.442741 0.91632 0
0.570764 0.911467 0
0.689845 0.908782 0
0.800793 0.908049 0
0.907912 0.907912 0
1 0.907897 0
0 1 0
0.142504 1 0
0.302907 1 0
0.443793 1 0
0.571267 1 0
0.689921 1 0
0.800565 1 0
0.907591 1 0
1 1 0
0 0 0.100038
0.0998856 0 0.0998856
0.270024 0 0.0990616
0.422538 0 0.0995651
0.557565 0 0.102144
0.683711 0 0.107408
0.802136 0 0.115541
0.917159 0 0.124895
1 0 0.134051
0 0.100313 0.100313
0.100786 0.100786 0.100786
0.272862 0.100786 0.100191
0.424247 0.10161 0.10161
0.559426 0.104387 0.104387
0.685542 0.109621 0.109621
0.803876 0.117647 0.117647
0.918593 0.126619 0.126619
1 0.135027 0.135027
0 0.271229 0.100313
0.10074 0.271641 0.10074
0.271687 0.271687 0.100786
0.424094 0.272312 0.101442
0.558923 0.274556 0.103777
0.684504 0.278935 0.10837
0.802167 0.285786 0.115572
0.91603 0.293339 0.123537
1 0.300175 0.130785
0 0.42501 0.102525
0.102434 0.424933 0.102434
0.272648 0.424384 0.101793
0.424201 0.424201 0.101564
0.55787 0.424994 0.10251
0.682704 0.428061 0.106203
0.799207 0.432883 0.112016
0.911818 0.438239 0.118471
1 0.442908 0.124086
0 0.562921 0.108598
0.107424 0.561944 0.107424
0.276173 0.560342 0.105486
0.426139 0.559014 0.103838
0.558419 0.558419 0.103182
0.681834 0.560067 0.105165
0.796826 0.563378 0.109148
0.907683 0.566979 0.113497
1 0.569894 0.117006
0 0.693935 0.119722
0.117067 0.691722 0.117067
0.28368 0.688655 0.113359
0.431006 0.685649 0.109758
0.561654 0.683436 0.107073
0.683192 0.683192 0.106798
0.796231 0.68455 0.108431
0.905058 0.686122 0.110307
1 0.687495 0.111971
0 0.817075 0.133516
0.128832 0.813169 0.128832
0.292622 0.808148 0.122789
0.436774 0.803098 0.116701
0.565774 0.799222 0.112032
0.68571 0.797391 0.109819
0.797284 0.797284 0.109712
0.905013 0.797757 0.110262
1 0.798154 0.110735
0 0.932692 0.143603
0.136828 0.927077 0.136828
0.298482 0.920562 0.129
0.440558 0.914137 0.121263
0.568521 0.909224 0.115343
0.687526 0.906462 0.112016
0.798245 0.905501 0.110842
0.905501 0.905501 0.110857
1 0.90547 0.110826
0 1 0.147753
0.139818 1 0.139895
0.30042 1 0.131243
0.441428 1 0.122301
0.568856 1 0.11574
0.687495 1 0.111971
0.797971 1 0.110506
0.905196 1 0.110475
1 1 0.110552
0 0 0.270695
0.0996414 0 0.270588
0.269932 0 0.269932
0.422507 0 0.270481
0.557565 0 0.272999
0.683696 0 0.277989
0.802197 0 0.285817
0.917205 0 0.294667
1 0 0.303212
0 0.100313 0.271229
0.100725 0.100725 0.271626
0.271656 0.100755 0.271656
0.424292 0.101671 0.272541
0.559365 0.104311 0.275059
0.685542 0.109621 0.280125
0.803845 0.117586 0.287694
0.918502 0.126497 0.296132
1 0.134813 0.303975
0 0.27129 0.27129
0.100771 0.271672 0.271672
0.271672 0.271672 0.271672
0.426719 0.272816 0.271901
0.558526 0.274098 0.274098
0.684291 0.278691 0.278691
0.801877 0.285435 0.285435
0.91548 0.292714 0.292714
1 0.29958 0.29958
0 0.424765 0.27306
0.102251 0.424781 0.273091
0.272358 0.42414 0.272358
0.42385 0.42385 0.272023
0.557412 0.424536 0.272801
0.682139 0.427482 0.276204
0.798505 0.432181 0.28159
0.910689 0.43711 0.287236
1 0.441855 0.292668
0 0.562264 0.278401
0.106798 0.561425 0.277424
0.275441 0.559686 0.275441
0.425299 0.558175 0.273686
0.557519 0.557519 0.272923
0.680766 0.558999 0.274632
0.79556 0.562097 0.278202
0.906035 0.565332 0.28191
1 0.5682 0.285206
0 0.692943 0.288594
0.115877 0.69073 0.286061
0.282368 0.68751 0.282368
0.429465 0.684108 0.278477
0.560311 0.682033 0.275975
0.681422 0.681422 0.275395
0.794293 0.682612 0.276738
0.902968 0.684047 0.278401
1 0.685313 0.27985
0 0.815641 0.301137
0.126894 0.811566 0.296498
0.290562 0.806363 0.290562
0.434714 0.801038 0.284489
0.563638 0.797086 0.279957
0.683452 0.795132 0.277729
0.794888 0.794888 0.27744
0.902586 0.795331 0.277943
1 0.795651 0.278325
0 0.930678 0.309941
0.134234 0.924926 0.303426
0.295827 0.918227 0.295827
0.438163 0.911757 0.288441
0.566064 0.906767 0.28275
0.685008 0.903944 0.279515
0.795651 0.902892 0.278309
0.902907 0.902907 0.278309
1 0.902861 0.278264
0 1 0.31339
0.136751 1 0.305791
0.297169 1 0.297169
0.438849 1 0.289219
0.566247 1 0.282963
0.684794 1 0.279255
0.795361 1 0.277989
0.902617 1 0.277989
1 1 0.278096
0 0 0.42269
0.0994583 0 0.422461
0.270115 0 0.422187
0.422721 0 0.422721
0.557778 0 0.424918
0.68394 0 0.429297
0.802457 0 0.436118
0.917464 0 0.44387
1 0 0.45127
0 0.100572 0.423377
0.100938 0.100938 0.423682
0.271962 0.101076 0.423804
0.424552 0.101991 0.424552
0.559426 0.104387 0.426551
0.685756 0.10988 0.431113
0.803998 0.117769 0.437659
0.918502 0.126513 0.444923
1 0.134829 0.45182
0 0.271473 0.423377
0.101045 0.271931 0.423774
0.271901 0.271901 0.423743
0.424186 0.272404 0.424186
0.559503 0.274281 0.425452
0.684398 0.278676 0.429572
0.801724 0.285283 0.435401
0.915175 0.292363 0.441596
1 0.299184 0.447593
0 0.424796 0.424796
0.102312 0.424826 0.424826
0.272312 0.424094 0.424094
0.423819 0.423575 0.423529
0.57055 0.425605 0.422354
0.682872 0.427207 0.426825
0.797955 0.431617 0.431617
0.910002 0.436423 0.436423
1 0.441001 0.441001
0 0.562081 0.429206
0.106416 0.561105 0.428229
0.274891 0.559213 0.426337
0.424399 0.55729 0.424399
0.556741 0.556741 0.423865
0.67985 0.558068 0.425193
0.794293 0.56083 0.427955
0.904692 0.563989 0.431113
1 0.566644 0.433768
0 0.692287 0.437644
0.114855 0.689891 0.435233
0.281193 0.686473 0.43183
0.428244 0.682902 0.428244
0.558709 0.680491 0.425834
0.680735 0.680385 0.425254
0.792401 0.680674 0.425956
0.901045 0.682109 0.427466
1 0.683268 0.428626
0 0.814328 0.448005
0.125078 0.810056 0.443717
0.28867 0.8047 0.438361
0.432914 0.799237 0.432914
0.561761 0.795193 0.42884
0.682734 0.794064 0.426993
0.792859 0.792798 0.426307
0.900328 0.793088 0.426749
1 0.793362 0.427024
0 0.928801 0.455207
0.131838 0.922927 0.449348
0.293248 0.915953 0.442374
0.435981 0.90956 0.435981
0.56379 0.904494 0.430915
0.682658 0.901595 0.428016
0.793286 0.900526 0.426947
0.900511 0.900511 0.426932
1 0.900465 0.426886
0 1 0.457938
0.134005 1 0.451148
0.294453 1 0.443442
0.436469 1 0.436469
0.563851 1 0.430991
0.682353 1 0.427695
0.792966 1 0.426642
0.900252 1 0.426673
1 1 0.426764
0 0 0.556115
0.100221 0 0.555962
0.270909 0 0.555764
0.423468 0 0.556344
0.558297 0 0.558297
0.684733 0 0.562966
0.803311 0 0.569772
0.917998 0 0.577234
1 0 0.584878
0 0.101137 0.55671
0.101884 0.101884 0.557336
0.272877 0.102037 0.557473
0.425345 0.102937 0.558221
0.560189 0.105303 0.560189
0.686473 0.11075 0.564706
0.804669 0.118593 0.571221
0.918883 0.12697 0.57818
1 0.135424 0.585199
0 0.272145 0.556832
0.101946 0.272801 0.557397
0.272709 0.272709 0.557321
0.424765 0.273075 0.557641
0.559152 0.274815 0.559152
0.685115 0.279255 0.562951
0.80209 0.285695 0.568643
0.915358 0.292561 0.574655
1 0.299306 0.580575
0 0.425361 0.558236
0.102937 0.425345 0.558221
0.272816 0.424536 0.557412
0.423743 0.423743 0.556619
0.557321 0.424445 0.557321
0.683253 0.427237 0.560082
0.798276 0.431479 0.564309
0.909758 0.436179 0.569055
1 0.44062 0.573495
0 0.562356 0.562356
0.106615 0.561273 0.561273
0.274907 0.559228 0.559228
0.424277 0.557153 0.557153
0.556756 0.556542 0.556512
0.693324 0.562799 0.56022
0.796613 0.561303 0.560494
0.903838 0.563134 0.563134
1 0.565591 0.565591
0 0.692119 0.570336
0.114458 0.689555 0.567788
0.280415 0.685786 0.564019
0.427482 0.682124 0.560342
0.557748 0.679515 0.557748
0.678721 0.678721 0.556939
0.791409 0.679545 0.557656
0.899641 0.680705 0.558938
1 0.681727 0.559945
0 0.813519 0.580072
0.123827 0.809018 0.57557
0.287022 0.80325 0.569802
0.431556 0.797894 0.564431
0.560235 0.793683 0.560235
0.679637 0.791318 0.55787
0.792081 0.791638 0.5579
0.898985 0.791577 0.557992
1 0.791562 0.558099
0 0.927398 0.586694
0.130007 0.921401 0.580697
0.291417 0.914351 0.573648
0.434302 0.907881 0.567163
0.562036 0.902739 0.562036
0.68072 0.899641 0.558923
0.79321 0.899977 0.558816
0.899199 0.899062 0.55816
1 0.898604 0.5579
0 1 0.58909
0.131853 1 0.582238
0.292393 1 0.574502
0.434607 1 0.567483
0.56199 1 0.56199
0.680415 1 0.558633
0.791135 1 0.557671
0.898451 1 0.557733
1 1 0.557702
0 0 0.679103
0.101976 0 0.679194
0.272648 0 0.679042
0.424918 0 0.679576
0.559884 0 0.681666
0.686336 0 0.686336
0.804837 0 0.693156
0.919509 0 0.700572
1 0 0.707988
0 0.103014 0.680064
0.103792 0.103792 0.680705
0.274723 0.10396 0.680842
0.426673 0.10454 0.681315
0.561746 0.107164 0.683513
0.687984 0.112551 0.687984
0.806119 0.120333 0.694438
0.920317 0.128649 0.701335
1 0.13698 0.708247
0 0.27396 0.680186
0.103838 0.274571 0.68072
0.274418 0.274418 0.680583
0.425956 0.274434 0.680598
0.560479 0.276341 0.682246
0.686137 0.280644 0.686
0.802991 0.286702 0.691279
0.916365 0.293721 0.697444
1 0.300282 0.703212
0 0.426749 0.681407
0.104509 0.426642 0.6813
0.274174 0.425727 0.680369
0.424842 0.424842 0.679484
0.558297 0.425422 0.680064
0.682612 0.427955 0.682612
0.804715 0.432441 0.687022
0.910613 0.436713 0.691341
1 0.44094 0.695583
0 0.563378 0.685145
0.107698 0.562173 0.68394
0.275715 0.559945 0.681712
0.424918 0.557794 0.679561
0.556893 0.556893 0.678676
0.679622 0.557855 0.679622
0.795956 0.560906 0.682338
0.90515 0.5635 0.684947
1 0.565286 0.687053
0 0.692653 0.692653
0.114931 0.689952 0.689952
0.280552 0.685924 0.685924
0.427466 0.682124 0.682124
0.557519 0.679301 0.679301
0.678508 0.678325 0.678309
0.804562 0.684962 0.682918
0.907012 0.683696 0.681941
1 0.680934 0.680934
0 0.813443 0.701762
0.123461 0.808728 0.697047
0.286519 0.802823 0.691142
0.430961 0.797284 0.685618
0.559518 0.792966 0.681285
0.678798 0.790478 0.678798
0.790066 0.790066 0.678386
0.917708 0.801373 0.685435
1 0.791928 0.679469
0 0.926986 0.708278
0.128908 0.920501 0.701564
0.290455 0.913512 0.694575
0.433371 0.90695 0.688014
0.561059 0.901762 0.682841
0.679637 0.898573 0.679637
0.790387 0.897642 0.678706
0.903777 0.901564 0.681361
1 0.900099 0.679973
0 1 0.710475
0.130404 1 0.7028
0.291203 1 0.695232
0.433555 1 0.688212
0.560723 1 0.682506
0.679347 1 0.679347
0.790158 1 0.678447
0.899184 1 0.679454
1 1 0.678981
0 0 0.792828
0.104646 0 0.793088
0.275257 0 0.792996
0.427146 0 0.793484
0.562203 0 0.795666
0.688655 0 0.800336
0.80708 0 0.80708
0.921782 0 0.814527
1 0 0.82182
0 0.105806 0.794064
0.1066 0.1066 0.794705
0.277378 0.106752 0.794842
0.428946 0.107271 0.79527
0.564004 0.109911 0.797467
0.690196 0.115221 0.801877
0.808042 0.122652 0.808042
0.922332 0.131121 0.815076
1 0.139391 0.82182
0 0.2766 0.794156
0.106813 0.27715 0.794751
0.276799 0.276799 0.794339
0.428077 0.27689 0.7944
0.562509 0.27866 0.795956
0.687907 0.282841 0.799588
0.804776 0.288777 0.804776
0.918074 0.295659 0.810819
1 0.302159 0.816403
0 0.428855 0.795193
0.107134 0.428641 0.795087
0.276036 0.427344 0.793667
0.426596 0.426596 0.79292
0.55993 0.427054 0.793378
0.684108 0.429465 0.795789
0.799634 0.43331 0.799634
0.911452 0.437873 0.804196
1 0.441932 0.80827
0 0.565118 0.798581
0.109606 0.56376 0.797208
0.27715 0.561181 0.794644
0.426184 0.55906 0.792523
0.558038 0.558038 0.791485
0.680339 0.558556 0.79202
0.794293 0.560845 0.794293
0.905165 0.56379 0.797101
1 0.565682 0.7991
0 0.693874 0.805554
0.116182 0.69099 0.80267
0.281529 0.686778 0.798459
0.428138 0.68278 0.794461
0.557992 0.679774 0.791455
0.67837 0.67837 0.790051
0.790616 0.678935 0.790616
0.903685 0.681941 0.793011
1 0.681285 0.792737
0 0.814176 0.814496
0.123873 0.809064 0.809064
0.286809 0.803067 0.803067
0.431083 0.797406 0.797406
0.559487 0.79295 0.79295
0.678676 0.790356 0.790356
0.79057 0.790204 0.790173
0.91751 0.799863 0.797406
1 0.794278 0.79263
0 0.928573 0.823758
0.128801 0.920409 0.813153
0.290303 0.913375 0.806119
0.433158 0.906737 0.799481
0.560662 0.901366 0.79411
0.679332 0.898268 0.791012
0.790066 0.897307 0.790066
0.8972 0.8972 0.789944
1 0.903395 0.79411
0 1 0.828626
0.130068 1 0.814206
0.290852 1 0.806592
0.433219 1 0.799558
0.560372 1 0.793835
0.679026 1 0.790707
0.789792 1 0.789792
0.897017 1 0.789776
1 1 0.798688
0 0 0.902556
0.107713 0 0.902892
0.278248 0 0.902846
0.429664 0 0.903243
0.564843 0 0.905547
0.69131 0 0.910231
0.809491 0 0.916747
0.924376 0 0.924376
1 0 0.931441
0 0.10898 0.903944
0.109773 0.109773 0.904601
0.280354 0.109865 0.904677
0.431556 0.110414 0.905135
0.566583 0.113008 0.907286
0.692714 0.118257 0.91165
0.810422 0.125521 0.917678
0.924681 0.133944 0.924681
1 0.142061 0.931411
0 0.279576 0.904005
0.11014 0.280064 0.904662
0.279576 0.279576 0.904005
0.430503 0.279667 0.904082
0.564843 0.281346 0.905547
0.690028 0.285267 0.908965
0.806867 0.291142 0.914122
0.920027 0.297887 0.920027
1 0.304143 0.925536
0 0.431235 0.904814
0.109895 0.43093 0.904631
0.278553 0.429526 0.903105
0.428656 0.428656 0.902235
0.561837 0.428962 0.902541
0.685618 0.430976 0.904555
0.801236 0.434913 0.908492
0.912917 0.439338 0.912917
1 0.443091 0.916671
0 0.567132 0.907835
0.111681 0.565484 0.906188
0.279133 0.562905 0.903609
0.427726 0.560601 0.90132
0.559396 0.559396 0.900099
0.681514 0.559731 0.900435
0.795285 0.561837 0.902541
0.904982 0.564279 0.904982
1 0.565988 0.906691
0 0.695384 0.914321
0.117464 0.692058 0.910979
0.28275 0.687846 0.906767
0.429007 0.683665 0.902586
0.558724 0.680491 0.899428
0.67895 0.67895 0.897887
0.791058 0.679377 0.898314
0.899306 0.680385 0.899306
1 0.680873 0.899809
0 0.814817 0.922072
0.124483 0.809567 0.916823
0.287388 0.803571 0.910826
0.431464 0.797803 0.905058
0.559564 0.793027 0.900282
0.678859 0.790539 0.897795
0.78999 0.78999 0.897246
0.897444 0.790204 0.897444
1 0.790066 0.897322
0 0.928222 0.929992
0.129091 0.920653 0.920653
0.290486 0.913542 0.913542
0.433249 0.906844 0.906844
0.560616 0.90132 0.90132
0.679332 0.898268 0.898268
0.790051 0.897307 0.897307
0.905867 0.901579 0.901244
1 0.915038 0.911345
0 1 0.928573
0.130098 1 0.921477
0.290852 1 0.913848
0.433173 1 0.906752
0.560372 1 0.901076
0.679042 1 0.897963
0.789837 1 0.897093
0.897063 1 0.897063
1 1 0.897429
0 0 1
0.110811 0 1
0.280964 0 1
0.432303 0 1
0.567498 0 1
0.693935 0 1
0.8121 0 1
0.926955 0 1
1 0 1
0 0.112154 1
0.112963 0.112963 1
0.283101 0.112749 1
0.43415 0.113542 1
0.569131 0.116075 1
0.695201 0.121248 1
0.812848 0.128435 1
0.927016 0.136767 1
1 0.144732 1
0 0.282551 1
0.112642 0.282994 1
0.282292 0.282292 1
0.432883 0.282399 1
0.567132 0.28397 1
0.692042 0.287556 1
0.808927 0.293507 1
0.921935 0.300053 1
1 0.306065 1
0 0.43357 1
0.112276 0.433112 1
0.280995 0.431662 1
0.430671 0.430671 1
0.563714 0.430838 1
0.687327 0.43267 1
0.802792 0.436454 1
0.914275 0.440696 1
1 0.444205 1
0 0.56907 1
0.113787 0.567239 1
0.281056 0.564584 1
0.429252 0.562127 1
0.560586 0.560586 1
0.682582 0.560815 1
0.79617 0.562722 1
0.905715 0.565011 1
1 0.566583 1
0 0.696834 1
0.11899 0.693324 1
0.283955 0.688884 1
0.429831 0.684474 1
0.559121 0.680903 1
0.679469 0.679469 1
0.791455 0.679774 1
0.899458 0.680522 1
1 0.681071 1
0 0.815442 1
0.125216 0.810178 1
0.287907 0.804028 1
0.4318 0.798138 1
0.559808 0.793271 1
0.679042 0.790722 1
0.790097 0.790097 1
0.897276 0.790021 1
1 0.790066 1
0 0.927245 1
0.129335 0.920851 1
0.290639 0.913664 1
0.433326 0.90692 1
0.560647 0.90135 1
0.679347 0.898268 1
0.790036 0.897292 1
0.897017 0.897017 1
1 0.897002 1
0 1 1
0.130114 1 1
0.290837 1 1
0.432975 1 1
0.560357 1 1
0.679057 1 1
0.789883 1 1
0.897169 1 1
1 1 1
