site/assets/luts/freshluts--0001943-rec709-drone-shot.cube
# LUTr-Schema-Version: 2
# LUTr-ID: freshluts--0001943-rec709-drone-shot
# LUTr-Title: Rec709 drone shot
# LUTr-Collection: Fresh LUTs
# LUTr-Collection-ID: freshluts-community
# LUTr-Source: https://freshluts.com
# LUTr-Retrieved: 2026-07-27
# LUTr-Source-File: submissions-raw/freshluts/cubes/1943__rec709_drone_shot_547.DJI_0023.cube
# LUTr-Source-Format: CUBE
# LUTr-Source-SHA256: 817602e854f3b8dae5c949ddc3262c9c38ba27299e625222e2fa6dd8b314ec52
# LUTr-License: CC0-1.0
# LUTr-License-URL: https://freshluts.com/termsandconditions
# LUTr-License-Basis: site-terms
# LUTr-Transform-Class: creative-look
# LUTr-Tags: creative, freshluts, community, cube, dji-d-log
# LUTr-Input-Color-Space: dji-dlog-dgamut
# LUTr-Input-Gamut: dji-d-gamut
# LUTr-Input-Transfer: dji-d-log
# LUTr-Output-Color-Space: srgb
# LUTr-Output-Gamut: rec709
# LUTr-Output-Transfer: srgb
# LUTr-Color-Space-Confidence: inferred-from-source-label
# LUTr-Domain-Normalized: true
# LUTr-Shaper: none
# LUTr-Original-Grid: 33x33x33
# LUTr-Conversion-Grid: 33x33x33
# LUTr-Conversion-Interpolation: none
# LUTr-Conversion-Method: Metadata normalization; numeric LUT samples preserved
# LUTr-Conversion-Tool: LUTr scripts/convert-all-to-cube.mjs 2.0.0
# LUTr-Conversion-Date: 2026-07-28
# LUTr-Asset-URL: https://freshluts.com/luts/1943
# LUTr-Author: lvannoeun@gmail.com
# LUTr-Author-URL: https://freshluts.com/users/57563
# LUTr-Attribution: lvannoeun@gmail.com via Fresh LUTs
# LUTr-Source-Labels: gamma=DJI D-log; color=None; key=Neutral; style=Correction
# LUTr-Note: Preserve this metadata and the upstream license notices when redistributing.
TITLE "Rec709 drone shot"
LUT_3D_SIZE 9
DOMAIN_MIN 0 0 0
DOMAIN_MAX 1 1 1
0 0 0
0.0414282 0.0024567 0
0.294881 0.0151827 0
0.489174 0.0324407 0.0118868
0.714733 0.0618601 0.0457923
0.897887 0.0959793 0.078706
1 0.121782 0.107454
1 0.14612 0.133684
1 0.168948 0.157916
0.00128176 0.0113832 0
0.000366217 0.000335698 0
0.209918 0.0289158 0
0.43917 0.05037 0
0.66247 0.0782483 0
0.865736 0.112428 0.0103456
1 0.135866 0.0393988
1 0.158556 0.0713054
1 0.180056 0.103487
0.0161135 0.197406 0.00726329
0.0561227 0.166812 0
0.117632 0.123095 0
0.360098 0.129793 0
0.582315 0.135988 0
0.81857 0.144549 0
0.959762 0.151583 0
1 0.172427 0
1 0.19234 0.0129549
0.0532387 0.393393 0.043595
0.10454 0.37406 0.0234989
0.153948 0.331304 0
0.298558 0.300313 0.029633
0.521843 0.2981 0
0.762081 0.29836 0
0.915114 0.28893 0
1 0.284566 0
1 0.28571 0
0.105043 0.58558 0.122423
0.142046 0.57406 0.0924697
0.189441 0.549172 0.0600137
0.291371 0.501991 0.051545
0.486381 0.486686 0.0932784
0.694072 0.48687 0.049897
0.873106 0.481132 0.0370184
0.997467 0.470924 0.03505
1 0.465064 0.0424964
0.176547 0.795117 0.195712
0.200031 0.78677 0.170626
0.236988 0.765866 0.14876
0.294347 0.719524 0.119829
0.481529 0.68452 0.137972
0.672419 0.673518 0.166064
0.857969 0.672587 0.144945
0.975448 0.658824 0.134051
1 0.648554 0.131441
0.235264 0.969482 0.250278
0.255573 0.964813 0.231067
0.288106 0.953048 0.216068
0.326574 0.92958 0.192126
0.472114 0.879698 0.193072
0.664363 0.853544 0.208347
0.840558 0.844663 0.229511
0.97258 0.833326 0.214572
1 0.819623 0.205524
0.270405 1 0.28394
0.28806 1 0.266377
0.316762 1 0.252644
0.349447 1 0.230976
0.436637 0.996628 0.22034
0.628046 0.973312 0.234668
0.807401 0.969482 0.254383
0.961669 0.969726 0.274342
1 0.962051 0.265034
0.303014 1 0.315419
0.318471 1 0.29897
0.344091 1 0.286
0.373007 1 0.266514
0.419257 1 0.246509
0.588098 1 0.253864
0.761501 1 0.269337
0.922667 1 0.28835
1 1 0.300618
0 0 0
0.0385443 0 0.0241703
0.290028 0.00570687 0.0606699
0.486473 0.0222629 0.0816968
0.709926 0.0518196 0.115328
0.895521 0.0864271 0.141222
1 0.113497 0.162387
1 0.13875 0.183261
1 0.162234 0.203357
0 0.00695811 0.00494392
0 0 0
0.219959 0.0132753 0
0.446265 0.0306096 0.00605783
0.665217 0.0564889 0.0371252
0.869337 0.09308 0.0716869
1 0.118715 0.10071
1 0.143038 0.127581
1 0.165835 0.152087
0.00514229 0.18732 0.0524453
0.0223697 0.162646 0.00631724
0.107271 0.114794 0.0039826
0.365148 0.112337 0
0.585565 0.115846 0
0.822904 0.124529 0
0.963272 0.136446 0.0112154
1 0.158389 0.043122
1 0.179263 0.0762798
0.0402075 0.386267 0.0999313
0.0580606 0.371511 0.0428931
0.12726 0.329107 0.0126345
0.292241 0.294118 0.0363317
0.524025 0.2878 0
0.764172 0.286778 0.00720226
0.918334 0.277195 0.0134127
1 0.272374 0.0254063
1 0.273655 0.0440986
0.0983139 0.579782 0.169177
0.106554 0.57116 0.118883
0.159228 0.547524 0.0805676
0.272969 0.499611 0.0678721
0.481697 0.481971 0.0998856
0.693858 0.479652 0.0829938
0.875044 0.473503 0.0806897
0.99939 0.462806 0.0836805
1 0.456672 0.0937209
0.171359 0.790097 0.233005
0.177203 0.783749 0.195483
0.208545 0.763912 0.163394
0.271809 0.717464 0.134905
0.470039 0.681636 0.148501
0.668147 0.669261 0.170565
0.857511 0.667109 0.163485
0.975311 0.652247 0.158785
1 0.641657 0.160067
0.231571 0.96669 0.282475
0.236912 0.963424 0.25124
0.263874 0.952361 0.227771
0.30605 0.928862 0.204318
0.456733 0.876661 0.202808
0.655375 0.849607 0.214908
0.83563 0.839811 0.232486
0.970413 0.827787 0.224979
1 0.813367 0.220401
0.266911 1 0.312963
0.271305 1 0.284352
0.294331 1 0.262821
0.329809 1 0.241657
0.419608 0.995499 0.230289
0.61735 0.971283 0.242405
0.800534 0.966613 0.259556
0.95845 0.966537 0.277348
1 0.958221 0.272389
0.299672 1 0.341909
0.303075 1 0.315099
0.32311 1 0.294957
0.354223 1 0.275837
0.401663 1 0.255741
0.57528 1 0.26157
0.752499 1 0.275151
0.916197 1 0.292149
1 1 0.303166
0 0.00337224 0.2374
0.0731212 0 0.286778
0.304509 0.0110323 0.250965
0.522011 0.0262608 0.2262
0.717617 0.0509651 0.22417
0.902144 0.0839246 0.228382
1 0.109178 0.232822
1 0.132921 0.23798
1 0.156085 0.252537
0 0.0152895 0.146197
0.00195315 0.00178531 0.176867
0.233005 0.00843824 0.171496
0.473564 0.0249638 0.146548
0.667308 0.0479438 0.152865
0.869017 0.0826429 0.160571
1 0.108049 0.171237
1 0.133532 0.19057
1 0.157321 0.209049
0.00483711 0.184604 0.142046
0.00914015 0.159731 0.105943
0.090547 0.103212 0.0593423
0.376226 0.0789349 0.0259251
0.589105 0.0814984 0.0380407
0.82771 0.0934005 0.0658885
0.966995 0.114458 0.0901503
1 0.13872 0.118105
1 0.161334 0.143099
0.0307012 0.374044 0.158556
0.038819 0.361028 0.116136
0.0723125 0.326345 0.0370489
0.281437 0.283574 0.0453803
0.526055 0.271077 0.0488441
0.76527 0.268681 0.069749
0.921401 0.259297 0.0806744
1 0.254627 0.0945907
1 0.256275 0.112184
0.0889296 0.570825 0.214878
0.0974136 0.562234 0.177722
0.107759 0.543984 0.105669
0.243351 0.495109 0.0890669
0.473899 0.474098 0.10721
0.692378 0.468467 0.119707
0.876249 0.461433 0.127428
1 0.450263 0.13341
1 0.443641 0.143038
0.164004 0.781643 0.271687
0.16997 0.775448 0.240772
0.174533 0.758663 0.188968
0.23859 0.713542 0.151888
0.45214 0.675654 0.160113
0.660334 0.661494 0.17499
0.855497 0.658076 0.183963
0.973938 0.642252 0.185397
1 0.630655 0.1897
0.226505 0.961913 0.317006
0.231907 0.958694 0.289952
0.236957 0.949722 0.248402
0.277455 0.926757 0.218204
0.434516 0.871077 0.213596
0.641932 0.842725 0.222019
0.827237 0.831525 0.235157
0.966293 0.819013 0.236637
1 0.80383 0.236973
0.262226 1 0.344594
0.26656 1 0.319081
0.270436 1 0.281315
0.30312 1 0.254032
0.39559 0.993118 0.241505
0.602197 0.967697 0.251179
0.790539 0.96202 0.265324
0.953445 0.961456 0.280507
1 0.952529 0.280781
0.295186 1 0.371023
0.298589 1 0.346716
0.30132 1 0.311559
0.329122 1 0.286595
0.378027 1 0.266285
0.557397 1 0.270222
0.739956 1 0.281682
0.906996 1 0.296345
1 1 0.305821
0.00576791 0.00961318 0.460594
0.0754864 0 0.501244
0.290455 0.00741588 0.513191
0.515557 0.0359197 0.468269
0.727321 0.0594644 0.434058
0.91957 0.0924697 0.422873
1 0.116808 0.4103
1 0.140475 0.40441
1 0.162921 0.403342
0 0.0242466 0.397528
0.00767529 0.00805676 0.430549
0.215015 0.0109255 0.469642
0.475654 0.0327764 0.420584
0.689082 0.0563668 0.375647
0.891951 0.0906691 0.362005
1 0.115236 0.350881
1 0.13901 0.347402
1 0.161547 0.348806
0 0.146639 0.357961
0 0.128176 0.34876
0.0765087 0.0868238 0.368399
0.413336 0.0503853 0.340322
0.637949 0.0602579 0.280369
0.849882 0.087602 0.265843
0.987106 0.112444 0.261387
1 0.136172 0.263172
1 0.158465 0.268849
0.0421912 0.38558 0.329198
0.0466621 0.370993 0.307012
0.0509346 0.33817 0.25803
0.272175 0.272877 0.219959
0.584878 0.236423 0.159121
0.792294 0.237736 0.176532
0.938674 0.230701 0.176257
1 0.227192 0.178897
1 0.230152 0.186801
0.0928664 0.583001 0.28806
0.0996262 0.573114 0.258839
0.105455 0.551369 0.206485
0.176349 0.498177 0.124254
0.464164 0.464149 0.127169
0.690654 0.452644 0.16672
0.877821 0.444404 0.178836
1 0.431876 0.185718
1 0.424704 0.194583
0.15697 0.769177 0.315572
0.162737 0.762798 0.290242
0.166812 0.746044 0.249531
0.184451 0.706813 0.173892
0.42565 0.667216 0.178454
0.648798 0.649927 0.18436
0.84979 0.644068 0.211276
0.971313 0.627527 0.218173
1 0.614954 0.224552
0.22063 0.954543 0.356573
0.225971 0.95137 0.333349
0.230655 0.942229 0.29836
0.233234 0.918502 0.234714
0.40145 0.862089 0.22771
0.622705 0.832547 0.232731
0.815259 0.819654 0.240085
0.95996 0.806043 0.252155
1 0.789929 0.257404
0.25568 1 0.380056
0.260044 1 0.357595
0.263874 1 0.324758
0.267109 1 0.271702
0.361044 0.989349 0.254902
0.580285 0.962081 0.26186
0.776303 0.955276 0.272801
0.946471 0.954299 0.284657
1 0.944228 0.290944
0.289052 1 0.40383
0.292439 1 0.381964
0.295186 1 0.35079
0.297185 1 0.302968
0.344915 1 0.278798
0.532464 1 0.280537
0.722637 1 0.289448
0.893904 1 0.301137
1 1 0.308736
0.012192 0.0162051 0.616098
0.0769818 0.00134279 0.64921
0.247318 0.0087892 0.704143
0.485435 0.0318456 0.703044
0.726864 0.0745098 0.685039
0.925109 0.105211 0.672175
1 0.127352 0.656703
1 0.149493 0.646723
1 0.170871 0.641642
0 0.0318761 0.570825
0.0140841 0.0150301 0.599496
0.17203 0.015259 0.658259
0.436347 0.0332494 0.667781
0.679408 0.0671244 0.634546
0.898695 0.101839 0.620783
1 0.124743 0.605829
1 0.147372 0.597574
1 0.16907 0.593286
0 0.135378 0.553033
0 0.120699 0.561913
0.0732891 0.0837568 0.607385
0.368841 0.0545663 0.62974
0.618173 0.0598306 0.566049
0.860655 0.0970321 0.543786
0.99939 0.120912 0.532021
1 0.143893 0.525185
1 0.165667 0.521752
0 0.334157 0.553964
0.0206455 0.315358 0.53051
0.0688487 0.29218 0.523018
0.257282 0.256138 0.54725
0.616754 0.199649 0.532006
0.849943 0.206058 0.469093
0.986633 0.207401 0.443565
1 0.208408 0.429816
1 0.214588 0.422431
0.105058 0.576928 0.522667
0.109438 0.568292 0.510491
0.112169 0.548745 0.484733
0.125811 0.516655 0.431922
0.456504 0.454749 0.400824
0.769741 0.421714 0.339834
0.969879 0.403647 0.323064
1 0.393439 0.31725
1 0.388205 0.315648
0.166293 0.786725 0.47602
0.171054 0.780301 0.45745
0.173983 0.763775 0.422919
0.175082 0.728893 0.351644
0.352697 0.680156 0.276249
0.641718 0.641947 0.297185
0.862287 0.626627 0.286076
0.985779 0.608698 0.29163
1 0.594827 0.294652
0.225071 0.969848 0.462226
0.229664 0.965835 0.442649
0.233219 0.955108 0.41033
0.23151 0.920729 0.347692
0.3252 0.864302 0.262806
0.590051 0.824613 0.262303
0.801251 0.805997 0.256413
0.954665 0.7897 0.284337
1 0.772183 0.294209
0.255619 1 0.447883
0.259419 1 0.426825
0.262135 1 0.393713
0.26363 1 0.339864
0.314244 0.985565 0.274998
0.550057 0.956741 0.283162
0.757198 0.948135 0.289998
0.938643 0.946288 0.296407
1 0.932799 0.310491
0.284993 1 0.445563
0.287861 1 0.423728
0.289937 1 0.393881
0.29131 1 0.352544
0.299275 1 0.294743
0.499916 1 0.295995
0.699962 1 0.302998
0.877501 1 0.311086
1 1 0.315526
0.0233768 0.0274968 0.813626
0.0868544 0.0138705 0.857679
0.231693 0.018265 0.906493
0.469322 0.037644 0.920775
0.727123 0.0788586 0.922698
0.9299 0.122362 0.916548
1 0.142657 0.91162
1 0.162814 0.903334
1 0.18262 0.897017
0 0.0424048 0.757351
0.0245518 0.0259709 0.794369
0.15816 0.0241703 0.843656
0.409537 0.0410163 0.89192
0.679179 0.0758984 0.896086
0.90486 0.118318 0.884611
1 0.138857 0.869886
1 0.15967 0.861326
1 0.17995 0.855756
0 0.13373 0.709209
0 0.118379 0.723125
0.0709697 0.0867933 0.764263
0.319524 0.0620584 0.810361
0.602182 0.0699016 0.830213
0.867491 0.111147 0.820951
1 0.133196 0.807813
1 0.154696 0.798993
1 0.175387 0.794278
0 0.299931 0.693767
0.0194553 0.295933 0.700191
0.0722972 0.279637 0.720241
0.242863 0.246113 0.810269
0.567575 0.20473 0.83209
0.827741 0.197299 0.771649
0.976318 0.201282 0.73228
1 0.203494 0.713924
1 0.210834 0.702617
0.0326543 0.534585 0.745998
0.064622 0.519677 0.728664
0.101595 0.494087 0.694682
0.17023 0.472068 0.702068
0.441413 0.439658 0.717723
0.78967 0.390661 0.708247
1 0.368734 0.662699
1 0.356817 0.638254
1 0.35404 0.62153
0.175402 0.775525 0.721828
0.178363 0.768688 0.71313
0.178592 0.750469 0.691554
0.17496 0.712886 0.648203
0.23769 0.694209 0.59997
0.630228 0.630167 0.572778
0.913588 0.600397 0.515923
1 0.576089 0.48925
1 0.556023 0.468086
0.234089 0.975708 0.67689
0.237919 0.972 0.663508
0.240162 0.960693 0.637659
0.23592 0.923323 0.584924
0.251286 0.89221 0.500771
0.52694 0.835584 0.451423
0.793622 0.798627 0.470314
0.969863 0.778134 0.448844
1 0.756329 0.426047
0.264073 1 0.628824
0.267384 1 0.612375
0.269505 1 0.583688
0.270146 1 0.535363
0.276829 1 0.464607
0.449104 0.983291 0.3729
0.730007 0.951904 0.406226
0.933074 0.94258 0.418082
1 0.919478 0.396841
0.292851 1 0.594919
0.295308 1 0.57583
0.296681 1 0.5458
0.296513 1 0.498558
0.294774 1 0.426612
0.410468 1 0.340444
0.65861 1 0.343923
0.856687 1 0.343557
1 1 0.337911
0.0352331 0.0393988 0.977066
0.0962081 0.024918 1
0.220645 0.0250401 1
0.448905 0.0424506 1
0.709178 0.0805676 1
0.926696 0.123934 1
1 0.151614 1
1 0.170932 1
1 0.190005 1
0 0.0556191 0.942962
0.0365454 0.0383154 0.965621
0.154421 0.0331884 0.986831
0.389639 0.0468605 1
0.658869 0.0795148 1
0.901289 0.12253 1
1 0.148379 1
1 0.168322 1
1 0.187854 1
0 0.138079 0.906813
0.00717174 0.122698 0.922972
0.0758373 0.0896925 0.941344
0.30457 0.064332 0.961791
0.582498 0.0779126 0.988983
0.859922 0.119081 1
1 0.143313 0.996887
1 0.164004 0.993347
1 0.18407 0.992264
0 0.296407 0.866133
0.022385 0.292912 0.876371
0.0766155 0.275837 0.887892
0.241947 0.248234 0.961929
0.5234 0.215412 0.993103
0.793637 0.202487 0.970581
0.970932 0.198688 0.95816
1 0.202701 0.947204
1 0.211215 0.940948
0.032578 0.484627 0.853193
0.0698558 0.482902 0.848844
0.108629 0.476768 0.849577
0.192996 0.461784 0.8981
0.429389 0.430014 0.958907
0.759365 0.381201 0.996918
1 0.357717 0.971191
1 0.34789 0.939712
1 0.346044 0.915877
0.127352 0.755474 0.95314
0.145129 0.744595 0.94287
0.162219 0.720256 0.915175
0.185931 0.673121 0.858885
0.336355 0.649775 0.864271
0.615015 0.617258 0.860471
0.928649 0.572747 0.854658
1 0.5467 0.825193
1 0.525368 0.803037
0.244434 0.972457 0.916869
0.246952 0.968292 0.908598
0.245686 0.950347 0.889067
0.239582 0.912963 0.848875
0.246616 0.875944 0.803113
0.426383 0.84509 0.75079
0.780957 0.785748 0.727337
0.991806 0.759548 0.67924
1 0.736095 0.653437
0.271839 1 0.859236
0.27425 1 0.847059
0.275486 1 0.824216
0.275059 1 0.783658
0.275486 1 0.721782
0.332326 1 0.624338
0.681178 0.96231 0.609827
0.922683 0.933974 0.627329
1 0.910323 0.602869
0.299001 1 0.809476
0.300938 1 0.79379
0.301701 1 0.767285
0.301076 1 0.724208
0.299031 1 0.658534
0.33283 1 0.564492
0.587884 1 0.512123
0.842039 1 0.53991
1 1 0.532479
0.0445563 0.0487221 1
0.104265 0.0344854 1
0.214542 0.0327764 1
0.43331 0.0489052 1
0.691127 0.0848096 1
0.920424 0.126833 1
1 0.15346 1
1 0.179217 1
1 0.197406 1
0 0.0647135 1
0.0454566 0.0474708 1
0.152575 0.0410315 1
0.376333 0.0539101 1
0.640024 0.0850233 1
0.894408 0.12694 1
1 0.15198 1
1 0.176181 1
1 0.194842 1
0 0.13814 1
0.011017 0.122591 1
0.0795911 0.0881361 1
0.296315 0.0684367 1
0.565133 0.0849928 1
0.843534 0.123919 1
1 0.149111 1
1 0.171206 1
1 0.190402 1
0 0.29543 0.992721
0.0260014 0.291478 1
0.0805524 0.274952 1
0.238621 0.2448 1
0.506233 0.216419 1
0.771008 0.203876 1
0.961501 0.199741 1
1 0.200702 1
1 0.209918 1
0.033402 0.478477 0.978439
0.0722972 0.481147 0.985229
0.113939 0.475639 0.990204
0.203159 0.456626 1
0.422904 0.424369 1
0.733761 0.378363 1
0.983383 0.355489 1
1 0.339498 1
1 0.338872 1
0.113878 0.697047 1
0.140291 0.68896 1
0.164736 0.675471 0.987686
0.208042 0.654566 0.986587
0.340124 0.640192 1
0.60441 0.607645 1
0.910491 0.560571 1
1 0.530983 1
1 0.509544 1
0.222461 0.958846 1
0.228565 0.94995 1
0.232609 0.929213 1
0.23505 0.886915 1
0.284489 0.839933 1
0.517922 0.804028 0.984207
0.764401 0.77467 0.97998
1 0.7355 0.981704
1 0.711437 0.956847
0.279591 1 1
0.281331 1 1
0.281865 1 1
0.280613 1 1
0.278935 1 0.968856
0.324468 1 0.936172
0.594141 0.976059 0.879622
0.910933 0.921965 0.860731
1 0.898894 0.833509
0.306294 1 1
0.307683 1 1
0.307713 1 0.992782
0.305974 1 0.955886
0.30248 1 0.899321
0.326299 1 0.844694
0.482887 1 0.767926
0.817975 1 0.757046
0.997482 1 0.755779
0.054139 0.0582742 1
0.112383 0.0442817 1
0.211704 0.0411536 1
0.422354 0.0565347 1
0.67538 0.0902266 1
0.913817 0.131243 1
1 0.156664 1
1 0.181277 1
1 0.204562 1
0.00292973 0.0741436 1
0.0546426 0.0569772 1
0.153445 0.0495003 1
0.367529 0.0617838 1
0.624826 0.0913863 1
0.887266 0.132265 1
1 0.156329 1
1 0.179644 1
1 0.201862 1
0 0.139284 1
0.0161288 0.123796 1
0.0850538 0.0893111 1
0.292302 0.0743725 1
0.552972 0.0924086 1
0.828 0.129152 1
0.995102 0.154833 1
1 0.176486 1
1 0.197162 1
0 0.29453 1
0.0297398 0.290562 1
0.0847639 0.274281 1
0.237415 0.243381 1
0.496376 0.218021 1
0.752636 0.206699 1
0.951095 0.203052 1
1 0.203464 1
1 0.210224 1
0.034165 0.477638 1
0.0747692 0.480354 1
0.117449 0.474571 1
0.203616 0.454658 1
0.417578 0.418875 1
0.714717 0.381094 1
0.965469 0.360632 1
1 0.342245 1
1 0.332143 1
0.1149 0.671351 1
0.142214 0.672953 1
0.167315 0.669459 1
0.210651 0.651804 1
0.343008 0.635767 1
0.59823 0.601343 1
0.887602 0.557137 1
1 0.521385 1
1 0.497612 1
0.199313 0.911757 1
0.211414 0.899214 1
0.222827 0.876738 1
0.236164 0.838758 1
0.31667 0.821469 1
0.510185 0.798306 1
0.756802 0.766888 1
0.998718 0.725551 1
1 0.69749 1
0.262608 1 1
0.267887 1 1
0.272511 1 1
0.276631 1 1
0.28397 0.992615 1
0.367437 0.985214 1
0.676814 0.939788 1
0.897749 0.913863 1
1 0.883131 1
0.310369 1 1
0.31136 1 1
0.31107 1 1
0.309133 1 1
0.305287 1 1
0.327306 1 1
0.46186 1 1
0.762982 1 0.999619
0.990494 1 0.972641
