site/assets/luts/freshluts--0000930-picturefx-lijiang-old-china-town-by-night-created-for-night-.cube
# LUTr-Schema-Version: 2
# LUTr-ID: freshluts--0000930-picturefx-lijiang-old-china-town-by-night-created-for-night-
# LUTr-Title: PictureFX Lijiang old China Town by Night - created for night shots from illuminated streets, cafe's, night shops and architecture
# LUTr-Collection: Fresh LUTs
# LUTr-Collection-ID: freshluts-community
# LUTr-Source: https://freshluts.com
# LUTr-Retrieved: 2026-07-27
# LUTr-Source-File: submissions-raw/freshluts/cubes/930__PictureFX-Lijiang-old-China-Town-by-Night-3DL25.cube
# LUTr-Source-Format: CUBE
# LUTr-Source-SHA256: 03577b6588e8a6cd44c8c4c8f4776ec6c37f14129ed29efd4cee733fc19ad01b
# LUTr-License: CC0-1.0
# LUTr-License-URL: https://freshluts.com/termsandconditions
# LUTr-License-Basis: site-terms
# LUTr-Transform-Class: creative-look
# LUTr-Tags: creative, freshluts, community, cube, vintage, rec709, assumed-input
# LUTr-Input-Color-Space: rec709
# LUTr-Input-Gamut: rec709
# LUTr-Input-Transfer: rec709
# LUTr-Output-Color-Space: srgb
# LUTr-Output-Gamut: rec709
# LUTr-Output-Transfer: srgb
# LUTr-Color-Space-Confidence: assumed-display-referred
# LUTr-Domain-Normalized: true
# LUTr-Shaper: none
# LUTr-Original-Grid: 25x25x25
# LUTr-Conversion-Grid: 25x25x25
# LUTr-Conversion-Interpolation: none
# LUTr-Conversion-Method: Metadata normalization; numeric LUT samples preserved
# LUTr-Conversion-Tool: LUTr scripts/convert-all-to-cube.mjs 2.0.0
# LUTr-Conversion-Date: 2026-07-28
# LUTr-Asset-URL: https://freshluts.com/luts/930
# LUTr-Author: MarcR.
# LUTr-Author-URL: https://freshluts.com/users/86490
# LUTr-Attribution: MarcR. via Fresh LUTs
# LUTr-Source-Labels: gamma=Other; color=None; key=Neutral; style=Correction; LUTr assumption=input Rec.709 per repository policy
# LUTr-Conversion-Warning: Input Rec.709 is a LUTr catalog assumption requested for this otherwise unspecified Fresh LUT; it is not verified by the upstream asset.
# LUTr-Note: Preserve this metadata and the upstream license notices when redistributing.
# LUTr-Upstream-Comment: Generated with IWLTBAP LUT Generator
# LUTr-Upstream-Comment: Website: http://luts.iwltbap.com
# LUTr-Upstream-Comment: LUT size
# LUTr-Upstream-Comment: LUT data points
TITLE "PictureFX Lijiang old China Town by Night - created for night shots from illuminated streets, cafe's, night shops and architecture"
LUT_3D_SIZE 5
DOMAIN_MIN 0 0 0
DOMAIN_MAX 1 1 1
0.117647 0 0
0.376471 0 0
0.74902 0 0
1 0 0
1 0 0
0.035294 0.231373 0
0.345098 0.180392 0
0.658824 0 0
0.996078 0 0
1 0 0
0 0.462745 0
0 0.454902 0
0.529412 0.4 0
0.87451 0.243137 0
1 0 0
0 0.713725 0
0 0.709804 0
0.239216 0.690196 0
0.745098 0.643137 0
1 0.552941 0
0 1 0
0 1 0
0 1 0
0.529412 1 0
1 0.960784 0
0.32549 0 0.117647
0.513725 0 0.105882
0.792157 0 0.07451
1 0 0
1 0 0
0.047059 0.219608 0
0.294118 0.192157 0.078431
0.647059 0 0
1 0 0
1 0 0
0 0.466667 0
0.066667 0.454902 0
0.560784 0.392157 0
0.886275 0.25098 0
1 0 0
0 0.721569 0
0 0.713725 0
0.294118 0.694118 0
0.768627 0.643137 0
1 0.552941 0
0 1 0
0 1 0
0 1 0
0.552941 0.996078 0
1 0.952941 0
0.501961 0 0.584314
0.682353 0 0.521569
0.956863 0 0.419608
1 0 0.321569
1 0 0.262745
0.392157 0.054902 0.301961
0.588235 0 0.298039
0.839216 0 0.317647
1 0 0.27451
1 0 0.227451
0 0.466667 0.14902
0.2 0.45098 0.141176
0.533333 0.411765 0.286275
0.898039 0.25098 0.227451
1 0 0.117647
0 0.721569 0
0 0.717647 0
0.384314 0.694118 0
0.827451 0.631373 0
1 0.541176 0
0 1 0
0 1 0
0 1 0
0.627451 0.984314 0
1 0.937255 0
0.639216 0 1
0.784314 0 0.996078
1 0 0.870588
1 0 0.729412
1 0 0.611765
0.521569 0 0.882353
0.678431 0 0.847059
0.968627 0 0.764706
1 0 0.666667
1 0 0.576471
0.168627 0.435294 0.533333
0.447059 0.4 0.482353
0.85098 0.105882 0.45098
1 0 0.517647
1 0 0.490196
0 0.721569 0.388235
0 0.713725 0.380392
0.439216 0.686275 0.364706
0.784314 0.647059 0.513725
1 0.54902 0.47451
0 1 0.070588
0 1 0.07451
0 1 0.086275
0.705882 0.980392 0.176471
1 0.921569 0.329412
0.733333 0 1
0.85098 0 1
1 0 1
1 0 1
1 0 1
0.603922 0 1
0.741176 0 1
1 0 1
1 0 1
1 0 1
0.364706 0.305882 1
0.54902 0.231373 1
0.882353 0 1
1 0 0.968627
1 0 0.901961
0 0.705882 0.803922
0 0.698039 0.780392
0.603922 0.647059 0.682353
1 0.447059 0.639216
1 0.219608 0.760784
0 1 0.686275
0 1 0.678431
0 1 0.658824
0.745098 0.984314 0.643137
1 0.956863 0.811765
