site/assets/luts/freshluts--0000872-picturefx-acros-400-infrared.cube
# LUTr-Schema-Version: 2
# LUTr-ID: freshluts--0000872-picturefx-acros-400-infrared
# LUTr-Title: PictureFX Acros 400 InfraRed
# LUTr-Collection: Fresh LUTs
# LUTr-Collection-ID: freshluts-community
# LUTr-Source: https://freshluts.com
# LUTr-Retrieved: 2026-07-27
# LUTr-Source-File: submissions-raw/freshluts/cubes/872__PictureFX-Acros-400-IR.cube
# LUTr-Source-Format: CUBE
# LUTr-Source-SHA256: 799441fc3a52522963fa500339394bc8a5bbb09f9943a91b2b1ad23ca8663dba
# LUTr-License: CC0-1.0
# LUTr-License-URL: https://freshluts.com/termsandconditions
# LUTr-License-Basis: site-terms
# LUTr-Transform-Class: creative-look
# LUTr-Tags: creative, freshluts, community, cube, film-emulation, black-and-white, rec709, assumed-input
# LUTr-Input-Color-Space: rec709
# LUTr-Input-Gamut: rec709
# LUTr-Input-Transfer: rec709
# LUTr-Output-Color-Space: srgb
# LUTr-Output-Gamut: rec709
# LUTr-Output-Transfer: srgb
# LUTr-Color-Space-Confidence: assumed-display-referred
# LUTr-Domain-Normalized: true
# LUTr-Shaper: none
# LUTr-Original-Grid: 25x25x25
# LUTr-Conversion-Grid: 25x25x25
# LUTr-Conversion-Interpolation: none
# LUTr-Conversion-Method: Metadata normalization; numeric LUT samples preserved
# LUTr-Conversion-Tool: LUTr scripts/convert-all-to-cube.mjs 2.0.0
# LUTr-Conversion-Date: 2026-07-28
# LUTr-Asset-URL: https://freshluts.com/luts/872
# LUTr-Author: MarcR.
# LUTr-Author-URL: https://freshluts.com/users/86490
# LUTr-Attribution: MarcR. via Fresh LUTs
# LUTr-Source-Labels: gamma=Other; color=None; key=Neutral; style=Film emulation; LUTr assumption=input Rec.709 per repository policy
# LUTr-Conversion-Warning: Input Rec.709 is a LUTr catalog assumption requested for this otherwise unspecified Fresh LUT; it is not verified by the upstream asset.
# LUTr-Note: Preserve this metadata and the upstream license notices when redistributing.
# LUTr-Upstream-Comment: Generated with IWLTBAP LUT Generator
# LUTr-Upstream-Comment: Website: http://luts.iwltbap.com
# LUTr-Upstream-Comment: LUT size
# LUTr-Upstream-Comment: LUT data points
TITLE "PictureFX Acros 400 InfraRed"
LUT_3D_SIZE 9
DOMAIN_MIN 0 0 0
DOMAIN_MAX 1 1 1
0 0 0
0 0 0
0.019608 0.019608 0.019608
0.203922 0.203922 0.203922
0.4 0.4 0.4
0.4 0.4 0.4
0.4 0.4 0.4
0.4 0.4 0.4
0.4 0.4 0.4
0.058824 0.058824 0.058824
0.066667 0.066667 0.066667
0.129412 0.129412 0.129412
0.290196 0.290196 0.290196
0.4 0.4 0.4
0.4 0.4 0.4
0.4 0.4 0.4
0.4 0.4 0.4
0.4 0.4 0.4
0.290196 0.290196 0.290196
0.298039 0.298039 0.298039
0.341176 0.341176 0.341176
0.584314 0.584314 0.584314
0.529412 0.529412 0.529412
0.4 0.4 0.4
0.4 0.4 0.4
0.4 0.4 0.4
0.4 0.4 0.4
0.823529 0.823529 0.823529
0.839216 0.839216 0.839216
0.913725 0.913725 0.913725
0.972549 0.972549 0.972549
0.847059 0.847059 0.847059
0.690196 0.690196 0.690196
0.623529 0.623529 0.623529
0.603922 0.603922 0.603922
0.619608 0.619608 0.619608
1 1 1
1 1 1
1 1 1
1 1 1
1 1 1
1 1 1
0.996078 0.996078 0.996078
0.964706 0.964706 0.964706
0.960784 0.960784 0.960784
1 1 1
1 1 1
1 1 1
1 1 1
1 1 1
1 1 1
1 1 1
1 1 1
1 1 1
1 1 1
1 1 1
1 1 1
1 1 1
1 1 1
1 1 1
1 1 1
1 1 1
1 1 1
1 1 1
1 1 1
1 1 1
1 1 1
1 1 1
1 1 1
1 1 1
1 1 1
1 1 1
1 1 1
1 1 1
1 1 1
1 1 1
1 1 1
1 1 1
1 1 1
1 1 1
1 1 1
0 0 0
0 0 0
0 0 0
0.14902 0.14902 0.14902
0.4 0.4 0.4
0.4 0.4 0.4
0.4 0.4 0.4
0.4 0.4 0.4
0.372549 0.372549 0.372549
0.011765 0.011765 0.011765
0.015686 0.015686 0.015686
0.054902 0.054902 0.054902
0.231373 0.231373 0.231373
0.4 0.4 0.4
0.4 0.4 0.4
0.4 0.4 0.4
0.4 0.4 0.4
0.364706 0.364706 0.364706
0.243137 0.243137 0.243137
0.286275 0.286275 0.286275
0.352941 0.352941 0.352941
0.541176 0.541176 0.541176
0.4 0.4 0.4
0.4 0.4 0.4
0.4 0.4 0.4
0.4 0.4 0.4
0.345098 0.345098 0.345098
0.831373 0.831373 0.831373
0.839216 0.839216 0.839216
0.917647 0.917647 0.917647
0.94902 0.94902 0.94902
0.811765 0.811765 0.811765
0.67451 0.67451 0.67451
0.623529 0.623529 0.623529
0.592157 0.592157 0.592157
0.588235 0.588235 0.588235
1 1 1
1 1 1
1 1 1
1 1 1
1 1 1
1 1 1
0.992157 0.992157 0.992157
0.937255 0.937255 0.937255
0.909804 0.909804 0.909804
1 1 1
1 1 1
1 1 1
1 1 1
1 1 1
1 1 1
1 1 1
1 1 1
1 1 1
1 1 1
1 1 1
1 1 1
1 1 1
1 1 1
1 1 1
1 1 1
1 1 1
1 1 1
1 1 1
1 1 1
1 1 1
1 1 1
1 1 1
1 1 1
1 1 1
1 1 1
1 1 1
1 1 1
1 1 1
1 1 1
1 1 1
1 1 1
1 1 1
1 1 1
1 1 1
1 1 1
0 0 0
0 0 0
0 0 0
0.007843 0.007843 0.007843
0.180392 0.180392 0.180392
0.207843 0.207843 0.207843
0.196078 0.196078 0.196078
0.184314 0.184314 0.184314
0.172549 0.172549 0.172549
0 0 0
0 0 0
0 0 0
0.05098 0.05098 0.05098
0.196078 0.196078 0.196078
0.203922 0.203922 0.203922
0.192157 0.192157 0.192157
0.184314 0.184314 0.184314
0.168627 0.168627 0.168627
0.141176 0.141176 0.141176
0.137255 0.137255 0.137255
0.192157 0.192157 0.192157
0.278431 0.278431 0.282353
0.196078 0.196078 0.196078
0.192157 0.192157 0.192157
0.184314 0.184314 0.184314
0.168627 0.168627 0.168627
0.309804 0.309804 0.309804
0.670588 0.670588 0.670588
0.690196 0.690196 0.690196
0.752941 0.752941 0.752941
0.752941 0.752941 0.752941
0.643137 0.643137 0.643137
0.541176 0.541176 0.541176
0.505882 0.505882 0.505882
0.509804 0.509804 0.509804
0.54902 0.54902 0.54902
1 1 1
1 1 1
1 1 1
1 1 1
1 1 1
0.901961 0.901961 0.901961
0.847059 0.847059 0.847059
0.815686 0.815686 0.815686
0.815686 0.815686 0.815686
1 1 1
1 1 1
1 1 1
1 1 1
1 1 1
1 1 1
1 1 1
1 1 1
1 1 1
1 1 1
1 1 1
1 1 1
1 1 1
1 1 1
1 1 1
1 1 1
1 1 1
1 1 1
1 1 1
1 1 1
1 1 1
1 1 1
1 1 1
1 1 1
1 1 1
1 1 1
1 1 1
1 1 1
1 1 1
1 1 1
1 1 1
1 1 1
1 1 1
1 1 1
1 1 1
1 1 1
0 0 0
0 0 0
0 0 0
0 0 0
0 0 0
0.015686 0.015686 0.015686
0.027451 0.027451 0.027451
0.003922 0.003922 0.003922
0.145098 0.145098 0.145098
0 0 0
0 0 0
0 0 0
0 0 0
0 0 0
0.011765 0.011765 0.011765
0.007843 0.007843 0.007843
0 0 0
0.243137 0.243137 0.243137
0 0 0
0 0 0
0 0 0
0 0 0
0 0 0
0.058824 0.058824 0.058824
0.172549 0.172549 0.172549
0.309804 0.309804 0.309804
0.396078 0.4 0.4
0.356863 0.356863 0.356863
0.4 0.4 0.4
0.470588 0.470588 0.470588
0.509804 0.509804 0.509804
0.498039 0.498039 0.498039
0.478431 0.482353 0.482353
0.486275 0.486275 0.486275
0.517647 0.517647 0.517647
0.556863 0.556863 0.556863
0.941176 0.941176 0.941176
0.952941 0.952941 0.952941
0.945098 0.945098 0.945098
0.905882 0.905882 0.905882
0.839216 0.839216 0.839216
0.788235 0.788235 0.788235
0.768627 0.768627 0.768627
0.768627 0.768627 0.768627
0.784314 0.784314 0.784314
1 1 1
1 1 1
1 1 1
1 1 1
1 1 1
1 1 1
1 1 1
1 1 1
0.996078 0.996078 0.996078
1 1 1
1 1 1
1 1 1
1 1 1
1 1 1
1 1 1
1 1 1
1 1 1
1 1 1
1 1 1
1 1 1
1 1 1
1 1 1
1 1 1
1 1 1
1 1 1
1 1 1
1 1 1
1 1 1
1 1 1
1 1 1
1 1 1
1 1 1
1 1 1
1 1 1
1 1 1
1 1 1
0 0 0
0 0 0
0 0 0
0 0 0
0 0 0
0 0 0
0 0 0
0 0 0
0.023529 0.023529 0.023529
0 0 0
0 0 0
0 0 0
0 0 0
0 0 0
0 0 0
0 0 0
0 0 0
0.12549 0.12549 0.12549
0 0 0
0 0 0
0 0 0
0 0 0
0 0 0
0 0 0
0.007843 0.007843 0.007843
0.180392 0.180392 0.180392
0.329412 0.329412 0.329412
0.078431 0.078431 0.078431
0.109804 0.109804 0.109804
0.164706 0.164706 0.164706
0.235294 0.235294 0.235294
0.278431 0.278431 0.278431
0.321569 0.321569 0.32549
0.396078 0.396078 0.396078
0.501961 0.501961 0.501961
0.611765 0.611765 0.611765
0.686275 0.686275 0.686275
0.698039 0.698039 0.698039
0.713725 0.713725 0.713725
0.729412 0.729412 0.729412
0.729412 0.729412 0.729412
0.729412 0.729412 0.729412
0.741176 0.741176 0.741176
0.764706 0.764706 0.764706
0.788235 0.788235 0.788235
0.980392 0.984314 0.984314
0.980392 0.980392 0.980392
0.976471 0.976471 0.976471
0.968627 0.968627 0.968627
0.94902 0.94902 0.94902
0.933333 0.937255 0.937255
0.92549 0.92549 0.92549
0.921569 0.921569 0.921569
0.929412 0.929412 0.929412
1 1 1
1 1 1
1 1 1
1 1 1
1 1 1
1 1 1
1 1 1
1 1 1
1 1 1
1 1 1
1 1 1
1 1 1
1 1 1
1 1 1
1 1 1
1 1 1
1 1 1
1 1 1
1 1 1
1 1 1
1 1 1
1 1 1
1 1 1
1 1 1
1 1 1
1 1 1
1 1 1
0 0 0
0 0 0
0 0 0
0 0 0
0 0 0
0 0 0
0 0 0
0 0 0
0 0 0
0 0 0
0 0 0
0 0 0
0 0 0
0 0 0
0 0 0
0 0 0
0 0 0
0 0 0
0 0 0
0 0 0
0 0 0
0 0 0
0 0 0
0 0 0
0 0 0
0.023529 0.023529 0.023529
0.207843 0.207843 0.207843
0 0 0
0 0 0
0 0 0
0.011765 0.011765 0.011765
0.070588 0.070588 0.070588
0.152941 0.152941 0.152941
0.262745 0.262745 0.262745
0.403922 0.403922 0.403922
0.541176 0.541176 0.541176
0.537255 0.537255 0.537255
0.545098 0.545098 0.545098
0.560784 0.560784 0.560784
0.588235 0.588235 0.588235
0.607843 0.607843 0.607843
0.639216 0.639216 0.639216
0.682353 0.682353 0.682353
0.733333 0.733333 0.733333
0.784314 0.784314 0.784314
0.854902 0.854902 0.854902
0.858824 0.858824 0.858824
0.866667 0.866667 0.866667
0.870588 0.870588 0.870588
0.87451 0.87451 0.87451
0.878431 0.878431 0.878431
0.886275 0.886275 0.886275
0.898039 0.898039 0.898039
0.909804 0.909804 0.909804
1 1 1
1 1 1
1 1 1
1 1 1
1 1 1
0.996078 0.996078 0.996078
0.988235 0.988235 0.988235
0.988235 0.988235 0.988235
0.992157 0.992157 0.992157
1 1 1
1 1 1
1 1 1
1 1 1
1 1 1
1 1 1
1 1 1
1 1 1
1 1 1
1 1 1
1 1 1
1 1 1
1 1 1
1 1 1
1 1 1
1 1 1
1 1 1
1 1 1
0 0 0
0 0 0
0 0 0
0 0 0
0 0 0
0 0 0
0 0 0
0 0 0
0 0 0
0 0 0
0 0 0
0 0 0
0 0 0
0 0 0
0 0 0
0 0 0
0 0 0
0 0 0
0 0 0
0 0 0
0 0 0
0 0 0
0 0 0
0 0 0
0 0 0
0 0 0
0.105882 0.105882 0.105882
0 0 0
0 0 0
0 0 0
0 0 0
0 0 0
0.019608 0.019608 0.019608
0.156863 0.156863 0.156863
0.317647 0.321569 0.321569
0.470588 0.470588 0.470588
0.45098 0.45098 0.45098
0.458824 0.458824 0.458824
0.470588 0.470588 0.470588
0.482353 0.482353 0.482353
0.505882 0.505882 0.505882
0.54902 0.54902 0.54902
0.607843 0.607843 0.607843
0.670588 0.670588 0.670588
0.729412 0.729412 0.729412
0.776471 0.776471 0.776471
0.776471 0.776471 0.776471
0.784314 0.784314 0.784314
0.792157 0.792157 0.792157
0.8 0.8 0.8
0.815686 0.815686 0.815686
0.839216 0.839216 0.839216
0.866667 0.866667 0.866667
0.890196 0.890196 0.890196
0.941176 0.941176 0.941176
0.945098 0.945098 0.945098
0.945098 0.945098 0.945098
0.94902 0.94902 0.94902
0.952941 0.952941 0.952941
0.960784 0.960784 0.960784
0.964706 0.964706 0.964706
0.968627 0.968627 0.968627
0.976471 0.976471 0.976471
1 1 1
1 1 1
1 1 1
1 1 1
1 1 1
1 1 1
1 1 1
1 1 1
1 1 1
1 1 1
1 1 1
1 1 1
1 1 1
1 1 1
1 1 1
1 1 1
1 1 1
1 1 1
0 0 0
0 0 0
0 0 0
0 0 0
0 0 0
0 0 0
0 0 0
0 0 0
0 0 0
0 0 0
0 0 0
0 0 0
0 0 0
0 0 0
0 0 0
0 0 0
0 0 0
0 0 0
0 0 0
0 0 0
0 0 0
0 0 0
0 0 0
0 0 0
0 0 0
0 0 0
0.031373 0.031373 0.031373
0 0 0
0 0 0
0 0 0
0 0 0
0 0 0
0 0 0
0.086275 0.086275 0.086275
0.258824 0.258824 0.258824
0.415686 0.415686 0.415686
0.411765 0.411765 0.411765
0.419608 0.419608 0.419608
0.431373 0.431373 0.431373
0.45098 0.45098 0.45098
0.462745 0.462745 0.462745
0.486275 0.486275 0.486275
0.54902 0.552941 0.552941
0.619608 0.619608 0.619608
0.686275 0.686275 0.686275
0.737255 0.737255 0.737255
0.737255 0.737255 0.737255
0.745098 0.745098 0.745098
0.752941 0.752941 0.752941
0.756863 0.756863 0.756863
0.772549 0.772549 0.772549
0.8 0.8 0.8
0.831373 0.831373 0.831373
0.862745 0.862745 0.862745
0.909804 0.909804 0.909804
0.909804 0.909804 0.909804
0.913725 0.913725 0.913725
0.917647 0.917647 0.917647
0.921569 0.921569 0.921569
0.933333 0.933333 0.933333
0.941176 0.941176 0.941176
0.952941 0.952941 0.952941
0.964706 0.964706 0.964706
0.988235 0.988235 0.988235
0.988235 0.988235 0.988235
0.988235 0.988235 0.988235
0.992157 0.992157 0.992157
0.992157 0.992157 0.992157
0.996078 0.996078 0.996078
0.996078 0.996078 0.996078
0.996078 0.996078 0.996078
1 1 1
1 1 1
1 1 1
1 1 1
1 1 1
1 1 1
1 1 1
1 1 1
1 1 1
1 1 1
0 0 0
0 0 0
0 0 0
0 0 0
0 0 0
0 0 0
0 0 0
0 0 0
0 0 0
0 0 0
0 0 0
0 0 0
0 0 0
0 0 0
0 0 0
0 0 0
0 0 0
0 0 0
0 0 0
0 0 0
0 0 0
0 0 0
0 0 0
0 0 0
0 0 0
0 0 0
0.015686 0.015686 0.015686
0 0 0
0 0 0
0 0 0
0 0 0
0.011765 0.011765 0.011765
0.070588 0.070588 0.070588
0.160784 0.160784 0.160784
0.262745 0.262745 0.262745
0.392157 0.392157 0.392157
0.439216 0.439216 0.439216
0.443137 0.443137 0.443137
0.458824 0.458824 0.458824
0.478431 0.478431 0.478431
0.505882 0.505882 0.505882
0.533333 0.533333 0.533333
0.564706 0.564706 0.564706
0.603922 0.603922 0.603922
0.658824 0.658824 0.658824
0.741176 0.741176 0.741176
0.745098 0.745098 0.745098
0.74902 0.74902 0.74902
0.756863 0.756863 0.756863
0.772549 0.772549 0.772549
0.784314 0.784314 0.784314
0.796078 0.796078 0.796078
0.815686 0.815686 0.815686
0.847059 0.847059 0.847059
0.905882 0.905882 0.905882
0.905882 0.905882 0.905882
0.909804 0.909804 0.909804
0.913725 0.913725 0.913725
0.917647 0.917647 0.917647
0.92549 0.92549 0.92549
0.933333 0.933333 0.933333
0.941176 0.941176 0.941176
0.952941 0.952941 0.952941
0.980392 0.980392 0.980392
0.980392 0.980392 0.980392
0.980392 0.980392 0.980392
0.984314 0.984314 0.984314
0.984314 0.984314 0.984314
0.984314 0.984314 0.988235
0.988235 0.988235 0.988235
0.992157 0.992157 0.992157
0.996078 0.996078 0.996078
1 1 1
1 1 1
1 1 1
1 1 1
1 1 1
1 1 1
1 1 1
1 1 1
1 1 1
