site/assets/luts/freshluts--0002140-sandeeps-cinematic.cube
# LUTr-Schema-Version: 2
# LUTr-ID: freshluts--0002140-sandeeps-cinematic
# LUTr-Title: Sandeep's Cinematic
# LUTr-Collection: Fresh LUTs
# LUTr-Collection-ID: freshluts-community
# LUTr-Source: https://freshluts.com
# LUTr-Retrieved: 2026-07-27
# LUTr-Source-File: submissions-raw/freshluts/cubes/2140__Sandeep_Trivedi_Cinematic.cube
# LUTr-Source-Format: CUBE
# LUTr-Source-SHA256: b5f5d265778775bce6b21e4b0bd41adca9be56b8cbd7d357fb86972468f3233a
# LUTr-License: CC0-1.0
# LUTr-License-URL: https://freshluts.com/termsandconditions
# LUTr-License-Basis: site-terms
# LUTr-Transform-Class: creative-look
# LUTr-Tags: creative, freshluts, community, cube, green, high-key, sony-s-log1, cinematic
# LUTr-Input-Color-Space: sony-slog1-sgamut
# LUTr-Input-Gamut: sony-s-gamut
# LUTr-Input-Transfer: sony-s-log1
# LUTr-Output-Color-Space: srgb
# LUTr-Output-Gamut: rec709
# LUTr-Output-Transfer: srgb
# LUTr-Color-Space-Confidence: inferred-from-source-label
# LUTr-Domain-Normalized: true
# LUTr-Shaper: none
# LUTr-Original-Grid: 16x16x16
# LUTr-Conversion-Grid: 16x16x16
# LUTr-Conversion-Interpolation: none
# LUTr-Conversion-Method: Metadata normalization; numeric LUT samples preserved
# LUTr-Conversion-Tool: LUTr scripts/convert-all-to-cube.mjs 2.0.0
# LUTr-Conversion-Date: 2026-07-28
# LUTr-Asset-URL: https://freshluts.com/luts/2140
# LUTr-Author: Sandeep Trivedi
# LUTr-Author-URL: https://freshluts.com/users/202390
# LUTr-Attribution: Sandeep Trivedi via Fresh LUTs
# LUTr-Source-Labels: gamma=Sony S-Log; color=Green; key=High Key; style=NEUTRAL
# LUTr-Note: Preserve this metadata and the upstream license notices when redistributing.
TITLE "Sandeep's Cinematic"
LUT_3D_SIZE 6
DOMAIN_MIN 0 0 0
DOMAIN_MAX 1 1 1
-0.000032 0.000565 0.000826
0.043235 -0.026068 -0.018584
0.137278 -0.061818 -0.058213
0.251719 -0.096094 -0.093099
0.373471 -0.127723 -0.124649
0.52185 -0.162582 -0.159439
0.019316 0.075513 0.012998
0.083529 0.090537 0.043787
0.191788 0.090473 -0.045299
0.302089 0.0927 -0.106244
0.435117 0.088506 -0.145781
0.600893 0.081746 -0.185283
0.069762 0.190889 0.018638
0.161108 0.210105 0.030836
0.238279 0.231736 0.068155
0.390195 0.217783 0.017972
0.50703 0.232636 -0.111154
0.66712 0.251497 -0.173042
0.137503 0.325055 0.029379
0.240503 0.346551 0.036755
0.34746 0.365542 0.152736
0.431631 0.390015 0.068587
0.590492 0.388386 0.035921
0.786878 0.396948 -0.112108
0.219057 0.481998 0.040361
0.333011 0.505412 0.048943
0.473517 0.518466 0.232172
0.54562 0.556948 0.207776
0.638006 0.582455 0.10827
0.802975 0.622598 0.037648
0.323126 0.682355 0.048621
0.450357 0.707868 0.058568
0.588203 0.730259 0.1805
0.704212 0.756775 0.327831
0.771008 0.802774 0.318508
0.870739 0.838466 0.223819
-0.000278 0.002663 0.043386
0.043102 0.003451 0.058136
0.136025 -0.050628 0.063581
0.255469 -0.098373 0.060806
0.381025 -0.132449 0.055108
0.533289 -0.168512 0.045972
0.008699 0.087088 0.07006
0.069868 0.102495 0.087065
0.217683 0.076149 0.055973
0.354631 0.042014 0.00744
0.489584 -0.075337 -0.118212
0.649348 -0.148913 -0.17123
0.023099 0.209459 0.087006
0.108652 0.231014 0.034683
0.249526 0.249582 0.090599
0.400117 0.223054 0.064403
0.526125 0.226663 -0.06807
0.681839 0.239846 -0.164606
0.044744 0.350698 0.055168
0.195938 0.371482 0.05506
0.350273 0.383085 0.178621
0.445107 0.405656 0.090459
0.61627 0.387504 0.083539
0.769216 0.41079 0.04639
0.143916 0.509789 0.059625
0.288584 0.532308 0.072899
0.447727 0.547687 0.163938
0.569505 0.574547 0.217588
0.649917 0.59886 0.134731
0.820962 0.627064 0.072433
0.251148 0.710968 0.071414
0.400335 0.734117 0.087443
0.545878 0.760394 0.108099
0.703082 0.77498 0.360314
0.786543 0.819027 0.339891
0.881286 0.855381 0.252806
-0.000532 0.005517 0.10791
0.043782 0.003895 0.129143
0.135102 0.00498 0.13795
0.243085 -0.047131 0.145504
0.375946 -0.1157 0.156999
0.534529 -0.163009 0.168947
0.004679 0.093206 0.141216
0.039035 0.091466 0.186895
0.208111 0.045002 0.201807
0.345842 0.044018 0.183023
0.493027 -0.097263 0.173707
0.661622 -0.17026 0.166223
0.019041 0.222484 0.177066
0.037724 0.248207 0.191105
0.217503 0.250648 0.119703
0.418764 0.213058 0.155872
0.58314 0.175105 0.112311
0.761218 0.129313 0.040773
0.039504 0.366256 0.195853
0.072743 0.394172 0.142218
0.283065 0.408742 0.104406
0.454123 0.413518 0.124276
0.630065 0.389338 0.174308
0.778 0.404653 0.121958
0.065062 0.532336 0.18791
0.176611 0.559516 0.110121
0.382032 0.576284 0.136596
0.57953 0.588579 0.266512
0.660007 0.613519 0.183853
0.844281 0.62472 0.155667
0.104314 0.741086 0.139721
0.308002 0.763764 0.136704
0.486254 0.783204 0.167107
0.668813 0.802783 0.29887
0.800434 0.833142 0.388883
0.890791 0.872261 0.307619
-0.000794 0.008676 0.189293
0.043145 0.004093 0.214996
0.136736 0.005163 0.227142
0.245822 0.006548 0.238088
0.359196 0.008267 0.252636
0.514639 -0.106621 0.282984
0.003767 0.098525 0.228671
0.036877 0.091531 0.284823
0.181038 0.053142 0.311008
0.334036 0.051073 0.312362
0.460176 0.054763 0.309592
0.634975 -0.096704 0.327731
0.014937 0.227835 0.268994
0.042243 0.241585 0.316297
0.102385 0.16828 0.367871
0.409046 0.145429 0.353045
0.571625 0.152526 0.332431
0.763791 0.099769 0.325027
0.033214 0.381558 0.306689
0.063105 0.411334 0.327198
0.135332 0.430295 0.31507
0.447425 0.407682 0.316602
0.62458 0.393798 0.314254
0.819527 0.350715 0.263654
0.055254 0.549903 0.331172
0.105717 0.580903 0.311642
0.231157 0.602402 0.232014
0.51173 0.611001 0.292021
0.665166 0.622637 0.298893
0.871811 0.61128 0.35334
0.084222 0.761176 0.344922
0.175647 0.792541 0.286345
0.388993 0.812728 0.270552
0.588712 0.830049 0.313743
0.791521 0.844987 0.501843
0.898464 0.888703 0.422451
-0.001066 0.012327 0.285115
0.043362 0.004918 0.31741
0.140432 0.005952 0.334557
0.252378 0.007341 0.346806
0.365051 0.009414 0.361847
0.50627 0.011414 0.395154
0.003903 0.105929 0.332772
0.035016 0.094931 0.396445
0.17035 0.057009 0.43121
0.324122 0.052326 0.438387
0.46288 0.051707 0.447207
0.61457 0.051095 0.465685
0.012847 0.236592 0.379328
0.043198 0.240385 0.434875
0.111867 0.171494 0.498071
0.360928 0.126273 0.517659
0.554179 0.13205 0.515211
0.714379 0.14202 0.514438
0.027539 0.395577 0.42447
0.057232 0.416826 0.471988
0.118707 0.410876 0.52113
0.305018 0.318919 0.55911
0.615376 0.3322 0.538524
0.801221 0.329745 0.531992
0.04587 0.567592 0.458864
0.086702 0.598838 0.481141
0.180456 0.623773 0.4897
0.380525 0.63482 0.485097
0.646139 0.635731 0.521754
0.832744 0.627066 0.531626
0.067548 0.78105 0.500065
0.138682 0.812498 0.491698
0.292705 0.838252 0.472068
0.502349 0.856678 0.484361
0.719791 0.873717 0.526519
0.908066 0.898075 0.606896
-0.001369 0.017176 0.404771
0.046062 0.005823 0.443354
0.149303 0.006843 0.466369
0.268093 0.008179 0.482591
0.385825 0.010248 0.499838
0.511764 0.012544 0.516503
0.004504 0.118008 0.463351
0.029968 0.098215 0.52825
0.167867 0.053014 0.575096
0.327508 0.04922 0.5857
0.471429 0.048582 0.597688
0.618535 0.04885 0.60912
0.01227 0.256346 0.518421
0.038949 0.25152 0.577763
0.10547 0.174028 0.647777
0.339569 0.126897 0.675749
0.539268 0.122274 0.688068
0.716101 0.12326 0.695974
0.023881 0.420935 0.569052
0.05132 0.429874 0.621659
0.112565 0.404263 0.680331
0.264398 0.297395 0.730159
0.567343 0.286339 0.751205
0.786593 0.299649 0.757466
0.039959 0.613418 0.617404
0.073702 0.640022 0.661846
0.150019 0.651353 0.707079
0.314209 0.636475 0.749124
0.550929 0.587053 0.77454
0.826304 0.600195 0.783197
0.054332 0.800773 0.64264
0.108014 0.83201 0.662536
0.231498 0.859307 0.679297
0.427305 0.881292 0.703594
0.639845 0.900824 0.743053
0.873407 0.921542 0.795295
