site/assets/luts/freshluts--0002140-sandeeps-cinematic.cube
# LUTr-Schema-Version: 2
# LUTr-ID: freshluts--0002140-sandeeps-cinematic
# LUTr-Title: Sandeep's Cinematic
# LUTr-Collection: Fresh LUTs
# LUTr-Collection-ID: freshluts-community
# LUTr-Source: https://freshluts.com
# LUTr-Retrieved: 2026-07-27
# LUTr-Source-File: submissions-raw/freshluts/cubes/2140__Sandeep_Trivedi_Cinematic.cube
# LUTr-Source-Format: CUBE
# LUTr-Source-SHA256: b5f5d265778775bce6b21e4b0bd41adca9be56b8cbd7d357fb86972468f3233a
# LUTr-License: CC0-1.0
# LUTr-License-URL: https://freshluts.com/termsandconditions
# LUTr-License-Basis: site-terms
# LUTr-Transform-Class: creative-look
# LUTr-Tags: creative, freshluts, community, cube, green, high-key, sony-s-log1, cinematic
# LUTr-Input-Color-Space: sony-slog1-sgamut
# LUTr-Input-Gamut: sony-s-gamut
# LUTr-Input-Transfer: sony-s-log1
# LUTr-Output-Color-Space: srgb
# LUTr-Output-Gamut: rec709
# LUTr-Output-Transfer: srgb
# LUTr-Color-Space-Confidence: inferred-from-source-label
# LUTr-Domain-Normalized: true
# LUTr-Shaper: none
# LUTr-Original-Grid: 16x16x16
# LUTr-Conversion-Grid: 16x16x16
# LUTr-Conversion-Interpolation: none
# LUTr-Conversion-Method: Metadata normalization; numeric LUT samples preserved
# LUTr-Conversion-Tool: LUTr scripts/convert-all-to-cube.mjs 2.0.0
# LUTr-Conversion-Date: 2026-07-28
# LUTr-Asset-URL: https://freshluts.com/luts/2140
# LUTr-Author: Sandeep Trivedi
# LUTr-Author-URL: https://freshluts.com/users/202390
# LUTr-Attribution: Sandeep Trivedi via Fresh LUTs
# LUTr-Source-Labels: gamma=Sony S-Log; color=Green; key=High Key; style=NEUTRAL
# LUTr-Note: Preserve this metadata and the upstream license notices when redistributing.
TITLE "Sandeep's Cinematic"
LUT_3D_SIZE 16
DOMAIN_MIN 0 0 0
DOMAIN_MAX 1 1 1
-0.000032 0.000565 0.000826
0.003641 0.00131 0.002805
0.020128 -0.013464 0.002315
0.043235 -0.026068 -0.018584
0.071112 -0.038036 -0.03311
0.102959 -0.050036 -0.04592
0.137278 -0.061818 -0.058213
0.173918 -0.073494 -0.07022
0.212386 -0.084982 -0.081831
0.251719 -0.096094 -0.093099
0.291578 -0.106883 -0.103853
0.332139 -0.117385 -0.114331
0.373471 -0.127723 -0.124649
0.41795 -0.138521 -0.13546
0.467842 -0.150251 -0.147113
0.52185 -0.162582 -0.159439
0.000751 0.017659 0.005192
0.011291 0.021162 0.007276
0.027576 0.024173 0.00741
0.055872 0.023857 0.002707
0.084819 0.023086 -0.038684
0.118951 0.019268 -0.054786
0.155883 0.012335 -0.068162
0.194087 -0.026754 -0.080436
0.233543 -0.055112 -0.091969
0.273898 -0.07228 -0.103075
0.315271 -0.086431 -0.113988
0.356621 -0.098671 -0.124517
0.398951 -0.109921 -0.134922
0.445398 -0.121336 -0.145995
0.496172 -0.13341 -0.157807
0.552275 -0.146161 -0.170467
0.006995 0.044043 0.00903
0.024561 0.048178 0.012942
0.0435 0.052536 0.019976
0.06352 0.056715 0.013558
0.102335 0.054566 0.009386
0.133649 0.055375 -0.043593
0.168888 0.054474 -0.066824
0.205236 0.053532 -0.082442
0.247612 0.049447 -0.096581
0.290878 0.044263 -0.109127
0.333843 0.03873 -0.120652
0.377251 0.032774 -0.131689
0.42134 0.026275 -0.142462
0.46885 0.016994 -0.153717
0.521719 -0.032573 -0.165927
0.579128 -0.069447 -0.178816
0.019316 0.075513 0.012998
0.040449 0.080284 0.017903
0.06316 0.085103 0.022138
0.083529 0.090537 0.043787
0.109014 0.094972 0.016744
0.154424 0.091127 0.013811
0.191788 0.090473 -0.045299
0.228387 0.090821 -0.07378
0.265982 0.091067 -0.092309
0.302089 0.0927 -0.106244
0.343765 0.092204 -0.120154
0.388731 0.09039 -0.133405
0.435117 0.088506 -0.145781
0.485479 0.086746 -0.158361
0.540689 0.084509 -0.171501
0.600893 0.081746 -0.185283
0.034346 0.110927 0.016638
0.057885 0.116351 0.020782
0.083857 0.121991 0.024432
0.111562 0.126183 0.058906
0.12919 0.134815 0.056974
0.161512 0.13719 0.016628
0.211743 0.131785 0.016555
0.25879 0.127676 -0.044275
0.28883 0.132259 -0.071614
0.331588 0.131675 -0.097976
0.37112 0.133133 -0.115299
0.408731 0.136893 -0.128594
0.449225 0.140913 -0.141286
0.496148 0.144131 -0.154932
0.550893 0.146662 -0.169768
0.612475 0.148093 -0.185406
0.051105 0.149624 0.018159
0.076989 0.155789 0.021062
0.105227 0.161884 0.023353
0.137557 0.166671 0.05267
0.16048 0.173841 0.078008
0.181476 0.182939 0.06537
0.219897 0.18184 0.016974
0.272243 0.175985 0.020447
0.32463 0.170493 -0.012009
0.360889 0.17327 -0.072259
0.394495 0.178568 -0.093973
0.441044 0.179015 -0.11891
0.485145 0.182034 -0.136499
0.529832 0.188102 -0.151069
0.577454 0.196586 -0.164834
0.629161 0.205792 -0.178725
0.069762 0.190889 0.018638
0.097573 0.197328 0.020745
0.127826 0.203932 0.022555
0.161108 0.210105 0.030836
0.193787 0.213939 0.096647
0.211438 0.224129 0.095201
0.238279 0.231736 0.068155
0.282114 0.228811 0.020914
0.335266 0.223491 0.024282
0.390195 0.217783 0.017972
0.438615 0.21627 -0.072245
0.467477 0.225894 -0.089728
0.50703 0.232636 -0.111154
0.559519 0.236325 -0.136408
0.614628 0.241776 -0.157313
0.66712 0.251497 -0.173042
0.09076 0.233615 0.021704
0.120268 0.240436 0.024148
0.151976 0.247119 0.026382
0.186396 0.253744 0.028185
0.225739 0.256166 0.112937
0.248855 0.265702 0.115047
0.266621 0.276509 0.109979
0.299858 0.281894 0.067273
0.346461 0.278816 0.024867
0.400058 0.274241 0.027834
0.454218 0.270322 0.02851
0.51355 0.26545 -0.056305
0.556527 0.270965 -0.095777
0.589237 0.285847 -0.107336
0.632856 0.298858 -0.124305
0.688744 0.308075 -0.147973
0.113543 0.278342 0.025552
0.144434 0.285332 0.028094
0.177423 0.292303 0.030491
0.21311 0.299115 0.032502
0.255392 0.301977 0.109154
0.28693 0.309019 0.136057
0.304676 0.320422 0.133404
0.326972 0.331175 0.119922
0.364548 0.334552 0.06695
0.413084 0.331817 0.028626
0.466507 0.328884 0.031058
0.52087 0.326807 0.032791
0.578294 0.325608 0.022608
0.643455 0.324476 -0.090295
0.69426 0.334267 -0.120678
0.726572 0.358281 -0.120901
0.137503 0.325055 0.029379
0.169669 0.332372 0.032024
0.203822 0.33959 0.034555
0.240503 0.346551 0.036755
0.283387 0.351013 0.090079
0.322786 0.354594 0.159592
0.34746 0.365542 0.152736
0.364215 0.377712 0.150258
0.390916 0.387828 0.126657
0.431631 0.390015 0.068587
0.481327 0.388492 0.032067
0.534778 0.387614 0.034125
0.590492 0.388386 0.035921
0.649945 0.39097 0.035915
0.714901 0.394621 0.010107
0.786878 0.396948 -0.112108
0.162972 0.374142 0.033151
0.196459 0.381632 0.035895
0.231874 0.388968 0.038524
0.269466 0.396328 0.040935
0.311308 0.4025 0.064462
0.358733 0.40286 0.181602
0.38991 0.41315 0.176019
0.409605 0.425427 0.17054
0.428135 0.438 0.165238
0.457712 0.446873 0.13334
0.500644 0.448732 0.07294
0.551824 0.449123 0.035309
0.605358 0.451443 0.036864
0.662892 0.456486 0.038113
0.721356 0.46528 0.038015
0.785569 0.474192 0.036914
0.190004 0.426303 0.036821
0.224747 0.434062 0.039681
0.261274 0.441594 0.042446
0.300224 0.449039 0.04503
0.341797 0.456225 0.048466
0.39478 0.455578 0.187366
0.431359 0.463957 0.203533
0.4586 0.475778 0.190537
0.475359 0.488998 0.188876
0.496795 0.50184 0.178742
0.528402 0.50958 0.140995
0.571492 0.511758 0.081672
0.621917 0.515893 0.039336
0.673503 0.524563 0.038302
0.728847 0.536761 0.038326
0.792181 0.549066 0.037908
0.219057 0.481998 0.040361
0.255179 0.489949 0.043273
0.293093 0.497677 0.046202
0.333011 0.505412 0.048943
0.375459 0.51279 0.051472
0.430453 0.513404 0.175092
0.473517 0.518466 0.232172
0.506799 0.529808 0.217304
0.528975 0.542953 0.208503
0.54562 0.556948 0.207776
0.569696 0.569682 0.19277
0.600551 0.577181 0.155758
0.638006 0.582455 0.10827
0.685402 0.593915 0.065637
0.73937 0.608572 0.039083
0.802975 0.622598 0.037648
0.250675 0.543229 0.04366
0.288305 0.551297 0.046657
0.327541 0.559275 0.049702
0.369004 0.567147 0.052655
0.41297 0.574778 0.0554
0.467679 0.577347 0.151268
0.518281 0.578702 0.260523
0.554457 0.589688 0.252545
0.581358 0.602686 0.239804
0.598943 0.617126 0.238881
0.6163 0.631557 0.238452
0.639675 0.645464 0.22714
0.668209 0.655837 0.199389
0.702421 0.662997 0.157318
0.755596 0.679665 0.10839
0.819821 0.695755 0.054359
0.285465 0.609986 0.046468
0.324652 0.618272 0.049597
0.365662 0.626407 0.052813
0.408543 0.634499 0.055904
0.453601 0.642385 0.058874
0.503992 0.648544 0.107336
0.559413 0.648016 0.26034
0.596141 0.656733 0.294084
0.625887 0.669769 0.289124
0.648587 0.684136 0.285008
0.666667 0.699195 0.285519
0.686941 0.714133 0.282728
0.712312 0.728491 0.270872
0.744132 0.741709 0.244125
0.780264 0.748218 0.195938
0.841529 0.767986 0.137354
0.323126 0.682355 0.048621
0.364024 0.690911 0.051847
0.4066 0.699354 0.055134
0.450357 0.707868 0.058568
0.493549 0.7168 0.061948
0.536722 0.725766 0.065406
0.588203 0.730259 0.1805
0.637693 0.732562 0.30554
0.674426 0.742743 0.331441
0.704212 0.756775 0.327831
0.72721 0.77169 0.324841
0.747729 0.787404 0.323819
0.771008 0.802774 0.318508
0.798685 0.817779 0.304578
0.833086 0.831713 0.274888
0.870739 0.838466 0.223819
-0.000108 0.001149 0.011046
0.003808 0.001688 0.016082
0.019299 0.002222 0.018124
0.042752 -0.020046 0.019891
0.072002 -0.038105 0.01926
0.104104 -0.051309 0.016551
0.138908 -0.06347 0.011854
0.17591 -0.075232 -0.016044
0.214201 -0.086583 -0.04777
0.253628 -0.097635 -0.064865
0.294065 -0.108465 -0.078799
0.334869 -0.118987 -0.091033
0.37618 -0.129294 -0.102079
0.421717 -0.140289 -0.113398
0.47151 -0.151969 -0.125355
0.525993 -0.164379 -0.137966
0.000384 0.020191 0.01683
0.007999 0.023788 0.021919
0.028821 0.025817 0.026079
0.059013 0.024259 0.025027
0.093276 0.018632 0.01992
0.130161 0.005495 0.008716
0.16764 -0.053296 -0.048627
0.205748 -0.073223 -0.070032
0.24518 -0.087237 -0.084646
0.285526 -0.099519 -0.097055
0.326528 -0.111086 -0.108959
0.368485 -0.122241 -0.120244
0.411259 -0.133008 -0.131073
0.457217 -0.144239 -0.142413
0.508033 -0.156268 -0.154569
0.563718 -0.1691 -0.167471
0.005057 0.047276 0.024525
0.019147 0.052324 0.027588
0.041268 0.055883 0.032619
0.066033 0.058998 0.030022
0.104917 0.056291 0.027474
0.140125 0.053937 0.011343
0.178878 0.049252 -0.055799
0.221135 0.041731 -0.078355
0.262875 0.034528 -0.092936
0.304694 0.026115 -0.105788
0.347381 0.014674 -0.117818
0.390456 -0.042433 -0.129229
0.434319 -0.070306 -0.140311
0.482043 -0.089454 -0.151893
0.534448 -0.106681 -0.164295
0.591774 -0.123326 -0.177486
0.013424 0.079778 0.030715
0.030676 0.085727 0.030088
0.058056 0.090048 0.036309
0.084815 0.094233 0.053254
0.11296 0.097817 0.029211
0.15979 0.092191 0.027642
0.194909 0.091368 0.007868
0.233029 0.089742 -0.064384
0.270786 0.089469 -0.087183
0.31471 0.085855 -0.105401
0.360257 0.081077 -0.120403
0.406224 0.076475 -0.1336
0.452835 0.072534 -0.145872
0.502329 0.068573 -0.158228
0.55692 0.063924 -0.171332
0.616408 0.058215 -0.185154
0.021459 0.116672 0.032131
0.045632 0.123082 0.030499
0.07543 0.128064 0.034939
0.107486 0.132979 0.043873
0.132434 0.139637 0.065551
0.166597 0.140714 0.024554
0.219396 0.132115 0.028928
0.256893 0.131436 0.014842
0.294924 0.13149 -0.060438
0.334541 0.131441 -0.090638
0.371741 0.133817 -0.109389
0.414194 0.134713 -0.126333
0.460593 0.134582 -0.141935
0.512129 0.133993 -0.157096
0.569784 0.132971 -0.172542
0.631669 0.13148 -0.188066
0.028796 0.157062 0.024627
0.062153 0.163234 0.027272
0.094086 0.16894 0.029434
0.128835 0.174779 0.030434
0.162827 0.178948 0.08334
0.185192 0.188811 0.072841
0.225734 0.185406 0.024555
0.280588 0.176724 0.033352
0.326362 0.172573 0.021565
0.357781 0.177427 -0.038856
0.402125 0.176661 -0.088618
0.444495 0.178236 -0.113491
0.485092 0.182931 -0.130873
0.529216 0.189043 -0.146595
0.580693 0.194882 -0.163146
0.638713 0.200002 -0.180184
0.047939 0.198619 0.022991
0.081977 0.205406 0.024942
0.115428 0.211438 0.026634
0.151911 0.217387 0.028128
0.193165 0.220115 0.09657
0.215864 0.22982 0.100182
0.242758 0.238039 0.075371
0.288305 0.232449 0.029599
0.343667 0.224745 0.036981
0.398164 0.217065 0.029217
0.433006 0.221582 0.005215
0.467587 0.22825 -0.07239
0.5156 0.229991 -0.109075
0.56661 0.233409 -0.134845
0.617419 0.240673 -0.15419
0.665724 0.252356 -0.168868
0.070742 0.241668 0.026319
0.105291 0.248733 0.028875
0.139488 0.25502 0.031086
0.176707 0.261393 0.03303
0.22002 0.264939 0.086238
0.252513 0.271432 0.120599
0.271155 0.282735 0.116315
0.30447 0.288058 0.074305
0.352552 0.282517 0.033899
0.408134 0.276171 0.040449
0.463741 0.269381 0.039313
0.516389 0.266404 0.012198
0.548337 0.277645 -0.060948
0.587443 0.288848 -0.091768
0.640683 0.295999 -0.123533
0.697838 0.303493 -0.149572
0.094543 0.286506 0.030348
0.129676 0.294025 0.033179
0.164643 0.300662 0.035621
0.202493 0.307162 0.037875
0.244665 0.312625 0.060764
0.287311 0.31534 0.143488
0.310247 0.326463 0.138165
0.331818 0.337765 0.126988
0.369158 0.340461 0.074093
0.419151 0.335683 0.03781
0.474239 0.330809 0.043004
0.529383 0.326793 0.045107
0.589593 0.322662 0.030587
0.644239 0.325875 -0.06582
0.682099 0.342613 -0.089063
0.719023 0.363243 -0.09968
0.119144 0.333532 0.034369
0.155272 0.34143 0.037419
0.191078 0.348038 0.040068
0.229713 0.354907 0.042622
0.271174 0.3616 0.045294
0.320801 0.361701 0.16349
0.35162 0.371736 0.159579
0.370377 0.384124 0.155088
0.396099 0.394993 0.134718
0.436449 0.395709 0.075427
0.487258 0.392197 0.041245
0.542103 0.389719 0.045287
0.598552 0.388858 0.047677
0.658866 0.389301 0.045835
0.725605 0.39032 0.018236
0.792249 0.393681 -0.104125
0.14503 0.382784 0.038343
0.181917 0.390949 0.041621
0.218633 0.397858 0.044487
0.258066 0.404837 0.047293
0.30014 0.411736 0.049739
0.353322 0.412221 0.162031
0.391284 0.419681 0.185611
0.416495 0.431648 0.174414
0.434229 0.444479 0.17062
0.462797 0.45383 0.141471
0.505242 0.454288 0.080141
0.557273 0.453033 0.044168
0.612077 0.45383 0.047209
0.670065 0.457639 0.049488
0.728979 0.464754 0.049138
0.794953 0.470746 0.045928
0.172116 0.435194 0.04224
0.210279 0.443463 0.045695
0.248005 0.450538 0.048757
0.288476 0.45783 0.051812
0.331289 0.465061 0.054588
0.384227 0.467333 0.140831
0.430053 0.470916 0.213416
0.46309 0.482222 0.198272
0.482853 0.495312 0.19222
0.502554 0.508486 0.185193
0.532981 0.516035 0.149144
0.576046 0.517288 0.088853
0.627076 0.519997 0.047439
0.679115 0.527378 0.04768
0.735152 0.538399 0.048273
0.800063 0.548779 0.048372
0.201206 0.491005 0.046
0.240182 0.499523 0.049602
0.279121 0.506802 0.052851
0.320696 0.514323 0.056169
0.364648 0.521617 0.059224
0.415794 0.526248 0.111203
0.470607 0.525863 0.239404
0.508489 0.536434 0.228668
0.536281 0.549202 0.21235
0.553503 0.563122 0.21047
0.575627 0.576461 0.199171
0.604992 0.583772 0.164305
0.642146 0.588077 0.115906
0.689625 0.598534 0.072479
0.744102 0.61207 0.047049
0.808541 0.62467 0.046377
0.232462 0.552329 0.04955
0.272724 0.560659 0.053224
0.313383 0.568364 0.05671
0.356263 0.576115 0.060303
0.40127 0.583625 0.063668
0.450778 0.590231 0.082301
0.513292 0.587454 0.251857
0.553129 0.596566 0.2651
0.585047 0.609092 0.24937
0.605923 0.623316 0.243482
0.622145 0.637814 0.244395
0.644547 0.651962 0.23481
0.672683 0.662888 0.208667
0.706189 0.669056 0.166093
0.759556 0.684833 0.115267
0.824096 0.699515 0.060305
0.266891 0.619227 0.052641
0.308267 0.627767 0.056412
0.350584 0.635725 0.060133
0.395183 0.643486 0.064005
0.4418 0.651386 0.067768
0.489482 0.659081 0.07142
0.548367 0.659816 0.213326
0.593477 0.664187 0.301124
0.626128 0.676272 0.299937
0.652353 0.690327 0.293336
0.672223 0.705298 0.291533
0.691944 0.720154 0.289273
0.716604 0.734706 0.278863
0.74867 0.74847 0.252808
0.784174 0.754252 0.204105
0.84522 0.77284 0.143955
0.303795 0.691706 0.055066
0.346785 0.700129 0.058789
0.391246 0.70857 0.062867
0.436776 0.716648 0.067136
0.481297 0.725473 0.071403
0.525531 0.734612 0.075736
0.573316 0.742169 0.117362
0.628852 0.74327 0.269608
0.672701 0.749594 0.33913
0.705661 0.762714 0.337271
0.731771 0.777403 0.331777
0.753715 0.792799 0.328937
0.775972 0.808355 0.324687
0.802976 0.823409 0.311657
0.837175 0.838225 0.284025
0.874171 0.844036 0.232029
-0.000193 0.001886 0.025913
0.00357 0.001895 0.032562
0.020292 0.002657 0.03603
0.041889 0.003078 0.037665
0.068834 -0.018938 0.039558
0.103209 -0.045911 0.040579
0.139042 -0.06215 0.039303
0.176504 -0.075541 0.036874
0.215482 -0.087714 0.033551
0.25538 -0.099158 0.029423
0.295723 -0.110085 0.024111
0.337202 -0.120817 0.017173
0.379268 -0.131308 0.006556
0.424702 -0.142283 -0.048521
0.474994 -0.154076 -0.071179
0.530237 -0.166661 -0.089714
0.000318 0.022072 0.032986
0.007136 0.025465 0.041261
0.02829 0.026461 0.047461
0.055872 0.026967 0.049341
0.090518 0.022377 0.050091
0.129919 0.008532 0.046651
0.168814 -0.054064 0.040911
0.208014 -0.075264 0.034411
0.247619 -0.089518 0.027328
0.288046 -0.101811 0.01864
0.329571 -0.113415 -0.005688
0.371611 -0.124507 -0.058713
0.414673 -0.135355 -0.078837
0.461218 -0.146606 -0.095515
0.512285 -0.158662 -0.111099
0.568051 -0.171485 -0.126594
0.003642 0.050483 0.041052
0.015166 0.055555 0.047106
0.036103 0.059579 0.053076
0.067076 0.060797 0.057249
0.108276 0.056734 0.052057
0.151499 0.047294 0.041046
0.195822 0.032535 0.024469
0.238036 0.015236 -0.032139
0.279502 -0.046441 -0.06815
0.32175 -0.076059 -0.088369
0.363946 -0.094945 -0.104671
0.406991 -0.110908 -0.118725
0.451418 -0.124801 -0.131907
0.498517 -0.138366 -0.144903
0.55023 -0.152516 -0.158453
0.606918 -0.167188 -0.172609
0.010854 0.083416 0.049936
0.0258 0.089868 0.05345
0.04801 0.094978 0.054741
0.080015 0.098694 0.058525
0.116673 0.099636 0.052028
0.164254 0.092565 0.048343
0.203105 0.088246 0.02762
0.244126 0.083939 -0.023821
0.289896 0.076536 -0.07188
0.335101 0.069008 -0.094038
0.3796 0.062072 -0.110995
0.424622 0.054906 -0.125673
0.470542 0.047479 -0.139301
0.519719 0.038604 -0.152823
0.573558 0.02622 -0.166876
0.63201 -0.031637 -0.181532
0.018262 0.120827 0.056688
0.032601 0.128356 0.053674
0.0576 0.134439 0.046721
0.097103 0.138779 0.05088
0.133595 0.1432 0.076554
0.171977 0.142459 0.036374
0.225061 0.132493 0.04515
0.260954 0.131979 0.031356
0.301573 0.12978 0.006743
0.340436 0.129891 -0.074964
0.384878 0.127086 -0.102945
0.432518 0.122804 -0.123348
0.481715 0.118964 -0.14015
0.534188 0.115208 -0.155885
0.590933 0.111433 -0.17153
0.652105 0.107142 -0.187315
0.022533 0.161687 0.057552
0.032162 0.170277 0.039226
0.072387 0.176173 0.034709
0.114228 0.181096 0.035301
0.16003 0.183973 0.0802
0.187771 0.193779 0.079734
0.23201 0.18736 0.034638
0.287224 0.177366 0.050205
0.32755 0.175299 0.038395
0.365239 0.176023 0.01892
0.407182 0.175644 -0.069058
0.446826 0.178474 -0.1011
0.489443 0.181427 -0.123783
0.539278 0.183201 -0.144521
0.596604 0.184049 -0.164412
0.658204 0.184219 -0.183147
0.024498 0.205006 0.050106
0.05038 0.212855 0.028617
0.094586 0.218903 0.030255
0.136588 0.224362 0.031667
0.182703 0.228814 0.055709
0.218619 0.234468 0.104919
0.246628 0.244237 0.083229
0.294929 0.234943 0.040654
0.352512 0.224813 0.054419
0.398515 0.220471 0.045676
0.431248 0.225723 0.030815
0.475945 0.225963 -0.047045
0.522828 0.22738 -0.09879
0.56927 0.232654 -0.126194
0.617417 0.240904 -0.147183
0.668292 0.250927 -0.165171
0.030873 0.249755 0.033637
0.079024 0.25651 0.033269
0.120734 0.263072 0.035584
0.161838 0.26881 0.037526
0.205662 0.27461 0.039146
0.252314 0.276769 0.127346
0.275193 0.288141 0.121883
0.308671 0.293573 0.081087
0.359406 0.285306 0.045241
0.416988 0.276978 0.057172
0.47416 0.267133 0.053202
0.510678 0.272615 0.038217
0.545884 0.281636 0.019985
0.59567 0.286037 -0.080422
0.650364 0.291116 -0.120414
0.703311 0.300011 -0.145731
0.061736 0.295073 0.035473
0.106067 0.30205 0.037987
0.147228 0.308959 0.040759
0.188216 0.31505 0.043161
0.23198 0.321221 0.045307
0.284004 0.321705 0.145053
0.31454 0.331806 0.14358
0.336123 0.343887 0.134351
0.37366 0.34586 0.080949
0.425323 0.338729 0.049053
0.482794 0.332212 0.059453
0.539044 0.325682 0.060965
0.597893 0.32086 0.044399
0.637756 0.331909 0.025696
0.673287 0.349577 0.008084
0.724102 0.36153 -0.087066
0.090443 0.342235 0.039802
0.133297 0.349551 0.042619
0.17448 0.356811 0.045837
0.215574 0.363103 0.048634
0.259235 0.369483 0.051211
0.312447 0.371227 0.132989
0.353145 0.377542 0.168378
0.376188 0.389789 0.159761
0.401089 0.401745 0.142838
0.440852 0.401073 0.08306
0.493292 0.395478 0.052415
0.549885 0.391418 0.060167
0.607198 0.388783 0.063097
0.669592 0.386162 0.058043
0.733064 0.387235 0.034406
0.785203 0.399069 -0.048777
0.118701 0.391796 0.044066
0.161073 0.399227 0.047205
0.202711 0.406888 0.05078
0.244105 0.413404 0.053953
0.288177 0.420016 0.056975
0.339345 0.424214 0.104562
0.389365 0.426117 0.195688
0.421632 0.437571 0.180911
0.440472 0.450629 0.175767
0.467591 0.460512 0.150141
0.509936 0.4595 0.087527
0.562958 0.456421 0.055123
0.619093 0.455649 0.060676
0.677838 0.458258 0.064579
0.737084 0.463249 0.063863
0.806426 0.46529 0.056445
0.147393 0.444208 0.048275
0.190107 0.452024 0.051653
0.232013 0.459867 0.055602
0.274304 0.466662 0.059129
0.318927 0.473502 0.062563
0.367512 0.479748 0.076524
0.426625 0.477966 0.220297
0.465004 0.488375 0.209296
0.490574 0.501193 0.195365
0.509096 0.51471 0.190573
0.537575 0.522721 0.158438
0.580305 0.522421 0.096873
0.632028 0.5237 0.057242
0.684888 0.529862 0.059487
0.741783 0.539446 0.061162
0.807887 0.547989 0.06244
0.177292 0.500249 0.052352
0.22019 0.508195 0.055954
0.263178 0.516262 0.06019
0.306587 0.523307 0.06409
0.35177 0.53028 0.067927
0.400019 0.537384 0.071475
0.464034 0.534956 0.224569
0.507029 0.54298 0.242485
0.541826 0.555244 0.219716
0.561383 0.569048 0.213749
0.581528 0.582837 0.206061
0.609689 0.590133 0.173184
0.645971 0.593739 0.125013
0.694002 0.603093 0.080477
0.749039 0.615272 0.057083
0.814567 0.625999 0.057708
0.209095 0.561735 0.056199
0.25289 0.569692 0.060076
0.296607 0.577829 0.064528
0.341254 0.584968 0.068785
0.388177 0.592367 0.073057
0.43738 0.599686 0.077061
0.50093 0.599224 0.204638
0.550246 0.603534 0.276617
0.586296 0.615491 0.26248
0.611278 0.629152 0.251087
0.628137 0.643905 0.250829
0.649059 0.658327 0.244038
0.676833 0.669788 0.219288
0.70989 0.675218 0.175735
0.763519 0.689479 0.122696
0.828723 0.70248 0.067487
0.243501 0.628844 0.059724
0.287937 0.636856 0.063783
0.333111 0.644917 0.06833
0.379758 0.652315 0.073058
0.42798 0.660057 0.077807
0.47703 0.667851 0.082387
0.531256 0.673067 0.143543
0.587695 0.672666 0.290519
0.62474 0.682874 0.311406
0.654785 0.696377 0.30436
0.677316 0.710966 0.299048
0.697247 0.725901 0.296524
0.720814 0.740816 0.287563
0.752191 0.754617 0.263188
0.787965 0.760361 0.213932
0.848995 0.777819 0.151904
0.280296 0.701307 0.062508
0.325993 0.709441 0.066846
0.372551 0.717209 0.071471
0.420511 0.725498 0.076716
0.467342 0.733939 0.082254
0.512854 0.742943 0.087749
0.559055 0.752069 0.092953
0.616122 0.754998 0.216198
0.66811 0.75724 0.338325
0.705351 0.768949 0.348419
0.735493 0.783044 0.341255
0.759049 0.798314 0.336077
0.78132 0.813754 0.331305
0.807429 0.829297 0.32019
0.840794 0.843676 0.293532
0.877812 0.849805 0.241652
-0.000278 0.002663 0.043386
0.003118 0.002205 0.051321
0.020481 0.002982 0.055749
0.043102 0.003451 0.058136
0.0691 0.003795 0.059853
0.098781 -0.014431 0.061715
0.136025 -0.050628 0.063581
0.175257 -0.070325 0.063618
0.215051 -0.085418 0.062489
0.255469 -0.098373 0.060806
0.296736 -0.11031 0.058986
0.338594 -0.121588 0.057104
0.381025 -0.132449 0.055108
0.427176 -0.143781 0.053071
0.477899 -0.155793 0.050214
0.533289 -0.168512 0.045972
0.000288 0.023732 0.051711
0.006619 0.02668 0.061778
0.027016 0.02654 0.07044
0.056596 0.026847 0.073837
0.087983 0.025826 0.074898
0.123558 0.019889 0.075072
0.165287 -0.032995 0.073586
0.206313 -0.069423 0.070105
0.247361 -0.087572 0.066231
0.289074 -0.101695 0.062441
0.330903 -0.114209 0.058322
0.373459 -0.125888 0.054217
0.417549 -0.137215 0.049906
0.46439 -0.148735 0.044871
0.515712 -0.160942 0.038465
0.572351 -0.174025 0.029613
0.002696 0.052695 0.060132
0.012433 0.057643 0.069408
0.032468 0.060951 0.078926
0.063789 0.058566 0.08487
0.10336 0.057432 0.084755
0.149852 0.046589 0.081382
0.197071 0.028616 0.072361
0.241027 -0.009042 0.063331
0.283548 -0.065595 0.056074
0.325611 -0.08784 0.048457
0.368277 -0.104944 0.039958
0.411623 -0.119471 0.030335
0.456172 -0.132989 0.016649
0.504123 -0.146381 -0.050816
0.556199 -0.160169 -0.084419
0.612813 -0.174557 -0.107955
0.008699 0.087088 0.07006
0.021557 0.093583 0.076862
0.041327 0.099279 0.083066
0.069868 0.102495 0.087065
0.116257 0.101682 0.090697
0.168214 0.090723 0.076105
0.217683 0.076149 0.055973
