site/assets/luts/freshluts--0000353-cine-series-roma-fellini.cube
# LUTr-Schema-Version: 2
# LUTr-ID: freshluts--0000353-cine-series-roma-fellini
# LUTr-Title: CINE SERIES_ROMA_FELLINI
# LUTr-Collection: Fresh LUTs
# LUTr-Collection-ID: freshluts-community
# LUTr-Source: https://freshluts.com
# LUTr-Retrieved: 2026-07-27
# LUTr-Source-File: submissions-raw/freshluts/cubes/353__ROMA_FELLINI.cube
# LUTr-Source-Format: CUBE
# LUTr-Source-SHA256: c810f343382e273c088a703d690f27e957bf4ca3d48ae08aeb393e92a752301e
# LUTr-License: CC0-1.0
# LUTr-License-URL: https://freshluts.com/termsandconditions
# LUTr-License-Basis: site-terms
# LUTr-Transform-Class: creative-look
# LUTr-Tags: creative, freshluts, community, cube, blue, cinematic
# LUTr-Input-Color-Space:
# LUTr-Input-Gamut: unspecified
# LUTr-Input-Transfer: unspecified
# LUTr-Output-Color-Space: srgb
# LUTr-Output-Gamut: rec709
# LUTr-Output-Transfer: srgb
# LUTr-Color-Space-Confidence: camera-profile-input-required
# LUTr-Domain-Normalized: true
# LUTr-Shaper: none
# LUTr-Original-Grid: 32x32x32
# LUTr-Conversion-Grid: 32x32x32
# LUTr-Conversion-Interpolation: none
# LUTr-Conversion-Method: Metadata normalization; numeric LUT samples preserved
# LUTr-Conversion-Tool: LUTr scripts/convert-all-to-cube.mjs 2.0.0
# LUTr-Conversion-Date: 2026-07-28
# LUTr-Asset-URL: https://freshluts.com/luts/353
# LUTr-Author: I WANT TO MAKE A FILM PODCAST
# LUTr-Author-URL: https://freshluts.com/users/15633
# LUTr-Attribution: I WANT TO MAKE A FILM PODCAST via Fresh LUTs
# LUTr-Source-Labels: gamma=Other; color=Blue; key=Neutral; style=Cinematic light
# LUTr-Note: Preserve this metadata and the upstream license notices when redistributing.
# LUTr-Upstream-Comment: Created by: Adobe Photoshop Export Color Lookup Plugin
# LUTr-Upstream-Comment: LUT size
# LUTr-Upstream-Comment: data domain
# LUTr-Upstream-Comment: LUT data points
TITLE "CINE SERIES_ROMA_FELLINI"
LUT_3D_SIZE 5
DOMAIN_MIN 0.000000 0.000000 0.000000
DOMAIN_MAX 0.903226 0.903226 0.903226
0.00296 0.003418 0.004669
0.055267 0.007172 0.007843
0.247253 0.015869 0.014435
0.576202 0.039673 0.018616
0.74173 0.049469 0.019928
0.00705 0.036957 0.011139
0.066772 0.032684 0.0112
0.25647 0.055206 0.019318
0.589417 0.073853 0.030884
0.752533 0.069 0.028931
0.008514 0.256195 0.052246
0.092224 0.240692 0.051422
0.27594 0.194885 0.041229
0.61084 0.161621 0.053375
0.776764 0.122009 0.049713
0.010773 0.564209 0.138
0.046448 0.587952 0.169891
0.340576 0.541199 0.139862
0.630402 0.507538 0.136963
0.81012 0.487762 0.137299
0.010925 0.792572 0.191986
0.046631 0.838623 0.225403
0.322968 0.804871 0.207825
0.623657 0.787567 0.205872
0.808716 0.780151 0.207886
0.000763 0.006439 0.073029
0.028168 0.008881 0.075714
0.230103 0.016388 0.078949
0.56958 0.040894 0.062927
0.740509 0.051117 0.046356
0.002869 0.037933 0.075989
0.028656 0.041229 0.078613
0.233154 0.061462 0.083282
0.581024 0.080109 0.076233
0.752655 0.075409 0.05722
0.009521 0.257172 0.116821
0.046448 0.267456 0.12738
0.252594 0.215729 0.101074
0.602112 0.182281 0.096527
0.779114 0.141327 0.079712
0.01535 0.568542 0.185394
0.041168 0.59314 0.210419
0.319122 0.555695 0.181427
0.621399 0.519897 0.163177
0.808441 0.499237 0.155212
0.016815 0.800446 0.228912
0.042664 0.836975 0.253601
0.300629 0.818451 0.239075
0.615265 0.796509 0.223999
0.807709 0.787292 0.219849
0.000031 0.01712 0.272491
0.013947 0.033569 0.313354
0.172089 0.026459 0.303131
0.547974 0.045013 0.273743
0.732697 0.056396 0.247437
0.000427 0.073212 0.300995
0.019226 0.091553 0.318665
0.177002 0.084534 0.309265
0.561981 0.096588 0.288574
0.750427 0.091797 0.262024
0.00824 0.257446 0.312012
0.026917 0.275085 0.329407
0.180115 0.269836 0.32373
0.57605 0.229858 0.306183
0.776611 0.188629 0.283966
0.017761 0.57135 0.351074
0.043579 0.596008 0.374939
0.250854 0.589691 0.368927
0.595795 0.547882 0.32486
0.803589 0.527557 0.309631
0.021851 0.807739 0.374725
0.047638 0.844971 0.398529
0.224915 0.855499 0.404877
0.592163 0.817932 0.357941
0.806641 0.808899 0.336945
0.000031 0.043671 0.477539
0.000031 0.058075 0.624298
0.168701 0.069702 0.634125
0.48938 0.062683 0.606781
0.695618 0.07016 0.586151
0.000031 0.106995 0.587311
0.016602 0.13092 0.645355
0.185669 0.142242 0.653717
0.510193 0.131653 0.630188
0.722015 0.122772 0.609222
0.00473 0.286102 0.635162
0.030518 0.310455 0.66153
0.193481 0.323273 0.674896
0.526855 0.307892 0.653168
0.751282 0.263123 0.636108
0.015533 0.571442 0.653992
0.041321 0.5961 0.681122
0.165161 0.626251 0.714661
0.531738 0.595093 0.678314
0.768616 0.570953 0.665192
0.021332 0.809204 0.669983
0.04715 0.84671 0.697815
0.10556 0.956268 0.766937
0.528595 0.850983 0.700104
0.773834 0.836304 0.681183
0.000031 0.061127 0.595917
0.000031 0.076141 0.760925
0.040405 0.129333 1
0.451447 0.08194 0.892395
0.658295 0.085602 0.869324
0.000031 0.116364 0.771088
0.00415 0.136597 0.953278
0.071716 0.197479 1
0.476105 0.147766 0.947784
0.690094 0.149689 0.924194
0.000031 0.287262 0.939026
0.026672 0.311523 1
0.110138 0.365173 1
0.496155 0.321869 1
0.721741 0.318909 1
0.012421 0.57132 0.991119
0.060669 0.589172 1
0.175385 0.629211 1
0.514038 0.606812 1
0.730042 0.610016 1
0.036469 0.799652 1
0.105377 0.811279 1
0.258942 0.839508 1
0.557404 0.835815 1
0.769775 0.851898 1
