site/assets/luts/freshluts--0000224-eterna-for-flog.cube
# LUTr-Schema-Version: 2
# LUTr-ID: freshluts--0000224-eterna-for-flog
# LUTr-Title: ETERNA for Flog
# LUTr-Collection: Fresh LUTs
# LUTr-Collection-ID: freshluts-community
# LUTr-Source: https://freshluts.com
# LUTr-Retrieved: 2026-07-27
# LUTr-Source-File: submissions-raw/freshluts/cubes/224__ETERNA_for_Flog.cube
# LUTr-Source-Format: CUBE
# LUTr-Source-SHA256: b7fb3f447a333365a45a98c2932cacd91b4128ca12c6c3c5761673319142d3d3
# LUTr-License: CC0-1.0
# LUTr-License-URL: https://freshluts.com/termsandconditions
# LUTr-License-Basis: site-terms
# LUTr-Transform-Class: creative-look
# LUTr-Tags: creative, freshluts, community, cube, film-emulation, rec709
# LUTr-Input-Color-Space: rec709
# LUTr-Input-Gamut: rec709
# LUTr-Input-Transfer: rec709
# LUTr-Output-Color-Space: srgb
# LUTr-Output-Gamut: rec709
# LUTr-Output-Transfer: srgb
# LUTr-Color-Space-Confidence: declared-by-source
# LUTr-Domain-Normalized: true
# LUTr-Shaper: none
# LUTr-Original-Grid: 16x16x16
# LUTr-Conversion-Grid: 16x16x16
# LUTr-Conversion-Interpolation: none
# LUTr-Conversion-Method: Metadata normalization; numeric LUT samples preserved
# LUTr-Conversion-Tool: LUTr scripts/convert-all-to-cube.mjs 2.0.0
# LUTr-Conversion-Date: 2026-07-28
# LUTr-Asset-URL: https://freshluts.com/luts/224
# LUTr-Author: Andy
# LUTr-Author-URL: https://freshluts.com/users/1003
# LUTr-Attribution: Andy via Fresh LUTs
# LUTr-Source-Labels: gamma=Rec 709; color=None; key=Neutral; style=Film emulation
# LUTr-Note: Preserve this metadata and the upstream license notices when redistributing.
TITLE "ETERNA for Flog"
LUT_3D_SIZE 6
DOMAIN_MIN 0 0 0
DOMAIN_MAX 1 1 1
0.007876 0.007876 0.007876
0.215953 0.011558 0.018182
0.688672 0.019045 0.083742
0.982378 0.027155 0.134255
0.982378 0.027155 0.134255
0.982378 0.027155 0.134255
0 0.100617 0.000035
0.118815 0.095217 0.003208
0.451251 0.017306 0.042943
0.891535 0.024097 0.118692
0.982378 0.027155 0.134255
0.982378 0.027155 0.134255
0 0.307481 0.000107
0 0.341622 0.000119
0.366305 0.310679 0
0.80469 0.249774 0.044615
0.983672 0.027155 0.134254
0.983184 0.027155 0.134255
0 0.669873 0.000234
0 0.734097 0.000256
0.148546 0.708517 0.000157
0.734869 0.685302 0
0.982699 0.557748 0
0.997901 0.349198 0.047463
0 0.958219 0.000334
0 0.983156 0.000343
0 0.981044 0.000342
0.605722 0.97829 0
0.92933 0.937959 0
0.953889 0.786618 0
0 0.984192 0.000343
0 0.984192 0.000343
0 0.984588 0.000343
0.248952 0.992982 0.000195
0.745892 0.999939 0
0.915359 0.999827 0
0.009318 0.010768 0.134766
0.2023 0.010951 0.065118
0.638143 0.018255 0.075099
0.982378 0.027155 0.134255
0.982378 0.027155 0.134255
0.982378 0.027155 0.134255
0.000038 0.098648 0.134028
0.10171 0.103741 0.103118
0.430949 0.029582 0.037357
0.866632 0.023346 0.114552
0.982378 0.027155 0.134255
0.982378 0.027155 0.134255
0 0.32328 0.130975
0 0.361515 0.094738
0.357331 0.332234 0.037366
0.800252 0.273646 0.034369
0.983914 0.027155 0.134254
0.983184 0.027155 0.134255
0 0.689455 0.067473
0 0.748975 0.002899
0.106054 0.725759 0.000189
0.723328 0.705354 0
0.980202 0.5812 0
0.997579 0.369635 0.037113
0 0.95875 0.006451
0 0.979136 0.000342
0 0.97845 0.000341
0.579848 0.983185 0.000006
0.925285 0.947099 0
0.951168 0.805317 0
0 0.97945 0.000342
0 0.981279 0.000342
0 0.982558 0.000343
0.233097 0.988941 0.000203
0.716283 0.999942 0
0.915341 0.9999 0
0.01147 0.026335 0.415299
0.16789 0.011352 0.339561
0.6081 0.016036 0.231752
0.982378 0.027155 0.134255
0.982378 0.027155 0.134255
0.982378 0.027155 0.134255
0.000211 0.080908 0.40905
0.029513 0.096072 0.330296
0.423008 0.030777 0.297929
0.851288 0.023311 0.112044
0.982378 0.027155 0.134255
0.982378 0.027155 0.134255
0.000115 0.330306 0.427607
0.000065 0.372963 0.374267
0.345371 0.345398 0.345185
0.807672 0.285663 0.27007
0.98397 0.027155 0.134254
0.983377 0.027155 0.134254
0 0.694696 0.476834
0 0.750127 0.427761
0.006434 0.730589 0.399145
0.7292 0.712151 0.341099
0.977302 0.603606 0
0.997192 0.3878 0.028461
0 0.947929 0.488833
0 0.970195 0.417451
0 0.969014 0.386561
0.578276 0.976141 0.338596
0.9221 0.949435 0.000314
0.948687 0.821029 0
0 0.972966 0.333694
0 0.97526 0.193611
0 0.975976 0.133016
0.05675 0.983541 0.204685
0.713756 0.998582 0.189951
0.915337 0.999925 0
0.005756 0.085313 0.840416
0.009813 0.060049 0.708551
0.586126 0.011622 0.616815
0.992302 0.024108 0.32829
0.982378 0.027155 0.134255
0.982378 0.027155 0.134255
0.008283 0.073664 0.787674
0.006541 0.073879 0.685941
0.395218 0.024113 0.631868
0.86582 0.017639 0.549359
0.982362 0.027155 0.134255
0.982378 0.027155 0.134255
0.000314 0.330932 0.758943
0.000259 0.381574 0.703061
0.283536 0.354741 0.68003
0.815918 0.290874 0.664282
0.99921 0.114473 0.401961
0.983338 0.027155 0.134254
0.00017 0.686116 0.773331
0.000121 0.740774 0.730556
0.000111 0.726605 0.704025
0.71252 0.711239 0.711789
0.99987 0.624233 0.58953
0.996036 0.423205 0.05066
0.00006 0.92418 0.760389
0.000016 0.957183 0.71037
0.000006 0.956244 0.686896
0.515104 0.959238 0.697639
0.946051 0.936552 0.613735
0.964153 0.827436 0.274225
0 0.966544 0.634256
0 0.968419 0.550981
0 0.969134 0.517833
0.000401 0.974522 0.498267
0.722888 0.99261 0.593698
0.931279 0.999935 0.150832
0.000535 0.122678 0.976484
0.000521 0.113541 0.947445
0.483955 0.058536 0.953836
0.993059 0.016796 0.860012
0.986741 0.025446 0.222275
0.982378 0.027155 0.134255
0.000531 0.14466 0.985903
0.000534 0.123841 0.975461
0.25066 0.088084 0.921558
0.858783 0.013386 0.92723
0.999953 0.020531 0.574649
0.986219 0.025769 0.212768
0.00046 0.284135 0.96723
0.000422 0.35124 0.951936
0.003468 0.336918 0.926442
0.776344 0.278078 0.969271
1 0.064727 0.826042
0.999696 0.02213 0.47214
0.000282 0.629529 0.917804
0.000246 0.700453 0.909765
0.000247 0.695413 0.90703
0.612148 0.686475 0.944981
1 0.607124 0.902038
0.999996 0.532166 0.677478
0.000161 0.86858 0.889082
0.000137 0.91771 0.884962
0.000135 0.918387 0.880103
0.156814 0.921705 0.896441
0.907255 0.906361 0.906287
0.996612 0.832727 0.792373
0.000103 0.961056 0.857746
0.000069 0.96243 0.803054
0.000056 0.963039 0.781897
0.000038 0.963791 0.751964
0.65172 0.985789 0.7896
0.972665 0.999507 0.737565
0.000539 0.128222 0.98803
0.000531 0.119931 0.967963
0.398067 0.086325 0.979374
0.959755 0.01475 0.998816
1 0.019856 0.626105
1 0.02175 0.49316
0.000531 0.145451 0.985835
0.000531 0.145451 0.985835
0.000532 0.143233 0.986063
0.792659 0.01474 0.999783
1 0.016381 0.932932
1 0.019071 0.699184
0.000504 0.197345 0.979134
0.000477 0.25075 0.971791
0.00048 0.244065 0.972718
0.579454 0.229936 0.999979
1 0.014588 0.999656
1 0.017026 0.866982
0.000357 0.482224 0.938161
0.000315 0.562347 0.925491
0.000314 0.563089 0.92542
0.166933 0.577859 0.959928
0.961219 0.549189 0.999866
1 0.463447 0.920411
0.000212 0.767713 0.900339
0.000188 0.815189 0.894808
0.000185 0.819598 0.894178
0.000182 0.826352 0.89348
0.785038 0.838601 0.980484
1 0.810232 0.956618
0.000119 0.960204 0.884675
0.000119 0.96021 0.884683
0.000119 0.96021 0.884683
0.000119 0.960208 0.884683
0.403666 0.973992 0.926813
0.9994 0.99976 0.999515
