site/assets/luts/freshluts--0000828-orange-look.cube
# LUTr-Schema-Version: 2
# LUTr-ID: freshluts--0000828-orange-look
# LUTr-Title: Orange Look
# LUTr-Collection: Fresh LUTs
# LUTr-Collection-ID: freshluts-community
# LUTr-Source: https://freshluts.com
# LUTr-Retrieved: 2026-07-27
# LUTr-Source-File: submissions-raw/freshluts/cubes/828__Teal_look_1.mixkit-man-and-woman-taking-selfies-during-a-road-trip-40038.cube
# LUTr-Source-Format: CUBE
# LUTr-Source-SHA256: a39f7af4e4d847121d9da212c7e97b6723c403a92ebe03bfca752e538d525fd1
# LUTr-License: CC0-1.0
# LUTr-License-URL: https://freshluts.com/termsandconditions
# LUTr-License-Basis: site-terms
# LUTr-Transform-Class: creative-look
# LUTr-Tags: creative, freshluts, community, cube, cross-process, warm, high-key, canon-cinestyle
# LUTr-Input-Color-Space:
# LUTr-Input-Gamut: rec709
# LUTr-Input-Transfer: canon-cinestyle
# LUTr-Output-Color-Space: srgb
# LUTr-Output-Gamut: rec709
# LUTr-Output-Transfer: srgb
# LUTr-Color-Space-Confidence: camera-profile-input-required
# LUTr-Domain-Normalized: true
# LUTr-Shaper: none
# LUTr-Original-Grid: 33x33x33
# LUTr-Conversion-Grid: 33x33x33
# LUTr-Conversion-Interpolation: none
# LUTr-Conversion-Method: Metadata normalization; numeric LUT samples preserved
# LUTr-Conversion-Tool: LUTr scripts/convert-all-to-cube.mjs 2.0.0
# LUTr-Conversion-Date: 2026-07-28
# LUTr-Asset-URL: https://freshluts.com/luts/828
# LUTr-Author: gabriel s
# LUTr-Author-URL: https://freshluts.com/users/3294
# LUTr-Attribution: gabriel s via Fresh LUTs
# LUTr-Source-Labels: gamma=Canon Cinestyle; color=Warm; key=High Key; style=Cross Process
# LUTr-Note: Preserve this metadata and the upstream license notices when redistributing.
TITLE "Orange Look"
LUT_3D_SIZE 5
DOMAIN_MIN 0 0 0
DOMAIN_MAX 1 1 1
0 0 0
0.367788 0 0
0.787167 0 0
1 0 0
1 0 0
0 0.258564 0
0.318593 0.234318 0
0.725734 0.231052 0
1 0.247013 0
1 0.278202 0
0 0.593881 0
0.314565 0.557107 0
0.711086 0.545968 0
1 0.552224 0
1 0.57084 0
0 0.880537 0
0.354559 0.825528 0
0.727337 0.796109 0
1 0.786206 0
1 0.790631 0
0.0132296 1 0.000015259
0.394766 1 0
0.755489 0.982742 0
1 0.961944 0
1 0.955062 0
0 0 0.206943
0.364874 0 0.18471
0.794324 0 0.1794
1 0 0.190402
1 0 0.212467
0 0.253513 0.14078
0.315587 0.229038 0.124773
0.782177 0.217838 0.117693
1 0.233692 0.127382
1 0.263905 0.146014
0 0.588037 0.132021
0.28069 0.565072 0.10042
0.711727 0.540154 0.0916457
1 0.539223 0.0988632
1 0.553582 0.110567
0 0.871366 0.152605
0.312612 0.831235 0.111543
0.698985 0.792508 0.0929274
1 0.774884 0.0901503
1 0.774578 0.094316
0.00241093 1 0.167544
0.348287 1 0.126009
0.715007 0.979751 0.102235
1 0.950576 0.092668
1 0.939956 0.0912642
0 0 0.471794
0.359106 0 0.445731
0.784741 0 0.434501
1 0 0.442664
1 0 0.462654
0 0.251881 0.374456
0.313527 0.226093 0.387961
0.776944 0.214939 0.37322
1 0.23003 0.370047
1 0.259342 0.383856
0 0.584237 0.354818
0.276722 0.558358 0.336538
0.704128 0.53225 0.319203
1 0.52401 0.313771
1 0.537408 0.322362
0 0.862501 0.369497
0.297856 0.822522 0.32726
0.658778 0.791012 0.287465
0.995239 0.76405 0.27364
1 0.759075 0.28043
0 1 0.385153
0.328771 1 0.333272
0.674235 0.974105 0.2916
0.971695 0.941329 0.269459
1 0.925444 0.266453
0 0 0.669032
0.365545 0 0.642374
0.789456 0 0.628946
1 0 0.635294
1 0 0.653208
0 0.257939 0.556909
0.321599 0.2318 0.574639
0.768566 0.22237 0.566918
1 0.23595 0.564309
1 0.264088 0.57557
0 0.587884 0.530877
0.290272 0.556848 0.526162
0.703441 0.530709 0.533135
1 0.520485 0.522484
1 0.53196 0.517357
0 0.860853 0.539803
0.30132 0.815824 0.507881
0.65185 0.782986 0.485405
0.986053 0.755322 0.46688
1 0.744274 0.459174
0 1 0.552361
0.326375 1 0.50753
0.65771 0.966491 0.469551
0.934676 0.939879 0.432807
1 0.916945 0.419699
0 0 0.809842
0.379171 0 0.781018
0.802487 0 0.76788
1 0 0.7738
1 0 0.788754
0 0.26952 0.689219
0.335866 0.242618 0.708736
0.775067 0.234226 0.704219
1 0.246921 0.702754
1 0.273655 0.713329
0 0.597391 0.659358
0.306279 0.563531 0.661387
0.712978 0.537682 0.66659
1 0.527916 0.663005
1 0.53611 0.659297
0 0.864393 0.662654
0.309773 0.815991 0.637873
0.665949 0.779156 0.625391
0.983963 0.752941 0.62974
1 0.740444 0.618647
0 1 0.67274
0.330251 1 0.633478
0.661601 0.959701 0.604318
0.927642 0.932769 0.585794
1 0.910048 0.570153
