site/assets/luts/freshluts--0000867-sport.cube
# LUTr-Schema-Version: 2
# LUTr-ID: freshluts--0000867-sport
# LUTr-Title: Sport
# LUTr-Collection: Fresh LUTs
# LUTr-Collection-ID: freshluts-community
# LUTr-Source: https://freshluts.com
# LUTr-Retrieved: 2026-07-27
# LUTr-Source-File: submissions-raw/freshluts/cubes/867__Sport.cube
# LUTr-Source-Format: CUBE
# LUTr-Source-SHA256: c91fcc0f8066bb8a0ee62ca9a5bb24989fe2d5f63555723746101a9d6645b787
# LUTr-License: CC0-1.0
# LUTr-License-URL: https://freshluts.com/termsandconditions
# LUTr-License-Basis: site-terms
# LUTr-Transform-Class: creative-look
# LUTr-Tags: creative, freshluts, community, cube, blue, low-key, rec709
# LUTr-Input-Color-Space: rec709
# LUTr-Input-Gamut: rec709
# LUTr-Input-Transfer: rec709
# LUTr-Output-Color-Space: srgb
# LUTr-Output-Gamut: rec709
# LUTr-Output-Transfer: srgb
# LUTr-Color-Space-Confidence: declared-by-source
# LUTr-Domain-Normalized: true
# LUTr-Shaper: none
# LUTr-Original-Grid: 17x17x17
# LUTr-Conversion-Grid: 17x17x17
# LUTr-Conversion-Interpolation: none
# LUTr-Conversion-Method: Metadata normalization; numeric LUT samples preserved
# LUTr-Conversion-Tool: LUTr scripts/convert-all-to-cube.mjs 2.0.0
# LUTr-Conversion-Date: 2026-07-28
# LUTr-Asset-URL: https://freshluts.com/luts/867
# LUTr-Author: Pierre Louis
# LUTr-Author-URL: https://freshluts.com/users/84723
# LUTr-Attribution: Pierre Louis via Fresh LUTs
# LUTr-Source-Labels: gamma=Rec 709; color=Blue; key=Low Key; style=Colorful
# LUTr-Note: Preserve this metadata and the upstream license notices when redistributing.
TITLE "Sport"
LUT_3D_SIZE 9
DOMAIN_MIN 0 0 0
DOMAIN_MAX 1 1 1
0.0421302 0.0421302 0.0421302
0.148135 0.0278782 0.0573434
0.254658 0.0132448 0.0744945
0.36495 0 0.0915541
0.484398 0 0.106813
0.587335 0 0.126665
0.650614 0 0.133608
0.705623 0 0.139254
0.759869 0 0.138949
0.0247044 0.115099 0
0.0787823 0.11783 0
0.203433 0.100877 0
0.333623 0.0793469 0.0188144
0.458122 0.0630961 0.0471046
0.575448 0.0493477 0.0707256
0.650294 0.0390021 0.0835737
0.706569 0.0305486 0.0923934
0.763729 0.0231174 0.101961
0.009308 0.190051 0
0.0729992 0.18967 0
0.121233 0.199329 0
0.232532 0.192828 0
0.388418 0.171603 0
0.540459 0.151629 0
0.633753 0.14081 0.0131228
0.696681 0.134936 0.0305028
0.760006 0.132403 0.0493629
0.000915541 0.273106 0
0.085893 0.269993 0
0.113664 0.286564 0
0.180438 0.297917 0
0.294881 0.300435 0
0.457176 0.291569 0
0.57174 0.285023 0
0.648692 0.281056 0
0.72224 0.272435 0
0.00453193 0.372351 0
0.10309 0.372442 0
0.154559 0.392447 0
0.193942 0.419699 0
0.276326 0.435859 0
0.387961 0.437537 0
0.476768 0.424949 0
0.546395 0.406516 0
0.620417 0.385504 0
0.0324865 0.502602 0
0.135134 0.501411 0
0.197238 0.505745 0
0.214542 0.51873 0
0.249378 0.527443 0
0.326116 0.528603 0
0.403677 0.523507 0
0.463157 0.520272 0
0.528191 0.523644 0
0.0278325 0.576761 0
0.121477 0.567147 0
0.188296 0.565103 0
0.217914 0.576898 0
0.245121 0.59968 0
0.317952 0.625376 0
0.396185 0.642435 0
0.448463 0.651148 0
0.501839 0.655756 0
0.00842298 0.626947 0
0.115877 0.625834 0
0.207172 0.636408 0
0.262623 0.659007 0
0.292119 0.687099 0
0.34609 0.710994 0
0.40145 0.722744 0
0.443793 0.72871 0
0.490166 0.733822 0
0.0412909 0.714733 0
0.151583 0.714931 0
0.239765 0.719356 0
0.295064 0.732799 0
0.322393 0.756863 0
0.362097 0.782238 0
0.406973 0.795682 0
0.443076 0.802319 0
0.484642 0.808789 0
0 0.0544594 0.12015
0.124361 0.0318914 0.151431
0.229389 0.017792 0.166644
0.338872 0.00325017 0.184451
0.458518 0 0.204166
0.562234 0 0.220096
0.626566 0 0.227573
0.68162 0 0.233433
0.737148 0 0.240024
0.0625925 0.091249 0.182605
0.105241 0.105241 0.105241
0.212238 0.0911727 0.121889
0.321553 0.0776226 0.139513
0.439628 0.0643931 0.159609
0.554894 0.0525673 0.175692
0.629831 0.0429694 0.186816
0.686687 0.0343175 0.199847
0.742626 0.0281987 0.203311
0 0.187533 0.133684
0.0916152 0.182376 0.0614786
0.148623 0.187839 0.0646525
0.277577 0.174319 0.058854
0.417777 0.156176 0.0968795
0.548516 0.143999 0.129686
0.633951 0.136889 0.149126
0.69337 0.133639 0.16318
0.754177 0.133471 0.179538
0 0.280415 0.044358
0.0872206 0.269261 0.0267491
0.155795 0.273274 0.054963
0.209537 0.288121 0.0412451
0.334325 0.287831 0.0202792
0.507439 0.275181 0.0520333
0.613779 0.26981 0.0866407
0.682536 0.266407 0.10927
0.747463 0.258549 0.127199
0 0.382086 0
0.0988785 0.376883 0.00656138
0.195224 0.384436 0.0438239
0.232151 0.410361 0.0700694
0.30544 0.426078 0.0471351
0.420829 0.42359 0.0137789
0.518761 0.406241 0.00248722
0.593683 0.384909 0.00257877
0.669062 0.362692 0.0101167
0.00108339 0.512688 0
0.125002 0.505135 0
0.217823 0.498039 0.023682
0.256703 0.502129 0.0459144
0.279133 0.512795 0.041825
0.352209 0.515496 0.00184634
0.434058 0.511193 0
0.498146 0.509056 0
0.56791 0.514839 0
0 0.583322 0
0.10631 0.56936 0
0.19939 0.560281 0
0.260014 0.565057 0.0018616
0.288212 0.589166 0.0275578
0.352941 0.618311 0.0259861
0.42826 0.635309 0.0126192
0.479179 0.642466 0.0021973
0.533379 0.646326 0
0 0.635599 0
0.106142 0.633082 0
0.219745 0.637995 0
0.302129 0.651392 0.0160525
0.338476 0.675273 0.0500496
0.380682 0.700984 0.0542611
0.43212 0.713405 0.0385138
0.473686 0.719631 0.024445
0.520058 0.724758 0.00985733
0.0149996 0.724559 0
0.139086 0.720928 0
0.245869 0.719829 0
0.326406 0.725505 0.0124819
0.369116 0.744503 0.0467079
0.400397 0.771282 0.0628214
0.439429 0.785534 0.0543526
0.473899 0.792859 0.0424048
0.515297 0.800275 0.0302129
0 0.0671092 0.198703
0.0790112 0.0422065 0.246128
0.206622 0.0214542 0.260822
0.315236 0.00740063 0.275853
0.433295 0 0.29543
0.537758 0 0.312474
0.60293 0 0.32076
0.657938 0 0.327108
0.713466 0 0.334096
0.0172427 0.10602 0.2336
0.0580148 0.117891 0.183825
0.188403 0.095552 0.215579
0.296529 0.0826734 0.232486
0.414008 0.0698405 0.253635
0.530922 0.0576944 0.274678
0.606912 0.0482643 0.287098
0.66305 0.0406348 0.29575
0.72015 0.0339055 0.305287
0.0860609 0.143343 0.32604
0.130449 0.159213 0.25095
0.176318 0.176318 0.176318
0.287587 0.165988 0.195789
0.406104 0.156252 0.217487
0.531197 0.147402 0.241474
0.615457 0.141741 0.257862
0.674449 0.139788 0.270832
0.736171 0.140658 0.291752
0.0148318 0.242512 0.338689
0.0577859 0.268101 0.214542
0.176471 0.267643 0.146197
0.239353 0.278721 0.155032
0.383185 0.271748 0.158312
0.538369 0.26363 0.207889
0.628855 0.263081 0.236179
0.689387 0.260471 0.252338
0.747509 0.252689 0.263554
0 0.37409 0.254398
0.0601053 0.388022 0.143816
0.199283 0.38732 0.136843
0.277119 0.398825 0.172641
0.334569 0.415946 0.160311
0.45861 0.407401 0.131807
0.566751 0.384039 0.137621
0.640055 0.361837 0.148959
0.708217 0.342123 0.162631
0 0.518364 0.179644
0.0873884 0.513237 0.114443
0.208957 0.49839 0.11284
0.290318 0.488502 0.134066
0.31249 0.497353 0.146273
0.378576 0.502632 0.112169
0.46659 0.499733 0.0814679
0.536736 0.498589 0.0749065
0.611826 0.504402 0.0840162
0 0.590112 0.108248
0.0702068 0.57612 0.0590982
0.187381 0.562295 0.0628672
0.283528 0.559319 0.091371
0.337026 0.578927 0.129335
0.38909 0.611017 0.141436
0.459739 0.627558 0.128695
0.510048 0.633722 0.116854
0.565637 0.636591 0.104616
0 0.646311 0.0573129
0.0784161 0.64448 0.0419623
0.212436 0.645335 0.0686656
0.321004 0.649104 0.107347
0.385 0.663615 0.145953
0.417884 0.690288 0.164202
0.46334 0.703746 0.151949
0.503914 0.710445 0.138643
0.55024 0.715602 0.124056
0 0.736294 0.0652628
0.11017 0.730373 0.0521096
0.234226 0.725185 0.0711833
0.338781 0.724056 0.102876
0.411475 0.733898 0.139925
0.442512 0.759487 0.168109
0.473518 0.774945 0.165576
0.505592 0.783337 0.156039
0.547036 0.792386 0.146624
0 0.0804456 0.280873
0.0196994 0.0581674 0.328801
0.170153 0.028748 0.362799
0.291676 0.0112001 0.37377
0.409766 0 0.389929
0.514931 0 0.40557
0.580667 0 0.413809
0.63537 0 0.420294
0.690684 0 0.427512
0 0.132952 0.270497
0.0099794 0.130861 0.264012
0.142443 0.106523 0.312215
0.273899 0.0869917 0.328603
0.390539 0.0747845 0.3467
0.507424 0.0634012 0.368109
0.583932 0.0543984 0.381353
0.640024 0.0471809 0.390539
0.697154 0.0408331 0.400565
0.0841688 0.144137 0.397955
0.0852827 0.175235 0.303258
0.12987 0.190234 0.256703
0.265003 0.171557 0.292363
0.382574 0.162463 0.314412
0.508141 0.15404 0.340826
0.593225 0.149096 0.359014
0.65272 0.148028 0.373495
0.713985 0.150393 0.391043
0.11957 0.205783 0.480781
0.167468 0.225132 0.409064
0.217182 0.246067 0.338186
0.269474 0.269474 0.269474
0.395331 0.267323 0.298695
0.529046 0.267262 0.331426
0.614557 0.26743 0.355505
0.672679 0.264012 0.367697
0.728008 0.255283 0.37116
0.0706493 0.321019 0.528298
0.115572 0.354971 0.443885
0.17023 0.390494 0.324544
0.297383 0.39443 0.265156
0.362783 0.404593 0.273228
0.504387 0.386542 0.267262
0.60296 0.363653 0.289235
0.662272 0.34583 0.298497
0.719524 0.33109 0.307149
0.00155642 0.48191 0.50248
0.0575418 0.504814 0.361227
0.165148 0.50428 0.242481
0.287434 0.485771 0.221561
0.353079 0.480751 0.243427
0.405203 0.489967 0.222965
0.502571 0.487556 0.198062
0.581125 0.487373 0.203143
0.661112 0.491539 0.22295
0 0.571649 0.391531
0.0192416 0.578943 0.25156
0.149554 0.57055 0.178714
0.278248 0.562905 0.183703
0.37966 0.571496 0.225101
0.42742 0.603159 0.255894
0.490532 0.619013 0.243961
0.541176 0.624613 0.231815
0.599496 0.626245 0.220569
0 0.642634 0.312108
0.0310216 0.655344 0.218051
0.181659 0.65713 0.184787
0.314214 0.654047 0.201358
0.417227 0.656428 0.237781
0.45951 0.678599 0.270207
0.495689 0.693996 0.2654
0.534279 0.701228 0.253056
0.58053 0.706386 0.238529
0 0.737881 0.294438
0.0597848 0.740749 0.21117
0.202319 0.734661 0.181018
0.329137 0.728878 0.196384
0.434928 0.729198 0.230884
0.489128 0.746731 0.26775
0.51043 0.763882 0.275334
0.538369 0.773663 0.269673
0.579477 0.784787 0.264134
0 0.09514 0.370199
0 0.0741741 0.416205
0.107347 0.0449378 0.463615
0.25658 0.018143 0.484321
0.384176 0.00187686 0.496086
0.491478 0 0.509453
0.558389 0 0.515892
0.613031 0 0.520836
0.66836 0 0.527169
0 0.153033 0.338277
0 0.145235 0.35108
0.0809186 0.123995 0.399863
0.235615 0.0957656 0.436728
0.366705 0.079881 0.45066
0.484825 0.0689097 0.46891
0.561898 0.0604257 0.480766
0.617731 0.0535897 0.489265
0.674754 0.0480201 0.499504
0 0.177615 0.431662
0.00289921 0.204334 0.344335
0.0808728 0.205264 0.342306
0.217655 0.184771 0.394675
0.360372 0.168597 0.41651
0.485939 0.16112 0.440192
0.570962 0.157458 0.459129
0.630488 0.157778 0.475242
0.691432 0.160479 0.493843
0.139254 0.201099 0.56408
0.164614 0.228489 0.4851
0.169696 0.265538 0.393622
0.223117 0.286412 0.356146
0.375418 0.276829 0.404288
0.507271 0.276967 0.437369
0.590509 0.276036 0.458686
0.64773 0.270848 0.469413
0.703197 0.259998 0.47483
0.173587 0.290211 0.66215
0.230869 0.319158 0.600763
0.28809 0.347799 0.538216
0.341207 0.371954 0.470008
0.391791 0.391791 0.391791
0.512016 0.375998 0.410513
0.593515 0.359701 0.417014
0.647868 0.344152 0.42121
0.702144 0.332128 0.422827
0.145693 0.425803 0.739788
0.182055 0.44622 0.65362
0.21091 0.465782 0.548928
0.250324 0.483635 0.408331
0.369619 0.472831 0.335348
0.43386 0.478035 0.338552
0.548516 0.472099 0.329778
0.631617 0.47274 0.355886
0.705425 0.47834 0.38584
0.0457313 0.512566 0.702678
0.0740368 0.537102 0.580606
0.124895 0.561883 0.439078
0.238102 0.573938 0.326421
0.386236 0.575036 0.323537
0.473136 0.59321 0.370123
0.522789 0.609964 0.364706
0.574411 0.614649 0.352346
0.638788 0.61387 0.344976
0 0.59762 0.656413
0.0469215 0.633509 0.53901
0.140658 0.66009 0.4159
0.274922 0.66511 0.333974
0.415641 0.659236 0.334737
0.507759 0.66566 0.372564
0.531929 0.683253 0.383017
0.566339 0.691493 0.373129
0.612345 0.696529 0.358557
0 0.701869 0.638773
0.0426184 0.728481 0.502373
0.151247 0.741573 0.380621
0.291737 0.739452 0.320302
0.429252 0.733028 0.328359
0.531029 0.735714 0.365164
0.554757 0.751324 0.385855
0.575479 0.763485 0.388617
0.614572 0.776974 0.38909
0 0.109941 0.460594
0 0.0898909 0.506249
0.0405432 0.063508 0.556573
0.199588 0.0325017 0.594736
0.350317 0.00860609 0.610529
0.466178 0 0.621332
0.534646 0 0.627436
0.589548 0 0.631769
0.645106 0 0.6374
0 0.170962 0.419745
0 0.160449 0.442283
0.022797 0.140887 0.490181
0.170672 0.113558 0.540825
0.33106 0.088304 0.566613
0.460288 0.0749523 0.581613
0.538735 0.066743 0.592493
0.594873 0.0603037 0.600061
0.652049 0.055314 0.609598
0 0.211612 0.467857
0 0.226215 0.417227
0.0281834 0.221775 0.435019
0.154574 0.204547 0.488212
0.320714 0.179812 0.533074
0.462776 0.168566 0.553689
0.54873 0.165728 0.571298
0.608759 0.167788 0.587777
0.669306 0.17052 0.605356
0.0638437 0.228702 0.619364
0.0621653 0.266728 0.521355
0.0860456 0.298146 0.442771
0.173205 0.305806 0.451865
0.327184 0.29482 0.518868
0.485771 0.286519 0.552087
0.567422 0.283925 0.568963
0.623178 0.276921 0.576684
0.677455 0.26511 0.580468
0.208865 0.28513 0.759686
0.252369 0.318578 0.694148
0.282963 0.354742 0.621988
0.287388 0.393591 0.529503
0.337789 0.40705 0.483345
0.484382 0.380224 0.517815
0.567041 0.363806 0.52398
0.62118 0.349401 0.526329
0.676417 0.338415 0.532128
0.246937 0.392538 0.87248
0.289967 0.408133 0.795666
0.329854 0.4206 0.714168
0.3691 0.432334 0.631815
0.412543 0.446067 0.54902
0.466438 0.466575 0.465339
0.572198 0.463676 0.489616
0.638819 0.471794 0.512306
0.702754 0.48101 0.537408
0.183368 0.460563 0.894163
0.220844 0.478935 0.812726
0.263478 0.502678 0.734401
0.312413 0.534447 0.656916
0.369696 0.573053 0.556573
0.505943 0.587594 0.479713
0.55819 0.599802 0.496605
0.615 0.602136 0.486839
0.692348 0.595285 0.499397
0.143282 0.539727 0.915846
0.201419 0.572854 0.848188
0.252674 0.605447 0.769009
0.29807 0.638239 0.665675
0.37258 0.665843 0.52636
0.522301 0.663554 0.478019
0.580346 0.669688 0.50367
0.602213 0.680613 0.504326
0.647501 0.685374 0.489723
0.128511 0.637369 0.949294
0.170016 0.667674 0.857221
0.211994 0.699474 0.747799
0.268864 0.729519 0.615473
0.382574 0.743542 0.490608
0.534417 0.736599 0.470436
0.604364 0.738537 0.495766
0.623911 0.751476 0.514412
0.656153 0.769665 0.528069
0 0.123369 0.543786
0 0.103777 0.589014
0 0.0793774 0.639551
0.1364 0.0491493 0.687388
0.304082 0.0190738 0.716243
0.436423 0 0.728054
0.510964 0 0.732754
0.567086 0 0.736675
0.623011 0 0.742412
0 0.186358 0.499031
0 0.174456 0.526909
0 0.155825 0.574304
0.108858 0.131426 0.62771
0.278752 0.102022 0.671046
0.430106 0.0823682 0.690288
0.515526 0.0728466 0.69958
0.572839 0.0666972 0.707164
0.630472 0.0622721 0.716869
0 0.236103 0.520714
0 0.24387 0.494667
0 0.237125 0.521691
0.101305 0.221698 0.574548
0.260731 0.19826 0.633021
0.431678 0.178485 0.665614
0.526543 0.174395 0.681453
0.588144 0.176974 0.697108
0.64892 0.179446 0.713207
0 0.266575 0.647272
0 0.299825 0.558297
0.0266728 0.320577 0.515068
0.126741 0.324727 0.542824
0.271061 0.316625 0.610208
0.450538 0.298772 0.663478
0.544137 0.291051 0.676738
0.600656 0.281575 0.681239
0.654337 0.268681 0.683955
0.166903 0.305425 0.82739
0.183154 0.347997 0.748775
0.186465 0.391592 0.655894
0.206302 0.422583 0.572457
0.286168 0.420829 0.569177
0.43328 0.391104 0.622843
0.541375 0.367559 0.633265
0.597177 0.354162 0.635126
0.653071 0.345861 0.641566
0.284352 0.380835 0.96199
0.319539 0.397452 0.882673
0.347555 0.413397 0.799298
0.364004 0.432837 0.711498
0.361318 0.463539 0.608591
0.415595 0.484001 0.559808
0.548653 0.475837 0.6065
0.616449 0.484367 0.627497
0.679606 0.492576 0.648066
0.270741 0.431312 1
0.314839 0.448768 0.938842
0.365972 0.471672 0.870069
0.426139 0.501854 0.809552
0.490181 0.534829 0.746532
0.551812 0.568429 0.671946
0.573251 0.596658 0.612238
0.636011 0.594186 0.628885
0.695109 0.592248 0.642939
0.265446 0.504265 1
0.327749 0.534874 1
0.384497 0.562295 0.944335
0.43827 0.588113 0.876982
0.492485 0.61471 0.80441
0.546212 0.644526 0.720424
0.583749 0.667704 0.637171
0.64358 0.668788 0.623026
0.685496 0.67303 0.617929
0.263188 0.592294 1
0.312871 0.617517 1
0.361898 0.643626 0.984131
0.408972 0.670863 0.9084
0.454093 0.701411 0.818402
0.505409 0.735683 0.684977
0.593606 0.743114 0.607675
0.660212 0.745007 0.619547
0.704921 0.763149 0.655039
0 0.137301 0.629389
0 0.117968 0.674174
0 0.0950942 0.723995
0.0723583 0.0667582 0.775509
0.244984 0.0341192 0.817777
0.394949 0.00935378 0.837186
0.479118 0 0.842481
0.540322 0 0.845701
0.599344 0 0.85034
0 0.201556 0.581598
0 0.18883 0.613031
0 0.170916 0.660273
0.0507515 0.148745 0.713893
0.215274 0.12018 0.767819
0.385351 0.0942397 0.799924
0.48336 0.0814069 0.810575
0.546685 0.0742657 0.817166
0.607767 0.0699016 0.826032
0 0.257404 0.586831
0 0.260914 0.577142
0 0.252811 0.609506
0.049897 0.238437 0.661814
0.19939 0.218235 0.723369
0.382528 0.194354 0.774563
0.493263 0.18677 0.7953
0.561822 0.187472 0.810056
0.626184 0.188144 0.82385
0 0.301137 0.679896
0 0.326421 0.614466
0 0.34081 0.596246
0.0803388 0.343832 0.634089
0.220218 0.336996 0.700404
0.392203 0.317769 0.76582
0.503868 0.301808 0.78706
0.57113 0.287541 0.789761
0.629953 0.272251 0.788708
0.0767681 0.342519 0.870359
0.0827649 0.388785 0.780133
0.0980087 0.425879 0.692195
0.143008 0.44271 0.640269
0.233951 0.434089 0.654536
0.370993 0.406912 0.708461
0.49723 0.376776 0.736919
0.569177 0.359762 0.740093
0.631312 0.352804 0.746944
0.262577 0.388312 1
0.276982 0.410071 0.946029
0.278386 0.434852 0.849699
0.267903 0.464805 0.743084
0.278111 0.493126 0.646937
0.36907 0.501137 0.647074
0.49546 0.497826 0.706462
0.583825 0.499535 0.738277
0.657206 0.501961 0.75642
0.305348 0.420188 1
0.346288 0.441199 1
0.390768 0.46952 0.956893
0.434913 0.506539 0.892088
0.463844 0.550851 0.816587
0.471656 0.601221 0.713848
0.523262 0.615335 0.697475
0.588251 0.610651 0.727321
0.66891 0.601389 0.750332
0.335164 0.488548 1
0.394858 0.518883 1
0.448859 0.545876 1
0.499947 0.571954 0.978943
0.549798 0.59939 0.906081
0.594186 0.631998 0.825071
0.605966 0.660807 0.761883
0.615869 0.679194 0.721248
0.671305 0.676997 0.738247
0.352239 0.566308 1
0.404929 0.590219 1
0.458442 0.614572 1
0.512169 0.639033 1
0.567468 0.664027 0.970626
0.626627 0.690745 0.893965
0.668696 0.710185 0.844633
0.702922 0.727565 0.8206
0.746975 0.756313 0.81445
0 0.151217 0.714992
0 0.132082 0.759441
0 0.110384 0.808392
0.0116274 0.083772 0.861143
0.180301 0.0516518 0.912108
0.342641 0.0227207 0.942626
0.437354 0.00535592 0.951705
0.505058 0 0.955825
0.569421 0 0.960311
0 0.216495 0.665202
0 0.20322 0.699107
0 0.185733 0.746105
0 0.165331 0.799435
0.152056 0.139147 0.857557
0.32874 0.110414 0.903288
0.43917 0.0938582 0.920134
0.510292 0.0847944 0.928496
0.577829 0.0796979 0.938048
0 0.276631 0.659632
0 0.277409 0.661097
0 0.268528 0.697002
0 0.255055 0.749203
0.143008 0.237415 0.811215
0.322316 0.214405 0.874159
0.4448 0.204227 0.905684
0.522072 0.201831 0.923171
0.593576 0.198611 0.936034
0 0.329839 0.727459
0 0.349752 0.682902
0 0.360739 0.681559
0.0340429 0.362829 0.724987
0.171603 0.356435 0.790173
0.331197 0.338155 0.857176
0.446571 0.317403 0.888457
0.525017 0.297841 0.896544
0.594751 0.278676 0.896819
0 0.383642 0.900481
0 0.425345 0.813672
0.0264134 0.452522 0.746288
0.0857099 0.4598 0.717021
0.181659 0.447059 0.739406
0.313909 0.421439 0.792264
0.435096 0.393072 0.831601
0.520012 0.372992 0.846799
0.596277 0.363989 0.858808
0.19057 0.41207 1
0.184619 0.440055 0.984573
0.172976 0.469657 0.875822
0.173541 0.497093 0.773098
0.215061 0.515816 0.713436
0.32314 0.520348 0.738079
0.442817 0.521035 0.797467
0.524208 0.523857 0.837049
0.609354 0.518822 0.865705
0.292103 0.425177 1
0.320272 0.453269 1
0.345998 0.491707 1
0.36051 0.539437 0.944701
0.36524 0.591531 0.848737
0.405005 0.628046 0.774792
0.475212 0.633066 0.786801
0.537789 0.628885 0.815702
0.610391 0.621302 0.847364
0.362112 0.487266 1
0.409812 0.519478 1
0.449882 0.55024 1
0.481437 0.582391 1
0.50042 0.62005 0.968811
0.503594 0.667414 0.863539
0.524636 0.692805 0.806699
0.56257 0.698573 0.802533
0.620966 0.695216 0.826764
0.403891 0.553292 1
0.45359 0.578439 1
0.502602 0.604334 1
0.549477 0.630869 1
0.5935 0.659205 1
0.630274 0.693858 0.975387
0.642069 0.725353 0.915816
0.647349 0.756619 0.879942
0.674281 0.793729 0.873091
