site/assets/luts/freshluts--0001536-fresh-look.cube
# LUTr-Schema-Version: 2
# LUTr-ID: freshluts--0001536-fresh-look
# LUTr-Title: Fresh Look
# LUTr-Collection: Fresh LUTs
# LUTr-Collection-ID: freshluts-community
# LUTr-Source: https://freshluts.com
# LUTr-Retrieved: 2026-07-27
# LUTr-Source-File: submissions-raw/freshluts/cubes/1536__film_roll.cube
# LUTr-Source-Format: CUBE
# LUTr-Source-SHA256: 839f5c031b8ae287a5d3065b7a6afc24b3d94b833d168ce6f8a4f730a631ef18
# LUTr-License: CC0-1.0
# LUTr-License-URL: https://freshluts.com/termsandconditions
# LUTr-License-Basis: site-terms
# LUTr-Transform-Class: creative-look
# LUTr-Tags: creative, freshluts, community, cube, green, panasonic-cinelike-d
# LUTr-Input-Color-Space:
# LUTr-Input-Gamut: rec709
# LUTr-Input-Transfer: panasonic-cinelike-d
# LUTr-Output-Color-Space: srgb
# LUTr-Output-Gamut: rec709
# LUTr-Output-Transfer: srgb
# LUTr-Color-Space-Confidence: camera-profile-input-required
# LUTr-Domain-Normalized: true
# LUTr-Shaper: none
# LUTr-Original-Grid: 16x16x16
# LUTr-Conversion-Grid: 16x16x16
# LUTr-Conversion-Interpolation: none
# LUTr-Conversion-Method: Metadata normalization; numeric LUT samples preserved
# LUTr-Conversion-Tool: LUTr scripts/convert-all-to-cube.mjs 2.0.0
# LUTr-Conversion-Date: 2026-07-28
# LUTr-Asset-URL: https://freshluts.com/luts/1536
# LUTr-Author: Gina
# LUTr-Author-URL: https://freshluts.com/users/90727
# LUTr-Attribution: Gina via Fresh LUTs
# LUTr-Source-Labels: gamma=Panasonic Cinelike-D; color=Green; key=Neutral; style=Fresh look
# LUTr-Note: Preserve this metadata and the upstream license notices when redistributing.
TITLE "Fresh Look"
LUT_3D_SIZE 6
DOMAIN_MIN 0 0 0
DOMAIN_MAX 1 1 1
0.009827 0.006714 0.008881
0.220959 0.018402 0.004914
0.48844 0.001117 0
0.63819 0 0
0.73938 0 0
0.815582 0.006216 0
0.000537 0.151684 0.030383
0.126895 0.160196 0.013673
0.382034 0.197987 0
0.633284 0.215482 0
0.771624 0.224599 0
0.867215 0.241763 0
0 0.318921 0.064557
0.073147 0.334939 0.033835
0.351482 0.383174 0
0.633049 0.42409 0
0.814834 0.441041 0
0.934478 0.451668 0
0 0.463959 0.111749
0.019611 0.483977 0.074636
0.310947 0.535194 0.003637
0.620137 0.589721 0
0.83746 0.616247 0
0.962284 0.625729 0
0 0.580683 0.190631
0.019611 0.60934 0.160245
0.248214 0.66483 0.103815
0.599517 0.729772 0.000195
0.843678 0.763462 0
0.971493 0.771899 0
0 0.67795 0.27878
0.019611 0.706998 0.262303
0.168834 0.759262 0.227988
0.570197 0.823128 0.163172
0.822704 0.861882 0.059135
0.965329 0.876113 0
0.074799 0.007709 0.186078
0.385985 0.000098 0.138231
0.564735 0 0.106697
0.689975 0 0.079192
0.771823 0 0.05776
0.844109 0 0.041808
0 0.163908 0.211578
0.143019 0.174441 0.180204
0.428692 0.201772 0.153213
0.667132 0.207951 0.115222
0.802719 0.21287 0.079178
0.888441 0.229181 0.049901
0 0.34607 0.257438
0.039662 0.36157 0.226231
0.383668 0.405061 0.194057
0.665262 0.436431 0.145163
0.836117 0.44819 0.092968
0.950916 0.45697 0.041532
0 0.498449 0.299263
0.019611 0.522188 0.278305
0.315941 0.571178 0.244985
0.636858 0.616505 0.193289
0.850673 0.637143 0.130612
0.978639 0.644561 0.072327
0 0.617801 0.349923
0.019611 0.648225 0.33215
0.220178 0.704307 0.307565
0.60307 0.761746 0.267908
0.848871 0.789968 0.214475
0.979608 0.796331 0.16383
0 0.708722 0.410905
0.019611 0.737134 0.395829
0.140968 0.790478 0.374727
0.568459 0.851418 0.342844
0.829138 0.889621 0.305282
0.967745 0.902233 0.273111
0.3357 0 0.397162
0.627781 0 0.379752
0.634513 0 0.328616
0.731971 0 0.311918
0.803423 0 0.298195
0.873355 0 0.289179
0.000508 0.170618 0.409454
0.193697 0.186298 0.39809
0.479726 0.204438 0.382671
0.69715 0.205411 0.360033
0.830809 0.209096 0.340378
0.909835 0.22689 0.326178
0 0.371672 0.463205
0.038585 0.392995 0.451016
0.431316 0.434274 0.436633
0.69934 0.456456 0.411122
0.855729 0.464459 0.385844
0.965823 0.473114 0.365215
0 0.537299 0.502167
0.019611 0.563705 0.494178
0.343059 0.612693 0.478878
0.657552 0.649518 0.453036
0.861184 0.66569 0.424787
0.992346 0.671577 0.400115
0 0.66308 0.536688
0.019611 0.693957 0.530937
0.225234 0.750409 0.522509
0.612302 0.795531 0.498161
0.852456 0.819496 0.469265
0.985212 0.824911 0.442686
0 0.74771 0.569547
0.019611 0.776949 0.565707
0.136104 0.832676 0.561519
0.570807 0.887208 0.547788
0.832883 0.92187 0.522402
0.969022 0.932238 0.496613
0.562305 0 0.545404
0.696367 0 0.536963
0.753067 0 0.506969
0.761586 0 0.486386
0.825011 0 0.482258
0.885182 0 0.480806
0.104874 0.162229 0.565891
0.313446 0.176779 0.570467
0.549779 0.182443 0.564858
0.725581 0.180428 0.552286
0.846302 0.18622 0.540751
0.921833 0.207909 0.532191
0 0.389974 0.629031
0.169509 0.411978 0.63016
0.491438 0.44226 0.628715
0.735295 0.45945 0.616844
0.873111 0.466593 0.600486
0.973302 0.475972 0.586513
0 0.570143 0.669164
0.020303 0.596387 0.668977
0.419449 0.642578 0.669134
0.69537 0.670443 0.657017
0.872614 0.68078 0.639814
0.999759 0.686714 0.623504
0 0.704801 0.698801
0.019611 0.735159 0.698907
0.316234 0.785497 0.698373
0.641476 0.820341 0.686772
0.85881 0.839303 0.670372
0.991812 0.845316 0.652969
0 0.788252 0.723284
0.019611 0.81777 0.723597
0.22703 0.871973 0.724421
0.595466 0.915334 0.714375
0.838987 0.945462 0.699448
0.973163 0.955851 0.681944
0.676032 0 0.628351
0.744949 0 0.622149
0.796002 0 0.612935
0.801915 0 0.5934
0.845117 0 0.609872
0.890508 0 0.618025
0.290318 0.139465 0.673782
0.444369 0.140806 0.681706
0.631867 0.131653 0.686667
0.758427 0.128515 0.685147
0.857938 0.138134 0.683632
0.930704 0.167614 0.681612
0.106661 0.398868 0.742923
0.351386 0.41958 0.756257
0.5699 0.43671 0.762643
0.765254 0.448429 0.762855
0.893937 0.456294 0.757345
0.979692 0.466619 0.749811
0 0.596631 0.784783
0.178296 0.624362 0.796639
0.502629 0.655978 0.806353
0.749689 0.678153 0.808216
0.890086 0.684518 0.801059
0.999936 0.690246 0.793266
0 0.739065 0.810044
0.023122 0.768027 0.819952
0.428679 0.808623 0.83073
0.694219 0.836424 0.832437
0.872706 0.849906 0.827496
0.999825 0.856673 0.819474
0 0.824523 0.825677
0.019611 0.855614 0.834687
0.364688 0.902975 0.845812
0.643789 0.937789 0.848024
0.851188 0.962172 0.845255
0.982246 0.973172 0.838183
0.735506 0 0.686243
0.772659 0 0.684419
0.808971 0 0.681517
0.838785 0 0.677775
0.848398 0 0.670261
0.891199 0 0.687197
0.457831 0.080473 0.754138
0.575517 0.067174 0.75823
0.684283 0.055127 0.758097
0.793961 0.049758 0.758286
0.868396 0.074853 0.758237
0.937811 0.113485 0.760791
0.366397 0.403859 0.840968
0.489195 0.411839 0.844554
0.666751 0.422709 0.848786
0.798379 0.428696 0.84577
0.915492 0.436945 0.842188
0.986564 0.448375 0.837321
0.201319 0.624321 0.886783
0.407314 0.642905 0.89464
0.599284 0.659328 0.897896
0.790893 0.673447 0.897641
0.915011 0.678684 0.891481
0.999968 0.683268 0.884639
0 0.773924 0.910806
0.301603 0.799456 0.919957
0.530498 0.820804 0.923543
0.764284 0.844198 0.925445
0.896346 0.850742 0.919027
0.999968 0.857085 0.912593
0 0.867142 0.924626
0.178105 0.895457 0.933284
0.472653 0.92443 0.938251
0.714839 0.954668 0.940753
0.873424 0.970398 0.936438
0.999768 0.980674 0.930295
