site/assets/luts/freshluts--0000405-correction-faded.cube
# LUTr-Schema-Version: 2
# LUTr-ID: freshluts--0000405-correction-faded
# LUTr-Title: Correction Faded
# LUTr-Collection: Fresh LUTs
# LUTr-Collection-ID: freshluts-community
# LUTr-Source: https://freshluts.com
# LUTr-Retrieved: 2026-07-27
# LUTr-Source-File: submissions-raw/freshluts/cubes/405__Wine_bottle_1.MVI_3956.cube
# LUTr-Source-Format: CUBE
# LUTr-Source-SHA256: c39fee33cbf051f28b683a3e84c9393dbe898d94298bd6da351c69f5cf328a02
# LUTr-License: CC0-1.0
# LUTr-License-URL: https://freshluts.com/termsandconditions
# LUTr-License-Basis: site-terms
# LUTr-Transform-Class: creative-look
# LUTr-Tags: creative, freshluts, community, cube, faded, vintage, brown, low-key, canon-cinestyle, correction
# LUTr-Input-Color-Space: canon-cinestyle
# LUTr-Input-Gamut: rec709
# LUTr-Input-Transfer: canon-cinestyle
# LUTr-Output-Color-Space: srgb
# LUTr-Output-Gamut: rec709
# LUTr-Output-Transfer: srgb
# LUTr-Color-Space-Confidence: inferred-from-source-label
# LUTr-Domain-Normalized: true
# LUTr-Shaper: none
# LUTr-Original-Grid: 33x33x33
# LUTr-Conversion-Grid: 33x33x33
# LUTr-Conversion-Interpolation: none
# LUTr-Conversion-Method: Metadata normalization; numeric LUT samples preserved
# LUTr-Conversion-Tool: LUTr scripts/convert-all-to-cube.mjs 2.0.0
# LUTr-Conversion-Date: 2026-07-28
# LUTr-Asset-URL: https://freshluts.com/luts/405
# LUTr-Author: Jùan
# LUTr-Author-URL: https://freshluts.com/users/23428
# LUTr-Attribution: Jùan via Fresh LUTs
# LUTr-Source-Labels: gamma=Canon Cinestyle; color=Brown; key=Low Key; style=Faded
# LUTr-Note: Preserve this metadata and the upstream license notices when redistributing.
TITLE "Correction Faded"
LUT_3D_SIZE 9
DOMAIN_MIN 0 0 0
DOMAIN_MAX 1 1 1
0.111147 0.142504 0.169741
0.120653 0.143465 0.170703
0.14818 0.142992 0.170169
0.197345 0.14284 0.169909
0.258076 0.144366 0.171328
0.315831 0.14786 0.174823
0.373526 0.152789 0.179797
0.439673 0.159579 0.186664
0.507424 0.167437 0.194644
0.116045 0.154498 0.174319
0.129046 0.158114 0.177646
0.165057 0.1617 0.181033
0.228687 0.166705 0.185794
0.303197 0.173922 0.192584
0.371588 0.183749 0.20177
0.440757 0.195804 0.213046
0.509972 0.209308 0.225696
0.575891 0.224063 0.239506
0.126848 0.193103 0.184695
0.149554 0.206775 0.195117
0.198611 0.218662 0.204623
0.274464 0.230457 0.214313
0.356603 0.24445 0.225772
0.430488 0.261921 0.240116
0.502373 0.281956 0.256687
0.566735 0.302724 0.273915
0.630396 0.323751 0.291493
0.152316 0.275944 0.208865
0.184573 0.29984 0.22536
0.246967 0.32015 0.240116
0.331502 0.338491 0.253758
0.416037 0.35787 0.268177
0.491676 0.380407 0.285206
0.556237 0.402914 0.302434
0.614664 0.424094 0.318654
0.66949 0.442756 0.334783
0.195575 0.395331 0.249104
0.237156 0.425498 0.270497
0.309606 0.448829 0.287816
0.397055 0.467109 0.301274
0.479194 0.484627 0.313832
0.545617 0.501534 0.329305
0.59794 0.517082 0.343664
0.647425 0.531456 0.357275
0.694835 0.544167 0.369589
0.254688 0.522667 0.302495
0.300893 0.550011 0.3243
0.374304 0.567254 0.340749
0.454383 0.577783 0.351232
0.528511 0.587335 0.360464
0.585595 0.59884 0.371298
0.632258 0.610498 0.382315
0.676722 0.621286 0.39263
0.719509 0.631174 0.402152
0.315618 0.630213 0.355718
0.358968 0.650538 0.375647
0.425879 0.66244 0.387884
0.499489 0.66862 0.394324
0.568078 0.674327 0.399939
0.618708 0.682185 0.407736
0.661997 0.690883 0.416602
0.703059 0.699306 0.425315
0.742245 0.706981 0.433371
0.361303 0.715419 0.397726
0.401648 0.731762 0.415167
0.464195 0.74052 0.42475
0.535439 0.74435 0.428809
0.600366 0.748043 0.432517
0.64683 0.753765 0.438788
0.687388 0.760525 0.446601
0.725536 0.767147 0.454505
0.761822 0.773465 0.462272
0.396323 0.786191 0.430686
0.43595 0.800168 0.447257
0.496468 0.807126 0.45565
0.566735 0.809674 0.458595
0.627527 0.811765 0.46099
0.671992 0.81619 0.466957
0.710597 0.821927 0.475105
0.746487 0.827558 0.483299
0.780118 0.8327 0.49099
0.111421 0.142763 0.177279
0.12105 0.143786 0.178393
0.148852 0.143435 0.177737
0.198779 0.143526 0.177401
0.260395 0.145312 0.178973
0.319585 0.149325 0.183291
0.379004 0.155001 0.189593
0.446082 0.162325 0.197757
0.513329 0.170581 0.206943
0.117067 0.155505 0.183032
0.131151 0.159976 0.187549
0.168566 0.164172 0.191791
0.234287 0.170031 0.19765
0.309987 0.177829 0.205493
0.378973 0.188205 0.215915
0.44892 0.200931 0.228656
0.517617 0.215198 0.242893
0.583764 0.23061 0.258213
0.130388 0.19736 0.19675
0.154421 0.211917 0.208911
0.205524 0.224704 0.219913
0.282795 0.237095 0.230762
0.365438 0.251682 0.243519
0.440375 0.269917 0.259403
0.51194 0.29044 0.277302
0.575525 0.311589 0.295659
0.63859 0.332662 0.31397
0.15819 0.283757 0.225071
0.191913 0.308431 0.243458
0.256321 0.329458 0.259785
0.34165 0.348165 0.274586
0.426734 0.368002 0.290257
0.501778 0.390204 0.307836
0.564797 0.412268 0.325475
0.622538 0.432975 0.342504
0.676265 0.450935 0.360143
0.203494 0.405463 0.269795
0.246082 0.435599 0.292546
0.319203 0.458839 0.310613
0.406241 0.476997 0.324544
0.487602 0.493156 0.337942
0.552926 0.509392 0.353948
0.604303 0.524453 0.368978
0.653178 0.538308 0.382849
0.700084 0.550683 0.3953
0.26302 0.532418 0.325841
0.310155 0.558648 0.349203
0.382406 0.575158 0.365927
0.461677 0.585336 0.376822
0.535225 0.594553 0.38645
0.591165 0.60557 0.397436
0.637568 0.616907 0.408698
0.681697 0.627482 0.419303
0.724086 0.637156 0.429099
0.323323 0.637278 0.381231
0.366323 0.657389 0.401282
0.432532 0.668818 0.413474
0.505562 0.674708 0.420325
0.573724 0.680232 0.426581
0.623743 0.687922 0.434867
0.666758 0.696468 0.444129
0.7075 0.704707 0.453208
0.746365 0.712291 0.461753
0.367956 0.721233 0.423606
0.407813 0.73724 0.440726
0.46981 0.745815 0.450645
0.540993 0.749584 0.455604
0.605432 0.75317 0.460288
0.65156 0.758816 0.467292
0.69189 0.765499 0.475654
0.729732 0.772045 0.484108
0.765805 0.778393 0.492485
0.402594 0.791241 0.457328
0.441749 0.804898 0.473487
0.50193 0.811749 0.482414
0.572137 0.814298 0.486656
0.632303 0.816342 0.49041
0.676661 0.820768 0.497307
0.715068 0.826535 0.506081
0.750652 0.832074 0.514794
0.783948 0.83714 0.522911
0.110948 0.142428 0.201495
0.120546 0.143526 0.202869
0.148226 0.143252 0.201648
0.198398 0.143618 0.200778
0.261128 0.145892 0.20264
0.321187 0.150286 0.208164
0.381903 0.156588 0.216693
0.449638 0.164401 0.227222
0.516732 0.173037 0.238788
0.117266 0.155749 0.209277
0.132433 0.161166 0.215915
0.171115 0.16611 0.221607
0.237964 0.172488 0.228717
0.314549 0.180804 0.238224
0.384192 0.191791 0.250935
0.454536 0.205035 0.266102
0.522942 0.219898 0.282765
0.589151 0.23592 0.300725
0.133074 0.200565 0.228168
0.158083 0.215793 0.243198
0.210849 0.229404 0.25658
0.289296 0.242451 0.269352
0.372259 0.257511 0.284031
0.447852 0.276371 0.302556
0.518929 0.297307 0.32343
0.582193 0.318807 0.344869
0.644648 0.339834 0.365835
0.16286 0.289876 0.26305
0.197833 0.315312 0.284459
0.263706 0.336858 0.30338
0.349737 0.355932 0.320638
0.434836 0.375769 0.338628
0.509499 0.39791 0.358801
0.571557 0.419715 0.37882
0.628016 0.439551 0.39762
0.681056 0.456855 0.415229
0.209705 0.413367 0.315297
0.253147 0.443565 0.341466
0.326604 0.466636 0.361975
0.413474 0.484611 0.377813
0.493935 0.49958 0.392645
0.558129 0.515007 0.408591
0.609033 0.529854 0.423896
0.657328 0.543191 0.437675
0.703716 0.5552 0.450095
0.269139 0.539574 0.379278
0.316991 0.564843 0.404288
0.388388 0.580789 0.420798
0.46685 0.590494 0.431556
0.53994 0.599466 0.441413
0.595224 0.610178 0.452552
0.641306 0.621195 0.463935
0.685145 0.631617 0.474784
0.72723 0.641169 0.484901
0.328496 0.642023 0.435889
0.37116 0.661768 0.455863
0.437079 0.67303 0.468193
0.509834 0.678767 0.47538
0.577646 0.684123 0.482078
0.627329 0.691707 0.490791
0.670161 0.700191 0.500374
0.710628 0.708324 0.509667
0.749203 0.715862 0.518486
0.372076 0.724941 0.478447
0.411872 0.740764 0.495476
0.473671 0.749233 0.505516
0.545083 0.753185 0.51133
0.609018 0.756558 0.516564
0.654994 0.762158 0.524056
0.69514 0.768826 0.532723
0.732799 0.775372 0.541405
0.768704 0.781811 0.549966
0.406149 0.794324 0.512489
0.445441 0.807874 0.528206
0.505684 0.814694 0.537377
0.575967 0.817304 0.542535
0.63592 0.819394 0.547356
0.680186 0.823896 0.554757
0.718471 0.829725 0.563592
0.753796 0.835218 0.572076
0.786831 0.840253 0.580102
0.11043 0.142107 0.244602
0.119951 0.143297 0.246265
0.147417 0.143175 0.244358
0.197436 0.143755 0.242573
0.261418 0.146624 0.244999
0.322454 0.151461 0.251926
0.38381 0.158145 0.26247
0.452064 0.1664 0.275395
0.519265 0.175494 0.289693
0.117617 0.156146 0.254917
0.133501 0.162249 0.26389
0.173541 0.168154 0.27158
0.241184 0.174899 0.279774
0.318288 0.183597 0.290898
0.388556 0.195163 0.306416
0.459312 0.209003 0.324804
0.527398 0.224323 0.344884
0.593606 0.240894 0.366201
0.135668 0.203555 0.279454
0.161776 0.219684 0.298512
0.215595 0.233707 0.314427
0.295155 0.247471 0.329656
0.378454 0.263005 0.34696
0.454368 0.282307 0.36846
0.52488 0.303548 0.391959
0.587793 0.325093 0.415671
0.649714 0.346044 0.438544
0.167102 0.295354 0.321401
0.203296 0.321599 0.347585
0.270344 0.343587 0.369543
0.356909 0.36289 0.388861
0.441962 0.382696 0.408713
0.516014 0.404501 0.430716
0.577325 0.426017 0.452308
0.632517 0.444999 0.471199
0.684718 0.461448 0.48748
0.215167 0.420294 0.382773
0.259281 0.450538 0.411948
0.332937 0.473396 0.434241
0.41944 0.490852 0.451179
0.499031 0.504738 0.465629
0.562249 0.519448 0.480629
0.612543 0.533791 0.495018
0.660441 0.546822 0.507942
0.706401 0.558556 0.519448
0.274846 0.544732 0.452552
0.32221 0.569467 0.476905
0.393088 0.585046 0.492561
0.470863 0.594308 0.502403
0.543374 0.602899 0.511467
0.598276 0.613413 0.521904
0.644053 0.624201 0.532464
0.687541 0.634379 0.542489
0.729351 0.643885 0.551934
0.332189 0.645426 0.506325
0.374624 0.66479 0.524941
0.440269 0.675837 0.536355
0.512901 0.681498 0.543099
0.580438 0.686717 0.549386
0.629862 0.694148 0.557504
0.672572 0.702632 0.566506
0.712673 0.710582 0.575021
0.750957 0.718044 0.583185
0.374472 0.727214 0.545571
0.414466 0.742931 0.561212
0.47631 0.751308 0.570581
0.547707 0.755245 0.576242
0.611521 0.758602 0.581415
0.657343 0.764172 0.588479
0.697307 0.770794 0.596567
0.734829 0.777417 0.604685
0.770581 0.783932 0.612757
0.407935 0.796002 0.576837
0.447608 0.809476 0.591196
0.508125 0.816327 0.599954
0.578546 0.818982 0.605249
0.638437 0.821134 0.610224
0.68275 0.825833 0.617487
0.720775 0.831617 0.625757
0.755871 0.837079 0.633768
0.788693 0.842084 0.641413
0.110491 0.142351 0.299657
0.119966 0.143618 0.30161
0.147463 0.143755 0.298787
0.197681 0.144594 0.29572
0.262592 0.147906 0.298283
0.325063 0.153384 0.307103
0.386954 0.160418 0.319738
0.455436 0.169024 0.334951
0.522805 0.178622 0.351736
0.118914 0.157488 0.313619
0.13547 0.164172 0.324941
0.176761 0.170855 0.334188
0.245426 0.178103 0.343023
0.323217 0.187259 0.355169
0.39379 0.199222 0.37229
0.465049 0.213718 0.392996
0.532769 0.22948 0.414954
0.598795 0.246403 0.437613
0.138918 0.207279 0.34255
0.166125 0.224247 0.364706
0.221271 0.238865 0.38233
0.301747 0.253147 0.398779
0.385443 0.269215 0.417288
0.46157 0.288838 0.439902
0.531319 0.310292 0.463951
0.593851 0.331746 0.487205
0.654978 0.352331 0.508721
0.172076 0.301625 0.388632
0.209384 0.328557 0.417731
0.277546 0.350912 0.440894
0.364752 0.370489 0.460685
0.449454 0.389975 0.480201
0.522759 0.411307 0.501305
0.583062 0.432212 0.521523
0.636988 0.45037 0.537926
0.688319 0.465995 0.55201
0.221042 0.427665 0.453758
0.26566 0.457771 0.483238
0.339483 0.4804 0.504768
0.425162 0.496422 0.519905
0.503899 0.509667 0.532387
0.566308 0.523888 0.545556
0.615991 0.537667 0.55816
0.663355 0.550286 0.56965
0.708904 0.561791 0.580133
0.280629 0.550042 0.520897
0.32723 0.573953 0.542321
0.397589 0.589151 0.556207
0.474815 0.598093 0.56492
0.546715 0.606256 0.572869
0.60116 0.616464 0.582315
0.646662 0.62707 0.59202
0.689784 0.637034 0.601251
0.731243 0.646372 0.61004
0.335973 0.648951 0.568276
0.378027 0.667765 0.58526
0.44332 0.678538 0.595789
0.515816 0.684062 0.601968
0.583093 0.689174 0.607782
0.632227 0.696452 0.615351
0.674708 0.704814 0.623957
0.714549 0.712688 0.632258
0.75256 0.720104 0.640299
0.376776 0.729366 0.603784
0.416968 0.744961 0.619058
0.478874 0.753292 0.628275
0.550225 0.757168 0.633661
0.61387 0.760494 0.638605
0.659541 0.766018 0.645579
0.699351 0.772641 0.653666
0.736751 0.77937 0.66186
0.772457 0.786084 0.670054
0.409674 0.797559 0.633738
0.449729 0.810987 0.648493
0.510536 0.817853 0.657359
0.581079 0.820523 0.662516
0.640864 0.822782 0.667353
0.685115 0.827604 0.674586
0.722942 0.833341 0.682689
0.757794 0.838758 0.690455
0.790356 0.843732 0.697749
0.111147 0.143114 0.352361
0.120653 0.144488 0.354467
0.148425 0.144884 0.351171
0.199695 0.146227 0.347936
0.265476 0.149874 0.350515
0.329305 0.155917 0.360723
0.391943 0.163439 0.374746
0.460716 0.172427 0.391272
0.527901 0.182483 0.409262
0.121004 0.159625 0.369863
0.138598 0.167117 0.383261
0.181094 0.17435 0.393133
0.250996 0.182086 0.402121
0.329671 0.191791 0.414649
0.400671 0.204211 0.432105
0.472251 0.219257 0.452857
0.539513 0.235523 0.474342
0.605249 0.252735 0.495796
0.143038 0.211994 0.401389
0.171481 0.229831 0.42501
0.22829 0.245167 0.442771
0.309606 0.259876 0.458625
0.393652 0.276371 0.476448
0.469978 0.2963 0.497856
0.538857 0.318044 0.520638
0.600809 0.339178 0.542428
0.661082 0.35935 0.563241
0.178119 0.309178 0.448035
0.21648 0.336583 0.4766
0.285786 0.359258 0.498604
0.373281 0.378759 0.516976
0.45771 0.397971 0.535134
0.530358 0.418921 0.555138
0.588708 0.438758 0.573907
0.641932 0.45626 0.589883
0.692638 0.471321 0.603784
0.227832 0.435996 0.510048
0.272725 0.465736 0.537591
0.3467 0.48809 0.558068
0.431632 0.502815 0.571542
0.509361 0.515206 0.582879
0.570947 0.529015 0.595651
0.620127 0.542382 0.608072
0.666941 0.554574 0.619348
0.712047 0.565835 0.629618
0.28716 0.556115 0.571862
0.33315 0.579446 0.592859
0.402792 0.594064 0.606332
0.479622 0.602853 0.614725
0.550912 0.610574 0.622126
0.6047 0.620417 0.631235
0.649897 0.630808 0.640742
0.692699 0.640604 0.649714
0.733776 0.64979 0.658091
0.340444 0.653086 0.617426
0.382376 0.671687 0.634638
0.447227 0.682216 0.644907
0.519554 0.68751 0.650614
0.586511 0.692485 0.655985
0.635309 0.699626 0.663172
0.677485 0.707835 0.671275
0.717037 0.715618 0.679011
0.754757 0.722988 0.686381
0.380285 0.732479 0.651896
0.420462 0.74789 0.66688
0.482399 0.756252 0.675776
0.553582 0.75993 0.680613
0.616876 0.763165 0.685039
0.662364 0.768627 0.691402
0.701976 0.775265 0.698802
0.739193 0.78201 0.706325
0.77467 0.788754 0.713848
0.41268 0.8 0.680125
0.452903 0.813306 0.694087
0.513787 0.820127 0.702403
0.584329 0.822782 0.707118
0.643839 0.825086 0.711482
0.687953 0.829969 0.718135
0.72549 0.835599 0.725444
0.760082 0.840955 0.732464
0.79234 0.845853 0.73904
0.112108 0.144152 0.404852
0.121813 0.145708 0.407218
0.149889 0.146304 0.403632
0.202655 0.148287 0.400961
0.269703 0.152392 0.403876
0.334371 0.158846 0.414527
0.397772 0.166842 0.428992
0.467018 0.176333 0.445563
0.533806 0.186786 0.463172
0.123445 0.162097 0.424506
0.142367 0.170611 0.439185
0.18613 0.178347 0.448768
0.25716 0.186465 0.457176
0.336797 0.196719 0.469215
0.408423 0.209705 0.485939
0.480064 0.225208 0.50573
0.546777 0.241932 0.526619
0.612284 0.25951 0.548196
0.147829 0.217441 0.456519
0.177279 0.235843 0.47924
0.23592 0.251972 0.496437
0.31812 0.26714 0.511437
0.40238 0.28397 0.528527
0.478904 0.304219 0.549966
0.546578 0.325933 0.573053
0.608164 0.34696 0.594919
0.667659 0.366842 0.615259
0.18468 0.317281 0.50045
0.224079 0.345113 0.528237
0.294438 0.368032 0.550134
0.382269 0.387488 0.568322
0.466224 0.406241 0.586084
0.538201 0.42681 0.605951
0.594705 0.445716 0.62327
0.647013 0.462272 0.637949
0.697261 0.477028 0.651026
0.235019 0.444694 0.559823
0.280293 0.474189 0.5879
0.354131 0.495903 0.607919
0.438346 0.509483 0.619959
0.515206 0.521141 0.63035
0.575723 0.534356 0.642176
0.62446 0.547372 0.653742
0.670832 0.559258 0.664164
0.715389 0.570184 0.673548
0.293858 0.562371 0.619333
0.339437 0.585351 0.639658
0.408377 0.59942 0.652171
0.484535 0.607767 0.65977
0.555367 0.615244 0.666514
0.60856 0.624765 0.674846
0.653376 0.634867 0.683589
0.695827 0.644495 0.691844
0.736538 0.653544 0.699504
0.345373 0.657649 0.661799
0.387015 0.675898 0.678203
0.451484 0.686229 0.687861
0.523629 0.691325 0.692988
0.590204 0.696101 0.697734
0.638758 0.703288 0.704433
0.680476 0.711177 0.711666
0.719722 0.718853 0.718669
0.757198 0.726207 0.725383
0.384268 0.735958 0.693675
0.424369 0.751156 0.707927
0.486137 0.759396 0.716258
0.557229 0.762982 0.720562
0.620096 0.766125 0.724407
0.6654 0.771542 0.730129
0.704829 0.77818 0.736904
0.741817 0.784924 0.743755
0.777066 0.791684 0.750637
0.416159 0.802716 0.7196
0.456474 0.815915 0.732845
0.517357 0.822675 0.740581
0.587915 0.825345 0.744793
0.647105 0.82771 0.748638
0.690974 0.832547 0.75462
0.728191 0.838071 0.761151
0.762463 0.84332 0.767422
0.79443 0.848142 0.773266
0.113146 0.145281 0.458091
0.123186 0.147127 0.460838
0.151858 0.148058 0.457511
0.205875 0.150515 0.455283
0.274601 0.155261 0.458869
0.339956 0.162051 0.469078
0.403876 0.170428 0.482948
0.47361 0.180468 0.499107
0.540108 0.191394 0.51632
0.126207 0.164889 0.479561
0.146319 0.174304 0.495155
0.191562 0.18265 0.504829
0.264057 0.191363 0.512963
0.344198 0.201907 0.524422
0.416541 0.215549 0.54168
0.488273 0.231571 0.561898
0.554314 0.248676 0.582818
0.619593 0.266575 0.603891
0.152911 0.223178 0.511818
0.18352 0.242298 0.535882
0.243854 0.259083 0.553368
0.327016 0.27483 0.567956
0.411475 0.29192 0.584329
0.487984 0.312352 0.604944
0.554513 0.333974 0.626673
0.615412 0.35465 0.647044
0.674083 0.374197 0.665919
0.191531 0.325673 0.55491
0.232029 0.353964 0.583322
0.303288 0.37702 0.604379
0.391302 0.396323 0.621195
0.474708 0.414511 0.637369
0.545739 0.43444 0.655711
0.600565 0.452476 0.671168
0.652033 0.468193 0.684565
0.701549 0.482353 0.696483
0.24242 0.453513 0.611749
0.287892 0.482689 0.638331
0.361685 0.502953 0.656031
0.444739 0.515831 0.666941
0.520943 0.527001 0.676402
0.580407 0.539635 0.687175
0.628672 0.552224 0.697765
0.674617 0.563867 0.707347
0.7187 0.574533 0.715846
0.300359 0.568429 0.665492
0.345449 0.591043 0.684855
0.413916 0.60473 0.696544
0.489387 0.612634 0.703273
0.559716 0.619776 0.709239
0.612375 0.629053 0.716823
0.656825 0.638911 0.724743
0.698878 0.648325 0.732158
0.739269 0.657313 0.739086
0.350286 0.662181 0.704662
0.391608 0.680049 0.72018
0.455665 0.69015 0.729137
0.527687 0.695109 0.733654
0.593881 0.699687 0.737713
0.642008 0.706722 0.743633
0.683452 0.714488 0.750118
0.722393 0.722072 0.756344
0.759609 0.729412 0.762341
0.38822 0.739376 0.733745
0.42826 0.754406 0.747265
0.489876 0.762524 0.754925
0.560876 0.766003 0.758618
0.623316 0.769055 0.761776
0.668421 0.774441 0.766812
0.707683 0.781125 0.772915
0.744564 0.787976 0.779171
0.779416 0.794583 0.785168
0.419669 0.805417 0.757198
0.46009 0.818509 0.769696
0.520958 0.825193 0.776745
0.59147 0.827893 0.780362
0.650324 0.830304 0.783627
0.693919 0.835065 0.788846
0.730846 0.840482 0.794583
0.764797 0.845624 0.800046
0.79646 0.850355 0.805127
0.114412 0.146639 0.516548
0.124804 0.14876 0.51986
0.154498 0.150256 0.516533
0.209644 0.153048 0.51339
0.279774 0.158328 0.51693
0.345953 0.16556 0.527367
0.410544 0.174426 0.541665
0.48043 0.184894 0.558038
0.546792 0.196399 0.575525
0.12961 0.168338 0.542229
0.150698 0.178393 0.558816
0.19736 0.18732 0.568154
0.27126 0.196597 0.575463
0.352056 0.207523 0.585779
0.424903 0.221683 0.60206
0.496727 0.238239 0.621332
0.562005 0.255604 0.64094
0.626947 0.273762 0.660624
0.158389 0.229313 0.57377
0.190265 0.249226 0.597559
0.252125 0.26656 0.61384
0.33608 0.282734 0.626963
0.420737 0.300038 0.641733
0.497261 0.32076 0.660975
0.562432 0.342016 0.680705
0.622553 0.362249 0.699062
0.68014 0.381216 0.715755
0.198642 0.334264 0.612558
0.240146 0.362921 0.639811
0.312078 0.385946 0.659144
0.39968 0.404913 0.674052
0.483131 0.422721 0.688518
0.552239 0.44152 0.704341
0.606073 0.458824 0.718502
0.656901 0.47396 0.730739
0.705699 0.487541 0.741436
0.249516 0.461936 0.663371
0.295247 0.490883 0.688212
0.369116 0.509896 0.703883
0.450843 0.521874 0.713466
0.526406 0.53257 0.721935
0.584985 0.544808 0.731731
0.632746 0.556954 0.741253
0.678248 0.568307 0.749859
0.721889 0.57879 0.757473
0.306752 0.574426 0.711345
0.351202 0.59646 0.729534
0.419455 0.61004 0.740566
0.494148 0.61738 0.746273
0.563943 0.624155 0.751354
0.616053 0.633188 0.758068
0.660182 0.642863 0.765133
0.701869 0.652079 0.771664
0.741848 0.660883 0.777691
0.355016 0.666529 0.74696
0.396124 0.684108 0.761608
0.459739 0.693935 0.769741
0.531624 0.698741 0.773556
0.597467 0.703197 0.776883
0.645167 0.710048 0.781964
0.686336 0.717708 0.787579
0.725017 0.725231 0.793027
0.761975 0.73254 0.79826
0.39202 0.742657 0.773083
0.432105 0.757565 0.785824
0.493538 0.765545 0.792737
0.564431 0.768933 0.795712
0.626459 0.771908 0.798138
0.671397 0.777295 0.802441
0.710475 0.783978 0.807797
0.747143 0.79086 0.813291
0.781674 0.79736 0.818433
0.423102 0.808026 0.793881
0.46363 0.821012 0.805524
0.524529 0.827649 0.811841
0.594965 0.830365 0.814786
0.653498 0.832837 0.817395
0.696773 0.837476 0.821744
0.733394 0.842786 0.826642
0.76704 0.847837 0.831281
0.798199 0.852247 0.83534
