site/assets/luts/freshluts--0000675-sad-cinestylelut.cube
# LUTr-Schema-Version: 2
# LUTr-ID: freshluts--0000675-sad-cinestylelut
# LUTr-Title: SAD Cinestyle(LUT)
# LUTr-Collection: Fresh LUTs
# LUTr-Collection-ID: freshluts-community
# LUTr-Source: https://freshluts.com
# LUTr-Retrieved: 2026-07-27
# LUTr-Source-File: submissions-raw/freshluts/cubes/675__SAD.HOPE_28.00068.cube
# LUTr-Source-Format: CUBE
# LUTr-Source-SHA256: 7a1da6d19289317ade10c63c160e71521f2c7bd3be81e0082298d22d36891871
# LUTr-License: CC0-1.0
# LUTr-License-URL: https://freshluts.com/termsandconditions
# LUTr-License-Basis: site-terms
# LUTr-Transform-Class: creative-look
# LUTr-Tags: creative, freshluts, community, cube, magenta, low-key, canon-cinestyle
# LUTr-Input-Color-Space: canon-cinestyle
# LUTr-Input-Gamut: rec709
# LUTr-Input-Transfer: canon-cinestyle
# LUTr-Output-Color-Space: srgb
# LUTr-Output-Gamut: rec709
# LUTr-Output-Transfer: srgb
# LUTr-Color-Space-Confidence: inferred-from-source-label
# LUTr-Domain-Normalized: true
# LUTr-Shaper: none
# LUTr-Original-Grid: 33x33x33
# LUTr-Conversion-Grid: 33x33x33
# LUTr-Conversion-Interpolation: none
# LUTr-Conversion-Method: Metadata normalization; numeric LUT samples preserved
# LUTr-Conversion-Tool: LUTr scripts/convert-all-to-cube.mjs 2.0.0
# LUTr-Conversion-Date: 2026-07-28
# LUTr-Asset-URL: https://freshluts.com/luts/675
# LUTr-Author: lvannoeun@gmail.com
# LUTr-Author-URL: https://freshluts.com/users/57563
# LUTr-Attribution: lvannoeun@gmail.com via Fresh LUTs
# LUTr-Source-Labels: gamma=Canon Cinestyle; color=Magenta; key=Low Key; style=Cinematic/Dark
# LUTr-Note: Preserve this metadata and the upstream license notices when redistributing.
TITLE "SAD Cinestyle(LUT)"
LUT_3D_SIZE 5
DOMAIN_MIN 0 0 0
DOMAIN_MAX 1 1 1
0.0465095 0.00813306 0.0597391
0.147372 0 0.0424811
0.434073 0 0.0347448
0.745632 0 0.0368963
0.9149 0 0.0397192
0.0180056 0.25655 0.0843671
0.175982 0.239506 0.0661021
0.460197 0.231144 0.0619364
0.774701 0.228595 0.0667124
0.919493 0.22179 0.0704356
0 0.5187 0.0952316
0.185733 0.500526 0.0759747
0.468025 0.494011 0.0737011
0.783566 0.492409 0.0797284
0.904891 0.485222 0.0836194
0 0.783307 0.0997177
0.187335 0.765286 0.0805066
0.46836 0.759854 0.0793774
0.784634 0.759167 0.086305
0.88333 0.750942 0.0897383
0 1 0.0995499
0.184421 1 0.0810559
0.464302 1 0.080415
0.780697 1 0.0876631
0.856779 0.999741 0.0903639
0.0471351 0.00650034 0.20235
0.136889 0 0.188144
0.424933 0 0.17554
0.735744 0 0.169039
0.916091 0 0.162478
0.0191348 0.25037 0.251514
0.16817 0.233951 0.235737
0.453071 0.224918 0.226642
0.766812 0.221881 0.223072
0.921706 0.215366 0.216312
0 0.513222 0.284657
0.178851 0.495155 0.267491
0.461387 0.488151 0.260441
0.776532 0.486336 0.258244
0.907637 0.479026 0.251377
0 0.778393 0.309941
0.181125 0.760479 0.292668
0.461967 0.75462 0.286778
0.778027 0.753384 0.285389
0.886503 0.745388 0.278264
0 1 0.329442
0.178134 1 0.312688
0.457984 1 0.307408
0.773816 1 0.306325
0.860044 0.99649 0.298604
0.0478523 0.00622568 0.492729
0.134234 0.000976577 0.478737
0.423133 0 0.466636
0.733501 0 0.46099
0.919676 0 0.456321
0.0198215 0.25127 0.539849
0.166735 0.234745 0.524147
0.451911 0.225879 0.515587
0.765194 0.222904 0.513054
0.925322 0.216526 0.507866
0 0.514504 0.570123
0.177722 0.496193 0.552575
0.460349 0.489052 0.546181
0.775113 0.487282 0.545312
0.91136 0.4804 0.540444
0 0.779629 0.592004
0.179995 0.761349 0.574365
0.461006 0.755322 0.569162
0.77673 0.754101 0.56907
0.890227 0.746334 0.563958
0 1 0.607797
0.176776 1 0.590814
0.456306 1 0.586145
0.772137 0.999115 0.586542
0.863478 0.997574 0.580926
0.0484779 0.00503548 0.708278
0.132296 0.00192264 0.694316
0.421775 0.000015259 0.682811
0.732433 0 0.679545
0.922499 0 0.677256
0.0204318 0.251789 0.752331
0.165545 0.235355 0.736339
0.45098 0.226444 0.728573
0.764157 0.223423 0.727184
0.928008 0.217411 0.724086
0 0.515297 0.780301
0.176654 0.497108 0.762585
0.459495 0.489876 0.756664
0.774014 0.487831 0.756695
0.914015 0.481102 0.753277
0 0.780163 0.8
0.179141 0.761929 0.782254
0.460105 0.755856 0.777295
0.775525 0.754818 0.778164
0.892851 0.747112 0.774304
0 1 0.81413
0.175677 1 0.79678
0.455146 1 0.792538
0.771023 0.999054 0.793515
0.864698 0.999405 0.789166
0.0490578 0.00354009 0.904906
0.131319 0.00202945 0.891112
0.421164 0.000167849 0.879561
0.731914 0 0.876829
0.92491 0 0.874754
0.0209049 0.252964 0.949554
0.165225 0.236606 0.933867
0.450492 0.227527 0.925841
0.76347 0.224689 0.924605
0.930343 0.218616 0.921386
0 0.516335 0.974182
0.17644 0.498131 0.960082
0.45919 0.491173 0.954162
0.773556 0.489204 0.954223
0.916472 0.482307 0.950759
0 0.781476 0.982223
0.179004 0.763394 0.977203
0.459968 0.757214 0.974334
0.775143 0.756024 0.973541
0.895308 0.748409 0.969833
0 1 0.978469
0.175051 1 0.97232
0.454536 0.999725 0.972763
0.770504 0.999786 0.976547
0.86566 1 0.976791
