site/assets/luts/freshluts--0000883-picturefx-national-geographic.cube
# LUTr-Schema-Version: 2
# LUTr-ID: freshluts--0000883-picturefx-national-geographic
# LUTr-Title: PictureFX National Geographic
# LUTr-Collection: Fresh LUTs
# LUTr-Collection-ID: freshluts-community
# LUTr-Source: https://freshluts.com
# LUTr-Retrieved: 2026-07-27
# LUTr-Source-File: submissions-raw/freshluts/cubes/883__PictureFX_National_Geographic.cube
# LUTr-Source-Format: CUBE
# LUTr-Source-SHA256: 520ff068413ab407f00d589ad32e28fd1b501625b28c8b93302ec20117e444e8
# LUTr-License: CC0-1.0
# LUTr-License-URL: https://freshluts.com/termsandconditions
# LUTr-License-Basis: site-terms
# LUTr-Transform-Class: creative-look
# LUTr-Tags: creative, freshluts, community, cube, film-emulation, rec709, assumed-input
# LUTr-Input-Color-Space: rec709
# LUTr-Input-Gamut: rec709
# LUTr-Input-Transfer: rec709
# LUTr-Output-Color-Space: srgb
# LUTr-Output-Gamut: rec709
# LUTr-Output-Transfer: srgb
# LUTr-Color-Space-Confidence: assumed-display-referred
# LUTr-Domain-Normalized: true
# LUTr-Shaper: none
# LUTr-Original-Grid: 25x25x25
# LUTr-Conversion-Grid: 25x25x25
# LUTr-Conversion-Interpolation: none
# LUTr-Conversion-Method: Metadata normalization; numeric LUT samples preserved
# LUTr-Conversion-Tool: LUTr scripts/convert-all-to-cube.mjs 2.0.0
# LUTr-Conversion-Date: 2026-07-28
# LUTr-Asset-URL: https://freshluts.com/luts/883
# LUTr-Author: MarcR.
# LUTr-Author-URL: https://freshluts.com/users/86490
# LUTr-Attribution: MarcR. via Fresh LUTs
# LUTr-Source-Labels: gamma=Other; color=None; key=Neutral; style=Film emulation; LUTr assumption=input Rec.709 per repository policy
# LUTr-Conversion-Warning: Input Rec.709 is a LUTr catalog assumption requested for this otherwise unspecified Fresh LUT; it is not verified by the upstream asset.
# LUTr-Note: Preserve this metadata and the upstream license notices when redistributing.
# LUTr-Upstream-Comment: Generated with IWLTBAP LUT Generator
# LUTr-Upstream-Comment: Website: http://luts.iwltbap.com
# LUTr-Upstream-Comment: LUT size
# LUTr-Upstream-Comment: LUT data points
TITLE "PictureFX National Geographic"
LUT_3D_SIZE 9
DOMAIN_MIN 0 0 0
DOMAIN_MAX 1 1 1
0 0 0
0 0 0
0.109804 0 0
0.235294 0 0
0.376471 0 0
0.541176 0 0
0.729412 0 0
0.909804 0 0
1 0 0
0 0.035294 0
0.05098 0.043137 0
0.137255 0.054902 0
0.25098 0.054902 0
0.392157 0.027451 0
0.552941 0 0
0.737255 0 0
0.913725 0 0
1 0 0
0.015686 0.14902 0
0.078431 0.152941 0
0.168627 0.156863 0
0.282353 0.160784 0
0.415686 0.160784 0
0.576471 0.141176 0
0.756863 0.07451 0
0.92549 0 0
1 0 0
0 0.282353 0
0.070588 0.286275 0
0.184314 0.290196 0
0.305882 0.294118 0
0.447059 0.298039 0
0.607843 0.294118 0
0.780392 0.278431 0
0.941176 0.266667 0
1 0.266667 0
0 0.443137 0
0 0.447059 0
0.168627 0.45098 0
0.317647 0.454902 0
0.470588 0.458824 0
0.639216 0.458824 0
0.8 0.458824 0
0.94902 0.462745 0
1 0.470588 0
0 0.627451 0
0 0.627451 0
0.090196 0.627451 0
0.313725 0.631373 0
0.490196 0.631373 0
0.658824 0.631373 0
0.815686 0.631373 0
0.956863 0.631373 0
1 0.635294 0
0 0.784314 0
0 0.784314 0
0.12549 0.784314 0
0.352941 0.784314 0
0.529412 0.780392 0
0.686275 0.780392 0
0.831373 0.780392 0
0.960784 0.776471 0
1 0.780392 0
0.035294 0.913725 0
0.164706 0.913725 0
0.305882 0.909804 0
0.447059 0.909804 0
0.588235 0.905882 0
0.72549 0.901961 0
0.854902 0.901961 0
0.972549 0.898039 0
1 0.898039 0
0.368627 1 0
0.4 1 0
0.466667 1 0
0.556863 1 0
0.666667 1 0
0.780392 1 0
0.890196 0.996078 0
0.996078 0.992157 0
1 0.988235 0
0 0 0
0.015686 0 0.011765
0.117647 0 0.039216
0.239216 0 0.031373
0.380392 0 0.011765
0.545098 0 0
0.733333 0 0
0.909804 0 0
1 0 0
0.003922 0.043137 0.035294
0.054902 0.047059 0.035294
0.141176 0.054902 0.035294
0.254902 0.054902 0.023529
0.396078 0.027451 0.003922
0.556863 0 0
0.741176 0 0
0.917647 0 0
1 0 0
0.015686 0.152941 0.019608
0.078431 0.152941 0.019608
0.172549 0.160784 0.011765
0.282353 0.160784 0
0.419608 0.160784 0
0.580392 0.137255 0
0.760784 0.07451 0
0.929412 0 0
1 0 0
0 0.286275 0
0.07451 0.286275 0
0.188235 0.290196 0
0.309804 0.294118 0
0.45098 0.298039 0
0.611765 0.294118 0
0.784314 0.278431 0
0.941176 0.266667 0
1 0.266667 0
0 0.447059 0
0 0.447059 0
0.176471 0.45098 0
0.32549 0.454902 0
0.47451 0.458824 0
0.639216 0.458824 0
0.803922 0.458824 0
0.952941 0.462745 0
1 0.470588 0
0 0.627451 0
0 0.627451 0
0.109804 0.627451 0
0.321569 0.631373 0
0.494118 0.631373 0
0.662745 0.631373 0
0.815686 0.631373 0
0.956863 0.631373 0
1 0.635294 0
0 0.784314 0
0 0.784314 0
0.14902 0.784314 0
0.360784 0.784314 0
0.533333 0.780392 0
0.690196 0.780392 0
0.835294 0.776471 0
0.964706 0.776471 0
1 0.780392 0
0.082353 0.913725 0
0.184314 0.913725 0
0.313725 0.909804 0
0.454902 0.909804 0
0.596078 0.905882 0
0.729412 0.901961 0
0.858824 0.901961 0
0.976471 0.898039 0
1 0.898039 0
0.380392 1 0
0.407843 1 0
0.47451 1 0
0.564706 1 0
0.670588 1 0
0.784314 1 0
0.894118 0.996078 0
1 0.992157 0
1 0.988235 0
0.003922 0 0.086275
0.047059 0 0.105882
0.133333 0 0.12549
0.25098 0 0.129412
0.392157 0 0.12549
0.556863 0 0.113725
0.741176 0 0.090196
0.917647 0 0.05098
1 0 0
0.007843 0.05098 0.121569
0.062745 0.054902 0.12549
0.152941 0.058824 0.129412
0.266667 0.054902 0.129412
0.403922 0.019608 0.121569
0.568627 0 0.109804
0.74902 0 0.082353
0.921569 0 0.039216
1 0 0
0.023529 0.156863 0.129412
0.086275 0.156863 0.129412
0.180392 0.160784 0.12549
0.294118 0.164706 0.121569
0.431373 0.160784 0.109804
0.588235 0.137255 0.090196
0.768627 0.066667 0.054902
0.933333 0 0
1 0 0
0.011765 0.286275 0.101961
0.094118 0.290196 0.101961
0.2 0.294118 0.094118
0.321569 0.298039 0.086275
0.458824 0.298039 0.066667
0.619608 0.294118 0.023529
0.792157 0.278431 0
0.945098 0.266667 0
1 0.266667 0
0 0.447059 0
0.027451 0.447059 0
0.196078 0.45098 0
0.337255 0.454902 0
0.486275 0.458824 0
0.65098 0.458824 0
0.811765 0.458824 0
0.956863 0.462745 0
1 0.470588 0
0 0.627451 0
0 0.627451 0
0.14902 0.627451 0
0.337255 0.631373 0
0.505882 0.631373 0
0.670588 0.631373 0
0.823529 0.631373 0
0.960784 0.631373 0
1 0.635294 0
0 0.784314 0
0 0.784314 0
0.188235 0.784314 0
0.380392 0.784314 0
0.545098 0.780392 0
0.698039 0.780392 0
0.839216 0.776471 0
0.968627 0.776471 0
1 0.776471 0
0.14902 0.913725 0
0.223529 0.909804 0
0.337255 0.909804 0
0.470588 0.909804 0
0.603922 0.905882 0
0.737255 0.901961 0
0.866667 0.898039 0
0.984314 0.898039 0
1 0.894118 0
0.396078 1 0
0.427451 1 0
0.486275 1 0
0.576471 1 0
0.682353 1 0
0.792157 1 0
0.901961 0.996078 0
1 0.992157 0
1 0.988235 0
0 0 0.215686
0.05098 0 0.223529
0.14902 0 0.235294
0.270588 0 0.239216
0.411765 0 0.239216
0.572549 0 0.231373
0.756863 0 0.215686
0.929412 0 0.2
1 0 0.180392
0 0.058824 0.231373
0.066667 0.058824 0.235294
0.164706 0.058824 0.239216
0.282353 0.047059 0.239216
0.423529 0.007843 0.239216
0.584314 0 0.227451
0.764706 0 0.215686
0.933333 0 0.196078
1 0 0.172549
0.031373 0.160784 0.239216
0.098039 0.160784 0.239216
0.192157 0.164706 0.239216
0.309804 0.164706 0.239216
0.447059 0.156863 0.231373
0.603922 0.129412 0.219608
0.780392 0.05098 0.203922
0.945098 0 0.184314
1 0 0.160784
0.047059 0.290196 0.231373
0.117647 0.290196 0.231373
0.215686 0.294118 0.227451
0.337255 0.298039 0.223529
0.47451 0.298039 0.215686
0.635294 0.290196 0.2
0.803922 0.27451 0.180392
0.956863 0.262745 0.152941
1 0.262745 0.117647
0 0.45098 0.192157
0.094118 0.45098 0.192157
0.223529 0.45098 0.188235
0.356863 0.454902 0.180392
0.501961 0.458824 0.164706
0.666667 0.458824 0.145098
0.819608 0.458824 0.113725
0.964706 0.462745 0.062745
1 0.470588 0
0 0.627451 0.082353
0 0.627451 0.078431
0.196078 0.631373 0.070588
0.364706 0.631373 0.047059
0.52549 0.631373 0.011765
0.686275 0.631373 0
0.835294 0.631373 0
0.968627 0.631373 0
1 0.635294 0
0 0.784314 0
0 0.784314 0
0.239216 0.784314 0
0.407843 0.784314 0
0.564706 0.780392 0
0.709804 0.780392 0
0.85098 0.776471 0
0.976471 0.776471 0
1 0.776471 0
0.219608 0.909804 0
0.270588 0.909804 0
0.368627 0.909804 0
0.490196 0.905882 0
0.619608 0.905882 0
0.74902 0.901961 0
0.87451 0.898039 0
0.988235 0.898039 0
1 0.894118 0
0.423529 1 0
0.45098 1 0
0.505882 1 0
0.592157 1 0
0.694118 1 0
0.8 1 0
0.909804 0.992157 0
1 0.988235 0
1 0.988235 0
0 0 0.364706
0.003922 0 0.364706
0.152941 0 0.372549
0.282353 0 0.372549
0.427451 0 0.372549
0.592157 0 0.368627
0.776471 0 0.356863
0.941176 0 0.345098
1 0 0.333333
0 0.062745 0.372549
0.035294 0.058824 0.372549
0.168627 0.054902 0.372549
0.298039 0.035294 0.376471
0.439216 0 0.372549
0.603922 0 0.368627
0.780392 0 0.356863
0.945098 0 0.345098
1 0 0.333333
0 0.164706 0.376471
0.090196 0.164706 0.376471
0.2 0.164706 0.376471
0.321569 0.164706 0.376471
0.462745 0.152941 0.372549
0.623529 0.117647 0.364706
0.796078 0.019608 0.352941
0.952941 0 0.337255
1 0 0.32549
0.054902 0.294118 0.372549
0.12549 0.294118 0.372549
0.231373 0.298039 0.368627
0.352941 0.298039 0.368627
0.494118 0.298039 0.360784
0.654902 0.286275 0.352941
0.815686 0.27451 0.341176
0.964706 0.262745 0.32549
1 0.262745 0.305882
0.039216 0.45098 0.34902
0.129412 0.45098 0.34902
0.247059 0.454902 0.34902
0.376471 0.458824 0.345098
0.521569 0.458824 0.337255
0.682353 0.458824 0.32549
0.835294 0.458824 0.309804
0.972549 0.462745 0.294118
1 0.470588 0.27451
0 0.627451 0.305882
0.07451 0.627451 0.305882
0.243137 0.631373 0.301961
0.392157 0.631373 0.298039
0.54902 0.631373 0.290196
0.701961 0.631373 0.278431
0.847059 0.631373 0.262745
0.976471 0.631373 0.247059
1 0.635294 0.227451
0.011765 0.784314 0.247059
0.152941 0.784314 0.247059
0.294118 0.784314 0.243137
0.439216 0.780392 0.235294
0.584314 0.780392 0.227451
0.72549 0.780392 0.215686
0.858824 0.776471 0.2
0.984314 0.776471 0.180392
1 0.776471 0.160784
0.278431 0.909804 0.172549
0.321569 0.909804 0.172549
0.403922 0.909804 0.168627
0.517647 0.905882 0.160784
0.639216 0.905882 0.152941
0.760784 0.901961 0.137255
0.882353 0.898039 0.117647
0.996078 0.894118 0.094118
1 0.894118 0.058824
0.454902 1 0.090196
0.478431 1 0.090196
0.533333 1 0.082353
0.611765 1 0.07451
0.709804 1 0.058824
0.811765 0.996078 0.035294
0.917647 0.992157 0.015686
1 0.988235 0
1 0.984314 0
0 0 0.533333
0 0 0.533333
0.12549 0 0.533333
0.286275 0 0.537255
0.443137 0 0.533333
0.615686 0 0.529412
0.792157 0 0.517647
0.952941 0 0.505882
1 0 0.494118
0 0.054902 0.533333
0 0.05098 0.537255
0.145098 0.039216 0.537255
0.301961 0.007843 0.537255
0.454902 0 0.533333
0.623529 0 0.52549
0.8 0 0.517647
0.956863 0 0.505882
1 0 0.494118
0 0.164706 0.537255
0.015686 0.164706 0.537255
0.188235 0.164706 0.537255
0.329412 0.156863 0.537255
0.478431 0.141176 0.529412
0.643137 0.098039 0.521569
0.811765 0 0.513725
0.964706 0 0.501961
1 0 0.486275
0.003922 0.298039 0.533333
0.113725 0.298039 0.533333
0.231373 0.298039 0.529412
0.364706 0.298039 0.529412
0.509804 0.294118 0.521569
0.67451 0.282353 0.513725
0.831373 0.266667 0.501961
0.976471 0.258824 0.490196
1 0.262745 0.47451
0.070588 0.454902 0.513725
0.14902 0.454902 0.513725
0.266667 0.454902 0.509804
0.396078 0.458824 0.505882
0.545098 0.458824 0.498039
0.701961 0.458824 0.490196
0.847059 0.458824 0.478431
0.980392 0.462745 0.466667
1 0.470588 0.45098
0.05098 0.631373 0.478431
0.152941 0.631373 0.478431
0.282353 0.631373 0.47451
0.423529 0.631373 0.470588
0.572549 0.631373 0.462745
0.721569 0.631373 0.454902
0.858824 0.631373 0.443137
0.988235 0.631373 0.431373
1 0.635294 0.419608
0.172549 0.784314 0.435294
0.235294 0.784314 0.435294
0.345098 0.780392 0.431373
0.47451 0.780392 0.427451
0.607843 0.780392 0.423529
0.745098 0.776471 0.415686
0.870588 0.776471 0.407843
0.992157 0.776471 0.396078
1 0.776471 0.384314
0.337255 0.909804 0.396078
0.372549 0.905882 0.392157
0.447059 0.905882 0.392157
0.545098 0.905882 0.388235
0.658824 0.901961 0.384314
0.776471 0.898039 0.376471
0.894118 0.898039 0.368627
1 0.894118 0.360784
1 0.894118 0.352941
0.490196 1 0.360784
0.509804 1 0.360784
0.560784 1 0.360784
0.635294 1 0.356863
0.72549 1 0.352941
0.827451 0.996078 0.34902
0.92549 0.992157 0.341176
1 0.988235 0.333333
1 0.984314 0.329412
0 0 0.694118
0 0 0.694118
0.082353 0 0.694118
0.294118 0 0.690196
0.462745 0 0.682353
0.639216 0 0.67451
0.811765 0 0.662745
0.964706 0 0.65098
1 0 0.639216
0 0.031373 0.694118
0 0.027451 0.694118
0.121569 0.007843 0.694118
0.309804 0 0.690196
0.47451 0 0.682353
0.65098 0 0.670588
0.819608 0 0.658824
0.968627 0 0.647059
1 0 0.635294
0 0.164706 0.690196
0 0.160784 0.690196
0.184314 0.156863 0.686275
0.341176 0.14902 0.682353
0.501961 0.12549 0.678431
0.670588 0.062745 0.666667
0.831373 0 0.654902
0.976471 0 0.643137
1 0 0.627451
0 0.298039 0.678431
0.117647 0.298039 0.678431
0.247059 0.298039 0.67451
0.384314 0.298039 0.670588
0.537255 0.290196 0.662745
0.698039 0.278431 0.654902
0.847059 0.262745 0.643137
0.988235 0.254902 0.631373
1 0.262745 0.615686
0.12549 0.458824 0.654902
0.188235 0.458824 0.654902
0.298039 0.458824 0.65098
0.427451 0.458824 0.647059
0.572549 0.458824 0.639216
0.721569 0.454902 0.631373
0.862745 0.458824 0.619608
0.992157 0.462745 0.607843
1 0.470588 0.592157
0.172549 0.631373 0.619608
0.227451 0.631373 0.619608
0.333333 0.631373 0.615686
0.462745 0.631373 0.611765
0.603922 0.631373 0.607843
0.741176 0.627451 0.6
0.87451 0.627451 0.588235
0.996078 0.631373 0.576471
1 0.635294 0.564706
0.27451 0.780392 0.580392
0.317647 0.780392 0.580392
0.4 0.780392 0.580392
0.513725 0.780392 0.576471
0.639216 0.776471 0.568627
0.764706 0.776471 0.564706
0.886275 0.772549 0.556863
1 0.772549 0.545098
1 0.776471 0.537255
0.4 0.905882 0.545098
0.427451 0.905882 0.545098
0.490196 0.905882 0.541176
0.580392 0.901961 0.541176
0.686275 0.901961 0.537255
0.796078 0.898039 0.529412
0.905882 0.894118 0.52549
1 0.894118 0.517647
1 0.894118 0.509804
0.529412 1 0.513725
0.54902 1 0.513725
0.592157 1 0.513725
0.662745 1 0.509804
0.74902 0.996078 0.509804
0.843137 0.992157 0.501961
0.937255 0.988235 0.498039
1 0.984314 0.494118
1 0.984314 0.490196
0 0 0.831373
0 0 0.827451
0.12549 0 0.823529
0.329412 0 0.819608
0.501961 0 0.811765
0.67451 0 0.796078
0.839216 0 0.784314
0.984314 0 0.772549
1 0 0.756863
0 0 0.827451
0 0 0.827451
0.160784 0 0.823529
0.345098 0 0.815686
0.513725 0 0.807843
0.682353 0 0.796078
0.843137 0 0.780392
0.988235 0 0.768627
1 0 0.752941
0 0.156863 0.819608
0.023529 0.152941 0.819608
0.223529 0.145098 0.815686
0.380392 0.133333 0.807843
0.537255 0.098039 0.8
0.701961 0.003922 0.788235
0.854902 0 0.776471
0.992157 0 0.760784
1 0 0.74902
0.109804 0.298039 0.803922
0.180392 0.298039 0.8
0.294118 0.298039 0.8
0.427451 0.294118 0.792157
0.576471 0.282353 0.784314
0.72549 0.270588 0.772549
0.870588 0.258824 0.760784
1 0.25098 0.74902
1 0.262745 0.733333
0.211765 0.458824 0.776471
0.258824 0.458824 0.776471
0.352941 0.458824 0.772549
0.47451 0.458824 0.764706
0.611765 0.458824 0.760784
0.74902 0.454902 0.74902
0.882353 0.458824 0.737255
1 0.462745 0.72549
1 0.470588 0.713725
0.27451 0.631373 0.737255
0.317647 0.631373 0.737255
0.403922 0.631373 0.733333
0.513725 0.631373 0.729412
0.639216 0.627451 0.72549
0.768627 0.627451 0.717647
0.894118 0.627451 0.705882
1 0.631373 0.698039
1 0.635294 0.686275
0.364706 0.780392 0.698039
0.396078 0.780392 0.698039
0.466667 0.780392 0.698039
0.560784 0.776471 0.694118
0.67451 0.776471 0.690196
0.788235 0.776471 0.682353
0.905882 0.772549 0.67451
1 0.772549 0.666667
1 0.776471 0.654902
0.466667 0.901961 0.662745
0.490196 0.901961 0.662745
0.541176 0.901961 0.662745
0.619608 0.901961 0.658824
0.717647 0.898039 0.654902
0.819608 0.894118 0.65098
0.92549 0.894118 0.643137
1 0.890196 0.635294
1 0.890196 0.631373
0.576471 1 0.635294
0.592157 1 0.631373
0.631373 1 0.631373
0.694118 0.996078 0.631373
0.772549 0.992157 0.627451
0.862745 0.992157 0.623529
0.952941 0.988235 0.619608
1 0.984314 0.611765
1 0.980392 0.607843
0 0 0.933333
0.039216 0 0.933333
0.239216 0 0.929412
0.4 0 0.921569
0.560784 0 0.909804
0.721569 0 0.894118
0.870588 0 0.882353
1 0 0.866667
1 0 0.854902
0 0 0.929412
0.113725 0 0.929412
0.262745 0 0.92549
0.415686 0 0.917647
0.572549 0 0.905882
0.729412 0 0.894118
0.87451 0 0.878431
1 0 0.862745
1 0 0.85098
0.137255 0.141176 0.917647
0.203922 0.137255 0.917647
0.313725 0.129412 0.913725
0.447059 0.105882 0.905882
0.596078 0.043137 0.898039
0.745098 0 0.886275
0.886275 0 0.870588
1 0 0.858824
1 0 0.843137
0.243137 0.294118 0.901961
0.286275 0.294118 0.898039
0.372549 0.290196 0.894118
0.494118 0.286275 0.890196
0.627451 0.27451 0.878431
0.764706 0.262745 0.870588
0.898039 0.25098 0.854902
1 0.25098 0.843137
1 0.266667 0.827451
0.321569 0.458824 0.870588
0.356863 0.458824 0.870588
0.431373 0.458824 0.866667
0.541176 0.458824 0.858824
0.658824 0.454902 0.85098
0.784314 0.454902 0.843137
0.909804 0.458824 0.831373
1 0.462745 0.819608
1 0.47451 0.803922
0.388235 0.631373 0.831373
0.415686 0.631373 0.831373
0.482353 0.631373 0.827451
0.576471 0.627451 0.823529
0.686275 0.627451 0.815686
0.803922 0.627451 0.807843
0.917647 0.627451 0.8
1 0.631373 0.788235
1 0.639216 0.780392
0.454902 0.780392 0.792157
0.482353 0.776471 0.792157
0.533333 0.776471 0.788235
0.615686 0.776471 0.784314
0.713725 0.776471 0.780392
0.823529 0.772549 0.776471
0.929412 0.772549 0.768627
1 0.772549 0.756863
1 0.776471 0.74902
0.537255 0.901961 0.756863
0.556863 0.901961 0.752941
0.6 0.901961 0.752941
0.670588 0.898039 0.74902
0.752941 0.898039 0.745098
0.847059 0.894118 0.741176
0.945098 0.894118 0.737255
1 0.890196 0.729412
1 0.890196 0.721569
0.631373 0.996078 0.72549
0.643137 0.996078 0.721569
0.678431 0.996078 0.721569
0.733333 0.996078 0.721569
0.807843 0.992157 0.717647
0.886275 0.988235 0.713725
0.968627 0.984314 0.709804
1 0.984314 0.701961
1 0.980392 0.698039
