site/assets/luts/freshluts--0001054-mexican-food.cube
# LUTr-Schema-Version: 2
# LUTr-ID: freshluts--0001054-mexican-food
# LUTr-Title: Mexican Food
# LUTr-Collection: Fresh LUTs
# LUTr-Collection-ID: freshluts-community
# LUTr-Source: https://freshluts.com
# LUTr-Retrieved: 2026-07-27
# LUTr-Source-File: submissions-raw/freshluts/cubes/1054__Mexican.cube
# LUTr-Source-Format: CUBE
# LUTr-Source-SHA256: 08c6f88d796b1c1f3c2024804937c709344a03aceff8d99d8d2b85d585a0f74a
# LUTr-License: CC0-1.0
# LUTr-License-URL: https://freshluts.com/termsandconditions
# LUTr-License-Basis: site-terms
# LUTr-Transform-Class: creative-look
# LUTr-Tags: creative, freshluts, community, cube, warm, rec709, assumed-input
# LUTr-Input-Color-Space: rec709
# LUTr-Input-Gamut: rec709
# LUTr-Input-Transfer: rec709
# LUTr-Output-Color-Space: srgb
# LUTr-Output-Gamut: rec709
# LUTr-Output-Transfer: srgb
# LUTr-Color-Space-Confidence: assumed-display-referred
# LUTr-Domain-Normalized: true
# LUTr-Shaper: none
# LUTr-Original-Grid: 17x17x17
# LUTr-Conversion-Grid: 17x17x17
# LUTr-Conversion-Interpolation: none
# LUTr-Conversion-Method: Metadata normalization; numeric LUT samples preserved
# LUTr-Conversion-Tool: LUTr scripts/convert-all-to-cube.mjs 2.0.0
# LUTr-Conversion-Date: 2026-07-28
# LUTr-Asset-URL: https://freshluts.com/luts/1054
# LUTr-Author: Gina
# LUTr-Author-URL: https://freshluts.com/users/90727
# LUTr-Attribution: Gina via Fresh LUTs
# LUTr-Source-Labels: gamma=RED Color; color=Warm; key=Neutral; style=Cinematic/Dark; LUTr assumption=input Rec.709 per repository policy
# LUTr-Conversion-Warning: Input Rec.709 is a LUTr catalog assumption requested for this otherwise unspecified Fresh LUT; it is not verified by the upstream asset.
# LUTr-Note: Preserve this metadata and the upstream license notices when redistributing.
# LUTr-Upstream-Comment: Created by Saumyajit Maity on 2019-12-24 13:25:06 +0000
# LUTr-Upstream-Comment: Color Finale Plugin v.1.9.4 (263)
TITLE "Mexican Food"
LUT_3D_SIZE 17
DOMAIN_MIN 0 0 0
DOMAIN_MAX 1 1 1
0.0144 0.026 0.0432
0.0542 0.0226 0.0398
0.0937 0.0192 0.0364
0.1348 0.0204 0.0318
0.1869 0.0158 0.0242
0.2391 0.0157 0.0134
0.3015 0.0094 0.0019
0.3606 0.0032 0
0.4286 0 0
0.5014 0 0
0.5719 0 0
0.649 0 0
0.7224 0 0
0.7943 0 0
0.8635 0 0
0.9353 0 0
1 0 0
0.0078 0.0624 0.0365
0.0476 0.0591 0.0332
0.0871 0.0557 0.0298
0.1293 0.0524 0.026
0.1834 0.0521 0.015
0.2378 0.0493 0.0068
0.3003 0.0455 0
0.3637 0.039 0
0.4316 0.0262 0
0.5039 0.0077 0
0.5782 0 0
0.6577 0 0
0.7322 0 0
0.8056 0 0
0.8768 0 0
0.9462 0 0
1 0 0
0 0.099 0.0304
0.0359 0.0957 0.027
0.0787 0.0957 0.0226
0.1222 0.0927 0.0186
0.1816 0.088 0.0077
0.2336 0.088 0
0.3003 0.0825 0
0.3655 0.0783 0
0.4356 0.0694 0
0.5087 0.0514 0
0.5838 0.0231 0
0.6655 0 0
0.7395 0 0
0.8143 0 0
0.8866 0 0
0.9549 0 0
1 0 0
0 0.138 0.0293
0.0246 0.1361 0.0253
0.0717 0.1322 0.0213
0.1151 0.1306 0.0171
0.177 0.1274 0.001
0.232 0.1246 0
0.3015 0.1212 0
0.3696 0.1173 0
0.4403 0.1087 0
0.5161 0.0951 0
0.5897 0.0799 0
0.6723 0.0459 0
0.7506 0.0264 0
0.8251 0.0168 0
0.8948 0.0125 0
0.966 0.0084 0
1 0.0078 0
0 0.184 0.0269
0 0.1814 0.0213
0.0464 0.1776 0.015
0.096 0.1757 0.0096
0.1686 0.1725 0
0.232 0.1701 0
0.3051 0.1668 0
0.3742 0.1631 0
0.4474 0.1584 0
0.5245 0.1516 0
0.5994 0.1422 0
0.6797 0.1285 0
0.7536 0.1163 0
0.828 0.1015 0
0.9032 0.0955 0
0.97 0.0971 0
1 0.1016 0
0 0.2289 0.0178
0 0.2265 0.015
0.0237 0.2237 0.0119
0.0649 0.2233 0.0078
0.1522 0.2193 0
0.2281 0.2168 0
0.31 0.212 0
0.383 0.2093 0
0.4586 0.2087 0
0.5363 0.206 0
0.6141 0.2029 0
0.6967 0.1936 0
0.7724 0.1883 0
0.8454 0.1813 0
0.9168 0.1806 0
0.9874 0.1811 0
1 0.1838 0
0 0.276 0.0076
0 0.2765 0.0045
0.0114 0.2754 0.0009
0.0465 0.2758 0
0.115 0.275 0
0.2074 0.275 0
0.3132 0.2712 0
0.3946 0.2716 0
0.4744 0.2716 0
0.555 0.2722 0
0.6339 0.2722 0
0.7186 0.268 0
0.7976 0.2637 0
0.8716 0.2615 0
0.9439 0.2601 0
1 0.2611 0
1 0.2628 0
0 0.3258 0
0 0.3266 0
0 0.3252 0
0.0312 0.3268 0
0.0679 0.3305 0
0.1797 0.3311 0
0.308 0.3301 0
0.4014 0.3317 0
0.4873 0.334 0
0.5742 0.3364 0
0.6566 0.3376 0
0.7438 0.3364 0
0.8259 0.3352 0
0.901 0.3323 0
0.9771 0.3325 0
1 0.3343 0
1 0.3378 0
0 0.3744 0
0 0.3758 0
0 0.3766 0
0.0157 0.381 0
0.0547 0.3857 0
0.1185 0.3962 0
0.2929 0.3942 0
0.4004 0.3978 0
0.4953 0.402 0
0.5906 0.4068 0
0.6803 0.4074 0
0.7675 0.4089 0
0.8526 0.4078 0
0.9294 0.4059 0
1 0.4063 0
1 0.4079 0
1 0.4083 0
0 0.427 0
0 0.4253 0
0 0.4293 0
0.0044 0.4336 0
0.0398 0.4426 0
0.0799 0.4553 0
0.2605 0.4603 0
0.392 0.4653 0
0.4924 0.4715 0
0.5953 0.4757 0
0.6891 0.4822 0
0.784 0.4836 0
0.8723 0.4825 0
0.9502 0.4807 0
1 0.4811 0
1 0.4818 0
1 0.4833 0
0 0.4707 0
0 0.4722 0
0 0.4757 0
0 0.4833 0
0.0257 0.4953 0
0.0634 0.5105 0
0.2177 0.5208 0
0.3782 0.5297 0
0.4844 0.539 0
0.5893 0.5468 0
0.6869 0.5539 0
0.7847 0.5554 0
0.8745 0.5557 0
0.9589 0.555 0
1 0.5532 0
1 0.5519 0
1 0.5523 0
0 0.5153 0
0 0.5182 0
0 0.5238 0
0 0.5312 0
0.0127 0.5472 0
0.0474 0.5663 0
0.1683 0.5842 0
0.3644 0.5927 0
0.4744 0.606 0
0.5799 0.6188 0
0.6792 0.6295 0
0.782 0.6329 0
0.876 0.6344 0
0.9526 0.63 0
1 0.6257 0
1 0.6236 0
1 0.6249 0
0 0.555 0
0 0.5587 0
0 0.5646 0
0 0.5746 0
0.0022 0.5931 0
0.0367 0.615 0
0.1565 0.6349 0
0.3529 0.6504 0
0.466 0.6671 0
0.5701 0.6864 0
0.6709 0.6951 0
0.7748 0.7017 0
0.8701 0.7044 0
0.9353 0.6989 0
0.9866 0.6946 0
1 0.6913 0
1 0.688 0
0 0.5914 0
0 0.597 0
0 0.6055 0
0 0.6159 0
0 0.6344 0
0.0278 0.6602 0
0.1452 0.6845 0
0.343 0.7028 0
0.4593 0.7236 0
0.5659 0.745 0
0.6636 0.7567 0
0.7663 0.7669 0
0.8599 0.7693 0
0.9199 0.762 0
0.9763 0.7561 0
1 0.753 0
1 0.7495 0
0 0.6266 0
0 0.6353 0
0 0.646 0
0 0.6602 0
0 0.6775 0
0.0192 0.7077 0
0.1424 0.7316 0
0.3408 0.753 0
0.4571 0.7754 0
0.5595 0.7989 0
0.6549 0.8163 0
0.7594 0.8273 0
0.8482 0.8295 0
0.9069 0.8217 0
0.9637 0.8157 0
1 0.8116 0
1 0.8076 0
0 0.6645 0
0 0.6759 0
0 0.6907 0
0 0.705 0
0 0.7254 0
0.0115 0.7548 0
0.1439 0.784 0
0.343 0.8043 0
0.4528 0.8266 0
0.5543 0.857 0
0.6519 0.8745 0
0.7542 0.883 0
0.8407 0.8845 0
0.8956 0.8799 0
0.9518 0.8737 0
1 0.8657 0
1 0.8621 0
0 0.7112 0
0 0.7242 0
0 0.7407 0
0 0.7567 0
0 0.778 0
0.0072 0.8136 0
0.1868 0.8302 0
0.3489 0.8562 0
0.4546 0.8815 0
0.5523 0.9085 0
0.646 0.9286 0
0.7468 0.9376 0
0.8315 0.9376 0
0.8866 0.9324 0
0.9415 0.9278 0
0.9937 0.9238 0
1 0.9191 0
0.0132 0.0247 0.0847
0.0529 0.0213 0.0814
0.0924 0.0179 0.0781
0.1337 0.0191 0.0736
0.1856 0.0144 0.0689
0.2379 0.0144 0.0581
0.3005 0.0081 0.0439
0.363 0.0013 0.0227
0.4287 0 0
0.5061 0 0
0.575 0 0
0.6524 0 0
0.7266 0 0
0.7989 0 0
0.8694 0 0
0.9407 0 0
1 0 0
0.0065 0.0611 0.0782
0.0463 0.0578 0.0749
0.0859 0.0544 0.0715
0.1276 0.0537 0.0673
0.1821 0.0507 0.0618
0.2368 0.0505 0.0482
0.3026 0.0439 0.0364
0.3653 0.0365 0.0112
0.434 0.0238 0
0.5076 0 0
0.5819 0 0
0.6587 0 0
0.7334 0 0
0.8076 0 0
0.8815 0 0
0.947 0 0
1 0 0
0 0.0976 0.0763
0.0338 0.0979 0.0718
0.0774 0.0944 0.0644
0.1209 0.0917 0.0604
0.18 0.0886 0.0517
0.2325 0.0867 0.0414
0.302 0.0831 0.0275
0.3666 0.0765 0.0024
0.4362 0.0633 0
0.5112 0.0455 0
0.5885 0.0118 0
0.6693 0 0
0.7438 0 0
0.817 0 0
0.8888 0 0
0.9605 0 0
1 0 0
0 0.1384 0.0707
0.0229 0.1348 0.0671
0.0705 0.131 0.0618
0.1137 0.1303 0.0588
0.1756 0.1269 0.0445
0.2322 0.1254 0.035
0.3022 0.1206 0.0209
0.3698 0.1156 0
0.4408 0.1071 0
0.519 0.0919 0
0.5936 0.0724 0
0.6764 0.037 0
0.753 0.0221 0
0.828 0.0154 0
0.901 0.0109 0
0.97 0.0069 0
1 0.0035 0
0 0.1828 0.0686
0 0.18 0.0657
0.042 0.1786 0.0594
0.0945 0.1759 0.0522
0.166 0.1723 0.0386
0.2306 0.171 0.0252
0.3057 0.166 0.0093
0.376 0.1631 0
0.4482 0.1571 0
0.5254 0.1503 0
0.6026 0.1407 0
0.6808 0.1254 0
0.7594 0.11 0
0.8335 0.0974 0
0.9046 0.0932 0
0.9739 0.0929 0
1 0.0962 0
0 0.2277 0.0652
0 0.2253 0.0622
0.0224 0.2225 0.0543
0.0626 0.2237 0.0494
0.1493 0.2194 0.0339
0.2274 0.2173 0.0102
0.309 0.213 0
0.385 0.212 0
0.4579 0.2094 0
0.5382 0.2082 0
0.6174 0.2014 0
0.6995 0.1922 0
0.7767 0.1868 0
0.8497 0.1821 0
0.9222 0.1789 0
0.9921 0.1794 0
1 0.1824 0
0 0.2788 0.0541
0 0.2769 0.0516
0.0066 0.2771 0.0436
0.0448 0.2765 0.0388
0.1123 0.2771 0.0253
0.205 0.2769 0
0.3122 0.2718 0
0.3957 0.2722 0
0.476 0.2739 0
0.5574 0.2748 0
0.6368 0.2724 0
0.7213 0.2701 0
0.8009 0.2655 0
0.8768 0.2622 0
0.9486 0.2607 0
1 0.2609 0
1 0.2652 0
0 0.3277 0.0416
0 0.3264 0.0396
0 0.3277 0.0316
0.0287 0.3291 0.026
0.0657 0.333 0.0124
0.1742 0.3347 0
0.3098 0.3327 0
0.4034 0.3345 0
0.4898 0.3362 0
0.5799 0.3384 0
0.6626 0.3397 0
0.7473 0.3386 0
0.8295 0.3374 0
0.9085 0.3347 0
0.981 0.3345 0
1 0.3364 0
1 0.3397 0
0 0.3768 0.024
0 0.378 0.0207
0 0.3789 0.0125
0.0135 0.383 0.0033
0.0518 0.3891 0
0.1146 0.3983 0
0.2919 0.3988 0
0.4013 0.4025 0
0.4975 0.4039 0
0.5931 0.4087 0
0.683 0.4098 0
0.7705 0.4109 0
0.8555 0.4112 0
0.9368 0.4079 0
1 0.4094 0
1 0.4101 0
1 0.4134 0
0 0.4289 0
0 0.43 0
0 0.4311 0
0.0018 0.4358 0
0.0373 0.4466 0
0.0777 0.459 0
0.2555 0.4649 0
0.3902 0.47 0
0.4938 0.4764 0
0.5974 0.4811 0
0.6918 0.4844 0
0.7873 0.4858 0
0.8752 0.4858 0
0.9573 0.4844 0
1 0.484 0
1 0.4869 0
1 0.4884 0
0 0.4726 0
0 0.4744 0
0 0.4785 0
0 0.4873 0
0.0237 0.4983 0
0.059 0.5145 0
0.2122 0.5258 0
0.3791 0.5326 0
0.4858 0.5422 0
0.5906 0.5532 0
0.6896 0.5574 0
0.7885 0.5612 0
0.8823 0.5612 0
0.9637 0.5591 0
1 0.5587 0
1 0.5561 0
1 0.5554 0
0 0.5178 0
0 0.5205 0
0 0.5266 0
0 0.5337 0
0.0107 0.5502 0
0.0451 0.5706 0
0.1664 0.5867 0
0.3641 0.5989 0
0.4754 0.6128 0
0.5819 0.6257 0
0.6819 0.6334 0
0.786 0.6392 0
0.8792 0.6392 0
0.9502 0.6358 0
1 0.6329 0
1 0.63 0
1 0.6271 0
0 0.5574 0
0 0.5612 0
0 0.5676 0
0 0.5786 0
0.0003 0.5957 0
0.0347 0.6183 0
0.1521 0.6412 0
0.352 0.656 0
0.4675 0.6723 0
0.5727 0.6896 0
0.6709 0.7033 0
0.776 0.7088 0
0.8694 0.71 0
0.9316 0.7022 0
0.9889 0.6978 0
1 0.6946 0
1 0.6924 0
0 0.5927 0
0 0.5999 0
0 0.6068 0
0 0.6188 0
0 0.6378 0
0.0258 0.6636 0
0.1415 0.6874 0
0.3422 0.7066 0
0.461 0.7272 0
0.5646 0.7484 0
0.665 0.7638 0
0.7687 0.7699 0
0.8592 0.7717 0
0.9168 0.7657 0
0.9731 0.7601 0
1 0.7567 0
1 0.753 0
0 0.6285 0
0 0.6358 0
0 0.648 0
0 0.6597 0
0 0.6814 0
0.0173 0.71 0
0.1378 0.7359 0
0.3395 0.7581 0
0.456 0.78 0
0.5591 0.8029 0
0.6582 0.8203 0
0.7626 0.8308 0
0.8475 0.8322 0
0.9046 0.8237 0
0.9605 0.8197 0
1 0.8157 0
1 0.8116 0
0 0.6665 0
0 0.6786 0
0 0.6896 0
0 0.705 0
0 0.7284 0
0.0094 0.7581 0
0.1394 0.784 0
0.3388 0.8076 0
0.4518 0.8315 0
0.5557 0.8555 0
0.6514 0.8737 0
0.7536 0.8866 0
0.8378 0.8896 0
0.894 0.8792 0
0.9494 0.8737 0
1 0.8694 0
1 0.8657 0
0 0.7124 0
0 0.7254 0
0 0.7395 0
0 0.7554 0
0 0.782 0
0.0021 0.8123 0
0.1528 0.8378 0
0.3439 0.8599 0
0.4504 0.8852 0
0.5481 0.9077 0
0.6446 0.9262 0
0.745 0.9353 0
0.8295 0.9415 0
0.8845 0.9309 0
0.9392 0.9262 0
0.9921 0.9222 0
1 0.9175 0
0.0119 0.0234 0.1257
0.0517 0.02 0.1225
0.091 0.0165 0.1224
0.1323 0.0176 0.1189
0.1864 0.0129 0.11
0.2367 0.0129 0.1039
0.3011 0.0065 0.0895
0.3628 0 0.072
0.4323 0 0.0488
0.5061 0 0.0355
0.5782 0 0.0283
0.6533 0 0.0209
0.7278 0 0.0147
0.7983 0 0.0096
0.8737 0 0.0048
0.9439 0 0.0006
1 0 0
0.0051 0.0597 0.1229
0.0418 0.0567 0.1199
0.0845 0.053 0.1168
0.1261 0.0527 0.1128
0.1808 0.0492 0.1076
0.235 0.0491 0.097
0.3018 0.0424 0.0823
0.3648 0.0346 0.0646
0.4345 0.0133 0.0373
0.5116 0 0.0282
0.5846 0 0.0204
0.6621 0 0.0138
0.7365 0 0.0078
0.8103 0 0.0026
0.8815 0 0
0.9526 0 0
1 0 0
0 0.0963 0.1187
0.0325 0.0963 0.1146
0.076 0.093 0.1108
0.1195 0.0904 0.1069
0.1744 0.0897 0.0998
0.2335 0.0862 0.0861
0.3011 0.0819 0.0746
0.367 0.0741 0.0557
0.436 0.0582 0.0238
0.5127 0.0334 0.0133
0.5919 0.0026 0.0104
0.6704 0 0.0027
0.7468 0 0
0.821 0 0
0.894 0 0
0.9629 0 0
1 0 0
0 0.1373 0.12
0.0184 0.1337 0.1137
0.0681 0.1315 0.1072
0.1124 0.1291 0.1011
0.1704 0.127 0.0936
0.2303 0.1243 0.08
0.3028 0.1212 0.0664
0.3688 0.114 0.0471
0.4406 0.1011 0.0131
0.519 0.0868 0.0004
0.5953 0.0578 0
0.6792 0.0278 0
0.7581 0.0189 0
0.8315 0.0138 0
0.9054 0.0093 0
0.9755 0.0047 0
1 0 0
0 0.1814 0.1169
0 0.1808 0.1137
0.037 0.1776 0.1055
0.0874 0.1759 0.0982
0.1624 0.1732 0.0856
0.2293 0.1699 0.0707
0.3038 0.167 0.0567
0.3727 0.1637 0.0352
0.4479 0.154 0
0.5275 0.1454 0
0.6026 0.1348 0
0.6845 0.1158 0
0.762 0.0996 0
0.837 0.0889 0
0.9093 0.085 0
0.9771 0.0852 0
1 0.0881 0
0 0.2264 0.1106
0 0.2254 0.1079
0.02 0.2252 0.1041
0.0598 0.2233 0.0985
0.1442 0.2211 0.0822
0.223 0.219 0.0611
0.3076 0.214 0.046
0.3799 0.2134 0.0193
0.4586 0.2081 0
0.5382 0.2038 0
0.6169 0.1983 0
0.6995 0.1909 0
0.7774 0.1833 0
0.8526 0.1784 0
0.927 0.1747 0
0.9921 0.1759 0
1 0.1778 0
0 0.2786 0.1026
0 0.2786 0.0967
0.0048 0.2771 0.0935
0.0415 0.2788 0.0886
0.1039 0.2786 0.0748
0.2026 0.278 0.0501
0.3094 0.2741 0.016
0.3938 0.2735 0
0.4757 0.2733 0
0.5578 0.2737 0
0.6373 0.2714 0
0.7208 0.2694 0
0.8003 0.2646 0
0.8776 0.2613 0
0.951 0.2596 0
1 0.2598 0
1 0.2643 0
0 0.3295 0.0876
0 0.3289 0.0849
0 0.3289 0.0814
0.025 0.3307 0.0738
0.0633 0.3352 0.0632
0.163 0.3374 0.0396
0.3044 0.3358 0
0.4025 0.3362 0
0.4916 0.338 0
0.579 0.3406 0
0.6626 0.3417 0
0.7506 0.3399 0
0.8342 0.3372 0
0.9101 0.3351 0
0.9834 0.3352 0
1 0.3356 0
1 0.3395 0
0 0.3789 0.0748
0 0.3804 0.0714
0 0.3817 0.0633
0.0109 0.3857 0.0569
0.0491 0.3911 0.0391
0.1067 0.4002 0.0003
0.2877 0.3995 0
0.4011 0.4027 0
0.4964 0.4067 0
0.5961 0.4105 0
0.6855 0.4119 0
0.7742 0.4133 0
0.8613 0.4119 0
0.9376 0.4107 0
1 0.4105 0
1 0.4123 0
1 0.415 0
0 0.4306 0.0545
0 0.432 0.0512
0 0.434 0.043
0 0.4401 0.0319
0.035 0.4471 0
0.0752 0.4614 0
0.2512 0.4675 0
0.3889 0.4726 0
0.4931 0.4785 0
0.5999 0.4836 0
0.6946 0.4869 0
0.7903 0.4884 0
0.8792 0.4884 0
0.9581 0.4865 0
1 0.4865 0
1 0.4891 0
1 0.4898 0
0 0.4767 0.0354
0 0.4785 0.0279
0 0.4822 0.0169
0 0.4891 0
0.0215 0.5006 0
0.0568 0.517 0
0.1933 0.5297 0
0.3758 0.5379 0
0.4851 0.5449 0
0.5897 0.5554 0
0.6913 0.5621 0
0.7916 0.5642 0
0.8823 0.5642 0
0.9652 0.5621 0
1 0.5587 0
1 0.5587 0
1 0.5578 0
0 0.5197 0.0122
0 0.5238 0.002
0 0.5283 0
0 0.5367 0
0.0087 0.5523 0
0.0432 0.5727 0
0.1633 0.5901 0
0.3602 0.6021 0
0.4747 0.6159 0
0.5804 0.6295 0
0.6803 0.6378 0
0.784 0.6426 0
0.8807 0.6426 0
0.947 0.6392 0
1 0.6324 0
1 0.6305 0
1 0.6305 0
0 0.5587 0
0 0.5633 0
0 0.5701 0
0 0.5799 0
0 0.5965 0
0.0326 0.6217 0
0.1452 0.6431 0
0.3479 0.6592 0
0.4649 0.6759 0
0.5706 0.6951 0
0.6733 0.7066 0
0.776 0.7124 0
0.8679 0.7136 0
0.9294 0.7061 0
0.9858 0.7011 0
1 0.6984 0
1 0.6951 0
0 0.594 0
0 0.6003 0
0 0.6081 0
0 0.6208 0
0 0.6402 0
0.0239 0.6655 0
0.1343 0.6913 0
0.3384 0.7088 0
0.4579 0.7311 0
0.5629 0.7518 0
0.664 0.7669 0
0.7699 0.7736 0
0.857 0.7748 0
0.9146 0.7675 0
0.9692 0.7626 0
1 0.7581 0
1 0.7548 0
0 0.6295 0
0 0.6378 0
0 0.6475 0
0 0.6621 0
0 0.6819 0
0.0157 0.7118 0
0.128 0.7371 0
0.3334 0.7594 0
0.4522 0.7827 0
0.5574 0.8056 0
0.6566 0.8223 0
0.7614 0.8322 0
0.846 0.8335 0
0.9025 0.8266 0
0.9581 0.8183 0
1 0.815 0
1 0.811 0
0 0.6687 0.0084
0 0.6803 0
0 0.6907 0
0 0.7044 0
0 0.7272 0
0.0083 0.7574 0
0.1277 0.7847 0
0.3315 0.8076 0
0.4501 0.8288 0
0.5515 0.8555 0
0.6485 0.8737 0
0.7512 0.8859 0
0.8363 0.8881 0
0.8917 0.8799 0
0.9478 0.8723 0
1 0.8679 0
1 0.8635 0
0 0.7147 0.0383
0 0.7316 0.0259
0 0.7444 0.0098
0 0.7581 0
0 0.7787 0
0 0.8103 0
0.1325 0.8342 0
0.3336 0.8555 0
0.4464 0.8799 0
0.5435 0.9054 0
0.6383 0.9246 0
0.7383 0.9338 0
0.8259 0.9353 0
0.883 0.9294 0
0.9376 0.9238 0
0.9905 0.9199 0
1 0.9146 0
0.0105 0.022 0.169
0.0502 0.0186 0.1659
0.0891 0.0189 0.1635
0.1299 0.0164 0.1604
0.1857 0.0115 0.1537
0.2354 0.0115 0.1483
0.2993 0.005 0.138
0.3618 0 0.1217
0.432 0 0.1044
0.505 0 0.0811
0.5773 0 0.07
0.6566 0 0.0599
0.7306 0 0.0528
0.8036 0 0.0475
0.873 0 0.0431
0.9455 0 0.0389
1 0 0.0351
0.0038 0.0584 0.1644
0.0389 0.0555 0.1617
0.0831 0.0517 0.1584
0.1246 0.0529 0.154
0.1795 0.0479 0.1493
0.2322 0.0478 0.1418
0.2991 0.0411 0.1308
0.3642 0.0331 0.1113
0.4336 0.0096 0.0932
0.5116 0 0.0693
0.5846 0 0.0603
0.6645 0 0.0499
0.7407 0 0.0438
0.8143 0 0.0387
0.8866 0 0.0341
0.9573 0 0.03
