site/assets/luts/freshluts--0000272-night-crawler.cube
# LUTr-Schema-Version: 2
# LUTr-ID: freshluts--0000272-night-crawler
# LUTr-Title: Night Crawler
# LUTr-Collection: Fresh LUTs
# LUTr-Collection-ID: freshluts-community
# LUTr-Source: https://freshluts.com
# LUTr-Retrieved: 2026-07-27
# LUTr-Source-File: submissions-raw/freshluts/cubes/272__Night_Crawler_Day_LUT.cube
# LUTr-Source-Format: CUBE
# LUTr-Source-SHA256: 8ca6ea01c1bd33761f30f3c8ed5df57ddde5fc472ec36cdb8f2aed236fd13bce
# LUTr-License: CC0-1.0
# LUTr-License-URL: https://freshluts.com/termsandconditions
# LUTr-License-Basis: site-terms
# LUTr-Transform-Class: creative-look
# LUTr-Tags: creative, freshluts, community, cube, green, linear
# LUTr-Input-Color-Space: linear-rec709
# LUTr-Input-Gamut: rec709
# LUTr-Input-Transfer: linear
# LUTr-Output-Color-Space: srgb
# LUTr-Output-Gamut: rec709
# LUTr-Output-Transfer: srgb
# LUTr-Color-Space-Confidence: inferred-from-source-label
# LUTr-Domain-Normalized: true
# LUTr-Shaper: none
# LUTr-Original-Grid: 33x33x33
# LUTr-Conversion-Grid: 33x33x33
# LUTr-Conversion-Interpolation: none
# LUTr-Conversion-Method: Metadata normalization; numeric LUT samples preserved
# LUTr-Conversion-Tool: LUTr scripts/convert-all-to-cube.mjs 2.0.0
# LUTr-Conversion-Date: 2026-07-28
# LUTr-Asset-URL: https://freshluts.com/luts/272
# LUTr-Author: Colorist Factory
# LUTr-Author-URL: https://freshluts.com/users/7054
# LUTr-Attribution: Colorist Factory via Fresh LUTs
# LUTr-Source-Labels: gamma=linear; color=Green; key=Neutral; style=2010 Films
# LUTr-Note: Preserve this metadata and the upstream license notices when redistributing.
TITLE "Night Crawler"
LUT_3D_SIZE 33
DOMAIN_MIN 0 0 0
DOMAIN_MAX 1 1 1
0.0227817 0.0158846 0.0269474
0.042359 0.016083 0.0264591
0.0624399 0.0167697 0.0249943
0.0838483 0.0174105 0.0226902
0.108888 0.0168917 0.0187686
0.138766 0.0150149 0.0128023
0.169284 0.0100099 0.00358587
0.198749 0.0010071 0
0.227832 0 0
0.258625 0 0
0.291188 0 0
0.324819 0 0
0.358785 0 0
0.392874 0 0
0.427008 0 0
0.461402 0 0
0.495735 0 0
0.530007 0 0
0.563989 0 0
0.597742 0 0
0.631312 0 0
0.663844 0 0
0.695171 0 0
0.72517 0 0
0.751492 0 0
0.777096 0 0
0.80029 0 0
0.821454 0 0
0.840894 0 0
0.859052 0 0
0.876265 0 0
0.892927 0 0
0.908919 0 0
0.0121614 0.0416876 0.016556
0.0309453 0.0424964 0.0176699
0.0486305 0.0439307 0.0176547
0.0692302 0.04448 0.0142977
0.0938125 0.0438697 0.00952163
0.123384 0.0418708 0.00291447
0.155215 0.0384527 0
0.189059 0.0295109 0
0.223362 0.0178225 0
0.257099 0.00866712 0
0.290562 0.00373846 0
0.324498 0.00114443 0
0.358999 0 0
0.394034 0 0
0.428809 0 0
0.463584 0 0
0.498451 0 0
0.53341 0 0
0.567926 0 0
0.601663 0 0
0.634134 0 0
0.66537 0 0
0.695171 0 0
0.723568 0 0
0.750164 0 0
0.774075 0 0
0.795453 0 0
0.814908 0 0
0.832914 0.00205997 0
0.849729 0.00505074 0
0.865675 0.00825513 0
0.88101 0.0114443 0
0.895979 0.014435 0
0.00384527 0.0669108 0.00935378
0.0225376 0.0675975 0.0105135
0.0404364 0.0683909 0.0119326
0.0588235 0.0692607 0.0113069
0.0826123 0.0690013 0.00631724
0.11194 0.0673228 0
0.143893 0.0650645 0
0.179416 0.0578775 0
0.218051 0.0456703 0
0.256092 0.0348669 0
0.291966 0.0290074 0
0.32668 0.0267948 0
0.361929 0.0252079 0
0.39736 0.0237125 0
0.433036 0.0226291 0
0.468803 0.0218357 0
0.504021 0.02121 0
0.538415 0.0207523 0
0.572015 0.0207218 0
0.604303 0.020676 0
0.635462 0.0208133 0
0.665278 0.0211337 0
0.693599 0.0216983 0
0.720592 0.0227817 0
0.745617 0.0239567 0
0.768002 0.0256504 0
0.787961 0.0278172 0
0.806088 0.0303197 0
0.822797 0.0331273 0
0.838392 0.0362097 0
0.853162 0.0391089 0
0.867414 0.0419623 0
0.882002 0.0445716 0
0 0.0919051 0.00172427
0.0141299 0.0926375 0.00306706
0.0328985 0.0933394 0.00462348
0.0516823 0.0940414 0.00588998
0.0738384 0.0941482 0.00381476
0.10309 0.0931106 0
0.135348 0.0912947 0
0.17023 0.0880293 0
0.212512 0.0762188 0
0.255177 0.0640726 0
0.294484 0.0573129 0
0.33077 0.0554513 0
0.366812 0.0546426 0
0.402899 0.0538643 0
0.438483 0.0531777 0
0.473472 0.0526131 0
0.507881 0.0524605 0
0.541085 0.0521553 0
0.57319 0.0519722 0
0.604089 0.051957 0
0.633875 0.0520943 0
0.662165 0.0524605 0
0.689113 0.0532845 0
0.714519 0.0540322 0
0.738079 0.0550851 0
0.75906 0.056672 0
0.777737 0.058732 0
0.794644 0.0611276 0
0.810208 0.0638895 0
0.82472 0.0665446 0
0.838529 0.0692454 0
0.851957 0.0718853 0
0.866758 0.0740063 0
0 0.118334 0
0.00422675 0.119234 0
0.0238041 0.120226 0
0.0443275 0.121309 0
0.0671702 0.121828 0
0.0952773 0.121141 0
0.127916 0.119661 0
0.162982 0.117891 0
0.205432 0.110231 0
0.253162 0.0980087 0
0.296239 0.0898909 0
0.33402 0.087129 0
0.369848 0.0864881 0
0.405264 0.0858778 0
0.439933 0.0853132 0
0.474037 0.0850385 0
0.507042 0.0846418 0
0.538994 0.0843366 0
0.570047 0.084062 0
0.600229 0.0837873 0
0.628 0.0840009 0
0.654658 0.0846265 0
0.680079 0.085069 0
0.704082 0.0856947 0
0.726329 0.0866102 0
0.74612 0.0879835 0
0.763653 0.0901045 0
0.779492 0.092256 0
0.794095 0.0945907 0
0.807797 0.0970016 0
0.820844 0.099443 0
0.83386 0.101793 0
0.849104 0.103639 0
0 0.147753 0
0 0.149081 0
0.0136721 0.150393 0
0.0357061 0.151629 0
0.0605325 0.1523 0
0.0895552 0.152148 0
0.122179 0.151247 0
0.157992 0.149584 0
0.196979 0.146746 0
0.2477 0.134142 0
0.293843 0.124834 0
0.333104 0.12079 0
0.3682 0.120073 0
0.402823 0.1196 0
0.436561 0.119097 0
0.469352 0.118532 0
0.501396 0.117922 0
0.532753 0.117266 0
0.563272 0.116609 0
0.592935 0.116182 0
0.617533 0.116899 0
0.642222 0.117235 0
0.666377 0.117464 0
0.689128 0.117861 0
0.710201 0.118547 0
0.728954 0.119951 0
0.745556 0.121538 0
0.760555 0.123445 0
0.774578 0.125582 0
0.787686 0.127749 0
0.800198 0.129961 0
0.813092 0.132128 0
0.828809 0.133425 0
0 0.179049 0
0 0.181216 0
0.00642405 0.18294 0
0.0300603 0.184176 0
0.0567941 0.184543 0
0.0872969 0.183902 0
0.120394 0.182879 0
0.156359 0.181308 0
0.194263 0.178943 0
0.242069 0.169543 0
0.289403 0.160021 0
0.329702 0.155062 0
0.364462 0.15407 0
0.398016 0.153384 0
0.430808 0.152544 0
0.463127 0.151598 0
0.494804 0.150576 0
0.525643 0.149477 0
0.555673 0.148547 0
0.58265 0.148165 0
0.604852 0.148989 0
0.627756 0.14931 0
0.650629 0.149355 0
0.672343 0.149493 0
0.692454 0.150164 0
0.710277 0.151095 0
0.726162 0.152468 0
0.740627 0.154086 0
0.75404 0.155901 0
0.76672 0.158068 0
0.77911 0.160037 0
0.792111 0.161761 0
0.808392 0.162615 0
0 0.204608 0
0 0.211765 0
0.00178531 0.215656 0
0.0267643 0.216602 0
0.0551156 0.216571 0
0.08748 0.215488 0
0.12166 0.214054 0
0.157382 0.212009 0
0.194705 0.209461 0
0.238117 0.203082 0
0.28452 0.194308 0
0.324941 0.189319 0
0.35935 0.187579 0
0.392447 0.186358 0
0.424979 0.185 0
0.456916 0.183536 0
0.488182 0.182116 0
0.518608 0.180682 0
0.547845 0.179126 0
0.57023 0.179522 0
0.59086 0.18024 0
0.612207 0.180468 0
0.633799 0.180529 0
0.654551 0.180529 0
0.673884 0.180713 0
0.691096 0.181384 0
0.706477 0.182498 0
0.720516 0.183932 0
0.733547 0.185748 0
0.746212 0.187503 0
0.758587 0.189273 0
0.772076 0.190738 0
0.789105 0.191318 0
0 0.227115 0
0 0.233982 0
0.00802625 0.240803 0
0.0278935 0.24686 0
0.0557259 0.248341 0
0.0893873 0.246601 0
0.124208 0.244404 0
0.159762 0.242008 0
0.196109 0.239368 0
0.236652 0.234333 0
0.280293 0.227359 0
0.31902 0.222477 0
0.354345 0.219806 0
0.387182 0.218036 0
0.419394 0.216129 0
0.450965 0.214206 0
0.481758 0.212253 0
0.511406 0.210193 0
0.538018 0.20885 0
0.556359 0.209995 0
0.575769 0.210529 0
0.595865 0.210742 0
0.616342 0.21062 0
0.636316 0.210285 0
0.655039 0.210239 0
0.671763 0.210727 0
0.686839 0.211643 0
0.70074 0.213077 0
0.713848 0.214542 0
0.726543 0.216129 0
0.739254 0.217746 0
0.753246 0.219089 0
0.771572 0.219532 0
0 0.254063 0
0 0.25864 0
0.020325 0.263645 0
0.0422675 0.268818 0
0.0661784 0.272923 0
0.0941329 0.275212 0
0.126818 0.274266 0
0.161959 0.271672 0
0.197314 0.268956 0
0.237293 0.263767 0
0.276463 0.258457 0
0.312566 0.254429 0
0.344472 0.252338 0
0.37554 0.250431 0
0.41445 0.24593 0
0.445441 0.243381 0
0.475364 0.240879 0
0.503838 0.238529 0
0.524056 0.238712 0
0.54168 0.239628 0
0.56022 0.240131 0
0.579324 0.240101 0
0.598779 0.239765 0
0.618204 0.239277 0
0.6365 0.239094 0
0.653101 0.23949 0
0.668193 0.24036 0
0.682063 0.24152 0
0.695491 0.242863 0
0.708659 0.244343 0
0.721798 0.245945 0
0.736843 0.247333 0
0.75642 0.247578 0
0 0.287236 0
0.00228885 0.289631 0
0.0268254 0.292332 0
0.0510872 0.295155 0
0.0771191 0.297459 0
0.106188 0.29868 0
0.136675 0.298833 0
0.168963 0.297948 0
0.202777 0.295445 0
0.237797 0.291966 0
0.272602 0.288273 0
0.305501 0.285191 0
0.335714 0.283162 0
0.365011 0.281422 0
0.393133 0.279484 0
0.42385 0.276402 0
0.45864 0.271626 0
0.4878 0.268482 0
0.509087 0.267842 0
0.526436 0.268513 0
0.54432 0.268681 0
0.562799 0.268498 0
0.581689 0.268009 0
0.600778 0.267491 0
0.618845 0.267201 0
0.635416 0.267506 0
0.650614 0.268223 0
0.664958 0.269291 0
0.678843 0.270634 0
0.692592 0.272175 0
0.706722 0.273991 0
0.722759 0.275303 0
0.743908 0.275502 0
0 0.322072 0
0.000701915 0.323812 0
0.025864 0.325429 0
0.051545 0.326665 0
0.0797284 0.32694 0
0.110567 0.326375 0
0.141802 0.325734 0
0.1729 0.324437 0
0.204379 0.322499 0
0.236118 0.320027 0
0.267445 0.317357 0
0.297398 0.314977 0
0.326482 0.312917 0
0.35462 0.310643 0
0.38175 0.308415 0
0.407889 0.306264 0
0.433494 0.304082 0
0.461479 0.301076 0
0.487694 0.298283 0
0.50959 0.296849 0
0.528511 0.296345 0
0.546777 0.296025 0
0.565347 0.295567 0
0.584253 0.295186 0
0.602502 0.294896 0
0.619516 0.295079 0
0.635157 0.295842 0
0.650004 0.297017 0
0.664805 0.298466 0
0.6795 0.300267 0
0.694377 0.30193 0
0.711849 0.30341 0
0.734432 0.303792 0
0 0.35581 0
0 0.357015 0
0.0237888 0.358144 0
0.0491035 0.358862 0
0.0770123 0.358785 0
0.107973 0.357397 0
0.139254 0.355505 0
0.170214 0.353399 0
0.200702 0.351125 0
0.230655 0.34873 0
0.260151 0.346426 0
0.288808 0.343923 0
0.316747 0.34136 0
0.343923 0.338811 0
0.370184 0.336339 0
0.395483 0.333989 0
0.420066 0.33196 0
0.443687 0.329885 0
0.467185 0.327733 0
0.490608 0.325567 0
0.511925 0.324086 0
0.531533 0.323247 0
0.550286 0.322759 0
0.569299 0.322271 0
0.5879 0.322057 0
0.605356 0.322408 0
0.62182 0.323262 0
0.637537 0.324651 0
0.653284 0.326482 0
0.66923 0.328344 0
0.685573 0.330434 0
0.704356 0.33225 0
0.728801 0.332952 0
0 0.38819 0
0 0.388876 0
0.0217288 0.389487 0
0.0467994 0.389822 0
0.0741131 0.389151 0
0.104326 0.387182 0
0.134859 0.384817 0
0.165042 0.382269 0
0.194675 0.379599 0
0.223896 0.376974 0
0.252354 0.374197 0
0.280034 0.371344 0
0.307027 0.368505 0
0.333394 0.365774 0
0.358831 0.363104 0
0.383536 0.3608 0
0.407431 0.35848 0
0.430564 0.356359 0
0.452918 0.354482 0
0.474632 0.35285 0
0.496391 0.351461 0
0.517128 0.350378 0
0.536889 0.349752 0
0.556512 0.349371 0
0.575799 0.349355 0
0.594034 0.349935 0
0.611368 0.351232 0
0.628122 0.352773 0
0.645121 0.354742 0
0.662333 0.357015 0
0.680217 0.359503 0
0.700755 0.361746 0
0.727214 0.363195 0
0 0.419028 0
0 0.41915 0
0.0201114 0.419409 0
0.0445563 0.419104 0
0.0711986 0.417853 0
0.10071 0.415412 0
0.130495 0.412589 0
0.160006 0.409705 0
0.188907 0.406775 0
0.217151 0.403693 0
0.244739 0.40061 0
0.271626 0.397574 0
0.297841 0.394598 0
0.323522 0.391836 0
0.348379 0.389197 0
0.372412 0.386709 0
0.395895 0.384405 0
0.418738 0.382345 0
0.440955 0.38056 0
0.462593 0.379095 0
0.48397 0.37792 0
0.505028 0.37705 0
0.525673 0.376547 0
0.54609 0.376425 0
0.566171 0.376761 0
0.585626 0.377935 0
0.604257 0.379446 0
0.622354 0.381537 0
0.640726 0.383978 0
0.659693 0.386709 0
0.679225 0.389654 0
0.701488 0.392615 0
0.728649 0.39411 0
0 0.44828 0
0 0.44802 0
0.0184634 0.447562 0
0.0424353 0.446754 0
0.068513 0.445029 0
0.0973373 0.442176 0
0.126467 0.439048 0
0.155184 0.435874 0
0.1832 0.432563 0
0.21062 0.429221 0
0.237491 0.426001 0
0.2636 0.422766 0
0.289189 0.419806 0
0.314214 0.416999 0
0.338521 0.414343 0
0.362158 0.411948 0
0.385382 0.409796 0
0.408118 0.407919 0
0.430472 0.406577 0
0.452415 0.405371 0
0.474189 0.404471 0
0.495796 0.403967 0
0.517296 0.403845 0
0.538689 0.404135 0
0.559915 0.404959 0
0.580468 0.406409 0
0.600443 0.408499 0
0.620127 0.411139 0
0.640284 0.41413 0
0.660853 0.41767 0
0.681376 0.420951 0
0.703471 0.42385 0
0.730419 0.425483 0
0 0.475898 0
0 0.474968 0
0.0171054 0.474037 0
0.040528 0.472801 0
0.0660105 0.47068 0
0.0944228 0.467613 0
0.122713 0.464134 0
0.150576 0.460609 0
0.17789 0.45713 0
0.204669 0.453696 0
0.230915 0.450416 0
0.256626 0.447379 0
0.281621 0.444419 0
0.306157 0.441657 0
0.330129 0.439185 0
0.353536 0.437018 0
0.376608 0.435065 0
0.399512 0.433616 0
0.422004 0.432471 0
0.444404 0.431678 0
0.466819 0.431235 0
0.489204 0.43122 0
0.511742 0.431815 0
0.534401 0.432776 0
0.556954 0.43418 0
0.579019 0.436255 0
0.600687 0.43888 0
0.621576 0.441871 0
0.642374 0.445396 0
0.662928 0.448737 0.000411994
0.683299 0.452094 0.002121
0.705364 0.455039 0.00302129
0.73225 0.456718 0.00248722
0 0.501732 0
0 0.500389 0
0.016144 0.499062 0
0.0391394 0.497459 0
0.064271 0.495186 0
0.091722 0.491737 0
0.119341 0.488075 0
0.146502 0.484474 0
0.173114 0.480842 0
0.199313 0.477409 0
0.225116 0.474281 0
0.250233 0.471275 0
0.274876 0.468482 0
0.299138 0.46598 0
0.322911 0.463828 0
0.346395 0.462119 0
0.369772 0.460777 0
0.39292 0.459709 0
0.415869 0.459068 0
0.438895 0.458778 0
0.462028 0.458824 0
0.485664 0.459678 0
0.509361 0.460761 0
0.53344 0.462303 0
0.557595 0.464424 0
0.580819 0.467063 0
0.60296 0.47013 0.000335698
0.624201 0.473411 0.0019379
0.644862 0.476707 0.00354009
0.665248 0.48011 0.00518807
0.685634 0.483314 0.0068513
0.707683 0.486244 0.00787366
0.734524 0.488228 0.00737011
0 0.525963 0
0 0.524239 0
0.0156558 0.522622 0
0.0383307 0.520928 0
0.0626993 0.518303 0
0.0895552 0.514733 0
0.116533 0.51104 0.000411994
0.143084 0.507439 0.00132753
0.169451 0.504128 0.00239567
0.195178 0.500847 0.00303655
0.220447 0.49781 0.00357061
0.245197 0.495094 0.00402838
0.269627 0.492561 0.00419623
0.293767 0.490394 0.00427253
0.317632 0.488884 0.00459297
0.341314 0.487602 0.00453193
0.36495 0.486732 0.0043946
0.388602 0.486275 0.00419623
0.412238 0.486305 0.00401312
0.436255 0.486824 0.00384527
0.460761 0.487907 0.00378424
0.485481 0.489311 0.00357061
0.510567 0.491218 0.00340276
0.535439 0.493172 0.00314336
0.559899 0.49546 0.00329595
0.583246 0.498253 0.00389105
0.605554 0.501335 0.00529488
0.626688 0.504555 0.00675975
0.647227 0.507912 0.00839246
0.667765 0.511269 0.0101015
0.688289 0.514687 0.0118257
0.710369 0.517937 0.0131838
0.737224 0.519768 0.012604
0 0.548852 0
0 0.547082 0
0.0160067 0.545281 0
0.037995 0.543282 0
0.061738 0.540673 0.00173953
0.087892 0.537026 0.0030518
0.114275 0.533425 0.00421149
0.140581 0.530129 0.00553903
0.166323 0.526909 0.00646983
0.191684 0.523949 0.00727855
0.216709 0.521279 0.00794995
0.24126 0.51899 0.00854505
0.265782 0.517037 0.00894179
0.290272 0.515679 0.00947585
0.314214 0.514611 0.0096437
0.338293 0.513985 0.00965896
0.362295 0.513649 0.0093843
0.386664 0.513954 0.00921645
0.411246 0.514855 0.00907912
0.436515 0.51635 0.00900282
0.462135 0.51812 0.00866712
0.4878 0.520119 0.0083772
0.513161 0.522225 0.00823987
0.538262 0.524407 0.00823987
0.563104 0.527001 0.0087892
0.586236 0.529564 0.00920119
0.60827 0.53257 0.0103456
0.629328 0.535714 0.0117037
0.650004 0.539086 0.0135653
0.670542 0.542626 0.015198
0.691173 0.546212 0.0170748
0.7131 0.549249 0.0184634
0.73962 0.551156 0.0177615
0 0.570733 0
0 0.568734 0
0.0165866 0.566888 0.000213626
0.038056 0.56495 0.00328069
0.0613413 0.562387 0.00582895
0.0870985 0.55906 0.00741588
0.113283 0.555871 0.00900282
0.138933 0.552728 0.010132
0.164355 0.549905 0.0112001
0.18938 0.54728 0.0120089
0.214252 0.545159 0.0128328
0.239048 0.543633 0.0137789
0.263722 0.542321 0.0142672
0.288319 0.541482 0.0146029
0.312749 0.541207 0.0148623
0.337423 0.54139 0.0149081
0.362371 0.542077 0.0148165
0.387778 0.543572 0.0148928
0.413428 0.545144 0.0144198
0.439353 0.547127 0.0140993
0.465171 0.54905 0.0137484
0.490837 0.551095 0.0135195
0.516197 0.553231 0.0134279
0.541482 0.555703 0.0136568
0.565942 0.558114 0.0138705
0.589212 0.56083 0.014435
0.6112 0.563851 0.0155642
0.632486 0.567041 0.0171664
0.653101 0.57055 0.0189517
0.67364 0.574121 0.0205997
0.69424 0.577569 0.0225071
0.71577 0.58056 0.0236515
0.742092 0.582483 0.0229801
0 0.591745 0
0 0.589807 0.00137331
0.0177157 0.588006 0.00457771
0.0388647 0.586206 0.0078584
0.061799 0.584024 0.0105898
0.0871443 0.581109 0.0123598
0.112734 0.578225 0.0137636
0.138125 0.575631 0.0150301
0.163348 0.573373 0.0161593
0.188388 0.571496 0.0171817
0.213397 0.57026 0.0183108
0.238148 0.569162 0.0189364
0.263142 0.568658 0.019501
0.28806 0.568673 0.0198825
0.313252 0.569238 0.0200504
0.33875 0.570352 0.0200504
0.364935 0.572305 0.0201724
0.39089 0.574258 0.0199588
0.416892 0.576196 0.0196689
0.442771 0.578164 0.0193942
0.468605 0.580209 0.0191501
0.49427 0.5823 0.0189822
0.519631 0.584527 0.018967
0.544686 0.58677 0.0189975
0.569085 0.589181 0.0191653
0.59234 0.591913 0.0197757
0.614481 0.594919 0.0210727
0.635874 0.598474 0.0228122
0.656382 0.601892 0.024506
0.67686 0.605325 0.0260471
0.697353 0.608774 0.0279393
0.718929 0.611948 0.0292515
0.745174 0.613977 0.0287022
0 0.612314 0.00299077
0 0.610559 0.00636301
0.019791 0.609079 0.00985733
0.040528 0.607782 0.0133059
0.0630045 0.605844 0.0157168
0.0879988 0.603372 0.0175479
0.113313 0.601053 0.0190433
0.138537 0.59913 0.0204013
0.163668 0.59762 0.021622
0.188861 0.59678 0.0229801
0.214008 0.596185 0.0238651
0.239231 0.596109 0.024567
0.264698 0.596582 0.0250248
0.290288 0.59765 0.0253147
0.316411 0.59939 0.0255131
0.342519 0.60119 0.025391
0.368536 0.603113 0.0253758
0.394644 0.605066 0.0252842
0.420661 0.60705 0.0251164
0.44651 0.609049 0.024918
0.472526 0.611337 0.0249485
0.498146 0.613458 0.0248264
0.523461 0.615656 0.0247654
0.548486 0.617929 0.0247807
0.5729 0.620371 0.0249638
0.596231 0.623026 0.0257877
0.618357 0.626261 0.0271
0.63949 0.629618 0.0286564
0.659861 0.632929 0.0302129
0.680461 0.636301 0.0318456
0.700725 0.639765 0.0335699
0.72224 0.642969 0.0349126
0.748669 0.645212 0.0345922
0 0.632761 0.00843824
0.00218204 0.631449 0.0120394
0.0224613 0.630533 0.0157168
0.0429389 0.629618 0.0189517
0.0651713 0.628367 0.0215915
0.0898299 0.626627 0.0234073
0.114961 0.625116 0.024918
0.140078 0.624048 0.0263523
0.165194 0.623453 0.0276188
0.190524 0.623331 0.0286412
0.216022 0.623758 0.0294957
0.241779 0.62472 0.0301061
0.267796 0.626261 0.030518
0.294347 0.62826 0.0309148
0.320729 0.630213 0.0311437
0.346853 0.63212 0.03122
0.373022 0.634028 0.0311894
0.3991 0.635966 0.0310826
0.42501 0.637949 0.0308843
0.450919 0.640055 0.0308232
0.476692 0.642176 0.0306859
0.502235 0.644282 0.0305638
0.527489 0.646464 0.0305486
0.552499 0.648722 0.0306554
0.576944 0.651164 0.0310216
0.600397 0.654185 0.0319982
0.622293 0.657221 0.0331273
0.64329 0.660502 0.0346075
0.663798 0.663951 0.0363012
0.684382 0.667369 0.0379492
0.704921 0.671107 0.0399176
0.726329 0.67422 0.0411688
0.752316 0.676188 0.0406653
0 0.653666 0.0149386
0.00611887 0.652842 0.0185092
0.0260624 0.652399 0.0219577
0.0461585 0.652201 0.0252232
0.0680095 0.651743 0.0278935
0.0925002 0.650874 0.0297093
0.117678 0.650385 0.0313268
0.143023 0.650446 0.0328374
0.168429 0.650858 0.0339513
0.19408 0.651804 0.0348669
0.220096 0.653376 0.0355993
0.246082 0.655116 0.0360571
0.272663 0.657115 0.0366369
0.299077 0.658915 0.0368963
0.325246 0.660807 0.0371557
0.351537 0.662684 0.0372625
0.377752 0.664607 0.0373083
0.404013 0.666712 0.0374304
0.430076 0.668803 0.0374762
0.455848 0.670848 0.0373999
0.481544 0.672938 0.0373388
0.507118 0.675059 0.0372778
0.532433 0.677241 0.0372625
0.557519 0.679683 0.0375067
0.581933 0.682185 0.0378882
0.60502 0.684855 0.0385443
0.626642 0.687846 0.0396429
0.647639 0.691096 0.041062
0.668147 0.694469 0.0425269
0.688777 0.698131 0.0445563
0.709133 0.701534 0.0461891
0.730419 0.704509 0.047303
0.755978 0.706172 0.04654
0 0.675059 0.0227207
0.0114595 0.674937 0.0261234
0.0311437 0.675273 0.0297246
0.0510567 0.675944 0.0328069
0.072755 0.676234 0.0352483
0.0973678 0.676585 0.0372015
0.122499 0.677119 0.0386358
0.147936 0.678187 0.0398718
0.173556 0.67985 0.0409247
0.199557 0.681712 0.0417487
0.225818 0.683619 0.0425116
0.252277 0.685649 0.0432898
0.27863 0.68748 0.0437476
0.305043 0.689311 0.0441138
0.331411 0.691142 0.0443732
0.357656 0.692927 0.0445869
0.383795 0.69482 0.0447395
0.409979 0.696941 0.0449378
0.435981 0.698924 0.0449531
0.461799 0.700938 0.0449073
0.48748 0.702968 0.0448005
0.512947 0.705119 0.0447395
0.538323 0.70753 0.0449836
0.563317 0.709865 0.0451667
0.587747 0.7122 0.0454261
0.610712 0.714931 0.0461891
0.632578 0.717952 0.0473182
0.653483 0.721172 0.0485084
0.674022 0.724605 0.0501564
0.693889 0.727672 0.0514992
0.713878 0.730617 0.052903
0.735012 0.733272 0.0536507
0.760357 0.734752 0.0526741
0 0.697215 0.0313268
0.0180972 0.697978 0.034699
0.0374609 0.69929 0.0381628
0.0572519 0.700969 0.0413367
0.0793164 0.702785 0.0439307
0.103807 0.704143 0.0455787
0.129107 0.705898 0.0468605
0.154742 0.70782 0.0479438
0.180438 0.709575 0.0487831
0.206546 0.711513 0.0496986
0.232822 0.713603 0.0506905
0.259129 0.715404 0.0514229
0.285588 0.717159 0.0519417
0.312078 0.718975 0.0523384
0.338354 0.720851 0.0527047
0.36495 0.722988 0.0531777
0.391196 0.724834 0.0532998
0.417319 0.726726 0.0533608
0.443275 0.72874 0.0533608
0.469032 0.7308 0.0532845
0.494804 0.732921 0.0533455
0.520409 0.735149 0.0534524
0.545556 0.737316 0.0534981
0.570428 0.739528 0.0536049
0.594522 0.741787 0.0537575
0.61738 0.744244 0.0542458
0.638987 0.747005 0.0551308
0.659785 0.749874 0.0563821
0.679805 0.752789 0.057557
0.699474 0.755673 0.058732
0.71899 0.758434 0.0597848
0.740017 0.760662 0.06009
0.765301 0.762066 0.0589303
0.00587472 0.721126 0.040528
0.0254063 0.722911 0.043595
0.0449531 0.725567 0.0471656
0.0644694 0.728435 0.0502022
0.0862898 0.731243 0.0524758
0.110872 0.733486 0.0540322
0.136248 0.735531 0.0553445
0.161944 0.737469 0.0564889
0.188067 0.739651 0.0577707
