site/assets/luts/freshluts--0001055-picturefx-ntflx-drk-i.cube
# LUTr-Schema-Version: 2
# LUTr-ID: freshluts--0001055-picturefx-ntflx-drk-i
# LUTr-Title: PictureFX NTFLX DRK I
# LUTr-Collection: Fresh LUTs
# LUTr-Collection-ID: freshluts-community
# LUTr-Source: https://freshluts.com
# LUTr-Retrieved: 2026-07-27
# LUTr-Source-File: submissions-raw/freshluts/cubes/1055__PictureFX-NTFLX-DRK-GRN-25.cube
# LUTr-Source-Format: CUBE
# LUTr-Source-SHA256: ec6ad80dd08352d55fba2f21b0049cb642b8cfe4265d3f4ddf6c9af4ae988997
# LUTr-License: CC0-1.0
# LUTr-License-URL: https://freshluts.com/termsandconditions
# LUTr-License-Basis: site-terms
# LUTr-Transform-Class: creative-look
# LUTr-Tags: creative, freshluts, community, cube, film-emulation, green
# LUTr-Input-Color-Space:
# LUTr-Input-Gamut: unspecified
# LUTr-Input-Transfer: unspecified
# LUTr-Output-Color-Space: srgb
# LUTr-Output-Gamut: rec709
# LUTr-Output-Transfer: srgb
# LUTr-Color-Space-Confidence: camera-profile-input-required
# LUTr-Domain-Normalized: true
# LUTr-Shaper: none
# LUTr-Original-Grid: 25x25x25
# LUTr-Conversion-Grid: 25x25x25
# LUTr-Conversion-Interpolation: none
# LUTr-Conversion-Method: Metadata normalization; numeric LUT samples preserved
# LUTr-Conversion-Tool: LUTr scripts/convert-all-to-cube.mjs 2.0.0
# LUTr-Conversion-Date: 2026-07-28
# LUTr-Asset-URL: https://freshluts.com/luts/1055
# LUTr-Author: MarcR.
# LUTr-Author-URL: https://freshluts.com/users/86490
# LUTr-Attribution: MarcR. via Fresh LUTs
# LUTr-Source-Labels: gamma=Other; color=Green; key=Neutral; style=Film emulation
# LUTr-Note: Preserve this metadata and the upstream license notices when redistributing.
# LUTr-Upstream-Comment: Generated by lutCreator.js
# LUTr-Upstream-Comment: Coded by SirSerch
# LUTr-Upstream-Comment: https://github.com/SirSerch/LutCreatorJs
TITLE "PictureFX NTFLX DRK I"
LUT_3D_SIZE 9
DOMAIN_MIN 0 0 0
DOMAIN_MAX 1 1 1
0.047059 0 0
0.156863 0 0
0.286275 0 0
0.435294 0 0
0.584314 0 0
0.721569 0 0
0.862745 0 0
1 0 0
1 0 0
0.043137 0.117647 0
0.145098 0.109804 0
0.270588 0.109804 0
0.423529 0.070588 0
0.572549 0 0
0.713725 0 0
0.854902 0 0
0.996078 0 0
1 0 0
0.015686 0.254902 0
0.152941 0.25098 0
0.278431 0.247059 0
0.403922 0.239216 0
0.54902 0.215686 0
0.690196 0.172549 0
0.835294 0.058824 0
0.984314 0 0
1 0 0
0 0.384314 0
0.090196 0.380392 0
0.258824 0.376471 0
0.396078 0.372549 0
0.529412 0.364706 0
0.666667 0.345098 0
0.811765 0.313725 0
0.960784 0.262745 0
1 0.188235 0
0 0.509804 0
0 0.509804 0
0.203922 0.505882 0
0.372549 0.501961 0
0.513725 0.494118 0
0.65098 0.486275 0
0.792157 0.47451 0
0.945098 0.454902 0
1 0.427451 0
0 0.631373 0
0 0.631373 0
0.07451 0.631373 0
0.32549 0.627451 0
0.490196 0.623529 0
0.635294 0.619608 0
0.784314 0.619608 0
0.937255 0.611765 0
1 0.596078 0
0 0.776471 0
0 0.776471 0
0 0.776471 0
0.258824 0.772549 0
0.462745 0.772549 0
0.623529 0.768627 0
0.772549 0.764706 0
0.921569 0.752941 0
1 0.741176 0
0 0.917647 0
0 0.913725 0
0 0.913725 0
0.078431 0.909804 0
0.396078 0.905882 0
0.576471 0.901961 0
0.745098 0.898039 0
0.905882 0.898039 0
1 0.886275 0
0 1 0
0 1 0
0 1 0
0 1 0
0.294118 1 0
0.517647 1 0
0.694118 1 0
0.847059 1 0
0.992157 0.992157 0
0.145098 0 0
0.203922 0 0
0.313725 0 0
0.45098 0 0
0.592157 0 0
0.72549 0 0
0.866667 0 0
1 0 0
1 0 0
0.05098 0.121569 0
0.141176 0.117647 0.043137
0.286275 0.101961 0.003922
0.431373 0.054902 0
0.576471 0 0
0.717647 0 0
0.858824 0 0
1 0 0
1 0 0
0.015686 0.254902 0
0.152941 0.25098 0
0.286275 0.243137 0.023529
0.403922 0.243137 0.031373
0.54902 0.219608 0
0.694118 0.168627 0
0.839216 0.054902 0
0.988235 0 0
1 0 0
0 0.384314 0
0.113725 0.380392 0
0.27451 0.376471 0
0.403922 0.368627 0
0.529412 0.364706 0
0.666667 0.34902 0
0.811765 0.313725 0
0.960784 0.266667 0
1 0.188235 0
0 0.509804 0
0 0.509804 0
0.219608 0.505882 0
0.380392 0.501961 0
0.521569 0.494118 0
0.65098 0.490196 0
0.796078 0.478431 0
0.945098 0.454902 0
1 0.427451 0
0 0.631373 0
0 0.631373 0
0.105882 0.631373 0
0.333333 0.627451 0
0.498039 0.623529 0
0.639216 0.619608 0
0.784314 0.615686 0
0.933333 0.607843 0
1 0.592157 0
0 0.776471 0
0 0.776471 0
0 0.772549 0
0.270588 0.772549 0
0.466667 0.768627 0
0.623529 0.764706 0
0.776471 0.760784 0
0.921569 0.752941 0
1 0.741176 0
0 0.913725 0
0 0.913725 0
0 0.909804 0
0.098039 0.905882 0
0.4 0.901961 0
0.580392 0.898039 0
0.745098 0.894118 0
0.901961 0.894118 0
1 0.882353 0
0 1 0
0 1 0
0 1 0
0 1 0
0.298039 1 0
0.517647 1 0
0.694118 1 0
0.85098 1 0
0.996078 0.996078 0
0.192157 0 0.003922
0.258824 0 0.027451
0.364706 0 0.062745
0.494118 0 0.094118
0.623529 0 0.109804
0.74902 0 0.117647
0.882353 0 0.121569
1 0 0.121569
1 0 0.121569
0.188235 0.098039 0
0.247059 0.082353 0
0.352941 0.027451 0.062745
0.478431 0 0.098039
0.607843 0 0.109804
0.737255 0 0.113725
0.87451 0 0.117647
1 0 0.117647
1 0 0.121569
0.058824 0.258824 0.019608
0.160784 0.254902 0.039216
0.278431 0.25098 0.176471
0.423529 0.235294 0.14902
0.568627 0.203922 0.129412
0.709804 0.152941 0.117647
0.854902 0.003922 0.113725
1 0 0.109804
1 0 0.109804
0 0.384314 0.066667
0.133333 0.384314 0.086275
0.282353 0.376471 0.129412
0.411765 0.368627 0.168627
0.529412 0.368627 0.172549
0.670588 0.34902 0.137255
0.819608 0.313725 0.113725
0.968627 0.262745 0.098039
1 0.180392 0.094118
0 0.513725 0.015686
0.019608 0.509804 0.035294
0.247059 0.505882 0.078431
0.403922 0.498039 0.121569
0.537255 0.494118 0.141176
0.654902 0.490196 0.145098
0.796078 0.478431 0.121569
0.94902 0.458824 0.101961
1 0.423529 0.086275
0 0.631373 0
0 0.631373 0
0.152941 0.631373 0
0.356863 0.627451 0.015686
0.513725 0.623529 0.078431
0.65098 0.619608 0.109804
0.788235 0.615686 0.113725
0.933333 0.607843 0.098039
1 0.592157 0.078431
0 0.772549 0
0 0.772549 0
0 0.772549 0
0.290196 0.772549 0
0.478431 0.768627 0
0.631373 0.764706 0.011765
0.780392 0.756863 0.058824
0.921569 0.74902 0.062745
1 0.737255 0.043137
0 0.909804 0
0 0.909804 0
0 0.905882 0
0.141176 0.905882 0
0.411765 0.901961 0
0.588235 0.894118 0
0.74902 0.890196 0
0.901961 0.890196 0
1 0.878431 0
0 1 0
0 1 0
0 1 0
0 1 0
0.313725 1 0
0.529412 1 0
0.701961 1 0
0.854902 1 0
1 0.996078 0
0.282353 0 0.160784
0.32549 0 0.164706
0.419608 0 0.172549
0.541176 0 0.188235
0.662745 0 0.203922
0.784314 0 0.211765
0.909804 0 0.223529
1 0 0.227451
1 0 0.235294
0.270588 0.05098 0.137255
0.321569 0.015686 0.145098
0.415686 0 0.160784
0.529412 0 0.184314
0.65098 0 0.2
0.772549 0 0.215686
0.905882 0 0.223529
1 0 0.227451
1 0 0.235294
0.247059 0.239216 0
0.298039 0.231373 0
0.384314 0.219608 0.105882
0.498039 0.192157 0.172549
0.619608 0.152941 0.203922
0.745098 0.082353 0.215686
0.878431 0 0.223529
1 0 0.227451
1 0 0.231373
0.062745 0.388235 0.141176
0.160784 0.388235 0.145098
0.286275 0.384314 0.164706
0.407843 0.372549 0.298039
0.552941 0.360784 0.266667
0.694118 0.337255 0.247059
0.839216 0.298039 0.235294
0.984314 0.243137 0.231373
1 0.14902 0.231373
0 0.513725 0.180392
0.082353 0.513725 0.188235
0.258824 0.509804 0.211765
0.411765 0.501961 0.254902
0.541176 0.494118 0.298039
0.65098 0.494118 0.301961
0.803922 0.482353 0.270588
0.956863 0.454902 0.25098
1 0.419608 0.243137
0 0.631373 0.172549
0 0.631373 0.176471
0.196078 0.631373 0.192157
0.380392 0.627451 0.223529
0.533333 0.619608 0.258824
0.666667 0.615686 0.278431
0.792157 0.615686 0.282353
0.933333 0.607843 0.270588
1 0.592157 0.254902
0 0.772549 0.156863
0 0.772549 0.160784
0 0.772549 0.172549
0.321569 0.768627 0.196078
0.498039 0.764706 0.223529
0.647059 0.760784 0.25098
0.788235 0.752941 0.266667
0.921569 0.74902 0.270588
1 0.737255 0.258824
0 0.909804 0.117647
0 0.909804 0.117647
0 0.905882 0.129412
0.196078 0.901961 0.14902
0.435294 0.898039 0.172549
0.603922 0.894118 0.2
0.760784 0.890196 0.227451
0.909804 0.886275 0.243137
1 0.87451 0.243137
0 1 0.043137
0 1 0.05098
0 1 0.066667
0 1 0.090196
0.341176 1 0.113725
0.545098 1 0.141176
0.713725 1 0.164706
0.866667 1 0.180392
1 0.992157 0.188235
0.360784 0 0.278431
0.4 0 0.282353
0.482353 0 0.290196
0.588235 0 0.298039
0.705882 0 0.305882
0.819608 0 0.313725
0.945098 0 0.321569
1 0 0.329412
1 0 0.337255
0.356863 0 0.27451
0.392157 0 0.278431
0.47451 0 0.282353
0.580392 0 0.290196
0.698039 0 0.301961
0.815686 0 0.313725
0.941176 0 0.321569
1 0 0.333333
1 0 0.337255
0.329412 0.219608 0.223529
0.368627 0.211765 0.227451
0.447059 0.188235 0.243137
0.556863 0.145098 0.270588
0.67451 0.062745 0.290196
0.792157 0 0.309804
0.917647 0 0.321569
1 0 0.333333
1 0 0.341176
0.258824 0.380392 0.14902
0.317647 0.372549 0.117647
0.419608 0.360784 0.098039
0.517647 0.345098 0.215686
0.635294 0.321569 0.282353
0.74902 0.298039 0.313725
0.878431 0.258824 0.32549
1 0.196078 0.333333
1 0.058824 0.341176
0.011765 0.517647 0.254902
0.145098 0.517647 0.254902
0.278431 0.513725 0.258824
0.415686 0.509804 0.282353
0.533333 0.501961 0.419608
0.682353 0.486275 0.388235
0.827451 0.470588 0.368627
0.980392 0.443137 0.360784
1 0.403922 0.356863
0 0.635294 0.290196
0 0.635294 0.294118
0.215686 0.631373 0.301961
0.384314 0.627451 0.329412
0.537255 0.623529 0.380392
0.658824 0.619608 0.435294
0.784314 0.619608 0.435294
0.937255 0.607843 0.4
1 0.588235 0.380392
0 0.772549 0.301961
0 0.772549 0.305882
0.109804 0.772549 0.313725
0.34902 0.768627 0.333333
0.521569 0.760784 0.360784
0.670588 0.752941 0.392157
0.803922 0.74902 0.411765
0.92549 0.74902 0.415686
1 0.741176 0.4
0 0.909804 0.298039
0 0.905882 0.298039
0 0.905882 0.305882
0.247059 0.901961 0.317647
0.458824 0.898039 0.333333
0.623529 0.890196 0.356863
0.780392 0.886275 0.384314
0.917647 0.882353 0.4
1 0.87451 0.4
0 1 0.286275
0 1 0.286275
0 1 0.294118
0 1 0.301961
0.372549 1 0.313725
0.564706 1 0.329412
0.733333 1 0.345098
0.878431 1 0.356863
1 0.992157 0.364706
0.443137 0 0.396078
0.47451 0 0.4
0.541176 0 0.403922
0.635294 0 0.407843
0.745098 0 0.411765
0.858824 0 0.415686
0.980392 0 0.423529
1 0 0.431373
1 0 0.439216
0.435294 0 0.4
0.462745 0 0.4
0.529412 0 0.403922
0.627451 0 0.403922
0.737255 0 0.411765
0.85098 0 0.415686
0.976471 0 0.423529
1 0 0.431373
1 0 0.439216
0.403922 0.192157 0.376471
0.435294 0.180392 0.376471
0.505882 0.152941 0.380392
0.603922 0.086275 0.388235
0.717647 0 0.4
0.831373 0 0.407843
0.956863 0 0.419608
1 0 0.431373
1 0 0.439216
0.360784 0.360784 0.313725
0.4 0.356863 0.309804
0.47451 0.345098 0.317647
0.576471 0.321569 0.341176
0.686275 0.294118 0.372549
0.803922 0.254902 0.396078
0.92549 0.2 0.415686
1 0.094118 0.427451
1 0 0.443137
0.247059 0.513725 0.298039
0.298039 0.509804 0.286275
0.407843 0.501961 0.247059
0.537255 0.486275 0.227451
0.647059 0.47451 0.32549
0.764706 0.454902 0.396078
0.890196 0.439216 0.431373
1 0.411765 0.447059
1 0.376471 0.454902
0 0.639216 0.364706
0.078431 0.639216 0.364706
0.25098 0.635294 0.364706
0.4 0.635294 0.368627
0.545098 0.627451 0.4
0.658824 0.623529 0.537255
0.815686 0.615686 0.509804
0.968627 0.6 0.494118
1 0.576471 0.482353
0 0.776471 0.407843
0 0.776471 0.411765
0.156863 0.776471 0.415686
0.360784 0.772549 0.431373
0.52549 0.764706 0.458824
0.670588 0.756863 0.505882
0.796078 0.752941 0.564706
0.917647 0.752941 0.560784
1 0.741176 0.52549
0 0.909804 0.419608
0 0.909804 0.423529
0 0.905882 0.427451
0.282353 0.901961 0.435294
0.482353 0.898039 0.454902
0.647059 0.890196 0.482353
0.803922 0.882353 0.517647
0.937255 0.878431 0.533333
1 0.87451 0.537255
0 1 0.423529
0 1 0.423529
0 1 0.427451
0.090196 1 0.435294
0.407843 1 0.447059
0.588235 1 0.462745
0.752941 1 0.482353
0.898039 1 0.498039
1 0.988235 0.505882
0.52549 0 0.521569
0.54902 0 0.521569
0.603922 0 0.52549
0.686275 0 0.52549
0.788235 0 0.529412
0.894118 0 0.529412
1 0 0.533333
1 0 0.537255
1 0 0.545098
0.513725 0 0.521569
0.537255 0 0.521569
0.592157 0 0.521569
0.678431 0 0.52549
0.780392 0 0.52549
0.890196 0 0.529412
1 0 0.533333
1 0 0.541176
1 0 0.545098
0.482353 0.137255 0.509804
0.505882 0.12549 0.509804
0.564706 0.082353 0.513725
0.65098 0 0.513725
0.760784 0 0.517647
0.870588 0 0.521569
0.996078 0 0.529412
1 0 0.537255
1 0 0.54902
0.439216 0.341176 0.482353
0.466667 0.337255 0.482353
0.529412 0.32549 0.482353
0.623529 0.301961 0.490196
0.729412 0.262745 0.498039
0.847059 0.207843 0.509804
0.968627 0.109804 0.521569
1 0 0.533333
1 0 0.54902
0.376471 0.498039 0.423529
0.411765 0.494118 0.419608
0.490196 0.486275 0.411765
0.592157 0.470588 0.415686
0.705882 0.45098 0.447059
0.819608 0.427451 0.486275
0.945098 0.4 0.513725
1 0.368627 0.537255
1 0.329412 0.552941
0.219608 0.635294 0.431373
0.27451 0.635294 0.423529
0.380392 0.631373 0.403922
0.521569 0.623529 0.360784
0.666667 0.607843 0.345098
0.780392 0.596078 0.443137
0.905882 0.584314 0.517647
1 0.568627 0.556863
1 0.54902 0.572549
0 0.780392 0.494118
0 0.780392 0.494118
0.219608 0.780392 0.494118
0.384314 0.776471 0.494118
0.537255 0.772549 0.498039
0.678431 0.764706 0.52549
0.796078 0.756863 0.670588
0.94902 0.745098 0.639216
1 0.729412 0.619608
0 0.913725 0.52549
0 0.909804 0.529412
0 0.909804 0.529412
0.305882 0.905882 0.537255
0.490196 0.901961 0.552941
0.65098 0.894118 0.580392
0.803922 0.890196 0.635294
0.92549 0.882353 0.698039
1 0.878431 0.690196
0 1 0.541176
0 1 0.545098
0 1 0.54902
0.176471 1 0.552941
0.431373 1 0.560784
0.607843 1 0.580392
0.768627 1 0.603922
0.917647 0.992157 0.627451
1 0.980392 0.635294
0.603922 0 0.643137
0.623529 0 0.643137
0.666667 0 0.643137
0.741176 0 0.643137
0.831373 0 0.643137
0.933333 0 0.647059
1 0 0.647059
1 0 0.65098
1 0 0.654902
0.588235 0 0.643137
0.607843 0 0.643137
0.654902 0 0.643137
0.729412 0 0.643137
0.823529 0 0.643137
0.929412 0 0.643137
1 0 0.647059
1 0 0.65098
1 0 0.658824
0.556863 0.011765 0.635294
0.576471 0 0.635294
0.627451 0 0.635294
0.705882 0 0.635294
0.803922 0 0.639216
0.909804 0 0.639216
1 0 0.643137
1 0 0.647059
1 0 0.658824
0.513725 0.313725 0.619608
0.537255 0.309804 0.619608
0.592157 0.294118 0.619608
0.67451 0.266667 0.619608
0.772549 0.223529 0.623529
0.882353 0.145098 0.627451
1 0 0.635294
1 0 0.643137
1 0 0.658824
0.458824 0.478431 0.588235
0.486275 0.478431 0.588235
0.545098 0.470588 0.588235
0.635294 0.454902 0.592157
0.745098 0.435294 0.6
0.858824 0.407843 0.611765
0.988235 0.372549 0.627451
1 0.329412 0.643137
1 0.270588 0.662745
0.376471 0.623529 0.54902
0.411765 0.623529 0.545098
0.486275 0.619608 0.533333
0.596078 0.607843 0.521569
0.721569 0.596078 0.52549
0.839216 0.580392 0.564706
0.964706 0.560784 0.607843
1 0.541176 0.643137
1 0.513725 0.662745
0.184314 0.780392 0.576471
0.243137 0.780392 0.572549
0.352941 0.776471 0.560784
0.490196 0.772549 0.537255
0.65098 0.764706 0.490196
0.8 0.74902 0.47451
0.917647 0.733333 0.568627
1 0.713725 0.639216
1 0.705882 0.678431
0 0.913725 0.619608
0 0.913725 0.619608
0.129412 0.913725 0.615686
0.345098 0.909804 0.615686
0.513725 0.905882 0.615686
0.666667 0.905882 0.623529
0.815686 0.901961 0.658824
0.929412 0.890196 0.8
1 0.870588 0.760784
0 1 0.65098
0 1 0.65098
0 1 0.65098
0.219608 1 0.654902
0.443137 1 0.658824
0.611765 1 0.670588
0.768627 1 0.694118
0.909804 0.992157 0.737255
1 0.980392 0.796078
0.67451 0 0.760784
0.690196 0 0.760784
0.729412 0 0.760784
0.796078 0 0.760784
0.878431 0 0.760784
0.972549 0 0.760784
1 0 0.760784
1 0 0.764706
1 0 0.768627
0.662745 0 0.760784
0.678431 0 0.760784
0.721569 0 0.760784
0.784314 0 0.760784
0.870588 0 0.760784
0.968627 0 0.760784
1 0 0.760784
1 0 0.764706
1 0 0.772549
0.631373 0 0.756863
0.65098 0 0.756863
0.694118 0 0.756863
0.760784 0 0.756863
0.85098 0 0.756863
0.94902 0 0.756863
1 0 0.756863
1 0 0.764706
1 0 0.772549
0.592157 0.27451 0.745098
0.611765 0.266667 0.745098
0.654902 0.25098 0.745098
0.72549 0.219608 0.745098
0.819608 0.160784 0.745098
0.92549 0.003922 0.74902
1 0 0.752941
1 0 0.760784
1 0 0.776471
0.537255 0.458824 0.729412
0.560784 0.454902 0.729412
0.611765 0.447059 0.729412
0.690196 0.431373 0.729412
0.788235 0.411765 0.733333
0.901961 0.380392 0.741176
1 0.341176 0.74902
1 0.286275 0.760784
1 0.203922 0.776471
0.47451 0.611765 0.701961
0.498039 0.607843 0.701961
0.556863 0.603922 0.701961
0.647059 0.596078 0.701961
0.756863 0.584314 0.709804
0.878431 0.568627 0.721569
1 0.545098 0.737255
1 0.521569 0.756863
1 0.486275 0.772549
0.372549 0.772549 0.690196
0.403922 0.772549 0.686275
0.482353 0.768627 0.678431
0.592157 0.764706 0.666667
0.72549 0.752941 0.647059
0.854902 0.733333 0.647059
0.980392 0.713725 0.686275
1 0.694118 0.729412
1 0.682353 0.768627
0.066667 0.913725 0.709804
0.172549 0.913725 0.709804
0.305882 0.913725 0.701961
0.45098 0.909804 0.686275
0.603922 0.905882 0.662745
0.776471 0.901961 0.623529
0.937255 0.886275 0.611765
1 0.866667 0.690196
1 0.839216 0.756863
0 1 0.745098
0 1 0.745098
0 1 0.741176
0.278431 1 0.737255
0.470588 1 0.733333
0.627451 1 0.72549
0.772549 1 0.72549
0.913725 0.996078 0.74902
1 0.976471 0.886275
