site/assets/luts/freshluts--0000168-coffee.cube
# LUTr-Schema-Version: 2
# LUTr-ID: freshluts--0000168-coffee
# LUTr-Title: COFFEE
# LUTr-Collection: Fresh LUTs
# LUTr-Collection-ID: freshluts-community
# LUTr-Source: https://freshluts.com
# LUTr-Retrieved: 2026-07-27
# LUTr-Source-File: submissions-raw/freshluts/cubes/168__COFFEE_44.C0014.cube
# LUTr-Source-Format: CUBE
# LUTr-Source-SHA256: 1f7f96a6843eae89bff97d421abae7c0b37b930666cf73a7a231711b8af3851e
# LUTr-License: CC0-1.0
# LUTr-License-URL: https://freshluts.com/termsandconditions
# LUTr-License-Basis: site-terms
# LUTr-Transform-Class: creative-look
# LUTr-Tags: creative, freshluts, community, cube, film-emulation, brown, low-key, rec709
# LUTr-Input-Color-Space: rec709
# LUTr-Input-Gamut: rec709
# LUTr-Input-Transfer: rec709
# LUTr-Output-Color-Space: srgb
# LUTr-Output-Gamut: rec709
# LUTr-Output-Transfer: srgb
# LUTr-Color-Space-Confidence: inferred-from-source-label
# LUTr-Domain-Normalized: true
# LUTr-Shaper: none
# LUTr-Original-Grid: 33x33x33
# LUTr-Conversion-Grid: 33x33x33
# LUTr-Conversion-Interpolation: none
# LUTr-Conversion-Method: Metadata normalization; numeric LUT samples preserved
# LUTr-Conversion-Tool: LUTr scripts/convert-all-to-cube.mjs 2.0.0
# LUTr-Conversion-Date: 2026-07-28
# LUTr-Asset-URL: https://freshluts.com/luts/168
# LUTr-Author: Shamoon Abbasi
# LUTr-Author-URL: https://freshluts.com/users/1258
# LUTr-Attribution: Shamoon Abbasi via Fresh LUTs
# LUTr-Source-Labels: gamma=Rec 709; color=Brown; key=Low Key; style=Film emulation
# LUTr-Note: Preserve this metadata and the upstream license notices when redistributing.
TITLE "COFFEE"
LUT_3D_SIZE 33
DOMAIN_MIN 0 0 0
DOMAIN_MAX 1 1 1
0.0105592 0.00836194 0.000350958
0.0238651 0.00665293 0.000213626
0.0367132 0.00553903 0.000213626
0.0498054 0.00474556 0.000213626
0.0648508 0.00433356 0.000213626
0.08336 0.00433356 0.000213626
0.105989 0.00453193 0.000213626
0.132433 0.00454719 0.000213626
0.162295 0.00401312 0.000213626
0.195285 0.00282292 0.000213626
0.231174 0.00112917 0.000213626
0.269612 0.000320439 0.000213626
0.310369 0.000213626 0.000213626
0.352621 0.000213626 0.000213626
0.395911 0.000213626 0.000213626
0.439582 0.000213626 0.000213626
0.482536 0.000213626 0.000213626
0.524758 0.000213626 0.000213626
0.565515 0.000213626 0.000213626
0.604791 0.000213626 0.000213626
0.642802 0.000213626 0.000213626
0.679408 0.000213626 0.000213626
0.715023 0.000213626 0.000213626
0.749477 0.000213626 0.000213626
0.783108 0.000213626 0.000213626
0.816266 0.000213626 0.000213626
0.848875 0.000213626 0.000213626
0.881361 0.000213626 0.000213626
0.909575 0.000213626 0.000213626
0.92311 0.000213626 0.000213626
0.923125 0.000213626 0.000213626
0.923125 0.000213626 0.000213626
0.923125 0.000213626 0.000213626
0.00842298 0.0267338 0.000213626
0.0215763 0.0231937 0.000213626
0.0348516 0.0204471 0.000213626
0.0482185 0.0185397 0.000213626
0.0633707 0.0175631 0.000213626
0.0819257 0.0175937 0.000213626
0.104601 0.0181125 0.000213626
0.131228 0.018204 0.000213626
0.161501 0.0169223 0.000213626
0.195102 0.0139773 0.000213626
0.231739 0.00972 0.000213626
0.270954 0.00662242 0.000213626
0.312505 0.00463874 0.000213626
0.355413 0.00288396 0.000213626
0.399252 0.00120546 0.000213626
0.44332 0.000350958 0.000213626
0.486488 0.000213626 0.000213626
0.52874 0.000213626 0.000213626
0.56939 0.000213626 0.000213626
0.608713 0.000213626 0.000213626
0.646571 0.000213626 0.000213626
0.683284 0.000213626 0.000213626
0.719112 0.000213626 0.000213626
0.753811 0.000213626 0.000213626
0.787808 0.000213626 0.000213626
0.821042 0.000213626 0.000213626
0.853849 0.000213626 0.000213626
0.886473 0.000213626 0.000213626
0.912642 0.000213626 0.000213626
0.92311 0.000213626 0.000213626
0.923125 0.000213626 0.000213626
0.923125 0.000213626 0.000213626
0.923125 0.000213626 0.000213626
0.00653086 0.0430304 0.000213626
0.0200351 0.0391089 0.000213626
0.0341802 0.0366064 0.000213626
0.0480507 0.0352026 0.000213626
0.0634012 0.034638 0.000213626
0.0818952 0.0347601 0.000213626
0.104601 0.035172 0.000213626
0.131365 0.0352178 0.000213626
0.161929 0.0340887 0.000213626
0.196094 0.0314946 0.000213626
0.233082 0.0276646 0.000213626
0.272801 0.0232242 0.000213626
0.314824 0.0186923 0.000213626
0.35816 0.0143282 0.000213626
0.402518 0.0101015 0.000213626
0.446632 0.00724804 0.000213626
0.48983 0.00553903 0.000213626
0.531929 0.00395209 0.000213626
0.57232 0.00230411 0.000213626
0.611353 0.000839246 0.000213626
0.648997 0.000228885 0.000213626
0.685634 0.000213626 0.000213626
0.721508 0.000213626 0.000213626
0.756359 0.000213626 0.000213626
0.79057 0.000213626 0.000213626
0.824094 0.000213626 0.000213626
0.857237 0.000213626 0.000213626
0.890242 0.000213626 0.000213626
0.914992 0.000213626 0.000213626
0.923125 0.000213626 0.000213626
0.923125 0.000213626 0.000213626
0.923125 0.000213626 0.000213626
0.923125 0.000213626 0.000213626
0.005066 0.0558785 0.000213626
0.0195315 0.0521096 0.000213626
0.0350805 0.0502785 0.000213626
0.0497902 0.0497902 0.000213626
0.0654917 0.0500191 0.000213626
0.084123 0.0504158 0.000213626
0.107012 0.0506447 0.000213626
0.134005 0.0503243 0.000213626
0.164752 0.0490883 0.000213626
0.199069 0.0467842 0.000213626
0.236179 0.0436408 0.000213626
0.276081 0.0401312 0.000213626
0.318364 0.0365911 0.000213626
0.361959 0.0332036 0.000213626
0.406577 0.0298009 0.000213626
0.450874 0.026276 0.000213626
0.494087 0.0224155 0.000213626
0.535958 0.0182193 0.000213626
0.575967 0.0137636 0.000213626
0.614557 0.00956741 0.000213626
0.651774 0.00688182 0.000213626
0.68806 0.00531014 0.000213626
0.723674 0.0037995 0.000213626
0.758373 0.00241093 0.000213626
0.79263 0.00114443 0.000213626
0.826352 0.000411994 0.000213626
0.8598 0.000259403 0.000213626
0.893187 0.000213626 0.000213626
0.916869 0.000213626 0.000213626
0.923125 0.000213626 0.000213626
0.923125 0.000213626 0.000213626
0.923125 0.000213626 0.000213626
0.923125 0.000213626 0.000213626
0.00399786 0.0682078 0.000213626
0.019791 0.0650797 0.000213626
0.0371405 0.0640116 0.000213626
0.0531014 0.0643931 0.000213626
0.0695354 0.0654765 0.000213626
0.0886854 0.0664836 0.000213626
0.112093 0.0669413 0.000213626
0.139559 0.0666209 0.000213626
0.170611 0.0654765 0.000213626
0.20499 0.0635691 0.000213626
0.242084 0.0611276 0.000213626
0.282124 0.0584268 0.000213626
0.324254 0.0556954 0.000213626
0.367941 0.0530251 0.000213626
0.41268 0.0502785 0.000213626
0.457038 0.0473487 0.000213626
0.500374 0.0440986 0.000213626
0.541848 0.0404364 0.000213626
0.581445 0.0364233 0.000213626
0.619486 0.0321202 0.000213626
0.656107 0.0276951 0.000213626
0.69189 0.0232547 0.000213626
0.726787 0.018967 0.000213626
0.761059 0.0149233 0.000213626
0.795071 0.0111696 0.000213626
0.828748 0.00856031 0.000213626
0.86244 0.007187 0.000213626
0.895918 0.00607309 0.000213626
0.918593 0.00514229 0.000213626
0.923125 0.00514229 0.000213626
0.923125 0.0059205 0.000213626
0.923125 0.0059205 0.000213626
0.923125 0.0059205 0.000213626
0.00302129 0.083772 0.000213626
0.0201877 0.0814221 0.000213626
0.0393072 0.0809339 0.000213626
0.0568246 0.0818341 0.000213626
0.0744488 0.0836042 0.000213626
0.0945907 0.0854353 0.000213626
0.11902 0.086717 0.000213626
0.14725 0.0871595 0.000213626
0.179004 0.0867781 0.000213626
0.213886 0.0856641 0.000213626
0.25127 0.0839704 0.000213626
0.291432 0.0818647 0.000213626
0.333501 0.07953 0.000213626
0.37702 0.0770123 0.000213626
0.421469 0.0742809 0.000213626
0.465537 0.0713359 0.000213626
0.508537 0.0680858 0.000213626
0.549645 0.0645762 0.000213626
0.588815 0.0608072 0.000213626
0.626322 0.0568704 0.000213626
0.662242 0.0528725 0.000213626
0.697276 0.0488441 0.000213626
0.731426 0.0448768 0.000213626
0.765042 0.0409552 0.000213626
0.798566 0.0371557 0.000213626
0.831937 0.0335699 0.000213626
0.865476 0.0302586 0.000213626
0.898955 0.0271916 0.000213626
0.920394 0.0243687 0.000213626
0.923125 0.0242924 0.000213626
0.923125 0.0265049 0.000213626
0.923125 0.0265049 0.000213626
0.923125 0.0265049 0.000213626
0.00178531 0.104067 0.000213626
0.0198062 0.102464 0.000213626
0.0405432 0.102266 0.000213626
0.0597086 0.10341 0.000213626
0.0788434 0.105669 0.000213626
0.100298 0.108354 0.000213626
0.125963 0.110826 0.000854505
0.155444 0.112673 0.00158694
0.18851 0.113741 0.00180056
0.224659 0.113939 0.00135805
0.263096 0.113268 0.000534066
0.303914 0.111803 0.000213626
0.346151 0.109682 0.000213626
0.389319 0.107027 0.000213626
0.433051 0.103853 0.000213626
0.476234 0.100237 0.000213626
0.518364 0.0962539 0.000213626
0.558709 0.0920882 0.000213626
0.597223 0.0879225 0.000213626
0.634134 0.0839399 0.000213626
0.669459 0.0801862 0.000213626
0.703822 0.0766155 0.000213626
0.737255 0.0731212 0.000213626
0.770214 0.0696117 0.000213626
0.803159 0.0660716 0.000213626
0.836057 0.0626841 0.000213626
0.86923 0.0595407 0.000213626
0.902251 0.0566567 0.000213626
0.922133 0.0540322 0.000213626
0.923125 0.0537728 0.000213626
0.923125 0.0555276 0.000213626
0.923125 0.0555276 0.000213626
0.923125 0.0555276 0.000213626
0.000564584 0.128389 0.000213626
0.0186313 0.127398 0.000213626
0.040589 0.127489 0.000213626
0.0614481 0.128893 0.000213626
0.0821241 0.13164 0.000213626
0.105058 0.13521 0.000503548
0.132082 0.13901 0.00315862
0.163043 0.142504 0.00601205
0.197955 0.145373 0.00706493
0.235889 0.147311 0.00587472
0.276127 0.148074 0.00315862
0.318303 0.147631 0.00125124
0.361135 0.146059 0.000427253
0.404273 0.143542 0.000213626
0.446983 0.140108 0.000213626
0.488884 0.135744 0.000213626
0.529595 0.130571 0.000213626
0.568627 0.124987 0.000213626
0.606195 0.119448 0.000213626
0.6421 0.114488 0.000213626
0.676722 0.110246 0.000213626
0.710491 0.106661 0.000213626
0.74342 0.103471 0.000213626
0.776028 0.100374 0.000213626
0.808362 0.0972915 0.000213626
0.840787 0.0943618 0.000213626
0.873503 0.0916915 0.000213626
0.905257 0.0893416 0.000213626
0.923095 0.0872969 0.000213626
0.923125 0.0872358 0.000213626
0.923125 0.0887465 0.000213626
0.923125 0.0887465 0.000213626
0.923125 0.0887465 0.000213626
0.000213626 0.155474 0.000213626
0.017258 0.155062 0.000213626
0.0399786 0.155612 0.000213626
0.0623789 0.157549 0.000213626
0.0847028 0.160952 0.000213626
0.109148 0.165499 0.00128176
0.137545 0.170626 0.00544747
0.169986 0.175769 0.00962844
0.206699 0.180529 0.0119936
0.246677 0.184375 0.0119631
0.288945 0.186938 0.00975052
0.332784 0.188037 0.00584421
0.376638 0.187716 0.00250248
0.420035 0.186114 0.000686656
0.462242 0.183185 0.000213626
0.503029 0.178729 0.000213626
0.542214 0.172732 0.000213626
0.579599 0.165576 0.000213626
0.615595 0.158007 0.000213626
0.650187 0.151003 0.000213626
0.683787 0.145083 0.000213626
0.716823 0.140383 0.000213626
0.749264 0.13669 0.000213626
0.781521 0.133593 0.000213626
0.813535 0.130831 0.000213626
0.845609 0.12845 0.000213626
0.877943 0.126513 0.000213626
0.907668 0.125032 0.000213626
0.923095 0.123903 0.000213626
0.923125 0.124346 0.000213626
0.923125 0.125856 0.000213626
0.923125 0.125856 0.000213626
0.923125 0.125856 0.000213626
0.000213626 0.184222 0.000213626
0.0160678 0.184512 0.000213626
0.0393988 0.185763 0.000213626
0.0632944 0.188464 0.000213626
0.0872663 0.192752 0.000213626
0.113252 0.198367 0.00111391
0.143053 0.204822 0.00581369
0.176867 0.211536 0.011017
0.215122 0.218082 0.0149233
0.256794 0.223819 0.0166171
0.30071 0.22826 0.0158541
0.345983 0.231189 0.0130159
0.390951 0.232654 0.00875868
0.434989 0.232761 0.00402838
0.477272 0.231296 0.00129702
0.51751 0.227909 0.000411994
0.555703 0.222248 0.000213626
0.59173 0.214481 0.000213626
0.626169 0.205295 0.000213626
0.65922 0.195926 0.000213626
0.691615 0.187381 0.000213626
0.72343 0.180331 0.000213626
0.755093 0.174823 0.000213626
0.786831 0.170596 0.000213626
0.818479 0.167422 0.000213626
0.850355 0.16524 0.000213626
0.882246 0.163989 0.000213626
0.910048 0.16347 0.000213626
0.92311 0.163424 0.000213626
0.923125 0.16463 0.000213626
0.923125 0.166384 0.000213626
0.923125 0.166384 0.000213626
0.923125 0.166384 0.000213626
0.000213626 0.214221 0.000213626
0.0153048 0.215396 0.000213626
0.039353 0.217563 0.000213626
0.0646982 0.221225 0.000213626
0.0903487 0.22652 0.000213626
0.118044 0.23331 0.000289921
0.149233 0.241077 0.00453193
0.184405 0.249302 0.0103304
0.223926 0.25745 0.0155337
0.266728 0.264866 0.0190127
0.311849 0.271077 0.020325
0.357855 0.275853 0.0194705
0.403601 0.27924 0.0166476
0.44828 0.281331 0.0122988
0.490913 0.28188 0.00686656
0.53135 0.280461 0.00277714
0.569055 0.276509 0.00077821
0.604456 0.26978 0.000213626
0.63798 0.260609 0.000213626
0.669856 0.250019 0.000213626
0.700908 0.23917 0.000213626
0.731441 0.229236 0.000213626
0.761959 0.220768 0.000213626
0.792752 0.213977 0.000213626
0.823651 0.209049 0.000213626
0.854994 0.206012 0.000213626
0.886473 0.204761 0.000213626
0.912352 0.204852 0.000213626
0.92311 0.205661 0.000213626
0.923125 0.207874 0.000213626
0.923125 0.210346 0.000213626
0.923125 0.210346 0.000213626
0.923125 0.210346 0.000213626
0.000213626 0.245655 0.000213626
0.0151522 0.247944 0.000213626
0.0400549 0.251179 0.000213626
0.0668498 0.255863 0.000213626
0.0942092 0.262196 0.000213626
0.123613 0.27013 0.000213626
0.156359 0.279179 0.00248722
0.192874 0.288731 0.00808728
0.233463 0.298253 0.0142977
0.277012 0.307042 0.0193484
0.322637 0.314733 0.0226749
0.368978 0.321096 0.0240787
0.415 0.326192 0.0235752
0.459861 0.330053 0.0211948
0.502632 0.332509 0.0169528
0.543175 0.333242 0.0111849
0.581003 0.331716 0.00514229
0.616526 0.327504 0.00161746
0.650034 0.320394 0.000488289
0.681529 0.310796 0.000213626
0.711849 0.299504 0.000213626
0.741329 0.287648 0.000213626
0.770596 0.276219 0.000213626
0.800092 0.266056 0.000213626
0.829816 0.25803 0.000213626
0.860212 0.252674 0.000213626
0.89099 0.250111 0.000213626
0.914778 0.24979 0.000213626
0.92311 0.250721 0.000213626
0.923125 0.253819 0.000213626
0.923125 0.257389 0.000213626
0.923125 0.257389 0.000213626
0.923125 0.257389 0.000213626
0.000213626 0.278386 0.000213626
0.0157015 0.281987 0.000213626
0.0416571 0.286427 0.000213626
0.0698405 0.292165 0.000213626
0.0988785 0.299458 0.000213626
0.130053 0.308354 0.000213626
0.16437 0.318441 0.000411994
0.202274 0.329122 0.0049897
0.24361 0.339635 0.0115969
0.287694 0.349432 0.0179446
0.333516 0.35816 0.0230411
0.379782 0.365682 0.0265354
0.425696 0.372015 0.028336
0.469963 0.377096 0.0283207
0.512322 0.380896 0.0263371
0.552666 0.383322 0.0223239
0.5906 0.384085 0.0164187
0.626642 0.382757 0.00929274
0.660502 0.378866 0.00390631
0.692424 0.372168 0.00123598
0.72285 0.362783 0.000320439
0.751995 0.351293 0.000213626
0.780591 0.338521 0.000213626
0.808835 0.325765 0.000213626
0.837278 0.314397 0.000213626
0.866438 0.30576 0.000213626
0.896147 0.300587 0.000213626
0.917464 0.298466 0.000213626
0.92311 0.298314 0.000213626
0.923125 0.301808 0.000213626
0.923125 0.30663 0.000213626
0.923125 0.30663 0.000213626
0.923125 0.30663 0.000213626
0.000213626 0.312322 0.000213626
0.0170596 0.317556 0.000213626
0.0444038 0.323339 0.000213626
0.0738842 0.330068 0.000213626
0.104509 0.338125 0.000213626
0.137331 0.347692 0.000213626
0.173083 0.358465 0.000213626
0.212116 0.369848 0.00216678
0.25417 0.381048 0.00799573
0.298634 0.391455 0.0151675
0.344442 0.400778 0.0216983
0.390326 0.408896 0.0269627
0.435523 0.415839 0.0307927
0.478874 0.421576 0.0330053
0.520363 0.426169 0.033341
0.560082 0.429694 0.0317082
0.597787 0.432059 0.0281224
0.633997 0.433021 0.0227207
0.668315 0.43209 0.0158541
0.700908 0.428779 0.00822461
0.731991 0.42266 0.00331121
0.761563 0.413703 0.00129702
0.790188 0.402121 0.000350958
0.817975 0.388952 0.000213626
0.845548 0.375708 0.000213626
0.873579 0.364218 0.000213626
0.901915 0.355917 0.000213626
0.920226 0.350973 0.000213626
0.92311 0.348623 0.000213626
0.923125 0.35172 0.000213626
0.923125 0.357488 0.000213626
0.923125 0.357488 0.000213626
0.923125 0.357488 0.000213626
0.000213626 0.347631 0.000213626
0.0193027 0.354742 0.000213626
0.0482338 0.361913 0.000213626
0.0790723 0.369589 0.000213626
0.111147 0.378195 0.000213626
0.145388 0.388098 0.000213626
0.182361 0.399084 0.000213626
0.222263 0.410727 0.000213626
0.264851 0.422202 0.0043183
0.309483 0.432883 0.0113985
0.355108 0.44242 0.018967
0.400397 0.450629 0.0256504
0.444648 0.457649 0.0311284
0.486839 0.463554 0.0352331
0.52723 0.468482 0.0377813
0.566079 0.472618 0.0385901
0.603189 0.475868 0.0375372
0.639078 0.478157 0.0346075
0.673442 0.479118 0.0299687
0.706447 0.47834 0.0238956
0.738231 0.475395 0.0167697
0.768612 0.469825 0.00900282
0.797909 0.461326 0.00376898
0.826047 0.450217 0.00173953
0.85362 0.437507 0.00062562
0.880964 0.425055 0.000259403
0.907622 0.414572 0.000213626
0.922576 0.406821 0.000213626
0.92311 0.401755 0.000213626
0.923125 0.403632 0.000213626
0.923125 0.409567 0.000213626
0.923125 0.409369 0.000213626
0.923125 0.409369 0.000213626
0.000259403 0.383841 0.000213626
0.0224308 0.393042 0.000213626
0.0532235 0.401663 0.000213626
0.0853895 0.410147 0.000213626
0.118853 0.419135 0.000213626
0.154101 0.428992 0.000213626
0.191959 0.439826 0.000213626
0.232471 0.451301 0.000213626
0.275334 0.462684 0.00148013
0.32015 0.473365 0.00732433
0.36527 0.48275 0.0153201
0.409812 0.490745 0.0230106
0.45301 0.49752 0.0297551
0.494026 0.503258 0.0353857
0.533425 0.508217 0.0398718
0.571099 0.51252 0.0429694
0.60737 0.516136 0.0444038
0.642634 0.518959 0.0439765
0.676661 0.52079 0.0416571
0.709789 0.521416 0.0376898
0.741817 0.520562 0.0324712
0.772869 0.51783 0.0263371
0.802991 0.512734 0.019379
0.831922 0.505043 0.0117342
0.860029 0.495048 0.00564584
0.887495 0.48394 0.0027924
0.91162 0.473213 0.00146487
0.923095 0.463874 0.000732433
0.92311 0.45658 0.000549325
0.923125 0.456687 0.000701915
0.923125 0.461967 0.000976577
0.923125 0.461967 0.000976577
0.923125 0.461967 0.000976577
0.000915541 0.420508 0.000213626
0.0264134 0.431952 0.000213626
0.0591745 0.442069 0.000213626
0.092607 0.451316 0.000213626
0.127169 0.460472 0.000213626
0.163333 0.4701 0.000213626
0.201831 0.480476 0.000213626
0.242679 0.491447 0.000213626
0.285618 0.502388 0.000213626
0.330205 0.512734 0.00389105
0.374807 0.521813 0.0112154
0.418524 0.529473 0.0195163
0.46067 0.535897 0.0272068
0.500603 0.541283 0.0340581
0.538903 0.545998 0.0401465
0.57554 0.550179 0.0452277
0.610864 0.553765 0.0488899
0.64535 0.55668 0.0508125
0.678828 0.55877 0.0508278
0.711666 0.559976 0.0490425
0.743709 0.560159 0.0458076
0.775051 0.559167 0.0415198
0.805737 0.556619 0.0363775
0.835386 0.552193 0.0305638
0.864271 0.545708 0.0241855
0.892287 0.537545 0.0175784
0.914427 0.528542 0.0111849
0.92311 0.519448 0.00682078
0.92311 0.511269 0.00526436
0.923125 0.509743 0.00627146
0.923125 0.513695 0.00848402
0.923125 0.513695 0.00848402
0.923125 0.513695 0.00848402
0.00363165 0.457481 0.000213626
0.0315404 0.471168 0.000213626
0.0659648 0.482811 0.000213626
0.100633 0.492729 0.000213626
0.136172 0.501991 0.000213626
0.173053 0.511269 0.000213626
0.211994 0.52105 0.000213626
0.252995 0.531289 0.000213626
0.295766 0.541527 0.000213626
0.339895 0.551278 0.0012665
0.383749 0.559899 0.00708019
0.426581 0.567163 0.0155642
0.467735 0.573175 0.0239872
0.50663 0.578195 0.0317998
0.543908 0.582559 0.0391699
0.579553 0.586389 0.0458381
0.61413 0.589715 0.0514076
0.647684 0.592477 0.0554055
0.680552 0.594583 0.0576181
0.712963 0.595972 0.0580301
0.744762 0.596582 0.0568704
0.776165 0.596399 0.0544594
0.806851 0.595331 0.051194
0.836881 0.593149 0.0473487
0.866316 0.589593 0.0431373
0.894911 0.584573 0.0387579
0.916106 0.578103 0.0342107
0.92311 0.570809 0.0297551
0.92311 0.563302 0.0256657
0.923125 0.5608 0.0272374
0.923125 0.563272 0.0327153
0.923125 0.563272 0.0327153
0.923125 0.563272 0.0327153
0.00688182 0.494285 0.000213626
0.0373846 0.510262 0.000213626
0.0733501 0.523293 0.000213626
0.10927 0.533913 0.000213626
0.145724 0.543191 0.000213626
0.1832 0.552102 0.000213626
0.222629 0.561288 0.000213626
0.263447 0.570657 0.000213626
0.305806 0.579965 0.000213626
0.349203 0.588876 0.000213626
0.392142 0.596872 0.00410468
0.434195 0.603723 0.0118715
0.474174 0.609354 0.0206455
0.512108 0.614008 0.029221
0.548424 0.61796 0.0375677
0.583169 0.621378 0.0454414
0.616907 0.624323 0.0524758
0.64976 0.62681 0.0581674
0.682033 0.628794 0.0623026
0.713954 0.630198 0.0647746
0.745373 0.630976 0.0656596
0.776471 0.631144 0.0652018
0.806989 0.630732 0.0637675
0.837003 0.629725 0.0617685
0.86659 0.627985 0.0596475
0.895476 0.625315 0.0576028
0.916533 0.6215 0.0556649
0.92311 0.616449 0.0538186
0.92311 0.610544 0.0522469
0.923125 0.607904 0.0540169
0.923125 0.609216 0.0577401
0.923125 0.609216 0.0577401
0.923125 0.609216 0.0577401
0.0104677 0.531075 0.000213626
0.0435645 0.549172 0.000213626
0.081239 0.563592 0.000213626
0.118364 0.574762 0.000213626
0.155673 0.584009 0.000213626
0.193713 0.592508 0.000213626
0.233371 0.601007 0.000213626
0.273991 0.609476 0.000213626
0.315709 0.617838 0.000213626
0.358175 0.625834 0.000213626
0.400061 0.633082 0.00205997
0.440986 0.639414 0.0087129
0.479973 0.644663 0.0177462
0.516991 0.648966 0.0268559
0.552468 0.652567 0.0358587
0.586435 0.655604 0.0445716
0.619425 0.658152 0.0527047
0.651621 0.660288 0.0597696
0.683314 0.662058 0.0654917
0.714733 0.663355 0.0697185
0.745678 0.664149 0.0724651
0.776364 0.664469 0.0738537
0.806531 0.664332 0.0742046
0.836255 0.663828 0.073991
0.865644 0.662928 0.0737621
0.894438 0.661479 0.0738689
0.915923 0.659281 0.074403
0.92311 0.655955 0.0754864
0.92311 0.651576 0.0771649
0.923125 0.649287 0.0796216
0.923125 0.649989 0.0815595
0.923125 0.649989 0.0815595
0.923125 0.649989 0.0815595
0.0143893 0.568032 0.000213626
0.0501564 0.588098 0.000213626
0.0895247 0.603677 0.000213626
0.127855 0.615244 0.000213626
0.165942 0.624399 0.000213626
0.20441 0.632456 0.000213626
0.24416 0.640269 0.000213626
0.284443 0.647883 0.000213626
0.325582 0.655314 0.000213626
0.366796 0.662333 0.000213626
0.407492 0.668803 0.000701915
0.447257 0.67454 0.0065919
0.485206 0.679377 0.0158083
0.521462 0.683375 0.0252842
0.556023 0.686656 0.0345769
0.589288 0.689372 0.0437934
0.621637 0.691615 0.0527047
0.653208 0.693431 0.0608072
0.684443 0.694881 0.0678111
0.715206 0.695964 0.0734569
0.745632 0.696696 0.07776
0.77583 0.696925 0.0807813
0.805539 0.696895 0.0827955
0.834958 0.696513 0.0843061
0.863828 0.695842 0.085832
0.89221 0.694804 0.0878614
0.914565 0.693187 0.0906386
0.92311 0.690623 0.0944839
0.92311 0.687037 0.0993973
0.923125 0.6851 0.102724
0.923125 0.685679 0.103105
0.923125 0.685679 0.103105
0.923125 0.685679 0.103105
0.0185855 0.604868 0.000213626
0.0570382 0.626612 0.000213626
0.0980087 0.643091 0.000213626
0.13756 0.654963 0.000213626
0.176181 0.663874 0.000213626
0.214969 0.671458 0.000213626
0.254673 0.678614 0.000213626
0.294514 0.68545 0.000213626
0.334844 0.691997 0.000213626
0.374945 0.698177 0.000213626
0.414374 0.703883 0.000244144
0.452903 0.70901 0.00588998
0.489784 0.71342 0.015198
0.525185 0.717113 0.0248264
0.55903 0.720119 0.034226
0.591653 0.722545 0.0436255
0.623407 0.724483 0.0529946
0.654414 0.725978 0.0618448
0.685069 0.727153 0.0697948
0.715236 0.728023 0.0765545
0.745113 0.728588 0.0820478
0.774807 0.728862 0.0863661
0.804044 0.728786 0.0897993
0.832959 0.728374 0.0928664
0.86128 0.727611 0.0960555
0.889006 0.726421 0.0998398
0.912581 0.724681 0.104555
0.92311 0.722042 0.110658
0.92311 0.718456 0.118074
0.923125 0.716579 0.122179
0.923125 0.71722 0.121569
0.923125 0.71722 0.121569
0.923125 0.71722 0.121569
0.0231785 0.641901 0.000213626
0.064271 0.664988 0.000213626
0.106737 0.682185 0.000213626
0.147234 0.694102 0.000213626
0.186328 0.702693 0.000213626
0.225284 0.709773 0.000213626
0.26479 0.716304 0.000213626
0.304112 0.722438 0.000213626
0.343557 0.728222 0.000213626
0.382559 0.733639 0.000213626
0.420722 0.738643 0.000640879
0.45803 0.743175 0.00666819
0.493843 0.747127 0.0161135
0.528328 0.750484 0.025742
0.561425 0.753201 0.0351415
0.593439 0.755367 0.0445411
0.624643 0.757046 0.054078
0.655085 0.758297 0.0633402
0.685176 0.759197 0.0719463
0.714778 0.759793 0.0794842
0.744121 0.760174 0.085832
0.773312 0.760266 0.0911574
0.802014 0.760021 0.0957809
0.830365 0.759365 0.100221
