site/assets/luts/freshluts--0001240-rd-natural.cube
# LUTr-Schema-Version: 2
# LUTr-ID: freshluts--0001240-rd-natural
# LUTr-Title: RD NATURAL
# LUTr-Collection: Fresh LUTs
# LUTr-Collection-ID: freshluts-community
# LUTr-Source: https://freshluts.com
# LUTr-Retrieved: 2026-07-27
# LUTr-Source-File: submissions-raw/freshluts/cubes/1240__RD_NATURAL.cube
# LUTr-Source-Format: CUBE
# LUTr-Source-SHA256: 74632e52a9a7b5708e25252feaf878499d254d517e9f8b7d27618c6ff274d32d
# LUTr-License: CC0-1.0
# LUTr-License-URL: https://freshluts.com/termsandconditions
# LUTr-License-Basis: site-terms
# LUTr-Transform-Class: creative-look
# LUTr-Tags: creative, freshluts, community, cube, orange, sony-s-log3
# LUTr-Input-Color-Space: sony-slog3-sgamut3
# LUTr-Input-Gamut: sony-s-gamut3
# LUTr-Input-Transfer: sony-s-log3
# LUTr-Output-Color-Space: srgb
# LUTr-Output-Gamut: rec709
# LUTr-Output-Transfer: srgb
# LUTr-Color-Space-Confidence: inferred-from-source-label
# LUTr-Domain-Normalized: true
# LUTr-Shaper: none
# LUTr-Original-Grid: 33x33x33
# LUTr-Conversion-Grid: 33x33x33
# LUTr-Conversion-Interpolation: none
# LUTr-Conversion-Method: Metadata normalization; numeric LUT samples preserved
# LUTr-Conversion-Tool: LUTr scripts/convert-all-to-cube.mjs 2.0.0
# LUTr-Conversion-Date: 2026-07-28
# LUTr-Asset-URL: https://freshluts.com/luts/1240
# LUTr-Author: Antony Eliezer
# LUTr-Author-URL: https://freshluts.com/users/32961
# LUTr-Attribution: Antony Eliezer via Fresh LUTs
# LUTr-Source-Labels: gamma=Sony S-Log 3; color=Orange; key=Neutral; style=Teal - Orange
# LUTr-Note: Preserve this metadata and the upstream license notices when redistributing.
# LUTr-Upstream-Comment: VEGAS Pro LUT
TITLE "RD NATURAL"
LUT_3D_SIZE 33
DOMAIN_MIN 0 0 0
DOMAIN_MAX 1 1 1
0.01659718 0.0229658 0.01535054
0.02321339 0.0225676 0.01505899
0.02923207 0.02233157 0.01490175
0.03526315 0.02206251 0.01473283
0.04136832 0.02175252 0.01449235
0.04759449 0.02136865 0.01418715
0.05395942 0.02088269 0.01375927
0.06034107 0.02032014 0.01330908
0.06691234 0.01968047 0.01272573
0.07367967 0.01889152 0.01201572
0.08094572 0.01813061 0.01124957
0.0892962 0.01745491 0.01050945
0.10009108 0.01707679 0.00983855
0.11276996 0.01781545 0.01072541
0.12920529 0.01940401 0.01155959
0.15185705 0.02263017 0.01199089
0.18302885 0.02777676 0.01183815
0.22237208 0.0332072 0.00950302
0.26625437 0.03602571 0.00407588
0.31360644 0.03742985 -0.00754967
0.35787216 0.03845623 -0.01091749
0.39865267 0.04103151 -0.01192041
0.43699947 0.04711694 -0.01286326
0.46945867 0.05192596 -0.00932416
0.49845758 0.05791224 -0.00285079
0.52386057 0.06038417 0.00214793
0.54927152 0.06082417 -0.00238682
0.57537466 0.05726321 -0.01534986
0.59742188 0.05777242 -0.01970297
0.62020546 0.05740666 -0.0215022
0.64225692 0.05976612 -0.01895502
0.66314298 0.06590135 -0.01466066
0.67844206 0.0858741 -0.00358984
0.01802681 0.03309656 0.01906643
0.02437201 0.03249508 0.01852022
0.03035894 0.03169959 0.01781394
0.03639221 0.03083288 0.01704425
0.04259426 0.02958979 0.01599609
0.0488036 0.02831255 0.01494251
0.05496742 0.02720412 0.01398574
0.06137349 0.02632084 0.01322404
0.06804204 0.0255932 0.01255956
0.07498438 0.02488459 0.0118466
0.08228055 0.02409329 0.01104182
0.09254231 0.02370141 0.0103535
0.10410104 0.02388373 0.0104055
0.11723462 0.02475205 0.01147448
0.13709615 0.02722426 0.0119632
0.16278285 0.03088628 0.01200903
0.19578838 0.03569109 0.01100884
0.23515658 0.04021247 0.00792014
0.27836695 0.04250197 0.00132707
0.32483819 0.04364687 -0.00991785
0.3673633 0.04476706 -0.0112063
0.40673426 0.04811021 -0.01208841
0.44276479 0.05411635 -0.01224056
0.47406745 0.05919859 -0.00811006
0.50203276 0.06440836 -0.00181586
0.5270046 0.06679179 0.0024753
0.55200273 0.06659107 -0.00432617
0.57768804 0.06288417 -0.01672987
0.59898466 0.06382844 -0.01991571
0.62107652 0.06358748 -0.02173882
0.64308923 0.06634629 -0.01847544
0.66345364 0.07329631 -0.01416834
0.67846191 0.09292699 -0.00350951
0.01891976 0.04232096 0.02206481
0.0252773 0.04239997 0.02211528
0.0312756 0.04123624 0.02091986
0.03743964 0.03992517 0.01959405
0.04367375 0.03849979 0.01826968
0.0499896 0.03711102 0.01699571
0.05617158 0.03584871 0.01591675
0.06257346 0.03417896 0.01433382
0.0693177 0.0322768 0.012706
0.07622176 0.03092337 0.01162353
0.08509639 0.03038682 0.01085038
0.09562372 0.03008649 0.01015685
0.10818347 0.03100345 0.0111448
0.1250724 0.03280474 0.01185679
0.14604449 0.03539587 0.01216482
0.17336269 0.03941285 0.01206377
0.20954467 0.04429178 0.01009519
0.24850564 0.04724394 0.00590319
0.29117316 0.04881925 -0.00249424
0.33528805 0.04986981 -0.01026173
0.37601033 0.05147857 -0.01140233
0.41414079 0.0555761 -0.01232355
0.44859892 0.06114795 -0.01159749
0.47880068 0.06659009 -0.00695465
0.50573009 0.07095104 -0.00079749
0.53020328 0.07331499 0.00275451
0.55487907 0.07248469 -0.00641961
0.58023274 0.06852438 -0.01831293
0.60082877 0.06996204 -0.0202485
0.62207699 0.06994765 -0.02209659
0.64416623 0.07319233 -0.01799231
0.66386557 0.08125409 -0.01359726
0.67848599 0.10003898 -0.00342168
0.01818636 0.05264495 0.02375927
0.02444801 0.05278404 0.0237256
0.0309359 0.05261455 0.02353817
0.03759712 0.05068324 0.02207188
0.04430932 0.04875436 0.02063826
0.05092862 0.04692794 0.0193758
0.05742833 0.04522356 0.01790526
0.06387449 0.04352539 0.01612453
0.071426 0.04171313 0.01400472
0.07851321 0.03966087 0.01238455
0.08807974 0.03788818 0.01126211
0.09937252 0.03739909 0.01073019
0.11278026 0.03854684 0.01168759
0.13260017 0.04113445 0.01212463
0.15783027 0.04487041 0.01218466
0.18854004 0.04903265 0.01122135
0.22370888 0.05289773 0.00873276
0.2624881 0.05465134 0.0037033
0.3055476 0.05566328 -0.00683619
0.34709856 0.05652847 -0.01082258
0.38518652 0.05837532 -0.01187392
0.42195657 0.06324622 -0.01285706
0.45487058 0.0682928 -0.01107557
0.48409542 0.07415315 -0.00580324
0.50953311 0.07758071 0.00008751
0.53343982 0.07984061 0.00288192
0.55775136 0.07827426 -0.00865292
0.58207166 0.07468531 -0.01905605
0.6025368 0.07589141 -0.02069322
0.62331593 0.07653488 -0.02262557
0.64524245 0.08030262 -0.01834065
0.66436934 0.08962601 -0.01296159
0.67851794 0.10709272 -0.00331123
0.01669133 0.06417909 0.0249674
0.02313986 0.06433444 0.02487499
0.02981458 0.06447478 0.02477849
0.03670699 0.06369196 0.02407867
0.04356316 0.06140253 0.0224736
0.05042395 0.05917109 0.02107167
0.05741368 0.05677757 0.01975908
0.06475225 0.05415167 0.0179508
0.07338379 0.05161425 0.01537871
0.08186296 0.04948502 0.0140219
0.09120086 0.04762297 0.01315737
0.10411382 0.04785714 0.01242805
0.12030701 0.04783617 0.01224207
0.14133877 0.04992929 0.01225667
0.1688997 0.05426271 0.01208207
0.20308304 0.05852273 0.00989674
0.23928346 0.06115004 0.00611708
0.27893436 0.06249704 -0.00072422
0.3206622 0.06302394 -0.01027796
0.35951677 0.06348335 -0.01158763
0.39534941 0.06570809 -0.01258318
0.43016654 0.07110907 -0.01355015
0.46097901 0.07537186 -0.0107124
0.48889741 0.08133325 -0.00495227
0.5129351 0.08381119 0.00063977
0.53660405 0.08607506 0.00199863
0.56063658 0.08402364 -0.01072594
0.58394992 0.08137772 -0.01961798
0.60433918 0.08214074 -0.02126304
0.62497091 0.08367852 -0.02323913
0.64656377 0.08798333 -0.01861629
0.66485345 0.09803355 -0.01236743
0.67854553 0.11399278 -0.00311346
0.01511638 0.0760184 0.02564276
0.02173552 0.07610082 0.02551454
0.02876456 0.07619642 0.02537734
0.03604542 0.07622089 0.02520375
0.04322312 0.07503189 0.02420149
0.05005078 0.0726539 0.02292197
0.05692501 0.07023799 0.02169186
0.06515078 0.06690278 0.01995837
0.07409614 0.0637655 0.01773016
0.08507886 0.06203177 0.01639614
0.09627147 0.0603804 0.01538608
0.10975442 0.06070634 0.01474366
0.12864104 0.06130503 0.01415263
0.15378517 0.06304212 0.01360903
0.18288267 0.06514604 0.01131273
0.21747822 0.06817599 0.00842745
0.25520241 0.06984931 0.00366112
0.29541758 0.07057923 -0.00572865
0.33470482 0.07095038 -0.0112465
0.37108088 0.07186218 -0.01248035
0.40580395 0.07464375 -0.01344123
0.43851042 0.07923365 -0.01334862
0.4670417 0.08336487 -0.00982106
0.49269098 0.08801632 -0.00433747
0.51672798 0.09081302 0.00062035
0.54023528 0.09257238 -0.000989
0.56407261 0.09007769 -0.01310737
0.58609825 0.08866058 -0.02029354
0.60670549 0.08894184 -0.02187391
0.62695426 0.09150231 -0.02383825
0.64804679 0.09624796 -0.01888006
0.66530693 0.1063548 -0.01175196
0.67989486 0.12231886 -0.00296473
0.01477637 0.08791156 0.0259876
0.02139008 0.08805136 0.0259211
0.02846368 0.08813905 0.02591348
0.03571364 0.08820974 0.02586797
0.04270452 0.08824472 0.02579735
0.05018287 0.08639933 0.02443106
0.05739274 0.08364949 0.02302351
0.06581996 0.08031438 0.02158273
0.07641346 0.07722481 0.01979215
0.08780389 0.07511031 0.01863744
0.10130915 0.07423834 0.01733159
0.11711098 0.07448997 0.01662069
0.13748616 0.07516642 0.01594415
0.16482151 0.07696401 0.01512333
0.19906311 0.07931474 0.01179836
0.23421659 0.08070284 0.00763943
0.27076358 0.07954082 0.00042002
0.31104517 0.07867248 -0.01055433
0.34814963 0.07899734 -0.01210426
0.38315493 0.08058435 -0.01318983
0.41664428 0.08454221 -0.0141298
0.44693026 0.0884114 -0.01275489
0.47368321 0.09253582 -0.00855542
0.49807453 0.09631712 -0.00313177
0.52159691 0.09908368 0.00076319
0.5443812 0.09948383 -0.0042762
0.56824839 0.09688415 -0.01589241
0.58865333 0.0966355 -0.02099498
0.60987943 0.09686003 -0.02245415
0.62925857 0.09972845 -0.02437424
0.64924896 0.10452881 -0.01899672
0.66566998 0.11441035 -0.01123815
0.68436968 0.13385639 -0.00294731
0.0099375 0.1000923 0.0284592
0.01659285 0.10024437 0.02835515
0.02386153 0.10027815 0.02820376
0.03161107 0.10028259 0.02798152
0.03903316 0.10029498 0.02776128
0.04667057 0.10004694 0.02732212
0.05526692 0.09805512 0.02553883
0.06488822 0.09469828 0.02376804
0.07766751 0.09223692 0.02184632
0.0917303 0.09028587 0.02036032
0.10598601 0.08898751 0.01897195
0.12435893 0.08909032 0.01856778
0.14909539 0.09038165 0.01770127
0.17879391 0.09212946 0.01623115
0.21447335 0.09515597 0.01281791
0.25158927 0.09577025 0.00718271
0.28955367 0.09431105 -0.00312937
0.32691842 0.09172968 -0.01119686
0.36231989 0.08958126 -0.01262195
0.39547315 0.09009712 -0.01362064
0.42759907 0.09494837 -0.01468657
0.45566493 0.09818951 -0.01197643
0.48158735 0.10326903 -0.00678898
0.50466663 0.10590228 -0.00151957
0.52722406 0.10815279 0.00104344
0.54959029 0.10734543 -0.00820982
0.57313943 0.10430004 -0.01899712
0.59182972 0.10553729 -0.02161209
0.61233711 0.10590103 -0.02297021
0.63172245 0.10836855 -0.02482639
0.65078521 0.11336248 -0.01874637
0.66596293 0.12246674 -0.01074311
0.68944597 0.14577587 -0.00402314
0.00514336 0.11340273 0.03119867
0.01210241 0.11354097 0.03101009
0.01964545 0.1136637 0.03077652
0.02756508 0.1138092 0.03054034
0.03551602 0.11394877 0.03036457
0.04328792 0.11412774 0.03025437
0.05142066 0.1136318 0.02913769
0.0612184 0.11145198 0.02668054
0.0738585 0.10880901 0.02427534
0.09466586 0.10682826 0.02264898
0.11327719 0.10571337 0.02161331
0.13358815 0.10575766 0.02114361
0.16097036 0.1073923 0.0198935
0.19369414 0.10974058 0.01737479
0.23128885 0.11192918 0.01280257
0.26914221 0.11236998 0.00546149
0.30803394 0.1108494 -0.00768564
0.34486967 0.10866315 -0.0118576
0.37940401 0.10691435 -0.01308115
0.41040146 0.10797114 -0.01416915
0.43884447 0.10798368 -0.01430643
0.46395594 0.10898127 -0.01018527
0.48882958 0.11360136 -0.0048553
0.51136231 0.11569274 -0.00037504
0.5332076 0.11711469 -0.0006108
0.55512154 0.11544918 -0.01189383
0.57751507 0.11278155 -0.02082616
0.59579706 0.11449875 -0.02210051
0.61464244 0.11517815 -0.0234342
0.63385814 0.11777186 -0.02329715
0.65233076 0.12248547 -0.01838264
0.66622353 0.13048188 -0.01027218
0.69493353 0.15787168 -0.00607745
0.00159817 0.12860835 0.03422714
0.00849493 0.1286896 0.03400237
0.01628035 0.12863152 0.03370668
0.02437912 0.12868027 0.03348197
0.03261987 0.12877269 0.03334267
0.04096968 0.12880537 0.03315816
0.04839535 0.12975763 0.03263514
0.05536798 0.12846154 0.02948519
0.07287363 0.12616204 0.02702544
0.09513443 0.12425826 0.02546418
0.11971441 0.12369621 0.0245671
0.14571981 0.12447179 0.02331163
0.17480791 0.12645331 0.02131117
0.20913357 0.128777 0.01840087
0.24790664 0.13011879 0.01286663
0.28777561 0.12989528 0.00185992
0.32653376 0.12926784 -0.00902161
0.36277255 0.12770155 -0.01272985
0.39664871 0.12589778 -0.01364833
0.42736474 0.12804496 -0.01462632
0.45453852 0.12886445 -0.0145451
0.47967887 0.12872802 -0.01279156
0.50175786 0.12847883 -0.00659974
0.52162039 0.12844631 -0.0001448
0.54064733 0.12703146 -0.0042453
0.56063098 0.12303747 -0.01504033
0.58100182 0.12203376 -0.02126315
0.5994432 0.12311606 -0.02245416
0.61671895 0.12404809 -0.02373901
0.63584244 0.12706764 -0.02164572
0.6537956 0.13140588 -0.01793548
0.66733837 0.13945015 -0.00985674
0.70079672 0.17027691 -0.00894172
0.00305776 0.14564918 0.03733879
0.01009332 0.14571506 0.0370824
0.0179042 0.14563048 0.03678619
0.02602006 0.14547397 0.03658919
0.03430169 0.14526229 0.03643781
0.04262549 0.14520273 0.03627947
0.05042133 0.14576863 0.03583382
0.05667017 0.1470724 0.03413954
0.06793288 0.14528626 0.0298484
0.09919271 0.1442223 0.02790302
0.12783031 0.14420247 0.02688959
0.15616003 0.14486597 0.02546421
0.19027667 0.14751345 0.0220472
0.22782166 0.14910515 0.01689448
0.26660523 0.15011778 0.01102129
0.30741939 0.14938869 -0.00236737
0.34566203 0.14910614 -0.01074636
0.38100725 0.1486613 -0.01315529
0.41418719 0.14760266 -0.01406503
0.44492733 0.14830349 -0.01497344
0.47152656 0.14899333 -0.01548714
0.49550617 0.14869709 -0.01507885
0.51843119 0.14708838 -0.01240266
0.53862447 0.14725384 -0.00473469
0.55695862 0.14552642 -0.00739015
0.57607621 0.14156112 -0.01576176
0.59310132 0.13956904 -0.02045278
0.60954255 0.13827096 -0.02260869
0.62477094 0.13818198 -0.02400847
0.64116865 0.14019454 -0.01907232
0.65790397 0.14461149 -0.01504344
0.67549616 0.157629 -0.00688622
0.70693892 0.18297721 -0.0120781
0.00459153 0.16268332 0.04183847
0.0117193 0.1627674 0.04161103
0.01933075 0.16265287 0.04138112
0.02749909 0.16239923 0.04119032
0.03565912 0.1622072 0.04106726
0.04482757 0.16197972 0.0407806
0.05287591 0.16225995 0.04000312
0.0584703 0.16463308 0.03756648
0.07003167 0.165508 0.03302392
0.09990337 0.16523418 0.02984376
0.13675249 0.1663056 0.028358
0.16962735 0.1675045 0.02568968
0.20531087 0.16938823 0.02112521
0.24597669 0.17076829 0.01278593
0.28606531 0.17076004 0.00508926
0.32627785 0.17055526 -0.00537404
0.36394313 0.17030641 -0.012616
0.3992697 0.17035079 -0.01349574
0.43190962 0.16993827 -0.01435674
0.4624112 0.16942933 -0.01487786
0.48795703 0.16948821 -0.01548118
0.51103753 0.16916132 -0.01633837
0.53434533 0.16770554 -0.01661845
0.55511779 0.16698273 -0.01337347
0.57260191 0.1657857 -0.01253723
0.59018689 0.16353995 -0.01617655
0.60543102 0.16222678 -0.01617465
0.62164134 0.15959309 -0.01919008
0.63748956 0.15827961 -0.02301681
0.65310103 0.15958832 -0.01829722
0.66796964 0.16541885 -0.00962626
0.68448013 0.17476353 -0.00828944
0.7118268 0.19660872 -0.01049151
0.00479021 0.18055356 0.04712585
0.01203499 0.18058673 0.04682355
0.01957989 0.18053564 0.04650354
0.02764225 0.18024015 0.04616056
0.0357436 0.17999852 0.04592121
0.0463483 0.17973322 0.04557524
0.0529033 0.17980987 0.0439424
0.06078748 0.18253621 0.04117866
0.07026213 0.18788426 0.03511003
0.1059233 0.18854873 0.03062611
0.14723656 0.19012929 0.02888462
0.18379821 0.19116989 0.02453957
0.22378491 0.19302084 0.01302818
0.26398173 0.19430169 0.00540952
0.30520639 0.19388798 0.00029314
0.34467024 0.19409034 -0.00894331
0.38155749 0.1936377 -0.0128919
0.41617805 0.19381435 -0.01372766
0.44867995 0.19311468 -0.01455615
0.47871712 0.19242293 -0.01474072
0.50332934 0.19227996 -0.01412649
0.52591765 0.19134881 -0.0151968
0.54863119 0.19020267 -0.01662623
0.56995457 0.18841469 -0.01786442
0.58761424 0.18668836 -0.01830674
0.6034677 0.18552569 -0.01888118
0.61814243 0.18482415 -0.01673011
0.63300133 0.1828794 -0.01528881
0.64964348 0.18112785 -0.01987329
0.66585916 0.18007293 -0.02280253
0.67957687 0.1842716 -0.01487241
0.69492644 0.19219746 -0.0153717
0.71686041 0.21115579 -0.00843596
0.00299779 0.19942534 0.05109877
0.01030812 0.19933136 0.05082602
0.01815175 0.19909671 0.05053304
0.02635361 0.19870353 0.05024717
0.03462857 0.19823906 0.04999344
0.04696865 0.19790865 0.04971077
0.05135613 0.19791536 0.0478173
0.06036891 0.20102538 0.04485823
0.07056471 0.20724261 0.03805816
0.11261155 0.2131864 0.03083526
0.15810369 0.21472262 0.0261063
0.19977061 0.21603712 0.0192345
0.24242589 0.21775448 0.00500713
0.2821739 0.21899769 -0.00247268
0.32289135 0.21907747 -0.00583806
0.36297071 0.21944153 -0.0123443
0.39936611 0.2183782 -0.01316678
0.43294364 0.21824203 -0.01399686
0.46467444 0.21741739 -0.01479404
0.49277261 0.21666029 -0.01491393
0.51748204 0.21670543 -0.01415246
0.53998834 0.21536107 -0.01445282
0.56156981 0.21405686 -0.01458025
0.58258992 0.21246092 -0.01624728
0.60074788 0.20997769 -0.01930041
0.61722016 0.20834979 -0.0211095
0.63152409 0.20708452 -0.02138501
0.64487326 0.20523658 -0.01840878
0.66111624 0.20369279 -0.01927968
0.67725229 0.20136096 -0.02489013
0.69133514 0.20354615 -0.02311804
0.70452559 0.21129352 -0.01937398
0.72188795 0.22717728 -0.00544429
0.00090655 0.21912901 0.05501497
0.00836055 0.21892528 0.05476739
0.01638266 0.21851172 0.05447026
0.02479131 0.21792695 0.05415275
0.03332987 0.21735618 0.05387093
0.04676482 0.21702224 0.05359752
0.04960295 0.21720986 0.05203469
0.05897837 0.22054377 0.04914755
0.07136505 0.22825274 0.04030576
0.11542343 0.23836766 0.02815129
0.17176104 0.24301159 0.02043997
0.21916141 0.24498644 0.01073788
0.26157194 0.24624282 0.00026655
0.30166 0.24712895 -0.00832948
0.34182954 0.24566856 -0.0110616
0.38014346 0.24504945 -0.01262332
0.41585723 0.24481149 -0.01337164
0.44978103 0.24442294 -0.01413792
0.48108101 0.24331212 -0.01500526
0.50811023 0.2427375 -0.01568231
0.53186858 0.24218671 -0.01532973
0.55368 0.24079032 -0.01303326
0.57433861 0.23922656 -0.01155691
0.59478146 0.23774363 -0.01354709
0.61289412 0.23459607 -0.01744672
0.63071066 0.23260291 -0.01953037
0.64421797 0.22964244 -0.02206504
0.65699971 0.2281666 -0.02231556
0.67267847 0.22643586 -0.02263343
0.68826526 0.22364898 -0.02579481
0.70261949 0.22548456 -0.02410238
0.71272933 0.23326793 -0.016109
0.72752208 0.24248408 -0.00566802
0.00024049 0.2389719 0.06064496
0.00783363 0.23854798 0.06014731
0.01590806 0.23795004 0.05954547
0.02420522 0.23737441 0.05903557
0.03370992 0.23685248 0.0586194
0.04594352 0.23670581 0.05776914
0.05113179 0.23746468 0.05655462
0.05685928 0.24138659 0.05288611
0.07146794 0.25011349 0.04228762
0.11670038 0.26181448 0.02269908
0.18686505 0.27194527 0.01282178
0.23694393 0.27311885 0.00159807
0.27974385 0.27599785 -0.00669087
0.32082748 0.27628845 -0.01033037
0.36088112 0.2752766 -0.01198798
0.39910468 0.27575418 -0.01282421
0.4342607 0.27524269 -0.01289196
0.46647993 0.27425984 -0.01310909
0.49679533 0.27262962 -0.01412045
0.52290857 0.27001631 -0.01487122
0.5450297 0.26904884 -0.00817984
0.56598526 0.26791334 -0.00346387
0.58754247 0.26617819 -0.00355528
0.60734934 0.2646696 -0.00620789
0.62502623 0.26310217 -0.00843018
0.64161706 0.25990114 -0.01071183
0.65643692 0.25565681 -0.01994664
0.67002934 0.25336376 -0.02316714
0.68411106 0.25043917 -0.0245165
0.69893706 0.24691851 -0.02458414
0.71102864 0.25052002 -0.01441528
0.72115791 0.25546178 -0.00747771
0.73367858 0.25790209 -0.00772586
0.00126113 0.26103964 0.06593966
0.00896108 0.26049864 0.06563066
0.01700821 0.25961894 0.06524659
0.02527883 0.2587156 0.06485489
0.03560779 0.25788498 0.06449777
0.04854323 0.25802875 0.0633084
0.0560807 0.25984111 0.0612313
0.05888786 0.26451531 0.05798363
0.06791127 0.27386054 0.04533217
0.11104343 0.28630888 0.02216376
0.18896686 0.29906613 0.00315982
0.2532627 0.30888075 -0.00256478
0.29679269 0.31097153 -0.01076373
0.33835441 0.31045431 -0.01145675
0.37818331 0.30946624 -0.01218595
0.41556081 0.30859205 -0.01269137
0.45081109 0.30745122 -0.01284143
0.48257458 0.30571932 -0.01277409
0.51192397 0.30454141 -0.01326217
0.53819609 0.30304691 -0.01286193
0.5608803 0.30215624 -0.00768737
0.58218592 0.30074453 -0.00450403
0.6027022 0.29738247 -0.00516479
0.62145978 0.29453003 -0.00566845
0.63796616 0.29210287 -0.00532964
0.65375453 0.28875607 -0.00432108
0.66864109 0.28388 -0.01095472
0.68267637 0.27969977 -0.02108721
0.69656533 0.27664942 -0.02447932
0.70935857 0.27506071 -0.01931235
0.71947485 0.27732956 -0.00696654
0.72981733 0.27956375 -0.00558495
0.74016988 0.27527046 -0.00993263
0.00298929 0.28662148 0.07174735
0.01097848 0.28573447 0.07120869
0.01935939 0.28461844 0.07059708
0.02802124 0.28347018 0.06998584
0.0387607 0.28244752 0.06949102
0.05427994 0.28227797 0.06901458
0.06405484 0.28380468 0.06826285
0.06291746 0.28874803 0.06504682
0.06565312 0.29890412 0.05285488
0.10345706 0.31353521 0.02505743
0.18053952 0.32681617 -0.00029752
0.25069612 0.33863071 -0.00889923
0.31114331 0.34904379 -0.01086771
0.35475191 0.34937504 -0.01154352
0.3947843 0.34809658 -0.01226844
0.43159494 0.34722367 -0.01259465
0.46640015 0.34610593 -0.01182759
0.49908116 0.34393314 -0.01030676
0.52794254 0.34147936 -0.01176062
0.55317336 0.33897015 -0.01131039
0.57598263 0.33650285 -0.00917244
0.59754741 0.33408779 -0.00784255
0.61800921 0.33028251 -0.01114567
0.63619447 0.32661203 -0.01317166
0.65267587 0.32406932 -0.01037334
0.66785896 0.32116103 -0.00737509
0.68226874 0.317312 -0.00919849
0.69610012 0.31246433 -0.01640451
0.70930684 0.3074795 -0.02115468
0.72156888 0.30345303 -0.02089593
0.73080921 0.30385169 -0.01139558
0.73990011 0.30427891 -0.00752573
0.74720919 0.29304153 -0.01058054
0.00277209 0.31415227 0.07947993
0.0110006 0.3132861 0.07893477
0.01992999 0.31198305 0.07822467
0.0291125 0.31093341 0.07757534
0.03807297 0.30994773 0.07679034
0.05247639 0.30937043 0.0758798
0.06441063 0.31052583 0.07520987
0.06497742 0.31547228 0.07272229
0.06569413 0.32497463 0.06325477
0.09511933 0.34090438 0.03504477
0.163045 0.35708839 0.00119641
0.24123539 0.36923444 -0.01181668
0.30693376 0.38086385 -0.01177967
0.36468437 0.38987866 -0.01173502
0.40913695 0.39078012 -0.01225408
0.44635734 0.38904378 -0.01279522
0.48152047 0.38743046 -0.0107309
0.51432353 0.38542286 -0.00980087
0.54360825 0.38280782 -0.01154501
0.56801248 0.37883687 -0.01260969
0.59095103 0.37510169 -0.01109632
0.61250997 0.3717441 -0.00858283
0.63278192 0.3683342 -0.0085305
0.65143496 0.36437884 -0.01092864
0.6673606 0.36105415 -0.00978576
0.6823737 0.35696393 -0.00626741
0.69637281 0.35218525 -0.00725615
0.70959502 0.34712964 -0.01576043
0.72179621 0.34070861 -0.02044708
0.73362887 0.33505049 -0.02259807
0.7432853 0.33317688 -0.01982436
0.75106126 0.33185834 -0.01318557
0.75442761 0.31209666 -0.00981824
-0.00028241 0.34275365 0.08744083
0.00735021 0.34190196 0.08705162
0.01562641 0.34015012 0.08636867
0.02429129 0.33861864 0.08554786
0.03369905 0.3374308 0.08461337
0.04906247 0.33724853 0.08311636
0.0619601 0.33863711 0.08178334
0.06835124 0.34274516 0.08038653
0.06624668 0.35210568 0.07408918
0.0832082 0.36594027 0.05283463
0.13802911 0.38482791 0.01370175
0.21823141 0.40062815 -0.01249796
0.29435003 0.41274461 -0.01262103
0.35712832 0.42381147 -0.0124988
0.41294342 0.43276247 -0.01257907
0.45941907 0.43656883 -0.01283287
0.49575871 0.43447244 -0.00753863
0.52833325 0.43194664 -0.00476735
0.5574457 0.42868865 -0.00823523
0.58252311 0.42412046 -0.01310699
0.60595769 0.41957989 -0.01377592
0.62731349 0.41497824 -0.00971503
0.64733922 0.41046685 -0.00366668
0.66586012 0.40644205 0.00097654
0.68134224 0.40247729 -0.00007506
0.69701821 0.39778221 -0.00035118
0.71048772 0.39153394 -0.00147908
0.72328246 0.38544273 -0.00963945
0.73504931 0.37768018 -0.02116608
0.74531895 0.37002501 -0.02167816
0.75507182 0.36555585 -0.02031587
0.76254904 0.36141747 -0.01729526
0.76150984 0.33359465 -0.00783944
-0.00119473 0.37424836 0.0946386
0.00625688 0.37401405 0.0943571
0.01424968 0.37270632 0.09387635
0.02283442 0.37067187 0.09305026
0.03121361 0.36897519 0.0922588
0.04201904 0.36745429 0.09142254
0.06712343 0.36702436 0.09047448
0.06441292 0.37149391 0.08855452
0.07202762 0.37988722 0.08407327
0.07652091 0.39292473 0.07055394
