site/assets/luts/freshluts--0000993-green-shadows.cube
# LUTr-Schema-Version: 2
# LUTr-ID: freshluts--0000993-green-shadows
# LUTr-Title: Green Shadows
# LUTr-Collection: Fresh LUTs
# LUTr-Collection-ID: freshluts-community
# LUTr-Source: https://freshluts.com
# LUTr-Retrieved: 2026-07-27
# LUTr-Source-File: submissions-raw/freshluts/cubes/993__Green_action_Movie_Lut_3.pexels-pixabay-163443.cube
# LUTr-Source-Format: CUBE
# LUTr-Source-SHA256: 12001bb17cad8cc993bca40cf7311e1f83669a1767163843672e7c2d4f07d2b6
# LUTr-License: CC0-1.0
# LUTr-License-URL: https://freshluts.com/termsandconditions
# LUTr-License-Basis: site-terms
# LUTr-Transform-Class: creative-look
# LUTr-Tags: creative, freshluts, community, cube, cinematic, blockbuster, green, low-key, panasonic-v-log
# LUTr-Input-Color-Space:
# LUTr-Input-Gamut: panasonic-v-gamut
# LUTr-Input-Transfer: panasonic-v-log
# LUTr-Output-Color-Space: srgb
# LUTr-Output-Gamut: rec709
# LUTr-Output-Transfer: srgb
# LUTr-Color-Space-Confidence: camera-profile-input-required
# LUTr-Domain-Normalized: true
# LUTr-Shaper: none
# LUTr-Original-Grid: 33x33x33
# LUTr-Conversion-Grid: 33x33x33
# LUTr-Conversion-Interpolation: none
# LUTr-Conversion-Method: Metadata normalization; numeric LUT samples preserved
# LUTr-Conversion-Tool: LUTr scripts/convert-all-to-cube.mjs 2.0.0
# LUTr-Conversion-Date: 2026-07-28
# LUTr-Asset-URL: https://freshluts.com/luts/993
# LUTr-Author: LutMaster
# LUTr-Author-URL: https://freshluts.com/users/57203
# LUTr-Attribution: LutMaster via Fresh LUTs
# LUTr-Source-Labels: gamma=Panasonic V-log; color=Green; key=Low Key; style=Blockbuster
# LUTr-Note: Preserve this metadata and the upstream license notices when redistributing.
TITLE "Green Shadows"
LUT_3D_SIZE 5
DOMAIN_MIN 0 0 0
DOMAIN_MAX 1 1 1
0.0554513 0.101472 0.0794995
0.0935988 0.109361 0.0861677
0.22005 0.102327 0.0818189
0.349218 0.0987411 0.0704814
0.426596 0.111269 0.0742962
0.0720531 0.148684 0.102998
0.0947738 0.157443 0.107683
0.240085 0.161044 0.0901961
0.378088 0.162264 0.0784772
0.513787 0.166293 0.0774243
0.0748302 0.218326 0.106844
0.110018 0.227283 0.109483
0.261051 0.240681 0.088426
0.41529 0.23473 0.0831311
0.556161 0.240146 0.0789502
0.083711 0.300298 0.116609
0.117571 0.316121 0.105791
0.294148 0.343572 0.093019
0.459052 0.354833 0.0899062
0.58294 0.347585 0.0918135
0.100237 0.394873 0.131655
0.130678 0.421912 0.107424
0.312932 0.459342 0.0986496
0.496391 0.495155 0.0965896
0.615549 0.499214 0.118151
0.0954147 0.0954147 0.0954147
0.10605 0.10605 0.10605
0.231876 0.108537 0.125719
0.378317 0.103273 0.112581
0.484871 0.106523 0.108278
0.138537 0.138537 0.138537
0.128466 0.156374 0.144564
0.226444 0.172839 0.148302
0.38735 0.170291 0.135836
0.502571 0.173022 0.132403
0.11754 0.227024 0.17496
0.153048 0.228199 0.17821
0.243595 0.252842 0.157412
0.422019 0.249882 0.139681
0.544625 0.261097 0.143297
0.120272 0.302419 0.185748
0.157137 0.314366 0.192081
0.255497 0.348745 0.159426
0.466865 0.369711 0.128252
0.59498 0.358022 0.143053
0.11426 0.403708 0.197711
0.170504 0.416251 0.205814
0.284886 0.465415 0.164706
0.506127 0.509255 0.135088
0.639033 0.520592 0.169085
0.104524 0.104524 0.104524
0.109514 0.109514 0.109514
0.211826 0.120089 0.171283
0.399573 0.110307 0.16669
0.512627 0.112612 0.155062
0.14847 0.14847 0.14847
0.16051 0.16051 0.16051
0.195438 0.182254 0.188434
0.406226 0.17763 0.19588
0.523201 0.182437 0.190143
0.196109 0.220478 0.21854
0.234241 0.234241 0.234241
0.241672 0.241672 0.241672
0.402335 0.275471 0.238102
0.538506 0.284779 0.237385
0.238361 0.327886 0.297627
0.206394 0.361776 0.294057
0.227237 0.358755 0.281544
0.445151 0.395361 0.23798
0.599481 0.399191 0.257664
0.155001 0.468757 0.312703
0.225483 0.454307 0.316564
0.237095 0.460975 0.294545
0.458824 0.526055 0.24712
0.658534 0.544793 0.243839
0.10605 0.117006 0.13518
0.121736 0.121736 0.121736
0.183886 0.126284 0.22356
0.379614 0.124956 0.225071
0.536965 0.120668 0.2065
0.149996 0.164904 0.17525
0.176989 0.176989 0.176989
0.1823 0.1823 0.1823
0.384314 0.18967 0.263157
0.535943 0.192126 0.247471
0.191394 0.236652 0.251011
0.234485 0.249943 0.254932
0.253452 0.254307 0.254704
0.363104 0.285527 0.307408
0.542733 0.294743 0.304768
0.236072 0.332372 0.327245
0.291096 0.345571 0.340169
0.319371 0.367575 0.362737
0.36199 0.39852 0.375006
0.582223 0.436027 0.374212
0.276875 0.456672 0.406744
0.340963 0.466743 0.425391
0.263127 0.519707 0.426215
0.347967 0.52578 0.412207
0.644892 0.574166 0.392447
0.111513 0.129259 0.176608
0.127489 0.134981 0.164965
0.145846 0.143206 0.161074
0.351797 0.135592 0.298787
0.516899 0.138094 0.26392
0.144747 0.181399 0.226093
0.175204 0.195392 0.223239
0.186999 0.194766 0.214435
0.344335 0.202152 0.341848
0.519585 0.207935 0.316457
0.183139 0.255634 0.304417
0.22417 0.268406 0.290196
0.247105 0.279133 0.300023
0.297826 0.297826 0.297826
0.523262 0.305608 0.385214
0.227893 0.344427 0.37293
0.28101 0.358007 0.376593
0.312352 0.376623 0.394217
0.366293 0.388113 0.397513
0.547234 0.440055 0.44889
0.281422 0.457877 0.447791
0.333639 0.470726 0.460029
0.367987 0.490074 0.478767
0.416541 0.514107 0.50103
0.598566 0.58294 0.500175
