site/assets/luts/freshluts--0002447-gara-cinelut3.cube
# LUTr-Schema-Version: 2
# LUTr-ID: freshluts--0002447-gara-cinelut3
# LUTr-Title: Gara CineLut3
# LUTr-Collection: Fresh LUTs
# LUTr-Collection-ID: freshluts-community
# LUTr-Source: https://freshluts.com
# LUTr-Retrieved: 2026-07-27
# LUTr-Source-File: submissions-raw/freshluts/cubes/2447__00_Gara_CineLut03.cube
# LUTr-Source-Format: CUBE
# LUTr-Source-SHA256: ae49c086bf60283b752066141e2edb30ecf4f4108ef65830299763b6b02da6c9
# LUTr-License: CC0-1.0
# LUTr-License-URL: https://freshluts.com/termsandconditions
# LUTr-License-Basis: site-terms
# LUTr-Transform-Class: creative-look
# LUTr-Tags: creative, freshluts, community, cube, film-emulation, cool, sony-s-log3
# LUTr-Input-Color-Space: sony-slog3-sgamut3
# LUTr-Input-Gamut: sony-s-gamut3
# LUTr-Input-Transfer: sony-s-log3
# LUTr-Output-Color-Space: srgb
# LUTr-Output-Gamut: rec709
# LUTr-Output-Transfer: srgb
# LUTr-Color-Space-Confidence: inferred-from-source-label
# LUTr-Domain-Normalized: true
# LUTr-Shaper: none
# LUTr-Original-Grid: 16x16x16
# LUTr-Conversion-Grid: 16x16x16
# LUTr-Conversion-Interpolation: none
# LUTr-Conversion-Method: Metadata normalization; numeric LUT samples preserved
# LUTr-Conversion-Tool: LUTr scripts/convert-all-to-cube.mjs 2.0.0
# LUTr-Conversion-Date: 2026-07-28
# LUTr-Asset-URL: https://freshluts.com/luts/2447
# LUTr-Author: Gara
# LUTr-Author-URL: https://freshluts.com/users/426496
# LUTr-Attribution: Gara via Fresh LUTs
# LUTr-Source-Labels: gamma=Sony S-Log 3; color=Cool; key=Neutral; style=Film emulation
# LUTr-Note: Preserve this metadata and the upstream license notices when redistributing.
TITLE "Gara CineLut3"
LUT_3D_SIZE 6
DOMAIN_MIN 0 0 0
DOMAIN_MAX 1 1 1
0.02648 0.050409 0.123924
0.13707 0.041956 0.103188
0.50835 -0.024038 0.058692
0.697617 -0.048981 -0.026685
0.854244 -0.070427 -0.068088
0.964774 -0.090326 -0.095071
0.00473 0.161245 0.083376
0.125134 0.160531 0.077055
0.441137 0.181019 0.040661
0.706156 0.166624 -0.041584
0.885666 0.121765 -0.073769
0.980525 0.040766 -0.098728
-0.059769 0.355807 -0.041268
0.07611 0.357456 -0.04527
0.441414 0.398384 -0.055967
0.735809 0.414378 -0.072511
0.933926 0.412357 -0.093028
1.050683 0.396881 -0.112579
-0.095607 0.523617 -0.092221
0.027337 0.52585 -0.093354
0.413081 0.579627 -0.097889
0.729352 0.61252 -0.106285
0.954584 0.627241 -0.120668
1.076058 0.620332 -0.135092
-0.132262 0.691759 -0.127917
-0.092108 0.691751 -0.128623
0.371103 0.753323 -0.137848
0.721514 0.795942 -0.143433
0.958922 0.808848 -0.152083
1.086056 0.806099 -0.162854
-0.166701 0.826636 -0.131611
-0.140841 0.826579 -0.132133
0.279948 0.867512 -0.173369
0.68896 0.925559 -0.178808
0.948942 0.949768 -0.185083
1.086383 0.952206 -0.193367
0.020303 0.045868 0.226228
0.142557 0.040984 0.224481
0.503007 -0.024934 0.239025
0.705662 -0.049325 0.202736
0.867328 -0.070674 0.128023
0.964732 -0.090513 -0.044674
0.001749 0.169318 0.226475
0.108035 0.165412 0.221863
0.466071 0.158735 0.195289
0.719422 0.086464 0.071468
0.869975 -0.042131 -0.053557
0.964506 -0.025637 -0.064727
-0.060088 0.368688 0.207335
0.034848 0.363705 0.085128
0.4368 0.397169 0.030347
0.751401 0.409529 -0.051483
0.944364 0.396147 -0.082854
1.04956 0.390873 -0.086839
-0.095782 0.523549 -0.041544
-0.078487 0.527455 -0.083417
0.389131 0.579169 -0.088996
0.730926 0.613717 -0.099012
0.960472 0.625297 -0.115379
1.075871 0.618246 -0.116559
-0.132382 0.691725 -0.10499
-0.124921 0.693885 -0.123942
0.32564 0.748989 -0.133942
0.712425 0.796852 -0.139855
0.959526 0.810691 -0.149102
1.086029 0.805655 -0.149257
-0.166824 0.826685 -0.116317
-0.145788 0.826581 -0.119766
0.265676 0.865734 -0.15954
0.685871 0.925149 -0.167035
0.948109 0.949679 -0.173928
1.086367 0.952248 -0.182964
0.020925 0.025405 0.414307
0.178613 0.015815 0.427359
0.493756 -0.030678 0.443062
0.70729 -0.051869 0.436796
0.880365 -0.072376 0.432145
0.991199 -0.091735 0.421029
-0.024111 0.179626 0.438108
0.106334 0.162978 0.462092
0.469944 0.146327 0.470694
0.727397 0.067254 0.449509
0.896332 -0.047104 0.42291
0.990589 -0.031503 0.41381
-0.062414 0.385752 0.452564
0.030529 0.390957 0.458665
0.411659 0.411272 0.465241
0.751214 0.403591 0.438963
0.955282 0.353646 0.384948
1.051958 0.375653 0.412626
-0.097063 0.569507 0.448039
-0.079901 0.571228 0.430931
0.273488 0.613322 0.400384
0.716302 0.639522 0.364986
0.968093 0.62889 0.286192
1.073433 0.63322 0.392785
-0.13324 0.747072 0.435361
-0.126 0.745201 0.402847
0.073504 0.740242 0.155265
0.677853 0.797182 -0.043813
0.960323 0.810498 -0.088394
1.080214 0.829476 0.347837
-0.167402 0.867107 0.387094
-0.14656 0.86573 0.375872
0.130342 0.898027 0.358986
0.656652 0.954857 0.323053
0.939666 0.976656 0.291137
1.081614 0.9756 0.248146
0.030341 -0.025482 0.595807
0.220768 -0.029731 0.612779
0.494869 -0.042205 0.628189
0.706946 -0.058187 0.628895
0.885844 -0.076761 0.63744
0.996683 -0.094921 0.633235
-0.040506 0.17171 0.628955
0.140004 0.141154 0.661842
0.48024 0.113386 0.678074
0.728013 0.044036 0.66409
0.900257 -0.055857 0.644456
0.996394 -0.04318 0.630577
-0.068896 0.392359 0.657911
0.018905 0.397684 0.680831
0.414929 0.40145 0.705379
0.748818 0.392871 0.703426
0.951192 0.345582 0.687815
1.05002 0.371906 0.677708
-0.100523 0.588962 0.670687
-0.085068 0.591854 0.673834
0.248174 0.627598 0.694509
0.707663 0.645982 0.698287
0.960491 0.630652 0.678009
1.067629 0.632052 0.680418
-0.135589 0.772296 0.681899
-0.128385 0.773297 0.676259
0.066445 0.789615 0.660165
0.605696 0.843859 0.645753
0.944124 0.850709 0.625051
1.070738 0.840154 0.676034
-0.169145 0.901249 0.672285
-0.148623 0.900868 0.669591
0.111804 0.929804 0.67508
0.614316 0.979472 0.661245
0.917359 0.999546 0.655082
1.069528 0.998957 0.648245
0.053012 -0.042496 0.72264
0.247415 -0.045127 0.736026
0.509612 -0.053278 0.752038
0.717843 -0.066323 0.759265
0.889727 -0.081913 0.765061
1.000481 -0.098804 0.763721
-0.01659 0.168819 0.765689
0.164431 0.109514 0.781448
0.495938 0.071371 0.796588
0.729913 -0.019347 0.771697
0.901385 -0.064843 0.773365
1.000246 -0.053611 0.763058
-0.077023 0.405876 0.807278
-0.032995 0.40012 0.818929
0.429507 0.388426 0.850853
0.751781 0.372741 0.857084
0.950032 0.328392 0.847724
1.050283 0.366307 0.836512
-0.106595 0.611285 0.829497
-0.093819 0.612559 0.834927
0.250696 0.631066 0.860996
0.699956 0.634904 0.877542
0.95712 0.622081 0.872051
1.066172 0.628455 0.855961
-0.138476 0.786443 0.83904
-0.131724 0.788421 0.839914
0.055169 0.801559 0.848112
0.600053 0.848701 0.872246
0.934321 0.855174 0.867016
1.066355 0.850215 0.862617
-0.171291 0.919944 0.836953
-0.151202 0.919892 0.836249
0.108639 0.945507 0.846161
0.61289 0.990039 0.85017
0.916006 1.005275 0.853612
1.063672 1.004458 0.849526
0.059992 -0.053122 0.832628
0.252521 -0.054891 0.844248
0.512643 -0.06173 0.860763
0.719386 -0.07306 0.868629
0.891006 -0.087302 0.874475
1.002451 -0.103028 0.873951
0.009804 0.159866 0.875083
0.191507 0.129813 0.879641
0.488022 0.112714 0.897697
0.725563 0.059971 0.900376
0.89646 0.02214 0.887293
1.002206 -0.062749 0.873748
-0.083858 0.406323 0.918799
0.035906 0.403515 0.922805
0.443074 0.393719 0.945792
0.737491 0.392469 0.9548
0.928754 0.380111 0.954027
1.050489 0.36035 0.948558
-0.111402 0.615547 0.942127
-0.064327 0.612864 0.941881
0.376487 0.634229 0.966193
0.701981 0.631511 0.977048
0.933448 0.62908 0.978932
1.066496 0.62135 0.97472
-0.141969 0.792762 0.953161
-0.114078 0.791014 0.952892
0.268297 0.819711 0.970482
0.66254 0.836737 0.983128
0.930206 0.849597 0.986188
1.066929 0.846102 0.983431
-0.173725 0.928608 0.954122
-0.154073 0.928517 0.954123
0.104818 0.951783 0.964617
0.616594 0.992672 0.979693
0.918766 1.006207 0.983582
1.060381 1.005459 0.982231
