site/assets/luts/freshluts--0000605-stormy.cube
# LUTr-Schema-Version: 2
# LUTr-ID: freshluts--0000605-stormy
# LUTr-Title: STORMY
# LUTr-Collection: Fresh LUTs
# LUTr-Collection-ID: freshluts-community
# LUTr-Source: https://freshluts.com
# LUTr-Retrieved: 2026-07-27
# LUTr-Source-File: submissions-raw/freshluts/cubes/605__STORMY__23.DJI_0002.cube
# LUTr-Source-Format: CUBE
# LUTr-Source-SHA256: 0a8235eecccf714f9d003714f3ad9fe0131be1435df01a138b72fb279acb1d66
# LUTr-License: CC0-1.0
# LUTr-License-URL: https://freshluts.com/termsandconditions
# LUTr-License-Basis: site-terms
# LUTr-Transform-Class: creative-look
# LUTr-Tags: creative, freshluts, community, cube, film-emulation, dji-d-log
# LUTr-Input-Color-Space: dji-dlog-dgamut
# LUTr-Input-Gamut: dji-d-gamut
# LUTr-Input-Transfer: dji-d-log
# LUTr-Output-Color-Space: srgb
# LUTr-Output-Gamut: rec709
# LUTr-Output-Transfer: srgb
# LUTr-Color-Space-Confidence: inferred-from-source-label
# LUTr-Domain-Normalized: true
# LUTr-Shaper: none
# LUTr-Original-Grid: 33x33x33
# LUTr-Conversion-Grid: 33x33x33
# LUTr-Conversion-Interpolation: none
# LUTr-Conversion-Method: Metadata normalization; numeric LUT samples preserved
# LUTr-Conversion-Tool: LUTr scripts/convert-all-to-cube.mjs 2.0.0
# LUTr-Conversion-Date: 2026-07-28
# LUTr-Asset-URL: https://freshluts.com/luts/605
# LUTr-Author: Shamoon Abbasi
# LUTr-Author-URL: https://freshluts.com/users/1258
# LUTr-Attribution: Shamoon Abbasi via Fresh LUTs
# LUTr-Source-Labels: gamma=DJI D-log; color=None; key=Neutral; style=Film emulation
# LUTr-Note: Preserve this metadata and the upstream license notices when redistributing.
TITLE "STORMY"
LUT_3D_SIZE 33
DOMAIN_MIN 0 0 0
DOMAIN_MAX 1 1 1
0 0 0
0.0142672 0 0
0.0453193 0 0
0.0756847 0 0
0.106722 0 0
0.138811 0 0
0.173129 0 0
0.210239 0 0
0.25034 0 0
0.293309 0 0
0.33817 0 0
0.383886 0 0
0.429389 0 0
0.474098 0 0
0.519234 0 0
0.564508 0 0
0.609339 0 0
0.653117 0 0
0.695338 0 0
0.735393 0 0
0.773083 0 0
0.808515 0 0
0.841794 0 0
0.873106 0 0
0.902968 0 0
0.931838 0 0
0.960113 0 0
0.98822 0 0
1 0 0
1 0 0
1 0 0
1 0 0
1 0 0
0 0.0130007 0
0.0125124 0.0125124 0
0.0435492 0.0122072 0
0.073518 0.0119783 0
0.103838 0.0115206 0
0.135485 0.0105745 0
0.169497 0.00892653 0
0.206378 0.00645457 0
0.246326 0.00311284 0
0.289189 0 0
0.33402 0 0
0.379721 0 0
0.425284 0 0
0.470069 0 0
0.515328 0 0
0.560769 0 0
0.605783 0 0
0.649805 0 0
0.692287 0 0
0.732647 0 0
0.770657 0 0
0.806455 0 0
0.840146 0 0
0.871931 0 0
0.902281 0 0
0.931655 0 0
0.960433 0 0
0.989059 0 0
1 0 0
1 0 0
1 0 0
1 0 0
1 0 0
0 0.0433356 0
0.0109407 0.0422675 0
0.0415808 0.0415808 0
0.0712749 0.041062 0
0.101396 0.0404059 0
0.132921 0.0393378 0
0.166842 0.0376135 0
0.203708 0.035111 0
0.243656 0.0317845 0
0.286595 0.0277104 0
0.331518 0.0231479 0
0.377356 0.0184176 0
0.423087 0.0137789 0
0.468086 0.00944533 0
0.513588 0.00508125 0
0.559304 0.00077821 0
0.604639 0 0
0.648997 0 0
0.691859 0 0
0.732662 0 0
0.771145 0 0
0.807431 0 0
0.841642 0 0
0.87393 0 0
0.904799 0 0
0.934691 0 0
0.964004 0 0
0.993164 0 0
1 0 0
1 0 0
1 0.0016022 0
1 0.00457771 0
1 0.00773632 0
0 0.0720226 0
0.00924697 0.0707866 0
0.039765 0.0699779 0
0.0694133 0.0694133 0
0.0995193 0.0687419 0
0.131075 0.0677043 0
0.165072 0.066041 0
0.202045 0.0636606 0
0.242145 0.0604868 0
0.285267 0.0565957 0
0.330419 0.0522621 0
0.376516 0.047776 0
0.422538 0.0434424 0
0.467857 0.0394293 0
0.513726 0.0354314 0
0.559838 0.0315251 0
0.605615 0.0279088 0
0.650462 0.0247196 0
0.693828 0.0221408 0
0.735134 0.0203098 0
0.774136 0.0192874 0
0.810941 0.0190585 0
0.84567 0.0195926 0
0.878492 0.0208438 0
0.909895 0.0226749 0
0.940337 0.024979 0
0.970199 0.0276493 0
0.999908 0.0305791 0
1 0.0336461 0
1 0.0368505 0
1 0.0401923 0
1 0.0436561 0
1 0.0472572 0
0 0.100511 0
0.00697337 0.0992905 0
0.0375525 0.0985275 0
0.067277 0.0980545 0
0.0975052 0.0975052 0
0.129229 0.0966201 0
0.163424 0.0951858 0
0.200641 0.093019 0
0.241016 0.0901198 0
0.284428 0.0865339 0
0.329915 0.082536 0
0.376379 0.0784161 0
0.422827 0.0745098 0
0.468605 0.0709544 0
0.514961 0.0674296 0
0.561578 0.0640421 0
0.607874 0.0609293 0
0.653239 0.0582742 0
0.697124 0.0562142 0
0.738949 0.054902 0
0.778485 0.0544137 0
0.815839 0.0547341 0
0.851118 0.0558022 0
0.884474 0.0576028 0
0.916442 0.0599985 0
0.947433 0.0628672 0
0.977844 0.0660716 0
1 0.0695201 0
1 0.0730602 0
1 0.0766918 0
1 0.080415 0
1 0.0842298 0
1 0.0881361 0
0 0.129717 0
0.00370794 0.128634 0
0.0344701 0.128054 0
0.0644083 0.127779 0
0.0948806 0.127474 0
0.126894 0.126894 0
0.161395 0.12575 0
0.198962 0.123949 0
0.239719 0.121431 0
0.283574 0.118288 0
0.329534 0.114748 0
0.376501 0.111147 0
0.423453 0.107729 0
0.469749 0.104692 0
0.516625 0.101701 0
0.563775 0.0988327 0
0.610574 0.0962539 0
0.656489 0.0941176 0
0.700908 0.092607 0
0.743282 0.0918441 0
0.783383 0.0919051 0
0.821286 0.0927749 0
0.857114 0.0944076 0
0.89102 0.0967422 0
0.923476 0.0996414 0
0.954925 0.102953 0
0.985748 0.106584 0
1 0.110399 0
1 0.11426 0
1 0.118181 0
1 0.122148 0
1 0.126177 0
1 0.130251 0
0 0.160403 0
0 0.159579 0
0.0300603 0.159289 0
0.0603342 0.15935 0
0.0911727 0.159411 0
0.123583 0.159228 0
0.158541 0.158541 0
0.196582 0.157214 0
0.237858 0.155215 0
0.282216 0.152575 0
0.328679 0.149554 0
0.376181 0.146471 0
0.423651 0.143587 0
0.470481 0.14107 0
0.517891 0.138613 0
0.565576 0.136294 0
0.61294 0.134264 0
0.659403 0.132677 0
0.704387 0.131716 0
0.747311 0.131502 0
0.787915 0.132097 0
0.826322 0.133455 0
0.862577 0.135531 0
0.89688 0.138262 0
0.929702 0.141512 0
0.961471 0.145144 0
0.992554 0.149035 0
1 0.153079 0
1 0.157153 0
1 0.161227 0
1 0.165316 0
1 0.169406 0
1 0.17351 0
0 0.193164 0
0 0.192721 0
0.0242618 0.192859 0
0.0549935 0.193378 0
0.0863203 0.193927 0
0.119234 0.194247 0
0.154711 0.19408 0
0.193271 0.193271 0
0.235065 0.191791 0
0.279957 0.18967 0
0.326955 0.187198 0
0.37499 0.184649 0
0.423011 0.1823 0
0.47039 0.180346 0
0.518349 0.178439 0
0.566598 0.176669 0
0.614496 0.175189 0
0.661463 0.174121 0
0.70692 0.173632 0
0.750271 0.173831 0
0.791272 0.174807 0
0.829999 0.176501 0
0.866575 0.178882 0
0.901137 0.181872 0
0.934173 0.185336 0
0.96611 0.189151 0
0.997345 0.193194 0
1 0.19733 0
1 0.201465 0
1 0.20557 0
1 0.209628 0
1 0.213672 0
1 0.217685 0
0 0.228489 0
0 0.228534 0
0.017319 0.229191 0
0.0485695 0.230228 0
0.080415 0.231296 0
0.113848 0.232136 0
0.149859 0.232486 0
0.188952 0.232227 0
0.231281 0.231281 0
0.276722 0.229709 0
0.324285 0.227787 0
0.372869 0.225788 0
0.421439 0.224002 0
0.469352 0.222583 0
0.517815 0.22118 0
0.566506 0.219852 0
0.614832 0.218784 0
0.662165 0.218082 0
0.707942 0.217914 0
0.751568 0.218418 0
0.792813 0.219623 0
0.831754 0.22153 0
0.868482 0.224063 0
0.903166 0.227176 0
0.936294 0.230732 0
0.968292 0.234607 0
0.999527 0.238651 0
1 0.242756 0
1 0.246815 0
1 0.250797 0
1 0.254719 0
1 0.258579 0
1 0.262379 0
0 0.26659 0
0 0.267155 0
0.00944533 0.26833 0
0.0412299 0.269902 0
0.0736248 0.271519 0
0.107607 0.272892 0
0.144152 0.273808 0
0.18381 0.274083 0
0.226703 0.273701 0
0.272679 0.272679 0
0.32076 0.271275 0
0.369833 0.269764 0
0.41883 0.268421 0
0.46714 0.267384 0
0.515953 0.266331 0
0.564965 0.265324 0
0.61355 0.264515 0
0.661112 0.264057 0
0.707088 0.264073 0
0.750866 0.264714 0
0.792218 0.266041 0
0.831235 0.268009 0
0.867994 0.270588 0
0.902678 0.273701 0
0.93576 0.277211 0
0.967666 0.28098 0
0.998779 0.284901 0
1 0.288853 0
1 0.292714 0
1 0.296498 0
1 0.300313 0
1 0.304173 0
1 0.30808 0
0 0.307179 0
0 0.308278 0
0.00163272 0.310002 0
0.0339666 0.312123 0
0.0669108 0.31429 0
0.101457 0.316228 0
0.138552 0.317678 0
0.178714 0.318471 0
0.222065 0.318547 0
0.268467 0.317937 0
0.316915 0.316915 0
0.366323 0.31574 0
0.415625 0.314687 0
0.464195 0.313909 0
0.513222 0.313069 0
0.562417 0.312245 0
0.611124 0.311574 0
0.658793 0.311208 0
0.704814 0.311284 0
0.748623 0.311955 0
0.78996 0.313252 0
0.828901 0.31516 0
0.865568 0.317632 0
0.900114 0.320607 0
0.933013 0.323934 0
0.964706 0.327504 0
0.995651 0.331258 0
1 0.335134 0
1 0.33904 0
1 0.342947 0
1 0.346883 0
1 0.350851 0
1 0.354833 0
0 0.349905 0
0 0.351568 0
0 0.353841 0
0.0277562 0.356497 0
0.0611887 0.359152 0
0.0961929 0.361547 0
0.133684 0.363394 0
0.174212 0.364553 0
0.217884 0.36495 0
0.264576 0.36463 0
0.313268 0.363851 0
0.362875 0.362875 0
0.412345 0.36199 0
0.461021 0.361334 0
0.51014 0.360571 0
0.559365 0.359777 0
0.608087 0.359121 0
0.655711 0.358709 0
0.701671 0.358709 0
0.745357 0.359274 0
0.786542 0.360433 0
0.825299 0.362142 0
0.861753 0.364401 0
0.896162 0.367239 0
0.92903 0.37055 0
0.960815 0.374197 0
0.991882 0.378073 0
1 0.382071 0
1 0.386069 0
1 0.390036 0
1 0.394003 0
1 0.397986 0
1 0.401968 0
0 0.3944 0
0 0.396551 0
0 0.399252 0
0.0231937 0.402289 0
0.0569772 0.405295 0
0.0922713 0.407996 0
0.130053 0.410117 0
0.170794 0.41149 0
0.214664 0.412085 0
0.261494 0.411917 0
0.310292 0.411231 0
0.359976 0.41033 0
0.409461 0.409461 0
0.458137 0.408804 0
0.507195 0.407996 0
0.556344 0.407111 0
0.604944 0.406317 0
0.652399 0.405753 0
0.698146 0.405554 0
0.741634 0.405905 0
0.782727 0.406958 0
0.8215 0.408698 0
0.858076 0.411078 0
0.892592 0.414038 0
0.925582 0.417441 0
0.957427 0.42118 0
0.988571 0.425116 0
1 0.429145 0
1 0.433143 0
1 0.43711 0
1 0.441047 0
1 0.444968 0
1 0.448859 0
0 0.44004 0
0 0.442512 0
0 0.445502 0
0.0203708 0.448798 0
0.0543679 0.452018 0
0.0898451 0.454887 0
0.127733 0.45713 0
0.168582 0.45861 0
0.212497 0.459266 0
0.259342 0.459098 0
0.308125 0.458396 0
0.357733 0.45742 0
0.407126 0.456458 0
0.455665 0.45565 0
0.50454 0.454673 0
0.55346 0.453574 0
0.601892 0.452613 0
0.649302 0.451987 0
0.695109 0.45185 0
0.738735 0.452338 0
0.779934 0.453513 0
0.818799 0.455344 0
0.855436 0.457786 0
0.890028 0.460792 0
0.923033 0.464225 0
0.954879 0.467964 0
0.985992 0.47187 0
1 0.475868 0
1 0.479805 0
1 0.48368 0
1 0.487511 0
1 0.491295 0
1 0.495048 0
0 0.486778 0
0 0.489448 0
0 0.492607 0
0.0177157 0.49601 0
0.0517891 0.499321 0
0.0872969 0.50222 0
0.1252 0.504479 0
0.166003 0.505913 0
0.209842 0.506477 0
0.25658 0.506203 0
0.305196 0.505348 0
0.35462 0.504189 0
0.4038 0.502998 0
0.452201 0.502068 0
0.501076 0.501076 0
0.550103 0.500084 0
0.598657 0.499245 0
0.646174 0.498726 0
0.692058 0.498665 0
0.735744 0.499214 0
0.776989 0.500435 0
0.815869 0.502281 0
0.852506 0.504723 0
0.887053 0.507698 0
0.920012 0.511086 0
0.951797 0.514748 0
0.982818 0.518563 0
1 0.522438 0
1 0.526238 0
1 0.529961 0
1 0.533608 0
1 0.537194 0
1 0.540719 0
0 0.534081 0
0 0.536812 0
0 0.539986 0
0.0150759 0.543389 0
0.0490883 0.546624 0
0.0845197 0.549447 0
0.122286 0.551568 0
0.162921 0.552834 0
0.206546 0.553201 0
0.253086 0.552728 0
0.301625 0.551781 0
0.351064 0.550652 0
0.400366 0.549584 0
0.448905 0.548791 0
0.497871 0.54789 0
0.546975 0.546975 0
0.59559 0.546181 0
0.643122 0.545708 0
0.689021 0.545647 0
0.732692 0.546181 0
0.773907 0.547372 0
0.812726 0.549157 0
0.849287 0.551507 0
0.883741 0.554391 0
0.916564 0.557656 0
0.948211 0.561166 0
0.979065 0.564828 0
1 0.568505 0
1 0.572091 0
1 0.575586 0
1 0.578973 0
1 0.5823 0
1 0.585519 0
0 0.581247 0
0 0.583917 0
0 0.586999 0
0.0125429 0.590249 0
0.0463874 0.593301 0
0.0815747 0.595911 0
0.119188 0.597864 0
0.159777 0.5991 0
0.203479 0.599512 0
0.250156 0.599191 0
0.298802 0.598352 0
0.348348 0.597314 0
0.397711 0.596323 0
0.446281 0.59556 0
0.495277 0.59469 0
0.544381 0.593759 0
0.592966 0.592966 0
0.640467 0.592432 0
0.686305 0.592325 0
0.729885 0.592767 0
0.770977 0.593835 0
0.809674 0.595499 0
0.846082 0.597696 0
0.880354 0.600412 0
0.912993 0.603464 0
0.944411 0.60676 0
0.975021 0.610178 0
1 0.613596 0
1 0.616907 0
1 0.620096 0
1 0.623163 0
1 0.626123 0
1 0.628992 0
0 0.627665 0
0 0.630137 0
0 0.63299 0
0.0103914 0.636133 0
0.0442359 0.639185 0
0.07953 0.641901 0
0.117281 0.643992 0
0.157977 0.645319 0
0.201755 0.645823 0
0.248493 0.645548 0
0.297169 0.644755 0
0.346731 0.643717 0
0.396078 0.642725 0
0.444633 0.641932 0
0.493568 0.641001 0
0.542596 0.640009 0
0.591089 0.639124 0
0.638468 0.638468 0
0.684169 0.638209 0
0.727596 0.638498 0
0.768505 0.639384 0
0.806989 0.640833 0
0.843168 0.642817 0
0.877195 0.645274 0
0.90956 0.648066 0
0.940688 0.651072 0
0.970993 0.654185 0
1 0.657267 0
1 0.660227 0
1 0.663035 0
1 0.665705 0
1 0.668254 0
1 0.670665 0
0 0.672938 0
0 0.675441 0
0 0.678431 0
0.00999466 0.681682 0
0.0439307 0.68484 0
0.0793164 0.687633 0
0.117113 0.689769 0
0.157824 0.691127 0
0.201617 0.69163 0
0.248341 0.691356 0
0.296986 0.690517 0
0.346471 0.689433 0
0.395758 0.68835 0
0.44419 0.687449 0
0.493019 0.686397 0
0.541894 0.685267 0
0.590219 0.684199 0
0.637415 0.68336 0
0.682902 0.682887 0
0.726085 0.682948 0
0.766735 0.683574 0
0.804944 0.684749 0
0.840833 0.686427 0
0.87454 0.688563 0
0.906554 0.69102 0
0.937331 0.69366 0
0.967239 0.696391 0
0.996704 0.699062 0
1 0.701579 0
1 0.70396 0
1 0.706188 0
1 0.708309 0
1 0.710292 0
0 0.717723 0
0 0.720317 0
0 0.723384 0
0.0118563 0.72668 0
0.0458076 0.729854 0
0.0811933 0.732631 0
0.118959 0.734752 0
0.159625 0.736065 0
0.203357 0.736507 0
0.249989 0.736126 0
0.298528 0.735195 0
0.347875 0.733959 0
0.397009 0.732738 0
0.445274 0.731655 0
0.493889 0.730404 0
0.542535 0.729046 0
0.590631 0.727749 0
0.637552 0.726635 0
0.68275 0.725887 0
0.725643 0.725628 0
0.765957 0.725933 0
0.80383 0.726757 0
0.839338 0.728069 0
0.872648 0.729824 0
0.90425 0.731853 0
0.9346 0.734066 0
0.964065 0.736339 0
0.993088 0.738582 0
1 0.740673 0
1 0.742626 0
1 0.744427 0
1 0.74612 0
1 0.747707 0
0 0.761837 0
0 0.764446 0
0 0.767483 0
0.0159152 0.770764 0
0.0498207 0.773877 0
0.0851148 0.776577 0
0.122789 0.778607 0
0.163333 0.779797 0
0.206928 0.780102 0
0.253391 0.779568 0
0.301732 0.778424 0
0.350896 0.777005 0
0.399786 0.77554 0
0.447807 0.774212 0
0.496147 0.772686 0
0.544518 0.771038 0
0.592279 0.769421 0
0.63888 0.767987 0
0.683726 0.766873 0
0.726223 0.766247 0
0.766155 0.76614 0
0.803586 0.766552 0
0.838666 0.767422 0
0.871534 0.768734 0
0.902708 0.770336 0
0.932616 0.772107 0
0.961669 0.773968 0
0.990265 0.775784 0
1 0.777462 0
1 0.778988 0
1 0.780377 0
1 0.781674 0
1 0.782849 0
0 0.805035 0
0 0.807599 0
0 0.810559 0
0.0218357 0.813718 0
0.0556039 0.816709 0
0.0907607 0.819272 0
0.128252 0.821118 0
0.168612 0.82211 0
0.211978 0.822202 0
0.258213 0.821424 0
0.30631 0.82005 0
0.355184 0.818326 0
0.403784 0.816571 0
0.451469 0.814923 0
0.499474 0.813062 0
0.547478 0.811048 0
0.594858 0.809033 0
0.641047 0.807187 0
0.68545 0.805646 0
0.72752 0.804578 0
0.76701 0.804044 0
0.804013 0.804013 0
0.838651 0.804456 0
0.871107 0.805341 0
0.901854 0.806516 0
0.93135 0.807889 0
0.959991 0.809323 0
0.988174 0.810742 0
1 0.812009 0
1 0.813138 0
1 0.814145 0
1 0.81503 0
1 0.815824 0
0 0.84715 0
0 0.849561 0
0 0.852354 0
0.0292668 0.855344 0
0.0628367 0.858137 0
0.0977646 0.860471 0
0.135027 0.862074 0
0.175113 0.862806 0
0.218189 0.862608 0
0.264118 0.861524 0
0.311879 0.859815 0
0.360418 0.857755 0
0.408637 0.855619 0
0.455924 0.85359 0
0.503517 0.851286 0
0.55108 0.848844 0
0.598032 0.846403 0
0.643778 0.844114 0
0.687755 0.842145 0
0.729397 0.84065 0
0.76846 0.839689 0
0.805051 0.839246 0
0.839277 0.839277 0
0.871305 0.839734 0
0.901656 0.840513 0
0.930739 0.841474 0
0.958984 0.842527 0
0.986786 0.843534 0
1 0.844419 0
1 0.845151 0
1 0.845777 0
1 0.846296 0
1 0.846723 0
0 0.887953 0
0 0.89015 0
0.00486763 0.892729 0
0.0378119 0.89546 0
0.071107 0.897978 0
0.105745 0.900023 0
0.142687 0.901305 0
0.182437 0.901701 0
0.225162 0.901152 0
0.27071 0.899687 0
0.318074 0.897566 0
0.366171 0.895079 0
0.413962 0.892515 0
0.460807 0.890028 0
0.507958 0.887312 0
0.555093 0.884428 0
0.601617 0.881559 0
0.646937 0.878859 0
0.690501 0.876463 0
0.731731 0.874556 0
0.770382 0.873198 0
0.806577 0.872328 0
0.840406 0.871962 0
0.872038 0.872038 0
0.901991 0.872419 0
0.930694 0.872999 0
0.958541 0.873655 0
0.985962 0.874281 0
1 0.874784 0
1 0.875166 0
1 0.875441 0
1 0.875654 0
1 0.875776 0
0 0.927398 0
0 0.92932 0
0.0141604 0.931594 0
0.0467842 0.934005 0
0.0797284 0.936172 0
0.114 0.93785 0
0.150561 0.93875 0
0.189899 0.938735 0
0.232197 0.937743 0
0.277302 0.935851 0
0.324224 0.933288 0
0.371893 0.930373 0
0.419242 0.927367 0
0.465675 0.924468 0
0.512413 0.921324 0
0.559121 0.918029 0
0.605234 0.914748 0
0.650156 0.911635 0
0.693309 0.908843 0
0.734142 0.906538 0
0.772396 0.904768 0
0.808194 0.903517 0
0.841627 0.90277 0
0.872892 0.902449 0
0.902464 0.902464 0
0.930785 0.902663 0
0.958282 0.902953 0
0.985367 0.903258 0
1 0.903456 0
1 0.903548 0
1 0.903563 0
1 0.903517 0
1 0.90341 0
0 0.965408 0
0 0.96698 0
0.0233158 0.968872 0
0.0555428 0.970886 0
0.0880751 0.972641 0
0.121904 0.973877 0
0.158007 0.974334 0
0.196933 0.973877 0
0.238788 0.972473 0
0.283467 0.970138 0
0.329961 0.967163 0
0.377218 0.963821 0
0.424155 0.960403 0
0.470176 0.957092 0
0.516503 0.953552 0
0.562814 0.949844 0
0.60853 0.946166 0
0.653056 0.942657 0
0.695827 0.939483 0
0.736263 0.936782 0
0.774136 0.93463 0
0.809552 0.933013 0
0.842618 0.931884 0
0.873533 0.931228 0
0.902785 0.930907 0
0.930816 0.930816 0
0.958038 0.930831 0
0.984848 0.930877 0
1 0.930831 0
1 0.930694 0
1 0.93048 0
1 0.930236 0
1 0.929946 0
0 1 0
0 1 0
0.0317235 1 0
0.063508 1 0
0.0955978 1 0
0.129 1 0
0.164691 1 0
0.203189 1 0
0.244617 1 0
0.288884 1 0
0.334981 0.999374 0
0.381826 0.995621 0
0.428367 0.991821 0
0.473991 0.988098 0
0.519921 0.984161 0
0.56585 0.980072 0
0.611185 0.976013 0
0.655314 0.972122 0
0.697719 0.968566 0
0.737789 0.965515 0
0.775326 0.963027 0
0.810422 0.961089 0
0.843214 0.95967 0
0.873854 0.95874 0
0.902846 0.95816 0
0.930632 0.957824 0
0.957626 0.957626 0
0.984237 0.957458 0
1 0.957214 0
1 0.956893 0
1 0.956527 0
1 0.95613 0
1 0.955703 0
0 1 0
0.00660716 1 0
0.0389563 1 0
0.0703136 1 0
0.101991 1 0
0.134997 1 0
0.17026 1 0
0.208347 1 0
0.249378 1 0
