site/assets/luts/freshluts--0000674-cool-green-tint-first-correct-your-footages-after-apply-this.cube
# LUTr-Schema-Version: 2
# LUTr-ID: freshluts--0000674-cool-green-tint-first-correct-your-footages-after-apply-this
# LUTr-Title: Cool. Green-tint. First correct your footages after apply this LUT.
# LUTr-Collection: Fresh LUTs
# LUTr-Collection-ID: freshluts-community
# LUTr-Source: https://freshluts.com
# LUTr-Retrieved: 2026-07-27
# LUTr-Source-File: submissions-raw/freshluts/cubes/674__THINK-HOPE_33.00018.cube
# LUTr-Source-Format: CUBE
# LUTr-Source-SHA256: 9a44bfa00e947fb084f2c810eaea901144f32d817c0091ca0c10c725231a822d
# LUTr-License: CC0-1.0
# LUTr-License-URL: https://freshluts.com/termsandconditions
# LUTr-License-Basis: site-terms
# LUTr-Transform-Class: creative-look
# LUTr-Tags: creative, freshluts, community, cube, green, high-key, canon-cinestyle, cool, correction
# LUTr-Input-Color-Space:
# LUTr-Input-Gamut: rec709
# LUTr-Input-Transfer: canon-cinestyle
# LUTr-Output-Color-Space: srgb
# LUTr-Output-Gamut: rec709
# LUTr-Output-Transfer: srgb
# LUTr-Color-Space-Confidence: camera-profile-input-required
# LUTr-Domain-Normalized: true
# LUTr-Shaper: none
# LUTr-Original-Grid: 33x33x33
# LUTr-Conversion-Grid: 33x33x33
# LUTr-Conversion-Interpolation: none
# LUTr-Conversion-Method: Metadata normalization; numeric LUT samples preserved
# LUTr-Conversion-Tool: LUTr scripts/convert-all-to-cube.mjs 2.0.0
# LUTr-Conversion-Date: 2026-07-28
# LUTr-Asset-URL: https://freshluts.com/luts/674
# LUTr-Author: lvannoeun@gmail.com
# LUTr-Author-URL: https://freshluts.com/users/57563
# LUTr-Attribution: lvannoeun@gmail.com via Fresh LUTs
# LUTr-Source-Labels: gamma=Canon Cinestyle; color=Green; key=High Key; style=Drama
# LUTr-Note: Preserve this metadata and the upstream license notices when redistributing.
TITLE "Cool. Green-tint. First correct your footages after apply this LUT."
LUT_3D_SIZE 33
DOMAIN_MIN 0 0 0
DOMAIN_MAX 1 1 1
0.0479591 0 0.054902
0.0479591 0 0.0532235
0.0479591 0 0.0518807
0.0479591 0 0.0504005
0.0479591 0 0.0480659
0.0596017 0 0.0435798
0.102892 0 0.0401312
0.142138 0 0.0377813
0.179278 0 0.035996
0.215335 0 0.0348516
0.250217 0 0.0336767
0.284062 0 0.0328069
0.317403 0 0.0320745
0.350179 0 0.0315099
0.382239 0 0.0311589
0.414313 0 0.0311437
0.445716 0 0.0309758
0.476768 0 0.0309148
0.507469 0 0.0309453
0.537865 0 0.0310674
0.568139 0 0.0315557
0.598032 0 0.0318608
0.62771 0 0.0321965
0.657206 0 0.0326085
0.686458 0 0.0330816
0.71548 0 0.0336156
0.744564 0 0.0344854
0.77322 0 0.0351415
0.801724 0 0.0358434
0.83006 0 0.0365911
0.858244 0 0.0373846
0.886473 0 0.0381628
0.914611 0 0.0393378
0.0460822 0.0105745 0.0611887
0.0461738 0.0093843 0.0599832
0.0462654 0.00817884 0.058793
0.0463874 0.00634775 0.0569162
0.0465705 0.00376898 0.0543069
0.0653391 0 0.0492256
0.108049 0 0.0456855
0.147387 0 0.0434882
0.184665 0 0.0416571
0.220447 0 0.0402075
0.255116 0 0.0390784
0.289158 0 0.0381323
0.322454 0 0.0374151
0.355291 0 0.0371252
0.387594 0 0.036759
0.419379 0 0.0364843
0.450675 0 0.036347
0.481621 0 0.0363317
0.512322 0 0.0364233
0.542947 0 0.0367895
0.573114 0 0.0370794
0.602975 0 0.0374151
0.632624 0 0.0378119
0.662028 0 0.0383001
0.691218 0 0.0388342
0.720439 0 0.0396429
0.749279 0 0.0403296
0.778073 0 0.041001
0.806561 0 0.0417334
0.834897 0 0.0425116
0.86305 0 0.0433356
0.89131 0 0.0445258
0.919203 0 0.0454566
0.043183 0.0424048 0.0663005
0.0433051 0.0412757 0.0651865
0.0434424 0.0397803 0.0637217
0.0436255 0.0379034 0.0618753
0.0438697 0.0352331 0.059266
0.0679026 0.0302129 0.0542916
0.110826 0.0271305 0.0511788
0.14995 0.0249332 0.0489204
0.186999 0.0232395 0.0471656
0.222812 0.0219272 0.0457771
0.257557 0.0209049 0.0446784
0.291585 0.0201114 0.0437781
0.324926 0.0197452 0.0433509
0.357733 0.0193484 0.0428779
0.389975 0.0190585 0.0424964
0.421592 0.0189517 0.042298
0.452979 0.0188907 0.0421607
0.484016 0.0189517 0.0421454
0.514961 0.019379 0.0424964
0.545357 0.0196384 0.0426642
0.575494 0.0199588 0.0429084
0.605371 0.0203555 0.0432136
0.634989 0.0208438 0.0436103
0.664546 0.0215763 0.0442664
0.693828 0.0222629 0.0448768
0.72282 0.0229496 0.0454566
0.751644 0.0236667 0.0460975
0.78027 0.024445 0.0467842
0.808743 0.0252689 0.0475319
0.837339 0.0263066 0.0484932
0.865614 0.0273136 0.0494087
0.893614 0.0282902 0.0502937
0.921492 0.0293126 0.0512245
0.0398718 0.0746014 0.0702373
0.0399939 0.0733959 0.0690623
0.0401617 0.0719005 0.0676127
0.0403601 0.0699931 0.0657664
0.04065 0.0672313 0.0631266
0.0695659 0.0623331 0.05832
0.111986 0.059144 0.0551308
0.150958 0.0569314 0.052903
0.187976 0.0552987 0.051194
0.223636 0.0540169 0.0498665
0.25861 0.0531472 0.0489357
0.292546 0.0525216 0.0482643
0.325887 0.0519417 0.0475776
0.358587 0.0515145 0.0471046
0.390661 0.0512703 0.0467842
0.422461 0.0511177 0.0465705
0.453986 0.0512551 0.0466163
0.485115 0.0514382 0.0467231
0.515816 0.0516213 0.0468147
0.546197 0.0518959 0.0469978
0.576257 0.0522621 0.0472725
0.606119 0.0526741 0.0476081
0.635889 0.0533455 0.048188
0.665431 0.0539864 0.0487526
0.694667 0.054612 0.0492866
0.723674 0.0552834 0.0498817
0.752468 0.0560311 0.0505226
0.781109 0.0568399 0.0512398
0.809705 0.0578622 0.0521553
0.838102 0.058854 0.0530709
0.866255 0.0598001 0.0539254
0.894438 0.0607462 0.0547646
0.922301 0.0617838 0.0556954
0.0363012 0.107057 0.0735332
0.0364385 0.105837 0.0723583
0.0366064 0.104326 0.0709087
0.0368048 0.102525 0.0691844
0.0371099 0.099794 0.0666209
0.070161 0.0945754 0.0615091
0.112154 0.0915236 0.0584573
0.151049 0.0893568 0.0562905
0.188205 0.0876936 0.0545815
0.223987 0.0865644 0.0534066
0.258732 0.0857557 0.0525521
0.292729 0.0849775 0.0517128
0.326055 0.0843977 0.0510872
0.358602 0.0840467 0.05066
0.390829 0.083772 0.0503395
0.422736 0.0837873 0.0502632
0.454246 0.0839094 0.0502937
0.485084 0.084062 0.05037
0.515801 0.0842603 0.0504921
0.546197 0.084535 0.0506752
0.576318 0.0848859 0.0509499
0.606409 0.0856031 0.0515755
0.636042 0.0861219 0.0520027
0.665446 0.0866865 0.052491
0.694636 0.0873426 0.0530404
0.723629 0.0880293 0.0536355
0.752636 0.0888685 0.0543679
0.781476 0.0898299 0.0552377
0.809949 0.0906996 0.0560159
0.838239 0.0916152 0.0568246
0.866377 0.0925612 0.0576944
0.894408 0.0935836 0.0585946
0.922515 0.0946975 0.0596017
0.0325322 0.139773 0.0761883
0.0326696 0.138552 0.0750286
0.0328374 0.137148 0.0736706
0.033051 0.135332 0.0719768
0.0333867 0.132403 0.0691844
0.0700084 0.127153 0.0641337
0.112047 0.124102 0.0611429
0.150851 0.121981 0.0590372
0.188067 0.120653 0.0576638
0.223865 0.119387 0.0563821
0.258473 0.118456 0.0554513
0.292454 0.117693 0.0546731
0.325567 0.117189 0.054139
0.358358 0.116869 0.0537728
0.390768 0.116823 0.0536507
0.4224 0.116747 0.0535286
0.453742 0.116762 0.0534676
0.484764 0.116884 0.0535134
0.51548 0.117067 0.0536355
0.545953 0.117449 0.0539101
0.576242 0.118029 0.0543984
0.606104 0.118486 0.0547646
0.635721 0.119005 0.0551919
0.665125 0.1196 0.0556954
0.694316 0.120256 0.05626
0.723384 0.121065 0.0569619
0.752346 0.122011 0.0578164
0.780972 0.12285 0.0585489
0.809552 0.12369 0.0592966
0.837919 0.124605 0.0601053
0.866072 0.125582 0.0609751
0.894163 0.126696 0.0619821
0.922148 0.127947 0.0631113
0.0285954 0.172732 0.0787976
0.0287175 0.171725 0.0778515
0.0289006 0.170199 0.0764172
0.0291447 0.1682 0.0745251
0.0294957 0.165164 0.0716716
0.0696727 0.159884 0.0665446
0.111604 0.156939 0.0636454
0.150591 0.155062 0.0617533
0.187472 0.153506 0.0601663
0.223041 0.1523 0.0589456
0.257847 0.151339 0.0579538
0.291615 0.150668 0.0572213
0.324971 0.150179 0.0566873
0.357885 0.150027 0.0564584
0.389929 0.149844 0.056199
0.421698 0.149752 0.0560464
0.453086 0.149783 0.0560006
0.484138 0.149905 0.0560311
0.514885 0.150195 0.0562295
0.545449 0.150713 0.056672
0.57557 0.151095 0.0569924
0.605447 0.151568 0.0573587
0.635065 0.152102 0.0578012
0.664469 0.152712 0.0583047
0.693889 0.153658 0.0591592
0.722881 0.154391 0.0598001
0.75169 0.155184 0.0604868
0.780316 0.156024 0.0612192
0.808789 0.156909 0.0620127
0.83711 0.157885 0.0628824
0.865644 0.15906 0.0639353
0.893629 0.160098 0.0648508
0.921492 0.161166 0.0658274
0.0244907 0.206043 0.0813306
0.0246433 0.204822 0.0801862
0.0248264 0.203281 0.0787366
0.0250706 0.201266 0.0768444
0.0254673 0.198093 0.0738842
0.0690471 0.192828 0.0687724
0.110842 0.190188 0.0661479
0.149508 0.188128 0.0641184
0.186572 0.186526 0.062501
0.222141 0.185367 0.0612955
0.256901 0.184421 0.0603189
0.290929 0.184024 0.0598611
0.324224 0.18352 0.0592966
0.356741 0.1832 0.0589303
0.388968 0.183001 0.0586557
0.420752 0.182925 0.0585031
0.45214 0.18294 0.0584573
0.483391 0.183368 0.058793
0.514 0.183627 0.0589761
0.544305 0.183978 0.0592355
0.574426 0.184375 0.059556
0.604288 0.184863 0.0599374
0.633921 0.185412 0.0604257
0.663554 0.186313 0.0612039
0.692836 0.186954 0.0617533
0.72192 0.187686 0.0623789
0.750729 0.188479 0.0630808
0.779355 0.189334 0.0638132
0.807828 0.190249 0.064622
0.836332 0.19147 0.0657206
0.8645 0.192477 0.0666056
0.892622 0.193484 0.0675059
0.920546 0.194537 0.0684672
0.020264 0.239307 0.0834669
0.0204166 0.238071 0.0823072
0.0206149 0.23653 0.0808576
0.0208743 0.234485 0.0789654
0.0212711 0.231418 0.0760967
0.0681926 0.226184 0.0710307
0.109773 0.223316 0.0681926
0.148394 0.221286 0.0661936
0.185336 0.219745 0.064622
0.220966 0.218555 0.0634165
0.255772 0.21796 0.0627756
0.289723 0.217273 0.0620279
0.322881 0.2168 0.0615244
0.35555 0.21648 0.0611276
0.387778 0.216281 0.0608682
0.419547 0.216205 0.0607309
0.451041 0.216571 0.0610056
0.481987 0.216754 0.0610971
0.512688 0.216983 0.061265
0.543099 0.217334 0.0615091
0.57322 0.217746 0.0618448
0.603082 0.21825 0.0622416
0.632929 0.219089 0.0629892
0.662333 0.219715 0.0635233
0.691539 0.220417 0.0641184
0.720546 0.22118 0.0647746
0.749386 0.221973 0.0654612
0.778363 0.223072 0.066453
0.806851 0.223987 0.0672465
0.835142 0.224948 0.068101
0.863294 0.225956 0.0690013
0.891295 0.227024 0.0699321
0.919249 0.228077 0.0708934
0.0158999 0.272725 0.08542
0.0160525 0.271504 0.0842756
0.0162661 0.269932 0.0828107
0.016495 0.268132 0.0811322
0.0171817 0.264591 0.0778363
0.0670024 0.259403 0.0728161
0.108492 0.256596 0.0700542
0.147066 0.254582 0.0680705
0.183871 0.253101 0.0665599
0.219837 0.252186 0.0656138
0.254398 0.251316 0.0647288
0.288334 0.250645 0.0639963
0.321431 0.250217 0.063508
0.354131 0.249882 0.0631266
0.386557 0.249943 0.0631113
0.418189 0.249989 0.0630808
0.449546 0.25005 0.0630808
0.480583 0.250217 0.0631571
0.511284 0.250462 0.0633249
0.54168 0.250828 0.0635843
0.572015 0.251499 0.0641794
0.601892 0.252049 0.064622
0.631525 0.252613 0.065095
0.660929 0.253254 0.0656443
0.690135 0.253971 0.0662547
0.719127 0.254734 0.0669108
0.748135 0.255818 0.0678569
0.776776 0.256718 0.0686503
0.805295 0.257618 0.0694591
0.833738 0.258549 0.0702831
0.861891 0.259571 0.0711681
0.889891 0.260639 0.0721294
0.917952 0.262013 0.0733654
0.011368 0.306294 0.0870375
0.0115206 0.305272 0.0860456
0.0117189 0.303761 0.0846723
0.0119936 0.301671 0.0827497
0.0166476 0.297688 0.0790723
0.0656443 0.292775 0.0743267
0.107012 0.290013 0.0716259
0.145754 0.288243 0.0698405
0.182589 0.286824 0.0684367
0.218082 0.28571 0.0673228
0.252811 0.284825 0.0664073
0.286564 0.284199 0.0657664
0.319844 0.283742 0.0652781
0.352743 0.28365 0.065095
0.384802 0.283589 0.0649577
0.416571 0.283543 0.0648661
0.447974 0.283619 0.0648966
0.478981 0.283787 0.0649882
0.509682 0.284077 0.0652018
0.540276 0.284657 0.0656596
0.570428 0.285161 0.0660563
0.600305 0.285664 0.0664988
0.629938 0.286259 0.0670024
0.659342 0.286915 0.0675669
0.688533 0.287633 0.0681926
0.717754 0.288701 0.0690776
0.746563 0.289525 0.06981
0.775189 0.29041 0.0705882
0.803662 0.291341 0.0714275
0.831968 0.292317 0.0722972
0.860456 0.293492 0.0733043
0.888518 0.294652 0.0743267
0.916381 0.295766 0.0753338
0.00663767 0.3402 0.0888838
0.00679026 0.33904 0.0878004
0.00701915 0.337469 0.0863355
0.00732433 0.335332 0.0843519
0.0156252 0.331014 0.0803388
0.0639658 0.326299 0.075761
0.105379 0.323766 0.0732586
0.143938 0.321904 0.0714122
0.180865 0.320409 0.0699016
0.216373 0.31931 0.0687877
0.251011 0.318456 0.0679026
0.28484 0.31783 0.0672465
0.318349 0.317662 0.0669871
0.350851 0.317418 0.0666972
0.383062 0.317266 0.0664683
0.414847 0.317235 0.0663767
0.44622 0.317311 0.066392
0.477363 0.317662 0.0666514
0.508171 0.318059 0.0669718
0.538521 0.318456 0.0672618
0.568612 0.318914 0.067628
0.598474 0.319448 0.0680705
0.628153 0.320043 0.0685588
0.657725 0.320867 0.069276
0.687007 0.321706 0.0699931
0.715999 0.322484 0.0706798
0.744808 0.323323 0.071397
0.773449 0.324224 0.0721752
0.801923 0.325154 0.0730144
0.83035 0.326345 0.074052
0.858579 0.327474 0.0750591
0.886717 0.328527 0.0759747
0.914641 0.32961 0.0769665
0.00144961 0.374212 0.0906386
0.00169375 0.372946 0.0894636
0.00196841 0.371359 0.0879835
0.00231937 0.369162 0.0859693
0.0146029 0.364553 0.081651
0.0624704 0.360174 0.0773938
0.103655 0.357473 0.0747387
0.142092 0.35555 0.0728466
0.178805 0.354131 0.071397
0.214481 0.352987 0.0702525
0.249119 0.352331 0.0695506
0.283177 0.351843 0.0690166
0.316243 0.351446 0.0685588
0.348943 0.351156 0.0682231
0.381155 0.351019 0.0680095
0.41294 0.351003 0.0679332
0.444434 0.351247 0.0680858
0.475395 0.351629 0.0683757
0.506065 0.351919 0.0686046
0.536461 0.352316 0.0688792
0.566598 0.352773 0.0692607
0.59646 0.353307 0.0697032
0.626215 0.35407 0.0703593
0.655711 0.354879 0.071046
0.684901 0.355612 0.0716716
0.713985 0.35639 0.072343
0.742901 0.357214 0.0730449
0.771542 0.358099 0.0738231
0.800214 0.359335 0.0749218
0.828534 0.360342 0.0758068
0.856672 0.361395 0.0767376
0.884672 0.362463 0.0776837
0.912642 0.363561 0.0786603
0 0.408225 0.0921798
0 0.406973 0.0910201
0 0.405371 0.0895552
0 0.403265 0.0876173
0.0133211 0.39826 0.0829023
0.0605936 0.393866 0.0786297
0.101701 0.391211 0.0760357
0.140093 0.389303 0.0741741
0.176791 0.387915 0.0727398
0.212497 0.386923 0.0717327
0.247211 0.386267 0.071046
0.281117 0.385657 0.0703899
0.314214 0.385275 0.0699474
0.346914 0.385 0.0696117
0.379126 0.384863 0.0694133
0.411032 0.385168 0.0696269
0.442298 0.385306 0.069688
0.47332 0.385504 0.0698253
0.504021 0.385824 0.0700389
0.534432 0.386206 0.0703441
0.564614 0.38677 0.0708019
0.594629 0.387518 0.0714275
0.624247 0.388144 0.0719463
0.653666 0.388815 0.0725261
0.682872 0.389563 0.073167
0.711864 0.390356 0.0738384
0.740749 0.391318 0.0746777
0.769558 0.392401 0.075639
0.798169 0.393317 0.0764324
0.826474 0.394324 0.0773327
0.854627 0.395377 0.0782483
0.882628 0.39646 0.0792096
0.910567 0.397711 0.0803235
0 0.442252 0.0935378
0 0.441001 0.0923781
0 0.439643 0.0911421
0 0.437385 0.0890822
0.0113527 0.432013 0.0840162
0.0585794 0.427665 0.0797894
0.0995499 0.425055 0.0772412
0.138048 0.423209 0.0754253
0.174945 0.422034 0.0742199
0.210376 0.420996 0.0731518
0.24506 0.420157 0.0722972
0.278782 0.419608 0.0717021
0.312047 0.419181 0.0712291
0.344793 0.418982 0.0709544
0.377035 0.419135 0.0710155
0.408759 0.41915 0.0709697
0.440131 0.419272 0.0710002
0.471153 0.419486 0.0711376
0.501839 0.419791 0.0713664
0.532311 0.420264 0.0717479
0.562585 0.420966 0.0723125
0.592447 0.421515 0.0727855
0.622095 0.422141 0.0732891
0.651499 0.422843 0.0738842
0.68069 0.423575 0.0745251
0.709743 0.42446 0.075288
0.73872 0.425544 0.0762341
0.767346 0.426459 0.0770275
0.795804 0.42742 0.0778668
0.824292 0.428382 0.078706
0.852461 0.429435 0.0796368
0.880659 0.430823 0.0808728
0.908522 0.431968 0.0818799
0 0.476341 0.094789
0 0.475334 0.0938125
0 0.473701 0.0923323
0 0.471397 0.0902419
0.00941482 0.465843 0.0849928
0.0562295 0.461601 0.0808881
0.0972457 0.459037 0.0783856
0.135836 0.45742 0.0767376
0.172686 0.456001 0.0753338
0.208118 0.454963 0.0742809
0.242664 0.45417 0.0734722
0.276509 0.453605 0.0728466
0.309804 0.453223 0.0724193
0.342565 0.453239 0.072343
0.374701 0.453162 0.0721904
0.40647 0.453178 0.0721447
0.437842 0.4533 0.0721904
0.468864 0.453529 0.072343
0.499779 0.454139 0.0728008
0.53019 0.454551 0.0731212
0.560265 0.455039 0.0735332
0.590143 0.455604 0.073991
0.619806 0.45623 0.0745251
0.64921 0.456931 0.0751049
0.678614 0.457969 0.0759747
0.707607 0.458793 0.0766613
0.736431 0.459663 0.0774243
0.765057 0.460578 0.078233
0.79353 0.461555 0.0790723
0.821836 0.462593 0.0799878
0.850263 0.463905 0.0811017
0.87837 0.464958 0.0820478
0.906233 0.466117 0.0830549
0 0.51075 0.0958724
0 0.509468 0.0947127
0 0.50782 0.0931868
0 0.505486 0.0910658
0.00733959 0.499763 0.0856641
0.0542763 0.495857 0.0818647
0.0951858 0.493294 0.0793469
0.133501 0.491463 0.0775464
0.170123 0.490089 0.076173
0.205753 0.489021 0.0750744
0.240223 0.488258 0.0742809
0.274372 0.487953 0.0738994
0.307576 0.487572 0.0734722
0.340124 0.487373 0.0732128
0.37232 0.487266 0.0730297
0.404074 0.487297 0.0729839
0.435447 0.487434 0.0730602
0.46656 0.487984 0.0735027
0.4972 0.488334 0.0737469
0.527596 0.488746 0.0740826
0.557733 0.489235 0.074464
0.587579 0.489815 0.0749371
0.617227 0.490455 0.0754711
0.646845 0.491432 0.0763256
0.676036 0.492195 0.0769665
0.705165 0.492988 0.0776532
0.734035 0.493843 0.0783856
0.762661 0.494774 0.0791943
0.791135 0.495735 0.0800488
0.819638 0.497047 0.0811933
0.847791 0.498116 0.0821393
0.875837 0.499214 0.0831006
0.903822 0.500313 0.0840772
0 0.544945 0.0968795
0 0.543664 0.0956893
0 0.542 0.0941787
0 0.53962 0.0920119
0.00518807 0.534081 0.0867781
0.0518959 0.529915 0.0827344
0.0927596 0.527382 0.0802319
0.131029 0.525551 0.0784466
0.167651 0.524208 0.0770886
0.203143 0.523171 0.076051
0.237995 0.522667 0.0754864
0.271885 0.522087 0.074876
0.304936 0.521752 0.0744793
0.337621 0.521523 0.0741894
0.369818 0.521431 0.0740215
0.401572 0.521462 0.0739757
0.43299 0.521935 0.0743572
0.463996 0.522179 0.0745098
0.494697 0.522515 0.0747692
0.525093 0.522942 0.0750896
0.555215 0.523445 0.0754864
0.585275 0.524269 0.0762036
0.614923 0.524941 0.0767529
0.644327 0.525658 0.077348
0.673533 0.526421 0.0780041
0.70251 0.52726 0.0787213
0.731319 0.52813 0.079469
0.760296 0.52929 0.0804913
0.788815 0.530282 0.0813458
0.817105 0.531289 0.0822461
0.845273 0.532357 0.0831769
0.873274 0.533471 0.0841535
0.901183 0.5346 0.0851453
0 0.579202 0.0977798
0 0.577905 0.0966049
0 0.576226 0.0950637
0 0.57406 0.09308
0.00274662 0.5682 0.087541
0.0492866 0.564065 0.0835584
0.090013 0.561578 0.0811017
0.128435 0.559716 0.0792859
0.165286 0.558587 0.0781109
0.200748 0.557656 0.0771496
0.235401 0.556863 0.0763409
0.269093 0.556344 0.0757916
0.302342 0.555978 0.075349
0.335027 0.555749 0.0750439
0.3673 0.555917 0.0751354
0.399008 0.556023 0.0751812
0.430381 0.556176 0.0752422
0.461387 0.55642 0.0754101
0.492088 0.556771 0.0756542
0.522484 0.557198 0.0759899
0.552789 0.557946 0.0766155
0.582681 0.558572 0.0771344
0.612314 0.559213 0.0776684
0.641718 0.55993 0.0782788
0.670909 0.560708 0.0789349
0.699901 0.561532 0.0796368
0.728893 0.562661 0.0806287
0.757549 0.563638 0.0814679
0.786053 0.564599 0.0823224
0.814496 0.565591 0.0831769
0.842649 0.566674 0.0841077
0.870649 0.567773 0.0850843
0.898695 0.569223 0.0863813
0 0.613504 0.0985885
0 0.612406 0.0975662
0 0.610773 0.0960861
0 0.608286 0.0938277
0.0000762951 0.602396 0.0882582
0.0465705 0.598291 0.0842908
0.0873732 0.595789 0.0818341
0.125811 0.594186 0.0802319
0.162631 0.592889 0.0789349
0.198062 0.591897 0.0779126
0.232715 0.591119 0.0771191
0.266407 0.590616 0.0765545
0.299641 0.590234 0.0761273
0.332418 0.590249 0.0760662
0.364553 0.59028 0.0760052
0.396307 0.590326 0.0759747
0.42768 0.590478 0.0760357
0.458686 0.590723 0.0762188
0.489387 0.591073 0.0764782
0.519997 0.591791 0.0770581
0.550103 0.592309 0.0774853
0.57998 0.592889 0.0779431
0.609613 0.593545 0.0784924
0.639017 0.594263 0.0791028
0.66833 0.595224 0.0799268
0.697398 0.596155 0.0807355
0.726207 0.597025 0.0814984
0.754849 0.597971 0.0822919
0.783291 0.598947 0.0831617
0.811597 0.599985 0.084062
0.840055 0.60119 0.0851301
0.868116 0.602396 0.0861982
0.895979 0.603571 0.0872053
0 0.648066 0.0994736
0 0.646845 0.0983597
0 0.645121 0.096788
0 0.642557 0.0944686
0 0.636805 0.0890364
0.0438544 0.632563 0.0849165
0.0849165 0.630335 0.0827192
0.123125 0.628565 0.0809644
0.159701 0.627237 0.0796368
0.1953 0.6262 0.0785992
0.22974 0.625498 0.0778515
0.263737 0.625086 0.0773632
0.297078 0.624857 0.0770886
0.32958 0.624689 0.0768597
0.361761 0.624613 0.0767224
0.39353 0.624674 0.0766918
0.424887 0.624826 0.0767529
0.455985 0.625254 0.0770733
0.486625 0.625772 0.0775006
0.517006 0.626215 0.0778515
0.547127 0.626719 0.0782483
0.576989 0.627314 0.0787366
0.606607 0.62797 0.0792859
0.636164 0.62884 0.0800183
0.665537 0.629709 0.080766
0.694591 0.630533 0.0814679
0.7234 0.631403 0.0822309
0.752026 0.632349 0.0830396
0.780484 0.633341 0.0838941
0.808911 0.634531 0.0849317
0.837125 0.635737 0.0859541
0.865309 0.63679 0.0869001
0.893172 0.637964 0.0879072
0 0.682597 0.100069
0 0.68127 0.0988937
0 0.679515 0.0972915
0 0.67689 0.0949111
0 0.671275 0.089601
0.0413672 0.667155 0.0855573
0.0820935 0.664668 0.0831311
0.120302 0.662928 0.0813916
0.156863 0.661616 0.0800793
0.192447 0.660578 0.0790417
0.226993 0.659998 0.0783703
0.261006 0.659617 0.0779126
0.294041 0.659312 0.0775311
0.326711 0.659083 0.0772717
0.358907 0.659022 0.0771191
0.390646 0.659083 0.0771038
0.421927 0.659434 0.0773327
0.453056 0.659846 0.0776379
0.483742 0.660182 0.0778973
0.514138 0.660624 0.0782483
0.544259 0.661158 0.078645
0.574121 0.661753 0.0791333
0.603937 0.662684 0.079942
0.633341 0.663401 0.0805371
0.662531 0.664179 0.0812085
0.691524 0.665019 0.0819104
0.72047 0.665858 0.0826429
0.749218 0.66688 0.0835279
0.777798 0.66807 0.0845655
0.806088 0.669108 0.0854658
0.834241 0.670176 0.0863966
0.862226 0.67129 0.0873579
0.890272 0.672389 0.0883345
0 0.717052 0.100542
0 0.71574 0.0993362
0 0.713954 0.0977035
0 0.711345 0.0953536
0 0.705821 0.090135
0.0382239 0.701595 0.0860304
0.0789654 0.699153 0.0836194
0.11722 0.697368 0.0818647
0.153933 0.69601 0.0805066
0.189548 0.695338 0.0797742
0.224186 0.694575 0.078996
0.257862 0.694087 0.0784466
0.291096 0.693736 0.0780346
0.323751 0.693523 0.0777752
0.355978 0.693523 0.0776989
0.387717 0.693843 0.0779126
0.419089 0.694026 0.0780041
0.450095 0.694286 0.078172
0.480781 0.694636 0.0784466
0.511177 0.695079 0.0787823
0.541329 0.695674 0.0792706
0.571344 0.696483 0.079942
0.600977 0.697139 0.0804913
0.630365 0.697856 0.0811017
0.659556 0.698634 0.0817578
0.688533 0.699458 0.082475
0.717403 0.700435 0.083299
0.746166 0.701595 0.0842908
0.774807 0.70251 0.0850996
0.803098 0.703548 0.0859998
0.831235 0.704616 0.0869459
0.85922 0.705745 0.0879225
0.887144 0.706981 0.0890211
0 0.751583 0.10103
0 0.750256 0.0998245
0 0.748699 0.0984054
0 0.745907 0.0958877
0 0.740322 0.0906233
0.0352178 0.736034 0.0864576
0.0759442 0.733577 0.0840467
0.114168 0.731868 0.0823377
0.151156 0.730739 0.0811933
0.186526 0.729793 0.0802167
0.221149 0.729046 0.0794385
0.25481 0.728557 0.0789044
0.288029 0.728206 0.0784924
0.320745 0.728038 0.0782635
0.352926 0.728283 0.0783856
0.384665 0.728328 0.0783856
0.416037 0.728496 0.0784619
0.447028 0.728756 0.078645
0.477729 0.729122 0.0789044
0.508141 0.72961 0.0793011
0.53843 0.730373 0.0799115
0.568276 0.730953 0.0803998
0.597894 0.731624 0.0809644
0.627298 0.732341 0.0815595
0.656489 0.73312 0.0822309
0.685664 0.734249 0.0831769
0.714473 0.735134 0.0839551
0.743084 0.736065 0.0847486
0.771542 0.737057 0.0856031
0.800031 0.738033 0.0864576
0.828168 0.739116 0.0874189
0.856336 0.740505 0.0886244
0.884184 0.74165 0.0896468
0 0.786145 0.101457
0 0.785046 0.100465
0 0.783215 0.0987869
0 0.780331 0.0961776
0 0.774823 0.0910048
0.032105 0.77052 0.0868086
0.0728618 0.768093 0.0844282
0.111299 0.766598 0.0829175
0.147845 0.765316 0.0816205
0.183398 0.764294 0.0805829
0.217823 0.763592 0.0798657
0.251698 0.763073 0.0792859
0.285145 0.762997 0.079118
0.317617 0.762844 0.0789197
0.349783 0.762783 0.0787823
0.381537 0.762844 0.0787518
0.412894 0.763012 0.0788434
0.4439 0.763272 0.0790265
0.474769 0.763943 0.0795605
0.505074 0.764401 0.0799115
0.53518 0.76492 0.0803235
0.565042 0.765515 0.0808118
0.59472 0.766155 0.0813458
0.624155 0.766842 0.0819409
0.653544 0.767926 0.0828565
0.682506 0.768765 0.0835584
0.711315 0.76965 0.0843214
0.739925 0.770596 0.0851301
