site/assets/luts/freshluts--0000112-brightgreen.cube
# LUTr-Schema-Version: 2
# LUTr-ID: freshluts--0000112-brightgreen
# LUTr-Title: BrightGreen
# LUTr-Collection: Fresh LUTs
# LUTr-Collection-ID: freshluts-community
# LUTr-Source: https://freshluts.com
# LUTr-Retrieved: 2026-07-27
# LUTr-Source-File: submissions-raw/freshluts/cubes/112__BrightGreen.cube
# LUTr-Source-Format: CUBE
# LUTr-Source-SHA256: 62040af96d990a52c8061b4c71203e96e4de0ae83ee2b8f4e3b62affc2af9ee4
# LUTr-License: CC0-1.0
# LUTr-License-URL: https://freshluts.com/termsandconditions
# LUTr-License-Basis: site-terms
# LUTr-Transform-Class: creative-look
# LUTr-Tags: creative, freshluts, community, cube, green, canon-cinestyle
# LUTr-Input-Color-Space:
# LUTr-Input-Gamut: rec709
# LUTr-Input-Transfer: canon-cinestyle
# LUTr-Output-Color-Space: srgb
# LUTr-Output-Gamut: rec709
# LUTr-Output-Transfer: srgb
# LUTr-Color-Space-Confidence: camera-profile-input-required
# LUTr-Domain-Normalized: true
# LUTr-Shaper: none
# LUTr-Original-Grid: 33x33x33
# LUTr-Conversion-Grid: 33x33x33
# LUTr-Conversion-Interpolation: none
# LUTr-Conversion-Method: Metadata normalization; numeric LUT samples preserved
# LUTr-Conversion-Tool: LUTr scripts/convert-all-to-cube.mjs 2.0.0
# LUTr-Conversion-Date: 2026-07-28
# LUTr-Asset-URL: https://freshluts.com/luts/112
# LUTr-Author: J. T. Semple
# LUTr-Author-URL: https://freshluts.com/users/120
# LUTr-Attribution: J. T. Semple via Fresh LUTs
# LUTr-Source-Labels: gamma=Canon Cinestyle; color=Green; key=Neutral; style=Colorful
# LUTr-Note: Preserve this metadata and the upstream license notices when redistributing.
TITLE "BrightGreen"
LUT_3D_SIZE 33
DOMAIN_MIN 0 0 0
DOMAIN_MAX 1 1 1
0 0 0
0 0 0
0 0 0
0 0 0
0 0 0
0 0 0
0 0 0
0 0 0
0 0 0
0.0115511 0 0
0.042359 0 0
0.0731823 0 0
0.104311 0 0
0.135805 0 0
0.167834 0 0
0.200671 0 0
0.233936 0 0
0.26772 0 0
0.302296 0 0
0.337301 0 0
0.372946 0 0
0.408621 0 0
0.444297 0 0
0.480522 0 0
0.517113 0 0
0.553826 0 0
0.59086 0 0
0.627375 0 0
0.663966 0 0
0.700221 0 0
0.735988 0 0
0.771328 0 0
0.805524 0 0
0 0 0
0 0 0
0 0 0
0 0 0
0 0 0
0 0 0
0 0 0
0 0 0
0 0 0
0.0177462 0 0
0.0485237 0 0
0.0793622 0 0
0.110536 0 0
0.142412 0 0
0.174441 0 0
0.207126 0 0
0.240497 0 0
0.27454 0 0
0.309041 0 0
0.344396 0 0
0.379843 0 0
0.415381 0 0
0.451286 0 0
0.487388 0 0
0.524132 0 0
0.560952 0 0
0.597772 0 0
0.63447 0 0
0.670298 0 0
0.706645 0 0
0.742657 0 0
0.778195 0 0
0.812711 0 0
0 0 0
0 0 0
0 0 0
0 0 0
0 0 0
0 0 0
0 0 0
0 0 0
0 0 0
0.0234379 0 0
0.0543069 0 0
0.0852522 0 0
0.116777 0 0
0.148409 0 0
0.180514 0 0
0.213169 0 0
0.246525 0 0
0.280674 0 0
0.315679 0 0
0.350607 0 0
0.386114 0 0
0.421607 0 0
0.457572 0 0
0.494224 0 0
0.530724 0 0
0.567071 0 0
0.603784 0 0
0.640574 0 0
0.677272 0 0
0.713573 0 0
0.74931 0 0
0.784604 0 0
0.819059 0 0
0 0 0
0 0 0
0 0 0
0 0 0
0 0 0
0 0 0
0 0 0
0 0 0
0 0 0
0.0292363 0 0
0.0602579 0 0
0.0911879 0 0
0.122423 0 0
0.154116 0 0
0.186297 0 0
0.219135 0 0
0.25301 0 0
0.287007 0 0
0.321736 0 0
0.356878 0 0
0.392218 0 0
0.427939 0 0
0.463722 0 0
0.500221 0 0
0.536995 0 0
0.573693 0 0
0.610574 0 0
0.64715 0 0
0.683986 0 0
0.72018 0 0
0.755688 0 0
0.790906 0 0
0.825345 0 0
0 0 0
0 0 0
0 0 0
0 0 0
0 0 0
0 0 0
0 0 0
0 0 0
0.00389105 0 0
0.0349279 0 0
0.0657664 0 0
0.0966506 0 0
0.127932 0 0
0.159686 0 0
0.191943 0 0
0.225162 0 0
0.258808 0 0
0.293065 0 0
0.327184 0 0
0.362478 0 0
0.398062 0 0
0.434134 0 0
0.470283 0 0
0.5066 0 0
0.543374 0 0
0.580056 0 0
0.617288 0 0
0.653986 0 0
0.690303 0 0
0.726467 0 0
0.762142 0 0
0.797421 0 0
0.832181 0 0
0 0 0
0 0 0
0 0 0
0 0 0
0 0 0
0 0 0
0 0 0
0 0 0
0.00970474 0 0
0.040528 0 0
0.0714275 0 0
0.102342 0 0
0.133669 0 0
0.165682 0 0
0.198138 0 0
0.230716 0 0
0.264332 0 0
0.298756 0 0
0.333669 0 0
0.369055 0 0
0.404761 0 0
0.440497 0 0
0.476616 0 0
0.513176 0 0
0.549783 0 0
0.587045 0 0
0.623713 0 0
0.660441 0 0
0.696956 0 0
0.732937 0 0
0.768643 0 0
0.804303 0 0
0.838819 0 0
0 0 0
0 0 0
0 0 0
0 0 0
0 0 0
0 0 0
0 0 0
0 0 0
0.0155337 0 0
0.0462806 0 0
0.0770428 0 0
0.107973 0 0
0.139162 0 0
0.171298 0 0
0.203815 0 0
0.236973 0 0
0.270832 0.000488289 0
0.305089 0.00143435 0
0.340612 0.00228885 0
0.375998 0.0030518 0
0.41146 0.00367742 0
0.447364 0.00421149 0
0.483421 0.00469978 0
0.520043 0.005066 0
0.557397 0.00560006 0
0.594324 0.00593576 0
0.631159 0.00631724 0
0.667735 0.00680552 0
0.70428 0.00732433 0
0.740963 0.00819409 0
0.776501 0.00910964 0
0.81181 0.0100862 0
0.846372 0.0113375 0
0 0.00737011 0
0 0.00933852 0
0 0.0112764 0
0 0.0132296 0
0 0.0151827 0
0 0.0171511 0
0 0.0193332 0
0 0.0214847 0
0.021149 0.022858 0
0.0519722 0.0247807 0
0.0829328 0.0266575 0
0.114244 0.028809 0
0.145708 0.030518 0
0.177691 0.032105 0
0.210285 0.0334783 0
0.243565 0.0346838 0
0.277607 0.0358892 0
0.312291 0.0369421 0
0.347082 0.0377813 0
0.382422 0.0384833 0
0.417914 0.0391546 0
0.453895 0.0397192 0
0.490455 0.0404212 0
0.527123 0.041001 0
0.56408 0.0413825 0
0.601038 0.0417945 0
0.638041 0.0422522 0
0.674769 0.0428321 0
0.711559 0.0437629 0
0.747906 0.0446174 0
0.783719 0.0456092 0
0.819074 0.0467536 0
0.853788 0.0481422 0
0 0.0426947 0
0 0.0447242 0
0 0.0466621 0
0 0.0485847 0
0 0.0507973 0
0 0.0523537 0
0 0.0544442 0
0 0.056672 0
0.0271763 0.0584573 0
0.0579995 0.0604105 0
0.0890516 0.062562 0
0.120058 0.0643778 0
0.151736 0.0660105 0
0.18381 0.0675669 0
0.216419 0.0689708 0
0.24979 0.0703288 0
0.283864 0.0716259 0
0.318456 0.0725567 0
0.35346 0.0733959 0
0.388769 0.0741894 0
0.424674 0.074815 0
0.460838 0.0756542 0
0.497505 0.0763561 0
0.534142 0.0769207 0
0.571221 0.0774243 0
0.60824 0.0780041 0
0.645274 0.0786145 0
0.682536 0.0796368 0
0.719234 0.0804303 0
0.755627 0.0813916 0
0.791531 0.082536 0
0.827039 0.0838483 0
0.861967 0.0856489 0
0 0.0780041 0
0 0.0800031 0
0 0.0815595 0
0 0.0839399 0
0 0.0859693 0
0 0.088014 0
0 0.0899825 0
0.00210575 0.092134 0
0.0329442 0.0940566 0
0.0639353 0.0962387 0
0.0949264 0.0980697 0
0.125978 0.0999008 0
0.15758 0.10161 0
0.189761 0.103182 0
0.222827 0.104906 0
0.256321 0.106172 0
0.290425 0.107271 0
0.325109 0.108263 0
0.360296 0.109163 0
0.395727 0.110155 0
0.431861 0.111162 0
0.467979 0.11194 0
0.504662 0.112627 0
0.54165 0.113283 0
0.578882 0.113909 0
0.616342 0.114733 0
0.653559 0.115709 0
0.690562 0.116579 0
0.727169 0.117617 0
0.763668 0.118715 0
0.799802 0.119966 0
0.83563 0.121614 0
0.870481 0.123491 0
0 0.113008 0
0 0.115404 0
0 0.117479 0
0 0.119524 0
0 0.121462 0
0 0.123491 0
0 0.125551 0
0.00819409 0.128008 0
0.0391546 0.12987 0
0.0698711 0.131807 0
0.100725 0.133745 0
0.131884 0.135607 0
0.163592 0.137362 0
0.196399 0.139223 0
0.229297 0.140719 0
0.262898 0.142061 0
0.2972 0.143252 0
0.331868 0.144396 0
0.367269 0.145464 0
0.403159 0.1467 0
0.439246 0.147601 0
0.475761 0.14847 0
0.512444 0.14934 0
0.549615 0.150134 0
0.586938 0.151095 0
0.624582 0.152132 0
0.661875 0.153017 0
0.698955 0.154055 0
0.735637 0.15523 0
0.772183 0.156512 0
0.808682 0.158267 0
0.84445 0.159854 0
0.879408 0.1617 0
0 0.148821 0
0 0.151003 0
0 0.152972 0
0 0.155016 0
0 0.157061 0
0 0.159121 0
0 0.16144 0
0.0141451 0.163653 0
0.0449226 0.165652 0
0.0758679 0.16762 0
0.106828 0.169604 0
0.138216 0.171496 0
0.170397 0.173648 0
0.202899 0.175341 0
0.235782 0.176989 0
0.269703 0.178393 0
0.30425 0.17969 0
0.339437 0.181277 0
0.374945 0.182437 0
0.410773 0.183566 0
0.446784 0.18468 0
0.483528 0.185672 0
0.520546 0.186648 0
0.558221 0.187869 0
0.595529 0.188861 0
0.633051 0.189837 0
0.670253 0.190967 0
0.707576 0.192081 0
0.744564 0.193469 0
0.781277 0.195178 0
0.817349 0.19678 0
0.853162 0.198474 0
0.888212 0.200397 0
0 0.184497 0
0 0.186633 0
0 0.188708 0
0 0.190814 0
0 0.193042 0
0 0.195285 0
0 0.197452 0
0.0199588 0.19968 0
0.0508583 0.201724 0
0.0817731 0.203815 0
0.113069 0.206195 0
0.144518 0.208316 0
0.176699 0.210208 0
0.209445 0.212009 0
0.242756 0.213733 0
0.2766 0.215351 0
0.31162 0.217136 0
0.346975 0.218448 0
0.382483 0.219776 0
0.418448 0.221057 0
0.454643 0.222309 0
0.491554 0.223423 0
0.528908 0.224903 0
0.566567 0.225895 0
0.603998 0.227039 0
0.641627 0.228153 0
0.678889 0.229419 0
0.716136 0.230793 0
0.753491 0.232425 0
0.78996 0.233997 0
0.826017 0.235706 0
0.861723 0.237522 0
0.896864 0.23949 0
0 0.220417 0
0 0.222614 0
0 0.224689 0
0 0.227054 0
0 0.229374 0
0 0.231617 0
0 0.233997 0
0.0256962 0.236149 0
0.0565805 0.238376 0
0.0877699 0.240879 0
0.119203 0.243153 0
0.15079 0.24535 0
0.183062 0.247425 0
0.215991 0.249378 0
0.249699 0.251148 0
0.284245 0.253193 0
0.318975 0.254826 0
0.354376 0.256306 0
0.390005 0.257786 0
0.426246 0.259159 0
0.462959 0.260838 0
0.500084 0.262119 0
0.53724 0.263386 0
0.574838 0.264561 0
0.612467 0.265766 0
0.650202 0.266972 0
0.687831 0.268666 0
0.725017 0.270085 0
0.762005 0.27155 0
0.798474 0.273182 0
0.834485 0.274952 0
0.870176 0.276844 0
0.905608 0.279179 0
0 0.256611 0
0 0.258915 0
0 0.261479 0
0 0.263767 0
0 0.266011 0
0 0.268376 0
0.000289921 0.27097 0
0.0315709 0.273411 0
0.0628367 0.275929 0
0.0940566 0.278309 0
0.125475 0.28069 0
0.157427 0.282963 0
0.189776 0.285191 0
0.223102 0.287495 0
0.257008 0.289555 0
0.29163 0.291325 0
0.326513 0.293095 0
0.362081 0.294713 0
0.397833 0.29633 0
0.434348 0.298161 0
0.471138 0.299626 0
0.50837 0.300954 0
0.545663 0.302312 0
0.583352 0.303563 0
0.620905 0.304875 0
0.659129 0.306462 0
0.696391 0.307881 0
0.733516 0.309361 0
0.770428 0.310887 0
0.806851 0.312551 0
0.842802 0.314351 0
0.878737 0.316579 0
0.913771 0.318593 0
0 0.293416 0
0 0.296101 0
0 0.298421 0
0 0.300862 0
0 0.303319 0
0 0.305776 0
0.00650034 0.308583 0
0.0378424 0.311254 0
0.0691234 0.313726 0
0.100374 0.316274 0
0.131914 0.318807 0
0.163958 0.321248 0
0.197009 0.32369 0
0.230365 0.32607 0
0.264363 0.328145 0
0.299046 0.330068 0
0.334279 0.331868 0
0.370001 0.333593 0
0.40621 0.335653 0
0.442542 0.33727 0
0.4795 0.33872 0
0.516793 0.340108 0
0.554147 0.341512 0
0.592157 0.343069 0
0.629831 0.344518 0
0.667659 0.345785 0
0.70486 0.34725 0
0.741924 0.348745 0
0.778729 0.350301 0
0.815427 0.352255 0
0.851286 0.354086 0
0.886763 0.355947 0
0.921691 0.357931 0
0 0.330877 0
0 0.333455 0
0 0.335988 0
0 0.338506 0
0 0.341115 0
0 0.344121 0
0.0129244 0.346838 0
0.0441749 0.349477 0
0.0754406 0.352148 0
0.107012 0.354772 0
0.138857 0.357519 0
0.171328 0.360327 0
0.20444 0.362661 0
0.238025 0.36495 0
0.272114 0.367117 0
0.306966 0.369116 0
0.342519 0.371145 0
0.378546 0.373098 0
0.414679 0.374823 0
0.450935 0.376516 0
0.487984 0.377997 0
0.525368 0.3794 0
0.563027 0.381033 0
0.6009 0.382452 0
0.638453 0.383825 0
0.676249 0.385092 0
0.713558 0.386496 0
0.750332 0.388037 0
0.78732 0.389853 0
0.823804 0.391485 0
0.859358 0.393317 0
0.894804 0.395193 0
0.929686 0.397238 0
0 0.368597 0
0 0.371298 0
0 0.373968 0
0 0.376654 0
0 0.379721 0
0 0.382513 0
0.0196841 0.385367 0
0.0510719 0.388128 0
0.082475 0.390936 0
0.114168 0.393774 0
0.146487 0.396735 0
0.178927 0.399374 0
0.212131 0.401816 0
0.246113 0.404074 0
0.280308 0.406287 0
0.315465 0.408453 0
0.351278 0.410529 0
0.387121 0.412345 0
0.423331 0.414084 0
0.459648 0.415778 0
0.496727 0.417273 0
0.534585 0.418967 0
0.572015 0.420356 0
0.609751 0.421637 0
0.647379 0.422934 0
0.684794 0.424262 0
0.722377 0.425757 0
0.759243 0.427451 0
0.795865 0.429023 0
0.832212 0.430655 0
0.867826 0.432502 0
0.903258 0.434409 0
0.938384 0.436728 0
0 0.406744 0
0 0.409522 0
0 0.412329 0
0 0.415534 0
0 0.418357 0
0 0.421363 0
0.026978 0.424277 0
0.0586404 0.42707 0
0.090486 0.430304 0
0.12221 0.433158 0
0.154482 0.435874 0
0.187137 0.438529 0
0.220478 0.441001 0
0.254688 0.44329 0
0.289357 0.445823 0
0.324498 0.447852 0
0.360082 0.449744 0
0.396063 0.451514 0
0.432288 0.453223 0
0.468772 0.454994 0
0.506081 0.456703 0
0.543587 0.458 0
0.581262 0.459251 0
0.618784 0.460548 0
0.656428 0.461845 0
0.693919 0.463386 0
0.731487 0.464927 0
0.768124 0.466499 0
0.804715 0.468101 0
0.84094 0.469795 0
0.876677 0.471626 0
0.912184 0.473793 0
0.947097 0.47599 0
0 0.445197 0
0 0.448417 0
0 0.451392 0
0 0.454353 0
0 0.457282 0
0.00335698 0.460441 0
0.0350042 0.463325 0
0.0670481 0.466545 0
0.0986954 0.469474 0
0.13051 0.472374 0
0.16289 0.475105 0
0.195666 0.47776 0
0.22916 0.480232 0
0.263813 0.482795 0
0.298283 0.484977 0
0.333486 0.486961 0
0.369024 0.488853 0
0.40502 0.490578 0
0.441352 0.492302 0
0.478065 0.494163 0
0.515267 0.495552 0
0.552636 0.496925 0
0.590463 0.498146 0
0.628 0.499489 0
0.665965 0.501152 0
0.703273 0.502556 0
0.740597 0.503944 0
0.777173 0.505547 0
0.813687 0.507179 0
0.849928 0.509026 0
0.885954 0.511009 0
0.921233 0.512947 0
0.95581 0.515053 0
0 0.484321 0
0 0.48748 0
0 0.490425 0
0 0.493462 0
0 0.496483 0
0.0116579 0.499611 0
0.0436408 0.502892 0
0.0754559 0.505776 0
0.107164 0.508736 0
0.13904 0.51162 0
0.171435 0.514351 0
0.204639 0.517311 0
0.238254 0.519738 0
0.272557 0.521935 0
0.307195 0.524025 0
0.342428 0.525948 0
0.378027 0.527764 0
0.414343 0.529839 0
0.450706 0.531472 0
0.487251 0.533059 0
0.524559 0.534463 0
0.561975 0.535851 0
0.599878 0.537118 0
0.637751 0.538766 0
0.675364 0.540093 0
0.712566 0.541527 0
0.749813 0.542916 0
0.786465 0.544488 0
0.822843 0.546242 0
0.859098 0.548196 0
0.894835 0.54995 0
0.930129 0.551812 0
0.964736 0.553841 0
0 0.523461 0
0 0.526604 0
0 0.529595 0
0 0.532662 0
0 0.535958 0
0.0205844 0.539147 0
0.0523079 0.542092 0
0.0840925 0.544991 0
0.115801 0.547921 0
0.147768 0.550759 0
0.180484 0.55375 0
0.213489 0.556344 0
0.247166 0.558663 0
0.281514 0.56083 0
0.31632 0.562875 0
0.351659 0.564782 0
0.387793 0.566934 0
0.423651 0.568719 0
0.460182 0.570321 0
0.496818 0.571923 0
0.534203 0.573312 0
0.571664 0.574685 0
0.609842 0.576257 0
0.647425 0.577569 0
0.685023 0.578882 0
0.722118 0.580316 0
0.759106 0.58175 0
0.796216 0.583566 0
0.832334 0.585199 0
0.868254 0.586877 0
0.903822 0.588602 0
0.939086 0.590387 0
0.973739 0.592416 0
0 0.562554 0
0 0.565713 0
0 0.568704 0
0 0.572 0
0 0.575204 0
0.0296025 0.578195 0
0.0612345 0.581109 0
0.0928206 0.584039 0
0.124727 0.586847 0
0.157092 0.58996 0
0.189532 0.59263 0
0.222705 0.595117 0
0.25655 0.597436 0
0.291051 0.599588 0
0.326268 0.601877 0
0.361791 0.603861 0
0.397635 0.605676 0
0.433555 0.607446 0
0.470146 0.609033 0
0.506874 0.61059 0
0.544625 0.612268 0
0.582162 0.613611 0
0.619867 0.614878 0
0.657496 0.616114 0
0.695018 0.617395 0
0.732021 0.618784 0
0.769253 0.620523 0
0.805905 0.621942 0
0.841871 0.623545 0
0.877668 0.625177 0
0.913024 0.626886 0
0.948348 0.628595 0
0.983154 0.630777 0
0 0.601556 0
0 0.604807 0
0 0.608011 0
0 0.611063 0
0.00680552 0.614206 0
0.0388037 0.616968 0
0.0704051 0.619867 0
0.10219 0.622934 0
0.13434 0.62591 0
0.166506 0.628687 0
0.199191 0.631327 0
0.232441 0.633814 0
0.266438 0.636103 0
0.301335 0.638453 0
0.336477 0.640574 0
0.37203 0.642435 0
0.407782 0.644266 0
0.443839 0.645975 0
0.480323 0.647578 0
0.517632 0.649287 0
0.555154 0.650629 0
0.592645 0.651911 0
0.630289 0.653117 0
0.667704 0.654368 0
0.705287 0.655543 0
0.74255 0.657221 0
0.779278 0.658564 0
0.815625 0.659998 0
0.851606 0.661479 0
0.887282 0.663035 0
0.922896 0.665003 0
0.958007 0.666606 0
0.992462 0.668376 0
0 0.640406 0
0 0.643748 0
0 0.646738 0
0 0.649668 0
0.0164187 0.652781 0
0.0483711 0.655604 0
0.0802319 0.658625 0
0.112123 0.661738 0
0.144213 0.66453 0
0.176501 0.667277 0
0.209262 0.669902 0
0.242725 0.672328 0
0.277241 0.674907 0
0.312001 0.676982 0
0.346975 0.678996 0
0.382681 0.680781 0
0.418433 0.682536 0
0.454795 0.684382 0
0.491432 0.686061 0
0.528389 0.687449 0
0.565881 0.688655 0
0.603464 0.68983 0
0.640909 0.691005 0
0.678676 0.692393 0
0.716106 0.693614 0
0.752972 0.694865 0
0.789563 0.696147 0
0.825772 0.69752 0
0.86157 0.698955 0
0.897459 0.700694 0
0.932601 0.702251 0
0.967483 0.703822 0
1 0.705501 0
0 0.679118 0
0 0.6822 0
0 0.685206 0
0 0.688151 0
0.0267185 0.691264 0
0.0588846 0.694438 0
0.0907149 0.697292 0
0.122469 0.700191 0
0.154589 0.702968 0
0.187015 0.705653 0
0.219928 0.708354 0
0.253727 0.710979 0
0.288167 0.713085 0
0.322866 0.715145 0
0.358053 0.717037 0
0.393668 0.718791 0
0.42974 0.720607 0
0.466102 0.722347 0
0.502525 0.723812 0
0.539574 0.725093 0
0.576822 0.726284 0
0.614603 0.727291 0
0.652186 0.728618 0
0.689723 0.729793 0
0.726864 0.730892 0
0.763516 0.732067 0
0.800061 0.733227 0
0.836072 0.734508 0
0.872007 0.736202 0
0.907317 0.737575 0
0.942473 0.738949 0
0.977234 0.740414 0
1 0.741985 0
0 0.717494 0
0 0.720516 0
0 0.723522 0
0.0061799 0.726497 0
0.037644 0.729885 0
0.0695201 0.732738 0
0.101411 0.735561 0
0.133211 0.738415 0
0.16524 0.741207 0
0.197971 0.743862 0
0.231312 0.746609 0
0.264958 0.748913 0
0.299367 0.750973 0
0.334218 0.752895 0
0.369482 0.754696 0
0.405417 0.756725 0
0.441215 0.758328 0
0.477546 0.759731 0
0.513985 0.761105 0
0.551034 0.76228 0
0.588403 0.7635 0
0.626184 0.764675 0
0.663584 0.765621 0
0.700847 0.766583 0
0.737728 0.76762 0
0.774273 0.768719 0
0.810727 0.770016 0
0.846815 0.771313 0
0.882277 0.772549 0
0.917433 0.773831 0
0.95227 0.775158 0
0.986908 0.776501 0
1 0.778119 0
0 0.755657 0
0 0.758679 0
0 0.76199 0
0.0167697 0.765179 0
0.0489052 0.76791 0
0.0807202 0.770764 0
0.112398 0.773602 0
0.144396 0.776349 0
0.176898 0.779385 0
