site/assets/luts/freshluts--0000272-night-crawler.cube
# LUTr-Schema-Version: 2
# LUTr-ID: freshluts--0000272-night-crawler
# LUTr-Title: Night Crawler
# LUTr-Collection: Fresh LUTs
# LUTr-Collection-ID: freshluts-community
# LUTr-Source: https://freshluts.com
# LUTr-Retrieved: 2026-07-27
# LUTr-Source-File: submissions-raw/freshluts/cubes/272__Night_Crawler_Day_LUT.cube
# LUTr-Source-Format: CUBE
# LUTr-Source-SHA256: 8ca6ea01c1bd33761f30f3c8ed5df57ddde5fc472ec36cdb8f2aed236fd13bce
# LUTr-License: CC0-1.0
# LUTr-License-URL: https://freshluts.com/termsandconditions
# LUTr-License-Basis: site-terms
# LUTr-Transform-Class: creative-look
# LUTr-Tags: creative, freshluts, community, cube, green, linear
# LUTr-Input-Color-Space: linear-rec709
# LUTr-Input-Gamut: rec709
# LUTr-Input-Transfer: linear
# LUTr-Output-Color-Space: srgb
# LUTr-Output-Gamut: rec709
# LUTr-Output-Transfer: srgb
# LUTr-Color-Space-Confidence: inferred-from-source-label
# LUTr-Domain-Normalized: true
# LUTr-Shaper: none
# LUTr-Original-Grid: 33x33x33
# LUTr-Conversion-Grid: 33x33x33
# LUTr-Conversion-Interpolation: none
# LUTr-Conversion-Method: Metadata normalization; numeric LUT samples preserved
# LUTr-Conversion-Tool: LUTr scripts/convert-all-to-cube.mjs 2.0.0
# LUTr-Conversion-Date: 2026-07-28
# LUTr-Asset-URL: https://freshluts.com/luts/272
# LUTr-Author: Colorist Factory
# LUTr-Author-URL: https://freshluts.com/users/7054
# LUTr-Attribution: Colorist Factory via Fresh LUTs
# LUTr-Source-Labels: gamma=linear; color=Green; key=Neutral; style=2010 Films
# LUTr-Note: Preserve this metadata and the upstream license notices when redistributing.
TITLE "Night Crawler"
LUT_3D_SIZE 9
DOMAIN_MIN 0 0 0
DOMAIN_MAX 1 1 1
0.0227817 0.0158846 0.0269474
0.108888 0.0168917 0.0187686
0.227832 0 0
0.358785 0 0
0.495735 0 0
0.631312 0 0
0.751492 0 0
0.840894 0 0
0.908919 0 0
0 0.118334 0
0.0671702 0.121828 0
0.205432 0.110231 0
0.369848 0.0864881 0
0.507042 0.0846418 0
0.628 0.0840009 0
0.726329 0.0866102 0
0.794095 0.0945907 0
0.849104 0.103639 0
0 0.227115 0
0.0557259 0.248341 0
0.196109 0.239368 0
0.354345 0.219806 0
0.481758 0.212253 0
0.575769 0.210529 0
0.655039 0.210239 0
0.713848 0.214542 0
0.771572 0.219532 0
0 0.35581 0
0.0770123 0.358785 0
0.200702 0.351125 0
0.316747 0.34136 0
0.420066 0.33196 0
0.511925 0.324086 0
0.5879 0.322057 0
0.653284 0.326482 0
0.728801 0.332952 0
0 0.475898 0
0.0660105 0.47068 0
0.17789 0.45713 0
0.281621 0.444419 0
0.376608 0.435065 0
0.466819 0.431235 0
0.556954 0.43418 0
0.642374 0.445396 0
0.73225 0.456718 0.00248722
0 0.570733 0
0.0613413 0.562387 0.00582895
0.164355 0.549905 0.0112001
0.263722 0.542321 0.0142672
0.362371 0.542077 0.0148165
0.465171 0.54905 0.0137484
0.565942 0.558114 0.0138705
0.653101 0.57055 0.0189517
0.742092 0.582483 0.0229801
0 0.653666 0.0149386
0.0680095 0.651743 0.0278935
0.168429 0.650858 0.0339513
0.272663 0.657115 0.0366369
0.377752 0.664607 0.0373083
0.481544 0.672938 0.0373388
0.581933 0.682185 0.0378882
0.668147 0.694469 0.0425269
0.755978 0.706172 0.04654
0.00987259 0.748928 0.0460975
0.0882429 0.763134 0.055848
0.190097 0.771328 0.061265
0.296101 0.77821 0.065095
0.402747 0.785183 0.0674754
0.506676 0.791577 0.0680858
0.60531 0.797833 0.0673838
0.691356 0.810025 0.0723125
0.786465 0.828855 0.082887
0.00604257 0.880262 0.0482338
0.0849012 0.894392 0.0585489
0.186007 0.900572 0.0635233
0.290623 0.903944 0.0658579
0.401679 0.912535 0.0725719
0.518013 0.929137 0.0859998
0.631067 0.948394 0.100679
0.71873 0.961532 0.107958
0.808225 0.974304 0.113405
0.0204623 0.0122225 0.147158
0.10898 0.0121309 0.146136
0.236316 0 0.10132
0.360494 0 0.0636149
0.498451 0 0.0507668
0.633402 0 0.0421607
0.751598 0 0.0377813
0.836683 0 0.0390784
0.901854 0 0.0415045
0 0.117159 0.0992905
0.0779583 0.116808 0.109651
0.218585 0.109239 0.0961471
0.373144 0.0890364 0.079942
0.507927 0.0867018 0.073106
0.628992 0.0849928 0.0647135
0.72076 0.0884871 0.0589456
0.786511 0.0962234 0.0575723
0.841566 0.104677 0.055787
0 0.239109 0.0747692
0.0676127 0.244892 0.0854353
0.209827 0.235401 0.0863355
0.350576 0.224659 0.076112
0.484001 0.211475 0.0674449
0.580453 0.207889 0.059556
0.649363 0.210452 0.0564889
0.708476 0.214801 0.055436
0.769543 0.219455 0.0534829
0 0.35642 0.0787518
0.0778058 0.360082 0.0840925
0.19971 0.351766 0.0817884
0.316152 0.340078 0.0768444
0.418418 0.330083 0.0693217
0.522408 0.318791 0.0574807
0.58793 0.321447 0.05832
0.655253 0.327001 0.0606851
0.736522 0.334142 0.0617533
0 0.473136 0.0753033
0.0705577 0.467338 0.0827955
0.181064 0.453788 0.082475
0.28365 0.441581 0.0800336
0.3785 0.43357 0.076051
0.470527 0.431449 0.0728618
0.564614 0.43592 0.0716259
0.651469 0.44799 0.0764477
0.742519 0.459007 0.0796826
0 0.566125 0.0788434
0.0669871 0.558358 0.0882429
0.169512 0.547326 0.09131
0.269581 0.541848 0.092958
0.36997 0.543877 0.0926223
0.473991 0.551888 0.091722
0.574655 0.5608 0.0915389
0.661814 0.573159 0.0965896
0.751858 0.585184 0.100557
0 0.65069 0.0930648
0.0753033 0.651026 0.104829
0.176226 0.652735 0.110246
0.281254 0.659953 0.113359
0.386755 0.667506 0.114839
0.490288 0.675654 0.115053
0.59057 0.684825 0.115587
0.677165 0.697246 0.120531
0.764797 0.708293 0.123598
0.016556 0.752026 0.119692
0.0951705 0.766781 0.129976
0.197467 0.774929 0.136339
0.304036 0.781537 0.140902
0.410651 0.788006 0.14374
0.514656 0.793912 0.144656
0.612818 0.79942 0.143938
0.701595 0.814237 0.151705
0.79971 0.83592 0.165209
0.0133364 0.883894 0.121981
0.0921035 0.897475 0.132631
0.193057 0.902983 0.138018
0.299001 0.906935 0.141817
0.412222 0.917082 0.150958
0.532235 0.93698 0.168399
0.640375 0.951156 0.178515
0.728054 0.964462 0.186084
0.817349 0.977279 0.191638
0.00750744 0 0.262715
0.10193 0 0.280446
0.229282 0 0.233906
0.360555 0 0.200015
0.499474 0 0.188159
0.632822 0 0.179599
0.74725 0 0.172519
0.82884 0 0.169863
0.891264 0 0.167575
0 0.125048 0.197513
0.069337 0.113176 0.267735
0.222782 0.102663 0.256321
0.374914 0.0898299 0.224399
0.506493 0.0851606 0.207248
0.626505 0.0829786 0.193103
0.712322 0.0872358 0.183902
0.776349 0.0948501 0.177188
0.83151 0.102937 0.170016
0 0.234073 0.199405
0.0669871 0.242252 0.219547
0.215015 0.229892 0.22504
0.35642 0.21854 0.20795
0.484169 0.207446 0.18764
0.58674 0.20116 0.171176
0.645258 0.206531 0.169299
0.70219 0.211856 0.165301
0.76643 0.2168 0.159625
0 0.353613 0.209934
0.0757916 0.357885 0.212512
0.201556 0.345846 0.207401
0.31516 0.334539 0.197162
0.448905 0.315007 0.167117
0.532113 0.31136 0.158373
0.595682 0.31577 0.159747
0.658579 0.324651 0.164904
0.745052 0.333654 0.166384
0 0.46688 0.196414
0.0731518 0.46067 0.199664
0.182803 0.447181 0.195789
0.285389 0.435874 0.190143
0.380392 0.429465 0.183169
0.474861 0.429221 0.177722
0.58587 0.432792 0.16965
0.662425 0.447074 0.179629
0.751568 0.459007 0.184527
0 0.558511 0.188327
0.0716106 0.551873 0.194614
0.173999 0.542397 0.19585
0.275364 0.538964 0.196384
0.378836 0.543908 0.197101
0.482521 0.551843 0.196429
0.583413 0.560952 0.196628
0.67071 0.573343 0.201495
0.76054 0.585214 0.205463
0 0.645914 0.19411
0.0817731 0.648569 0.204974
0.183917 0.653468 0.211963
0.289403 0.660197 0.216037
0.395544 0.667536 0.218692
0.49926 0.675776 0.219959
0.599268 0.684901 0.22063
0.685756 0.697246 0.225391
0.772488 0.707912 0.228046
0.0234073 0.75346 0.21828
0.102541 0.767956 0.229847
0.205081 0.775464 0.237675
0.31223 0.78175 0.243595
0.419455 0.787655 0.247089
0.523232 0.792767 0.248554
0.622126 0.798993 0.249058
0.712947 0.815793 0.259098
0.813291 0.84097 0.276356
0.0204929 0.885084 0.221134
0.0992294 0.89778 0.232395
0.200107 0.902296 0.238697
0.308766 0.908278 0.245884
0.425071 0.920592 0.258366
0.547005 0.941604 0.277989
0.650477 0.951156 0.284215
0.738048 0.96434 0.291951
0.826261 0.977523 0.29807
0.00140383 0 0.377783
0.0972305 0 0.372656
0.224826 0 0.358968
0.360739 0 0.345205
0.500023 0 0.333944
0.630701 0 0.323507
0.741375 0 0.312367
0.819669 0 0.304738
0.879759 0 0.297063
0 0.0931106 0.357565
0.0977951 0.0890669 0.382712
0.230365 0.0918441 0.392004
0.373983 0.0856489 0.363745
0.502159 0.0832837 0.346883
0.617502 0.0817426 0.327382
0.703395 0.0852064 0.31191
0.765988 0.0927138 0.299702
0.821775 0.100664 0.287388
0 0.252277 0.240177
0.0102388 0.262135 0.293751
0.215351 0.22504 0.367864
0.346929 0.216022 0.347341
0.471107 0.205814 0.319234
0.584558 0.196338 0.287465
0.644144 0.201251 0.2822
0.69723 0.208408 0.278157
0.764858 0.213993 0.270314
0 0.358083 0.307439
0.0678721 0.357427 0.320134
0.196963 0.342367 0.323156
0.313802 0.328573 0.318929
0.446754 0.310201 0.28014
0.531197 0.307103 0.267018
0.60647 0.31017 0.262104
0.668879 0.321569 0.271061
0.754223 0.332555 0.276997
0 0.460899 0.317235
0.0731975 0.454551 0.314885
0.183307 0.441169 0.307301
0.286809 0.429969 0.301076
0.383566 0.425284 0.293828
0.508766 0.420661 0.26981
0.605081 0.429587 0.270665
0.681437 0.444373 0.282078
0.764935 0.45742 0.292073
0 0.551766 0.297032
0.074403 0.546181 0.299504
0.178134 0.538506 0.300374
0.281727 0.537301 0.303349
0.387533 0.543359 0.306462
0.491295 0.551492 0.307027
0.591913 0.560342 0.306859
0.690303 0.570306 0.303777
0.776913 0.583062 0.310689
0.00363165 0.642267 0.295186
0.0870832 0.647776 0.3066
0.190631 0.654032 0.316381
0.297139 0.660471 0.32343
0.404242 0.667384 0.327703
0.508232 0.675258 0.329931
0.60766 0.684123 0.330739
0.693721 0.696269 0.335378
0.779721 0.706752 0.338186
0.0287327 0.754772 0.319783
0.108843 0.768841 0.33286
0.212451 0.775784 0.343008
0.320287 0.781842 0.351049
0.42797 0.786664 0.355673
0.531823 0.790997 0.357778
0.632639 0.799207 0.361059
0.725597 0.818448 0.373632
0.826795 0.845487 0.393347
0.0263676 0.885801 0.323384
0.105409 0.897642 0.335714
0.207111 0.901473 0.343526
0.318715 0.909438 0.354986
0.439078 0.924895 0.37229
0.557595 0.941726 0.388998
0.660822 0.9505 0.395392
0.748104 0.963653 0.403571
0.834974 0.977142 0.4103
0.000213626 0 0.523217
0.0960708 0 0.51809
0.224079 0 0.504784
0.361135 0 0.492149
0.49987 0 0.480308
0.627482 0 0.466392
0.734478 0 0.450217
0.80975 0 0.436973
0.867887 0 0.423865
0 0.0852979 0.513344
0.101656 0.0855268 0.526436
0.237324 0.0852216 0.519631
0.372778 0.0833906 0.504799
0.497795 0.0812848 0.484321
0.605692 0.0809186 0.461021
0.693629 0.0830854 0.437491
0.755688 0.0902571 0.419776
0.812589 0.0981613 0.402975
0 0.258625 0.393713
0.0417945 0.240726 0.472557
0.217746 0.219455 0.504631
0.343267 0.211917 0.478523
0.454658 0.204883 0.451331
0.549218 0.200778 0.425772
0.630991 0.19971 0.402701
0.693828 0.205081 0.390478
0.764858 0.211185 0.381704
0 0.386282 0.311391
0.0112612 0.379385 0.338293
0.143267 0.359289 0.376898
0.306081 0.324636 0.435798
0.410422 0.314839 0.41767
0.507988 0.309331 0.39472
0.612375 0.306538 0.368521
0.681346 0.318959 0.378088
0.76582 0.330983 0.388174
0 0.462821 0.398672
0.0620279 0.454215 0.403143
0.175433 0.439185 0.403052
0.283955 0.427298 0.402869
0.387762 0.422141 0.402686
0.517189 0.419699 0.378714
0.614252 0.428977 0.380011
0.696818 0.442283 0.387076
0.78436 0.454337 0.396307
0 0.546456 0.401877
0.0737621 0.542657 0.401358
0.17882 0.536889 0.400626
0.28661 0.537621 0.406775
0.395483 0.543282 0.415808
0.499962 0.550729 0.418891
0.62356 0.55462 0.40061
0.707973 0.568124 0.406531
0.799664 0.579507 0.411521
0.00526436 0.64097 0.395102
0.0892653 0.649271 0.407034
0.194736 0.655528 0.41828
0.303655 0.66128 0.428733
0.411902 0.667277 0.436591
0.516915 0.674449 0.441001
0.616434 0.683513 0.443061
0.702007 0.695033 0.447013
0.795254 0.703288 0.442527
0.031754 0.757015 0.421256
0.113069 0.770642 0.435004
0.218158 0.776806 0.446677
0.327214 0.781872 0.457282
0.435599 0.785733 0.464561
0.540078 0.788998 0.467979
0.643687 0.799695 0.47512
0.739605 0.822003 0.491234
0.836515 0.846021 0.507988
0.0304112 0.886961 0.425589
0.110124 0.897993 0.438407
0.213901 0.902052 0.448966
0.328466 0.91133 0.46453
0.452781 0.929595 0.487144
0.5673 0.941146 0.500496
0.670924 0.949706 0.507958
0.758236 0.962798 0.516823
0.843961 0.976425 0.524132
0 0 0.663813
0.0953384 0 0.659052
0.223941 0 0.646311
0.361822 0 0.634424
0.499336 0 0.620493
0.623484 0 0.601892
0.726925 0 0.58027
0.799527 0 0.561654
0.85597 0 0.543267
0 0.0808576 0.659892
0.10399 0.0837568 0.670253
0.23827 0.0835889 0.659571
0.370794 0.0816052 0.639445
0.492683 0.0798199 0.613581
0.597726 0.0794232 0.584695
0.683955 0.0814679 0.555947
0.745739 0.0885023 0.533883
0.804486 0.0961776 0.513787
0 0.25095 0.568841
0.0588083 0.231403 0.626245
0.221454 0.214099 0.62678
0.340169 0.207935 0.598474
0.447776 0.201877 0.568795
0.541878 0.197803 0.539925
0.62324 0.196933 0.514763
0.689845 0.20264 0.500938
0.76672 0.209232 0.491875
0 0.399283 0.409201
0 0.387518 0.448295
0.131853 0.355077 0.513924
0.302419 0.320302 0.547982
0.404944 0.311772 0.526818
0.500359 0.307836 0.508995
0.592325 0.310033 0.498054
0.678172 0.320546 0.500603
0.773404 0.330175 0.501152
0 0.486717 0.380575
0.00836194 0.476722 0.391638
0.123934 0.460182 0.405432
0.237613 0.44535 0.433234
0.371878 0.427359 0.497459
0.495674 0.425879 0.511467
0.601724 0.4327 0.5084
0.706462 0.441718 0.496147
0.799084 0.452476 0.501854
0 0.548531 0.473136
0.0641947 0.544762 0.479957
0.172305 0.53994 0.487968
0.284535 0.541909 0.502327
0.397787 0.545525 0.516274
0.508064 0.550591 0.526986
0.633539 0.554192 0.508354
0.71693 0.567651 0.51519
0.811322 0.578393 0.518044
0.00401312 0.641779 0.493111
0.0885786 0.652705 0.507317
0.19501 0.658503 0.518151
0.305989 0.663645 0.528557
0.417472 0.66865 0.538979
0.52488 0.67451 0.548486
0.624949 0.682811 0.553048
0.723796 0.691249 0.543679
0.817121 0.698695 0.538521
0.0321965 0.760174 0.521874
0.113924 0.773098 0.535256
0.220615 0.779141 0.546929
0.331441 0.783154 0.558038
0.441474 0.785519 0.567941
0.548302 0.788785 0.575845
0.654902 0.800702 0.586847
0.754055 0.826368 0.607324
0.844831 0.845609 0.619654
0.0319982 0.888884 0.525734
0.11223 0.898802 0.538079
0.219669 0.904799 0.551537
0.338384 0.915923 0.57113
0.465202 0.934539 0.597635
0.57615 0.941238 0.609033
0.68069 0.949264 0.617868
0.768475 0.962188 0.627802
0.853162 0.976242 0.636255
0 0 0.794263
0.0952926 0 0.789929
0.224872 0 0.778149
0.363012 0 0.76585
0.498451 0 0.748241
0.619104 0 0.72462
0.719142 0 0.697749
0.789364 0 0.674342
0.84448 0 0.651713
0 0.0787213 0.795087
0.106676 0.082948 0.802396
0.239231 0.0828412 0.786877
0.368841 0.0809033 0.761318
0.487343 0.0791791 0.729992
0.589624 0.0788586 0.696269
0.674372 0.0806134 0.663417
0.736187 0.0876936 0.638544
0.797391 0.095079 0.616724
0 0.241703 0.722698
0.0690471 0.226032 0.755627
0.22002 0.21178 0.74255
0.335866 0.205707 0.708888
0.440894 0.199863 0.674937
0.534234 0.195972 0.643641
0.61738 0.195392 0.617838
0.687449 0.201434 0.604593
0.770031 0.208209 0.597528
0 0.40351 0.528634
0 0.385489 0.577005
0.142123 0.345159 0.641962
0.298619 0.317159 0.649989
0.400275 0.309728 0.626963
0.49752 0.307073 0.61117
0.594949 0.310033 0.604074
0.683955 0.320699 0.60882
0.778485 0.330678 0.611872
0 0.501701 0.424704
0 0.490074 0.446235
0.0839094 0.470893 0.478859
0.212772 0.451102 0.534325
0.37969 0.425483 0.606836
0.497673 0.427329 0.615717
0.604089 0.43415 0.618814
0.693782 0.445624 0.624338
0.786313 0.456809 0.628504
0 0.568643 0.461723
0.0224613 0.5664 0.47274
0.130938 0.56405 0.485771
0.243977 0.566445 0.508202
0.360235 0.5673 0.544106
0.489021 0.560891 0.610178
0.616144 0.559533 0.636545
0.705852 0.571496 0.642298
0.819516 0.578531 0.624033
0 0.649927 0.561532
0.0795605 0.660883 0.581704
0.188602 0.665675 0.599145
0.302083 0.669444 0.615763
0.41619 0.672801 0.631159
0.52755 0.677043 0.64445
0.632547 0.682887 0.655314
0.738293 0.689097 0.640192
0.825223 0.69865 0.642588
0.0302739 0.764355 0.61648
0.112825 0.777081 0.631205
0.220264 0.782849 0.643244
0.331777 0.785901 0.653681
0.443336 0.78703 0.662821
0.555261 0.791424 0.674876
0.666453 0.804608 0.693172
0.768063 0.831235 0.717662
0.874067 0.84184 0.706371
0.0315862 0.89131 0.62179
0.112291 0.90103 0.634302
0.223056 0.908843 0.649393
0.346838 0.923217 0.672419
0.471473 0.937041 0.695369
0.583749 0.942519 0.709041
0.689372 0.949828 0.72108
0.77789 0.962158 0.732692
0.862806 0.976577 0.742885
0 0 0.898268
0.096788 0 0.894331
0.227512 0 0.883696
0.365545 0 0.869734
0.498421 0 0.847974
0.615747 0 0.819806
0.712642 0 0.788617
0.780758 0 0.761639
0.835126 0 0.736141
0 0.079469 0.903105
0.110552 0.0844282 0.906279
0.241184 0.0842908 0.88603
0.368048 0.0823987 0.855756
0.483421 0.0806744 0.819974
0.583001 0.0802319 0.78262
0.66627 0.0818647 0.747219
0.728557 0.0887922 0.721141
0.793378 0.0955673 0.699214
0 0.237308 0.835431
0.0760662 0.224567 0.85304
0.219883 0.211704 0.831998
0.333074 0.205676 0.794446
0.436027 0.200031 0.757748
0.528557 0.196414 0.72549
0.613245 0.196201 0.700603
0.686534 0.202472 0.689509
0.776303 0.209522 0.686229
0 0.402747 0.634577
0 0.379995 0.685008
0.150301 0.339895 0.734493
0.296605 0.316304 0.730816
0.398245 0.310002 0.707881
0.496895 0.308202 0.694133
0.598566 0.312642 0.691966
0.689143 0.323232 0.69836
0.785931 0.332158 0.701625
0 0.509651 0.489006
0 0.497139 0.515465
0.0643168 0.476112 0.560433
0.214755 0.450019 0.634531
0.38526 0.427848 0.694072
0.501305 0.430777 0.702113
0.608057 0.437156 0.706813
0.699428 0.44828 0.714122
0.794049 0.458488 0.718303
0 0.587091 0.462898
0 0.585641 0.482216
0.0962997 0.584161 0.513848
0.21326 0.583673 0.559915
0.338048 0.579141 0.621851
0.500374 0.560967 0.708156
0.619989 0.563073 0.723369
0.71165 0.574044 0.731731
0.803311 0.584772 0.736461
0 0.670283 0.569116
0.0518502 0.681559 0.588861
0.160311 0.686641 0.605463
0.273533 0.690517 0.62153
0.387396 0.693721 0.638407
0.500511 0.696513 0.663355
0.612711 0.695766 0.709865
0.723949 0.694224 0.748943
0.813199 0.705684 0.753307
0.0215763 0.774762 0.671351
0.105531 0.786297 0.690715
0.214725 0.790768 0.707942
0.327916 0.792187 0.722957
0.441321 0.791974 0.736431
0.5579 0.797818 0.754421
0.675471 0.813352 0.777737
0.77705 0.834516 0.803067
0.885267 0.84361 0.790997
0.0306859 0.895445 0.702739
0.112779 0.905882 0.717037
0.226307 0.915602 0.732921
0.353857 0.932769 0.75787
0.4748 0.941649 0.775616
0.588754 0.946548 0.788922
0.696529 0.953033 0.80296
0.786358 0.964706 0.81767
0.872282 0.978988 0.830121
0.00154116 0 0.990631
0.0992905 0 0.987289
0.230701 0 0.977081
0.368338 0 0.960693
0.498375 0 0.935027
0.612329 0 0.903258
0.70631 0 0.86949
0.772503 0 0.842145
0.826246 0 0.819562
0.00273136 0.0814527 0.998199
0.114687 0.0868086 0.997543
0.242985 0.0862898 0.974487
0.366995 0.0844129 0.942458
0.479133 0.0824445 0.905806
0.576074 0.0816663 0.869276
0.658137 0.0827497 0.837446
0.720684 0.0887617 0.820188
0.789563 0.0942092 0.806912
0 0.235248 0.931411
0.0813916 0.224018 0.942107
0.21944 0.211688 0.919036
0.329961 0.205386 0.882582
0.43064 0.199619 0.848112
0.522454 0.195834 0.819547
0.608423 0.195758 0.802014
0.685359 0.201968 0.80235
0.781781 0.208331 0.805692
0 0.398733 0.740322
0 0.372763 0.794018
0.155749 0.335393 0.83093
0.293843 0.314855 0.823896
0.395331 0.309377 0.805005
0.496208 0.308843 0.796841
0.600809 0.313878 0.801877
0.691691 0.323568 0.814832
0.791714 0.331502 0.821454
0 0.51545 0.567147
0 0.501457 0.60882
0.0546426 0.475761 0.673411
0.22591 0.445319 0.755108
0.388418 0.429297 0.798825
0.50341 0.432624 0.806302
0.610315 0.439002 0.813931
0.701808 0.449149 0.828504
0.799374 0.458076 0.837003
0 0.602243 0.506111
0 0.602411 0.542229
0.0589761 0.600595 0.592813
0.183978 0.595728 0.656214
0.333852 0.581109 0.743603
0.507637 0.561456 0.814939
0.622446 0.565057 0.826917
0.71397 0.575296 0.841184
0.808042 0.584863 0.853819
0 0.699306 0.555795
0 0.71107 0.581216
0.10927 0.714717 0.609689
0.225635 0.715801 0.644556
0.345022 0.714534 0.688212
0.467933 0.710658 0.746258
0.619013 0.694392 0.827588
0.725277 0.695232 0.849241
0.817899 0.708461 0.863203
0 0.799481 0.677577
0.0628214 0.811551 0.69807
0.17142 0.815747 0.713649
0.284306 0.816892 0.726986
0.399329 0.817121 0.741787
0.521691 0.82295 0.768124
0.648157 0.838285 0.812848
0.753429 0.848615 0.866651
0.868482 0.849744 0.914153
0.0155489 0.90367 0.781445
0.101534 0.915434 0.802182
0.219898 0.926543 0.826123
0.351095 0.943481 0.856382
0.470253 0.946868 0.872679
0.587411 0.950759 0.885283
0.698054 0.956863 0.895277
0.790784 0.967987 0.909499
0.879469 0.980468 0.925734
