site/assets/luts/freshluts--0001099-girl-in-studio.cube
# LUTr-Schema-Version: 2
# LUTr-ID: freshluts--0001099-girl-in-studio
# LUTr-Title: Girl in Studio
# LUTr-Collection: Fresh LUTs
# LUTr-Collection-ID: freshluts-community
# LUTr-Source: https://freshluts.com
# LUTr-Retrieved: 2026-07-27
# LUTr-Source-File: submissions-raw/freshluts/cubes/1099__Girl_in_Studio.cube
# LUTr-Source-Format: CUBE
# LUTr-Source-SHA256: 7785895f03e9a0d2e325f3123290510e8e6a3665cc5fc792cce4f05cbc1d8354
# LUTr-License: CC0-1.0
# LUTr-License-URL: https://freshluts.com/termsandconditions
# LUTr-License-Basis: site-terms
# LUTr-Transform-Class: creative-look
# LUTr-Tags: creative, freshluts, community, cube, panasonic-v-log
# LUTr-Input-Color-Space: panasonic-vlog-vgamut
# LUTr-Input-Gamut: panasonic-v-gamut
# LUTr-Input-Transfer: panasonic-v-log
# LUTr-Output-Color-Space: srgb
# LUTr-Output-Gamut: rec709
# LUTr-Output-Transfer: srgb
# LUTr-Color-Space-Confidence: inferred-from-source-label
# LUTr-Domain-Normalized: true
# LUTr-Shaper: none
# LUTr-Original-Grid: 35x35x35
# LUTr-Conversion-Grid: 35x35x35
# LUTr-Conversion-Interpolation: none
# LUTr-Conversion-Method: Metadata normalization; numeric LUT samples preserved
# LUTr-Conversion-Tool: LUTr scripts/convert-all-to-cube.mjs 2.0.0
# LUTr-Conversion-Date: 2026-07-28
# LUTr-Asset-URL: https://freshluts.com/luts/1099
# LUTr-Author: Camera Head Studios LUTS
# LUTr-Author-URL: https://freshluts.com/users/107973
# LUTr-Attribution: Camera Head Studios LUTS via Fresh LUTs
# LUTr-Source-Labels: gamma=Panasonic V-log; color=None; key=Neutral; style=Cinematic/Dark
# LUTr-Note: Preserve this metadata and the upstream license notices when redistributing.
# LUTr-Upstream-Comment: Created by: Pixelmator Pro
# LUTr-Upstream-Comment: Color profile: "sRGB IEC61966-2.1"
# LUTr-Upstream-Comment: Data domain
# LUTr-Upstream-Comment: LUT size
TITLE "Girl in Studio"
LUT_3D_SIZE 7
DOMAIN_MIN 0.000000 0.000000 0.000000
DOMAIN_MAX 0.882353 0.882353 0.882353
0 0 0
0.012 0 0
0.453 0 0
0.917 0 0
1 0 0
1 0 0
1 0 0
0 0 0
0 0 0
0.276 0 0
0.755 0 0
1 0 0
1 0 0
1 0 0
0 0.263 0
0 0.221 0
0.098 0.154 0
0.574 0.075 0
0.98 0.016 0
1 0.002 0
1 0.028 0
0 0.593 0
0 0.6 0
0.001 0.541 0
0.402 0.478 0
0.881 0.433 0
1 0.454 0
1 0.541 0
0 0.94 0
0 0.968 0
0 0.943 0
0.324 0.921 0
0.846 0.902 0
1 0.912 0
1 0.944 0
0 1 0
0 1 0
0 1 0
0.337 1 0
0.861 1 0
1 1 0
1 1 0
0 1 0
0 1 0
0 1 0
0.353 1 0
0.872 1 0
1 1 0
1 1 0
0 0 0.071
0.001 0 0.008
0.398 0 0
0.872 0 0
1 0 0
1 0 0
1 0 0
0 0 0
0 0 0
0.302 0 0
0.803 0 0
1 0 0
1 0 0
1 0 0
0 0.229 0
0 0.213 0
0.077 0.136 0
0.593 0.045 0
0.999 0.005 0
1 0 0
1 0 0
0 0.569 0
0 0.606 0
0 0.554 0
0.405 0.487 0
0.916 0.438 0
1 0.448 0
1 0.514 0
0 0.934 0
0 0.996 0
0 0.97 0
0.308 0.94 0
0.857 0.912 0
1 0.912 0
1 0.934 0
0 1 0
0 1 0
0 1 0
0.3 1 0
0.851 1 0
1 1 0
1 1 0
0 1 0
0 1 0
0 1 0
0.305 1 0
0.855 1 0
1 1 0
1 1 0
0 0 0.591
0 0 0.495
0.332 0 0.393
0.809 0 0.289
1 0 0.19
1 0 0.113
1 0 0.127
0 0 0.406
0 0 0.42
0.228 0 0.309
0.733 0 0.195
1 0 0.096
1 0 0.039
1 0 0.044
0 0.182 0.233
0 0.157 0.213
0.039 0.087 0.152
0.607 0.013 0.042
1 0 0.005
1 0 0
1 0 0
0 0.538 0.099
0 0.568 0.05
0 0.544 0.005
0.389 0.476 0
0.936 0.423 0
1 0.421 0
1 0.468 0
0 0.932 0.041
0 0.994 0
0 0.977 0
0.275 0.949 0
0.857 0.913 0
1 0.907 0
1 0.921 0
0 1 0.124
0 1 0.037
0 1 0
0.242 1 0
0.837 1 0
1 1 0
1 1 0
0 1 0.321
0 1 0.189
0 1 0.077
0.223 1 0.006
0.827 1 0.001
1 1 0
1 1 0.018
0 0 1
0 0 0.995
0.258 0 0.914
0.712 0 0.795
1 0 0.687
1 0 0.614
1 0 0.688
0 0 0.923
0 0 0.971
0.15 0 0.872
0.655 0 0.756
1 0 0.657
1 0 0.602
1 0 0.657
0 0.13 0.724
0 0.093 0.77
0 0.027 0.776
0.538 0 0.673
1 0 0.582
1 0 0.554
1 0 0.593
0 0.504 0.572
0 0.527 0.606
0 0.496 0.581
0.351 0.442 0.539
0.951 0.383 0.478
1 0.367 0.457
1 0.396 0.477
0 0.938 0.534
0 0.985 0.554
0 0.97 0.515
0.226 0.948 0.453
0.85 0.907 0.395
1 0.893 0.388
1 0.899 0.415
0 1 0.643
0 1 0.627
0 1 0.564
0.183 1 0.476
0.809 1 0.407
1 1 0.406
1 1 0.438
0 1 0.825
0 1 0.773
0 1 0.695
0.175 1 0.593
0.779 1 0.501
1 1 0.5
1 1 0.532
0 0 1
0 0 1
0.184 0 1
0.625 0 1
1 0 1
1 0 1
1 0 1
0 0 1
0 0 1
0.078 0 1
0.588 0 1
1 0 1
1 0 1
1 0 1
0 0.079 1
0 0.031 1
0 0 1
0.479 0 1
0.995 0 1
1 0 1
1 0 1
0 0.479 1
0 0.496 1
0 0.462 1
0.327 0.407 1
0.936 0.357 0.994
1 0.349 0.987
1 0.38 0.989
0 0.948 0.991
0 0.981 1
0 0.963 0.995
0.216 0.936 0.978
0.834 0.894 0.944
1 0.872 0.922
1 0.88 0.922
0 1 1
0 1 1
0 1 0.993
0.178 1 0.97
0.778 1 0.917
1 1 0.891
1 1 0.888
0 1 1
0 1 1
0 1 1
0.174 1 0.981
0.744 1 0.93
0.999 1 0.896
1 1 0.896
0 0 1
0 0 1
0.119 0 1
0.558 0 1
0.998 0 1
1 0 1
1 0 1
0 0 1
0 0 1
0.022 0 1
0.54 0 1
1 0 1
1 0 1
1 0 1
0 0.035 1
0 0 1
0 0 1
0.452 0 1
0.996 0 1
1 0 1
1 0 1
0 0.488 1
0 0.494 1
0 0.452 1
0.316 0.383 1
0.931 0.339 1
1 0.338 1
1 0.373 1
0 0.97 1
0 0.984 1
0 0.964 1
0.217 0.93 1
0.825 0.881 1
1 0.86 1
1 0.867 1
0 1 1
0 1 1
0 1 1
0.183 1 1
0.774 1 1
1 1 1
1 1 1
0 1 1
0 1 1
0 1 1
0.183 1 1
0.744 1 1
0.994 1 1
1 1 1
0 0 1
0 0 1
0.115 0 1
0.589 0 1
1 0 1
1 0 1
1 0 1
0 0 1
0 0 1
0.023 0 1
0.573 0 1
1 0 1
1 0 1
1 0 1
0 0.043 1
0 0 1
0 0 1
0.473 0 1
1 0 1
1 0 1
1 0 1
0 0.549 1
0 0.518 1
0 0.455 1
0.337 0.376 1
0.936 0.335 1
1 0.328 1
1 0.367 1
0 0.99 1
0 0.994 1
0 0.971 1
0.23 0.925 1
0.84 0.88 1
1 0.864 1
1 0.853 1
0 1 1
0 1 1
0 1 1
0.201 1 1
0.781 1 1
1 1 1
1 1 1
0 1 1
0 1 1
0 1 1
0.207 1 1
0.749 1 1
0.993 1 1
1 1 1
