site/assets/luts/natron-haldclut--goldfx-summer-heat--d33ebe832.cube
# LUTr-Project: LUTr — LUTrepository
# LUTr-Schema-Version: 1
# LUTr-ID: natron-haldclut--goldfx-summer-heat--d33ebe832
# LUTr-Title: goldfx summer heat
# LUTr-Collection: Natron HaldCLUT
# LUTr-Collection-ID: natron-haldclut-presets
# LUTr-Source: https://github.com/NatronGitHub/clut
# LUTr-Source-File: submissions/natron-haldclut-presets/picturefx/goldfx_summer_heat.png
# LUTr-Source-Format: PNG
# LUTr-Source-SHA256: 0987c67addf130ecd62f13cb77fd0d83308d7b3f936536b6b95600fb1ff27845
# LUTr-License: CC-BY-SA-4.0
# LUTr-License-URL: https://github.com/NatronGitHub/clut#license
# LUTr-Tags: creative, film, film-emulation, hald-clut, natron, png, cube
# LUTr-Transform-Class: film-emulation
# LUTr-Input-Color-Space: srgb
# LUTr-Output-Color-Space: srgb
# LUTr-Color-Space-Confidence: assumed-display-referred
# LUTr-Conversion-Method: PNG LUT image decoded at 16-bit and sampled to 25x25x25 3D CUBE
# LUTr-Conversion-Date: 2026-07-27
# LUTr-Conversion-Tool: LUTr scripts/convert-all-to-cube.mjs
# LUTr-Conversion-Grid: 25x25x25
# LUTr-Note: Preserve this metadata and the upstream license notices when redistributing.
TITLE "goldfx summer heat"
LUT_3D_SIZE 25
DOMAIN_MIN 0 0 0
DOMAIN_MAX 1 1 1
0.0039215686 0.02745098 0.058823529
0.0078431373 0.02745098 0.056372549
0.029411765 0.031372549 0.05
0.053431373 0.027941176 0.043627451
0.076470588 0.02745098 0.033333333
0.1 0.024019608 0.024019608
0.1372549 0.030392157 0.034313725
0.17696078 0.035294118 0.039215686
0.23137255 0.035294118 0.043137255
0.30735294 0.025 0.053431373
0.38431373 0.018627451 0.059803922
0.46323529 0.0083333333 0.066666667
0.54117647 0.0039215686 0.070588235
0.62303922 0.0078431373 0.070588235
0.69509804 0.0078431373 0.070588235
0.76421569 0.015686275 0.066666667
0.81176471 0.098039216 0.062745098
0.85931373 0.17647059 0.058823529
0.90294118 0.24607843 0.053921569
0.94705882 0.31078431 0.04754902
0.98235294 0.36862745 0.050980392
0.98823529 0.40980392 0.075490196
0.99117647 0.45490196 0.10294118
0.99215686 0.5 0.12990196
0.99607843 0.54509804 0.15686275
0.0039215686 0.02745098 0.058823529
0.006372549 0.02745098 0.056372549
0.029411765 0.034191176 0.047181373
0.053431373 0.037745098 0.035477941
0.079656863 0.037745098 0.029411765
0.10735294 0.040196078 0.030085784
0.14178922 0.038357843 0.037132353
0.17843137 0.035294118 0.039215686
0.23137255 0.031372549 0.040686275
0.30735294 0.026531863 0.050980392
0.38370098 0.018627451 0.059191176
0.45931373 0.0083333333 0.064031863
0.5379902 0.0026960784 0.068137255
0.62383578 0.0080269608 0.070588235
0.70147059 0.016544118 0.067034314
0.76268382 0.057843137 0.06182598
0.81568627 0.125 0.056372549
0.86415441 0.19852941 0.053370098
0.90833333 0.2685049 0.050367647
0.94883578 0.32922794 0.047058824
0.97720588 0.37181373 0.047794118
0.98823529 0.40980392 0.065196078
0.99178922 0.45306373 0.090808824
0.99215686 0.48878676 0.11568627
0.99607843 0.52058824 0.13872549
0.0049019608 0.038235294 0.062745098
0.01127451 0.040073529 0.056740196
0.030392157 0.041911765 0.041176471
0.053921569 0.044117647 0.026960784
0.084313725 0.048529412 0.027941176
0.1122549 0.055882353 0.031862745
0.14681373 0.055882353 0.038235294
0.18517157 0.049019608 0.039583333
0.23529412 0.045098039 0.043137255
0.30796569 0.03872549 0.049877451
0.38333333 0.029411765 0.055882353
0.45539216 0.015686275 0.062254902
0.53186275 0.0073529412 0.062745098
0.62401961 0.014093137 0.065686275
0.70465686 0.033823529 0.063480392
0.76176471 0.098039216 0.056740196
0.81960784 0.15980392 0.05
0.86960784 0.22512255 0.046078431
0.9127451 0.28823529 0.043137255
0.94362745 0.33492647 0.042279412
0.97254902 0.37647059 0.043627451
0.98872549 0.41470588 0.051470588
0.99215686 0.45588235 0.083088235
0.99215686 0.48909314 0.11127451
0.99607843 0.52058824 0.13431373
0.0078431373 0.065686275 0.070098039
0.020281863 0.065686275 0.059987745
0.03627451 0.064338235 0.042034314
0.050919118 0.06127451 0.027022059
0.080882353 0.067647059 0.032843137
0.11519608 0.070098039 0.034436275
0.14901961 0.070955882 0.035661765
0.19754902 0.073529412 0.04442402
0.24656863 0.069607843 0.047058824
0.31127451 0.063235294 0.053125
0.38688725 0.056495098 0.055882353
0.46231618 0.056433824 0.058823529
0.53897059 0.062254902 0.055392157
0.62745098 0.071568627 0.055392157
0.70392157 0.087254902 0.055392157
0.76176471 0.13841912 0.05
0.82303922 0.19411765 0.043627451
0.87628676 0.24901961 0.037071078
0.90882353 0.29497549 0.035784314
0.93970588 0.33872549 0.036213235
0.97107843 0.38210784 0.031862745
0.99215686 0.425 0.044607843
0.99215686 0.46617647 0.082352941
0.99607843 0.51078431 0.11568627
0.99607843 0.55147059 0.14852941
0.0098039216 0.096078431 0.080392157
0.020098039 0.096078431 0.070098039
0.029901961 0.095588235 0.057843137
0.036764706 0.096078431 0.05122549
0.069607843 0.1 0.050980392
0.10539216 0.1 0.046568627
0.14607843 0.10196078 0.043137255
0.19901961 0.10122549 0.049019608
0.25490196 0.094117647 0.052941176
0.31593137 0.083823529 0.050980392
0.38970588 0.091666667 0.052941176
0.46691176 0.10710784 0.050980392
0.54509804 0.11470588 0.049019608
0.62745098 0.12401961 0.049019608
0.70343137 0.14313725 0.046078431
0.76176471 0.18897059 0.039705882
0.82352941 0.23529412 0.033333333
0.87205882 0.2745098 0.030147059
0.90490196 0.31372549 0.025
0.93578431 0.35686275 0.021813725
0.96960784 0.40294118 0.021568627
0.99240196 0.44877451 0.034803922
0.99607843 0.48970588 0.069607843
0.99607843 0.52941176 0.10588235
0.99607843 0.55882353 0.13921569
0.0078431373 0.12696078 0.090196078
0.013909314 0.12696078 0.084129902
0.01875 0.12696078 0.078063725
0.025980392 0.12696078 0.072058824
0.053921569 0.13112745 0.069362745
0.087254902 0.13921569 0.062806373
0.13529412 0.14301471 0.059436275
0.1872549 0.13952206 0.06060049
0.24656863 0.13186275 0.059313725
0.31550245 0.13480392 0.05245098
0.39252451 0.14117647 0.046936275
0.47064951 0.15104167 0.042708333
0.5495098 0.1629902 0.038970588
0.63186275 0.17107843 0.034803922
0.70833333 0.19031863 0.031862745
0.76421569 0.23137255 0.029595588
0.81519608 0.27205882 0.02745098
0.86047794 0.30686275 0.024509804
0.90147059 0.34264706 0.014705882
0.93621324 0.38333333 0.0078431373
0.96642157 0.42647059 0.013235294
0.99258578 0.47261029 0.020588235
0.99607843 0.50735294 0.057965686
0.99607843 0.54215686 0.095588235
0.99607843 0.56519608 0.13284314
0.010784314 0.16176471 0.090196078
0.0099264706 0.16078431 0.089583333
0.0088235294 0.15784314 0.089215686
0.012254902 0.16041667 0.089215686
0.033823529 0.16813725 0.083333333
0.067156863 0.18039216 0.076102941
0.11862745 0.18039216 0.073529412
0.17806373 0.18394608 0.069607843
0.24313725 0.18627451 0.062745098
0.32058824 0.19473039 0.05245098
0.40196078 0.20294118 0.042401961
0.47745098 0.20931373 0.036642157
0.55588235 0.2127451 0.031862745
0.63958333 0.21911765 0.024509804
0.71568627 0.23308824 0.020588235
0.76090686 0.26813725 0.020588235
0.80882353 0.30294118 0.020588235
0.85392157 0.33958333 0.017769608
0.89583333 0.37352941 0.010784314
0.93541667 0.41078431 0.0030637255
0.9627451 0.44901961 0.0049019608
0.98872549 0.49019608 0.010784314
0.99607843 0.5245098 0.041911765
0.99607843 0.55428922 0.086397059
0.99607843 0.57941176 0.12941176
0.0078431373 0.2127451 0.08872549
0.0078431373 0.2127451 0.090196078
0.0078431373 0.2127451 0.090196078
0.0078431373 0.2127451 0.090196078
0.011519608 0.21642157 0.090931373
0.042830882 0.22303922 0.087561275
0.10355392 0.22659314 0.082720588
0.175 0.23382353 0.073039216
0.24705882 0.24411765 0.062745098
0.32640931 0.25349265 0.05245098
0.41323529 0.26078431 0.038848039
0.48970588 0.26764706 0.031678922
0.57009804 0.27352941 0.024754902
0.64834559 0.28137255 0.017830882
0.71666667 0.29056373 0.015686275
0.76329657 0.30588235 0.018688725
0.80931373 0.33921569 0.019607843
0.85594363 0.37401961 0.015686275
0.89595588 0.40735294 0.010784314
0.92794118 0.4403799 0.0053921569
0.95735294 0.475 0.0039215686
0.98578431 0.51207108 0.00030637255
0.99607843 0.5439951 0.033210784
0.99607843 0.57150735 0.081311275
0.99607843 0.59509804 0.12401961
0.0078431373 0.2745098 0.08627451
0.0078431373 0.2745098 0.08627451
0.0078431373 0.2745098 0.087254902
0.0078431373 0.2745098 0.090196078
0.0039215686 0.2745098 0.092156863
0.023039216 0.27892157 0.090196078
0.098039216 0.28529412 0.083333333
0.17254902 0.29166667 0.073039216
0.25098039 0.30196078 0.062745098
0.33578431 0.3122549 0.048529412
0.42745098 0.32254902 0.034313725
0.50980392 0.32941176 0.024019608
0.58235294 0.33921569 0.017647059
0.65441176 0.3495098 0.011764706
0.71666667 0.35686275 0.011764706
0.76813725 0.36617647 0.015686275
0.81568627 0.38431373 0.015686275
0.85833333 0.41127451 0.015686275
0.89313725 0.43823529 0.010784314
0.92058824 0.46911765 0.0078431373
0.95098039 0.50392157 0.0039215686
0.98137255 0.53480392 0.00049019608
0.99509804 0.56176471 0.019607843
0.99607843 0.58872549 0.070098039
0.99607843 0.61176471 0.11372549
0.0078431373 0.34264706 0.082352941
0.0078431373 0.34264706 0.083272059
0.0078431373 0.33982843 0.084436275
0.0044117647 0.33872549 0.08627451
0.0051470588 0.34264706 0.087745098
0.01752451 0.34834559 0.087561275
0.072671569 0.35441176 0.082720588
0.14803922 0.3622549 0.073039216
0.23431373 0.37009804 0.060294118
0.33333333 0.37702206 0.045159314
0.43443627 0.38615196 0.027573529
0.5223652 0.39675245 0.016176471
0.5875 0.40735294 0.0125
0.66047794 0.41911765 0.0078431373
0.71911765 0.42610294 0.0089460784
0.77150735 0.43339461 0.011764706
0.81960784 0.43970588 0.015686275
0.85533088 0.45091912 0.012316176
0.88921569 0.47156863 0.0089460784
0.92009804 0.5 0.0044117647
0.94901961 0.53088235 0.0039215686
0.97107843 0.55882353 0.0039215686
0.98664216 0.58235294 0.010784314
0.99362745 0.60839461 0.047977941
0.99607843 0.63235294 0.097058824
0.0078431373 0.41078431 0.07745098
0.0068627451 0.41078431 0.07745098
0.0068627451 0.40906863 0.079166667
0.0047794118 0.40943627 0.082230392
0.0078431373 0.4127451 0.082352941
0.014338235 0.4189951 0.082352941
0.047058824 0.4254902 0.079411765
0.1189951 0.43186275 0.069117647
0.21372549 0.44215686 0.057843137
0.32009804 0.44791667 0.041789216
0.42328431 0.45490196 0.026470588
0.51176471 0.46421569 0.016176471
0.59362745 0.4745098 0.0098039216
0.66568627 0.48566176 0.0039215686
0.72058824 0.49215686 0.0068627451
0.77205882 0.49509804 0.011151961
0.81960784 0.49509804 0.011764706
0.85686275 0.50147059 0.011764706
0.89019608 0.5125 0.0068627451
0.92401961 0.53578431 0.0030637255
0.94460784 0.55980392 0.0039215686
0.96164216 0.5807598 0.0039215686
0.98137255 0.60392157 0.0039215686
0.99607843 0.62843137 0.016789216
0.99607843 0.64803922 0.070588235
0.0039215686 0.47941176 0.071078431
0.0039215686 0.48284314 0.071078431
0.0039215686 0.47892157 0.074509804
0.0077818627 0.47892157 0.078431373
0.0078431373 0.48308824 0.078676471
0.0044117647 0.48768382 0.078921569
0.020955882 0.49375 0.078431373
0.097855392 0.5026348 0.065502451
0.20441176 0.51029412 0.054901961
0.31341912 0.51452206 0.040686275
0.41531863 0.51960784 0.026470588
0.50189951 0.52990196 0.016666667
0.58848039 0.54019608 0.0098039216
0.67261029 0.55006127 0.00006127451
0.7245098 0.5504902 0.0039215686
0.77205882 0.5504902 0.0093137255
0.81960784 0.5504902 0.011764706
0.85833333 0.55441176 0.011764706
0.89313725 0.56323529 0.0068627451
0.92101716 0.57401961 0.00049019608
0.94117647 0.58897059 0.0039215686
0.95784314 0.60827206 0.0039215686
0.97843137 0.63186275 0.0039215686
0.99019608 0.64773284 0.0091911765
0.99607843 0.66519608 0.047058824
0.0039215686 0.55098039 0.066666667
0 0.55171569 0.066666667
0.0039215686 0.54852941 0.071568627
0.0039215686 0.54509804 0.081862745
0.0088235294 0.54705882 0.084313725
0.0098039216 0.55343137 0.080392157
0.015196078 0.55833333 0.076470588
0.11151961 0.56421569 0.067156863
0.22156863 0.56862745 0.056862745
0.32647059 0.57254902 0.043382353
0.42254902 0.575 0.026470588
0.51519608 0.58014706 0.013970588
0.59803922 0.59019608 0.0049019608
0.66936275 0.59632353 0.0039215686
0.7245098 0.6 0.0073529412
0.77205882 0.6 0.011764706
0.81960784 0.59803922 0.01372549
0.85563725 0.60318627 0.011764706
0.8872549 0.60784314 0.0078431373
0.91446078 0.61176471 0.0039215686
0.9372549 0.62156863 0.0049019608
0.95784314 0.63823529 0.0078431373
0.975 0.65735294 0.0098039216
0.98578431 0.67009804 0.0090686275
0.99215686 0.6745098 0.011764706
0.0073529412 0.61421569 0.079411765
0.0052083333 0.61421569 0.079718137
0.0042892157 0.61078431 0.083333333
0.00091911765 0.61078431 0.086764706
0 0.6129902 0.088480392
0.014460784 0.6151348 0.08682598
0.08872549 0.61164216 0.091053922
0.18186275 0.61421569 0.085784314
0.27794118 0.62156863 0.071568627
0.37175245 0.62579657 0.054901961
0.4495098 0.62990196 0.034313725
0.52702206 0.63333333 0.01372549
0.60612745 0.63553922 0.00024509804
0.66568627 0.64166667 0.0049019608
0.72352941 0.64509804 0.01127451
0.7745098 0.64540441 0.015686275
0.81911765 0.64558824 0.015686275
0.8504902 0.64901961 0.012254902
0.88125 0.65 0.010784314
0.90876225 0.65294118 0.0078431373
0.93333333 0.66078431 0.0078431373
0.95784314 0.66954657 0.011764706
0.97585784 0.68578431 0.012132353
0.98823529 0.696875 0.012254902
0.98823529 0.6995098 0.016176471
0.00098039216 0.66862745 0.1
0.0028186275 0.66960784 0.10245098
0.01004902 0.66960784 0.10392157
0.0068627451 0.66960784 0.10392157
0.012254902 0.67352941 0.1
0.070588235 0.67303922 0.10686275
0.17573529 0.66666667 0.11372549
0.27107843 0.66715686 0.10931373
0.35392157 0.66960784 0.096078431
0.425 0.67058824 0.082352941
0.49313725 0.6745098 0.064705882
0.55968137 0.67794118 0.049632353
0.61960784 0.68039216 0.037745098
0.67205882 0.68627451 0.027083333
0.7245098 0.68995098 0.022303922
0.7745098 0.69019608 0.018627451
0.8127451 0.69019608 0.018627451
0.84938725 0.69019608 0.016789216
0.87745098 0.69411765 0.010784314
0.90453431 0.69411765 0.0078431373
0.92990196 0.70196078 0.0098039216
0.95526961 0.70637255 0.011764706
0.98063725 0.71446078 0.015686275
0.99117647 0.72463235 0.017156863
0.98823529 0.72647059 0.019607843
0.029901961 0.71960784 0.12352941
0.039644608 0.72205882 0.12689951
0.050980392 0.72316176 0.12990196
0.049019608 0.71991422 0.12616422
0.11446078 0.71495098 0.12990196
0.19019608 0.71568627 0.1377451
0.27977941 0.72071078 0.14460784
0.34503676 0.71660539 0.1377451
0.39656863 0.71176471 0.13137255
0.45441176 0.71176471 0.12591912
0.51862745 0.71458333 0.11654412
0.57892157 0.71911765 0.11078431
0.63480392 0.72156863 0.10294118
0.68394608 0.72616422 0.08247549
0.73088235 0.73039216 0.057352941
0.7745098 0.73382353 0.03627451
0.81176471 0.73137255 0.034803922
0.84601716 0.73290441 0.028492647
0.87536765 0.73529412 0.01875
0.90098039 0.73872549 0.0060661765
0.92745098 0.74044118 0.016666667
0.9526348 0.74344363 0.024203431
0.97843137 0.74852941 0.028063725
0.99215686 0.7495098 0.035294118
0.99215686 0.75343137 0.041666667
0.19607843 0.76078431 0.16470588
0.20392157 0.75833333 0.16470588
0.19901961 0.75686275 0.16470588
0.21813725 0.75294118 0.16470588
0.24901961 0.75294118 0.16470588
0.29313725 0.75294118 0.17303922
0.34803922 0.75294118 0.18039216
0.39019608 0.75294118 0.18039216
0.43137255 0.75294118 0.18039216
0.48284314 0.75294118 0.17647059
0.53529412 0.75392157 0.17647059
0.59313725 0.75686275 0.17254902
0.64901961 0.7627451 0.16470588
0.69607843 0.76470588 0.14362745
0.7372549 0.76470588 0.11960784
0.7745098 0.76470588 0.10441176
0.80784314 0.76470588 0.098039216
0.84264706 0.76470588 0.085294118
0.87254902 0.76862745 0.07254902
0.9004902 0.77205882 0.063235294
0.92352941 0.77254902 0.070588235
0.95 0.77647059 0.083333333
0.97156863 0.78039216 0.097058824
0.98578431 0.78186275 0.11666667
0.99215686 0.78431373 0.12941176
0.33480392 0.79313725 0.20588235
0.33278186 0.79166667 0.20588235
0.33039216 0.7877451 0.20588235
0.33314951 0.7877451 0.20588235
0.33921569 0.78382353 0.20710784
0.35784314 0.78333333 0.21243873
0.40294118 0.78137255 0.22058824
0.4377451 0.78137255 0.22401961
0.48039216 0.78382353 0.22156863
0.52493873 0.78382353 0.22401961
0.57058824 0.79166667 0.22610294
0.61323529 0.79558824 0.22794118
0.65931373 0.7995098 0.2245098
0.69981618 0.79901961 0.20833333
0.7372549 0.79558824 0.19105392
0.77359069 0.79166667 0.17647059
0.80784314 0.79313725 0.16617647
0.84019608 0.79558824 0.15588235
0.86960784 0.79767157 0.14840686
0.89656863 0.7995098 0.14136029
0.92352941 0.80343137 0.14142157
0.94577206 0.80735294 0.15539216
0.96421569 0.80845588 0.17205882
0.97941176 0.81182598 0.19264706
0.99215686 0.81519608 0.20833333
0.40686275 0.81764706 0.25098039
0.41531863 0.81862745 0.25196078
0.41568627 0.81764706 0.25196078
0.41948529 0.81764706 0.25196078
0.42598039 0.81470588 0.25343137
0.43615196 0.81078431 0.25625
0.46102941 0.81078431 0.2620098
0.49264706 0.81078431 0.26666667
0.53039216 0.81078431 0.26764706
0.5754902 0.81470588 0.26764706
0.61127451 0.81789216 0.27083333
0.64448529 0.82156863 0.27414216
0.67843137 0.8254902 0.27303922
0.7057598 0.8254902 0.26715686
0.73921569 0.82328431 0.25784314
0.77303922 0.82254902 0.24362745
0.80392157 0.82156863 0.23333333
0.8377451 0.82254902 0.22365196
0.86568627 0.82573529 0.21838235
0.89558824 0.82904412 0.21384804
0.92156863 0.83186275 0.2122549
0.94203431 0.83431373 0.22242647
0.95882353 0.83651961 0.23602941
0.97794118 0.83823529 0.2495098
0.99215686 0.83823529 0.25588235
0.47892157 0.84166667 0.29215686
0.48921569 0.84430147 0.29822304
0.4942402 0.84558824 0.2995098
0.49846814 0.84558824 0.2995098
0.50269608 0.84215686 0.30171569
0.51170343 0.84166667 0.30392157
0.52892157 0.84166667 0.30735294
0.5504902 0.84166667 0.31145833
0.58578431 0.84166667 0.31519608
0.61875 0.84215686 0.31519608
0.64362745 0.84215686 0.31568627
0.67113971 0.84515931 0.31954657
0.69901961 0.84607843 0.31740196
0.72598039 0.84607843 0.31476716
0.75294118 0.84607843 0.30870098
0.77647059 0.8495098 0.30324755
0.80392157 0.8495098 0.29901961
0.83137255 0.8495098 0.2908701
0.86176471 0.85343137 0.28590686
0.88921569 0.85392157 0.28284314
0.91960784 0.85759804 0.28284314
0.94166667 0.86127451 0.28382353
0.95882353 0.86176471 0.29068627
0.97579657 0.86305147 0.30098039
0.98823529 0.86519608 0.30735294
0.55294118 0.86666667 0.33921569
0.55931373 0.86789216 0.34240196
0.56421569 0.87058824 0.34705882
0.5627451 0.86887255 0.34877451
0.5627451 0.86666667 0.35098039
0.56593137 0.86666667 0.35490196
0.58823529 0.86666667 0.35490196
0.61029412 0.86740196 0.35759804
0.63529412 0.87058824 0.3627451
0.65269608 0.86740196 0.36078431
0.67058824 0.86666667 0.3627451
0.69460784 0.86838235 0.36666667
0.72156863 0.86862745 0.36372549
0.74607843 0.86887255 0.35882353
0.77009804 0.87058824 0.35539216
0.79191176 0.87058824 0.35343137
0.81568627 0.87254902 0.35098039
0.83823529 0.87573529 0.35098039
0.85931373 0.87843137 0.35147059
0.88872549 0.88039216 0.35098039
0.91470588 0.88333333 0.35098039
0.94044118 0.88627451 0.35073529
0.95882353 0.8877451 0.34901961
0.97671569 0.88823529 0.35171569
0.98823529 0.88823529 0.35490196
0.61764706 0.89117647 0.3872549
0.61390931 0.89117647 0.39068627
0.61372549 0.89117647 0.39460784
0.61372549 0.89117647 0.39852941
0.61421569 0.89117647 0.4004902
0.61905637 0.89117647 0.40245098
0.63664216 0.89117647 0.40245098
0.65588235 0.89136029 0.40637255
0.67254902 0.89509804 0.41029412
0.68890931 0.89136029 0.41029412
0.7057598 0.89117647 0.41164216
0.72254902 0.89117647 0.41721814
0.74215686 0.89117647 0.41421569
0.76317402 0.89166667 0.41078431
0.7872549 0.8942402 0.41078431
0.81145833 0.89509804 0.40931373
0.83235294 0.89558824 0.40686275
0.85245098 0.89901961 0.40637255
0.86911765 0.90036765 0.40784314
0.88970588 0.9033701 0.41421569
0.91593137 0.90710784 0.41470588
0.94215686 0.91078431 0.41519608
0.96017157 0.91078431 0.41213235
0.978125 0.91127451 0.40716912
0.99215686 0.91470588 0.40637255
0.66568627 0.91568627 0.44509804
0.66568627 0.91470588 0.4439951
0.66470588 0.91568627 0.44705882
0.66470588 0.91568627 0.45
0.66568627 0.91470588 0.45392157
0.67009804 0.91470588 0.45392157
0.68112745 0.91544118 0.45759804
0.69705882 0.91568627 0.45894608
0.71372549 0.91568627 0.46176471
0.72794118 0.91568627 0.46360294
0.74240196 0.91568627 0.46568627
0.75343137 0.91568627 0.46568627
0.76421569 0.91470588 0.46568627
0.78370098 0.91568627 0.46960784
0.80784314 0.91862745 0.47254902
0.82843137 0.91960784 0.47107843
0.84901961 0.91960784 0.46568627
0.86421569 0.92144608 0.46470588
0.87941176 0.92426471 0.46960784
0.9 0.92745098 0.47598039
0.92107843 0.93137255 0.47647059
0.94522059 0.93443627 0.48039216
0.96348039 0.93529412 0.47647059
0.97941176 0.93529412 0.47107843
0.99215686 0.93529412 0.46470588
0.72107843 0.94166667 0.50294118
0.71862745 0.9411152 0.50238971
0.71862745 0.94166667 0.50355392
0.71862745 0.94166667 0.50686275
0.72107843 0.94019608 0.50735294
0.7213848 0.93805147 0.50539216
0.72794118 0.94019608 0.51115196
0.74307598 0.94166667 0.51470588
0.75637255 0.94166667 0.51715686
0.76819853 0.94166667 0.52015931
0.77610294 0.94129902 0.52254902
0.78823529 0.94019608 0.52126225
0.79607843 0.9377451 0.52107843
0.8091299 0.93805147 0.52156863
0.82732843 0.94019608 0.52892157
0.84454657 0.94411765 0.52892157
0.86029412 0.94411765 0.52647059
0.8745098 0.94503676 0.52647059
0.88970588 0.94840686 0.53137255
0.90637255 0.95196078 0.5377451
0.92696078 0.95465686 0.54019608
0.95 0.95606618 0.54215686
0.96703431 0.95625 0.5377451
0.98241422 0.95343137 0.52702206
0.99215686 0.95588235 0.53186275
0.76470588 0.96078431 0.55294118
0.76470588 0.96078431 0.55147059
0.76960784 0.96470588 0.55784314
0.76960784 0.96519608 0.55784314
0.7627451 0.96078431 0.54901961
0.76127451 0.95735294 0.54558824
0.77156863 0.96078431 0.55196078
0.78333333 0.96470588 0.5622549
0.79607843 0.96470588 0.56862745
0.79852941 0.9622549 0.56470588
0.80490196 0.96078431 0.56960784
0.81519608 0.96078431 0.56519608
0.82156863 0.95686275 0.5627451
0.82794118 0.95686275 0.56470588
0.84117647 0.95686275 0.56862745
0.85637255 0.96078431 0.57254902
0.87058824 0.96078431 0.57254902
0.88333333 0.96470588 0.57647059
0.89901961 0.96862745 0.58137255
0.9127451 0.97205882 0.5877451
0.93333333 0.97254902 0.59019608
0.95392157 0.97696078 0.59705882
0.96764706 0.97352941 0.58235294
0.98333333 0.97009804 0.5745098
0.99215686 0.97254902 0.58823529
0.0039215686 0.02745098 0.058823529
0.006372549 0.02745098 0.058823529
0.025490196 0.02745098 0.054534314
0.047365196 0.02745098 0.049693627
0.07254902 0.02745098 0.042892157
0.10343137 0.029901961 0.044117647
0.13431373 0.031004902 0.049142157
0.17297794 0.035294118 0.055882353
0.23137255 0.035294118 0.059803922
0.30343137 0.033823529 0.070098039
0.38431373 0.024387255 0.079411765
0.46452206 0.0086397059 0.083026961
0.54313725 0.0039215686 0.087254902
0.62352941 0.015992647 0.086948529
0.69901961 0.019607843 0.081495098
0.76758578 0.032291667 0.076409314
0.81568627 0.10980392 0.071568627
0.86078431 0.18339461 0.066115196
0.90588235 0.25147059 0.060294118
0.94920343 0.31452206 0.053737745
0.98431373 0.37254902 0.052205882
0.98823529 0.41372549 0.080882353
0.99117647 0.45845588 0.11176471
0.99215686 0.50300245 0.14264706
0.99607843 0.5372549 0.16715686
0.0039215686 0.02745098 0.058823529
0.006372549 0.02745098 0.057904412
0.025857843 0.03091299 0.051302083
0.04988511 0.034306066 0.045772059
0.078921569 0.037745098 0.044117647
0.10980392 0.040196078 0.048039216
0.14068627 0.041115196 0.051731005
0.17696078 0.037745098 0.05435049
0.23137255 0.040196078 0.059803922
0.3053079 0.036251532 0.068566176
0.38431373 0.025689338 0.075628064
0.46281403 0.011565564 0.079894301
0.54117647 0.0058823529 0.083884804
0.62653186 0.016352635 0.083333333
0.7027114 0.026577819 0.079779412
0.76721814 0.058455882 0.072694547
0.81905637 0.13137255 0.066666667
0.8654565 0.20400582 0.06182598
0.90939032 0.27205882 0.05591299
0.95098039 0.33033854 0.04988511
0.97870711 0.37331495 0.050704657
0.98823529 0.41537224 0.072058824
0.99117647 0.45735294 0.1027114
0.99215686 0.49873621 0.13235294
0.99607843 0.52996324 0.15931373
0.0042892157 0.038235294 0.063357843
0.0086856618 0.038924632 0.059191176
0.028033088 0.041911765 0.047303922
0.053783701 0.046660539 0.043152574
