site/assets/luts/natron-haldclut--goldfx-summer-heat--d33ebe832.cube
# LUTr-Project: LUTr — LUTrepository
# LUTr-Schema-Version: 1
# LUTr-ID: natron-haldclut--goldfx-summer-heat--d33ebe832
# LUTr-Title: goldfx summer heat
# LUTr-Collection: Natron HaldCLUT
# LUTr-Collection-ID: natron-haldclut-presets
# LUTr-Source: https://github.com/NatronGitHub/clut
# LUTr-Source-File: submissions/natron-haldclut-presets/picturefx/goldfx_summer_heat.png
# LUTr-Source-Format: PNG
# LUTr-Source-SHA256: 0987c67addf130ecd62f13cb77fd0d83308d7b3f936536b6b95600fb1ff27845
# LUTr-License: CC-BY-SA-4.0
# LUTr-License-URL: https://github.com/NatronGitHub/clut#license
# LUTr-Tags: creative, film, film-emulation, hald-clut, natron, png, cube
# LUTr-Transform-Class: film-emulation
# LUTr-Input-Color-Space: srgb
# LUTr-Output-Color-Space: srgb
# LUTr-Color-Space-Confidence: assumed-display-referred
# LUTr-Conversion-Method: PNG LUT image decoded at 16-bit and sampled to 25x25x25 3D CUBE
# LUTr-Conversion-Date: 2026-07-27
# LUTr-Conversion-Tool: LUTr scripts/convert-all-to-cube.mjs
# LUTr-Conversion-Grid: 25x25x25
# LUTr-Note: Preserve this metadata and the upstream license notices when redistributing.
TITLE "goldfx summer heat"
LUT_3D_SIZE 5
DOMAIN_MIN 0 0 0
DOMAIN_MAX 1 1 1
0.0039215686 0.02745098 0.058823529
0.1372549 0.030392157 0.034313725
0.54117647 0.0039215686 0.070588235
0.90294118 0.24607843 0.053921569
0.99607843 0.54509804 0.15686275
0.010784314 0.16176471 0.090196078
0.11862745 0.18039216 0.073529412
0.55588235 0.2127451 0.031862745
0.89583333 0.37352941 0.010784314
0.99607843 0.57941176 0.12941176
0.0039215686 0.55098039 0.066666667
0.015196078 0.55833333 0.076470588
0.59803922 0.59019608 0.0049019608
0.8872549 0.60784314 0.0078431373
0.99215686 0.6745098 0.011764706
0.40686275 0.81764706 0.25098039
0.46102941 0.81078431 0.2620098
0.67843137 0.8254902 0.27303922
0.86568627 0.82573529 0.21838235
0.99215686 0.83823529 0.25588235
0.76470588 0.96078431 0.55294118
0.77156863 0.96078431 0.55196078
0.82156863 0.95686275 0.5627451
0.89901961 0.96862745 0.58137255
0.99215686 0.97254902 0.58823529
0.014705882 0.049019608 0.15392157
0.12965686 0.069607843 0.15490196
0.55490196 0.01127451 0.19362745
0.92034314 0.35171569 0.23529412
0.99607843 0.57156863 0.29803922
0.0039215686 0.19803922 0.18210784
0.19944853 0.20569853 0.19307598
0.61727941 0.21078431 0.18480392
0.91568627 0.42052696 0.1908701
0.99607843 0.60490196 0.27867647
0.0024509804 0.5754902 0.18235294
0.10036765 0.57254902 0.1810049
0.63137255 0.58039216 0.13627451
0.89607843 0.60906863 0.07745098
0.99215686 0.68186275 0.17990196
0.46691176 0.82156863 0.30196078
0.49362745 0.81446078 0.30214461
0.67671569 0.82156863 0.32647059
0.86960784 0.82573529 0.28259804
0.99215686 0.8372549 0.29926471
0.77058824 0.96568627 0.55882353
0.76102941 0.95612745 0.55220588
0.8245098 0.96421569 0.58333333
0.90073529 0.96568627 0.58137255
0.97254902 0.97254902 0.59117647
0.13333333 0.1254902 0.38039216
0.34803922 0.17156863 0.38039216
0.64509804 0.32058824 0.39411765
0.91470588 0.32892157 0.4372549
0.99607843 0.60784314 0.48627451
0.13186275 0.25735294 0.39754902
0.31115196 0.27843137 0.39803922
0.66568627 0.41568627 0.40710784
0.9127451 0.42181373 0.43468137
0.99607843 0.61960784 0.48235294
0.23431373 0.59019608 0.41372549
0.27794118 0.58308824 0.41372549
0.68431373 0.61568627 0.43823529
0.90833333 0.65220588 0.41495098
0.99607843 0.74117647 0.48921569
0.63627451 0.82156863 0.47009804
0.61237745 0.82083333 0.45637255
0.70980392 0.8254902 0.46372549
0.87745098 0.83223039 0.44742647
0.98823529 0.82058824 0.43823529
0.78235294 0.9627451 0.60392157
0.76862745 0.94754902 0.59264706
0.81764706 0.96078431 0.61960784
0.9 0.96617647 0.64656863
0.99411765 0.97843137 0.65882353
0.52352941 0.33137255 0.62352941
0.62377451 0.39019608 0.61176471
0.80735294 0.5754902 0.62303922
0.90392157 0.69803922 0.63137255
0.99117647 0.70098039 0.66176471
0.51862745 0.43627451 0.62745098
0.60122549 0.47175245 0.62352941
0.80281863 0.60968137 0.62708333
0.90919118 0.71084559 0.63768382
0.98259804 0.69926471 0.64926471
0.4254902 0.63137255 0.60980392
0.44522059 0.63284314 0.61323529
0.75098039 0.6872549 0.63161765
0.90735294 0.77254902 0.64889706
0.98872549 0.7627451 0.66617647
0.61568627 0.82254902 0.62352941
0.6125 0.82254902 0.62745098
0.7004902 0.82156863 0.63357843
0.88823529 0.8375 0.65569853
0.98823529 0.85367647 0.65686275
0.80392157 0.96862745 0.73627451
0.79289216 0.96151961 0.73529412
0.81421569 0.96127451 0.72254902
0.89509804 0.95784314 0.73406863
0.98823529 0.97156863 0.75686275
0.77647059 0.69019608 0.84705882
0.80686275 0.71666667 0.85392157
0.88039216 0.77254902 0.84705882
0.95 0.84509804 0.85490196
0.98431373 0.88235294 0.85490196
0.7754902 0.71960784 0.85490196
0.78946078 0.71593137 0.84019608
0.87647059 0.79166667 0.8622549
0.94313725 0.84044118 0.84117647
0.98039216 0.88529412 0.85686275
0.7372549 0.77058824 0.85686275
0.75098039 0.77401961 0.8627451
0.82745098 0.78823529 0.8372549
0.94607843 0.86568627 0.86862745
0.98627451 0.89411765 0.86666667
0.6627451 0.85294118 0.86372549
0.64803922 0.85220588 0.85588235
0.71078431 0.85098039 0.86078431
0.89215686 0.87941176 0.8872549
0.98823529 0.93333333 0.88921569
0.77254902 0.97647059 0.90980392
0.75980392 0.96470588 0.91372549
0.77254902 0.96862745 0.89215686
0.87254902 0.9754902 0.91960784
0.97254902 0.98431373 0.94117647
