site/assets/luts/natron-haldclut--goldfx-spring-breeze--d2a9c1d6b.cube
# LUTr-Project: LUTr — LUTrepository
# LUTr-Schema-Version: 1
# LUTr-ID: natron-haldclut--goldfx-spring-breeze--d2a9c1d6b
# LUTr-Title: goldfx spring breeze
# LUTr-Collection: Natron HaldCLUT
# LUTr-Collection-ID: natron-haldclut-presets
# LUTr-Source: https://github.com/NatronGitHub/clut
# LUTr-Source-File: submissions/natron-haldclut-presets/picturefx/goldfx_spring_breeze.png
# LUTr-Source-Format: PNG
# LUTr-Source-SHA256: eb122954f76710be3afe87e632ce01c3db75bb18e5f51ad1f5d65f929918644d
# LUTr-License: CC-BY-SA-4.0
# LUTr-License-URL: https://github.com/NatronGitHub/clut#license
# LUTr-Tags: creative, film, film-emulation, hald-clut, natron, png, cube
# LUTr-Transform-Class: film-emulation
# LUTr-Input-Color-Space: srgb
# LUTr-Output-Color-Space: srgb
# LUTr-Color-Space-Confidence: assumed-display-referred
# LUTr-Conversion-Method: PNG LUT image decoded at 16-bit and sampled to 25x25x25 3D CUBE
# LUTr-Conversion-Date: 2026-07-27
# LUTr-Conversion-Tool: LUTr scripts/convert-all-to-cube.mjs
# LUTr-Conversion-Grid: 25x25x25
# LUTr-Note: Preserve this metadata and the upstream license notices when redistributing.
TITLE "goldfx spring breeze"
LUT_3D_SIZE 25
DOMAIN_MIN 0 0 0
DOMAIN_MAX 1 1 1
0.0039215686 0.0078431373 0.0039215686
0.020588235 0.018137255 0.011764706
0.03627451 0.019607843 0.011764706
0.057352941 0.019117647 0.01127451
0.092156863 0.031372549 0.019607843
0.12696078 0.039215686 0.019607843
0.15784314 0.039215686 0.016666667
0.20588235 0.050980392 0.028921569
0.25490196 0.050980392 0.035294118
0.30245098 0.040686275 0.028921569
0.34901961 0.030392157 0.028431373
0.39411765 0.024019608 0.034803922
0.43921569 0.01372549 0.035294118
0.48088235 0.00049019608 0.031862745
0.53235294 0.0078431373 0.042156863
0.5877451 0.0078431373 0.047058824
0.64313725 0 0.047058824
0.68823529 0.0039215686 0.054901961
0.7372549 0.0039215686 0.058823529
0.77843137 0.022058824 0.066176471
0.82156863 0.050980392 0.074509804
0.86470588 0.076470588 0.078921569
0.90980392 0.11764706 0.089215686
0.95098039 0.15882353 0.099509804
0.99607843 0.2 0.10980392
0.0078431373 0.045098039 0.022058824
0.020588235 0.046017157 0.022058824
0.037254902 0.046568627 0.021078431
0.057843137 0.046568627 0.021568627
0.097303922 0.053186275 0.040196078
0.12941176 0.058517157 0.041727941
0.15968137 0.065196078 0.023406863
0.20735294 0.073039216 0.032843137
0.25490196 0.075490196 0.039215686
0.30637255 0.065196078 0.034375
0.35637255 0.057352941 0.037745098
0.40392157 0.050980392 0.037745098
0.44558824 0.041911765 0.038480392
0.49117647 0.034620098 0.042156863
0.53933824 0.027941176 0.049509804
0.59166667 0.015196078 0.049509804
0.64705882 0 0.047058824
0.69160539 0.006372549 0.054901961
0.73823529 0.0082107843 0.058823529
0.78235294 0.026960784 0.066176471
0.82352941 0.057352941 0.075735294
0.86470588 0.082843137 0.078921569
0.90919118 0.12401961 0.089215686
0.95098039 0.16127451 0.099509804
0.99460784 0.19852941 0.10980392
0.0078431373 0.081372549 0.037254902
0.020955882 0.080269608 0.032720588
0.037009804 0.07745098 0.02254902
0.056495098 0.07745098 0.018627451
0.093627451 0.080882353 0.037254902
0.13002451 0.085784314 0.043014706
0.16176471 0.092156863 0.024509804
0.20735294 0.098161765 0.03002451
0.25882353 0.10098039 0.039215686
0.31127451 0.094240196 0.039215686
0.36568627 0.088235294 0.042156863
0.41078431 0.081372549 0.039215686
0.45588235 0.075490196 0.041666667
0.50490196 0.069240196 0.05245098
0.55 0.062745098 0.059558824
0.5995098 0.05379902 0.057720588
0.65098039 0.044117647 0.054901961
0.69276961 0.050490196 0.061642157
0.74117647 0.053676471 0.064460784
0.78235294 0.065808824 0.074877451
0.82352941 0.092156863 0.084803922
0.86470588 0.11519608 0.087622549
0.90588235 0.14828431 0.094117647
0.94803922 0.17990196 0.10232843
0.98921569 0.20784314 0.10980392
0.0078431373 0.1122549 0.047058824
0.020588235 0.11011029 0.036764706
0.03627451 0.10833333 0.02254902
0.050490196 0.10441176 0.009252451
0.086764706 0.10857843 0.016421569
0.12395833 0.11617647 0.020588235
0.16176471 0.12046569 0.020220588
0.20735294 0.12794118 0.025490196
0.25882353 0.12794118 0.035294118
0.31421569 0.12401961 0.039215686
0.36960784 0.11654412 0.039215686
0.41758578 0.10882353 0.036213235
0.46617647 0.10833333 0.045098039
0.51219363 0.10784314 0.05189951
0.55931373 0.10477941 0.057965686
0.60557598 0.099816176 0.059313725
0.65441176 0.092156863 0.058823529
0.69822304 0.10196078 0.063051471
0.74117647 0.10833333 0.071078431
0.78235294 0.11470588 0.081372549
0.82352941 0.13333333 0.091911765
0.86813725 0.15588235 0.094546569
0.90330882 0.1807598 0.10098039
0.93351716 0.19852941 0.10245098
0.94754902 0.20784314 0.10588235
0.0039215686 0.14313725 0.037254902
0.017401961 0.13921569 0.030882353
0.028431373 0.13921569 0.021568627
0.038480392 0.13921569 0.023529412
0.079411765 0.14019608 0.02254902
0.12352941 0.14362745 0.019607843
0.16176471 0.15 0.017647059
0.20735294 0.15490196 0.019117647
0.2627451 0.15490196 0.025490196
0.31813725 0.15367647 0.032598039
0.37254902 0.14901961 0.035294118
0.4252451 0.14705882 0.03504902
0.47352941 0.14901961 0.041176471
0.51985294 0.15073529 0.047303922
0.56617647 0.14901961 0.05245098
0.61446078 0.14362745 0.052941176
0.66470588 0.1372549 0.052941176
0.70392157 0.14754902 0.06127451
0.74313725 0.15735294 0.071568627
0.78431373 0.1625 0.082107843
0.82745098 0.17254902 0.092156863
0.86862745 0.19313725 0.098529412
0.90980392 0.21372549 0.10490196
0.95098039 0.23357843 0.10661765
0.98627451 0.25098039 0.10980392
0.0034313725 0.16960784 0.026960784
0.0099877451 0.17009804 0.026164216
0.016176471 0.17144608 0.032843137
0.026409314 0.17401961 0.039705882
0.06372549 0.1745098 0.037990196
0.11476716 0.17794118 0.027022059
0.16066176 0.17794118 0.012867647
0.20735294 0.18155637 0.0088235294
0.26323529 0.18578431 0.019117647
0.325 0.18627451 0.02567402
0.38186275 0.19019608 0.030882353
0.43290441 0.19019608 0.031311275
0.47867647 0.19411765 0.037254902
0.52444853 0.19411765 0.043566176
0.57169118 0.19154412 0.046936275
0.61960784 0.18890931 0.048529412
0.67058824 0.18676471 0.054901961
0.70833333 0.19283088 0.059129902
0.74558824 0.19938725 0.067647059
0.78633578 0.20588235 0.077512255
0.82794118 0.21176471 0.087745098
0.86911765 0.22990196 0.094546569
0.90980392 0.2504902 0.10061275
0.95098039 0.26764706 0.10735294
0.98382353 0.28431373 0.11372549
0 0.2 0.02254902
0.0028186275 0.20281863 0.031740196
0.0049019608 0.20784314 0.043137255
0.012254902 0.20882353 0.050857843
0.047058824 0.21176471 0.048039216
0.10147059 0.2127451 0.034681373
0.15294118 0.2120098 0.017401961
0.20882353 0.21213235 0.0033088235
0.27058824 0.21960784 0.0088235294
0.33235294 0.22414216 0.016666667
0.38921569 0.22769608 0.020588235
0.43713235 0.23137255 0.027083333
0.48382353 0.2372549 0.033823529
0.53051471 0.23921569 0.039338235
0.57622549 0.23823529 0.042401961
0.62598039 0.23529412 0.048529412
0.6745098 0.23823529 0.058823529
0.71507353 0.24105392 0.062745098
0.75269608 0.24607843 0.067401961
0.79313725 0.24705882 0.071446078
0.83137255 0.25294118 0.080392157
0.87254902 0.26727941 0.087745098
0.9129902 0.28529412 0.1
0.9495098 0.30490196 0.11029412
0.98039216 0.32156863 0.11764706
0 0.2372549 0.031372549
0 0.240625 0.034375
0.0039215686 0.24362745 0.040196078
0.0073529412 0.24509804 0.049019608
0.034313725 0.24754902 0.046323529
0.085784314 0.24901961 0.034803922
0.14166667 0.24901961 0.022671569
0.20398284 0.25294118 0.011764706
0.27058824 0.25686275 0.0093137255
0.33627451 0.25931373 0.0069240196
0.39313725 0.26421569 0.010661765
0.44068627 0.27205882 0.017647059
0.4870098 0.27843137 0.026715686
0.53333333 0.28431373 0.031678922
0.5814951 0.28186275 0.038848039
0.63235294 0.2848652 0.049080882
0.67990196 0.28578431 0.060294118
0.725 0.28970588 0.067585784
0.7622549 0.29362745 0.070588235
0.7995098 0.29362745 0.074203431
0.83921569 0.29681373 0.074509804
0.87647059 0.30490196 0.082843137
0.91372549 0.3254902 0.097058824
0.95098039 0.34607843 0.11127451
0.98578431 0.3627451 0.12156863
0 0.2745098 0.039215686
0.0039215686 0.27843137 0.039215686
0.0039215686 0.27843137 0.040196078
0.0039215686 0.27843137 0.043137255
0.015686275 0.28235294 0.043137255
0.066176471 0.28284314 0.034803922
0.13431373 0.28921569 0.028431373
0.19705882 0.29019608 0.018137255
0.2627451 0.29411765 0.011764706
0.32843137 0.29411765 0.0053921569
0.38137255 0.29901961 0.0049019608
0.43284314 0.30931373 0.01127451
0.48431373 0.31568627 0.017647059
0.53578431 0.3254902 0.027941176
0.5872549 0.32843137 0.038235294
0.63872549 0.33088235 0.05245098
0.69411765 0.3372549 0.062745098
0.73676471 0.34117647 0.070588235
0.77254902 0.34117647 0.074509804
0.80637255 0.34509804 0.074509804
0.84117647 0.34509804 0.070588235
0.87598039 0.35343137 0.079411765
0.91372549 0.37058824 0.096078431
0.95098039 0.3872549 0.11127451
0.98823529 0.40392157 0.1254902
0.0039215686 0.31176471 0.041666667
0.0039215686 0.31323529 0.043137255
0.0039215686 0.31568627 0.043137255
0.0039215686 0.31568627 0.043137255
0.006372549 0.31568627 0.039215686
0.059620098 0.31979167 0.035110294
0.12745098 0.32463235 0.028431373
0.19068627 0.32591912 0.019669118
0.25 0.32892157 0.0093137255
0.31176471 0.32892157 0.0044730392
0.36470588 0.33382353 0.006004902
0.41488971 0.34019608 0.0078431373
0.46764706 0.34534314 0.0125
0.51911765 0.3504902 0.017953431
0.5745098 0.35968137 0.031862745
0.63382353 0.37052696 0.04754902
0.69558824 0.38235294 0.064215686
0.75098039 0.39264706 0.074509804
0.77941176 0.39203431 0.072058824
0.80686275 0.39019608 0.068443627
0.83995098 0.39142157 0.066666667
0.87598039 0.40116422 0.079411765
0.91372549 0.41629902 0.096691176
0.95098039 0.43088235 0.11519608
0.98431373 0.44117647 0.13186275
0.0039215686 0.34803922 0.043137255
0.0039215686 0.35085784 0.043137255
0.0041666667 0.35220588 0.043137255
0.0087009804 0.35294118 0.043137255
0.020588235 0.35294118 0.043137255
0.061764706 0.3560049 0.038848039
0.12352941 0.35906863 0.031617647
0.18284314 0.35980392 0.022058824
0.23823529 0.35980392 0.0078431373
0.29264706 0.3622549 0
0.34583333 0.36691176 0.0039215686
0.3995098 0.37107843 0.0039215686
0.44754902 0.37156863 0.0053921569
0.49865196 0.37855392 0.01127451
0.55465686 0.38627451 0.021568627
0.61470588 0.4004902 0.036887255
0.68039216 0.41372549 0.049019608
0.73578431 0.42463235 0.052941176
0.7745098 0.43039216 0.052941176
0.80625 0.43039216 0.049387255
0.83921569 0.4372549 0.057843137
0.87634804 0.44791667 0.075
0.91372549 0.46176471 0.099019608
0.95343137 0.47205882 0.12095588
0.98921569 0.48235294 0.14215686
0.00049019608 0.38284314 0.043137255
0.0039215686 0.38627451 0.043137255
0.0078431373 0.38676471 0.043137255
0.014767157 0.38676471 0.043137255
0.030882353 0.39019608 0.044852941
0.057843137 0.39068627 0.042647059
0.11617647 0.39068627 0.032352941
0.17254902 0.39460784 0.022058824
0.22794118 0.39068627 0.0078431373
0.28676471 0.39068627 0.0012867647
0.33737745 0.39558824 0.00098039216
0.38627451 0.39852941 0.0039215686
0.43382353 0.40245098 0.00024509804
0.48186275 0.4033701 0.00098039216
0.53982843 0.41372549 0.01127451
0.59803922 0.42745098 0.021568627
0.65980392 0.4377451 0.032352941
0.71519608 0.45196078 0.030208333
0.76862745 0.46127451 0.028921569
0.80588235 0.46813725 0.031862745
0.8372549 0.47843137 0.045833333
0.87254902 0.48572304 0.061213235
0.91029412 0.49938725 0.09129902
0.95098039 0.51323529 0.121875
0.98480392 0.52352941 0.14901961
0 0.41764706 0.041176471
0.0039215686 0.42083333 0.042401961
0.0044117647 0.42156863 0.043137255
0.0075980392 0.42156863 0.043137255
0.016666667 0.42156863 0.043137255
0.045833333 0.42156863 0.042647059
0.10245098 0.42156863 0.032352941
0.1622549 0.42156863 0.022058824
0.22156863 0.42156863 0.011764706
0.28210784 0.42156863 0.0046568627
0.33431373 0.42401961 0.0039215686
0.38210784 0.42720588 0.0039215686
0.42647059 0.43137255 0
0.4747549 0.43553922 0
0.52254902 0.44019608 0.0029411765
0.58063725 0.4504902 0.01127451
0.63921569 0.4627451 0.01372549
0.69705882 0.47696078 0.0125
0.75833333 0.49117647 0.011764706
0.8002451 0.50343137 0.017156863
0.83235294 0.5127451 0.029411765
0.86862745 0.52230392 0.044607843
0.90833333 0.5377451 0.081862745
0.94901961 0.55392157 0.1254902
0.98627451 0.57058824 0.16470588
0 0.45294118 0.03872549
0.0021446078 0.45637255 0.03872549
0.0039215686 0.45637255 0.039215686
0.0039215686 0.45294118 0.042218137
0.0039215686 0.4504902 0.043137255
0.030392157 0.44895833 0.039215686
0.091666667 0.45245098 0.032352941
0.15343137 0.45245098 0.022242647
0.21519608 0.45245098 0.015686275
0.27745098 0.44852941 0.0078431373
0.33026961 0.4495098 0.0039215686
0.3745098 0.45637255 0.0039215686
0.42107843 0.46421569 0.0039215686
0.46819853 0.46813725 0.0039215686
0.51617647 0.46813725 0.0035539216
0.56764706 0.47334559 0.0036151961
0.62254902 0.48333333 0.0073529412
0.67647059 0.49754902 0.0078431373
0.73198529 0.5127451 0.0078431373
0.77738971 0.52941176 0.010845588
0.825 0.54411765 0.01127451
0.86770833 0.55539216 0.027941176
0.90281863 0.56911765 0.062745098
0.94313725 0.58480392 0.10802696
0.97990196 0.60147059 0.15686275
0 0.49117647 0.032352941
0 0.49117647 0.032352941
0.0039215686 0.49117647 0.032352941
0.0039215686 0.49019608 0.032352941
0.0039215686 0.48480392 0.03627451
0.029044118 0.48370098 0.035784314
0.086029412 0.48627451 0.031617647
0.14607843 0.48517157 0.022058824
0.20882353 0.48333333 0.015686275
0.27058824 0.47941176 0.006004902
0.32254902 0.48039216 0.0039215686
0.36764706 0.48982843 0.0039215686
0.41421569 0.49509804 0.0039215686
0.46213235 0.49901961 0.0039215686
0.50980392 0.49901961 0.00098039216
0.55698529 0.50294118 0
0.60490196 0.50392157 0.00098039216
0.65735294 0.51703431 0.0039215686
0.70563725 0.53333333 0.0049019608
0.75637255 0.55306373 0.0074754902
0.80931373 0.56960784 0.0078431373
0.85870098 0.58578431 0.01629902
0.8997549 0.6 0.038235294
0.93921569 0.61568627 0.092156863
0.97254902 0.63235294 0.14705882
0 0.52990196 0.023529412
0.0024509804 0.52990196 0.022058824
0.0039215686 0.52745098 0.022058824
0.0053921569 0.52598039 0.022058824
0.0085784314 0.52279412 0.022058824
0.031678922 0.52205882 0.022058824
0.086397059 0.52316176 0.022058824
0.14368873 0.52113971 0.018137255
0.2 0.51421569 0.011764706
0.26176471 0.509375 0.0048406863
0.31262255 0.51127451 0.0024509804
0.36078431 0.52156863 0.0039215686
0.40980392 0.52598039 0.0039215686
0.45735294 0.53008578 0.0039215686
0.50882353 0.53492647 0.00098039216
0.55398284 0.5377451 0
0.59607843 0.53529412 0
0.64270833 0.54019608 0
0.68970588 0.55931373 0.0042892157
0.74117647 0.57990196 0.0078431373
0.79387255 0.59779412 0.010539216
0.84234069 0.61305147 0.019607843
0.88835784 0.62659314 0.026470588
0.92990196 0.64564951 0.073468137
0.97254902 0.66862745 0.12647059
0 0.56470588 0.015686275
0.0024509804 0.56470588 0.015686275
0.0049019608 0.56470588 0.014705882
0.01127451 0.56470588 0.011764706
0.01372549 0.56078431 0.011764706
0.037745098 0.56078431 0.011764706
0.093137255 0.56078431 0.011764706
0.14460784 0.55539216 0.010294118
0.2 0.54901961 0.0078431373
0.25539216 0.53872549 0.0014705882
0.30686275 0.54607843 0
0.35833333 0.55245098 0
0.40980392 0.5627451 0.0039215686
0.46078431 0.56862745 0.0039215686
0.50882353 0.57254902 0.0039215686
0.55098039 0.57647059 0
0.59607843 0.58039216 0
0.6372549 0.58284314 0.0024509804
0.68333333 0.59705882 0.0049019608
0.73137255 0.61127451 0.0078431373
0.78235294 0.6254902 0.011764706
0.82941176 0.63578431 0.015686275
0.87352941 0.65 0.02254902
0.89803922 0.66029412 0.044607843
0.90196078 0.6627451 0.054901961
0 0.60196078 0.011764706
0.00091911765 0.60343137 0.010232843
0.0049019608 0.60306373 0.0089460784
0.011458333 0.60196078 0.0056985294
0.018382353 0.60196078 0.0019607843
0.050183824 0.60147059 0.00018382353
0.10134804 0.59620098 0.0033088235
0.15490196 0.59264706 0.0039215686
0.20882353 0.58627451 0.0014705882
0.26176471 0.58088235 0
0.30931373 0.58333333 0
0.35833333 0.59362745 0
0.40980392 0.6 0.0019607843
0.46127451 0.60606618 0.0039215686
0.50882353 0.61090686 0.0039215686
0.55098039 0.6161152 0.00091911765
0.59215686 0.61764706 0
0.63633578 0.62064951 0
0.68235294 0.63186275 0.0042892157
0.72873775 0.64344363 0.0078431373
0.77009804 0.65 0.0085784314
0.8153799 0.66029412 0.011948529
0.86029412 0.67745098 0.013235294
0.90931373 0.69803922 0.0078431373
0.95588235 0.71862745 0
0 0.63921569 0.0068627451
0 0.64105392 0.0050245098
0.0029411765 0.64215686 0.0039215686
0.006372549 0.64215686 0.0039215686
0.023529412 0.63921569 0
0.074632353 0.63921569 0
0.12034314 0.6370098 0
0.17401961 0.63529412 0
0.2254902 0.63137255 0
0.27634804 0.63026961 0
0.31960784 0.63235294 0.00098039216
0.36372549 0.6314951 0.00012254902
0.41372549 0.63676471 0
0.46127451 0.64227941 0
0.50882353 0.64926471 0
0.55134804 0.65208333 0
0.59215686 0.65490196 0
0.63394608 0.65490196 0
0.67843137 0.6627451 0.00073529412
0.71960784 0.66948529 0.0037990196
0.76372549 0.67696078 0.0039215686
0.80490196 0.68492647 0.0068627451
0.85 0.70196078 0.0075980392
0.90257353 0.72254902 0.0035539216
0.94411765 0.73921569 0
0 0.67647059 0.00049019608
0 0.68039216 0.00018382353
0.0034313725 0.68039216 0
0.00042892157 0.68039216 0
0.053186275 0.68382353 0
0.109375 0.68425245 0
0.15220588 0.68125 0
0.19460784 0.6786152 0
0.24607843 0.67647059 0
0.29117647 0.67647059 0.00030637255
0.33370098 0.67990196 0.0039215686
0.37745098 0.67990196 0.0039215686
0.41544118 0.67647059 0
0.46127451 0.67738971 0
0.50882353 0.6872549 0
0.55490196 0.69215686 0
0.59607843 0.69607843 0
0.64068627 0.69981618 0
0.68223039 0.70392157 0
0.72303922 0.70735294 0
0.75857843 0.70784314 0
0.79503676 0.70974265 0.00049019608
0.84607843 0.72732843 0.00049019608
0.89626225 0.74705882 0.00030637255
0.93382353 0.76372549 0
0.074509804 0.73333333 0
0.079656863 0.73529412 0.0031862745
0.081862745 0.73529412 0.0058823529
0.087745098 0.73529412 0.00049019608
0.11372549 0.73627451 0
0.15857843 0.73529412 0
0.19509804 0.73186275 0
0.23259804 0.72867647 0
0.27058824 0.7254902 0.0019607843
0.31495098 0.72867647 0.0039215686
0.35931373 0.73186275 0.0039215686
0.4002451 0.73161765 0.0041666667
0.43235294 0.7245098 0.0019607843
0.46862745 0.71960784 0
0.51176471 0.725 0
0.55882353 0.73480392 0
0.60196078 0.73921569 0
0.6495098 0.74632353 0
0.69362745 0.75343137 0
0.73161765 0.75490196 0
0.76960784 0.75490196 0
0.80784314 0.75882353 0.0019607843
0.84901961 0.76372549 0
0.89289216 0.77867647 0
0.93137255 0.79411765 0
0.16078431 0.79117647 0
0.16341912 0.79491422 0.0037377451
0.16862745 0.79117647 0.014460784
0.17506127 0.79117647 0.0039215686
0.18553922 0.79460784 0.00024509804
0.2127451 0.79117647 0
0.24963235 0.79117647 0.0039215686
0.27959559 0.7872549 0.0021446078
0.3122549 0.7872549 0.0083333333
0.3526348 0.7872549 0.009497549
0.39362745 0.79080882 0.0050245098
0.43137255 0.7877451 0.012254902
0.45808824 0.78504902 0.006127451
0.48964461 0.77941176 0
0.53039216 0.77941176 0
0.57334559 0.78480392 0
0.61666667 0.7872549 0
0.66421569 0.79754902 0
0.71078431 0.8064951 0
0.74803922 0.80686275 0
0.78921569 0.80857843 0
0.82297794 0.81078431 0.0039215686
0.86372549 0.81458333 0.0039215686
0.903125 0.82334559 0.0044117647
0.93382353 0.82941176 0.0049019608
0.24607843 0.85294118 0
0.24705882 0.85294118 0.0006127451
0.25171569 0.85294118 0.025735294
0.25147059 0.85294118 0.0025735294
0.25245098 0.85294118 0.0019607843
0.27745098 0.85294118 0
0.30490196 0.85294118 0.0031862745
0.32781863 0.84901961 0
0.36372549 0.84901961 0.025490196
0.39166667 0.84718137 0.012009804
0.42745098 0.84901961 0.012745098
0.4622549 0.84901961 0.026348039
0.4872549 0.84509804 0.016176471
0.51629902 0.84117647 0
0.55784314 0.84117647 0.0058823529
0.60404412 0.84840686 0
0.64019608 0.85196078 0
0.68872549 0.85894608 0
0.73137255 0.8625 0
0.76519608 0.86470588 0
0.80980392 0.86862745 0
0.84656863 0.87254902 0.00098039216
0.88210784 0.87034314 0.006127451
0.9182598 0.86997549 0.014338235
0.94705882 0.8745098 0.015686275
0.33480392 0.90931373 0.077941176
0.33333333 0.90784314 0.075490196
0.33835784 0.90931373 0.094607843
0.33480392 0.90931373 0.079411765
0.33627451 0.90931373 0.080147059
0.34577206 0.90447304 0.072181373
0.37083333 0.90772059 0.078308824
0.39025735 0.90784314 0.08370098
0.41960784 0.90539216 0.096568627
0.43688725 0.89718137 0.073713235
0.47022059 0.90428922 0.076348039
0.5 0.90569853 0.072610294
0.52965686 0.9002451 0.094852941
0.55392157 0.89754902 0.071078431
0.59411765 0.90294118 0.058823529
0.6401348 0.91323529 0.029840686
0.67009804 0.91568627 0.028921569
0.71770833 0.91666667 0.020588235
0.75196078 0.91911765 0.018014706
0.78707108 0.92352941 0.021875
0.83161765 0.92598039 0.015196078
0.86715686 0.92959559 0.015992647
0.89803922 0.92169118 0.024019608
0.93676471 0.92107843 0.014828431
0.96372549 0.925 0.010294118
0.42352941 0.95686275 0.21960784
0.40294118 0.94509804 0.1872549
0.40784314 0.94803922 0.19509804
0.42352941 0.95686275 0.21960784
0.4 0.94313725 0.18235294
0.425 0.95 0.21127451
0.44803922 0.95686275 0.2245098
0.45784314 0.94901961 0.20392157
0.49019608 0.95686275 0.22352941
0.47892157 0.93284314 0.16176471
0.5254902 0.95 0.20882353
0.54803922 0.94509804 0.19656863
0.57843137 0.94901961 0.21176471
0.60490196 0.94509804 0.2
0.63235294 0.94509804 0.19607843
0.67794118 0.95196078 0.2004902
0.70980392 0.95294118 0.19215686
0.74754902 0.95196078 0.16078431
0.77352941 0.94705882 0.13333333
0.81372549 0.96372549 0.18529412
0.85294118 0.96078431 0.14705882
0.88480392 0.96127451 0.13676471
0.91862745 0.97156863 0.16568627
0.95588235 0.97401961 0.15147059
0.98039216 0.98039216 0.14901961
0.0078431373 0.03627451 0.034803922
0.020588235 0.033272059 0.034803922
0.037254902 0.032843137 0.034803922
0.057352941 0.027267157 0.032352941
0.090931373 0.035784314 0.03627451
0.12352941 0.04185049 0.040012255
0.16323529 0.046691176 0.039828431
0.20588235 0.05189951 0.045588235
0.25490196 0.054901961 0.051960784
0.30245098 0.043688725 0.048039216
0.35355392 0.034926471 0.050857843
0.39803922 0.027941176 0.054105392
0.44240196 0.020098039 0.055882353
0.49068627 0.021078431 0.055882353
0.53872549 0.026348039 0.055882353
0.59258578 0.023039216 0.059803922
0.64313725 0.010294118 0.06372549
0.68976716 0.012071078 0.066115196
0.73823529 0.0039215686 0.06127451
0.78235294 0.022365196 0.068627451
0.82352941 0.050980392 0.074509804
0.86470588 0.076470588 0.078921569
0.90588235 0.11519608 0.089215686
0.95098039 0.15882353 0.099509804
0.99460784 0.19852941 0.10980392
0.0078431373 0.053860294 0.040563725
0.020588235 0.051983762 0.039644608
0.037254902 0.051409314 0.038495711
0.057467831 0.051409314 0.037193627
0.094852941 0.055147059 0.045802696
0.12978707 0.059803922 0.047181373
0.16646752 0.063587623 0.041957721
0.20735294 0.067624081 0.048935355
0.25490196 0.069117647 0.054963235
0.30732996 0.060355392 0.051960784
0.35747549 0.054028799 0.056862745
0.40441176 0.050490196 0.055882353
0.44877451 0.040686275 0.055882353
0.49498315 0.035723039 0.055882353
0.54509804 0.035033701 0.057215074
0.59524357 0.027366728 0.059803922
0.64613971 0.0097426471 0.062254902
0.69034161 0.012645527 0.065563725
0.74160539 0.0059895833 0.060661765
0.7827742 0.024509804 0.066176471
0.82352941 0.053890931 0.074969363
0.86470588 0.078730086 0.078921569
0.90514706 0.12005208 0.089215686
0.94215686 0.15729167 0.099509804
0.97003676 0.1778799 0.10980392
0.0078431373 0.08247549 0.051593137
0.02020527 0.081372549 0.045955882
0.035814951 0.081004902 0.040104167
0.054886642 0.081004902 0.037254902
0.094117647 0.080882353 0.045955882
0.13337929 0.084757966 0.051577819
0.16841299 0.089889706 0.044117647
0.2088848 0.092938113 0.046001838
0.25882353 0.094240196 0.055269608
0.31127451 0.089384191 0.055193015
0.36568627 0.084589461 0.05814951
0.41335784 0.078829657 0.055790441
0.45876225 0.073529412 0.055882353
0.50539216 0.065242034 0.057536765
0.553125 0.056985294 0.0625
0.60012255 0.053661152 0.063863358
0.64803922 0.044117647 0.068014706
0.69368873 0.050980392 0.07064951
0.74117647 0.050214461 0.066544118
0.78235294 0.062745098 0.074954044
0.82352941 0.090379902 0.083333333
0.86470588 0.11256127 0.087254902
