site/assets/luts/natron-haldclut--polaroid-690-warm---0a6bea6b1.cube
# LUTr-Project: LUTr — LUTrepository
# LUTr-Schema-Version: 1
# LUTr-ID: natron-haldclut--polaroid-690-warm---0a6bea6b1
# LUTr-Title: polaroid 690 warm -
# LUTr-Collection: Natron HaldCLUT
# LUTr-Collection-ID: natron-haldclut-presets
# LUTr-Source: https://github.com/NatronGitHub/clut
# LUTr-Source-File: submissions/natron-haldclut-presets/instant_pro/polaroid_690_warm_-.png
# LUTr-Source-Format: PNG
# LUTr-Source-SHA256: c151e8f70d129c7191efabca41c1f9293c535c50560124b5a4a4a6aa403422c9
# LUTr-License: CC-BY-SA-4.0
# LUTr-License-URL: https://github.com/NatronGitHub/clut#license
# LUTr-Tags: creative, film, film-emulation, hald-clut, natron, png, warm, cube
# LUTr-Transform-Class: film-emulation
# LUTr-Input-Color-Space: srgb
# LUTr-Output-Color-Space: srgb
# LUTr-Color-Space-Confidence: assumed-display-referred
# LUTr-Conversion-Method: PNG LUT image decoded at 16-bit and sampled to 25x25x25 3D CUBE
# LUTr-Conversion-Date: 2026-07-27
# LUTr-Conversion-Tool: LUTr scripts/convert-all-to-cube.mjs
# LUTr-Conversion-Grid: 25x25x25
# LUTr-Note: Preserve this metadata and the upstream license notices when redistributing.
TITLE "polaroid 690 warm -"
LUT_3D_SIZE 5
DOMAIN_MIN 0 0 0
DOMAIN_MAX 1 1 1
0.058823529 0.023529412 0.011764706
0.23235294 0.0049019608 0.015686275
0.50784314 0.0039215686 0.035294118
0.77647059 0 0
1 0 0
0.10588235 0.21470588 0.024509804
0.27058824 0.21176471 0.0078431373
0.57892157 0.17254902 0.0078431373
0.84926471 0.049264706 0
0.99901961 0.0029411765 0
0.052941176 0.47843137 0
0.25539216 0.4745098 0
0.57156863 0.51862745 0
0.88529412 0.55343137 0
1 0.55882353 0.0039215686
0.23235294 0.72941176 0.0039215686
0.36151961 0.72156863 0.0078431373
0.57990196 0.73676471 0
0.86348039 0.77647059 0.0078431373
0.99607843 0.79901961 0
0.56078431 0.95686275 0.18039216
0.61568627 0.96176471 0.18039216
0.74509804 0.95882353 0.1372549
0.91176471 0.96078431 0.15294118
1 0.96470588 0.16470588
0.078431373 0.043137255 0.18039216
0.25171569 0.01372549 0.19117647
0.5 0.0053921569 0.17745098
0.76078431 0 0.15269608
0.99215686 0 0.11372549
0.13946078 0.21862745 0.20073529
0.29607843 0.22965686 0.20925245
0.57267157 0.18566176 0.20441176
0.81862745 0.022303922 0.16053922
0.99509804 0.0039215686 0.11372549
0.14509804 0.5127451 0.20588235
0.30098039 0.50502451 0.19362745
0.5877451 0.53578431 0.15245098
0.89705882 0.56568627 0.19448529
1 0.54313725 0.22254902
0.23921569 0.74901961 0.16372549
0.35563725 0.74430147 0.12941176
0.59117647 0.74607843 0.096568627
0.8625 0.78039216 0.075183824
1 0.80980392 0.21985294
0.54901961 0.95686275 0.33823529
0.59313725 0.95147059 0.31323529
0.72794118 0.95 0.28578431
0.90098039 0.95392157 0.29534314
1 0.96470588 0.34019608
0.0078431373 0.068627451 0.50196078
0.23333333 0.038235294 0.52647059
0.6 0.0039215686 0.57058824
0.79509804 0.0034313725 0.47696078
0.98431373 0.0039215686 0.43529412
0.10784314 0.2377451 0.50588235
0.29546569 0.24705882 0.54411765
0.61764706 0.26495098 0.59803922
0.81176471 0.18406863 0.49313725
0.97990196 0.0039215686 0.43578431
0.20098039 0.52941176 0.54019608
0.35882353 0.54093137 0.56176471
0.61421569 0.55637255 0.56960784
0.86053922 0.4877451 0.52328431
1 0.3872549 0.43235294
0.30392157 0.78333333 0.56078431
0.40502451 0.78345588 0.54803922
0.60490196 0.76960784 0.51470588
0.85882353 0.79436275 0.5245098
0.99607843 0.81421569 0.6004902
0.53333333 0.95686275 0.6
0.59068627 0.96470588 0.59852941
0.69901961 0.94705882 0.55
0.88088235 0.95882353 0.54705882
0.99215686 0.96078431 0.58431373
0.042156863 0.10098039 0.81568627
0.29901961 0.088235294 0.82720588
0.62794118 0.062745098 0.85539216
0.90588235 0.11176471 0.86176471
0.99607843 0.13333333 0.79705882
0.13553922 0.26446078 0.8125
0.33529412 0.27493873 0.81550245
0.63823529 0.30085784 0.85404412
0.90661765 0.35098039 0.86158088
0.99289216 0.30686275 0.79240196
0.045588235 0.48480392 0.77009804
0.29656863 0.50196078 0.77855392
0.61960784 0.55245098 0.82254902
0.88811275 0.62034314 0.85392157
0.98823529 0.55245098 0.80245098
0.40392157 0.79044118 0.81470588
0.48333333 0.7872549 0.81862745
0.66348039 0.79313725 0.83039216
0.87218137 0.82181373 0.84926471
0.99607843 0.75759804 0.79901961
0.66176471 0.95980392 0.85392157
0.6870098 0.96151961 0.85294118
0.75490196 0.95637255 0.83823529
0.85784314 0.94730392 0.81397059
0.9872549 0.95686275 0.8254902
0.48627451 0.29411765 0.99215686
0.55490196 0.30294118 0.98921569
0.72745098 0.3254902 0.98823529
0.9245098 0.39313725 0.98529412
0.99607843 0.48627451 0.98823529
0.49509804 0.40882353 0.98921569
0.56470588 0.40784314 0.98333333
0.73921569 0.44215686 0.98431373
0.91985294 0.50784314 0.98357843
0.99607843 0.56568627 0.98039216
0.47843137 0.59215686 0.97843137
0.55588235 0.59852941 0.98088235
0.73235294 0.62745098 0.98039216
0.90833333 0.68921569 0.97990196
0.99607843 0.73333333 0.97647059
0.49607843 0.79901961 0.96470588
0.53308824 0.79289216 0.96544118
0.68039216 0.7872549 0.9622549
0.88137255 0.82647059 0.96470588
0.99215686 0.86862745 0.96470588
0.76470588 0.96862745 0.96862745
0.77843137 0.96666667 0.96764706
0.83529412 0.96470588 0.96666667
0.91078431 0.96078431 0.94509804
0.99607843 0.96078431 0.97254902
