site/assets/luts/natron-haldclut--fuji-ilford-hp5--c77eca275.cube
# LUTr-Project: LUTr — LUTrepository
# LUTr-Schema-Version: 1
# LUTr-ID: natron-haldclut--fuji-ilford-hp5--c77eca275
# LUTr-Title: fuji ilford hp5
# LUTr-Collection: Natron HaldCLUT
# LUTr-Collection-ID: natron-haldclut-presets
# LUTr-Source: https://github.com/NatronGitHub/clut
# LUTr-Source-File: submissions/natron-haldclut-presets/negative_new/fuji_ilford_hp5.png
# LUTr-Source-Format: PNG
# LUTr-Source-SHA256: a28c49e216dec0e91e95611157359f1c450229529f2a7d2b8aa33aae65218898
# LUTr-License: CC-BY-SA-4.0
# LUTr-License-URL: https://github.com/NatronGitHub/clut#license
# LUTr-Tags: creative, film, film-emulation, hald-clut, natron, png, cube
# LUTr-Transform-Class: film-emulation
# LUTr-Input-Color-Space: srgb
# LUTr-Output-Color-Space: srgb
# LUTr-Color-Space-Confidence: assumed-display-referred
# LUTr-Conversion-Method: PNG LUT image decoded at 16-bit and sampled to 25x25x25 3D CUBE
# LUTr-Conversion-Date: 2026-07-27
# LUTr-Conversion-Tool: LUTr scripts/convert-all-to-cube.mjs
# LUTr-Conversion-Grid: 25x25x25
# LUTr-Note: Preserve this metadata and the upstream license notices when redistributing.
TITLE "fuji ilford hp5"
LUT_3D_SIZE 5
DOMAIN_MIN 0 0 0
DOMAIN_MAX 1 1 1
0.062745098 0.062745098 0.062745098
0.074509804 0.074509804 0.074509804
0.2372549 0.2372549 0.2372549
0.41470588 0.41470588 0.41470588
0.58823529 0.58823529 0.58823529
0.14117647 0.14117647 0.14117647
0.21176471 0.21176471 0.21176471
0.35637255 0.35637255 0.35637255
0.49803922 0.49803922 0.49803922
0.65784314 0.65784314 0.65784314
0.37254902 0.37254902 0.37254902
0.38186275 0.38186275 0.38186275
0.48627451 0.48627451 0.48627451
0.63578431 0.63578431 0.63578431
0.79607843 0.79607843 0.79607843
0.61568627 0.61568627 0.61568627
0.62352941 0.62352941 0.62352941
0.66568627 0.66568627 0.66568627
0.78039216 0.78039216 0.78039216
0.8872549 0.8872549 0.8872549
0.88627451 0.88627451 0.88627451
0.87058824 0.87058824 0.87058824
0.9 0.9 0.9
0.92156863 0.92156863 0.92156863
0.96862745 0.96862745 0.96862745
0.10490196 0.10490196 0.10490196
0.16470588 0.16470588 0.16470588
0.28921569 0.28921569 0.28921569
0.41691176 0.41691176 0.41691176
0.60294118 0.60294118 0.60294118
0.20490196 0.20490196 0.20490196
0.26158088 0.26158088 0.26158088
0.36176471 0.36176471 0.36176471
0.49730392 0.49730392 0.49730392
0.67352941 0.67352941 0.67352941
0.41666667 0.41666667 0.41666667
0.42953431 0.42953431 0.42953431
0.52058824 0.52058824 0.52058824
0.64705882 0.64705882 0.64705882
0.79313725 0.79313725 0.79313725
0.66176471 0.66176471 0.66176471
0.66176471 0.66176471 0.66176471
0.6872549 0.6872549 0.6872549
0.790625 0.790625 0.790625
0.89019608 0.89019608 0.89019608
0.85882353 0.85882353 0.85882353
0.89411765 0.89411765 0.89411765
0.89411765 0.89411765 0.89411765
0.93259804 0.93259804 0.93259804
0.96862745 0.96862745 0.96862745
0.30588235 0.30588235 0.30588235
0.35343137 0.35343137 0.35343137
0.41568627 0.41568627 0.41568627
0.51617647 0.51617647 0.51617647
0.69803922 0.69803922 0.69803922
0.36176471 0.36176471 0.36176471
0.41078431 0.41078431 0.41078431
0.47401961 0.47401961 0.47401961
0.57352941 0.57352941 0.57352941
0.71127451 0.71127451 0.71127451
0.48137255 0.48137255 0.48137255
0.51078431 0.51078431 0.51078431
0.57941176 0.57941176 0.57941176
0.66593137 0.66593137 0.66593137
0.78823529 0.78823529 0.78823529
0.71176471 0.71176471 0.71176471
0.72328431 0.72328431 0.72328431
0.74411765 0.74411765 0.74411765
0.80147059 0.80147059 0.80147059
0.89754902 0.89754902 0.89754902
0.91176471 0.91176471 0.91176471
0.90980392 0.90980392 0.90980392
0.91372549 0.91372549 0.91372549
0.93823529 0.93823529 0.93823529
0.96862745 0.96862745 0.96862745
0.55784314 0.55784314 0.55784314
0.58039216 0.58039216 0.58039216
0.63137255 0.63137255 0.63137255
0.6872549 0.6872549 0.6872549
0.77352941 0.77352941 0.77352941
0.59901961 0.59901961 0.59901961
0.62254902 0.62254902 0.62254902
0.66875 0.66875 0.66875
0.71292892 0.71292892 0.71292892
0.80882353 0.80882353 0.80882353
0.63627451 0.63627451 0.63627451
0.6627451 0.6627451 0.6627451
0.72352941 0.72352941 0.72352941
0.76458333 0.76458333 0.76458333
0.85441176 0.85441176 0.85441176
0.75392157 0.75392157 0.75392157
0.76470588 0.76470588 0.76470588
0.7995098 0.7995098 0.7995098
0.85821078 0.85821078 0.85821078
0.89901961 0.89901961 0.89901961
0.92647059 0.92647059 0.92647059
0.93039216 0.93039216 0.93039216
0.94068627 0.94068627 0.94068627
0.95710784 0.95710784 0.95710784
0.97647059 0.97647059 0.97647059
0.83529412 0.83529412 0.83529412
0.85098039 0.85098039 0.85098039
0.86078431 0.86078431 0.86078431
0.9 0.9 0.9
0.90196078 0.90196078 0.90196078
0.86470588 0.86470588 0.86470588
0.86176471 0.86176471 0.86176471
0.87794118 0.87794118 0.87794118
0.91004902 0.91004902 0.91004902
0.9245098 0.9245098 0.9245098
0.88431373 0.88431373 0.88431373
0.87843137 0.87843137 0.87843137
0.89607843 0.89607843 0.89607843
0.92303922 0.92303922 0.92303922
0.93529412 0.93529412 0.93529412
0.89901961 0.89901961 0.89901961
0.90122549 0.90122549 0.90122549
0.91568627 0.91568627 0.91568627
0.94607843 0.94607843 0.94607843
0.95294118 0.95294118 0.95294118
0.94117647 0.94117647 0.94117647
0.96078431 0.96078431 0.96078431
0.94509804 0.94509804 0.94509804
0.96568627 0.96568627 0.96568627
0.98823529 0.98823529 0.98823529
