site/assets/luts/natron-haldclut--polaroid-px-70-warm---fe38ccdf2.cube
# LUTr-Project: LUTr — LUTrepository
# LUTr-Schema-Version: 1
# LUTr-ID: natron-haldclut--polaroid-px-70-warm---fe38ccdf2
# LUTr-Title: polaroid px-70 warm --
# LUTr-Collection: Natron HaldCLUT
# LUTr-Collection-ID: natron-haldclut-presets
# LUTr-Source: https://github.com/NatronGitHub/clut
# LUTr-Source-File: submissions/natron-haldclut-presets/instant_consumer/polaroid_px-70_warm_--.png
# LUTr-Source-Format: PNG
# LUTr-Source-SHA256: 37c06c10f27ad9a68affb1ba3aeefdda07a9f4b8aed963a52e473fd67d163f86
# LUTr-License: CC-BY-SA-4.0
# LUTr-License-URL: https://github.com/NatronGitHub/clut#license
# LUTr-Tags: creative, film, film-emulation, hald-clut, natron, png, warm, cube
# LUTr-Transform-Class: film-emulation
# LUTr-Input-Color-Space: srgb
# LUTr-Output-Color-Space: srgb
# LUTr-Color-Space-Confidence: assumed-display-referred
# LUTr-Conversion-Method: PNG LUT image decoded at 16-bit and sampled to 25x25x25 3D CUBE
# LUTr-Conversion-Date: 2026-07-27
# LUTr-Conversion-Tool: LUTr scripts/convert-all-to-cube.mjs
# LUTr-Conversion-Grid: 25x25x25
# LUTr-Note: Preserve this metadata and the upstream license notices when redistributing.
TITLE "polaroid px-70 warm --"
LUT_3D_SIZE 9
DOMAIN_MIN 0 0 0
DOMAIN_MAX 1 1 1
0 0 0
0.046078431 0.015686275 0.046568627
0.13137255 0.02745098 0.032352941
0.28284314 0.0093137255 0.050980392
0.54509804 0.0078431373 0.068627451
0.76813725 0.02254902 0.066666667
0.90196078 0.27352941 0.057843137
1 0.43284314 0.064215686
1 0.54117647 0.15294118
0.0078431373 0.065686275 0.061764706
0.039154412 0.065686275 0.035294118
0.15980392 0.07745098 0.046936275
0.30735294 0.063541667 0.053737745
0.55098039 0.046568627 0.068627451
0.76176471 0.14362745 0.057536765
0.92058824 0.30686275 0.025980392
0.99607843 0.45245098 0.062193627
1 0.54411765 0.15343137
0.0039215686 0.16176471 0.082352941
0.01372549 0.17218137 0.080514706
0.14019608 0.18406863 0.085294118
0.33737745 0.19509804 0.060294118
0.5622549 0.21813725 0.043137255
0.76997549 0.27855392 0.01372549
0.90588235 0.4 0.023529412
0.99264706 0.49803922 0.027696078
1 0.59117647 0.13431373
0.0014705882 0.3504902 0.10980392
0 0.3504902 0.098529412
0.071568627 0.35882353 0.084436275
0.35539216 0.37647059 0.050551471
0.59705882 0.40416667 0.012009804
0.76966912 0.43817402 0.011764706
0.9060049 0.49840686 0.0049019608
0.97089461 0.57303922 0.013051471
1 0.6377451 0.10637255
0 0.55882353 0.07254902
0.0056372549 0.55294118 0.1
0.065686275 0.56421569 0.087254902
0.38284314 0.5745098 0.025245098
0.61078431 0.58235294 0.011764706
0.77205882 0.5995098 0.011764706
0.88921569 0.6245098 0.0078431373
0.95735294 0.66127451 0.0078431373
1 0.68823529 0.041176471
0.031372549 0.71960784 0.12745098
0.14154412 0.71617647 0.14264706
0.31764706 0.71568627 0.15796569
0.47401961 0.71868873 0.14613971
0.64019608 0.72205882 0.092401961
0.76366422 0.72745098 0.054411765
0.88321078 0.74558824 0.0042892157
0.95814951 0.75214461 0.015257353
1 0.76127451 0.10931373
0.41862745 0.81764706 0.25490196
0.44460784 0.81764706 0.2627451
0.50882353 0.81789216 0.27058824
0.58480392 0.81078431 0.27843137
0.69509804 0.81813725 0.28088235
0.77401961 0.82254902 0.26360294
0.86862745 0.82254902 0.20612745
0.94509804 0.83345588 0.23039216
0.99215686 0.84117647 0.26666667
0.61421569 0.89509804 0.39460784
0.63633578 0.89558824 0.41372549
0.66421569 0.89509804 0.41029412
0.70851716 0.89166667 0.41685049
0.76593137 0.89558824 0.42818627
0.81421569 0.90294118 0.42598039
0.87794118 0.90294118 0.41372549
0.94172794 0.90300245 0.40386029
0.99166667 0.91078431 0.42598039
0.76470588 0.96470588 0.55294118
0.77598039 0.96813725 0.56029412
0.78039216 0.96078431 0.55294118
0.81029412 0.96862745 0.57647059
0.83333333 0.96470588 0.57647059
0.86813725 0.97254902 0.59117647
0.90686275 0.96862745 0.58529412
0.95343137 0.96911765 0.58823529
0.97647059 0.97254902 0.59215686
0.011764706 0.031372549 0.081372549
0.049509804 0.030453431 0.080882353
0.14522059 0.053921569 0.096936275
0.29785539 0.044301471 0.1127451
0.55294118 0.0098039216 0.13235294
0.77959559 0.1403799 0.14393382
0.92046569 0.32855392 0.14705882
0.99307598 0.45582108 0.16672794
0.99607843 0.54509804 0.22647059
0.012254902 0.076960784 0.097058824
0.053492647 0.084375 0.1004902
0.15562194 0.091773897 0.10473346
0.32363664 0.098039216 0.11907935
0.56029412 0.11498162 0.13186275
0.76942402 0.20339308 0.13235294
0.9245098 0.33950674 0.13224571
0.99302237 0.475 0.15948223
1 0.57506127 0.23431373
0.0083333333 0.18296569 0.12487745
0.039154412 0.16753983 0.12397365
0.17052696 0.19215686 0.1252451
0.35686275 0.20980392 0.11643689
0.57910539 0.22941176 0.10980392
0.78204657 0.3 0.10343137
0.91666667 0.41544118 0.082843137
0.98598346 0.52026654 0.12636336
0.99607843 0.58811275 0.19264706
0.0039215686 0.35 0.14215686
0.0039215686 0.35585938 0.14025735
0.11113664 0.36913297 0.13138787
0.37617187 0.39185049 0.1
0.61029412 0.40818015 0.064154412
0.77971814 0.44649969 0.0395144
0.90503983 0.49836091 0.013189338
0.97322304 0.57685355 0.078515625
0.99607843 0.64019608 0.17892157
0.0078431373 0.56078431 0.14803922
0.0082720588 0.55836397 0.14436275
0.14577206 0.56991422 0.14215686
0.40857843 0.57818627 0.12941176
0.62487745 0.59007353 0.049509804
0.77907475 0.5995098 0.020496324
0.89068627 0.62254902 0.018321078
0.96476716 0.6495098 0.012469363
1 0.69019608 0.12720588
0.12971814 0.71323529 0.17959559
0.21530331 0.71960784 0.18376225
0.33717831 0.71568627 0.19816176
0.50362286 0.72175245 0.19195772
0.64803922 0.72009804 0.16305147
0.77996324 0.73045343 0.11323529
0.87745098 0.74166667 0.10727635
0.95392157 0.7495098 0.1158701
0.99607843 0.75735294 0.15919118
0.4377451 0.81764706 0.28443627
0.45909926 0.81470588 0.29303002
0.52818627 0.8189951 0.29705882
0.60837929 0.82120098 0.30931373
0.7002451 0.81862745 0.30778186
0.77743566 0.82254902 0.28779105
0.86544118 0.82904412 0.26332721
0.94914216 0.83344056 0.26531863
0.99129902 0.84117647 0.29362745
0.63333333 0.89859069 0.42156863
0.6528799 0.89901961 0.42156863
0.67167586 0.89554228 0.42774203
0.70598958 0.89509804 0.43333333
0.76176471 0.89509804 0.43575368
0.81421569 0.90251225 0.4377451
0.87389706 0.90294118 0.43731618
0.94302237 0.90386029 0.42205882
0.97598039 0.90778186 0.42647059
0.77647059 0.96862745 0.56470588
0.77947304 0.96862745 0.57156863
0.78688725 0.96176471 0.56813725
0.80392157 0.96078431 0.57254902
0.8372549 0.96862745 0.59754902
0.86813725 0.96862745 0.59430147
0.90784314 0.96875 0.59607843
0.95349265 0.97604167 0.6
0.97254902 0.97254902 0.59607843
0.033333333 0.060784314 0.16176471
0.061764706 0.054779412 0.15490196
0.14215686 0.078431373 0.15882353
0.29803922 0.065073529 0.17303922
0.55882353 0.017156863 0.20147059
0.78921569 0.049387255 0.21911765
0.92279412 0.35367647 0.26102941
0.99215686 0.51323529 0.30294118
0.99215686 0.59019608 0.34411765
0.015686275 0.1 0.16960784
0.068841912 0.10784314 0.17696078
0.16151961 0.11482843 0.17438725
0.32605699 0.12352941 0.18609069
0.58192402 0.06807598 0.20251225
0.79215686 0.23553922 0.23399203
0.91678922 0.40545343 0.26026348
0.99226409 0.51812194 0.29117647
0.99607843 0.60208333 0.33431373
0.0039215686 0.20098039 0.18602941
0.050735294 0.20186887 0.19240196
0.2 0.20955882 0.19607843
0.39460784 0.22928922 0.19010417
0.61360294 0.25098039 0.20294118
0.79742647 0.36237745 0.22178309
0.91182598 0.4620098 0.23235294
0.97720588 0.55211397 0.2747549
0.99607843 0.63161765 0.32794118
0.011764706 0.38235294 0.21127451
0.066559436 0.38088235 0.21132047
0.21348039 0.38253676 0.20490196
0.42904412 0.4004136 0.20166973
0.63946078 0.42408088 0.18805147
0.79480699 0.45773591 0.18340993
0.90526961 0.54022672 0.20113358
0.97317708 0.60116422 0.24889706
0.99215686 0.65992647 0.29914216
0.06372549 0.57647059 0.22843137
0.121875 0.5754902 0.22689951
0.28039216 0.57598039 0.23382353
0.46917892 0.58627451 0.22371324
0.64852941 0.59019608 0.20931373
0.78474265 0.61311275 0.18602941
0.88872549 0.6307598 0.17205882
0.96556373 0.65955882 0.18946078
0.99607843 0.70490196 0.26372549
0.32512255 0.71605392 0.27352941
0.35438113 0.71750919 0.27745098
0.43688725 0.72352941 0.27622549
0.55232843 0.72990196 0.27990196
0.66960784 0.72990196 0.27205882
0.78065257 0.73621324 0.25484069
0.87665441 0.74175858 0.24252451
0.9558364 0.74693627 0.23982843
0.99571078 0.76372549 0.26948529
0.51593137 0.82622549 0.34607843
0.52882966 0.82254902 0.34666054
0.57653186 0.82254902 0.35490196
0.63112745 0.82230392 0.36176471
0.71078431 0.82156863 0.36139706
0.78060662 0.82254902 0.34641544
0.86917892 0.82591912 0.34142157
0.94865196 0.83431373 0.32389706
0.99117647 0.8372549 0.34632353
0.65894608 0.89901961 0.44816176
0.67120098 0.89558824 0.45191483
0.69767157 0.89901961 0.47058824
0.72936581 0.89558824 0.47504596
0.76783088 0.89552696 0.47193627
0.81956189 0.89906556 0.46813725
0.88085172 0.90294118 0.46323529
0.94307598 0.90686275 0.45882353
0.98039216 0.90735294 0.45931373
0.77647059 0.96470588 0.57941176
0.78333333 0.96764706 0.58370098
0.79607843 0.96470588 0.58504902
0.81139706 0.96372549 0.59080882
0.83529412 0.96078431 0.59754902
0.87205882 0.96862745 0.61470588
0.91078431 0.97156863 0.61740196
0.95392157 0.97254902 0.61470588
0.98333333 0.97647059 0.62156863
0.060294118 0.098039216 0.26617647
0.13088235 0.096384804 0.26078431
0.24656863 0.13811275 0.25784314
0.35392157 0.1627451 0.25931373
0.5375 0.098284314 0.28455882
0.77653186 0.065625 0.31415441
0.92303922 0.27352941 0.33811275
0.98235294 0.48216912 0.38988971
0.99607843 0.62647059 0.44166667
0.033333333 0.12175245 0.26685049
0.12009804 0.13382353 0.26889553
0.24803922 0.17446385 0.2682598
0.38254442 0.20276501 0.27243413
0.56283701 0.17545956 0.29166667
0.78228401 0.19792433 0.32015931
0.92657782 0.32830882 0.33887868
0.98796722 0.52859222 0.39411765
0.99607843 0.64558824 0.44577206
0.01127451 0.23382353 0.27977941
0.058348652 0.23037684 0.2834712
0.25355392 0.24411765 0.28624387
0.41617647 0.275 0.29085478
0.62083333 0.30392157 0.31029412
0.78921569 0.38598346 0.34094669
0.90646446 0.50079657 0.36911765
0.9740962 0.59656863 0.40454963
0.99607843 0.68443627 0.45110294
0.0093137255 0.39901961 0.3
0.060906863 0.3946155 0.30227482
0.29368873 0.40502451 0.30392157
0.48650429 0.43229167 0.31121324
0.6666973 0.46988358 0.32745098
0.80553768 0.50424326 0.32800245
0.9 0.5833027 0.35735294
0.9721201 0.64117647 0.38297335
0.99607843 0.70539216 0.43480392
0.19338235 0.5745098 0.32696078
0.29068627 0.57843137 0.3268076
0.41029412 0.58823529 0.32996324
0.52892157 0.59433211 0.33088235
0.66544118 0.60882353 0.33235294
0.79957108 0.62699142 0.32279412
0.88921569 0.65030637 0.3245098
0.96145833 0.68685662 0.34917279
0.99607843 0.73308824 0.40318627
0.46170343 0.71568627 0.37107843
0.50275735 0.7276348 0.37800245
0.52352941 0.72536765 0.37366728
0.59558824 0.72802543 0.375
0.69457721 0.72821691 0.37107843
0.79530484 0.73831955 0.36119026
0.88431373 0.74669118 0.34931066
0.95274203 0.75134038 0.35575214
0.99607843 0.77248775 0.37598039
0.58713235 0.81617647 0.42438725
0.59693627 0.81862745 0.42222733
0.62913603 0.8247549 0.42401961
0.67414216 0.82438725 0.43039216
0.7310049 0.82254902 0.43229167
0.79924939 0.8254902 0.42522978
0.88039216 0.82647059 0.41908701
0.95 0.83431373 0.41484375
0.98933824 0.84117647 0.41360294
0.69675245 0.89773284 0.49705882
0.70196078 0.89773284 0.49803922
0.71666667 0.89946385 0.50188419
0.74332108 0.89558824 0.50851716
0.78063725 0.89518995 0.51479779
0.8305913 0.89821538 0.51243873
0.88480392 0.90396752 0.52084865
0.95245098 0.90498621 0.51704963
0.98039216 0.90863971 0.52205882
0.78676471 0.96862745 0.61029412
0.78088235 0.95704657 0.59528186
0.80355392 0.96715686 0.61213235
0.82113971 0.96470588 0.62058824
0.84509804 0.96470588 0.62990196
0.87598039 0.96231618 0.63327206
0.91568627 0.96862745 0.64264706
0.95520833 0.97040441 0.64001225
0.98823529 0.96862745 0.64166667
0.14117647 0.12745098 0.37843137
0.22377451 0.13529412 0.38406863
0.36862745 0.17401961 0.38578431
0.51887255 0.26789216 0.38504902
0.64509804 0.3254902 0.39313725
0.76102941 0.2879902 0.40882353
0.90245098 0.32303922 0.4377451
0.97696078 0.4627451 0.45759804
1 0.60392157 0.49803922
0.17230392 0.17769608 0.39558824
0.23676471 0.19068627 0.39387255
0.3778799 0.22567402 0.39258578
0.53023897 0.30814951 0.39215686
0.65012255 0.36519608 0.39779412
0.78259804 0.36681985 0.42107843
0.8995098 0.39571078 0.44203431
0.97282475 0.5075674 0.46715686
0.99607843 0.61666667 0.49583333
0.13872549 0.29264706 0.39607843
0.21096814 0.29411765 0.4
0.36862745 0.31666667 0.4
0.55116422 0.39656863 0.40631127
0.67058824 0.45343137 0.4122549
0.78578431 0.44883578 0.42696078
0.90490196 0.48909314 0.45294118
0.97481618 0.58688725 0.48020833
1 0.6745098 0.51421569
0.0051470588 0.43382353 0.4004902
0.13183211 0.43308824 0.40196078
0.32567402 0.44368873 0.40876225
0.54828431 0.48161765 0.42205882
0.69068627 0.54031863 0.43186275
0.8004902 0.56317402 0.44463848
0.89705882 0.59319853 0.46072304
0.97098652 0.66666667 0.49215686
0.99852941 0.75 0.5502451
0.25490196 0.59215686 0.41372549
0.3317402 0.59411765 0.41176471
0.44485294 0.6 0.41960784
0.58394608 0.6057598 0.43590686
0.70588235 0.62352941 0.44117647
0.80441176 0.6497549 0.45098039
0.88995098 0.67941176 0.45539216
0.95784314 0.72916667 0.48897059
0.99607843 0.7745098 0.52745098
0.47009804 0.71960784 0.44460784
0.50441176 0.72334559 0.44852941
0.57310049 0.72867647 0.45091912
0.65199142 0.7377451 0.46102941
0.72953431 0.73529412 0.4622549
0.80759804 0.74558824 0.46348039
0.88823529 0.74534314 0.45318627
0.9495098 0.76617647 0.4625
0.99534314 0.79558824 0.49656863
0.63578431 0.81862745 0.49166667
0.65177696 0.82169118 0.49558824
0.68382353 0.82156863 0.5
0.70943627 0.8254902 0.503125
0.75392157 0.82647059 0.50735294
0.81531863 0.82647059 0.50392157
0.88431373 0.83039216 0.50245098
0.95 0.83731618 0.50214461
0.9877451 0.84754902 0.50735294
0.72107843 0.89558824 0.55637255
0.73213848 0.89509804 0.55833333
0.74705882 0.89558824 0.55833333
0.7622549 0.89558824 0.55824142
0.79791667 0.89901961 0.56997549
0.84191176 0.89984681 0.57401961
0.89019608 0.90686275 0.57316176
0.95 0.91277574 0.56617647
0.97279412 0.91102941 0.57083333
0.79215686 0.95686275 0.64313725
0.80196078 0.96078431 0.64705882
0.80980392 0.96078431 0.64215686
0.8252451 0.96004902 0.64828431
0.84901961 0.96470588 0.6627451
0.87990196 0.96470588 0.67401961
0.91862745 0.96813725 0.68137255
0.95735294 0.97083333 0.68284314
0.99607843 0.98039216 0.70196078
0.32107843 0.20931373 0.50637255
0.38560049 0.24068627 0.50392157
0.50931373 0.24375 0.51176471
0.65006127 0.37408088 0.50839461
0.75147059 0.50784314 0.51176471
0.81709559 0.52892157 0.51660539
0.88639706 0.50686275 0.52634804
0.96060049 0.54411765 0.54215686
0.99607843 0.63039216 0.5754902
0.34969363 0.28529412 0.51176471
0.39197304 0.26709559 0.51364124
0.51671262 0.32058824 0.51176471
0.65723805 0.39509804 0.51390931
0.75269608 0.5268076 0.51176471
0.81845129 0.54882813 0.52186734
0.89474571 0.55226716 0.53088235
0.96105239 0.57015931 0.54589461
0.99607843 0.63743873 0.57303922
0.33284314 0.38125 0.51176471
0.38382353 0.37807904 0.51390931
0.51096814 0.40306373 0.51960784
0.65476409 0.46778493 0.52167586
0.75055147 0.56642157 0.52536765
0.82271752 0.61213235 0.52928922
0.88293505 0.5919424 0.53400735
0.96037071 0.61752451 0.55341605
0.98823529 0.65710784 0.57205882
0.23682598 0.48964461 0.50484069
0.30814185 0.49509804 0.5066636
0.48307292 0.50629596 0.51637561
0.64613971 0.54365043 0.52689951
0.75 0.61911765 0.53504902
0.8312883 0.66779259 0.54501379
0.88564645 0.659375 0.55196078
0.94509038 0.68952206 0.57107077
0.99607843 0.74123775 0.60631127
0.31911765 0.62034314 0.50833333
0.38244485 0.62481618 0.51029412
0.47696078 0.62892157 0.5122549
0.59286152 0.63302696 0.52205882
0.73884804 0.66691176 0.54166667
0.83036152 0.71617647 0.55612745
0.89307598 0.72996324 0.56464461
0.95318627 0.76127451 0.59371936
0.99215686 0.78627451 0.61862745
0.48094363 0.72990196 0.52113971
0.52568168 0.73517923 0.52678462
0.58131127 0.73736213 0.52898284
0.65343137 0.7377451 0.53474265
0.74022672 0.74286152 0.54512868
0.81767004 0.75847886 0.55884651
0.88731618 0.77647059 0.56666667
0.94902727 0.79558824 0.57911305
0.99607843 0.82199755 0.60931373
0.62205882 0.81862745 0.55686275
0.64227941 0.82254902 0.55686275
0.66862745 0.82254902 0.56078431
0.71813725 0.82254902 0.5692402
0.77205882 0.82647059 0.57555147
0.82653186 0.83080576 0.57725184
0.88624387 0.8372549 0.58186275
0.94607843 0.84656863 0.58693321
0.99607843 0.85441176 0.59362745
0.73872549 0.89920343 0.60863971
0.74060202 0.89901961 0.61051624
0.75597426 0.89848346 0.62009804
0.7816636 0.8995098 0.62775735
0.81421569 0.90294118 0.63400735
0.84980086 0.90323989 0.63578431
0.89656863 0.90686275 0.63578431
0.95002298 0.91078431 0.63547794
0.98609069 0.91470588 0.64148284
0.81029412 0.96470588 0.70735294
0.81207108 0.96470588 0.70343137
0.8120098 0.95490196 0.68946078
0.83137255 0.95686275 0.69313725
0.86151961 0.96470588 0.71593137
0.88082108 0.95539216 0.70643382
0.91862745 0.96801471 0.72843137
0.95735294 0.975 0.73872549
0.99607843 0.98039216 0.7504902
0.52058824 0.36568627 0.62352941
0.56960784 0.37352941 0.62352941
0.65980392 0.41838235 0.62647059
0.74411765 0.49791667 0.62352941
0.81372549 0.60392157 0.62352941
0.86127451 0.67794118 0.62647059
0.90465686 0.69901961 0.63039216
0.9377451 0.67156863 0.62745098
0.9754902 0.69607843 0.65
0.52745098 0.38492647 0.62745098
0.56470588 0.41911765 0.62352941
0.65490196 0.44558824 0.62745098
0.74661458 0.51799939 0.62745098
0.82015931 0.61519608 0.62873775
0.86328125 0.69460784 0.63016238
0.90101103 0.70490196 0.63137255
0.93549326 0.68229167 0.6278799
0.98651961 0.70747549 0.65698529
0.52647059 0.47843137 0.63039216
0.55833333 0.47383578 0.62352941
0.64803922 0.51292892 0.63039216
0.73661152 0.57074142 0.62772672
0.81764706 0.64117647 0.63137255
0.86335784 0.71737132 0.6375
0.9 0.71623775 0.6375
0.93431373 0.70833333 0.63575368
0.98823529 0.73431373 0.66568627
0.49607843 0.56654412 0.6189951
0.52107843 0.5743413 0.62057292
0.61994485 0.5872549 0.6265625
0.71666667 0.62100184 0.62745098
0.80508578 0.68210784 0.63621324
0.8685049 0.75013787 0.64751838
0.90073529 0.77018995 0.65490196
0.94215686 0.75828738 0.66079963
0.98823529 0.76519608 0.67708333
0.40735294 0.65098039 0.59901961
0.44607843 0.65637255 0.60386029
0.5495098 0.65992647 0.61286765
0.67199755 0.68186275 0.62426471
0.78455882 0.71740196 0.64215686
0.85520833 0.76231618 0.65300245
0.90036765 0.78431373 0.65882353
0.94215686 0.78609069 0.67205882
0.99117647 0.80343137 0.69264706
0.50882353 0.74264706 0.60686275
0.54304534 0.74652267 0.61470588
0.58566176 0.74656863 0.61862745
0.65084252 0.7495098 0.61839767
0.73198529 0.75416667 0.6223652
0.83068321 0.78431373 0.64575674
0.89522059 0.81617647 0.66957721
0.94640012 0.83071385 0.68760723
0.99264706 0.84313725 0.71323529
0.61862745 0.82254902 0.63137255
0.62904412 0.82254902 0.62745098
0.6629902 0.8254902 0.63192402
0.70765931 0.82647059 0.6419424
0.76764706 0.83039216 0.6504902
0.82858456 0.83333333 0.65784314
0.89313725 0.84705882 0.67922794
0.95379902 0.86479779 0.70140931
0.99191176 0.88112745 0.72156863
0.71813725 0.89901961 0.67487745
0.7189951 0.89558824 0.6810049
0.73838848 0.89901961 0.67843137
0.77107843 0.89901961 0.68419118
0.8120098 0.90471814 0.69148284
0.85240502 0.90686275 0.70333946
0.9004902 0.91078431 0.7189951
0.95784314 0.91600797 0.73039216
0.99129902 0.92254902 0.73333333
0.7872549 0.96078431 0.75392157
0.79473039 0.96078431 0.7497549
0.80588235 0.95980392 0.75220588
0.83382353 0.96470588 0.76237745
0.85686275 0.96078431 0.7627451
0.89840686 0.97144608 0.78872549
0.92647059 0.97254902 0.79411765
0.95870098 0.96875 0.79411765
0.99607843 0.98039216 0.80686275
0.68431373 0.52892157 0.73921569
0.70386029 0.55147059 0.74313725
0.74938725 0.57414216 0.73921569
0.80196078 0.62303922 0.73529412
0.86127451 0.6877451 0.73897059
0.89607843 0.76078431 0.74313725
0.92696078 0.79803922 0.74803922
0.95735294 0.81623775 0.75833333
0.98823529 0.79705882 0.75882353
0.69993873 0.57408088 0.74313725
0.70686275 0.57102482 0.73921569
0.74590993 0.60098039 0.73965993
0.805553 0.64558824 0.74311428
0.85738358 0.6995098 0.74313725
0.9 0.76082261 0.74705882
0.93088235 0.79803922 0.74780944
0.95778186 0.81623775 0.75527727
0.98082108 0.80189951 0.75876225
0.68431373 0.6127451 0.74362745
0.70036765 0.6208027 0.74705882
0.75006127 0.63921569 0.74313725
0.79813113 0.66991422 0.74313725
0.85153186 0.72297794 0.74705882
0.89607843 0.7743413 0.75194547
0.93088235 0.80958946 0.75490196
0.95784314 0.82144608 0.7627451
0.98823529 0.81188725 0.76617647
0.65196078 0.65343137 0.73921569
0.68137255 0.66258425 0.74313725
0.72624081 0.67833946 0.74673713
0.77909773 0.70568321 0.74705882
0.84509804 0.7504902 0.7504902
0.89227175 0.78745404 0.75570619
0.92696078 0.82299326 0.76260723
0.95784314 0.84030331 0.77058824
0.98431373 0.82714461 0.76881127
0.57696078 0.71078431 0.72377451
0.60346201 0.71495098 0.72987132
0.65686275 0.72426471 0.7370098
0.74558824 0.74264706 0.74828431
0.82205882 0.76654412 0.75098039
0.88293505 0.80474877 0.75744485
0.9338848 0.8463848 0.7747549
0.95735294 0.85588235 0.77843137
0.975 0.84828431 0.77843137
0.54479167 0.76813725 0.71746324
0.56791513 0.76991422 0.72352941
0.60988051 0.77205882 0.72691483
0.68137255 0.78106618 0.73320312
0.76577819 0.79338235 0.74175858
0.85594363 0.82223499 0.76029412
0.92616422 0.86453738 0.78814338
0.95392157 0.86866575 0.78801317
0.98186275 0.87824755 0.80079657
0.61862745 0.83860294 0.73235294
0.64215686 0.84162071 0.74008885
0.66485907 0.83860294 0.74016544
0.70058211 0.8377451 0.73627451
0.75784314 0.83817402 0.74803922
0.82303922 0.84696691 0.75726103
0.90410539 0.87696078 0.78792892
0.96127451 0.8995098 0.80958946
0.98431373 0.90735294 0.82107843
0.70686275 0.90294118 0.75588235
0.71127451 0.90343137 0.76322763
0.72201287 0.90735294 0.76988358
0.75637255 0.90659467 0.7728171
0.79898897 0.90735294 0.78262868
0.84291513 0.90735294 0.78665748
0.89258578 0.91213235 0.8060049
0.95778952 0.93044577 0.83376225
0.98431373 0.93872549 0.84117647
0.78039216 0.97303922 0.82107843
0.78333333 0.96813725 0.81666667
0.79509804 0.96862745 0.82794118
0.81795343 0.96734069 0.83235294
0.85073529 0.97254902 0.84068627
0.88118873 0.96862745 0.8495098
0.93002451 0.97659314 0.86372549
0.96519608 0.97647059 0.86764706
0.99215686 0.98039216 0.8754902
0.78431373 0.70588235 0.85490196
0.79215686 0.71421569 0.85931373
0.82156863 0.73921569 0.86568627
0.84558824 0.75147059 0.85343137
0.88431373 0.77647059 0.84313725
0.9254902 0.81715686 0.85490196
0.95392157 0.85196078 0.85784314
0.97696078 0.87843137 0.85882353
0.99607843 0.88235294 0.87058824
0.78823529 0.72156863 0.85882353
0.79215686 0.725 0.85882353
0.81862745 0.74460784 0.86372549
0.84822304 0.75931373 0.85539216
0.88823529 0.78627451 0.85465686
0.92322304 0.82107843 0.85490196
0.9564951 0.85196078 0.85453431
0.97696078 0.88235294 0.85925245
0.99558824 0.88872549 0.87254902
0.78039216 0.74019608 0.8627451
0.79068627 0.74571078 0.8682598
0.81078431 0.75514706 0.8627451
0.84411765 0.77401961 0.86237745
0.88431373 0.79803922 0.85882353
0.92303922 0.82855392 0.85882353
0.95710784 0.85980392 0.86176471
0.97696078 0.88541667 0.86176471
0.99215686 0.89019608 0.86764706
0.75833333 0.75686275 0.85882353
0.77598039 0.76323529 0.86911765
0.79656863 0.77254902 0.86605392
0.82689951 0.78284314 0.85882353
0.86813725 0.80833333 0.85686275
0.91758578 0.83768382 0.86360294
0.95330882 0.86764706 0.8627451
0.97432598 0.89019608 0.85245098
0.99215686 0.90196078 0.87696078
0.73137255 0.78235294 0.85882353
0.74289216 0.78995098 0.86691176
0.76568627 0.79166667 0.86323529
0.81004902 0.80514706 0.87377451
0.85490196 0.81960784 0.86470588
0.90931373 0.8497549 0.87058824
0.95196078 0.87941176 0.87254902
0.97303922 0.90441176 0.85955882
0.98823529 0.91764706 0.88039216
0.6754902 0.82107843 0.86029412
0.66127451 0.81127451 0.83253676
0.71482843 0.82401961 0.87120098
0.76758578 0.82800245 0.87058824
0.81813725 0.83676471 0.86813725
0.8877451 0.86421569 0.87935049
0.94558824 0.89509804 0.89117647
0.97518382 0.91813725 0.89068627
0.99362745 0.93872549 0.90882353
0.66078431 0.87254902 0.8745098
0.67169118 0.87218137 0.86960784
0.69877451 0.8629902 0.85
0.70637255 0.85968137 0.84754902
0.77745098 0.87009804 0.86715686
0.85294118 0.88541667 0.88333333
0.93063725 0.90392157 0.90318627
0.97683824 0.93431373 0.91078431
0.98333333 0.93333333 0.89607843
0.72598039 0.93039216 0.90588235
0.72647059 0.92647059 0.89068627
0.74080882 0.93039216 0.90330882
0.75998775 0.92224265 0.8877451
0.79485294 0.92426471 0.88651961
0.83333333 0.92647059 0.90214461
0.88419118 0.92647059 0.90686275
0.94558824 0.94215686 0.91029412
0.99656863 0.96960784 0.93823529
0.78039216 0.98431373 0.9254902
0.77941176 0.97941176 0.91960784
0.79509804 0.98039216 0.90490196
0.80637255 0.97254902 0.90735294
0.8372549 0.98235294 0.92745098
0.86421569 0.97647059 0.93088235
0.91078431 0.98039216 0.93431373
0.95392157 0.98039216 0.9372549
0.99607843 0.97647059 0.9372549
