site/assets/luts/natron-haldclut--kodak-tri-x-400---f4e6c0225.cube
# LUTr-Project: LUTr — LUTrepository
# LUTr-Schema-Version: 1
# LUTr-ID: natron-haldclut--kodak-tri-x-400---f4e6c0225
# LUTr-Title: kodak tri-x 400 -
# LUTr-Collection: Natron HaldCLUT
# LUTr-Collection-ID: natron-haldclut-presets
# LUTr-Source: https://github.com/NatronGitHub/clut
# LUTr-Source-File: submissions/natron-haldclut-presets/negative_new/kodak_tri-x_400_-.png
# LUTr-Source-Format: PNG
# LUTr-Source-SHA256: f187a62cd6421f9756abdc466eedd164b904c540b877ad2ca7c97d1cb7420b40
# LUTr-License: CC-BY-SA-4.0
# LUTr-License-URL: https://github.com/NatronGitHub/clut#license
# LUTr-Tags: creative, film, film-emulation, hald-clut, natron, png, cube
# LUTr-Transform-Class: film-emulation
# LUTr-Input-Color-Space: srgb
# LUTr-Output-Color-Space: srgb
# LUTr-Color-Space-Confidence: assumed-display-referred
# LUTr-Conversion-Method: PNG LUT image decoded at 16-bit and sampled to 25x25x25 3D CUBE
# LUTr-Conversion-Date: 2026-07-27
# LUTr-Conversion-Tool: LUTr scripts/convert-all-to-cube.mjs
# LUTr-Conversion-Grid: 25x25x25
# LUTr-Note: Preserve this metadata and the upstream license notices when redistributing.
TITLE "kodak tri-x 400 -"
LUT_3D_SIZE 25
DOMAIN_MIN 0 0 0
DOMAIN_MAX 1 1 1
0.035294118 0.035294118 0.035294118
0.035294118 0.035294118 0.035294118
0.035294118 0.035294118 0.035294118
0.035294118 0.035294118 0.035294118
0.031372549 0.031372549 0.031372549
0.03627451 0.03627451 0.03627451
0.056862745 0.056862745 0.056862745
0.072058824 0.072058824 0.072058824
0.08627451 0.08627451 0.08627451
0.10441176 0.10441176 0.10441176
0.11470588 0.11470588 0.11470588
0.13970588 0.13970588 0.13970588
0.17058824 0.17058824 0.17058824
0.19313725 0.19313725 0.19313725
0.21666667 0.21666667 0.21666667
0.24362745 0.24362745 0.24362745
0.27058824 0.27058824 0.27058824
0.30147059 0.30147059 0.30147059
0.32745098 0.32745098 0.32745098
0.35539216 0.35539216 0.35539216
0.38039216 0.38039216 0.38039216
0.40931373 0.40931373 0.40931373
0.44019608 0.44019608 0.44019608
0.46715686 0.46715686 0.46715686
0.49411765 0.49411765 0.49411765
0.035294118 0.035294118 0.035294118
0.035294118 0.035294118 0.035294118
0.038112745 0.038112745 0.038112745
0.041360294 0.041360294 0.041360294
0.046078431 0.046078431 0.046078431
0.06060049 0.06060049 0.06060049
0.078063725 0.078063725 0.078063725
0.092647059 0.092647059 0.092647059
0.10931373 0.10931373 0.10931373
0.12653186 0.12653186 0.12653186
0.14264706 0.14264706 0.14264706
0.16666667 0.16666667 0.16666667
0.1877451 0.1877451 0.1877451
0.20410539 0.20410539 0.20410539
0.21973039 0.21973039 0.21973039
0.24761029 0.24761029 0.24761029
0.27696078 0.27696078 0.27696078
0.30392157 0.30392157 0.30392157
0.33198529 0.33198529 0.33198529
0.36176471 0.36176471 0.36176471
0.38872549 0.38872549 0.38872549
0.41911765 0.41911765 0.41911765
0.44656863 0.44656863 0.44656863
0.47598039 0.47598039 0.47598039
0.49803922 0.49803922 0.49803922
0.034313725 0.034313725 0.034313725
0.033823529 0.033823529 0.033823529
0.042892157 0.042892157 0.042892157
0.056372549 0.056372549 0.056372549
0.070588235 0.070588235 0.070588235
0.085294118 0.085294118 0.085294118
0.10367647 0.10367647 0.10367647
0.1192402 0.1192402 0.1192402
0.13529412 0.13529412 0.13529412
0.15196078 0.15196078 0.15196078
0.16838235 0.16838235 0.16838235
0.18921569 0.18921569 0.18921569
0.20980392 0.20980392 0.20980392
0.22647059 0.22647059 0.22647059
0.24338235 0.24338235 0.24338235
0.26580882 0.26580882 0.26580882
0.29215686 0.29215686 0.29215686
0.3185049 0.3185049 0.3185049
0.34436275 0.34436275 0.34436275
0.37205882 0.37205882 0.37205882
0.39901961 0.39901961 0.39901961
0.42941176 0.42941176 0.42941176
0.45686275 0.45686275 0.45686275
0.48382353 0.48382353 0.48382353
0.50294118 0.50294118 0.50294118
0.045588235 0.045588235 0.045588235
0.045710784 0.045710784 0.045710784
0.059803922 0.059803922 0.059803922
0.076960784 0.076960784 0.076960784
0.091176471 0.091176471 0.091176471
0.10974265 0.10974265 0.10974265
0.12732843 0.12732843 0.12732843
0.14528186 0.14528186 0.14528186
0.15980392 0.15980392 0.15980392
0.17383578 0.17383578 0.17383578
0.18529412 0.18529412 0.18529412
0.20631127 0.20631127 0.20631127
0.23039216 0.23039216 0.23039216
0.25091912 0.25091912 0.25091912
0.26764706 0.26764706 0.26764706
0.28823529 0.28823529 0.28823529
0.30931373 0.30931373 0.30931373
0.33363971 0.33363971 0.33363971
0.35919118 0.35919118 0.35919118
0.38584559 0.38584559 0.38584559
0.4129902 0.4129902 0.4129902
0.43970588 0.43970588 0.43970588
0.46715686 0.46715686 0.46715686
0.49264706 0.49264706 0.49264706
0.51323529 0.51323529 0.51323529
0.082352941 0.082352941 0.082352941
0.081127451 0.081127451 0.081127451
0.083333333 0.083333333 0.083333333
0.095343137 0.095343137 0.095343137
0.10980392 0.10980392 0.10980392
0.13039216 0.13039216 0.13039216
0.15098039 0.15098039 0.15098039
0.17083333 0.17083333 0.17083333
0.18627451 0.18627451 0.18627451
0.20245098 0.20245098 0.20245098
0.21715686 0.21715686 0.21715686
0.23431373 0.23431373 0.23431373
0.25980392 0.25980392 0.25980392
0.27745098 0.27745098 0.27745098
0.29460784 0.29460784 0.29460784
0.31004902 0.31004902 0.31004902
0.32745098 0.32745098 0.32745098
0.35 0.35 0.35
0.37303922 0.37303922 0.37303922
0.39705882 0.39705882 0.39705882
0.42352941 0.42352941 0.42352941
0.4504902 0.4504902 0.4504902
0.47745098 0.47745098 0.47745098
0.50441176 0.50441176 0.50441176
0.52352941 0.52352941 0.52352941
0.11911765 0.11911765 0.11911765
0.11519608 0.11519608 0.11519608
0.11127451 0.11127451 0.11127451
0.11084559 0.11084559 0.11084559
0.13088235 0.13088235 0.13088235
0.15539216 0.15539216 0.15539216
0.17990196 0.17990196 0.17990196
0.20098039 0.20098039 0.20098039
0.22156863 0.22156863 0.22156863
0.24215686 0.24215686 0.24215686
0.25882353 0.25882353 0.25882353
0.2754902 0.2754902 0.2754902
0.29558824 0.29558824 0.29558824
0.31176471 0.31176471 0.31176471
0.32598039 0.32598039 0.32598039
0.33627451 0.33627451 0.33627451
0.3504902 0.3504902 0.3504902
0.36715686 0.36715686 0.36715686
0.38823529 0.38823529 0.38823529
0.41176471 0.41176471 0.41176471
0.43627451 0.43627451 0.43627451
0.46127451 0.46127451 0.46127451
0.49166667 0.49166667 0.49166667
0.51893382 0.51893382 0.51893382
0.53823529 0.53823529 0.53823529
0.15 0.15 0.15
0.15 0.15 0.15
0.14901961 0.14901961 0.14901961
0.14803922 0.14803922 0.14803922
0.16323529 0.16323529 0.16323529
0.18676471 0.18676471 0.18676471
0.2129902 0.2129902 0.2129902
0.23529412 0.23529412 0.23529412
0.25882353 0.25882353 0.25882353
0.28002451 0.28002451 0.28002451
0.29926471 0.29926471 0.29926471
0.31323529 0.31323529 0.31323529
0.32990196 0.32990196 0.32990196
0.34571078 0.34571078 0.34571078
0.35686275 0.35686275 0.35686275
0.36862745 0.36862745 0.36862745
0.38431373 0.38431373 0.38431373
0.39803922 0.39803922 0.39803922
0.41470588 0.41470588 0.41470588
0.43529412 0.43529412 0.43529412
0.45686275 0.45686275 0.45686275
0.48137255 0.48137255 0.48137255
0.50882353 0.50882353 0.50882353
0.53933824 0.53933824 0.53933824
0.56176471 0.56176471 0.56176471
0.18480392 0.18480392 0.18480392
0.18480392 0.18480392 0.18480392
0.18517157 0.18517157 0.18517157
0.19019608 0.19019608 0.19019608
0.2 0.2 0.2
0.22107843 0.22107843 0.22107843
0.24460784 0.24460784 0.24460784
0.26764706 0.26764706 0.26764706
0.29460784 0.29460784 0.29460784
0.32003676 0.32003676 0.32003676
0.33688725 0.33688725 0.33688725
0.35030637 0.35030637 0.35030637
0.36397059 0.36397059 0.36397059
0.3776348 0.3776348 0.3776348
0.39105392 0.39105392 0.39105392
0.40251225 0.40251225 0.40251225
0.41764706 0.41764706 0.41764706
0.43339461 0.43339461 0.43339461
0.44889706 0.44889706 0.44889706
0.46617647 0.46617647 0.46617647
0.48676471 0.48676471 0.48676471
0.50735294 0.50735294 0.50735294
0.53333333 0.53333333 0.53333333
0.56329657 0.56329657 0.56329657
0.58480392 0.58480392 0.58480392
0.21960784 0.21960784 0.21960784
0.21960784 0.21960784 0.21960784
0.22058824 0.22058824 0.22058824
0.23088235 0.23088235 0.23088235
0.23921569 0.23921569 0.23921569
0.25147059 0.25147059 0.25147059
0.27156863 0.27156863 0.27156863
0.29852941 0.29852941 0.29852941
0.32941176 0.32941176 0.32941176
0.35392157 0.35392157 0.35392157
0.37352941 0.37352941 0.37352941
0.3872549 0.3872549 0.3872549
0.4 0.4 0.4
0.4122549 0.4122549 0.4122549
0.42647059 0.42647059 0.42647059
0.43823529 0.43823529 0.43823529
0.45490196 0.45490196 0.45490196
0.46911765 0.46911765 0.46911765
0.48431373 0.48431373 0.48431373
0.50098039 0.50098039 0.50098039
0.51764706 0.51764706 0.51764706
0.53823529 0.53823529 0.53823529
0.56176471 0.56176471 0.56176471
0.59117647 0.59117647 0.59117647
0.61176471 0.61176471 0.61176471
0.25686275 0.25686275 0.25686275
0.25686275 0.25686275 0.25686275
0.26078431 0.26078431 0.26078431
0.26207108 0.26207108 0.26207108
0.26887255 0.26887255 0.26887255
0.27628676 0.27628676 0.27628676
0.29669118 0.29669118 0.29669118
0.3254902 0.3254902 0.3254902
0.35392157 0.35392157 0.35392157
0.38088235 0.38088235 0.38088235
0.40147059 0.40147059 0.40147059
0.41862745 0.41862745 0.41862745
0.43406863 0.43406863 0.43406863
0.4473652 0.4473652 0.4473652
0.46090686 0.46090686 0.46090686
0.47640931 0.47640931 0.47640931
0.48970588 0.48970588 0.48970588
0.50545343 0.50545343 0.50545343
0.52156863 0.52156863 0.52156863
0.53841912 0.53841912 0.53841912
0.55563725 0.55563725 0.55563725
0.5754902 0.5754902 0.5754902
0.59718137 0.59718137 0.59718137
0.62297794 0.62297794 0.62297794
0.64509804 0.64509804 0.64509804
0.29411765 0.29411765 0.29411765
0.29411765 0.29411765 0.29411765
0.29877451 0.29877451 0.29877451
0.30269608 0.30269608 0.30269608
0.30196078 0.30196078 0.30196078
0.30490196 0.30490196 0.30490196
0.32230392 0.32230392 0.32230392
0.34816176 0.34816176 0.34816176
0.3745098 0.3745098 0.3745098
0.39865196 0.39865196 0.39865196
0.42279412 0.42279412 0.42279412
0.44754902 0.44754902 0.44754902
0.46715686 0.46715686 0.46715686
0.48198529 0.48198529 0.48198529
0.49681373 0.49681373 0.49681373
0.51237745 0.51237745 0.51237745
0.52843137 0.52843137 0.52843137
0.5432598 0.5432598 0.5432598
0.55857843 0.55857843 0.55857843
0.5754902 0.5754902 0.5754902
0.59509804 0.59509804 0.59509804
0.6127451 0.6127451 0.6127451
0.63333333 0.63333333 0.63333333
0.65723039 0.65723039 0.65723039
0.67843137 0.67843137 0.67843137
0.33529412 0.33529412 0.33529412
0.33529412 0.33529412 0.33529412
0.33541667 0.33541667 0.33541667
0.33878676 0.33878676 0.33878676
0.33921569 0.33921569 0.33921569
0.33927696 0.33927696 0.33927696
0.34693627 0.34693627 0.34693627
0.37058824 0.37058824 0.37058824
0.39166667 0.39166667 0.39166667
0.41568627 0.41568627 0.41568627
0.44031863 0.44031863 0.44031863
0.46470588 0.46470588 0.46470588
0.49117647 0.49117647 0.49117647
0.51666667 0.51666667 0.51666667
0.53088235 0.53088235 0.53088235
0.54656863 0.54656863 0.54656863
0.5627451 0.5627451 0.5627451
0.57726716 0.57726716 0.57726716
0.59264706 0.59264706 0.59264706
0.60974265 0.60974265 0.60974265
0.62990196 0.62990196 0.62990196
0.65392157 0.65392157 0.65392157
0.6745098 0.6745098 0.6745098
0.69509804 0.69509804 0.69509804
0.7122549 0.7122549 0.7122549
0.37254902 0.37254902 0.37254902
0.37254902 0.37254902 0.37254902
0.37254902 0.37254902 0.37254902
0.37622549 0.37622549 0.37622549
0.37647059 0.37647059 0.37647059
0.37843137 0.37843137 0.37843137
0.37843137 0.37843137 0.37843137
0.3872549 0.3872549 0.3872549
0.40784314 0.40784314 0.40784314
0.43235294 0.43235294 0.43235294
0.45784314 0.45784314 0.45784314
0.48480392 0.48480392 0.48480392
0.50980392 0.50980392 0.50980392
0.53431373 0.53431373 0.53431373
0.55490196 0.55490196 0.55490196
0.57156863 0.57156863 0.57156863
0.58823529 0.58823529 0.58823529
0.60563725 0.60563725 0.60563725
0.62352941 0.62352941 0.62352941
0.64411765 0.64411765 0.64411765
0.66470588 0.66470588 0.66470588
0.68553922 0.68553922 0.68553922
0.70980392 0.70980392 0.70980392
0.73039216 0.73039216 0.73039216
0.74901961 0.74901961 0.74901961
0.41029412 0.41029412 0.41029412
0.41372549 0.41372549 0.41372549
0.41372549 0.41372549 0.41372549
0.41372549 0.41372549 0.41372549
0.41372549 0.41372549 0.41372549
0.41323529 0.41323529 0.41323529
0.41066176 0.41066176 0.41066176
0.40949755 0.40949755 0.40949755
0.42843137 0.42843137 0.42843137
0.45294118 0.45294118 0.45294118
0.47745098 0.47745098 0.47745098
0.50196078 0.50196078 0.50196078
0.52647059 0.52647059 0.52647059
0.55098039 0.55098039 0.55098039
0.57156863 0.57156863 0.57156863
0.59197304 0.59197304 0.59197304
0.60882353 0.60882353 0.60882353
0.62941176 0.62941176 0.62941176
0.64607843 0.64607843 0.64607843
0.66709559 0.66709559 0.66709559
0.69117647 0.69117647 0.69117647
0.71268382 0.71268382 0.71268382
0.73627451 0.73627451 0.73627451
0.76078431 0.76078431 0.76078431
0.77745098 0.77745098 0.77745098
0.45490196 0.45490196 0.45490196
0.45490196 0.45490196 0.45490196
0.45490196 0.45490196 0.45490196
0.45490196 0.45490196 0.45490196
0.45343137 0.45343137 0.45343137
0.45098039 0.45098039 0.45098039
0.44730392 0.44730392 0.44730392
0.44742647 0.44742647 0.44742647
0.45588235 0.45588235 0.45588235
0.47352941 0.47352941 0.47352941
0.49803922 0.49803922 0.49803922
0.52218137 0.52218137 0.52218137
0.54705882 0.54705882 0.54705882
0.57156863 0.57156863 0.57156863
0.59215686 0.59215686 0.59215686
0.61127451 0.61127451 0.61127451
0.62941176 0.62941176 0.62941176
0.65 0.65 0.65
0.66740196 0.66740196 0.66740196
0.69117647 0.69117647 0.69117647
0.71176471 0.71176471 0.71176471
0.73627451 0.73627451 0.73627451
0.75686275 0.75686275 0.75686275
0.78137255 0.78137255 0.78137255
0.80098039 0.80098039 0.80098039
0.5 0.5 0.5
0.5 0.5 0.5
0.49901961 0.49901961 0.49901961
0.49607843 0.49607843 0.49607843
0.49215686 0.49215686 0.49215686
0.4903799 0.4903799 0.4903799
0.48823529 0.48823529 0.48823529
0.48823529 0.48823529 0.48823529
0.49215686 0.49215686 0.49215686
0.50343137 0.50343137 0.50343137
0.52009804 0.52009804 0.52009804
0.54313725 0.54313725 0.54313725
0.56642157 0.56642157 0.56642157
0.58872549 0.58872549 0.58872549
0.6127451 0.6127451 0.6127451
0.63186275 0.63186275 0.63186275
0.65 0.65 0.65
0.67058824 0.67058824 0.67058824
0.69117647 0.69117647 0.69117647
0.71176471 0.71176471 0.71176471
0.73504902 0.73504902 0.73504902
0.75704657 0.75704657 0.75704657
0.78137255 0.78137255 0.78137255
0.80435049 0.80435049 0.80435049
0.82401961 0.82401961 0.82401961
0.54509804 0.54509804 0.54509804
0.54509804 0.54509804 0.54509804
0.54117647 0.54117647 0.54117647
0.5372549 0.5372549 0.5372549
0.53333333 0.53333333 0.53333333
0.52941176 0.52941176 0.52941176
0.52941176 0.52941176 0.52941176
0.52941176 0.52941176 0.52941176
0.53333333 0.53333333 0.53333333
0.53578431 0.53578431 0.53578431
0.55098039 0.55098039 0.55098039
0.57156863 0.57156863 0.57156863
0.58823529 0.58823529 0.58823529
0.60931373 0.60931373 0.60931373
0.63333333 0.63333333 0.63333333
0.65392157 0.65392157 0.65392157
0.67058824 0.67058824 0.67058824
0.69117647 0.69117647 0.69117647
0.71568627 0.71568627 0.71568627
0.73627451 0.73627451 0.73627451
0.75882353 0.75882353 0.75882353
0.78137255 0.78137255 0.78137255
0.80588235 0.80588235 0.80588235
0.83039216 0.83039216 0.83039216
0.85098039 0.85098039 0.85098039
0.58627451 0.58627451 0.58627451
0.58627451 0.58627451 0.58627451
0.58627451 0.58627451 0.58627451
0.58480392 0.58480392 0.58480392
0.58088235 0.58088235 0.58088235
0.57696078 0.57696078 0.57696078
0.57512255 0.57512255 0.57512255
0.5745098 0.5745098 0.5745098
0.5745098 0.5745098 0.5745098
0.5745098 0.5745098 0.5745098
0.58541667 0.58541667 0.58541667
0.60245098 0.60245098 0.60245098
0.61911765 0.61911765 0.61911765
0.63578431 0.63578431 0.63578431
0.65392157 0.65392157 0.65392157
0.6745098 0.6745098 0.6745098
0.69754902 0.69754902 0.69754902
0.71813725 0.71813725 0.71813725
0.73872549 0.73872549 0.73872549
0.76078431 0.76078431 0.76078431
0.78382353 0.78382353 0.78382353
0.80618873 0.80618873 0.80618873
0.83002451 0.83002451 0.83002451
0.85098039 0.85098039 0.85098039
0.86911765 0.86911765 0.86911765
0.63137255 0.63137255 0.63137255
0.63235294 0.63235294 0.63235294
0.63235294 0.63235294 0.63235294
0.63235294 0.63235294 0.63235294
0.62843137 0.62843137 0.62843137
0.62794118 0.62794118 0.62794118
0.6245098 0.6245098 0.6245098
0.62058824 0.62058824 0.62058824
0.62058824 0.62058824 0.62058824
0.61605392 0.61605392 0.61605392
0.62132353 0.62132353 0.62132353
0.63823529 0.63823529 0.63823529
0.65637255 0.65637255 0.65637255
0.675 0.675 0.675
0.69142157 0.69142157 0.69142157
0.70453431 0.70453431 0.70453431
0.7245098 0.7245098 0.7245098
0.74448529 0.74448529 0.74448529
0.76470588 0.76470588 0.76470588
0.78615196 0.78615196 0.78615196
0.80833333 0.80833333 0.80833333
0.83039216 0.83039216 0.83039216
0.85098039 0.85098039 0.85098039
0.87156863 0.87156863 0.87156863
0.8872549 0.8872549 0.8872549
0.67990196 0.67990196 0.67990196
0.68039216 0.68039216 0.68039216
0.68296569 0.68296569 0.68296569
0.68039216 0.68039216 0.68039216
0.67990196 0.67990196 0.67990196
0.67598039 0.67598039 0.67598039
0.67598039 0.67598039 0.67598039
0.67077206 0.67077206 0.67077206
0.66470588 0.66470588 0.66470588
0.66047794 0.66047794 0.66047794
0.65796569 0.65796569 0.65796569
0.6754902 0.6754902 0.6754902
0.69607843 0.69607843 0.69607843
0.71317402 0.71317402 0.71317402
0.72953431 0.72953431 0.72953431
0.7408701 0.7408701 0.7408701
0.75882353 0.75882353 0.75882353
0.77352941 0.77352941 0.77352941
0.79178922 0.79178922 0.79178922
0.80980392 0.80980392 0.80980392
0.83039216 0.83039216 0.83039216
0.85098039 0.85098039 0.85098039
0.87156863 0.87156863 0.87156863
0.89215686 0.89215686 0.89215686
0.90490196 0.90490196 0.90490196
0.73137255 0.73137255 0.73137255
0.73137255 0.73137255 0.73137255
0.73137255 0.73137255 0.73137255
0.73137255 0.73137255 0.73137255
0.72941176 0.72941176 0.72941176
0.72745098 0.72745098 0.72745098
0.7245098 0.7245098 0.7245098
0.71960784 0.71960784 0.71960784
0.71176471 0.71176471 0.71176471
0.70784314 0.70784314 0.70784314
0.70392157 0.70392157 0.70392157
0.71323529 0.71323529 0.71323529
0.73333333 0.73333333 0.73333333
0.75367647 0.75367647 0.75367647
0.76715686 0.76715686 0.76715686
0.77867647 0.77867647 0.77867647
0.79215686 0.79215686 0.79215686
0.80955882 0.80955882 0.80955882
0.825 0.825 0.825
0.83676471 0.83676471 0.83676471
0.85490196 0.85490196 0.85490196
0.87156863 0.87156863 0.87156863
0.89215686 0.89215686 0.89215686
0.9127451 0.9127451 0.9127451
0.9254902 0.9254902 0.9254902
0.77892157 0.77892157 0.77892157
0.78106618 0.78106618 0.78106618
0.78235294 0.78235294 0.78235294
0.77892157 0.77892157 0.77892157
0.77892157 0.77892157 0.77892157
0.77800245 0.77800245 0.77800245
0.775 0.775 0.775
0.77107843 0.77107843 0.77107843
0.76715686 0.76715686 0.76715686
0.76109069 0.76109069 0.76109069
0.75931373 0.75931373 0.75931373
0.76280637 0.76280637 0.76280637
0.7747549 0.7747549 0.7747549
0.79068627 0.79068627 0.79068627
0.80441176 0.80441176 0.80441176
0.81519608 0.81519608 0.81519608
0.82892157 0.82892157 0.82892157
0.84344363 0.84344363 0.84344363
0.85735294 0.85735294 0.85735294
0.86372549 0.86372549 0.86372549
0.87769608 0.87769608 0.87769608
0.89564951 0.89564951 0.89564951
0.9127451 0.9127451 0.9127451
0.93186275 0.93186275 0.93186275
0.94558824 0.94558824 0.94558824
0.82745098 0.82745098 0.82745098
0.83039216 0.83039216 0.83039216
0.82965686 0.82965686 0.82965686
0.82745098 0.82745098 0.82745098
0.82647059 0.82647059 0.82647059
0.82352941 0.82352941 0.82352941
0.82352941 0.82352941 0.82352941
0.82254902 0.82254902 0.82254902
0.81862745 0.81862745 0.81862745
0.81580882 0.81580882 0.81580882
0.81470588 0.81470588 0.81470588
0.8185049 0.8185049 0.8185049
0.82254902 0.82254902 0.82254902
0.8310049 0.8310049 0.8310049
0.84215686 0.84215686 0.84215686
0.85245098 0.85245098 0.85245098
0.86372549 0.86372549 0.86372549
0.87977941 0.87977941 0.87977941
0.8875 0.8875 0.8875
0.88823529 0.88823529 0.88823529
0.90196078 0.90196078 0.90196078
0.91666667 0.91666667 0.91666667
0.93406863 0.93406863 0.93406863
0.95061275 0.95061275 0.95061275
0.95588235 0.95588235 0.95588235
0.87254902 0.87254902 0.87254902
0.87401961 0.87401961 0.87401961
0.87365196 0.87365196 0.87365196
0.87254902 0.87254902 0.87254902
0.86862745 0.86862745 0.86862745
0.86685049 0.86685049 0.86685049
0.86470588 0.86470588 0.86470588
0.865625 0.865625 0.865625
0.86715686 0.86715686 0.86715686
0.86617647 0.86617647 0.86617647
0.86678922 0.86678922 0.86678922
0.86862745 0.86862745 0.86862745
0.87058824 0.87058824 0.87058824
0.87647059 0.87647059 0.87647059
0.88333333 0.88333333 0.88333333
0.88970588 0.88970588 0.88970588
0.90245098 0.90245098 0.90245098
0.91182598 0.91182598 0.91182598
0.9127451 0.9127451 0.9127451
0.9127451 0.9127451 0.9127451
0.9245098 0.9245098 0.9245098
0.94068627 0.94068627 0.94068627
0.9560049 0.9560049 0.9560049
0.96856618 0.96856618 0.96856618
0.97009804 0.97009804 0.97009804
0.90588235 0.90588235 0.90588235
0.90980392 0.90980392 0.90980392
0.90980392 0.90980392 0.90980392
0.90588235 0.90588235 0.90588235
0.9 0.9 0.9
0.89754902 0.89754902 0.89754902
0.89411765 0.89411765 0.89411765
0.89558824 0.89558824 0.89558824
0.89803922 0.89803922 0.89803922
0.9004902 0.9004902 0.9004902
0.90196078 0.90196078 0.90196078
0.90196078 0.90196078 0.90196078
0.90196078 0.90196078 0.90196078
0.90637255 0.90637255 0.90637255
0.9127451 0.9127451 0.9127451
0.92303922 0.92303922 0.92303922
0.93333333 0.93333333 0.93333333
0.93333333 0.93333333 0.93333333
0.92941176 0.92941176 0.92941176
0.92941176 0.92941176 0.92941176
0.94117647 0.94117647 0.94117647
0.95784314 0.95784314 0.95784314
0.9745098 0.9745098 0.9745098
0.98284314 0.98284314 0.98284314
0.98039216 0.98039216 0.98039216
0.041666667 0.041666667 0.041666667
0.044117647 0.044117647 0.044117647
0.045588235 0.045588235 0.045588235
0.042156863 0.042156863 0.042156863
0.044117647 0.044117647 0.044117647
0.05245098 0.05245098 0.05245098
0.064828431 0.064828431 0.064828431
0.071507353 0.071507353 0.071507353
0.084803922 0.084803922 0.084803922
0.11084559 0.11084559 0.11084559
0.13235294 0.13235294 0.13235294
0.1504902 0.1504902 0.1504902
0.17573529 0.17573529 0.17573529
0.19705882 0.19705882 0.19705882
0.22009804 0.22009804 0.22009804
0.24515931 0.24515931 0.24515931
0.27058824 0.27058824 0.27058824
0.30147059 0.30147059 0.30147059
0.32745098 0.32745098 0.32745098
0.35196078 0.35196078 0.35196078
0.37916667 0.37916667 0.37916667
0.40931373 0.40931373 0.40931373
0.44019608 0.44019608 0.44019608
0.46623775 0.46623775 0.46623775
0.48627451 0.48627451 0.48627451
0.041666667 0.041666667 0.041666667
0.044117647 0.044117647 0.044117647
0.04620098 0.04620098 0.04620098
0.050988051 0.050988051 0.050988051
0.056832108 0.056832108 0.056832108
0.067156863 0.067156863 0.067156863
0.083363971 0.083363971 0.083363971
0.094523591 0.094523591 0.094523591
0.10931373 0.10931373 0.10931373
0.12745098 0.12745098 0.12745098
0.14748775 0.14748775 0.14748775
0.17188266 0.17188266 0.17188266
0.19258578 0.19258578 0.19258578
0.20833333 0.20833333 0.20833333
0.22892157 0.22892157 0.22892157
0.25075061 0.25075061 0.25075061
0.27696078 0.27696078 0.27696078
0.30392157 0.30392157 0.30392157
0.33088235 0.33088235 0.33088235
0.35881587 0.35881587 0.35881587
0.38872549 0.38872549 0.38872549
0.41960784 0.41960784 0.41960784
0.44693627 0.44693627 0.44693627
0.47502298 0.47502298 0.47502298
0.49656863 0.49656863 0.49656863
0.042647059 0.042647059 0.042647059
0.04486826 0.04486826 0.04486826
0.054564951 0.054564951 0.054564951
0.066620711 0.066620711 0.066620711
0.076960784 0.076960784 0.076960784
0.091988358 0.091988358 0.091988358
0.1091299 0.1091299 0.1091299
0.12113971 0.12113971 0.12113971
0.13590686 0.13590686 0.13590686
0.15127145 0.15127145 0.15127145
0.17061887 0.17061887 0.17061887
0.1930913 0.1930913 0.1930913
0.21372549 0.21372549 0.21372549
0.22807904 0.22807904 0.22807904
0.24705882 0.24705882 0.24705882
0.27009804 0.27009804 0.27009804
0.29215686 0.29215686 0.29215686
0.3185049 0.3185049 0.3185049
0.34436275 0.34436275 0.34436275
0.37205882 0.37205882 0.37205882
0.39901961 0.39901961 0.39901961
0.42726716 0.42726716 0.42726716
0.45686275 0.45686275 0.45686275
0.48382353 0.48382353 0.48382353
