site/assets/luts/natron-haldclut--fuji-800z--2c9760989.cube
# LUTr-Project: LUTr — LUTrepository
# LUTr-Schema-Version: 1
# LUTr-ID: natron-haldclut--fuji-800z--2c9760989
# LUTr-Title: fuji 800z +
# LUTr-Collection: Natron HaldCLUT
# LUTr-Collection-ID: natron-haldclut-presets
# LUTr-Source: https://github.com/NatronGitHub/clut
# LUTr-Source-File: submissions/natron-haldclut-presets/negative_new/fuji_800z_+.png
# LUTr-Source-Format: PNG
# LUTr-Source-SHA256: 78f6233527d64386ef863008fbfa87e803a86bdb71afe169b436e44650440447
# LUTr-License: CC-BY-SA-4.0
# LUTr-License-URL: https://github.com/NatronGitHub/clut#license
# LUTr-Tags: creative, film, film-emulation, hald-clut, natron, png, cube
# LUTr-Transform-Class: film-emulation
# LUTr-Input-Color-Space: srgb
# LUTr-Output-Color-Space: srgb
# LUTr-Color-Space-Confidence: assumed-display-referred
# LUTr-Conversion-Method: PNG LUT image decoded at 16-bit and sampled to 25x25x25 3D CUBE
# LUTr-Conversion-Date: 2026-07-27
# LUTr-Conversion-Tool: LUTr scripts/convert-all-to-cube.mjs
# LUTr-Conversion-Grid: 25x25x25
# LUTr-Note: Preserve this metadata and the upstream license notices when redistributing.
TITLE "fuji 800z +"
LUT_3D_SIZE 25
DOMAIN_MIN 0 0 0
DOMAIN_MAX 1 1 1
0.12941176 0.10196078 0.082352941
0.15 0.10588235 0.08627451
0.17058824 0.10588235 0.091176471
0.19509804 0.10588235 0.094117647
0.21568627 0.10196078 0.090196078
0.24019608 0.09754902 0.085784314
0.26470588 0.087254902 0.075490196
0.30539216 0.08627451 0.079901961
0.34901961 0.082352941 0.090196078
0.39656863 0.07745098 0.093137255
0.44411765 0.061764706 0.081372549
0.49166667 0.044117647 0.075
0.54313725 0.039215686 0.074509804
0.60245098 0.020098039 0.066666667
0.65784314 0.020588235 0.06372549
0.71470588 0.014215686 0.057352941
0.76862745 0 0.050980392
0.80588235 0.012745098 0.050980392
0.84705882 0.028431373 0.042156863
0.88823529 0.042647059 0.028431373
0.92352941 0.041176471 0.02745098
0.9627451 0.031372549 0.031862745
0.98333333 0.054901961 0.028431373
0.98970588 0.1 0.016666667
1 0.1372549 0
0.12941176 0.10686275 0.084803922
0.14699755 0.11078431 0.08872549
0.17058824 0.11617647 0.094117647
0.19117647 0.11862745 0.096568627
0.21446078 0.11421569 0.092156863
0.23676471 0.11078431 0.086090686
0.26372549 0.11078431 0.082965686
0.30238971 0.10839461 0.081433824
0.34656863 0.10294118 0.083823529
0.39319853 0.096568627 0.089215686
0.43958333 0.084803922 0.079534314
0.48921569 0.073039216 0.074816176
0.54117647 0.068137255 0.074509804
0.60030637 0.048223039 0.068811275
0.65723039 0.03002451 0.06372549
0.71323529 0.01752451 0.055821078
0.76470588 0.027941176 0.047058824
0.80588235 0.029411765 0.044607843
0.84767157 0.03370098 0.039338235
0.89068627 0.044791667 0.024203431
0.92352941 0.048039216 0.025
0.95588235 0.061764706 0.027144608
0.97879902 0.086397059 0.023897059
0.9872549 0.12604167 0.013296569
0.99607843 0.15392157 0.0039215686
0.13823529 0.12352941 0.091176471
0.14546569 0.12536765 0.093014706
0.16568627 0.13039216 0.095098039
0.18713235 0.13039216 0.097181373
0.21176471 0.13088235 0.094117647
0.23627451 0.1314951 0.091176471
0.26372549 0.13529412 0.087990196
0.30061275 0.13235294 0.084436275
0.34117647 0.12843137 0.083333333
0.38811275 0.12389706 0.081372549
0.4370098 0.11642157 0.084558824
0.48676471 0.10625 0.075
0.53921569 0.10147059 0.074509804
0.59889706 0.085661765 0.070588235
0.65686275 0.069362745 0.06372549
0.7122549 0.065808824 0.05245098
0.75980392 0.074509804 0.046078431
0.80196078 0.07879902 0.038235294
0.84705882 0.07377451 0.029411765
0.88737745 0.072426471 0.020955882
0.91960784 0.087254902 0.019117647
0.94558824 0.10686275 0.018627451
0.97132353 0.12745098 0.016421569
0.98578431 0.15306373 0.010294118
0.99607843 0.17941176 0.0039215686
0.14460784 0.14019608 0.094117647
0.14491422 0.14050245 0.094117647
0.15882353 0.1442402 0.094117647
0.18290441 0.14460784 0.094117647
0.20980392 0.15 0.09754902
0.23327206 0.15588235 0.09754902
0.26372549 0.15980392 0.09375
0.30373775 0.15802696 0.084803922
0.34117647 0.15539216 0.078431373
0.38480392 0.15165441 0.074509804
0.43235294 0.1439951 0.074877451
0.48382353 0.13970588 0.074509804
0.53921569 0.13553922 0.074509804
0.59552696 0.12696078 0.070588235
0.65392157 0.12267157 0.061151961
0.70931373 0.12273284 0.046078431
0.75686275 0.12647059 0.035784314
0.80196078 0.12714461 0.029411765
0.84313725 0.12389706 0.023897059
0.88088235 0.12996324 0.023529412
0.91789216 0.13848039 0.017647059
0.94650735 0.15539216 0.011764706
0.96752451 0.17254902 0.0083333333
0.98333333 0.19313725 0.0042279412
0.99607843 0.21029412 0
0.15098039 0.1627451 0.1
0.1497549 0.16029412 0.09877451
0.15294118 0.15931373 0.096078431
0.17916667 0.16642157 0.098039216
0.20490196 0.17352941 0.098039216
0.22892157 0.18063725 0.1
0.26323529 0.18921569 0.095588235
0.3 0.18946078 0.085539216
0.34117647 0.18431373 0.078431373
0.38235294 0.18039216 0.068137255
0.43039216 0.18039216 0.071078431
0.48357843 0.17867647 0.074509804
0.5372549 0.17745098 0.074509804
0.59289216 0.1745098 0.069852941
0.64803922 0.1745098 0.054901961
0.70343137 0.1745098 0.038970588
0.75490196 0.17843137 0.025490196
0.79803922 0.17843137 0.018382353
0.83676471 0.18088235 0.022058824
0.87647059 0.18578431 0.024019608
0.91470588 0.19411765 0.017647059
0.95416667 0.20637255 0.0075980392
0.97696078 0.22009804 0.0039215686
0.98823529 0.23676471 0
0.99215686 0.24509804 0
0.15294118 0.19313725 0.11421569
0.15557598 0.19362745 0.10784314
0.16188725 0.19007353 0.10245098
0.1721201 0.18970588 0.098958333
0.19534314 0.19509804 0.10147059
0.22156863 0.20238971 0.10202206
0.25980392 0.21617647 0.10012255
0.29430147 0.225 0.08057598
0.33333333 0.22156863 0.074019608
0.37843137 0.22156863 0.070588235
0.4245098 0.2254902 0.075490196
0.47598039 0.22591912 0.078431373
0.53137255 0.22598039 0.072058824
0.58719363 0.22598039 0.06127451
0.64203431 0.22598039 0.044607843
0.69705882 0.22598039 0.027941176
0.74852941 0.22990196 0.01127451
0.79148284 0.23235294 0.010110294
0.83137255 0.23517157 0.020588235
0.87254902 0.24117647 0.023529412
0.91151961 0.2495098 0.01372549
0.95091912 0.25735294 0.0068627451
0.97928922 0.26372549 0
0.98400735 0.26991422 0
0.9877451 0.27647059 0
0.15686275 0.22352941 0.11764706
0.16041667 0.2245098 0.11666667
0.16862745 0.2245098 0.1120098
0.17598039 0.22058824 0.10539216
0.18284314 0.21764706 0.099509804
0.21862745 0.22941176 0.10637255
0.25759804 0.24411765 0.10784314
0.28713235 0.25735294 0.077696078
0.32941176 0.2627451 0.070588235
0.37732843 0.2627451 0.070588235
0.4245098 0.26740196 0.074754902
0.47561275 0.27316176 0.069117647
0.52794118 0.27352941 0.057352941
0.58296569 0.27352941 0.044607843
0.63823529 0.27352941 0.030392157
0.69178922 0.27561275 0.017647059
0.74509804 0.27745098 0.0039215686
0.7872549 0.28137255 0.006372549
0.82843137 0.28553922 0.017647059
0.86875 0.29007353 0.019730392
0.90833333 0.29607843 0.010784314
0.94362745 0.30196078 0.00085784314
0.97156863 0.30588235 0
0.98039216 0.30980392 0
0.98137255 0.31372549 0
0.15686275 0.25539216 0.12156863
0.16023284 0.25539216 0.11764706
0.16960784 0.25330882 0.11372549
0.17598039 0.25147059 0.11127451
0.1870098 0.24754902 0.10735294
0.21354167 0.25618873 0.11158088
0.2504902 0.27193627 0.10882353
0.28137255 0.28339461 0.087745098
0.32401961 0.29460784 0.075980392
0.37395833 0.3033701 0.065747549
0.4245098 0.3127451 0.056004902
0.47205882 0.32322304 0.043321078
0.52745098 0.325 0.031617647
0.58284314 0.325 0.024203431
0.63431373 0.325 0.020220588
0.68823529 0.325 0.013296569
0.73970588 0.32892157 0.0039215686
0.78235294 0.32892157 0.0039215686
0.82352941 0.3317402 0.012377451
0.86323529 0.33529412 0.012071078
0.90441176 0.33995098 0.0044117647
0.93333333 0.34362745 0
0.96127451 0.35 0
0.98002451 0.35490196 0
0.98431373 0.35637255 0
0.15294118 0.28235294 0.11764706
0.15931373 0.28235294 0.11764706
0.16960784 0.28235294 0.11764706
0.17990196 0.28235294 0.12156863
0.19019608 0.27843137 0.11764706
0.21323529 0.28676471 0.12156863
0.24019608 0.29705882 0.11470588
0.27107843 0.31127451 0.1004902
0.30980392 0.32156863 0.090196078
0.35980392 0.33431373 0.071078431
0.41764706 0.35098039 0.044117647
0.4754902 0.37156863 0.017156863
0.52745098 0.37647059 0.0078431373
0.57892157 0.37647059 0.011764706
0.63039216 0.37647059 0.011764706
0.68186275 0.37647059 0.010294118
0.73333333 0.37647059 0.0078431373
0.77598039 0.37647059 0.0039215686
0.81568627 0.37745098 0.0078431373
0.85686275 0.38039216 0.0044117647
0.89607843 0.38235294 0
0.92647059 0.38480392 0
0.95392157 0.39117647 0
0.97941176 0.39754902 0
0.98823529 0.40392157 0
0.14901961 0.31176471 0.12009804
0.15539216 0.31268382 0.12401961
0.16960784 0.31568627 0.12794118
0.17990196 0.31354167 0.12824755
0.19019608 0.30931373 0.12794118
0.20637255 0.31109069 0.1276348
0.23272059 0.32340686 0.11862745
0.25686275 0.33670343 0.10833333
0.29166667 0.35098039 0.094117647
0.34859069 0.3661152 0.07745098
0.40735294 0.38578431 0.054411765
0.46519608 0.40637255 0.025980392
0.52107843 0.42034314 0.0051470588
0.57518382 0.421875 0.0078431373
0.63039216 0.42401961 0.0078431373
0.68039216 0.42794118 0.0078431373
0.72696078 0.42794118 0.0053921569
0.76905637 0.42794118 0.0039215686
0.80931373 0.4254902 0.0039215686
0.84705882 0.4254902 0.0017769608
0.88455882 0.42156863 0
0.91648284 0.42598039 0
0.94607843 0.43296569 0
0.97604167 0.44264706 0
0.99215686 0.44754902 0
0.14901961 0.35294118 0.13039216
0.15539216 0.35196078 0.13431373
0.16568627 0.35196078 0.13897059
0.17892157 0.34852941 0.13860294
0.18627451 0.34215686 0.13578431
0.19742647 0.33676471 0.13382353
0.2245098 0.34705882 0.12647059
0.25147059 0.36066176 0.11715686
0.28529412 0.37843137 0.10686275
0.33860294 0.39607843 0.094730392
0.39534314 0.41495098 0.073529412
0.45134804 0.43333333 0.046568627
0.50833333 0.45 0.017647059
0.56568627 0.45931373 0.0078431373
0.62377451 0.46862745 0.0078431373
0.67696078 0.4745098 0.0039215686
0.72156863 0.4754902 0.0039215686
0.7627451 0.47941176 0.0039215686
0.80220588 0.4747549 0.0031862745
0.83762255 0.46813725 0
0.87352941 0.4627451 0.0039215686
0.90637255 0.46715686 0.0039215686
0.93823529 0.4745098 0.0039215686
0.96911765 0.48345588 0.00098039216
0.98823529 0.48921569 0
0.14166667 0.39019608 0.1372549
0.15147059 0.38805147 0.14099265
0.16188725 0.38676471 0.14473039
0.17254902 0.38241422 0.14466912
0.18284314 0.3747549 0.14117647
0.19705882 0.37107843 0.14068627
0.22071078 0.37401961 0.1377451
0.24785539 0.38823529 0.13088235
0.28235294 0.40294118 0.12107843
0.32647059 0.42303922 0.10814951
0.38198529 0.44276961 0.091544118
0.43768382 0.46035539 0.063235294
0.49313725 0.48088235 0.032843137
0.54895833 0.49656863 0.010845588
0.60686275 0.50686275 0.0040441176
0.6627451 0.51323529 0.0039215686
0.71421569 0.52352941 0.0039215686
0.75882353 0.52696078 0.0039215686
0.79644608 0.52696078 0.0039215686
0.83382353 0.51617647 0.0039215686
0.86862745 0.50784314 0.0039215686
0.90343137 0.51133578 0.0039215686
0.93431373 0.51568627 0.0039215686
0.96390931 0.5213848 0.0039215686
0.98088235 0.52401961 0.0034313725
0.13137255 0.42352941 0.14117647
0.14166667 0.42156863 0.14117647
0.15441176 0.41764706 0.14558824
0.16789216 0.41593137 0.15073529
0.18235294 0.41176471 0.15098039
0.19705882 0.40759804 0.15098039
0.21568627 0.40392157 0.1495098
0.24632353 0.41519608 0.14166667
0.28039216 0.43137255 0.13137255
0.31446078 0.44877451 0.12107843
0.3627451 0.46813725 0.10784314
0.42058824 0.4872549 0.079901961
0.47843137 0.50980392 0.046078431
0.53186275 0.53210784 0.0125
0.59215686 0.54558824 0.0039215686
0.65392157 0.55833333 0.0058823529
0.71372549 0.57058824 0.0078431373
0.75490196 0.57254902 0.0078431373
0.79362745 0.56764706 0.0078431373
0.82990196 0.55735294 0.0098039216
0.86568627 0.55294118 0.0068627451
0.8995098 0.55294118 0.0078431373
0.93039216 0.55441176 0.006372549
0.95392157 0.55833333 0.0039215686
0.97058824 0.56078431 0.0039215686
0.11813725 0.45686275 0.13823529
0.13400735 0.45686275 0.14558824
0.14963235 0.45686275 0.15343137
0.16415441 0.45294118 0.15735294
0.18014706 0.44901961 0.15735294
0.19613971 0.44460784 0.15735294
0.21078431 0.43811275 0.15686275
0.23921569 0.44607843 0.14803922
0.27401961 0.46029412 0.14117647
0.30490196 0.47665441 0.13137255
0.34105392 0.49362745 0.12144608
0.39993873 0.51372549 0.096568627
0.46004902 0.53431373 0.066176471
0.51617647 0.55490196 0.039705882
0.58051471 0.5754902 0.022058824
0.64754902 0.59607843 0.016666667
0.70980392 0.61372549 0.012254902
0.75490196 0.61372549 0.0078431373
0.79509804 0.60490196 0.0088235294
0.82898284 0.59852941 0.01182598
0.86470588 0.59803922 0.0056372549
0.89901961 0.59411765 0.0044117647
0.92647059 0.59411765 0.0078431373
0.94803922 0.59803922 0.0039215686
0.96421569 0.59803922 0.0039215686
0.12843137 0.49509804 0.15196078
0.13186275 0.49803922 0.15772059
0.14387255 0.49705882 0.16372549
0.15992647 0.49411765 0.16470588
0.17843137 0.49019608 0.16470588
0.19276961 0.48198529 0.16335784
0.20759804 0.4747549 0.16004902
0.23186275 0.47512255 0.15477941
0.26372549 0.49117647 0.14803922
0.29791667 0.50539216 0.14166667
0.32916667 0.52058824 0.13529412
0.38186275 0.53823529 0.11973039
0.44411765 0.55882353 0.095098039
0.50294118 0.57806373 0.070955882
0.56691176 0.59607843 0.056127451
0.63186275 0.61666667 0.042647059
0.69607843 0.6372549 0.025490196
0.75343137 0.64987745 0.0089460784
0.79509804 0.64607843 0.0058823529
0.82598039 0.64227941 0.011764706
0.86470588 0.64313725 0.0039215686
0.89558824 0.63786765 0.0044117647
0.92279412 0.63529412 0.0078431373
0.94473039 0.63921569 0.0039215686
0.95490196 0.63921569 0.0039215686
0.13480392 0.53529412 0.16617647
0.13817402 0.53682598 0.17101716
0.14460784 0.53529412 0.17365196
0.16029412 0.53529412 0.17254902
0.17647059 0.53137255 0.17254902
0.19283088 0.52303922 0.16991422
0.20796569 0.5127451 0.16617647
0.22640931 0.50539216 0.1622549
0.2627451 0.51813725 0.15980392
0.29846814 0.53480392 0.15496324
0.33480392 0.54938725 0.1495098
0.378125 0.56292892 0.14068627
0.42990196 0.58014706 0.12205882
0.49019608 0.6 0.10196078
0.55196078 0.61703431 0.089828431
0.61317402 0.63670343 0.07745098
0.6754902 0.65392157 0.050490196
0.740625 0.6745098 0.022058824
0.79509804 0.68786765 0.0013480392
0.82941176 0.68541667 0.0075367647
0.86397059 0.68431373 0.0019607843
0.89166667 0.68008578 0.0078431373
0.92254902 0.67647059 0.006372549
0.94117647 0.68039216 0.0039215686
0.94362745 0.68039216 0.0039215686
0.14117647 0.57254902 0.17647059
0.14754902 0.57647059 0.18039216
0.15784314 0.57647059 0.18039216
0.16470588 0.57303922 0.18039216
0.17647059 0.57254902 0.17843137
0.19705882 0.56421569 0.17696078
0.21764706 0.55392157 0.17647059
0.23823529 0.54901961 0.17647059
0.26666667 0.55294118 0.17254902
0.3 0.56323529 0.16862745
0.3372549 0.57745098 0.16372549
0.37843137 0.59117647 0.15686275
0.41764706 0.60392157 0.14705882
0.47352941 0.62058824 0.13284314
0.53137255 0.6372549 0.12254902
0.59166667 0.65392157 0.1122549
0.65098039 0.67058824 0.098039216
0.70882353 0.68480392 0.087745098
0.76960784 0.70294118 0.064705882
0.8245098 0.72058824 0.032843137
0.85686275 0.72156863 0.029411765
0.88823529 0.72156863 0.022058824
0.92254902 0.71764706 0.0039215686
0.93088235 0.71911765 0.0053921569
0.93333333 0.72156863 0.0078431373
0.14509804 0.60980392 0.18676471
0.15545343 0.61280637 0.18976716
0.17095588 0.61372549 0.1935049
0.18480392 0.61372549 0.19705882
0.19509804 0.60980392 0.19313725
0.20980392 0.60324755 0.19283088
0.22794118 0.59620098 0.19068627
0.24852941 0.5911152 0.19068627
0.26666667 0.58382353 0.18676471
0.29846814 0.59019608 0.18039216
0.33786765 0.60441176 0.17745098
0.38088235 0.61617647 0.17616422
0.42205882 0.62965686 0.17328431
0.46519608 0.64332108 0.17432598
0.51997549 0.65784314 0.16764706
0.5783701 0.67303922 0.15680147
0.63676471 0.6872549 0.14558824
0.69307598 0.70147059 0.13676471
0.74791667 0.71666667 0.12573529
0.80422794 0.7372549 0.10410539
0.84411765 0.74803922 0.09877451
0.87794118 0.75030637 0.081188725
0.91617647 0.75428922 0.065808824
0.93186275 0.75882353 0.065196078
0.93186275 0.75882353 0.069117647
0.15490196 0.64705882 0.19607843
0.17647059 0.65 0.20477941
0.19534314 0.65 0.21078431
0.20931373 0.65 0.21372549
0.22205882 0.64607843 0.21323529
0.23382353 0.64166667 0.20980392
0.24509804 0.63455882 0.20588235
0.26115196 0.62990196 0.20294118
0.27843137 0.62352941 0.19901961
0.30122549 0.61813725 0.19791667
0.34387255 0.63137255 0.1997549
0.3872549 0.6442402 0.20294118
0.43039216 0.65539216 0.20686275
0.47401961 0.66911765 0.21078431
0.52156863 0.68014706 0.20857843
0.57352941 0.69362745 0.20245098
0.63039216 0.70784314 0.19215686
0.68186275 0.72205882 0.18186275
0.73333333 0.7372549 0.17181373
0.78394608 0.75441176 0.1692402
0.83039216 0.77107843 0.17254902
0.87242647 0.78382353 0.16960784
0.90686275 0.79044118 0.16053922
0.93627451 0.79546569 0.15355392
0.94607843 0.79607843 0.15294118
0.2127451 0.68431373 0.2372549
0.21960784 0.68480392 0.2372549
0.23296569 0.68737745 0.24031863
0.2372549 0.684375 0.2338848
0.24411765 0.68063725 0.23039216
0.25876225 0.67647059 0.23082108
0.28235294 0.67267157 0.23676471
0.30294118 0.66893382 0.2377451
0.31960784 0.66421569 0.2372549
0.34019608 0.66078431 0.2372549
0.36617647 0.66213235 0.23247549
0.39797794 0.66911765 0.23033088
0.44068627 0.68284314 0.23970588
0.4877451 0.69405637 0.24558824
0.53272059 0.70735294 0.24522059
0.578125 0.71783088 0.24148284
0.62352941 0.73186275 0.23333333
0.66942402 0.74479167 0.22696078
0.72218137 0.76041667 0.22022059
0.77058824 0.775 0.22107843
0.81642157 0.79313725 0.23088235
0.86176471 0.80827206 0.24068627
0.89865196 0.82120098 0.24031863
0.93400735 0.82745098 0.2377451
0.96029412 0.83382353 0.23137255
0.27058824 0.72156863 0.2745098
0.27254902 0.72352941 0.2745098
0.28137255 0.725 0.27598039
0.28431373 0.72156863 0.26887255
0.28921569 0.71764706 0.26764706
0.30122549 0.71372549 0.26666667
0.32352941 0.71372549 0.27352941
0.34411765 0.70980392 0.27573529
0.36078431 0.70588235 0.2745098
0.38137255 0.70465686 0.2745098
0.40245098 0.70245098 0.27352941
0.42990196 0.70759804 0.27230392
0.46568627 0.71568627 0.27941176
0.50392157 0.72598039 0.28480392
0.54656863 0.73823529 0.28823529
0.58823529 0.74852941 0.28676471
0.62941176 0.75882353 0.27843137
0.67058824 0.77034314 0.27328431
0.71372549 0.78382353 0.27303922
0.75661765 0.79901961 0.27843137
0.80196078 0.81372549 0.28529412
0.84509804 0.82794118 0.29240196
0.88284314 0.83823529 0.29607843
0.92083333 0.8504902 0.29803922
0.95294118 0.86078431 0.3
0.3245098 0.75882353 0.31176471
0.32665441 0.76096814 0.31176471
0.33198529 0.7627451 0.31188725
0.34319853 0.75925245 0.31960784
0.35441176 0.75882353 0.32647059
0.35980392 0.75490196 0.32003676
0.36887255 0.75490196 0.31188725
0.38400735 0.75098039 0.31176471
0.40196078 0.74705882 0.31568627
0.41832108 0.74675245 0.31568627
0.43615196 0.74313725 0.31568627
0.46623775 0.74748775 0.3161152
0.50171569 0.75686275 0.32990196
0.53284314 0.76623775 0.33670343
0.56580882 0.77316176 0.33970588
0.60294118 0.78333333 0.33578431
0.64411765 0.79362745 0.33284314
0.68921569 0.80422794 0.33939951
0.72904412 0.81813725 0.34852941
0.76415441 0.82843137 0.34901961
0.8004902 0.83872549 0.35073529
0.83676471 0.84901961 0.34901961
0.87022059 0.85882353 0.35539216
0.90557598 0.86911765 0.36158088
0.93627451 0.87941176 0.36764706
0.39607843 0.8 0.3754902
0.39963235 0.80355392 0.37647059
0.40392157 0.80392157 0.38039216
0.40870098 0.80036765 0.38125
0.42254902 0.8 0.38823529
0.425 0.79865196 0.38088235
0.43137255 0.79828431 0.37671569
0.44497549 0.79571078 0.37757353
0.4627451 0.79509804 0.38039216
0.47365196 0.79117647 0.37585784
0.48504902 0.7872549 0.37230392
0.51286765 0.79203431 0.38284314
0.54852941 0.80098039 0.39705882
0.57953431 0.80821078 0.40428922
0.60098039 0.81397059 0.40392157
0.62830882 0.81997549 0.40330882
0.66862745 0.82843137 0.41176471
0.70980392 0.84166667 0.4192402
0.74607843 0.85196078 0.42745098
0.78088235 0.86311275 0.43137255
0.8127451 0.87107843 0.43137255
0.84056373 0.87941176 0.43137255
0.86470588 0.88627451 0.43529412
0.89558824 0.89264706 0.43823529
0.91960784 0.9 0.43529412
0.4877451 0.8504902 0.46421569
0.49019608 0.8504902 0.46813725
0.49019608 0.85012255 0.46605392
0.49019608 0.84528186 0.4627451
0.49607843 0.84509804 0.46470588
0.50245098 0.84264706 0.46029412
0.5127451 0.84448529 0.46421569
0.5245098 0.84656863 0.46813725
0.54117647 0.84264706 0.47205882
0.55 0.83964461 0.46813725
0.56237745 0.83872549 0.47022059
0.58400735 0.84264706 0.47941176
0.61397059 0.8497549 0.48897059
0.63560049 0.85294118 0.49019608
0.65245098 0.85686275 0.49411765
0.67395833 0.86470588 0.49558824
0.69607843 0.86862745 0.49803922
0.73094363 0.87892157 0.50588235
0.76666667 0.88921569 0.51188725
0.79626225 0.89803922 0.51243873
0.82034314 0.90171569 0.50980392
0.84430147 0.90686275 0.51421569
0.86973039 0.91605392 0.5245098
0.89258578 0.92058824 0.52401961
0.90294118 0.92058824 0.51764706
0.56862745 0.89411765 0.54509804
0.56862745 0.89411765 0.54509804
0.56764706 0.89019608 0.54117647
0.56470588 0.88627451 0.5372549
0.56470588 0.88235294 0.53333333
0.57303922 0.88235294 0.5372549
0.58333333 0.88627451 0.54411765
0.60441176 0.89558824 0.55735294
0.60784314 0.88627451 0.54901961
0.60637255 0.87598039 0.53480392
0.6254902 0.88235294 0.54705882
0.64607843 0.88970588 0.56764706
0.66078431 0.88627451 0.56078431
0.675 0.88627451 0.55686275
0.69215686 0.89019608 0.56078431
0.7127451 0.89803922 0.56862745
0.73333333 0.90588235 0.56862745
0.75637255 0.9122549 0.57892157
0.78235294 0.92156863 0.58333333
0.80294118 0.92156863 0.57647059
0.8254902 0.92352941 0.5745098
0.85196078 0.92990196 0.58088235
0.8754902 0.94019608 0.59411765
0.88382353 0.94117647 0.59460784
0.88627451 0.94117647 0.59607843
0.12941176 0.10441176 0.087254902
0.14699755 0.10588235 0.094178922
0.17058824 0.10870098 0.10110294
0.19117647 0.10980392 0.10441176
0.21446078 0.10588235 0.10367647
0.23805147 0.10018382 0.096384804
0.26948529 0.094730392 0.095098039
0.30784314 0.089644608 0.095098039
0.35147059 0.083823529 0.1004902
0.39656863 0.079901961 0.098958333
0.44656863 0.072058824 0.092279412
0.49803922 0.054411765 0.091176471
0.54828431 0.037990196 0.091176471
0.60637255 0.019607843 0.087254902
0.66139706 0.019607843 0.083946078
0.71715686 0.010294118 0.078860294
0.76470588 0 0.074019608
0.80980392 0.0072916667 0.068566176
0.85098039 0.022058824 0.062745098
0.88854167 0.032352941 0.050980392
0.92671569 0.031617647 0.044607843
0.96648284 0.027144608 0.036151961
0.98431373 0.054534314 0.033823529
0.98970588 0.1 0.029411765
0.99754902 0.13088235 0.023039216
0.13835784 0.10931373 0.092156863
0.15063572 0.11323529 0.096078431
0.17058824 0.11576287 0.10087316
0.19117647 0.11910999 0.10441176
0.21400123 0.1169424 0.10367647
0.24019608 0.11470588 0.099823836
0.2683364 0.11346507 0.09653799
0.30449602 0.11023284 0.095098039
0.34656863 0.10539216 0.096568627
0.39377298 0.099938725 0.096568627
0.44319853 0.091207108 0.092509191
0.49418658 0.078546262 0.091176471
0.54601716 0.068137255 0.089491422
0.60508578 0.048529412 0.087140012
0.66139706 0.032843137 0.082643995
0.71323529 0.018137255 0.078285846
0.76470588 0.020036765 0.07064951
0.80735294 0.020381434 0.066727941
0.85098039 0.026348039 0.059742647
0.89215686 0.032659314 0.050980392
0.92472426 0.046109069 0.041697304
0.95925245 0.063296569 0.032712929
0.98074449 0.085677083 0.029212623
0.98936121 0.12120098 0.025428922
0.99515931 0.1442402 0.021507353
0.1314951 0.12352941 0.094730392
0.14584865 0.12536765 0.097181373
0.16568627 0.13039216 0.10193015
0.18720895 0.132981 0.10655637
0.21372549 0.13382353 0.10502451
0.24050245 0.1361826 0.10326287
0.26764706 0.13893995 0.099816176
0.30392157 0.13613664 0.095465686
0.34473039 0.13198529 0.094485294
0.38941483 0.12699142 0.092279412
0.44065564 0.11862745 0.095496324
0.49033395 0.10931373 0.091314338
0.54209559 0.10435049 0.087806373
0.601394 0.088893995 0.083333333
0.65968137 0.073008578 0.079871324
0.71323529 0.064705882 0.074708946
0.76078431 0.065196078 0.066666667
0.80528493 0.066436887 0.059880515
0.84705882 0.063082108 0.052696078
0.88846507 0.063863358 0.046078431
