site/assets/luts/natron-haldclut--kodak-portra-400-nc--77ddd7184.cube
# LUTr-Project: LUTr — LUTrepository
# LUTr-Schema-Version: 1
# LUTr-ID: natron-haldclut--kodak-portra-400-nc--77ddd7184
# LUTr-Title: kodak portra 400 nc
# LUTr-Collection: Natron HaldCLUT
# LUTr-Collection-ID: natron-haldclut-presets
# LUTr-Source: https://github.com/NatronGitHub/clut
# LUTr-Source-File: submissions/natron-haldclut-presets/negative_old/kodak_portra_400_nc.png
# LUTr-Source-Format: PNG
# LUTr-Source-SHA256: a427f57f330cc94f15144c141468d4f9e63912fa714724107d33a02884743141
# LUTr-License: CC-BY-SA-4.0
# LUTr-License-URL: https://github.com/NatronGitHub/clut#license
# LUTr-Tags: creative, film, film-emulation, hald-clut, natron, png, cube
# LUTr-Transform-Class: film-emulation
# LUTr-Input-Color-Space: srgb
# LUTr-Output-Color-Space: srgb
# LUTr-Color-Space-Confidence: assumed-display-referred
# LUTr-Conversion-Method: PNG LUT image decoded at 16-bit and sampled to 25x25x25 3D CUBE
# LUTr-Conversion-Date: 2026-07-27
# LUTr-Conversion-Tool: LUTr scripts/convert-all-to-cube.mjs
# LUTr-Conversion-Grid: 25x25x25
# LUTr-Note: Preserve this metadata and the upstream license notices when redistributing.
TITLE "kodak portra 400 nc"
LUT_3D_SIZE 25
DOMAIN_MIN 0 0 0
DOMAIN_MAX 1 1 1
0.035294118 0.047058824 0.050980392
0.040196078 0.045588235 0.047058824
0.065686275 0.055882353 0.050980392
0.092647059 0.066176471 0.050980392
0.11764706 0.074509804 0.050980392
0.14215686 0.070098039 0.047058824
0.1627451 0.06372549 0.047058824
0.19313725 0.056372549 0.043137255
0.25882353 0.054901961 0.039215686
0.3245098 0.054901961 0.036764706
0.39019608 0.050980392 0.031372549
0.45539216 0.047058824 0.024019608
0.51764706 0.041176471 0.017647059
0.5754902 0.031372549 0.0073529412
0.63039216 0.024509804 0.00098039216
0.67647059 0.036764706 0.013235294
0.71764706 0.050980392 0.023529412
0.75882353 0.06127451 0.021078431
0.8 0.071568627 0.0098039216
0.83382353 0.085294118 0
0.86470588 0.10980392 0.0058823529
0.89558824 0.13039216 0.0078431373
0.92647059 0.14803922 0.0078431373
0.95882353 0.16764706 0.0024509804
0.98039216 0.18039216 0
0.031372549 0.06372549 0.050980392
0.040196078 0.06372549 0.050980392
0.065073529 0.065808824 0.05379902
0.090502451 0.070404412 0.061642157
0.11642157 0.074509804 0.049019608
0.14215686 0.076654412 0.047058824
0.16568627 0.070098039 0.043504902
0.2088848 0.073958333 0.043137255
0.26911765 0.075490196 0.043137255
0.33425245 0.071568627 0.039215686
0.39754902 0.069485294 0.034313725
0.4622549 0.066360294 0.02745098
0.52401961 0.061029412 0.017647059
0.58314951 0.057843137 0.0073529412
0.64068627 0.053308824 0.0006127451
0.68284314 0.06127451 0.0083946078
0.72401961 0.074019608 0.015686275
0.7627451 0.084313725 0.014154412
0.8 0.09497549 0.0068627451
0.83382353 0.10637255 0.0039215686
0.86470588 0.12377451 0.0078431373
0.89558824 0.14313725 0.011580882
0.92647059 0.16127451 0.0078431373
0.95643382 0.17794118 0.0054534314
0.97009804 0.18676471 0.0039215686
0.02745098 0.080392157 0.054901961
0.039215686 0.082843137 0.054901961
0.061519608 0.084313725 0.055637255
0.08872549 0.084313725 0.054901961
0.11519608 0.083333333 0.049019608
0.13872549 0.079411765 0.043014706
0.17818627 0.083333333 0.042156863
0.22855392 0.089705882 0.043137255
0.28333333 0.096078431 0.043137255
0.34411765 0.094240196 0.038602941
0.40588235 0.093137255 0.033578431
0.46862745 0.093137255 0.02745098
0.53039216 0.091176471 0.017647059
0.59203431 0.08872549 0.0074754902
0.64926471 0.085294118 0.00098039216
0.69105392 0.094607843 0.0050245098
0.72941176 0.10490196 0.010784314
0.76482843 0.11458333 0.011764706
0.80073529 0.12156863 0.0078431373
0.83737745 0.13186275 0.0069852941
0.86519608 0.14754902 0.0078431373
0.89558824 0.16066176 0.0078431373
0.92647059 0.17573529 0.0071078431
0.95477941 0.19068627 0.0039215686
0.96372549 0.19313725 0.0039215686
0.023529412 0.09754902 0.058823529
0.03627451 0.10098039 0.058639706
0.056985294 0.10490196 0.059681373
0.081372549 0.10490196 0.058394608
0.10637255 0.10441176 0.052696078
0.13615196 0.10484069 0.046078431
0.18333333 0.11176471 0.039215686
0.23823529 0.11372549 0.03939951
0.28970588 0.11666667 0.039705882
0.34803922 0.11881127 0.036764706
0.41323529 0.12022059 0.031372549
0.47892157 0.12401961 0.027941176
0.54411765 0.12352941 0.021323529
0.60588235 0.12009804 0.01127451
0.65821078 0.12267157 0.0044117647
0.69803922 0.12892157 0.0052083333
0.73284314 0.13578431 0.0078431373
0.76813725 0.14362745 0.0080269608
0.80379902 0.15147059 0.0068627451
0.84074755 0.15882353 0.0039215686
0.86862745 0.16960784 0.006127451
0.89901961 0.18382353 0.0078431373
0.93039216 0.19411765 0.0049019608
0.95833333 0.20686275 0
0.96078431 0.20735294 0
0.015686275 0.11764706 0.054901961
0.032352941 0.12009804 0.058823529
0.050980392 0.1254902 0.063235294
0.071568627 0.12892157 0.06495098
0.098039216 0.12843137 0.061764706
0.13946078 0.1379902 0.05
0.1872549 0.14852941 0.03627451
0.23946078 0.15294118 0.033333333
0.29411765 0.15294118 0.033333333
0.36102941 0.15882353 0.033333333
0.42794118 0.15931373 0.031372549
0.49681373 0.16078431 0.031372549
0.56470588 0.15784314 0.026470588
0.62401961 0.15735294 0.019117647
0.67156863 0.16421569 0.0088235294
0.71102941 0.17009804 0.0053921569
0.74509804 0.17647059 0.0078431373
0.77794118 0.18284314 0.0093137255
0.8127451 0.18823529 0.0078431373
0.84558824 0.19166667 0.0058823529
0.8745098 0.20196078 0.012745098
0.90539216 0.21446078 0.017647059
0.93627451 0.22794118 0.014705882
0.9629902 0.23480392 0.0051470588
0.97058824 0.2372549 0.0019607843
0.0073529412 0.13431373 0.054901961
0.024509804 0.14117647 0.061764706
0.044607843 0.14803922 0.068137255
0.065196078 0.15140931 0.071507353
0.090196078 0.15735294 0.068872549
0.13970588 0.17150735 0.050428922
0.19117647 0.18529412 0.033333333
0.24234069 0.19411765 0.023039216
0.30196078 0.19852941 0.023039216
0.37481618 0.20882353 0.023039216
0.45012255 0.21470588 0.026960784
0.5161152 0.21035539 0.026960784
0.58480392 0.20269608 0.025245098
0.6377451 0.20202206 0.022610294
0.68198529 0.20882353 0.012745098
0.72401961 0.21158088 0.006372549
0.75735294 0.21764706 0.0078431373
0.78823529 0.22156863 0.011764706
0.81911765 0.2254902 0.011764706
0.85386029 0.22935049 0.011764706
0.88455882 0.23872549 0.017647059
0.91170343 0.24901961 0.023529412
0.93958333 0.25931373 0.020588235
0.96550245 0.26832108 0.010294118
0.98137255 0.27254902 0
0.0039215686 0.17941176 0.071568627
0.014093137 0.18394608 0.075
0.033578431 0.19313725 0.082107843
0.054534314 0.20245098 0.085294118
0.088235294 0.20686275 0.07745098
0.13970588 0.21519608 0.052941176
0.18823529 0.22401961 0.029411765
0.23872549 0.23345588 0.012745098
0.30490196 0.24313725 0.0098039216
0.3872549 0.25637255 0.012745098
0.47083333 0.26960784 0.016666667
0.54019608 0.26911765 0.016666667
0.59852941 0.25882353 0.019607843
0.65196078 0.25306373 0.019117647
0.69313725 0.25392157 0.012009804
0.7310049 0.25784314 0.0039215686
0.76470588 0.25882353 0.0039215686
0.79558824 0.25943627 0.0084558824
0.82941176 0.2629902 0.011764706
0.86029412 0.26629902 0.011764706
0.89117647 0.27352941 0.016176471
0.9189951 0.28370098 0.020588235
0.94534314 0.29093137 0.016666667
0.97205882 0.3004902 0.010294118
0.99509804 0.30980392 0
0.0039215686 0.23872549 0.093137255
0.0054534314 0.23627451 0.093137255
0.015808824 0.24215686 0.095588235
0.03872549 0.25030637 0.095772059
0.083578431 0.25759804 0.083823529
0.13823529 0.26617647 0.063235294
0.1872549 0.27120098 0.037254902
0.23627451 0.27794118 0.010845588
0.31617647 0.29362745 0.0039215686
0.40392157 0.31268382 0.0078431373
0.49019608 0.32990196 0.0078431373
0.55569853 0.32696078 0.010294118
0.61127451 0.31666667 0.011764706
0.66648284 0.30900735 0.011764706
0.70441176 0.30870098 0.0084558824
0.73382353 0.30931373 0.0039215686
0.76862745 0.30539216 0.0039215686
0.80098039 0.30392157 0.0039215686
0.83578431 0.30392157 0.0039215686
0.87009804 0.30392157 0.0039215686
0.89877451 0.30980392 0.0051470588
0.92432598 0.32009804 0.010294118
0.95036765 0.33039216 0.0084558824
0.9754902 0.33676471 0.0039215686
0.99460784 0.34166667 0.0014705882
0.0039215686 0.29411765 0.11372549
0.0039215686 0.29411765 0.11372549
0 0.29411765 0.10980392
0.021568627 0.29754902 0.10637255
0.080392157 0.30784314 0.096078431
0.13627451 0.31813725 0.085294118
0.19117647 0.3245098 0.064705882
0.24803922 0.33088235 0.044117647
0.31372549 0.34509804 0.015686275
0.39607843 0.36323529 0.0078431373
0.47745098 0.38039216 0.0078431373
0.54607843 0.37647059 0.0078431373
0.60784314 0.37254902 0.0078431373
0.66470588 0.36813725 0.0078431373
0.70588235 0.36470588 0.0078431373
0.7377451 0.36078431 0.0039215686
0.77254902 0.35686275 0.0039215686
0.80735294 0.34901961 0.0039215686
0.84215686 0.34901961 0.0039215686
0.87696078 0.34901961 0.0039215686
0.90392157 0.35490196 0.0039215686
0.92696078 0.36127451 0.0078431373
0.95392157 0.36764706 0.0078431373
0.9754902 0.37254902 0.0039215686
0.98823529 0.37647059 0.0039215686
0 0.35343137 0.13431373
0 0.35196078 0.13431373
0.0006127451 0.35196078 0.13039216
0.021384804 0.35539216 0.12677696
0.082352941 0.36568627 0.12181373
0.14019608 0.37175245 0.11421569
0.2004902 0.37696078 0.10134804
0.25833333 0.38382353 0.079901961
0.31764706 0.39656863 0.03872549
0.38033088 0.41170343 0.010232843
0.45686275 0.42340686 0.0053921569
0.52156863 0.42156863 0.0073529412
0.59044118 0.42401961 0.0078431373
0.65177696 0.42352941 0.0078431373
0.69497549 0.42009804 0.0042892157
0.73921569 0.41715686 0.0039215686
0.77647059 0.40833333 0.0039215686
0.81372549 0.4004902 0.0039215686
0.85061275 0.39656863 0.0014705882
0.8846201 0.39656863 0
0.90980392 0.40122549 0.0039215686
0.93302696 0.40214461 0.0056985294
0.95490196 0.40526961 0.006004902
0.97794118 0.40735294 0.0039215686
0.98578431 0.40980392 0.0039215686
0 0.4127451 0.15490196
0.0045343137 0.41335784 0.15490196
0.0095588235 0.41372549 0.15392157
0.022058824 0.41629902 0.15098039
0.078431373 0.42303922 0.14558824
0.14154412 0.42708333 0.14509804
0.20686275 0.42671569 0.14436275
0.26654412 0.43529412 0.11752451
0.31862745 0.44803922 0.066666667
0.36948529 0.46017157 0.020955882
0.43627451 0.46764706 0.0049019608
0.50453431 0.47156863 0.0087009804
0.57107843 0.4754902 0.0088235294
0.62794118 0.4754902 0.006495098
0.6754902 0.47254902 0.0039215686
0.72156863 0.47009804 0.0039215686
0.76372549 0.46372549 0.0039215686
0.80845588 0.45343137 0.0039215686
0.85098039 0.44779412 0.00073529412
0.88909314 0.4432598 0
0.90980392 0.44313725 0.0039215686
0.93345588 0.4432598 0.0039215686
0.95490196 0.44632353 0.0039215686
0.97732843 0.44705882 0.0039215686
0.98529412 0.44607843 0.0039215686
0 0.46421569 0.17156863
0.006372549 0.46813725 0.17634804
0.018627451 0.47169118 0.1814951
0.016053922 0.47205882 0.16813725
0.083578431 0.47254902 0.1747549
0.15147059 0.47254902 0.18241422
0.21372549 0.47254902 0.18247549
0.27371324 0.48314951 0.16029412
0.32892157 0.49607843 0.11519608
0.37775735 0.50245098 0.068321078
0.42818627 0.5127451 0.042279412
0.49117647 0.52254902 0.029901961
0.55392157 0.52696078 0.017156863
0.60735294 0.52696078 0.0073529412
0.65490196 0.52316176 0.0078431373
0.70245098 0.51942402 0.0078431373
0.74607843 0.51127451 0.0078431373
0.79332108 0.50490196 0.0052083333
0.83970588 0.49595588 0.0037990196
0.88088235 0.49215686 0.0038602941
0.90808824 0.48823529 0.0039215686
0.93039216 0.48823529 0.0039215686
0.95404412 0.48823529 0.0039215686
0.9754902 0.48676471 0.0039215686
0.98823529 0.48431373 0.0039215686
0.0058823529 0.51372549 0.18823529
0.0098039216 0.51887255 0.19926471
0.014215686 0.52352941 0.20147059
0.072303922 0.51789216 0.21348039
0.11470588 0.51764706 0.21176471
0.17745098 0.51764706 0.21593137
0.23431373 0.51764706 0.21764706
0.28578431 0.52303922 0.1995098
0.33921569 0.53333333 0.1627451
0.38823529 0.54240196 0.12990196
0.43235294 0.5495098 0.10784314
0.48382353 0.55833333 0.087254902
0.53529412 0.56666667 0.059803922
0.58676471 0.57058824 0.025
0.63480392 0.56862745 0.020098039
0.68504902 0.56593137 0.016911765
0.73333333 0.56078431 0.0078431373
0.77965686 0.55245098 0.0046568627
0.82352941 0.54705882 0.0039215686
0.86666667 0.54362745 0.0056372549
0.90098039 0.53921569 0.0058823529
0.92671569 0.53529412 0.0058823529
0.95098039 0.53186275 0.0044117647
0.97426471 0.52671569 0.0039215686
0.99215686 0.52352941 0.0039215686
0.036764706 0.55833333 0.23284314
0.049142157 0.56096814 0.2346201
0.073529412 0.5627451 0.23823529
0.11427696 0.5627451 0.24852941
0.16495098 0.55882353 0.25294118
0.20778186 0.55876225 0.25245098
0.2557598 0.5557598 0.24852941
0.30196078 0.55980392 0.23645833
0.3495098 0.57009804 0.20980392
0.39430147 0.57665441 0.18823529
0.43272059 0.58321078 0.16960784
0.48033088 0.59313725 0.14901961
0.525 0.59730392 0.12230392
0.57058824 0.60196078 0.083333333
0.6189951 0.60833333 0.044240196
0.66911765 0.60980392 0.022671569
0.71715686 0.60588235 0.0078431373
0.76439951 0.59981618 0.0039215686
0.80735294 0.59803922 0.0039215686
0.85196078 0.59460784 0.0078431373
0.88970588 0.59068627 0.0078431373
0.91905637 0.58627451 0.0078431373
0.94693627 0.57990196 0.0078431373
0.97156863 0.57481618 0.006372549
0.99215686 0.57058824 0.0039215686
0.10588235 0.59607843 0.26372549
0.13002451 0.59669118 0.27009804
0.15490196 0.6 0.28333333
0.17990196 0.6 0.29007353
0.21617647 0.6 0.29019608
0.24718137 0.59607843 0.28713235
0.27647059 0.59607843 0.28014706
0.31470588 0.59460784 0.26973039
0.35980392 0.60392157 0.25098039
0.39803922 0.61127451 0.23970588
0.43529412 0.61764706 0.22843137
0.47647059 0.62401961 0.20772059
0.51862745 0.62647059 0.18039216
0.56286765 0.63284314 0.14203431
0.60857843 0.63995098 0.094117647
0.65428922 0.64742647 0.042156863
0.70294118 0.64705882 0.0078431373
0.74865196 0.64607843 0.0020833333
0.79313725 0.64607843 0.0078431373
0.83823529 0.64607843 0.011642157
0.87941176 0.63872549 0.01127451
0.9122549 0.63394608 0.0082107843
0.93995098 0.62818627 0.011029412
0.96801471 0.62316176 0.0074754902
0.98823529 0.61862745 0.0039215686
0.18676471 0.63333333 0.29754902
0.20680147 0.63578431 0.31029412
0.23039216 0.63786765 0.32340686
0.25459559 0.64117647 0.33480392
0.2752451 0.63848039 0.33259804
0.29705882 0.63578431 0.32696078
0.31764706 0.63333333 0.31666667
0.33523284 0.62941176 0.30692402
0.36764706 0.63578431 0.30147059
0.40098039 0.64215686 0.29509804
0.43247549 0.64852941 0.28492647
0.47254902 0.65490196 0.26109069
0.51691176 0.65735294 0.23553922
0.55882353 0.66372549 0.20116422
0.60183824 0.67009804 0.15098039
0.64509804 0.67892157 0.096507353
0.68872549 0.68284314 0.039215686
0.73327206 0.68676471 0.019301471
0.77990196 0.68823529 0.02254902
0.82794118 0.68823529 0.01997549
0.87107843 0.68308824 0.0098039216
0.90196078 0.67775735 0.0083333333
0.93394608 0.67352941 0.013848039
0.96372549 0.66715686 0.0078431373
0.98284314 0.66470588 0.0078431373
0.2627451 0.67058824 0.34901961
0.26911765 0.67058824 0.35147059
0.28431373 0.6745098 0.35784314
0.30490196 0.6745098 0.36813725
0.31960784 0.67058824 0.36470588
0.34264706 0.67058824 0.36519608
0.3627451 0.66764706 0.36470588
0.37941176 0.66519608 0.35147059
0.4 0.66666667 0.34509804
0.4245098 0.6745098 0.34264706
0.44509804 0.67941176 0.33529412
0.47647059 0.68235294 0.31470588
0.51372549 0.68627451 0.29215686
0.55490196 0.69460784 0.25686275
0.59607843 0.70098039 0.21960784
0.63872549 0.70588235 0.17843137
0.68235294 0.70980392 0.14117647
0.71960784 0.71372549 0.12205882
0.76960784 0.72156863 0.07745098
0.81715686 0.7254902 0.033333333
0.8627451 0.72745098 0.0098039216
0.89558824 0.72156863 0.0083333333
0.92647059 0.71470588 0.015686275
0.9627451 0.70980392 0.010294118
0.98431373 0.70588235 0.011764706
0.33088235 0.70539216 0.4004902
0.3372549 0.70692402 0.4004902
0.34411765 0.70723039 0.39803922
0.34901961 0.70539216 0.39558824
0.36078431 0.70539216 0.39558824
0.38351716 0.7036152 0.39969363
0.40392157 0.70147059 0.40061275
0.41911765 0.7 0.39564951
0.4372549 0.70147059 0.39019608
0.45931373 0.70539216 0.38382353
0.47781863 0.70931373 0.37352941
0.49656863 0.71323529 0.35980392
0.51617647 0.71715686 0.34558824
0.55226716 0.72156863 0.3245098
0.59215686 0.72647059 0.30245098
0.63333333 0.73131127 0.275
0.67205882 0.73676471 0.24411765
0.70931373 0.73976716 0.23376225
0.75085784 0.74313725 0.19571078
0.79803922 0.75343137 0.12726716
0.84681373 0.76372549 0.051470588
0.88529412 0.75980392 0.040196078
0.91727941 0.75061275 0.059681373
0.95245098 0.74460784 0.065196078
0.97401961 0.74313725 0.069117647
0.39313725 0.74019608 0.44705882
0.39558824 0.74019608 0.4442402
0.40098039 0.73921569 0.44215686
0.40490196 0.73664216 0.43578431
0.40490196 0.73627451 0.42990196
0.42058824 0.73627451 0.43186275
0.44044118 0.73333333 0.43529412
0.45686275 0.73235294 0.43921569
0.47352941 0.73235294 0.43529412
0.49227941 0.73627451 0.425
0.50980392 0.73946078 0.41568627
0.52659314 0.74019608 0.40625
0.54362745 0.74411765 0.3995098
0.56115196 0.74718137 0.38970588
0.59313725 0.75171569 0.37254902
0.63186275 0.75698529 0.34754902
0.66666667 0.75980392 0.32745098
0.70392157 0.76335784 0.30404412
0.73921569 0.76838235 0.27769608
0.77365196 0.77414216 0.2497549
0.82058824 0.78039216 0.1995098
0.86580882 0.78541667 0.15465686
0.90196078 0.78039216 0.15318627
0.93676471 0.7754902 0.16176471
0.95980392 0.77647059 0.15784314
0.44460784 0.76764706 0.48480392
0.44705882 0.76715686 0.48431373
0.45245098 0.76715686 0.48333333
0.4528799 0.76415441 0.47996324
0.45808824 0.76372549 0.47647059
0.46476716 0.76372549 0.47647059
0.47843137 0.76335784 0.47647059
0.49148284 0.76323529 0.48039216
0.50833333 0.76323529 0.47647059
0.525 0.76715686 0.46832108
0.54068627 0.76715686 0.46801471
0.55490196 0.76758578 0.46378676
0.57107843 0.77107843 0.45441176
0.5877451 0.775 0.44411765
0.60490196 0.77806373 0.43345588
0.63186275 0.78284314 0.41354167
0.66666667 0.78676471 0.38921569
0.70147059 0.7872549 0.36813725
0.73627451 0.79215686 0.34754902
0.77101716 0.79852941 0.33082108
0.80612745 0.80294118 0.30980392
0.84564951 0.80643382 0.28382353
0.8872549 0.80943627 0.25931373
0.92254902 0.81029412 0.25441176
0.94558824 0.81029412 0.2504902
0.49607843 0.79803922 0.5254902
0.49730392 0.79803922 0.5254902
0.5 0.79411765 0.5254902
0.50392157 0.79411765 0.5254902
0.50980392 0.79215686 0.5254902
0.51617647 0.79411765 0.52352941
0.52303922 0.79411765 0.52205882
0.53014706 0.79411765 0.51887255
0.53921569 0.79411765 0.51764706
0.55588235 0.79411765 0.51568627
0.56862745 0.79411765 0.51715686
0.58186275 0.79411765 0.51568627
0.59803922 0.79705882 0.50980392
0.61446078 0.8 0.4995098
0.62990196 0.80343137 0.48529412
0.64534314 0.80784314 0.47303922
0.66862745 0.80980392 0.45686275
0.70269608 0.8129902 0.44215686
0.73872549 0.81813725 0.42647059
0.7747549 0.82328431 0.41053922
0.80588235 0.82745098 0.39215686
0.84093137 0.83161765 0.37377451
0.87843137 0.83676471 0.35833333
0.9122549 0.84264706 0.34632353
0.9372549 0.84509804 0.3372549
0.54754902 0.825 0.57058824
0.54754902 0.825 0.56844363
0.54754902 0.82107843 0.56715686
0.55147059 0.82107843 0.57058824
0.55906863 0.82107843 0.57279412
0.56672794 0.82107843 0.57107843
0.57095588 0.82107843 0.57107843
0.57647059 0.82107843 0.56764706
0.58284314 0.82107843 0.57107843
0.59528186 0.82107843 0.57107843
0.6060049 0.82107843 0.57022059
0.61323529 0.82107843 0.56715686
0.62720588 0.82279412 0.56176471
0.64558824 0.82542892 0.55490196
0.6622549 0.82892157 0.54117647
0.67745098 0.8341299 0.53088235
0.69166667 0.83676471 0.5245098
0.71439951 0.84050245 0.51685049
0.74460784 0.84460784 0.50833333
0.77506127 0.84803922 0.49460784
0.80392157 0.85220588 0.47843137
0.84025735 0.85686275 0.45827206
0.8754902 0.86323529 0.44117647
0.90851716 0.86942402 0.42971814
0.92843137 0.87205882 0.41960784
0.59901961 0.85196078 0.61862745
0.59901961 0.85196078 0.61862745
0.5997549 0.84901961 0.61862745
0.60281863 0.84803922 0.61862745
0.60882353 0.84803922 0.61911765
0.61482843 0.84816176 0.62254902
0.62156863 0.84901961 0.62254902
0.62794118 0.85196078 0.62365196
0.63431373 0.85196078 0.6254902
0.64105392 0.85196078 0.62254902
0.6502451 0.84901961 0.62181373
0.65453431 0.84803922 0.61605392
0.66470588 0.8504902 0.61862745
0.68026961 0.85588235 0.61323529
0.69632353 0.85906863 0.60294118
0.71164216 0.86127451 0.59375
0.72254902 0.86372549 0.58921569
0.74313725 0.86764706 0.58345588
0.76544118 0.87181373 0.57745098
0.78566176 0.87254902 0.56372549
0.80882353 0.87794118 0.55294118
0.84068627 0.88468137 0.54019608
0.8754902 0.89044118 0.52352941
0.90490196 0.89546569 0.50833333
0.91470588 0.89607843 0.50196078
0.6504902 0.87892157 0.67009804
0.65196078 0.87892157 0.67009804
0.65441176 0.87892157 0.67009804
0.65441176 0.87745098 0.66862745
0.65563725 0.875 0.66740196
0.66078431 0.87714461 0.66862745
0.66764706 0.87745098 0.67156863
0.67493873 0.87892157 0.67401961
0.68186275 0.87892157 0.67401961
0.68823529 0.87892157 0.67310049
0.68884804 0.87463235 0.66764706
0.69215686 0.87352941 0.6622549
0.70588235 0.87818627 0.66740196
0.72009804 0.88314951 0.67009804
0.73394608 0.88676471 0.66470588
0.74705882 0.89068627 0.65680147
0.75735294 0.89313725 0.65196078
0.77310049 0.89613971 0.6495098
0.79252451 0.89852941 0.63884804
0.80765931 0.90067402 0.625
0.82647059 0.90367647 0.61593137
0.8473652 0.91060049 0.6122549
0.8754902 0.91776961 0.60159314
0.89895833 0.92205882 0.58976716
0.90441176 0.92058824 0.58431373
0.69803922 0.90588235 0.71372549
0.70343137 0.90735294 0.71911765
0.69411765 0.90196078 0.70882353
0.69068627 0.89803922 0.70588235
0.69411765 0.89803922 0.70392157
0.69754902 0.89754902 0.70539216
0.70098039 0.89803922 0.70588235
0.71519608 0.90343137 0.71519608
0.72156863 0.90588235 0.72156863
0.72156863 0.90196078 0.71127451
0.7254902 0.89803922 0.70588235
0.72892157 0.89803922 0.70588235
0.73921569 0.9 0.70588235
0.75 0.90637255 0.71029412
0.76666667 0.9127451 0.71666667
0.77401961 0.91372549 0.70833333
0.78431373 0.91372549 0.70196078
0.79460784 0.91764706 0.6995098
0.80980392 0.91862745 0.68823529
0.82647059 0.92156863 0.675
0.84313725 0.9254902 0.66666667
0.85980392 0.93333333 0.6627451
0.88039216 0.94019608 0.6627451
0.89411765 0.94117647 0.65735294
0.89411765 0.94117647 0.65098039
0.031372549 0.053431373 0.06127451
0.040196078 0.053431373 0.06372549
0.062867647 0.055882353 0.06372549
0.090502451 0.064031863 0.06372549
0.11568627 0.070588235 0.0625
0.13841912 0.066666667 0.061090686
0.16213235 0.059803922 0.057965686
0.1971201 0.05189951 0.055882353
0.25882353 0.05 0.051960784
0.32604167 0.048529412 0.049509804
0.39117647 0.04754902 0.043137255
0.45588235 0.044607843 0.036764706
0.51764706 0.037990196 0.026470588
0.575 0.028431373 0.016176471
0.63039216 0.01997549 0.010171569
0.67647059 0.030392157 0.022977941
0.72009804 0.040686275 0.03872549
0.75882353 0.054901961 0.031372549
0.79901961 0.069117647 0.012254902
0.83382353 0.084987745 0.0021446078
0.86470588 0.10906863 0.011519608
0.89558824 0.13039216 0.019607843
0.92647059 0.15098039 0.023039216
0.95790441 0.16764706 0.023958333
0.97156863 0.17647059 0.025490196
0.029840686 0.06127451 0.06127451
0.040196078 0.061642157 0.06127451
0.062867647 0.065425858 0.064093137
0.088909314 0.069117647 0.067340686
0.11492034 0.074050245 0.061734069
0.14001225 0.07333027 0.059803922
0.16928615 0.069117647 0.05625
0.21191023 0.071223958 0.052305453
0.26911765 0.07064951 0.050428922
0.33480392 0.07064951 0.045358456
0.39803922 0.068106618 0.040226716
0.46072304 0.063909314 0.035102635
0.52248775 0.059344363 0.026470588
0.58186275 0.054105392 0.017938113
0.63869485 0.050719975 0.0096660539
0.68284314 0.057352941 0.018481924
0.72401961 0.066727941 0.029901961
0.7627451 0.080966605 0.0214231
0.8 0.093458946 0.0095435049
0.83382353 0.10618873 0.0062576593
0.86470588 0.12377451 0.012254902
0.89558824 0.14313725 0.017654718
0.92647059 0.16165748 0.020818015
0.95608915 0.17889859 0.020036765
0.96917892 0.18676471 0.021568627
0.026838235 0.076470588 0.063357843
0.040196078 0.079473039 0.065196078
0.060784314 0.084313725 0.065196078
0.086182598 0.084313725 0.063909314
0.1120098 0.082904412 0.060539216
0.13884804 0.080346201 0.059497549
0.1810049 0.083333333 0.055422794
