site/assets/luts/natron-haldclut--polaroid-665-negative--384c631d6.cube
# LUTr-Project: LUTr — LUTrepository
# LUTr-Schema-Version: 1
# LUTr-ID: natron-haldclut--polaroid-665-negative--384c631d6
# LUTr-Title: polaroid 665 negative
# LUTr-Collection: Natron HaldCLUT
# LUTr-Collection-ID: natron-haldclut-presets
# LUTr-Source: https://github.com/NatronGitHub/clut
# LUTr-Source-File: submissions/natron-haldclut-presets/instant_pro/polaroid_665_negative.png
# LUTr-Source-Format: PNG
# LUTr-Source-SHA256: 463c3ebf8e3985c8721f82ecf714523398b45e7eb24aded3817ef91abe675104
# LUTr-License: CC-BY-SA-4.0
# LUTr-License-URL: https://github.com/NatronGitHub/clut#license
# LUTr-Tags: creative, film, film-emulation, hald-clut, natron, png, cube
# LUTr-Transform-Class: film-emulation
# LUTr-Input-Color-Space: srgb
# LUTr-Output-Color-Space: srgb
# LUTr-Color-Space-Confidence: assumed-display-referred
# LUTr-Conversion-Method: PNG LUT image decoded at 16-bit and sampled to 25x25x25 3D CUBE
# LUTr-Conversion-Date: 2026-07-27
# LUTr-Conversion-Tool: LUTr scripts/convert-all-to-cube.mjs
# LUTr-Conversion-Grid: 25x25x25
# LUTr-Note: Preserve this metadata and the upstream license notices when redistributing.
TITLE "polaroid 665 negative"
LUT_3D_SIZE 25
DOMAIN_MIN 0 0 0
DOMAIN_MAX 1 1 1
0.074509804 0.074509804 0.074509804
0.072058824 0.072058824 0.072058824
0.069607843 0.069607843 0.069607843
0.074019608 0.074019608 0.074019608
0.084313725 0.084313725 0.084313725
0.095098039 0.095098039 0.095098039
0.10882353 0.10882353 0.10882353
0.11519608 0.11519608 0.11519608
0.1254902 0.1254902 0.1254902
0.13333333 0.13333333 0.13333333
0.14117647 0.14117647 0.14117647
0.1745098 0.1745098 0.1745098
0.21764706 0.21764706 0.21764706
0.22401961 0.22401961 0.22401961
0.25196078 0.25196078 0.25196078
0.28284314 0.28284314 0.28284314
0.30980392 0.30980392 0.30980392
0.34313725 0.34313725 0.34313725
0.37647059 0.37647059 0.37647059
0.41372549 0.41372549 0.41372549
0.44901961 0.44901961 0.44901961
0.48431373 0.48431373 0.48431373
0.51862745 0.51862745 0.51862745
0.55343137 0.55343137 0.55343137
0.57647059 0.57647059 0.57647059
0.072058824 0.072058824 0.072058824
0.070588235 0.070588235 0.070588235
0.066666667 0.066666667 0.066666667
0.070281863 0.070281863 0.070281863
0.084313725 0.084313725 0.084313725
0.097242647 0.097242647 0.097242647
0.11127451 0.11127451 0.11127451
0.1254902 0.1254902 0.1254902
0.13823529 0.13823529 0.13823529
0.15 0.15 0.15
0.15882353 0.15882353 0.15882353
0.18511029 0.18511029 0.18511029
0.21887255 0.21887255 0.21887255
0.2372549 0.2372549 0.2372549
0.2622549 0.2622549 0.2622549
0.28921569 0.28921569 0.28921569
0.3122549 0.3122549 0.3122549
0.34405637 0.34405637 0.34405637
0.37830882 0.37830882 0.37830882
0.41403186 0.41403186 0.41403186
0.45098039 0.45098039 0.45098039
0.48645833 0.48645833 0.48645833
0.52156863 0.52156863 0.52156863
0.55343137 0.55343137 0.55343137
0.58039216 0.58039216 0.58039216
0.070588235 0.070588235 0.070588235
0.068137255 0.068137255 0.068137255
0.066666667 0.066666667 0.066666667
0.070098039 0.070098039 0.070098039
0.08627451 0.08627451 0.08627451
0.10379902 0.10379902 0.10379902
0.11985294 0.11985294 0.11985294
0.13517157 0.13517157 0.13517157
0.15 0.15 0.15
0.16323529 0.16323529 0.16323529
0.17132353 0.17132353 0.17132353
0.19816176 0.19816176 0.19816176
0.22794118 0.22794118 0.22794118
0.25294118 0.25294118 0.25294118
0.27671569 0.27671569 0.27671569
0.30196078 0.30196078 0.30196078
0.32647059 0.32647059 0.32647059
0.35441176 0.35441176 0.35441176
0.38823529 0.38823529 0.38823529
0.41911765 0.41911765 0.41911765
0.45539216 0.45539216 0.45539216
0.48909314 0.48909314 0.48909314
0.52328431 0.52328431 0.52328431
0.55735294 0.55735294 0.55735294
0.58039216 0.58039216 0.58039216
0.081372549 0.081372549 0.081372549
0.077634804 0.077634804 0.077634804
0.073897059 0.073897059 0.073897059
0.077389706 0.077389706 0.077389706
0.095343137 0.095343137 0.095343137
0.11029412 0.11029412 0.11029412
0.12696078 0.12696078 0.12696078
0.14001225 0.14001225 0.14001225
0.15294118 0.15294118 0.15294118
0.16323529 0.16323529 0.16323529
0.17352941 0.17352941 0.17352941
0.20153186 0.20153186 0.20153186
0.23333333 0.23333333 0.23333333
0.26372549 0.26372549 0.26372549
0.29031863 0.29031863 0.29031863
0.31354167 0.31354167 0.31354167
0.33676471 0.33676471 0.33676471
0.36764706 0.36764706 0.36764706
0.39852941 0.39852941 0.39852941
0.42941176 0.42941176 0.42941176
0.46421569 0.46421569 0.46421569
0.49558824 0.49558824 0.49558824
0.52647059 0.52647059 0.52647059
0.55606618 0.55606618 0.55606618
0.57647059 0.57647059 0.57647059
0.098039216 0.098039216 0.098039216
0.098039216 0.098039216 0.098039216
0.098039216 0.098039216 0.098039216
0.098039216 0.098039216 0.098039216
0.11372549 0.11372549 0.11372549
0.12647059 0.12647059 0.12647059
0.13823529 0.13823529 0.13823529
0.15122549 0.15122549 0.15122549
0.1627451 0.1627451 0.1627451
0.17303922 0.17303922 0.17303922
0.18627451 0.18627451 0.18627451
0.21397059 0.21397059 0.21397059
0.24509804 0.24509804 0.24509804
0.27573529 0.27573529 0.27573529
0.2995098 0.2995098 0.2995098
0.32254902 0.32254902 0.32254902
0.34901961 0.34901961 0.34901961
0.38112745 0.38112745 0.38112745
0.4127451 0.4127451 0.4127451
0.44362745 0.44362745 0.44362745
0.47254902 0.47254902 0.47254902
0.50122549 0.50122549 0.50122549
0.52745098 0.52745098 0.52745098
0.55196078 0.55196078 0.55196078
0.57254902 0.57254902 0.57254902
0.11862745 0.11862745 0.11862745
0.11862745 0.11862745 0.11862745
0.11862745 0.11862745 0.11862745
0.11862745 0.11862745 0.11862745
0.13235294 0.13235294 0.13235294
0.15147059 0.15147059 0.15147059
0.15796569 0.15796569 0.15796569
0.1627451 0.1627451 0.1627451
0.17303922 0.17303922 0.17303922
0.19019608 0.19019608 0.19019608
0.21090686 0.21090686 0.21090686
0.23529412 0.23529412 0.23529412
0.26176471 0.26176471 0.26176471
0.28866422 0.28866422 0.28866422
0.3122549 0.3122549 0.3122549
0.33020833 0.33020833 0.33020833
0.35686275 0.35686275 0.35686275
0.38823529 0.38823529 0.38823529
0.41911765 0.41911765 0.41911765
0.45 0.45 0.45
0.48088235 0.48088235 0.48088235
0.50741422 0.50741422 0.50741422
0.53223039 0.53223039 0.53223039
0.55655637 0.55655637 0.55655637
0.57696078 0.57696078 0.57696078
0.14313725 0.14313725 0.14313725
0.13921569 0.13921569 0.13921569
0.13848039 0.13848039 0.13848039
0.13884804 0.13884804 0.13884804
0.15490196 0.15490196 0.15490196
0.17977941 0.17977941 0.17977941
0.18235294 0.18235294 0.18235294
0.17487745 0.17487745 0.17487745
0.1872549 0.1872549 0.1872549
0.20747549 0.20747549 0.20747549
0.23235294 0.23235294 0.23235294
0.25931373 0.25931373 0.25931373
0.28235294 0.28235294 0.28235294
0.30490196 0.30490196 0.30490196
0.3254902 0.3254902 0.3254902
0.34276961 0.34276961 0.34276961
0.36666667 0.36666667 0.36666667
0.39852941 0.39852941 0.39852941
0.42941176 0.42941176 0.42941176
0.45772059 0.45772059 0.45772059
0.4872549 0.4872549 0.4872549
0.51813725 0.51813725 0.51813725
0.54583333 0.54583333 0.54583333
0.57169118 0.57169118 0.57169118
0.59117647 0.59117647 0.59117647
0.17058824 0.17058824 0.17058824
0.16758578 0.16758578 0.16758578
0.16458333 0.16458333 0.16458333
0.16041667 0.16041667 0.16041667
0.18137255 0.18137255 0.18137255
0.20784314 0.20784314 0.20784314
0.20784314 0.20784314 0.20784314
0.19810049 0.19810049 0.19810049
0.20294118 0.20294118 0.20294118
0.22745098 0.22745098 0.22745098
0.25294118 0.25294118 0.25294118
0.27990196 0.27990196 0.27990196
0.30220588 0.30220588 0.30220588
0.32401961 0.32401961 0.32401961
0.34276961 0.34276961 0.34276961
0.3627451 0.3627451 0.3627451
0.38333333 0.38333333 0.38333333
0.41121324 0.41121324 0.41121324
0.44080882 0.44080882 0.44080882
0.47058824 0.47058824 0.47058824
0.5002451 0.5002451 0.5002451
0.52843137 0.52843137 0.52843137
0.55931373 0.55931373 0.55931373
0.58927696 0.58927696 0.58927696
0.61078431 0.61078431 0.61078431
0.21176471 0.21176471 0.21176471
0.20784314 0.20784314 0.20784314
0.20686275 0.20686275 0.20686275
0.20392157 0.20392157 0.20392157
0.20980392 0.20980392 0.20980392
0.22843137 0.22843137 0.22843137
0.23235294 0.23235294 0.23235294
0.22745098 0.22745098 0.22745098
0.23529412 0.23529412 0.23529412
0.25196078 0.25196078 0.25196078
0.27647059 0.27647059 0.27647059
0.30098039 0.30098039 0.30098039
0.32156863 0.32156863 0.32156863
0.34215686 0.34215686 0.34215686
0.3627451 0.3627451 0.3627451
0.38333333 0.38333333 0.38333333
0.40392157 0.40392157 0.40392157
0.42843137 0.42843137 0.42843137
0.45686275 0.45686275 0.45686275
0.48480392 0.48480392 0.48480392
0.51372549 0.51372549 0.51372549
0.54264706 0.54264706 0.54264706
0.57352941 0.57352941 0.57352941
0.60441176 0.60441176 0.60441176
0.63137255 0.63137255 0.63137255
0.25294118 0.25294118 0.25294118
0.25202206 0.25202206 0.25202206
0.25147059 0.25147059 0.25147059
0.25147059 0.25147059 0.25147059
0.25147059 0.25147059 0.25147059
0.25330882 0.25330882 0.25330882
0.2622549 0.2622549 0.2622549
0.26372549 0.26372549 0.26372549
0.27254902 0.27254902 0.27254902
0.28376225 0.28376225 0.28376225
0.29889706 0.29889706 0.29889706
0.31911765 0.31911765 0.31911765
0.33970588 0.33970588 0.33970588
0.35882353 0.35882353 0.35882353
0.37941176 0.37941176 0.37941176
0.4 0.4 0.4
0.42058824 0.42058824 0.42058824
0.44509804 0.44509804 0.44509804
0.47205882 0.47205882 0.47205882
0.50147059 0.50147059 0.50147059
0.52916667 0.52916667 0.52916667
0.55931373 0.55931373 0.55931373
0.59019608 0.59019608 0.59019608
0.61862745 0.61862745 0.61862745
0.64166667 0.64166667 0.64166667
0.29509804 0.29509804 0.29509804
0.29509804 0.29509804 0.29509804
0.29509804 0.29509804 0.29509804
0.29509804 0.29509804 0.29509804
0.29411765 0.29411765 0.29411765
0.29411765 0.29411765 0.29411765
0.29338235 0.29338235 0.29338235
0.29914216 0.29914216 0.29914216
0.30882353 0.30882353 0.30882353
0.31727941 0.31727941 0.31727941
0.3254902 0.3254902 0.3254902
0.33835784 0.33835784 0.33835784
0.35784314 0.35784314 0.35784314
0.37806373 0.37806373 0.37806373
0.39607843 0.39607843 0.39607843
0.41776961 0.41776961 0.41776961
0.44117647 0.44117647 0.44117647
0.46176471 0.46176471 0.46176471
0.48946078 0.48946078 0.48946078
0.51813725 0.51813725 0.51813725
0.54509804 0.54509804 0.54509804
0.57585784 0.57585784 0.57585784
0.60588235 0.60588235 0.60588235
0.63284314 0.63284314 0.63284314
0.65196078 0.65196078 0.65196078
0.33578431 0.33578431 0.33578431
0.33921569 0.33921569 0.33921569
0.33921569 0.33921569 0.33921569
0.33921569 0.33921569 0.33921569
0.33529412 0.33529412 0.33529412
0.33480392 0.33480392 0.33480392
0.33137255 0.33137255 0.33137255
0.33547794 0.33547794 0.33547794
0.34313725 0.34313725 0.34313725
0.35 0.35 0.35
0.35637255 0.35637255 0.35637255
0.3627451 0.3627451 0.3627451
0.3754902 0.3754902 0.3754902
0.39607843 0.39607843 0.39607843
0.41666667 0.41666667 0.41666667
0.4372549 0.4372549 0.4372549
0.45784314 0.45784314 0.45784314
0.48235294 0.48235294 0.48235294
0.50784314 0.50784314 0.50784314
0.5348652 0.5348652 0.5348652
0.5622549 0.5622549 0.5622549
0.59221814 0.59221814 0.59221814
0.61973039 0.61973039 0.61973039
0.64558824 0.64558824 0.64558824
0.66617647 0.66617647 0.66617647
0.37647059 0.37647059 0.37647059
0.37647059 0.37647059 0.37647059
0.38039216 0.38039216 0.38039216
0.38039216 0.38039216 0.38039216
0.37647059 0.37647059 0.37647059
0.37254902 0.37254902 0.37254902
0.36960784 0.36960784 0.36960784
0.37132353 0.37132353 0.37132353
0.37843137 0.37843137 0.37843137
0.38553922 0.38553922 0.38553922
0.39068627 0.39068627 0.39068627
0.39583333 0.39583333 0.39583333
0.40392157 0.40392157 0.40392157
0.41666667 0.41666667 0.41666667
0.43333333 0.43333333 0.43333333
0.45392157 0.45392157 0.45392157
0.47647059 0.47647059 0.47647059
0.50147059 0.50147059 0.50147059
0.52745098 0.52745098 0.52745098
0.55196078 0.55196078 0.55196078
0.57941176 0.57941176 0.57941176
0.60710784 0.60710784 0.60710784
0.63480392 0.63480392 0.63480392
0.66053922 0.66053922 0.66053922
0.68039216 0.68039216 0.68039216
0.41715686 0.41715686 0.41715686
0.41764706 0.41764706 0.41764706
0.41862745 0.41862745 0.41862745
0.42156863 0.42156863 0.42156863
0.41764706 0.41764706 0.41764706
0.41366422 0.41366422 0.41366422
0.40980392 0.40980392 0.40980392
0.40980392 0.40980392 0.40980392
0.41372549 0.41372549 0.41372549
0.41979167 0.41979167 0.41979167
0.42512255 0.42512255 0.42512255
0.43241422 0.43241422 0.43241422
0.43897059 0.43897059 0.43897059
0.44558824 0.44558824 0.44558824
0.45539216 0.45539216 0.45539216
0.47058824 0.47058824 0.47058824
0.49460784 0.49460784 0.49460784
0.51813725 0.51813725 0.51813725
0.54411765 0.54411765 0.54411765
0.5716299 0.5716299 0.5716299
0.59681373 0.59681373 0.59681373
0.62205882 0.62205882 0.62205882
0.64987745 0.64987745 0.64987745
0.67579657 0.67579657 0.67579657
0.69509804 0.69509804 0.69509804
0.45784314 0.45784314 0.45784314
0.45845588 0.45845588 0.45845588
0.45955882 0.45955882 0.45955882
0.4627451 0.4627451 0.4627451
0.45686275 0.45686275 0.45686275
0.45183824 0.45183824 0.45183824
0.45098039 0.45098039 0.45098039
0.44742647 0.44742647 0.44742647
0.45098039 0.45098039 0.45098039
0.45379902 0.45379902 0.45379902
0.46053922 0.46053922 0.46053922
0.47009804 0.47009804 0.47009804
0.475 0.475 0.475
0.48247549 0.48247549 0.48247549
0.4870098 0.4870098 0.4870098
0.49656863 0.49656863 0.49656863
0.51176471 0.51176471 0.51176471
0.53627451 0.53627451 0.53627451
0.56102941 0.56102941 0.56102941
0.58872549 0.58872549 0.58872549
0.61421569 0.61421569 0.61421569
0.64227941 0.64227941 0.64227941
0.66740196 0.66740196 0.66740196
0.69215686 0.69215686 0.69215686
0.71176471 0.71176471 0.71176471
0.50147059 0.50147059 0.50147059
0.50392157 0.50392157 0.50392157
0.50392157 0.50392157 0.50392157
0.50392157 0.50392157 0.50392157
0.49803922 0.49803922 0.49803922
0.49215686 0.49215686 0.49215686
0.48921569 0.48921569 0.48921569
0.48823529 0.48823529 0.48823529
0.48823529 0.48823529 0.48823529
0.49215686 0.49215686 0.49215686
0.49705882 0.49705882 0.49705882
0.50588235 0.50588235 0.50588235
0.51102941 0.51102941 0.51102941
0.51599265 0.51599265 0.51599265
0.52144608 0.52144608 0.52144608
0.52892157 0.52892157 0.52892157
0.54166667 0.54166667 0.54166667
0.55686275 0.55686275 0.55686275
0.57843137 0.57843137 0.57843137
0.60410539 0.60410539 0.60410539
0.63088235 0.63088235 0.63088235
0.65753676 0.65753676 0.65753676
0.68517157 0.68517157 0.68517157
0.70876225 0.70876225 0.70876225
0.72696078 0.72696078 0.72696078
0.54901961 0.54901961 0.54901961
0.54901961 0.54901961 0.54901961
0.54901961 0.54901961 0.54901961
0.54509804 0.54509804 0.54509804
0.53921569 0.53921569 0.53921569
0.53676471 0.53676471 0.53676471
0.53333333 0.53333333 0.53333333
0.52941176 0.52941176 0.52941176
0.52941176 0.52941176 0.52941176
0.53333333 0.53333333 0.53333333
0.5372549 0.5372549 0.5372549
0.54117647 0.54117647 0.54117647
0.54705882 0.54705882 0.54705882
0.55294118 0.55294118 0.55294118
0.55686275 0.55686275 0.55686275
0.56617647 0.56617647 0.56617647
0.57647059 0.57647059 0.57647059
0.58676471 0.58676471 0.58676471
0.60098039 0.60098039 0.60098039
0.62205882 0.62205882 0.62205882
0.64705882 0.64705882 0.64705882
0.67205882 0.67205882 0.67205882
0.7 0.7 0.7
0.7245098 0.7245098 0.7245098
0.74509804 0.74509804 0.74509804
0.59656863 0.59656863 0.59656863
0.59503676 0.59503676 0.59503676
0.59203431 0.59203431 0.59203431
0.58676471 0.58676471 0.58676471
0.58357843 0.58357843 0.58357843
0.57843137 0.57843137 0.57843137
0.57732843 0.57732843 0.57732843
0.5745098 0.5745098 0.5745098
0.5745098 0.5745098 0.5745098
0.57696078 0.57696078 0.57696078
0.57843137 0.57843137 0.57843137
0.57971814 0.57971814 0.57971814
0.58431373 0.58431373 0.58431373
0.59019608 0.59019608 0.59019608
0.5935049 0.5935049 0.5935049
0.60098039 0.60098039 0.60098039
0.61127451 0.61127451 0.61127451
0.62156863 0.62156863 0.62156863
0.6307598 0.6307598 0.6307598
0.64215686 0.64215686 0.64215686
0.6625 0.6625 0.6625
0.68872549 0.68872549 0.68872549
0.71605392 0.71605392 0.71605392
0.74172794 0.74172794 0.74172794
0.76176471 0.76176471 0.76176471
0.64313725 0.64313725 0.64313725
0.63921569 0.63921569 0.63921569
0.63602941 0.63602941 0.63602941
0.63272059 0.63272059 0.63272059
0.62794118 0.62794118 0.62794118
0.62438725 0.62438725 0.62438725
0.62132353 0.62132353 0.62132353
0.62058824 0.62058824 0.62058824
0.62058824 0.62058824 0.62058824
0.62058824 0.62058824 0.62058824
0.61960784 0.61960784 0.61960784
0.61960784 0.61960784 0.61960784
0.62303922 0.62303922 0.62303922
0.62781863 0.62781863 0.62781863
0.63137255 0.63137255 0.63137255
0.63860294 0.63860294 0.63860294
0.64705882 0.64705882 0.64705882
0.65735294 0.65735294 0.65735294
0.66593137 0.66593137 0.66593137
0.67316176 0.67316176 0.67316176
0.68186275 0.68186275 0.68186275
0.70539216 0.70539216 0.70539216
0.73308824 0.73308824 0.73308824
0.75894608 0.75894608 0.75894608
0.77745098 0.77745098 0.77745098
0.68039216 0.68039216 0.68039216
0.68039216 0.68039216 0.68039216
0.68039216 0.68039216 0.68039216
0.67647059 0.67647059 0.67647059
0.67254902 0.67254902 0.67254902
0.66862745 0.66862745 0.66862745
0.66813725 0.66813725 0.66813725
0.66470588 0.66470588 0.66470588
0.66470588 0.66470588 0.66470588
0.66256127 0.66256127 0.66256127
0.66078431 0.66078431 0.66078431
0.66078431 0.66078431 0.66078431
0.66102941 0.66102941 0.66102941
0.665625 0.665625 0.665625
0.67169118 0.67169118 0.67169118
0.67794118 0.67794118 0.67794118
0.68480392 0.68480392 0.68480392
0.69460784 0.69460784 0.69460784
0.70134804 0.70134804 0.70134804
0.70827206 0.70827206 0.70827206
0.71764706 0.71764706 0.71764706
0.72941176 0.72941176 0.72941176
0.75294118 0.75294118 0.75294118
0.77843137 0.77843137 0.77843137
0.79166667 0.79166667 0.79166667
0.72156863 0.72156863 0.72156863
0.72156863 0.72156863 0.72156863
0.72107843 0.72107843 0.72107843
0.71764706 0.71764706 0.71764706
0.71568627 0.71568627 0.71568627
0.71372549 0.71372549 0.71372549
0.70980392 0.70980392 0.70980392
0.70833333 0.70833333 0.70833333
0.70588235 0.70588235 0.70588235
0.70196078 0.70196078 0.70196078
0.6995098 0.6995098 0.6995098
0.69803922 0.69803922 0.69803922
0.70098039 0.70098039 0.70098039
0.70416667 0.70416667 0.70416667
0.70931373 0.70931373 0.70931373
0.71519608 0.71519608 0.71519608
0.72352941 0.72352941 0.72352941
0.73063725 0.73063725 0.73063725
0.7377451 0.7377451 0.7377451
0.74485294 0.74485294 0.74485294
0.75294118 0.75294118 0.75294118
0.76519608 0.76519608 0.76519608
0.77745098 0.77745098 0.77745098
0.79509804 0.79509804 0.79509804
0.80784314 0.80784314 0.80784314
0.7622549 0.7622549 0.7622549
0.7622549 0.7622549 0.7622549
0.75882353 0.75882353 0.75882353
0.75882353 0.75882353 0.75882353
0.75490196 0.75490196 0.75490196
0.75490196 0.75490196 0.75490196
0.75098039 0.75098039 0.75098039
0.74920343 0.74920343 0.74920343
0.74656863 0.74656863 0.74656863
0.74313725 0.74313725 0.74313725
0.73921569 0.73921569 0.73921569
0.73921569 0.73921569 0.73921569
0.73921569 0.73921569 0.73921569
0.74313725 0.74313725 0.74313725
0.74705882 0.74705882 0.74705882
0.75459559 0.75459559 0.75459559
0.7622549 0.7622549 0.7622549
0.76666667 0.76666667 0.76666667
0.77414216 0.77414216 0.77414216
0.78137255 0.78137255 0.78137255
0.7877451 0.7877451 0.7877451
0.79803922 0.79803922 0.79803922
0.81176471 0.81176471 0.81176471
0.82205882 0.82205882 0.82205882
0.8245098 0.8245098 0.8245098
0.8 0.8 0.8
0.8 0.8 0.8
0.8 0.8 0.8
0.79705882 0.79705882 0.79705882
0.79460784 0.79460784 0.79460784
0.79301471 0.79301471 0.79301471
0.79215686 0.79215686 0.79215686
0.78823529 0.78823529 0.78823529
0.78431373 0.78431373 0.78431373
0.78186275 0.78186275 0.78186275
0.78039216 0.78039216 0.78039216
0.78039216 0.78039216 0.78039216
0.78039216 0.78039216 0.78039216
0.78431373 0.78431373 0.78431373
0.7872549 0.7872549 0.7872549
0.79252451 0.79252451 0.79252451
0.8 0.8 0.8
0.80392157 0.80392157 0.80392157
0.80808824 0.80808824 0.80808824
0.8122549 0.8122549 0.8122549
0.81862745 0.81862745 0.81862745
0.82892157 0.82892157 0.82892157
0.83921569 0.83921569 0.83921569
0.84840686 0.84840686 0.84840686
0.84901961 0.84901961 0.84901961
0.83578431 0.83578431 0.83578431
0.83578431 0.83578431 0.83578431
0.83578431 0.83578431 0.83578431
0.83186275 0.83186275 0.83186275
0.82794118 0.82794118 0.82794118
0.82794118 0.82794118 0.82794118
0.82794118 0.82794118 0.82794118
0.82401961 0.82401961 0.82401961
0.82156863 0.82156863 0.82156863
0.82009804 0.82009804 0.82009804
0.82009804 0.82009804 0.82009804
0.81795343 0.81795343 0.81795343
0.82009804 0.82009804 0.82009804
0.821875 0.821875 0.821875
0.8254902 0.8254902 0.8254902
0.83088235 0.83088235 0.83088235
0.83578431 0.83578431 0.83578431
0.83731618 0.83731618 0.83731618
0.83541667 0.83541667 0.83541667
0.83302696 0.83302696 0.83302696
0.84215686 0.84215686 0.84215686
0.85980392 0.85980392 0.85980392
0.87009804 0.87009804 0.87009804
0.87352941 0.87352941 0.87352941
0.87352941 0.87352941 0.87352941
0.85882353 0.85882353 0.85882353
0.8627451 0.8627451 0.8627451
0.86176471 0.86176471 0.86176471
0.85882353 0.85882353 0.85882353
0.85490196 0.85490196 0.85490196
0.85490196 0.85490196 0.85490196
0.85196078 0.85196078 0.85196078
0.85098039 0.85098039 0.85098039
0.84705882 0.84705882 0.84705882
0.84705882 0.84705882 0.84705882
0.84705882 0.84705882 0.84705882
0.84705882 0.84705882 0.84705882
0.84901961 0.84901961 0.84901961
0.85147059 0.85147059 0.85147059
0.85784314 0.85784314 0.85784314
0.8627451 0.8627451 0.8627451
0.8627451 0.8627451 0.8627451
0.85882353 0.85882353 0.85882353
0.85098039 0.85098039 0.85098039
0.84362745 0.84362745 0.84362745
0.8627451 0.8627451 0.8627451
0.88284314 0.88284314 0.88284314
0.89411765 0.89411765 0.89411765
0.89411765 0.89411765 0.89411765
0.89411765 0.89411765 0.89411765
0.078431373 0.078431373 0.078431373
0.073590686 0.073590686 0.073590686
0.069607843 0.069607843 0.069607843
0.074019608 0.074019608 0.074019608
0.084313725 0.084313725 0.084313725
0.098529412 0.098529412 0.098529412
0.11127451 0.11127451 0.11127451
0.12156863 0.12156863 0.12156863
0.13186275 0.13186275 0.13186275
0.14368873 0.14368873 0.14368873
0.15980392 0.15980392 0.15980392
0.18511029 0.18511029 0.18511029
0.21568627 0.21568627 0.21568627
0.2372549 0.2372549 0.2372549
0.26286765 0.26286765 0.26286765
0.29466912 0.29466912 0.29466912
0.32009804 0.32009804 0.32009804
0.34705882 0.34705882 0.34705882
0.37830882 0.37830882 0.37830882
0.41029412 0.41029412 0.41029412
0.44705882 0.44705882 0.44705882
0.48382353 0.48382353 0.48382353
0.51801471 0.51801471 0.51801471
0.55343137 0.55343137 0.55343137
0.57647059 0.57647059 0.57647059
0.076960784 0.076960784 0.076960784
0.071714154 0.071714154 0.071714154
0.066666667 0.066666667 0.066666667
0.070098039 0.070098039 0.070098039
0.084313725 0.084313725 0.084313725
0.098950674 0.098950674 0.098950674
0.11565564 0.11565564 0.11565564
0.12998621 0.12998621 0.12998621
0.14307598 0.14307598 0.14307598
0.15616575 0.15616575 0.15616575
0.17216605 0.17216605 0.17216605
0.18934589 0.18934589 0.18934589
0.21887255 0.21887255 0.21887255
0.24166667 0.24166667 0.24166667
0.27029718 0.27029718 0.27029718
0.29838388 0.29838388 0.29838388
0.32254902 0.32254902 0.32254902
0.3495098 0.3495098 0.3495098
0.38053002 0.38053002 0.38053002
0.41403186 0.41403186 0.41403186
0.44947917 0.44947917 0.44947917
0.48500306 0.48500306 0.48500306
0.52087929 0.52087929 0.52087929
0.55435049 0.55435049 0.55435049
0.58039216 0.58039216 0.58039216
0.073039216 0.073039216 0.073039216
0.069669118 0.069669118 0.069669118
0.065686275 0.065686275 0.065686275
0.069439338 0.069439338 0.069439338
0.08627451 0.08627451 0.08627451
0.10553002 0.10553002 0.10553002
0.12285539 0.12285539 0.12285539
0.13895527 0.13895527 0.13895527
0.15355392 0.15355392 0.15355392
0.16868873 0.16868873 0.16868873
0.18314951 0.18314951 0.18314951
0.20272672 0.20272672 0.20272672
0.22647059 0.22647059 0.22647059
0.25396752 0.25396752 0.25396752
0.28293505 0.28293505 0.28293505
0.30833333 0.30833333 0.30833333
0.33284314 0.33284314 0.33284314
0.35994179 0.35994179 0.35994179
0.38869485 0.38869485 0.38869485
0.42126225 0.42126225 0.42126225
0.45447304 0.45447304 0.45447304
0.48909314 0.48909314 0.48909314
0.52337623 0.52337623 0.52337623
