site/assets/luts/natron-haldclut--polaroid-time-zero-expired-cold---71c69846f.cube
# LUTr-Project: LUTr — LUTrepository
# LUTr-Schema-Version: 1
# LUTr-ID: natron-haldclut--polaroid-time-zero-expired-cold---71c69846f
# LUTr-Title: polaroid time zero (expired) cold --
# LUTr-Collection: Natron HaldCLUT
# LUTr-Collection-ID: natron-haldclut-presets
# LUTr-Source: https://github.com/NatronGitHub/clut
# LUTr-Source-File: submissions/natron-haldclut-presets/instant_consumer/polaroid_time_zero_(expired)_cold_--.png
# LUTr-Source-Format: PNG
# LUTr-Source-SHA256: ce43b78880dcf5f9b3c850d6ed0a81043e6e430ff633a21911f7558fe6016456
# LUTr-License: CC-BY-SA-4.0
# LUTr-License-URL: https://github.com/NatronGitHub/clut#license
# LUTr-Tags: creative, film, film-emulation, hald-clut, natron, png, cool, cube
# LUTr-Transform-Class: film-emulation
# LUTr-Input-Color-Space: srgb
# LUTr-Output-Color-Space: srgb
# LUTr-Color-Space-Confidence: assumed-display-referred
# LUTr-Conversion-Method: PNG LUT image decoded at 16-bit and sampled to 25x25x25 3D CUBE
# LUTr-Conversion-Date: 2026-07-27
# LUTr-Conversion-Tool: LUTr scripts/convert-all-to-cube.mjs
# LUTr-Conversion-Grid: 25x25x25
# LUTr-Note: Preserve this metadata and the upstream license notices when redistributing.
TITLE "polaroid time zero (expired) cold --"
LUT_3D_SIZE 25
DOMAIN_MIN 0 0 0
DOMAIN_MAX 1 1 1
0.25882353 0.098039216 0.039215686
0.25882353 0.095588235 0.035294118
0.25882353 0.094117647 0.034313725
0.25882353 0.094117647 0.031372549
0.26470588 0.088235294 0.033333333
0.2754902 0.082352941 0.035294118
0.28921569 0.079411765 0.031372549
0.30343137 0.074509804 0.029901961
0.31372549 0.070588235 0.02745098
0.34068627 0.064215686 0.02745098
0.37941176 0.052941176 0.023529412
0.41764706 0.039705882 0.023529412
0.44901961 0.023529412 0.019607843
0.47990196 0.0068627451 0.019117647
0.5245098 0.0029411765 0.015686275
0.5745098 0.0078431373 0.015686275
0.61960784 0.011764706 0.015686275
0.66715686 0.011764706 0.015686275
0.71372549 0.015686275 0.015686275
0.75882353 0.012254902 0.012254902
0.80392157 0.011764706 0.011764706
0.84509804 0.0078431373 0.011764706
0.88921569 0.0039215686 0.011764706
0.92990196 0.011764706 0.010784314
0.96470588 0.08627451 0.023529412
0.25882353 0.1004902 0.035294118
0.25882353 0.098039216 0.035294118
0.25882353 0.094117647 0.031372549
0.25882353 0.094117647 0.031372549
0.26470588 0.090196078 0.031372549
0.2754902 0.086090686 0.031372549
0.28921569 0.082352941 0.031372549
0.30343137 0.078431373 0.02745098
0.31617647 0.076960784 0.02745098
0.34558824 0.074509804 0.024080882
0.38394608 0.066666667 0.023529412
0.42028186 0.052941176 0.023529412
0.45539216 0.03627451 0.019607843
0.48676471 0.019914216 0.017830882
0.52794118 0.0080882353 0.015686275
0.57751225 0.010845588 0.015686275
0.62352941 0.011764706 0.013235294
0.66807598 0.011764706 0.015686275
0.71470588 0.015686275 0.015686275
0.76096814 0.012254902 0.012254902
0.80710784 0.010539216 0.0098039216
0.85147059 0.0078431373 0.0078431373
0.89264706 0.0078431373 0.0078431373
0.92990196 0.042708333 0.013235294
0.95686275 0.099019608 0.023529412
0.25882353 0.11078431 0.030392157
0.25882353 0.10441176 0.031004902
0.25882353 0.09877451 0.031372549
0.25882353 0.094117647 0.031372549
0.26470588 0.090686275 0.030882353
0.2754902 0.087254902 0.030392157
0.29240196 0.087254902 0.02745098
0.30772059 0.087622549 0.027083333
0.32254902 0.091176471 0.023529412
0.35134804 0.085416667 0.023529412
0.3875 0.080147059 0.023529412
0.4254902 0.073039216 0.022671569
0.46470588 0.060784314 0.019607843
0.50098039 0.044607843 0.019117647
0.54215686 0.02745098 0.015686275
0.58443627 0.012377451 0.011764706
0.62745098 0.011764706 0.011764706
0.67144608 0.014583333 0.015686275
0.71862745 0.015686275 0.015686275
0.76360294 0.013112745 0.012254902
0.81029412 0.011764706 0.0098039216
0.85698529 0.0083333333 0.0039215686
0.89828431 0.018872549 0.0036764706
0.92990196 0.075122549 0.013848039
0.95784314 0.1245098 0.018627451
0.25882353 0.11764706 0.024019608
0.25882353 0.11470588 0.026164216
0.25882353 0.10539216 0.02745098
0.25882353 0.098039216 0.02745098
0.26078431 0.093872549 0.02745098
0.27935049 0.094117647 0.02745098
0.29693627 0.10012255 0.024877451
0.31256127 0.10147059 0.023529412
0.3254902 0.10147059 0.019607843
0.35490196 0.09754902 0.019607843
0.39203431 0.093627451 0.019607843
0.42598039 0.090134804 0.019607843
0.46642157 0.081372549 0.019607843
0.50784314 0.068198529 0.019117647
0.55245098 0.051470588 0.015686275
0.59362745 0.031678922 0.011764706
0.63480392 0.029411765 0.011764706
0.6786152 0.033823529 0.015686275
0.72598039 0.033823529 0.015686275
0.77052696 0.033823529 0.015257353
0.81568627 0.037254902 0.0098039216
0.86078431 0.037683824 0.0039215686
0.89901961 0.060294118 0.006495098
0.93137255 0.11470588 0.015686275
0.96127451 0.15931373 0.019117647
0.25490196 0.12745098 0.019607843
0.25882353 0.12352941 0.020833333
0.25931373 0.11862745 0.022058824
0.26078431 0.11372549 0.023529412
0.26960784 0.1127451 0.023529412
0.28897059 0.11593137 0.023529412
0.30588235 0.12107843 0.021568627
0.32107843 0.11887255 0.018872549
0.33529412 0.11568627 0.015686275
0.36348039 0.11568627 0.015686275
0.40343137 0.11764706 0.015686275
0.43946078 0.11593137 0.015686275
0.47843137 0.1127451 0.016666667
0.52181373 0.10539216 0.015686275
0.56666667 0.091176471 0.012254902
0.60784314 0.078921569 0.011764706
0.64705882 0.076470588 0.011764706
0.68946078 0.076470588 0.011764706
0.73186275 0.077941176 0.015686275
0.77647059 0.082107843 0.013970588
0.82058824 0.08627451 0.0098039216
0.86470588 0.093382353 0.0088235294
0.89901961 0.11813725 0.010784314
0.92990196 0.16397059 0.019117647
0.95490196 0.19411765 0.025490196
0.25490196 0.1377451 0.015196078
0.26145833 0.13823529 0.015196078
0.26813725 0.13958333 0.015686275
0.27457108 0.14264706 0.019117647
0.28480392 0.14656863 0.019117647
0.30300245 0.14656863 0.019117647
0.31752451 0.14656863 0.015686275
0.33314951 0.14656863 0.015196078
0.35 0.14656863 0.011764706
0.37941176 0.14920343 0.011764706
0.42009804 0.1504902 0.012622549
0.45784314 0.15055147 0.015196078
0.49705882 0.1504902 0.013480392
0.53627451 0.14264706 0.011764706
0.57830882 0.13235294 0.011397059
0.61862745 0.12383578 0.01127451
0.65980392 0.12352941 0.01127451
0.7004902 0.12352941 0.01127451
0.74166667 0.125 0.01127451
0.78284314 0.13137255 0.0082720588
0.82401961 0.1377451 0.0075980392
0.86819853 0.14552696 0.0044117647
0.89901961 0.17598039 0.012009804
0.92598039 0.20618873 0.025
0.94901961 0.22941176 0.035294118
0.26862745 0.16862745 0.011764706
0.27205882 0.16568627 0.011764706
0.27843137 0.16960784 0.011764706
0.28786765 0.17352941 0.011764706
0.29705882 0.17745098 0.011764706
0.31372549 0.17745098 0.011764706
0.33333333 0.17745098 0.011764706
0.34889706 0.17745098 0.010661765
0.36666667 0.17745098 0.0088235294
0.39607843 0.18137255 0.0088235294
0.43431373 0.18235294 0.0088235294
0.47463235 0.18529412 0.011764706
0.5127451 0.18529412 0.0088235294
0.55 0.18382353 0.0087009804
0.59117647 0.17352941 0.0078431373
0.63235294 0.16862745 0.0078431373
0.67352941 0.16862745 0.0078431373
0.7122549 0.16862745 0.0078431373
0.75196078 0.17328431 0.0078431373
0.79313725 0.18026961 0.0049019608
0.83137255 0.18921569 0.0039215686
0.87169118 0.2 0.0013480392
0.89681373 0.22156863 0.011519608
0.92156863 0.24313725 0.025
0.94607843 0.26372549 0.03627451
0.28529412 0.20980392 0.011764706
0.28921569 0.20588235 0.010845588
0.29375 0.20588235 0.0078431373
0.29920343 0.20588235 0.0065563725
0.31004902 0.20833333 0.0039215686
0.32794118 0.20833333 0.006372549
0.34669118 0.20833333 0.006372549
0.36427696 0.20833333 0.006372549
0.38186275 0.20833333 0.0039215686
0.41182598 0.2122549 0.0039215686
0.45183824 0.21654412 0.0067401961
0.48756127 0.22009804 0.0078431373
0.52303922 0.22156863 0.006372549
0.55851716 0.21979167 0.0039215686
0.59754902 0.21372549 0.0039215686
0.64264706 0.21372549 0.0039215686
0.68382353 0.21519608 0.0039215686
0.72107843 0.21672794 0.0054534314
0.75833333 0.22009804 0.0039215686
0.79803922 0.22677696 0.0039215686
0.8379902 0.23676471 0.0026960784
0.87028186 0.24705882 0.00049019608
0.89215686 0.25735294 0.0057598039
0.91127451 0.27156863 0.014767157
0.93186275 0.29068627 0.022058824
0.30588235 0.25098039 0.011764706
0.30833333 0.24705882 0.0093137255
0.31372549 0.24705882 0.0078431373
0.31715686 0.24705882 0.0039215686
0.32745098 0.24705882 0.0039215686
0.34607843 0.24705882 0.0039215686
0.36372549 0.24705882 0.0039215686
0.38186275 0.24313725 0
0.39607843 0.23921569 0
0.42941176 0.24558824 0.0024509804
0.46666667 0.25196078 0.0039215686
0.50441176 0.25833333 0.0039215686
0.5372549 0.25882353 0.0039215686
0.56617647 0.25490196 0
0.60686275 0.25784314 0
0.64901961 0.2627451 0.0039215686
0.69019608 0.2627451 0.0039215686
0.72745098 0.26666667 0.0039215686
0.76470588 0.27058824 0.0039215686
0.80245098 0.27794118 0.0039215686
0.8372549 0.28431373 0.0039215686
0.86813725 0.29460784 0.0039215686
0.89607843 0.30490196 0.0039215686
0.9127451 0.31519608 0.0078431373
0.9254902 0.32941176 0.011764706
0.32647059 0.29215686 0.011764706
0.32647059 0.29215686 0.0093137255
0.33137255 0.28823529 0.0072303922
0.3377451 0.28823529 0.0039215686
0.35122549 0.29068627 0.0039215686
0.36666667 0.29068627 0.0039215686
0.38615196 0.28823529 0.0039215686
0.4033701 0.29068627 0
0.42303922 0.29068627 0
0.45300245 0.29460784 0
0.49117647 0.2995098 0.0039215686
0.52873775 0.30392157 0.0039215686
0.56102941 0.30637255 0.0039215686
0.59068627 0.30637255 0.00030637255
0.6245098 0.31029412 0.0024509804
0.66268382 0.31084559 0.0039215686
0.7004902 0.31421569 0.0039215686
0.7377451 0.31721814 0.0014705882
0.77107843 0.32205882 0
0.80637255 0.32941176 0
0.8372549 0.33578431 0.0031862745
0.86783088 0.34607843 0.0039215686
0.89509804 0.35637255 0.0039215686
0.92058824 0.36813725 0.0039215686
0.93578431 0.37941176 0.0053921569
0.34313725 0.33333333 0.011764706
0.34705882 0.33431373 0.0093137255
0.35196078 0.33357843 0.0068627451
0.3622549 0.33431373 0.0039215686
0.375 0.3372549 0.0039215686
0.39117647 0.3372549 0.0039215686
0.40808824 0.3379902 0.0031862745
0.42843137 0.33933824 0
0.45 0.34215686 0
0.47990196 0.3439951 0.0028186275
0.51470588 0.34926471 0.0039215686
0.55036765 0.35257353 0.0039215686
0.58431373 0.35392157 0.0039215686
0.61519608 0.35784314 0.0039215686
0.64607843 0.36176471 0.0039215686
0.68026961 0.36176471 0.0039215686
0.71568627 0.36568627 0.0039215686
0.7504902 0.36813725 0.0039215686
0.78431373 0.37279412 0
0.81176471 0.37732843 0
0.8377451 0.38333333 0.0039215686
0.86813725 0.39362745 0.0039215686
0.89509804 0.40612745 0.0039215686
0.9245098 0.41813725 0.0042892157
0.94117647 0.42745098 0.0049019608
0.36372549 0.37843137 0.011764706
0.36617647 0.37843137 0.0078431373
0.37254902 0.37843137 0.0042892157
0.38584559 0.38186275 0.0039215686
0.39877451 0.38406863 0.0039215686
0.41176471 0.38578431 0.0039215686
0.43235294 0.38578431 0.00012254902
0.45245098 0.38970588 0
0.47696078 0.39019608 0
0.50784314 0.39362745 0.0039215686
0.53884804 0.39754902 0.0039215686
0.57352941 0.40104167 0.0039215686
0.60490196 0.40367647 0.0039215686
0.63578431 0.40931373 0.0039215686
0.66666667 0.41237745 0.0039215686
0.69773284 0.41323529 0.0039215686
0.73235294 0.41715686 0.0039215686
0.76372549 0.41960784 0.0039215686
0.79460784 0.42205882 0.0037990196
0.82205882 0.42843137 0.0034313725
0.84485294 0.43308824 0.0039215686
0.87113971 0.44117647 0.0074142157
0.89607843 0.45183824 0.0078431373
0.9245098 0.4622549 0.0078431373
0.94117647 0.47254902 0.0078431373
0.38039216 0.4254902 0.0078431373
0.38676471 0.4254902 0.0066176471
0.39558824 0.4254902 0.0039215686
0.40906863 0.42916667 0.0039215686
0.42254902 0.43235294 0.0039215686
0.43602941 0.43357843 0.0034313725
0.45294118 0.43676471 0
0.47426471 0.4379902 0
0.50196078 0.44117647 0
0.53284314 0.44240196 0.0039215686
0.56323529 0.44509804 0.0039215686
0.59460784 0.44877451 0.0039215686
0.6254902 0.45196078 0.0039215686
0.65416667 0.45686275 0.0039215686
0.68333333 0.46078431 0.0039215686
0.71421569 0.46617647 0.0039215686
0.74705882 0.46862745 0.0039215686
0.77401961 0.47254902 0.0039215686
0.80490196 0.47647059 0.0039215686
0.83186275 0.48014706 0.0039215686
0.85294118 0.48431373 0.0039215686
0.87745098 0.49044118 0.0078431373
0.8995098 0.49754902 0.0078431373
0.9245098 0.50735294 0.0078431373
0.94117647 0.51372549 0.0078431373
0.40098039 0.47303922 0.0073529412
0.40735294 0.47303922 0.0039215686
0.41764706 0.47303922 0.0039215686
0.43143382 0.47647059 0.0039215686
0.44607843 0.48063725 0.0039215686
0.46029412 0.484375 0
0.47352941 0.48480392 0
0.49558824 0.48823529 0
0.52647059 0.48872549 0
0.55735294 0.49215686 0.0039215686
0.58431373 0.4935049 0.0039215686
0.61519608 0.49656863 0.0039215686
0.64387255 0.5004902 0.0039215686
0.67303922 0.50490196 0.0039215686
0.70355392 0.51127451 0.0039215686
0.73069853 0.51746324 0.0039215686
0.75784314 0.52009804 0.0039215686
0.78449755 0.52401961 0.0039215686
0.81519608 0.52794118 0.0039215686
0.84172794 0.53186275 0.0038602941
0.8627451 0.53186275 0.0039215686
0.88333333 0.53927696 0.0078431373
0.90392157 0.5435049 0.0078431373
0.9245098 0.54883578 0.0078431373
0.94166667 0.55539216 0.0078431373
0.42156863 0.5245098 0.0039215686
0.42794118 0.52156863 0.0039215686
0.43921569 0.52156863 0.0039215686
0.45245098 0.52156863 0.0039215686
0.46813725 0.5254902 0.0039215686
0.48088235 0.52941176 0
0.49485294 0.53235294 0
0.51617647 0.53443627 0
0.54705882 0.5372549 0
0.5754902 0.54019608 0
0.60490196 0.54411765 0.0017156863
0.63198529 0.54754902 0.0039215686
0.6627451 0.55 0.0039215686
0.69056373 0.55330882 0.0039215686
0.71838235 0.55906863 0.0039215686
0.74644608 0.56580882 0.0039215686
0.77156863 0.57156863 0.0039215686
0.79852941 0.5754902 0.0039215686
0.8247549 0.57941176 0.0029411765
0.84901961 0.58039216 0.00085784314
0.86960784 0.58039216 0.0039215686
0.8872549 0.58468137 0.0078431373
0.90784314 0.59044118 0.011029412
0.92745098 0.59546569 0.006372549
0.94509804 0.6 0.0049019608
0.44215686 0.57598039 0
0.45245098 0.57113971 0
0.46311275 0.56666667 0.0039215686
0.47696078 0.56666667 0.0039215686
0.49191176 0.56666667 0.0039215686
0.50686275 0.56930147 0.0039215686
0.52071078 0.57058824 0.0039215686
0.54068627 0.5745098 0.003002451
0.56764706 0.58235294 0.0014705882
0.59460784 0.58927696 0
0.62156863 0.59166667 0
0.65098039 0.59411765 0.0037377451
0.67794118 0.59681373 0.0039215686
0.70471814 0.59803922 0.0039215686
0.7307598 0.60196078 0.0039215686
0.75490196 0.60680147 0.0039215686
0.78186275 0.6122549 0.0039215686
0.80790441 0.61862745 0.0039215686
0.83370098 0.62438725 0.0039215686
0.85539216 0.62922794 0.0017769608
0.87598039 0.62818627 0.0014705882
0.89246324 0.62959559 0.014522059
0.91176471 0.63333333 0.024142157
0.92843137 0.6372549 0.025061275
0.94754902 0.64117647 0.020098039
0.47058824 0.61176471 0
0.47696078 0.60931373 0.0039215686
0.48823529 0.60392157 0.0039215686
0.50490196 0.60392157 0.0039215686
0.51764706 0.60392157 0.0078431373
0.53382353 0.60392157 0.0078431373
0.54803922 0.60392157 0.0078431373
0.56764706 0.60931373 0.006372549
0.59215686 0.61960784 0.0039215686
0.61666667 0.62745098 0.0039215686
0.6372549 0.63137255 0.0039215686
0.66176471 0.63529412 0.0039215686
0.68823529 0.63529412 0.0039215686
0.71470588 0.63921569 0.0039215686
0.73921569 0.64215686 0.0039215686
0.76372549 0.64705882 0.0039215686
0.78823529 0.65098039 0.0039215686
0.8127451 0.65490196 0.0039215686
0.83823529 0.65980392 0
0.86176471 0.66617647 0.031862745
0.87843137 0.67058824 0.094117647
0.89509804 0.67058824 0.098529412
0.91176471 0.6745098 0.11176471
0.92843137 0.67598039 0.12303922
0.94509804 0.67843137 0.1372549
0.49754902 0.63872549 0.0039215686
0.50392157 0.64025735 0.0039215686
0.51568627 0.63872549 0.0078431373
0.52971814 0.63872549 0.0078431373
0.54460784 0.63872549 0.0078431373
0.55863971 0.63872549 0.0078431373
0.57438725 0.63872549 0.0078431373
0.59307598 0.64411765 0.0078431373
0.61666667 0.65294118 0.0078431373
0.6338848 0.65833333 0.0078431373
0.65147059 0.6622549 0.0078431373
0.67205882 0.66354167 0.0078431373
0.69656863 0.66691176 0.0078431373
0.72156863 0.67009804 0.0078431373
0.74852941 0.67401961 0.0078431373
0.77156863 0.67941176 0.006372549
0.79607843 0.68186275 0.006372549
0.82003676 0.68823529 0.0039215686
0.84362745 0.69178922 0.0084558824
0.86207108 0.69754902 0.090870098
0.88161765 0.70808824 0.19019608
0.89509804 0.70784314 0.19773284
0.91176471 0.70931373 0.21176471
0.92843137 0.71231618 0.23192402
0.94117647 0.71715686 0.25196078
0.52843137 0.66960784 0.0039215686
0.53480392 0.67352941 0.0078431373
0.54509804 0.67352941 0.0078431373
0.55539216 0.67352941 0.0088235294
0.57107843 0.67352941 0.011764706
0.58676471 0.67352941 0.011764706
0.6002451 0.67352941 0.011764706
0.61764706 0.67892157 0.011764706
0.6372549 0.68529412 0.011764706
0.65147059 0.68884804 0.012377451
0.66666667 0.68921569 0.015686275
0.68627451 0.69301471 0.012745098
0.70686275 0.69656863 0.011764706
0.73137255 0.70098039 0.0088235294
0.75563725 0.70465686 0.0080882353
0.77977941 0.70882353 0.0078431373
0.80392157 0.7127451 0.0088235294
0.82732843 0.71666667 0.01127451
0.84901961 0.72132353 0.035294118
0.86580882 0.72794118 0.11875
0.88235294 0.73382353 0.20490196
0.89509804 0.73921569 0.27034314
0.91176471 0.74019608 0.29509804
0.92634804 0.7435049 0.31237745
0.9372549 0.74411765 0.3245098
0.55931373 0.70392157 0.0078431373
0.56568627 0.70441176 0.0078431373
0.57598039 0.70526961 0.0088235294
0.58627451 0.70784314 0.011764706
0.59681373 0.70784314 0.011764706
0.61084559 0.70784314 0.011764706
0.62536765 0.70821078 0.011764706
0.64117647 0.71194853 0.015196078
0.65784314 0.71617647 0.015196078
0.67077206 0.71648284 0.015686275
0.68627451 0.72009804 0.019240196
0.70091912 0.72009804 0.019117647
0.72083333 0.72401961 0.015441176
0.74166667 0.72843137 0.011764706
0.76262255 0.73223039 0.011764706
0.78676471 0.73756127 0.0078431373
0.81127451 0.74362745 0.0083333333
0.83235294 0.74754902 0.01685049
0.85281863 0.75147059 0.060661765
0.86960784 0.75539216 0.14019608
0.88431373 0.75588235 0.21887255
0.89852941 0.76023284 0.28823529
0.91176471 0.76666667 0.35
0.92303922 0.77107843 0.3841299
0.93333333 0.77156863 0.39656863
0.59019608 0.73529412 0.0078431373
0.59656863 0.73848039 0.0078431373
0.60637255 0.73921569 0.0088235294
0.61519608 0.73921569 0.011764706
0.62352941 0.73921569 0.011764706
0.6377451 0.73921569 0.011764706
0.65147059 0.74068627 0.011764706
0.66421569 0.74313725 0.015686275
0.67647059 0.74509804 0.015686275
0.68872549 0.74705882 0.018137255
0.70343137 0.75098039 0.022058824
0.71887255 0.75098039 0.023529412
0.73529412 0.75294118 0.018627451
0.75588235 0.75710784 0.015196078
0.7745098 0.7622549 0.011764706
0.79313725 0.76666667 0.0090686275
0.81764706 0.77058824 0.0078431373
0.84019608 0.77573529 0.019117647
0.85833333 0.77843137 0.081862745
0.87377451 0.78014706 0.16715686
0.8872549 0.78039216 0.23921569
0.90073529 0.78431373 0.30710784
0.9127451 0.78823529 0.36715686
0.92377451 0.79485294 0.42377451
0.9372549 0.80196078 0.47058824
0.62107843 0.77009804 0.0078431373
0.62745098 0.77040441 0.0078431373
0.63382353 0.77401961 0.0078431373
0.64411765 0.77401961 0.011703431
0.6504902 0.77401961 0.011764706
0.66421569 0.77401961 0.011764706
0.67487745 0.77401961 0.011764706
0.68480392 0.77401961 0.015686275
0.69509804 0.77401961 0.015686275
0.70931373 0.77794118 0.017830882
0.72352941 0.78186275 0.020588235
0.7372549 0.78186275 0.023529412
0.75171569 0.78186275 0.021568627
0.77009804 0.78578431 0.015196078
0.78811275 0.78970588 0.011764706
0.80735294 0.79491422 0.012254902
0.82401961 0.80098039 0.0078431373
0.84589461 0.8036152 0.024938725
0.86421569 0.80490196 0.13063725
0.8783701 0.80490196 0.20729167
0.89264706 0.80490196 0.27671569
0.90686275 0.80539216 0.33823529
0.91715686 0.81176471 0.39656863
0.93106618 0.81813725 0.45814951
0.9377451 0.82058824 0.50294118
0.65490196 0.80098039 0.0049019608
0.65833333 0.80490196 0.0039215686
0.66470588 0.80563725 0.0078431373
0.67242647 0.80526961 0.0078431373
0.67794118 0.80490196 0.010294118
0.68786765 0.80784314 0.0079656863
0.69901961 0.80490196 0.011764706
0.70539216 0.80490196 0.015686275
0.71568627 0.80490196 0.015686275
0.72843137 0.80882353 0.014583333
0.74044118 0.80906863 0.019607843
0.75441176 0.81237745 0.023161765
0.76911765 0.8127451 0.021568627
0.78419118 0.81666667 0.015686275
0.80171569 0.81960784 0.0088235294
0.82120098 0.8245098 0.013235294
0.83823529 0.82843137 0.018627451
0.85490196 0.82941176 0.084436275
0.87230392 0.82843137 0.19387255
0.88566176 0.82585784 0.26127451
0.90098039 0.8254902 0.32647059
0.91372549 0.82977941 0.38627451
0.92745098 0.83553922 0.44411765
0.9377451 0.83762255 0.49313725
0.94411765 0.83823529 0.52647059
0.68676471 0.83578431 0.0039215686
0.69068627 0.83878676 0.0039215686
0.69558824 0.83970588 0.0039215686
0.70196078 0.83970588 0.0076593137
0.70441176 0.83970588 0.0078431373
0.71323529 0.83970588 0.0078431373
0.71960784 0.83676471 0.010784314
0.72598039 0.83523284 0.011764706
0.73235294 0.83431373 0.011764706
0.74656863 0.83915441 0.011213235
0.75968137 0.83970588 0.014583333
0.77107843 0.83970588 0.01942402
0.78651961 0.84215686 0.019607843
0.80214461 0.84626225 0.015502451
0.81727941 0.8504902 0.010294118
0.8348652 0.85147059 0.0098039216
0.85 0.85147059 0.093137255
0.86666667 0.85300245 0.18884804
0.88296569 0.85147059 0.26642157
0.89852941 0.85147059 0.32873775
0.90931373 0.85 0.38259804
0.92352941 0.85410539 0.4377451
0.93382353 0.85784314 0.49007353
0.94264706 0.85784314 0.52254902
0.9504902 0.85784314 0.55490196
0.71764706 0.86666667 0
0.71764706 0.86666667 0
0.7254902 0.87352941 0
0.72156863 0.86666667 0.0039215686
0.7254902 0.86470588 0.0058823529
0.73333333 0.86617647 0.0039215686
0.73627451 0.85980392 0.0078431373
0.74117647 0.85735294 0.0093137255
0.74901961 0.85490196 0.0078431373
0.75931373 0.85882353 0.0078431373
0.77352941 0.85882353 0.011764706
0.78382353 0.85882353 0.015686275
0.79803922 0.8627451 0.021568627
0.8127451 0.86666667 0.02745098
0.82941176 0.86960784 0.034313725
0.84852941 0.87696078 0.13529412
0.85882353 0.87058824 0.18431373
0.8754902 0.87058824 0.26127451
0.89509804 0.87745098 0.34803922
0.90882353 0.87794118 0.4004902
0.91960784 0.8745098 0.43529412
0.93382353 0.87794118 0.49117647
0.94019608 0.8745098 0.51862745
0.94656863 0.8745098 0.5495098
0.95294118 0.8745098 0.58039216
0.25882353 0.094117647 0.039215686
0.25882353 0.094117647 0.038296569
0.25882353 0.093504902 0.035294118
0.2622549 0.090196078 0.035294118
0.26470588 0.08627451 0.035294118
0.275 0.082352941 0.035294118
0.28860294 0.078431373 0.034191176
0.30098039 0.074509804 0.031372549
0.31372549 0.070588235 0.029901961
0.34313725 0.064215686 0.029901961
0.38284314 0.056372549 0.029901961
0.42401961 0.046078431 0.027757353
0.45808824 0.031862745 0.025980392
0.49019608 0.013235294 0.025980392
0.53186275 0.0074754902 0.025980392
0.58088235 0.010294118 0.022058824
0.62598039 0.011764706 0.018137255
0.67107843 0.011764706 0.018137255
0.72009804 0.011764706 0.019607843
0.76519608 0.011764706 0.018321078
0.80784314 0.011764706 0.019362745
0.84901961 0.0099877451 0.022058824
0.89019608 0.0067401961 0.024509804
0.92990196 0.026041667 0.029901961
0.95686275 0.08627451 0.040196078
0.25882353 0.098958333 0.038296569
0.25882353 0.097120098 0.036994485
0.25882353 0.094117647 0.035294118
0.25882353 0.090571385 0.034007353
0.26470588 0.088235294 0.034099265
0.275 0.083157169 0.034375
0.28898591 0.08125 0.031602328
0.30400582 0.079756434 0.030821078
0.31917892 0.076960784 0.029901961
0.3472886 0.074509804 0.028944547
0.38584559 0.068520221 0.026393995
0.4241345 0.058892463 0.025980392
0.46053922 0.043841912 0.024448529
0.49442402 0.025980392 0.02433364
0.53541667 0.013357843 0.022426471
0.5838848 0.011764706 0.019056373
0.62898284 0.011764706 0.018137255
0.67295496 0.011764706 0.018137255
0.72084865 0.011764706 0.019607843
0.76782322 0.011764706 0.018321078
0.8122549 0.010539216 0.018137255
0.85447304 0.010845588 0.020657169
0.89411765 0.012913603 0.024126838
0.92598039 0.045503983 0.029901961
0.95294118 0.095098039 0.040196078
