site/assets/luts/natron-haldclut--kodak-e-100-gx-ektachrome-100--593c99698.cube
# LUTr-Project: LUTr — LUTrepository
# LUTr-Schema-Version: 1
# LUTr-ID: natron-haldclut--kodak-e-100-gx-ektachrome-100--593c99698
# LUTr-Title: kodak e-100 gx ektachrome 100
# LUTr-Collection: Natron HaldCLUT
# LUTr-Collection-ID: natron-haldclut-presets
# LUTr-Source: https://github.com/NatronGitHub/clut
# LUTr-Source-File: submissions/natron-haldclut-presets/colorslide/kodak_e-100_gx_ektachrome_100.png
# LUTr-Source-Format: PNG
# LUTr-Source-SHA256: 8401ec9ed8aeda3ddb5eb62a489b7a4711f8a836dd07d06fd158ef18131f09bd
# LUTr-License: CC-BY-SA-4.0
# LUTr-License-URL: https://github.com/NatronGitHub/clut#license
# LUTr-Tags: creative, film, film-emulation, hald-clut, natron, png, cube
# LUTr-Transform-Class: film-emulation
# LUTr-Input-Color-Space: srgb
# LUTr-Output-Color-Space: srgb
# LUTr-Color-Space-Confidence: assumed-display-referred
# LUTr-Conversion-Method: PNG LUT image decoded at 16-bit and sampled to 25x25x25 3D CUBE
# LUTr-Conversion-Date: 2026-07-27
# LUTr-Conversion-Tool: LUTr scripts/convert-all-to-cube.mjs
# LUTr-Conversion-Grid: 25x25x25
# LUTr-Note: Preserve this metadata and the upstream license notices when redistributing.
TITLE "kodak e-100 gx ektachrome 100"
LUT_3D_SIZE 5
DOMAIN_MIN 0 0 0
DOMAIN_MAX 1 1 1
0.054901961 0.0078431373 0.011764706
0.16470588 0.0029411765 0.0039215686
0.39019608 0.0039215686 0.0039215686
0.63137255 0.0039215686 0.0078431373
0.81568627 0.0078431373 0.019607843
0.12058824 0.21568627 0.092156863
0.25 0.20392157 0.089215686
0.45735294 0.15686275 0.049509804
0.66862745 0.073529412 0.02254902
0.81764706 0.015686275 0.023529412
0.26470588 0.48823529 0.19607843
0.37009804 0.49803922 0.21960784
0.56470588 0.4745098 0.20490196
0.75784314 0.41617647 0.14754902
0.90392157 0.26862745 0.11372549
0.46960784 0.75588235 0.35882353
0.53431373 0.75 0.3497549
0.6745098 0.74705882 0.3377451
0.83848039 0.71470588 0.3125
0.98431373 0.67941176 0.28137255
0.68627451 0.94901961 0.5254902
0.73235294 0.96568627 0.51372549
0.80784314 0.96078431 0.49411765
0.9245098 0.96568627 0.48333333
1 0.96078431 0.4745098
0.012745098 0.019607843 0.15392157
0.14215686 0.010784314 0.14215686
0.39264706 0.019607843 0.13627451
0.62279412 0.0039215686 0.095343137
0.81372549 0.0039215686 0.054901961
0.098039216 0.23529412 0.24313725
0.22665441 0.21550245 0.23137255
0.44019608 0.16666667 0.20502451
0.65 0.07254902 0.16838235
0.81887255 0.011764706 0.14093137
0.24215686 0.50147059 0.3377451
0.34705882 0.5 0.34215686
0.5377451 0.47647059 0.32254902
0.74068627 0.40980392 0.29448529
0.87941176 0.29117647 0.26470588
0.44803922 0.75686275 0.45882353
0.51102941 0.75606618 0.45729167
0.65196078 0.75490196 0.44669118
0.82745098 0.73235294 0.43651961
0.97352941 0.67941176 0.40710784
0.68627451 0.95686275 0.58627451
0.72671569 0.9745098 0.59240196
0.79607843 0.96078431 0.58627451
0.90955882 0.95612745 0.5745098
1 0.96372549 0.5627451
0.0078431373 0.023529412 0.36470588
0.10539216 0.01372549 0.35490196
0.35098039 0.016666667 0.33333333
0.59754902 0.0039215686 0.31176471
0.79803922 0 0.28039216
0.054411765 0.25294118 0.45343137
0.16960784 0.24117647 0.45
0.40857843 0.19730392 0.4252451
0.63137255 0.096691176 0.38982843
0.79558824 0.023039216 0.36127451
0.13823529 0.52156863 0.54901961
0.29362745 0.50808824 0.54534314
0.50735294 0.49411765 0.52352941
0.71593137 0.44338235 0.50147059
0.8745098 0.29607843 0.47058824
0.40588235 0.7745098 0.64656863
0.4817402 0.76470588 0.63529412
0.6254902 0.76078431 0.63112745
0.79803922 0.74191176 0.6182598
0.94264706 0.69019608 0.58970588
0.66862745 0.97058824 0.7372549
0.69656863 0.96617647 0.73480392
0.77941176 0.96568627 0.73333333
0.89215686 0.95686275 0.72156863
0.99411765 0.96078431 0.71372549
0.0039215686 0.044117647 0.59509804
0.054656863 0.023529412 0.58333333
0.31078431 0.024509804 0.56568627
0.56789216 0.00098039216 0.52941176
0.75686275 0 0.51372549
0.011764706 0.29901961 0.67622549
0.10667892 0.27806373 0.66783088
0.37647059 0.24215686 0.64301471
0.61243873 0.14001225 0.61348039
0.76078431 0.0068627451 0.58014706
0.0078431373 0.54509804 0.74754902
0.18247549 0.54289216 0.74607843
0.45367647 0.51519608 0.72965686
0.69191176 0.4754902 0.70845588
0.85245098 0.34558824 0.6754902
0.3247549 0.78823529 0.82671569
0.39705882 0.78376225 0.82352941
0.57977941 0.77352941 0.81176471
0.76917892 0.75759804 0.79920343
0.94191176 0.70686275 0.78039216
0.63529412 0.96862745 0.89607843
0.65269608 0.96470588 0.88921569
0.74068627 0.96127451 0.88039216
0.86151961 0.95588235 0.87254902
0.96568627 0.95392157 0.87254902
0 0.066666667 0.7372549
0.010784314 0.048039216 0.7254902
0.27647059 0.045098039 0.71176471
0.54509804 0.0039215686 0.67352941
0.74117647 0 0.69803922
0 0.32941176 0.82156863
0.031127451 0.32254902 0.80686275
0.3245098 0.27598039 0.78137255
0.59019608 0.18137255 0.74705882
0.76372549 0.0078431373 0.72058824
0.011764706 0.55294118 0.87647059
0.034803922 0.56078431 0.88039216
0.40098039 0.54705882 0.86176471
0.66470588 0.50294118 0.83872549
0.85882353 0.38823529 0.81764706
0.16862745 0.78333333 0.94117647
0.33161765 0.79117647 0.94191176
0.53921569 0.7877451 0.93627451
0.74509804 0.76862745 0.91960784
0.92156863 0.72156863 0.90294118
0.59607843 0.97647059 0.99215686
0.62647059 0.96862745 0.98333333
0.72352941 0.97843137 0.99411765
0.84901961 0.97352941 0.98921569
0.98039216 0.96470588 0.93333333
