site/assets/luts/natron-haldclut--polaroid-672--65f0bd30f.cube
# LUTr-Project: LUTr — LUTrepository
# LUTr-Schema-Version: 1
# LUTr-ID: natron-haldclut--polaroid-672--65f0bd30f
# LUTr-Title: polaroid 672
# LUTr-Collection: Natron HaldCLUT
# LUTr-Collection-ID: natron-haldclut-presets
# LUTr-Source: https://github.com/NatronGitHub/clut
# LUTr-Source-File: submissions/natron-haldclut-presets/bw/polaroid_672.png
# LUTr-Source-Format: PNG
# LUTr-Source-SHA256: e213e96072181911033c691b1ccd2ab475eaddf0a7ce05606f41c861ab8fb2c9
# LUTr-License: CC-BY-SA-4.0
# LUTr-License-URL: https://github.com/NatronGitHub/clut#license
# LUTr-Tags: creative, film, film-emulation, hald-clut, natron, png, cube
# LUTr-Transform-Class: film-emulation
# LUTr-Input-Color-Space: srgb
# LUTr-Output-Color-Space: srgb
# LUTr-Color-Space-Confidence: assumed-display-referred
# LUTr-Conversion-Method: PNG LUT image decoded at 16-bit and sampled to 25x25x25 3D CUBE
# LUTr-Conversion-Date: 2026-07-27
# LUTr-Conversion-Tool: LUTr scripts/convert-all-to-cube.mjs
# LUTr-Conversion-Grid: 25x25x25
# LUTr-Note: Preserve this metadata and the upstream license notices when redistributing.
TITLE "polaroid 672"
LUT_3D_SIZE 5
DOMAIN_MIN 0 0 0
DOMAIN_MAX 1 1 1
0.011764706 0.011764706 0.011764706
0.02745098 0.02745098 0.02745098
0.13529412 0.13529412 0.13529412
0.32156863 0.32156863 0.32156863
0.55294118 0.55294118 0.55294118
0.1 0.1 0.1
0.13602941 0.13602941 0.13602941
0.21568627 0.21568627 0.21568627
0.37279412 0.37279412 0.37279412
0.58333333 0.58333333 0.58333333
0.2254902 0.2254902 0.2254902
0.25735294 0.25735294 0.25735294
0.34705882 0.34705882 0.34705882
0.47892157 0.47892157 0.47892157
0.64117647 0.64117647 0.64117647
0.44705882 0.44705882 0.44705882
0.47254902 0.47254902 0.47254902
0.52009804 0.52009804 0.52009804
0.61568627 0.61568627 0.61568627
0.72647059 0.72647059 0.72647059
0.67843137 0.67843137 0.67843137
0.68529412 0.68529412 0.68529412
0.69019608 0.69019608 0.69019608
0.76568627 0.76568627 0.76568627
0.85098039 0.85098039 0.85098039
0.023529412 0.023529412 0.023529412
0.075735294 0.075735294 0.075735294
0.18480392 0.18480392 0.18480392
0.36372549 0.36372549 0.36372549
0.56764706 0.56764706 0.56764706
0.13137255 0.13137255 0.13137255
0.16096814 0.16096814 0.16096814
0.25588235 0.25588235 0.25588235
0.4127451 0.4127451 0.4127451
0.5997549 0.5997549 0.5997549
0.25686275 0.25686275 0.25686275
0.28921569 0.28921569 0.28921569
0.37745098 0.37745098 0.37745098
0.50073529 0.50073529 0.50073529
0.65637255 0.65637255 0.65637255
0.47034314 0.47034314 0.47034314
0.48449755 0.48449755 0.48449755
0.54215686 0.54215686 0.54215686
0.63039216 0.63039216 0.63039216
0.72745098 0.72745098 0.72745098
0.68137255 0.68137255 0.68137255
0.69313725 0.69313725 0.69313725
0.71715686 0.71715686 0.71715686
0.75784314 0.75784314 0.75784314
0.81666667 0.81666667 0.81666667
0.07254902 0.07254902 0.07254902
0.12745098 0.12745098 0.12745098
0.2372549 0.2372549 0.2372549
0.42058824 0.42058824 0.42058824
0.60784314 0.60784314 0.60784314
0.18872549 0.18872549 0.18872549
0.22683824 0.22683824 0.22683824
0.31936275 0.31936275 0.31936275
0.46262255 0.46262255 0.46262255
0.63480392 0.63480392 0.63480392
0.33823529 0.33823529 0.33823529
0.36887255 0.36887255 0.36887255
0.43284314 0.43284314 0.43284314
0.54730392 0.54730392 0.54730392
0.67843137 0.67843137 0.67843137
0.52892157 0.52892157 0.52892157
0.54509804 0.54509804 0.54509804
0.5872549 0.5872549 0.5872549
0.67009804 0.67009804 0.67009804
0.75294118 0.75294118 0.75294118
0.71960784 0.71960784 0.71960784
0.72745098 0.72745098 0.72745098
0.74901961 0.74901961 0.74901961
0.78676471 0.78676471 0.78676471
0.88431373 0.88431373 0.88431373
0.1754902 0.1754902 0.1754902
0.24019608 0.24019608 0.24019608
0.34705882 0.34705882 0.34705882
0.49019608 0.49019608 0.49019608
0.64705882 0.64705882 0.64705882
0.29779412 0.29779412 0.29779412
0.33627451 0.33627451 0.33627451
0.41286765 0.41286765 0.41286765
0.54938725 0.54938725 0.54938725
0.67377451 0.67377451 0.67377451
0.44313725 0.44313725 0.44313725
0.4622549 0.4622549 0.4622549
0.51911765 0.51911765 0.51911765
0.61164216 0.61164216 0.61164216
0.72843137 0.72843137 0.72843137
0.61495098 0.61495098 0.61495098
0.61936275 0.61936275 0.61936275
0.64803922 0.64803922 0.64803922
0.71666667 0.71666667 0.71666667
0.79803922 0.79803922 0.79803922
0.77745098 0.77745098 0.77745098
0.76176471 0.76176471 0.76176471
0.78235294 0.78235294 0.78235294
0.83333333 0.83333333 0.83333333
0.87941176 0.87941176 0.87941176
0.33333333 0.33333333 0.33333333
0.35882353 0.35882353 0.35882353
0.44117647 0.44117647 0.44117647
0.5745098 0.5745098 0.5745098
0.70980392 0.70980392 0.70980392
0.43431373 0.43431373 0.43431373
0.44509804 0.44509804 0.44509804
0.53627451 0.53627451 0.53627451
0.6252451 0.6252451 0.6252451
0.71960784 0.71960784 0.71960784
0.56862745 0.56862745 0.56862745
0.58382353 0.58382353 0.58382353
0.6245098 0.6245098 0.6245098
0.69411765 0.69411765 0.69411765
0.78627451 0.78627451 0.78627451
0.68431373 0.68431373 0.68431373
0.69901961 0.69901961 0.69901961
0.73529412 0.73529412 0.73529412
0.7752451 0.7752451 0.7752451
0.84411765 0.84411765 0.84411765
0.84705882 0.84705882 0.84705882
0.81666667 0.81666667 0.81666667
0.8627451 0.8627451 0.8627451
0.86470588 0.86470588 0.86470588
0.98431373 0.98431373 0.98431373
