site/assets/luts/natron-haldclut--fuji-ilford-hp5--0eae85f4d.cube
# LUTr-Project: LUTr — LUTrepository
# LUTr-Schema-Version: 1
# LUTr-ID: natron-haldclut--fuji-ilford-hp5--0eae85f4d
# LUTr-Title: fuji ilford hp5 +
# LUTr-Collection: Natron HaldCLUT
# LUTr-Collection-ID: natron-haldclut-presets
# LUTr-Source: https://github.com/NatronGitHub/clut
# LUTr-Source-File: submissions/natron-haldclut-presets/negative_new/fuji_ilford_hp5_+.png
# LUTr-Source-Format: PNG
# LUTr-Source-SHA256: 303dcfee90c3b9bb6d1194b9e9aa3b77a81e5dc8defbc35c50623a5ce189ac88
# LUTr-License: CC-BY-SA-4.0
# LUTr-License-URL: https://github.com/NatronGitHub/clut#license
# LUTr-Tags: creative, film, film-emulation, hald-clut, natron, png, cube
# LUTr-Transform-Class: film-emulation
# LUTr-Input-Color-Space: srgb
# LUTr-Output-Color-Space: srgb
# LUTr-Color-Space-Confidence: assumed-display-referred
# LUTr-Conversion-Method: PNG LUT image decoded at 16-bit and sampled to 25x25x25 3D CUBE
# LUTr-Conversion-Date: 2026-07-27
# LUTr-Conversion-Tool: LUTr scripts/convert-all-to-cube.mjs
# LUTr-Conversion-Grid: 25x25x25
# LUTr-Note: Preserve this metadata and the upstream license notices when redistributing.
TITLE "fuji ilford hp5 +"
LUT_3D_SIZE 5
DOMAIN_MIN 0 0 0
DOMAIN_MAX 1 1 1
0.15294118 0.15294118 0.15294118
0.19509804 0.19509804 0.19509804
0.30196078 0.30196078 0.30196078
0.43333333 0.43333333 0.43333333
0.62745098 0.62745098 0.62745098
0.21764706 0.21764706 0.21764706
0.2627451 0.2627451 0.2627451
0.38235294 0.38235294 0.38235294
0.5127451 0.5127451 0.5127451
0.68823529 0.68823529 0.68823529
0.40196078 0.40196078 0.40196078
0.40931373 0.40931373 0.40931373
0.52156863 0.52156863 0.52156863
0.66078431 0.66078431 0.66078431
0.79607843 0.79607843 0.79607843
0.64019608 0.64019608 0.64019608
0.6370098 0.6370098 0.6370098
0.68333333 0.68333333 0.68333333
0.77647059 0.77647059 0.77647059
0.89117647 0.89117647 0.89117647
0.87058824 0.87058824 0.87058824
0.8745098 0.8745098 0.8745098
0.88627451 0.88627451 0.88627451
0.92647059 0.92647059 0.92647059
0.94901961 0.94901961 0.94901961
0.21372549 0.21372549 0.21372549
0.25294118 0.25294118 0.25294118
0.33186275 0.33186275 0.33186275
0.45588235 0.45588235 0.45588235
0.61470588 0.61470588 0.61470588
0.27916667 0.27916667 0.27916667
0.31764706 0.31764706 0.31764706
0.39705882 0.39705882 0.39705882
0.52254902 0.52254902 0.52254902
0.67352941 0.67352941 0.67352941
0.45735294 0.45735294 0.45735294
0.45588235 0.45588235 0.45588235
0.53946078 0.53946078 0.53946078
0.66911765 0.66911765 0.66911765
0.80588235 0.80588235 0.80588235
0.67352941 0.67352941 0.67352941
0.67254902 0.67254902 0.67254902
0.71372549 0.71372549 0.71372549
0.78823529 0.78823529 0.78823529
0.88897059 0.88897059 0.88897059
0.89901961 0.89901961 0.89901961
0.89019608 0.89019608 0.89019608
0.89411765 0.89411765 0.89411765
0.9247549 0.9247549 0.9247549
0.95686275 0.95686275 0.95686275
0.35882353 0.35882353 0.35882353
0.38921569 0.38921569 0.38921569
0.44705882 0.44705882 0.44705882
0.55490196 0.55490196 0.55490196
0.69411765 0.69411765 0.69411765
0.3995098 0.3995098 0.3995098
0.44068627 0.44068627 0.44068627
0.49313725 0.49313725 0.49313725
0.58676471 0.58676471 0.58676471
0.72941176 0.72941176 0.72941176
0.5254902 0.5254902 0.5254902
0.53112745 0.53112745 0.53112745
0.5995098 0.5995098 0.5995098
0.68553922 0.68553922 0.68553922
0.78823529 0.78823529 0.78823529
0.73088235 0.73088235 0.73088235
0.73125 0.73125 0.73125
0.76323529 0.76323529 0.76323529
0.81556373 0.81556373 0.81556373
0.90294118 0.90294118 0.90294118
0.90588235 0.90588235 0.90588235
0.9 0.9 0.9
0.9127451 0.9127451 0.9127451
0.92745098 0.92745098 0.92745098
0.94901961 0.94901961 0.94901961
0.59607843 0.59607843 0.59607843
0.60294118 0.60294118 0.60294118
0.65490196 0.65490196 0.65490196
0.70196078 0.70196078 0.70196078
0.78921569 0.78921569 0.78921569
0.61470588 0.61470588 0.61470588
0.62941176 0.62941176 0.62941176
0.68235294 0.68235294 0.68235294
0.72352941 0.72352941 0.72352941
0.82058824 0.82058824 0.82058824
0.64901961 0.64901961 0.64901961
0.67867647 0.67867647 0.67867647
0.74264706 0.74264706 0.74264706
0.78504902 0.78504902 0.78504902
0.84607843 0.84607843 0.84607843
0.76764706 0.76764706 0.76764706
0.77622549 0.77622549 0.77622549
0.81041667 0.81041667 0.81041667
0.85318627 0.85318627 0.85318627
0.90784314 0.90784314 0.90784314
0.9254902 0.9254902 0.9254902
0.9247549 0.9247549 0.9247549
0.9254902 0.9254902 0.9254902
0.9375 0.9375 0.9375
0.97156863 0.97156863 0.97156863
0.84313725 0.84313725 0.84313725
0.83529412 0.83529412 0.83529412
0.87254902 0.87254902 0.87254902
0.89803922 0.89803922 0.89803922
0.91764706 0.91764706 0.91764706
0.85098039 0.85098039 0.85098039
0.85196078 0.85196078 0.85196078
0.88235294 0.88235294 0.88235294
0.88333333 0.88333333 0.88333333
0.9245098 0.9245098 0.9245098
0.87058824 0.87058824 0.87058824
0.87058824 0.87058824 0.87058824
0.89019608 0.89019608 0.89019608
0.92254902 0.92254902 0.92254902
0.93921569 0.93921569 0.93921569
0.90294118 0.90294118 0.90294118
0.89901961 0.89901961 0.89901961
0.91078431 0.91078431 0.91078431
0.92965686 0.92965686 0.92965686
0.94117647 0.94117647 0.94117647
0.94509804 0.94509804 0.94509804
0.94019608 0.94019608 0.94019608
0.94117647 0.94117647 0.94117647
0.95294118 0.95294118 0.95294118
0.96078431 0.96078431 0.96078431
