site/assets/luts/natron-haldclut--kodak-portra-400--bdcc641c3.cube
# LUTr-Project: LUTr — LUTrepository
# LUTr-Schema-Version: 1
# LUTr-ID: natron-haldclut--kodak-portra-400--bdcc641c3
# LUTr-Title: kodak portra 400
# LUTr-Collection: Natron HaldCLUT
# LUTr-Collection-ID: natron-haldclut-presets
# LUTr-Source: https://github.com/NatronGitHub/clut
# LUTr-Source-File: submissions/natron-haldclut-presets/negative_new/kodak_portra_400.png
# LUTr-Source-Format: PNG
# LUTr-Source-SHA256: 1e55696363f4bb45222616e000e9e099a538fbb116605eea7b75852200d6d3f0
# LUTr-License: CC-BY-SA-4.0
# LUTr-License-URL: https://github.com/NatronGitHub/clut#license
# LUTr-Tags: creative, film, film-emulation, hald-clut, natron, png, cube
# LUTr-Transform-Class: film-emulation
# LUTr-Input-Color-Space: srgb
# LUTr-Output-Color-Space: srgb
# LUTr-Color-Space-Confidence: assumed-display-referred
# LUTr-Conversion-Method: PNG LUT image decoded at 16-bit and sampled to 25x25x25 3D CUBE
# LUTr-Conversion-Date: 2026-07-27
# LUTr-Conversion-Tool: LUTr scripts/convert-all-to-cube.mjs
# LUTr-Conversion-Grid: 25x25x25
# LUTr-Note: Preserve this metadata and the upstream license notices when redistributing.
TITLE "kodak portra 400"
LUT_3D_SIZE 25
DOMAIN_MIN 0 0 0
DOMAIN_MAX 1 1 1
0.023529412 0.019607843 0.019607843
0.030882353 0.018137255 0.018137255
0.061764706 0.023529412 0.024509804
0.092647059 0.023529412 0.031372549
0.12352941 0.01372549 0.035294118
0.16764706 0.0083333333 0.030882353
0.22941176 0.021568627 0.017647059
0.28872549 0.031372549 0.006372549
0.36078431 0.02745098 0.0039215686
0.43284314 0.017156863 0.0039215686
0.50392157 0.0078431373 0.0039215686
0.56960784 0.015196078 0.01127451
0.62941176 0.021568627 0.01372549
0.68480392 0.0078431373 0.0039215686
0.73921569 0.0039215686 0.0039215686
0.79313725 0.0039215686 0.0039215686
0.84705882 0 0.0039215686
0.88578431 0.010294118 0.0014705882
0.91764706 0.024509804 0.00098039216
0.95147059 0.034803922 0.0039215686
0.97843137 0.054901961 0.0039215686
0.98480392 0.1004902 0
0.99117647 0.14901961 0
0.99607843 0.19558824 0
1 0.22745098 0
0.029901961 0.03627451 0.025980392
0.032352941 0.03627451 0.023529412
0.056004902 0.036642157 0.022426471
0.090196078 0.040196078 0.021078431
0.12230392 0.036764706 0.025
0.17156863 0.030882353 0.024509804
0.22941176 0.028431373 0.016053922
0.28480392 0.032291667 0.0048406863
0.35686275 0.02745098 0.0014705882
0.43192402 0.015625 0.0039215686
0.50208333 0.0050245098 0.0039215686
0.56697304 0.015196078 0.01127451
0.62941176 0.023529412 0.01372549
0.68480392 0.0073529412 0.0039215686
0.73921569 0.0074754902 0.0039215686
0.79166667 0.003370098 0.0039215686
0.84705882 0 0.0014705882
0.88578431 0.009375 0
0.91666667 0.03247549 0
0.94754902 0.059497549 0.0039215686
0.97009804 0.076470588 0.0039215686
0.98057598 0.1153799 0
0.98872549 0.15784314 0
0.99607843 0.20196078 0
1 0.23382353 0
0.03627451 0.052941176 0.031372549
0.038112745 0.052941176 0.031372549
0.04877451 0.055882353 0.028431373
0.083333333 0.056862745 0.021078431
0.11715686 0.060784314 0.01127451
0.17144608 0.057843137 0.015073529
0.22941176 0.058823529 0.019852941
0.28223039 0.054901961 0.0049019608
0.35294118 0.040196078 0.0039215686
0.42892157 0.021568627 0.0039215686
0.49926471 0.0039215686 0.0039215686
0.56556373 0.015686275 0.01127451
0.63137255 0.025490196 0.012745098
0.68578431 0.0088235294 0.0025735294
0.74019608 0.012745098 0
0.79166667 0.013970588 0
0.84313725 0.0098039216 0
0.88186275 0.039705882 0
0.91642157 0.083333333 0
0.93921569 0.10686275 0
0.95539216 0.13333333 0.0039215686
0.96813725 0.16323529 0.0035539216
0.97941176 0.19411765 0
0.99362745 0.22401961 0
1 0.24215686 0
0.042647059 0.073529412 0.035294118
0.042647059 0.073529412 0.035294118
0.043259804 0.073529412 0.035171569
0.069178922 0.080453431 0.031372549
0.10637255 0.090686275 0.020833333
0.16421569 0.096568627 0.015196078
0.22291667 0.1 0.015563725
0.28333333 0.099816176 0.011580882
0.35294118 0.091666667 0.01127451
0.425 0.068443627 0.0078431373
0.4935049 0.051470588 0.0078431373
0.56219363 0.059252451 0.0078431373
0.62745098 0.06127451 0.0080882353
0.68529412 0.04754902 0
0.73639706 0.064705882 0
0.7877451 0.076470588 0
0.83578431 0.093627451 0
0.88302696 0.11893382 0
0.90833333 0.14068627 0
0.92892157 0.16470588 0.003002451
0.94901961 0.18602941 0.0039215686
0.965625 0.21427696 0.0039215686
0.98198529 0.23909314 0.00098039216
0.99362745 0.26372549 0
1 0.27303922 0
0.029411765 0.10980392 0.039215686
0.029411765 0.10980392 0.039215686
0.033823529 0.11372549 0.044117647
0.055392157 0.11715686 0.045343137
0.098039216 0.12745098 0.037254902
0.15392157 0.13553922 0.028921569
0.21568627 0.14068627 0.020098039
0.28014706 0.14117647 0.017647059
0.34901961 0.13921569 0.015686275
0.41985294 0.12696078 0.0125
0.49068627 0.12058824 0.0093137255
0.55588235 0.12696078 0.0078431373
0.62254902 0.1372549 0.0049019608
0.68480392 0.1377451 0
0.73480392 0.14656863 0
0.78308824 0.15441176 0
0.83137255 0.16470588 0
0.87843137 0.17818627 0
0.90882353 0.19411765 0
0.93235294 0.2127451 0
0.95294118 0.23627451 0.0039215686
0.96911765 0.25808824 0.0036764706
0.98235294 0.28039216 0
0.99362745 0.29754902 0
0.99607843 0.30392157 0
0.018627451 0.14705882 0.039215686
0.019117647 0.15079657 0.042156863
0.024387255 0.15490196 0.056372549
0.041176471 0.15882353 0.063296569
0.084803922 0.16421569 0.053186275
0.13529412 0.17058824 0.039154412
0.19742647 0.17745098 0.028431373
0.26813725 0.1877451 0.019914216
0.34068627 0.19460784 0.015686275
0.41305147 0.19276961 0.015379902
0.48394608 0.19252451 0.010416667
0.5495098 0.19859069 0.0074142157
0.61519608 0.20465686 0.0036764706
0.67996324 0.20686275 0
0.72928922 0.21029412 0
0.77579657 0.21439951 0
0.82352941 0.22254902 0
0.87077206 0.23529412 0
0.90784314 0.25147059 0
0.93143382 0.26819853 0
0.94901961 0.28651961 0
0.96568627 0.30098039 0
0.98333333 0.3185049 0
0.99362745 0.32892157 0.0024509804
0.99607843 0.33480392 0
0.0049019608 0.18431373 0.03627451
0.010661765 0.19068627 0.049142157
0.017647059 0.19607843 0.064460784
0.024877451 0.19620098 0.068014706
0.053921569 0.19705882 0.056372549
0.10821078 0.20441176 0.043014706
0.17941176 0.21544118 0.035294118
0.25085784 0.22892157 0.025367647
0.32352941 0.23921569 0.019607843
0.40306373 0.25245098 0.011764706
0.47818627 0.26078431 0.0046568627
0.54301471 0.26078431 0.0039215686
0.60490196 0.26176471 0.0029411765
0.66629902 0.26176471 0
0.72156863 0.26176471 0
0.77095588 0.27071078 0
0.81666667 0.28039216 0
0.86360294 0.29460784 0
0.90416667 0.30906863 0
0.92843137 0.32009804 0
0.94901961 0.33137255 0
0.96862745 0.34215686 0
0.98627451 0.35588235 0.0029411765
0.99362745 0.36507353 0.0006127451
0.99607843 0.36862745 0
0 0.23088235 0.04754902
0.003370098 0.2338848 0.054901961
0.0073529412 0.23443627 0.060906863
0.010294118 0.23333333 0.065196078
0.02377451 0.23063725 0.059558824
0.083333333 0.23805147 0.048345588
0.15882353 0.25196078 0.040196078
0.23088235 0.26617647 0.025980392
0.30294118 0.28039216 0.015686275
0.38229167 0.29460784 0.0093137255
0.46164216 0.31102941 0.0050245098
0.52892157 0.31715686 0.0039215686
0.59460784 0.31715686 0.0039215686
0.65245098 0.31470588 0
0.71127451 0.31654412 0
0.76366422 0.32254902 0
0.81029412 0.33284314 0
0.85686275 0.34705882 0
0.89656863 0.35526961 0
0.92794118 0.36243873 0
0.94901961 0.37254902 0
0.97107843 0.38333333 0
0.99056373 0.39705882 0
0.99607843 0.40196078 0
0.99607843 0.40196078 0
0 0.28627451 0.066666667
0.0024509804 0.29019608 0.076960784
0.0039215686 0.28235294 0.070588235
0.0039215686 0.27843137 0.070588235
0.0058823529 0.27254902 0.068627451
0.062745098 0.27941176 0.062254902
0.14215686 0.29313725 0.049019608
0.20882353 0.30735294 0.028431373
0.27843137 0.32156863 0.011764706
0.35686275 0.33578431 0.0078431373
0.43529412 0.35098039 0.0078431373
0.51764706 0.36764706 0.0078431373
0.58431373 0.37254902 0.0039215686
0.64215686 0.37254902 0
0.70098039 0.37254902 0
0.75637255 0.37794118 0
0.80392157 0.38823529 0
0.84901961 0.39460784 0
0.88627451 0.40098039 0
0.92009804 0.40784314 0
0.95098039 0.41568627 0
0.97745098 0.42401961 0
0.99117647 0.43431373 0
0.99607843 0.43921569 0
0.99607843 0.43921569 0
0 0.34166667 0.087254902
0 0.33921569 0.085723039
0.0014705882 0.33321078 0.084803922
0.0039215686 0.32990196 0.084803922
0.0058823529 0.32598039 0.095588235
0.045588235 0.32794118 0.092647059
0.11764706 0.34007353 0.06875
0.18431373 0.35245098 0.038786765
0.24754902 0.3627451 0.0093137255
0.33235294 0.37941176 0.0078431373
0.41470588 0.39509804 0.0078431373
0.49491422 0.41060049 0.0078431373
0.56642157 0.42034314 0.0039215686
0.62941176 0.42794118 0.0037377451
0.68970588 0.43039216 0
0.74515931 0.4348652 0
0.79117647 0.43970588 0
0.83480392 0.44362745 0
0.87316176 0.44852941 0.0039215686
0.90980392 0.45508578 0.0026348039
0.94656863 0.46004902 0
0.98137255 0.46519608 0
0.99215686 0.47365196 0
0.99215686 0.47493873 0
0.99215686 0.47647059 0
0 0.38921569 0.10294118
0 0.38639706 0.09754902
0 0.38112745 0.091911765
0.0025735294 0.37745098 0.10294118
0.0029411765 0.37696078 0.12009804
0.020955882 0.37303922 0.12352941
0.093137255 0.38333333 0.099754902
0.16372549 0.39362745 0.069117647
0.22941176 0.40392157 0.038235294
0.30784314 0.41813725 0.01495098
0.38995098 0.43308824 0.01004902
0.46764706 0.44644608 0.0069852941
0.53872549 0.45686275 0.0039215686
0.60796569 0.47009804 0.0039215686
0.67058824 0.48137255 0.0017156863
0.73125 0.49019608 0.0006127451
0.77647059 0.49019608 0.00098039216
0.82058824 0.49301471 0.0039215686
0.86176471 0.49509804 0.0039215686
0.89901961 0.50147059 0.0039215686
0.93627451 0.50588235 0.0039215686
0.97303922 0.50882353 0.00098039216
0.99093137 0.50955882 0.00024509804
0.99117647 0.50980392 0
0.99117647 0.5127451 0
0 0.4372549 0.11715686
0 0.43088235 0.11292892
0 0.4254902 0.11323529
0 0.425 0.12395833
0 0.42156863 0.14019608
0.0099264706 0.41764706 0.14754902
0.068995098 0.4245098 0.12990196
0.14068627 0.43351716 0.10392157
0.20882353 0.44509804 0.069117647
0.2872549 0.45784314 0.040686275
0.36127451 0.46973039 0.013357843
0.4372549 0.48339461 0.0039215686
0.50931373 0.49436275 0.0022058824
0.58431373 0.50833333 0.0073529412
0.65257353 0.51862745 0.01127451
0.71421569 0.5254902 0.0076593137
0.76568627 0.53137255 0.0039215686
0.81029412 0.53400735 0.0039215686
0.85147059 0.53541667 0.0039215686
0.88872549 0.53964461 0.0039215686
0.92598039 0.54338235 0.0039215686
0.95839461 0.54362745 0.0073529412
0.97990196 0.54705882 0.0047794118
0.98609069 0.54705882 0.0037377451
0.98823529 0.54705882 0.0034313725
0 0.47843137 0.1254902
0 0.4745098 0.12867647
0 0.47254902 0.14068627
0 0.47058824 0.15073529
0.0039215686 0.46470588 0.15882353
0.0125 0.4622549 0.16421569
0.044607843 0.46078431 0.15392157
0.11151961 0.47009804 0.13210784
0.18627451 0.48235294 0.10196078
0.26348039 0.49583333 0.073039216
0.33627451 0.50686275 0.042647059
0.41029412 0.51519608 0.012990196
0.4872549 0.53039216 0.012745098
0.56421569 0.54362745 0.019852941
0.63088235 0.55392157 0.020098039
0.69509804 0.5622549 0.01495098
0.75294118 0.56862745 0.0098039216
0.79926471 0.57181373 0.0066176471
0.84019608 0.57303922 0.0078431373
0.87671569 0.57622549 0.0078431373
0.9127451 0.57843137 0.0078431373
0.94411765 0.58039216 0.0080882353
0.96862745 0.58235294 0.0083333333
0.97990196 0.58235294 0.0051470588
0.98235294 0.58235294 0.0039215686
0 0.51960784 0.13480392
0 0.51697304 0.15067402
0 0.51568627 0.16372549
0.003002451 0.51568627 0.17696078
0.0039215686 0.50588235 0.17745098
0.0034926471 0.4995098 0.18088235
0.019240196 0.49558824 0.17745098
0.079105392 0.50245098 0.15753676
0.15980392 0.51911765 0.13529412
0.24626225 0.53333333 0.12542892
0.32401961 0.53958333 0.091053922
0.39993873 0.54607843 0.069669118
0.47205882 0.56397059 0.049754902
0.5401348 0.57843137 0.036213235
0.60833333 0.58872549 0.028921569
0.67058824 0.59540441 0.02254902
0.73235294 0.60539216 0.015686275
0.78382353 0.60539216 0.0078431373
0.82561275 0.6067402 0.0078431373
0.86378676 0.60931373 0.0078431373
0.89926471 0.61348039 0.0078431373
0.92947304 0.61715686 0.011764706
0.95441176 0.61715686 0.011764706
0.97352941 0.61715686 0.0078431373
0.97990196 0.61715686 0.0039215686
0 0.55686275 0.16960784
0 0.55686275 0.17205882
0 0.55686275 0.18333333
0 0.55686275 0.19460784
0.0024509804 0.54705882 0.19803922
0 0.54068627 0.19803922
0 0.53039216 0.19583333
0.051593137 0.53333333 0.18737745
0.14607843 0.54705882 0.17254902
0.22941176 0.55735294 0.1622549
0.30784314 0.56666667 0.14509804
0.38284314 0.57696078 0.12156863
0.45490196 0.59166667 0.10098039
0.5254902 0.60539216 0.080392157
0.5872549 0.61568627 0.057598039
0.64705882 0.62598039 0.037622549
0.70784314 0.63333333 0.019607843
0.76433824 0.63872549 0.0093137255
0.80882353 0.64019608 0.0039215686
0.84705882 0.64276961 0.0074754902
0.88382353 0.64754902 0.0078431373
0.91617647 0.65110294 0.011764706
0.94632353 0.65122549 0.014705882
0.96617647 0.65098039 0.010294118
0.97647059 0.65098039 0.0078431373
0 0.59803922 0.19656863
0 0.59803922 0.20202206
0 0.59803922 0.20723039
0 0.59803922 0.21292892
0.0026960784 0.58897059 0.21813725
0.0039215686 0.58186275 0.22273284
0.0083333333 0.57487745 0.22512255
0.061764706 0.57297794 0.22401961
0.14411765 0.57843137 0.21372549
0.22015931 0.58572304 0.20343137
0.29129902 0.5932598 0.19460784
0.3658701 0.60373775 0.17696078
0.43970588 0.61813725 0.15637255
0.51127451 0.63235294 0.13578431
0.57193627 0.64264706 0.11335784
0.62849265 0.65147059 0.075980392
0.6872549 0.66176471 0.035784314
0.74601716 0.66960784 0.0098651961
0.79313725 0.67107843 0.0024509804
0.83057598 0.675 0.0052083333
0.86911765 0.68088235 0.0125
0.91158088 0.68284314 0.015686275
0.94276961 0.68284314 0.015686275
0.96372549 0.68284314 0.010845588
0.97647059 0.68284314 0.0078431373
0 0.63921569 0.21960784
0 0.63921569 0.22598039
0 0.63529412 0.23235294
0.0034313725 0.63529412 0.23921569
0.0039215686 0.63137255 0.24509804
0.0083333333 0.62696078 0.25490196
0.024509804 0.62058824 0.25784314
0.080882353 0.61813725 0.25882353
0.16078431 0.61960784 0.25098039
0.23039216 0.61960784 0.24313725
0.3 0.62352941 0.23431373
0.36176471 0.63088235 0.22401961
0.43333333 0.64509804 0.20392157
0.50098039 0.65931373 0.1872549
0.55882353 0.66960784 0.16666667
0.61519608 0.67843137 0.13529412
0.67058824 0.68627451 0.08627451
0.72598039 0.69656863 0.032352941
0.77647059 0.70294118 0.0049019608
0.82107843 0.70588235 0.015196078
0.86470588 0.71176471 0.019607843
0.90784314 0.71421569 0.015686275
0.94215686 0.71764706 0.015686275
0.96617647 0.71764706 0.011764706
0.97647059 0.71764706 0.0078431373
0 0.67794118 0.25294118
0.003370098 0.67647059 0.25931373
0.0039215686 0.67585784 0.26678922
0.0039215686 0.67254902 0.27009804
0.0039215686 0.66936275 0.27401961
0.010784314 0.66470588 0.27971814
0.039583333 0.66470588 0.28578431
0.10147059 0.65931373 0.28970588
0.17352941 0.65294118 0.28970588
0.24705882 0.6504902 0.28186275
0.31666667 0.65502451 0.2754902
0.37254902 0.66176471 0.26519608
0.425 0.67205882 0.25220588
0.48805147 0.68382353 0.23529412
0.54852941 0.69411765 0.21997549
0.60098039 0.70386029 0.20784314
0.65245098 0.71078431 0.17892157
0.70539216 0.71807598 0.13051471
0.76078431 0.72745098 0.088235294
0.81078431 0.7341299 0.060110294
0.85833333 0.73946078 0.041666667
0.90569853 0.74509804 0.021568627
0.94215686 0.74852941 0.015686275
0.96917892 0.75098039 0.011764706
0.97647059 0.75098039 0.0078431373
0.0039215686 0.71372549 0.29411765
0.0057598039 0.71556373 0.30232843
0.0031862745 0.7127451 0.30122549
0.0087009804 0.70980392 0.30490196
0.0044117647 0.70931373 0.30098039
0.01495098 0.70588235 0.30539216
0.069607843 0.70269608 0.3127451
0.13443627 0.69767157 0.31911765
0.20196078 0.69019608 0.32156863
0.26727941 0.68235294 0.32156863
0.33235294 0.68627451 0.31348039
0.38419118 0.69313725 0.30637255
0.42892157 0.70147059 0.29656863
0.47879902 0.70943627 0.28688725
0.54093137 0.72352941 0.27745098
0.59558824 0.72990196 0.26507353
0.64313725 0.73627451 0.24509804
0.69007353 0.74264706 0.22303922
0.74117647 0.75122549 0.18848039
0.79522059 0.75931373 0.15183824
0.84705882 0.76568627 0.11764706
0.8942402 0.77205882 0.076348039
0.93921569 0.78137255 0.033578431
0.97071078 0.7872549 0.011029412
0.97254902 0.78333333 0.012745098
0 0.75098039 0.33529412
0.006372549 0.75098039 0.33578431
0.00012254902 0.75012255 0.33578431
0.020281863 0.7471201 0.33878676
0.039215686 0.74705882 0.33897059
0.069178922 0.74356618 0.34270833
0.13823529 0.74019608 0.35
0.20900735 0.73529412 0.36029412
0.26372549 0.72794118 0.3627451
0.30196078 0.72352941 0.35882353
0.34607843 0.71973039 0.35392157
0.39705882 0.72745098 0.34754902
0.4497549 0.73553922 0.34656863
0.49515931 0.74411765 0.34215686
0.54669118 0.75441176 0.33186275
0.59558824 0.76078431 0.31979167
0.64313725 0.76715686 0.30686275
0.68823529 0.77107843 0.29019608
0.72990196 0.77904412 0.2689951
0.77886029 0.78627451 0.24068627
0.83039216 0.79289216 0.20367647
0.8778799 0.79901961 0.1622549
0.92512255 0.80931373 0.12058824
0.96580882 0.81470588 0.094914216
0.97647059 0.81421569 0.08872549
0.031372549 0.78627451 0.37647059
0.061519608 0.78504902 0.37965686
0.070098039 0.78382353 0.38039216
0.10367647 0.78235294 0.38210784
0.15588235 0.78039216 0.38627451
0.1875 0.77843137 0.39411765
0.22843137 0.77696078 0.40098039
0.28431373 0.77377451 0.40465686
0.31568627 0.76862745 0.40588235
0.3504902 0.7622549 0.40343137
0.38382353 0.75686275 0.4
0.42328431 0.76029412 0.4
0.46862745 0.76862745 0.39901961
0.50955882 0.775 0.39362745
0.54852941 0.78137255 0.38333333
0.59558824 0.78897059 0.375
0.64313725 0.79411765 0.36862745
0.68823529 0.80122549 0.35465686
0.72941176 0.80686275 0.33529412
0.77058824 0.81348039 0.32009804
0.81568627 0.82156863 0.29901961
0.86323529 0.82941176 0.26715686
0.91176471 0.83627451 0.23627451
0.95612745 0.84264706 0.21813725
0.98235294 0.84509804 0.21176471
0.19166667 0.82156863 0.43039216
0.19509804 0.81893382 0.43382353
0.20036765 0.81715686 0.43431373
0.23094363 0.81715686 0.4377451
0.26715686 0.81740196 0.44044118
0.29160539 0.81372549 0.44656863
0.32205882 0.81372549 0.45686275
0.35147059 0.81194853 0.45998775
0.37205882 0.80588235 0.45735294
0.39822304 0.80165441 0.45735294
0.42892157 0.79803922 0.45747549
0.46280637 0.79803922 0.46127451
0.4995098 0.80343137 0.45980392
0.54025735 0.80980392 0.45349265
0.575 0.81629902 0.44754902
0.60686275 0.81893382 0.4408701
0.64803922 0.825 0.43088235
0.68872549 0.83137255 0.42058824
0.73382353 0.8377451 0.40686275
0.77892157 0.84503676 0.39656863
0.81397059 0.85269608 0.39019608
0.85643382 0.86035539 0.37555147
0.90183824 0.86715686 0.35245098
0.94656863 0.87205882 0.33707108
0.97941176 0.8754902 0.32205882
0.31176471 0.85882353 0.49509804
0.31458333 0.85637255 0.49509804
0.3245098 0.85490196 0.49607843
0.33921569 0.85490196 0.49987745
0.35833333 0.85490196 0.50588235
0.37647059 0.85490196 0.51090686
0.39877451 0.85490196 0.51862745
0.42352941 0.85098039 0.52316176
0.44019608 0.84705882 0.51862745
0.46078431 0.84068627 0.51862745
0.48235294 0.83921569 0.51887255
0.51115196 0.83921569 0.52218137
0.53921569 0.83970588 0.525
0.57414216 0.84460784 0.52254902
0.60661765 0.85171569 0.51960784
0.62928922 0.85196078 0.50931373
0.66470588 0.85882353 0.50294118
0.70588235 0.86556373 0.50134804
0.74730392 0.87254902 0.49215686
0.78578431 0.87928922 0.48272059
0.81764706 0.88529412 0.47745098
0.85294118 0.8942402 0.47169118
0.89509804 0.90122549 0.45784314
0.93517157 0.90294118 0.43713235
0.95588235 0.9 0.41078431
0.41470588 0.89852941 0.56715686
0.41862745 0.9 0.56715686
0.42745098 0.89754902 0.57107843
0.43627451 0.89607843 0.56960784
0.45318627 0.89754902 0.575
0.46715686 0.89607843 0.5776348
0.48039216 0.89607843 0.58247549
0.50098039 0.89460784 0.58676471
0.51617647 0.88823529 0.58676471
0.52947304 0.8848652 0.58921569
0.55343137 0.88431373 0.59105392
0.57647059 0.88431373 0.59460784
0.59436275 0.88431373 0.59779412
0.62058824 0.88823529 0.6
0.64852941 0.89215686 0.59705882
0.66764706 0.89215686 0.58584559
0.69068627 0.89460784 0.58039216
0.72555147 0.90245098 0.58376225
0.76335784 0.91066176 0.57977941
0.79607843 0.91550245 0.57058824
0.82303922 0.92083333 0.56544118
0.85294118 0.92647059 0.56439951
0.89080882 0.93382353 0.55245098
0.91617647 0.93088235 0.525
0.92892157 0.92598039 0.50098039
0.50980392 0.93333333 0.62745098
0.51617647 0.93578431 0.63382353
0.53333333 0.94117647 0.64313725
0.5254902 0.9372549 0.63529412
0.54313725 0.93921569 0.64117647
0.5377451 0.92941176 0.63480392
0.55098039 0.92941176 0.63823529
0.57696078 0.93480392 0.65
0.58431373 0.92941176 0.64705882
0.60098039 0.92794118 0.65735294
0.6127451 0.9245098 0.65490196
0.62696078 0.91813725 0.65490196
0.64313725 0.91960784 0.65686275
0.66764706 0.9254902 0.66715686
0.68823529 0.92647059 0.66764706
0.70490196 0.9254902 0.65343137
0.72156863 0.9254902 0.64705882
0.74852941 0.93578431 0.65098039
0.7754902 0.94215686 0.65392157
0.80294118 0.94509804 0.64362745
0.82745098 0.94705882 0.63529412
0.85637255 0.95343137 0.63137255
0.88431373 0.95686275 0.62254902
0.89558824 0.95147059 0.59705882
0.90196078 0.94901961 0.58039216
0.019607843 0.025980392 0.040196078
0.032352941 0.029963235 0.040196078
0.060784314 0.030269608 0.040196078
0.092463235 0.025857843 0.038051471
0.12352941 0.0098039216 0.036519608
0.1713848 0.0058823529 0.034620098
0.23333333 0.016176471 0.028431373
0.29601716 0.021078431 0.027879902
0.36715686 0.017156863 0.019117647
0.43676471 0.010784314 0.0078431373
0.50490196 0.0039215686 0.0039215686
0.56960784 0.012745098 0.01372549
0.63063725 0.018382353 0.021323529
0.68480392 0.0073529412 0.010294118
0.73921569 0.0039215686 0.010294118
0.79166667 0.0039215686 0.014215686
0.84705882 0.006372549 0.016666667
0.88823529 0.0078431373 0.0072916667
0.92120098 0.014215686 0.0039215686
0.95520833 0.024693627 0.0039215686
0.97843137 0.051715686 0.0039215686
0.98854167 0.093627451 0
0.99215686 0.13982843 0
0.99699755 0.18529412 0
1 0.21715686 0.0039215686
0.023529412 0.037193627 0.043566176
0.029557292 0.039070159 0.040196078
0.055392157 0.041253064 0.040196078
0.088419118 0.038304228 0.038105086
0.12352941 0.032352941 0.034129902
0.17156863 0.028316483 0.032238051
0.23209252 0.023452819 0.028814338
0.29209559 0.020159314 0.026960784
0.36170343 0.017156863 0.019117647
0.43318781 0.010784314 0.0087622549
0.50105699 0.0039215686 0.0039215686
0.56568627 0.012630208 0.013534007
0.63109681 0.019883578 0.016911765
0.6849954 0.0052083333 0.0061810662
0.74005821 0.0039215686 0.0070618873
0.79166667 0.0048789828 0.011787684
0.84368873 0.003002451 0.013296569
0.88731618 0.0082490809 0.0048406863
0.92058824 0.024249387 0.0039215686
0.95238971 0.045657169 0.0039215686
0.97205882 0.066636029 0.0039215686
0.98228401 0.11439185 0.0013403799
0.99048713 0.15369179 0
0.99754902 0.19377298 0.0015318627
1 0.22352941 0.0039215686
0.032352941 0.056495098 0.044117647
0.033685662 0.056495098 0.040747549
0.045833333 0.05658701 0.037101716
0.080530025 0.056862745 0.03627451
0.12169118 0.06127451 0.036335784
0.17394301 0.058011642 0.032046569
0.23241422 0.053063725 0.032536765
0.2884038 0.044806985 0.025520833
0.35870098 0.032843137 0.018504902
0.42913603 0.020680147 0.0078431373
0.49589461 0.0037683824 0.0039215686
0.56145833 0.013465074 0.010340074
0.63106618 0.019117647 0.010968137
0.68872549 0.0031556373 0.0016084559
0.74019608 0.0082107843 0.0022977941
0.79166667 0.014705882 0.0063112745
0.84313725 0.013480392 0.0082107843
0.88564645 0.034941789 0.0046109069
0.91896446 0.073988971 0.0039215686
0.94281556 0.095955882 0.0039215686
0.96029412 0.12242647 0.0039215686
0.9729473 0.15870098 0.0039981618
0.98578431 0.1926777 0.0045343137
0.99477635 0.22234988 0.0061427696
1 0.23823529 0.0035539216
0.038909314 0.075980392 0.044117647
0.040502451 0.075788909 0.040747549
0.043030025 0.073529412 0.037086397
0.074915748 0.080415135 0.035968137
0.11666667 0.092830882 0.036580882
0.16775429 0.098491115 0.028163297
0.22464767 0.097043505 0.021446078
0.28633578 0.09185049 0.01863511
0.35539216 0.081372549 0.016666667
0.42365962 0.062316176 0.010776654
0.49220282 0.051026348 0.006495098
0.56127451 0.05625 0.0075367647
