site/assets/luts/natron-haldclut--kodak-portra-400--a3dd778d7.cube
# LUTr-Project: LUTr — LUTrepository
# LUTr-Schema-Version: 1
# LUTr-ID: natron-haldclut--kodak-portra-400--a3dd778d7
# LUTr-Title: kodak portra 400 ++
# LUTr-Collection: Natron HaldCLUT
# LUTr-Collection-ID: natron-haldclut-presets
# LUTr-Source: https://github.com/NatronGitHub/clut
# LUTr-Source-File: submissions/natron-haldclut-presets/negative_new/kodak_portra_400_++.png
# LUTr-Source-Format: PNG
# LUTr-Source-SHA256: 7b8969c964ea3efee244742459b38c0b13c118b770cf547009aa8c2f5fc947a6
# LUTr-License: CC-BY-SA-4.0
# LUTr-License-URL: https://github.com/NatronGitHub/clut#license
# LUTr-Tags: creative, film, film-emulation, hald-clut, natron, png, cube
# LUTr-Transform-Class: film-emulation
# LUTr-Input-Color-Space: srgb
# LUTr-Output-Color-Space: srgb
# LUTr-Color-Space-Confidence: assumed-display-referred
# LUTr-Conversion-Method: PNG LUT image decoded at 16-bit and sampled to 25x25x25 3D CUBE
# LUTr-Conversion-Date: 2026-07-27
# LUTr-Conversion-Tool: LUTr scripts/convert-all-to-cube.mjs
# LUTr-Conversion-Grid: 25x25x25
# LUTr-Note: Preserve this metadata and the upstream license notices when redistributing.
TITLE "kodak portra 400 ++"
LUT_3D_SIZE 5
DOMAIN_MIN 0 0 0
DOMAIN_MAX 1 1 1
0.074509804 0.094117647 0.074509804
0.24215686 0.093137255 0.058823529
0.61372549 0.0078431373 0.033333333
0.92058824 0.021568627 0
1 0.27843137 0
0.011764706 0.21666667 0.093137255
0.19607843 0.23995098 0.075245098
0.60637255 0.27107843 0.0083333333
0.88333333 0.32254902 0
0.99509804 0.38921569 0
0 0.46666667 0.14705882
0.0078431373 0.45098039 0.1495098
0.48235294 0.53333333 0.010784314
0.81372549 0.5745098 0.0039215686
0.97058824 0.59019608 0
0.0039215686 0.70882353 0.28529412
0.12965686 0.69509804 0.30196078
0.44656863 0.69852941 0.28480392
0.74411765 0.75196078 0.15588235
0.98137255 0.7872549 0.0039215686
0.52156863 0.92156863 0.62352941
0.55980392 0.91862745 0.63235294
0.64117647 0.90588235 0.64313725
0.75882353 0.93039216 0.63921569
0.92941176 0.96470588 0.60784314
0.048039216 0.085294118 0.22941176
0.2875 0.049754902 0.27254902
0.65784314 0.0039215686 0.2622549
0.92843137 0.019852941 0.23553922
1 0.21372549 0.19901961
0.0085784314 0.29019608 0.25686275
0.25140931 0.27898284 0.26176471
0.65098039 0.26078431 0.24448529
0.90196078 0.30925245 0.20392157
0.99607843 0.37745098 0.16862745
0.0083333333 0.55490196 0.31862745
0.13602941 0.52745098 0.29901961
0.53382353 0.55245098 0.25098039
0.83946078 0.5877451 0.12046569
0.99558824 0.59019608 0.042647059
0.024509804 0.73921569 0.38529412
0.2473652 0.72040441 0.39509804
0.47009804 0.70428922 0.39129902
0.74313725 0.75251225 0.33529412
0.98431373 0.78333333 0.18627451
0.51862745 0.9254902 0.63921569
0.55588235 0.92156863 0.64534314
0.65539216 0.91617647 0.68039216
0.76593137 0.93333333 0.66960784
0.92156863 0.96078431 0.6372549
0.011764706 0.10588235 0.58039216
0.34754902 0.037254902 0.61813725
0.76372549 0.011764706 0.6745098
0.93137255 0.010784314 0.63872549
0.99607843 0.22745098 0.60196078
0.0058823529 0.28627451 0.54607843
0.28026961 0.29276961 0.59031863
0.73063725 0.32181373 0.6622549
0.90735294 0.33835784 0.63541667
1 0.39607843 0.60490196
0.0098039216 0.62156863 0.59803922
0.23529412 0.6122549 0.59803922
0.6254902 0.61960784 0.61715686
0.84803922 0.61176471 0.59142157
0.98529412 0.61568627 0.55490196
0.36372549 0.80343137 0.64754902
0.46139706 0.79068627 0.64117647
0.57058824 0.74534314 0.60612745
0.75845588 0.76715686 0.58860294
0.97254902 0.78333333 0.56372549
0.55490196 0.94117647 0.71764706
0.57352941 0.93333333 0.71372549
0.65196078 0.92254902 0.71862745
0.77058824 0.92745098 0.73235294
0.92941176 0.9627451 0.72352941
0.27156863 0.14509804 0.81470588
0.46789216 0.13431373 0.82647059
0.74901961 0.14215686 0.85147059
0.94705882 0.30490196 0.87352941
0.99607843 0.37058824 0.84607843
0.19019608 0.32426471 0.79901961
0.42126225 0.33039216 0.81078431
0.71801471 0.39669118 0.8432598
0.93272059 0.48627451 0.86936275
0.99607843 0.50392157 0.85392157
0.0068627451 0.57647059 0.75980392
0.21397059 0.56348039 0.74301471
0.63039216 0.6122549 0.80686275
0.88517157 0.68627451 0.85355392
0.99607843 0.6754902 0.83088235
0.29803922 0.80686275 0.80294118
0.40802696 0.80294118 0.79901961
0.60612745 0.80612745 0.80686275
0.82034314 0.81176471 0.81568627
0.98823529 0.81102941 0.80710784
0.53921569 0.97254902 0.84215686
0.57843137 0.97279412 0.84117647
0.69068627 0.96715686 0.84509804
0.79509804 0.92867647 0.8254902
0.91960784 0.95686275 0.8372549
0.56470588 0.42352941 0.98431373
0.60980392 0.41176471 0.96568627
0.75686275 0.44901961 0.98039216
0.93137255 0.48137255 0.96960784
0.99607843 0.57254902 0.99607843
0.5372549 0.51176471 0.97254902
0.60980392 0.52941176 0.98039216
0.73676471 0.53970588 0.97598039
0.90563725 0.59926471 0.98602941
0.99607843 0.63039216 0.98529412
0.49607843 0.66666667 0.96470588
0.55147059 0.66078431 0.9627451
0.69117647 0.66960784 0.95686275
0.88137255 0.71470588 0.97254902
0.99607843 0.75098039 0.99019608
0.4 0.80294118 0.95098039
0.45392157 0.79901961 0.94117647
0.59852941 0.79460784 0.95490196
0.81862745 0.82083333 0.94901961
0.99117647 0.87156863 0.97941176
0.47843137 0.98039216 0.98039216
0.5245098 0.97843137 0.98137255
0.64901961 0.97843137 0.97843137
0.8254902 0.97647059 0.96078431
0.98431373 0.98431373 0.98431373
