site/assets/luts/natron-haldclut--fuji-fp-3000b-negative-early--699ea479b.cube
# LUTr-Project: LUTr — LUTrepository
# LUTr-Schema-Version: 1
# LUTr-ID: natron-haldclut--fuji-fp-3000b-negative-early--699ea479b
# LUTr-Title: fuji fp-3000b negative early
# LUTr-Collection: Natron HaldCLUT
# LUTr-Collection-ID: natron-haldclut-presets
# LUTr-Source: https://github.com/NatronGitHub/clut
# LUTr-Source-File: submissions/natron-haldclut-presets/instant_pro/fuji_fp-3000b_negative_early.png
# LUTr-Source-Format: PNG
# LUTr-Source-SHA256: 741e18d86c101135dee5f099728a4827446635bfcdbf64e0df2eead034f3af7d
# LUTr-License: CC-BY-SA-4.0
# LUTr-License-URL: https://github.com/NatronGitHub/clut#license
# LUTr-Tags: creative, film, film-emulation, hald-clut, natron, png, cube
# LUTr-Transform-Class: film-emulation
# LUTr-Input-Color-Space: srgb
# LUTr-Output-Color-Space: srgb
# LUTr-Color-Space-Confidence: assumed-display-referred
# LUTr-Conversion-Method: PNG LUT image decoded at 16-bit and sampled to 25x25x25 3D CUBE
# LUTr-Conversion-Date: 2026-07-27
# LUTr-Conversion-Tool: LUTr scripts/convert-all-to-cube.mjs
# LUTr-Conversion-Grid: 25x25x25
# LUTr-Note: Preserve this metadata and the upstream license notices when redistributing.
TITLE "fuji fp-3000b negative early"
LUT_3D_SIZE 9
DOMAIN_MIN 0 0 0
DOMAIN_MAX 1 1 1
0.17647059 0.17647059 0.17647059
0.17647059 0.17647059 0.17647059
0.17647059 0.17647059 0.17647059
0.175 0.175 0.175
0.23921569 0.23921569 0.23921569
0.31960784 0.31960784 0.31960784
0.45098039 0.45098039 0.45098039
0.5745098 0.5745098 0.5745098
0.66666667 0.66666667 0.66666667
0.17647059 0.17647059 0.17647059
0.17647059 0.17647059 0.17647059
0.18039216 0.18039216 0.18039216
0.18841912 0.18841912 0.18841912
0.25808824 0.25808824 0.25808824
0.33694853 0.33694853 0.33694853
0.45441176 0.45441176 0.45441176
0.57794118 0.57794118 0.57794118
0.6745098 0.6745098 0.6745098
0.17647059 0.17647059 0.17647059
0.19080882 0.19080882 0.19080882
0.1875 0.1875 0.1875
0.22598039 0.22598039 0.22598039
0.30588235 0.30588235 0.30588235
0.39607843 0.39607843 0.39607843
0.49509804 0.49509804 0.49509804
0.59656863 0.59656863 0.59656863
0.68921569 0.68921569 0.68921569
0.22941176 0.22941176 0.22941176
0.22107843 0.22107843 0.22107843
0.22928922 0.22928922 0.22928922
0.27892157 0.27892157 0.27892157
0.36691176 0.36691176 0.36691176
0.459375 0.459375 0.459375
0.55686275 0.55686275 0.55686275
0.6495098 0.6495098 0.6495098
0.71617647 0.71617647 0.71617647
0.34901961 0.34901961 0.34901961
0.32990196 0.32990196 0.32990196
0.31764706 0.31764706 0.31764706
0.37941176 0.37941176 0.37941176
0.44509804 0.44509804 0.44509804
0.52598039 0.52598039 0.52598039
0.62254902 0.62254902 0.62254902
0.69313725 0.69313725 0.69313725
0.73921569 0.73921569 0.73921569
0.47401961 0.47401961 0.47401961
0.47401961 0.47401961 0.47401961
0.46323529 0.46323529 0.46323529
0.49068627 0.49068627 0.49068627
0.53504902 0.53504902 0.53504902
0.60435049 0.60435049 0.60435049
0.67120098 0.67120098 0.67120098
0.72352941 0.72352941 0.72352941
0.76470588 0.76470588 0.76470588
0.62352941 0.62352941 0.62352941
0.6245098 0.6245098 0.6245098
0.60416667 0.60416667 0.60416667
0.60637255 0.60637255 0.60637255
0.62843137 0.62843137 0.62843137
0.67830882 0.67830882 0.67830882
0.71740196 0.71740196 0.71740196
0.75833333 0.75833333 0.75833333
0.78921569 0.78921569 0.78921569
0.72254902 0.72254902 0.72254902
0.72303922 0.72303922 0.72303922
0.71911765 0.71911765 0.71911765
0.72303922 0.72303922 0.72303922
0.72303922 0.72303922 0.72303922
0.74754902 0.74754902 0.74754902
0.77009804 0.77009804 0.77009804
0.79705882 0.79705882 0.79705882
0.80833333 0.80833333 0.80833333
0.79607843 0.79607843 0.79607843
0.8 0.8 0.8
0.79607843 0.79607843 0.79607843
0.79215686 0.79215686 0.79215686
0.8 0.8 0.8
0.79852941 0.79852941 0.79852941
0.81666667 0.81666667 0.81666667
0.83529412 0.83529412 0.83529412
0.83137255 0.83137255 0.83137255
0.18039216 0.18039216 0.18039216
0.18039216 0.18039216 0.18039216
0.18431373 0.18431373 0.18431373
0.19803922 0.19803922 0.19803922
0.25857843 0.25857843 0.25857843
0.34442402 0.34442402 0.34442402
0.47009804 0.47009804 0.47009804
0.58229167 0.58229167 0.58229167
0.6745098 0.6745098 0.6745098
0.17990196 0.17990196 0.17990196
0.17254902 0.17254902 0.17254902
0.18333333 0.18333333 0.18333333
0.19997702 0.19997702 0.19997702
0.26960784 0.26960784 0.26960784
0.37221967 0.37221967 0.37221967
0.48051471 0.48051471 0.48051471
0.58534773 0.58534773 0.58534773
0.68229167 0.68229167 0.68229167
0.17254902 0.17254902 0.17254902
0.18982843 0.18982843 0.18982843
0.20159314 0.20159314 0.20159314
0.24005821 0.24005821 0.24005821
0.32107843 0.32107843 0.32107843
0.41453738 0.41453738 0.41453738
0.51063113 0.51063113 0.51063113
0.6055913 0.6055913 0.6055913
0.69705882 0.69705882 0.69705882
0.24871324 0.24871324 0.24871324
0.25214461 0.25214461 0.25214461
0.25261949 0.25261949 0.25261949
0.29833027 0.29833027 0.29833027
0.37931985 0.37931985 0.37931985
0.47175245 0.47175245 0.47175245
0.56421569 0.56421569 0.56421569
0.65339308 0.65339308 0.65339308
0.72156863 0.72156863 0.72156863
0.38161765 0.38161765 0.38161765
0.37159926 0.37159926 0.37159926
0.35098039 0.35098039 0.35098039
0.39460784 0.39460784 0.39460784
0.45637255 0.45637255 0.45637255
0.53268995 0.53268995 0.53268995
0.62254902 0.62254902 0.62254902
0.68921569 0.68921569 0.68921569
0.74289216 0.74289216 0.74289216
0.50686275 0.50686275 0.50686275
0.49574908 0.49574908 0.49574908
0.49166667 0.49166667 0.49166667
0.50980392 0.50980392 0.50980392
0.54221814 0.54221814 0.54221814
0.60723805 0.60723805 0.60723805
0.67156863 0.67156863 0.67156863
0.72398131 0.72398131 0.72398131
0.76617647 0.76617647 0.76617647
0.63480392 0.63480392 0.63480392
0.63111213 0.63111213 0.63111213
0.62303922 0.62303922 0.62303922
0.63088235 0.63088235 0.63088235
0.64754902 0.64754902 0.64754902
0.67855392 0.67855392 0.67855392
0.71593137 0.71593137 0.71593137
0.75833333 0.75833333 0.75833333
0.79313725 0.79313725 0.79313725
0.72303922 0.72303922 0.72303922
0.72647059 0.72647059 0.72647059
0.72604167 0.72604167 0.72604167
0.73273591 0.73273591 0.73273591
0.74172794 0.74172794 0.74172794
0.74785539 0.74785539 0.74785539
0.76263787 0.76263787 0.76263787
0.79319087 0.79319087 0.79319087
0.80833333 0.80833333 0.80833333
0.7995098 0.7995098 0.7995098
0.8 0.8 0.8
0.8 0.8 0.8
0.79215686 0.79215686 0.79215686
0.8002451 0.8002451 0.8002451
0.80392157 0.80392157 0.80392157
0.80502451 0.80502451 0.80502451
0.82745098 0.82745098 0.82745098
0.83872549 0.83872549 0.83872549
0.19509804 0.19509804 0.19509804
0.18431373 0.18431373 0.18431373
0.19411765 0.19411765 0.19411765
0.22107843 0.22107843 0.22107843
0.29901961 0.29901961 0.29901961
0.38860294 0.38860294 0.38860294
0.49215686 0.49215686 0.49215686
0.60833333 0.60833333 0.60833333
0.68529412 0.68529412 0.68529412
0.19901961 0.19901961 0.19901961
0.19031863 0.19031863 0.19031863
0.19411765 0.19411765 0.19411765
0.23737745 0.23737745 0.23737745
0.31758578 0.31758578 0.31758578
0.40992647 0.40992647 0.40992647
0.51127451 0.51127451 0.51127451
0.61606924 0.61606924 0.61606924
0.69019608 0.69019608 0.69019608
0.20906863 0.20906863 0.20906863
0.21666667 0.21666667 0.21666667
0.22671569 0.22671569 0.22671569
0.26706495 0.26706495 0.26706495
0.34497549 0.34497549 0.34497549
0.4377451 0.4377451 0.4377451
0.53431373 0.53431373 0.53431373
0.63088235 0.63088235 0.63088235
0.70196078 0.70196078 0.70196078
0.30588235 0.30588235 0.30588235
0.30980392 0.30980392 0.30980392
0.31063113 0.31063113 0.31063113
0.34417892 0.34417892 0.34417892
0.41280637 0.41280637 0.41280637
0.49419424 0.49419424 0.49419424
0.58333333 0.58333333 0.58333333
0.67046569 0.67046569 0.67046569
0.72401961 0.72401961 0.72401961
0.43333333 0.43333333 0.43333333
0.42591912 0.42591912 0.42591912
0.42058824 0.42058824 0.42058824
0.4252451 0.4252451 0.4252451
0.49215686 0.49215686 0.49215686
0.56329657 0.56329657 0.56329657
0.63762255 0.63762255 0.63762255
0.70098039 0.70098039 0.70098039
0.74852941 0.74852941 0.74852941
0.55392157 0.55392157 0.55392157
0.54509804 0.54509804 0.54509804
0.5372549 0.5372549 0.5372549
0.53976716 0.53976716 0.53976716
0.57009804 0.57009804 0.57009804
0.62801777 0.62801777 0.62801777
0.68125 0.68125 0.68125
0.73566176 0.73566176 0.73566176
0.77401961 0.77401961 0.77401961
0.66078431 0.66078431 0.66078431
0.66078431 0.66078431 0.66078431
0.64926471 0.64926471 0.64926471
0.64681373 0.64681373 0.64681373
0.67267157 0.67267157 0.67267157
0.68762255 0.68762255 0.68762255
0.72487745 0.72487745 0.72487745
0.76945466 0.76945466 0.76945466
0.79313725 0.79313725 0.79313725
0.74117647 0.74117647 0.74117647
0.74129902 0.74129902 0.74129902
0.74129902 0.74129902 0.74129902
0.74264706 0.74264706 0.74264706
0.74957108 0.74957108 0.74957108
0.7569087 0.7569087 0.7569087
0.77717525 0.77717525 0.77717525
0.79929534 0.79929534 0.79929534
0.80919118 0.80919118 0.80919118
0.81176471 0.81176471 0.81176471
0.80441176 0.80441176 0.80441176
0.80784314 0.80784314 0.80784314
0.80147059 0.80147059 0.80147059
0.8 0.8 0.8
0.81176471 0.81176471 0.81176471
0.82647059 0.82647059 0.82647059
0.82647059 0.82647059 0.82647059
0.83921569 0.83921569 0.83921569
0.21029412 0.21029412 0.21029412
0.24460784 0.24460784 0.24460784
0.27156863 0.27156863 0.27156863
0.30343137 0.30343137 0.30343137
0.37009804 0.37009804 0.37009804
0.46029412 0.46029412 0.46029412
0.55294118 0.55294118 0.55294118
0.63498775 0.63498775 0.63498775
0.70441176 0.70441176 0.70441176
0.25147059 0.25147059 0.25147059
0.25741422 0.25741422 0.25741422
0.28867953 0.28867953 0.28867953
0.32156863 0.32156863 0.32156863
0.37720588 0.37720588 0.37720588
0.46813725 0.46813725 0.46813725
0.55833333 0.55833333 0.55833333
0.64221814 0.64221814 0.64221814
0.70833333 0.70833333 0.70833333
0.24767157 0.24767157 0.24767157
0.26335784 0.26335784 0.26335784
0.30186887 0.30186887 0.30186887
0.35885417 0.35885417 0.35885417
0.41783088 0.41783088 0.41783088
0.48488051 0.48488051 0.48488051
0.56519608 0.56519608 0.56519608
0.65401348 0.65401348 0.65401348
0.71727941 0.71727941 0.71727941
0.36127451 0.36127451 0.36127451
0.36727175 0.36727175 0.36727175
0.38105086 0.38105086 0.38105086
0.42312347 0.42312347 0.42312347
0.475 0.475 0.475
0.52794118 0.52794118 0.52794118
0.60692402 0.60692402 0.60692402
0.68658854 0.68658854 0.68658854
0.7348652 0.7348652 0.7348652
0.49117647 0.49117647 0.49117647
0.49966299 0.49966299 0.49966299
0.50416667 0.50416667 0.50416667
0.50686275 0.50686275 0.50686275
0.53627451 0.53627451 0.53627451
0.59390319 0.59390319 0.59390319
0.65931373 0.65931373 0.65931373
0.71553309 0.71553309 0.71553309
0.75098039 0.75098039 0.75098039
0.60539216 0.60539216 0.60539216
0.60147059 0.60147059 0.60147059
0.60101103 0.60101103 0.60101103
0.58578431 0.58578431 0.58578431
0.59512868 0.59512868 0.59512868
0.64812347 0.64812347 0.64812347
0.7004136 0.7004136 0.7004136
0.74570313 0.74570313 0.74570313
0.77794118 0.77794118 0.77794118
0.69571078 0.69571078 0.69571078
0.68720895 0.68720895 0.68720895
0.68538603 0.68538603 0.68538603
0.68235294 0.68235294 0.68235294
0.69044118 0.69044118 0.69044118
0.70692402 0.70692402 0.70692402
0.74231005 0.74231005 0.74231005
0.7717065 0.7717065 0.7717065
0.79607843 0.79607843 0.79607843
0.76029412 0.76029412 0.76029412
0.76029412 0.76029412 0.76029412
0.75476409 0.75476409 0.75476409
0.75392157 0.75392157 0.75392157
0.75906863 0.75906863 0.75906863
0.7664905 0.7664905 0.7664905
0.78186275 0.78186275 0.78186275
0.8004902 0.8004902 0.8004902
0.81439951 0.81439951 0.81439951
0.80392157 0.80392157 0.80392157
0.80392157 0.80392157 0.80392157
0.80784314 0.80784314 0.80784314
0.81176471 0.81176471 0.81176471
0.80392157 0.80392157 0.80392157
0.80392157 0.80392157 0.80392157
0.8127451 0.8127451 0.8127451
0.82401961 0.82401961 0.82401961
0.83529412 0.83529412 0.83529412
0.37058824 0.37058824 0.37058824
0.38235294 0.38235294 0.38235294
0.40196078 0.40196078 0.40196078
0.46568627 0.46568627 0.46568627
0.50588235 0.50588235 0.50588235
0.52794118 0.52794118 0.52794118
0.60980392 0.60980392 0.60980392
0.67181373 0.67181373 0.67181373
0.7254902 0.7254902 0.7254902
0.38406863 0.38406863 0.38406863
0.38777574 0.38777574 0.38777574
0.41446078 0.41446078 0.41446078
0.46568627 0.46568627 0.46568627
0.51666667 0.51666667 0.51666667
0.54558824 0.54558824 0.54558824
0.61501225 0.61501225 0.61501225
0.67941176 0.67941176 0.67941176
0.73137255 0.73137255 0.73137255
0.39803922 0.39803922 0.39803922
0.39932598 0.39932598 0.39932598
0.43517157 0.43517157 0.43517157
0.47573529 0.47573529 0.47573529
0.52058824 0.52058824 0.52058824
0.57677696 0.57677696 0.57677696
0.62879902 0.62879902 0.62879902
0.68474265 0.68474265 0.68474265
0.74215686 0.74215686 0.74215686
0.44264706 0.44264706 0.44264706
0.45392157 0.45392157 0.45392157
0.47426471 0.47426471 0.47426471
0.4995098 0.4995098 0.4995098
0.55343137 0.55343137 0.55343137
0.60196078 0.60196078 0.60196078
0.64754902 0.64754902 0.64754902
0.70572917 0.70572917 0.70572917
0.74191176 0.74191176 0.74191176
0.52156863 0.52156863 0.52156863
0.52401961 0.52401961 0.52401961
0.54215686 0.54215686 0.54215686
0.56102941 0.56102941 0.56102941
0.59509804 0.59509804 0.59509804
0.63811275 0.63811275 0.63811275
0.68406863 0.68406863 0.68406863
0.72279412 0.72279412 0.72279412
0.73921569 0.73921569 0.73921569
0.63504902 0.63504902 0.63504902
0.64004289 0.64004289 0.64004289
0.6435049 0.6435049 0.6435049
0.64408701 0.64408701 0.64408701
0.65 0.65 0.65
0.67472426 0.67472426 0.67472426
0.71832108 0.71832108 0.71832108
0.75490196 0.75490196 0.75490196
0.78186275 0.78186275 0.78186275
0.71029412 0.71029412 0.71029412
0.71078431 0.71078431 0.71078431
0.71678922 0.71678922 0.71678922
0.72156863 0.72156863 0.72156863
0.7254902 0.7254902 0.7254902
0.72365196 0.72365196 0.72365196
0.75012255 0.75012255 0.75012255
0.77794118 0.77794118 0.77794118
0.80245098 0.80245098 0.80245098
0.77745098 0.77745098 0.77745098
0.77745098 0.77745098 0.77745098
0.77720588 0.77720588 0.77720588
0.77916667 0.77916667 0.77916667
0.77720588 0.77720588 0.77720588
0.77328431 0.77328431 0.77328431
0.78602941 0.78602941 0.78602941
0.80511642 0.80511642 0.80511642
0.82401961 0.82401961 0.82401961
0.80784314 0.80784314 0.80784314
0.80980392 0.80980392 0.80980392
0.81568627 0.81568627 0.81568627
0.81960784 0.81960784 0.81960784
0.80980392 0.80980392 0.80980392
0.80857843 0.80857843 0.80857843
0.82401961 0.82401961 0.82401961
0.83357843 0.83357843 0.83357843
0.84313725 0.84313725 0.84313725
0.53284314 0.53284314 0.53284314
0.52922794 0.52922794 0.52922794
0.53039216 0.53039216 0.53039216
0.59509804 0.59509804 0.59509804
0.63970588 0.63970588 0.63970588
0.66470588 0.66470588 0.66470588
0.68443627 0.68443627 0.68443627
0.71960784 0.71960784 0.71960784
0.73872549 0.73872549 0.73872549
0.53890931 0.53890931 0.53890931
0.54283088 0.54283088 0.54283088
0.55539216 0.55539216 0.55539216
0.60766697 0.60766697 0.60766697
0.64549632 0.64549632 0.64549632
0.66323529 0.66323529 0.66323529
0.68835784 0.68835784 0.68835784
0.72741268 0.72741268 0.72741268
0.74871324 0.74871324 0.74871324
0.55098039 0.55098039 0.55098039
0.55632659 0.55632659 0.55632659
0.56988358 0.56988358 0.56988358
0.60202206 0.60202206 0.60202206
0.64558824 0.64558824 0.64558824
0.67195159 0.67195159 0.67195159
0.69886642 0.69886642 0.69886642
0.73867953 0.73867953 0.73867953
0.76580882 0.76580882 0.76580882
0.55490196 0.55490196 0.55490196
0.57566636 0.57566636 0.57566636
0.58457414 0.58457414 0.58457414
0.60743719 0.60743719 0.60743719
0.65297181 0.65297181 0.65297181
0.68864124 0.68864124 0.68864124
0.71081495 0.71081495 0.71081495
0.73547794 0.73547794 0.73547794
0.77009804 0.77009804 0.77009804
0.59901961 0.59901961 0.59901961
0.60628064 0.60628064 0.60628064
0.6122549 0.6122549 0.6122549
0.63235294 0.63235294 0.63235294
0.66776961 0.66776961 0.66776961
0.69433211 0.69433211 0.69433211
0.71979167 0.71979167 0.71979167
0.74500613 0.74500613 0.74500613
0.76813725 0.76813725 0.76813725
0.66470588 0.66470588 0.66470588
0.66843597 0.66843597 0.66843597
0.67715993 0.67715993 0.67715993
0.68676471 0.68676471 0.68676471
0.69733456 0.69733456 0.69733456
0.71268382 0.71268382 0.71268382
0.74450061 0.74450061 0.74450061
0.76813725 0.76813725 0.76813725
0.79454657 0.79454657 0.79454657
0.73529412 0.73529412 0.73529412
0.73987439 0.73987439 0.73987439
0.74816176 0.74816176 0.74816176
0.74816176 0.74816176 0.74816176
0.75147059 0.75147059 0.75147059
0.75208333 0.75208333 0.75208333
0.76559436 0.76559436 0.76559436
0.78962929 0.78962929 0.78962929
0.81213235 0.81213235 0.81213235
0.78529412 0.78529412 0.78529412
0.78872549 0.78872549 0.78872549
0.79050245 0.79050245 0.79050245
0.79264706 0.79264706 0.79264706
0.79050245 0.79050245 0.79050245
0.79283088 0.79283088 0.79283088
0.8010723 0.8010723 0.8010723
0.81662837 0.81662837 0.81662837
0.82794118 0.82794118 0.82794118
0.81715686 0.81715686 0.81715686
0.82107843 0.82107843 0.82107843
0.82892157 0.82892157 0.82892157
0.82800245 0.82800245 0.82800245
0.82745098 0.82745098 0.82745098
0.83137255 0.83137255 0.83137255
0.83137255 0.83137255 0.83137255
0.83529412 0.83529412 0.83529412
0.84313725 0.84313725 0.84313725
0.65784314 0.65784314 0.65784314
0.65784314 0.65784314 0.65784314
0.65 0.65 0.65
0.69166667 0.69166667 0.69166667
0.71960784 0.71960784 0.71960784
0.73468137 0.73468137 0.73468137
0.74705882 0.74705882 0.74705882
0.75012255 0.75012255 0.75012255
0.75392157 0.75392157 0.75392157
0.66127451 0.66127451 0.66127451
0.66401654 0.66401654 0.66401654
0.66960784 0.66960784 0.66960784
0.6995098 0.6995098 0.6995098
0.72352941 0.72352941 0.72352941
0.73913909 0.73913909 0.73913909
0.75088848 0.75088848 0.75088848
0.76133578 0.76133578 0.76133578
0.76948529 0.76948529 0.76948529
0.67818627 0.67818627 0.67818627
0.68103554 0.68103554 0.68103554
0.68504902 0.68504902 0.68504902
0.70343137 0.70343137 0.70343137
0.7254902 0.7254902 0.7254902
0.73921569 0.73921569 0.73921569
0.7502451 0.7502451 0.7502451
0.77401961 0.77401961 0.77401961
0.7875 0.7875 0.7875
0.675 0.675 0.675
0.68137255 0.68137255 0.68137255
0.68921569 0.68921569 0.68921569
0.71066176 0.71066176 0.71066176
0.72922794 0.72922794 0.72922794
0.74252451 0.74252451 0.74252451
0.75416667 0.75416667 0.75416667
0.77401961 0.77401961 0.77401961
0.79276961 0.79276961 0.79276961
0.66764706 0.66764706 0.66764706
0.68063725 0.68063725 0.68063725
0.70183824 0.70183824 0.70183824
0.71568627 0.71568627 0.71568627
0.73333333 0.73333333 0.73333333
0.74705882 0.74705882 0.74705882
0.76078431 0.76078431 0.76078431
0.78008578 0.78008578 0.78008578
0.79705882 0.79705882 0.79705882
0.70441176 0.70441176 0.70441176
0.7185815 0.7185815 0.7185815
0.72264093 0.72264093 0.72264093
0.72009804 0.72009804 0.72009804
0.73872549 0.73872549 0.73872549
0.75036765 0.75036765 0.75036765
0.77205882 0.77205882 0.77205882
0.79327512 0.79327512 0.79327512
0.80784314 0.80784314 0.80784314
0.75416667 0.75416667 0.75416667
0.76617647 0.76617647 0.76617647
0.76685049 0.76685049 0.76685049
0.76348039 0.76348039 0.76348039
0.77022059 0.77022059 0.77022059
0.77478554 0.77478554 0.77478554
0.78664216 0.78664216 0.78664216
0.80526961 0.80526961 0.80526961
0.81960784 0.81960784 0.81960784
0.7939951 0.7939951 0.7939951
0.80147059 0.80147059 0.80147059
0.80833333 0.80833333 0.80833333
0.80477941 0.80477941 0.80477941
0.80686275 0.80686275 0.80686275
0.8122549 0.8122549 0.8122549
0.81617647 0.81617647 0.81617647
0.82129289 0.82129289 0.82129289
0.83272059 0.83272059 0.83272059
0.83137255 0.83137255 0.83137255
0.83492647 0.83492647 0.83492647
0.83529412 0.83529412 0.83529412
0.83529412 0.83529412 0.83529412
0.83921569 0.83921569 0.83921569
0.84019608 0.84019608 0.84019608
0.83921569 0.83921569 0.83921569
0.83921569 0.83921569 0.83921569
0.84313725 0.84313725 0.84313725
0.74264706 0.74264706 0.74264706
0.74957108 0.74957108 0.74957108
0.75882353 0.75882353 0.75882353
0.77205882 0.77205882 0.77205882
0.77916667 0.77916667 0.77916667
0.78890931 0.78890931 0.78890931
0.79669118 0.79669118 0.79669118
0.79748775 0.79748775 0.79748775
0.8004902 0.8004902 0.8004902
0.74656863 0.74656863 0.74656863
0.75032169 0.75032169 0.75032169
0.76101409 0.76101409 0.76101409
0.76987592 0.76987592 0.76987592
0.78137255 0.78137255 0.78137255
0.78921569 0.78921569 0.78921569
0.79656863 0.79656863 0.79656863
0.8004902 0.8004902 0.8004902
0.8004902 0.8004902 0.8004902
0.75392157 0.75392157 0.75392157
0.75396752 0.75396752 0.75396752
0.76087623 0.76087623 0.76087623
0.77182904 0.77182904 0.77182904
0.78137255 0.78137255 0.78137255
0.78921569 0.78921569 0.78921569
0.79666054 0.79666054 0.79666054
0.80870098 0.80870098 0.80870098
0.8122549 0.8122549 0.8122549
0.75784314 0.75784314 0.75784314
0.76176471 0.76176471 0.76176471
0.76568627 0.76568627 0.76568627
0.77094822 0.77094822 0.77094822
0.78121936 0.78121936 0.78121936
0.78921569 0.78921569 0.78921569
0.80061275 0.80061275 0.80061275
0.81112898 0.81112898 0.81112898
0.81617647 0.81617647 0.81617647
0.75612745 0.75612745 0.75612745
0.75808824 0.75808824 0.75808824
0.76170343 0.76170343 0.76170343
0.77175245 0.77175245 0.77175245
0.78615196 0.78615196 0.78615196
0.79264706 0.79264706 0.79264706
0.80165441 0.80165441 0.80165441
0.80833333 0.80833333 0.80833333
0.8122549 0.8122549 0.8122549
0.77371324 0.77371324 0.77371324
0.77483915 0.77483915 0.77483915
0.76178002 0.76178002 0.76178002
0.76568627 0.76568627 0.76568627
0.78308824 0.78308824 0.78308824
0.79656863 0.79656863 0.79656863
0.8122549 0.8122549 0.8122549
0.81746324 0.81746324 0.81746324
0.81764706 0.81764706 0.81764706
0.79411765 0.79411765 0.79411765
0.79362745 0.79362745 0.79362745
0.79132966 0.79132966 0.79132966
0.78970588 0.78970588 0.78970588
0.79754902 0.79754902 0.79754902
0.8010723 0.8010723 0.8010723
0.81424632 0.81424632 0.81424632
0.82489277 0.82489277 0.82489277
0.82892157 0.82892157 0.82892157
0.82058824 0.82058824 0.82058824
0.82009804 0.82009804 0.82009804
0.8243413 0.8243413 0.8243413
0.82428768 0.82428768 0.82428768
0.82794118 0.82794118 0.82794118
0.828125 0.828125 0.828125
0.82843137 0.82843137 0.82843137
0.83540901 0.83540901 0.83540901
0.84319853 0.84319853 0.84319853
0.84656863 0.84656863 0.84656863
0.83921569 0.83921569 0.83921569
0.83529412 0.83529412 0.83529412
0.83529412 0.83529412 0.83529412
0.84313725 0.84313725 0.84313725
0.84313725 0.84313725 0.84313725
0.84313725 0.84313725 0.84313725
0.84705882 0.84705882 0.84705882
0.85147059 0.85147059 0.85147059
0.81568627 0.81568627 0.81568627
0.81568627 0.81568627 0.81568627
0.81960784 0.81960784 0.81960784
0.81568627 0.81568627 0.81568627
0.81960784 0.81960784 0.81960784
0.82352941 0.82352941 0.82352941
0.82745098 0.82745098 0.82745098
0.82745098 0.82745098 0.82745098
0.82745098 0.82745098 0.82745098
0.81568627 0.81568627 0.81568627
0.81568627 0.81568627 0.81568627
0.81556373 0.81556373 0.81556373
0.82352941 0.82352941 0.82352941
0.82352941 0.82352941 0.82352941
0.82352941 0.82352941 0.82352941
0.83137255 0.83137255 0.83137255
0.83480392 0.83480392 0.83480392
0.83480392 0.83480392 0.83480392
0.81176471 0.81176471 0.81176471
0.81176471 0.81176471 0.81176471
0.81568627 0.81568627 0.81568627
0.82022059 0.82022059 0.82022059
0.82745098 0.82745098 0.82745098
0.83137255 0.83137255 0.83137255
0.83602941 0.83602941 0.83602941
0.84313725 0.84313725 0.84313725
0.84215686 0.84215686 0.84215686
0.81813725 0.81813725 0.81813725
0.81568627 0.81568627 0.81568627
0.81286765 0.81286765 0.81286765
0.82113971 0.82113971 0.82113971
0.82230392 0.82230392 0.82230392
0.83137255 0.83137255 0.83137255
0.83921569 0.83921569 0.83921569
0.83921569 0.83921569 0.83921569
0.83921569 0.83921569 0.83921569
0.81960784 0.81960784 0.81960784
0.8002451 0.8002451 0.8002451
0.8 0.8 0.8
0.8129902 0.8129902 0.8129902
0.82745098 0.82745098 0.82745098
0.83137255 0.83137255 0.83137255
0.83529412 0.83529412 0.83529412
0.83921569 0.83921569 0.83921569
0.84705882 0.84705882 0.84705882
0.81568627 0.81568627 0.81568627
0.8096201 0.8096201 0.8096201
0.79607843 0.79607843 0.79607843
0.8 0.8 0.8
0.81960784 0.81960784 0.81960784
0.83376225 0.83376225 0.83376225
0.84313725 0.84313725 0.84313725
0.84313725 0.84313725 0.84313725
0.84705882 0.84705882 0.84705882
0.81666667 0.81666667 0.81666667
0.82316176 0.82316176 0.82316176
0.81764706 0.81764706 0.81764706
0.81911765 0.81911765 0.81911765
0.82990196 0.82990196 0.82990196
0.83529412 0.83529412 0.83529412
0.84240196 0.84240196 0.84240196
0.84313725 0.84313725 0.84313725
0.84705882 0.84705882 0.84705882
0.83578431 0.83578431 0.83578431
0.83578431 0.83578431 0.83578431
0.83921569 0.83921569 0.83921569
0.83921569 0.83921569 0.83921569
0.83529412 0.83529412 0.83529412
0.83578431 0.83578431 0.83578431
0.84019608 0.84019608 0.84019608
0.84705882 0.84705882 0.84705882
0.85098039 0.85098039 0.85098039
0.85490196 0.85490196 0.85490196
0.84362745 0.84362745 0.84362745
0.83921569 0.83921569 0.83921569
0.83921569 0.83921569 0.83921569
0.84117647 0.84117647 0.84117647
0.84313725 0.84313725 0.84313725
0.84313725 0.84313725 0.84313725
0.84705882 0.84705882 0.84705882
0.85490196 0.85490196 0.85490196
