site/assets/luts/natron-haldclut--agfa-apx-25--8c3849d95.cube
# LUTr-Project: LUTr — LUTrepository
# LUTr-Schema-Version: 1
# LUTr-ID: natron-haldclut--agfa-apx-25--8c3849d95
# LUTr-Title: agfa apx 25
# LUTr-Collection: Natron HaldCLUT
# LUTr-Collection-ID: natron-haldclut-presets
# LUTr-Source: https://github.com/NatronGitHub/clut
# LUTr-Source-File: submissions/natron-haldclut-presets/bw/agfa_apx_25.png
# LUTr-Source-Format: PNG
# LUTr-Source-SHA256: 911b76b85480ef2d6e16e24f6561256de359ca581cd2c3b7ad1366df158dae95
# LUTr-License: CC-BY-SA-4.0
# LUTr-License-URL: https://github.com/NatronGitHub/clut#license
# LUTr-Tags: creative, film, film-emulation, hald-clut, natron, png, black-and-white, cube
# LUTr-Transform-Class: film-emulation
# LUTr-Input-Color-Space: srgb
# LUTr-Output-Color-Space: srgb
# LUTr-Color-Space-Confidence: assumed-display-referred
# LUTr-Conversion-Method: PNG LUT image decoded at 16-bit and sampled to 25x25x25 3D CUBE
# LUTr-Conversion-Date: 2026-07-27
# LUTr-Conversion-Tool: LUTr scripts/convert-all-to-cube.mjs
# LUTr-Conversion-Grid: 25x25x25
# LUTr-Note: Preserve this metadata and the upstream license notices when redistributing.
TITLE "agfa apx 25"
LUT_3D_SIZE 9
DOMAIN_MIN 0 0 0
DOMAIN_MAX 1 1 1
0.023529412 0.023529412 0.023529412
0.019607843 0.019607843 0.019607843
0.02745098 0.02745098 0.02745098
0.054411765 0.054411765 0.054411765
0.11568627 0.11568627 0.11568627
0.1745098 0.1745098 0.1745098
0.2745098 0.2745098 0.2745098
0.41372549 0.41372549 0.41372549
0.5254902 0.5254902 0.5254902
0.069607843 0.069607843 0.069607843
0.080453431 0.080453431 0.080453431
0.096936275 0.096936275 0.096936275
0.13284314 0.13284314 0.13284314
0.19068627 0.19068627 0.19068627
0.26176471 0.26176471 0.26176471
0.3504902 0.3504902 0.3504902
0.45588235 0.45588235 0.45588235
0.53284314 0.53284314 0.53284314
0.15196078 0.15196078 0.15196078
0.17598039 0.17598039 0.17598039
0.19509804 0.19509804 0.19509804
0.23235294 0.23235294 0.23235294
0.29068627 0.29068627 0.29068627
0.36078431 0.36078431 0.36078431
0.44705882 0.44705882 0.44705882
0.53578431 0.53578431 0.53578431
0.60882353 0.60882353 0.60882353
0.30245098 0.30245098 0.30245098
0.30784314 0.30784314 0.30784314
0.33284314 0.33284314 0.33284314
0.37248775 0.37248775 0.37248775
0.41495098 0.41495098 0.41495098
0.46372549 0.46372549 0.46372549
0.52879902 0.52879902 0.52879902
0.60373775 0.60373775 0.60373775
0.67156863 0.67156863 0.67156863
0.44117647 0.44117647 0.44117647
0.45245098 0.45245098 0.45245098
0.47941176 0.47941176 0.47941176
0.51421569 0.51421569 0.51421569
0.54705882 0.54705882 0.54705882
0.56544118 0.56544118 0.56544118
0.59803922 0.59803922 0.59803922
0.66176471 0.66176471 0.66176471
0.72156863 0.72156863 0.72156863
0.58627451 0.58627451 0.58627451
0.60557598 0.60557598 0.60557598
0.61666667 0.61666667 0.61666667
0.64215686 0.64215686 0.64215686
0.66004902 0.66004902 0.66004902
0.66378676 0.66378676 0.66378676
0.68382353 0.68382353 0.68382353
0.74117647 0.74117647 0.74117647
0.7754902 0.7754902 0.7754902
0.72156863 0.72156863 0.72156863
0.72156863 0.72156863 0.72156863
0.7254902 0.7254902 0.7254902
0.74264706 0.74264706 0.74264706
0.75392157 0.75392157 0.75392157
0.76372549 0.76372549 0.76372549
0.77941176 0.77941176 0.77941176
0.81017157 0.81017157 0.81017157
0.83333333 0.83333333 0.83333333
0.82156863 0.82156863 0.82156863
0.82935049 0.82935049 0.82935049
0.83284314 0.83284314 0.83284314
0.83676471 0.83676471 0.83676471
0.84460784 0.84460784 0.84460784
0.85214461 0.85214461 0.85214461
0.85588235 0.85588235 0.85588235
0.87205882 0.87205882 0.87205882
0.89509804 0.89509804 0.89509804
0.92156863 0.92156863 0.92156863
0.90980392 0.90980392 0.90980392
0.90588235 0.90588235 0.90588235
0.90980392 0.90980392 0.90980392
0.91372549 0.91372549 0.91372549
0.91764706 0.91764706 0.91764706
0.91764706 0.91764706 0.91764706
0.92990196 0.92990196 0.92990196
0.94901961 0.94901961 0.94901961
0.030882353 0.030882353 0.030882353
0.023039216 0.023039216 0.023039216
0.049509804 0.049509804 0.049509804
0.082843137 0.082843137 0.082843137
0.13063725 0.13063725 0.13063725
0.18841912 0.18841912 0.18841912
0.28529412 0.28529412 0.28529412
0.42107843 0.42107843 0.42107843
0.54068627 0.54068627 0.54068627
0.092647059 0.092647059 0.092647059
0.096890319 0.096890319 0.096890319
0.11862745 0.11862745 0.11862745
0.15653339 0.15653339 0.15653339
0.20980392 0.20980392 0.20980392
0.27491575 0.27491575 0.27491575
0.36568627 0.36568627 0.36568627
0.47070313 0.47070313 0.47070313
0.55588235 0.55588235 0.55588235
0.19154412 0.19154412 0.19154412
0.20219056 0.20219056 0.20219056
0.21813725 0.21813725 0.21813725
0.25539216 0.25539216 0.25539216
0.31029412 0.31029412 0.31029412
0.375 0.375 0.375
0.45768995 0.45768995 0.45768995
0.5404565 0.5404565 0.5404565
0.61617647 0.61617647 0.61617647
0.32696078 0.32696078 0.32696078
0.32910539 0.32910539 0.32910539
0.35343137 0.35343137 0.35343137
0.38069853 0.38069853 0.38069853
0.4252451 0.4252451 0.4252451
0.4727405 0.4727405 0.4727405
0.53590686 0.53590686 0.53590686
0.60746017 0.60746017 0.60746017
0.67518382 0.67518382 0.67518382
0.46813725 0.46813725 0.46813725
0.47205882 0.47205882 0.47205882
0.49332108 0.49332108 0.49332108
0.5129902 0.5129902 0.5129902
0.54313725 0.54313725 0.54313725
0.571875 0.571875 0.571875
0.60778186 0.60778186 0.60778186
0.66590074 0.66590074 0.66590074
0.72892157 0.72892157 0.72892157
0.60196078 0.60196078 0.60196078
0.60829504 0.60829504 0.60829504
0.61911765 0.61911765 0.61911765
0.63890165 0.63890165 0.63890165
0.65931373 0.65931373 0.65931373
0.6712546 0.6712546 0.6712546
0.70013787 0.70013787 0.70013787
0.74842218 0.74842218 0.74842218
0.78314951 0.78314951 0.78314951
0.7254902 0.7254902 0.7254902
0.72026654 0.72026654 0.72026654
0.71985294 0.71985294 0.71985294
0.74264706 0.74264706 0.74264706
0.75196078 0.75196078 0.75196078
0.76519608 0.76519608 0.76519608
0.78716299 0.78716299 0.78716299
0.81361826 0.81361826 0.81361826
0.8372549 0.8372549 0.8372549
0.82935049 0.82935049 0.82935049
0.82892157 0.82892157 0.82892157
0.82892157 0.82892157 0.82892157
0.83676471 0.83676471 0.83676471
0.84610907 0.84610907 0.84610907
0.85561428 0.85561428 0.85561428
0.85980392 0.85980392 0.85980392
0.87511489 0.87511489 0.87511489
0.89852941 0.89852941 0.89852941
0.91372549 0.91372549 0.91372549
0.90588235 0.90588235 0.90588235
0.90588235 0.90588235 0.90588235
0.90980392 0.90980392 0.90980392
0.91936275 0.91936275 0.91936275
0.92156863 0.92156863 0.92156863
0.92156863 0.92156863 0.92156863
0.93376225 0.93376225 0.93376225
0.95294118 0.95294118 0.95294118
0.050980392 0.050980392 0.050980392
0.069117647 0.069117647 0.069117647
0.075980392 0.075980392 0.075980392
0.095098039 0.095098039 0.095098039
0.14852941 0.14852941 0.14852941
0.22794118 0.22794118 0.22794118
0.31862745 0.31862745 0.31862745
0.44460784 0.44460784 0.44460784
0.56764706 0.56764706 0.56764706
0.11666667 0.11666667 0.11666667
0.1208027 0.1208027 0.1208027
0.14457721 0.14457721 0.14457721
0.18253676 0.18253676 0.18253676
0.24044118 0.24044118 0.24044118
0.30850184 0.30850184 0.30850184
0.39733456 0.39733456 0.39733456
0.49776348 0.49776348 0.49776348
0.59056373 0.59056373 0.59056373
0.22254902 0.22254902 0.22254902
0.22637868 0.22637868 0.22637868
0.25294118 0.25294118 0.25294118
0.28863358 0.28863358 0.28863358
0.34117647 0.34117647 0.34117647
0.40232843 0.40232843 0.40232843
0.47879902 0.47879902 0.47879902
0.56681985 0.56681985 0.56681985
0.64191176 0.64191176 0.64191176
0.35637255 0.35637255 0.35637255
0.35784314 0.35784314 0.35784314
0.38284314 0.38284314 0.38284314
0.41127451 0.41127451 0.41127451
0.45 0.45 0.45
0.49227941 0.49227941 0.49227941
0.55168505 0.55168505 0.55168505
0.62117034 0.62117034 0.62117034
0.68664216 0.68664216 0.68664216
0.49313725 0.49313725 0.49313725
0.49877451 0.49877451 0.49877451
0.51666667 0.51666667 0.51666667
0.53480392 0.53480392 0.53480392
0.56176471 0.56176471 0.56176471
0.59852941 0.59852941 0.59852941
0.63578431 0.63578431 0.63578431
0.68823529 0.68823529 0.68823529
0.74117647 0.74117647 0.74117647
0.61666667 0.61666667 0.61666667
0.62336091 0.62336091 0.62336091
0.63783701 0.63783701 0.63783701
0.65349265 0.65349265 0.65349265
0.66789216 0.66789216 0.66789216
0.69117647 0.69117647 0.69117647
0.72123162 0.72123162 0.72123162
0.76367953 0.76367953 0.76367953
0.79117647 0.79117647 0.79117647
0.72941176 0.72941176 0.72941176
0.72717525 0.72717525 0.72717525
0.73823529 0.73823529 0.73823529
0.75098039 0.75098039 0.75098039
0.75931373 0.75931373 0.75931373
0.77441789 0.77441789 0.77441789
0.79957108 0.79957108 0.79957108
0.82490809 0.82490809 0.82490809
0.84509804 0.84509804 0.84509804
0.83676471 0.83676471 0.83676471
0.82941176 0.82941176 0.82941176
0.83131127 0.83131127 0.83131127
0.84068627 0.84068627 0.84068627
0.84981618 0.84981618 0.84981618
0.85998775 0.85998775 0.85998775
0.86700368 0.86700368 0.86700368
0.88382353 0.88382353 0.88382353
0.90588235 0.90588235 0.90588235
0.91764706 0.91764706 0.91764706
0.9127451 0.9127451 0.9127451
0.90980392 0.90980392 0.90980392
0.91372549 0.91372549 0.91372549
0.9254902 0.9254902 0.9254902
0.93517157 0.93517157 0.93517157
0.92941176 0.92941176 0.92941176
0.94154412 0.94154412 0.94154412
0.96078431 0.96078431 0.96078431
0.050980392 0.050980392 0.050980392
0.062438725 0.062438725 0.062438725
0.091666667 0.091666667 0.091666667
0.12598039 0.12598039 0.12598039
0.18872549 0.18872549 0.18872549
0.26176471 0.26176471 0.26176471
0.36715686 0.36715686 0.36715686
0.49491422 0.49491422 0.49491422
0.60637255 0.60637255 0.60637255
0.14166667 0.14166667 0.14166667
0.14934896 0.14934896 0.14934896
0.1786152 0.1786152 0.1786152
0.2183364 0.2183364 0.2183364
0.27539828 0.27539828 0.27539828
0.34264706 0.34264706 0.34264706
0.43167892 0.43167892 0.43167892
0.53631281 0.53631281 0.53631281
0.62285539 0.62285539 0.62285539
0.2495098 0.2495098 0.2495098
0.25693934 0.25693934 0.25693934
0.28471201 0.28471201 0.28471201
0.32708333 0.32708333 0.32708333
0.37689951 0.37689951 0.37689951
0.43572304 0.43572304 0.43572304
0.50833333 0.50833333 0.50833333
0.59028799 0.59028799 0.59028799
0.65784314 0.65784314 0.65784314
0.38480392 0.38480392 0.38480392
0.3908701 0.3908701 0.3908701
0.41127451 0.41127451 0.41127451
0.44734222 0.44734222 0.44734222
0.47843137 0.47843137 0.47843137
0.51954657 0.51954657 0.51954657
0.58016238 0.58016238 0.58016238
0.64282322 0.64282322 0.64282322
0.70594363 0.70594363 0.70594363
0.52009804 0.52009804 0.52009804
0.52769608 0.52769608 0.52769608
0.53939951 0.53939951 0.53939951
0.56568627 0.56568627 0.56568627
0.58419118 0.58419118 0.58419118
0.61715686 0.61715686 0.61715686
0.66366422 0.66366422 0.66366422
0.71577819 0.71577819 0.71577819
0.75686275 0.75686275 0.75686275
0.64754902 0.64754902 0.64754902
0.65392157 0.65392157 0.65392157
0.66176471 0.66176471 0.66176471
0.67653186 0.67653186 0.67653186
0.6879902 0.6879902 0.6879902
0.70449602 0.70449602 0.70449602
0.7444087 0.7444087 0.7444087
0.77990196 0.77990196 0.77990196
0.80631127 0.80631127 0.80631127
0.74656863 0.74656863 0.74656863
0.75410539 0.75410539 0.75410539
0.75916054 0.75916054 0.75916054
0.76686581 0.76686581 0.76686581
0.77530637 0.77530637 0.77530637
0.78835784 0.78835784 0.78835784
0.81461397 0.81461397 0.81461397
0.83935355 0.83935355 0.83935355
0.86078431 0.86078431 0.86078431
0.84068627 0.84068627 0.84068627
0.84460784 0.84460784 0.84460784
0.84460784 0.84460784 0.84460784
0.85238205 0.85238205 0.85238205
0.85851716 0.85851716 0.85851716
0.86501991 0.86501991 0.86501991
0.88002451 0.88002451 0.88002451
0.89540441 0.89540441 0.89540441
0.91421569 0.91421569 0.91421569
0.93088235 0.93088235 0.93088235
0.91764706 0.91764706 0.91764706
0.91948529 0.91948529 0.91948529
0.92794118 0.92794118 0.92794118
0.92303922 0.92303922 0.92303922
0.92873775 0.92873775 0.92873775
0.94117647 0.94117647 0.94117647
0.94509804 0.94509804 0.94509804
0.94901961 0.94901961 0.94901961
0.08627451 0.08627451 0.08627451
0.09754902 0.09754902 0.09754902
0.13627451 0.13627451 0.13627451
0.17303922 0.17303922 0.17303922
0.21372549 0.21372549 0.21372549
0.29730392 0.29730392 0.29730392
0.41764706 0.41764706 0.41764706
0.5372549 0.5372549 0.5372549
0.62156863 0.62156863 0.62156863
0.18284314 0.18284314 0.18284314
0.19433211 0.19433211 0.19433211
0.22303922 0.22303922 0.22303922
0.26167279 0.26167279 0.26167279
0.31482843 0.31482843 0.31482843
0.38636642 0.38636642 0.38636642
0.47892157 0.47892157 0.47892157
0.56351103 0.56351103 0.56351103
0.63480392 0.63480392 0.63480392
0.29460784 0.29460784 0.29460784
0.30281863 0.30281863 0.30281863
0.32928922 0.32928922 0.32928922
0.37083333 0.37083333 0.37083333
0.41838235 0.41838235 0.41838235
0.47285539 0.47285539 0.47285539
0.53333333 0.53333333 0.53333333
0.60765931 0.60765931 0.60765931
0.675 0.675 0.675
0.41176471 0.41176471 0.41176471
0.41927083 0.41927083 0.41927083
0.44589461 0.44589461 0.44589461
0.48088235 0.48088235 0.48088235
0.50637255 0.50637255 0.50637255
0.55462623 0.55462623 0.55462623
0.61096814 0.61096814 0.61096814
0.66185662 0.66185662 0.66185662
0.71740196 0.71740196 0.71740196
0.54509804 0.54509804 0.54509804
0.55441176 0.55441176 0.55441176
0.57034314 0.57034314 0.57034314
0.58946078 0.58946078 0.58946078
0.60490196 0.60490196 0.60490196
0.63321078 0.63321078 0.63321078
0.67916667 0.67916667 0.67916667
0.72426471 0.72426471 0.72426471
0.76568627 0.76568627 0.76568627
0.67107843 0.67107843 0.67107843
0.67686887 0.67686887 0.67686887
0.6846201 0.6846201 0.6846201
0.69387255 0.69387255 0.69387255
0.70833333 0.70833333 0.70833333
0.71936275 0.71936275 0.71936275
0.74810049 0.74810049 0.74810049
0.78872549 0.78872549 0.78872549
0.82377451 0.82377451 0.82377451
0.75735294 0.75735294 0.75735294
0.76109069 0.76109069 0.76109069
0.76911765 0.76911765 0.76911765
0.78406863 0.78406863 0.78406863
0.79166667 0.79166667 0.79166667
0.79926471 0.79926471 0.79926471
0.82218137 0.82218137 0.82218137
0.84901961 0.84901961 0.84901961
0.87156863 0.87156863 0.87156863
0.84460784 0.84460784 0.84460784
0.84460784 0.84460784 0.84460784
0.85373775 0.85373775 0.85373775
0.86412377 0.86412377 0.86412377
0.86789216 0.86789216 0.86789216
0.8745098 0.8745098 0.8745098
0.8872549 0.8872549 0.8872549
0.8995098 0.8995098 0.8995098
0.91838235 0.91838235 0.91838235
0.9254902 0.9254902 0.9254902
0.91764706 0.91764706 0.91764706
0.92107843 0.92107843 0.92107843
0.9372549 0.9372549 0.9372549
0.91960784 0.91960784 0.91960784
0.94264706 0.94264706 0.94264706
0.94313725 0.94313725 0.94313725
0.94117647 0.94117647 0.94117647
0.94509804 0.94509804 0.94509804
0.092156863 0.092156863 0.092156863
0.15098039 0.15098039 0.15098039
0.16911765 0.16911765 0.16911765
0.23137255 0.23137255 0.23137255
0.28333333 0.28333333 0.28333333
0.36960784 0.36960784 0.36960784
0.47647059 0.47647059 0.47647059
0.57107843 0.57107843 0.57107843
0.64460784 0.64460784 0.64460784
0.22794118 0.22794118 0.22794118
0.25882353 0.25882353 0.25882353
0.2745098 0.2745098 0.2745098
0.31967678 0.31967678 0.31967678
0.37616422 0.37616422 0.37616422
0.43982077 0.43982077 0.43982077
0.51407782 0.51407782 0.51407782
0.58327206 0.58327206 0.58327206
0.65459559 0.65459559 0.65459559
0.35980392 0.35980392 0.35980392
0.3676011 0.3676011 0.3676011
0.3872549 0.3872549 0.3872549
0.42781863 0.42781863 0.42781863
0.46740196 0.46740196 0.46740196
0.51948529 0.51948529 0.51948529
0.57496936 0.57496936 0.57496936
0.63193934 0.63193934 0.63193934
0.6942402 0.6942402 0.6942402
0.47003676 0.47003676 0.47003676
0.46900276 0.46900276 0.46900276
0.488894 0.488894 0.488894
0.52408088 0.52408088 0.52408088
0.56053922 0.56053922 0.56053922
0.597572 0.597572 0.597572
0.64362745 0.64362745 0.64362745
0.68970588 0.68970588 0.68970588
0.740625 0.740625 0.740625
0.58333333 0.58333333 0.58333333
0.5895527 0.5895527 0.5895527
0.60238971 0.60238971 0.60238971
0.62303922 0.62303922 0.62303922
0.65245098 0.65245098 0.65245098
0.6747549 0.6747549 0.6747549
0.70931373 0.70931373 0.70931373
0.75098039 0.75098039 0.75098039
0.78651961 0.78651961 0.78651961
0.69460784 0.69460784 0.69460784
0.69921875 0.69921875 0.69921875
0.70747549 0.70747549 0.70747549
0.71868873 0.71868873 0.71868873
0.73651961 0.73651961 0.73651961
0.74797794 0.74797794 0.74797794
0.77401961 0.77401961 0.77401961
0.80735294 0.80735294 0.80735294
0.82647059 0.82647059 0.82647059
0.77303922 0.77303922 0.77303922
0.77856924 0.77856924 0.77856924
0.78863358 0.78863358 0.78863358
0.79771752 0.79771752 0.79771752
0.80680147 0.80680147 0.80680147
0.81819853 0.81819853 0.81819853
0.8356924 0.8356924 0.8356924
0.85845588 0.85845588 0.85845588
0.87977941 0.87977941 0.87977941
0.85606618 0.85606618 0.85606618
0.86111366 0.86111366 0.86111366
0.86550245 0.86550245 0.86550245
0.87274816 0.87274816 0.87274816
0.87959559 0.87959559 0.87959559
0.88491881 0.88491881 0.88491881
0.88520221 0.88520221 0.88520221
0.90702359 0.90702359 0.90702359
0.93039216 0.93039216 0.93039216
0.93480392 0.93480392 0.93480392
0.92205882 0.92205882 0.92205882
0.92879902 0.92879902 0.92879902
0.9372549 0.9372549 0.9372549
0.94656863 0.94656863 0.94656863
0.94509804 0.94509804 0.94509804
0.93664216 0.93664216 0.93664216
0.93382353 0.93382353 0.93382353
0.94509804 0.94509804 0.94509804
0.18627451 0.18627451 0.18627451
0.21409314 0.21409314 0.21409314
0.26397059 0.26397059 0.26397059
0.3254902 0.3254902 0.3254902
0.36568627 0.36568627 0.36568627
0.42205882 0.42205882 0.42205882
0.51764706 0.51764706 0.51764706
0.60637255 0.60637255 0.60637255
0.6754902 0.6754902 0.6754902
0.30588235 0.30588235 0.30588235
0.32457108 0.32457108 0.32457108
0.34558824 0.34558824 0.34558824
0.39068627 0.39068627 0.39068627
0.4401348 0.4401348 0.4401348
0.48688725 0.48688725 0.48688725
0.56268382 0.56268382 0.56268382
0.625 0.625 0.625
0.68284314 0.68284314 0.68284314
0.42156863 0.42156863 0.42156863
0.4377451 0.4377451 0.4377451
0.45759804 0.45759804 0.45759804
0.49166667 0.49166667 0.49166667
0.53039216 0.53039216 0.53039216
0.56712623 0.56712623 0.56712623
0.62077206 0.62077206 0.62077206
0.6708027 0.6708027 0.6708027
0.72058824 0.72058824 0.72058824
0.52879902 0.52879902 0.52879902
0.52696078 0.52696078 0.52696078
0.5495098 0.5495098 0.5495098
0.58039216 0.58039216 0.58039216
0.60655637 0.60655637 0.60655637
0.63111213 0.63111213 0.63111213
0.67797181 0.67797181 0.67797181
0.72579657 0.72579657 0.72579657
0.76605392 0.76605392 0.76605392
0.63039216 0.63039216 0.63039216
0.63063725 0.63063725 0.63063725
0.64215686 0.64215686 0.64215686
0.66691176 0.66691176 0.66691176
0.68627451 0.68627451 0.68627451
0.70226716 0.70226716 0.70226716
0.73737745 0.73737745 0.73737745
0.778125 0.778125 0.778125
0.80588235 0.80588235 0.80588235
0.72303922 0.72303922 0.72303922
0.72677696 0.72677696 0.72677696
0.73480392 0.73480392 0.73480392
0.74993873 0.74993873 0.74993873
0.76439951 0.76439951 0.76439951
0.77470895 0.77470895 0.77470895
0.79681373 0.79681373 0.79681373
0.82365196 0.82365196 0.82365196
0.84607843 0.84607843 0.84607843
0.80294118 0.80294118 0.80294118
0.80392157 0.80392157 0.80392157
0.81397059 0.81397059 0.81397059
0.82300858 0.82300858 0.82300858
0.83039216 0.83039216 0.83039216
0.83933824 0.83933824 0.83933824
0.85373775 0.85373775 0.85373775
0.87359069 0.87359069 0.87359069
0.89142157 0.89142157 0.89142157
0.8807598 0.8807598 0.8807598
0.88345588 0.88345588 0.88345588
0.88333333 0.88333333 0.88333333
0.89183517 0.89183517 0.89183517
0.89914216 0.89914216 0.89914216
0.89878983 0.89878983 0.89878983
0.90879289 0.90879289 0.90879289
0.92374387 0.92374387 0.92374387
0.93909314 0.93909314 0.93909314
0.94901961 0.94901961 0.94901961
0.94252451 0.94252451 0.94252451
0.9372549 0.9372549 0.9372549
0.94019608 0.94019608 0.94019608
0.94901961 0.94901961 0.94901961
0.9504902 0.9504902 0.9504902
0.95294118 0.95294118 0.95294118
0.9495098 0.9495098 0.9495098
0.96960784 0.96960784 0.96960784
0.30784314 0.30784314 0.30784314
0.32310049 0.32310049 0.32310049
0.3682598 0.3682598 0.3682598
0.42598039 0.42598039 0.42598039
0.44852941 0.44852941 0.44852941
0.48118873 0.48118873 0.48118873
0.58431373 0.58431373 0.58431373
0.64944853 0.64944853 0.64944853
0.71813725 0.71813725 0.71813725
0.38823529 0.38823529 0.38823529
0.41083793 0.41083793 0.41083793
0.4379136 0.4379136 0.4379136
0.47179075 0.47179075 0.47179075
0.50171569 0.50171569 0.50171569
0.53449755 0.53449755 0.53449755
0.60568321 0.60568321 0.60568321
0.66764706 0.66764706 0.66764706
0.72248775 0.72248775 0.72248775
0.49215686 0.49215686 0.49215686
0.50370711 0.50370711 0.50370711
0.52647059 0.52647059 0.52647059
0.55735294 0.55735294 0.55735294
0.58265931 0.58265931 0.58265931
0.61321998 0.61321998 0.61321998
0.65968137 0.65968137 0.65968137
0.70909926 0.70909926 0.70909926
0.75551471 0.75551471 0.75551471
0.58872549 0.58872549 0.58872549
0.58609069 0.58609069 0.58609069
0.60543811 0.60543811 0.60543811
0.62782629 0.62782629 0.62782629
0.64803922 0.64803922 0.64803922
0.67794118 0.67794118 0.67794118
0.71662071 0.71662071 0.71662071
0.75486366 0.75486366 0.75486366
0.78302696 0.78302696 0.78302696
0.67696078 0.67696078 0.67696078
0.67745098 0.67745098 0.67745098
0.68890931 0.68890931 0.68890931
0.70196078 0.70196078 0.70196078
0.72022059 0.72022059 0.72022059
0.73961397 0.73961397 0.73961397
0.76813725 0.76813725 0.76813725
0.79659926 0.79659926 0.79659926
0.81789216 0.81789216 0.81789216
0.75606618 0.75606618 0.75606618
0.75782016 0.75782016 0.75782016
0.76531863 0.76531863 0.76531863
0.77689951 0.77689951 0.77689951
0.79240196 0.79240196 0.79240196
0.80343137 0.80343137 0.80343137
0.82009804 0.82009804 0.82009804
0.84109222 0.84109222 0.84109222
0.86599265 0.86599265 0.86599265
0.82598039 0.82598039 0.82598039
0.829856 0.829856 0.829856
0.8377451 0.8377451 0.8377451
0.84813113 0.84813113 0.84813113
0.85343137 0.85343137 0.85343137
0.86119792 0.86119792 0.86119792
0.87389706 0.87389706 0.87389706
0.89252451 0.89252451 0.89252451
0.90686275 0.90686275 0.90686275
0.89509804 0.89509804 0.89509804
0.89515165 0.89515165 0.89515165
0.8995098 0.8995098 0.8995098
0.90275735 0.90275735 0.90275735
0.91029412 0.91029412 0.91029412
0.91626072 0.91626072 0.91626072
0.92610294 0.92610294 0.92610294
0.93382353 0.93382353 0.93382353
0.94166667 0.94166667 0.94166667
0.95294118 0.95294118 0.95294118
0.95343137 0.95343137 0.95343137
0.94522059 0.94522059 0.94522059
0.93988971 0.93988971 0.93988971
0.94901961 0.94901961 0.94901961
0.95833333 0.95833333 0.95833333
0.96078431 0.96078431 0.96078431
0.95735294 0.95735294 0.95735294
0.97647059 0.97647059 0.97647059
0.36862745 0.36862745 0.36862745
0.39901961 0.39901961 0.39901961
0.45784314 0.45784314 0.45784314
0.49509804 0.49509804 0.49509804
0.52156863 0.52156863 0.52156863
0.54411765 0.54411765 0.54411765
0.63823529 0.63823529 0.63823529
0.69901961 0.69901961 0.69901961
0.75294118 0.75294118 0.75294118
0.44558824 0.44558824 0.44558824
0.47254902 0.47254902 0.47254902
0.51139706 0.51139706 0.51139706
0.54656863 0.54656863 0.54656863
0.55784314 0.55784314 0.55784314
0.58627451 0.58627451 0.58627451
0.65343137 0.65343137 0.65343137
0.71072304 0.71072304 0.71072304
0.76470588 0.76470588 0.76470588
0.56862745 0.56862745 0.56862745
0.56568627 0.56568627 0.56568627
0.57769608 0.57769608 0.57769608
0.60441176 0.60441176 0.60441176
0.62303922 0.62303922 0.62303922
0.65281863 0.65281863 0.65281863
0.69779412 0.69779412 0.69779412
0.74203431 0.74203431 0.74203431
0.77941176 0.77941176 0.77941176
0.62843137 0.62843137 0.62843137
0.62843137 0.62843137 0.62843137
0.63811275 0.63811275 0.63811275
0.6622549 0.6622549 0.6622549
0.68529412 0.68529412 0.68529412
0.71764706 0.71764706 0.71764706
0.74852941 0.74852941 0.74852941
0.76764706 0.76764706 0.76764706
0.79068627 0.79068627 0.79068627
0.69607843 0.69607843 0.69607843
0.70171569 0.70171569 0.70171569
0.71127451 0.71127451 0.71127451
0.73063725 0.73063725 0.73063725
0.75588235 0.75588235 0.75588235
0.77647059 0.77647059 0.77647059
0.79068627 0.79068627 0.79068627
0.80637255 0.80637255 0.80637255
0.82352941 0.82352941 0.82352941
0.76911765 0.76911765 0.76911765
0.77518382 0.77518382 0.77518382
0.78664216 0.78664216 0.78664216
0.80539216 0.80539216 0.80539216
0.81862745 0.81862745 0.81862745
0.82647059 0.82647059 0.82647059
0.83713235 0.83713235 0.83713235
0.85030637 0.85030637 0.85030637
0.86568627 0.86568627 0.86568627
0.84117647 0.84117647 0.84117647
0.84901961 0.84901961 0.84901961
0.85906863 0.85906863 0.85906863
0.86262255 0.86262255 0.86262255
0.86813725 0.86813725 0.86813725
0.87254902 0.87254902 0.87254902
0.88333333 0.88333333 0.88333333
0.89522059 0.89522059 0.89522059
0.90686275 0.90686275 0.90686275
0.90686275 0.90686275 0.90686275
0.91078431 0.91078431 0.91078431
0.91470588 0.91470588 0.91470588
0.90655637 0.90655637 0.90655637
0.91053922 0.91053922 0.91053922
0.91813725 0.91813725 0.91813725
0.92598039 0.92598039 0.92598039
0.93082108 0.93082108 0.93082108
0.94166667 0.94166667 0.94166667
0.96470588 0.96470588 0.96470588
0.97205882 0.97205882 0.97205882
0.96176471 0.96176471 0.96176471
0.94901961 0.94901961 0.94901961
0.94901961 0.94901961 0.94901961
0.95686275 0.95686275 0.95686275
0.95686275 0.95686275 0.95686275
0.96078431 0.96078431 0.96078431
0.97254902 0.97254902 0.97254902
