site/assets/luts/natron-haldclut--fuji-fp-100c--19db7c4ee.cube
# LUTr-Project: LUTr — LUTrepository
# LUTr-Schema-Version: 1
# LUTr-ID: natron-haldclut--fuji-fp-100c--19db7c4ee
# LUTr-Title: fuji fp 100c
# LUTr-Collection: Natron HaldCLUT
# LUTr-Collection-ID: natron-haldclut-presets
# LUTr-Source: https://github.com/NatronGitHub/clut
# LUTr-Source-File: submissions/natron-haldclut-presets/colorslide/fuji_fp_100c.png
# LUTr-Source-Format: PNG
# LUTr-Source-SHA256: cb93acc4eb0e8fb2a1b64ab0e47207c0605cde32980c32cfe7b036aaeaa0b4f9
# LUTr-License: CC-BY-SA-4.0
# LUTr-License-URL: https://github.com/NatronGitHub/clut#license
# LUTr-Tags: creative, film, film-emulation, hald-clut, natron, png, cube
# LUTr-Transform-Class: film-emulation
# LUTr-Input-Color-Space: srgb
# LUTr-Output-Color-Space: srgb
# LUTr-Color-Space-Confidence: assumed-display-referred
# LUTr-Conversion-Method: PNG LUT image decoded at 16-bit and sampled to 25x25x25 3D CUBE
# LUTr-Conversion-Date: 2026-07-27
# LUTr-Conversion-Tool: LUTr scripts/convert-all-to-cube.mjs
# LUTr-Conversion-Grid: 25x25x25
# LUTr-Note: Preserve this metadata and the upstream license notices when redistributing.
TITLE "fuji fp 100c"
LUT_3D_SIZE 25
DOMAIN_MIN 0 0 0
DOMAIN_MAX 1 1 1
0.0078431373 0.019607843 0.0039215686
0.018137255 0.015686275 0.006372549
0.028431373 0.010784314 0.0088235294
0.03872549 0.0044117647 0.011764706
0.066666667 0.015686275 0.0078431373
0.099019608 0.02745098 0.0039215686
0.11960784 0.024509804 0.0039215686
0.13480392 0.014215686 0.0039215686
0.14901961 0.0078431373 0.0039215686
0.17058824 0 0
0.21176471 0.0039215686 0.0039215686
0.24901961 0.0039215686 0.0039215686
0.28431373 0.0019607843 0.0019607843
0.32009804 0 0
0.3745098 0.0039215686 0
0.43088235 0.0078431373 0
0.49019608 0.011764706 0
0.54803922 0.011764706 0.0024509804
0.60490196 0.015686275 0
0.64901961 0.012254902 0
0.68235294 0.011764706 0
0.71568627 0.0078431373 0
0.75 0.0078431373 0
0.78480392 0.0039215686 0
0.80784314 0.0039215686 0
0.0078431373 0.019607843 0
0.023039216 0.022058824 0.0072916667
0.037622549 0.024509804 0.014583333
0.051164216 0.024509804 0.01439951
0.07377451 0.024019608 0.0066176471
0.10147059 0.031372549 0.0039215686
0.11960784 0.026348039 0.0039215686
0.13964461 0.025428922 0.006372549
0.16176471 0.020588235 0.006372549
0.18872549 0.015134804 0.0039215686
0.22561275 0.012132353 0.0039215686
0.26194853 0.010294118 0.0039215686
0.29779412 0.0039215686 0.0019607843
0.33284314 0 0
0.38762255 0.0039215686 0
0.44417892 0.0078431373 0
0.5004902 0.011764706 0.0039215686
0.55588235 0.015686275 0.0039215686
0.60845588 0.015686275 0
0.64901961 0.012254902 0
0.68431373 0.011764706 0
0.71911765 0.0078431373 0
0.75355392 0.0078431373 0
0.78480392 0.0039215686 0
0.81176471 0.0039215686 0
0.029411765 0.046078431 0.012745098
0.038235294 0.046078431 0.015196078
0.052941176 0.049019608 0.019607843
0.068014706 0.045220588 0.013235294
0.083823529 0.037745098 0.0058823529
0.10441176 0.036397059 0.0013480392
0.12916667 0.040931373 0.0071078431
0.15392157 0.041176471 0.0099264706
0.18137255 0.037254902 0.0078431373
0.20588235 0.030514706 0.0039215686
0.23946078 0.027696078 0.0039215686
0.27745098 0.021936275 0.0039215686
0.31323529 0.011764706 0.0024509804
0.34938725 0.0031862745 0.00098039216
0.4 0.0071078431 0
0.45539216 0.011764706 0.0020833333
0.51078431 0.015686275 0.0039215686
0.56617647 0.015686275 0.0011029412
0.6127451 0.015686275 0
0.65036765 0.012254902 0
0.68480392 0.011764706 0
0.7192402 0.0088235294 0
0.75392157 0.0078431373 0
0.78872549 0.0078431373 0
0.81176471 0.0078431373 0
0.053921569 0.073039216 0.023039216
0.054227941 0.073529412 0.019607843
0.066789216 0.073406863 0.020465686
0.081311275 0.076041667 0.042401961
0.099264706 0.065196078 0.017156863
0.11813725 0.061335784 0.014276961
0.14252451 0.065196078 0.015196078
0.16715686 0.067647059 0.015196078
0.19166667 0.057843137 0.01127451
0.21617647 0.045404412 0.0039215686
0.2504902 0.03872549 0.00098039216
0.29117647 0.041727941 0.0069240196
0.32867647 0.037990196 0.0073529412
0.36574755 0.033333333 0.0077818627
0.41421569 0.023406863 0.0047794118
0.46697304 0.019117647 0.0039215686
0.52107843 0.015686275 0.0039215686
0.57303922 0.017830882 0
0.61948529 0.015686275 0
0.65343137 0.012254902 0
0.68823529 0.011764706 0
0.72303922 0.011764706 0
0.75772059 0.011764706 0
0.79215686 0.011764706 0
0.81568627 0.011764706 0
0.074509804 0.10196078 0.02745098
0.074509804 0.10196078 0.025490196
0.081862745 0.1 0.026470588
0.097303922 0.1 0.032843137
0.11568627 0.099019608 0.033333333
0.13431373 0.096078431 0.031127451
0.15343137 0.094607843 0.025980392
0.17892157 0.094117647 0.024754902
0.20588235 0.088235294 0.017647059
0.23235294 0.075980392 0.0125
0.26666667 0.070588235 0.0098039216
0.30784314 0.068872549 0.013235294
0.34607843 0.068627451 0.016666667
0.38259804 0.063970588 0.015441176
0.43039216 0.050490196 0.012254902
0.47990196 0.03504902 0.0071078431
0.53137255 0.021568627 0.0039215686
0.58284314 0.019607843 0
0.62303922 0.015686275 0
0.65735294 0.015686275 0
0.69313725 0.017647059 0
0.72892157 0.017647059 0
0.76372549 0.016176471 0
0.79656863 0.015686275 0
0.82156863 0.01372549 0
0.091176471 0.13921569 0.044117647
0.094914216 0.13921569 0.044117647
0.10036765 0.13786765 0.040196078
0.11415441 0.13480392 0.043198529
0.13039216 0.13480392 0.04754902
0.1504902 0.13088235 0.043627451
0.1685049 0.12438725 0.036764706
0.18970588 0.11960784 0.031862745
0.22401961 0.11960784 0.031862745
0.25520833 0.11715686 0.027941176
0.29019608 0.11176471 0.023161765
0.32843137 0.10833333 0.020098039
0.36372549 0.10196078 0.024019608
0.3995098 0.091666667 0.02310049
0.44705882 0.080882353 0.019730392
0.49705882 0.063051471 0.01439951
0.54558824 0.045098039 0.0083333333
0.59068627 0.024816176 0.0017769608
0.62830882 0.025 0
0.66568627 0.028921569 0
0.70073529 0.028676471 0
0.73578431 0.02745098 0
0.77009804 0.021078431 0
0.80490196 0.018321078 0
0.82794118 0.015686275 0
0.10784314 0.17745098 0.057843137
0.11421569 0.17683824 0.057843137
0.1245098 0.17352941 0.056862745
0.13125 0.16997549 0.053921569
0.14558824 0.16960784 0.053921569
0.16470588 0.16556373 0.050857843
0.18529412 0.1625 0.047058824
0.20882353 0.15968137 0.042156863
0.23823529 0.15784314 0.042156863
0.27095588 0.15502451 0.038235294
0.30784314 0.15294118 0.034313725
0.34558824 0.14914216 0.030759804
0.38235294 0.14313725 0.02745098
0.42267157 0.13247549 0.02745098
0.46764706 0.11862745 0.026470588
0.51519608 0.10294118 0.021078431
0.5627451 0.08627451 0.014705882
0.60490196 0.071446078 0.0083333333
0.64583333 0.062745098 0.0029411765
0.68247549 0.062745098 0.00036764706
0.71764706 0.059313725 0
0.7495098 0.050980392 0
0.78039216 0.032107843 0
0.81519608 0.021446078 0
0.83823529 0.019607843 0
0.12303922 0.2122549 0.068137255
0.13088235 0.21372549 0.069607843
0.14117647 0.21372549 0.068137255
0.15147059 0.20998775 0.065992647
0.16029412 0.20735294 0.062990196
0.18069853 0.20557598 0.061764706
0.20343137 0.20343137 0.064338235
0.22401961 0.19748775 0.053370098
0.24852941 0.19411765 0.048529412
0.28578431 0.19264706 0.044607843
0.3245098 0.19019608 0.04252451
0.36207108 0.18890931 0.035784314
0.39901961 0.18039216 0.031372549
0.44068627 0.17009804 0.031372549
0.48713235 0.1564951 0.031372549
0.53431373 0.14558824 0.028370098
0.57794118 0.13284314 0.025
0.62058824 0.11770833 0.014705882
0.66176471 0.10502451 0.0068627451
0.6995098 0.1 0.0039215686
0.73431373 0.096568627 0
0.76519608 0.080085784 0
0.79497549 0.054044118 0
0.8254902 0.031372549 0
0.85245098 0.019607843 0
0.1372549 0.2627451 0.082352941
0.14362745 0.25882353 0.082352941
0.15392157 0.25882353 0.082352941
0.16421569 0.25882353 0.078921569
0.1745098 0.25490196 0.078431373
0.19705882 0.25490196 0.078431373
0.21764706 0.24803922 0.075490196
0.23970588 0.24166667 0.069117647
0.2627451 0.23921569 0.058823529
0.30392157 0.23529412 0.054901961
0.34117647 0.23137255 0.05
0.37843137 0.22401961 0.039705882
0.41568627 0.21764706 0.035294118
0.46078431 0.20735294 0.035294118
0.50588235 0.20098039 0.035294118
0.55098039 0.19068627 0.035294118
0.59215686 0.18039216 0.031372549
0.63578431 0.16372549 0.021078431
0.67843137 0.14803922 0.010784314
0.71960784 0.1377451 0.0039215686
0.75490196 0.12941176 0
0.78186275 0.10882353 0
0.8127451 0.085294118 0
0.83970588 0.06372549 0
0.8627451 0.047058824 0
0.15 0.31813725 0.096568627
0.15784314 0.31421569 0.096568627
0.16813725 0.31029412 0.096568627
0.17843137 0.30686275 0.095098039
0.18872549 0.30637255 0.094607843
0.20765931 0.30637255 0.094791667
0.23370098 0.30306373 0.089705882
0.25882353 0.30006127 0.086703431
0.2872549 0.29705882 0.083333333
0.3245098 0.29705882 0.075490196
0.36176471 0.28823529 0.066666667
0.39558824 0.2745098 0.052941176
0.43161765 0.26176471 0.038970588
0.47794118 0.25490196 0.041666667
0.52254902 0.24852941 0.042769608
0.56764706 0.23823529 0.041666667
0.6127451 0.22794118 0.035294118
0.65392157 0.21464461 0.025
0.69509804 0.19558824 0.014705882
0.73627451 0.18137255 0.0044117647
0.77034314 0.16789216 0
0.79852941 0.15275735 0.0039215686
0.82696078 0.14007353 0.0039215686
0.85545343 0.12640931 0.0039215686
0.86911765 0.12156863 0.0039215686
0.16176471 0.37352941 0.10686275
0.16813725 0.36776961 0.10686275
0.17843137 0.3625 0.10686275
0.18970588 0.36176471 0.10686275
0.20294118 0.35882353 0.10343137
0.22169118 0.36139706 0.10306373
0.25 0.35882353 0.10392157
0.27879902 0.35882353 0.10784314
0.30784314 0.35784314 0.10392157
0.34448529 0.3560049 0.092647059
0.38235294 0.35 0.082352941
0.41960784 0.33970588 0.069485294
0.46127451 0.32941176 0.057843137
0.50330882 0.31617647 0.051960784
0.54705882 0.30490196 0.051960784
0.58860294 0.29252451 0.047671569
0.63039216 0.28039216 0.039215686
0.6745098 0.26727941 0.029901961
0.71176471 0.25098039 0.019607843
0.75208333 0.2377451 0.013235294
0.7872549 0.22745098 0.0068627451
0.81519608 0.21715686 0.0039215686
0.84534314 0.20465686 0.0039215686
0.86911765 0.19509804 0.0039215686
0.8745098 0.19509804 0.0039215686
0.17205882 0.42892157 0.12107843
0.17843137 0.42469363 0.11960784
0.19227941 0.41973039 0.12107843
0.20637255 0.41666667 0.11758578
0.22034314 0.41666667 0.11519608
0.23970588 0.41323529 0.11329657
0.27009804 0.41323529 0.11752451
0.29754902 0.41452206 0.12254902
0.32843137 0.41666667 0.12107843
0.36323529 0.41060049 0.10294118
0.39938725 0.40441176 0.089215686
0.44319853 0.39797794 0.082352941
0.4870098 0.39313725 0.072058824
0.53039216 0.3838848 0.065686275
0.57156863 0.37022059 0.059681373
0.6127451 0.35490196 0.052941176
0.65392157 0.34166667 0.046568627
0.69264706 0.3276348 0.036580882
0.72879902 0.31372549 0.030759804
0.76660539 0.30294118 0.023529412
0.80147059 0.29289216 0.017156863
0.83235294 0.27892157 0.0077818627
0.86286765 0.26862745 0.0039215686
0.88186275 0.26323529 0.0017769608
0.88186275 0.26372549 0.0039215686
0.18235294 0.48627451 0.12941176
0.19313725 0.48308824 0.12867647
0.21568627 0.47794118 0.12941176
0.23455882 0.4745098 0.12573529
0.25294118 0.47352941 0.12058824
0.27352941 0.47254902 0.11960784
0.30098039 0.47205882 0.12107843
0.32794118 0.47254902 0.12230392
0.35882353 0.47254902 0.11764706
0.38970588 0.46544118 0.10612745
0.42303922 0.45882353 0.095588235
0.46666667 0.45882353 0.090441176
0.5127451 0.45490196 0.082352941
0.55686275 0.44656863 0.075980392
0.59607843 0.43235294 0.069607843
0.6372549 0.41813725 0.062009804
0.67647059 0.40196078 0.052941176
0.71323529 0.38970588 0.045098039
0.74803922 0.38137255 0.03872549
0.78284314 0.37107843 0.033823529
0.81764706 0.36078431 0.02745098
0.84852941 0.35 0.017156863
0.87941176 0.33333333 0.0068627451
0.89485294 0.32818627 0.0058823529
0.89607843 0.33137255 0.0078431373
0.22205882 0.53578431 0.12941176
0.22843137 0.53952206 0.12941176
0.24656863 0.53615196 0.12941176
0.26715686 0.53235294 0.12598039
0.2877451 0.53186275 0.1254902
0.30833333 0.53186275 0.12640931
0.33186275 0.53198529 0.12683824
0.3627451 0.52843137 0.12009804
0.39362745 0.52794118 0.11372549
0.42775735 0.52855392 0.11495098
0.46078431 0.51960784 0.10098039
0.50147059 0.51666667 0.095036765
0.53921569 0.51421569 0.090441176
0.57990196 0.50741422 0.082781863
0.62058824 0.49411765 0.075980392
0.65814951 0.47990196 0.069301471
0.69901961 0.46568627 0.059313725
0.73382353 0.45539216 0.052941176
0.76862745 0.45 0.046568627
0.80294118 0.44656863 0.040134804
0.83431373 0.43676471 0.033823529
0.86421569 0.41856618 0.027941176
0.89166667 0.40404412 0.024142157
0.91176471 0.39558824 0.020588235
0.91470588 0.39901961 0.024019608
0.27058824 0.58431373 0.12647059
0.27806373 0.58786765 0.12941176
0.28553922 0.59117647 0.12941176
0.29803922 0.59019608 0.12561275
0.31715686 0.5872549 0.1254902
0.34227941 0.59019608 0.12941176
0.36666667 0.5872549 0.12647059
0.39362745 0.58517157 0.12009804
0.42058824 0.57941176 0.11078431
0.45882353 0.57977941 0.1125
0.49803922 0.5752451 0.10269608
0.53627451 0.57156863 0.098039216
0.57647059 0.56617647 0.092156863
0.61066176 0.5567402 0.083210784
0.64583333 0.55294118 0.079411765
0.68419118 0.54056373 0.073039216
0.71960784 0.52745098 0.065686275
0.75441176 0.51605392 0.058823529
0.78921569 0.5127451 0.053186275
0.82352941 0.5127451 0.047426471
0.85 0.50392157 0.044117647
0.875 0.48762255 0.042034314
0.90196078 0.47254902 0.038235294
0.92463235 0.46654412 0.037254902
0.93529412 0.46470588 0.037254902
0.31960784 0.63333333 0.12009804
0.32745098 0.63817402 0.12401961
0.33321078 0.64117647 0.1254902
0.33676471 0.64117647 0.12401961
0.35441176 0.64044118 0.12009804
0.38529412 0.63970588 0.12009804
0.41286765 0.6372549 0.11715686
0.43627451 0.6348652 0.11317402
0.45686275 0.62941176 0.10833333
0.49019608 0.62849265 0.10588235
0.53137255 0.6245098 0.10196078
0.57254902 0.61813725 0.098345588
0.61102941 0.61176471 0.089460784
0.64509804 0.60324755 0.082169118
0.67598039 0.60196078 0.078431373
0.71078431 0.5971201 0.074509804
0.74411765 0.58529412 0.068137255
0.77892157 0.57352941 0.061213235
0.80980392 0.5692402 0.058210784
0.83707108 0.56470588 0.052757353
0.8629902 0.55441176 0.05245098
0.88658088 0.54411765 0.05067402
0.91323529 0.53713235 0.048529412
0.9401348 0.53284314 0.048529412
0.95980392 0.52647059 0.048529412
0.36470588 0.68235294 0.10980392
0.37892157 0.68235294 0.11372549
0.38921569 0.68137255 0.11372549
0.39558824 0.675 0.11029412
0.41176471 0.6745098 0.10980392
0.43676471 0.6745098 0.10980392
0.46078431 0.6745098 0.10980392
0.48137255 0.67058824 0.10588235
0.50588235 0.66666667 0.10196078
0.53284314 0.6627451 0.1004902
0.56862745 0.6627451 0.10098039
0.60588235 0.65931373 0.094117647
0.64313725 0.65294118 0.082352941
0.67598039 0.64705882 0.077941176
0.70686275 0.64313725 0.074509804
0.74019608 0.64313725 0.073039216
0.76862745 0.63921569 0.070588235
0.7995098 0.63039216 0.064215686
0.82647059 0.62352941 0.061764706
0.85343137 0.61617647 0.058823529
0.87647059 0.60980392 0.056862745
0.90294118 0.5995098 0.054411765
0.92647059 0.59607843 0.054901961
0.95196078 0.59068627 0.054901961
0.97254902 0.58039216 0.054901961
0.42647059 0.71470588 0.099509804
0.43676471 0.71470588 0.099509804
0.44705882 0.71323529 0.10098039
0.45735294 0.7096201 0.099509804
0.46838235 0.70857843 0.098284314
0.48792892 0.70539216 0.097058824
0.50870098 0.70539216 0.099509804
0.52947304 0.70147059 0.099509804
0.55343137 0.69754902 0.091666667
0.58039216 0.69754902 0.091666667
0.60882353 0.69754902 0.090686275
0.63970588 0.69626225 0.084313725
0.67401961 0.69093137 0.074019608
0.70686275 0.68823529 0.072058824
0.7377451 0.68431373 0.072426471
0.76617647 0.68131127 0.069669118
0.79558824 0.67794118 0.064215686
0.82064951 0.67156863 0.060294118
0.84252451 0.66801471 0.060294118
0.86795343 0.66470588 0.058823529
0.89313725 0.66004902 0.056862745
0.91685049 0.65490196 0.054901961
0.93198529 0.64276961 0.054901961
0.95196078 0.63186275 0.05245098
0.96862745 0.61911765 0.050980392
0.49215686 0.74019608 0.089215686
0.49852941 0.74129902 0.089215686
0.50490196 0.74019608 0.089215686
0.51433824 0.74019608 0.089215686
0.5245098 0.74019608 0.084803922
0.53909314 0.73970588 0.084436275
0.55588235 0.73553922 0.085294118
0.57647059 0.73088235 0.085294118
0.6 0.72843137 0.081372549
0.62696078 0.72843137 0.07745098
0.65318627 0.72843137 0.075735294
0.67745098 0.72843137 0.06997549
0.70294118 0.72745098 0.065686275
0.73284314 0.72401961 0.065686275
0.76151961 0.71764706 0.065686275
0.78921569 0.7127451 0.061764706
0.81764706 0.70882353 0.057843137
0.83823529 0.70245098 0.053921569
0.85955882 0.7 0.053921569
0.88321078 0.69705882 0.053921569
0.90686275 0.69460784 0.05245098
0.92303922 0.68909314 0.050980392
0.93553922 0.68235294 0.050980392
0.95196078 0.66813725 0.05
0.96862745 0.65784314 0.047058824
0.55735294 0.76372549 0.078921569
0.56029412 0.76715686 0.078921569
0.56666667 0.76715686 0.078921569
0.57303922 0.76372549 0.075919118
0.57794118 0.76372549 0.073039216
0.58676471 0.76366422 0.071078431
0.60355392 0.75980392 0.071446078
0.62401961 0.75931373 0.071078431
0.64509804 0.75588235 0.067156863
0.67205882 0.75539216 0.063235294
0.69767157 0.75588235 0.059681373
0.71862745 0.75238971 0.059313725
0.73578431 0.75171569 0.057107843
0.76029412 0.74803922 0.055392157
0.78517157 0.74754902 0.052818627
0.81127451 0.74362745 0.050183824
0.83823529 0.73970588 0.04754902
0.85882353 0.73333333 0.043627451
0.87855392 0.73088235 0.04754902
0.89656863 0.72794118 0.04754902
0.91715686 0.72401961 0.04754902
0.92990196 0.71960784 0.047058824
0.94362745 0.71237745 0.047058824
0.95569853 0.70294118 0.043627451
0.96862745 0.69215686 0.043137255
0.61764706 0.78823529 0.064705882
0.62083333 0.78946078 0.068627451
0.6254902 0.78823529 0.068137255
0.62916667 0.78823529 0.064705882
0.63235294 0.78431373 0.060784314
0.6379902 0.78431373 0.060784314
0.65490196 0.78235294 0.059313725
0.67279412 0.78431373 0.054166667
0.69215686 0.78431373 0.049019608
0.71470588 0.78235294 0.045098039
0.73333333 0.77990196 0.049019608
0.75220588 0.77647059 0.049019608
0.77254902 0.77254902 0.049019608
0.79117647 0.77254902 0.045098039
0.81176471 0.77107843 0.042156863
0.83627451 0.76862745 0.039705882
0.85882353 0.76666667 0.033333333
0.87622549 0.76348039 0.036519608
0.89362745 0.76029412 0.037745098
0.9127451 0.75882353 0.041176471
0.93039216 0.75686275 0.041176471
0.94362745 0.7504902 0.041176471
0.95392157 0.74166667 0.039705882
0.96421569 0.73382353 0.038480392
0.9745098 0.72745098 0.037254902
0.67696078 0.8122549 0.053921569
0.67726716 0.80882353 0.053921569
0.68223039 0.80882353 0.053063725
0.68523284 0.80882353 0.050061275
0.68897059 0.80490196 0.05
0.69362745 0.80490196 0.049571078
0.71041667 0.80490196 0.04620098
0.72677696 0.80490196 0.041176471
0.73921569 0.80441176 0.03872549
0.75196078 0.80471814 0.034987745
0.77120098 0.80098039 0.03872549
0.78921569 0.79797794 0.03872549
0.80759804 0.79705882 0.03872549
0.82598039 0.79356618 0.034803922
0.84656863 0.79313725 0.031862745
0.8653799 0.79313725 0.029411765
0.87941176 0.78921569 0.026960784
0.89344363 0.78529412 0.029595588
0.90882353 0.78529412 0.031004902
0.92892157 0.78529412 0.031372549
0.94362745 0.78529412 0.033088235
0.95392157 0.7778799 0.034803922
0.96421569 0.77107843 0.031372549
0.9745098 0.76648284 0.030882353
0.98480392 0.7622549 0.030882353
0.73235294 0.82941176 0.03627451
0.73235294 0.82941176 0.037254902
0.73946078 0.82941176 0.03627451
0.74313725 0.82941176 0.033333333
0.74705882 0.8254902 0.033333333
0.75147059 0.8254902 0.035906863
0.7627451 0.8254902 0.032598039
0.77401961 0.82438725 0.028431373
0.78039216 0.82156863 0.028431373
0.79313725 0.82156863 0.028431373
0.80980392 0.82156863 0.025490196
0.82781863 0.82156863 0.025490196
0.84362745 0.81764706 0.025490196
0.86066176 0.81764706 0.024509804
0.87745098 0.81666667 0.021568627
0.89301471 0.81372549 0.020588235
0.90294118 0.80980392 0.020588235
0.91384804 0.80588235 0.023529412
0.92622549 0.80269608 0.024509804
0.94313725 0.80539216 0.024509804
0.95735294 0.80588235 0.024509804
0.96813725 0.80196078 0.024509804
0.97769608 0.80098039 0.024509804
0.9877451 0.79767157 0.022426471
0.99509804 0.79705882 0.020588235
0.78382353 0.85 0.020588235
0.78627451 0.85 0.020588235
0.79411765 0.85 0.018137255
0.80079657 0.85 0.016666667
0.80343137 0.84803922 0.018137255
0.80735294 0.84607843 0.020588235
0.81421569 0.84607843 0.018137255
0.81764706 0.84215686 0.018137255
0.82156863 0.84215686 0.018137255
0.83578431 0.84215686 0.018137255
0.85098039 0.84497549 0.014215686
0.86813725 0.84393382 0.014215686
0.87843137 0.84215686 0.014215686
0.89528186 0.84185049 0.012745098
0.90931373 0.83823529 0.010294118
0.91905637 0.83284314 0.012683824
0.92598039 0.82647059 0.014215686
0.93627451 0.82647059 0.015686275
0.94509804 0.82254902 0.015686275
0.9591299 0.82647059 0.014215686
0.97352941 0.82916667 0.014215686
0.98596814 0.82775735 0.01060049
0.99264706 0.82463235 0.013848039
0.9966299 0.82254902 0.014215686
1 0.82254902 0.014215686
0.82745098 0.8627451 0.0078431373
0.82990196 0.8627451 0.0078431373
0.84607843 0.86764706 0.0029411765
0.84754902 0.86666667 0.0034313725
0.84705882 0.86470588 0.0039215686
0.85098039 0.8627451 0.0078431373
0.85098039 0.85980392 0.0078431373
0.85245098 0.85882353 0.011764706
0.85882353 0.85490196 0.011764706
0.87156863 0.85882353 0.0078431373
0.88823529 0.85980392 0.0068627451
0.90882353 0.86617647 0.00049019608
0.90784314 0.85882353 0.0039215686
0.9254902 0.8622549 0.0039215686
0.93235294 0.85588235 0.0039215686
0.93872549 0.8495098 0.0053921569
0.94509804 0.84313725 0.0078431373
0.95784314 0.84313725 0.0078431373
0.96568627 0.84313725 0.0078431373
0.97598039 0.84313725 0.0078431373
0.98823529 0.84901961 0.0039215686
1 0.8504902 0.00049019608
1 0.84411765 0.0039215686
1 0.84313725 0.0039215686
1 0.84313725 0.0039215686
0.011764706 0.015686275 0.020588235
0.018137255 0.015686275 0.016666667
0.028431373 0.0089460784 0.013602941
0.036090686 0.0039215686 0.011764706
0.063480392 0.01127451 0.010294118
0.089031863 0.015012255 0.014215686
0.11323529 0.017156863 0.014215686
0.12935049 0.010294118 0.014215686
0.14901961 0.0039215686 0.014215686
0.17935049 0.0054534314 0.013296569
0.21715686 0.006372549 0.010294118
0.24932598 0.006372549 0.0065563725
0.28112745 0.0019607843 0.0031862745
0.31764706 0 0
0.37156863 0.0033088235 0
0.42751225 0.0053921569 0
0.48382353 0.0078431373 0.0024509804
0.54258578 0.011764706 0.0039215686
0.59914216 0.012132353 0.0039215686
0.64509804 0.011764706 0.00030637255
0.68112745 0.011764706 0
0.71568627 0.0078431373 0
0.75 0.0049019608 0
0.78480392 0.0039215686 0
0.81029412 0 0
0.015134804 0.023590686 0.020588235
0.024509804 0.024509804 0.019117647
0.037254902 0.024509804 0.019056373
0.051164216 0.023223039 0.0167356
0.071078431 0.022058824 0.012745098
0.094408701 0.023644301 0.014215686
0.11775429 0.023759191 0.016053922
0.13929994 0.022288603 0.017585784
0.16268382 0.020588235 0.016666667
0.19264706 0.015134804 0.011764706
0.22699142 0.014077819 0.010294118
0.2622549 0.010409007 0.007666973
0.29705882 0.0051470588 0.0046875
0.33284314 0.0015318627 0.0013403799
0.38624387 0.0039215686 0.0011488971
0.44094669 0.0078431373 0.0039215686
0.49656863 0.011764706 0.0039215686
0.55230545 0.012339154 0.0039215686
0.60536152 0.013235294 0.0039215686
0.64639246 0.011764706 0
0.6828125 0.011764706 0
0.71911765 0.0078431373 0
0.75355392 0.007153799 0
0.78817402 0.0039215686 0
0.81176471 0.0039215686 0
0.029411765 0.049632353 0.03125
0.039705882 0.05 0.029411765
0.052113971 0.049908088 0.027971814
0.066789216 0.046124387 0.02567402
0.083823529 0.040931373 0.019914216
0.10404412 0.037791054 0.017570466
0.12916667 0.040441176 0.018321078
0.15330882 0.043949142 0.021369485
0.18137255 0.040196078 0.018137255
0.20894608 0.030744485 0.014215686
0.24203431 0.027696078 0.010294118
0.27757353 0.021936275 0.010294118
0.31323529 0.011764706 0.006372549
0.34938725 0.0048713235 0.0027726716
0.4 0.0062806373 0.0024509804
0.45386029 0.0099264706 0.0039215686
0.50686275 0.012745098 0.0039215686
0.5622549 0.015686275 0.0039215686
0.61176471 0.015226716 0.0022058824
0.64960172 0.011764706 0
0.68480392 0.011764706 0
0.71960784 0.0078431373 0
0.75465686 0.0078431373 0
0.78872549 0.0078431373 0
