site/assets/luts/natron-haldclut--kodak-portra-400-nc---d669454b9.cube
# LUTr-Project: LUTr — LUTrepository
# LUTr-Schema-Version: 1
# LUTr-ID: natron-haldclut--kodak-portra-400-nc---d669454b9
# LUTr-Title: kodak portra 400 nc -
# LUTr-Collection: Natron HaldCLUT
# LUTr-Collection-ID: natron-haldclut-presets
# LUTr-Source: https://github.com/NatronGitHub/clut
# LUTr-Source-File: submissions/natron-haldclut-presets/negative_old/kodak_portra_400_nc_-.png
# LUTr-Source-Format: PNG
# LUTr-Source-SHA256: 109729ae131b5e1622bb6c496cbe253305cd3217bd7dbcd5e69b42406514acf0
# LUTr-License: CC-BY-SA-4.0
# LUTr-License-URL: https://github.com/NatronGitHub/clut#license
# LUTr-Tags: creative, film, film-emulation, hald-clut, natron, png, cube
# LUTr-Transform-Class: film-emulation
# LUTr-Input-Color-Space: srgb
# LUTr-Output-Color-Space: srgb
# LUTr-Color-Space-Confidence: assumed-display-referred
# LUTr-Conversion-Method: PNG LUT image decoded at 16-bit and sampled to 25x25x25 3D CUBE
# LUTr-Conversion-Date: 2026-07-27
# LUTr-Conversion-Tool: LUTr scripts/convert-all-to-cube.mjs
# LUTr-Conversion-Grid: 25x25x25
# LUTr-Note: Preserve this metadata and the upstream license notices when redistributing.
TITLE "kodak portra 400 nc -"
LUT_3D_SIZE 5
DOMAIN_MIN 0 0 0
DOMAIN_MAX 1 1 1
0.0078431373 0.023529412 0.011764706
0.15784314 0.014705882 0
0.5627451 0.0019607843 0.0019607843
0.84607843 0.025490196 0.0039215686
1 0.14901961 0
0 0.20588235 0.052941176
0.1872549 0.24338235 0.0080882353
0.62794118 0.27843137 0.0039215686
0.86176471 0.2627451 0
0.98529412 0.2872549 0
0.01372549 0.54313725 0.21960784
0.25686275 0.54509804 0.22058824
0.54607843 0.58333333 0.016666667
0.83872549 0.57401961 0.012254902
0.99215686 0.52941176 0
0.41176471 0.75588235 0.45392157
0.45073529 0.74803922 0.44803922
0.55686275 0.75686275 0.42401961
0.74877451 0.78627451 0.30490196
0.96176471 0.79215686 0.1872549
0.69411765 0.91372549 0.70980392
0.71666667 0.92254902 0.72254902
0.75686275 0.9254902 0.72352941
0.8245098 0.95196078 0.71078431
0.90588235 0.96078431 0.6627451
0.011764706 0.02254902 0.2254902
0.2127451 0.011764706 0.22058824
0.60490196 0.0039215686 0.2254902
0.8372549 0.0078431373 0.20906863
0.98921569 0.19019608 0.18627451
0.0039215686 0.25980392 0.27230392
0.27401961 0.26801471 0.27843137
0.62745098 0.25710784 0.24215686
0.84901961 0.26979167 0.22181373
0.98897059 0.31764706 0.21348039
0.27794118 0.575 0.40196078
0.37634804 0.56973039 0.40147059
0.58357843 0.59289216 0.32401961
0.84031863 0.57352941 0.24215686
0.99215686 0.55294118 0.2254902
0.47647059 0.76372549 0.53259804
0.50612745 0.75882353 0.52800245
0.59705882 0.7627451 0.50943627
0.76256127 0.7872549 0.43137255
0.9875 0.79436275 0.36862745
0.70882353 0.9245098 0.74019608
0.7245098 0.92254902 0.74191176
0.75882353 0.92352941 0.74215686
0.8254902 0.94215686 0.7245098
0.91470588 0.96176471 0.68137255
0.0039215686 0.015686275 0.55686275
0.25833333 0.012254902 0.56862745
0.6372549 0.026470588 0.58431373
0.86127451 0.20392157 0.52352941
0.98235294 0.24313725 0.48039216
0.019607843 0.30931373 0.59019608
0.29264706 0.31813725 0.5939951
0.63063725 0.33308824 0.59166667
0.84656863 0.38823529 0.54914216
0.98823529 0.36715686 0.50294118
0.31568627 0.60784314 0.61078431
0.45637255 0.61593137 0.61936275
0.63872549 0.61519608 0.61764706
0.82892157 0.60539216 0.57352941
0.98137255 0.59019608 0.54117647
0.56960784 0.78872549 0.67990196
0.60686275 0.79019608 0.67794118
0.66960784 0.77769608 0.66911765
0.79068627 0.78982843 0.62414216
0.96764706 0.79117647 0.59117647
0.72156863 0.91960784 0.78823529
0.74656863 0.92745098 0.79411765
0.77745098 0.9245098 0.79019608
0.84215686 0.94215686 0.78578431
0.91960784 0.9627451 0.75882353
0.044117647 0.18137255 0.79509804
0.35171569 0.21495098 0.79509804
0.63921569 0.27745098 0.79509804
0.85 0.38063725 0.78406863
0.97941176 0.48333333 0.76470588
0.19607843 0.36519608 0.79436275
0.39074755 0.37916667 0.79509804
0.64705882 0.43137255 0.78909314
0.84681373 0.48921569 0.79411765
0.97867647 0.55882353 0.76764706
0.2872549 0.60784314 0.775
0.41372549 0.61004902 0.78321078
0.63235294 0.62867647 0.79264706
0.82401961 0.66176471 0.79117647
0.96813725 0.66862745 0.76764706
0.55098039 0.80294118 0.80294118
0.59803922 0.79901961 0.81078431
0.6872549 0.79901961 0.81078431
0.8254902 0.80980392 0.81335784
0.96470588 0.81078431 0.79534314
0.76568627 0.94901961 0.87941176
0.7745098 0.94289216 0.87352941
0.81421569 0.94607843 0.87647059
0.86862745 0.94828431 0.87156863
0.96078431 0.9754902 0.85294118
0.50196078 0.47843137 0.95686275
0.55098039 0.48137255 0.95686275
0.7 0.53137255 0.95686275
0.86470588 0.59705882 0.94901961
0.96470588 0.64705882 0.94509804
0.52058824 0.55490196 0.96372549
0.57598039 0.56789216 0.96691176
0.70392157 0.59215686 0.95686275
0.86078431 0.63897059 0.94803922
0.98137255 0.6745098 0.94509804
0.49411765 0.6745098 0.93529412
0.5745098 0.68970588 0.95784314
0.68627451 0.69019608 0.94509804
0.85539216 0.73186275 0.95294118
0.98627451 0.75882353 0.95882353
0.55196078 0.82156863 0.95294118
0.5745098 0.81862745 0.94215686
0.66029412 0.82205882 0.95588235
0.82941176 0.83651961 0.95686275
0.99411765 0.85588235 0.97647059
0.74117647 0.97254902 0.97647059
0.76078431 0.97352941 0.97352941
0.80588235 0.97843137 0.97647059
0.88333333 0.97156863 0.97156863
0.98823529 0.98431373 0.98823529
