site/assets/luts/natron-haldclut--polaroid-px-70-cold--15881955e.cube
# LUTr-Project: LUTr — LUTrepository
# LUTr-Schema-Version: 1
# LUTr-ID: natron-haldclut--polaroid-px-70-cold--15881955e
# LUTr-Title: polaroid px-70 cold +
# LUTr-Collection: Natron HaldCLUT
# LUTr-Collection-ID: natron-haldclut-presets
# LUTr-Source: https://github.com/NatronGitHub/clut
# LUTr-Source-File: submissions/natron-haldclut-presets/instant_consumer/polaroid_px-70_cold_+.png
# LUTr-Source-Format: PNG
# LUTr-Source-SHA256: b8387102b58bb65100b40f0b070ef02772380035e204b85419dc5510a829755a
# LUTr-License: CC-BY-SA-4.0
# LUTr-License-URL: https://github.com/NatronGitHub/clut#license
# LUTr-Tags: creative, film, film-emulation, hald-clut, natron, png, cool, cube
# LUTr-Transform-Class: film-emulation
# LUTr-Input-Color-Space: srgb
# LUTr-Output-Color-Space: srgb
# LUTr-Color-Space-Confidence: assumed-display-referred
# LUTr-Conversion-Method: PNG LUT image decoded at 16-bit and sampled to 25x25x25 3D CUBE
# LUTr-Conversion-Date: 2026-07-27
# LUTr-Conversion-Tool: LUTr scripts/convert-all-to-cube.mjs
# LUTr-Conversion-Grid: 25x25x25
# LUTr-Note: Preserve this metadata and the upstream license notices when redistributing.
TITLE "polaroid px-70 cold +"
LUT_3D_SIZE 25
DOMAIN_MIN 0 0 0
DOMAIN_MAX 1 1 1
0 0.23921569 0.31764706
0 0.23921569 0.31764706
0 0.23921569 0.31764706
0 0.23921569 0.31764706
0.0039215686 0.23921569 0.31764706
0.0039215686 0.23872549 0.31764706
0.0078431373 0.23529412 0.31372549
0.0093137255 0.23137255 0.31372549
0.011764706 0.23137255 0.31372549
0.011764706 0.22745098 0.31372549
0.015686275 0.22254902 0.31372549
0.053431373 0.22303922 0.31372549
0.1627451 0.22941176 0.31372549
0.27598039 0.23921569 0.31372549
0.38921569 0.24607843 0.31372549
0.49852941 0.25245098 0.30980392
0.59607843 0.27058824 0.30980392
0.67598039 0.30147059 0.30980392
0.74705882 0.33235294 0.30882353
0.80882353 0.36323529 0.30588235
0.86862745 0.39019608 0.30392157
0.91519608 0.42598039 0.30686275
0.94607843 0.47058824 0.32058824
0.97303922 0.51029412 0.33088235
0.99607843 0.54117647 0.3372549
0 0.23921569 0.31764706
0 0.23921569 0.31764706
0 0.23921569 0.31703431
0 0.23921569 0.31519608
0.0039215686 0.23921569 0.31372549
0.0039215686 0.23921569 0.31372549
0.0072303922 0.23590686 0.31372549
0.010232843 0.23474265 0.31372549
0.011764706 0.23137255 0.31372549
0.012683824 0.22745098 0.31372549
0.013357843 0.22352941 0.31372549
0.069791667 0.22696078 0.31372549
0.17426471 0.23455882 0.31372549
0.28449755 0.24185049 0.31372549
0.39166667 0.24669118 0.31188725
0.49761029 0.25098039 0.30980392
0.59362745 0.26666667 0.30980392
0.67696078 0.30147059 0.30980392
0.75551471 0.33590686 0.30698529
0.81911765 0.36354167 0.30588235
0.87254902 0.39534314 0.30588235
0.9153799 0.43578431 0.30900735
0.94889706 0.47696078 0.32058824
0.9754902 0.51666667 0.32996324
0.98970588 0.54117647 0.3372549
0 0.23921569 0.31372549
0 0.23921569 0.31372549
0 0.23921569 0.31372549
0 0.23921569 0.31372549
0.0039215686 0.24166667 0.31372549
0.0039215686 0.24007353 0.31372549
0.0039215686 0.23921569 0.31372549
0.0050245098 0.23590686 0.31372549
0.0068627451 0.23137255 0.31372549
0.0068627451 0.22892157 0.3127451
0.01495098 0.22745098 0.30980392
0.091544118 0.23186275 0.30980392
0.19656863 0.23970588 0.30980392
0.30490196 0.24718137 0.30980392
0.40784314 0.25171569 0.30980392
0.50833333 0.25735294 0.30980392
0.59705882 0.27254902 0.30980392
0.68235294 0.30637255 0.30919118
0.76397059 0.3370098 0.30588235
0.82892157 0.36715686 0.30588235
0.8745098 0.40490196 0.30637255
0.91531863 0.44607843 0.30980392
0.95 0.4872549 0.31960784
0.97120098 0.51838235 0.32696078
0.97941176 0.53235294 0.33333333
0 0.23921569 0.31372549
0 0.23921569 0.31372549
0 0.23921569 0.31372549
0 0.23921569 0.31372549
0.0039215686 0.24313725 0.31372549
0.0039215686 0.24313725 0.31372549
0.0039215686 0.24276961 0.31372549
0.0039215686 0.24136029 0.31372549
0.0039215686 0.23529412 0.31029412
0 0.23137255 0.30980392
0.0090686275 0.22830882 0.30980392
0.10827206 0.23823529 0.30980392
0.22034314 0.24485294 0.30980392
0.3254902 0.25490196 0.30980392
0.42585784 0.26470588 0.30980392
0.52077206 0.275 0.30980392
0.60735294 0.29313725 0.30588235
0.68627451 0.32058824 0.30588235
0.76727941 0.34656863 0.30588235
0.82984069 0.37751225 0.30588235
0.8745098 0.41862745 0.30588235
0.91568627 0.45637255 0.30680147
0.95 0.49460784 0.31409314
0.9627451 0.5153799 0.32334559
0.96911765 0.5254902 0.32990196
0 0.23529412 0.31372549
0 0.23529412 0.31372549
0 0.23921569 0.31372549
0.0017156863 0.24264706 0.31372549
0.0039215686 0.24803922 0.31372549
0.0039215686 0.25294118 0.31372549
0.0068627451 0.25294118 0.31372549
0.0078431373 0.2502451 0.31372549
0.0098039216 0.24901961 0.30980392
0.011029412 0.24387255 0.30980392
0.043137255 0.24411765 0.30980392
0.1379902 0.2504902 0.30980392
0.24313725 0.25588235 0.30980392
0.33970588 0.26715686 0.30955882
0.43578431 0.27941176 0.30637255
0.52892157 0.29191176 0.30661765
0.61176471 0.31176471 0.30588235
0.69019608 0.33553922 0.30392157
0.76715686 0.36176471 0.30196078
0.82328431 0.39632353 0.30392157
0.86960784 0.43235294 0.30588235
0.91397059 0.46838235 0.30588235
0.9495098 0.4995098 0.30931373
0.95563725 0.51323529 0.32034314
0.96078431 0.52156863 0.3254902
0 0.23480392 0.30980392
0 0.23529412 0.30980392
0 0.24056373 0.31323529
0.0034313725 0.24705882 0.31372549
0.0039215686 0.25343137 0.31372549
0.0039215686 0.2588848 0.31372549
0.0039215686 0.2627451 0.31372549
0.0078431373 0.26305147 0.31194853
0.015196078 0.25931373 0.30980392
0.028737745 0.25931373 0.30980392
0.084191176 0.26078431 0.30980392
0.17310049 0.26758578 0.30980392
0.26593137 0.27352941 0.30980392
0.35349265 0.28333333 0.30588235
0.44264706 0.29362745 0.30588235
0.53351716 0.30539216 0.30539216
0.61568627 0.32990196 0.30196078
0.69197304 0.35098039 0.30196078
0.76654412 0.37610294 0.29901961
0.81715686 0.41427696 0.30238971
0.86691176 0.45196078 0.30612745
0.915625 0.48872549 0.3098652
0.9495098 0.51960784 0.31666667
0.9627451 0.54019608 0.32352941
0.96911765 0.54705882 0.32990196
0 0.23137255 0.30980392
0 0.23884804 0.30980392
0 0.24705882 0.30980392
0.0037990196 0.25355392 0.30980392
0.0039215686 0.26029412 0.3122549
0.0039215686 0.26568627 0.31335784
0.0039215686 0.26887255 0.31004902
0.0042892157 0.26960784 0.30980392
0.0088235294 0.26960784 0.30980392
0.035171569 0.26960784 0.30980392
0.1125 0.27745098 0.30980392
0.20183824 0.2877451 0.30980392
0.28970588 0.29607843 0.30980392
0.3745098 0.30306373 0.30588235
0.45686275 0.31078431 0.30367647
0.5372549 0.32071078 0.30196078
0.61960784 0.34705882 0.30196078
0.69742647 0.37340686 0.30134804
0.76568627 0.4 0.29901961
0.81973039 0.43529412 0.30539216
0.87156863 0.47254902 0.31127451
0.9122549 0.50931373 0.31666667
0.94313725 0.54019608 0.32132353
0.97058824 0.56740196 0.3314951
0.98333333 0.58137255 0.33627451
0 0.26470588 0.31127451
0 0.26470588 0.31372549
0 0.26715686 0.31372549
0.0037377451 0.27107843 0.31372549
0.0039215686 0.27745098 0.31372549
0.0039215686 0.28155637 0.31323529
0.0039215686 0.28529412 0.30980392
0.0078431373 0.28529412 0.30980392
0.0078431373 0.28529412 0.30980392
0.045526961 0.28921569 0.30980392
0.13762255 0.30159314 0.30980392
0.23137255 0.31519608 0.30980392
0.31813725 0.3254902 0.30980392
0.4004902 0.33431373 0.30588235
0.48284314 0.34607843 0.30588235
0.55686275 0.36084559 0.30196078
0.625 0.37696078 0.30196078
0.70343137 0.40147059 0.30196078
0.76960784 0.42696078 0.30196078
0.81715686 0.45998775 0.30716912
0.87107843 0.49779412 0.31372549
0.90949755 0.52990196 0.31942402
0.93823529 0.55784314 0.32659314
0.96764706 0.58535539 0.3338848
0.99362745 0.60833333 0.34117647
0 0.30588235 0.31372549
0 0.30588235 0.31372549
0 0.30196078 0.31372549
0 0.30588235 0.31372549
0.0019607843 0.30588235 0.31372549
0.0039215686 0.30588235 0.31372549
0.0039215686 0.30980392 0.31372549
0.0039215686 0.31127451 0.30980392
0.0039215686 0.31372549 0.30980392
0.057352941 0.32254902 0.30980392
0.16666667 0.33823529 0.30980392
0.2622549 0.35245098 0.30980392
0.34705882 0.3627451 0.30980392
0.43137255 0.37696078 0.30931373
0.51078431 0.39019608 0.30588235
0.57745098 0.40539216 0.30196078
0.64313725 0.41960784 0.30196078
0.70882353 0.43235294 0.30196078
0.76960784 0.45392157 0.30294118
0.81715686 0.48823529 0.30931373
0.86470588 0.52352941 0.31372549
0.90343137 0.55441176 0.32156863
0.93431373 0.58137255 0.32843137
0.96519608 0.60686275 0.33480392
0.98431373 0.62352941 0.3372549
0 0.34705882 0.31617647
0 0.34705882 0.31764706
0 0.34669118 0.31764706
0 0.34558824 0.31764706
0 0.34632353 0.31764706
0.00018382353 0.34313725 0.3158701
0.0014705882 0.34313725 0.31372549
0.0014705882 0.34313725 0.31317402
0 0.34460784 0.30980392
0.078431373 0.35833333 0.30980392
0.19473039 0.37365196 0.30980392
0.28676471 0.38970588 0.30980392
0.37598039 0.40588235 0.30980392
0.45931373 0.42077206 0.30980392
0.52953431 0.4377451 0.30588235
0.59558824 0.45294118 0.30196078
0.65980392 0.46323529 0.30196078
0.71911765 0.47352941 0.30196078
0.77144608 0.49080882 0.30232843
0.81979167 0.51942402 0.30588235
0.86593137 0.55367647 0.31176471
0.90373775 0.58106618 0.321875
0.93431373 0.6064951 0.32843137
0.95980392 0.62444853 0.33180147
0.97401961 0.63627451 0.33480392
0 0.38823529 0.31764706
0 0.38823529 0.31764706
0 0.38823529 0.31764706
0 0.38823529 0.31764706
0.0024509804 0.38823529 0.31764706
0.0039215686 0.38921569 0.31764706
0.0049019608 0.38921569 0.31544118
0.0049019608 0.39129902 0.31433824
0.0088235294 0.39411765 0.31372549
0.092892157 0.40343137 0.31188725
0.21004902 0.41470588 0.31078431
0.30723039 0.43443627 0.31335784
0.3995098 0.45098039 0.31372549
0.47892157 0.46727941 0.30980392
0.54803922 0.48210784 0.30588235
0.61470588 0.49767157 0.30196078
0.67156863 0.50980392 0.30196078
0.72303922 0.52107843 0.2995098
0.7745098 0.53529412 0.29803922
0.82242647 0.56323529 0.30183824
0.86617647 0.58382353 0.30784314
0.89987745 0.60294118 0.31801471
0.92965686 0.62279412 0.3252451
0.95196078 0.63982843 0.32879902
0.96764706 0.64803922 0.32941176
0 0.43333333 0.31764706
0 0.43333333 0.31764706
0 0.43333333 0.31764706
0 0.43333333 0.31764706
0.0039215686 0.43676471 0.31936275
0.0074142157 0.44068627 0.32107843
0.011642157 0.4432598 0.3185049
0.015196078 0.44589461 0.31764706
0.015686275 0.44852941 0.31764706
0.08627451 0.45508578 0.31501225
0.20821078 0.46531863 0.31372549
0.31966912 0.47984069 0.31372549
0.41127451 0.49583333 0.31372549
0.49313725 0.51182598 0.30980392
0.56862745 0.52634804 0.30588235
0.63382353 0.54068627 0.30196078
0.68186275 0.55490196 0.30196078
0.72990196 0.56862745 0.29803922
0.78125 0.58039216 0.29411765
0.82591912 0.60140931 0.29761029
0.86102941 0.61617647 0.30784314
0.89215686 0.62653186 0.31378676
0.92303922 0.64117647 0.31801471
0.94852941 0.65686275 0.32334559
0.95735294 0.6622549 0.32598039
0 0.47647059 0.32156863
0 0.47843137 0.32156863
0 0.48039216 0.32156863
0.0039215686 0.48431373 0.32328431
0.0078431373 0.48921569 0.32352941
0.0083333333 0.49215686 0.32352941
0.014705882 0.49558824 0.32352941
0.021568627 0.49607843 0.32156863
0.029411765 0.49607843 0.31960784
0.07254902 0.5004902 0.31764706
0.20686275 0.5127451 0.31764706
0.32990196 0.525 0.31764706
0.41764706 0.54019608 0.31372549
0.49803922 0.55563725 0.31151961
0.58235294 0.57107843 0.30784314
0.64387255 0.58651961 0.30392157
0.68823529 0.60196078 0.30392157
0.7377451 0.61617647 0.30073529
0.78921569 0.62598039 0.29558824
0.82598039 0.63480392 0.2997549
0.85294118 0.64705882 0.30784314
0.88382353 0.65735294 0.31397059
0.91470588 0.66617647 0.31715686
0.94289216 0.67598039 0.31838235
0.95098039 0.68039216 0.32156863
0 0.54068627 0.32941176
0.00049019608 0.5403799 0.32990196
0.0039215686 0.53627451 0.32990196
0.0043504902 0.5401348 0.32990196
0.0078431373 0.54607843 0.33161765
0.0078431373 0.55196078 0.33382353
0.0078431373 0.55196078 0.32990196
0.012561275 0.54803922 0.32941176
0.041666667 0.55147059 0.32598039
0.13903186 0.5627451 0.3254902
0.24656863 0.56764706 0.32463235
0.34215686 0.57107843 0.31905637
0.42426471 0.58676471 0.31862745
0.50637255 0.60343137 0.3216299
0.58578431 0.62095588 0.31862745
0.64705882 0.63529412 0.31991422
0.69460784 0.64901961 0.31862745
0.74344363 0.65980392 0.31813725
0.78823529 0.66862745 0.31470588
0.82591912 0.67598039 0.31862745
0.85294118 0.68235294 0.32254902
0.88382353 0.69172794 0.32647059
0.91470588 0.69865196 0.32990196
0.94148284 0.70490196 0.33578431
0.95343137 0.70784314 0.33872549
0.0029411765 0.6127451 0.33921569
0.0057598039 0.60526961 0.34019608
0.0075980392 0.6002451 0.34019608
0.0078431373 0.59803922 0.34019608
0.0078431373 0.60098039 0.34019608
0.0078431373 0.60992647 0.34117647
0.0085784314 0.61078431 0.34019608
0.0093137255 0.60833333 0.33627451
0.010784314 0.60294118 0.33235294
0.19656863 0.62745098 0.33529412
0.29019608 0.62867647 0.33529412
0.36703431 0.62647059 0.33529412
0.44607843 0.63823529 0.33235294
0.52218137 0.65490196 0.33235294
0.59240196 0.66936275 0.33529412
0.65159314 0.68321078 0.33529412
0.70098039 0.69411765 0.33529412
0.74558824 0.70085784 0.33235294
0.78823529 0.70759804 0.33235294
0.82205882 0.71372549 0.33615196
0.85294118 0.72009804 0.33921569
0.88382353 0.72647059 0.34056373
0.91102941 0.73259804 0.34926471
0.94019608 0.73823529 0.35931373
0.95980392 0.74215686 0.36568627
0.0039215686 0.67401961 0.35196078
0.011764706 0.66672794 0.35441176
0.012254902 0.6627451 0.35441176
0.0065563725 0.65618873 0.35067402
0.0078431373 0.65710784 0.3504902
0.0073529412 0.66403186 0.3504902
0.0068627451 0.67009804 0.3504902
0.027328431 0.66525735 0.34656863
0.12352941 0.67303922 0.34656863
0.23921569 0.68186275 0.34957108
0.32107843 0.68578431 0.34987745
0.39528186 0.68676471 0.34803922
0.47303922 0.69436275 0.34730392
0.54313725 0.70980392 0.34656863
0.60343137 0.71862745 0.34803922
0.65833333 0.725 0.3504902
0.70588235 0.73382353 0.34803922
0.74705882 0.73921569 0.34411765
0.78823529 0.74595588 0.34264706
0.82205882 0.75079657 0.34479167
0.85220588 0.75539216 0.35122549
0.87990196 0.7591299 0.36047794
0.90968137 0.76421569 0.37389706
0.93719363 0.77003676 0.38235294
0.95686275 0.77303922 0.39117647
0.0039215686 0.72941176 0.36470588
0.016666667 0.7254902 0.36715686
0.017647059 0.72156863 0.36764706
0.0044117647 0.71764706 0.36470588
0.0039215686 0.71372549 0.35882353
0.0098039216 0.71764706 0.35735294
0.019607843 0.71764706 0.35784314
0.087254902 0.72156863 0.36078431
0.22352941 0.72941176 0.36470588
0.30245098 0.73333333 0.36715686
0.36666667 0.7372549 0.36862745
0.43186275 0.74068627 0.36470588
0.50392157 0.75098039 0.36078431
0.55931373 0.75294118 0.36127451
0.61078431 0.75686275 0.36470588
0.6622549 0.7622549 0.36470588
0.70588235 0.76862745 0.36470588
0.74705882 0.775 0.35833333
0.78823529 0.78137255 0.35196078
0.81862745 0.78431373 0.35637255
0.84901961 0.78627451 0.37058824
0.87598039 0.78872549 0.38480392
0.90686275 0.79215686 0.39803922
0.93382353 0.79754902 0.40784314
0.95294118 0.8 0.41176471
0.0078431373 0.77843137 0.375
0.02310049 0.7838848 0.37892157
0.029534314 0.78333333 0.37892157
0.036642157 0.77726716 0.3776348
0.049754902 0.77107843 0.37352941
0.071262255 0.76648284 0.37383578
0.15502451 0.76519608 0.37990196
0.21139706 0.76519608 0.38229167
0.28921569 0.76666667 0.38921569
0.35729167 0.77150735 0.39166667
0.41458333 0.77487745 0.39166667
0.47775735 0.78186275 0.38921569
0.53235294 0.78578431 0.3877451
0.5754902 0.78805147 0.38529412
0.61813725 0.7935049 0.38198529
0.66470588 0.79859069 0.38284314
0.70588235 0.7995098 0.38137255
0.7495098 0.80343137 0.38382353
0.79007353 0.80772059 0.38382353
0.81862745 0.80882353 0.38756127
0.84632353 0.8127451 0.39754902
0.8754902 0.81697304 0.40802696
0.90294118 0.82022059 0.41960784
0.93235294 0.82542892 0.43235294
0.94901961 0.82696078 0.43627451
0.092156863 0.81470588 0.39019608
0.12622549 0.81482843 0.39313725
0.12622549 0.81053922 0.38995098
0.16960784 0.81421569 0.39448529
0.24313725 0.82156863 0.40245098
0.24620098 0.81078431 0.40686275
0.27965686 0.80294118 0.40980392
0.31764706 0.80294118 0.41078431
0.36176471 0.80686275 0.41078431
0.41568627 0.80784314 0.41654412
0.4627451 0.81102941 0.41764706
0.50686275 0.81470588 0.41764706
0.55686275 0.81862745 0.41470588
0.59963235 0.82254902 0.41078431
0.6372549 0.82622549 0.41078431
0.67303922 0.82757353 0.40894608
0.71078431 0.82941176 0.41176471
0.75490196 0.83039216 0.41531863
0.79215686 0.83357843 0.41960784
0.82205882 0.83431373 0.42340686
0.84901961 0.8377451 0.43235294
0.87561275 0.84129902 0.44227941
0.90294118 0.84583333 0.44901961
0.92990196 0.8504902 0.45723039
0.94803922 0.85294118 0.46078431
0.27352941 0.84901961 0.4254902
0.265625 0.84509804 0.42156863
0.28026961 0.84252451 0.42156863
0.3189951 0.84895833 0.4254902
0.34607843 0.84607843 0.43186275
0.36862745 0.84209559 0.43431373
0.39178922 0.83737745 0.4377451
0.41409314 0.83743873 0.44166667
0.44705882 0.8377451 0.44166667
0.48854167 0.84166667 0.44411765
0.51764706 0.84522059 0.44473039
0.54509804 0.84558824 0.44215686
0.58112745 0.8495098 0.44166667
0.62058824 0.85343137 0.44166667
0.65784314 0.85343137 0.44166667
0.69362745 0.85343137 0.44295343
0.72843137 0.85392157 0.44558824
0.7622549 0.85735294 0.45165441
0.79767157 0.86127451 0.45698529
0.82555147 0.86127451 0.46121324
0.85098039 0.86348039 0.46887255
0.87598039 0.86568627 0.47352941
0.90379902 0.86862745 0.48002451
0.92714461 0.86960784 0.48265931
0.93382353 0.86960784 0.48529412
0.45098039 0.88039216 0.4627451
0.44215686 0.87843137 0.46151961
0.43431373 0.8745098 0.45735294
0.44289216 0.8747549 0.45882353
0.44705882 0.87352941 0.46078431
0.45833333 0.86862745 0.4627451
0.48578431 0.86519608 0.46764706
0.50416667 0.86740196 0.47058824
0.52352941 0.86862745 0.47058824
0.55833333 0.87254902 0.47254902
0.58480392 0.87303922 0.47254902
0.60686275 0.8745098 0.47254902
0.62745098 0.8745098 0.46862745
0.65245098 0.875 0.47303922
0.68627451 0.87843137 0.47892157
0.71568627 0.87843137 0.47647059
0.74901961 0.88039216 0.48039216
0.7747549 0.88235294 0.48676471
0.80245098 0.88627451 0.49215686
0.82818627 0.88627451 0.49607843
0.85392157 0.88529412 0.49803922
0.87965686 0.88431373 0.5002451
0.90392157 0.88431373 0.50343137
0.91911765 0.88431373 0.50588235
0.92352941 0.88431373 0.50588235
0.52941176 0.89460784 0.4877451
0.52990196 0.89460784 0.4877451
0.52610294 0.89117647 0.4877451
0.53333333 0.89117647 0.4877451
0.53970588 0.89460784 0.4877451
0.54699755 0.89460784 0.48817402
0.57058824 0.89460784 0.4942402
0.58970588 0.89509804 0.49901961
0.6 0.89852941 0.4995098
0.62352941 0.8963848 0.4995098
0.64754902 0.89509804 0.4995098
0.66813725 0.89160539 0.4995098
0.68308824 0.89117647 0.4995098
0.70147059 0.89466912 0.5
0.72169118 0.89767157 0.5060049
0.74215686 0.90245098 0.51078431
0.76617647 0.90245098 0.51127451
0.79442402 0.90245098 0.51470588
0.81911765 0.90245098 0.51568627
0.83921569 0.90245098 0.51862745
0.85931373 0.90073529 0.52254902
0.88382353 0.89901961 0.52261029
0.90404412 0.89901961 0.52647059
0.91568627 0.89901961 0.52665441
0.92205882 0.89901961 0.53039216
0.61470588 0.90882353 0.51470588
0.61752451 0.90882353 0.51470588
0.62254902 0.90857843 0.51568627
0.62647059 0.90882353 0.51568627
0.62745098 0.90882353 0.51519608
0.63492647 0.90882353 0.51605392
0.65073529 0.90882353 0.52181373
0.66519608 0.90992647 0.52352941
0.6754902 0.9127451 0.52647059
0.68970588 0.9127451 0.52708333
0.70514706 0.91176471 0.52745098
0.72267157 0.90919118 0.52745098
0.73823529 0.90882353 0.52745098
0.75245098 0.90882353 0.52745098
0.76372549 0.91176471 0.52745098
0.78443627 0.91384804 0.53284314
0.8 0.91666667 0.53529412
0.82009804 0.91568627 0.53529412
0.84607843 0.9127451 0.53848039
0.86286765 0.91531863 0.53921569
0.87647059 0.91568627 0.54313725
0.89411765 0.91568627 0.54620098
0.91078431 0.91568627 0.54705882
0.92598039 0.91568627 0.55098039
0.93235294 0.91568627 0.55098039
0.70343137 0.9245098 0.54166667
0.70680147 0.9245098 0.54166667
0.71188725 0.9245098 0.54411765
0.71372549 0.9245098 0.54411765
0.71372549 0.9245098 0.54289216
0.71813725 0.9245098 0.54558824
0.73088235 0.9245098 0.54803922
0.73419118 0.92395833 0.54656863
0.75147059 0.92696078 0.55196078
0.76084559 0.92696078 0.55196078
0.77022059 0.92696078 0.55196078
0.77910539 0.92696078 0.55324755
0.79166667 0.92696078 0.55588235
0.80392157 0.9245098 0.55557598
0.79093137 0.9189951 0.54460784
0.82990196 0.92751225 0.55643382
0.84509804 0.92843137 0.55980392
0.85931373 0.92696078 0.55980392
0.87267157 0.92696078 0.55980392
0.88841912 0.92696078 0.55980392
0.9004902 0.92696078 0.56372549
0.91323529 0.92696078 0.56421569
0.92536765 0.92843137 0.56764706
0.94074755 0.93088235 0.57156863
0.94803922 0.93088235 0.5754902
0.77647059 0.9372549 0.56470588
0.77892157 0.9372549 0.56470588
0.78431373 0.9372549 0.56470588
0.78039216 0.9372549 0.56470588
0.77647059 0.9372549 0.56470588
0.78480392 0.9372549 0.56519608
0.80196078 0.94117647 0.57156863
0.79166667 0.93676471 0.56666667
0.81176471 0.94117647 0.57254902
0.81029412 0.9372549 0.56862745
0.81568627 0.9372549 0.56862745
0.82303922 0.9372549 0.57205882
0.83529412 0.9372549 0.5745098
0.85196078 0.94117647 0.57696078
0.81078431 0.9245098 0.55294118
0.8745098 0.94117647 0.58039216
0.87843137 0.9372549 0.57647059
0.88480392 0.9372549 0.57647059
0.89509804 0.9372549 0.57647059
0.90882353 0.9372549 0.57647059
0.91960784 0.9372549 0.58039216
0.92990196 0.9372549 0.58039216
0.94019608 0.94019608 0.58431373
0.95441176 0.94117647 0.58970588
0.96862745 0.94509804 0.59607843
0 0.23921569 0.31764706
0 0.23921569 0.31764706
0 0.23921569 0.31764706
0 0.23921569 0.31764706
0.00073529412 0.23921569 0.31764706
0.0039215686 0.23529412 0.31764706
0.0072303922 0.23529412 0.31470588
0.0083946078 0.23137255 0.31372549
0.011764706 0.22745098 0.31372549
0.011764706 0.225 0.31372549
0.01629902 0.22316176 0.31372549
0.06372549 0.22352941 0.31372549
0.16789216 0.23137255 0.31617647
0.28235294 0.23970588 0.3158701
0.39375 0.24705882 0.31372549
0.50398284 0.25490196 0.31372549
0.59754902 0.27058824 0.31372549
0.68235294 0.30147059 0.3122549
0.76066176 0.33345588 0.30980392
0.81697304 0.36109069 0.30980392
0.87254902 0.39338235 0.31102941
0.91960784 0.43627451 0.31666667
0.95245098 0.48088235 0.32696078
0.97849265 0.51813725 0.33425245
0.99607843 0.54509804 0.34362745
0 0.23921569 0.31764706
0 0.23921569 0.31764706
0 0.23921569 0.31764706
0 0.23921569 0.31764706
0 0.23921569 0.3171875
0.0039215686 0.2391008 0.31452972
0.0039215686 0.2355239 0.31372549
0.0051623775 0.23324908 0.31372549
0.0083946078 0.23137255 0.31372549
0.011764706 0.22745098 0.31372549
0.020098039 0.22352941 0.31372549
0.07745098 0.22726716 0.31372549
0.17913603 0.23532475 0.31372549
0.28841912 0.24265472 0.31372549
0.39551164 0.24705882 0.31372549
0.50285692 0.25490196 0.31372549
0.59607843 0.26966912 0.31372549
0.68088235 0.30147059 0.3122549
0.76202512 0.33627451 0.30980392
0.82341452 0.36335018 0.3088848
0.87377451 0.39944853 0.31179534
0.91953891 0.44215686 0.31666667
0.95430453 0.48333333 0.32696078
0.9779182 0.51813725 0.33425245
0.99117647 0.54264706 0.34209559
0 0.23921569 0.31727941
0 0.23921569 0.31727941
0 0.23921569 0.31556373
0 0.23921569 0.31556373
0.0010416667 0.24074755 0.31372549
0.0039215686 0.24015012 0.31372549
0.0039215686 0.23921569 0.31372549
0.0039215686 0.23590686 0.31372549
0.0039215686 0.23137255 0.31372549
0.0039981618 0.22823223 0.3127451
0.015839461 0.22745098 0.30980392
0.094117647 0.2310049 0.31164216
0.1997549 0.23970588 0.3127451
0.30513174 0.24718137 0.31260723
0.40968137 0.25171569 0.31164216
0.50925245 0.26017157 0.3122549
0.60061275 0.27830882 0.3122549
0.68296569 0.30637255 0.31049326
0.76397059 0.33627451 0.30818015
0.82892157 0.36715686 0.30825674
0.87481618 0.40863971 0.3122549
0.91960784 0.45245098 0.31659007
0.95591299 0.49151348 0.32634804
0.973269 0.52058824 0.33333333
0.98394608 0.54362745 0.34362745
0 0.23921569 0.31372549
0 0.23921569 0.31372549
0 0.23921569 0.31372549
0 0.24109222 0.31372549
0.0026041667 0.24313725 0.31372549
0.0039215686 0.24313725 0.31372549
0.0039215686 0.24299939 0.31372549
0.0039215686 0.24136029 0.31372549
0.0039215686 0.23529412 0.31243873
