site/assets/luts/natron-haldclut--kodak-kodachrome-25--b62cfc98c.cube
# LUTr-Project: LUTr — LUTrepository
# LUTr-Schema-Version: 1
# LUTr-ID: natron-haldclut--kodak-kodachrome-25--b62cfc98c
# LUTr-Title: kodak kodachrome 25
# LUTr-Collection: Natron HaldCLUT
# LUTr-Collection-ID: natron-haldclut-presets
# LUTr-Source: https://github.com/NatronGitHub/clut
# LUTr-Source-File: submissions/natron-haldclut-presets/colorslide/kodak_kodachrome_25.png
# LUTr-Source-Format: PNG
# LUTr-Source-SHA256: 2058a23e6e887ab8613331bcff92fb3af10becb1f8dbf91e03c69dcff8e8f17d
# LUTr-License: CC-BY-SA-4.0
# LUTr-License-URL: https://github.com/NatronGitHub/clut#license
# LUTr-Tags: creative, film, film-emulation, hald-clut, natron, png, cube
# LUTr-Transform-Class: film-emulation
# LUTr-Input-Color-Space: srgb
# LUTr-Output-Color-Space: srgb
# LUTr-Color-Space-Confidence: assumed-display-referred
# LUTr-Conversion-Method: PNG LUT image decoded at 16-bit and sampled to 25x25x25 3D CUBE
# LUTr-Conversion-Date: 2026-07-27
# LUTr-Conversion-Tool: LUTr scripts/convert-all-to-cube.mjs
# LUTr-Conversion-Grid: 25x25x25
# LUTr-Note: Preserve this metadata and the upstream license notices when redistributing.
TITLE "kodak kodachrome 25"
LUT_3D_SIZE 25
DOMAIN_MIN 0 0 0
DOMAIN_MAX 1 1 1
0.02745098 0.043137255 0.019607843
0.033823529 0.036764706 0.022058824
0.040196078 0.026470588 0.023529412
0.050490196 0.016176471 0.023529412
0.066666667 0.0098039216 0.017647059
0.082843137 0.0039215686 0.0073529412
0.10196078 0.0029411765 0.0029411765
0.14705882 0.0078431373 0.0078431373
0.18039216 0.0078431373 0.0078431373
0.19705882 0.0039215686 0.0039215686
0.24313725 0.0039215686 0.0039215686
0.31813725 0.0039215686 0.01127451
0.39411765 0.0039215686 0.015686275
0.51617647 0.0039215686 0.011764706
0.65 0.0039215686 0.0078431373
0.77990196 0 0.0024509804
0.88235294 0.011764706 0
0.97254902 0.019607843 0
0.99313725 0.023529412 0.0039215686
0.9995098 0.019607843 0
1 0.043137255 0.0098039216
1 0.064215686 0.020588235
1 0.14313725 0.075490196
1 0.20882353 0.11568627
1 0.23529412 0.1372549
0.02745098 0.045588235 0.019607843
0.033823529 0.036764706 0.022058824
0.04375 0.028921569 0.025980392
0.052941176 0.018627451 0.023835784
0.071078431 0.019362745 0.020833333
0.092647059 0.020588235 0.01372549
0.12830882 0.020588235 0.0073529412
0.17401961 0.018137255 0.0039215686
0.21519608 0.022058824 0.0053921569
0.24166667 0.017218137 0.0039215686
0.29938725 0.023406863 0.0039215686
0.36960784 0.024509804 0.0078431373
0.45318627 0.024509804 0.010539216
0.56145833 0.022732843 0.009129902
0.67708333 0.016176471 0.006004902
0.78933824 0.011642157 0.003370098
0.88235294 0.019117647 0.0024509804
0.97800245 0.020526961 0
0.99215686 0.043995098 0.006372549
0.99577206 0.068811275 0.012254902
1 0.11470588 0.02254902
1 0.1591299 0.051776961
1 0.23051471 0.12279412
1 0.27156863 0.14901961
1 0.31911765 0.19558824
0.023529412 0.047058824 0.018627451
0.034436275 0.042279412 0.022058824
0.049019608 0.041176471 0.027696078
0.064093137 0.041176471 0.02879902
0.083333333 0.041176471 0.025980392
0.10980392 0.041176471 0.019240196
0.15171569 0.041176471 0.013480392
0.20147059 0.037254902 0.0084558824
0.25 0.033333333 0.00098039216
0.2995098 0.037867647 0.0024509804
0.35490196 0.045098039 0.0039215686
0.41629902 0.048529412 0.0029411765
0.50931373 0.049509804 0.0039215686
0.60343137 0.054901961 0.0078431373
0.70147059 0.055882353 0.0078431373
0.79276961 0.056985294 0.010294118
0.87745098 0.066666667 0.012745098
0.95723039 0.069607843 0.0088235294
0.9872549 0.1 0.014705882
0.98982843 0.14901961 0.028921569
0.99607843 0.20343137 0.036764706
0.99914216 0.24571078 0.07879902
1 0.28651961 0.1254902
1 0.32806373 0.16421569
1 0.35 0.18235294
0.030392157 0.071568627 0.025980392
0.044914216 0.068627451 0.032843137
0.059436275 0.069117647 0.041789216
0.076960784 0.069117647 0.03872549
0.097303922 0.065196078 0.032598039
0.12696078 0.065625 0.026960784
0.17536765 0.068627451 0.026470588
0.22598039 0.068627451 0.025
0.27696078 0.072058824 0.022058824
0.32794118 0.078431373 0.018137255
0.38958333 0.079901961 0.014583333
0.45398284 0.079901961 0.010355392
0.54166667 0.08627451 0.0093137255
0.63431373 0.096078431 0.0078431373
0.72696078 0.099142157 0.010416667
0.80165441 0.10490196 0.016973039
0.8745098 0.11519608 0.019117647
0.93265931 0.13137255 0.024693627
0.96237745 0.16531863 0.039705882
0.96617647 0.21421569 0.059865196
0.97916667 0.25637255 0.076470588
0.98964461 0.29754902 0.10588235
0.99644608 0.33872549 0.1307598
1 0.36960784 0.16109069
1 0.38578431 0.1872549
0.050980392 0.12941176 0.056862745
0.064460784 0.12352941 0.056862745
0.079901961 0.11519608 0.060784314
0.099019608 0.11544118 0.059068627
0.12352941 0.11666667 0.052941176
0.15686275 0.11740196 0.05122549
0.20147059 0.11568627 0.052941176
0.2504902 0.11960784 0.052941176
0.29803922 0.12352941 0.047058824
0.34436275 0.12990196 0.03995098
0.4127451 0.13529412 0.041176471
0.48651961 0.1372549 0.041176471
0.57254902 0.13823529 0.032352941
0.66740196 0.13897059 0.018627451
0.75294118 0.14166667 0.012254902
0.81078431 0.15833333 0.029656863
0.86666667 0.1745098 0.041176471
0.89558824 0.20465686 0.058578431
0.9254902 0.24264706 0.076470588
0.94044118 0.28063725 0.097058824
0.96568627 0.30882353 0.11078431
0.98431373 0.34215686 0.13259804
0.9872549 0.37009804 0.17745098
0.99485294 0.40637255 0.18210784
1 0.43137255 0.20392157
0.071078431 0.18333333 0.087745098
0.080085784 0.17892157 0.087745098
0.10441176 0.1754902 0.08370098
0.12935049 0.17205882 0.076470588
0.15416667 0.17328431 0.073529412
0.19074755 0.17156863 0.076409314
0.22843137 0.17156863 0.082843137
0.27107843 0.17518382 0.082352941
0.31862745 0.18333333 0.075980392
0.36881127 0.18707108 0.069914216
0.43529412 0.19509804 0.068504902
0.51470588 0.19209559 0.068137255
0.59852941 0.19117647 0.058578431
0.67696078 0.2 0.049509804
0.73921569 0.21360294 0.055392157
0.78498775 0.2341299 0.072365196
0.83382353 0.2504902 0.084803922
0.86470588 0.28106618 0.098529412
0.89558824 0.31127451 0.11311275
0.92303922 0.33431373 0.12598039
0.94607843 0.36078431 0.13651961
0.97254902 0.3872549 0.15147059
0.98284314 0.41127451 0.17855392
0.98921569 0.43756127 0.20392157
0.99607843 0.45637255 0.21617647
0.085294118 0.23823529 0.11568627
0.094117647 0.23615196 0.11470588
0.10808824 0.24093137 0.11446078
0.13321078 0.24313725 0.11029412
0.16470588 0.24166667 0.10588235
0.2057598 0.23884804 0.10723039
0.24607843 0.23627451 0.11078431
0.29522059 0.2372549 0.11078431
0.34607843 0.24117647 0.10686275
0.39754902 0.24509804 0.10294118
0.45980392 0.25784314 0.10294118
0.53529412 0.25992647 0.099019608
0.6 0.26323529 0.095098039
0.6627451 0.27205882 0.097058824
0.71862745 0.28921569 0.10686275
0.76262255 0.30870098 0.12487745
0.80196078 0.32352941 0.12941176
0.83921569 0.34411765 0.13676471
0.87156863 0.36176471 0.14240196
0.90245098 0.37977941 0.14693627
0.92892157 0.40196078 0.15784314
0.95196078 0.4254902 0.17892157
0.97181373 0.44607843 0.20612745
0.98578431 0.46727941 0.22009804
0.99607843 0.48333333 0.22647059
0.092647059 0.30196078 0.14852941
0.091727941 0.30496324 0.1495098
0.089215686 0.31654412 0.15281863
0.12579657 0.31764706 0.14969363
0.16862745 0.31617647 0.14632353
0.20980392 0.31354167 0.14528186
0.25870098 0.3122549 0.14166667
0.31617647 0.30980392 0.13927696
0.37156863 0.31372549 0.1377451
0.4245098 0.31917892 0.13382353
0.48431373 0.32892157 0.1317402
0.54773284 0.33529412 0.13118873
0.59803922 0.33651961 0.13455882
0.65196078 0.34050245 0.13952206
0.70343137 0.35686275 0.14852941
0.74503676 0.37107843 0.15882353
0.78137255 0.38529412 0.16127451
0.81862745 0.39895833 0.16519608
0.85098039 0.41507353 0.16764706
0.88186275 0.43020833 0.16911765
0.91151961 0.44583333 0.17279412
0.93547794 0.46421569 0.19491422
0.95735294 0.48088235 0.22095588
0.98186275 0.49607843 0.22591912
0.99754902 0.51029412 0.23137255
0.08627451 0.38823529 0.19215686
0.079901961 0.38823529 0.18970588
0.075490196 0.38823529 0.18823529
0.13480392 0.39215686 0.18480392
0.19411765 0.38823529 0.18039216
0.2372549 0.38431373 0.17598039
0.28921569 0.38431373 0.17254902
0.34607843 0.38578431 0.16862745
0.4 0.39215686 0.16862745
0.45539216 0.39607843 0.16470588
0.50588235 0.4 0.16176471
0.55098039 0.40392157 0.16470588
0.59803922 0.40784314 0.17058824
0.64509804 0.40833333 0.17647059
0.69019608 0.41862745 0.18039216
0.72745098 0.43284314 0.18823529
0.76470588 0.44313725 0.18823529
0.80588235 0.44558824 0.18431373
0.83823529 0.45980392 0.18431373
0.86911765 0.47401961 0.1877451
0.89803922 0.48627451 0.19019608
0.92254902 0.49852941 0.20490196
0.94705882 0.5127451 0.22156863
0.97156863 0.52696078 0.23137255
0.99607843 0.5372549 0.23529412
0.17352941 0.44362745 0.21666667
0.18051471 0.44515931 0.21519608
0.1995098 0.44816176 0.21519608
0.23688725 0.45128676 0.21519608
0.28161765 0.44681373 0.20931373
0.3153799 0.44215686 0.20343137
0.35379902 0.44546569 0.20343137
0.39761029 0.44699755 0.1995098
0.44117647 0.45 0.19558824
0.4877451 0.45147059 0.19221814
0.5254902 0.45147059 0.18921569
0.56127451 0.45508578 0.19295343
0.60245098 0.45931373 0.19828431
0.64381127 0.46372549 0.20147059
0.68627451 0.47156863 0.20490196
0.72352941 0.48039216 0.20637255
0.75833333 0.48676471 0.20245098
0.79313725 0.49160539 0.19761029
0.82794118 0.50098039 0.19742647
0.85753676 0.51488971 0.20355392
0.8877451 0.52230392 0.20441176
0.9122549 0.53204657 0.21862745
0.93676471 0.54362745 0.23284314
0.96519608 0.55539216 0.23921569
0.98970588 0.56176471 0.24166667
0.28039216 0.49509804 0.2372549
0.29803922 0.49963235 0.23823529
0.31666667 0.50392157 0.24117647
0.33088235 0.50686275 0.24117647
0.36078431 0.50343137 0.2377451
0.38676471 0.50294118 0.23333333
0.41372549 0.50514706 0.23333333
0.44754902 0.51078431 0.23223039
0.47843137 0.50980392 0.2254902
0.51127451 0.50404412 0.21801471
0.54289216 0.50196078 0.21764706
0.57696078 0.50281863 0.21764706
0.6127451 0.50686275 0.22156863
0.65085784 0.51029412 0.2254902
0.6872549 0.51764706 0.2245098
0.72205882 0.52365196 0.22120098
0.75294118 0.52941176 0.21764706
0.78382353 0.53394608 0.21311275
0.81764706 0.53823529 0.20906863
0.84852941 0.54852941 0.21360294
0.87941176 0.55588235 0.21666667
0.9060049 0.56421569 0.22536765
0.93112745 0.5745098 0.23823529
0.96127451 0.58051471 0.24742647
0.98823529 0.58627451 0.25098039
0.38333333 0.54656863 0.26176471
0.39246324 0.55079657 0.26176471
0.39803922 0.55098039 0.26176471
0.40147059 0.55098039 0.26176471
0.41519608 0.55098039 0.25808824
0.43474265 0.54705882 0.25392157
0.45870098 0.55 0.25392157
0.48872549 0.55490196 0.25392157
0.51617647 0.55098039 0.24607843
0.53676471 0.54705882 0.24215686
0.5627451 0.54705882 0.24215686
0.59362745 0.54705882 0.24215686
0.62843137 0.55269608 0.24583333
0.65980392 0.55839461 0.24215686
0.69460784 0.56531863 0.24215686
0.7254902 0.57028186 0.23823529
0.75686275 0.57107843 0.23431373
0.78511029 0.5745098 0.23186275
0.81470588 0.57843137 0.22990196
0.84558824 0.58278186 0.23039216
0.87303922 0.58848039 0.22867647
0.90294118 0.59509804 0.23186275
0.93039216 0.60147059 0.24166667
0.96127451 0.60784314 0.25196078
0.98823529 0.61078431 0.25490196
0.44705882 0.58823529 0.27843137
0.44901961 0.58946078 0.27843137
0.45294118 0.59019608 0.27843137
0.45637255 0.59019608 0.27843137
0.46862745 0.58823529 0.27745098
0.48480392 0.58823529 0.2745098
0.5 0.58823529 0.27107843
0.5252451 0.59289216 0.27058824
0.54705882 0.59215686 0.26666667
0.56519608 0.58823529 0.26470588
0.58480392 0.58823529 0.2627451
0.6122549 0.58823529 0.2627451
0.64313725 0.59313725 0.26372549
0.67401961 0.6 0.2627451
0.70490196 0.60343137 0.25980392
0.72916667 0.60661765 0.25882353
0.75686275 0.60980392 0.25490196
0.7877451 0.61176471 0.25367647
0.81617647 0.61421569 0.25098039
0.84558824 0.61936275 0.25098039
0.87647059 0.62156863 0.24803922
0.90343137 0.6254902 0.24705882
0.93431373 0.63235294 0.24852941
0.96519608 0.6372549 0.25441176
0.99019608 0.64117647 0.26078431
0.49656863 0.625 0.29460784
0.49656863 0.6254902 0.29509804
0.50147059 0.62904412 0.29509804
0.50784314 0.62941176 0.29509804
0.51985294 0.62916667 0.29485294
0.52794118 0.6254902 0.29117647
0.53823529 0.6254902 0.29117647
0.56127451 0.62892157 0.28939951
0.57794118 0.62892157 0.2872549
0.59460784 0.62892157 0.2872549
0.61029412 0.62892157 0.28333333
0.63094363 0.62892157 0.28333333
0.65759804 0.62916667 0.28333333
0.68780637 0.63333333 0.28284314
0.7122549 0.63970588 0.27941176
0.73676471 0.64246324 0.27941176
0.76127451 0.64460784 0.2754902
0.78792892 0.64724265 0.27285539
0.81862745 0.64987745 0.27156863
0.8495098 0.65245098 0.27156863
0.88039216 0.65465686 0.26764706
0.90778186 0.65637255 0.26672794
0.93823529 0.66029412 0.26372549
0.96911765 0.66550245 0.26372549
0.99656863 0.66813725 0.26323529
0.54411765 0.65980392 0.31176471
0.54509804 0.66164216 0.31176471
0.54926471 0.66446078 0.3120098
0.55379902 0.66764706 0.3127451
0.55980392 0.66372549 0.31176471
0.56617647 0.65980392 0.30870098
0.57622549 0.6620098 0.30784314
0.59571078 0.66372549 0.30784314
0.60882353 0.66372549 0.30490196
0.62365196 0.66372549 0.30428922
0.6375 0.66372549 0.30392157
0.65196078 0.66372549 0.30392157
0.67303922 0.66372549 0.3004902
0.70110294 0.66764706 0.3
0.72622549 0.67156863 0.29705882
0.75036765 0.6754902 0.29607843
0.77156863 0.67941176 0.29313725
0.79607843 0.67941176 0.29215686
0.8247549 0.68333333 0.29215686
0.85343137 0.68333333 0.28835784
0.88382353 0.68529412 0.28676471
0.91384804 0.6872549 0.28431373
0.94215686 0.68823529 0.28137255
0.97095588 0.69215686 0.27928922
0.99019608 0.69509804 0.27745098
0.57843137 0.69460784 0.32843137
0.58088235 0.69607843 0.32843137
0.58088235 0.69852941 0.32843137
0.58431373 0.69852941 0.32843137
0.59068627 0.69460784 0.32696078
0.60098039 0.69460784 0.3245098
0.6127451 0.69571078 0.3245098
0.6254902 0.69852941 0.3245098
0.63823529 0.69852941 0.32303922
0.65 0.69852941 0.32303922
0.6627451 0.69852941 0.32058824
0.67665441 0.69852941 0.32058824
0.69117647 0.69852941 0.31789216
0.71403186 0.69871324 0.31666667
0.74007353 0.70245098 0.31519608
0.76366422 0.70637255 0.3127451
0.78578431 0.71029412 0.3127451
0.809375 0.7127451 0.31127451
0.83186275 0.71421569 0.30882353
0.86145833 0.71421569 0.30753676
0.88970588 0.71421569 0.30416667
0.91881127 0.71421569 0.30079657
0.94644608 0.71605392 0.29705882
0.96764706 0.71813725 0.29558824
0.98039216 0.72058824 0.29558824
0.61176471 0.72941176 0.34509804
0.61176471 0.72941176 0.34509804
0.61176471 0.72941176 0.34509804
0.61519608 0.72941176 0.34509804
0.62352941 0.72941176 0.34313725
0.63578431 0.72941176 0.34117647
0.64313725 0.72941176 0.34117647
0.65245098 0.72941176 0.34117647
0.6627451 0.72941176 0.3372549
0.67303922 0.72941176 0.3372549
0.6872549 0.72941176 0.3372549
0.70098039 0.73284314 0.3372549
0.71372549 0.73333333 0.33333333
0.73039216 0.73333333 0.33333333
0.75490196 0.73627451 0.33333333
0.7754902 0.7372549 0.32941176
0.8 0.74117647 0.32941176
0.82058824 0.74362745 0.32941176
0.84215686 0.74509804 0.3254902
0.86911765 0.74509804 0.3254902
0.89607843 0.74509804 0.32156863
0.92647059 0.74509804 0.31764706
0.95098039 0.74509804 0.31372549
0.97009804 0.74509804 0.31372549
0.97647059 0.74901961 0.31372549
0.64264706 0.76421569 0.36323529
0.64264706 0.76421569 0.36323529
0.6432598 0.76421569 0.36176471
0.64656863 0.76292892 0.36176471
0.65637255 0.76029412 0.35931373
0.66403186 0.7627451 0.35784314
0.66948529 0.76384804 0.35784314
0.67941176 0.76366422 0.35784314
0.68970588 0.7627451 0.35539216
0.69754902 0.76029412 0.35392157
0.70845588 0.76311275 0.35392157
0.72205882 0.76421569 0.35177696
0.73627451 0.76421569 0.35073529
0.75441176 0.76685049 0.35
0.77156863 0.76813725 0.35
0.78970588 0.76813725 0.34699755
0.81029412 0.77205882 0.34607843
0.83088235 0.77205882 0.34607843
0.85539216 0.77598039 0.34362745
0.87941176 0.77598039 0.34215686
0.90637255 0.77598039 0.33897059
0.93333333 0.77598039 0.3377451
0.96029412 0.77781863 0.33431373
0.98039216 0.77898284 0.33039216
0.98284314 0.77990196 0.33039216
0.67352941 0.79901961 0.38137255
0.67352941 0.79901961 0.38137255
0.6752451 0.79828431 0.37843137
0.68088235 0.79607843 0.37843137
0.6872549 0.79607843 0.37843137
0.69227941 0.79901961 0.37745098
0.69681373 0.79901961 0.3752451
0.70637255 0.79901961 0.3745098
0.71666667 0.79607843 0.3745098
0.7245098 0.79607843 0.37352941
0.73308824 0.79509804 0.37058824
0.74264706 0.79509804 0.37058824
0.75686275 0.79607843 0.36960784
0.77156863 0.79914216 0.36666667
0.79215686 0.80294118 0.36666667
0.80882353 0.80392157 0.36666667
0.8254902 0.80392157 0.36666667
0.84607843 0.80392157 0.3627451
0.86666667 0.80686275 0.3625
0.89019608 0.80686275 0.35882353
0.91470588 0.80686275 0.35833333
0.93970588 0.80784314 0.35490196
0.97058824 0.81078431 0.35416667
0.99522059 0.81360294 0.35098039
0.99705882 0.81176471 0.35098039
0.70441176 0.83333333 0.39901961
0.70441176 0.83333333 0.39901961
0.70833333 0.83333333 0.39816176
0.7122549 0.83333333 0.39558824
0.71617647 0.83382353 0.39509804
0.72015931 0.83382353 0.39509804
0.72401961 0.83382353 0.39509804
0.73351716 0.83382353 0.39381127
0.74754902 0.83382353 0.39117647
0.75539216 0.83333333 0.39117647
0.76029412 0.83247549 0.39117647
0.76715686 0.82990196 0.3877451
0.77745098 0.82990196 0.3872549
0.79558824 0.83382353 0.3872549
0.81360294 0.83762255 0.3872549
0.82941176 0.83903186 0.3872549
0.85 0.84117647 0.3872549
0.86666667 0.84117647 0.38333333
0.8872549 0.84117647 0.37977941
0.90484069 0.84117647 0.37941176
0.925 0.84166667 0.37745098
0.95 0.84509804 0.3754902
0.98088235 0.84546569 0.37254902
0.99785539 0.84901961 0.37156863
1 0.84558824 0.37156863
0.73333333 0.86666667 0.41568627
0.73651961 0.86666667 0.41568627
0.74166667 0.86715686 0.41568627
0.74681373 0.86862745 0.41568627
0.75294118 0.87058824 0.41568627
0.75710784 0.87058824 0.41348039
0.76078431 0.87058824 0.41176471
0.77009804 0.87058824 0.41176471
0.78235294 0.87058824 0.41176471
0.78946078 0.86936275 0.41053922
0.79509804 0.86862745 0.40784314
0.80171569 0.86862745 0.40784314
0.80686275 0.86666667 0.40784314
0.82034314 0.87058824 0.40784314
0.83921569 0.87401961 0.40784314
0.85514706 0.8752451 0.40784314
0.87058824 0.87647059 0.40588235
0.88995098 0.87647059 0.40392157
0.90784314 0.87647059 0.4
0.9245098 0.87818627 0.4
0.9372549 0.87843137 0.39803922
0.96029412 0.88063725 0.39607843
0.98578431 0.88382353 0.39607843
0.99681373 0.88431373 0.39215686
1 0.88235294 0.39215686
0.775 0.90392157 0.43235294
0.77892157 0.90392157 0.43235294
0.78370098 0.90392157 0.43235294
0.78627451 0.90392157 0.43235294
0.79191176 0.90563725 0.43235294
0.79761029 0.90784314 0.43235294
0.80110294 0.90784314 0.43235294
0.80863971 0.90784314 0.43235294
0.81764706 0.90784314 0.42843137
0.82530637 0.90753676 0.42843137
0.83039216 0.90735294 0.42843137
0.83719363 0.90784314 0.42843137
0.84313725 0.90784314 0.42843137
0.85692402 0.90827206 0.42843137
0.87107843 0.91127451 0.42794118
0.88137255 0.91145833 0.4245098
0.89558824 0.91176471 0.4245098
0.91354167 0.91305147 0.4245098
0.93137255 0.91176471 0.42058824
0.94209559 0.915625 0.42058824
0.95588235 0.91568627 0.42058824
0.97003676 0.91917892 0.41666667
0.98333333 0.91960784 0.41666667
0.99362745 0.91960784 0.4127451
1 0.91960784 0.4127451
0.82647059 0.94509804 0.45294118
0.83039216 0.94509804 0.45294118
0.82745098 0.94215686 0.45
0.82745098 0.93860294 0.44901961
0.82941176 0.93970588 0.44901961
0.83578431 0.94252451 0.45036765
0.84313725 0.94828431 0.45294118
0.85036765 0.94901961 0.45294118
0.85882353 0.94607843 0.44901961
0.85980392 0.94509804 0.44901961
0.86691176 0.94509804 0.44681373
0.87414216 0.94509804 0.44901961
0.88137255 0.94901961 0.44901961
0.89166667 0.94865196 0.44595588
0.90196078 0.94607843 0.44509804
0.9122549 0.94607843 0.44509804
0.92352941 0.95 0.44509804
0.93958333 0.95 0.44509804
0.95514706 0.95294118 0.44338235
0.96360294 0.95294118 0.44117647
0.97352941 0.95392157 0.43970588
0.97990196 0.95428922 0.4372549
0.98627451 0.95759804 0.4372549
0.99362745 0.95894608 0.43333333
1 0.96078431 0.43333333
0.8745098 0.98431373 0.47058824
0.86660539 0.97794118 0.46721814
0.86139706 0.97120098 0.46421569
0.85686275 0.96648284 0.4627451
0.86029412 0.96740196 0.4627451
0.86862745 0.971875 0.46421569
0.87892157 0.97794118 0.46776961
0.88682598 0.98339461 0.47058824
0.88921569 0.97941176 0.46813725
0.89166667 0.97640931 0.46421569
0.89767157 0.97610294 0.46421569
0.90471814 0.97922794 0.46421569
0.91323529 0.98186275 0.46544118
0.91960784 0.97794118 0.4627451
0.92806373 0.97610294 0.46029412
0.9377451 0.97640931 0.46029412
0.9504902 0.97941176 0.46029412
0.96323529 0.98339461 0.4627451
0.97071078 0.98186275 0.45992647
0.97745098 0.98186275 0.45637255
0.98504902 0.98186275 0.45367647
0.99001225 0.98204657 0.45245098
0.9932598 0.98517157 0.45245098
0.99607843 0.98817402 0.45098039
1 0.99215686 0.45098039
0.8745098 0.98431373 0.47058824
0.87205882 0.98039216 0.47058824
0.86666667 0.97647059 0.46666667
0.86323529 0.96911765 0.46323529
0.86470588 0.97058824 0.46470588
0.875 0.97696078 0.46666667
0.88137255 0.98039216 0.47058824
0.8877451 0.98431373 0.47058824
0.89411765 0.98431373 0.47058824
0.9004902 0.98431373 0.47058824
0.90588235 0.98431373 0.46666667
0.90980392 0.98431373 0.46666667
0.91568627 0.98431373 0.46666667
0.92598039 0.98431373 0.46666667
0.93627451 0.98431373 0.46372549
0.94656863 0.98431373 0.4627451
0.95294118 0.98431373 0.4627451
0.96323529 0.98431373 0.4627451
0.97352941 0.98529412 0.4627451
0.97990196 0.98823529 0.45882353
0.98627451 0.98823529 0.45882353
0.99215686 0.98823529 0.45490196
0.99509804 0.99215686 0.45490196
0.99754902 0.99215686 0.45343137
1 0.99215686 0.45098039
0.023529412 0.032843137 0.029901961
0.026531863 0.028002451 0.029901961
0.035906863 0.020710784 0.028921569
0.050490196 0.015870098 0.023529412
0.066666667 0.011764706 0.019607843
0.083333333 0.010294118 0.018137255
0.10453431 0.0073529412 0.017769608
0.12800245 0.0039215686 0.018137255
0.16127451 0.0053921569 0.020588235
0.19074755 0.0039215686 0.016666667
0.24754902 0.0039215686 0.013848039
0.30833333 0.0039215686 0.011764706
0.38382353 0.0039215686 0.015686275
0.50980392 0.0039215686 0.011764706
0.63639706 0.0039215686 0.010661765
0.75784314 0.0039215686 0.0072916667
0.87843137 0.0068627451 0.0014705882
0.95484069 0.018137255 0.003002451
0.97953431 0.029901961 0.0073529412
0.99932598 0.03939951 0.01372549
1 0.054656863 0.025735294
1 0.064031863 0.029718137
1 0.15661765 0.090073529
1 0.21550245 0.14056373
1 0.30441176 0.20147059
0.023529412 0.035845588 0.02689951
0.029901961 0.032498468 0.028982843
0.040885417 0.025551471 0.025750613
0.050490196 0.016980699 0.023529412
0.068351716 0.016176471 0.020833333
0.092723652 0.0198606 0.021507353
0.1216299 0.017585784 0.018137255
0.16037837 0.017447917 0.017241115
0.19914216 0.017218137 0.015686275
0.24417892 0.016666667 0.014215686
0.30591299 0.019148284 0.012132353
0.37469363 0.016605392 0.010585172
0.45278799 0.020373775 0.011764706
0.5495864 0.022924326 0.011764706
0.66078431 0.018658088 0.010523897
0.77177543 0.015770527 0.0091681985
0.87843137 0.019117647 0.0039215686
0.9557981 0.031173407 0.0039215686
0.98783701 0.053707108 0.0097579657
0.99607843 0.071124387 0.022051164
1 0.11933211 0.043137255
1 0.16573989 0.072863051
1 0.2384038 0.13068321
1 0.28756127 0.17369792
1 0.33566176 0.21519608
0.023529412 0.041911765 0.026593137
0.033363971 0.041176471 0.028661152
0.045618873 0.041176471 0.032077206
0.061136642 0.038235294 0.031066176
0.082414216 0.040257353 0.027205882
0.10654105 0.040946691 0.025842525
0.14549632 0.038235294 0.023039216
0.1939951 0.037867647 0.02064951
0.24068627 0.036764706 0.017647059
0.29742647 0.033563113 0.011213235
0.35634191 0.038878676 0.011397059
0.42562806 0.04185049 0.010294118
0.5098652 0.047120098 0.010784314
0.5995098 0.052129289 0.01260723
0.69601716 0.052910539 0.014491422
0.78878676 0.053063725 0.012745098
0.87598039 0.058455882 0.012745098
0.95268076 0.07310049 0.0062346814
0.99102328 0.098161765 0.012254902
0.99019608 0.1435815 0.040701593
0.99460784 0.19442402 0.069607843
0.99607843 0.23956801 0.10821078
0.99718137 0.28354779 0.14718137
1 0.32671569 0.18662684
