site/assets/luts/natron-haldclut--fuji-fp-100c---35dda7e7a.cube
# LUTr-Project: LUTr — LUTrepository
# LUTr-Schema-Version: 1
# LUTr-ID: natron-haldclut--fuji-fp-100c---35dda7e7a
# LUTr-Title: fuji fp-100c --
# LUTr-Collection: Natron HaldCLUT
# LUTr-Collection-ID: natron-haldclut-presets
# LUTr-Source: https://github.com/NatronGitHub/clut
# LUTr-Source-File: submissions/natron-haldclut-presets/instant_pro/fuji_fp-100c_--.png
# LUTr-Source-Format: PNG
# LUTr-Source-SHA256: 97947625838aa43c1ccaba973c80361f266d10c089e2db08672e7947a1b59ab2
# LUTr-License: CC-BY-SA-4.0
# LUTr-License-URL: https://github.com/NatronGitHub/clut#license
# LUTr-Tags: creative, film, film-emulation, hald-clut, natron, png, cube
# LUTr-Transform-Class: film-emulation
# LUTr-Input-Color-Space: srgb
# LUTr-Output-Color-Space: srgb
# LUTr-Color-Space-Confidence: assumed-display-referred
# LUTr-Conversion-Method: PNG LUT image decoded at 16-bit and sampled to 25x25x25 3D CUBE
# LUTr-Conversion-Date: 2026-07-27
# LUTr-Conversion-Tool: LUTr scripts/convert-all-to-cube.mjs
# LUTr-Conversion-Grid: 25x25x25
# LUTr-Note: Preserve this metadata and the upstream license notices when redistributing.
TITLE "fuji fp-100c --"
LUT_3D_SIZE 5
DOMAIN_MIN 0 0 0
DOMAIN_MAX 1 1 1
0 0.0039215686 0
0.18039216 0.0058823529 0.024509804
0.51764706 0.0039215686 0.019607843
0.83921569 0 0.011764706
1 0.10980392 0.023529412
0 0.19901961 0.0039215686
0.20220588 0.22181373 0.0039215686
0.60441176 0.23137255 0.0019607843
0.86078431 0.21666667 0.0049019608
1 0.31568627 0.053921569
0 0.49215686 0.029411765
0.13284314 0.4877451 0.02745098
0.5372549 0.51960784 0
0.8504902 0.53382353 0.0098039216
0.99607843 0.57647059 0.14705882
0.012745098 0.72058824 0.12647059
0.22941176 0.70661765 0.11642157
0.51568627 0.71323529 0.01372549
0.79289216 0.7372549 0.0039215686
0.98823529 0.75980392 0
0.52941176 0.94509804 0.4627451
0.59313725 0.94117647 0.46568627
0.71568627 0.94117647 0.46862745
0.85686275 0.95686275 0.44411765
0.99607843 0.97254902 0.34117647
0.00098039216 0.00098039216 0.2
0.25980392 0.0068627451 0.25980392
0.49656863 0.03627451 0.22254902
0.82818627 0.0039215686 0.21568627
0.99215686 0.080392157 0.21568627
0 0.22941176 0.24828431
0.24724265 0.25882353 0.26746324
0.60294118 0.26029412 0.26237745
0.84234069 0.24019608 0.23878676
0.99509804 0.30784314 0.24215686
0.0034313725 0.54166667 0.26813725
0.20208333 0.53823529 0.27659314
0.58186275 0.53970588 0.20784314
0.85906863 0.55637255 0.22843137
0.99166667 0.57009804 0.30392157
0.013480392 0.73946078 0.2879902
0.26746324 0.72977941 0.28314951
0.54117647 0.72169118 0.25183824
0.7963848 0.74411765 0.1036152
0.99681373 0.7754902 0.20245098
0.53529412 0.94607843 0.51568627
0.59485294 0.94828431 0.51960784
0.70686275 0.9377451 0.52107843
0.85490196 0.95735294 0.50465686
0.99117647 0.97254902 0.42843137
0.0039215686 0.0058823529 0.50588235
0.30490196 0.0019607843 0.55196078
0.7254902 0.0039215686 0.60686275
0.77843137 0.16372549 0.51568627
0.98235294 0.18823529 0.50392157
0.0019607843 0.21176471 0.50539216
0.29338235 0.22708333 0.55588235
0.72401961 0.18186275 0.62132353
0.79166667 0.33921569 0.53039216
0.99166667 0.30098039 0.49607843
0.066666667 0.53235294 0.55686275
0.33431373 0.55931373 0.58039216
0.65245098 0.6004902 0.60098039
0.84264706 0.58529412 0.56960784
0.98921569 0.56470588 0.53039216
0.31862745 0.78088235 0.59166667
0.42708333 0.77892157 0.5877451
0.59803922 0.76078431 0.54607843
0.81078431 0.76568627 0.50490196
0.99068627 0.79852941 0.55833333
0.51960784 0.95882353 0.64901961
0.54754902 0.94313725 0.62941176
0.68529412 0.94509804 0.63529412
0.84362745 0.95196078 0.63137255
0.98431373 0.9745098 0.59019608
0.21078431 0 0.75686275
0.40906863 0 0.77156863
0.74656863 0 0.81960784
0.96078431 0.0088235294 0.81764706
0.98921569 0.37058824 0.75588235
0.21446078 0.19803922 0.74509804
0.4 0.18627451 0.76844363
0.72843137 0.1254902 0.81348039
0.96556373 0.22444853 0.83333333
0.97745098 0.4752451 0.76764706
0.015196078 0.44705882 0.70735294
0.22083333 0.45980392 0.71078431
0.63137255 0.52401961 0.77696078
0.90147059 0.59852941 0.82254902
0.95196078 0.63039216 0.77009804
0.34828431 0.73259804 0.75612745
0.43890931 0.74411765 0.77040441
0.63137255 0.77414216 0.78676471
0.84534314 0.83125 0.82414216
0.96004902 0.80784314 0.79215686
0.56568627 0.96078431 0.84607843
0.60392157 0.96568627 0.84019608
0.68627451 0.9504902 0.82647059
0.82867647 0.96102941 0.80294118
0.99509804 0.98333333 0.78039216
0.60784314 0.13333333 0.97254902
0.67058824 0.081372549 0.97745098
0.80980392 0.0039215686 0.97254902
0.99607843 0 0.99509804
1 0.24705882 0.98039216
0.58333333 0.30882353 0.96764706
0.64730392 0.29313725 0.96666667
0.80490196 0.25 0.97647059
0.98897059 0.18308824 0.98431373
1 0.42156863 0.99509804
0.46862745 0.53333333 0.94901961
0.55686275 0.53333333 0.95490196
0.73333333 0.52941176 0.95686275
0.94215686 0.55392157 0.97156863
0.99607843 0.63137255 0.9745098
0.41470588 0.75588235 0.9372549
0.46053922 0.75196078 0.92965686
0.58235294 0.73578431 0.92941176
0.84117647 0.77328431 0.96176471
0.99705882 0.83823529 0.98529412
0.63921569 0.96078431 0.97647059
0.65980392 0.95882353 0.9754902
0.70196078 0.9372549 0.95882353
0.82941176 0.96372549 0.95686275
0.98823529 0.96862745 0.98431373
