site/assets/luts/natron-haldclut--agfa-vista-200--b8ffd6682.cube
# LUTr-Project: LUTr — LUTrepository
# LUTr-Schema-Version: 1
# LUTr-ID: natron-haldclut--agfa-vista-200--b8ffd6682
# LUTr-Title: agfa vista 200
# LUTr-Collection: Natron HaldCLUT
# LUTr-Collection-ID: natron-haldclut-presets
# LUTr-Source: https://github.com/NatronGitHub/clut
# LUTr-Source-File: submissions/natron-haldclut-presets/negative_color/agfa_vista_200.png
# LUTr-Source-Format: PNG
# LUTr-Source-SHA256: a572463e9a6f1380918ce3a866f2064402401ad983f790d9b03f1abbf80079e8
# LUTr-License: CC-BY-SA-4.0
# LUTr-License-URL: https://github.com/NatronGitHub/clut#license
# LUTr-Tags: creative, film, film-emulation, hald-clut, natron, png, cube
# LUTr-Transform-Class: film-emulation
# LUTr-Input-Color-Space: srgb
# LUTr-Output-Color-Space: srgb
# LUTr-Color-Space-Confidence: assumed-display-referred
# LUTr-Conversion-Method: PNG LUT image decoded at 16-bit and sampled to 25x25x25 3D CUBE
# LUTr-Conversion-Date: 2026-07-27
# LUTr-Conversion-Tool: LUTr scripts/convert-all-to-cube.mjs
# LUTr-Conversion-Grid: 25x25x25
# LUTr-Note: Preserve this metadata and the upstream license notices when redistributing.
TITLE "agfa vista 200"
LUT_3D_SIZE 25
DOMAIN_MIN 0 0 0
DOMAIN_MAX 1 1 1
0.031372549 0.0039215686 0.0039215686
0.031372549 0.0039215686 0.0039215686
0.035294118 0 0.0029411765
0.057352941 0.0034313725 0.0039215686
0.094117647 0.0098039216 0.0078431373
0.12696078 0.016176471 0.011764706
0.16470588 0.015686275 0.015686275
0.20735294 0.011764706 0.010294118
0.25098039 0.0039215686 0.0078431373
0.29852941 0 0.0014705882
0.35098039 0 0
0.40882353 0.0039215686 0
0.46666667 0.0039215686 0
0.52843137 0.0039215686 0
0.59019608 0.0039215686 0
0.65196078 0.0039215686 0
0.70196078 0.0078431373 0
0.74313725 0.010294118 0
0.78039216 0.011764706 0
0.81813725 0.011764706 0
0.85490196 0.0078431373 0
0.89166667 0.0078431373 0.0039215686
0.92647059 0.0049019608 0.0039215686
0.9627451 0.0039215686 0
1 0 0
0.031372549 0.023039216 0.0078431373
0.031372549 0.020588235 0.006372549
0.03872549 0.019117647 0.006372549
0.061090686 0.016973039 0.0042279412
0.092156863 0.025245098 0.0078431373
0.12696078 0.029901961 0.011764706
0.16176471 0.023039216 0.012867647
0.20588235 0.015134804 0.011764706
0.25098039 0.010294118 0.0078431373
0.30098039 0.0054534314 0.0014705882
0.35392157 0.0052696078 0
0.4091299 0.006372549 0
0.46911765 0.006372549 0
0.52843137 0.006372549 0
0.59019608 0.0039215686 0
0.65196078 0.0039215686 0
0.70441176 0.0078431373 0
0.74313725 0.0087622549 0
0.78039216 0.011764706 0
0.81813725 0.011764706 0
0.85612745 0.0078431373 0
0.89166667 0.0053921569 0.0039215686
0.92647059 0.0042892157 0.0039215686
0.95882353 0.0039215686 0.0039215686
0.98578431 0 0
0.02745098 0.045098039 0.0078431373
0.033823529 0.045710784 0.010661765
0.05 0.050980392 0.017647059
0.070588235 0.046568627 0.013235294
0.092156863 0.042647059 0.0078431373
0.12696078 0.043627451 0.0078431373
0.16470588 0.034313725 0.010784314
0.20441176 0.030392157 0.011764706
0.25588235 0.033333333 0.0078431373
0.30698529 0.033333333 0.0042892157
0.35955882 0.029411765 0.0039215686
0.41678922 0.025612745 0.0039215686
0.475 0.019607843 0.0039215686
0.53333333 0.01629902 0.00098039216
0.59411765 0.0098039216 0
0.65196078 0.0045343137 0
0.70588235 0.0039215686 0
0.74313725 0.0078431373 0
0.78039216 0.011764706 0
0.82156863 0.0082107843 0
0.85931373 0.0053921569 0
0.89558824 0.0039215686 0.00049019608
0.9254902 0.0039215686 0.0039215686
0.95343137 0.0039215686 0.0039215686
0.98039216 0.0039215686 0
0.023529412 0.069607843 0.0078431373
0.043321078 0.075490196 0.017647059
0.060294118 0.081862745 0.027941176
0.080882353 0.07745098 0.023529412
0.09754902 0.067156863 0.0098039216
0.12745098 0.061703431 0.0074142157
0.16862745 0.06127451 0.010416667
0.21341912 0.06127451 0.011764706
0.2622549 0.06127451 0.0078431373
0.31372549 0.059129902 0.0078431373
0.36911765 0.057352941 0.0077205882
0.4245098 0.053492647 0.0039215686
0.48210784 0.049264706 0.0039215686
0.53970588 0.041176471 0.0039215686
0.59767157 0.030882353 0.0035539216
0.65569853 0.020588235 0
0.70588235 0.014215686 0
0.74442402 0.015012255 0
0.78419118 0.015196078 0
0.82156863 0.011764706 0
0.8627451 0.0056372549 0
0.89558824 0 0
0.92254902 0.00049019608 0
0.9495098 0.0039215686 0
0.97990196 0.0039215686 0
0.039215686 0.11568627 0.023529412
0.053921569 0.11568627 0.025490196
0.074019608 0.12205882 0.034313725
0.091176471 0.11421569 0.028186275
0.10882353 0.10882353 0.019607843
0.13333333 0.10196078 0.019362745
0.1745098 0.098039216 0.024019608
0.22107843 0.092156863 0.012990196
0.26862745 0.092156863 0.0078431373
0.32401961 0.088235294 0.0078431373
0.37990196 0.088235294 0.0093137255
0.43651961 0.084313725 0.0044117647
0.49411765 0.080392157 0.0029411765
0.5497549 0.072058824 0.0022058824
0.60784314 0.063235294 0.0039215686
0.66568627 0.058823529 0.0039215686
0.71176471 0.050980392 0.0019607843
0.7497549 0.036764706 0
0.78970588 0.031372549 0
0.82745098 0.025980392 0
0.86666667 0.020588235 0
0.90122549 0.015196078 0
0.92843137 0.006372549 0
0.95539216 0.0039215686 0
0.98235294 0 0
0.055392157 0.16715686 0.039705882
0.068321078 0.16685049 0.039705882
0.085171569 0.16409314 0.040563725
0.10196078 0.15974265 0.036213235
0.12034314 0.15514706 0.031862745
0.14313725 0.14411765 0.037806373
0.18345588 0.1432598 0.028308824
0.22977941 0.13431373 0.020404412
0.28284314 0.13186275 0.012254902
0.33854167 0.13137255 0.012254902
0.39375 0.13039216 0.014828431
0.44944853 0.11623775 0.0083333333
0.50686275 0.11102941 0.0019607843
0.56372549 0.10349265 0.00006127451
0.6182598 0.10392157 0.0039215686
0.6745098 0.10245098 0.0039215686
0.71813725 0.087745098 0.0039215686
0.75667892 0.067156863 0.0014705882
0.79656863 0.048284314 0
0.83425245 0.040686275 0
0.86887255 0.03995098 0
0.90692402 0.034865196 0
0.93480392 0.021568627 0
0.96568627 0.0068627451 0
0.98921569 0 0
0.065686275 0.21862745 0.053921569
0.081740196 0.21470588 0.053921569
0.095098039 0.21151961 0.05
0.10882353 0.20735294 0.049142157
0.13088235 0.20294118 0.044117647
0.1495098 0.19901961 0.041666667
0.19019608 0.19215686 0.040441176
0.24276961 0.1872549 0.034681373
0.29705882 0.18333333 0.02254902
0.35428922 0.17941176 0.018627451
0.40857843 0.1754902 0.017892157
0.46580882 0.16421569 0.014828431
0.52205882 0.1495098 0.0049019608
0.57708333 0.14803922 0.0039215686
0.63161765 0.14877451 0.0039215686
0.68664216 0.14693627 0.0039215686
0.72843137 0.12941176 0.0039215686
0.76568627 0.10490196 0.0039215686
0.80686275 0.091176471 0.0022058824
0.84068627 0.078308824 0
0.87745098 0.065196078 0
0.91384804 0.055392157 0
0.94117647 0.045098039 0
0.97095588 0.030514706 0
0.99411765 0.014705882 0
0.075980392 0.26617647 0.064215686
0.081495098 0.26617647 0.064215686
0.080882353 0.26764706 0.064215686
0.092156863 0.26403186 0.062071078
0.12377451 0.25710784 0.057107843
0.153125 0.25196078 0.052144608
0.20159314 0.24840686 0.048161765
0.25735294 0.24264706 0.042156863
0.31519608 0.2377451 0.034313725
0.36966912 0.23474265 0.027941176
0.42414216 0.22953431 0.023161765
0.47873775 0.2245098 0.025
0.53553922 0.21740196 0.020588235
0.59215686 0.20618873 0.013235294
0.64693627 0.19987745 0.006372549
0.69993873 0.19356618 0.0039215686
0.73872549 0.17352941 0.0039215686
0.77598039 0.15931373 0.0039215686
0.81617647 0.14901961 0.0039215686
0.85441176 0.13872549 0.0039215686
0.88848039 0.12132353 0.0014705882
0.92040441 0.10214461 0.0014705882
0.94313725 0.090073529 0.0014705882
0.96617647 0.080392157 0.00091911765
0.98284314 0.070098039 0
0.058823529 0.3254902 0.078431373
0.05245098 0.3254902 0.078431373
0.050980392 0.3254902 0.078431373
0.065196078 0.32205882 0.078431373
0.10392157 0.31372549 0.080392157
0.14803922 0.31372549 0.066666667
0.20980392 0.31372549 0.070588235
0.27009804 0.30980392 0.070588235
0.3254902 0.30196078 0.054901961
0.38088235 0.2995098 0.047058824
0.4372549 0.29705882 0.043137255
0.49509804 0.29068627 0.039705882
0.54901961 0.28431373 0.033333333
0.60637255 0.27352941 0.026960784
0.66078431 0.25980392 0.016666667
0.71176471 0.2495098 0.010294118
0.74901961 0.23137255 0.0078431373
0.79019608 0.22107843 0.0078431373
0.82745098 0.21078431 0.0039215686
0.86519608 0.20441176 0.0039215686
0.9 0.19019608 0.0039215686
0.92696078 0.17156863 0.0039215686
0.95098039 0.15098039 0.0039215686
0.97156863 0.12647059 0
0.98823529 0.11372549 0
0.035784314 0.3872549 0.092647059
0.027941176 0.3872549 0.092647059
0.018014706 0.39117647 0.092647059
0.048713235 0.38596814 0.092647059
0.1 0.38259804 0.087990196
0.15147059 0.38155637 0.084620098
0.20980392 0.37941176 0.086642157
0.2754902 0.3754902 0.084803922
0.33578431 0.37156863 0.071568627
0.39270833 0.36672794 0.06372549
0.44754902 0.36372549 0.060906863
0.50802696 0.36011029 0.053921569
0.56642157 0.35318627 0.04754902
0.62058824 0.34215686 0.037745098
0.66960784 0.33186275 0.033333333
0.71660539 0.31672794 0.027512255
0.75931373 0.30098039 0.024509804
0.8004902 0.28921569 0.019056373
0.84068627 0.27892157 0.012132353
0.87892157 0.27254902 0.006372549
0.9122549 0.26348039 0.0039215686
0.93939951 0.25 0.006372549
0.96372549 0.23039216 0.0067401961
0.98339461 0.1995098 0.0039215686
0.99754902 0.16715686 0.0024509804
0.015686275 0.44509804 0.10294118
0.012867647 0.44754902 0.10294118
0.011764706 0.45294118 0.10686275
0.032352941 0.45294118 0.10686275
0.08627451 0.45 0.10392157
0.14718137 0.44865196 0.10245098
0.2129902 0.44289216 0.096078431
0.27794118 0.44080882 0.089705882
0.34607843 0.4372549 0.083333333
0.40428922 0.43480392 0.079411765
0.46102941 0.43235294 0.075490196
0.52046569 0.42683824 0.065196078
0.58235294 0.42058824 0.053921569
0.63345588 0.41029412 0.051960784
0.67843137 0.4 0.051960784
0.72598039 0.38578431 0.045098039
0.76960784 0.37156863 0.040196078
0.80796569 0.36188725 0.040563725
0.84803922 0.35122549 0.031372549
0.88921569 0.34460784 0.021078431
0.9245098 0.34019608 0.015196078
0.95637255 0.32892157 0.011764706
0.98112745 0.31495098 0.011764706
0.99215686 0.28823529 0.0088235294
0.99607843 0.26470588 0.0088235294
0.011764706 0.50686275 0.11323529
0.011764706 0.50931373 0.11568627
0.011887255 0.51470588 0.11801471
0.015686275 0.51770833 0.12107843
0.079901961 0.51470588 0.11715686
0.15238971 0.51035539 0.11323529
0.2245098 0.50306373 0.10637255
0.29411765 0.49901961 0.1
0.35980392 0.49558824 0.097058824
0.41783088 0.49871324 0.097058824
0.47463235 0.49497549 0.089583333
0.53382353 0.49117647 0.081862745
0.59387255 0.48161765 0.068137255
0.64460784 0.47892157 0.062254902
0.68958333 0.47205882 0.059313725
0.73841912 0.46029412 0.053247549
0.77990196 0.44754902 0.050490196
0.81715686 0.4372549 0.050980392
0.85747549 0.42696078 0.049019608
0.89564951 0.42052696 0.035723039
0.93284314 0.41421569 0.028921569
0.97395833 0.40784314 0.018688725
0.98823529 0.39448529 0.015563725
0.99215686 0.37726716 0.015686275
0.99607843 0.35637255 0.015686275
0.0078431373 0.56470588 0.12156863
0.011764706 0.56789216 0.1247549
0.021078431 0.57009804 0.12990196
0.04877451 0.56666667 0.13137255
0.10980392 0.56470588 0.1254902
0.17769608 0.5627451 0.11936275
0.24803922 0.55931373 0.11421569
0.31666667 0.55490196 0.10784314
0.37647059 0.55490196 0.10784314
0.43308824 0.56078431 0.1129902
0.49166667 0.55588235 0.10637255
0.55 0.54730392 0.092647059
0.60588235 0.53921569 0.082352941
0.65490196 0.53504902 0.07622549
0.70294118 0.53529412 0.069607843
0.75367647 0.53578431 0.063235294
0.79215686 0.52352941 0.062745098
0.82745098 0.51323529 0.063970588
0.86470588 0.50294118 0.06372549
0.90588235 0.49460784 0.049754902
0.94117647 0.48823529 0.041176471
0.97156863 0.47990196 0.033088235
0.98529412 0.46960784 0.027941176
0.99362745 0.45661765 0.021568627
0.99607843 0.43921569 0.019607843
0.0078431373 0.62205882 0.12941176
0.022365196 0.61942402 0.13596814
0.043627451 0.61764706 0.14166667
0.085355392 0.61421569 0.14215686
0.14705882 0.61372549 0.13578431
0.2122549 0.61372549 0.12591912
0.27708333 0.61409314 0.11862745
0.34362745 0.61078431 0.11372549
0.39754902 0.61421569 0.11764706
0.45245098 0.61372549 0.12420343
0.50882353 0.61286765 0.11311275
0.57058824 0.60643382 0.098590686
0.62230392 0.59705882 0.088480392
0.66568627 0.58976716 0.091053922
0.71372549 0.58639706 0.08370098
0.76323529 0.58480392 0.075490196
0.8004902 0.58284314 0.078921569
0.83511029 0.58069853 0.08314951
0.87365196 0.57855392 0.078308824
0.91568627 0.56862745 0.063786765
0.95318627 0.56004902 0.051470588
0.96911765 0.54754902 0.04754902
0.97941176 0.5372549 0.041176471
0.99362745 0.52824755 0.030882353
1 0.52401961 0.024509804
0.051960784 0.66666667 0.13333333
0.075980392 0.6627451 0.13615196
0.10588235 0.66102941 0.14828431
0.14142157 0.65882353 0.15465686
0.19509804 0.65833333 0.14754902
0.25686275 0.65796569 0.13872549
0.31642157 0.66102941 0.12843137
0.37193627 0.66164216 0.11997549
0.42156863 0.65882353 0.1245098
0.47487745 0.65490196 0.12659314
0.52941176 0.65490196 0.11960784
0.59117647 0.65490196 0.10539216
0.63970588 0.64901961 0.097058824
0.68247549 0.63872549 0.096691176
0.72745098 0.63210784 0.090931373
0.76960784 0.62745098 0.090318627
0.80686275 0.62745098 0.093137255
0.84411765 0.6310049 0.097058824
0.88137255 0.63039216 0.091176471
0.92254902 0.62389706 0.074509804
0.95833333 0.61372549 0.065196078
0.97205882 0.60330882 0.061642157
0.98553922 0.59215686 0.057107843
0.99546569 0.58002451 0.04754902
1 0.5754902 0.042156863
0.12401961 0.70637255 0.14558824
0.13921569 0.70484069 0.1471201
0.17254902 0.70392157 0.15931373
0.20686275 0.70392157 0.16617647
0.25514706 0.70147059 0.16102941
0.30814951 0.70177696 0.15392157
0.3567402 0.70061275 0.14362745
0.40245098 0.7 0.13627451
0.44509804 0.69607843 0.14460784
0.50238971 0.69607843 0.1221201
0.55171569 0.69215686 0.12696078
0.60294118 0.69068627 0.11458333
0.65245098 0.68946078 0.10661765
0.69754902 0.68382353 0.10165441
0.74203431 0.67683824 0.098039216
0.77990196 0.67346814 0.10098039
0.81715686 0.67254902 0.10735294
0.85196078 0.67254902 0.10735294
0.88958333 0.67254902 0.098161765
0.9276348 0.66648284 0.084313725
0.95955882 0.66151961 0.079901961
0.98235294 0.65245098 0.079595588
0.99264706 0.64031863 0.073039216
0.99607843 0.63088235 0.059375
1 0.62696078 0.056372549
0.19215686 0.74117647 0.17254902
0.20882353 0.74509804 0.17254902
0.2372549 0.74509804 0.17647059
0.26519608 0.74509804 0.18039216
0.30980392 0.74509804 0.17647059
0.35098039 0.74460784 0.16813725
0.39215686 0.74117647 0.15784314
0.43480392 0.7372549 0.14754902
0.48235294 0.74117647 0.13333333
0.53382353 0.74117647 0.11666667
0.57647059 0.73627451 0.11764706
0.62107843 0.72990196 0.11764706
0.66666667 0.72941176 0.11176471
0.71176471 0.72941176 0.10196078
0.75294118 0.7254902 0.10098039
0.79019608 0.72009804 0.10735294
0.82745098 0.71764706 0.11372549
0.8622549 0.71372549 0.11127451
0.89803922 0.71372549 0.10098039
0.93529412 0.70980392 0.090686275
0.9627451 0.70588235 0.088235294
0.98872549 0.69754902 0.08627451
0.99607843 0.69019608 0.075490196
1 0.68235294 0.070588235
1 0.67843137 0.070588235
0.26421569 0.77990196 0.19068627
0.27996324 0.78235294 0.19068627
0.30294118 0.78382353 0.19460784
0.32107843 0.78382353 0.19283088
0.35612745 0.78627451 0.18872549
0.39215686 0.78363971 0.17843137
0.43051471 0.78051471 0.16421569
0.47297794 0.77843137 0.15931373
0.51715686 0.77843137 0.15392157
0.55680147 0.77598039 0.14307598
0.59705882 0.77205882 0.13615196
0.63823529 0.77058824 0.13069853
0.68333333 0.77058824 0.12058824
0.72598039 0.77205882 0.10882353
0.76421569 0.76764706 0.11090686
0.8004902 0.76127451 0.12401961
0.83529412 0.75490196 0.13039216
0.8716299 0.75490196 0.1161152
0.90833333 0.75490196 0.10306373
0.94215686 0.7536152 0.094607843
0.96715686 0.7502451 0.091421569
0.98921569 0.74528186 0.085784314
0.99963235 0.73811275 0.078431373
1 0.73382353 0.080882353
1 0.72990196 0.080882353
0.32745098 0.81960784 0.2
0.3435049 0.81960784 0.20098039
0.35882353 0.81862745 0.20196078
0.37647059 0.81862745 0.20490196
0.40686275 0.81862745 0.19901961
0.43811275 0.81862745 0.18578431
0.47156863 0.81862745 0.17303922
0.50747549 0.81568627 0.1745098
0.54803922 0.81470588 0.17352941
0.58247549 0.81115196 0.16813725
0.62156863 0.81078431 0.16176471
0.6627451 0.80784314 0.15245098
0.70294118 0.80686275 0.14411765
0.73970588 0.80392157 0.13970588
0.77426471 0.80294118 0.13921569
0.80931373 0.8 0.14460784
0.84411765 0.79705882 0.14705882
0.88137255 0.79607843 0.12941176
0.91838235 0.79705882 0.10563725
0.95159314 0.79656863 0.09497549
0.97254902 0.79166667 0.096078431
0.99313725 0.78823529 0.087867647
1 0.78504902 0.083578431
1 0.77928922 0.084803922
1 0.77647059 0.081372549
0.38921569 0.85686275 0.20392157
0.4 0.85343137 0.20980392
0.41127451 0.85208333 0.21482843
0.42794118 0.8495098 0.21819853
0.45441176 0.85318627 0.21323529
0.4848652 0.85343137 0.20637255
0.5127451 0.85343137 0.19987745
0.54381127 0.85165441 0.19381127
0.5754902 0.84901961 0.19117647
0.60851716 0.84558824 0.19246324
0.64607843 0.84901961 0.18333333
0.68382353 0.84601716 0.17898284
0.71519608 0.84142157 0.17328431
0.75 0.8377451 0.17107843
0.78382353 0.8377451 0.16838235
0.81746324 0.84117647 0.16893382
0.85441176 0.84117647 0.16372549
0.88921569 0.83382353 0.14705882
0.92536765 0.83382353 0.12647059
0.95539216 0.83082108 0.11660539
0.97254902 0.82769608 0.12034314
0.99264706 0.82205882 0.11568627
1 0.82205882 0.10281863
1 0.82156863 0.086458333
1 0.81764706 0.071078431
0.4372549 0.88235294 0.22352941
0.44754902 0.88235294 0.22598039
0.46176471 0.88284314 0.22794118
0.47598039 0.88431373 0.22941176
0.49901961 0.88431373 0.22843137
0.5245098 0.88431373 0.23455882
0.54901961 0.88284314 0.22598039
0.57230392 0.87916667 0.21568627
0.6 0.88039216 0.21764706
0.63333333 0.87647059 0.21446078
0.66764706 0.87647059 0.20980392
0.69852941 0.8745098 0.20416667
0.72941176 0.8745098 0.19705882
0.7625 0.87254902 0.19215686
0.79705882 0.87254902 0.19215686
0.82990196 0.87058824 0.18823529
0.86470588 0.86862745 0.18431373
0.89681373 0.86470588 0.17279412
0.93039216 0.8622549 0.15784314
0.95931373 0.86078431 0.14754902
0.97843137 0.86078431 0.14705882
0.99436275 0.85686275 0.14436275
0.99607843 0.85686275 0.12745098
1 0.85539216 0.10882353
1 0.85294118 0.098039216
0.48872549 0.90686275 0.24362745
0.49754902 0.90716912 0.24411765
0.51286765 0.91078431 0.24411765
0.52696078 0.91127451 0.24411765
0.54289216 0.91470588 0.24191176
0.56280637 0.91078431 0.24411765
0.57990196 0.90686275 0.24117647
0.60018382 0.90294118 0.24019608
0.625 0.90686275 0.24019608
0.65539216 0.90471814 0.24442402
0.68492647 0.90343137 0.24068627
0.71323529 0.90343137 0.23333333
0.74583333 0.90514706 0.22279412
0.77892157 0.90729167 0.2127451
0.80980392 0.90306373 0.21237745
0.84197304 0.89932598 0.20882353
0.875 0.89558824 0.20490196
0.90588235 0.89558824 0.19883578
0.93627451 0.89558824 0.18872549
0.96415441 0.89258578 0.17843137
0.98676471 0.89166667 0.17377451
0.99656863 0.89166667 0.16868873
1 0.88872549 0.1557598
1 0.88596814 0.14705882
1 0.88382353 0.15098039
0.5372549 0.93137255 0.26078431
0.54656863 0.93321078 0.26176471
0.56102941 0.93529412 0.26176471
0.57205882 0.93529412 0.26078431
0.58235294 0.93823529 0.25784314
0.59705882 0.93480392 0.26078431
0.61151961 0.92818627 0.26078431
0.62561275 0.92352941 0.25968137
0.65588235 0.93039216 0.25882353
0.68039216 0.93137255 0.26029412
0.70588235 0.93112745 0.26568627
0.73382353 0.92781863 0.25490196
0.76323529 0.92745098 0.24019608
0.78627451 0.92193627 0.22647059
0.82352941 0.92745098 0.22965686
0.85441176 0.92647059 0.22941176
0.88921569 0.92352941 0.2254902
0.91727941 0.92254902 0.22156863
0.94534314 0.92352941 0.2127451
0.97401961 0.92647059 0.20539216
0.99705882 0.92647059 0.19803922
1 0.92254902 0.19276961
1 0.91862745 0.18627451
1 0.91470588 0.17879902
1 0.91470588 0.18333333
0.5877451 0.95735294 0.27745098
0.5971201 0.95980392 0.27745098
0.60257353 0.95772059 0.27598039
0.61305147 0.95949755 0.27598039
0.62352941 0.95980392 0.27205882
0.63627451 0.95716912 0.27205882
0.64362745 0.94901961 0.27536765
0.6504902 0.94166667 0.27297794
0.68284314 0.95196078 0.26960784
0.71219363 0.95735294 0.26666667
0.73541667 0.95490196 0.26813725
0.7536152 0.94705882 0.25931373
0.76936275 0.93602941 0.24509804
0.78970588 0.92598039 0.23155637
0.82745098 0.93627451 0.23970588
0.86770833 0.94803922 0.24852941
0.90343137 0.95196078 0.25
0.93186275 0.95042892 0.24362745
0.95637255 0.94803922 0.23333333
0.97941176 0.94656863 0.221875
0.99926471 0.94191176 0.21176471
1 0.94264706 0.21213235
1 0.94375 0.21041667
1 0.94558824 0.19454657
1 0.94558824 0.19362745
0.63137255 0.98039216 0.29019608
0.63137255 0.97647059 0.29019608
0.63235294 0.97254902 0.28627451
0.64264706 0.97598039 0.28627451
0.65686275 0.97843137 0.28235294
0.66666667 0.97598039 0.28235294
0.66666667 0.96568627 0.28529412
0.675 0.95833333 0.28235294
0.70588235 0.96862745 0.27843137
0.74313725 0.98284314 0.27205882
0.75392157 0.97058824 0.26568627
0.76421569 0.95392157 0.25931373
0.7745098 0.93921569 0.24901961
0.78970588 0.92598039 0.23529412
0.82745098 0.93921569 0.24215686
0.87254902 0.95588235 0.25392157
0.91372549 0.97254902 0.2627451
0.94215686 0.97009804 0.25784314
0.95882353 0.95588235 0.24117647
0.97941176 0.94901961 0.2245098
0.99803922 0.94509804 0.21568627
1 0.94558824 0.21176471
1 0.95588235 0.20882353
1 0.96764706 0.20245098
1 0.97254902 0.2
0.02745098 0.0039215686 0.014215686
0.028370098 0.0039215686 0.014215686
0.032965686 0.0035539216 0.014215686
0.054901961 0.0039215686 0.014215686
0.090931373 0.0085784314 0.012990196
0.12481618 0.013541667 0.01439951
0.16078431 0.015686275 0.015686275
0.20251225 0.010294118 0.011764706
0.24852941 0.006372549 0.0078431373
0.29852941 0.003002451 0.006372549
0.35453431 0.0039215686 0.0039215686
0.41145833 0.0060661765 0.0039215686
0.46985294 0.0078431373 0.0031862745
0.53057598 0.010294118 0.0024509804
0.59019608 0.010294118 0.0024509804
0.6471201 0.0078431373 0.0024509804
0.69558824 0.0078431373 0
0.74068627 0.011213235 0
0.78039216 0.012745098 0.0024509804
0.81813725 0.011764706 0.0024509804
0.85490196 0.0078431373 0.0039215686
0.89166667 0.0078431373 0.0039215686
0.92647059 0.0067401961 0.0039215686
0.96182598 0.0039215686 0.0039215686
0.98970588 0 0
0.025919118 0.023590686 0.018137255
0.029327512 0.020588235 0.017585784
0.037576593 0.018504902 0.019117647
0.059803922 0.016666667 0.016781556
0.091697304 0.018596814 0.014215686
0.12462469 0.020412071 0.014215686
0.15825674 0.017356005 0.015456495
0.20121017 0.012339154 0.011764706
0.25006127 0.010294118 0.0078431373
0.30098039 0.0060278799 0.006372549
0.35476409 0.006372549 0.0039215686
0.41226256 0.0077742034 0.0039215686
0.47058824 0.010294118 0.0039215686
0.53180147 0.011098346 0.0021446078
0.5910386 0.010294118 0.00068933824
0.64769455 0.0078431373 0.00091911765
0.69803922 0.0078431373 0
0.74068627 0.010294118 0
0.78039216 0.012377451 0.0013020833
0.81813725 0.011764706 0.0024509804
0.85686275 0.0078431373 0.0031862745
0.89166667 0.0070389093 0.0039215686
0.92608762 0.007153799 0.0039215686
0.95698529 0.0039215686 0.0039215686
0.97640931 0.0039215686 0.0024509804
0.023529412 0.045098039 0.020588235
0.031571691 0.045098039 0.022028186
0.047181373 0.046446078 0.026960784
0.066666667 0.042340686 0.023483456
0.092156863 0.039031863 0.017892157
0.12322304 0.034757966 0.013985907
0.15848652 0.028400735 0.011764706
0.20159314 0.026087623 0.011764706
0.25490196 0.029779412 0.010661765
0.30735294 0.028400735 0.010431985
0.36063113 0.025306373 0.007567402
0.41764706 0.021614583 0.0045343137
0.4754902 0.017340686 0.0039215686
0.53613664 0.01640625 0.0028186275
0.5948223 0.012469363 0
0.65085784 0.0082261029 0
0.6995098 0.0078431373 0
0.7404565 0.011351103 0
0.78039216 0.011764706 0
0.81845895 0.011764706 0
0.85882353 0.0068014706 0.0021446078
0.89212623 0.0039215686 0.0039215686
0.92181373 0.0039215686 0.0039215686
0.94566483 0.0039215686 0.0039215686
0.96911765 0.0039215686 0.0039215686
0.029411765 0.069117647 0.025796569
0.039705882 0.070297181 0.028860294
0.05747549 0.075490196 0.034313725
0.076960784 0.071078431 0.029901961
0.096629902 0.063480392 0.022886029
0.12696078 0.061236213 0.017647059
