site/assets/luts/natron-haldclut--polaroid-px-100uv-warm--9f524b0aa.cube
# LUTr-Project: LUTr — LUTrepository
# LUTr-Schema-Version: 1
# LUTr-ID: natron-haldclut--polaroid-px-100uv-warm--9f524b0aa
# LUTr-Title: polaroid px-100uv+ warm ++
# LUTr-Collection: Natron HaldCLUT
# LUTr-Collection-ID: natron-haldclut-presets
# LUTr-Source: https://github.com/NatronGitHub/clut
# LUTr-Source-File: submissions/natron-haldclut-presets/instant_consumer/polaroid_px-100uv+_warm_++.png
# LUTr-Source-Format: PNG
# LUTr-Source-SHA256: 0da27f155c889014195e7b49100dc6397d423738fed0fa37509efca13a163ce8
# LUTr-License: CC-BY-SA-4.0
# LUTr-License-URL: https://github.com/NatronGitHub/clut#license
# LUTr-Tags: creative, film, film-emulation, hald-clut, natron, png, warm, cube
# LUTr-Transform-Class: film-emulation
# LUTr-Input-Color-Space: srgb
# LUTr-Output-Color-Space: srgb
# LUTr-Color-Space-Confidence: assumed-display-referred
# LUTr-Conversion-Method: PNG LUT image decoded at 16-bit and sampled to 25x25x25 3D CUBE
# LUTr-Conversion-Date: 2026-07-27
# LUTr-Conversion-Tool: LUTr scripts/convert-all-to-cube.mjs
# LUTr-Conversion-Grid: 25x25x25
# LUTr-Note: Preserve this metadata and the upstream license notices when redistributing.
TITLE "polaroid px-100uv+ warm ++"
LUT_3D_SIZE 25
DOMAIN_MIN 0 0 0
DOMAIN_MAX 1 1 1
0.43137255 0.38823529 0.39215686
0.43137255 0.38823529 0.39215686
0.43137255 0.38823529 0.39215686
0.43137255 0.38823529 0.39215686
0.43137255 0.38823529 0.39215686
0.43137255 0.38823529 0.39215686
0.43137255 0.38823529 0.39215686
0.42745098 0.38431373 0.38823529
0.42745098 0.38431373 0.38823529
0.43382353 0.39068627 0.39460784
0.44019608 0.40098039 0.40490196
0.4504902 0.41127451 0.41519608
0.45882353 0.41764706 0.4254902
0.46323529 0.42401961 0.43186275
0.47058824 0.43039216 0.43823529
0.47745098 0.43823529 0.44607843
0.49803922 0.45882353 0.46666667
0.51470588 0.48333333 0.4872549
0.53431373 0.50294118 0.50392157
0.55196078 0.52058824 0.5245098
0.56862745 0.54117647 0.54117647
0.58872549 0.56176471 0.56176471
0.60588235 0.58235294 0.57843137
0.62107843 0.59754902 0.59362745
0.63137255 0.60784314 0.60392157
0.43137255 0.39215686 0.39607843
0.43137255 0.39123775 0.39515931
0.43137255 0.39007353 0.3939951
0.43137255 0.38823529 0.39215686
0.43137255 0.38823529 0.39215686
0.43137255 0.38823529 0.39215686
0.43137255 0.38823529 0.39215686
0.42745098 0.38431373 0.38823529
0.42745098 0.38431373 0.38823529
0.43382353 0.39068627 0.39460784
0.44313725 0.40098039 0.40490196
0.4504902 0.41127451 0.41519608
0.45882353 0.41960784 0.4254902
0.46666667 0.42745098 0.43186275
0.47242647 0.43321078 0.44105392
0.48235294 0.44460784 0.45153186
0.49803922 0.4627451 0.46911765
0.515625 0.48333333 0.4872549
0.53431373 0.50392157 0.50747549
0.55196078 0.5245098 0.5245098
0.56862745 0.54509804 0.54436275
0.58872549 0.56176471 0.56176471
0.60588235 0.58235294 0.57843137
0.62107843 0.59846814 0.59362745
0.63137255 0.61029412 0.60392157
0.43529412 0.39215686 0.39607843
0.43529412 0.39215686 0.39607843
0.43455882 0.39215686 0.39607843
0.43235294 0.39215686 0.39607843
0.43137255 0.39068627 0.39460784
0.43137255 0.38823529 0.39215686
0.43137255 0.38823529 0.39215686
0.43137255 0.38823529 0.39215686
0.42843137 0.38529412 0.38921569
0.43382353 0.39166667 0.39558824
0.44411765 0.40098039 0.40588235
0.45061275 0.41127451 0.41617647
0.46078431 0.42156863 0.4254902
0.46715686 0.42892157 0.43578431
0.47745098 0.43921569 0.44607843
0.4877451 0.45061275 0.4567402
0.50196078 0.46666667 0.47156863
0.51862745 0.48541667 0.49117647
0.53529412 0.50465686 0.50784314
0.55196078 0.5245098 0.52585784
0.57058824 0.54509804 0.54509804
0.58921569 0.56568627 0.56176471
0.60588235 0.58235294 0.57941176
0.62107843 0.59963235 0.5939951
0.63137255 0.61176471 0.60392157
0.43529412 0.39215686 0.39607843
0.43529412 0.39215686 0.39607843
0.43529412 0.39215686 0.39607843
0.43529412 0.39215686 0.39607843
0.43504902 0.39215686 0.39607843
0.43137255 0.39215686 0.39607843
0.43137255 0.39166667 0.39558824
0.43137255 0.38823529 0.39215686
0.43137255 0.39166667 0.39558824
0.43743873 0.39589461 0.39981618
0.44411765 0.40490196 0.40882353
0.45441176 0.41519608 0.41911765
0.4625 0.425 0.42941176
0.47107843 0.43186275 0.43970588
0.48088235 0.44215686 0.44987745
0.49136029 0.45606618 0.46158088
0.50539216 0.47058824 0.47794118
0.51862745 0.48854167 0.49246324
0.53529412 0.50784314 0.51078431
0.55238971 0.52794118 0.52843137
0.57230392 0.54509804 0.54509804
0.58921569 0.56568627 0.56476716
0.6067402 0.58590686 0.58198529
0.62254902 0.60147059 0.59724265
0.63529412 0.61519608 0.60784314
0.43529412 0.39607843 0.4
0.43529412 0.39607843 0.4
0.43529412 0.39607843 0.4
0.43529412 0.39411765 0.39803922
0.43529412 0.39313725 0.39607843
0.43529412 0.39215686 0.39607843
0.43529412 0.39215686 0.39607843
0.43529412 0.39215686 0.39607843
0.43529412 0.39607843 0.4
0.44044118 0.40122549 0.40514706
0.44803922 0.40882353 0.4127451
0.45490196 0.41911765 0.42303922
0.46470588 0.4254902 0.42941176
0.47107843 0.43578431 0.43970588
0.48137255 0.44607843 0.45
0.49166667 0.45784314 0.46176471
0.50588235 0.4745098 0.48039216
0.52009804 0.49191176 0.49583333
0.53529412 0.50784314 0.51176471
0.55416667 0.52843137 0.52892157
0.57254902 0.54901961 0.54803922
0.59093137 0.56740196 0.56568627
0.60980392 0.58627451 0.58235294
0.62573529 0.60416667 0.59828431
0.6372549 0.61764706 0.60980392
0.43529412 0.39607843 0.4
0.43529412 0.39607843 0.4
0.43529412 0.39607843 0.4
0.43529412 0.39607843 0.4
0.43529412 0.39607843 0.4
0.43529412 0.39607843 0.4
0.43529412 0.39607843 0.4
0.43547794 0.39626225 0.40018382
0.43970588 0.4004902 0.40441176
0.44558824 0.40655637 0.41047794
0.45110294 0.4127451 0.41666667
0.45833333 0.41917892 0.42310049
0.46470588 0.42745098 0.43137255
0.47101716 0.43529412 0.43964461
0.47830882 0.44215686 0.4495098
0.49136029 0.45765931 0.46158088
0.50588235 0.4745098 0.47843137
0.52224265 0.49117647 0.4963848
0.53823529 0.51090686 0.51470588
0.55588235 0.52843137 0.53235294
0.5745098 0.54901961 0.54901961
0.59313725 0.56960784 0.56568627
0.60992647 0.58762255 0.58370098
0.62677696 0.60686275 0.60147059
0.63970588 0.61960784 0.6122549
0.43529412 0.39607843 0.4
0.43529412 0.39607843 0.4
0.43529412 0.39607843 0.4
0.43529412 0.39607843 0.4
0.43529412 0.39607843 0.4
0.43529412 0.39607843 0.4
0.43529412 0.39607843 0.4
0.43921569 0.4 0.40392157
0.44313725 0.40392157 0.40784314
0.44705882 0.40968137 0.41421569
0.45416667 0.41642157 0.42034314
0.45870098 0.42218137 0.42610294
0.46323529 0.42745098 0.43137255
0.47058824 0.43186275 0.43578431
0.47745098 0.44215686 0.44607843
0.48811275 0.45392157 0.45845588
0.50196078 0.47058824 0.4745098
0.5189951 0.49117647 0.49509804
0.53921569 0.51176471 0.5125
0.55625 0.5314951 0.53235294
0.57647059 0.54901961 0.54901961
0.59313725 0.56960784 0.56568627
0.61078431 0.59019608 0.58333333
0.62892157 0.60686275 0.60147059
0.63921569 0.61960784 0.61176471
0.43529412 0.39607843 0.4
0.43529412 0.39607843 0.4
0.43529412 0.39607843 0.4
0.43529412 0.39607843 0.4
0.43529412 0.39607843 0.4
0.43529412 0.39607843 0.4
0.43823529 0.39901961 0.40294118
0.44160539 0.40238971 0.40631127
0.44705882 0.40784314 0.41176471
0.45098039 0.41476716 0.41868873
0.45588235 0.41997549 0.42389706
0.46011029 0.42352941 0.42745098
0.46348039 0.42745098 0.43137255
0.46715686 0.43186275 0.43578431
0.47352941 0.43823529 0.44215686
0.48474265 0.45 0.45392157
0.50196078 0.47058824 0.47303922
0.52101716 0.49117647 0.49117647
0.53921569 0.51176471 0.51176471
0.55980392 0.53235294 0.53235294
0.57647059 0.5497549 0.54901961
0.59313725 0.56960784 0.56911765
0.61078431 0.5872549 0.58333333
0.625 0.60392157 0.59754902
0.63382353 0.61176471 0.60637255
0.43921569 0.4 0.40392157
0.43921569 0.39607843 0.4
0.43529412 0.39607843 0.4
0.43529412 0.39607843 0.4
0.43529412 0.39607843 0.4
0.43529412 0.39607843 0.4
0.43921569 0.4 0.40392157
0.44460784 0.40539216 0.40931373
0.45098039 0.41176471 0.41568627
0.45343137 0.41813725 0.42205882
0.45882353 0.42352941 0.42745098
0.4627451 0.42745098 0.43137255
0.46666667 0.43137255 0.43529412
0.47058824 0.43529412 0.43921569
0.47352941 0.43823529 0.44215686
0.48529412 0.45 0.45392157
0.50196078 0.47058824 0.4745098
0.52254902 0.49117647 0.49117647
0.54215686 0.51176471 0.51176471
0.55980392 0.53235294 0.53235294
0.57843137 0.55294118 0.55098039
0.59656863 0.56960784 0.56911765
0.61078431 0.5872549 0.58333333
0.62107843 0.59754902 0.59362745
0.62745098 0.60392157 0.6
0.43921569 0.4 0.40392157
0.43921569 0.4 0.40392157
0.43921569 0.4 0.40392157
0.43792892 0.39852941 0.40245098
0.43529412 0.39607843 0.4
0.43529412 0.39607843 0.4
0.44105392 0.40294118 0.40686275
0.44797794 0.41084559 0.41476716
0.45343137 0.41813725 0.42205882
0.45980392 0.4245098 0.42689951
0.46519608 0.42990196 0.43382353
0.46911765 0.43382353 0.4377451
0.47377451 0.43970588 0.44362745
0.47745098 0.44430147 0.44607843
0.48382353 0.44914216 0.45306373
0.49411765 0.45974265 0.4627451
0.50833333 0.4745098 0.47696078
0.52555147 0.49509804 0.49509804
0.54313725 0.51568627 0.51568627
0.56372549 0.53627451 0.53627451
0.58039216 0.55294118 0.55294118
0.59656863 0.56960784 0.56911765
0.60686275 0.58333333 0.57941176
0.61470588 0.59117647 0.5872549
0.61960784 0.59754902 0.59215686
0.44803922 0.40882353 0.4127451
0.44803922 0.40882353 0.4127451
0.44803922 0.40882353 0.4127451
0.44509804 0.40625 0.41017157
0.44411765 0.40539216 0.40931373
0.4442402 0.40588235 0.40980392
0.44803922 0.41176471 0.41568627
0.45588235 0.41813725 0.42205882
0.4627451 0.4245098 0.42843137
0.46764706 0.43235294 0.43627451
0.47254902 0.44019608 0.44411765
0.47892157 0.44411765 0.44803922
0.48382353 0.45 0.45392157
0.49129902 0.45637255 0.46029412
0.49803922 0.46372549 0.46691176
0.50833333 0.47401961 0.47696078
0.51862745 0.4872549 0.4872549
0.5307598 0.5 0.50147059
0.54705882 0.51666667 0.51887255
0.56384804 0.53627451 0.53639706
0.58088235 0.55490196 0.55343137
0.59301471 0.56911765 0.56813725
0.60294118 0.57867647 0.5754902
0.60723039 0.58370098 0.57977941
0.61078431 0.5872549 0.58333333
0.45833333 0.42303922 0.42696078
0.45833333 0.42303922 0.42696078
0.45833333 0.42254902 0.42647059
0.45833333 0.42254902 0.42647059
0.45833333 0.42254902 0.42647059
0.46176471 0.42261029 0.42647059
0.46213235 0.42561275 0.42953431
0.46617647 0.43057598 0.43449755
0.47009804 0.43480392 0.43872549
0.47794118 0.44264706 0.44656863
0.48284314 0.4504902 0.45441176
0.48921569 0.45741422 0.45833333
0.49558824 0.4622549 0.46593137
0.50196078 0.47052696 0.47401961
0.51188725 0.47781863 0.48088235
0.51862745 0.4872549 0.49117647
0.52892157 0.49754902 0.50147059
0.53921569 0.51158088 0.51176471
0.55085784 0.52218137 0.52218137
0.56764706 0.53976716 0.53976716
0.58235294 0.55490196 0.55490196
0.59221814 0.565625 0.56476716
0.59901961 0.57291667 0.57169118
0.60392157 0.57824755 0.57647059
0.60441176 0.58039216 0.57696078
0.47254902 0.4372549 0.44117647
0.47254902 0.4372549 0.44117647
0.47254902 0.4372549 0.44117647
0.47254902 0.4372549 0.44117647
0.4745098 0.43921569 0.44215686
0.47647059 0.44117647 0.44313725
0.47794118 0.44264706 0.44509804
0.48039216 0.44509804 0.44779412
0.48431373 0.44901961 0.45294118
0.48823529 0.45539216 0.45931373
0.49313725 0.46176471 0.46568627
0.5 0.46813725 0.47205882
0.50784314 0.4745098 0.47843137
0.51617647 0.48455882 0.48651961
0.52254902 0.49117647 0.49509804
0.53284314 0.50147059 0.50147059
0.54313725 0.51176471 0.51176471
0.5502451 0.52205882 0.52205882
0.55980392 0.53235294 0.53235294
0.57009804 0.54264706 0.54264706
0.58235294 0.55490196 0.55490196
0.59240196 0.56715686 0.56495098
0.60098039 0.57745098 0.57352941
0.60857843 0.58382353 0.58112745
0.61372549 0.59019608 0.58627451
0.48676471 0.45147059 0.45539216
0.48676471 0.45147059 0.45539216
0.48676471 0.45147059 0.45539216
0.48719363 0.45196078 0.45588235
0.49068627 0.45563725 0.45931373
0.49117647 0.45631127 0.45980392
0.49375 0.45931373 0.46237745
0.49479167 0.46109069 0.46372549
0.49852941 0.46372549 0.46715686
0.50116422 0.46746324 0.4713848
0.50637255 0.47242647 0.47634804
0.51372549 0.47935049 0.48327206
0.52009804 0.48872549 0.49264706
0.52689951 0.49552696 0.49901961
0.53419118 0.50539216 0.50551471
0.54313725 0.51176471 0.51568627
0.55343137 0.52205882 0.52598039
0.56109069 0.53235294 0.53235294
0.57009804 0.54264706 0.54264706
0.58039216 0.55294118 0.55294118
0.59068627 0.56544118 0.56323529
0.60098039 0.57745098 0.57352941
0.61176471 0.58811275 0.58431373
0.62156863 0.59834559 0.59411765
0.62794118 0.60441176 0.6004902
0.5 0.46568627 0.46960784
0.5 0.46568627 0.46960784
0.5002451 0.46568627 0.46960784
0.50098039 0.46862745 0.47254902
0.50490196 0.47107843 0.47352941
0.50784314 0.47352941 0.47647059
0.50857843 0.47573529 0.47745098
0.50992647 0.47683824 0.4807598
0.5127451 0.48039216 0.48431373
0.51458333 0.48321078 0.48529412
0.51764706 0.48627451 0.48995098
0.52438725 0.49301471 0.49656863
0.53235294 0.50245098 0.50441176
0.54019608 0.50931373 0.51188725
0.54705882 0.51568627 0.51887255
0.55343137 0.52561275 0.52598039
0.56372549 0.53235294 0.53627451
0.57009804 0.54264706 0.54264706
0.58112745 0.55367647 0.55294118
0.59448529 0.56715686 0.56617647
0.60490196 0.57892157 0.57745098
0.61519608 0.59080882 0.5877451
0.6254902 0.60196078 0.59803922
0.63431373 0.6122549 0.60686275
0.63529412 0.61470588 0.60784314
0.51127451 0.47990196 0.48382353
0.51219363 0.47990196 0.48382353
0.51519608 0.48198529 0.48529412
0.51666667 0.48511029 0.4877451
0.51985294 0.4877451 0.48921569
0.52089461 0.48921569 0.49185049
0.52303922 0.49166667 0.49313725
0.5245098 0.49313725 0.49558824
0.52696078 0.49558824 0.4995098
0.52996324 0.49859069 0.50098039
0.53296569 0.50196078 0.50551471
0.53841912 0.50863971 0.51096814
0.54534314 0.51593137 0.51789216
0.55098039 0.52303922 0.52352941
0.55735294 0.52806373 0.52990196
0.56372549 0.53627451 0.53627451
0.57401961 0.54411765 0.54656863
0.58431373 0.55686275 0.55594363
0.59460784 0.56862745 0.56715686
0.60618873 0.58137255 0.57745098
0.61666667 0.59313725 0.58848039
0.62941176 0.60588235 0.59981618
0.63970588 0.61764706 0.6122549
0.64460784 0.625 0.61715686
0.64460784 0.625 0.61715686
0.5254902 0.49411765 0.49803922
0.52794118 0.49656863 0.5004902
0.52941176 0.49803922 0.50196078
0.53333333 0.50196078 0.50539216
0.53529412 0.50392157 0.50588235
0.5372549 0.50588235 0.50980392
0.5372549 0.50588235 0.50980392
0.53872549 0.50980392 0.50980392
0.54117647 0.50980392 0.51372549
0.54362745 0.51372549 0.51617647
0.54901961 0.51862745 0.52156863
0.55294118 0.525 0.5254902
0.56078431 0.53137255 0.53137255
0.56470588 0.5372549 0.5372549
0.56862745 0.54117647 0.54117647
0.57401961 0.54656863 0.54656863
0.58431373 0.55686275 0.55686275
0.59460784 0.57107843 0.56715686
0.60882353 0.58235294 0.58137255
0.61911765 0.59558824 0.59166667
0.62941176 0.60784314 0.60196078
0.64019608 0.62009804 0.6127451
0.65392157 0.63431373 0.62647059
0.65490196 0.63529412 0.62745098
0.65490196 0.63529412 0.62745098
0.55 0.52107843 0.52254902
0.55 0.51862745 0.52107843
0.55 0.51862745 0.52254902
0.55 0.52205882 0.52254902
0.55269608 0.52254902 0.52254902
0.55392157 0.52254902 0.52401961
0.55392157 0.52254902 0.52401961
0.55392157 0.52401961 0.52493873
0.55539216 0.52647059 0.52794118
0.55876225 0.52947304 0.53039216
0.56384804 0.53468137 0.53468137
0.56930147 0.53952206 0.54185049
0.57426471 0.54681373 0.54681373
0.58137255 0.55177696 0.55177696
0.58529412 0.55784314 0.55723039
0.59160539 0.56568627 0.56323529
0.60098039 0.57352941 0.57352941
0.61127451 0.5877451 0.58382353
0.6254902 0.60012255 0.59448529
0.63578431 0.6122549 0.60588235
0.64607843 0.62328431 0.61617647
0.65655637 0.63676471 0.62892157
0.66482843 0.64522059 0.63676471
0.66519608 0.64558824 0.6377451
0.66519608 0.64558824 0.6377451
0.5754902 0.54803922 0.54705882
0.57487745 0.54705882 0.54522059
0.5745098 0.54411765 0.54411765
0.5745098 0.54411765 0.54411765
0.5745098 0.54362745 0.54313725
0.57058824 0.54313725 0.54313725
0.57058824 0.54313725 0.54313725
0.57022059 0.53921569 0.54215686
0.57058824 0.54215686 0.54215686
0.57352941 0.54497549 0.54497549
0.57769608 0.5502451 0.5502451
0.58492647 0.55747549 0.55747549
0.59215686 0.56470588 0.5627451
0.59852941 0.57107843 0.57058824
0.60490196 0.57843137 0.57745098
0.61127451 0.5877451 0.58382353
0.62156863 0.59411765 0.59019608
0.63186275 0.60686275 0.6004902
0.64215686 0.61862745 0.61078431
0.65245098 0.6314951 0.62401961
0.6627451 0.64313725 0.63431373
0.67205882 0.65208333 0.64154412
0.6754902 0.65588235 0.64411765
0.6754902 0.65588235 0.64742647
0.6754902 0.65588235 0.64803922
0.60245098 0.575 0.57156863
0.60245098 0.575 0.57126225
0.59901961 0.57156863 0.57107843
0.59852941 0.57107843 0.56807598
0.59681373 0.57107843 0.56764706
0.59503676 0.56715686 0.56672794
0.59117647 0.56372549 0.56372549
0.58939951 0.56194853 0.55980392
0.5872549 0.55980392 0.55980392
0.58988971 0.5622549 0.5622549
0.59607843 0.56862745 0.56776961
0.60245098 0.5754902 0.575
0.61078431 0.58529412 0.58137255
0.61911765 0.59166667 0.5877451
0.6254902 0.60196078 0.59509804
0.63400735 0.60833333 0.60294118
0.64215686 0.61813725 0.61078431
0.65245098 0.62873775 0.62107843
0.6627451 0.63921569 0.63137255
0.67303922 0.6495098 0.64166667
0.68161765 0.65980392 0.64852941
0.68578431 0.66617647 0.65441176
0.68578431 0.66617647 0.65441176
0.68578431 0.66617647 0.65441176
0.68578431 0.66617647 0.65490196
0.62941176 0.60588235 0.59803922
0.62941176 0.60465686 0.59803922
0.62696078 0.60196078 0.59607843
0.6254902 0.6002451 0.59436275
0.62254902 0.59705882 0.59313725
0.61936275 0.59411765 0.58995098
0.61617647 0.59019608 0.58676471
0.61372549 0.59019608 0.58627451
0.61372549 0.59019608 0.58627451
0.61691176 0.59019608 0.58627451
0.61813725 0.59411765 0.59019608
0.62328431 0.5995098 0.59558824
0.63137255 0.60588235 0.60196078
0.63970588 0.61593137 0.60833333
0.64656863 0.62254902 0.61519608
0.65490196 0.63014706 0.62230392
0.6627451 0.63921569 0.63137255
0.67303922 0.6495098 0.6377451
0.68333333 0.65980392 0.64803922
0.68995098 0.67009804 0.65833333
0.69705882 0.67647059 0.66372549
0.69828431 0.67843137 0.66470588
0.69803922 0.67843137 0.66470588
0.69607843 0.67647059 0.66470588
0.69607843 0.67647059 0.66470588
0.65637255 0.63284314 0.625
0.65637255 0.63284314 0.62469363
0.65502451 0.6314951 0.62365196
0.65202206 0.62892157 0.62064951
0.64852941 0.625 0.61887255
0.64761029 0.62156863 0.61715686
0.64460784 0.62107843 0.61678922
0.64460784 0.62107843 0.61666667
0.64460784 0.62107843 0.61666667
0.64460784 0.6213848 0.61697304
0.64852941 0.625 0.61715686
0.65196078 0.62849265 0.62101716
0.65612745 0.63088235 0.6247549
0.66072304 0.63719363 0.62892157
0.66764706 0.64448529 0.63529412
0.67696078 0.65343137 0.64166667
0.68333333 0.65980392 0.64803922
0.69362745 0.67009804 0.65833333
0.70257353 0.68039216 0.6685049
0.7098652 0.6872549 0.67457108
0.71053922 0.69068627 0.67720588
0.71029412 0.69068627 0.67843137
0.71029412 0.69068627 0.675
0.71029412 0.69068627 0.675
0.70686275 0.69068627 0.675
0.68333333 0.66078431 0.64901961
0.68333333 0.66017157 0.64901961
0.68039216 0.65906863 0.64803922
0.67683824 0.65588235 0.64509804
0.67598039 0.65294118 0.64411765
0.6754902 0.65588235 0.64411765
0.6754902 0.65588235 0.64411765
0.6754902 0.65588235 0.64411765
0.6754902 0.65588235 0.64411765
0.6754902 0.65588235 0.64411765
0.67720588 0.65588235 0.64803922
0.68026961 0.65980392 0.64803922
0.68382353 0.6622549 0.65196078
0.68468137 0.66384804 0.65294118
0.69117647 0.66838235 0.65661765
0.69754902 0.67401961 0.6622549
0.70392157 0.68431373 0.66862745
0.71421569 0.69068627 0.67708333
0.72058824 0.70098039 0.68529412
0.7245098 0.70477941 0.68909314
0.7245098 0.70490196 0.68921569
0.72352941 0.70392157 0.68921569
0.72058824 0.70098039 0.68529412
0.72058824 0.70098039 0.68529412
0.72058824 0.70098039 0.68529412
0.70882353 0.68529412 0.67352941
0.70729167 0.68584559 0.67352941
0.70490196 0.68468137 0.67071078
0.70116422 0.68137255 0.66960784
0.69901961 0.67745098 0.66568627
0.70098039 0.68137255 0.66617647
0.70098039 0.68137255 0.66960784
0.70245098 0.68376225 0.67107843
0.70245098 0.68676471 0.67107843
0.70245098 0.68621324 0.67107843
0.70490196 0.68676471 0.67352941
0.70490196 0.68529412 0.67352941
0.70490196 0.68529412 0.67352941
0.70753676 0.68578431 0.67352941
0.71176471 0.69105392 0.67647059
0.71813725 0.69705882 0.68229167
0.7245098 0.70490196 0.68921569
0.7338848 0.7127451 0.69558824
0.73872549 0.71911765 0.70098039
0.73872549 0.71911765 0.69969363
0.73676471 0.71593137 0.6995098
0.73480392 0.71519608 0.6995098
0.73186275 0.7122549 0.69558824
0.73088235 0.71127451 0.69558824
0.73088235 0.71127451 0.69558824
0.7254902 0.70588235 0.69019608
0.7254902 0.70588235 0.69019608
0.72156863 0.70196078 0.68921569
0.71764706 0.69803922 0.68627451
0.71372549 0.69411765 0.68235294
0.71421569 0.69803922 0.68235294
0.71764706 0.70098039 0.68627451
0.72156863 0.70343137 0.69019608
0.7254902 0.70980392 0.69411765
0.72696078 0.71127451 0.69558824
0.72156863 0.70588235 0.69019608
0.72156863 0.70196078 0.68676471
0.72156863 0.70196078 0.68627451
0.72156863 0.70245098 0.68676471
0.7254902 0.70588235 0.69019608
0.73333333 0.71372549 0.69558824
0.74117647 0.72156863 0.70196078
0.74901961 0.72941176 0.70980392
0.74901961 0.72941176 0.70980392
0.74901961 0.72941176 0.70980392
0.74509804 0.7254902 0.70784314
0.74460784 0.725 0.70588235
0.74117647 0.72156863 0.70588235
0.74117647 0.72156863 0.70196078
0.74117647 0.72156863 0.70196078
0.43529412 0.39215686 0.39607843
0.43529412 0.39215686 0.39607843
0.43529412 0.39215686 0.39607843
0.43382353 0.39215686 0.39607843
0.43382353 0.39142157 0.39534314
0.43137255 0.39068627 0.39460784
0.43137255 0.38823529 0.39215686
0.43137255 0.38823529 0.39215686
0.43137255 0.38823529 0.39215686
0.43474265 0.39368873 0.39761029
0.44411765 0.40098039 0.40735294
0.45441176 0.41127451 0.41911765
0.46078431 0.42083333 0.42671569
0.46697304 0.42775735 0.43400735
0.47352941 0.43431373 0.44105392
0.48474265 0.44705882 0.45490196
0.5004902 0.46519608 0.47058824
0.51770833 0.48333333 0.48817402
0.53529412 0.50392157 0.50747549
0.55196078 0.5245098 0.52481618
0.56985294 0.54509804 0.54436275
0.58903186 0.56421569 0.56176471
0.60588235 0.58235294 0.57904412
0.62107843 0.59901961 0.59362745
0.63137255 0.61176471 0.60392157
0.43529412 0.39215686 0.39607843
0.43529412 0.39215686 0.39607843
0.43529412 0.39215686 0.39607843
0.43481158 0.39215686 0.39607843
0.43382353 0.39215686 0.39607843
0.43137255 0.39068627 0.39460784
0.43137255 0.38861826 0.39253983
0.43137255 0.38823529 0.39215686
0.43137255 0.38823529 0.39215686
0.43474265 0.39313725 0.39761029
0.44411765 0.40343137 0.40840993
0.45441176 0.41372549 0.41911765
0.46155025 0.42233456 0.42840074
0.46849724 0.42928156 0.43571538
0.47552083 0.43768382 0.44460784
0.48627451 0.44910386 0.45602788
0.5004902 0.4661152 0.4721201
0.51770833 0.48578431 0.49005055
0.53529412 0.50392157 0.50784314
0.55196078 0.5245098 0.52493107
0.56985294 0.54509804 0.54509804
0.58921569 0.56550245 0.56176471
0.60588235 0.58273591 0.5792739
0.62107843 0.59997702 0.59362745
0.63137255 0.61176471 0.60392157
0.43529412 0.39497549 0.39889706
0.43529412 0.39497549 0.39889706
0.43529412 0.39460784 0.39852941
0.43529412 0.39276961 0.39669118
0.43529412 0.39215686 0.39607843
0.43419118 0.39215686 0.39607843
0.43244485 0.39132966 0.39525123
0.43198529 0.39068627 0.39460784
0.43198529 0.39068627 0.39460784
0.43705576 0.39483762 0.39875919
0.44457721 0.40490196 0.40882353
0.45441176 0.41519608 0.41911765
0.4625 0.42438725 0.42941176
0.47094056 0.43247549 0.43860294
0.47999387 0.44276961 0.44889706
0.49056373 0.45412071 0.4605239
0.50196078 0.46948529 0.4745098
0.51862745 0.4872549 0.49117647
0.53529412 0.50618873 0.50784314
0.55196078 0.5245098 0.52843137
0.57058824 0.54509804 0.54509804
0.58921569 0.56568627 0.56176471
0.6064951 0.58351716 0.57987132
0.62213542 0.60147059 0.595481
0.63419118 0.61176471 0.6067402
0.4377451 0.39607843 0.4
0.4377451 0.39607843 0.4
0.43743873 0.39607843 0.4
0.43556219 0.39591759 0.39983915
0.43529412 0.39525123 0.39917279
0.43529412 0.39430147 0.39822304
0.43529412 0.39269301 0.39661458
0.43511029 0.39215686 0.39607843
