site/assets/luts/natron-haldclut--fuji3513-cuspclip--54d2c633c.cube
# LUTr-Project: LUTr — LUTrepository
# LUTr-Schema-Version: 1
# LUTr-ID: natron-haldclut--fuji3513-cuspclip--54d2c633c
# LUTr-Title: fuji3513 cuspclip
# LUTr-Collection: Natron HaldCLUT
# LUTr-Collection-ID: natron-haldclut-presets
# LUTr-Source: https://github.com/NatronGitHub/clut
# LUTr-Source-File: submissions/natron-haldclut-presets/print/fuji3513_cuspclip.png
# LUTr-Source-Format: PNG
# LUTr-Source-SHA256: f81e93ca86fe8f29bb608716da852d3320b23b887bb9e1475ae0508893749ac4
# LUTr-License: CC-BY-SA-4.0
# LUTr-License-URL: https://github.com/NatronGitHub/clut#license
# LUTr-Tags: creative, film, film-emulation, hald-clut, natron, png, cube
# LUTr-Transform-Class: film-emulation
# LUTr-Input-Color-Space: srgb
# LUTr-Output-Color-Space: srgb
# LUTr-Color-Space-Confidence: assumed-display-referred
# LUTr-Conversion-Method: PNG LUT image decoded at 16-bit and sampled to 25x25x25 3D CUBE
# LUTr-Conversion-Date: 2026-07-27
# LUTr-Conversion-Tool: LUTr scripts/convert-all-to-cube.mjs
# LUTr-Conversion-Grid: 25x25x25
# LUTr-Note: Preserve this metadata and the upstream license notices when redistributing.
TITLE "fuji3513 cuspclip"
LUT_3D_SIZE 25
DOMAIN_MIN 0 0 0
DOMAIN_MAX 1 1 1
0 0 0.011764706
0.006372549 0.006372549 0.014215686
0.015686275 0.011764706 0.015686275
0.023039216 0.015686275 0.015686275
0.037254902 0.021568627 0.017647059
0.04754902 0.024019608 0.019607843
0.057843137 0.02745098 0.019607843
0.092156863 0.031372549 0.014215686
0.1254902 0.035294118 0.0078431373
0.16372549 0.035294118 0
0.2245098 0.031372549 0
0.28333333 0.031372549 0
0.32745098 0.025490196 0
0.35833333 0.014705882 0
0.38921569 0.00098039216 0
0.44264706 0.013235294 0
0.49411765 0.02745098 0
0.52647059 0.02745098 0
0.54607843 0.018627451 0
0.55245098 0.0083333333 0
0.56862745 0.0058823529 0
0.58088235 0.0044117647 0
0.58431373 0.014705882 0
0.58676471 0.014215686 0
0.57647059 0 0
0.0039215686 0.014215686 0.018137255
0.010294118 0.016666667 0.018137255
0.016666667 0.018137255 0.018137255
0.023039216 0.018137255 0.015992647
0.037254902 0.024019608 0.018872549
0.04754902 0.026470588 0.019607843
0.059681373 0.029901961 0.019607843
0.099448529 0.037745098 0.015134804
0.13823529 0.045588235 0.0078431373
0.18186275 0.045588235 0.003002451
0.23370098 0.043137255 0.0024509804
0.28658088 0.037745098 0.00030637255
0.33578431 0.037009804 0
0.37426471 0.025490196 0
0.41311275 0.023039216 0
0.45612745 0.022120098 0
0.49411765 0.02745098 0
0.52254902 0.028921569 0
0.54375 0.024509804 0
0.56256127 0.021078431 0
0.57181373 0.0083333333 0
0.58088235 0.0022671569 0
0.59007353 0.022303922 0
0.59552696 0.037193627 0
0.59705882 0.045098039 0
0.0088235294 0.028431373 0.023529412
0.011764706 0.030269608 0.025367647
0.019607843 0.028431373 0.023529412
0.026960784 0.029289216 0.020588235
0.041176471 0.034803922 0.023529412
0.051593137 0.040196078 0.024509804
0.070098039 0.043382353 0.023529412
0.1127451 0.050122549 0.018137255
0.15392157 0.055882353 0.011764706
0.19963235 0.059803922 0.006004902
0.24901961 0.056617647 0.0039215686
0.29669118 0.052941176 0.0039215686
0.34215686 0.048529412 0
0.38737745 0.045098039 0
0.43161765 0.045833333 0
0.47120098 0.046078431 0
0.50882353 0.05 0
0.53333333 0.05 0
0.55784314 0.046078431 0
0.57696078 0.039093137 0
0.58480392 0.026960784 0
0.59166667 0.025367647 0
0.60343137 0.051960784 0
0.61127451 0.078921569 0
0.61764706 0.097058824 0
0.011764706 0.042647059 0.02745098
0.015502451 0.040012255 0.02745098
0.020588235 0.03872549 0.026102941
0.030821078 0.042156863 0.026531863
0.041176471 0.046568627 0.02745098
0.055392157 0.050490196 0.02745098
0.081862745 0.056985294 0.027083333
0.12303922 0.063541667 0.018137255
0.16421569 0.070098039 0.011764706
0.21176471 0.072242647 0.0078431373
0.26311275 0.073529412 0.0039215686
0.31035539 0.070098039 0.0039215686
0.35784314 0.069362745 0
0.40882353 0.076470588 0
0.4564951 0.076960784 0
0.50098039 0.08057598 0
0.53970588 0.084803922 0
0.55876225 0.080882353 0
0.57745098 0.076960784 0
0.59417892 0.069607843 0
0.60857843 0.064705882 0
0.61519608 0.073039216 0
0.62279412 0.093995098 0
0.62665441 0.11734069 0
0.63088235 0.12009804 0
0.0078431373 0.056862745 0.033333333
0.012990196 0.053676471 0.031372549
0.020098039 0.050980392 0.029411765
0.030637255 0.054411765 0.029411765
0.044117647 0.057843137 0.031372549
0.055882353 0.06127451 0.033333333
0.083333333 0.067647059 0.029901961
0.12156863 0.077205882 0.024754902
0.16666667 0.084313725 0.017647059
0.22132353 0.0875 0.0093137255
0.27156863 0.092156863 0.0039215686
0.32622549 0.090196078 0
0.37843137 0.098039216 0
0.43406863 0.10833333 0
0.48382353 0.11372549 0
0.52671569 0.11715686 0
0.55882353 0.11960784 0
0.57745098 0.1125 0
0.59411765 0.10784314 0
0.61470588 0.10980392 0
0.63333333 0.10588235 0
0.63921569 0.12254902 0
0.63921569 0.13921569 0
0.64191176 0.14705882 0
0.64313725 0.14705882 0
0.0034313725 0.071078431 0.035784314
0.0073529412 0.071568627 0.035784314
0.012254902 0.075490196 0.035784314
0.022058824 0.075919118 0.036213235
0.034558824 0.075490196 0.035539216
0.051960784 0.079411765 0.035294118
0.083333333 0.083333333 0.035294118
0.11783088 0.08872549 0.031372549
0.16078431 0.095098039 0.024019608
0.22254902 0.10294118 0.013235294
0.27683824 0.11041667 0.0029411765
0.33523284 0.11470588 0
0.39705882 0.12892157 0
0.45790441 0.14313725 0
0.50980392 0.1504902 0
0.55196078 0.1504902 0
0.58578431 0.14656863 0
0.60392157 0.14656863 0
0.61862745 0.14313725 0
0.63627451 0.14613971 0
0.65955882 0.14877451 0
0.65980392 0.15974265 0
0.6627451 0.17303922 0
0.66813725 0.17971814 0
0.66813725 0.18186275 0
0 0.10196078 0.049019608
0.0006127451 0.099019608 0.046078431
0.0049019608 0.096078431 0.045343137
0.0083333333 0.096078431 0.043137255
0.017647059 0.094607843 0.039215686
0.045588235 0.1004902 0.039093137
0.076470588 0.10980392 0.035294118
0.11678922 0.11580882 0.031985294
0.17156863 0.1254902 0.024509804
0.23272059 0.13284314 0.013235294
0.29313725 0.14215686 0.0029411765
0.3557598 0.15245098 0
0.41764706 0.16323529 0
0.47806373 0.17696078 0
0.53039216 0.1872549 0
0.57647059 0.18713235 0
0.61078431 0.18431373 0
0.62794118 0.18137255 0
0.64215686 0.18039216 0
0.65747549 0.18039216 0
0.67156863 0.18480392 0
0.67781863 0.19656863 0
0.6872549 0.20392157 0
0.69546569 0.2127451 0
0.69607843 0.2127451 0
0 0.13921569 0.061764706
0 0.13621324 0.060294118
0 0.13039216 0.055759804
0 0.12254902 0.049019608
0.0051470588 0.11838235 0.043872549
0.031188725 0.13039216 0.039215686
0.06629902 0.13737745 0.035294118
0.12610294 0.14944853 0.02689951
0.18578431 0.15882353 0.018137255
0.24901961 0.17064951 0.0087622549
0.31470588 0.18370098 0.0039215686
0.37647059 0.19754902 0
0.43823529 0.20392157 0
0.49607843 0.21403186 0
0.55098039 0.21948529 0
0.59705882 0.22401961 0
0.625 0.22156863 0
0.64558824 0.22156863 0
0.65943627 0.21764706 0
0.67518382 0.21617647 0
0.68651961 0.22205882 0
0.69773284 0.23382353 0.00018382353
0.71176471 0.24227941 0.0014705882
0.72205882 0.25140931 0.0014705882
0.7245098 0.25441176 0.0014705882
0 0.17647059 0.074509804
0 0.17254902 0.070588235
0 0.16764706 0.065686275
0 0.16470588 0.059313725
0.0058823529 0.16470588 0.050980392
0.020098039 0.16078431 0.042647059
0.064705882 0.17156863 0.032352941
0.12794118 0.18186275 0.022058824
0.19607843 0.19215686 0.011764706
0.26421569 0.21029412 0.0078431373
0.33137255 0.2245098 0.0039215686
0.39313725 0.23872549 0.00049019608
0.45490196 0.24901961 0
0.5127451 0.25539216 0
0.56764706 0.25882353 0
0.61617647 0.26029412 0
0.64313725 0.26666667 0.0039215686
0.66764706 0.27058824 0.0039215686
0.68333333 0.26666667 0.0039215686
0.69754902 0.2627451 0.0039215686
0.70784314 0.26862745 0.0019607843
0.72205882 0.27941176 0.0039215686
0.73235294 0.29313725 0.0078431373
0.74117647 0.2995098 0.011764706
0.74509804 0.30196078 0.011764706
0 0.20735294 0.084803922
0 0.20735294 0.07935049
0 0.20870098 0.075980392
0.0037377451 0.20980392 0.069607843
0.0085784314 0.20980392 0.059313725
0.014031863 0.20618873 0.042156863
0.036519608 0.20698529 0.020220588
0.10189951 0.21911765 0.0078431373
0.18970588 0.2372549 0.0053921569
0.27022059 0.25091912 0.0039215686
0.33982843 0.26384804 0.0011029412
0.40686275 0.27941176 0
0.47156863 0.29264706 0
0.53333333 0.30539216 0
0.59178922 0.31213235 0
0.64215686 0.31905637 0.0039215686
0.67401961 0.32598039 0.010294118
0.70006127 0.32843137 0.014215686
0.71813725 0.32561275 0.014215686
0.72843137 0.3245098 0.010784314
0.73480392 0.3252451 0.0051470588
0.74264706 0.33431373 0.0039215686
0.75294118 0.34460784 0.0072303922
0.76084559 0.35042892 0.013235294
0.76176471 0.35343137 0.015686275
0 0.23921569 0.091176471
0 0.24558824 0.089338235
0.00073529412 0.25269608 0.087990196
0.0029411765 0.25490196 0.083455882
0.0039215686 0.25098039 0.074509804
0.0039215686 0.24754902 0.043137255
0.0073529412 0.23848039 0.006372549
0.087745098 0.25784314 0
0.18333333 0.2745098 0
0.27058824 0.28627451 0
0.34926471 0.30196078 0
0.42561275 0.32634804 0
0.49460784 0.34607843 0
0.55735294 0.35833333 0
0.6127451 0.36544118 0
0.66421569 0.375 0.0053921569
0.70098039 0.38235294 0.011764706
0.72904412 0.38529412 0.020220588
0.75196078 0.38627451 0.024264706
0.75845588 0.38627451 0.016176471
0.75980392 0.38431373 0.0068627451
0.76323529 0.38186275 0.00036764706
0.77352941 0.39607843 0.0068627451
0.7817402 0.4060049 0.012132353
0.78235294 0.40784314 0.015686275
0 0.29509804 0.11960784
0 0.29932598 0.11617647
0 0.30404412 0.1120098
0 0.3004902 0.10539216
0 0.29387255 0.093382353
0.0038602941 0.29595588 0.067156863
0 0.29215686 0.0096813725
0.092647059 0.30980392 0
0.19117647 0.33039216 0
0.28382353 0.34283088 0
0.375 0.36335784 0
0.45692402 0.38817402 0
0.52745098 0.40465686 0
0.57794118 0.40931373 0
0.62977941 0.41360294 0
0.68118873 0.42647059 0.0053921569
0.7245098 0.43676471 0.015686275
0.75294118 0.44460784 0.019914216
0.77254902 0.44803922 0.023529412
0.78284314 0.44803922 0.016176471
0.78504902 0.44436275 0.0098039216
0.79117647 0.44411765 0.0034313725
0.80183824 0.45404412 0.0039215686
0.80508578 0.45637255 0.0093137255
0.79901961 0.45637255 0.019607843
0 0.35686275 0.15294118
0 0.36078431 0.15171569
0 0.36029412 0.14607843
0 0.35514706 0.13210784
0 0.34509804 0.12058824
0.0039215686 0.34779412 0.087009804
0 0.34068627 0.010784314
0.094607843 0.36176471 0
0.20588235 0.38627451 0
0.30245098 0.40490196 0
0.39509804 0.42941176 0
0.48235294 0.45343137 0
0.55098039 0.46666667 0
0.60196078 0.46666667 0
0.64852941 0.46470588 0
0.69754902 0.48137255 0.0053921569
0.74509804 0.49803922 0.011764706
0.77867647 0.50710784 0.019607843
0.79117647 0.50735294 0.019607843
0.80147059 0.50392157 0.015931373
0.80882353 0.50490196 0.011764706
0.81397059 0.50392157 0.0075980392
0.82058824 0.50686275 0.0073529412
0.83063725 0.51764706 0.010539216
0.83333333 0.52156863 0.01372549
0 0.41372549 0.18529412
0 0.41764706 0.18529412
0.00012254902 0.41421569 0.17696078
0.0039215686 0.40686275 0.16317402
0.0051470588 0.39681373 0.14828431
0.0083333333 0.39901961 0.10386029
0.0073529412 0.39558824 0.024019608
0.09442402 0.41323529 0.0042279412
0.20343137 0.4372549 0
0.30637255 0.46078431 0
0.40502451 0.48688725 0
0.49846814 0.51127451 0
0.57107843 0.52598039 0
0.62310049 0.52849265 0
0.67757353 0.53272059 0.0030637255
0.725 0.54607843 0.0039215686
0.77009804 0.55980392 0.0078431373
0.7995098 0.56734069 0.015502451
0.80980392 0.56237745 0.015686275
0.81666667 0.55631127 0.015686275
0.83210784 0.56127451 0.015686275
0.84068627 0.56372549 0.015747549
0.84362745 0.56666667 0.012254902
0.85520833 0.57714461 0.010477941
0.86372549 0.58676471 0.0083333333
0 0.44803922 0.19901961
0 0.45196078 0.19901961
0.0078431373 0.45588235 0.19803922
0.017279412 0.45490196 0.18933824
0.02745098 0.45196078 0.17843137
0.024632353 0.45036765 0.13419118
0.026470588 0.45245098 0.06127451
0.079044118 0.45784314 0.015073529
0.19705882 0.47843137 0
0.30477941 0.50931373 0
0.40882353 0.53921569 0
0.50539216 0.5627451 0
0.58333333 0.58088235 0
0.64411765 0.59068627 0.0030637255
0.70122549 0.59803922 0.0039215686
0.75294118 0.61127451 0.0039215686
0.79705882 0.62156863 0.0039215686
0.82193627 0.62365196 0.010661765
0.83333333 0.61838235 0.018627451
0.84362745 0.61384804 0.02254902
0.85588235 0.61813725 0.026470588
0.87156863 0.62843137 0.026470588
0.87230392 0.62916667 0.02254902
0.87916667 0.63602941 0.014215686
0.88039216 0.63823529 0.0078431373
0 0.47892157 0.20931373
0.00091911765 0.4783701 0.20931373
0.0088235294 0.48345588 0.20539216
0.021262255 0.48890931 0.20410539
0.038235294 0.49191176 0.20073529
0.03627451 0.49460784 0.16648284
0.024877451 0.49178922 0.093627451
0.053186275 0.49601716 0.034191176
0.17352941 0.52745098 0.0093137255
0.31170343 0.55349265 0
0.41813725 0.58321078 0
0.51078431 0.60882353 0
0.59705882 0.63210784 0.00073529412
0.66060049 0.64313725 0.0053921569
0.71813725 0.65232843 0.0078431373
0.76960784 0.66072304 0.0093137255
0.81715686 0.67401961 0.0068627451
0.84258578 0.67493873 0.014767157
0.85588235 0.67009804 0.027818627
0.86911765 0.67009804 0.032843137
0.87794118 0.67132353 0.03872549
0.89215686 0.68088235 0.040196078
0.89558824 0.68431373 0.033823529
0.89558824 0.68431373 0.018688725
0.89313725 0.68284314 0.0044117647
0.0078431373 0.50196078 0.22352941
0.0078431373 0.50686275 0.22205882
0.014705882 0.5127451 0.22156863
0.011764706 0.50931373 0.20833333
0.0078431373 0.51372549 0.20196078
0.0073529412 0.51764706 0.16911765
0.00098039216 0.52058824 0.10392157
0.027941176 0.53088235 0.042156863
0.13333333 0.55686275 0.0039215686
0.32745098 0.59166667 0
0.42941176 0.61862745 0
0.525 0.64215686 0.0039215686
0.61568627 0.67058824 0.0058823529
0.68088235 0.69068627 0.0083333333
0.73235294 0.69803922 0.011764706
0.78235294 0.70735294 0.015686275
0.81960784 0.70980392 0.023529412
0.84656863 0.70980392 0.029901961
0.86862745 0.70980392 0.040196078
0.88578431 0.71323529 0.046568627
0.89019608 0.71372549 0.050980392
0.89852941 0.71764706 0.047058824
0.90196078 0.71764706 0.044117647
0.90735294 0.71764706 0.037745098
0.90980392 0.71764706 0.031372549
0.028431373 0.52254902 0.23382353
0.021446078 0.52738971 0.23229167
0.00625 0.52512255 0.22365196
0.0052083333 0.52990196 0.21599265
0.0083333333 0.53431373 0.20906863
0.010110294 0.53903186 0.18020833
0.0042892157 0.54571078 0.11813725
0.037132353 0.55839461 0.049448529
0.13676471 0.57990196 0.006372549
0.32107843 0.61617647 0.0024509804
0.43688725 0.64852941 0.0039215686
0.53284314 0.67058824 0.0039215686
0.62671569 0.70098039 0.0090686275
0.69901961 0.72518382 0.01439951
0.74693627 0.73039216 0.015686275
0.79264706 0.73578431 0.023529412
0.82598039 0.74068627 0.03627451
0.85594363 0.74068627 0.046568627
0.88284314 0.74129902 0.054411765
0.89607843 0.74460784 0.059497549
0.90367647 0.74607843 0.06127451
0.91127451 0.74852941 0.06372549
0.91801471 0.74852941 0.06372549
0.92310049 0.74908088 0.059803922
0.92401961 0.74852941 0.058333333
0.051960784 0.53921569 0.23921569
0.023039216 0.54313725 0.23737745
0.01127451 0.54387255 0.23284314
0.021078431 0.5504902 0.225
0.023529412 0.55441176 0.21372549
0.017647059 0.56176471 0.18443627
0.0024509804 0.56642157 0.12647059
0.057230392 0.57953431 0.05245098
0.15588235 0.59803922 0.0039215686
0.30036765 0.63468137 0.0045343137
0.4245098 0.66666667 0.0056372549
0.53517157 0.69497549 0.0078431373
0.62696078 0.71911765 0.0098039216
0.69583333 0.73786765 0.015808824
0.75588235 0.74901961 0.02254902
0.80294118 0.75637255 0.033210784
0.83921569 0.7627451 0.044117647
0.86862745 0.76666667 0.058333333
0.89387255 0.76838235 0.067647059
0.90723039 0.77058824 0.071568627
0.92107843 0.77058824 0.073529412
0.92794118 0.77193627 0.075490196
0.93357843 0.7745098 0.078431373
0.93823529 0.77745098 0.078431373
0.93823529 0.77745098 0.078431373
0.021078431 0.55245098 0.23921569
0.0098039216 0.55655637 0.23958333
0.014583333 0.55735294 0.23529412
0.041237745 0.57064951 0.23829657
0.015931373 0.56593137 0.21176471
0.0044117647 0.56862745 0.17794118
0.010294118 0.57892157 0.11017157
0.07254902 0.59313725 0.039093137
0.18627451 0.61862745 0.0039215686
0.32567402 0.65557598 0.0039215686
0.44656863 0.68688725 0.0044117647
0.54307598 0.71176471 0.0074142157
0.63235294 0.73455882 0.0098039216
0.70398284 0.75294118 0.016176471
0.76703431 0.76666667 0.025122549
0.8096201 0.77334559 0.038051471
0.84656863 0.77990196 0.054411765
0.87745098 0.78596814 0.065012255
0.90735294 0.78860294 0.075367647
0.92058824 0.79117647 0.078431373
0.93480392 0.79313725 0.083823529
0.94803922 0.79509804 0.085784314
0.94583333 0.79252451 0.083210784
0.94460784 0.78805147 0.082352941
0.94460784 0.7877451 0.081862745
0.025490196 0.56078431 0.24509804
0.026470588 0.56813725 0.25857843
0.019607843 0.56764706 0.24117647
0.032843137 0.57622549 0.23382353
0.02254902 0.57647059 0.21568627
0.0090686275 0.58063725 0.16372549
0.01372549 0.5877451 0.071568627
0.083823529 0.60759804 0.019852941
0.2254902 0.63921569 0.0058823529
0.36078431 0.67328431 0.00073529412
0.46960784 0.70196078 0.0019607843
0.56593137 0.72622549 0.0039215686
0.64705882 0.75 0.0078431373
0.71862745 0.77132353 0.013970588
0.77352941 0.78186275 0.02745098
0.81960784 0.7877451 0.044117647
0.85686275 0.79411765 0.058823529
0.89166667 0.79803922 0.069117647
0.91764706 0.80196078 0.078921569
0.93431373 0.80196078 0.084068627
0.94705882 0.80686275 0.08627451
0.95294118 0.80759804 0.08627451
0.9495098 0.80294118 0.083333333
0.94705882 0.79803922 0.082352941
0.94705882 0.79803922 0.082352941
0.049509804 0.56176471 0.24754902
0.035784314 0.57126225 0.25098039
0.029534314 0.57794118 0.24693627
0.022610294 0.5838848 0.22708333
0.01372549 0.58676471 0.19877451
0.00049019608 0.58970588 0.13964461
0 0.59007353 0.020220588
0.096078431 0.62156863 0.018137255
0.23284314 0.64019608 0
0.35245098 0.675 0.00030637255
0.46764706 0.70588235 0.00036764706
0.57610294 0.73633578 0.00042892157
0.65735294 0.76102941 0.0058823529
0.72892157 0.78137255 0.012745098
0.78382353 0.79166667 0.03370098
0.82990196 0.79803922 0.052634804
0.86715686 0.80441176 0.063235294
0.90245098 0.80863971 0.073529412
0.92781863 0.8122549 0.082352941
0.94417892 0.81525735 0.086703431
0.95514706 0.81617647 0.086519608
0.95643382 0.81525735 0.085845588
0.95036765 0.80919118 0.082843137
0.9536152 0.80851716 0.082843137
0.95784314 0.8122549 0.083333333
0.015686275 0.5754902 0.25392157
0.01127451 0.57610294 0.24742647
0.014460784 0.58823529 0.23529412
0.0093137255 0.59117647 0.20392157
0.0019607843 0.59264706 0.15931373
0.0039215686 0.6060049 0.10661765
0 0.60980392 0.016911765
0.11617647 0.63443627 0.0056372549
0.25686275 0.66372549 0.0068627451
0.39019608 0.69227941 0.0039215686
0.50416667 0.72352941 0.0039215686
0.58860294 0.7504902 0.0068627451
0.66764706 0.76960784 0.0073529412
0.73909314 0.7877451 0.012377451
0.79313725 0.79803922 0.034313725
0.84019608 0.80833333 0.050490196
0.88137255 0.81470588 0.06372549
0.91433824 0.82107843 0.076960784
0.93357843 0.81862745 0.083333333
0.94803922 0.81960784 0.088848039
0.95833333 0.82254902 0.090196078
0.96078431 0.81948529 0.089215686
0.96348039 0.82083333 0.089215686
0.96813725 0.82254902 0.097058824
0.9754902 0.82254902 0.1
0.0039215686 0.59117647 0.26568627
0.0048406863 0.59117647 0.25202206
0.006372549 0.60147059 0.21875
0.0073529412 0.60637255 0.19313725
0.0024509804 0.61397059 0.13137255
0.017095588 0.62285539 0.10367647
0.040318627 0.6314951 0.035416667
0.15729167 0.65238971 0.010294118
0.30392157 0.67598039 0.0024509804
0.43008578 0.70686275 0.0024509804
0.51703431 0.73492647 0.0078431373
0.59754902 0.76127451 0.0078431373
0.67647059 0.77990196 0.0085784314
0.74822304 0.79442402 0.0081495098
0.80441176 0.80686275 0.018872549
0.85196078 0.81470588 0.033823529
0.89166667 0.82352941 0.045588235
0.91862745 0.82352941 0.075490196
0.93529412 0.82352941 0.083333333
0.94852941 0.82352941 0.090196078
0.96029412 0.825 0.090196078
0.97058824 0.8276348 0.089889706
0.97977941 0.83431373 0.080882353
0.97794118 0.83284314 0.11476716
0.98039216 0.83284314 0.12058824
0 0.60784314 0.28627451
0.0078431373 0.60784314 0.25931373
0.0078431373 0.60784314 0.22352941
0.0078431373 0.61127451 0.19313725
0 0.62352941 0.094117647
0.024509804 0.63676471 0.10294118
0.096078431 0.65392157 0.017647059
0.19852941 0.66715686 0.016666667
0.36862745 0.70196078 0
0.42696078 0.71617647 0.0039215686
0.51764706 0.74803922 0.012745098
0.6004902 0.77156863 0.016666667
0.68039216 0.78627451 0.0098039216
0.75245098 0.8004902 0.0034313725
0.80784314 0.81078431 0.01372549
0.85686275 0.81715686 0.028921569
0.89411765 0.82352941 0.047058824
0.92107843 0.82745098 0.080392157
0.93823529 0.82745098 0.082352941
0.95245098 0.82696078 0.082843137
0.96666667 0.83137255 0.082352941
0.97696078 0.83137255 0.094117647
0.98039216 0.83529412 0.094117647
0.98039216 0.83529412 0.11813725
0.98039216 0.83529412 0.12941176
0.0024509804 0.0078431373 0.018137255
0.0078431373 0.009375 0.018137255
0.015686275 0.011764706 0.015686275
0.023039216 0.015686275 0.015686275
0.037254902 0.021568627 0.018872549
0.051286765 0.02745098 0.023529412
0.063602941 0.02745098 0.023529412
0.092156863 0.031372549 0.020588235
0.12794118 0.035294118 0.011764706
0.17401961 0.032843137 0.0048406863
0.2245098 0.027941176 0
0.27745098 0.021568627 0
0.32916667 0.022794118 0
0.36893382 0.01127451 0
0.41568627 0.0078431373 0
0.45784314 0.0069240196 0
0.50588235 0.010784314 0
0.53186275 0.012254902 0
0.54215686 0.010416667 0
0.55030637 0.0044117647 0
0.56421569 0.0039215686 0
0.57696078 0.0081495098 0
0.58615196 0.014705882 0
0.59068627 0.01807598 0
0.59068627 0.010294118 0
0.0039215686 0.018137255 0.022977941
0.010294118 0.018137255 0.021829044
0.016666667 0.018137255 0.018826593
0.023039216 0.018137255 0.015992647
0.038480392 0.024019608 0.019607843
0.051470588 0.029901961 0.023529412
0.065441176 0.031740196 0.025061275
0.10132506 0.037745098 0.019056373
0.14215686 0.042585784 0.011764706
0.18727788 0.044669118 0.0048406863
0.2373315 0.038204657 0.0035539216
0.28707874 0.032904412 0
0.3377451 0.031372549 0
0.38320312 0.022748162 0
0.42810968 0.01875 0
0.46650582 0.014422488 0
0.50588235 0.011703431 0
0.53339461 0.013212316 0
0.55134804 0.019561887 0
0.56401654 0.020588235 0
0.57772672 0.013480392 0
0.5848652 0.0057061887 0
0.59276961 0.019822304 0
0.59742647 0.035883885 0
0.59987745 0.047794118 0
0.0042892157 0.032352941 0.028063725
0.010661765 0.032352941 0.026991422
0.018229167 0.031158088 0.024142157
0.02700674 0.031020221 0.022564338
0.040257353 0.034803922 0.023835784
0.05268076 0.040196078 0.026348039
0.073008578 0.043382353 0.026072304
0.1127451 0.049509804 0.018137255
0.15392157 0.055882353 0.011764706
0.20277267 0.058655025 0.0078431373
0.25340074 0.055147059 0.0039215686
0.30137868 0.049433211 0.0039215686
0.34901961 0.043688725 0
0.39797794 0.03760723 0
0.44292279 0.034803922 0
0.48180147 0.033563113 0
0.52022059 0.033088235 0
0.54473039 0.035615809 0
0.56433824 0.040594363 0
0.58382353 0.042064951 0
0.59460784 0.029656863 0
0.60393689 0.025122549 0
0.61188725 0.052420343 0
0.61659007 0.079610907 0
0.62058824 0.10281863 0
0.0056985294 0.045098039 0.033517157
0.012683824 0.043451287 0.032061887
0.01997549 0.042279412 0.029595588
0.028408395 0.042647059 0.027558211
0.041819853 0.046568627 0.02745098
0.055392157 0.050490196 0.029595588
0.081985294 0.056985294 0.027313113
0.12303922 0.063541667 0.018137255
0.16421569 0.069791667 0.011764706
0.21421569 0.070098039 0.0078431373
0.26697304 0.070098039 0.0068627451
0.31688879 0.069607843 0.0039215686
0.36525735 0.066819853 0
0.41599265 0.066214767 0
0.46518076 0.066176471 0
0.50440411 0.075490196 0
0.54019608 0.087745098 0
0.56482077 0.085186887 0
0.58382353 0.076378676 0
0.60425092 0.071484375 0
0.61519608 0.068535539 0
0.6254902 0.073039216 0
0.63203125 0.094117647 0
0.63413756 0.11279105 0
0.63676471 0.1245098 0
0.0039215686 0.058088235 0.036519608
0.010569853 0.056403186 0.036519608
0.017218137 0.054166667 0.034558824
0.027696078 0.054810049 0.033915441
0.043137255 0.058210784 0.032598039
0.055882353 0.06127451 0.033333333
0.08627451 0.068137255 0.028982843
0.12643995 0.077205882 0.022334559
