site/assets/luts/natron-haldclut--kodak-portra-400-nc---d669454b9.cube
# LUTr-Project: LUTr — LUTrepository
# LUTr-Schema-Version: 1
# LUTr-ID: natron-haldclut--kodak-portra-400-nc---d669454b9
# LUTr-Title: kodak portra 400 nc -
# LUTr-Collection: Natron HaldCLUT
# LUTr-Collection-ID: natron-haldclut-presets
# LUTr-Source: https://github.com/NatronGitHub/clut
# LUTr-Source-File: submissions/natron-haldclut-presets/negative_old/kodak_portra_400_nc_-.png
# LUTr-Source-Format: PNG
# LUTr-Source-SHA256: 109729ae131b5e1622bb6c496cbe253305cd3217bd7dbcd5e69b42406514acf0
# LUTr-License: CC-BY-SA-4.0
# LUTr-License-URL: https://github.com/NatronGitHub/clut#license
# LUTr-Tags: creative, film, film-emulation, hald-clut, natron, png, cube
# LUTr-Transform-Class: film-emulation
# LUTr-Input-Color-Space: srgb
# LUTr-Output-Color-Space: srgb
# LUTr-Color-Space-Confidence: assumed-display-referred
# LUTr-Conversion-Method: PNG LUT image decoded at 16-bit and sampled to 25x25x25 3D CUBE
# LUTr-Conversion-Date: 2026-07-27
# LUTr-Conversion-Tool: LUTr scripts/convert-all-to-cube.mjs
# LUTr-Conversion-Grid: 25x25x25
# LUTr-Note: Preserve this metadata and the upstream license notices when redistributing.
TITLE "kodak portra 400 nc -"
LUT_3D_SIZE 9
DOMAIN_MIN 0 0 0
DOMAIN_MAX 1 1 1
0.0078431373 0.023529412 0.011764706
0.06127451 0.015686275 0.020098039
0.15784314 0.014705882 0
0.36372549 0.036764706 0
0.5627451 0.0019607843 0.0019607843
0.725 0.021078431 0.023529412
0.84607843 0.025490196 0.0039215686
0.93480392 0.095098039 0.0039215686
1 0.14901961 0
0 0.030882353 0.00049019608
0.066176471 0.068198529 0.015686275
0.19509804 0.095098039 0.015686275
0.38382353 0.11697304 0.0039215686
0.58970588 0.10367647 0.0078431373
0.73743873 0.084987745 0.0083333333
0.85392157 0.1372549 0.00036764706
0.93480392 0.18290441 0
0.99215686 0.19901961 0
0 0.20588235 0.052941176
0.02745098 0.1942402 0.021568627
0.1872549 0.24338235 0.0080882353
0.41862745 0.28431373 0.0053921569
0.62794118 0.27843137 0.0039215686
0.76813725 0.25894608 0.0039215686
0.86176471 0.2627451 0
0.94607843 0.28370098 0
0.98529412 0.2872549 0
0.014215686 0.38480392 0.14460784
0.0078431373 0.3872549 0.12303922
0.20294118 0.4004902 0.067647059
0.40294118 0.43970588 0.0093137255
0.61666667 0.45343137 0.0039215686
0.76176471 0.42009804 0.0039215686
0.86507353 0.41409314 0.0067401961
0.95 0.40392157 0.0039215686
0.98137255 0.40343137 0.0068627451
0.01372549 0.54313725 0.21960784
0.11715686 0.54485294 0.23504902
0.25686275 0.54509804 0.22058824
0.38480392 0.55808824 0.15735294
0.54607843 0.58333333 0.016666667
0.70392157 0.5745098 0.0078431373
0.83872549 0.57401961 0.012254902
0.94411765 0.54877451 0.0075980392
0.99215686 0.52941176 0
0.26176471 0.65294118 0.35637255
0.28498775 0.65539216 0.34577206
0.35931373 0.65355392 0.33590686
0.41721814 0.65539216 0.31807598
0.53602941 0.67107843 0.25122549
0.65238971 0.69068627 0.1721201
0.80637255 0.71176471 0.016421569
0.91960784 0.69344363 0.012561275
0.99607843 0.67401961 0
0.41176471 0.75588235 0.45392157
0.43088235 0.75098039 0.45882353
0.45073529 0.74803922 0.44803922
0.50343137 0.74803922 0.44742647
0.55686275 0.75686275 0.42401961
0.64816176 0.77058824 0.38039216
0.74877451 0.78627451 0.30490196
0.87977941 0.79166667 0.22254902
0.96176471 0.79215686 0.1872549
0.55539216 0.83676471 0.58284314
0.55931373 0.83627451 0.57935049
0.58137255 0.83370098 0.57843137
0.60833333 0.83284314 0.58284314
0.64264706 0.83455882 0.56911765
0.6841299 0.84460784 0.55018382
0.77144608 0.86409314 0.51593137
0.86819853 0.88033088 0.46911765
0.96372549 0.89558824 0.40833333
0.69411765 0.91372549 0.70980392
0.70196078 0.91764706 0.71764706
0.71666667 0.92254902 0.72254902
0.73186275 0.91764706 0.72156863
0.75686275 0.9254902 0.72352941
0.77794118 0.93088235 0.70980392
0.8245098 0.95196078 0.71078431
0.8754902 0.95686275 0.67794118
0.90588235 0.96078431 0.6627451
0.015686275 0.0039215686 0.038235294
0.056862745 0.0074142157 0.049019608
0.17365196 0.0040441176 0.065686275
0.38106618 0 0.064215686
0.57230392 0.0095588235 0.069117647
0.73529412 0.0039215686 0.015379902
0.83958333 0.0024509804 0.0017156863
0.93480392 0.056372549 0.0039215686
0.99607843 0.13382353 0
0.0039215686 0.06127451 0.083884804
0.05870864 0.080392157 0.076845895
0.21050858 0.061642157 0.068198529
0.40410539 0.061458333 0.064705882
0.58529412 0.060294118 0.040686275
0.74054075 0.065035233 0.0039598652
0.84258578 0.092279412 0.0041819853
0.93474265 0.14901961 0.0077818627
0.99607843 0.19895833 0.01127451
0.0077205882 0.23370098 0.13590686
0.042279412 0.22662377 0.12581189
0.22401961 0.25196078 0.091023284
0.43921569 0.28132659 0.041176471
0.63431373 0.26182598 0.022242647
0.76429228 0.2498315 0.0076746324
0.85759804 0.25502451 0.003247549
0.94252451 0.27892157 0.0073529412
0.99607843 0.2872549 0
0.018137255 0.41568627 0.21911765
0.076164216 0.41002604 0.20278033
0.23619792 0.41515012 0.17089461
0.43756127 0.45354626 0.091973039
0.63088235 0.46354167 0.01495098
0.77892923 0.4286152 0.00099571078
0.87449449 0.40833333 0.00084252451
0.94977788 0.40441176 0.016092218
0.99558824 0.41323529 0.0012867647
0.095588235 0.54485294 0.27867647
0.1948223 0.54852941 0.29019608
0.31023284 0.54901961 0.28529412
0.41519608 0.5620098 0.24901961
0.575 0.59105392 0.12242647
0.72794118 0.59142157 0.042493873
0.8526348 0.57359069 0.0039828431
0.94656863 0.54656863 0.014460784
0.99803922 0.53676471 0
0.29313725 0.65539216 0.37401961
0.33039216 0.65539216 0.38398437
0.38480392 0.65539216 0.38071385
0.44674479 0.65539216 0.36422335
0.54347426 0.67303922 0.31397059
0.66323529 0.69215686 0.23039216
0.80667892 0.71066176 0.11150429
0.91378676 0.69166667 0.094875919
0.99558824 0.67254902 0.10098039
0.42830882 0.7557598 0.47794118
0.45032169 0.75196078 0.48443627
0.47340686 0.74803922 0.48060662
0.51323529 0.74803922 0.47340686
0.57420343 0.75931373 0.45208333
0.64437806 0.77095588 0.41279105
0.76066176 0.78648897 0.34751838
0.88284314 0.78993566 0.28509498
0.98394608 0.79215686 0.25404412
0.57107843 0.84068627 0.60539216
0.57493873 0.84068627 0.59846814
0.58932292 0.83772978 0.59454657
0.61617647 0.83676471 0.59761029
0.65398284 0.84068627 0.58823529
0.69050245 0.84618566 0.56127451
0.75980392 0.86040135 0.52696078
0.86046262 0.87555147 0.48743107
0.96415441 0.8877451 0.4495098
0.69411765 0.91372549 0.71764706
0.7153799 0.92806373 0.73498775
0.72022059 0.92414216 0.73198529
0.73547794 0.92530637 0.73284314
0.75441176 0.925 0.7247549
0.78351716 0.92892157 0.71372549
0.82022059 0.93811275 0.69362745
0.8754902 0.96078431 0.69319853
0.92892157 0.97205882 0.6627451
0.011764706 0.02254902 0.2254902
0.062132353 0.012622549 0.21764706
0.2127451 0.011764706 0.22058824
0.41654412 0 0.22941176
0.60490196 0.0039215686 0.2254902
0.7377451 0.011764706 0.21654412
0.8372549 0.0078431373 0.20906863
0.92303922 0.091666667 0.19497549
0.98921569 0.19019608 0.18627451
0.0077205882 0.084681373 0.23590686
0.024509804 0.084589461 0.23704044
0.22941176 0.082444853 0.23284314
0.42745098 0.040548407 0.22579657
0.61446078 0.0043504902 0.21764706
0.738894 0.052665441 0.21799939
0.83535539 0.099356618 0.20566789
0.92647059 0.18115809 0.19276961
0.99264706 0.225 0.20490196
0.0039215686 0.25980392 0.27230392
0.034068627 0.25281863 0.26727941
0.27401961 0.26801471 0.27843137
0.46372549 0.26792279 0.27570466
0.62745098 0.25710784 0.24215686
0.74932598 0.2604473 0.23765319
0.84901961 0.26979167 0.22181373
0.92380515 0.29727328 0.21568627
0.98897059 0.31764706 0.21348039
0.10931373 0.44938725 0.34215686
0.2036152 0.45159314 0.35096507
0.31421569 0.44767157 0.34090074
0.46637561 0.45890012 0.3066636
0.63014706 0.46795343 0.25857843
0.75320159 0.43962929 0.24845282
0.86148897 0.41994485 0.22254902
0.94105392 0.42193627 0.21335784
0.9932598 0.43235294 0.21666667
0.27794118 0.575 0.40196078
0.32371324 0.57573529 0.40784314
0.37634804 0.56973039 0.40147059
0.46335784 0.57383578 0.3783701
0.58357843 0.59289216 0.32401961
0.72977941 0.60392157 0.26893382
0.84031863 0.57352941 0.24215686
0.94050245 0.54852941 0.24442402
0.99215686 0.55294118 0.2254902
0.37647059 0.67046569 0.45882353
0.40159314 0.67401961 0.4627451
0.43869485 0.67018995 0.4627451
0.49060968 0.66614583 0.45068934
0.57156863 0.67873775 0.41047794
0.68186275 0.69460784 0.36049326
0.80775123 0.71106005 0.29702819
0.91487439 0.68792892 0.28854167
0.99460784 0.67254902 0.28762255
0.47647059 0.76372549 0.53259804
0.4872549 0.7620098 0.5338848
0.50612745 0.75882353 0.52800245
0.54733456 0.75572917 0.5247549
0.59705882 0.7627451 0.50943627
0.66286765 0.77460172 0.48112745
0.76256127 0.7872549 0.43137255
0.88333333 0.79420956 0.38872549
0.9875 0.79436275 0.36862745
0.58492647 0.84068627 0.62401961
0.59669118 0.84460784 0.63218444
0.61176471 0.84068627 0.62907475
0.63039216 0.83676471 0.62058824
0.66501225 0.84068627 0.61599265
0.70098039 0.84817708 0.60084252
0.76078431 0.85992647 0.57218137
0.848269 0.87254902 0.52958027
0.96507353 0.89509804 0.48247549
0.70882353 0.9245098 0.74019608
0.71617647 0.92536765 0.7439951
0.7245098 0.92254902 0.74191176
0.73578431 0.92156863 0.73835784
0.75882353 0.92352941 0.74215686
0.78970588 0.93272059 0.74203431
0.8254902 0.94215686 0.7245098
0.87941176 0.96127451 0.70882353
0.91470588 0.96176471 0.68137255
0 0.011764706 0.4004902
0.024816176 0.006372549 0.40655637
0.24509804 0.0082107843 0.41764706
0.44068627 0.006372549 0.41862745
0.6254902 0.011764706 0.42107843
0.76127451 0.014828431 0.390625
0.8557598 0.0034313725 0.3567402
0.93694853 0.010784314 0.31960784
0.99607843 0.18627451 0.34607843
0.0078431373 0.11078431 0.42990196
0.012852328 0.10637255 0.42228094
0.23713235 0.10580576 0.42990196
0.46606158 0.11096048 0.43382353
0.63979779 0.094515931 0.42141544
0.76127451 0.10899969 0.38871783
0.85294118 0.082843137 0.35588235
0.92894455 0.16634498 0.34787837
0.99215686 0.26507353 0.36470588
0.0078431373 0.29068627 0.44901961
0.0041666667 0.28515625 0.44878983
0.26461397 0.29436275 0.45796569
0.48973652 0.29460784 0.46585478
0.63529412 0.30275735 0.44068627
0.74581801 0.29771752 0.41433824
0.84215686 0.29571078 0.38284314
0.92446385 0.3064951 0.36599265
0.975 0.35453431 0.37303922
0.014522059 0.45876225 0.46470588
0.1678845 0.46941636 0.47714461
0.33313419 0.46715686 0.48970588
0.49558824 0.47575061 0.48529412
0.63210784 0.46960784 0.46642157
0.74313725 0.46084559 0.44068627
0.84793199 0.44653799 0.40942096
0.92805607 0.44614737 0.39564951
0.97892157 0.45539216 0.3872549
0.33823529 0.60367647 0.51372549
0.3611826 0.59926471 0.51519608
0.45294118 0.60098039 0.52303922
0.51887255 0.59656863 0.51519608
0.60110294 0.6004902 0.4875
0.73088235 0.59215686 0.46271446
0.83627451 0.57647059 0.43578431
0.92040441 0.57107843 0.41014093
0.98823529 0.56789216 0.40514706
0.43676471 0.68921569 0.54754902
0.46384038 0.69705882 0.55527727
0.50075061 0.69336703 0.55784314
0.53915441 0.68307292 0.55147059
0.60122549 0.68284314 0.52889093
0.68921569 0.69944853 0.49250153
0.80323223 0.70300245 0.4578125
0.9161152 0.68816636 0.43773744
0.98970588 0.67800245 0.4338848
0.52487745 0.77156863 0.59901961
0.53814338 0.77512255 0.60261949
0.55615809 0.77340686 0.60085784
0.58970588 0.76659007 0.59796262
0.63363971 0.77058824 0.58204657
0.68982843 0.77267157 0.56683517
0.77821691 0.78406863 0.52303922
0.88939951 0.79901961 0.48828125
0.9872549 0.79117647 0.48235294
0.61176471 0.84442402 0.67040441
0.6271829 0.85179994 0.67843137
0.63529412 0.84803922 0.67259498
0.66085325 0.84423254 0.67040441
0.68952206 0.84460784 0.6653799
0.72303922 0.85134038 0.65484069
0.78155637 0.86115196 0.63079044
0.85680147 0.87254902 0.59536612
0.96029412 0.89166667 0.57579657
0.71372549 0.91911765 0.76078431
0.7213848 0.92156863 0.76323529
0.73517157 0.9254902 0.76433824
0.75294118 0.92696078 0.76715686
0.76911765 0.92156863 0.76593137
0.8 0.93033088 0.76715686
0.83627451 0.94656863 0.75686275
0.87941176 0.95294118 0.72745098
0.93578431 0.975 0.71862745
0.0039215686 0.015686275 0.55686275
0.0039215686 0.0044117647 0.56838235
0.25833333 0.012254902 0.56862745
0.46642157 0.034313725 0.57769608
0.6372549 0.026470588 0.58431373
0.76593137 0.096323529 0.55343137
0.86127451 0.20392157 0.52352941
0.9377451 0.23553922 0.50367647
0.98235294 0.24313725 0.48039216
0.019607843 0.13308824 0.56813725
0.023069853 0.13308824 0.57205882
0.27303922 0.14191176 0.57647059
0.48235294 0.14460784 0.58039216
0.64497549 0.16127451 0.58811275
0.76136642 0.2127451 0.56470588
0.85729167 0.2745098 0.53394608
0.93284314 0.2754902 0.50318627
0.9877451 0.29142157 0.4879902
0.019607843 0.30931373 0.59019608
0.013909314 0.30036765 0.59607843
0.29264706 0.31813725 0.5939951
0.49221814 0.32028186 0.59025735
0.63063725 0.33308824 0.59166667
0.74595588 0.36966912 0.57696078
0.84656863 0.38823529 0.54914216
0.92653186 0.36844363 0.51819853
0.98823529 0.36715686 0.50294118
0.015441176 0.46470588 0.58578431
0.13195466 0.475 0.59427083
0.32971814 0.47843137 0.59699755
0.50490196 0.48630515 0.60441176
0.62745098 0.5004902 0.60343137
0.73409926 0.50196078 0.58921569
0.83823529 0.50055147 0.56158088
0.91881127 0.49280025 0.54151348
0.98553922 0.48578431 0.52794118
0.31568627 0.60784314 0.61078431
0.35955882 0.61176471 0.60502451
0.45637255 0.61593137 0.61936275
0.54779412 0.6127451 0.62218137
0.63872549 0.61519608 0.61764706
0.73259804 0.61568627 0.6004902
0.82892157 0.60539216 0.57352941
0.91213235 0.59607843 0.55281863
0.98137255 0.59019608 0.54117647
0.47132353 0.71029412 0.63872549
0.49059436 0.7125 0.63936887
0.54289216 0.71182598 0.64656863
0.58777574 0.70879289 0.64356618
0.6370098 0.69840686 0.63504902
0.71862745 0.70395221 0.61737132
0.81176471 0.70857843 0.58872549
0.91151961 0.69304534 0.56960784
0.96642157 0.68480392 0.5622549
0.56960784 0.78872549 0.67990196
0.58063725 0.7908701 0.67818627
0.60686275 0.79019608 0.67794118
0.63290441 0.78676471 0.67401961
0.66960784 0.77769608 0.66911765
0.71697304 0.77665441 0.65490196
0.79068627 0.78982843 0.62414216
0.89197304 0.79485294 0.59705882
0.96764706 0.79117647 0.59117647
0.64656863 0.85612745 0.73039216
0.65588235 0.86176471 0.72843137
0.67267157 0.8620098 0.73167892
0.69185049 0.85621936 0.72809436
0.71115196 0.85196078 0.72279412
0.7502451 0.85245098 0.70857843
0.79454657 0.86029412 0.69068627
0.87359069 0.87405025 0.66375613
0.96421569 0.89534314 0.64117647
0.72156863 0.91960784 0.78823529
0.73504902 0.9254902 0.79387255
0.74656863 0.92745098 0.79411765
0.76397059 0.93137255 0.79607843
0.77745098 0.9245098 0.79019608
0.81004902 0.93406863 0.79681373
0.84215686 0.94215686 0.78578431
0.8872549 0.95171569 0.76127451
0.91960784 0.9627451 0.75882353
0.0039215686 0.086764706 0.67647059
0.028921569 0.090563725 0.68560049
0.28382353 0.094607843 0.69007353
0.475 0.15588235 0.69215686
0.64901961 0.18676471 0.69460784
0.77003676 0.21672794 0.69607843
0.85686275 0.27757353 0.6754902
0.92677696 0.34148284 0.64724265
0.98578431 0.40196078 0.63480392
0.013909314 0.18400735 0.68645833
0.055208333 0.18964461 0.6903799
0.29722733 0.20997243 0.69460784
0.48920803 0.22127757 0.69944853
0.6354473 0.25171569 0.69525123
0.7627451 0.28627451 0.69460784
0.84901961 0.33498775 0.6754902
0.9214231 0.37892157 0.65626532
0.98382353 0.43333333 0.64901961
0.025367647 0.32095588 0.69852941
0.13267463 0.32941176 0.70245098
0.34901961 0.34166667 0.69852941
0.49977022 0.35349265 0.69852941
0.64117647 0.38713235 0.70410539
0.75343137 0.41617647 0.69552696
0.83988971 0.44203431 0.68333333
0.91862745 0.46536458 0.66470588
0.99031863 0.49803922 0.65625
0.08125 0.4754902 0.68823529
0.21898744 0.48523284 0.69460784
0.36487439 0.48929228 0.69460784
0.50091912 0.48131127 0.69852941
0.63676471 0.51427696 0.70683211
0.74166667 0.53284314 0.70098039
0.83393076 0.53921569 0.68431373
0.91127451 0.55165441 0.67254902
0.98278186 0.55741422 0.65778186
0.28357843 0.60392157 0.69901961
0.34028799 0.61176471 0.69476103
0.41531863 0.60784314 0.69852941
0.51740196 0.60637255 0.70294118
0.63786765 0.62487745 0.71188725
0.73428309 0.63648897 0.70955882
0.82401961 0.63480392 0.69093137
0.90343137 0.63057598 0.67205882
0.97916667 0.61715686 0.65686275
0.45778186 0.7151348 0.72052696
0.47628676 0.71813725 0.71568627
0.5216299 0.71421569 0.71813725
0.58527114 0.7187117 0.71963082
0.67254902 0.72205882 0.7294424
0.73627451 0.72205882 0.71905637
0.81433824 0.72990196 0.70598958
0.90196078 0.71863511 0.68500306
0.96323529 0.70545343 0.6716299
0.59914216 0.80686275 0.74901961
0.60553002 0.80200674 0.74901961
0.62046569 0.79803922 0.74537377
0.65637255 0.798269 0.74901961
0.70367647 0.7995098 0.74901961
0.74947917 0.79558824 0.74223346
0.81216299 0.79840686 0.72598039
0.89558824 0.79813113 0.70039828
0.9622549 0.7872549 0.69166667
0.68351716 0.87567402 0.79215686
0.68856464 0.87195159 0.78661918
0.70350797 0.87205882 0.78592218
0.72647059 0.86861979 0.7903799
0.74126838 0.86390931 0.78014706
0.77469363 0.86372549 0.78020833
0.81047794 0.86029412 0.76216299
0.88936121 0.87614124 0.74291513
0.96832108 0.88627451 0.72824755
0.75833333 0.94264706 0.83823529
0.75471814 0.9372549 0.83284314
0.77303922 0.94117647 0.83676471
0.78339461 0.9372549 0.83431373
0.79485294 0.93480392 0.82892157
0.81715686 0.93425245 0.82892157
0.85404412 0.94473039 0.825
0.89901961 0.94264706 0.80245098
0.95686275 0.96372549 0.78235294
0.044117647 0.18137255 0.79509804
0.16029412 0.19473039 0.79117647
0.35171569 0.21495098 0.79509804
0.49656863 0.24105392 0.79509804
0.63921569 0.27745098 0.79509804
0.76066176 0.33419118 0.79117647
0.85 0.38063725 0.78406863
0.91862745 0.3935049 0.76470588
0.97941176 0.48333333 0.76470588
0.098039216 0.25245098 0.79509804
0.21331189 0.26318934 0.79117647
0.36902574 0.27490809 0.79509804
0.51127451 0.29557292 0.79117647
0.64405637 0.33455882 0.78946078
0.75490196 0.37959559 0.79117647
0.85 0.41470588 0.79172794
0.91875 0.45036765 0.77244179
0.96519608 0.4872549 0.76764706
0.19607843 0.36519608 0.79436275
0.28311887 0.36930147 0.79509804
0.39074755 0.37916667 0.79509804
0.52426471 0.39684436 0.79117647
0.64705882 0.43137255 0.78909314
0.75343137 0.46323529 0.79102328
0.84681373 0.48921569 0.79411765
0.91087623 0.50441176 0.77156863
0.97867647 0.55882353 0.76764706
0.31004902 0.50490196 0.7872549
0.33016238 0.49705882 0.79214154
0.41862745 0.50373775 0.79117647
0.52412684 0.50882353 0.79117647
0.64332108 0.53186275 0.79509804
0.7495098 0.55997243 0.79324449
0.83431373 0.58140319 0.78909314
0.91127451 0.60151654 0.78314951
0.9754902 0.6254902 0.77487745
0.2872549 0.60784314 0.775
0.34338235 0.61231618 0.77849265
0.41372549 0.61004902 0.78321078
0.51348039 0.61470588 0.78314951
0.63235294 0.62867647 0.79264706
0.73848039 0.646875 0.79479167
0.82401961 0.66176471 0.79117647
0.89926471 0.67573529 0.78854167
0.96813725 0.66862745 0.76764706
0.42659314 0.72205882 0.78627451
0.44056373 0.71813725 0.7865962
0.47778799 0.71421569 0.78691789
0.55294118 0.71421569 0.78664216
0.640625 0.71421569 0.79430147
0.7305913 0.72297794 0.80081189
0.82208946 0.73835784 0.79984681
0.89644608 0.74448529 0.79117647
0.94803922 0.7372549 0.7814951
0.55098039 0.80294118 0.80294118
0.575 0.80208333 0.80879289
0.59803922 0.79901961 0.81078431
0.63887868 0.80588235 0.80686275
0.6872549 0.79901961 0.81078431
0.75294118 0.80294118 0.81409314
0.8254902 0.80980392 0.81335784
0.89623162 0.81544118 0.79901961
0.96470588 0.81078431 0.79534314
0.66862745 0.87990196 0.84203431
0.69417892 0.87598039 0.8377451
0.71102941 0.87683824 0.8401348
0.72843137 0.87953431 0.84203431
0.76372549 0.87941176 0.84166667
0.79551164 0.87852328 0.83811275
0.83382353 0.8736826 0.83382353
0.89987745 0.88748468 0.8182598
0.97904412 0.88382353 0.81507353
0.76568627 0.94901961 0.87941176
0.77193627 0.94889706 0.87634804
0.7745098 0.94289216 0.87352941
0.79889706 0.94901961 0.88039216
0.81421569 0.94607843 0.87647059
0.82892157 0.93492647 0.86593137
0.86862745 0.94828431 0.87156863
0.90686275 0.9504902 0.86433824
0.96078431 0.9754902 0.85294118
0.33284314 0.32745098 0.88382353
0.34754902 0.30189951 0.8877451
0.44558824 0.34914216 0.88382353
0.54822304 0.35539216 0.88382353
0.65931373 0.39411765 0.87990196
0.76127451 0.43480392 0.87598039
0.85257353 0.48186275 0.87598039
0.93045343 0.52009804 0.87598039
0.96470588 0.53137255 0.87941176
0.32935049 0.35882353 0.88382353
0.38529412 0.3622549 0.88344822
0.44656863 0.36911765 0.87990196
0.55512408 0.39601716 0.87990196
0.6629902 0.42279412 0.87990196
0.76207108 0.46987592 0.87205882
0.85484069 0.50796569 0.87941176
0.93442862 0.53045343 0.87941176
0.96862745 0.53829657 0.87941176
0.36237745 0.44215686 0.87953431
0.40398284 0.44253983 0.88382353
0.47990196 0.45965074 0.88333333
0.56911765 0.47339154 0.87780331
0.66476716 0.49185049 0.87959559
0.75574449 0.5185815 0.87598039
0.84617034 0.55799632 0.8754902
0.92256434 0.58382353 0.87087929
0.98137255 0.59852941 0.87218137
0.38088235 0.5286152 0.87205882
0.42261029 0.53347886 0.87318474
0.48112745 0.5393076 0.87598039
0.56580882 0.55595129 0.87598039
0.65735294 0.57058824 0.8754902
0.75735294 0.60153952 0.87500766
0.84162071 0.63031556 0.8754902
0.915625 0.64466912 0.87205882
0.95294118 0.64871324 0.86813725
0.39166667 0.62990196 0.86593137
0.41568627 0.63039216 0.86421569
0.47175245 0.63419118 0.86813725
0.54926471 0.63186275 0.87009804
0.64840686 0.64852941 0.87071078
0.74280025 0.66789216 0.87205882
0.83039216 0.6877451 0.8754902
0.90928309 0.70637255 0.87205882
0.96862745 0.71813725 0.86813725
0.40539216 0.72058824 0.86421569
0.42955729 0.71813725 0.86029412
0.46942402 0.71813725 0.86518076
0.53107384 0.71452206 0.86421569
0.63210784 0.72107843 0.86731005
0.73284314 0.73511795 0.87286305
0.82928922 0.75588235 0.87941176
0.90686275 0.76421569 0.87745098
0.95980392 0.77205882 0.87598039
0.53762255 0.80980392 0.87205882
0.54090074 0.80686275 0.87124694
0.57022059 0.80664828 0.87941176
0.60735294 0.80294118 0.87222733
0.65759804 0.79901961 0.87254902
0.72192096 0.80240502 0.87268689
0.82647059 0.82169118 0.88768382
0.90375306 0.82941176 0.88892463
0.95343137 0.83333333 0.89129902
0.65686275 0.88425245 0.89558824
0.65631893 0.88070619 0.89558824
0.68284314 0.8877451 0.90343137
0.70539216 0.8877451 0.89558824
0.75413603 0.88967525 0.8995098
0.80324755 0.88817402 0.89967065
0.85568321 0.89522059 0.90343137
0.91868107 0.8995098 0.90692402
0.95294118 0.8995098 0.90300245
0.7754902 0.96078431 0.92598039
0.76421569 0.95294118 0.92205882
0.78370098 0.96078431 0.92647059
0.79411765 0.95716912 0.92598039
0.81715686 0.95735294 0.92647059
0.84932598 0.95784314 0.92959559
0.88333333 0.94852941 0.92254902
0.92254902 0.95294118 0.92555147
0.97254902 0.97647059 0.91862745
0.50196078 0.47843137 0.95686275
0.51715686 0.48627451 0.96470588
0.55098039 0.48137255 0.95686275
0.62058824 0.50196078 0.96078431
0.7 0.53137255 0.95686275
0.78480392 0.5622549 0.95441176
0.86470588 0.59705882 0.94901961
0.93823529 0.63970588 0.94901961
0.96470588 0.64705882 0.94509804
0.50539216 0.49754902 0.95686275
0.525 0.50533088 0.96470588
0.55098039 0.50147059 0.95294118
0.62040441 0.52352941 0.95667892
0.69264706 0.52377451 0.94362745
0.78351716 0.57647059 0.95557598
0.86470588 0.61617647 0.95294118
0.93829657 0.64803922 0.94993873
0.9872549 0.6622549 0.95245098
0.52058824 0.55490196 0.96372549
0.52928922 0.55110294 0.95821078
0.57598039 0.56789216 0.96691176
0.6245098 0.56948529 0.95294118
0.70392157 0.59215686 0.95686275
0.78235294 0.61629902 0.95551471
0.86078431 0.63897059 0.94803922
0.93039216 0.65735294 0.94068627
0.98137255 0.6745098 0.94509804
0.51764706 0.61666667 0.95833333
0.53676471 0.6127451 0.953125
0.56862745 0.61666667 0.95539216
0.6245098 0.62058824 0.94901961
0.69411765 0.6377451 0.94779412
0.7754902 0.65643382 0.94901961
0.85723039 0.68480392 0.94840686
0.93039216 0.70079657 0.94754902
0.96470588 0.71078431 0.94901961
0.49411765 0.6745098 0.93529412
0.54068627 0.68823529 0.95490196
0.5745098 0.68970588 0.95784314
0.62254902 0.68627451 0.95882353
0.68627451 0.69019608 0.94509804
0.77303922 0.71127451 0.95171569
0.85539216 0.73186275 0.95294118
0.92647059 0.74754902 0.95294118
0.98627451 0.75882353 0.95882353
0.47598039 0.74558824 0.94264706
0.52273284 0.74803922 0.93547794
0.54166667 0.7495098 0.94803922
0.60343137 0.74803922 0.94754902
0.67769608 0.75196078 0.95563725
0.76127451 0.76072304 0.96170343
0.84852941 0.77830882 0.95392157
0.92285539 0.79148284 0.95508578
0.97352941 0.79754902 0.94362745
0.55196078 0.82156863 0.95294118
0.56323529 0.82254902 0.9495098
0.5745098 0.81862745 0.94215686
0.62401961 0.82254902 0.94607843
0.66029412 0.82205882 0.95588235
0.73737745 0.81764706 0.94901961
0.82941176 0.83651961 0.95686275
0.91911765 0.84546569 0.95821078
0.99411765 0.85588235 0.97647059
0.65245098 0.89558824 0.95735294
0.65637255 0.89901961 0.96078431
0.67242647 0.90306373 0.96127451
0.69803922 0.90294118 0.96292892
0.73627451 0.90122549 0.96102941
0.77469363 0.89362745 0.96421569
0.81776961 0.89558824 0.97340686
0.92346814 0.9033701 0.96519608
0.94558824 0.90294118 0.97303922
0.74117647 0.97254902 0.97647059
0.74509804 0.97254902 0.97303922
0.76078431 0.97352941 0.97352941
0.77892157 0.96862745 0.96862745
0.80588235 0.97843137 0.97647059
0.81470588 0.92990196 0.9504902
0.88333333 0.97156863 0.97156863
0.93039216 0.94558824 0.9495098
0.98823529 0.98431373 0.98823529
