site/assets/luts/natron-haldclut--kodak-t-max-400--5fe7ba013.cube
# LUTr-Project: LUTr — LUTrepository
# LUTr-Schema-Version: 1
# LUTr-ID: natron-haldclut--kodak-t-max-400--5fe7ba013
# LUTr-Title: kodak t-max 400
# LUTr-Collection: Natron HaldCLUT
# LUTr-Collection-ID: natron-haldclut-presets
# LUTr-Source: https://github.com/NatronGitHub/clut
# LUTr-Source-File: submissions/natron-haldclut-presets/bw/kodak_t-max_400.png
# LUTr-Source-Format: PNG
# LUTr-Source-SHA256: a0cfcb97477e58d152e3bfb59453ad2be4b13f409d79e87321219cec747d7148
# LUTr-License: CC-BY-SA-4.0
# LUTr-License-URL: https://github.com/NatronGitHub/clut#license
# LUTr-Tags: creative, film, film-emulation, hald-clut, natron, png, cube
# LUTr-Transform-Class: film-emulation
# LUTr-Input-Color-Space: srgb
# LUTr-Output-Color-Space: srgb
# LUTr-Color-Space-Confidence: assumed-display-referred
# LUTr-Conversion-Method: PNG LUT image decoded at 16-bit and sampled to 25x25x25 3D CUBE
# LUTr-Conversion-Date: 2026-07-27
# LUTr-Conversion-Tool: LUTr scripts/convert-all-to-cube.mjs
# LUTr-Conversion-Grid: 25x25x25
# LUTr-Note: Preserve this metadata and the upstream license notices when redistributing.
TITLE "kodak t-max 400"
LUT_3D_SIZE 5
DOMAIN_MIN 0 0 0
DOMAIN_MAX 1 1 1
0.031372549 0.031372549 0.031372549
0.024509804 0.024509804 0.024509804
0.01372549 0.01372549 0.01372549
0.031372549 0.031372549 0.031372549
0.02745098 0.02745098 0.02745098
0.13431373 0.13431373 0.13431373
0.15686275 0.15686275 0.15686275
0.14754902 0.14754902 0.14754902
0.15882353 0.15882353 0.15882353
0.16470588 0.16470588 0.16470588
0.41764706 0.41764706 0.41764706
0.41813725 0.41813725 0.41813725
0.40686275 0.40686275 0.40686275
0.4122549 0.4122549 0.4122549
0.43137255 0.43137255 0.43137255
0.68235294 0.68235294 0.68235294
0.67916667 0.67916667 0.67916667
0.69411765 0.69411765 0.69411765
0.68627451 0.68627451 0.68627451
0.68333333 0.68333333 0.68333333
0.89411765 0.89411765 0.89411765
0.90980392 0.90980392 0.90980392
0.90588235 0.90588235 0.90588235
0.90588235 0.90588235 0.90588235
0.89803922 0.89803922 0.89803922
0.02745098 0.02745098 0.02745098
0.025490196 0.025490196 0.025490196
0.039215686 0.039215686 0.039215686
0.022303922 0.022303922 0.022303922
0.042156863 0.042156863 0.042156863
0.19509804 0.19509804 0.19509804
0.19908088 0.19908088 0.19908088
0.19436275 0.19436275 0.19436275
0.20686275 0.20686275 0.20686275
0.20392157 0.20392157 0.20392157
0.43823529 0.43823529 0.43823529
0.4504902 0.4504902 0.4504902
0.44362745 0.44362745 0.44362745
0.45098039 0.45098039 0.45098039
0.45784314 0.45784314 0.45784314
0.70563725 0.70563725 0.70563725
0.70098039 0.70098039 0.70098039
0.70551471 0.70551471 0.70551471
0.69724265 0.69724265 0.69724265
0.69705882 0.69705882 0.69705882
0.90882353 0.90882353 0.90882353
0.89730392 0.89730392 0.89730392
0.91372549 0.91372549 0.91372549
0.91789216 0.91789216 0.91789216
0.90882353 0.90882353 0.90882353
0.060784314 0.060784314 0.060784314
0.075980392 0.075980392 0.075980392
0.082352941 0.082352941 0.082352941
0.090196078 0.090196078 0.090196078
0.078431373 0.078431373 0.078431373
0.28333333 0.28333333 0.28333333
0.27904412 0.27904412 0.27904412
0.28872549 0.28872549 0.28872549
0.28688725 0.28688725 0.28688725
0.28333333 0.28333333 0.28333333
0.51176471 0.51176471 0.51176471
0.51176471 0.51176471 0.51176471
0.51568627 0.51568627 0.51568627
0.52058824 0.52058824 0.52058824
0.51176471 0.51176471 0.51176471
0.73823529 0.73823529 0.73823529
0.74264706 0.74264706 0.74264706
0.74411765 0.74411765 0.74411765
0.73823529 0.73823529 0.73823529
0.73137255 0.73137255 0.73137255
0.9254902 0.9254902 0.9254902
0.92156863 0.92156863 0.92156863
0.91372549 0.91372549 0.91372549
0.9254902 0.9254902 0.9254902
0.92745098 0.92745098 0.92745098
0.20980392 0.20980392 0.20980392
0.19901961 0.19901961 0.19901961
0.20882353 0.20882353 0.20882353
0.2245098 0.2245098 0.2245098
0.19803922 0.19803922 0.19803922
0.41078431 0.41078431 0.41078431
0.40686275 0.40686275 0.40686275
0.40686275 0.40686275 0.40686275
0.41862745 0.41862745 0.41862745
0.40980392 0.40980392 0.40980392
0.58333333 0.58333333 0.58333333
0.59607843 0.59607843 0.59607843
0.60220588 0.60220588 0.60220588
0.59754902 0.59754902 0.59754902
0.60392157 0.60392157 0.60392157
0.78431373 0.78431373 0.78431373
0.78094363 0.78094363 0.78094363
0.78112745 0.78112745 0.78112745
0.78431373 0.78431373 0.78431373
0.7879902 0.7879902 0.7879902
0.93823529 0.93823529 0.93823529
0.93039216 0.93039216 0.93039216
0.91764706 0.91764706 0.91764706
0.93823529 0.93823529 0.93823529
0.94117647 0.94117647 0.94117647
0.38823529 0.38823529 0.38823529
0.40686275 0.40686275 0.40686275
0.40980392 0.40980392 0.40980392
0.43921569 0.43921569 0.43921569
0.41960784 0.41960784 0.41960784
0.51960784 0.51960784 0.51960784
0.52647059 0.52647059 0.52647059
0.51372549 0.51372549 0.51372549
0.51568627 0.51568627 0.51568627
0.51568627 0.51568627 0.51568627
0.66862745 0.66862745 0.66862745
0.67598039 0.67598039 0.67598039
0.68529412 0.68529412 0.68529412
0.69166667 0.69166667 0.69166667
0.69803922 0.69803922 0.69803922
0.81372549 0.81372549 0.81372549
0.8254902 0.8254902 0.8254902
0.8372549 0.8372549 0.8372549
0.84901961 0.84901961 0.84901961
0.84215686 0.84215686 0.84215686
0.95294118 0.95294118 0.95294118
0.95686275 0.95686275 0.95686275
0.94705882 0.94705882 0.94705882
0.95784314 0.95784314 0.95784314
0.96078431 0.96078431 0.96078431
