site/assets/luts/natron-haldclut--polaroid-px-100uv-warm--9f524b0aa.cube
# LUTr-Project: LUTr — LUTrepository
# LUTr-Schema-Version: 1
# LUTr-ID: natron-haldclut--polaroid-px-100uv-warm--9f524b0aa
# LUTr-Title: polaroid px-100uv+ warm ++
# LUTr-Collection: Natron HaldCLUT
# LUTr-Collection-ID: natron-haldclut-presets
# LUTr-Source: https://github.com/NatronGitHub/clut
# LUTr-Source-File: submissions/natron-haldclut-presets/instant_consumer/polaroid_px-100uv+_warm_++.png
# LUTr-Source-Format: PNG
# LUTr-Source-SHA256: 0da27f155c889014195e7b49100dc6397d423738fed0fa37509efca13a163ce8
# LUTr-License: CC-BY-SA-4.0
# LUTr-License-URL: https://github.com/NatronGitHub/clut#license
# LUTr-Tags: creative, film, film-emulation, hald-clut, natron, png, warm, cube
# LUTr-Transform-Class: film-emulation
# LUTr-Input-Color-Space: srgb
# LUTr-Output-Color-Space: srgb
# LUTr-Color-Space-Confidence: assumed-display-referred
# LUTr-Conversion-Method: PNG LUT image decoded at 16-bit and sampled to 25x25x25 3D CUBE
# LUTr-Conversion-Date: 2026-07-27
# LUTr-Conversion-Tool: LUTr scripts/convert-all-to-cube.mjs
# LUTr-Conversion-Grid: 25x25x25
# LUTr-Note: Preserve this metadata and the upstream license notices when redistributing.
TITLE "polaroid px-100uv+ warm ++"
LUT_3D_SIZE 5
DOMAIN_MIN 0 0 0
DOMAIN_MAX 1 1 1
0.43137255 0.38823529 0.39215686
0.43137255 0.38823529 0.39215686
0.45882353 0.41764706 0.4254902
0.53431373 0.50294118 0.50392157
0.63137255 0.60784314 0.60392157
0.43529412 0.39607843 0.4
0.43529412 0.39607843 0.4
0.46323529 0.42745098 0.43137255
0.53921569 0.51176471 0.5125
0.63921569 0.61960784 0.61176471
0.47254902 0.4372549 0.44117647
0.47794118 0.44264706 0.44509804
0.50784314 0.4745098 0.47843137
0.55980392 0.53235294 0.53235294
0.61372549 0.59019608 0.58627451
0.5754902 0.54803922 0.54705882
0.57058824 0.54313725 0.54313725
0.59215686 0.56470588 0.5627451
0.64215686 0.61862745 0.61078431
0.6754902 0.65588235 0.64803922
0.7254902 0.70588235 0.69019608
0.71764706 0.70098039 0.68627451
0.72156863 0.70196078 0.68627451
0.74901961 0.72941176 0.70980392
0.74117647 0.72156863 0.70196078
0.44607843 0.40392157 0.40784314
0.44607843 0.40465686 0.40857843
0.47598039 0.44019608 0.44460784
0.56176471 0.5372549 0.5372549
0.65490196 0.63431373 0.62352941
0.45490196 0.41568627 0.41960784
0.45839461 0.41954657 0.42346814
0.49509804 0.46286765 0.46678922
0.56936275 0.54436275 0.54454657
0.65784314 0.63602941 0.62745098
0.51078431 0.47745098 0.47794118
0.51078431 0.47745098 0.47941176
0.52892157 0.49705882 0.50098039
0.59497549 0.56875 0.56752451
0.67009804 0.64656863 0.63872549
0.6129902 0.5870098 0.58161765
0.61035539 0.58529412 0.58082108
0.6189951 0.5935049 0.58884804
0.64828431 0.6247549 0.61764706
0.70980392 0.68946078 0.67769608
0.73333333 0.71372549 0.69803922
0.7254902 0.70906863 0.69411765
0.72156863 0.70343137 0.6877451
0.74117647 0.72156863 0.70294118
0.77156863 0.75588235 0.73627451
0.50588235 0.47058824 0.4745098
0.52156863 0.4877451 0.49019608
0.54215686 0.51176471 0.51372549
0.60735294 0.58382353 0.57990196
0.69803922 0.67843137 0.6627451
0.52941176 0.49705882 0.49803922
0.5372549 0.50588235 0.50588235
0.56053922 0.53333333 0.53480392
0.62071078 0.59901961 0.59473039
0.7 0.68039216 0.66666667
0.55294118 0.52352941 0.52254902
0.55465686 0.52647059 0.52720588
0.59460784 0.56862745 0.56617647
0.64926471 0.62647059 0.61862745
0.70784314 0.68823529 0.6745098
0.64705882 0.62352941 0.61372549
0.64693627 0.62352941 0.61519608
0.66617647 0.64460784 0.63480392
0.69203431 0.67058824 0.65992647
0.73039216 0.71078431 0.69509804
0.75294118 0.7372549 0.71568627
0.74509804 0.72892157 0.70980392
0.75980392 0.74411765 0.7245098
0.75098039 0.73480392 0.71519608
0.77647059 0.76078431 0.74117647
0.64117647 0.61764706 0.61078431
0.64509804 0.62156863 0.61372549
0.66862745 0.64901961 0.63921569
0.69705882 0.67745098 0.66544118
0.72647059 0.70686275 0.69117647
0.64901961 0.6247549 0.61764706
0.65686275 0.6338848 0.6254902
0.67757353 0.65686275 0.64840686
0.70428922 0.68504902 0.67181373
0.74117647 0.72254902 0.70588235
0.66470588 0.64117647 0.63137255
0.66470588 0.64117647 0.6317402
0.68455882 0.66421569 0.65245098
0.71605392 0.69681373 0.68223039
0.74215686 0.7245098 0.70637255
0.70098039 0.68431373 0.66862745
0.70392157 0.68431373 0.66862745
0.72156863 0.70392157 0.68823529
0.73768382 0.72199755 0.70373775
0.75784314 0.74215686 0.72254902
0.76078431 0.74509804 0.7245098
0.76176471 0.74509804 0.7254902
0.76911765 0.75147059 0.73039216
0.78357843 0.76862745 0.74509804
0.79215686 0.77745098 0.75294118
0.76862745 0.75294118 0.73333333
0.75980392 0.74411765 0.7245098
0.7745098 0.75686275 0.73529412
0.78823529 0.77254902 0.74901961
0.78823529 0.77254902 0.74901961
0.77254902 0.75294118 0.73333333
0.76862745 0.75294118 0.73333333
0.78039216 0.76470588 0.74117647
0.78431373 0.76789216 0.74509804
0.79607843 0.78039216 0.75686275
0.76862745 0.74901961 0.72941176
0.77254902 0.75441176 0.73333333
0.78039216 0.76470588 0.74117647
0.79460784 0.77892157 0.75686275
0.79215686 0.77647059 0.75294118
0.78529412 0.76568627 0.74607843
0.78529412 0.76862745 0.74607843
0.78823529 0.77254902 0.74901961
0.79607843 0.78039216 0.75686275
0.80392157 0.79215686 0.76470588
0.80392157 0.78823529 0.76470588
0.79215686 0.77647059 0.75294118
0.79215686 0.78039216 0.75294118
0.80392157 0.78921569 0.76470588
0.80784314 0.79607843 0.76862745
