site/assets/luts/natron-haldclut--polaroid-time-zero-expired--00b265357.cube
# LUTr-Project: LUTr — LUTrepository
# LUTr-Schema-Version: 1
# LUTr-ID: natron-haldclut--polaroid-time-zero-expired--00b265357
# LUTr-Title: polaroid time zero (expired) +
# LUTr-Collection: Natron HaldCLUT
# LUTr-Collection-ID: natron-haldclut-presets
# LUTr-Source: https://github.com/NatronGitHub/clut
# LUTr-Source-File: submissions/natron-haldclut-presets/instant_consumer/polaroid_time_zero_(expired)_+.png
# LUTr-Source-Format: PNG
# LUTr-Source-SHA256: a11b2c078daad4e6e00792c584f84e30bbf723fd0a15b2c3124627c22e49aefa
# LUTr-License: CC-BY-SA-4.0
# LUTr-License-URL: https://github.com/NatronGitHub/clut#license
# LUTr-Tags: creative, film, film-emulation, hald-clut, natron, png, cube
# LUTr-Transform-Class: film-emulation
# LUTr-Input-Color-Space: srgb
# LUTr-Output-Color-Space: srgb
# LUTr-Color-Space-Confidence: assumed-display-referred
# LUTr-Conversion-Method: PNG LUT image decoded at 16-bit and sampled to 25x25x25 3D CUBE
# LUTr-Conversion-Date: 2026-07-27
# LUTr-Conversion-Tool: LUTr scripts/convert-all-to-cube.mjs
# LUTr-Conversion-Grid: 25x25x25
# LUTr-Note: Preserve this metadata and the upstream license notices when redistributing.
TITLE "polaroid time zero (expired) +"
LUT_3D_SIZE 25
DOMAIN_MIN 0 0 0
DOMAIN_MAX 1 1 1
0.80784314 0.5254902 0.25490196
0.81176471 0.5254902 0.25735294
0.81176471 0.5254902 0.25882353
0.81568627 0.52892157 0.2627451
0.81764706 0.52941176 0.2627451
0.81960784 0.52941176 0.26666667
0.81960784 0.52941176 0.26666667
0.82352941 0.52941176 0.27058824
0.82352941 0.52941176 0.27058824
0.82745098 0.52941176 0.27303922
0.82843137 0.52941176 0.2745098
0.83137255 0.52941176 0.2745098
0.83529412 0.52941176 0.2745098
0.84313725 0.53333333 0.2745098
0.85 0.53333333 0.2745098
0.85637255 0.53333333 0.2745098
0.8627451 0.53333333 0.27058824
0.87058824 0.53333333 0.27058824
0.8754902 0.53333333 0.27058824
0.88578431 0.53333333 0.27058824
0.89607843 0.53333333 0.27254902
0.90637255 0.5377451 0.2745098
0.91960784 0.54117647 0.27843137
0.93088235 0.54509804 0.27990196
0.9372549 0.54901961 0.28235294
0.81029412 0.52941176 0.25490196
0.81176471 0.52941176 0.25735294
0.8127451 0.52941176 0.25882353
0.81568627 0.53155637 0.2622549
0.81887255 0.53186275 0.2627451
0.81960784 0.53333333 0.26666667
0.82316176 0.53333333 0.26666667
0.82352941 0.53333333 0.27058824
0.82598039 0.53333333 0.27058824
0.82745098 0.53333333 0.27058824
0.83026961 0.53333333 0.27267157
0.83137255 0.53333333 0.2745098
0.83651961 0.53333333 0.2745098
0.84313725 0.53333333 0.27205882
0.85 0.53333333 0.27205882
0.85637255 0.53333333 0.27058824
0.8627451 0.53333333 0.27058824
0.86911765 0.53333333 0.27058824
0.8754902 0.53333333 0.27058824
0.88578431 0.53547794 0.27058824
0.89607843 0.5372549 0.27058824
0.90637255 0.54117647 0.2745098
0.92022059 0.54411765 0.27843137
0.93088235 0.54509804 0.27898284
0.9372549 0.54901961 0.28235294
0.81176471 0.53431373 0.25490196
0.81176471 0.53431373 0.25490196
0.81568627 0.53431373 0.25882353
0.81568627 0.53431373 0.25882353
0.81960784 0.5372549 0.2627451
0.81973039 0.5372549 0.26580882
0.82352941 0.5372549 0.26666667
0.82389706 0.5372549 0.26776961
0.82745098 0.5372549 0.27058824
0.82745098 0.5372549 0.27058824
0.83137255 0.5372549 0.27058824
0.83480392 0.53468137 0.27058824
0.8372549 0.53578431 0.27058824
0.84313725 0.5372549 0.27058824
0.85 0.5372549 0.27058824
0.85637255 0.5372549 0.26960784
0.8627451 0.5372549 0.26666667
0.86911765 0.5372549 0.26666667
0.87843137 0.5372549 0.26666667
0.88578431 0.53811275 0.27046569
0.89607843 0.54166667 0.27058824
0.9064951 0.54509804 0.2745098
0.92058824 0.54607843 0.27745098
0.93088235 0.54901961 0.27843137
0.9372549 0.55 0.28235294
0.81176471 0.54117647 0.25490196
0.81176471 0.54117647 0.25490196
0.81568627 0.54117647 0.25882353
0.81568627 0.54117647 0.25882353
0.81960784 0.54117647 0.2627451
0.82009804 0.54117647 0.2627451
0.82352941 0.54117647 0.26580882
0.825 0.54117647 0.26666667
0.82745098 0.54117647 0.26715686
0.83118873 0.54117647 0.26715686
0.83137255 0.54068627 0.26715686
0.83529412 0.5372549 0.26715686
0.8372549 0.5372549 0.26691176
0.84313725 0.5372549 0.26666667
0.85 0.54068627 0.26666667
0.85637255 0.54068627 0.26666667
0.8627451 0.54068627 0.26666667
0.86911765 0.54068627 0.26666667
0.87928922 0.54080882 0.26666667
0.88578431 0.54417892 0.26709559
0.89607843 0.54681373 0.27058824
0.9098652 0.54901961 0.2745098
0.92058824 0.55245098 0.27487745
0.92959559 0.55294118 0.27843137
0.9372549 0.55294118 0.27843137
0.81176471 0.54705882 0.25490196
0.81176471 0.54705882 0.25490196
0.81568627 0.54705882 0.25735294
0.81568627 0.54705882 0.25882353
0.81960784 0.54705882 0.25882353
0.82352941 0.54705882 0.2627451
0.82352941 0.54705882 0.2627451
0.82745098 0.54509804 0.26666667
0.82745098 0.54509804 0.26666667
0.83137255 0.54387255 0.26666667
0.83382353 0.54264706 0.26666667
0.83529412 0.54117647 0.26495098
0.83921569 0.54117647 0.26470588
0.84313725 0.54117647 0.26446078
0.85 0.54117647 0.2627451
0.85563725 0.54117647 0.2627451
0.8627451 0.54117647 0.2627451
0.86911765 0.54240196 0.2627451
0.87941176 0.54509804 0.26666667
0.88970588 0.54877451 0.26666667
0.9 0.55098039 0.27058824
0.91029412 0.55318627 0.27107843
0.92058824 0.55637255 0.2745098
0.92696078 0.55759804 0.27720588
0.93333333 0.55882353 0.27843137
0.8122549 0.55343137 0.25490196
0.81568627 0.55343137 0.25490196
0.81568627 0.55343137 0.2557598
0.81568627 0.55343137 0.25882353
0.81960784 0.55343137 0.25882353
0.82352941 0.55343137 0.25925245
0.82352941 0.55294118 0.26262255
0.82745098 0.55294118 0.2627451
0.83137255 0.5495098 0.2627451
0.83137255 0.54901961 0.2627451
0.83529412 0.54558824 0.2627451
0.83572304 0.54509804 0.2627451
0.83921569 0.54509804 0.2622549
0.84313725 0.54209559 0.2622549
0.84705882 0.54509804 0.25882353
0.85490196 0.54509804 0.25882353
0.8627451 0.54509804 0.25882353
0.87089461 0.54540441 0.2627451
0.87941176 0.54914216 0.26372549
0.88970588 0.55294118 0.26666667
0.9 0.55686275 0.27034314
0.91029412 0.55778186 0.27058824
0.92058824 0.56115196 0.27438725
0.92696078 0.56256127 0.2745098
0.93284314 0.56470588 0.27794118
0.81568627 0.55980392 0.25490196
0.81568627 0.55980392 0.25490196
0.81568627 0.55980392 0.25490196
0.81568627 0.55980392 0.25845588
0.81960784 0.55980392 0.25882353
0.82095588 0.55980392 0.25882353
0.82352941 0.55980392 0.25882353
0.82745098 0.55686275 0.25980392
0.83137255 0.55588235 0.25980392
0.83321078 0.55404412 0.25980392
0.83529412 0.55196078 0.25882353
0.83872549 0.54901961 0.25882353
0.83921569 0.54656863 0.25882353
0.84313725 0.54509804 0.25882353
0.84705882 0.54509804 0.25661765
0.85490196 0.54509804 0.25698529
0.8627451 0.54803922 0.25882353
0.87303922 0.55085784 0.26164216
0.88333333 0.55367647 0.2629902
0.89264706 0.55686275 0.26666667
0.9 0.56078431 0.26715686
0.91029412 0.56384804 0.27058824
0.92058824 0.56691176 0.27058824
0.92696078 0.56801471 0.2745098
0.92941176 0.56862745 0.2745098
0.81568627 0.56617647 0.25490196
0.81568627 0.56617647 0.25490196
0.81568627 0.56617647 0.25490196
0.81568627 0.56617647 0.25490196
0.81960784 0.56617647 0.25612745
0.82009804 0.56470588 0.25882353
0.82352941 0.56470588 0.25882353
0.82745098 0.5622549 0.25882353
0.83137255 0.5622549 0.25882353
0.83382353 0.56078431 0.25882353
0.83529412 0.55796569 0.25882353
0.83921569 0.55471814 0.25735294
0.84117647 0.55171569 0.25490196
0.84313725 0.54901961 0.25490196
0.84705882 0.54901961 0.25343137
0.85637255 0.54901961 0.25490196
0.86421569 0.55294118 0.25882353
0.87303922 0.55594363 0.26035539
0.88333333 0.55894608 0.2627451
0.89362745 0.5622549 0.26617647
0.90196078 0.56617647 0.26666667
0.91029412 0.56881127 0.27058824
0.92058824 0.57193627 0.27058824
0.92696078 0.57310049 0.27150735
0.92941176 0.57401961 0.27303922
0.81568627 0.57254902 0.25490196
0.81568627 0.57254902 0.25490196
0.81568627 0.57254902 0.25490196
0.81568627 0.57254902 0.25490196
0.81960784 0.57254902 0.25490196
0.82009804 0.57254902 0.25490196
0.82352941 0.56862745 0.25490196
0.82745098 0.56862745 0.25490196
0.83137255 0.56862745 0.25490196
0.83382353 0.56617647 0.25490196
0.83529412 0.56470588 0.25490196
0.83921569 0.56078431 0.25490196
0.84313725 0.55882353 0.25490196
0.84362745 0.55637255 0.25098039
0.84705882 0.55294118 0.25098039
0.85637255 0.55686275 0.25490196
0.86666667 0.56078431 0.25490196
0.8745098 0.56323529 0.25882353
0.88333333 0.56568627 0.2627451
0.89362745 0.56862745 0.2627451
0.90392157 0.57254902 0.26666667
0.91029412 0.57647059 0.26666667
0.92058824 0.57647059 0.27058824
0.92696078 0.58039216 0.27058824
0.92941176 0.58039216 0.27058824
0.81568627 0.57892157 0.25245098
0.81568627 0.57892157 0.25245098
0.81568627 0.57892157 0.25306373
0.81568627 0.57892157 0.25490196
0.81838235 0.57892157 0.25490196
0.81979167 0.57647059 0.25490196
0.82352941 0.57536765 0.25490196
0.82745098 0.575 0.25490196
0.83137255 0.57254902 0.25490196
0.83229167 0.57254902 0.25490196
0.83529412 0.57107843 0.25490196
0.83921569 0.56734069 0.25245098
0.84313725 0.56593137 0.25098039
0.84577206 0.56354167 0.25098039
0.85061275 0.56715686 0.25098039
0.85637255 0.56715686 0.25490196
0.86666667 0.57107843 0.25490196
0.87303922 0.57107843 0.25882353
0.88333333 0.575 0.2627451
0.89362745 0.57892157 0.2627451
0.90392157 0.58210784 0.26666667
0.91029412 0.58284314 0.26666667
0.92058824 0.58676471 0.26776961
0.92696078 0.58768382 0.27058824
0.92941176 0.59068627 0.27058824
0.81568627 0.58921569 0.25098039
0.81568627 0.58860294 0.25098039
0.81568627 0.58529412 0.25098039
0.81568627 0.58529412 0.25098039
0.81813725 0.58431373 0.25098039
0.81960784 0.58431373 0.25098039
0.82352941 0.58137255 0.25098039
0.82745098 0.5810049 0.25098039
0.83137255 0.57745098 0.25098039
0.83137255 0.57745098 0.25098039
0.83529412 0.57647059 0.25098039
0.83921569 0.57352941 0.25098039
0.84313725 0.57352941 0.25098039
0.84754902 0.57757353 0.25098039
0.85392157 0.58137255 0.25098039
0.86029412 0.58137255 0.25490196
0.86666667 0.58235294 0.25490196
0.8745098 0.58419118 0.25882353
0.88333333 0.58627451 0.2627451
0.89362745 0.58921569 0.2627451
0.9 0.59313725 0.26666667
0.91029412 0.59705882 0.26666667
0.92058824 0.59803922 0.26666667
0.92696078 0.60134804 0.26666667
0.92941176 0.60490196 0.26666667
0.81568627 0.5995098 0.24754902
0.81568627 0.59577206 0.25098039
0.81568627 0.59558824 0.25098039
0.81568627 0.59172794 0.25098039
0.81960784 0.59166667 0.25098039
0.81960784 0.59166667 0.25098039
0.82352941 0.59166667 0.25098039
0.82745098 0.5877451 0.25098039
0.83137255 0.5877451 0.24754902
0.83137255 0.58382353 0.24754902
0.83529412 0.58039216 0.24754902
0.83921569 0.58339461 0.24705882
0.84509804 0.5875 0.25098039
0.85098039 0.59166667 0.25098039
0.85747549 0.59509804 0.25098039
0.86243873 0.59558824 0.25245098
0.87009804 0.59558824 0.25490196
0.87696078 0.59773284 0.25882353
0.88333333 0.5995098 0.2627451
0.89362745 0.60251225 0.2627451
0.9 0.60514706 0.26666667
0.91029412 0.60778186 0.26623775
0.92058824 0.61127451 0.26323529
0.92696078 0.61519608 0.26323529
0.93333333 0.61862745 0.26323529
0.81960784 0.60784314 0.24705882
0.81960784 0.60588235 0.24705882
0.81960784 0.60490196 0.24705882
0.81960784 0.60196078 0.24705882
0.81960784 0.60196078 0.24705882
0.82009804 0.60196078 0.24509804
0.82352941 0.60196078 0.24509804
0.82745098 0.60122549 0.24509804
0.83137255 0.59803922 0.24509804
0.83137255 0.59411765 0.24509804
0.83578431 0.59215686 0.24558824
0.84093137 0.59583333 0.24705882
0.84705882 0.6 0.24803922
0.85318627 0.60416667 0.25098039
0.85882353 0.60735294 0.25098039
0.86544118 0.60980392 0.25245098
0.87058824 0.61176471 0.25490196
0.87769608 0.61176471 0.25882353
0.88480392 0.6122549 0.2627451
0.89362745 0.61372549 0.2627451
0.9 0.61764706 0.26666667
0.91029412 0.62156863 0.2627451
0.92058824 0.6254902 0.2627451
0.92696078 0.62818627 0.2627451
0.93333333 0.62941176 0.2627451
0.81960784 0.61617647 0.24313725
0.81960784 0.61617647 0.24313725
0.81960784 0.61519608 0.24313725
0.81960784 0.6122549 0.24313725
0.81985294 0.6122549 0.24289216
0.82352941 0.6127451 0.24221814
0.82352941 0.61617647 0.23921569
0.82745098 0.6122549 0.23921569
0.83137255 0.60882353 0.23921569
0.83382353 0.60833333 0.24264706
0.83921569 0.60882353 0.24313725
0.84313725 0.6122549 0.24313725
0.84901961 0.61642157 0.24681373
0.85539216 0.62015931 0.24705882
0.86176471 0.62316176 0.2504902
0.86813725 0.62420343 0.25098039
0.8745098 0.6245098 0.25490196
0.88088235 0.62794118 0.25882353
0.8872549 0.62794118 0.2627451
0.89368873 0.62843137 0.26617647
0.90220588 0.63210784 0.26666667
0.91029412 0.63578431 0.26317402
0.92058824 0.63884804 0.2627451
0.92726716 0.63988971 0.26145833
0.9372549 0.64362745 0.25882353
0.81960784 0.62647059 0.24313725
0.81960784 0.62647059 0.24313725
0.81960784 0.62647059 0.24240196
0.81960784 0.62647059 0.24019608
0.82352941 0.62647059 0.23921569
0.82352941 0.62647059 0.23627451
0.82352941 0.62647059 0.23553922
0.82745098 0.62438725 0.23529412
0.83137255 0.62254902 0.23627451
0.83529412 0.62438725 0.23921569
0.84019608 0.62573529 0.23946078
0.84656863 0.62904412 0.24276961
0.85098039 0.63186275 0.24313725
0.85796569 0.63431373 0.24448529
0.8627451 0.6379902 0.24705882
0.86997549 0.63823529 0.25098039
0.8745098 0.64117647 0.25490196
0.88235294 0.64178922 0.25735294
0.88946078 0.64289216 0.2627451
0.89669118 0.64509804 0.26654412
0.90392157 0.64901961 0.26666667
0.91409314 0.65036765 0.26666667
0.92058824 0.65367647 0.26568627
0.93088235 0.65686275 0.26568627
0.9372549 0.66078431 0.26960784
0.81960784 0.63676471 0.23921569
0.81960784 0.63676471 0.23921569
0.82169118 0.63676471 0.23921569
0.82352941 0.63676471 0.23792892
0.82352941 0.63676471 0.23529412
0.82352941 0.63676471 0.23351716
0.82683824 0.63676471 0.23137255
0.82745098 0.63676471 0.23045343
0.83137255 0.63823529 0.23137255
0.8377451 0.64068627 0.23529412
0.84313725 0.64215686 0.2377451
0.84705882 0.64460784 0.23921569
0.85294118 0.64607843 0.23921569
0.85900735 0.64871324 0.24185049
0.86568627 0.65245098 0.24497549
0.87205882 0.65300245 0.24852941
0.87843137 0.65637255 0.25490196
0.88480392 0.65784314 0.25882353
0.89117647 0.66029412 0.26372549
0.89773284 0.66176471 0.26795343
0.90784314 0.66568627 0.26936275
0.91421569 0.66960784 0.27077206
0.9245098 0.67316176 0.27316176
0.93088235 0.67653186 0.28045343
0.9372549 0.67745098 0.28921569
0.82352941 0.65098039 0.23921569
0.82352941 0.65098039 0.23921569
0.82352941 0.65098039 0.23921569
0.82352941 0.65098039 0.23529412
0.82745098 0.65098039 0.23529412
0.82745098 0.65098039 0.23137255
0.82745098 0.65098039 0.23137255
0.82892157 0.65098039 0.22745098
0.83529412 0.65490196 0.23137255
0.83921569 0.65735294 0.23137255
0.84411765 0.65882353 0.23529412
0.8504902 0.65882353 0.23529412
0.85490196 0.6627451 0.2372549
0.85931373 0.6627451 0.23921569
0.86666667 0.66666667 0.24313725
0.8745098 0.66813725 0.24852941
0.88235294 0.67058824 0.25490196
0.88872549 0.6745098 0.26127451
0.89411765 0.67843137 0.26666667
0.90147059 0.67843137 0.27058824
0.90784314 0.68235294 0.2745098
0.91813725 0.68676471 0.27892157
0.9245098 0.69019608 0.28921569
0.93333333 0.69411765 0.2995098
0.9372549 0.69803922 0.30588235
0.82598039 0.67156863 0.23921569
0.82598039 0.67156863 0.23921569
0.82745098 0.67156863 0.23921569
0.82745098 0.67156863 0.23792892
0.82867647 0.67156863 0.23529412
0.83008578 0.67156863 0.23351716
0.83137255 0.67156863 0.23137255
0.83382353 0.67248775 0.22745098
0.8377451 0.6754902 0.22745098
0.84166667 0.6754902 0.23045343
0.84705882 0.67585784 0.23137255
0.85098039 0.67696078 0.23265931
0.85686275 0.67941176 0.23529412
0.86305147 0.67941176 0.23921569
0.86960784 0.68272059 0.24497549
0.87598039 0.68572304 0.25098039
0.88235294 0.68872549 0.25490196
0.88872549 0.69209559 0.26219363
0.89509804 0.69509804 0.26764706
0.90410539 0.69871324 0.27432598
0.91176471 0.70171569 0.28284314
0.91813725 0.70471814 0.29313725
0.9254902 0.70980392 0.30343137
0.93333333 0.71317402 0.31617647
0.9372549 0.71470588 0.32254902
0.82843137 0.69215686 0.24313725
0.82843137 0.69215686 0.24313725
0.83137255 0.69215686 0.23921569
0.83137255 0.69215686 0.23921569
0.83186275 0.69215686 0.23578431
0.83272059 0.69227941 0.23529412
0.83529412 0.69607843 0.23235294
0.83737745 0.69607843 0.22990196
0.84019608 0.69607843 0.22745098
0.84375 0.69607843 0.22708333
0.84877451 0.69607843 0.22745098
0.85453431 0.69607843 0.23039216
0.85882353 0.69607843 0.23137255
0.86409314 0.7 0.23835784
0.87058824 0.7 0.24607843
0.87843137 0.70392157 0.25245098
0.88627451 0.70784314 0.25882353
0.89080882 0.71139706 0.26519608
0.89901961 0.7125 0.27156863
0.90539216 0.71568627 0.28272059
0.91372549 0.71960784 0.29558824
0.92169118 0.72352941 0.30870098
0.92843137 0.72720588 0.32230392
0.93480392 0.73137255 0.33284314
0.93823529 0.73431373 0.34215686
0.83480392 0.71617647 0.24313725
0.83480392 0.71666667 0.24313725
0.83480392 0.71617647 0.24301471
0.83480392 0.71617647 0.23964461
0.83529412 0.71642157 0.23921569
0.83872549 0.71666667 0.23529412
0.83921569 0.71666667 0.23529412
0.84264706 0.71666667 0.22990196
0.84313725 0.71666667 0.22352941
0.84705882 0.71666667 0.22352941
0.85183824 0.71666667 0.22401961
0.85790441 0.71666667 0.22702206
0.86078431 0.71666667 0.22941176
0.86709559 0.72058824 0.23578431
0.87352941 0.72058824 0.24607843
0.87990196 0.7245098 0.25245098
0.88627451 0.725 0.25882353
0.89264706 0.72843137 0.26519608
0.89901961 0.73235294 0.27634804
0.9088848 0.73584559 0.29264706
0.91568627 0.73823529 0.30735294
0.92205882 0.74025735 0.32156863
0.92928922 0.74411765 0.33578431
0.93694853 0.74822304 0.34969363
0.94117647 0.75196078 0.35980392
0.83921569 0.7372549 0.24509804
0.83921569 0.7372549 0.24313725
0.83921569 0.7372549 0.24313725
0.83921569 0.7372549 0.24313725
0.83921569 0.7372549 0.24019608
0.84142157 0.7372549 0.23921569
0.84313725 0.7372549 0.23578431
0.84583333 0.7372549 0.23137255
0.84705882 0.7372549 0.22352941
0.8502451 0.7372549 0.21960784
0.85490196 0.7372549 0.21764706
0.85857843 0.7372549 0.21960784
0.86372549 0.73921569 0.2254902
0.87058824 0.74117647 0.23553922
0.87598039 0.74117647 0.24411765
0.88112745 0.74509804 0.25245098
0.88627451 0.74509804 0.25882353
0.89534314 0.74828431 0.27107843
0.90294118 0.7495098 0.28627451
0.90955882 0.75294118 0.30294118
0.91862745 0.75686275 0.31764706
0.92598039 0.75906863 0.33235294
0.93235294 0.76078431 0.34901961
0.93872549 0.76348039 0.36495098
0.94313725 0.76862745 0.37843137
0.84313725 0.75833333 0.24705882
0.84313725 0.76176471 0.24705882
0.84313725 0.76176471 0.24705882
0.84356618 0.76176471 0.24362745
0.84362745 0.76176471 0.24313725
0.84705882 0.76176471 0.23964461
0.84742647 0.75919118 0.23921569
0.85098039 0.75784314 0.23382353
0.85098039 0.75784314 0.22401961
0.8536152 0.75784314 0.21715686
0.85625 0.75784314 0.21176471
0.85925245 0.76133578 0.21170343
0.86666667 0.76176471 0.22107843
0.87150735 0.76176471 0.23186275
0.87757353 0.76176471 0.24215686
0.8841299 0.76568627 0.25294118
0.89019608 0.76568627 0.26372549
0.89675245 0.76568627 0.27990196
0.9060049 0.76960784 0.29656863
0.91329657 0.77346814 0.31372549
0.92181373 0.7754902 0.32990196
0.92947304 0.77745098 0.34613971
0.93627451 0.77745098 0.36372549
0.94264706 0.78137255 0.38823529
0.94901961 0.78529412 0.40147059
0.84705882 0.78235294 0.24705882
0.84705882 0.78235294 0.24705882
0.84705882 0.78235294 0.24705882
0.84705882 0.78235294 0.24705882
0.85 0.78235294 0.24607843
0.85012255 0.78235294 0.24313725
0.85098039 0.78235294 0.23995098
0.85392157 0.78088235 0.23382353
0.85490196 0.77843137 0.22745098
0.85784314 0.77843137 0.2189951
0.85955882 0.77867647 0.21078431
0.86262255 0.78235294 0.20526961
0.86862745 0.78235294 0.21911765
0.87487745 0.78235294 0.23480392
0.88210784 0.78235294 0.24901961
0.88958333 0.78627451 0.26323529
0.89705882 0.78921569 0.27745098
0.90343137 0.79019608 0.2935049
0.90980392 0.79019608 0.31053922
0.91715686 0.79362745 0.32745098
0.925 0.79460784 0.34362745
0.93247549 0.79497549 0.36372549
0.93946078 0.79705882 0.38651961
0.94620098 0.7995098 0.40992647
0.95196078 0.80294118 0.42843137
0.85245098 0.80294118 0.25098039
0.85245098 0.80294118 0.25098039
0.85245098 0.80294118 0.24852941
0.85245098 0.80294118 0.24705882
0.85245098 0.80686275 0.24705882
0.85490196 0.80441176 0.24675245
0.8560049 0.80330882 0.24129902
0.85729167 0.80055147 0.234375
0.85882353 0.79509804 0.22745098
0.85882353 0.79270833 0.22107843
0.8627451 0.78933824 0.21115196
0.8627451 0.78480392 0.20784314
0.87132353 0.79289216 0.22352941
0.87892157 0.79803922 0.24019608
0.88676471 0.80257353 0.25833333
0.89466912 0.80686275 0.275
0.90196078 0.81078431 0.29166667
0.90833333 0.81078431 0.30833333
0.91470588 0.81078431 0.325
0.92126225 0.81078431 0.34558824
0.92892157 0.81397059 0.36372549
0.93743873 0.81341912 0.38431373
0.94411765 0.81470588 0.40845588
0.9504902 0.81862745 0.43333333
0.95686275 0.82254902 0.45147059
0.85490196 0.81568627 0.25098039
0.85490196 0.81568627 0.25098039
0.85490196 0.81666667 0.25098039
0.85490196 0.81960784 0.25098039
0.85882353 0.82156863 0.24705882
0.85882353 0.82401961 0.24705882
0.85882353 0.82058824 0.24313725
0.85882353 0.81176471 0.23529412
0.85882353 0.80392157 0.22745098
0.86127451 0.79607843 0.22107843
0.8627451 0.79117647 0.21176471
0.8627451 0.78823529 0.20784314
0.87254902 0.79411765 0.22352941
0.87892157 0.80392157 0.24411765
0.88921569 0.81078431 0.26176471
0.89803922 0.82107843 0.28137255
0.90588235 0.82745098 0.29803922
0.9122549 0.82745098 0.31862745
0.91862745 0.82745098 0.33529412
0.925 0.82745098 0.35588235
0.93137255 0.82745098 0.37647059
0.9377451 0.82745098 0.39754902
0.94803922 0.83039216 0.4245098
0.95441176 0.83284314 0.45
0.96078431 0.83529412 0.47058824
0.80784314 0.5254902 0.25490196
0.81176471 0.5254902 0.25735294
0.81176471 0.5254902 0.25882353
0.81568627 0.52892157 0.2627451
0.81642157 0.52941176 0.2627451
0.81960784 0.52941176 0.26666667
0.81960784 0.52941176 0.2685049
0.82352941 0.52941176 0.27058824
0.82352941 0.52941176 0.27058824
0.82745098 0.52941176 0.27303922
0.82745098 0.52941176 0.2745098
0.83137255 0.52941176 0.2745098
0.83529412 0.52941176 0.2745098
0.84313725 0.53333333 0.2745098
0.85 0.53333333 0.2745098
0.85637255 0.53333333 0.2745098
0.8627451 0.53333333 0.27058824
0.86911765 0.53333333 0.27058824
0.8754902 0.53333333 0.27058824
0.88578431 0.53333333 0.27058824
0.89607843 0.53333333 0.27254902
0.90637255 0.5377451 0.2745098
0.91960784 0.54117647 0.27843137
0.93088235 0.54509804 0.27990196
0.9372549 0.54901961 0.28235294
0.80876225 0.52849265 0.25490196
0.81176471 0.52941176 0.25582108
0.8127451 0.52941176 0.25882353
0.81568627 0.52941176 0.2622549
0.81764706 0.53186275 0.2627451
0.81960784 0.53333333 0.26666667
0.8227788 0.53333333 0.26666667
0.82352941 0.53333333 0.27058824
0.82598039 0.53333333 0.27058824
0.82745098 0.53333333 0.27058824
0.82843137 0.53333333 0.27267157
0.83137255 0.53333333 0.2745098
0.83529412 0.53333333 0.2745098
0.84313725 0.53333333 0.27205882
0.85 0.53333333 0.27205882
0.85637255 0.53333333 0.27058824
0.8627451 0.53333333 0.27058824
0.86911765 0.53333333 0.27058824
0.8754902 0.53333333 0.27058824
0.88578431 0.53333333 0.27058824
0.89607843 0.5372549 0.27058824
0.90637255 0.54117647 0.2745098
0.92022059 0.54411765 0.27843137
0.93088235 0.54509804 0.27898284
0.9372549 0.54901961 0.28235294
0.81176471 0.53431373 0.25490196
0.81176471 0.53431373 0.25490196
0.81348039 0.53431373 0.25882353
0.81568627 0.53431373 0.25882353
0.81960784 0.53633578 0.2627451
0.81973039 0.5372549 0.26634498
0.82352941 0.5372549 0.26666667
0.82352941 0.5372549 0.26928615
0.82745098 0.5372549 0.27058824
0.82745098 0.5372549 0.27058824
0.83137255 0.5372549 0.27058824
0.83223039 0.53445159 0.27058824
0.8372549 0.53431373 0.27058824
0.84313725 0.5372549 0.27058824
0.85 0.5372549 0.27058824
0.85637255 0.5372549 0.27045037
0.8627451 0.5372549 0.26960784
0.86911765 0.5372549 0.26666667
0.87622549 0.5372549 0.26666667
0.88578431 0.53811275 0.27009804
0.89607843 0.54166667 0.27058824
0.9064951 0.54509804 0.2745098
0.92058824 0.54607843 0.27745098
0.93088235 0.54901961 0.27843137
0.9372549 0.55 0.28235294
0.81176471 0.5408701 0.25490196
