site/assets/luts/natron-haldclut--kodak-portra-400--bdcc641c3.cube
# LUTr-Project: LUTr — LUTrepository
# LUTr-Schema-Version: 1
# LUTr-ID: natron-haldclut--kodak-portra-400--bdcc641c3
# LUTr-Title: kodak portra 400
# LUTr-Collection: Natron HaldCLUT
# LUTr-Collection-ID: natron-haldclut-presets
# LUTr-Source: https://github.com/NatronGitHub/clut
# LUTr-Source-File: submissions/natron-haldclut-presets/negative_new/kodak_portra_400.png
# LUTr-Source-Format: PNG
# LUTr-Source-SHA256: 1e55696363f4bb45222616e000e9e099a538fbb116605eea7b75852200d6d3f0
# LUTr-License: CC-BY-SA-4.0
# LUTr-License-URL: https://github.com/NatronGitHub/clut#license
# LUTr-Tags: creative, film, film-emulation, hald-clut, natron, png, cube
# LUTr-Transform-Class: film-emulation
# LUTr-Input-Color-Space: srgb
# LUTr-Output-Color-Space: srgb
# LUTr-Color-Space-Confidence: assumed-display-referred
# LUTr-Conversion-Method: PNG LUT image decoded at 16-bit and sampled to 25x25x25 3D CUBE
# LUTr-Conversion-Date: 2026-07-27
# LUTr-Conversion-Tool: LUTr scripts/convert-all-to-cube.mjs
# LUTr-Conversion-Grid: 25x25x25
# LUTr-Note: Preserve this metadata and the upstream license notices when redistributing.
TITLE "kodak portra 400"
LUT_3D_SIZE 5
DOMAIN_MIN 0 0 0
DOMAIN_MAX 1 1 1
0.023529412 0.019607843 0.019607843
0.22941176 0.021568627 0.017647059
0.62941176 0.021568627 0.01372549
0.91764706 0.024509804 0.00098039216
1 0.22745098 0
0.0049019608 0.18431373 0.03627451
0.17941176 0.21544118 0.035294118
0.60490196 0.26176471 0.0029411765
0.90416667 0.30906863 0
0.99607843 0.36862745 0
0 0.47843137 0.1254902
0.044607843 0.46078431 0.15392157
0.4872549 0.53039216 0.012745098
0.84019608 0.57303922 0.0078431373
0.98235294 0.58235294 0.0039215686
0.0039215686 0.71372549 0.29411765
0.069607843 0.70269608 0.3127451
0.42892157 0.70147059 0.29656863
0.74117647 0.75122549 0.18848039
0.97254902 0.78333333 0.012745098
0.50980392 0.93333333 0.62745098
0.55098039 0.92941176 0.63823529
0.64313725 0.91960784 0.65686275
0.7754902 0.94215686 0.65392157
0.90196078 0.94901961 0.58039216
0.00098039216 0.023529412 0.24215686
0.26372549 0.0078431373 0.26838235
0.65098039 0 0.275
0.93627451 0.0046568627 0.23602941
1 0.20392157 0.19509804
0.0039215686 0.24044118 0.25392157
0.24748775 0.25759804 0.26488971
0.64558824 0.25539216 0.24142157
0.90980392 0.29724265 0.21053922
1 0.36151961 0.18333333
0.01127451 0.56078431 0.32107843
0.1314951 0.53345588 0.31384804
0.52598039 0.5504902 0.27573529
0.84816176 0.58431373 0.14509804
1 0.58627451 0.033823529
0.006372549 0.74313725 0.40294118
0.20931373 0.7245098 0.40704657
0.45490196 0.71078431 0.41188725
0.75349265 0.75851716 0.35802696
0.98823529 0.78333333 0.2620098
0.50490196 0.93333333 0.64215686
0.56127451 0.93455882 0.66004902
0.65343137 0.92156863 0.68431373
0.77916667 0.94681373 0.68676471
0.95294118 0.97254902 0.65098039
0 0.019607843 0.59411765
0.34607843 0.0078431373 0.62696078
0.74509804 0.0049019608 0.68137255
0.94313725 0.012254902 0.66617647
1 0.20980392 0.61372549
0.0024509804 0.27254902 0.56078431
0.26470588 0.27941176 0.60441176
0.72696078 0.31617647 0.67156863
0.92144608 0.32071078 0.63970588
1 0.4127451 0.60392157
0.0078431373 0.6245098 0.61372549
0.20367647 0.61789216 0.6125
0.61813725 0.61323529 0.62598039
0.86029412 0.60637255 0.59754902
0.99215686 0.60980392 0.57254902
0.33235294 0.81176471 0.6495098
0.43860294 0.79852941 0.64705882
0.56078431 0.75490196 0.61544118
0.77340686 0.77696078 0.60012255
0.97647059 0.79117647 0.56617647
0.55098039 0.95098039 0.72156863
0.57745098 0.94901961 0.725
0.66372549 0.93823529 0.72941176
0.79019608 0.94509804 0.75147059
0.95490196 0.96470588 0.7254902
0.26666667 0.11666667 0.82254902
0.45196078 0.091666667 0.83431373
0.74509804 0.11617647 0.86519608
0.9747549 0.2875 0.88529412
0.99607843 0.36568627 0.85392157
0.18357843 0.31666667 0.80784314
0.41029412 0.32745098 0.8189951
0.72401961 0.39607843 0.85392157
0.94669118 0.4848652 0.87647059
0.99828431 0.50318627 0.85098039
0.0034313725 0.57647059 0.77107843
0.22389706 0.56482843 0.75821078
0.62745098 0.6127451 0.81470588
0.89215686 0.69019608 0.85784314
0.98823529 0.67990196 0.84607843
0.25098039 0.82156863 0.81544118
0.39215686 0.81881127 0.81544118
0.6122549 0.8182598 0.81789216
0.83823529 0.82647059 0.83094363
0.99215686 0.82647059 0.80980392
0.55196078 0.98431373 0.85294118
0.58946078 0.98137255 0.85686275
0.69852941 0.97156863 0.8495098
0.81151961 0.95759804 0.84117647
0.91470588 0.96470588 0.84509804
0.54117647 0.42352941 0.98823529
0.60294118 0.42843137 0.98529412
0.75490196 0.4372549 0.98431373
0.93627451 0.49411765 0.99117647
1 0.58039216 0.99607843
0.5372549 0.51862745 0.98823529
0.60269608 0.52720588 0.98897059
0.73627451 0.53186275 0.9754902
0.92058824 0.59901961 0.99289216
0.99607843 0.63431373 0.98823529
0.47647059 0.6627451 0.97058824
0.54215686 0.66568627 0.97401961
0.70882353 0.68333333 0.98039216
0.89313725 0.72647059 0.98039216
0.99607843 0.75686275 0.98823529
0.38823529 0.81470588 0.95882353
0.44583333 0.81078431 0.95735294
0.60294118 0.80441176 0.95980392
0.8375 0.82965686 0.97181373
0.99215686 0.8872549 0.99117647
0.49803922 0.98431373 0.98039216
0.53627451 0.96960784 0.97254902
0.66470588 0.98823529 0.98627451
0.82647059 0.99019608 0.99117647
0.98823529 0.98039216 0.99215686
