site/assets/luts/natron-haldclut--polaroid-px-680---52e9af14f.cube
# LUTr-Project: LUTr — LUTrepository
# LUTr-Schema-Version: 1
# LUTr-ID: natron-haldclut--polaroid-px-680---52e9af14f
# LUTr-Title: polaroid px-680 -
# LUTr-Collection: Natron HaldCLUT
# LUTr-Collection-ID: natron-haldclut-presets
# LUTr-Source: https://github.com/NatronGitHub/clut
# LUTr-Source-File: submissions/natron-haldclut-presets/instant_consumer/polaroid_px-680_-.png
# LUTr-Source-Format: PNG
# LUTr-Source-SHA256: 95a36465ecd762344ad023cf43874e3d2e9091c315663338dae524a8e9a78afc
# LUTr-License: CC-BY-SA-4.0
# LUTr-License-URL: https://github.com/NatronGitHub/clut#license
# LUTr-Tags: creative, film, film-emulation, hald-clut, natron, png, cube
# LUTr-Transform-Class: film-emulation
# LUTr-Input-Color-Space: srgb
# LUTr-Output-Color-Space: srgb
# LUTr-Color-Space-Confidence: assumed-display-referred
# LUTr-Conversion-Method: PNG LUT image decoded at 16-bit and sampled to 25x25x25 3D CUBE
# LUTr-Conversion-Date: 2026-07-27
# LUTr-Conversion-Tool: LUTr scripts/convert-all-to-cube.mjs
# LUTr-Conversion-Grid: 25x25x25
# LUTr-Note: Preserve this metadata and the upstream license notices when redistributing.
TITLE "polaroid px-680 -"
LUT_3D_SIZE 9
DOMAIN_MIN 0 0 0
DOMAIN_MAX 1 1 1
0 0.10196078 0.15686275
0.01372549 0.10147059 0.15294118
0.12647059 0.10980392 0.16372549
0.28921569 0.11372549 0.1622549
0.50196078 0.14117647 0.16470588
0.73039216 0.19362745 0.16470588
0.85882353 0.31078431 0.18921569
0.93039216 0.41666667 0.24803922
0.99215686 0.50196078 0.29803922
0 0.13627451 0.16078431
0.026470588 0.14019608 0.16470588
0.12696078 0.12843137 0.1564951
0.3122549 0.15441176 0.16078431
0.53504902 0.18137255 0.17058824
0.72628676 0.24656863 0.17040441
0.85882353 0.33051471 0.18039216
0.92647059 0.4245098 0.24411765
0.97254902 0.50539216 0.30196078
0 0.17941176 0.16372549
0.0039215686 0.18921569 0.16764706
0.12058824 0.21470588 0.17254902
0.31617647 0.23431373 0.1622549
0.55343137 0.2745098 0.16078431
0.73590686 0.33296569 0.15686275
0.84607843 0.39705882 0.18014706
0.92254902 0.46973039 0.23578431
0.96666667 0.53039216 0.2872549
0 0.31960784 0.17892157
0.0036151961 0.32941176 0.18020833
0.049877451 0.35845588 0.18284314
0.31029412 0.39993873 0.18431373
0.56397059 0.44411765 0.14460784
0.72107843 0.45686275 0.14993873
0.83186275 0.475 0.1560049
0.90833333 0.53137255 0.225
0.95931373 0.57990196 0.28872549
0 0.48627451 0.18823529
0 0.48235294 0.20392157
0.0098039216 0.49705882 0.19460784
0.21593137 0.52990196 0.18946078
0.50294118 0.57352941 0.18431373
0.70588235 0.61102941 0.17401961
0.80882353 0.59607843 0.18823529
0.8875 0.60465686 0.22867647
0.94509804 0.64705882 0.29019608
0 0.6122549 0.21715686
0.0039215686 0.60980392 0.22126225
0.0050245098 0.61727941 0.22438725
0.16709559 0.63823529 0.23431373
0.43970588 0.66372549 0.24803922
0.63241422 0.69068627 0.25931373
0.77585784 0.71029412 0.26421569
0.8622549 0.71421569 0.28351716
0.91715686 0.72205882 0.31960784
0 0.71666667 0.27745098
0.016666667 0.7127451 0.28835784
0.0125 0.7127451 0.29215686
0.19473039 0.72058824 0.30551471
0.4377451 0.73970588 0.31519608
0.59705882 0.75637255 0.34558824
0.73161765 0.7754902 0.36764706
0.82757353 0.79460784 0.38382353
0.89901961 0.81470588 0.41862745
0.15784314 0.80539216 0.37058824
0.21176471 0.80539216 0.37745098
0.27683824 0.80539216 0.38235294
0.38958333 0.80931373 0.39675245
0.50980392 0.82107843 0.42352941
0.62156863 0.8341299 0.44479167
0.72230392 0.84509804 0.45784314
0.81715686 0.86072304 0.48480392
0.87401961 0.8754902 0.50686275
0.51372549 0.89803922 0.50588235
0.50931373 0.89411765 0.49803922
0.54019608 0.89411765 0.50882353
0.57647059 0.89411765 0.51372549
0.64117647 0.90196078 0.5372549
0.69460784 0.8995098 0.54264706
0.76666667 0.91372549 0.56470588
0.82843137 0.92598039 0.58529412
0.84705882 0.92941176 0.58823529
0.0039215686 0.12107843 0.18382353
0.033884804 0.11715686 0.17990196
0.11862745 0.10943627 0.17598039
0.30735294 0.10637255 0.1877451
0.5254902 0.13431373 0.20490196
0.73265931 0.22745098 0.22775735
0.86078431 0.32892157 0.25453431
0.93039216 0.43627451 0.30189951
0.97254902 0.5245098 0.35588235
0 0.13327206 0.1877451
0.026148897 0.14067862 0.18387714
0.14070159 0.14019608 0.18382353
0.33382353 0.15098039 0.19493719
0.55438113 0.18066789 0.20836397
0.72888327 0.26960784 0.23134957
0.85428922 0.36178002 0.25136336
0.93033854 0.45098039 0.29417892
0.96911765 0.52941176 0.34810049
0.0039215686 0.21617647 0.20208333
0.0078278186 0.19987745 0.19428615
0.13391544 0.22999387 0.19947917
0.35758272 0.25200674 0.20165441
0.58008578 0.29405637 0.20300245
0.74264706 0.35245098 0.21871936
0.85355392 0.41838235 0.23998162
0.91830576 0.48884804 0.28702512
0.96727941 0.55343137 0.34313725
0 0.33903186 0.21893382
0.0052083333 0.34509804 0.21866575
0.067708333 0.36692708 0.21372549
0.32959559 0.41140472 0.2037454
0.5747549 0.4502451 0.19901961
0.72880668 0.45202206 0.18988971
0.8352788 0.48872549 0.21698836
0.91051624 0.53917739 0.271875
0.94920343 0.59068627 0.32843137
0.0078431373 0.49387255 0.23627451
0.0019607843 0.49972426 0.22254902
0.0074142157 0.51366422 0.22818627
0.23823529 0.53823529 0.22950368
0.51801471 0.57806373 0.2254902
0.70686275 0.60220588 0.22916667
0.80882353 0.59926471 0.23915441
0.88921569 0.6098652 0.26691176
0.9370098 0.63848039 0.30784314
0.0078431373 0.6158701 0.27107843
0.0078431373 0.60980392 0.26361826
0.0043351716 0.62394301 0.26360294
0.18805147 0.63952206 0.2727405
0.45808824 0.66510417 0.27833946
0.64491422 0.69460784 0.29088542
0.78071385 0.71668199 0.31234681
0.8627451 0.71207108 0.33337163
0.90030637 0.72598039 0.35753676
0.015196078 0.71666667 0.31776961
0.0085631127 0.71285233 0.31127451
0.014215686 0.7198223 0.30735294
0.25182292 0.72745098 0.32526042
0.44301471 0.7377451 0.34442402
0.60698529 0.75859375 0.36262255
0.73226103 0.77815564 0.38676471
0.83186275 0.79471507 0.41066176
0.87941176 0.80723039 0.42598039
0.19577206 0.80925245 0.38535539
0.21464461 0.80539216 0.38921569
0.29166667 0.80539216 0.39669118
0.403125 0.80931373 0.41149663
0.5075674 0.81666667 0.43039216
0.62938879 0.82908241 0.4540288
0.72487745 0.8442402 0.46867341
0.81323529 0.85991881 0.49123775
0.88529412 0.87941176 0.5151348
0.49803922 0.89068627 0.50196078
0.52959559 0.89810049 0.51078431
0.55318627 0.90208333 0.51776961
0.58872549 0.8995098 0.52334559
0.64068627 0.8995098 0.53676471
0.70490196 0.90637255 0.553125
0.76666667 0.91372549 0.56813725
0.82408088 0.92156863 0.58088235
0.87401961 0.93676471 0.61127451
0.0078431373 0.10980392 0.22156863
0.029901961 0.11323529 0.21727941
0.1254902 0.12867647 0.22843137
0.28627451 0.11421569 0.23872549
0.5504902 0.055882353 0.2622549
0.74644608 0.18492647 0.30355392
0.85392157 0.33529412 0.34730392
0.91948529 0.47941176 0.39411765
0.96176471 0.57843137 0.44411765
0.0039215686 0.13578431 0.23627451
0.042156863 0.14718137 0.23606005
0.13970588 0.15683211 0.23897059
0.33938419 0.16564032 0.25919118
0.57009804 0.16305147 0.27867647
0.75900735 0.29992341 0.32610294
0.85428922 0.42457108 0.37251838
0.91449142 0.50217525 0.39791667
0.95392157 0.58198529 0.4372549
0.0078431373 0.24387255 0.2627451
0.041636029 0.23082108 0.25989583
0.17806373 0.24123775 0.26691176
0.38746936 0.27328431 0.2786152
0.59901961 0.32745098 0.29803922
0.74715074 0.39019608 0.32276348
0.84534314 0.47254902 0.35784314
0.90686275 0.53532475 0.39083946
0.95 0.60416667 0.43627451
0.0039215686 0.36421569 0.28284314
0.0039215686 0.3696538 0.28284314
0.18201593 0.39852941 0.29292279
0.3948989 0.43394608 0.29448529
0.59129902 0.46593137 0.30196078
0.73860294 0.47359069 0.30404412
0.83578431 0.5254902 0.33186275
0.9004902 0.57709865 0.3787837
0.95110294 0.63860294 0.43235294
0.023039216 0.5127451 0.30980392
0.02432598 0.52058824 0.30778186
0.045098039 0.53235294 0.29718137
0.33394608 0.55294118 0.31348039
0.53897059 0.58431373 0.32034314
0.69803922 0.60202206 0.3245098
0.8127451 0.59889706 0.32536765
0.88596814 0.62745098 0.35416667
0.93431373 0.66617647 0.3995098
0.0042892157 0.62904412 0.33676471
0.013235294 0.63088235 0.32691483
0.047181373 0.63578431 0.32374387
0.29833027 0.64546569 0.33860294
0.48676471 0.66911765 0.35300245
0.64980086 0.69368873 0.36424632
0.77435662 0.70824142 0.37806373
0.8597886 0.71827512 0.39362745
0.91862745 0.72806373 0.41335784
0.0058823529 0.71960784 0.35220588
0.014583333 0.72279412 0.34901961
0.14166667 0.7245098 0.35686275
0.34041054 0.73155637 0.37527574
0.48186275 0.74166667 0.39803922
0.61786152 0.75882353 0.41158088
0.73866422 0.77843137 0.43235294
0.8317402 0.79534314 0.45012255
0.90122549 0.8129902 0.47156863
0.27071078 0.80882353 0.41617647
0.27421875 0.80539216 0.41875
0.34705882 0.80539216 0.42380515
0.43993566 0.80931373 0.43702512
0.53609069 0.81709559 0.45741422
0.63970588 0.82642463 0.47642463
0.72892157 0.84154412 0.49261642
0.81703431 0.85980392 0.51464461
0.88566176 0.88198529 0.5372549
0.52647059 0.89803922 0.52156863
0.5189951 0.89546569 0.51495098
0.55122549 0.89730392 0.5245098
0.59865196 0.90147059 0.53786765
0.63872549 0.89558824 0.54411765
0.70036765 0.90196078 0.56017157
0.76666667 0.91372549 0.57720588
0.8245098 0.91813725 0.59571078
0.8745098 0.93333333 0.61960784
0.011764706 0.13186275 0.33529412
0.089522059 0.13707108 0.33137255
0.21176471 0.16311275 0.33529412
0.34356618 0.18045343 0.34313725
0.54877451 0.18161765 0.37573529
0.73731618 0.17794118 0.40251225
0.84473039 0.34448529 0.43529412
0.91421569 0.4973652 0.47383578
0.95294118 0.62254902 0.52794118
0.0042279412 0.15882353 0.33382353
0.077657782 0.17352941 0.34219516
0.24901961 0.20819547 0.35441176
0.37695313 0.23192402 0.36158854
0.56256127 0.24123775 0.38783701
0.74227175 0.26831342 0.41588542
0.845144 0.41654412 0.448606
0.91029412 0.52254902 0.47990196
0.94509804 0.63333333 0.5286152
0.0039215686 0.2622549 0.35281863
0.021599265 0.26328125 0.36531863
0.24852941 0.29411765 0.38219975
0.43419118 0.3381587 0.39290748
0.60251225 0.37156863 0.4122549
0.74872855 0.4084712 0.43350184
0.8314951 0.51473652 0.47074142
0.89362745 0.57991728 0.48944547
0.94117647 0.65980392 0.5310049
0.0024509804 0.37248775 0.3627451
0.0052772672 0.39264706 0.36894148
0.22513787 0.4221201 0.39460784
0.45042892 0.45784314 0.41525735
0.6122549 0.48480392 0.41911765
0.73529412 0.52254902 0.43759957
0.82198223 0.5932598 0.46548713
0.88381587 0.63970588 0.49411765
0.93480392 0.68333333 0.52555147
0.0039215686 0.5247549 0.38455882
0.061427696 0.52818627 0.38504902
0.28333333 0.55196078 0.40477941
0.44803922 0.57604167 0.42110907
0.58406863 0.58933824 0.42855392
0.71271446 0.61446078 0.43406863
0.81476716 0.63051471 0.43382353
0.87696078 0.67009804 0.46896446
0.92941176 0.70563725 0.4995098
0.2223652 0.64117647 0.4151348
0.26458333 0.64362745 0.41806832
0.33481924 0.64741115 0.4222886
0.41960784 0.65807292 0.42491575
0.54534314 0.67594975 0.4411152
0.67745098 0.69852941 0.4495098
0.78186275 0.70957414 0.46257659
0.85980392 0.72892157 0.47267923
0.92009804 0.74803922 0.49209559
0.26164216 0.7245098 0.42794118
0.30179228 0.72561275 0.43178615
0.34571078 0.72843137 0.43207721
0.42964154 0.73137255 0.44019608
0.5254902 0.74362745 0.45490196
0.64656863 0.76029412 0.47585784
0.74941789 0.77941176 0.48921569
0.84394914 0.80669424 0.51020221
0.90098039 0.81764706 0.51605392
0.35410539 0.80520833 0.46519608
0.36794577 0.80651808 0.46486673
0.40320159 0.80494792 0.4622549
0.48449755 0.80919884 0.48039216
0.56945466 0.81715686 0.49574142
0.65582108 0.83020833 0.51341912
0.73676471 0.8442402 0.52561275
0.82074908 0.86029412 0.54901961
0.88756127 0.88302696 0.5723652
0.52794118 0.89019608 0.5372549
0.52922794 0.89362745 0.53547794
0.53125 0.87843137 0.52794118
0.57990196 0.88872549 0.54215686
0.64705882 0.90196078 0.56519608
0.70827206 0.90441176 0.5783701
0.77156863 0.91801471 0.60098039
0.8245098 0.91911765 0.6122549
0.88235294 0.9372549 0.64558824
0.019607843 0.15098039 0.45098039
0.17401961 0.18014706 0.45490196
0.33382353 0.2122549 0.46617647
0.48946078 0.30441176 0.48235294
0.60196078 0.36470588 0.48627451
0.71960784 0.35686275 0.50392157
0.83235294 0.37156863 0.51764706
0.90098039 0.5 0.53382353
0.94901961 0.6 0.56666667
0.018627451 0.19926471 0.46617647
0.15318627 0.21688113 0.47052696
0.3471201 0.2598652 0.48406863
0.51979167 0.35670956 0.49313725
0.62046569 0.41139706 0.49693627
0.71764706 0.39485294 0.50753676
0.83235294 0.43578431 0.52377451
0.89727328 0.52254902 0.54166667
0.94509804 0.61911765 0.56862745
0.0093137255 0.30784314 0.48382353
0.12677696 0.31936275 0.48756127
0.33431373 0.35098039 0.49362745
0.51844363 0.43658088 0.50392157
0.6379902 0.48333333 0.51151961
0.71887255 0.47830882 0.51734069
0.82291667 0.51335784 0.53406863
0.88817402 0.59068627 0.55637255
0.94166667 0.66715686 0.58039216
0.011029412 0.42818627 0.47647059
0.010876225 0.43406863 0.48103554
0.26966912 0.44877451 0.490625
0.49761029 0.50245098 0.50637255
0.64644608 0.54889706 0.52022059
0.72766544 0.57668505 0.52941176
0.81280637 0.60189951 0.54571078
0.87533701 0.66642157 0.57598039
0.9254902 0.70441176 0.5875
0.0049019608 0.53529412 0.46666667
0.064338235 0.54031863 0.46568627
0.29166667 0.55392157 0.47769608
0.47181373 0.58480392 0.50441176
0.6245098 0.62352941 0.5245098
0.71948529 0.65098039 0.53529412
0.80980392 0.67916667 0.54705882
0.87156863 0.7125 0.56887255
0.92254902 0.74705882 0.58823529
0.13161765 0.62745098 0.45833333
0.23189338 0.63563113 0.46920956
0.35925245 0.64264706 0.47530637
0.51004902 0.67129289 0.50787377
0.60171569 0.68823529 0.52083333
0.7004902 0.70955882 0.53210784
0.79191176 0.72745098 0.54240196
0.86495098 0.73783701 0.54901961
0.92156863 0.76666667 0.56127451
0.31568627 0.71421569 0.48137255
0.36427696 0.7192402 0.48658088
0.44117647 0.72708333 0.49693627
0.52101716 0.73682598 0.50980392
0.58823529 0.75 0.51813725
0.66813725 0.76403186 0.53333333
0.76556373 0.7872549 0.54963235
0.84577206 0.80459559 0.55998775
0.90294118 0.81764706 0.56568627
0.42132353 0.80147059 0.5122549
0.46740196 0.80539216 0.51816789
0.48094363 0.80110294 0.51421569
0.52622549 0.80931373 0.51969975
0.59509804 0.81911765 0.53504902
0.66764706 0.83020833 0.54917279
0.7495098 0.84901961 0.56568627
0.83063725 0.86786152 0.58771446
0.88186275 0.87916667 0.60441176
0.54509804 0.89019608 0.56666667
0.54093137 0.87794118 0.55808824
0.54852941 0.86960784 0.55
0.60098039 0.89534314 0.56985294
0.65196078 0.89705882 0.58235294
0.7120098 0.91102941 0.60588235
0.77303922 0.9127451 0.61764706
0.83235294 0.91176471 0.62916667
0.86470588 0.9 0.62352941
0.2495098 0.24754902 0.56911765
0.30539216 0.23970588 0.57273284
0.44411765 0.29705882 0.5754902
0.584375 0.39797794 0.58088235
0.6747549 0.51544118 0.58088235
0.7495098 0.56029412 0.58572304
0.80257353 0.53468137 0.58872549
0.87028186 0.57647059 0.5995098
0.93186275 0.62107843 0.61470588
0.25490196 0.27745098 0.5745098
0.32349112 0.29814645 0.57696078
0.45442708 0.3504902 0.58069853
0.58536305 0.4301011 0.58480392
0.68039216 0.52833946 0.58302696
0.74932598 0.57225031 0.58854167
0.8064951 0.56176471 0.59486826
0.87794118 0.57481618 0.5995098
0.93333333 0.63627451 0.6223652
0.25588235 0.38431373 0.58088235
0.31752451 0.39080882 0.58088235
0.44990809 0.42181373 0.58360907
0.58137255 0.48676471 0.58664216
0.68743873 0.57794118 0.58854167
0.74650735 0.61551777 0.59509804
0.81470588 0.61501225 0.60248162
0.87371324 0.62544424 0.61046262
0.92904412 0.66715686 0.62647059
0.099019608 0.47303922 0.5661152
0.21857384 0.48076746 0.57003676
0.41072304 0.50189951 0.57552083
0.56057751 0.54307598 0.58333333
0.68529412 0.61568627 0.59387255
0.74616268 0.65369179 0.6027114
0.79448529 0.65375306 0.60562194
0.86684283 0.66704197 0.61512714
0.89803922 0.68780637 0.625
0.055392157 0.56029412 0.54803922
0.17199755 0.56636029 0.54877451
0.32818627 0.57297794 0.55753676
0.49310662 0.6033701 0.56933211
0.65833333 0.65171569 0.59117647
0.74436275 0.69659926 0.60441176
0.81035539 0.71936275 0.61501225
0.86651348 0.72794118 0.62901348
0.90196078 0.74509804 0.63823529
0.24117647 0.64607843 0.53535539
0.2787454 0.64607843 0.53535539
0.37941176 0.65502451 0.54659926
0.49307598 0.66790748 0.55441176
0.62352941 0.69601716 0.57745098
0.72990196 0.73263634 0.6004902
0.80680147 0.75104167 0.61101409
0.86365656 0.75637255 0.61196385
0.91317402 0.79754902 0.63976716
0.23210784 0.70061275 0.51519608
0.29718137 0.70742953 0.52303922
0.37662377 0.71237745 0.53014706
0.50274203 0.72783395 0.54869792
0.60851716 0.75294118 0.57205882
0.69940257 0.77892157 0.59250919
0.78345588 0.79393382 0.60713848
0.85490196 0.80373775 0.61122855
0.90980392 0.82598039 0.62193627
0.39852941 0.79626225 0.54362745
0.41715686 0.79366575 0.55055147
0.46090686 0.79312194 0.55490196
0.55360754 0.80673254 0.56881127
0.62598039 0.81715686 0.58005515
0.68173254 0.83154871 0.59048713
0.75919118 0.84803922 0.61188725
0.83627451 0.86764706 0.62963388
0.89166667 0.87941176 0.6495098
0.56176471 0.89656863 0.60539216
0.56617647 0.89754902 0.60520833
0.57671569 0.89019608 0.60147059
0.62457108 0.90202206 0.61084559
0.6620098 0.90196078 0.61519608
0.71127451 0.90980392 0.625
0.77058824 0.90686275 0.64558824
0.83988971 0.93069853 0.67775735
0.88627451 0.93970588 0.70343137
0.4372549 0.37647059 0.65
0.47058824 0.38088235 0.65294118
0.55318627 0.4247549 0.65686275
0.6567402 0.50147059 0.66078431
0.73137255 0.60098039 0.65686275
0.78431373 0.67696078 0.65686275
0.82156863 0.6745098 0.66078431
0.86372549 0.66323529 0.66213235
0.91666667 0.68921569 0.67254902
0.42843137 0.39252451 0.65686275
0.47783395 0.41421569 0.65686275
0.55658701 0.45122549 0.65686275
0.65245098 0.52094056 0.65428922
0.7341299 0.60349265 0.6564951
0.78284314 0.68321078 0.66078431
0.8247549 0.69371936 0.66556373
0.86884191 0.68507966 0.66605392
0.91017157 0.69215686 0.67254902
0.44019608 0.4754902 0.65294118
0.46764706 0.47990196 0.65392157
0.55471814 0.51151961 0.65686275
0.65245098 0.5620098 0.65502451
0.72892157 0.63333333 0.65686275
0.78321078 0.70168505 0.66470588
0.82941176 0.71642157 0.66807598
0.86323529 0.70364583 0.66862745
0.90171569 0.71078431 0.6754902
0.40845588 0.54448529 0.6432598
0.44056373 0.54803922 0.64486826
0.52156863 0.56400123 0.64718137
0.62438725 0.60147059 0.65225184
0.72205882 0.66041667 0.65882353
0.78431373 0.7277114 0.66954657
0.82487745 0.74730392 0.67254902
0.85196078 0.72990196 0.66885723
0.89914216 0.7377451 0.68039216
0.21323529 0.59362745 0.62205882
0.2908701 0.5997549 0.62444853
0.41323529 0.61115196 0.62781863
0.54803922 0.63756127 0.6377451
0.69093137 0.68284314 0.65318627
0.77003676 0.7372549 0.66617647
0.82095588 0.76973039 0.67573529
0.85998775 0.76734069 0.68106618
0.90196078 0.77647059 0.69019608
0.2932598 0.66482843 0.60870098
0.3182598 0.66306679 0.61262255
0.39923407 0.67043505 0.61262255
0.50467218 0.68480392 0.62115502
0.63480392 0.71029412 0.6377451
0.74365809 0.75404412 0.66211703
0.81810662 0.78676471 0.67647059
0.86335784 0.7973652 0.68828125
0.90196078 0.81029412 0.69705882
0.33235294 0.7245098 0.59411765
0.35689338 0.72745098 0.59727328
0.41783088 0.73400735 0.60122549
0.49852941 0.73893995 0.60284926
0.59987745 0.75220588 0.61862745
0.70870098 0.78284314 0.64166667
0.79828431 0.81078431 0.67279412
0.85980392 0.83382353 0.68921569
0.90196078 0.84901961 0.69289216
0.27843137 0.78308824 0.57487745
0.29554228 0.7810049 0.5729473
0.38933824 0.7885723 0.58848039
0.48333333 0.79523591 0.59742647
0.59411765 0.8125 0.615625
0.68543199 0.82397365 0.63261336
0.76841299 0.85245098 0.6645527
0.84362745 0.87666973 0.68958333
0.89791667 0.88688725 0.70098039
0.48235294 0.89313725 0.62843137
0.48026961 0.88762255 0.62843137
0.51470588 0.88627451 0.63235294
0.55808824 0.87622549 0.6307598
0.64313725 0.89803922 0.6504902
0.69362745 0.90196078 0.66409314
0.77132353 0.91470588 0.68823529
0.83578431 0.92156863 0.71127451
0.89019608 0.94019608 0.74509804
0.60588235 0.53186275 0.72303922
0.61323529 0.53621324 0.72696078
0.6622549 0.57401961 0.73039216
0.71979167 0.61617647 0.72647059
0.77720588 0.67156863 0.72303922
0.8254902 0.72156863 0.73039216
0.85110294 0.77806373 0.73431373
0.87892157 0.78186275 0.73431373
0.89803922 0.77401961 0.73431373
0.5872549 0.55098039 0.72996324
0.60931373 0.5622549 0.72696078
0.65833333 0.59189645 0.72696078
0.71960784 0.63351716 0.72459406
0.77720588 0.67941176 0.72647059
0.81764706 0.7312883 0.73039216
0.8488511 0.78546262 0.73431373
0.875 0.78180147 0.73431373
0.89411765 0.77009804 0.73039216
0.59509804 0.59620098 0.72696078
0.60551471 0.59313725 0.72647059
0.6580576 0.61632966 0.72647059
0.71242341 0.64696691 0.72303922
0.77310049 0.69613971 0.72683824
0.81764706 0.74497549 0.73039216
0.85110294 0.79754902 0.73394608
0.87457108 0.79731924 0.73823529
0.89019608 0.78480392 0.73468137
0.56813725 0.63529412 0.71911765
0.57399663 0.62598039 0.71911765
0.6323989 0.65 0.72296262
0.69153646 0.67658548 0.72303922
0.76145833 0.71412377 0.72665441
0.81427696 0.76029412 0.73197763
0.84852941 0.80931373 0.74119179
0.87156863 0.81884957 0.74262408
0.89773284 0.79969363 0.74215686
0.48259804 0.66593137 0.70931373
0.49901961 0.66617647 0.70931373
0.56476716 0.67156863 0.70863971
0.64984681 0.6997549 0.71642157
0.73125 0.7245098 0.72279412
0.80465686 0.76951593 0.73216912
0.84068627 0.81194853 0.74313725
0.86758578 0.83406863 0.75
0.88627451 0.82647059 0.75
0.37205882 0.70588235 0.69166667
0.38584559 0.70196078 0.69019608
0.45165441 0.70588235 0.69166667
0.54540441 0.72224265 0.69944087
0.66911765 0.73740809 0.70980392
0.75017616 0.77775735 0.7205193
0.84050245 0.82838542 0.74607843
0.87285539 0.8490579 0.75569853
0.89558824 0.85557598 0.76176471
0.39901961 0.76372549 0.6877451
0.41464461 0.76372549 0.68307292
0.44644608 0.76173407 0.67840074
0.52553615 0.76715686 0.68639706
0.60821078 0.77126225 0.69117647
0.69791667 0.7872549 0.70747549
0.80330882 0.83434436 0.73921569
0.87107843 0.8721201 0.76703431
0.89411765 0.87990196 0.76960784
0.41280637 0.81372549 0.67254902
0.42267157 0.82162224 0.67604167
0.45882353 0.81813725 0.67261029
0.50324755 0.82107843 0.67367494
0.58581495 0.83088235 0.68599877
0.67483915 0.83719363 0.69605545
0.76845895 0.85412071 0.72009804
0.85228248 0.89037224 0.75784314
0.88627451 0.90643382 0.77444853
0.42843137 0.89803922 0.6877451
0.38676471 0.89019608 0.67647059
0.43051471 0.87941176 0.68039216
0.46734069 0.88284314 0.67077206
0.55808824 0.89240196 0.68553922
0.66311275 0.90520833 0.70882353
0.76666667 0.9127451 0.72781863
0.84411765 0.90251225 0.75006127
0.89852941 0.94558824 0.79754902
0.71764706 0.68627451 0.79607843
0.72892157 0.69460784 0.80392157
0.74901961 0.70294118 0.79705882
0.76470588 0.68382353 0.7622549
0.81176471 0.73921569 0.78627451
0.84852941 0.78578431 0.79607843
0.87058824 0.82058824 0.79509804
0.88627451 0.85588235 0.79607843
0.89019608 0.8627451 0.79607843
0.72156863 0.69754902 0.80392157
0.72591912 0.70196078 0.80392157
0.73762255 0.70012255 0.79142157
0.76844363 0.70900735 0.77959559
0.80955882 0.74411765 0.78921569
0.84460784 0.78970588 0.79607843
0.86801471 0.8245098 0.79607843
0.88676471 0.84797794 0.79607843
0.90196078 0.8622549 0.80343137
0.71470588 0.71764706 0.80784314
0.70196078 0.69669118 0.78823529
0.74583333 0.72916667 0.80465686
0.77561275 0.7432598 0.80245098
0.80686275 0.75882353 0.79068627
0.84460784 0.8004902 0.79901961
0.86764706 0.82843137 0.79215686
0.88284314 0.84754902 0.78039216
0.89705882 0.85294118 0.79019608
0.6877451 0.72794118 0.80392157
0.69773284 0.7254902 0.8
0.72634804 0.7372549 0.80330882
0.76568627 0.75692402 0.80637255
0.80588235 0.78161765 0.80318627
0.83976716 0.80545343 0.79613971
0.87340686 0.84375 0.80637255
0.88658088 0.86568627 0.79491422
0.89558824 0.8745098 0.80392157
0.62745098 0.73921569 0.79019608
0.65857843 0.75073529 0.8
0.68627451 0.75490196 0.79754902
0.73308824 0.76593137 0.80392157
0.78431373 0.78627451 0.80392157
0.83553922 0.82107843 0.80784314
0.86372549 0.85 0.80392157
0.88627451 0.88063725 0.80980392
0.89019608 0.88235294 0.80784314
0.5495098 0.7745098 0.79411765
0.55637255 0.77156863 0.78970588
0.61482843 0.77794118 0.79852941
0.66421569 0.78339461 0.79761029
0.73553922 0.79534314 0.80318627
0.79607843 0.82107843 0.79908088
0.85833333 0.85772059 0.8067402
0.88284314 0.88284314 0.80784314
0.90196078 0.90343137 0.825
0.51078431 0.81862745 0.78921569
0.52941176 0.81764706 0.79215686
0.54779412 0.8129902 0.78039216
0.58039216 0.81458333 0.79056373
0.66470588 0.82058824 0.79117647
0.74546569 0.83382353 0.80784314
0.83063725 0.86372549 0.81176471
0.8814951 0.8942402 0.80931373
0.90196078 0.90980392 0.82352941
0.52205882 0.8754902 0.79656863
0.5254902 0.87156863 0.79258578
0.55294118 0.87941176 0.79840686
0.57892157 0.86893382 0.78952206
0.62745098 0.86764706 0.79019608
0.70459559 0.87726716 0.80814951
0.79448529 0.89080882 0.81960784
0.86323529 0.91121324 0.81966912
0.90196078 0.92990196 0.83970588
0.53333333 0.92941176 0.80392157
0.53676471 0.91764706 0.80343137
0.55588235 0.9245098 0.80294118
0.59215686 0.92696078 0.80931373
0.63333333 0.9254902 0.80588235
0.69705882 0.9254902 0.81421569
0.7627451 0.93823529 0.82941176
0.83627451 0.93333333 0.82745098
0.90196078 0.94509804 0.84705882
