site/assets/luts/natron-haldclut--lomography-x-pro-slide-200--9cecdde40.cube
# LUTr-Project: LUTr — LUTrepository
# LUTr-Schema-Version: 1
# LUTr-ID: natron-haldclut--lomography-x-pro-slide-200--9cecdde40
# LUTr-Title: lomography x-pro slide 200
# LUTr-Collection: Natron HaldCLUT
# LUTr-Collection-ID: natron-haldclut-presets
# LUTr-Source: https://github.com/NatronGitHub/clut
# LUTr-Source-File: submissions/natron-haldclut-presets/colorslide/lomography_x-pro_slide_200.png
# LUTr-Source-Format: PNG
# LUTr-Source-SHA256: dd5bc2dc1d32b1b7d90c846f7c74dbb5926458a7f1933a5bdd4c7c3b42163fd6
# LUTr-License: CC-BY-SA-4.0
# LUTr-License-URL: https://github.com/NatronGitHub/clut#license
# LUTr-Tags: creative, film, film-emulation, hald-clut, natron, png, cube
# LUTr-Transform-Class: film-emulation
# LUTr-Input-Color-Space: srgb
# LUTr-Output-Color-Space: srgb
# LUTr-Color-Space-Confidence: assumed-display-referred
# LUTr-Conversion-Method: PNG LUT image decoded at 16-bit and sampled to 25x25x25 3D CUBE
# LUTr-Conversion-Date: 2026-07-27
# LUTr-Conversion-Tool: LUTr scripts/convert-all-to-cube.mjs
# LUTr-Conversion-Grid: 25x25x25
# LUTr-Note: Preserve this metadata and the upstream license notices when redistributing.
TITLE "lomography x-pro slide 200"
LUT_3D_SIZE 25
DOMAIN_MIN 0 0 0
DOMAIN_MAX 1 1 1
0.019607843 0.039215686 0.0078431373
0.040196078 0.043137255 0.011764706
0.064705882 0.043137255 0.012745098
0.085294118 0.032352941 0.011764706
0.10588235 0.019607843 0.0058823529
0.12745098 0.0044117647 0.00098039216
0.16862745 0.014705882 0.014705882
0.20441176 0.022058824 0.025980392
0.23921569 0.015686275 0.015686275
0.27745098 0.012745098 0.0088235294
0.33431373 0.029411765 0.021568627
0.38627451 0.039705882 0.028431373
0.42745098 0.025490196 0.011764706
0.47745098 0.027941176 0.012745098
0.53921569 0.038235294 0.026470588
0.59705882 0.047058824 0.031372549
0.65882353 0.050980392 0.02745098
0.72058824 0.05245098 0.017156863
0.77647059 0.065686275 0.017647059
0.825 0.092647059 0.034803922
0.87254902 0.10980392 0.049019608
0.91176471 0.12598039 0.042156863
0.94901961 0.13333333 0.018627451
0.9754902 0.14803922 0.017156863
0.98431373 0.16078431 0.019607843
0.019607843 0.043137255 0.0053921569
0.040196078 0.044669118 0.010294118
0.064705882 0.054044118 0.015686275
0.085294118 0.05245098 0.015686275
0.10980392 0.042156863 0.012990196
0.1377451 0.03872549 0.014215686
0.175 0.042279412 0.019240196
0.2122549 0.046568627 0.024448529
0.2495098 0.046568627 0.022058824
0.28529412 0.04810049 0.017218137
0.33823529 0.053308824 0.026348039
0.38627451 0.058517157 0.027941176
0.43063725 0.054411765 0.021323529
0.48382353 0.058639706 0.025
0.54375 0.065808824 0.032843137
0.60343137 0.074938725 0.038296569
0.6627451 0.080392157 0.037745098
0.72205882 0.086764706 0.028982843
0.77745098 0.10134804 0.026960784
0.82745098 0.12009804 0.040870098
0.8745098 0.13872549 0.054166667
0.91176471 0.15588235 0.044791667
0.94607843 0.16960784 0.029779412
0.97395833 0.1901348 0.033823529
0.98431373 0.20441176 0.040196078
0.026470588 0.058823529 0.01372549
0.046078431 0.063602941 0.017647059
0.067892157 0.069362745 0.020343137
0.085294118 0.07254902 0.015808824
0.1122549 0.069607843 0.017647059
0.14754902 0.073529412 0.024509804
0.18210784 0.076715686 0.028431373
0.2182598 0.079534314 0.026348039
0.25196078 0.081372549 0.020588235
0.29105392 0.082352941 0.020098039
0.34117647 0.085539216 0.031617647
0.38627451 0.089215686 0.032352941
0.43431373 0.089705882 0.031862745
0.49276961 0.094485294 0.040563725
0.55098039 0.10171569 0.043872549
0.60882353 0.11090686 0.047058824
0.66666667 0.12058824 0.044117647
0.7245098 0.13186275 0.044117647
0.77745098 0.14215686 0.040931373
0.82990196 0.15894608 0.046691176
0.87843137 0.17647059 0.054901961
0.91127451 0.1995098 0.053186275
0.94215686 0.21372549 0.045098039
0.97058824 0.23468137 0.050490196
0.98529412 0.25196078 0.056862745
0.05 0.092647059 0.030882353
0.064031863 0.092647059 0.038235294
0.079779412 0.096568627 0.037254902
0.09307598 0.096568627 0.026960784
0.11740196 0.1004902 0.025
0.15398284 0.10441176 0.034375
0.18786765 0.10833333 0.03872549
0.22371324 0.1122549 0.038541667
0.25833333 0.11617647 0.038235294
0.29822304 0.11832108 0.040686275
0.34473039 0.12009804 0.042647059
0.38927696 0.12352941 0.03872549
0.43897059 0.12573529 0.040686275
0.49613971 0.13143382 0.047058824
0.55453431 0.13835784 0.049632353
0.61256127 0.14852941 0.050980392
0.67058824 0.15882353 0.054411765
0.72598039 0.17303922 0.059620098
0.78137255 0.18333333 0.054411765
0.83284314 0.19405637 0.050919118
0.87843137 0.21372549 0.054901961
0.91084559 0.23431373 0.054901961
0.93872549 0.25490196 0.060906863
0.96550245 0.27726716 0.066360294
0.98480392 0.29607843 0.070098039
0.070588235 0.12745098 0.045098039
0.083333333 0.12745098 0.052941176
0.099019608 0.12794118 0.051960784
0.1129902 0.13112745 0.043382353
0.12941176 0.13235294 0.043137255
0.15441176 0.13578431 0.045098039
0.18823529 0.13921569 0.049019608
0.2254902 0.14460784 0.049754902
0.26470588 0.14901961 0.054901961
0.30392157 0.15294118 0.058823529
0.34754902 0.15490196 0.058333333
0.39019608 0.15857843 0.054901961
0.44411765 0.1627451 0.058823529
0.50073529 0.16887255 0.058823529
0.55735294 0.1754902 0.055392157
0.61593137 0.18651961 0.059558824
0.6745098 0.19803922 0.068627451
0.73186275 0.21029412 0.075980392
0.78529412 0.22254902 0.066176471
0.83676471 0.23284314 0.060784314
0.87647059 0.24901961 0.060784314
0.90735294 0.26960784 0.06495098
0.93823529 0.29019608 0.068137255
0.96519608 0.31078431 0.070588235
0.98431373 0.32745098 0.070588235
0.087254902 0.1622549 0.055392157
0.10128676 0.16096814 0.061458333
0.11519608 0.1627451 0.059313725
0.12898284 0.16617647 0.059313725
0.14558824 0.16617647 0.059313725
0.16219363 0.16709559 0.055821078
0.18823529 0.17009804 0.058333333
0.22941176 0.1754902 0.065012255
0.27058824 0.18186275 0.071568627
0.30833333 0.18609069 0.075490196
0.3495098 0.19019608 0.075490196
0.39454657 0.19411765 0.075490196
0.45122549 0.20171569 0.075490196
0.50882353 0.20637255 0.075428922
0.56678922 0.21372549 0.071568627
0.62107843 0.22303922 0.071078431
0.67892157 0.23333333 0.075
0.73431373 0.24705882 0.080208333
0.78921569 0.25747549 0.075
0.8372549 0.26813725 0.071568627
0.87647059 0.28186275 0.07745098
0.90778186 0.3 0.079901961
0.93823529 0.32107843 0.076102941
0.96519608 0.34558824 0.069117647
0.98480392 0.3622549 0.066666667
0.098039216 0.19607843 0.064705882
0.10723039 0.2 0.06752451
0.12034314 0.2002451 0.069607843
0.13382353 0.20355392 0.069607843
0.14803922 0.20392157 0.069607843
0.16262255 0.20441176 0.069607843
0.19289216 0.21078431 0.075490196
0.23333333 0.21507353 0.080759804
0.2745098 0.21960784 0.088235294
0.31470588 0.22598039 0.092769608
0.35612745 0.23137255 0.096078431
0.40183824 0.23529412 0.096078431
0.45784314 0.24117647 0.093137255
0.51568627 0.24754902 0.091789216
0.57377451 0.25490196 0.088235294
0.62806373 0.26090686 0.085294118
0.68529412 0.27058824 0.085294118
0.74068627 0.28186275 0.085661765
0.79215686 0.29509804 0.085294118
0.83419118 0.30539216 0.085294118
0.875 0.31666667 0.091176471
0.91127451 0.33002451 0.10134804
0.93823529 0.34877451 0.093382353
0.96519608 0.37463235 0.074877451
0.98823529 0.39607843 0.06372549
0.092647059 0.24264706 0.079901961
0.09564951 0.24264706 0.080821078
0.10784314 0.24509804 0.083823529
0.11960784 0.24509804 0.083823529
0.14044118 0.24509804 0.08872549
0.16372549 0.24920343 0.087928922
0.19816176 0.25404412 0.092769608
0.23872549 0.25925245 0.10098039
0.27990196 0.2622549 0.10343137
0.32107843 0.26770833 0.10735294
0.36286765 0.27352941 0.11127451
0.41078431 0.27775735 0.11127451
0.46617647 0.28504902 0.10808824
0.52420343 0.29215686 0.10704657
0.57879902 0.29607843 0.10343137
0.63535539 0.30147059 0.099509804
0.69166667 0.30784314 0.095588235
0.74705882 0.32058824 0.094117647
0.79178922 0.33088235 0.095588235
0.83186275 0.34264706 0.099509804
0.87058824 0.35686275 0.10073529
0.90765931 0.36764706 0.10588235
0.93529412 0.38651961 0.097181373
0.96280637 0.40882353 0.082352941
0.98284314 0.42794118 0.072058824
0.08627451 0.28627451 0.094117647
0.08627451 0.28872549 0.094117647
0.091176471 0.29019608 0.094117647
0.10490196 0.29019608 0.094117647
0.13137255 0.29019608 0.098039216
0.16666667 0.29411765 0.10245098
0.20392157 0.29803922 0.1127451
0.24509804 0.30343137 0.12156863
0.28627451 0.30980392 0.12156863
0.32745098 0.31372549 0.12156863
0.37254902 0.31862745 0.12156863
0.41715686 0.325 0.12156863
0.4745098 0.32941176 0.12156863
0.52843137 0.33382353 0.11764706
0.58627451 0.34019608 0.11470588
0.64019608 0.34509804 0.1122549
0.69803922 0.35294118 0.10588235
0.75098039 0.36323529 0.10196078
0.79215686 0.37352941 0.10980392
0.82990196 0.38382353 0.10980392
0.87058824 0.39803922 0.10588235
0.90735294 0.4122549 0.10196078
0.93529412 0.42647059 0.099019608
0.95196078 0.44215686 0.092647059
0.96862745 0.45882353 0.08627451
0.082352941 0.33382353 0.10441176
0.079901961 0.33382353 0.10441176
0.079901961 0.33590686 0.10343137
0.09252451 0.3377451 0.10392157
0.13259804 0.3377451 0.1127451
0.17040441 0.33952206 0.12058824
0.20784314 0.34497549 0.13088235
0.24754902 0.35006127 0.13970588
0.29019608 0.35490196 0.14215686
0.33474265 0.36035539 0.13670343
0.37990196 0.36556373 0.13370098
0.42745098 0.37040441 0.13186275
0.48284314 0.37696078 0.13186275
0.53823529 0.38480392 0.13167892
0.59301471 0.38872549 0.12794118
0.64748775 0.39656863 0.12401961
0.70196078 0.40441176 0.12009804
0.75251225 0.41470588 0.11617647
0.7939951 0.42107843 0.11617647
0.83333333 0.43137255 0.11764706
0.87058824 0.44240196 0.11176471
0.90784314 0.45606618 0.10410539
0.9317402 0.46764706 0.10085784
0.94656863 0.48278186 0.097487745
0.96470588 0.49852941 0.094117647
0.078431373 0.39019608 0.11862745
0.07745098 0.39019608 0.11862745
0.07622549 0.39338235 0.11642157
0.092769608 0.39411765 0.11960784
0.13333333 0.39019608 0.12254902
0.17144608 0.39313725 0.13088235
0.21176471 0.39632353 0.14117647
0.25110294 0.39914216 0.1504902
0.29411765 0.40490196 0.15294118
0.33982843 0.40943627 0.14718137
0.38627451 0.41446078 0.14436275
0.4377451 0.42144608 0.14215686
0.48921569 0.43039216 0.14215686
0.54460784 0.43676471 0.14215686
0.59901961 0.44313725 0.13921569
0.65257353 0.4495098 0.13676471
0.70588235 0.45980392 0.13039216
0.75551471 0.46617647 0.12647059
0.79926471 0.47328431 0.12647059
0.83737745 0.48284314 0.12303922
0.87303922 0.49313725 0.12009804
0.90637255 0.50245098 0.11433824
0.93112745 0.51666667 0.10784314
0.95085784 0.53333333 0.10257353
0.96568627 0.55 0.098039216
0.074509804 0.44803922 0.13284314
0.074509804 0.4504902 0.13253676
0.079411765 0.45208333 0.13370098
0.096568627 0.45588235 0.13976716
0.13333333 0.45196078 0.13627451
0.1745098 0.44852941 0.13682598
0.21262255 0.45196078 0.14411765
0.25422794 0.45606618 0.1504902
0.29803922 0.46029412 0.15294118
0.34528186 0.46617647 0.1526348
0.39313725 0.47169118 0.15245098
0.44460784 0.47892157 0.15245098
0.4995098 0.48357843 0.15245098
0.55104167 0.49123775 0.15245098
0.60551471 0.49816176 0.15245098
0.65802696 0.50490196 0.14705882
0.70980392 0.51127451 0.14068627
0.76078431 0.52126225 0.13676471
0.80392157 0.52794118 0.13333333
0.84160539 0.53431373 0.13284314
0.87254902 0.54093137 0.12892157
0.89993873 0.55098039 0.125
0.92659314 0.56433824 0.11813725
0.94981618 0.58351716 0.11176471
0.97254902 0.59803922 0.10196078
0.07254902 0.50980392 0.14313725
0.074509804 0.50980392 0.14313725
0.083823529 0.51372549 0.14803922
0.097303922 0.51740196 0.15465686
0.12941176 0.51470588 0.15294118
0.17279412 0.51176471 0.14877451
0.21715686 0.5127451 0.14705882
0.25882353 0.51519608 0.1504902
0.30392157 0.51960784 0.15294118
0.35147059 0.52401961 0.15612745
0.40294118 0.52794118 0.16127451
0.45441176 0.53308824 0.1627451
0.50588235 0.54019608 0.16078431
0.56127451 0.54534314 0.16078431
0.6127451 0.5504902 0.15882353
0.66421569 0.55955882 0.15735294
0.71372549 0.56666667 0.15098039
0.76519608 0.57303922 0.14387255
0.80931373 0.57941176 0.13921569
0.84362745 0.58627451 0.1375
0.87156863 0.59215686 0.13627451
0.89730392 0.59901961 0.13480392
0.92254902 0.61568627 0.12843137
0.94681373 0.62892157 0.12205882
0.96666667 0.63921569 0.11764706
0.070098039 0.57107843 0.15392157
0.07254902 0.5713848 0.15392157
0.084191176 0.57512255 0.15833333
0.09754902 0.57849265 0.16127451
0.125 0.57745098 0.1629902
0.17015931 0.5754902 0.16127451
0.21862745 0.5754902 0.15735294
0.26488971 0.57941176 0.15294118
0.31029412 0.58333333 0.15294118
0.36176471 0.58333333 0.16109069
0.41323529 0.58419118 0.16605392
0.46470588 0.59068627 0.16862745
0.51617647 0.59681373 0.16519608
0.56764706 0.59944853 0.16911765
0.61911765 0.60539216 0.17598039
0.67058824 0.61176471 0.1754902
0.71813725 0.61813725 0.16568627
0.76911765 0.6245098 0.15147059
0.81470588 0.63088235 0.14509804
0.84209559 0.6372549 0.14558824
0.86838235 0.64338235 0.14558824
0.89466912 0.64993873 0.14515931
0.91948529 0.65980392 0.14166667
0.94362745 0.66960784 0.13627451
0.96078431 0.67647059 0.13382353
0.06372549 0.62254902 0.1745098
0.057965686 0.62647059 0.1745098
0.075245098 0.63112745 0.17377451
0.094485294 0.6372549 0.17156863
0.12156863 0.63921569 0.17156863
0.16752451 0.6372549 0.17156863
0.22156863 0.6372549 0.16838235
0.27316176 0.63823529 0.16519608
0.32352941 0.63921569 0.1627451
0.375 0.63639706 0.17610294
0.42352941 0.63995098 0.17990196
0.47757353 0.6495098 0.17156863
0.52794118 0.65392157 0.17303922
0.57794118 0.65392157 0.18284314
0.62941176 0.65686275 0.18946078
0.68088235 0.65992647 0.19313725
0.72843137 0.66666667 0.18921569
0.77634804 0.67058824 0.17536765
0.81470588 0.6747549 0.16789216
0.84166667 0.68186275 0.16311275
0.86519608 0.68627451 0.1627451
0.89117647 0.69068627 0.16139706
0.91495098 0.69803922 0.15269608
0.93835784 0.70735294 0.14656863
0.95686275 0.71470588 0.14411765
0.049509804 0.67941176 0.19901961
0.041666667 0.68278186 0.19901961
0.052818627 0.68786765 0.19620098
0.089031863 0.69185049 0.1877451
0.12892157 0.69338235 0.18284314
0.18921569 0.6877451 0.18903186
0.25098039 0.68137255 0.19264706
0.30735294 0.67591912 0.19264706
0.35343137 0.675 0.19264706
0.39852941 0.67984069 0.19264706
0.44705882 0.6877451 0.19264706
0.49460784 0.69803922 0.19411765
0.54215686 0.69926471 0.19681373
0.59215686 0.7 0.20343137
0.64362745 0.7 0.21372549
0.69270833 0.70091912 0.22616422
0.7372549 0.70637255 0.21617647
0.77990196 0.71121324 0.20588235
0.81470588 0.71568627 0.1995098
0.84166667 0.71942402 0.19313725
0.86470588 0.7247549 0.1879902
0.88756127 0.73167892 0.18284314
0.91176471 0.73823529 0.17254902
0.93535539 0.74460784 0.15833333
0.95686275 0.75098039 0.1504902
0.078431373 0.7254902 0.22352941
0.074509804 0.72941176 0.22352941
0.10294118 0.72941176 0.22254902
0.15098039 0.72941176 0.21617647
0.19019608 0.72941176 0.21764706
0.23382353 0.7254902 0.21960784
0.29215686 0.71862745 0.22254902
0.34460784 0.71372549 0.22843137
0.38823529 0.71372549 0.23137255
0.42941176 0.72009804 0.21960784
0.4745098 0.72647059 0.22058824
0.51960784 0.73676471 0.22696078
0.56666667 0.73921569 0.22745098
0.61421569 0.74117647 0.23137255
0.65882353 0.74117647 0.23823529
0.7 0.74117647 0.23921569
0.74509804 0.74509804 0.23921569
0.78627451 0.74901961 0.23137255
0.81470588 0.75294118 0.22647059
0.83823529 0.75686275 0.22352941
0.86470588 0.76078431 0.21764706
0.8872549 0.76862745 0.20735294
0.91176471 0.7754902 0.19705882
0.93382353 0.78039216 0.18529412
0.95294118 0.78431373 0.17254902
0.15931373 0.7627451 0.2504902
0.16231618 0.76421569 0.2504902
0.18713235 0.76421569 0.2504902
0.22512255 0.76292892 0.24675245
0.25318627 0.7627451 0.2504902
0.29136029 0.76243873 0.2504902
0.33970588 0.75526961 0.2504902
0.38584559 0.75189951 0.25441176
0.4254902 0.75245098 0.25735294
0.46574755 0.75490196 0.2504902
0.50821078 0.76519608 0.25012255
0.5504902 0.77922794 0.24901961
0.59313725 0.78063725 0.24852941
0.63186275 0.77990196 0.25226716
0.67303922 0.77843137 0.25772059
0.71421569 0.77990196 0.25980392
0.75147059 0.78235294 0.25735294
0.7911152 0.78535539 0.25343137
0.81764706 0.78835784 0.24803922
0.84197304 0.79166667 0.24675245
0.86593137 0.79313725 0.24583333
0.88988971 0.79705882 0.24117647
0.91176471 0.80061275 0.23431373
0.93627451 0.80245098 0.22156863
0.95294118 0.80490196 0.21127451
0.24803922 0.79901961 0.27745098
0.25686275 0.79901961 0.27745098
0.28014706 0.79828431 0.27745098
0.29607843 0.79607843 0.27745098
0.31813725 0.79901961 0.27647059
0.35245098 0.79987745 0.27659314
0.38823529 0.79509804 0.27843137
0.42794118 0.79068627 0.28284314
0.46666667 0.79215686 0.27745098
0.50490196 0.7942402 0.27892157
0.54387255 0.7997549 0.28872549
0.57928922 0.80245098 0.29264706
0.61960784 0.80539216 0.28970588
0.6567402 0.80723039 0.28529412
0.69313725 0.81078431 0.28602941
0.73002451 0.81372549 0.28529412
0.76666667 0.81470588 0.28137255
0.79803922 0.81764706 0.27732843
0.82156863 0.81764706 0.28014706
0.84313725 0.81764706 0.28321078
0.86911765 0.81764706 0.2872549
0.89117647 0.8189951 0.28566176
0.91495098 0.82156863 0.27156863
0.93627451 0.8254902 0.25698529
0.95294118 0.8254902 0.24607843
0.33676471 0.83382353 0.30441176
0.3473652 0.83382353 0.30441176
0.36176471 0.83247549 0.30833333
0.37205882 0.82990196 0.30876225
0.39215686 0.83186275 0.30441176
0.41721814 0.8372549 0.30098039
0.44264706 0.83443627 0.30857843
0.46893382 0.82843137 0.31862745
0.51176471 0.83382353 0.30833333
0.54705882 0.83431373 0.31041667
0.58039216 0.83284314 0.31813725
0.62003676 0.83382353 0.31366422
0.65735294 0.8377451 0.3122549
0.68676471 0.83431373 0.31617647
0.71764706 0.83431373 0.31997549
0.75030637 0.83792892 0.32009804
0.78333333 0.83823529 0.31960784
0.80833333 0.83823529 0.32175245
0.82892157 0.84215686 0.32352941
0.8495098 0.84215686 0.32745098
0.87401961 0.84215686 0.33137255
0.89509804 0.84215686 0.32261029
0.91568627 0.84215686 0.30539216
0.93627451 0.84607843 0.29117647
0.95294118 0.8495098 0.28088235
0.41176471 0.8627451 0.34313725
0.42205882 0.8627451 0.34436275
0.43431373 0.86029412 0.34558824
0.44460784 0.85882353 0.34558824
0.46078431 0.85882353 0.34509804
0.47720588 0.85882353 0.34313725
0.49558824 0.85735294 0.34803922
0.51862745 0.85416667 0.35122549
0.55686275 0.85882353 0.34901961
0.58210784 0.85661765 0.3504902
0.6122549 0.85637255 0.35392157
0.65098039 0.85857843 0.35294118
0.67843137 0.85882353 0.35294118
0.70343137 0.85490196 0.35343137
0.73431373 0.85833333 0.35980392
0.76715686 0.85882353 0.36470588
0.79411765 0.85882353 0.36470588
0.81593137 0.8627451 0.36470588
0.83676471 0.8627451 0.36862745
0.85588235 0.8627451 0.37205882
0.87745098 0.86470588 0.37254902
0.89705882 0.86470588 0.35808824
0.91764706 0.86666667 0.34068627
0.93823529 0.86936275 0.32598039
0.95686275 0.87254902 0.31568627
0.47401961 0.88333333 0.39460784
0.48645833 0.88333333 0.39460784
0.49803922 0.88333333 0.39742647
0.50882353 0.88033088 0.39117647
0.52254902 0.87941176 0.39019608
0.53676471 0.87941176 0.38676471
0.55269608 0.87941176 0.39056373
0.57009804 0.878125 0.39430147
0.59803922 0.87941176 0.39460784
0.62107843 0.878125 0.39460784
0.64656863 0.87941176 0.39546569
0.67794118 0.87941176 0.39803922
0.70318627 0.87941176 0.39852941
0.72751225 0.87941176 0.40196078
0.75490196 0.87941176 0.40502451
0.78400735 0.87959559 0.41011029
0.80833333 0.88333333 0.40980392
0.825 0.88333333 0.40980392
0.84558824 0.88333333 0.40980392
0.86574755 0.88682598 0.41280637
0.88284314 0.8872549 0.40955882
0.90294118 0.8872549 0.39705882
0.92009804 0.88762255 0.37990196
0.94019608 0.89117647 0.36568627
0.95686275 0.89509804 0.35539216
0.53921569 0.90392157 0.45
0.5495098 0.90392157 0.44754902
0.5629902 0.90392157 0.44313725
0.57401961 0.90392157 0.43970588
0.5877451 0.90343137 0.43480392
0.59889706 0.9 0.4317402
0.6127451 0.9 0.4375
0.62732843 0.9 0.44031863
0.64313725 0.9 0.44215686
0.66041667 0.90183824 0.44252451
0.68063725 0.90392157 0.44215686
0.70539216 0.90392157 0.44313725
0.73039216 0.90294118 0.44607843
0.75490196 0.90294118 0.44705882
0.77647059 0.90294118 0.45073529
0.79803922 0.90392157 0.45490196
0.81568627 0.90392157 0.45098039
0.83529412 0.90392157 0.45098039
0.85514706 0.90710784 0.45098039
0.87254902 0.90784314 0.45098039
0.88921569 0.90784314 0.44754902
0.90551471 0.90821078 0.44166667
0.92352941 0.91176471 0.42843137
0.94019608 0.91176471 0.41605392
0.95392157 0.91568627 0.40686275
0.60490196 0.9245098 0.50147059
0.61519608 0.9245098 0.49901961
0.6254902 0.9245098 0.4932598
0.63792892 0.9245098 0.48609069
0.65318627 0.9245098 0.48039216
0.66403186 0.9245098 0.47696078
0.67303922 0.9245098 0.48333333
0.68094363 0.9245098 0.48823529
0.68970588 0.9245098 0.49215686
0.70245098 0.9245098 0.49215686
0.71764706 0.92843137 0.48823529
0.73823529 0.92843137 0.48823529
0.76127451 0.92843137 0.48823529
0.77990196 0.9245098 0.48872549
0.79375 0.9245098 0.49509804
0.8122549 0.9245098 0.49607843
0.825 0.9245098 0.49215686
0.84258578 0.92696078 0.49068627
0.86078431 0.92843137 0.49215686
0.8776348 0.93204657 0.4908701
0.89289216 0.93235294 0.48823529
0.90686275 0.92892157 0.48253676
0.92745098 0.93529412 0.47745098
0.94503676 0.93627451 0.46470588
0.95294118 0.93627451 0.45833333
0.65490196 0.94117647 0.54117647
0.65882353 0.93872549 0.53872549
0.6627451 0.93627451 0.52352941
0.66617647 0.93333333 0.50686275
0.67254902 0.93137255 0.49607843
0.67941176 0.92990196 0.49460784
0.69313725 0.93333333 0.50490196
0.70490196 0.9372549 0.51519608
0.72156863 0.94117647 0.52941176
0.73431373 0.94362745 0.52696078
0.75098039 0.94509804 0.5254902
0.77156863 0.94901961 0.5254902
0.78431373 0.94705882 0.5254902
0.79264706 0.94117647 0.52205882
0.80588235 0.94117647 0.52843137
0.82107843 0.94117647 0.52941176
0.83529412 0.94117647 0.5254902
0.8495098 0.94362745 0.52156863
0.86764706 0.94901961 0.5254902
0.88186275 0.9495098 0.52598039
0.89607843 0.94901961 0.51960784
0.91078431 0.94558824 0.51372549
0.92843137 0.95196078 0.51078431
0.94803922 0.95833333 0.50980392
0.95294118 0.95686275 0.50196078
0.019607843 0.032843137 0.024509804
0.040196078 0.035294118 0.025428922
0.061151961 0.036764706 0.028431373
0.085294118 0.02567402 0.026286765
0.10710784 0.016421569 0.024509804
0.13357843 0.013235294 0.025061275
0.16286765 0.011151961 0.028921569
0.20643382 0.027757353 0.034375
0.24313725 0.019607843 0.030882353
0.28376225 0.020588235 0.031801471
0.33431373 0.024509804 0.034803922
0.38363971 0.029411765 0.038235294
0.42941176 0.029901961 0.030882353
0.48118873 0.030085784 0.034987745
0.53921569 0.036397059 0.043137255
0.59705882 0.042156863 0.051041667
0.65882353 0.053431373 0.044117647
0.72058824 0.06372549 0.042647059
0.77745098 0.081740196 0.042647059
0.82530637 0.099509804 0.04754902
0.87254902 0.10392157 0.052941176
0.91550245 0.1158701 0.05245098
0.94705882 0.13529412 0.039093137
0.9754902 0.15441176 0.033884804
0.98186275 0.16715686 0.034803922
0.022058824 0.035294118 0.024509804
0.040196078 0.039828431 0.027535233
0.064016544 0.047671569 0.031020221
0.085294118 0.047418811 0.030951287
0.11102941 0.039460784 0.030882353
0.1386106 0.039414828 0.03113511
0.17144608 0.041207108 0.033042279
0.21037837 0.047189032 0.035906863
0.2495098 0.049019608 0.039644608
0.29126072 0.049594056 0.040770527
0.33823529 0.050857843 0.042784926
0.38627451 0.054480699 0.042899816
0.4330576 0.054136029 0.039491422
0.48462776 0.057046569 0.043137255
0.54313725 0.063357843 0.051593137
0.60251225 0.071568627 0.056801471
0.66127451 0.083394608 0.054411765
0.72395833 0.097058824 0.049571078
0.77745098 0.10905331 0.049387255
0.8276348 0.12566636 0.054036458
0.87573529 0.13480392 0.057352941
0.91519608 0.15 0.056985294
0.94492953 0.17582721 0.04754902
0.97280944 0.19388787 0.042647059
0.98431373 0.20533088 0.043566176
0.031862745 0.057843137 0.033333333
0.047227328 0.061397059 0.036151961
0.069362745 0.06596201 0.037254902
0.087882966 0.068627451 0.035171569
0.11458333 0.069117647 0.036029412
0.14669118 0.071155025 0.041176471
0.17925858 0.073805147 0.044117647
0.21787684 0.077818627 0.043014706
0.25490196 0.081372549 0.041176471
0.29497549 0.082352941 0.043397672
0.34142157 0.083915441 0.049172794
0.38627451 0.085615809 0.049019608
