site/assets/luts/natron-haldclut--kodak-portra-400-vc--8336a8694.cube
# LUTr-Project: LUTr — LUTrepository
# LUTr-Schema-Version: 1
# LUTr-ID: natron-haldclut--kodak-portra-400-vc--8336a8694
# LUTr-Title: kodak portra 400 vc
# LUTr-Collection: Natron HaldCLUT
# LUTr-Collection-ID: natron-haldclut-presets
# LUTr-Source: https://github.com/NatronGitHub/clut
# LUTr-Source-File: submissions/natron-haldclut-presets/negative_old/kodak_portra_400_vc.png
# LUTr-Source-Format: PNG
# LUTr-Source-SHA256: 94c9561df90d72cb49ee25cf0a153eaaa5564e8d2e608a0e09f7537447d96b7e
# LUTr-License: CC-BY-SA-4.0
# LUTr-License-URL: https://github.com/NatronGitHub/clut#license
# LUTr-Tags: creative, film, film-emulation, hald-clut, natron, png, cube
# LUTr-Transform-Class: film-emulation
# LUTr-Input-Color-Space: srgb
# LUTr-Output-Color-Space: srgb
# LUTr-Color-Space-Confidence: assumed-display-referred
# LUTr-Conversion-Method: PNG LUT image decoded at 16-bit and sampled to 25x25x25 3D CUBE
# LUTr-Conversion-Date: 2026-07-27
# LUTr-Conversion-Tool: LUTr scripts/convert-all-to-cube.mjs
# LUTr-Conversion-Grid: 25x25x25
# LUTr-Note: Preserve this metadata and the upstream license notices when redistributing.
TITLE "kodak portra 400 vc"
LUT_3D_SIZE 9
DOMAIN_MIN 0 0 0
DOMAIN_MAX 1 1 1
0.023529412 0.039215686 0.043137255
0.093137255 0.058333333 0.050980392
0.18235294 0.058823529 0.03627451
0.36372549 0.070588235 0.017156863
0.54117647 0.07254902 0.0019607843
0.72107843 0.098039216 0.0039215686
0.82647059 0.10686275 0.0039215686
0.91470588 0.13382353 0.0039215686
0.97254902 0.18431373 0.0039215686
0.012254902 0.08872549 0.067156863
0.070098039 0.10098039 0.051470588
0.20294118 0.13002451 0.025857843
0.37892157 0.14344363 0.010294118
0.57205882 0.14362745 0.0039215686
0.73106618 0.14705882 0.0034313725
0.8377451 0.16801471 0.0039215686
0.91911765 0.19509804 0.0034926471
0.9877451 0.23431373 0
0.0039215686 0.22156863 0.099019608
0.0039215686 0.20735294 0.079901961
0.16151961 0.24044118 0.066421569
0.41458333 0.27205882 0.0083333333
0.59754902 0.28137255 0.018627451
0.74215686 0.27414216 0.010294118
0.85 0.27058824 0.0031862745
0.92647059 0.29031863 0.0039215686
0.98921569 0.31176471 0
0.0039215686 0.38480392 0.16078431
0.0078431373 0.37303922 0.14626225
0.074754902 0.37990196 0.12659314
0.34411765 0.43284314 0.066666667
0.59362745 0.45882353 0.010294118
0.74160539 0.43039216 0.0039215686
0.85 0.40490196 0.0039215686
0.93694853 0.39822304 0.0078431373
0.98823529 0.40588235 0
0.0039215686 0.51764706 0.20196078
0.0078431373 0.51764706 0.21372549
0.0073529412 0.52156863 0.20441176
0.26446078 0.54166667 0.15980392
0.52941176 0.57647059 0.070588235
0.71568627 0.5875 0.016911765
0.83088235 0.56862745 0.0044117647
0.94313725 0.52303922 0.0039215686
0.99411765 0.51372549 0
0.0078431373 0.6372549 0.29705882
0.0039215686 0.63578431 0.29313725
0.09129902 0.63333333 0.29313725
0.27996324 0.64215686 0.27738971
0.46617647 0.65980392 0.23676471
0.63970588 0.67892157 0.19411765
0.79644608 0.69791667 0.11495098
0.91764706 0.67745098 0.031372549
0.98039216 0.65294118 0.006372549
0.16960784 0.7372549 0.38529412
0.21507353 0.73982843 0.38823529
0.28137255 0.73235294 0.38823529
0.39031863 0.73235294 0.38823529
0.48970588 0.74166667 0.37843137
0.59705882 0.75588235 0.35637255
0.7252451 0.77083333 0.32254902
0.87107843 0.78247549 0.26997549
0.97254902 0.77647059 0.20196078
0.42696078 0.825 0.52843137
0.43088235 0.82150735 0.5245098
0.46372549 0.82107843 0.52745098
0.51292892 0.81715686 0.53186275
0.56053922 0.81887255 0.52794118
0.63186275 0.8341299 0.52420343
0.73272059 0.84803922 0.50784314
0.82892157 0.85680147 0.48529412
0.94019608 0.8754902 0.47009804
0.61568627 0.90588235 0.68627451
0.61911765 0.90588235 0.67843137
0.63529412 0.90588235 0.68235294
0.65343137 0.9004902 0.68235294
0.69019608 0.90588235 0.69607843
0.72843137 0.90980392 0.68872549
0.78627451 0.93039216 0.69509804
0.84803922 0.93382353 0.67058824
0.88627451 0.94117647 0.67058824
0.023529412 0.066176471 0.12794118
0.070098039 0.058823529 0.1127451
0.19865196 0.036764706 0.098039216
0.35851716 0.019607843 0.083333333
0.54705882 0.03995098 0.080637255
0.71323529 0.019914216 0.047058824
0.82254902 0.080882353 0.037132353
0.91905637 0.13039216 0.0039215686
0.9877451 0.18431373 0.00049019608
0.019117647 0.10735294 0.12738971
0.065257353 0.11482077 0.12663909
0.18768382 0.12352941 0.11230086
0.38137255 0.10463388 0.097388174
0.57377451 0.11617647 0.074019608
0.72303922 0.12552849 0.04407935
0.8379136 0.14944853 0.0043504902
0.93033854 0.18817402 0
0.98823529 0.23039216 0.019056373
0.016666667 0.24178922 0.1622549
0.032230392 0.23817402 0.15902267
0.17833946 0.24987745 0.13795956
0.41227022 0.26559436 0.088005515
0.62052696 0.26311275 0.056066176
0.75392157 0.26666667 0.014445466
0.84635417 0.27058824 0.019117647
0.93452819 0.28262868 0.0038143382
0.98443627 0.2995098 0
0 0.39215686 0.20196078
0.0065563725 0.39495251 0.21127451
0.11599265 0.39906556 0.18884804
0.37580423 0.43731618 0.14075521
0.60667892 0.4533701 0.073713235
0.75006127 0.42248775 0.017654718
0.85606618 0.40379902 0.0052083333
0.9403799 0.39803922 0.00034466912
0.99185049 0.40343137 0
0 0.53284314 0.25122549
0.0095588235 0.53676471 0.26390931
0.058762255 0.52941176 0.25631127
0.30505515 0.5495098 0.23676471
0.52671569 0.57254902 0.18480392
0.71387868 0.58284314 0.082107843
0.84454657 0.55392157 0.024632353
0.94607843 0.52132353 0.00049019608
0.98627451 0.50980392 0
0.00018382353 0.63970588 0.31764706
0.013258272 0.64332108 0.3213848
0.14117647 0.636106 0.32660846
0.30153186 0.63878676 0.31715686
0.47720588 0.65661765 0.29313725
0.63467371 0.67880668 0.25281097
0.79834559 0.69678309 0.19122243
0.92140778 0.67238817 0.071078431
0.98645833 0.64920343 0.033946078
0.22806373 0.74019608 0.41127451
0.25507047 0.73884804 0.41519608
0.31213235 0.73235294 0.42300858
0.41078431 0.72843137 0.41608456
0.49810049 0.73823529 0.40882353
0.60588235 0.75526961 0.39214154
0.74371936 0.77156863 0.35992647
0.8754902 0.79048713 0.32035846
0.97254902 0.78039216 0.26617647
0.44172794 0.82849265 0.54313725
0.4491345 0.825 0.54308364
0.47947304 0.8245098 0.54318321
0.52606464 0.81844363 0.54313725
0.57647059 0.82086397 0.54512868
0.63970588 0.83257506 0.53776808
0.725 0.84456189 0.52389706
0.84330576 0.85985754 0.51176471
0.94117647 0.8754902 0.48523284
0.61960784 0.90588235 0.68676471
0.61954657 0.90588235 0.68578431
0.63958333 0.9067402 0.69142157
0.66109069 0.90441176 0.69393382
0.69387255 0.90588235 0.70196078
0.73180147 0.91335784 0.69926471
0.78578431 0.92242647 0.69313725
0.85147059 0.93676471 0.68829657
0.91323529 0.94509804 0.67794118
0.0039215686 0.070588235 0.24705882
0.055269608 0.051470588 0.23443627
0.20514706 0.03995098 0.22647059
0.38235294 0.020465686 0.22941176
0.58039216 0.011764706 0.21421569
0.71862745 0.013112745 0.19068627
0.82156863 0.068627451 0.18112745
0.91875 0.14215686 0.15441176
0.96960784 0.17352941 0.13431373
0.0087009804 0.13039216 0.25490196
0.029610907 0.12357537 0.25833333
0.20588235 0.12594975 0.24237132
0.39362745 0.096568627 0.23431373
0.58915441 0.014093137 0.20435049
0.72536765 0.070971201 0.19816176
0.82352941 0.14497549 0.17803309
0.91997549 0.19166667 0.15321691
0.98909314 0.22169118 0.13137255
0.0088235294 0.26176471 0.26740196
0.0234375 0.26050858 0.27647059
0.21219363 0.27101716 0.27941176
0.41556373 0.26400123 0.25735294
0.61470588 0.24914216 0.22867647
0.74068627 0.26176471 0.2140625
0.8375 0.27156863 0.18137255
0.93002451 0.28348652 0.15833333
0.96862745 0.29117647 0.15318627
0.0049019608 0.41801471 0.30894608
0.057827819 0.43088235 0.3182598
0.2120098 0.42650123 0.31436887
0.40911458 0.43316483 0.30412071
0.61035539 0.4471201 0.26372549
0.74405637 0.42438725 0.22101716
0.84607843 0.40379902 0.16801471
0.93854167 0.39941789 0.1495098
0.98970588 0.40919118 0.10796569
0.070588235 0.56127451 0.36421569
0.1223652 0.56072304 0.36599265
0.23713235 0.55355392 0.36115196
0.36697304 0.55098039 0.3497549
0.55980392 0.57083333 0.31887255
0.71813725 0.58210784 0.27555147
0.8372549 0.55 0.20477941
0.93897059 0.52714461 0.16053922
0.98627451 0.51372549 0.11176471
0.1372549 0.65723039 0.40477941
0.21427696 0.65833333 0.41199449
0.30370711 0.65441176 0.41332721
0.39656863 0.65085784 0.40461091
0.51715686 0.66053922 0.38921569
0.66594669 0.67961091 0.36127451
0.79852941 0.68431373 0.32120098
0.92210478 0.67023591 0.26053922
0.99068627 0.64264706 0.16311275
0.32083333 0.74411765 0.4754902
0.34522059 0.74411765 0.47806373
0.3872549 0.74074755 0.4747549
0.46372549 0.73875613 0.47487745
0.53223039 0.74166667 0.47071078
0.61727941 0.75526961 0.46020221
0.74313725 0.77156863 0.43235294
0.87463235 0.78468137 0.40934436
0.97328431 0.78112745 0.36642157
0.4814951 0.82892157 0.58296569
0.47979473 0.82892157 0.57389706
0.51029412 0.82564338 0.58367034
0.55148591 0.82107843 0.57794118
0.58946078 0.82107843 0.58112745
0.65085784 0.83235294 0.57504596
0.73321078 0.84460784 0.56583946
0.82928922 0.85594363 0.54924939
0.95073529 0.88284314 0.54166667
0.63039216 0.90980392 0.70490196
0.63872549 0.91360294 0.7122549
0.65588235 0.9127451 0.71176471
0.67303922 0.90588235 0.71090686
0.70735294 0.91029412 0.72401961
0.73811275 0.91311275 0.71666667
0.78284314 0.91715686 0.69926471
0.85232843 0.9377451 0.70539216
0.88431373 0.9372549 0.69019608
0 0.066666667 0.39656863
0.009129902 0.078431373 0.40441176
0.19154412 0.065563725 0.40294118
0.40294118 0.029840686 0.41078431
0.59215686 0.0078431373 0.40294118
0.74558824 0.0039215686 0.36623775
0.84963235 0.0096813725 0.31397059
0.93302696 0.013112745 0.28988971
0.98039216 0.11470588 0.28186275
0.0039215686 0.15998775 0.4122549
0.0086626838 0.14623928 0.41456036
0.18886336 0.15663297 0.41439951
0.41796109 0.15006127 0.41813725
0.60579044 0.10891544 0.3995098
0.7448989 0.087928922 0.36470588
0.84949449 0.028952206 0.31515012
0.92941176 0.11877298 0.29601716
0.99197304 0.23204657 0.29558824
0.0039215686 0.28872549 0.42254902
0.013679534 0.28676471 0.43088235
0.20499387 0.29451593 0.4356924
0.4466299 0.2995098 0.44117647
0.61127451 0.27671569 0.41458333
0.74558824 0.24955576 0.37009804
0.84571078 0.2463848 0.33250613
0.9149663 0.30009191 0.33235294
0.98823529 0.32254902 0.30784314
0.006372549 0.45784314 0.45
0.011841299 0.45539216 0.45
0.27182904 0.46323529 0.46000306
0.45729167 0.44904259 0.46266085
0.61865809 0.44754902 0.43480392
0.73898591 0.42926624 0.39584865
0.83408395 0.42115502 0.36421569
0.91800705 0.42468597 0.33608303
0.99607843 0.42640931 0.31666667
0.16593137 0.58676471 0.47794118
0.25422794 0.58936887 0.48661152
0.38131127 0.58302696 0.49019608
0.47423407 0.57573529 0.48235294
0.59460784 0.57414216 0.46519608
0.7205576 0.57527574 0.43431373
0.83498775 0.55226716 0.38511029
0.92558211 0.54083946 0.34313725
0.98946078 0.53259804 0.32598039
0.36372549 0.67653186 0.52647059
0.37921262 0.67733609 0.52114737
0.43039216 0.6714614 0.52107843
0.4807598 0.66380974 0.51323529
0.55833333 0.66792279 0.50416667
0.67591912 0.68529412 0.49417892
0.80359988 0.67830882 0.45323223
0.91372549 0.66421569 0.39785539
0.99215686 0.64901961 0.3627451
0.45526961 0.75551471 0.57254902
0.45758272 0.7558364 0.57046569
0.48085172 0.75560662 0.57009804
0.51870404 0.74780944 0.56072304
0.5752451 0.7473652 0.55625
0.64649203 0.75595895 0.54915748
0.75928309 0.76853554 0.5314951
0.88102022 0.78628983 0.51223958
0.97830882 0.77647059 0.4689951
0.52794118 0.83235294 0.63333333
0.53384651 0.83498775 0.63204657
0.55833333 0.83138787 0.63596814
0.57954197 0.82892157 0.63118873
0.61764706 0.825 0.63382353
0.67322304 0.83253676 0.62738971
0.74652267 0.8442402 0.62254902
0.83284314 0.8598652 0.61470588
0.92892157 0.86813725 0.59754902
0.64313725 0.90980392 0.72401961
0.65343137 0.91617647 0.73186275
0.6567402 0.90477941 0.72401961
0.69117647 0.91464461 0.73970588
0.71176471 0.90980392 0.73578431
0.73786765 0.90257353 0.72910539
0.79803922 0.9245098 0.73811275
0.84607843 0.90863971 0.69558824
0.88480392 0.9372549 0.72401961
0.0019607843 0.10980392 0.54117647
0.0078431373 0.11176471 0.55490196
0.12794118 0.10833333 0.5627451
0.4 0.13333333 0.57181373
0.59215686 0.066666667 0.57254902
0.74117647 0.06372549 0.54411765
0.85637255 0.15 0.50490196
0.94460784 0.12254902 0.45808824
0.99607843 0.13137255 0.42156863
0.0056372549 0.19656863 0.56029412
0.0073835784 0.18109681 0.56443015
0.17395833 0.17990196 0.56642157
0.41240809 0.19215686 0.57254902
0.60759804 0.17659314 0.57745098
0.74329044 0.18137255 0.55465686
0.85588235 0.23137255 0.51078431
0.93872549 0.19390319 0.46498162
0.99411765 0.18308824 0.42156863
0.0039215686 0.31715686 0.57990196
0.0063112745 0.31348039 0.58039216
0.18786765 0.31176471 0.58382353
0.43161765 0.32254902 0.58578431
0.61372549 0.32058824 0.57892157
0.74466912 0.32181373 0.55631127
0.85 0.33370098 0.51470588
0.93112745 0.33382353 0.48676471
0.99607843 0.30686275 0.44019608
0.019607843 0.46004902 0.58112745
0.015196078 0.46004902 0.58431373
0.22659314 0.46060049 0.59117647
0.4546875 0.46761642 0.59607843
0.61176471 0.47181373 0.58848039
0.73091299 0.46323529 0.56127451
0.82977941 0.45294118 0.52647059
0.91593137 0.43740809 0.48756127
0.97598039 0.43333333 0.46078431
0.065686275 0.58921569 0.58137255
0.20968137 0.59411765 0.58823529
0.36519608 0.58676471 0.59362745
0.49938725 0.59019608 0.6
0.61078431 0.59019608 0.59558824
0.72438725 0.58321078 0.57377451
0.82132353 0.58039216 0.5495098
0.90906863 0.55257353 0.50514706
0.97745098 0.54901961 0.48333333
0.38235294 0.69705882 0.61911765
0.40808824 0.69215686 0.61700368
0.46341912 0.68284314 0.61911765
0.54905025 0.68480392 0.62230392
0.61176471 0.68051471 0.61544118
0.7004902 0.68768382 0.60073529
0.80931373 0.68848039 0.57843137
0.91234681 0.66308211 0.53308824
0.97647059 0.65931373 0.5120098
0.50196078 0.76911765 0.65833333
0.52009804 0.76911765 0.65508578
0.54963235 0.76764706 0.6504902
0.58455882 0.76292892 0.65392157
0.62181373 0.75882353 0.64215686
0.67922794 0.76182598 0.63376225
0.76960784 0.7754902 0.62610294
0.87941176 0.77751225 0.60784314
0.98137255 0.77205882 0.56960784
0.60490196 0.84411765 0.71053922
0.61056985 0.84436275 0.70906863
0.6125 0.84436275 0.70294118
0.62901348 0.83676471 0.69509804
0.65588235 0.83284314 0.68737745
0.69822304 0.83259804 0.6872549
0.76721814 0.84154412 0.6872549
0.84852941 0.86072304 0.68924632
0.93284314 0.87009804 0.67205882
0.67254902 0.91372549 0.76666667
0.68039216 0.91764706 0.76691176
0.68039216 0.90784314 0.75931373
0.70245098 0.9129902 0.7627451
0.72941176 0.9127451 0.76568627
0.7622549 0.91053922 0.76936275
0.80735294 0.91617647 0.76029412
0.86372549 0.92990196 0.75931373
0.90196078 0.94509804 0.7627451
0 0.13872549 0.68186275
0.006372549 0.16354167 0.68039216
0.13958333 0.16764706 0.68823529
0.3966299 0.16415441 0.69607843
0.58088235 0.20808824 0.69338235
0.72205882 0.20496324 0.68621324
0.82708333 0.23872549 0.66556373
0.92941176 0.31127451 0.6286152
0.99607843 0.37107843 0.61666667
0.0078431373 0.23529412 0.68284314
0.0039215686 0.22387408 0.6877451
0.16384804 0.225 0.69215686
0.40104933 0.23647365 0.69215686
0.58734681 0.26102941 0.69607843
0.72578891 0.2702742 0.69160539
0.83284314 0.28867953 0.67095588
0.92696078 0.35481771 0.6404182
0.98382353 0.38694853 0.61881127
0.017156863 0.34362745 0.69068627
0.01104473 0.3377451 0.69731924
0.20392157 0.33471201 0.70199142
0.43595282 0.35294118 0.69852941
0.59859069 0.36672794 0.69460784
0.73405331 0.38978248 0.69368873
0.83431373 0.39117647 0.66911765
0.91897978 0.42464767 0.64644608
0.97267157 0.44803922 0.62843137
0.015686275 0.46709559 0.68915441
0.082230392 0.47310049 0.69215686
0.30248162 0.47424939 0.69852941
0.45147059 0.47555147 0.70245098
0.59926471 0.49558824 0.70153186
0.72148437 0.51020987 0.69518229
0.82323836 0.51323529 0.68186275
0.90804228 0.5172258 0.6513557
0.99129902 0.50343137 0.62696078
0.087254902 0.58112745 0.68627451
0.20857843 0.58627451 0.69068627
0.33927696 0.58627451 0.68872549
0.47395833 0.59019608 0.69460784
0.60784314 0.60196078 0.6995098
0.71813725 0.61173407 0.7
0.81078431 0.61519608 0.68615196
0.89381127 0.58602941 0.64623162
0.96862745 0.59387255 0.63872549
0.34993873 0.69215686 0.7033701
0.39663756 0.69741881 0.70490196
0.46066176 0.69460784 0.70392157
0.52736673 0.68676471 0.70490196
0.61666667 0.68900123 0.70076593
0.71568627 0.69726563 0.71029412
0.81041667 0.69437806 0.68425245
0.89540441 0.68726256 0.66029412
0.96715686 0.66862745 0.63480392
0.50330882 0.77941176 0.72156863
0.52757353 0.78272059 0.72156863
0.56185662 0.78636642 0.72742034
0.60879289 0.77921262 0.72617953
0.65539216 0.77377451 0.72285539
0.71444547 0.76744792 0.72290135
0.79770221 0.77585784 0.71127451
0.87892157 0.77285539 0.7
0.97352941 0.76372549 0.66801471
0.61292892 0.85196078 0.75900735
0.61824449 0.85343137 0.75900735
0.63707108 0.85588235 0.76029412
0.66372549 0.85202972 0.76433058
0.70122549 0.84822304 0.76029412
0.73773744 0.84430147 0.75637255
0.78092831 0.84411765 0.74901961
0.86002604 0.86072304 0.74901961
0.95508578 0.88204657 0.74117647
0.69558824 0.91911765 0.80686275
0.68805147 0.91372549 0.80165441
0.70735294 0.91911765 0.80539216
0.72794118 0.92101716 0.80539216
0.74852941 0.90857843 0.79632353
0.77156863 0.90098039 0.79025735
0.81519608 0.91335784 0.7932598
0.87156863 0.93988971 0.80539216
0.93480392 0.93970588 0.79607843
0.011764706 0.22156863 0.77941176
0.00012254902 0.21764706 0.7872549
0.18039216 0.24019608 0.79117647
0.425 0.2557598 0.78443627
0.58235294 0.28823529 0.78921569
0.71176471 0.32990196 0.79411765
0.81862745 0.35612745 0.78406863
0.90992647 0.39607843 0.76164216
0.9754902 0.45686275 0.74803922
0.011764706 0.28198529 0.78676471
0.0039215686 0.27156863 0.79192708
0.20343137 0.28590686 0.79117647
0.43146446 0.30387561 0.79117647
0.58627451 0.325 0.79283088
0.7144761 0.37526042 0.79411765
0.81862745 0.38992034 0.77928922
0.90723039 0.40617341 0.76695772
0.97647059 0.45637255 0.74816176
0.015686275 0.36666667 0.7872549
0.057781863 0.3669424 0.79445466
0.27751225 0.3754902 0.79093137
0.44068627 0.38716299 0.79019608
0.58676471 0.41629902 0.7872549
0.71960784 0.44966299 0.79191176
0.82273284 0.45710784 0.7872549
0.90229779 0.47830882 0.77107843
0.95833333 0.51740196 0.75514706
0.20453431 0.49595588 0.78664216
0.25104167 0.4926011 0.78641238
0.35980392 0.49298407 0.7872549
0.47745098 0.50098039 0.7872549
0.60061275 0.51740196 0.78872549
0.71790748 0.53451287 0.79080882
0.81862745 0.54822304 0.78716299
0.89558824 0.56176471 0.7685049
0.96360294 0.58186275 0.75870098
0.15343137 0.58333333 0.77205882
0.25091912 0.59001225 0.7745098
0.36973039 0.59497549 0.7754902
0.47984069 0.59430147 0.78284314
0.6002451 0.60392157 0.7872549
0.7129902 0.6254902 0.79411765
0.80686275 0.63627451 0.7872549
0.88768382 0.64215686 0.77530637
0.9622549 0.65588235 0.76960784
0.32438725 0.68786765 0.7745098
0.36832108 0.68907782 0.77820159
0.44188113 0.69068627 0.77659314
0.50773591 0.69068627 0.77659314
0.60808824 0.69068627 0.78265931
0.7095435 0.70153186 0.78650429
0.80278799 0.71283701 0.79056373
0.87982537 0.71505821 0.77735907
0.95012255 0.71764706 0.76470588
0.46348039 0.78333333 0.78406863
0.49656863 0.77941176 0.79181985
0.5466299 0.78609069 0.79044118
0.60278799 0.78333333 0.79301471
0.66372549 0.78333333 0.79509804
0.728125 0.78333333 0.79901961
0.81372549 0.78964461 0.80140931
0.87990196 0.78691789 0.78621324
0.95122549 0.7872549 0.77328431
0.6127451 0.86372549 0.81029412
0.62457108 0.86383272 0.81066176
0.64427083 0.86375613 0.81449142
0.67268689 0.86115196 0.81813725
0.72328431 0.86378676 0.81813725
0.77156863 0.85654105 0.82205882
0.8060049 0.85533088 0.81709559
0.87216605 0.8598652 0.81061581
0.94411765 0.87205882 0.80637255
0.70686275 0.93431373 0.84803922
0.71029412 0.92941176 0.84889706
0.72156863 0.92941176 0.84901961
0.74080882 0.9254902 0.84803922
0.77107843 0.92647059 0.84901961
0.79460784 0.91580882 0.84509804
0.83651961 0.92573529 0.84509804
0.88026961 0.93627451 0.84816176
0.94509804 0.92254902 0.82941176
0.057352941 0.3122549 0.8754902
0.1942402 0.32052696 0.8716299
0.32904412 0.34264706 0.8754902
0.47224265 0.35931373 0.87156863
0.59705882 0.37867647 0.86985294
0.71176471 0.41862745 0.86795343
0.81862745 0.45784314 0.86764706
0.90294118 0.4966299 0.86372549
0.95245098 0.53480392 0.85245098
0.12555147 0.35827206 0.87555147
0.23247549 0.36170343 0.87248775
0.3588848 0.37352941 0.87156863
0.47778033 0.39166667 0.86942402
0.60441176 0.41862745 0.86813725
0.71207108 0.44532016 0.86764706
0.81470588 0.48834252 0.86421569
0.90294118 0.51525735 0.86023284
0.94681373 0.53480392 0.85545343
0.23333333 0.43137255 0.87254902
0.29791667 0.44515931 0.8754902
0.39460784 0.4466299 0.87156863
0.49560355 0.45232843 0.86732537
0.60851716 0.475 0.86789216
0.71862745 0.50770527 0.86764706
0.81470588 0.54405637 0.86421569
0.89903493 0.55696998 0.86061581
0.97316176 0.57107843 0.86078431
0.33694853 0.53186275 0.86158088
0.38112745 0.54215686 0.86764706
0.42513787 0.53792892 0.86942402
0.52058824 0.5400046 0.86764706
0.62025123 0.55165441 0.86764706
0.72254902 0.57517616 0.86783088
0.81115196 0.60294118 0.86421569
0.89558824 0.61786918 0.86356464
0.95392157 0.63694853 0.85459559
0.34338235 0.61666667 0.85196078
0.3879902 0.62254902 0.85808824
0.45245098 0.62444853 0.86029412
0.53382353 0.62401961 0.86308211
0.61838235 0.6245098 0.86421569
0.72215074 0.64803922 0.86764706
0.81115196 0.66832108 0.86764706
0.88946078 0.68137255 0.86329657
0.94313725 0.6870098 0.86029412
0.35980392 0.69509804 0.85245098
0.38183977 0.69117647 0.85245098
0.44203431 0.69756434 0.85196078
0.52506127 0.69509804 0.85067402
0.60603554 0.69509804 0.85523897
0.70755208 0.71078431 0.85991881
0.80343137 0.72990196 0.86421569
0.88731618 0.74460784 0.86390931
0.95686275 0.75637255 0.86550245
0.47144608 0.78370098 0.85992647
0.4939951 0.78333333 0.85723039
0.52012868 0.78333333 0.85980392
0.5760723 0.77990196 0.8560049
0.63547794 0.78333333 0.85980392
0.71030944 0.78247549 0.85686275
0.79923407 0.79518995 0.86875
0.88763787 0.80470282 0.86721814
0.94068627 0.80637255 0.85980392
0.5783701 0.86378676 0.86856618
0.60006127 0.86727175 0.87113971
0.62526042 0.86781556 0.8754902
0.65686275 0.86797641 0.8718367
0.71446078 0.86813725 0.87990196
0.76078431 0.86464461 0.87990196
0.82242647 0.86803002 0.88414522
0.88726256 0.86464461 0.87598039
0.92598039 0.86813725 0.87205882
0.67794118 0.93333333 0.89509804
0.68927696 0.92990196 0.89460784
0.69240196 0.92034314 0.88946078
0.72922794 0.92745098 0.89246324
0.76029412 0.92745098 0.89705882
0.81421569 0.94509804 0.90294118
0.85943627 0.94803922 0.90294118
0.89166667 0.91813725 0.89160539
0.94117647 0.95637255 0.90245098
0.41960784 0.47058824 0.94509804
0.45539216 0.475 0.9495098
0.49313725 0.47843137 0.94117647
0.57205882 0.49656863 0.94362745
0.65294118 0.52352941 0.94117647
0.74558824 0.55294118 0.94362745
0.82254902 0.55686275 0.92058824
0.90686275 0.61666667 0.9372549
0.92941176 0.62352941 0.93333333
0.44313725 0.49754902 0.94558824
0.45778186 0.49705882 0.94509804
0.49669118 0.4942402 0.93933824
0.57959559 0.51697304 0.94509804
0.65318627 0.52794118 0.93578431
0.7341299 0.54656863 0.92794118
0.82254902 0.58186275 0.92904412
0.90343137 0.61960784 0.93284314
0.95245098 0.63137255 0.92941176
0.46078431 0.54313725 0.94117647
0.47696078 0.54313725 0.94117647
0.5252451 0.54583333 0.9379902
0.58382353 0.55441176 0.93333333
0.66666667 0.5754902 0.9377451
0.74742647 0.59803922 0.9372549
0.82647059 0.62352941 0.93357843
0.90343137 0.64215686 0.92941176
0.97352941 0.66568627 0.9372549
0.49019608 0.60490196 0.9372549
0.50018382 0.60490196 0.93351716
0.54313725 0.60992647 0.9372549
0.58186275 0.6 0.92542892
0.66936275 0.62598039 0.9372549
0.74558824 0.64074755 0.93480392
0.8254902 0.66188725 0.93333333
0.90324755 0.68511029 0.93333333
0.94264706 0.69264706 0.92941176
0.51372549 0.67647059 0.93333333
0.53504902 0.68039216 0.93946078
0.56715686 0.67990196 0.94264706
0.60098039 0.67377451 0.93578431
0.66862745 0.67843137 0.9372549
0.74803922 0.68897059 0.93333333
0.83039216 0.71078431 0.93872549
0.90171569 0.72647059 0.93014706
0.95490196 0.7372549 0.9372549
0.48088235 0.7377451 0.9372549
0.50441176 0.73235294 0.92941176
0.54019608 0.73443627 0.93431373
0.59650735 0.73235294 0.9254902
0.66421569 0.7377451 0.93014706
0.74019608 0.74019608 0.92457108
0.82610294 0.7564951 0.93909314
0.90294118 0.77401961 0.93578431
0.95539216 0.77794118 0.92401961
0.51568627 0.80980392 0.93627451
0.53480392 0.80294118 0.9254902
0.56078431 0.81078431 0.93823529
0.58872549 0.80980392 0.93909314
0.63872549 0.79019608 0.89362745
0.72598039 0.79803922 0.91188725
0.81078431 0.80686275 0.93529412
0.90196078 0.8254902 0.94754902
0.9627451 0.83235294 0.93627451
0.60147059 0.89166667 0.94607843
0.60925245 0.88382353 0.93768382
0.62745098 0.8877451 0.94178922
0.653125 0.87420343 0.90704657
0.69534314 0.87990196 0.93014706
0.76029412 0.87959559 0.93511029
0.82598039 0.87990196 0.94509804
0.89509804 0.88333333 0.93817402
0.96960784 0.89558824 0.95392157
0.67843137 0.96078431 0.96078431
0.67794118 0.9372549 0.92941176
0.69117647 0.93333333 0.9254902
0.72254902 0.94117647 0.9254902
0.73333333 0.93333333 0.94901961
0.79754902 0.96078431 0.95931373
0.84901961 0.95392157 0.95294118
0.90294118 0.95196078 0.95686275
0.96078431 0.91372549 0.95294118
