site/assets/luts/natron-haldclut--fuji-fp-100c--f563865fc.cube
# LUTr-Project: LUTr — LUTrepository
# LUTr-Schema-Version: 1
# LUTr-ID: natron-haldclut--fuji-fp-100c--f563865fc
# LUTr-Title: fuji fp-100c
# LUTr-Collection: Natron HaldCLUT
# LUTr-Collection-ID: natron-haldclut-presets
# LUTr-Source: https://github.com/NatronGitHub/clut
# LUTr-Source-File: submissions/natron-haldclut-presets/instant_pro/fuji_fp-100c.png
# LUTr-Source-Format: PNG
# LUTr-Source-SHA256: 7e27b2e8966a64c08d212bdfa6758dacef20e2e31d8fb6b5447b923a0b115b70
# LUTr-License: CC-BY-SA-4.0
# LUTr-License-URL: https://github.com/NatronGitHub/clut#license
# LUTr-Tags: creative, film, film-emulation, hald-clut, natron, png, cube
# LUTr-Transform-Class: film-emulation
# LUTr-Input-Color-Space: srgb
# LUTr-Output-Color-Space: srgb
# LUTr-Color-Space-Confidence: assumed-display-referred
# LUTr-Conversion-Method: PNG LUT image decoded at 16-bit and sampled to 25x25x25 3D CUBE
# LUTr-Conversion-Date: 2026-07-27
# LUTr-Conversion-Tool: LUTr scripts/convert-all-to-cube.mjs
# LUTr-Conversion-Grid: 25x25x25
# LUTr-Note: Preserve this metadata and the upstream license notices when redistributing.
TITLE "fuji fp-100c"
LUT_3D_SIZE 25
DOMAIN_MIN 0 0 0
DOMAIN_MAX 1 1 1
0.054901961 0.062745098 0.066666667
0.054901961 0.058823529 0.066666667
0.054901961 0.058823529 0.066666667
0.07254902 0.054901961 0.066666667
0.11568627 0.052941176 0.070588235
0.15833333 0.050490196 0.070588235
0.19313725 0.044117647 0.070588235
0.22794118 0.037745098 0.066666667
0.28235294 0.031372549 0.066666667
0.34166667 0.021078431 0.070588235
0.39803922 0.014705882 0.066666667
0.45588235 0.0078431373 0.066666667
0.51176471 0.0039215686 0.070588235
0.56323529 0.0034313725 0.066176471
0.61470588 0 0.059803922
0.66617647 0.0014705882 0.064215686
0.71372549 0.0039215686 0.070588235
0.76127451 0.0039215686 0.074509804
0.80392157 0.0039215686 0.078431373
0.84166667 0.0039215686 0.074509804
0.88039216 0.0039215686 0.074509804
0.91568627 0.0039215686 0.074509804
0.95294118 0 0.074509804
0.9754902 0.059803922 0.082352941
0.99607843 0.11764706 0.08627451
0.048529412 0.069117647 0.070588235
0.050980392 0.069117647 0.066666667
0.058946078 0.065196078 0.066666667
0.085477941 0.065196078 0.068811275
0.12401961 0.065196078 0.070588235
0.16470588 0.061090686 0.074509804
0.20245098 0.05625 0.074509804
0.24215686 0.052879902 0.072120098
0.29117647 0.044117647 0.070588235
0.34503676 0.02745098 0.070588235
0.40098039 0.014705882 0.066666667
0.45637255 0.0044117647 0.066666667
0.5129902 0.00073529412 0.066666667
0.56746324 0 0.066973039
0.625 0 0.070955882
0.67408088 0.003002451 0.069117647
0.72009804 0.0039215686 0.068137255
0.76519608 0.0039215686 0.073039216
0.80392157 0.0039215686 0.078431373
0.84509804 0.0014705882 0.072365196
0.88235294 0.0039215686 0.071323529
0.91911765 0.0069852941 0.074509804
0.95392157 0.030759804 0.076960784
0.98186275 0.082843137 0.083272059
0.99754902 0.1254902 0.08627451
0.042156863 0.079411765 0.066666667
0.049509804 0.076593137 0.066666667
0.069607843 0.075490196 0.066666667
0.096568627 0.075490196 0.066666667
0.12990196 0.075980392 0.070588235
0.17144608 0.076470588 0.078431373
0.21102941 0.07254902 0.078431373
0.2560049 0.070465686 0.075490196
0.30294118 0.064705882 0.074509804
0.35441176 0.04620098 0.070588235
0.40661765 0.024264706 0.066666667
0.46127451 0.0055147059 0.062745098
0.51813725 0.00049019608 0.064705882
0.57647059 0.0011029412 0.075
0.63504902 0.00098039216 0.081617647
0.68247549 0.0028186275 0.076960784
0.72647059 0 0.066666667
0.76875 0.0039215686 0.069117647
0.80784314 0.0039215686 0.078676471
0.84522059 0.00098039216 0.07120098
0.88431373 0.0034313725 0.066176471
0.91911765 0.041176471 0.078921569
0.95294118 0.082352941 0.085539216
0.98762255 0.1192402 0.088357843
0.99607843 0.13431373 0.090196078
0.035294118 0.085784314 0.066666667
0.054105392 0.087928922 0.066666667
0.077328431 0.089705882 0.066666667
0.1004902 0.089705882 0.066666667
0.13504902 0.093137255 0.070588235
0.17794118 0.096568627 0.075428922
0.2182598 0.096568627 0.078553922
0.26599265 0.092647059 0.078431373
0.31715686 0.08872549 0.074509804
0.36470588 0.075490196 0.072058824
0.41703431 0.058455882 0.066666667
0.47156863 0.044669118 0.062745098
0.52328431 0.040196078 0.064705882
0.58284314 0.039705882 0.075
0.64117647 0.029779412 0.082720588
0.68823529 0.020098039 0.073345588
0.73284314 0.0068627451 0.062745098
0.77401961 0.013602941 0.067830882
0.81519608 0.030147059 0.078553922
0.85245098 0.046568627 0.075
0.8879902 0.059068627 0.070098039
0.91954657 0.093198529 0.075490196
0.95392157 0.13088235 0.081862745
0.98382353 0.15802696 0.087745098
0.99607843 0.16666667 0.090196078
0.031372549 0.11568627 0.07254902
0.05122549 0.12083333 0.07377451
0.075 0.12647059 0.074509804
0.1004902 0.12941176 0.07254902
0.14215686 0.12941176 0.07254902
0.18431373 0.13161765 0.070588235
0.2254902 0.13333333 0.069607843
0.27132353 0.13063725 0.068627451
0.32156863 0.1254902 0.068627451
0.38014706 0.12426471 0.067401961
0.43431373 0.1127451 0.062254902
0.4877451 0.10416667 0.058823529
0.53627451 0.10196078 0.064705882
0.58897059 0.10147059 0.072794118
0.64264706 0.096568627 0.077941176
0.68897059 0.086764706 0.07377451
0.7372549 0.078431373 0.068627451
0.78039216 0.086029412 0.069852941
0.82156863 0.10588235 0.074509804
0.85735294 0.12107843 0.074509804
0.88921569 0.13235294 0.075490196
0.9252451 0.14803922 0.070343137
0.95441176 0.17401961 0.076960784
0.97818627 0.2004902 0.087009804
0.99803922 0.21764706 0.090196078
0.026960784 0.15931373 0.082352941
0.046262255 0.16305147 0.082352941
0.069485294 0.16764706 0.078921569
0.1 0.17058824 0.078431373
0.14509804 0.17058824 0.082843137
0.19019608 0.17058824 0.074019608
0.23186275 0.17058824 0.059436275
0.27665441 0.17058824 0.054411765
0.32990196 0.17058824 0.058333333
0.39166667 0.1745098 0.059803922
0.44987745 0.17009804 0.054411765
0.50091912 0.16372549 0.054411765
0.5497549 0.16323529 0.060539216
0.59895833 0.16280637 0.066605392
0.64656863 0.15980392 0.070098039
0.69754902 0.15851716 0.070098039
0.74558824 0.15245098 0.070098039
0.78676471 0.16243873 0.070404412
0.82389706 0.17120098 0.074387255
0.86127451 0.18192402 0.074019608
0.89215686 0.19681373 0.080882353
0.92696078 0.20686275 0.075490196
0.95404412 0.22009804 0.081985294
0.97726716 0.24411765 0.090686275
0.99558824 0.26029412 0.094117647
0.016666667 0.20098039 0.085294118
0.035784314 0.20392157 0.08627451
0.062745098 0.20882353 0.082352941
0.097058824 0.21176471 0.081862745
0.14362745 0.21176471 0.08627451
0.19019608 0.21176471 0.074509804
0.23529412 0.21176471 0.056127451
0.28296569 0.21286765 0.041666667
0.34019608 0.21862745 0.048039216
0.40196078 0.22144608 0.048406863
0.46372549 0.22254902 0.043137255
0.51470588 0.22156863 0.04497549
0.56176471 0.22156863 0.050490196
0.60882353 0.22156863 0.052941176
0.65318627 0.22156863 0.056617647
0.70441176 0.22156863 0.056862745
0.75588235 0.22156863 0.056862745
0.79129902 0.2254902 0.069117647
0.82745098 0.22965686 0.072794118
0.86507353 0.23676471 0.064093137
0.89607843 0.2504902 0.075490196
0.92696078 0.26127451 0.088357843
0.95710784 0.27230392 0.096078431
0.97794118 0.2877451 0.10098039
0.98529412 0.29411765 0.10098039
0.0039215686 0.24264706 0.08627451
0.029411765 0.24509804 0.083272059
0.056372549 0.25 0.081985294
0.090686275 0.25294118 0.08057598
0.13651961 0.25367647 0.078921569
0.18265931 0.25686275 0.06439951
0.22928922 0.25833333 0.051960784
0.27886029 0.26372549 0.039215686
0.33970588 0.27009804 0.039215686
0.40238971 0.27401961 0.039215686
0.46470588 0.27610294 0.029534314
0.51911765 0.27794118 0.029901961
0.57058824 0.27941176 0.032352941
0.61911765 0.27941176 0.032352941
0.66360294 0.27941176 0.038848039
0.70931373 0.27941176 0.058026961
0.75686275 0.27941176 0.050980392
0.79650735 0.2848652 0.065196078
0.83247549 0.28823529 0.068504902
0.86911765 0.29460784 0.064215686
0.89877451 0.30147059 0.07254902
0.92696078 0.31354167 0.08939951
0.96066176 0.32009804 0.10281863
0.97401961 0.32647059 0.10735294
0.98039216 0.33284314 0.10980392
0.0039215686 0.29411765 0.08627451
0.024509804 0.29166667 0.083823529
0.046078431 0.29117647 0.078431373
0.079901961 0.29411765 0.074509804
0.12941176 0.3 0.068627451
0.175 0.30588235 0.062254902
0.22352941 0.30980392 0.051960784
0.27401961 0.31372549 0.037745098
0.33333333 0.31764706 0.031372549
0.40147059 0.32794118 0.025
0.46764706 0.33333333 0.015686275
0.51911765 0.33333333 0.015686275
0.5745098 0.33529412 0.015686275
0.62990196 0.3372549 0.011764706
0.67843137 0.3372549 0.017647059
0.71568627 0.3372549 0.030392157
0.76078431 0.34117647 0.047058824
0.80343137 0.34362745 0.06127451
0.83823529 0.34901961 0.06372549
0.86911765 0.35294118 0.070588235
0.9 0.35686275 0.076470588
0.93088235 0.36127451 0.083333333
0.95882353 0.36764706 0.097058824
0.9754902 0.37647059 0.11519608
0.98431373 0.38431373 0.11764706
0.0039215686 0.34166667 0.079901961
0.022058824 0.34166667 0.079901961
0.038112745 0.34166667 0.078431373
0.061090686 0.34509804 0.074816176
0.1122549 0.35147059 0.068627451
0.16384804 0.35735294 0.058333333
0.21617647 0.36127451 0.04620098
0.27064951 0.3627451 0.030821078
0.32941176 0.36666667 0.021078431
0.39601716 0.37696078 0.014154412
0.45943627 0.38296569 0.0078431373
0.51666667 0.38609069 0.0078431373
0.56813725 0.38627451 0.0066176471
0.62371324 0.38890931 0.0034313725
0.67647059 0.39203431 0.0029411765
0.72352941 0.39509804 0.011335784
0.76862745 0.39901961 0.030392157
0.81372549 0.40386029 0.052512255
0.84178922 0.40441176 0.066544118
0.87156863 0.40814951 0.077941176
0.90318627 0.41151961 0.081617647
0.9372549 0.4122549 0.082536765
0.95980392 0.41911765 0.096078431
0.97794118 0.42941176 0.11819853
0.99215686 0.43578431 0.12941176
0.0029411765 0.38823529 0.073529412
0.012254902 0.38921569 0.076960784
0.018627451 0.39289216 0.079166667
0.033946078 0.39215686 0.078431373
0.081862745 0.39901961 0.070588235
0.1432598 0.40526961 0.069485294
0.20269608 0.40784314 0.059068627
0.26335784 0.40784314 0.038235294
0.32058824 0.41176471 0.016666667
0.38137255 0.41752451 0.011151961
0.44313725 0.42352941 0.0071078431
0.50232843 0.42745098 0.0078431373
0.55784314 0.43186275 0.0078431373
0.61323529 0.43541667 0.0039215686
0.66470588 0.43921569 0.0039215686
0.71911765 0.44313725 0.0039215686
0.7627451 0.44705882 0.019607843
0.80490196 0.4495098 0.045588235
0.84632353 0.45514706 0.071078431
0.87696078 0.45968137 0.081862745
0.90392157 0.45980392 0.083333333
0.93517157 0.46372549 0.093259804
0.95980392 0.46593137 0.11470588
0.97941176 0.47303922 0.13492647
0.99215686 0.47843137 0.14705882
0 0.43333333 0.077941176
0.00049019608 0.4372549 0.082965686
0.00098039216 0.43762255 0.082230392
0.0014093137 0.4372549 0.075
0.065196078 0.44313725 0.079901961
0.13327206 0.44601716 0.085294118
0.19938725 0.44901961 0.083210784
0.25637255 0.44901961 0.057536765
0.31029412 0.45294118 0.023529412
0.36470588 0.45557598 0.0019607843
0.42647059 0.46176471 0.0074754902
0.48780637 0.46862745 0.0078431373
0.54411765 0.4747549 0.0078431373
0.59901961 0.48039216 0.0039215686
0.6504902 0.48039216 0.0030637255
0.70226716 0.48431373 0.0053921569
0.7495098 0.48823529 0.015686275
0.79313725 0.49197304 0.036764706
0.83884804 0.49705882 0.056985294
0.87352941 0.50349265 0.067156863
0.90392157 0.50955882 0.091911765
0.93523284 0.51519608 0.11764706
0.96237745 0.51519608 0.14166667
0.97941176 0.51930147 0.15735294
0.99215686 0.51960784 0.16764706
0 0.47843137 0.08627451
0 0.48161765 0.084313725
0.00049019608 0.48235294 0.086764706
0.0036764706 0.47843137 0.08995098
0.054901961 0.48235294 0.089215686
0.12671569 0.48235294 0.091911765
0.19215686 0.48039216 0.085294118
0.25 0.48039216 0.069607843
0.30980392 0.49019608 0.060784314
0.35343137 0.49068627 0.010784314
0.41176471 0.49852941 0.0083333333
0.47156863 0.50563725 0.006127451
0.52745098 0.5127451 0.0049019608
0.58284314 0.51764706 0.0036764706
0.63431373 0.51960784 0
0.68504902 0.52426471 0.0053921569
0.73529412 0.52941176 0.01372549
0.78284314 0.53259804 0.025245098
0.82696078 0.5372549 0.035294118
0.86323529 0.54117647 0.035294118
0.89803922 0.54803922 0.048039216
0.93284314 0.55539216 0.093382353
0.96078431 0.56078431 0.14558824
0.97941176 0.56078431 0.17230392
0.99607843 0.56078431 0.18627451
0 0.52303922 0.086764706
0 0.52303922 0.084129902
0.0039215686 0.52218137 0.091176471
0.0039215686 0.51917892 0.097120098
0.040196078 0.51911765 0.094117647
0.11415441 0.51568627 0.091176471
0.18370098 0.51531863 0.087745098
0.24264706 0.51176471 0.073835784
0.29754902 0.51568627 0.055392157
0.34528186 0.5254902 0.026286765
0.39620098 0.53186275 0.0025735294
0.45189951 0.53829657 0.0034926471
0.50906863 0.54656863 0.0039215686
0.56623775 0.5504902 0.0034926471
0.61813725 0.55477941 0.00049019608
0.67352941 0.56011029 0.0039215686
0.725 0.56617647 0.0039215686
0.77401961 0.57009804 0.0099877451
0.81813725 0.57414216 0.013848039
0.85637255 0.5783701 0.010845588
0.89362745 0.58210784 0.0071078431
0.92604167 0.58627451 0.03627451
0.94963235 0.59264706 0.094240196
0.9754902 0.59540441 0.15441176
0.99215686 0.59803922 0.18431373
0 0.55686275 0.097058824
0 0.55784314 0.095710784
0.0039215686 0.55686275 0.097058824
0.0039215686 0.55306373 0.094485294
0.02254902 0.55 0.091666667
0.11409314 0.55294118 0.10441176
0.19387255 0.55073529 0.10563725
0.24620098 0.54901961 0.087377451
0.3 0.55294118 0.082352941
0.34203431 0.55637255 0.047426471
0.38848039 0.5627451 0.018627451
0.44117647 0.56911765 0.0068627451
0.49558824 0.5754902 0.0039215686
0.5495098 0.58186275 0.0039215686
0.60392157 0.58897059 0.0068627451
0.65747549 0.59607843 0.0039215686
0.71078431 0.6 0.0039215686
0.7622549 0.60343137 0.0049019608
0.80490196 0.60882353 0.0078431373
0.84607843 0.6127451 0.0039215686
0.88333333 0.61666667 0.0029411765
0.91997549 0.62058824 0.010416667
0.94705882 0.62426471 0.053921569
0.9754902 0.62953431 0.10747549
0.99215686 0.63921569 0.17058824
0 0.59411765 0.10343137
0 0.59411765 0.10526961
0.0042892157 0.59203431 0.10563725
0.014215686 0.59166667 0.10882353
0.043627451 0.59289216 0.11348039
0.11286765 0.59019608 0.11127451
0.18872549 0.58872549 0.11188725
0.24209559 0.58480392 0.098039216
0.29019608 0.58480392 0.087745098
0.33474265 0.5872549 0.068627451
0.38431373 0.59362745 0.043504902
0.42941176 0.6 0.012254902
0.48137255 0.60637255 0.0026960784
0.53302696 0.6127451 0.0080269608
0.58762255 0.62303922 0.011764706
0.64117647 0.63033088 0.0087622549
0.69509804 0.63333333 0.0078431373
0.74656863 0.63670343 0.0039215686
0.79313725 0.64178922 0.0039215686
0.83186275 0.64724265 0.0039215686
0.87230392 0.6502451 0.0066176471
0.90998775 0.65196078 0.012071078
0.94754902 0.65539216 0.017892157
0.97493873 0.66078431 0.057291667
0.98823529 0.67107843 0.1127451
0 0.63137255 0.10980392
0.0024509804 0.63137255 0.10980392
0.0049019608 0.62745098 0.10980392
0.0078431373 0.62745098 0.10980392
0.031372549 0.62745098 0.10980392
0.10539216 0.62352941 0.11029412
0.17745098 0.62352941 0.11372549
0.24019608 0.61960784 0.10833333
0.29411765 0.61960784 0.10196078
0.34313725 0.61960784 0.093137255
0.38921569 0.62745098 0.067647059
0.43333333 0.63137255 0.036764706
0.4745098 0.6372549 0.021568627
0.52401961 0.64754902 0.019607843
0.5754902 0.65784314 0.019607843
0.62941176 0.6627451 0.010294118
0.67843137 0.66666667 0.0078431373
0.72990196 0.67058824 0.0039215686
0.77647059 0.6745098 0.00098039216
0.81764706 0.67843137 0.0039215686
0.85882353 0.68235294 0.0078431373
0.9 0.68284314 0.0078431373
0.93823529 0.68627451 0.0078431373
0.97303922 0.69166667 0.013235294
0.99215686 0.70196078 0.047058824
0.010294118 0.66862745 0.13039216
0.012745098 0.66862745 0.12738971
0.017034314 0.66617647 0.12647059
0.020281863 0.66470588 0.12285539
0.053431373 0.6622549 0.12254902
0.11685049 0.66078431 0.12432598
0.19019608 0.65894608 0.12757353
0.25686275 0.65686275 0.12892157
0.3122549 0.65686275 0.12892157
0.35343137 0.65686275 0.11764706
0.39607843 0.66115196 0.092769608
0.4372549 0.66568627 0.073223039
0.47843137 0.67132353 0.062745098
0.52401961 0.67843137 0.043872549
0.57193627 0.68578431 0.021568627
0.62395833 0.69362745 0.006372549
0.67205882 0.69754902 0.0039215686
0.72205882 0.70300245 0
0.76862745 0.70637255 0
0.80980392 0.70931373 0.0036151961
0.85245098 0.71323529 0.0039215686
0.89362745 0.71323529 0.0053921569
0.9314951 0.71715686 0.0053921569
0.9627451 0.725 0.003002451
0.99362745 0.73284314 0
0.021568627 0.70588235 0.15098039
0.025122549 0.70526961 0.14816176
0.033578431 0.70514706 0.14411765
0.057230392 0.70526961 0.14816176
0.1004902 0.70098039 0.14313725
0.15490196 0.69791667 0.14313725
0.21960784 0.69485294 0.14534314
0.27561275 0.69375 0.14705882
0.31862745 0.69313725 0.14215686
0.35980392 0.69019608 0.13578431
0.40098039 0.69411765 0.11813725
0.44215686 0.70061275 0.10931373
0.48480392 0.70539216 0.10343137
0.52757353 0.7127451 0.06752451
0.57181373 0.71666667 0.025490196
0.61875 0.72205882 0.0018382353
0.66666667 0.72843137 0
0.71715686 0.73517157 0
0.76151961 0.74019608 0
0.80232843 0.74375 0
0.84313725 0.74411765 0
0.8872549 0.74411765 0
0.92156863 0.74877451 0
0.95281863 0.75625 0
0.98333333 0.7627451 0
0.042156863 0.74362745 0.16764706
0.038541667 0.74313725 0.16176471
0.054656863 0.73970588 0.16029412
0.10147059 0.73927696 0.16329657
0.14705882 0.73578431 0.16372549
0.18921569 0.73529412 0.16029412
0.24497549 0.73272059 0.16029412
0.29509804 0.73137255 0.16372549
0.33627451 0.73137255 0.15980392
0.37481618 0.72745098 0.15686275
0.41090686 0.72879902 0.15392157
0.45245098 0.73529412 0.14754902
0.49362745 0.74142157 0.14117647
0.53480392 0.7471201 0.10539216
0.57598039 0.75012255 0.059926471
0.61734069 0.75294118 0.023590686
0.66617647 0.75931373 0.010294118
0.71176471 0.76715686 0.0012867647
0.75686275 0.77107843 0
0.79810049 0.775 0.0034313725
0.83921569 0.775 0.0034313725
0.88039216 0.77892157 0
0.91776961 0.78272059 0
0.9495098 0.78823529 0
0.97696078 0.79460784 0
0.11372549 0.78431373 0.2
0.10857843 0.78186275 0.19485294
0.12009804 0.78039216 0.19068627
0.16617647 0.77647059 0.19215686
0.20392157 0.7745098 0.18921569
0.2370098 0.77254902 0.18431373
0.27401961 0.77205882 0.18529412
0.32303922 0.77107843 0.19362745
0.36862745 0.76862745 0.19803922
0.40661765 0.76617647 0.19607843
0.44019608 0.76519608 0.19362745
0.47279412 0.77034314 0.18872549
0.50686275 0.77647059 0.17941176
0.54509804 0.78235294 0.15931373
0.58627451 0.78578431 0.12892157
0.63137255 0.78897059 0.097058824
0.67647059 0.79607843 0.078431373
0.71838235 0.80122549 0.051470588
0.75539216 0.80294118 0.013235294
0.79803922 0.80588235 0.0039215686
0.83529412 0.80980392 0
0.8745098 0.81372549 0
0.91421569 0.81715686 0.00049019608
0.9495098 0.82230392 0
0.97647059 0.8254902 0
0.20833333 0.8254902 0.24558824
0.20863971 0.82285539 0.24136029
0.21311275 0.82144608 0.23235294
0.24025735 0.81764706 0.22898284
0.27156863 0.81348039 0.22965686
0.30196078 0.8088848 0.23382353
0.33186275 0.80882353 0.23982843
0.36531863 0.81354167 0.24148284
0.40147059 0.80980392 0.2372549
0.43627451 0.80735294 0.23480392
0.46813725 0.80588235 0.23333333
0.50238971 0.80588235 0.23376225
0.53946078 0.81151961 0.23431373
0.57205882 0.81415441 0.21721814
0.60588235 0.82022059 0.19105392
0.64393382 0.82518382 0.17401961
0.69117647 0.82941176 0.16127451
0.73382353 0.83676471 0.13333333
0.76556373 0.83676471 0.076960784
0.7995098 0.83719363 0.013480392
0.83578431 0.84093137 0.011519608
0.87303922 0.84509804 0.010232843
0.91384804 0.85147059 0.0068627451
0.95343137 0.85637255 0
0.98088235 0.86029412 0
0.29803922 0.85980392 0.3
0.30098039 0.85980392 0.29068627
0.30196078 0.85588235 0.28014706
0.3122549 0.85588235 0.27892157
0.34166667 0.85245098 0.28921569
0.3692402 0.84656863 0.29473039
0.39387255 0.84681373 0.29803922
0.42058824 0.85098039 0.29742647
0.44215686 0.85098039 0.28137255
0.4689951 0.84914216 0.27634804
0.50490196 0.84387255 0.28210784
0.54313725 0.84019608 0.29166667
0.58529412 0.84901961 0.30294118
0.61617647 0.85232843 0.28664216
0.64803922 0.85784314 0.27745098
0.68039216 0.86311275 0.26813725
0.71862745 0.86764706 0.25392157
0.75796569 0.87156863 0.22781863
0.78848039 0.87156863 0.18186275
0.82009804 0.8745098 0.15551471
0.85098039 0.87696078 0.13088235
0.88333333 0.87977941 0.096568627
0.92058824 0.88333333 0.055392157
0.9567402 0.88872549 0.014460784
0.99117647 0.89411765 0
0.38186275 0.89068627 0.35392157
0.38670343 0.89215686 0.35386029
0.38872549 0.89154412 0.3504902
0.39932598 0.89313725 0.35392157
0.4254902 0.89607843 0.36127451
0.44166667 0.8877451 0.36096814
0.46127451 0.8872549 0.36127451
0.49019608 0.89215686 0.36421569
0.49901961 0.88529412 0.34215686
0.5245098 0.88376225 0.34552696
0.56470588 0.88541667 0.36286765
0.59197304 0.88039216 0.36292892
0.63676471 0.89093137 0.38088235
0.65833333 0.88872549 0.36372549
0.69252451 0.89901961 0.36678922
0.72254902 0.90300245 0.3598652
0.75343137 0.90637255 0.3504902
0.78431373 0.90784314 0.32591912
0.81090686 0.90845588 0.30845588
0.84068627 0.91158088 0.29411765
0.87156863 0.91421569 0.2754902
0.90245098 0.91599265 0.25036765
0.93333333 0.91960784 0.20894608
0.96666667 0.92444853 0.15300245
0.99607843 0.92745098 0.12009804
0.44705882 0.91764706 0.4
0.46127451 0.92401961 0.41029412
0.47745098 0.93039216 0.4254902
0.49509804 0.9377451 0.43627451
0.50196078 0.93333333 0.42941176
0.51764706 0.92892157 0.43039216
0.53333333 0.92843137 0.42941176
0.54754902 0.92647059 0.42303922
0.55294118 0.91372549 0.40392157
0.58235294 0.92009804 0.41911765
0.63137255 0.93529412 0.45196078
0.64558824 0.92205882 0.43921569
0.68431373 0.93137255 0.45686275
0.69558824 0.92205882 0.43186275
0.73333333 0.93529412 0.44901961
0.75588235 0.9372549 0.4377451
0.78431373 0.94117647 0.43921569
0.80882353 0.94117647 0.42107843
0.83431373 0.94117647 0.41470588
0.86127451 0.94460784 0.41127451
0.89019608 0.94509804 0.39215686
0.91911765 0.94558824 0.37205882
0.95 0.95196078 0.35784314
0.9754902 0.95441176 0.3372549
0.99607843 0.96078431 0.3372549
0.05245098 0.06127451 0.073039216
0.05245098 0.058823529 0.073039216
0.053063725 0.057843137 0.071568627
0.071384804 0.054901961 0.072855392
0.11568627 0.054901961 0.076960784
0.15588235 0.055698529 0.080882353
0.19436275 0.047671569 0.080882353
0.2372549 0.03682598 0.080882353
0.28872549 0.025 0.080882353
0.3471201 0.01807598 0.080882353
0.40098039 0.011764706 0.083333333
0.45588235 0.0078431373 0.083333333
0.50980392 0.0039215686 0.084803922
0.56323529 0 0.083026961
0.61470588 0.0035539216 0.082965686
0.66617647 0.0048406863 0.083333333
0.71372549 0.006372549 0.087254902
0.75882353 0.0039215686 0.087254902
0.80392157 0.0039215686 0.087254902
0.84509804 0.0039215686 0.087254902
0.88357843 0.0071078431 0.087254902
0.92175245 0.010294118 0.087254902
0.95036765 0.02254902 0.094117647
0.97303922 0.077022059 0.10441176
0.98970588 0.11764706 0.10686275
0.047610294 0.067585784 0.076960784
0.050980392 0.066666667 0.075467218
0.059175858 0.065196078 0.072901348
0.085409007 0.065196078 0.074195772
0.12401961 0.065196078 0.076960784
0.16182598 0.064705882 0.080882353
0.20245098 0.057965686 0.080882353
0.24720435 0.048613664 0.080882353
0.29656863 0.037745098 0.083333333
0.35026042 0.023874081 0.083333333
0.40448836 0.013373162 0.080882353
0.45790441 0.0052159926 0.079963235
0.5129902 0.00073529412 0.081801471
0.56991422 0 0.083333333
0.625 0.0018382353 0.083333333
0.675 0.0042662377 0.083333333
0.72009804 0.006372549 0.086335784
0.76182598 0.0044960172 0.087254902
0.80392157 0.0039215686 0.087254902
0.84509804 0.0060661765 0.087254902
0.88235294 0.0071078431 0.087254902
0.92168352 0.0087775735 0.088242953
0.95105699 0.041161152 0.093428309
0.97814798 0.095795037 0.10140931
0.99215686 0.1254902 0.10386029
0.043137255 0.079411765 0.077573529
0.052573529 0.079411765 0.076960784
0.073253676 0.079411765 0.074877451
0.096691176 0.076302083 0.07432598
0.12971814 0.076470588 0.075
0.16853554 0.075490196 0.078431373
0.20811887 0.071813725 0.080514706
0.25784314 0.065625 0.080882353
0.30870098 0.058333333 0.083333333
0.35833333 0.043811275 0.083884804
0.41026348 0.025122549 0.080514706
0.46469056 0.013357843 0.079947917
