site/assets/luts/natron-haldclut--polaroid-time-zero-expired-cold---8388280cf.cube
# LUTr-Project: LUTr — LUTrepository
# LUTr-Schema-Version: 1
# LUTr-ID: natron-haldclut--polaroid-time-zero-expired-cold---8388280cf
# LUTr-Title: polaroid time zero (expired) cold -
# LUTr-Collection: Natron HaldCLUT
# LUTr-Collection-ID: natron-haldclut-presets
# LUTr-Source: https://github.com/NatronGitHub/clut
# LUTr-Source-File: submissions/natron-haldclut-presets/instant_consumer/polaroid_time_zero_(expired)_cold_-.png
# LUTr-Source-Format: PNG
# LUTr-Source-SHA256: 18bda8d78c492af331f7e574fb30f0856f7f2c3db10b36701841adc9814bf835
# LUTr-License: CC-BY-SA-4.0
# LUTr-License-URL: https://github.com/NatronGitHub/clut#license
# LUTr-Tags: creative, film, film-emulation, hald-clut, natron, png, cool, cube
# LUTr-Transform-Class: film-emulation
# LUTr-Input-Color-Space: srgb
# LUTr-Output-Color-Space: srgb
# LUTr-Color-Space-Confidence: assumed-display-referred
# LUTr-Conversion-Method: PNG LUT image decoded at 16-bit and sampled to 25x25x25 3D CUBE
# LUTr-Conversion-Date: 2026-07-27
# LUTr-Conversion-Tool: LUTr scripts/convert-all-to-cube.mjs
# LUTr-Conversion-Grid: 25x25x25
# LUTr-Note: Preserve this metadata and the upstream license notices when redistributing.
TITLE "polaroid time zero (expired) cold -"
LUT_3D_SIZE 9
DOMAIN_MIN 0 0 0
DOMAIN_MAX 1 1 1
0.38431373 0.18823529 0.074509804
0.40343137 0.18431373 0.074509804
0.42647059 0.18039216 0.078431373
0.48970588 0.17647059 0.074509804
0.55882353 0.16862745 0.068627451
0.65784314 0.20931373 0.08627451
0.73921569 0.22352941 0.094117647
0.825 0.25147059 0.11029412
0.92156863 0.28235294 0.1254902
0.38382353 0.19852941 0.067156863
0.40735294 0.20686275 0.067156863
0.44473039 0.21482843 0.063235294
0.49117647 0.20343137 0.058823529
0.57426471 0.21470588 0.066666667
0.6591299 0.21666667 0.072365196
0.74411765 0.24313725 0.087254902
0.83278186 0.27493873 0.10637255
0.91764706 0.31323529 0.12941176
0.41078431 0.28039216 0.03627451
0.42990196 0.2754902 0.037254902
0.45980392 0.27083333 0.03627451
0.51764706 0.28223039 0.043137255
0.58578431 0.27647059 0.051470588
0.66715686 0.29154412 0.064215686
0.75588235 0.3125 0.079411765
0.84411765 0.33186275 0.095588235
0.90686275 0.3627451 0.11862745
0.43235294 0.36813725 0
0.45931373 0.36813725 0.011458333
0.49914216 0.37205882 0.019607843
0.54852941 0.37542892 0.012316176
0.61813725 0.37990196 0.037990196
0.6877451 0.38382353 0.050980392
0.75882353 0.39375 0.026102941
0.83676471 0.41568627 0.057046569
0.9004902 0.43480392 0.099509804
0.47647059 0.46862745 0.0019607843
0.49558824 0.47058824 0.0056372549
0.53970588 0.47647059 0.0039215686
0.5872549 0.47647059 0.0039215686
0.64901961 0.48235294 0.02254902
0.71862745 0.49289216 0.057107843
0.78431373 0.5004902 0.05
0.84632353 0.50833333 0.032598039
0.89803922 0.52352941 0.023529412
0.53235294 0.56519608 0.0039215686
0.54019608 0.56911765 0.0039215686
0.57990196 0.5745098 0.0039215686
0.62653186 0.57696078 0.0039215686
0.67990196 0.58088235 0.0039215686
0.74166667 0.58927696 0.006372549
0.80980392 0.60833333 0.098406863
0.86501225 0.61617647 0.1096201
0.90588235 0.62401961 0.13137255
0.59803922 0.66568627 0.0078431373
0.60539216 0.66960784 0.0078431373
0.6245098 0.67352941 0.0049019608
0.66507353 0.67352941 0.0039215686
0.71862745 0.67598039 0.0014705882
0.77647059 0.68676471 0.0018382353
0.83259804 0.70098039 0.059558824
0.88688725 0.71188725 0.22169118
0.92647059 0.72058824 0.26666667
0.65980392 0.75441176 0.0078431373
0.66758578 0.7622549 0.0078431373
0.68235294 0.75833333 0.0078431373
0.71323529 0.7622549 0.0078431373
0.75563725 0.77401961 0
0.80998775 0.77371324 0.0039215686
0.86029412 0.77745098 0.074509804
0.90686275 0.78186275 0.25931373
0.94117647 0.79313725 0.3622549
0.70980392 0.82745098 0
0.71764706 0.82745098 0.019117647
0.72843137 0.8245098 0.010784314
0.74754902 0.81176471 0.015686275
0.78039216 0.80980392 0.0039215686
0.84607843 0.83921569 0.017156863
0.8872549 0.83921569 0.2127451
0.92990196 0.83921569 0.3627451
0.94901961 0.84313725 0.42352941
0.39607843 0.18431373 0.10539216
0.41127451 0.18823529 0.10490196
0.43039216 0.18394608 0.09754902
0.49362745 0.18823529 0.10147059
0.57058824 0.19583333 0.10710784
0.65539216 0.20753676 0.11078431
0.74019608 0.22843137 0.12205882
0.83284314 0.25931373 0.14117647
0.91323529 0.29019608 0.16029412
0.4 0.21035539 0.098039216
0.4147595 0.20729167 0.09754902
0.43844975 0.20735294 0.093627451
0.50271906 0.2209712 0.097388174
0.57843137 0.22996324 0.10147059
0.66511183 0.23186275 0.11292892
0.74411765 0.25179228 0.11845895
0.84068627 0.2901348 0.1372549
0.91764706 0.32408088 0.16029412
0.41556373 0.27683824 0.070588235
0.43120404 0.27169118 0.078063725
0.46727941 0.27904412 0.078707108
0.52507659 0.28688725 0.089077819
0.59295343 0.2875 0.093137255
0.67071078 0.29577206 0.099417892
0.75588235 0.31632966 0.10563725
0.84460784 0.34227941 0.12866115
0.92892157 0.37058824 0.14558824
0.44148284 0.37058824 0.035294118
0.46266085 0.37058824 0.040686275
0.49946385 0.37598039 0.026914828
0.55618873 0.37990196 0.055093444
0.62196691 0.38112745 0.088143382
0.6877451 0.38082108 0.073644301
0.76533395 0.3975337 0.077726716
0.84761029 0.42073376 0.095526961
0.91746324 0.44264706 0.12647059
0.48406863 0.47254902 0.011764706
0.50315564 0.47576593 0.021568627
0.53602941 0.48039216 0
0.5872549 0.48014706 0.01127451
0.65183824 0.4870098 0.04375
0.71991422 0.49019608 0.084160539
0.78823529 0.50238971 0.094852941
0.85392157 0.51176471 0.07745098
0.91789216 0.52916667 0.096813725
0.52843137 0.56911765 0.0039215686
0.54409467 0.57432598 0.0039215686
0.57696078 0.57806373 0.0039215686
0.62598039 0.58088235 0.0069240196
0.68186275 0.58480392 0
0.74558824 0.59545803 0.056196385
0.81372549 0.61433824 0.14485294
0.86911765 0.62165288 0.1521829
0.91911765 0.62922794 0.14656863
0.58933824 0.66960784 0.0078431373
0.60185355 0.67438725 0.0078431373
0.62352941 0.67745098 0.0078431373
0.66286765 0.67745098 0.0048253676
0.71519608 0.67922794 0.0039215686
0.77647059 0.69064032 0.00018382353
0.83406863 0.70416667 0.10968137
0.89048713 0.71973039 0.24436275
0.93296569 0.72352941 0.27536765
0.65680147 0.76219363 0.0087622549
0.66452972 0.76617647 0.0039215686
0.68235294 0.76219363 0.0078431373
0.71323529 0.76615349 0.009620098
0.75563725 0.77380515 0.0039215686
0.80739124 0.77401961 0.0039215686
0.86029412 0.78137255 0.11237745
0.91029412 0.78529412 0.3
0.94160539 0.79313725 0.38829657
0.71764706 0.83872549 0
0.7254902 0.83529412 0.050919118
0.73321078 0.83137255 0.0042892157
0.75147059 0.81715686 0.03002451
0.79558824 0.8254902 0.015441176
0.84981618 0.84295343 0.076960784
0.8872549 0.83529412 0.23186275
0.92598039 0.83921569 0.36660539
0.95245098 0.83921569 0.45392157
0.40392157 0.17745098 0.13627451
0.41568627 0.18431373 0.14411765
0.44191176 0.18823529 0.14705882
0.49509804 0.19607843 0.15159314
0.57647059 0.21176471 0.17598039
0.65931373 0.22071078 0.18137255
0.74803922 0.25784314 0.18921569
0.8432598 0.27794118 0.19705882
0.92254902 0.30882353 0.20882353
0.41813725 0.22169118 0.13884804
0.42610294 0.2189951 0.14019608
0.45867034 0.22092525 0.14898897
0.51029412 0.22659314 0.15704657
0.5879902 0.23866422 0.16452206
0.66715686 0.25084252 0.1713848
0.75196078 0.27806373 0.18529412
0.84336703 0.30183824 0.19068627
0.91323529 0.32892157 0.20232843
0.43235294 0.27156863 0.13823529
0.44154412 0.27604167 0.1359375
0.4807598 0.2872549 0.14313725
0.53333333 0.29509804 0.15098039
0.60330882 0.30379902 0.15882353
0.67827819 0.31078431 0.15955882
0.75974265 0.32389706 0.16691176
0.84411765 0.34656863 0.18342525
0.90490196 0.37034314 0.19730392
0.46421569 0.36875 0.12463235
0.47291667 0.37205882 0.12847733
0.51029412 0.37953431 0.12000613
0.56421569 0.38382353 0.13492647
0.62708333 0.384375 0.15490196
0.69751838 0.39166667 0.14816176
0.77147672 0.40808824 0.14825368
0.85405944 0.43102022 0.16358762
0.92696078 0.44767157 0.18382353
0.49901961 0.47254902 0.08872549
0.51164216 0.47647059 0.091666667
0.54203431 0.48039216 0.07254902
0.59264706 0.48431373 0.093259804
0.66029412 0.48921569 0.13529412
0.72254902 0.49681373 0.14387255
0.78823529 0.50637255 0.15637255
0.85765931 0.52009804 0.14718137
0.90539216 0.53137255 0.15588235
0.53198529 0.57414216 0.048529412
0.54745711 0.57696078 0.048039216
0.57778799 0.58088235 0.030729167
0.61813725 0.58480392 0.015073529
0.68382353 0.58872549 0.074019608
0.7495098 0.60196078 0.14142157
0.81127451 0.61654412 0.20772059
0.87285539 0.6254902 0.20592831
0.91164216 0.62830882 0.19889706
0.57769608 0.67426471 0.0039215686
0.59669118 0.67745098 0.0140625
0.62040441 0.68137255 0.015257353
0.65903799 0.68137255 0.0078431373
0.71470588 0.68529412 0.0042892157
0.77254902 0.69313725 0.065196078
0.83431373 0.70753676 0.18253676
0.88783701 0.72058824 0.29938725
0.92941176 0.72058824 0.31960784
0.65196078 0.76580882 0.036642157
0.65283395 0.77401961 0.0042432598
0.67484681 0.77009804 0.011764706
0.70592831 0.77009804 0.0078431373
0.75214461 0.77371324 0.0079044118
0.80606618 0.78137255 0.027619485
0.86348039 0.78137255 0.20980392
0.90654105 0.78921569 0.32953431
0.94080882 0.79656863 0.41875
0.72941176 0.83921569 0.14901961
0.73284314 0.84264706 0.13982843
0.74411765 0.84215686 0.10931373
0.75833333 0.83431373 0.088235294
0.79803922 0.83921569 0.035784314
0.84215686 0.83676471 0.11507353
0.89117647 0.84142157 0.28112745
0.92205882 0.83529412 0.38492647
0.96078431 0.84705882 0.51078431
0.46617647 0.2127451 0.23333333
0.46764706 0.21813725 0.22959559
0.48872549 0.21813725 0.23333333
0.51960784 0.21758578 0.23333333
0.59068627 0.22843137 0.24852941
0.66868873 0.23921569 0.26617647
0.75588235 0.28333333 0.27401961
0.84411765 0.30882353 0.28235294
0.91372549 0.34215686 0.29754902
0.475 0.24460784 0.22696078
0.475 0.24117647 0.22696078
0.504856 0.24767157 0.23088235
0.54159773 0.25294118 0.23449755
0.58995098 0.25931373 0.23259804
0.67107843 0.27224265 0.25717678
0.75975797 0.29505208 0.2665288
0.84648438 0.32214308 0.27493873
0.91764706 0.35667892 0.29001225
0.49473039 0.30183824 0.23272059
0.50147059 0.29852941 0.22696078
0.5245098 0.30637255 0.22696078
0.55747549 0.31712623 0.23180147
0.61323529 0.32352941 0.23088235
0.68754596 0.33321078 0.24865196
0.76902574 0.34249387 0.25833333
0.85013787 0.35931373 0.27045037
0.92696078 0.38872549 0.28247549
0.50839461 0.37898284 0.2221201
0.52217371 0.37978707 0.21992187
0.54117647 0.38276654 0.21666667
0.58235294 0.39561121 0.22361366
0.64411765 0.39803922 0.22941176
0.70712316 0.40121017 0.23200827
0.78056066 0.41865809 0.23909314
0.85588235 0.43884038 0.25630362
0.92248775 0.45741422 0.27401961
0.51936275 0.46666667 0.2002451
0.53333333 0.46740196 0.19730392
0.55392157 0.47542892 0.20171569
0.60098039 0.48584559 0.20119485
0.6629902 0.48884804 0.21029412
0.72965686 0.49607843 0.21957721
0.78823529 0.50441176 0.23051471
0.85980392 0.52352941 0.24295343
0.92794118 0.53848039 0.25955882
0.54901961 0.57696078 0.1911152
0.56421569 0.57696078 0.1863894
0.58480392 0.58088235 0.1917739
0.62877604 0.58480392 0.16464461
0.6877451 0.59264706 0.19160539
0.7495098 0.59895833 0.22955729
0.81127451 0.61262255 0.27493873
0.86911765 0.62408854 0.2754902
0.9254902 0.62794118 0.24699755
0.59411765 0.67647059 0.18333333
0.60191483 0.67745098 0.1602788
0.6245098 0.67843137 0.15
0.66115196 0.68419118 0.12075674
0.71078431 0.68921569 0.10386029
0.76986826 0.69460784 0.18702512
0.83431373 0.7127451 0.27781863
0.89134498 0.7245098 0.36288297
0.92941176 0.72242647 0.36678922
0.65851716 0.7622549 0.17959559
0.66214767 0.76617647 0.16421569
0.67850797 0.77002145 0.14492953
0.70147059 0.77352941 0.12530637
0.74779412 0.77745098 0.078982843
0.80251225 0.78003217 0.14411765
0.86127451 0.78144914 0.27892157
0.9033701 0.78921569 0.38488817
0.93118873 0.79313725 0.45441176
0.7254902 0.83137255 0.25294118
0.72107843 0.82481618 0.22303922
0.74411765 0.83921569 0.23296569
0.76715686 0.83921569 0.22696078
0.79877451 0.84313725 0.21078431
0.83731618 0.83621324 0.22892157
0.88272059 0.83308824 0.32720588
0.91421569 0.83400735 0.40931373
0.95147059 0.84166667 0.51813725
0.5254902 0.23137255 0.34509804
0.5375 0.2497549 0.34509804
0.55196078 0.24852941 0.35196078
0.57034314 0.25416667 0.35294118
0.62941176 0.27843137 0.35392157
0.68602941 0.28039216 0.35563725
0.76519608 0.29607843 0.36911765
0.84460784 0.32205882 0.38063725
0.91176471 0.35882353 0.39803922
0.54656863 0.27941176 0.34681373
0.54681373 0.27748162 0.34509804
0.56323529 0.28118873 0.34816176
0.59411765 0.29460784 0.35042892
0.62941176 0.30147059 0.3442402
0.68979779 0.31504289 0.35260417
0.76519608 0.30992647 0.36942402
0.84825368 0.33011642 0.38455882
0.9254902 0.37622549 0.40563725
0.56813725 0.33382353 0.34362745
0.57334559 0.33719363 0.34270833
0.58676471 0.34460784 0.34313725
0.61372549 0.36151961 0.34901961
0.64803922 0.36421569 0.34583333
0.69626225 0.36439951 0.3435049
0.77659314 0.37058824 0.35784314
0.84840686 0.37089461 0.37935049
0.92156863 0.40833333 0.39607843
0.57647059 0.4002451 0.33014706
0.58691789 0.40863971 0.33088235
0.60520833 0.41544118 0.3346201
0.63235294 0.42892157 0.34209559
0.675 0.43553922 0.34509804
0.72135417 0.43431373 0.3379902
0.79019608 0.43357843 0.3502451
0.85851716 0.44770221 0.36161152
0.9254902 0.47156863 0.37401961
0.57352941 0.47352941 0.30392157
0.58112745 0.48039216 0.30477941
0.60686275 0.49583333 0.31642157
0.64289216 0.50808824 0.32352941
0.69068627 0.5127451 0.32794118
0.73884804 0.50588235 0.3254902
0.79681373 0.51397059 0.3375
0.86372549 0.52671569 0.34620098
0.92843137 0.54509804 0.35784314
0.59166667 0.5745098 0.29215686
0.59509804 0.57288603 0.29019608
0.61740196 0.58627451 0.30735294
0.64362745 0.58995098 0.30980392
0.69485294 0.59656863 0.31372549
0.75343137 0.60364583 0.32650123
0.81372549 0.60980392 0.34454657
0.87303922 0.61626838 0.3497549
0.92794118 0.63186275 0.35563725
0.61470588 0.67745098 0.29460784
0.62120098 0.67745098 0.29650735
0.63517157 0.68137255 0.29840686
0.66256127 0.68137255 0.28590686
0.71470588 0.68995098 0.27696078
0.76862745 0.69442402 0.30165441
0.83357843 0.71066176 0.36629902
0.89142157 0.71813725 0.41384804
0.93235294 0.7245098 0.40392157
0.65196078 0.76568627 0.30808824
0.66151961 0.76397059 0.31372549
0.67898284 0.77003676 0.30784314
0.70646446 0.76960784 0.29862132
0.75183824 0.77377451 0.275
0.79589461 0.77745098 0.2729473
0.85514706 0.78235294 0.35661765
0.90637255 0.78921569 0.44509804
0.92941176 0.79313725 0.49926471
0.7254902 0.82745098 0.3627451
0.74093137 0.83529412 0.37083333
0.74901961 0.84068627 0.36764706
0.76715686 0.83529412 0.34779412
0.79607843 0.8372549 0.33137255
0.83039216 0.83137255 0.31985294
0.87843137 0.83333333 0.39901961
0.92205882 0.84093137 0.47990196
0.94901961 0.83921569 0.56078431
0.60441176 0.28137255 0.47254902
0.61470588 0.29344363 0.47647059
0.62365196 0.29375 0.47647059
0.65245098 0.32156863 0.48284314
0.68651961 0.33627451 0.4870098
0.72205882 0.33866422 0.46954657
0.78382353 0.34767157 0.46752451
0.85606618 0.33609069 0.48903186
0.89656863 0.3372549 0.50392157
0.62616422 0.32922794 0.47647059
0.62616422 0.32794118 0.47647059
0.63792892 0.33921569 0.47647059
0.65846354 0.34443168 0.48039216
0.69044118 0.36191789 0.48186275
0.72990196 0.37150735 0.4763557
0.78382353 0.3627451 0.46720282
0.8521829 0.36762408 0.47941176
0.91715686 0.38743873 0.50373775
0.64718137 0.39607843 0.47647059
0.65035233 0.39977022 0.47313113
0.66409314 0.40784314 0.47564338
0.6799326 0.41458333 0.47647059
0.70477941 0.42420343 0.48039216
0.73751532 0.42598039 0.47254902
0.78428309 0.41666667 0.46351103
0.85341605 0.40980392 0.48235294
0.92291667 0.42977941 0.50637255
0.65784314 0.4627451 0.46617647
0.6653799 0.47321538 0.46145067
0.68039216 0.4745098 0.46511949
0.70196078 0.48627451 0.46862745
0.72377451 0.49411765 0.4752451
0.75833333 0.48872549 0.47289369
0.79780944 0.47020527 0.46139706
0.86684283 0.46292126 0.48138021
0.91078431 0.48333333 0.48431373
0.64485294 0.51519608 0.43995098
0.65744485 0.52760417 0.4390625
0.67591912 0.53057598 0.44613971
0.69436275 0.54264706 0.44705882
0.73431373 0.55980392 0.45980392
0.7708027 0.55395221 0.45928309
0.80827206 0.53823529 0.45686275
0.87034314 0.54681373 0.4627451
0.91568627 0.56617647 0.46985294
0.64607843 0.59411765 0.41464461
0.63903952 0.58920803 0.40833333
0.6620864 0.6004902 0.41617647
0.6877451 0.60683977 0.42644761
0.73235294 0.62745098 0.44240196
0.7696921 0.62401961 0.44362745
0.82372855 0.63333333 0.44993873
0.8754902 0.62542126 0.4491345
0.9254902 0.63878676 0.45686275
0.65 0.67855392 0.40588235
0.65093444 0.67745098 0.40249694
0.66715686 0.68685662 0.40943627
0.69159007 0.68584559 0.4122549
0.72959559 0.69534314 0.42083333
0.77693015 0.701394 0.41643689
0.83333333 0.7135723 0.44316789
0.88811275 0.72192096 0.4754902
0.93333333 0.72352941 0.47046569
0.67009804 0.76617647 0.41813725
0.67444853 0.77009804 0.41682751
0.68650429 0.77009804 0.41844363
0.7212546 0.77136949 0.42150735
0.75612745 0.77778799 0.42827819
0.80196078 0.77751991 0.40411305
0.85317096 0.78529412 0.43884804
0.90132506 0.78921569 0.51577053
0.93351716 0.79313725 0.54540441
0.73480392 0.83676471 0.46715686
0.75422794 0.83167892 0.475
0.75343137 0.83823529 0.46715686
0.76954657 0.83529412 0.45686275
0.80269608 0.84387255 0.46936275
0.83584559 0.8401348 0.44117647
0.87156863 0.83382353 0.46764706
0.91421569 0.83137255 0.5372549
0.94509804 0.83921569 0.60294118
0.68529412 0.35980392 0.59117647
0.68786765 0.35943627 0.59215686
0.70073529 0.37867647 0.58897059
0.7185049 0.38970588 0.59791667
0.74117647 0.40343137 0.60588235
0.77107843 0.42401961 0.60392157
0.81470588 0.43112745 0.59681373
0.87107843 0.42647059 0.59117647
0.91470588 0.42254902 0.59117647
0.7 0.40637255 0.59117647
0.7035386 0.40894608 0.59085478
0.71072304 0.40245098 0.59215686
0.72780331 0.42147672 0.59607843
0.75030637 0.43707108 0.60539216
0.77598039 0.45490196 0.60686275
0.81344975 0.45343137 0.5801777
0.86067708 0.44689032 0.57651654
0.92156863 0.44644608 0.60281863
0.71862745 0.45882353 0.59215686
0.72619485 0.47113971 0.59117647
0.7341299 0.46979167 0.59454657
0.74669118 0.48069853 0.5981924
0.76409314 0.49056373 0.60073529
0.78648897 0.50625 0.60294118
0.81764706 0.49883578 0.58314951
0.86308211 0.48504902 0.57889093
0.92230392 0.48357843 0.60759804
0.72352941 0.5245098 0.57977941
0.73898591 0.53272059 0.58370098
0.75098039 0.53973652 0.58526348
0.76427696 0.55154718 0.58218444
0.78020833 0.55980392 0.58743873
0.7972886 0.56824449 0.59257047
0.82610294 0.56397059 0.58431373
0.87899816 0.54203431 0.59125306
0.92107843 0.52879902 0.60110294
0.71666667 0.56862745 0.57156863
0.73161765 0.58020833 0.57254902
0.75098039 0.58284314 0.57242647
0.77303922 0.60245098 0.57205882
0.79289216 0.61862745 0.57720588
0.81060049 0.6254902 0.58431373
0.8372549 0.62254902 0.58039216
0.88026961 0.60637255 0.58431373
0.91568627 0.59313725 0.59019608
0.70882353 0.62561275 0.55147059
0.71662071 0.62953431 0.54852941
0.73802083 0.63575368 0.55637255
0.76511949 0.64905025 0.55931373
0.79338235 0.66305147 0.56715686
0.81482843 0.67755821 0.57218137
0.84537377 0.67931985 0.57784926
0.8839614 0.65428922 0.5720435
0.89803922 0.65098039 0.57438725
0.70784314 0.70490196 0.53651961
0.71148897 0.69739583 0.52622549
0.71960784 0.69969363 0.53259804
0.74166667 0.70143995 0.53259804
0.77328431 0.7127451 0.54313725
0.80891544 0.72058824 0.55012255
0.853125 0.73333333 0.55998775
0.89071691 0.72895221 0.56862745
0.92622549 0.72745098 0.56470588
0.73578431 0.76973039 0.53382353
0.73970588 0.76960784 0.53376225
0.74390319 0.76960784 0.53333333
0.75735294 0.77242647 0.5372549
0.79129902 0.78137255 0.54509804
0.82133885 0.78529412 0.54166667
0.85790441 0.79007353 0.5375
0.89912684 0.79281556 0.58043811
0.93333333 0.79313725 0.60294118
0.76960784 0.83137255 0.56372549
0.77438725 0.82352941 0.55980392
0.77745098 0.82671569 0.55980392
0.7877451 0.83039216 0.56372549
0.8122549 0.83137255 0.56470588
0.84460784 0.8442402 0.5814951
0.87156863 0.83235294 0.56397059
0.91066176 0.83872549 0.61029412
0.95196078 0.85 0.66666667
0.75833333 0.46421569 0.6877451
0.76219363 0.46464461 0.69515931
0.77303922 0.48296569 0.69117647
0.78118873 0.48676471 0.68988971
0.79901961 0.51348039 0.68946078
0.81795343 0.52745098 0.69509804
0.84068627 0.53884804 0.69117647
0.87898284 0.54313725 0.68290441
0.90931373 0.53529412 0.6754902
0.77303922 0.50729167 0.68431373
0.77352941 0.50648744 0.6877451
0.77732843 0.50729167 0.68425245
0.78491115 0.50494026 0.68723192
0.80245098 0.5245098 0.69142157
0.8218367 0.53970588 0.69381127
0.84460784 0.55886949 0.6877451
0.87892157 0.56660539 0.69037224
0.89460784 0.56219363 0.68376225
0.78431373 0.55686275 0.67990196
0.78823529 0.56329657 0.67990196
0.78823529 0.55637255 0.67990196
0.79889706 0.56090686 0.68628983
0.81397059 0.57058824 0.69031863
0.82754289 0.58515625 0.6877451
0.85045956 0.59583333 0.69031863
0.87892157 0.60047488 0.68768382
0.90098039 0.59264706 0.68345588
0.80147059 0.60998775 0.68400735
0.80455729 0.61390931 0.67990196
0.80727635 0.61421569 0.67941176
0.81177237 0.61783088 0.67486979
0.82745098 0.62769608 0.68455882
0.83901654 0.64117647 0.68516391
0.85660233 0.64901961 0.6877451
0.88284314 0.64248621 0.6872549
0.91715686 0.62745098 0.68333333
0.79754902 0.64607843 0.67205882
0.80490196 0.65370711 0.67506127
0.81568627 0.65784314 0.67401961
0.82352941 0.66706495 0.67181373
0.83982843 0.67867647 0.6807598
0.85416667 0.69117647 0.6872549
0.86807598 0.7004902 0.68988971
0.88676471 0.68872549 0.68682598
0.91151961 0.6620098 0.67990196
0.79754902 0.68498775 0.66470588
0.79765625 0.68122702 0.66797641
0.81188725 0.68786765 0.67242647
0.83216912 0.69901961 0.67205882
0.84690564 0.71789216 0.67598039
0.86323529 0.73186275 0.68252911
0.87598039 0.73765319 0.68382353
0.89476869 0.73360141 0.68747702
0.90716912 0.7127451 0.67598039
0.77745098 0.73872549 0.64852941
0.78797488 0.73507966 0.64842218
0.79721201 0.73186275 0.65551471
0.81533395 0.74272365 0.66239277
0.83161765 0.75441176 0.65857843
0.85294118 0.76011029 0.66360294
0.87598039 0.77009804 0.67132353
0.90245098 0.76960784 0.67904412
0.92512255 0.74705882 0.68333333
0.79362745 0.78578431 0.64901961
0.79743413 0.7848652 0.64552696
0.80130208 0.78115809 0.64854473
0.81145833 0.784375 0.65667892
0.83060662 0.7926777 0.66078431
0.85181526 0.79152114 0.65641085
0.87598039 0.80061275 0.66433824
0.91115962 0.81194087 0.68082108
0.93376225 0.79803922 0.6877451
0.8122549 0.82794118 0.65686275
0.8127451 0.81960784 0.65637255
0.8127451 0.81176471 0.65245098
0.82254902 0.80373775 0.65667892
0.84362745 0.83333333 0.67009804
0.85931373 0.81991422 0.66421569
0.8872549 0.83247549 0.66813725
0.91421569 0.84270833 0.68033088
0.94068627 0.82794118 0.69558824
0.81960784 0.58431373 0.75686275
0.82303922 0.5877451 0.76078431
0.82352941 0.5872549 0.75980392
0.82843137 0.58627451 0.74852941
0.84313725 0.60784314 0.75294118
0.85245098 0.62352941 0.75294118
0.87058824 0.64215686 0.76666667
0.88235294 0.65441176 0.76078431
0.88627451 0.64705882 0.75294118
0.82352941 0.60735294 0.75294118
0.81960784 0.5995098 0.74558824
0.82745098 0.60735294 0.74901961
0.82990196 0.60441176 0.74362745
0.84485294 0.62279412 0.75294118
0.85851716 0.63529412 0.75686275
0.87058824 0.64791667 0.75306373
0.88627451 0.66623775 0.75729167
0.89411765 0.66617647 0.75686275
0.83529412 0.64901961 0.74901961
0.83431373 0.6372549 0.74509804
0.83823529 0.64215686 0.74901961
0.84276961 0.64571078 0.74865196
0.85098039 0.65735294 0.75294118
0.86029412 0.66176471 0.75
0.8754902 0.67843137 0.75710784
0.89019608 0.68137255 0.75294118
0.90196078 0.68529412 0.75196078
0.85098039 0.69019608 0.75441176
0.84344363 0.67726716 0.73988971
0.84313725 0.67414216 0.7377451
0.85490196 0.68872549 0.74957108
0.8627451 0.69656863 0.75294118
0.86666667 0.69264706 0.74509804
0.8754902 0.6932598 0.74362745
0.89283088 0.70704657 0.74901961
0.90735294 0.72009804 0.75294118
0.85490196 0.71176471 0.74509804
0.85882353 0.71960784 0.74901961
0.86078431 0.72205882 0.74558824
0.86519608 0.72867647 0.7502451
0.87156863 0.73235294 0.74901961
0.87843137 0.73529412 0.74828431
0.88627451 0.74362745 0.75343137
0.89411765 0.74264706 0.75294118
0.90196078 0.73921569 0.74509804
0.86127451 0.74656863 0.75147059
0.85735294 0.74117647 0.74099265
0.86029412 0.74264706 0.74154412
0.87150735 0.75294118 0.74993873
0.87843137 0.7622549 0.74509804
0.89019608 0.77401961 0.75294118
0.89620098 0.77401961 0.75294118
0.90373775 0.7776348 0.75686275
0.90735294 0.77009804 0.7504902
0.84215686 0.77352941 0.73235294
0.85085784 0.77352941 0.7372549
0.86176471 0.77352941 0.74509804
0.86568627 0.77708333 0.74227941
0.87205882 0.78431373 0.7372549
0.8877451 0.7942402 0.74656863
0.90612745 0.80392157 0.76078431
0.91384804 0.80392157 0.76078431
0.92647059 0.80588235 0.76568627
0.82794118 0.8004902 0.72205882
0.83921569 0.8004902 0.72935049
0.85490196 0.80735294 0.74938725
0.86256127 0.80392157 0.74852941
0.87254902 0.80833333 0.74509804
0.88645833 0.81354167 0.74920343
0.90588235 0.82009804 0.75686275
0.9254902 0.82794118 0.76862745
0.93333333 0.82794118 0.76470588
0.85882353 0.84313725 0.76078431
0.85098039 0.82401961 0.74117647
0.85392157 0.81176471 0.74509804
0.85490196 0.80784314 0.73578431
0.87254902 0.8372549 0.75490196
0.8877451 0.82990196 0.75294118
0.90588235 0.84411765 0.76568627
0.9254902 0.84705882 0.76862745
0.94509804 0.85490196 0.78039216
