site/assets/luts/natron-haldclut--polaroid-time-zero-expired--00b265357.cube
# LUTr-Project: LUTr — LUTrepository
# LUTr-Schema-Version: 1
# LUTr-ID: natron-haldclut--polaroid-time-zero-expired--00b265357
# LUTr-Title: polaroid time zero (expired) +
# LUTr-Collection: Natron HaldCLUT
# LUTr-Collection-ID: natron-haldclut-presets
# LUTr-Source: https://github.com/NatronGitHub/clut
# LUTr-Source-File: submissions/natron-haldclut-presets/instant_consumer/polaroid_time_zero_(expired)_+.png
# LUTr-Source-Format: PNG
# LUTr-Source-SHA256: a11b2c078daad4e6e00792c584f84e30bbf723fd0a15b2c3124627c22e49aefa
# LUTr-License: CC-BY-SA-4.0
# LUTr-License-URL: https://github.com/NatronGitHub/clut#license
# LUTr-Tags: creative, film, film-emulation, hald-clut, natron, png, cube
# LUTr-Transform-Class: film-emulation
# LUTr-Input-Color-Space: srgb
# LUTr-Output-Color-Space: srgb
# LUTr-Color-Space-Confidence: assumed-display-referred
# LUTr-Conversion-Method: PNG LUT image decoded at 16-bit and sampled to 25x25x25 3D CUBE
# LUTr-Conversion-Date: 2026-07-27
# LUTr-Conversion-Tool: LUTr scripts/convert-all-to-cube.mjs
# LUTr-Conversion-Grid: 25x25x25
# LUTr-Note: Preserve this metadata and the upstream license notices when redistributing.
TITLE "polaroid time zero (expired) +"
LUT_3D_SIZE 5
DOMAIN_MIN 0 0 0
DOMAIN_MAX 1 1 1
0.80784314 0.5254902 0.25490196
0.81960784 0.52941176 0.26666667
0.83529412 0.52941176 0.2745098
0.8754902 0.53333333 0.27058824
0.9372549 0.54901961 0.28235294
0.81568627 0.55980392 0.25490196
0.82352941 0.55980392 0.25882353
0.83921569 0.54656863 0.25882353
0.88333333 0.55367647 0.2629902
0.92941176 0.56862745 0.2745098
0.81960784 0.60784314 0.24705882
0.82352941 0.60196078 0.24509804
0.84705882 0.6 0.24803922
0.88480392 0.6122549 0.2627451
0.93333333 0.62941176 0.2627451
0.82843137 0.69215686 0.24313725
0.83529412 0.69607843 0.23235294
0.85882353 0.69607843 0.23137255
0.89901961 0.7125 0.27156863
0.93823529 0.73431373 0.34215686
0.85490196 0.81568627 0.25098039
0.85882353 0.82058824 0.24313725
0.87254902 0.79411765 0.22352941
0.91862745 0.82745098 0.33529412
0.96078431 0.83529412 0.47058824
0.81470588 0.5254902 0.28137255
0.81960784 0.52941176 0.28137255
0.83137255 0.52696078 0.27941176
0.87843137 0.53333333 0.29313725
0.93823529 0.54901961 0.30392157
0.81862745 0.55294118 0.2745098
0.82352941 0.54828431 0.27843137
0.8372549 0.54509804 0.28026961
0.88553922 0.55980392 0.29313725
0.93627451 0.56862745 0.29411765
0.81960784 0.60196078 0.26960784
0.82291667 0.59718137 0.26911765
0.84803922 0.60294118 0.27352941
0.88713235 0.61372549 0.28529412
0.92107843 0.62156863 0.29411765
0.82745098 0.69215686 0.26568627
0.83529412 0.7 0.25857843
0.85686275 0.69607843 0.25343137
0.89828431 0.7125 0.30275735
0.94117647 0.73529412 0.36960784
0.85098039 0.81568627 0.29313725
0.85784314 0.81960784 0.28848039
0.88235294 0.82401961 0.27941176
0.91470588 0.81593137 0.35098039
0.95294118 0.82745098 0.4627451
0.82352941 0.5254902 0.34705882
0.83088235 0.53333333 0.35686275
0.84411765 0.5372549 0.3627451
0.88235294 0.54901961 0.37696078
0.9372549 0.55686275 0.40196078
0.82745098 0.54901961 0.35686275
0.83333333 0.55404412 0.35686275
0.85073529 0.55980392 0.36495098
0.88333333 0.56568627 0.37647059
0.94117647 0.57941176 0.38823529
0.82352941 0.59705882 0.34509804
0.83529412 0.60588235 0.35294118
0.85588235 0.61715686 0.36078431
0.89019608 0.61740196 0.36715686
0.9372549 0.63137255 0.37647059
0.82352941 0.69068627 0.34362745
0.83137255 0.69938725 0.3432598
0.85490196 0.70367647 0.34558824
0.89901961 0.71960784 0.38737745
0.9372549 0.73333333 0.43088235
0.84313725 0.81568627 0.39215686
0.8504902 0.81176471 0.38431373
0.87254902 0.8254902 0.37254902
0.90882353 0.81421569 0.4
0.94705882 0.8254902 0.50588235
0.85196078 0.56176471 0.52843137
0.85588235 0.56176471 0.5245098
0.86715686 0.5745098 0.53235294
0.89019608 0.58137255 0.5245098
0.92156863 0.6 0.53529412
0.85980392 0.59607843 0.5245098
0.8627451 0.59552696 0.5247549
0.87267157 0.6 0.52843137
0.89356618 0.60802696 0.52377451
0.9127451 0.59926471 0.50490196
0.85588235 0.64705882 0.51519608
0.86482843 0.65 0.51519608
0.87843137 0.66176471 0.52058824
0.89828431 0.66960784 0.52843137
0.92941176 0.66666667 0.52156863
0.84313725 0.71102941 0.49313725
0.85189951 0.7158701 0.50232843
0.86703431 0.72745098 0.50919118
0.89901961 0.74215686 0.5245098
0.9372549 0.74240196 0.53259804
0.84803922 0.79509804 0.53235294
0.85196078 0.79607843 0.52058824
0.86323529 0.8254902 0.53480392
0.89803922 0.82034314 0.52352941
0.95392157 0.84411765 0.63039216
0.88235294 0.64313725 0.71764706
0.88235294 0.64313725 0.69803922
0.89019608 0.65490196 0.71764706
0.90294118 0.6745098 0.72843137
0.91764706 0.69411765 0.72156863
0.88627451 0.66568627 0.70196078
0.88848039 0.67352941 0.71764706
0.89411765 0.68186275 0.7245098
0.90294118 0.69730392 0.71960784
0.91470588 0.70588235 0.72254902
0.89019608 0.72352941 0.71372549
0.89215686 0.72745098 0.71421569
0.89803922 0.73039216 0.71176471
0.90588235 0.73627451 0.70931373
0.91372549 0.74313725 0.71372549
0.88627451 0.76862745 0.71372549
0.88235294 0.76568627 0.70196078
0.8995098 0.77745098 0.72696078
0.9129902 0.78848039 0.71666667
0.92843137 0.79705882 0.7245098
0.8745098 0.83529412 0.73333333
0.8745098 0.82254902 0.70784314
0.89019608 0.8372549 0.73529412
0.91372549 0.84019608 0.74607843
0.92156863 0.83921569 0.71372549
