site/assets/luts/natron-haldclut--fuji3513-constlmap--d4d2ff55a.cube
# LUTr-Project: LUTr — LUTrepository
# LUTr-Schema-Version: 1
# LUTr-ID: natron-haldclut--fuji3513-constlmap--d4d2ff55a
# LUTr-Title: fuji3513 constlmap
# LUTr-Collection: Natron HaldCLUT
# LUTr-Collection-ID: natron-haldclut-presets
# LUTr-Source: https://github.com/NatronGitHub/clut
# LUTr-Source-File: submissions/natron-haldclut-presets/print/fuji3513_constlmap.png
# LUTr-Source-Format: PNG
# LUTr-Source-SHA256: e28dd8e64358fabc8a9df82541361ac5118091bcb50cb93442594f56e348931e
# LUTr-License: CC-BY-SA-4.0
# LUTr-License-URL: https://github.com/NatronGitHub/clut#license
# LUTr-Tags: creative, film, film-emulation, hald-clut, natron, png, cube
# LUTr-Transform-Class: film-emulation
# LUTr-Input-Color-Space: srgb
# LUTr-Output-Color-Space: srgb
# LUTr-Color-Space-Confidence: assumed-display-referred
# LUTr-Conversion-Method: PNG LUT image decoded at 16-bit and sampled to 25x25x25 3D CUBE
# LUTr-Conversion-Date: 2026-07-27
# LUTr-Conversion-Tool: LUTr scripts/convert-all-to-cube.mjs
# LUTr-Conversion-Grid: 25x25x25
# LUTr-Note: Preserve this metadata and the upstream license notices when redistributing.
TITLE "fuji3513 constlmap"
LUT_3D_SIZE 9
DOMAIN_MIN 0 0 0
DOMAIN_MAX 1 1 1
0.0039215686 0.0078431373 0.015686275
0.030882353 0.026960784 0.023529412
0.069607843 0.031372549 0.019607843
0.16666667 0.043137255 0.0078431373
0.29019608 0.062745098 0.0058823529
0.39509804 0.078431373 0.011764706
0.46078431 0.08627451 0.014705882
0.50588235 0.094117647 0.012254902
0.50980392 0.094117647 0.019607843
0.015686275 0.03872549 0.02745098
0.038786765 0.053921569 0.034803922
0.083946078 0.058333333 0.028308824
0.20343137 0.080392157 0.019117647
0.33651961 0.099264706 0.011764706
0.44442402 0.11452206 0.0078431373
0.51507353 0.125 0.0044117647
0.55238971 0.12843137 0.00042892157
0.5754902 0.14068627 0.012254902
0.015686275 0.088235294 0.05
0.019607843 0.094730392 0.050980392
0.080637255 0.11764706 0.040196078
0.24509804 0.15245098 0.015686275
0.39411765 0.17009804 0.0078431373
0.50232843 0.17953431 0.0039215686
0.58259804 0.19411765 0.0039215686
0.62990196 0.2127451 0.0078431373
0.64509804 0.2127451 0.0078431373
0.0093137255 0.16029412 0.080882353
0.010477941 0.178125 0.083333333
0.068259804 0.2060049 0.041789216
0.27150735 0.24852941 0.00091911765
0.45147059 0.28039216 0.0026960784
0.58094363 0.29852941 0.018688725
0.65931373 0.31323529 0.012745098
0.69969363 0.32794118 0.015196078
0.73039216 0.3495098 0.010294118
0 0.25098039 0.12156863
0.015196078 0.28039216 0.12573529
0.034313725 0.31715686 0.08627451
0.29142157 0.37794118 0.015196078
0.51176471 0.44117647 0.0058823529
0.66004902 0.47132353 0.01372549
0.74509804 0.47303922 0.0044117647
0.76666667 0.47794118 0.019607843
0.78235294 0.49019608 0.019607843
0.013235294 0.36127451 0.1622549
0.015686275 0.38039216 0.1622549
0.0029411765 0.42990196 0.12205882
0.32101716 0.5254902 0.027512255
0.56421569 0.59019608 0.0058823529
0.71568627 0.61917892 0.016237745
0.82205882 0.64509804 0.014215686
0.85863971 0.65520833 0.02745098
0.88529412 0.67647059 0.018627451
0.0068627451 0.41666667 0.18137255
0.018259804 0.43664216 0.17781863
0.052205882 0.50098039 0.1254902
0.33958333 0.59460784 0.0013480392
0.6 0.67990196 0.00049019608
0.76446078 0.71973039 0.043137255
0.8625 0.73921569 0.056617647
0.8995098 0.74620098 0.05245098
0.92941176 0.7627451 0.070588235
0.028431373 0.44362745 0.20441176
0.0079044118 0.48235294 0.18431373
0.0033088235 0.54068627 0.086887255
0.36029412 0.65637255 0.020404412
0.62205882 0.71617647 0.0095588235
0.79509804 0.76844363 0.042463235
0.88921569 0.7817402 0.074142157
0.92604167 0.78921569 0.078921569
0.94166667 0.79656863 0.082843137
0 0.48235294 0.21960784
0.00049019608 0.56715686 0.2122549
0.14705882 0.62254902 0.062745098
0.44068627 0.69754902 0.035294118
0.65686275 0.75098039 0.0098039216
0.83088235 0.79754902 0.056372549
0.91862745 0.81078431 0.082352941
0.98039216 0.83529412 0.10196078
0.96862745 0.82352941 0.098039216
0.0078431373 0.019117647 0.030882353
0.023039216 0.023039216 0.026531863
0.072181373 0.031372549 0.034803922
0.19264706 0.051286765 0.02432598
0.30955882 0.058823529 0.0095588235
0.43137255 0.06372549 0.019117647
0.50343137 0.078921569 0.0087009804
0.55245098 0.064276961 0.026960784
0.55245098 0.075980392 0.034313725
0.019607843 0.046078431 0.039154412
0.037423407 0.053117341 0.041781556
0.092095588 0.062254902 0.042325368
0.21519608 0.07745098 0.027941176
0.35710784 0.099019608 0.030147059
0.47745098 0.11070006 0.0090073529
0.55281863 0.11372549 0.015364583
0.59417892 0.11066942 0.01182598
0.609375 0.13241422 0.030882353
0.019607843 0.096078431 0.069117647
0.027282475 0.098651961 0.064767157
0.092064951 0.11173407 0.054319853
0.2504902 0.14276961 0.029947917
0.40735294 0.16813725 0.028982843
0.54321385 0.18671875 0.037254902
0.63342525 0.18406863 0.0078431373
0.66845895 0.19748775 0.0016697304
0.67941176 0.2127451 0.020588235
0.023529412 0.17579657 0.1
0.029266238 0.17898284 0.09564951
0.053431373 0.21178002 0.072671569
0.26861979 0.25428156 0.03448989
0.47009804 0.2885723 0.042156863
0.61764706 0.31029412 0.029901961
0.70598958 0.32251838 0.018121936
0.7437883 0.33823529 0.0073529412
0.75931373 0.35245098 0.01127451
0.0093137255 0.28382353 0.1497549
0.033823529 0.29705882 0.14629289
0.021997549 0.33186275 0.1127451
0.30196078 0.40637255 0.066666667
0.52879902 0.45539216 0.064705882
0.6875 0.48373162 0.06127451
0.7872549 0.50110294 0.048529412
0.83259804 0.51565564 0.012009804
0.84019608 0.52892157 0.011764706
0.011764706 0.37647059 0.18903186
0.033432904 0.39558824 0.183678
0.021446078 0.45196078 0.15036765
0.32365196 0.54418658 0.078431373
0.57941176 0.60931373 0.075980392
0.75723805 0.65606618 0.084183517
0.85890012 0.67291667 0.069653799
0.90279565 0.6877451 0.030928309
0.91176471 0.68921569 0.037745098
0.023039216 0.43284314 0.21568627
0.011979167 0.45491728 0.20833333
0.0014705882 0.52297794 0.17169118
0.30796569 0.6272212 0.0058057598
0.62469363 0.70643382 0.065686275
0.80196078 0.74791667 0.12892157
0.89656863 0.76703431 0.1268076
0.94123775 0.7783701 0.098039216
0.95343137 0.7817402 0.081862745
0.024019608 0.47794118 0.25882353
0.0053308824 0.50588235 0.24705882
0.018765319 0.57438725 0.18457414
0.33231464 0.675 0.009497549
0.63553922 0.74901961 0.040655637
0.83043045 0.79405637 0.056655944
0.93180147 0.81688113 0.1011489
0.97336091 0.82702206 0.10141697
0.98431373 0.82745098 0.094607843
0.016176471 0.53235294 0.31960784
0.049571078 0.60153186 0.32702206
0.049387255 0.65992647 0.25637255
0.38970588 0.74313725 0.15159314
0.66642157 0.79485294 0.12892157
0.86354167 0.8377451 0.058026961
0.98308824 0.86176471 0.10808824
0.99558824 0.85833333 0.21623775
0.9995098 0.86568627 0.275
0.0078431373 0.035294118 0.065686275
0.023039216 0.031740196 0.076470588
0.083333333 0.031372549 0.080392157
0.19448529 0.036397059 0.083333333
0.33872549 0.03627451 0.087254902
0.46605392 0.045465686 0.090931373
0.54607843 0.026470588 0.094117647
0.57647059 0.031127451 0.094607843
0.5872549 0.030392157 0.10882353
0.015808824 0.06127451 0.087745098
0.032061887 0.058226103 0.084313725
0.098651961 0.066053922 0.098529412
0.23321078 0.085294118 0.11420037
0.38780637 0.10612745 0.12107843
0.52009804 0.10428922 0.11086091
0.60447304 0.068535539 0.095343137
0.64160539 0.034359681 0.084911152
0.67071078 0.032352941 0.093627451
0.011764706 0.10857843 0.11544118
0.040655637 0.11173407 0.11470588
0.10661765 0.12585784 0.11917892
0.26243873 0.16004902 0.13434436
0.44227941 0.1872549 0.13333333
0.59595588 0.17904412 0.1174326
0.69172794 0.146875 0.083578431
0.74347426 0.10943627 0.051960784
0.75784314 0.11593137 0.059068627
0.022058824 0.19313725 0.15772059
0.055514706 0.20130208 0.15684743
0.11920956 0.23492647 0.15845588
0.29872855 0.28529412 0.15791973
0.50177696 0.31911765 0.16648284
0.67663909 0.31905637 0.13823529
0.77279412 0.31464461 0.09620098
0.82948836 0.31479779 0.017156863
0.85257353 0.32732843 0.033333333
0.025490196 0.31470588 0.21911765
0.064705882 0.32444853 0.21783088
0.15306373 0.36568627 0.21593137
0.33131127 0.43805147 0.20036765
0.55784314 0.49460784 0.21691176
0.74509804 0.51985294 0.1963848
0.84669118 0.52732843 0.12720588
0.89442402 0.53339461 0.050490196
0.91568627 0.54215686 0.030882353
0.0053921569 0.40980392 0.25882353
0.050980392 0.43230699 0.26488971
0.14102328 0.49252451 0.24914216
0.33727022 0.59773284 0.21452206
0.6026348 0.66090686 0.22530637
0.79215686 0.70232843 0.257644
0.90943627 0.71580882 0.20885417
0.96174939 0.72365196 0.073897059
0.97205882 0.72977941 0.083333333
0.031372549 0.46985294 0.3
0.029074755 0.49056373 0.30266544
0.068443627 0.55857843 0.29313725
0.28223039 0.67965686 0.18403799
0.62745098 0.75539216 0.16629902
0.84031863 0.79816176 0.20903799
0.94001225 0.81219363 0.23609069
0.99129902 0.82172181 0.1622549
0.99436275 0.82671569 0.1745098
0.027328431 0.50098039 0.34705882
0.0078431373 0.54281556 0.36197917
0.0078431373 0.6151348 0.34914216
0.26450674 0.72843137 0.26371017
0.64215686 0.80116422 0.20772059
0.86709559 0.84411765 0.15003064
0.99672181 0.86544118 0.081985294
0.99607843 0.8622549 0.28720895
0.99865196 0.8622549 0.32352941
0.0029411765 0.56862745 0.43235294
0.020955882 0.6182598 0.43615196
0.020343137 0.68897059 0.4254902
0.35269608 0.78296569 0.3939951
0.65539216 0.83627451 0.36568627
0.86617647 0.8692402 0.3247549
0.97990196 0.88651961 0.3252451
1 0.89178922 0.43247549
1 0.88921569 0.45098039
0.0039215686 0.06372549 0.13676471
0.012745098 0.057843137 0.16372549
0.075490196 0.036397059 0.18627451
0.2098652 0.050061275 0.20349265
0.35612745 0.036519608 0.20784314
0.48376225 0.040686275 0.20980392
0.55735294 0.049877451 0.22254902
0.59509804 0.047058824 0.23596814
0.61666667 0.043137255 0.24362745
0.0017769608 0.090379902 0.17156863
0.014767157 0.076776961 0.18676471
0.089751838 0.079289216 0.2123315
0.23516391 0.093811275 0.23340227
0.4091299 0.11372549 0.24770221
0.54080116 0.10470282 0.24705882
0.62424939 0.073131127 0.25467218
0.67018229 0.043443627 0.25942096
0.69117647 0.030085784 0.26145833
0.011397059 0.14558824 0.21213235
0.045098039 0.14738051 0.21305147
0.11041667 0.1551777 0.23661152
0.26660539 0.1754902 0.27411152
0.46685049 0.19797794 0.27438725
0.62892157 0.18028493 0.28390012
0.72696078 0.12074142 0.26752451
0.76567096 0.1189951 0.2754902
0.77990196 0.14460784 0.29460784
0.022058824 0.23970588 0.26660539
0.064215686 0.24969363 0.27421875
0.14359681 0.26787684 0.28676471
0.31617647 0.32283241 0.33578431
0.52889093 0.34341299 0.33878676
0.7221201 0.3290671 0.31020987
0.81000306 0.32262561 0.30026042
0.85098039 0.3451057 0.30821844
0.86709559 0.36078431 0.31078431
0.033333333 0.36053922 0.33259804
0.07901348 0.36715686 0.33921569
0.18351716 0.41194853 0.36421569
0.35686275 0.4828125 0.38851103
0.57169118 0.53602941 0.39595588
0.79188113 0.5495098 0.35147059
0.88768382 0.55625 0.3276348
0.93293505 0.56534926 0.34102328
0.94117647 0.58088235 0.34166667
0.010294118 0.46029412 0.37990196
0.086757047 0.48314951 0.39048713
0.16827512 0.53860294 0.41311275
0.31178768 0.64501379 0.41715686
0.60885417 0.71862745 0.39954044
0.82058824 0.75155484 0.44887408
0.9555913 0.76801471 0.36675858
0.99607843 0.77395833 0.34099265
0.99215686 0.7745098 0.38039216
0.017156863 0.51960784 0.42928922
0.022794118 0.54227941 0.44117647
0.096875 0.60346201 0.46813725
0.21659007 0.73909314 0.4502451
0.61219363 0.81047794 0.42481618
0.86041667 0.85147059 0.42092525
0.96038603 0.86176471 0.42735907
0.99264706 0.86714154 0.44522059
1 0.87071078 0.47254902
0.0075367647 0.55226716 0.48186275
0.0042662377 0.58959865 0.50098039
0.0045343137 0.65471814 0.52132353
0.088296569 0.77830882 0.51018689
0.61617647 0.84730392 0.49436275
0.85735294 0.88890931 0.48865656
0.98780637 0.90882353 0.47967218
0.99607843 0.90490196 0.54430147
1 0.90704657 0.55214461
0.021078431 0.63088235 0.56911765
0.017340686 0.66060049 0.57873775
0.0096813725 0.72095588 0.58823529
0.26323529 0.81372549 0.59754902
0.62181373 0.86985294 0.59338235
0.85196078 0.90680147 0.59154412
0.97058824 0.92647059 0.59509804
0.99607843 0.92401961 0.6091299
1 0.92794118 0.64754902
0.0039215686 0.10784314 0.22352941
0.0080882353 0.093382353 0.24558824
0.062745098 0.042156863 0.29803922
0.21936275 0.028676471 0.32598039
0.3754902 0.047058824 0.34019608
0.50367647 0.040441176 0.34901961
0.5995098 0.029901961 0.36519608
0.6122549 0.045098039 0.36519608
0.64313725 0.043137255 0.38235294
0.00049019608 0.13308824 0.25612745
0.020618873 0.12650123 0.27616422
0.061580882 0.098406863 0.33664216
0.23661152 0.11363358 0.37009804
0.42303922 0.13002451 0.38848039
0.55916054 0.12205882 0.39491422
0.64454657 0.079473039 0.40294118
0.6875 0.0375 0.41519608
0.70833333 0.04877451 0.42843137
0.0068627451 0.20098039 0.31372549
0.045588235 0.20343137 0.31911765
0.11041667 0.20343137 0.34938725
0.26262255 0.19754902 0.43529412
0.47573529 0.22205882 0.45
0.62916667 0.20471814 0.45637255
0.74705882 0.12083333 0.46862745
0.77444853 0.1286152 0.47303922
0.79166667 0.15735294 0.49166667
0.011029412 0.28431373 0.37745098
0.067401961 0.2997549 0.39411765
0.15490196 0.31660539 0.41795343
0.31369485 0.34209559 0.49978554
0.53382353 0.36801471 0.52573529
0.73207721 0.3544424 0.52843137
0.8216299 0.34914216 0.53357843
0.85618873 0.3635723 0.53636642
0.87279412 0.38970588 0.54877451
0.017647059 0.40882353 0.45882353
0.077573529 0.425 0.47022059
0.19828431 0.46421569 0.50269608
0.37561275 0.52843137 0.55625
0.58235294 0.57254902 0.59166667
0.78909314 0.59031863 0.5870098
0.89117647 0.59607843 0.58431373
0.92990196 0.59534314 0.58259804
0.94411765 0.6245098 0.59509804
0.0019607843 0.5127451 0.51666667
0.070925245 0.53367034 0.53471201
0.18449755 0.59258578 0.57132353
0.3495098 0.68988971 0.61492034
0.60281863 0.76286765 0.62757353
0.83290441 0.79810049 0.63771446
0.94387255 0.81446078 0.63210784
0.9859375 0.81568627 0.62092525
0.99558824 0.825 0.625
0 0.56764706 0.55980392
0.021323529 0.59136029 0.57677696
0.096691176 0.65159314 0.61568627
0.20398284 0.77058824 0.659375
0.5754902 0.85416667 0.66421569
0.84883578 0.89129902 0.67647059
0.95490196 0.90367647 0.69080882
0.99264706 0.91017157 0.68609069
1 0.90980392 0.69852941
0 0.58921569 0.58946078
0.0039215686 0.63946078 0.62818627
0.0056372549 0.7036152 0.67113971
0.078829657 0.80750613 0.7125
0.57365196 0.88468137 0.7192402
0.84509804 0.92892157 0.72147672
0.96672794 0.94362745 0.72414216
0.99607843 0.94730392 0.74656863
1 0.94362745 0.75955882
0 0.65490196 0.65882353
0.0017156863 0.69754902 0.69607843
0 0.7627451 0.7372549
0.096813725 0.84803922 0.77181373
0.59705882 0.90294118 0.77843137
0.83504902 0.93921569 0.77181373
0.96127451 0.95539216 0.76470588
1 0.96078431 0.77892157
1 0.96078431 0.80980392
0.0039215686 0.13627451 0.27745098
0.0078431373 0.14264706 0.30177696
0.057843137 0.064215686 0.40208333
0.22310049 0.039767157 0.43039216
0.38235294 0.056862745 0.4495098
0.5245098 0.068198529 0.47352941
0.59901961 0.060784314 0.47941176
0.64197304 0.046875 0.49558824
0.64852941 0.037745098 0.49460784
0.0078431373 0.17873775 0.33707108
0.0078431373 0.17352941 0.34052543
0.039123775 0.10935968 0.45553002
0.2495098 0.11629136 0.49688266
0.43333333 0.1375 0.51387868
0.57433364 0.14351256 0.52921262
0.6606924 0.11104473 0.53390012
0.70278033 0.052856924 0.55833333
0.72401961 0.043137255 0.57089461
0.0039215686 0.24264706 0.40428922
0.011580882 0.24255515 0.41262255
0.083792892 0.23563113 0.45
0.25882353 0.19411765 0.58633578
0.48541667 0.21954657 0.59957108
0.64613971 0.23157169 0.60539216
0.74448529 0.14310662 0.62380515
0.78578431 0.12640931 0.63835784
0.80134804 0.15 0.64705882
0.011213235 0.32892157 0.47359069
0.014085478 0.33284314 0.48901654
0.12089461 0.35631127 0.53786765
0.26770833 0.36043964 0.65279565
0.5370098 0.38287377 0.68848039
0.72863817 0.37794884 0.70118719
0.82624081 0.37161458 0.70628064
0.86324295 0.38672641 0.71354933
0.87310049 0.39607843 0.71911765
0.012990196 0.45245098 0.55465686
0.065196078 0.46087623 0.56666667
0.18890931 0.50122549 0.61476716
0.34102328 0.55965074 0.70425858
0.56470588 0.60281863 0.75894608
0.78682598 0.61568627 0.76375613
0.88823529 0.61507353 0.76844363
0.928125 0.6247549 0.77205882
0.9372549 0.64460784 0.77647059
0.033884804 0.55398284 0.61427696
0.05 0.57028952 0.63431373
0.19316789 0.62568934 0.67659314
0.37018229 0.71966912 0.74740349
0.57230392 0.79117647 0.79901961
0.81813725 0.8280867 0.81121324
0.94160539 0.82990196 0.80643382
0.97831648 0.83823529 0.81777727
0.9848652 0.84957108 0.82058824
0.006004902 0.60343137 0.65196078
0.024739583 0.63319547 0.67794118
0.13054534 0.69546569 0.7276348
0.21049326 0.80110294 0.80490196
0.53192402 0.87977941 0.83946078
0.83088235 0.92438725 0.84238664
0.96038603 0.93786765 0.85027574
0.98872549 0.93546262 0.85404412
1 0.94460784 0.86127451
0 0.62977941 0.68008578
0 0.66813725 0.71715686
0.0013327206 0.72593444 0.7627451
0.056901042 0.8323606 0.8421492
0.54280025 0.91078431 0.87126225
0.82696078 0.95196078 0.87303922
0.95320159 0.96648284 0.87303922
0.99607843 0.97273284 0.88872549
1 0.97040441 0.88351716
0 0.65637255 0.71519608
0 0.72598039 0.77107843
0 0.78480392 0.82193627
0.077512255 0.86519608 0.8783701
0.55735294 0.92034314 0.89191176
0.82303922 0.96133578 0.91182598
0.94987745 0.975 0.89767157
0.99234069 0.98167892 0.91011029
1 0.98431373 0.93088235
0.0039215686 0.16176471 0.32647059
0.011887255 0.16176471 0.34460784
0.054901961 0.046813725 0.45392157
0.22683824 0.041544118 0.50183824
0.40588235 0.064215686 0.54117647
0.55441176 0.091666667 0.5754902
0.61495098 0.069607843 0.55710784
0.64877451 0.054534314 0.56691176
0.65490196 0.044117647 0.56666667
0.0039215686 0.20698529 0.39215686
0.0039215686 0.20392157 0.40462623
0.038357843 0.13140319 0.50615809
0.23792892 0.091191789 0.59068627
0.44681373 0.11145833 0.61127451
0.59077819 0.12401961 0.6248315
0.67156863 0.12251838 0.62806373
0.71409314 0.072043505 0.64375
0.73578431 0.059803922 0.6627451
0.00098039216 0.26862745 0.45784314
0.0039215686 0.26213235 0.47794118
0.042156863 0.25784314 0.52028186
0.25934436 0.1872549 0.67876838
0.49865196 0.1752451 0.71433824
0.66164216 0.18707108 0.71387868
0.74583333 0.18039216 0.71691176
0.79718137 0.11755515 0.74261642
0.79901961 0.13553922 0.74117647
0 0.35588235 0.53088235
0.0039215686 0.35886949 0.54295343
0.050857843 0.36528799 0.60211397
0.22904412 0.36493566 0.75477941
0.53284314 0.38756127 0.79417892
0.72150735 0.38077512 0.80252757
0.82254902 0.37107843 0.80294118
0.86372549 0.38431373 0.81078431
0.87156863 0.40061275 0.81862745
0.0039215686 0.48333333 0.6245098
0.0038602941 0.47677696 0.62230392
0.14166667 0.5192402 0.67156863
0.23400735 0.58180147 0.80459559
0.53946078 0.61985294 0.85882353
0.77616422 0.62898284 0.87254902
0.88370098 0.6314951 0.86776961
0.92334559 0.64191176 0.87395833
0.9372549 0.64803922 0.88627451
0.0039215686 0.57794118 0.67340686
0.017784926 0.59336703 0.68978248
0.17120098 0.64669118 0.73869485
0.32052696 0.74921875 0.83805147
0.55588235 0.81072304 0.89558824
0.80844056 0.83558517 0.91213235
0.92965686 0.85536152 0.92196691
0.97058824 0.85467218 0.92285539
0.98186275 0.86642157 0.92463235
0.012009804 0.62867647 0.70318627
0.037745098 0.64852941 0.72588848
0.11354167 0.71176471 0.77941176
0.22328431 0.80940564 0.86519608
0.525 0.89289216 0.92230392
0.81047794 0.93578431 0.93676471
0.94724265 0.95042892 0.94411765
0.98832721 0.95386029 0.94387255
0.99607843 0.95392157 0.95
0.0073529412 0.64754902 0.72291667
0.016988358 0.68751532 0.75816483
0.024142157 0.74362745 0.80735294
0.095894608 0.84166667 0.89117647
0.55814951 0.92506127 0.93762255
0.80796569 0.9629136 0.95004596
0.95088848 0.98082108 0.95784314
0.99215686 0.98431373 0.95571385
1 0.98823529 0.96470588
0 0.67941176 0.75392157
0.024877451 0.73627451 0.80784314
0.021568627 0.78014706 0.84289216
0.097303922 0.8627451 0.91115196
0.54509804 0.93137255 0.95
0.81960784 0.9689951 0.95784314
0.94607843 0.98602941 0.96348039
0.99607843 0.99607843 0.97352941
0.99607843 0.99215686 0.96176471
0 0.18088235 0.36176471
0.0039215686 0.1838848 0.3838848
0.0082107843 0.10306373 0.52414216
0.23253676 0.030514706 0.55245098
0.4127451 0.037745098 0.58578431
0.55784314 0.066666667 0.60863971
0.62193627 0.067156863 0.59693627
0.66329657 0.066237745 0.6127451
0.67843137 0.063235294 0.6245098
0 0.22352941 0.41917892
0.003002451 0.22352941 0.43785999
0.013893995 0.18751532 0.51242341
0.24785539 0.057207414 0.65592065
0.46639093 0.054166667 0.68624387
0.62224265 0.089437806 0.69389553
0.69515931 0.10862439 0.69362745
0.73333333 0.092708333 0.70196078
0.75196078 0.078431373 0.71715686
0 0.27561275 0.47303922
0.0034313725 0.27561275 0.50467218
0.0024816176 0.27821691 0.54852941
0.24474571 0.19080882 0.732981
0.50122549 0.19944853 0.76323529
0.67487745 0.18088235 0.77637868
0.77132353 0.1341299 0.78590686
0.80294118 0.15219056 0.790625
0.82169118 0.18921569 0.80637255
0 0.37205882 0.55637255
0 0.3716299 0.56954657
0.0025735294 0.38737745 0.63872549
0.21089154 0.38557751 0.80282629
0.5263174 0.40088848 0.83602941
0.72433364 0.3982307 0.84944853
0.83057598 0.39469975 0.85886949
0.86813725 0.40108762 0.86276808
0.87941176 0.42647059 0.87205882
0.0056372549 0.49411765 0.63897059
0.012193627 0.49996936 0.65070466
0.061335784 0.53204657 0.70435049
0.087806373 0.58468137 0.84773284
0.52022059 0.62181373 0.89828431
0.76332721 0.63921569 0.91029412
0.88137255 0.63039216 0.91856618
0.92205882 0.65125613 0.92205882
0.9372549 0.66666667 0.92818627
0.0039215686 0.59509804 0.70343137
0.018788297 0.60392157 0.71252298
0.013419118 0.65994179 0.76827512
0.1375 0.75654105 0.88191636
0.48927696 0.81749387 0.94004289
0.80098039 0.84197304 0.95699295
0.925 0.85833333 0.95935968
0.97401961 0.86505055 0.96621477
0.97794118 0.86433824 0.96648284
0.0088235294 0.63541667 0.72205882
0.034252451 0.65931373 0.745481
0.10260417 0.71960784 0.80196078
0.15818015 0.82017463 0.89509804
0.50625 0.89558824 0.95232843
0.80245098 0.93970588 0.97259498
0.94145221 0.95557598 0.97846201
0.98867953 0.9627451 0.98443627
0.99313725 0.95882353 0.98431373
0.026102941 0.65147059 0.73431373
0.004296875 0.68976716 0.77222733
0.025490196 0.75441176 0.82904412
0.046737132 0.84716605 0.91345741
0.48921569 0.9254902 0.96366422
0.80884651 0.96881127 0.97851563
0.94018076 0.98534007 0.98566176
0.98823529 0.98866422 0.98823529
0.99607843 0.98480392 0.98829657
0.0044117647 0.68627451 0.76862745
0.010784314 0.73155637 0.80998775
0.022916667 0.79375 0.86433824
0.067034314 0.87579657 0.93627451
0.53529412 0.93137255 0.96887255
0.80851716 0.97009804 0.98039216
0.93235294 0.98835784 0.98823529
0.9838848 0.99607843 0.98829657
1 0.99656863 0.99264706
0 0.2 0.39215686
0 0.21176471 0.43088235
0.040196078 0.11372549 0.55784314
0.25784314 0.031372549 0.64362745
0.45490196 0.045098039 0.67254902
0.61323529 0.074509804 0.68578431
0.67156863 0.074509804 0.6627451
0.69901961 0.078431373 0.66764706
0.7372549 0.082352941 0.71372549
0 0.2504902 0.46176471
0 0.25006127 0.46911765
0.010416667 0.23909314 0.52990196
0.25784314 0.084620098 0.70196078
0.48578431 0.087745098 0.73382353
0.65508578 0.021446078 0.75790441
0.7252451 0.10232843 0.74338235
0.76421569 0.10882353 0.75588235
0.80196078 0.044607843 0.79362745
0 0.28039216 0.48137255
0 0.30392157 0.52389706
0.00073529412 0.29926471 0.575
0.25465686 0.22352941 0.75772059
0.50392157 0.23970588 0.79558824
0.68333333 0.22401961 0.81127451
0.7872549 0.2127451 0.81838235
0.82438725 0.22205882 0.82781863
0.82941176 0.24117647 0.8254902
0 0.37843137 0.55637255
0.0024509804 0.38186275 0.57910539
0.0074754902 0.39803922 0.67009804
0.19080882 0.39957108 0.81323529
0.52401961 0.42647059 0.85588235
0.72898284 0.42352941 0.87156863
0.83186275 0.41213235 0.87156863
0.87175245 0.4122549 0.87598039
0.88480392 0.44852941 0.8872549
0 0.49411765 0.63529412
0.013480392 0.50539216 0.65808824
0.020588235 0.54117647 0.72745098
0.051470588 0.59583333 0.85637255
0.52352941 0.62843137 0.91078431
0.76691176 0.64436275 0.92622549
0.87892157 0.6504902 0.93333333
0.92377451 0.65710784 0.9372549
0.9372549 0.67254902 0.9372549
0.0014705882 0.5872549 0.6995098
0.0098039216 0.61029412 0.72009804
0.012254902 0.65735294 0.77536765
0.032598039 0.75533088 0.88578431
0.49019608 0.81764706 0.94852941
0.79613971 0.85294118 0.96917892
0.92254902 0.84803922 0.97401961
0.96666667 0.85490196 0.97401961
0.98039216 0.87892157 0.98039216
0.011764706 0.63921569 0.72941176
0.024877451 0.6627451 0.75343137
0.078431373 0.71740196 0.80514706
0.092034314 0.82463235 0.90821078
0.47843137 0.8995098 0.96519608
0.80098039 0.93970588 0.98039216
0.94705882 0.95882353 0.98823529
0.98480392 0.95490196 0.98823529
0.99215686 0.95490196 0.98431373
0.019607843 0.65098039 0.7372549
0.012193627 0.69761029 0.78039216
0.03872549 0.75882353 0.83811275
0.041053922 0.85098039 0.9213848
0.48455882 0.9254902 0.97083333
0.79852941 0.96617647 0.98449755
0.94276961 0.98823529 0.99227941
0.98088235 0.98480392 0.99215686
0.99607843 0.98480392 0.99215686
0.011764706 0.68235294 0.76470588
0.0039215686 0.73970588 0.81862745
0.014705882 0.80980392 0.88431373
0.10637255 0.8754902 0.94215686
0.50980392 0.93333333 0.97254902
0.79313725 0.97401961 0.98823529
0.93235294 0.99215686 0.99705882
0.97696078 0.99607843 0.99607843
0.99607843 1 1
