site/assets/luts/natron-haldclut--fuji-fp-100c-cool--aa56227bd.cube
# LUTr-Project: LUTr — LUTrepository
# LUTr-Schema-Version: 1
# LUTr-ID: natron-haldclut--fuji-fp-100c-cool--aa56227bd
# LUTr-Title: fuji fp-100c cool +
# LUTr-Collection: Natron HaldCLUT
# LUTr-Collection-ID: natron-haldclut-presets
# LUTr-Source: https://github.com/NatronGitHub/clut
# LUTr-Source-File: submissions/natron-haldclut-presets/instant_pro/fuji_fp-100c_cool_+.png
# LUTr-Source-Format: PNG
# LUTr-Source-SHA256: e7ed79ddb45b73f2f05e98708b9fefa4d14a279cc872f5ba48eaee8eaa16c82c
# LUTr-License: CC-BY-SA-4.0
# LUTr-License-URL: https://github.com/NatronGitHub/clut#license
# LUTr-Tags: creative, film, film-emulation, hald-clut, natron, png, cool, cube
# LUTr-Transform-Class: film-emulation
# LUTr-Input-Color-Space: srgb
# LUTr-Output-Color-Space: srgb
# LUTr-Color-Space-Confidence: assumed-display-referred
# LUTr-Conversion-Method: PNG LUT image decoded at 16-bit and sampled to 25x25x25 3D CUBE
# LUTr-Conversion-Date: 2026-07-27
# LUTr-Conversion-Tool: LUTr scripts/convert-all-to-cube.mjs
# LUTr-Conversion-Grid: 25x25x25
# LUTr-Note: Preserve this metadata and the upstream license notices when redistributing.
TITLE "fuji fp-100c cool +"
LUT_3D_SIZE 5
DOMAIN_MIN 0 0 0
DOMAIN_MAX 1 1 1
0.094117647 0.054901961 0.12156863
0.19019608 0.043137255 0.12254902
0.45490196 0 0.14901961
0.77254902 0.00098039216 0.17254902
0.98823529 0.11764706 0.18823529
0.079411765 0.18039216 0.15588235
0.22745098 0.1875 0.15
0.52892157 0.20931373 0.15343137
0.80294118 0.22745098 0.17352941
0.98235294 0.3 0.18921569
0.0039215686 0.44313725 0.19019608
0.19803922 0.44852941 0.18823529
0.5 0.48823529 0.11176471
0.80980392 0.52941176 0.12745098
0.97254902 0.56862745 0.24117647
0.0078431373 0.69019608 0.23627451
0.18333333 0.69411765 0.24338235
0.46078431 0.70147059 0.1995098
0.74411765 0.7372549 0.05
0.97058824 0.76666667 0.1254902
0.4627451 0.92941176 0.50196078
0.51176471 0.9245098 0.50098039
0.64705882 0.91960784 0.50588235
0.81470588 0.94901961 0.51764706
0.94901961 0.95294118 0.43529412
0.075490196 0.054901961 0.24803922
0.24338235 0.025490196 0.28039216
0.45147059 0.049509804 0.275
0.77254902 0.0046568627 0.28627451
0.99117647 0.10196078 0.28039216
0.082352941 0.19509804 0.28529412
0.25128676 0.21317402 0.29632353
0.54571078 0.22843137 0.30098039
0.79846814 0.23039216 0.29509804
0.98112745 0.29803922 0.29436275
0.0078431373 0.50490196 0.32941176
0.20882353 0.50796569 0.32561275
0.52990196 0.52205882 0.28382353
0.82156863 0.55526961 0.31470588
0.99362745 0.58039216 0.36421569
0.00098039216 0.73161765 0.34142157
0.19767157 0.71960784 0.33921569
0.48443627 0.71237745 0.32352941
0.74411765 0.74074755 0.24773284
0.96568627 0.7754902 0.30073529
0.43137255 0.9245098 0.53529412
0.51887255 0.92941176 0.55122549
0.63333333 0.91323529 0.54656863
0.80686275 0.94362745 0.55710784
0.95098039 0.96078431 0.52058824
0.0039215686 0.02745098 0.50196078
0.27647059 0.0044117647 0.54705882
0.65882353 0.0098039216 0.60784314
0.7377451 0.15735294 0.5372549
0.95686275 0.1627451 0.53137255
0.0078431373 0.20392157 0.50098039
0.26519608 0.20355392 0.55588235
0.64803922 0.18014706 0.61862745
0.74901961 0.32598039 0.55882353
0.96813725 0.29411765 0.52205882
0.041176471 0.53333333 0.58431373
0.27156863 0.54779412 0.59166667
0.60539216 0.60147059 0.63088235
0.80465686 0.58946078 0.59338235
0.97156863 0.57254902 0.55882353
0.20784314 0.77696078 0.62156863
0.33492647 0.77647059 0.60661765
0.53553922 0.7629902 0.58406863
0.76605392 0.77107843 0.54473039
0.95588235 0.79803922 0.59656863
0.45686275 0.94117647 0.68431373
0.48284314 0.93921569 0.66862745
0.6372549 0.93529412 0.67843137
0.80294118 0.94509804 0.68382353
0.95490196 0.9627451 0.65294118
0.15294118 0 0.77745098
0.3502451 0.00098039216 0.79583333
0.68137255 0.0039215686 0.84313725
0.94411765 0.0039215686 0.85710784
0.9627451 0.36372549 0.78431373
0.053676471 0.18039216 0.77254902
0.31764706 0.15514706 0.79080882
0.66764706 0.10588235 0.83982843
0.92352941 0.21623775 0.85490196
0.94607843 0.48014706 0.79191176
0.0019607843 0.44852941 0.70490196
0.11482843 0.46176471 0.72892157
0.57107843 0.52303922 0.7995098
0.85661765 0.60943627 0.84754902
0.91568627 0.64558824 0.80686275
0.25833333 0.74411765 0.79117647
0.37401961 0.75116422 0.79430147
0.59068627 0.78039216 0.81580882
0.80251225 0.82101716 0.84136029
0.92058824 0.8125 0.83210784
0.52254902 0.95294118 0.87352941
0.55294118 0.94901961 0.86887255
0.65392157 0.95098039 0.85931373
0.77843137 0.92769608 0.82867647
0.94803922 0.96862745 0.83039216
0.50588235 0.16862745 0.99607843
0.56960784 0.1254902 0.99215686
0.75098039 0.033333333 0.99215686
0.96764706 0.015686275 0.99215686
1 0.30196078 0.99607843
0.48529412 0.33137255 0.99313725
0.54803922 0.2997549 0.98529412
0.73431373 0.27843137 0.99068627
0.95367647 0.26862745 0.99607843
1 0.45490196 0.98431373
0.33529412 0.55294118 0.97254902
0.44166667 0.55441176 0.9745098
0.65098039 0.55392157 0.9754902
0.89754902 0.57745098 0.97647059
0.99803922 0.67843137 0.99411765
0.30392157 0.77843137 0.95294118
0.38602941 0.78161765 0.95906863
0.48970588 0.74852941 0.92941176
0.79803922 0.79215686 0.97083333
0.99019608 0.85294118 0.9872549
0.62745098 0.96078431 0.98039216
0.61176471 0.94509804 0.96862745
0.68627451 0.94901961 0.95882353
0.79019608 0.93627451 0.96568627
0.91372549 0.97254902 0.97647059
