site/assets/luts/natron-haldclut--lomography-x-pro-slide-200--9cecdde40.cube
# LUTr-Project: LUTr — LUTrepository
# LUTr-Schema-Version: 1
# LUTr-ID: natron-haldclut--lomography-x-pro-slide-200--9cecdde40
# LUTr-Title: lomography x-pro slide 200
# LUTr-Collection: Natron HaldCLUT
# LUTr-Collection-ID: natron-haldclut-presets
# LUTr-Source: https://github.com/NatronGitHub/clut
# LUTr-Source-File: submissions/natron-haldclut-presets/colorslide/lomography_x-pro_slide_200.png
# LUTr-Source-Format: PNG
# LUTr-Source-SHA256: dd5bc2dc1d32b1b7d90c846f7c74dbb5926458a7f1933a5bdd4c7c3b42163fd6
# LUTr-License: CC-BY-SA-4.0
# LUTr-License-URL: https://github.com/NatronGitHub/clut#license
# LUTr-Tags: creative, film, film-emulation, hald-clut, natron, png, cube
# LUTr-Transform-Class: film-emulation
# LUTr-Input-Color-Space: srgb
# LUTr-Output-Color-Space: srgb
# LUTr-Color-Space-Confidence: assumed-display-referred
# LUTr-Conversion-Method: PNG LUT image decoded at 16-bit and sampled to 25x25x25 3D CUBE
# LUTr-Conversion-Date: 2026-07-27
# LUTr-Conversion-Tool: LUTr scripts/convert-all-to-cube.mjs
# LUTr-Conversion-Grid: 25x25x25
# LUTr-Note: Preserve this metadata and the upstream license notices when redistributing.
TITLE "lomography x-pro slide 200"
LUT_3D_SIZE 5
DOMAIN_MIN 0 0 0
DOMAIN_MAX 1 1 1
0.019607843 0.039215686 0.0078431373
0.16862745 0.014705882 0.014705882
0.42745098 0.025490196 0.011764706
0.77647059 0.065686275 0.017647059
0.98431373 0.16078431 0.019607843
0.098039216 0.19607843 0.064705882
0.19289216 0.21078431 0.075490196
0.45784314 0.24117647 0.093137255
0.79215686 0.29509804 0.085294118
0.98823529 0.39607843 0.06372549
0.07254902 0.50980392 0.14313725
0.21715686 0.5127451 0.14705882
0.50588235 0.54019608 0.16078431
0.80931373 0.57941176 0.13921569
0.96666667 0.63921569 0.11764706
0.24803922 0.79901961 0.27745098
0.38823529 0.79509804 0.27843137
0.61960784 0.80539216 0.28970588
0.82156863 0.81764706 0.28014706
0.95294118 0.8254902 0.24607843
0.65490196 0.94117647 0.54117647
0.69313725 0.93333333 0.50490196
0.78431373 0.94705882 0.5254902
0.86764706 0.94901961 0.5254902
0.95294118 0.95686275 0.50196078
0.012745098 0.011764706 0.13529412
0.16593137 0.021568627 0.14362745
0.43529412 0.029901961 0.15098039
0.78137255 0.070833333 0.15882353
0.97156863 0.20196078 0.15098039
0.087009804 0.19607843 0.19289216
0.2036152 0.20428922 0.20098039
0.46372549 0.22941176 0.2122549
0.79607843 0.28112745 0.21176471
0.9875 0.39215686 0.18823529
0.026470588 0.50931373 0.27352941
0.22438725 0.51703431 0.27696078
0.51740196 0.53946078 0.28529412
0.80502451 0.57512255 0.28884804
0.96960784 0.64558824 0.25392157
0.25882353 0.80392157 0.39901961
0.39313725 0.80784314 0.40465686
0.62941176 0.80502451 0.41862745
0.82555147 0.81764706 0.42181373
0.93431373 0.82941176 0.39901961
0.6745098 0.94901961 0.61764706
0.70882353 0.95196078 0.6245098
0.77843137 0.95294118 0.62843137
0.86764706 0.95220588 0.6245098
0.94411765 0.95686275 0.61568627
0.019607843 0.0058823529 0.31568627
0.16519608 0.025 0.34117647
0.43431373 0.014705882 0.34215686
0.79313725 0.046078431 0.35882353
0.99411765 0.15882353 0.33921569
0.085294118 0.16862745 0.40980392
0.20294118 0.18578431 0.41580882
0.46544118 0.20294118 0.43137255
0.80036765 0.26421569 0.43615196
0.97009804 0.35686275 0.43137255
0.018627451 0.49803922 0.50196078
0.23137255 0.49411765 0.51127451
0.52156863 0.525 0.525
0.81176471 0.56446078 0.52990196
0.97058824 0.64509804 0.51862745
0.22990196 0.80686275 0.62843137
0.37487745 0.81384804 0.63088235
0.63382353 0.80931373 0.64313725
0.82328431 0.82181373 0.64705882
0.93578431 0.84117647 0.64460784
0.6627451 0.95294118 0.75686275
0.7 0.95637255 0.76029412
0.77156863 0.95490196 0.7627451
0.86470588 0.96078431 0.76715686
0.96862745 0.97254902 0.76666667
0.019607843 0.014705882 0.59117647
0.16176471 0.0078431373 0.60955882
0.4372549 0.0083333333 0.6122549
0.78137255 0.042156863 0.63602941
0.99705882 0.11372549 0.6245098
0.092156863 0.12867647 0.66936275
0.20710784 0.13946078 0.67745098
0.47352941 0.16372549 0.69644608
0.81102941 0.21960784 0.7127451
0.99313725 0.33504902 0.71960784
0.078431373 0.45392157 0.73627451
0.24117647 0.45992647 0.74607843
0.53578431 0.49338235 0.75882353
0.81862745 0.54509804 0.7745098
0.96519608 0.60980392 0.76568627
0.2245098 0.79117647 0.79901961
0.37714461 0.80686275 0.80686275
0.6314951 0.80085784 0.80833333
0.82328431 0.81470588 0.82254902
0.9497549 0.8372549 0.81960784
0.65980392 0.95392157 0.85980392
0.70196078 0.96078431 0.86372549
0.77647059 0.96078431 0.86764706
0.86789216 0.97328431 0.87254902
0.96078431 0.95 0.86470588
0.0039215686 0.0039215686 0.80392157
0.1372549 0.0039215686 0.81666667
0.41568627 0.0039215686 0.84313725
0.79019608 0.0049019608 0.86666667
1 0.039215686 0.86666667
0.076470588 0.054901961 0.84313725
0.19436275 0.07745098 0.84019608
0.45784314 0.079901961 0.86862745
0.81176471 0.1379902 0.87156863
0.99509804 0.23921569 0.90098039
0.12941176 0.3745098 0.87647059
0.26568627 0.38186275 0.87941176
0.54019608 0.41176471 0.88627451
0.82696078 0.45637255 0.90441176
0.98823529 0.5372549 0.91764706
0.20882353 0.76960784 0.90196078
0.37058824 0.78112745 0.87867647
0.6254902 0.78039216 0.90392157
0.82720588 0.79901961 0.92254902
0.94313725 0.81862745 0.92941176
0.67843137 0.97254902 0.95686275
0.69411765 0.96078431 0.93431373
0.77254902 0.96470588 0.93529412
0.86372549 0.97647059 0.96666667
0.98823529 0.98823529 0.98823529
