site/assets/luts/natron-haldclut--golden-mono--7bed6c03a.cube
# LUTr-Project: LUTr — LUTrepository
# LUTr-Schema-Version: 1
# LUTr-ID: natron-haldclut--golden-mono--7bed6c03a
# LUTr-Title: golden mono
# LUTr-Collection: Natron HaldCLUT
# LUTr-Collection-ID: natron-haldclut-presets
# LUTr-Source: https://github.com/NatronGitHub/clut
# LUTr-Source-File: submissions/natron-haldclut-presets/various/golden_mono.png
# LUTr-Source-Format: PNG
# LUTr-Source-SHA256: c628dbc3183a27152235865cff8da5d18e8e7d5416f97fb02fa1f63270fb48a8
# LUTr-License: CC-BY-SA-4.0
# LUTr-License-URL: https://github.com/NatronGitHub/clut#license
# LUTr-Tags: creative, film, film-emulation, hald-clut, natron, png, black-and-white, cube
# LUTr-Transform-Class: film-emulation
# LUTr-Input-Color-Space: srgb
# LUTr-Output-Color-Space: srgb
# LUTr-Color-Space-Confidence: assumed-display-referred
# LUTr-Conversion-Method: PNG LUT image decoded at 16-bit and sampled to 25x25x25 3D CUBE
# LUTr-Conversion-Date: 2026-07-27
# LUTr-Conversion-Tool: LUTr scripts/convert-all-to-cube.mjs
# LUTr-Conversion-Grid: 25x25x25
# LUTr-Note: Preserve this metadata and the upstream license notices when redistributing.
TITLE "golden mono"
LUT_3D_SIZE 25
DOMAIN_MIN 0 0 0
DOMAIN_MAX 1 1 1
0 0 0
0.020588235 0.014215686 0.006372549
0.03627451 0.024509804 0.011764706
0.046568627 0.031372549 0.011764706
0.052941176 0.037254902 0.01372549
0.071568627 0.051470588 0.023529412
0.088235294 0.065686275 0.030392157
0.10735294 0.079901961 0.039215686
0.12156863 0.090196078 0.047058824
0.14068627 0.10294118 0.053431373
0.16764706 0.11960784 0.06372549
0.19460784 0.13676471 0.074019608
0.21960784 0.15490196 0.084313725
0.24019608 0.16960784 0.090686275
0.26078431 0.18333333 0.098039216
0.27990196 0.19754902 0.10588235
0.29803922 0.20784314 0.11372549
0.31470588 0.22205882 0.12009804
0.34019608 0.2372549 0.13039216
0.36372549 0.25441176 0.14068627
0.38823529 0.27058824 0.15098039
0.40539216 0.28333333 0.16127451
0.4254902 0.29705882 0.16862745
0.44068627 0.30735294 0.17254902
0.45098039 0.31372549 0.17647059
0.024509804 0.016666667 0.0078431373
0.02935049 0.020588235 0.010294118
0.03627451 0.024509804 0.011764706
0.043137255 0.031066176 0.011764706
0.051715686 0.037254902 0.01372549
0.067647059 0.048039216 0.020098039
0.088235294 0.064705882 0.030392157
0.10735294 0.075980392 0.039215686
0.12156863 0.087745098 0.047058824
0.13915441 0.10140931 0.053431373
0.16666667 0.11960784 0.06372549
0.19246324 0.13676471 0.074019608
0.21764706 0.15490196 0.084313725
0.24019608 0.16960784 0.090686275
0.26078431 0.18333333 0.098039216
0.27990196 0.19754902 0.10588235
0.29803922 0.20784314 0.11372549
0.31470588 0.22058824 0.12009804
0.34019608 0.2372549 0.13039216
0.36960784 0.25784314 0.14283088
0.38823529 0.27058824 0.15098039
0.40882353 0.28676471 0.16127451
0.42941176 0.3 0.16862745
0.45036765 0.31372549 0.17647059
0.46764706 0.32401961 0.18284314
0.045098039 0.032352941 0.016666667
0.046936275 0.032352941 0.016053922
0.044852941 0.032352941 0.012745098
0.043259804 0.028431373 0.011764706
0.046568627 0.033333333 0.01127451
0.067647059 0.048039216 0.020098039
0.088480392 0.064705882 0.030392157
0.10490196 0.075980392 0.039215686
0.11764706 0.08627451 0.043137255
0.13394608 0.099019608 0.052818627
0.16372549 0.11789216 0.06372549
0.19068627 0.13627451 0.074019608
0.21764706 0.15294118 0.084313725
0.24019608 0.1692402 0.090686275
0.26078431 0.18333333 0.098039216
0.27990196 0.19754902 0.10588235
0.29803922 0.20784314 0.10980392
0.31372549 0.21813725 0.11727941
0.34142157 0.23823529 0.13039216
0.38382353 0.26617647 0.14803922
0.38921569 0.27303922 0.15294118
0.40796569 0.28333333 0.16127451
0.43406863 0.30465686 0.17156863
0.46482843 0.32401961 0.18186275
0.47941176 0.33431373 0.18529412
0.065686275 0.046568627 0.023039216
0.065686275 0.046568627 0.020894608
0.060906863 0.042647059 0.019117647
0.054411765 0.038296569 0.015257353
0.053676471 0.036519608 0.01495098
0.075 0.051470588 0.023529412
0.092156863 0.065686275 0.03125
0.10735294 0.079411765 0.039215686
0.11764706 0.08627451 0.043137255
0.12910539 0.095098039 0.049509804
0.16372549 0.11911765 0.06372549
0.1911152 0.13627451 0.074019608
0.21936275 0.15661765 0.084313725
0.24411765 0.17303922 0.094117647
0.26433824 0.18590686 0.10098039
0.28137255 0.19754902 0.10716912
0.29803922 0.20784314 0.11372549
0.31654412 0.22156863 0.11979167
0.34901961 0.24252451 0.13137255
0.39411765 0.27346814 0.15196078
0.39828431 0.27671569 0.15490196
0.41231618 0.28682598 0.16470588
0.4504902 0.31421569 0.1754902
0.47696078 0.33216912 0.18560049
0.48970588 0.34068627 0.18823529
0.084313725 0.058823529 0.029411765
0.082352941 0.056862745 0.02745098
0.078431373 0.054901961 0.025490196
0.076715686 0.054901961 0.025490196
0.08627451 0.058823529 0.02745098
0.095588235 0.065686275 0.033578431
0.11029412 0.074509804 0.038235294
0.11127451 0.077941176 0.040686275
0.12352941 0.088235294 0.047058824
0.14338235 0.10294118 0.054656863
0.17107843 0.12156863 0.065686275
0.19681373 0.14019608 0.075980392
0.21960784 0.15490196 0.084313725
0.24215686 0.16936275 0.094117647
0.26127451 0.18333333 0.10098039
0.28137255 0.19754902 0.10735294
0.30196078 0.21176471 0.11372549
0.3245098 0.22598039 0.12401961
0.34705882 0.24019608 0.13284314
0.37696078 0.25980392 0.14460784
0.4 0.27647059 0.15490196
0.42279412 0.29485294 0.16519608
0.45343137 0.31568627 0.17843137
0.48014706 0.33357843 0.18578431
0.49803922 0.34509804 0.19215686
0.10294118 0.071078431 0.035784314
0.10294118 0.071078431 0.035784314
0.10294118 0.071078431 0.035784314
0.10294118 0.071078431 0.035784314
0.1127451 0.076960784 0.039705882
0.11862745 0.082414216 0.043627451
0.1182598 0.079044118 0.043137255
0.11011029 0.076102941 0.039522059
0.12156863 0.085784314 0.046568627
0.15275735 0.10686275 0.057352941
0.18247549 0.12745098 0.068137255
0.20386029 0.14503676 0.078431373
0.21960784 0.15490196 0.084313725
0.23927696 0.165625 0.090686275
0.25943627 0.18198529 0.10098039
0.28137255 0.19509804 0.10735294
0.30637255 0.21176471 0.11764706
0.33039216 0.2286152 0.12794118
0.35098039 0.24117647 0.13468137
0.36770833 0.25098039 0.14160539
0.39607843 0.27254902 0.15490196
0.42794118 0.29509804 0.16911765
0.45159314 0.31531863 0.17634804
0.47303922 0.33039216 0.18560049
0.48970588 0.34068627 0.18823529
0.11960784 0.081372549 0.042156863
0.11960784 0.081372549 0.042156863
0.11960784 0.081372549 0.042156863
0.12303922 0.085171569 0.043014706
0.13333333 0.091176471 0.048039216
0.14301471 0.097058824 0.053921569
0.13848039 0.093872549 0.050735294
0.12781863 0.086764706 0.047916667
0.13137255 0.089215686 0.046078431
0.1622549 0.1122549 0.060294118
0.19240196 0.13431373 0.071568627
0.21421569 0.14889706 0.081862745
0.21813725 0.15294118 0.084313725
0.23321078 0.16139706 0.090686275
0.25392157 0.17622549 0.10098039
0.28137255 0.19509804 0.11029412
0.30980392 0.21568627 0.12058824
0.33223039 0.22990196 0.12794118
0.35392157 0.24411765 0.1379902
0.37071078 0.25698529 0.14460784
0.39754902 0.27598039 0.15686275
0.42156863 0.29215686 0.16519608
0.44215686 0.30955882 0.1754902
0.46164216 0.32009804 0.1807598
0.4754902 0.33039216 0.18529412
0.14019608 0.095588235 0.05245098
0.14019608 0.095588235 0.051531863
0.13982843 0.095588235 0.050980392
0.13872549 0.095588235 0.050980392
0.15 0.10147059 0.055637255
0.16029412 0.11127451 0.060784314
0.16372549 0.11127451 0.064215686
0.15735294 0.10882353 0.060294118
0.16519608 0.11421569 0.061764706
0.18186275 0.12604167 0.067218137
0.20441176 0.14252451 0.076960784
0.21930147 0.1526348 0.082352941
0.21960784 0.15294118 0.08627451
0.22696078 0.15735294 0.090502451
0.25196078 0.1745098 0.098161765
0.28284314 0.19509804 0.11127451
0.30980392 0.21568627 0.12156863
0.33431373 0.23235294 0.13186275
0.35637255 0.24509804 0.13823529
0.37910539 0.26194853 0.14852941
0.39607843 0.27647059 0.15686275
0.41636029 0.29068627 0.16519608
0.43223039 0.30098039 0.17156863
0.44705882 0.31072304 0.17555147
0.45980392 0.32009804 0.18039216
0.16470588 0.11372549 0.062745098
0.16470588 0.11127451 0.058823529
0.16078431 0.10980392 0.058823529
0.16078431 0.10980392 0.058823529
0.17058824 0.11568627 0.064705882
0.18039216 0.1254902 0.070588235
0.17647059 0.12156863 0.070588235
0.17794118 0.12303922 0.070588235
0.19607843 0.1372549 0.074509804
0.21029412 0.14754902 0.080882353
0.22058824 0.15392157 0.082352941
0.22696078 0.15686275 0.08627451
0.22156863 0.15294118 0.08627451
0.21764706 0.1504902 0.086764706
0.25196078 0.1745098 0.10098039
0.28284314 0.19509804 0.11127451
0.30980392 0.21568627 0.12156863
0.33431373 0.22990196 0.12794118
0.35490196 0.24509804 0.13823529
0.3754902 0.26176471 0.14509804
0.39607843 0.27647059 0.15490196
0.42058824 0.29117647 0.16519608
0.43431373 0.30490196 0.17254902
0.44313725 0.30980392 0.17401961
0.44705882 0.31372549 0.17647059
0.19166667 0.13431373 0.073039216
0.19166667 0.13431373 0.073039216
0.19227941 0.13431373 0.073039216
0.19558824 0.13431373 0.073039216
0.20147059 0.13823529 0.076960784
0.203125 0.14166667 0.080882353
0.19595588 0.13529412 0.079779412
0.20061275 0.13970588 0.080882353
0.22058824 0.15392157 0.084803922
0.23480392 0.16421569 0.08872549
0.24411765 0.16960784 0.092647059
0.24166667 0.16715686 0.092647059
0.23578431 0.16323529 0.090196078
0.23302696 0.15980392 0.090502451
0.25257353 0.1745098 0.097058824
0.28284314 0.19509804 0.10974265
0.30980392 0.21568627 0.12156863
0.32886029 0.22898284 0.12794118
0.34460784 0.24019608 0.13431373
0.36519608 0.25539216 0.14215686
0.39289216 0.27205882 0.15367647
0.41844363 0.29117647 0.16519608
0.44117647 0.3067402 0.17254902
0.45098039 0.31464461 0.17647059
0.45735294 0.31764706 0.18039216
0.22647059 0.15490196 0.084313725
0.22647059 0.15490196 0.084313725
0.22647059 0.15490196 0.087254902
0.22647059 0.15845588 0.087254902
0.22990196 0.15882353 0.089215686
0.23051471 0.15980392 0.091176471
0.24632353 0.17107843 0.098039216
0.2504902 0.17401961 0.099632353
0.24901961 0.17058824 0.095098039
0.25539216 0.17990196 0.098651961
0.26053922 0.18137255 0.099019608
0.25343137 0.17745098 0.095465686
0.24068627 0.16764706 0.090686275
0.22463235 0.1567402 0.086151961
0.24705882 0.17132353 0.093137255
0.28321078 0.19718137 0.10772059
0.31372549 0.21960784 0.12156863
0.32794118 0.22990196 0.12794118
0.34142157 0.23627451 0.13039216
0.35906863 0.24963235 0.14031863
0.39117647 0.27156863 0.15147059
0.41813725 0.29117647 0.16262255
0.44191176 0.30784314 0.17254902
0.45735294 0.31801471 0.18039216
0.46372549 0.32254902 0.18039216
0.25735294 0.17892157 0.09754902
0.25735294 0.17892157 0.09754902
0.25735294 0.17941176 0.09754902
0.25735294 0.17941176 0.09754902
0.25735294 0.17941176 0.097794118
0.25827206 0.17990196 0.10147059
0.29019608 0.19963235 0.11458333
0.29491422 0.20490196 0.1153799
0.27352941 0.19117647 0.10539216
0.27254902 0.19019608 0.10539216
0.27401961 0.19166667 0.10539216
0.27009804 0.18823529 0.10238971
0.26323529 0.18308824 0.099509804
0.25680147 0.17892157 0.097058824
0.27083333 0.18909314 0.10392157
0.29626225 0.20980392 0.11470588
0.31372549 0.21960784 0.12156863
0.32665441 0.22990196 0.1254902
0.34313725 0.24362745 0.13419118
0.37058824 0.25735294 0.14411765
0.4 0.27818627 0.15514706
0.46017157 0.32040441 0.17849265
0.44595588 0.30968137 0.17254902
0.46029412 0.32156863 0.18039216
0.47009804 0.3254902 0.18431373
0.28823529 0.2 0.11176471
0.28823529 0.2 0.11176471
0.28823529 0.2 0.11176471
0.28480392 0.2 0.11176471
0.28333333 0.19705882 0.11078431
0.28014706 0.19607843 0.10808824
0.29460784 0.20539216 0.11617647
0.3129902 0.21887255 0.12156863
0.29411765 0.20588235 0.11372549
0.28995098 0.20245098 0.11176471
0.29705882 0.20784314 0.1127451
0.3 0.20784314 0.11568627
0.3 0.20784314 0.1127451
0.30245098 0.21029412 0.11593137
0.31127451 0.21519608 0.11911765
0.32352941 0.22745098 0.12352941
0.31372549 0.2254902 0.12156863
0.31740196 0.22990196 0.12279412
0.34803922 0.24705882 0.13431373
0.37720588 0.26397059 0.14656863
0.40294118 0.28137255 0.15686275
0.42843137 0.29852941 0.16519608
0.44754902 0.31078431 0.1754902
0.46102941 0.31911765 0.18039216
0.47058824 0.3254902 0.18431373
0.31911765 0.22058824 0.12205882
0.31911765 0.22058824 0.12205882
0.31911765 0.22058824 0.12218137
0.31911765 0.22107843 0.12254902
0.31568627 0.22058824 0.12254902
0.31182598 0.21721814 0.12254902
0.32205882 0.22438725 0.1254902
0.3463848 0.24215686 0.13431373
0.33529412 0.23284314 0.12990196
0.32598039 0.22745098 0.12598039
0.33480392 0.23235294 0.12904412
0.33137255 0.22892157 0.12598039
0.32671569 0.22622549 0.12401961
0.33866422 0.23278186 0.12990196
0.34166667 0.23578431 0.12990196
0.34264706 0.23854167 0.13118873
0.34509804 0.24558824 0.13480392
0.3276348 0.23676471 0.12647059
0.35147059 0.25208333 0.13566176
0.37898284 0.26960784 0.14852941
0.40392157 0.28431373 0.15882353
0.42843137 0.29852941 0.16862745
0.44595588 0.31139706 0.1754902
0.46176471 0.32303922 0.18039216
0.47058824 0.32892157 0.18431373
0.35 0.24117647 0.13627451
0.35 0.24117647 0.13627451
0.35 0.24436275 0.13627451
0.35257353 0.24509804 0.13627451
0.35441176 0.24803922 0.1377451
0.35723039 0.25110294 0.13933824
0.37058824 0.25882353 0.14607843
0.38970588 0.27193627 0.15134804
0.37647059 0.26078431 0.14411765
0.36531863 0.25588235 0.14019608
0.36789216 0.25514706 0.14019608
0.36176471 0.2495098 0.13676471
0.35637255 0.24460784 0.13578431
0.35796569 0.24901961 0.13627451
0.35808824 0.24901961 0.13627451
0.34877451 0.24105392 0.13517157
0.36372549 0.25490196 0.14117647
0.37303922 0.26409314 0.14460784
0.37279412 0.26495098 0.14485294
0.38321078 0.27009804 0.14889706
0.40098039 0.28088235 0.15882353
0.4245098 0.29473039 0.16605392
0.44509804 0.30882353 0.1754902
0.46029412 0.31973039 0.17855392
0.46764706 0.3254902 0.18039216
0.38088235 0.26176471 0.14656863
0.37941176 0.26176471 0.14656863
0.38125 0.26568627 0.14693627
0.38970588 0.27058824 0.1504902
0.39607843 0.27696078 0.15514706
0.40245098 0.28284314 0.15618873
0.4127451 0.28970588 0.16164216
0.42457108 0.29705882 0.16617647
0.41372549 0.28921569 0.1622549
0.40496324 0.28192402 0.15588235
0.40159314 0.27855392 0.15441176
0.39803922 0.27530637 0.15226716
0.39803922 0.275 0.15196078
0.39264706 0.275 0.1504902
0.38970588 0.27389706 0.1504902
0.3838848 0.27015931 0.14803922
0.38872549 0.27107843 0.1504902
0.39901961 0.27990196 0.15686275
0.40441176 0.28529412 0.15833333
0.40098039 0.28186275 0.15833333
0.3995098 0.28112745 0.15955882
0.4153799 0.29068627 0.16501225
0.44019608 0.3060049 0.17156863
0.45582108 0.31764706 0.17647059
0.46127451 0.32156863 0.17892157
0.41176471 0.28627451 0.16078431
0.41176471 0.28627451 0.15686275
0.42058824 0.29117647 0.16176471
0.43088235 0.30147059 0.16813725
0.44117647 0.30784314 0.17254902
0.44754902 0.31372549 0.17647059
0.45098039 0.31764706 0.17647059
0.45882353 0.32156863 0.18039216
0.45098039 0.31372549 0.17647059
0.43921569 0.30588235 0.17009804
0.43529412 0.30196078 0.16862745
0.43872549 0.30539216 0.16862745
0.4372549 0.30196078 0.16862745
0.42696078 0.29803922 0.16470588
0.41568627 0.29509804 0.16078431
0.41323529 0.29411765 0.16078431
0.42352941 0.29803922 0.16470588
0.42990196 0.30196078 0.16862745
0.43529412 0.30588235 0.16862745
0.43137255 0.30196078 0.16862745
0.42156863 0.29607843 0.16862745
0.41715686 0.29117647 0.16470588
0.4372549 0.30490196 0.16764706
0.44852941 0.31372549 0.17254902
0.45490196 0.31764706 0.17254902
0.44656863 0.31078431 0.17352941
0.45147059 0.31323529 0.17444853
0.46911765 0.32598039 0.18235294
0.48841912 0.33872549 0.18890931
0.49142157 0.34142157 0.19117647
0.47156863 0.33039216 0.18302696
0.4745098 0.33370098 0.18676471
0.48333333 0.33823529 0.18823529
0.47941176 0.33578431 0.18676471
0.47156863 0.32794118 0.18284314
0.46433824 0.32254902 0.17892157
0.47009804 0.32647059 0.18284314
0.46813725 0.3245098 0.18014706
0.45784314 0.31862745 0.175
0.44313725 0.31507353 0.17205882
0.44019608 0.315625 0.17107843
0.4504902 0.31862745 0.175
0.45686275 0.32254902 0.17892157
0.46286765 0.32647059 0.18284314
0.46813725 0.3286152 0.18284314
0.46985294 0.32892157 0.18406863
0.45588235 0.32009804 0.17432598
0.44375 0.31004902 0.16678922
0.45588235 0.31862745 0.17254902
0.4622549 0.32254902 0.175
0.48529412 0.33921569 0.18627451
0.49117647 0.34264706 0.18982843
0.51348039 0.35784314 0.19901961
0.53811275 0.37291667 0.20845588
0.52156863 0.3622549 0.20294118
0.49644608 0.34693627 0.19313725
0.49607843 0.34926471 0.19534314
0.50110294 0.35392157 0.19705882
0.5 0.35392157 0.19705882
0.49607843 0.34852941 0.19313725
0.48946078 0.34240196 0.19019608
0.50404412 0.3504902 0.1939951
0.50098039 0.34607843 0.19362745
0.48370098 0.33370098 0.18627451
0.49019608 0.34240196 0.18995098
0.48578431 0.34411765 0.18982843
0.48627451 0.34411765 0.18921569
0.48921569 0.34595588 0.19203431
0.49411765 0.34705882 0.19313725
0.50526961 0.35441176 0.19705882
0.51421569 0.35980392 0.1995098
0.50490196 0.35147059 0.19362745
0.49044118 0.34117647 0.18627451
0.4995098 0.34803922 0.19019608
0.50294118 0.35196078 0.19411765
0.52352941 0.36715686 0.20294118
0.53596814 0.37352941 0.20716912
0.55612745 0.38786765 0.21482843
0.5533701 0.38817402 0.21525735
0.54019608 0.37794118 0.20955882
0.51960784 0.36372549 0.20300245
0.51568627 0.36286765 0.20343137
0.52058824 0.36783088 0.2036152
0.52058824 0.36813725 0.20343137
0.51421569 0.36764706 0.20128676
0.52193627 0.3685049 0.20428922
0.53829657 0.37457108 0.21035539
0.53897059 0.3747549 0.21078431
0.53480392 0.37058824 0.20686275
0.53529412 0.37107843 0.20686275
0.53511029 0.375 0.20716912
0.53088235 0.37107843 0.20686275
0.52530637 0.36764706 0.20343137
0.52414216 0.36507353 0.20343137
0.53529412 0.37457108 0.21078431
0.55147059 0.38333333 0.21519608
0.54656863 0.38235294 0.21121324
0.53872549 0.37585784 0.20686275
0.54283088 0.37892157 0.21078431
0.54705882 0.38284314 0.21078431
0.56862745 0.39803922 0.21960784
0.575 0.40245098 0.22279412
0.57990196 0.40539216 0.2254902
0.57107843 0.4002451 0.22181373
0.56078431 0.39411765 0.21862745
0.55098039 0.38823529 0.21568627
0.55245098 0.38921569 0.21568627
0.55686275 0.39411765 0.21764706
0.55686275 0.39411765 0.21764706
0.55563725 0.39411765 0.21642157
0.55784314 0.39460784 0.21813725
0.57352941 0.3997549 0.22328431
0.59803922 0.41568627 0.23235294
0.58039216 0.40196078 0.2254902
0.58039216 0.40196078 0.2254902
0.58039216 0.40196078 0.2254902
0.57647059 0.40196078 0.22352941
0.56740196 0.39558824 0.22034314
0.55588235 0.3872549 0.21715686
0.55588235 0.38578431 0.21715686
0.57058824 0.39705882 0.22156863
0.57843137 0.40392157 0.2254902
0.575 0.40098039 0.22401961
0.57990196 0.40661765 0.22622549
0.58627451 0.40784314 0.22745098
0.59362745 0.41666667 0.23186275
0.6 0.42303922 0.23216912
0.60833333 0.42757353 0.23578431
0.60281863 0.42493873 0.23578431
0.60465686 0.4252451 0.23627451
0.60680147 0.42542892 0.23627451
0.60245098 0.42156863 0.23321078
0.60196078 0.4245098 0.23235294
0.60196078 0.4245098 0.23186275
0.59981618 0.4245098 0.23235294
0.59803922 0.42058824 0.23321078
0.60098039 0.42058824 0.23578431
0.61666667 0.42794118 0.23970588
0.61372549 0.425 0.23970588
0.61752451 0.42843137 0.24019608
0.61979167 0.42892157 0.24019608
0.61764706 0.42892157 0.24019608
0.61127451 0.425 0.23756127
0.60245098 0.42022059 0.23627451
0.59859069 0.41721814 0.23284314
0.5997549 0.41887255 0.23406863
0.60189951 0.42058824 0.23578431
0.60441176 0.42352941 0.23578431
0.61060049 0.428125 0.23970588
0.6127451 0.42843137 0.23970588
0.62745098 0.44117647 0.24215686
0.63088235 0.44473039 0.24460784
0.64019608 0.44901961 0.24901961
0.64914216 0.45539216 0.25245098
0.6627451 0.4627451 0.25833333
0.66127451 0.46237745 0.2564951
0.65098039 0.45588235 0.25073529
0.64313725 0.45196078 0.24607843
0.64019608 0.45196078 0.24607843
0.64313725 0.45196078 0.24901961
0.63823529 0.44705882 0.24901961
0.62977941 0.4377451 0.24607843
0.63529412 0.43970588 0.25
0.64460784 0.44816176 0.25306373
0.65392157 0.45269608 0.25612745
0.65882353 0.45796569 0.25723039
0.65882353 0.45980392 0.25686275
0.65821078 0.45698529 0.25686275
0.65563725 0.45661765 0.25686275
0.6504902 0.45232843 0.25343137
0.64117647 0.44754902 0.25147059
0.63063725 0.43995098 0.24865196
0.63137255 0.44117647 0.24828431
0.63627451 0.44509804 0.25
0.6372549 0.44509804 0.25
0.66078431 0.46715686 0.25637255
0.66323529 0.46868873 0.25637255
0.67279412 0.4745098 0.26066176
0.7 0.48970588 0.27254902
0.71568627 0.49852941 0.27671569
0.70735294 0.49283088 0.27303922
0.69595588 0.48566176 0.26629902
0.68235294 0.47689951 0.25974265
0.67745098 0.47598039 0.25882353
0.68290441 0.47745098 0.26366422
0.67830882 0.47254902 0.26421569
0.66145833 0.45863971 0.25900735
0.66029412 0.45759804 0.25833333
0.67794118 0.47009804 0.26470588
0.68970588 0.47745098 0.2692402
0.69515931 0.48376225 0.27205882
0.69852941 0.48676471 0.27352941
0.69852941 0.48676471 0.27352941
0.69460784 0.48529412 0.27205882
0.69344363 0.4841299 0.27205882
0.70098039 0.48970588 0.27426471
0.69393382 0.4872549 0.27285539
0.68578431 0.48137255 0.26813725
0.69123775 0.48584559 0.26960784
0.69362745 0.48823529 0.27205882
0.69411765 0.49019608 0.26666667
0.69411765 0.49019608 0.27058824
0.70882353 0.5 0.2754902
0.73970588 0.51666667 0.28578431
0.74901961 0.52156863 0.29019608
0.73970588 0.51323529 0.28578431
0.71568627 0.49901961 0.2754902
0.69362745 0.48480392 0.26519608
0.68627451 0.47843137 0.2627451
0.69411765 0.48627451 0.26911765
0.69215686 0.48137255 0.26960784
0.67205882 0.46764706 0.26323529
0.66666667 0.4627451 0.2627451
0.6872549 0.47892157 0.27058824
0.70490196 0.48921569 0.27745098
0.71911765 0.4995098 0.28235294
0.7254902 0.50588235 0.28627451
0.7254902 0.50588235 0.28627451
0.7254902 0.50588235 0.28627451
0.73284314 0.51323529 0.28627451
0.7372549 0.51764706 0.28823529
0.72009804 0.50882353 0.28137255
0.70392157 0.49705882 0.27352941
0.71519608 0.50343137 0.27843137
0.71764706 0.50588235 0.27843137
0.030882353 0.020588235 0.014215686
0.03817402 0.026960784 0.014215686
0.051102941 0.034803922 0.018137255
0.063235294 0.043811275 0.022058824
0.071568627 0.05 0.022058824
0.084313725 0.060477941 0.029901961
0.10134804 0.072058824 0.036764706
0.11764706 0.085355392 0.043137255
0.12794118 0.094117647 0.047058824
0.14552696 0.10594363 0.056433824
0.17120098 0.12316176 0.066176471
0.19724265 0.14019608 0.074019608
0.21960784 0.15612745 0.084313725
0.24411765 0.16960784 0.094117647
0.26078431 0.18333333 0.10098039
0.28137255 0.19754902 0.10735294
0.29803922 0.20784314 0.11372549
0.31862745 0.22359069 0.12009804
0.34313725 0.24019608 0.13039216
0.36372549 0.25441176 0.14068627
0.38431373 0.26936275 0.15098039
0.40490196 0.28333333 0.16127451
0.4254902 0.29705882 0.16764706
0.44068627 0.30735294 0.17254902
0.44705882 0.31127451 0.17647059
0.041176471 0.028431373 0.016666667
0.047893689 0.033884804 0.017930453
0.055162377 0.039093137 0.018137255
0.061090686 0.042470895 0.021829044
0.069607843 0.048008578 0.022058824
0.084313725 0.060294118 0.029097733
0.10242034 0.073207721 0.036764706
0.11764706 0.085355392 0.043711703
0.12794118 0.092647059 0.047058824
0.14368873 0.1040671 0.054924939
0.16971507 0.12247243 0.06372549
0.19712776 0.14019608 0.074019608
0.22037377 0.15612745 0.084313725
0.24411765 0.17175245 0.094117647
0.26429228 0.18448223 0.10098039
0.28137255 0.19754902 0.10735294
0.29803922 0.20784314 0.11372549
0.31862745 0.22205882 0.12009804
0.34352022 0.24080882 0.13039216
0.36979167 0.25803462 0.14302237
0.39466912 0.27530637 0.15435049
0.41617647 0.29086244 0.16441483
0.43976716 0.30565257 0.17195159
0.45980392 0.31975337 0.17869179
0.47071078 0.32708333 0.18284314
0.057230392 0.03872549 0.022058824
0.061014093 0.042647059 0.022058824
0.063235294 0.044485294 0.022058824
0.063235294 0.044699755 0.02109375
0.071384804 0.050306373 0.021813725
0.087745098 0.061642157 0.030254289
0.10833333 0.076317402 0.037745098
0.12222733 0.088036152 0.045726103
0.12855392 0.093627451 0.049509804
0.14336703 0.10424326 0.054733456
0.1705576 0.12205882 0.066176471
0.19771752 0.1410386 0.076470588
0.22359069 0.15839461 0.084926471
0.24754902 0.17400429 0.095006127
0.26813725 0.18786765 0.1020527
0.28702512 0.20098039 0.10911458
0.30208333 0.21237745 0.11433824
