site/assets/luts/natron-haldclut--agfa-apx-25--8c3849d95.cube
# LUTr-Project: LUTr — LUTrepository
# LUTr-Schema-Version: 1
# LUTr-ID: natron-haldclut--agfa-apx-25--8c3849d95
# LUTr-Title: agfa apx 25
# LUTr-Collection: Natron HaldCLUT
# LUTr-Collection-ID: natron-haldclut-presets
# LUTr-Source: https://github.com/NatronGitHub/clut
# LUTr-Source-File: submissions/natron-haldclut-presets/bw/agfa_apx_25.png
# LUTr-Source-Format: PNG
# LUTr-Source-SHA256: 911b76b85480ef2d6e16e24f6561256de359ca581cd2c3b7ad1366df158dae95
# LUTr-License: CC-BY-SA-4.0
# LUTr-License-URL: https://github.com/NatronGitHub/clut#license
# LUTr-Tags: creative, film, film-emulation, hald-clut, natron, png, black-and-white, cube
# LUTr-Transform-Class: film-emulation
# LUTr-Input-Color-Space: srgb
# LUTr-Output-Color-Space: srgb
# LUTr-Color-Space-Confidence: assumed-display-referred
# LUTr-Conversion-Method: PNG LUT image decoded at 16-bit and sampled to 25x25x25 3D CUBE
# LUTr-Conversion-Date: 2026-07-27
# LUTr-Conversion-Tool: LUTr scripts/convert-all-to-cube.mjs
# LUTr-Conversion-Grid: 25x25x25
# LUTr-Note: Preserve this metadata and the upstream license notices when redistributing.
TITLE "agfa apx 25"
LUT_3D_SIZE 25
DOMAIN_MIN 0 0 0
DOMAIN_MAX 1 1 1
0.023529412 0.023529412 0.023529412
0.023529412 0.023529412 0.023529412
0.019607843 0.019607843 0.019607843
0.019607843 0.019607843 0.019607843
0.023529412 0.023529412 0.023529412
0.02745098 0.02745098 0.02745098
0.02745098 0.02745098 0.02745098
0.02745098 0.02745098 0.02745098
0.02745098 0.02745098 0.02745098
0.054411765 0.054411765 0.054411765
0.076470588 0.076470588 0.076470588
0.097058824 0.097058824 0.097058824
0.11568627 0.11568627 0.11568627
0.13039216 0.13039216 0.13039216
0.14705882 0.14705882 0.14705882
0.1745098 0.1745098 0.1745098
0.21568627 0.21568627 0.21568627
0.24264706 0.24264706 0.24264706
0.2745098 0.2745098 0.2745098
0.31568627 0.31568627 0.31568627
0.36470588 0.36470588 0.36470588
0.41372549 0.41372549 0.41372549
0.45882353 0.45882353 0.45882353
0.49852941 0.49852941 0.49852941
0.5254902 0.5254902 0.5254902
0.037745098 0.037745098 0.037745098
0.03627451 0.03627451 0.03627451
0.035661765 0.035661765 0.035661765
0.03627451 0.03627451 0.03627451
0.041421569 0.041421569 0.041421569
0.04442402 0.04442402 0.04442402
0.048039216 0.048039216 0.048039216
0.048958333 0.048958333 0.048958333
0.055882353 0.055882353 0.055882353
0.075 0.075 0.075
0.097058824 0.097058824 0.097058824
0.11764706 0.11764706 0.11764706
0.13553922 0.13553922 0.13553922
0.15079657 0.15079657 0.15079657
0.17009804 0.17009804 0.17009804
0.19754902 0.19754902 0.19754902
0.23627451 0.23627451 0.23627451
0.26568627 0.26568627 0.26568627
0.29301471 0.29301471 0.29301471
0.33002451 0.33002451 0.33002451
0.375 0.375 0.375
0.42273284 0.42273284 0.42273284
0.46519608 0.46519608 0.46519608
0.50490196 0.50490196 0.50490196
0.5254902 0.5254902 0.5254902
0.052941176 0.052941176 0.052941176
0.052941176 0.052941176 0.052941176
0.052941176 0.052941176 0.052941176
0.056862745 0.056862745 0.056862745
0.063235294 0.063235294 0.063235294
0.06875 0.06875 0.06875
0.07254902 0.07254902 0.07254902
0.076838235 0.076838235 0.076838235
0.085294118 0.085294118 0.085294118
0.10526961 0.10526961 0.10526961
0.12254902 0.12254902 0.12254902
0.14313725 0.14313725 0.14313725
0.16323529 0.16323529 0.16323529
0.18039216 0.18039216 0.18039216
0.20098039 0.20098039 0.20098039
0.22904412 0.22904412 0.22904412
0.26568627 0.26568627 0.26568627
0.29411765 0.29411765 0.29411765
0.32254902 0.32254902 0.32254902
0.35441176 0.35441176 0.35441176
0.39411765 0.39411765 0.39411765
0.43835784 0.43835784 0.43835784
0.47965686 0.47965686 0.47965686
0.50980392 0.50980392 0.50980392
0.52647059 0.52647059 0.52647059
0.069607843 0.069607843 0.069607843
0.069607843 0.069607843 0.069607843
0.073529412 0.073529412 0.073529412
0.080453431 0.080453431 0.080453431
0.087009804 0.087009804 0.087009804
0.092708333 0.092708333 0.092708333
0.096936275 0.096936275 0.096936275
0.10226716 0.10226716 0.10226716
0.1127451 0.1127451 0.1127451
0.13284314 0.13284314 0.13284314
0.15343137 0.15343137 0.15343137
0.17101716 0.17101716 0.17101716
0.19068627 0.19068627 0.19068627
0.21127451 0.21127451 0.21127451
0.23566176 0.23566176 0.23566176
0.26176471 0.26176471 0.26176471
0.29656863 0.29656863 0.29656863
0.32352941 0.32352941 0.32352941
0.3504902 0.3504902 0.3504902
0.38529412 0.38529412 0.38529412
0.41642157 0.41642157 0.41642157
0.45588235 0.45588235 0.45588235
0.49448529 0.49448529 0.49448529
0.51666667 0.51666667 0.51666667
0.53284314 0.53284314 0.53284314
0.082352941 0.082352941 0.082352941
0.085539216 0.085539216 0.085539216
0.095098039 0.095098039 0.095098039
0.10171569 0.10171569 0.10171569
0.10882353 0.10882353 0.10882353
0.11421569 0.11421569 0.11421569
0.12058824 0.12058824 0.12058824
0.12696078 0.12696078 0.12696078
0.14117647 0.14117647 0.14117647
0.15980392 0.15980392 0.15980392
0.18039216 0.18039216 0.18039216
0.20098039 0.20098039 0.20098039
0.22254902 0.22254902 0.22254902
0.24607843 0.24607843 0.24607843
0.27009804 0.27009804 0.27009804
0.29583333 0.29583333 0.29583333
0.32745098 0.32745098 0.32745098
0.35441176 0.35441176 0.35441176
0.38529412 0.38529412 0.38529412
0.41617647 0.41617647 0.41617647
0.44705882 0.44705882 0.44705882
0.47818627 0.47818627 0.47818627
0.50735294 0.50735294 0.50735294
0.53039216 0.53039216 0.53039216
0.54509804 0.54509804 0.54509804
0.097058824 0.097058824 0.097058824
0.11060049 0.11060049 0.11060049
0.1245098 0.1245098 0.1245098
0.13094363 0.13094363 0.13094363
0.13921569 0.13921569 0.13921569
0.14705882 0.14705882 0.14705882
0.15098039 0.15098039 0.15098039
0.15814951 0.15814951 0.15814951
0.1745098 0.1745098 0.1745098
0.19117647 0.19117647 0.19117647
0.21176471 0.21176471 0.21176471
0.23578431 0.23578431 0.23578431
0.25637255 0.25637255 0.25637255
0.28088235 0.28088235 0.28088235
0.30441176 0.30441176 0.30441176
0.32775735 0.32775735 0.32775735
0.35833333 0.35833333 0.35833333
0.38529412 0.38529412 0.38529412
0.41617647 0.41617647 0.41617647
0.44705882 0.44705882 0.44705882
0.47794118 0.47794118 0.47794118
0.50882353 0.50882353 0.50882353
0.53578431 0.53578431 0.53578431
0.56127451 0.56127451 0.56127451
0.57401961 0.57401961 0.57401961
0.15196078 0.15196078 0.15196078
0.15833333 0.15833333 0.15833333
0.16789216 0.16789216 0.16789216
0.17598039 0.17598039 0.17598039
0.18235294 0.18235294 0.18235294
0.18860294 0.18860294 0.18860294
0.19509804 0.19509804 0.19509804
0.20477941 0.20477941 0.20477941
0.21862745 0.21862745 0.21862745
0.23235294 0.23235294 0.23235294
0.24901961 0.24901961 0.24901961
0.26960784 0.26960784 0.26960784
0.29068627 0.29068627 0.29068627
0.31176471 0.31176471 0.31176471
0.33602941 0.33602941 0.33602941
0.36078431 0.36078431 0.36078431
0.38921569 0.38921569 0.38921569
0.41617647 0.41617647 0.41617647
0.44705882 0.44705882 0.44705882
0.47794118 0.47794118 0.47794118
0.50588235 0.50588235 0.50588235
0.53578431 0.53578431 0.53578431
0.56666667 0.56666667 0.56666667
0.59215686 0.59215686 0.59215686
0.60882353 0.60882353 0.60882353
0.20735294 0.20735294 0.20735294
0.2088848 0.2088848 0.2088848
0.21409314 0.21409314 0.21409314
0.22107843 0.22107843 0.22107843
0.22745098 0.22745098 0.22745098
0.23529412 0.23529412 0.23529412
0.24056373 0.24056373 0.24056373
0.25104167 0.25104167 0.25104167
0.26470588 0.26470588 0.26470588
0.27800245 0.27800245 0.27800245
0.29313725 0.29313725 0.29313725
0.30863971 0.30863971 0.30863971
0.32745098 0.32745098 0.32745098
0.34656863 0.34656863 0.34656863
0.36862745 0.36862745 0.36862745
0.39313725 0.39313725 0.39313725
0.42009804 0.42009804 0.42009804
0.44761029 0.44761029 0.44761029
0.47794118 0.47794118 0.47794118
0.50520833 0.50520833 0.50520833
0.53431373 0.53431373 0.53431373
0.5627451 0.5627451 0.5627451
0.59215686 0.59215686 0.59215686
0.62156863 0.62156863 0.62156863
0.64215686 0.64215686 0.64215686
0.25490196 0.25490196 0.25490196
0.25490196 0.25490196 0.25490196
0.25882353 0.25882353 0.25882353
0.26617647 0.26617647 0.26617647
0.27254902 0.27254902 0.27254902
0.27892157 0.27892157 0.27892157
0.28529412 0.28529412 0.28529412
0.29705882 0.29705882 0.29705882
0.30980392 0.30980392 0.30980392
0.32401961 0.32401961 0.32401961
0.33823529 0.33823529 0.33823529
0.35245098 0.35245098 0.35245098
0.36862745 0.36862745 0.36862745
0.38529412 0.38529412 0.38529412
0.40588235 0.40588235 0.40588235
0.42647059 0.42647059 0.42647059
0.45098039 0.45098039 0.45098039
0.47941176 0.47941176 0.47941176
0.50490196 0.50490196 0.50490196
0.53235294 0.53235294 0.53235294
0.55882353 0.55882353 0.55882353
0.58578431 0.58578431 0.58578431
0.6127451 0.6127451 0.6127451
0.63823529 0.63823529 0.63823529
0.65882353 0.65882353 0.65882353
0.30245098 0.30245098 0.30245098
0.30245098 0.30245098 0.30245098
0.30392157 0.30392157 0.30392157
0.30784314 0.30784314 0.30784314
0.31495098 0.31495098 0.31495098
0.32254902 0.32254902 0.32254902
0.33284314 0.33284314 0.33284314
0.34552696 0.34552696 0.34552696
0.35882353 0.35882353 0.35882353
0.37248775 0.37248775 0.37248775
0.38615196 0.38615196 0.38615196
0.4 0.4 0.4
0.41495098 0.41495098 0.41495098
0.43020833 0.43020833 0.43020833
0.44705882 0.44705882 0.44705882
0.46372549 0.46372549 0.46372549
0.48578431 0.48578431 0.48578431
0.50729167 0.50729167 0.50729167
0.52879902 0.52879902 0.52879902
0.55294118 0.55294118 0.55294118
0.57818627 0.57818627 0.57818627
0.60373775 0.60373775 0.60373775
0.62977941 0.62977941 0.62977941
0.65490196 0.65490196 0.65490196
0.67156863 0.67156863 0.67156863
0.34607843 0.34607843 0.34607843
0.34607843 0.34607843 0.34607843
0.34901961 0.34901961 0.34901961
0.35257353 0.35257353 0.35257353
0.35980392 0.35980392 0.35980392
0.37009804 0.37009804 0.37009804
0.38039216 0.38039216 0.38039216
0.3939951 0.3939951 0.3939951
0.40490196 0.40490196 0.40490196
0.41911765 0.41911765 0.41911765
0.43333333 0.43333333 0.43333333
0.44742647 0.44742647 0.44742647
0.46127451 0.46127451 0.46127451
0.4754902 0.4754902 0.4754902
0.48921569 0.48921569 0.48921569
0.50245098 0.50245098 0.50245098
0.51176471 0.51176471 0.51176471
0.52843137 0.52843137 0.52843137
0.54901961 0.54901961 0.54901961
0.57303922 0.57303922 0.57303922
0.59558824 0.59558824 0.59558824
0.62169118 0.62169118 0.62169118
0.64681373 0.64681373 0.64681373
0.67058824 0.67058824 0.67058824
0.6872549 0.6872549 0.6872549
0.39362745 0.39362745 0.39362745
0.39362745 0.39362745 0.39362745
0.39497549 0.39497549 0.39497549
0.40098039 0.40098039 0.40098039
0.40759804 0.40759804 0.40759804
0.41764706 0.41764706 0.41764706
0.4310049 0.4310049 0.4310049
0.44215686 0.44215686 0.44215686
0.45294118 0.45294118 0.45294118
0.46666667 0.46666667 0.46666667
0.47830882 0.47830882 0.47830882
0.49166667 0.49166667 0.49166667
0.50588235 0.50588235 0.50588235
0.52009804 0.52009804 0.52009804
0.52781863 0.52781863 0.52781863
0.53333333 0.53333333 0.53333333
0.53970588 0.53970588 0.53970588
0.55294118 0.55294118 0.55294118
0.57303922 0.57303922 0.57303922
0.59411765 0.59411765 0.59411765
0.61470588 0.61470588 0.61470588
0.63921569 0.63921569 0.63921569
0.66372549 0.66372549 0.66372549
0.68480392 0.68480392 0.68480392
0.70147059 0.70147059 0.70147059
0.44117647 0.44117647 0.44117647
0.44240196 0.44240196 0.44240196
0.44509804 0.44509804 0.44509804
0.45245098 0.45245098 0.45245098
0.45882353 0.45882353 0.45882353
0.46911765 0.46911765 0.46911765
0.47941176 0.47941176 0.47941176
0.49362745 0.49362745 0.49362745
0.50392157 0.50392157 0.50392157
0.51421569 0.51421569 0.51421569
0.52254902 0.52254902 0.52254902
0.53651961 0.53651961 0.53651961
0.54705882 0.54705882 0.54705882
0.55710784 0.55710784 0.55710784
0.5627451 0.5627451 0.5627451
0.56544118 0.56544118 0.56544118
0.57058824 0.57058824 0.57058824
0.58088235 0.58088235 0.58088235
0.59803922 0.59803922 0.59803922
0.61862745 0.61862745 0.61862745
0.63921569 0.63921569 0.63921569
0.66176471 0.66176471 0.66176471
0.68431373 0.68431373 0.68431373
0.70490196 0.70490196 0.70490196
0.72156863 0.72156863 0.72156863
0.49264706 0.49264706 0.49264706
0.49264706 0.49264706 0.49264706
0.49656863 0.49656863 0.49656863
0.50392157 0.50392157 0.50392157
0.51029412 0.51029412 0.51029412
0.52058824 0.52058824 0.52058824
0.53088235 0.53088235 0.53088235
0.54332108 0.54332108 0.54332108
0.55147059 0.55147059 0.55147059
0.56127451 0.56127451 0.56127451
0.56764706 0.56764706 0.56764706
0.57794118 0.57794118 0.57794118
0.5879902 0.5879902 0.5879902
0.59362745 0.59362745 0.59362745
0.59669118 0.59669118 0.59669118
0.59754902 0.59754902 0.59754902
0.60147059 0.60147059 0.60147059
0.60998775 0.60998775 0.60998775
0.62647059 0.62647059 0.62647059
0.64362745 0.64362745 0.64362745
0.66764706 0.66764706 0.66764706
0.68823529 0.68823529 0.68823529
0.70882353 0.70882353 0.70882353
0.72579657 0.72579657 0.72579657
0.73823529 0.73823529 0.73823529
0.54019608 0.54019608 0.54019608
0.54301471 0.54301471 0.54301471
0.54901961 0.54901961 0.54901961
0.5557598 0.5557598 0.5557598
0.56176471 0.56176471 0.56176471
0.57169118 0.57169118 0.57169118
0.57941176 0.57941176 0.57941176
0.58578431 0.58578431 0.58578431
0.59607843 0.59607843 0.59607843
0.60245098 0.60245098 0.60245098
0.6127451 0.6127451 0.6127451
0.61911765 0.61911765 0.61911765
0.62598039 0.62598039 0.62598039
0.62757353 0.62757353 0.62757353
0.62843137 0.62843137 0.62843137
0.6317402 0.6317402 0.6317402
0.63235294 0.63235294 0.63235294
0.63982843 0.63982843 0.63982843
0.65392157 0.65392157 0.65392157
0.6745098 0.6745098 0.6745098
0.69509804 0.69509804 0.69509804
0.71531863 0.71531863 0.71531863
0.73333333 0.73333333 0.73333333
0.74852941 0.74852941 0.74852941
0.75882353 0.75882353 0.75882353
0.58627451 0.58627451 0.58627451
0.58927696 0.58927696 0.58927696
0.59901961 0.59901961 0.59901961
0.60557598 0.60557598 0.60557598
0.60588235 0.60588235 0.60588235
0.61011029 0.61011029 0.61011029
0.61666667 0.61666667 0.61666667
0.6254902 0.6254902 0.6254902
0.63333333 0.63333333 0.63333333
0.64215686 0.64215686 0.64215686
0.65 0.65 0.65
0.65882353 0.65882353 0.65882353
0.66004902 0.66004902 0.66004902
0.66109069 0.66109069 0.66109069
0.66323529 0.66323529 0.66323529
0.66378676 0.66378676 0.66378676
0.66715686 0.66715686 0.66715686
0.67352941 0.67352941 0.67352941
0.68382353 0.68382353 0.68382353
0.70147059 0.70147059 0.70147059
0.72205882 0.72205882 0.72205882
0.74117647 0.74117647 0.74117647
0.75784314 0.75784314 0.75784314
0.76911765 0.76911765 0.76911765
0.7754902 0.7754902 0.7754902
0.63137255 0.63137255 0.63137255
0.63529412 0.63529412 0.63529412
0.64313725 0.64313725 0.64313725
0.64656863 0.64656863 0.64656863
0.64705882 0.64705882 0.64705882
0.64705882 0.64705882 0.64705882
0.65098039 0.65098039 0.65098039
0.66029412 0.66029412 0.66029412
0.66666667 0.66666667 0.66666667
0.67696078 0.67696078 0.67696078
0.68333333 0.68333333 0.68333333
0.68970588 0.68970588 0.68970588
0.69411765 0.69411765 0.69411765
0.69411765 0.69411765 0.69411765
0.69705882 0.69705882 0.69705882
0.69803922 0.69803922 0.69803922
0.70196078 0.70196078 0.70196078
0.70588235 0.70588235 0.70588235
0.71470588 0.71470588 0.71470588
0.73235294 0.73235294 0.73235294
0.74901961 0.74901961 0.74901961
0.76519608 0.76519608 0.76519608
0.77941176 0.77941176 0.77941176
0.78970588 0.78970588 0.78970588
0.79607843 0.79607843 0.79607843
0.67647059 0.67647059 0.67647059
0.67984069 0.67984069 0.67984069
0.68431373 0.68431373 0.68431373
0.68431373 0.68431373 0.68431373
0.68504902 0.68504902 0.68504902
0.68578431 0.68578431 0.68578431
0.68762255 0.68762255 0.68762255
0.69362745 0.69362745 0.69362745
0.70147059 0.70147059 0.70147059
0.70876225 0.70876225 0.70876225
0.71715686 0.71715686 0.71715686
0.72107843 0.72107843 0.72107843
0.72377451 0.72377451 0.72377451
0.725 0.725 0.725
0.72892157 0.72892157 0.72892157
0.73192402 0.73192402 0.73192402
0.73676471 0.73676471 0.73676471
0.74068627 0.74068627 0.74068627
0.74742647 0.74742647 0.74742647
0.75980392 0.75980392 0.75980392
0.7754902 0.7754902 0.7754902
0.78970588 0.78970588 0.78970588
0.8 0.8 0.8
0.80637255 0.80637255 0.80637255
0.81421569 0.81421569 0.81421569
0.72156863 0.72156863 0.72156863
0.72156863 0.72156863 0.72156863
0.72156863 0.72156863 0.72156863
0.72156863 0.72156863 0.72156863
0.725 0.725 0.725
0.7254902 0.7254902 0.7254902
0.7254902 0.7254902 0.7254902
0.72843137 0.72843137 0.72843137
0.73627451 0.73627451 0.73627451
0.74264706 0.74264706 0.74264706
0.74803922 0.74803922 0.74803922
0.75196078 0.75196078 0.75196078
0.75392157 0.75392157 0.75392157
0.75588235 0.75588235 0.75588235
0.75980392 0.75980392 0.75980392
0.76372549 0.76372549 0.76372549
0.76764706 0.76764706 0.76764706
0.77156863 0.77156863 0.77156863
0.77941176 0.77941176 0.77941176
0.78933824 0.78933824 0.78933824
0.8 0.8 0.8
0.81017157 0.81017157 0.81017157
0.81666667 0.81666667 0.81666667
0.82696078 0.82696078 0.82696078
0.83333333 0.83333333 0.83333333
0.75539216 0.75539216 0.75539216
0.75753676 0.75753676 0.75753676
0.75894608 0.75894608 0.75894608
0.76231618 0.76231618 0.76231618
0.7627451 0.7627451 0.7627451
0.76323529 0.76323529 0.76323529
0.76323529 0.76323529 0.76323529
0.76452206 0.76452206 0.76452206
0.77058824 0.77058824 0.77058824
0.775 0.775 0.775
0.77892157 0.77892157 0.77892157
0.78241422 0.78241422 0.78241422
0.78480392 0.78480392 0.78480392
0.78676471 0.78676471 0.78676471
0.79068627 0.79068627 0.79068627
0.79460784 0.79460784 0.79460784
0.79852941 0.79852941 0.79852941
0.80245098 0.80245098 0.80245098
0.8064951 0.8064951 0.8064951
0.81072304 0.81072304 0.81072304
0.82058824 0.82058824 0.82058824
0.83039216 0.83039216 0.83039216
0.8372549 0.8372549 0.8372549
0.84754902 0.84754902 0.84754902
0.85392157 0.85392157 0.85392157
0.79019608 0.79019608 0.79019608
0.79019608 0.79019608 0.79019608
0.79264706 0.79264706 0.79264706
0.79583333 0.79583333 0.79583333
0.79803922 0.79803922 0.79803922
0.8 0.8 0.8
0.80147059 0.80147059 0.80147059
0.80196078 0.80196078 0.80196078
0.80196078 0.80196078 0.80196078
0.80588235 0.80588235 0.80588235
0.80980392 0.80980392 0.80980392
0.81323529 0.81323529 0.81323529
0.81372549 0.81372549 0.81372549
0.81764706 0.81764706 0.81764706
0.82156863 0.82156863 0.82156863
0.82303922 0.82303922 0.82303922
0.8254902 0.8254902 0.8254902
0.82941176 0.82941176 0.82941176
0.83137255 0.83137255 0.83137255
0.83504902 0.83504902 0.83504902
0.84117647 0.84117647 0.84117647
0.85098039 0.85098039 0.85098039
0.85784314 0.85784314 0.85784314
0.86813725 0.86813725 0.86813725
0.8745098 0.8745098 0.8745098
0.82156863 0.82156863 0.82156863
0.825 0.825 0.825
0.82892157 0.82892157 0.82892157
0.82935049 0.82935049 0.82935049
0.83284314 0.83284314 0.83284314
0.83284314 0.83284314 0.83284314
0.83284314 0.83284314 0.83284314
0.83431373 0.83431373 0.83431373
0.83676471 0.83676471 0.83676471
0.83676471 0.83676471 0.83676471
0.84068627 0.84068627 0.84068627
0.84068627 0.84068627 0.84068627
0.84460784 0.84460784 0.84460784
0.84810049 0.84810049 0.84810049
0.84852941 0.84852941 0.84852941
0.85214461 0.85214461 0.85214461
0.85245098 0.85245098 0.85245098
0.85588235 0.85588235 0.85588235
0.85588235 0.85588235 0.85588235
0.859375 0.859375 0.859375
0.86397059 0.86397059 0.86397059
0.87205882 0.87205882 0.87205882
0.87843137 0.87843137 0.87843137
0.88872549 0.88872549 0.88872549
0.89509804 0.89509804 0.89509804
0.85588235 0.85588235 0.85588235
0.85943627 0.85943627 0.85943627
0.86053922 0.86053922 0.86053922
0.86372549 0.86372549 0.86372549
0.86372549 0.86372549 0.86372549
0.86372549 0.86372549 0.86372549
0.86372549 0.86372549 0.86372549
0.86372549 0.86372549 0.86372549
0.86372549 0.86372549 0.86372549
0.86654412 0.86654412 0.86654412
0.86764706 0.86764706 0.86764706
0.87120098 0.87120098 0.87120098
0.87205882 0.87205882 0.87205882
0.8754902 0.8754902 0.8754902
0.87622549 0.87622549 0.87622549
0.87757353 0.87757353 0.87757353
0.87941176 0.87941176 0.87941176
0.88039216 0.88039216 0.88039216
0.88039216 0.88039216 0.88039216
0.88296569 0.88296569 0.88296569
0.8877451 0.8877451 0.8877451
0.89264706 0.89264706 0.89264706
0.8997549 0.8997549 0.8997549
0.90931373 0.90931373 0.90931373
0.91568627 0.91568627 0.91568627
0.89068627 0.89068627 0.89068627
0.89068627 0.89068627 0.89068627
0.89068627 0.89068627 0.89068627
0.89068627 0.89068627 0.89068627
0.88921569 0.88921569 0.88921569
0.88921569 0.88921569 0.88921569
0.88921569 0.88921569 0.88921569
0.88921569 0.88921569 0.88921569
0.88921569 0.88921569 0.88921569
0.8901348 0.8901348 0.8901348
0.89313725 0.89313725 0.89313725
0.89442402 0.89442402 0.89442402
0.89705882 0.89705882 0.89705882
0.89883578 0.89883578 0.89883578
0.90098039 0.90098039 0.90098039
0.90098039 0.90098039 0.90098039
0.90098039 0.90098039 0.90098039
0.90098039 0.90098039 0.90098039
0.90098039 0.90098039 0.90098039
0.90490196 0.90490196 0.90490196
0.90882353 0.90882353 0.90882353
0.91323529 0.91323529 0.91323529
0.92058824 0.92058824 0.92058824
0.92751225 0.92751225 0.92751225
0.93235294 0.93235294 0.93235294
0.92156863 0.92156863 0.92156863
0.91519608 0.91519608 0.91519608
0.9127451 0.9127451 0.9127451
0.90980392 0.90980392 0.90980392
0.90784314 0.90784314 0.90784314
0.90588235 0.90588235 0.90588235
0.90588235 0.90588235 0.90588235
0.90588235 0.90588235 0.90588235
0.90588235 0.90588235 0.90588235
0.90980392 0.90980392 0.90980392
0.90980392 0.90980392 0.90980392
0.91372549 0.91372549 0.91372549
0.91372549 0.91372549 0.91372549
0.91764706 0.91764706 0.91764706
0.91764706 0.91764706 0.91764706
0.91764706 0.91764706 0.91764706
0.91764706 0.91764706 0.91764706
0.91764706 0.91764706 0.91764706
0.91764706 0.91764706 0.91764706
0.92107843 0.92107843 0.92107843
0.9254902 0.9254902 0.9254902
0.92990196 0.92990196 0.92990196
0.93627451 0.93627451 0.93627451
0.94264706 0.94264706 0.94264706
0.94901961 0.94901961 0.94901961
0.023529412 0.023529412 0.023529412
0.021078431 0.021078431 0.021078431
0.019607843 0.019607843 0.019607843
0.017156863 0.017156863 0.017156863
0.021568627 0.021568627 0.021568627
0.02745098 0.02745098 0.02745098
0.031004902 0.031004902 0.031004902
0.031740196 0.031740196 0.031740196
0.03627451 0.03627451 0.03627451
0.057781863 0.057781863 0.057781863
0.080392157 0.080392157 0.080392157
0.10098039 0.10098039 0.10098039
0.11568627 0.11568627 0.11568627
0.12990196 0.12990196 0.12990196
0.1435049 0.1435049 0.1435049
0.17205882 0.17205882 0.17205882
0.21176471 0.21176471 0.21176471
0.2411152 0.2411152 0.2411152
0.27058824 0.27058824 0.27058824
0.31568627 0.31568627 0.31568627
0.36593137 0.36593137 0.36593137
0.41403186 0.41403186 0.41403186
0.45882353 0.45882353 0.45882353
0.5 0.5 0.5
0.52941176 0.52941176 0.52941176
0.03682598 0.03682598 0.03682598
0.03627451 0.03627451 0.03627451
0.03359375 0.03359375 0.03359375
0.034980086 0.034980086 0.034980086
0.03973652 0.03973652 0.03973652
0.045948223 0.045948223 0.045948223
0.050260417 0.050260417 0.050260417
0.053492647 0.053492647 0.053492647
0.060784314 0.060784314 0.060784314
0.081372549 0.081372549 0.081372549
0.10042892 0.10042892 0.10042892
0.12021293 0.12021293 0.12021293
0.13599877 0.13599877 0.13599877
0.14980086 0.14980086 0.14980086
0.16631434 0.16631434 0.16631434
0.19754902 0.19754902 0.19754902
0.23480392 0.23480392 0.23480392
0.26415441 0.26415441 0.26415441
0.29264706 0.29264706 0.29264706
0.3292356 0.3292356 0.3292356
0.37622549 0.37622549 0.37622549
0.42421109 0.42421109 0.42421109
0.4683364 0.4683364 0.4683364
0.50524663 0.50524663 0.50524663
0.52794118 0.52794118 0.52794118
0.052941176 0.052941176 0.052941176
0.052941176 0.052941176 0.052941176
0.053094363 0.053094363 0.053094363
0.057398897 0.057398897 0.057398897
0.063235294 0.063235294 0.063235294
0.069653799 0.069653799 0.069653799
0.075367647 0.075367647 0.075367647
0.082061887 0.082061887 0.082061887
0.091666667 0.091666667 0.091666667
0.1088848 0.1088848 0.1088848
0.12876838 0.12876838 0.12876838
0.14673713 0.14673713 0.14673713
0.16268382 0.16268382 0.16268382
0.18002451 0.18002451 0.18002451
0.20098039 0.20098039 0.20098039
0.22866115 0.22866115 0.22866115
0.26568627 0.26568627 0.26568627
0.29375 0.29375 0.29375
0.3200674 0.3200674 0.3200674
0.35441176 0.35441176 0.35441176
0.39411765 0.39411765 0.39411765
0.44166667 0.44166667 0.44166667
