site/assets/luts/natron-haldclut--fuji-superia-100--d21a1abb8.cube
# LUTr-Project: LUTr — LUTrepository
# LUTr-Schema-Version: 1
# LUTr-ID: natron-haldclut--fuji-superia-100--d21a1abb8
# LUTr-Title: fuji superia 100 +
# LUTr-Collection: Natron HaldCLUT
# LUTr-Collection-ID: natron-haldclut-presets
# LUTr-Source: https://github.com/NatronGitHub/clut
# LUTr-Source-File: submissions/natron-haldclut-presets/negative_old/fuji_superia_100_+.png
# LUTr-Source-Format: PNG
# LUTr-Source-SHA256: ad9b2fe8cd97ef069380880f49834ac27d34a69fda8de9e3a2bccf91d50e068c
# LUTr-License: CC-BY-SA-4.0
# LUTr-License-URL: https://github.com/NatronGitHub/clut#license
# LUTr-Tags: creative, film, film-emulation, hald-clut, natron, png, cube
# LUTr-Transform-Class: film-emulation
# LUTr-Input-Color-Space: srgb
# LUTr-Output-Color-Space: srgb
# LUTr-Color-Space-Confidence: assumed-display-referred
# LUTr-Conversion-Method: PNG LUT image decoded at 16-bit and sampled to 25x25x25 3D CUBE
# LUTr-Conversion-Date: 2026-07-27
# LUTr-Conversion-Tool: LUTr scripts/convert-all-to-cube.mjs
# LUTr-Conversion-Grid: 25x25x25
# LUTr-Note: Preserve this metadata and the upstream license notices when redistributing.
TITLE "fuji superia 100 +"
LUT_3D_SIZE 5
DOMAIN_MIN 0 0 0
DOMAIN_MAX 1 1 1
0.0039215686 0.050980392 0.066666667
0.1372549 0.081372549 0.037254902
0.51372549 0.02745098 0.017647059
0.81176471 0.098039216 0
1 0.16862745 0
0 0.24509804 0.084313725
0.11470588 0.24901961 0.037254902
0.58235294 0.29313725 0
0.82720588 0.29803922 0.0029411765
1 0.32156863 0
0 0.62745098 0.18823529
0.0039215686 0.61764706 0.17941176
0.51568627 0.58039216 0.054901961
0.83921569 0.56519608 0.0039215686
0.99607843 0.55686275 0.0039215686
0.02745098 0.85 0.45490196
0.17254902 0.84901961 0.45098039
0.47352941 0.83872549 0.41960784
0.7754902 0.81470588 0.32720588
0.97647059 0.80686275 0.23333333
0.57254902 0.98823529 0.70980392
0.57254902 0.98039216 0.69509804
0.66078431 0.98823529 0.71176471
0.77058824 0.98431373 0.6745098
0.91764706 0.98431373 0.65098039
0 0.028431373 0.24607843
0.17745098 0.019607843 0.25
0.53235294 0.0039215686 0.22647059
0.82181373 0.0039215686 0.17843137
0.99215686 0.016666667 0.14411765
0.0039215686 0.24117647 0.28308824
0.1875 0.24289216 0.26783088
0.57352941 0.2254902 0.22058824
0.82720588 0.2245098 0.18455882
0.98848039 0.26372549 0.13848039
0.078921569 0.6122549 0.4
0.15379902 0.60882353 0.37634804
0.5504902 0.58382353 0.31078431
0.84117647 0.55686275 0.21997549
0.99607843 0.54509804 0.15980392
0.32058824 0.83602941 0.54828431
0.37947304 0.84552696 0.54509804
0.55551471 0.83872549 0.53235294
0.79117647 0.815625 0.44387255
0.98235294 0.80392157 0.38063725
0.63039216 0.99215686 0.74803922
0.64436275 0.98823529 0.74803922
0.69852941 0.99068627 0.75686275
0.79411765 0.98823529 0.73137255
0.90392157 0.98137255 0.68627451
0 0 0.61372549
0.25245098 0.010294118 0.61960784
0.59803922 0.0029411765 0.59019608
0.84264706 0 0.5127451
0.99411765 0.0058823529 0.45882353
0.00049019608 0.24313725 0.62156863
0.22316176 0.24276961 0.62230392
0.61446078 0.23823529 0.59387255
0.83835784 0.26519608 0.52058824
0.99215686 0.12598039 0.44901961
0.099019608 0.59313725 0.60294118
0.37230392 0.59117647 0.60710784
0.61372549 0.57843137 0.58627451
0.83039216 0.54607843 0.53333333
0.97941176 0.51764706 0.48823529
0.5622549 0.82745098 0.71029412
0.60747549 0.82745098 0.71568627
0.66348039 0.83088235 0.69926471
0.82046569 0.81286765 0.64460784
0.99509804 0.8 0.58284314
0.75686275 0.98627451 0.84313725
0.75 0.97745098 0.83235294
0.7754902 0.98627451 0.82941176
0.83529412 0.98529412 0.81764706
0.93921569 0.97254902 0.76862745
0 0 0.86960784
0.26960784 0.0085784314 0.86960784
0.58921569 0.011764706 0.86176471
0.86348039 0.022303922 0.83823529
0.99607843 0.26764706 0.78137255
0.0078431373 0.24117647 0.86568627
0.28529412 0.24356618 0.8627451
0.59901961 0.26862745 0.8567402
0.86703431 0.32702206 0.83112745
0.99607843 0.40784314 0.78039216
0.042647059 0.55539216 0.84656863
0.34963235 0.56654412 0.84607843
0.61960784 0.58039216 0.84264706
0.85036765 0.58627451 0.82647059
0.99607843 0.59705882 0.78823529
0.50980392 0.81568627 0.84387255
0.56666667 0.82126225 0.8466299
0.69227941 0.81164216 0.85
0.84234069 0.80784314 0.82352941
0.99313725 0.75980392 0.77181373
0.78823529 0.97647059 0.90686275
0.8127451 0.97671569 0.9125
0.85539216 0.97990196 0.92058824
0.90318627 0.98431373 0.92254902
0.97254902 0.99117647 0.89607843
0.16862745 0.011764706 0.99607843
0.31764706 0 0.99607843
0.56862745 0.088235294 1
0.81862745 0.24803922 0.98431373
0.99607843 0.40392157 0.99607843
0.21568627 0.26078431 0.99607843
0.36078431 0.28504902 0.98823529
0.59117647 0.32745098 0.99215686
0.81960784 0.41078431 0.99313725
0.97352941 0.47647059 0.99607843
0.35882353 0.56078431 0.99607843
0.45 0.56666667 0.99607843
0.63529412 0.58431373 0.98431373
0.83431373 0.61617647 0.99362745
0.99607843 0.65686275 0.99215686
0.4754902 0.77745098 0.98921569
0.5245098 0.77647059 0.98651961
0.68627451 0.79117647 0.98137255
0.85171569 0.81568627 0.99142157
0.98921569 0.83529412 0.98137255
0.76862745 0.98039216 0.96470588
0.79509804 0.97647059 0.95784314
0.8372549 0.98431373 0.98627451
0.91078431 0.97843137 0.98333333
0.99215686 0.97254902 0.99215686
