site/assets/luts/natron-haldclut--zilverfx-infrared--e6c764718.cube
# LUTr-Project: LUTr — LUTrepository
# LUTr-Schema-Version: 1
# LUTr-ID: natron-haldclut--zilverfx-infrared--e6c764718
# LUTr-Title: zilverfx infrared
# LUTr-Collection: Natron HaldCLUT
# LUTr-Collection-ID: natron-haldclut-presets
# LUTr-Source: https://github.com/NatronGitHub/clut
# LUTr-Source-File: submissions/natron-haldclut-presets/picturefx/zilverfx_infrared.png
# LUTr-Source-Format: PNG
# LUTr-Source-SHA256: 7f66fec3ffadd607d8af04d9f2fef9a64fc5202aecdf813b6dde7d92842272f9
# LUTr-License: CC-BY-SA-4.0
# LUTr-License-URL: https://github.com/NatronGitHub/clut#license
# LUTr-Tags: creative, film, film-emulation, hald-clut, natron, png, cube
# LUTr-Transform-Class: film-emulation
# LUTr-Input-Color-Space: srgb
# LUTr-Output-Color-Space: srgb
# LUTr-Color-Space-Confidence: assumed-display-referred
# LUTr-Conversion-Method: PNG LUT image decoded at 16-bit and sampled to 25x25x25 3D CUBE
# LUTr-Conversion-Date: 2026-07-27
# LUTr-Conversion-Tool: LUTr scripts/convert-all-to-cube.mjs
# LUTr-Conversion-Grid: 25x25x25
# LUTr-Note: Preserve this metadata and the upstream license notices when redistributing.
TITLE "zilverfx infrared"
LUT_3D_SIZE 9
DOMAIN_MIN 0 0 0
DOMAIN_MAX 1 1 1
0.058823529 0.058823529 0.058823529
0.066666667 0.066666667 0.066666667
0.084313725 0.084313725 0.084313725
0.065196078 0.065196078 0.065196078
0.16470588 0.16470588 0.16470588
0.27892157 0.27892157 0.27892157
0.35784314 0.35784314 0.35784314
0.37696078 0.37696078 0.37696078
0.4 0.4 0.4
0.081372549 0.081372549 0.081372549
0.12310049 0.12310049 0.12310049
0.13051471 0.13051471 0.13051471
0.15116422 0.15116422 0.15116422
0.13602941 0.13602941 0.13602941
0.27647059 0.27647059 0.27647059
0.33223039 0.33223039 0.33223039
0.36176471 0.36176471 0.36176471
0.40833333 0.40833333 0.40833333
0.24607843 0.24607843 0.24607843
0.24313725 0.24313725 0.24313725
0.29509804 0.29509804 0.29509804
0.34901961 0.34901961 0.34901961
0.37647059 0.37647059 0.37647059
0.43688725 0.43688725 0.43688725
0.38627451 0.38627451 0.38627451
0.32156863 0.32156863 0.32156863
0.39019608 0.39019608 0.39019608
0.62598039 0.62598039 0.62598039
0.60998775 0.60998775 0.60998775
0.63897059 0.63897059 0.64142157
0.70594363 0.70441176 0.70594363
0.77598039 0.7747549 0.77598039
0.84258578 0.84258578 0.84258578
0.8372549 0.83480392 0.8372549
0.85508578 0.85294118 0.85508578
0.88431373 0.88039216 0.88431373
0.98823529 0.98039216 0.98823529
0.97745098 0.97156863 0.97745098
0.95539216 0.95294118 0.95539216
0.97132353 0.96740196 0.97132353
0.95980392 0.95882353 0.95980392
0.95441176 0.95171569 0.95441176
0.98823529 0.98382353 0.98823529
0.96936275 0.96568627 0.96936275
0.97647059 0.97254902 0.97647059
0.99215686 0.99215686 0.99215686
0.97273284 0.97040441 0.97273284
0.95686275 0.95502451 0.95686275
0.97352941 0.97107843 0.97352941
0.96666667 0.96348039 0.96666667
0.9622549 0.95980392 0.9622549
0.98431373 0.98431373 0.98431373
0.98431373 0.9841299 0.98431373
0.97647059 0.97401961 0.97647059
0.98431373 0.98431373 0.98431373
0.97647059 0.97647059 0.97647059
0.96470588 0.9625 0.96470588
0.97107843 0.96862745 0.97107843
0.97254902 0.96862745 0.97254902
0.97291667 0.97254902 0.97291667
0.98039216 0.97941176 0.98039216
0.97647059 0.97512255 0.97647059
0.97156863 0.96862745 0.97156863
0.97647059 0.97647059 0.97647059
0.97647059 0.97647059 0.97647059
0.97254902 0.96997549 0.97254902
0.97254902 0.97254902 0.97254902
0.97303922 0.97254902 0.97303922
0.97254902 0.97254902 0.97254902
0.97254902 0.97254902 0.97254902
0.96862745 0.96862745 0.96862745
0.96470588 0.96470588 0.96470588
0.97647059 0.97254902 0.97647059
0.97598039 0.97254902 0.97598039
0.98039216 0.98039216 0.98039216
0.98431373 0.98431373 0.98431373
0.98039216 0.98039216 0.98039216
0.97254902 0.97254902 0.975
0.97254902 0.96862745 0.97254902
0.96862745 0.96470588 0.96862745
0.96470588 0.96078431 0.96470588
0.015686275 0.015686275 0.015686275
0.016176471 0.016176471 0.016176471
0.046078431 0.046078431 0.046078431
0.042647059 0.042647059 0.042647059
0.13651961 0.13651961 0.13651961
0.28039216 0.28039216 0.28039216
0.35735294 0.35735294 0.35735294
0.36525735 0.36525735 0.36525735
0.40784314 0.40784314 0.40784314
0.0125 0.0125 0.0125
0.030698529 0.030698529 0.030698529
0.062254902 0.062254902 0.062254902
0.071070772 0.071070772 0.071070772
0.13314951 0.13314951 0.13314951
0.29322917 0.29322917 0.29322917
0.3464614 0.3464614 0.3464614
0.36814491 0.36814491 0.36814491
0.39699755 0.39699755 0.39699755
0.24632353 0.24632353 0.24632353
0.24359681 0.24359681 0.24359681
0.30196078 0.30220588 0.30220588
0.33843444 0.33843444 0.33843444
0.38596814 0.38596814 0.38596814
0.35966605 0.35966605 0.35966605
0.3533701 0.3533701 0.3533701
0.36749387 0.36749387 0.36749387
0.33455882 0.33455882 0.33455882
0.61488971 0.61488971 0.61488971
0.63964461 0.63964461 0.63964461
0.64960172 0.65015319 0.65015319
0.69594822 0.69723499 0.69857537
0.76409314 0.76176471 0.76409314
0.79404871 0.79148284 0.79404871
0.87628676 0.87369792 0.87628676
0.84859069 0.84810049 0.84859069
0.89074755 0.89074755 0.89074755
0.98676471 0.98039216 0.98676471
0.97129289 0.96715686 0.97129289
0.96930147 0.96145833 0.96930147
0.97662377 0.9729473 0.97671569
0.96776961 0.96421569 0.96776961
0.97990196 0.97352941 0.97990196
0.9841299 0.98235294 0.9841299
0.97619485 0.97423407 0.97619485
0.97745098 0.96960784 0.97745098
0.98480392 0.98480392 0.98480392
0.96901042 0.9667739 0.96901042
0.96335784 0.95943627 0.96335784
0.97205882 0.96813725 0.97205882
0.97616422 0.97490809 0.97616422
0.98382353 0.98167892 0.98382353
0.98823529 0.98823529 0.98823529
0.98649663 0.98645833 0.98649663
0.97910539 0.97677696 0.97910539
0.97696078 0.97696078 0.97696078
0.97421875 0.97346814 0.97421875
0.96470588 0.96185662 0.96470588
0.96862745 0.96470588 0.96862745
0.97383578 0.97254902 0.97383578
0.97941176 0.97647059 0.97941176
0.97953431 0.97683824 0.97953431
0.97527574 0.97287071 0.97527574
0.9689951 0.96862745 0.9689951
0.97254902 0.97254902 0.97254902
0.97647059 0.97303922 0.97647059
0.97265625 0.97254902 0.97265625
0.97491575 0.97285539 0.97491575
0.97647059 0.97647059 0.97647059
0.97254902 0.97254902 0.97254902
0.97254902 0.9721201 0.97254902
0.96781556 0.96508119 0.96781556
0.96121324 0.96078431 0.96121324
0.97254902 0.96911765 0.97254902
0.97647059 0.97647059 0.97647059
0.98039216 0.98039216 0.98039216
0.9877451 0.98560049 0.9877451
0.98039216 0.98039216 0.98039216
0.975 0.97254902 0.975
0.96862745 0.96862745 0.96862745
0.96427696 0.96121324 0.96470588
0.95735294 0.95686275 0.95735294
0.030392157 0.030392157 0.030392157
0.019607843 0.019607843 0.019607843
0.030392157 0.030392157 0.030392157
0.042034314 0.042034314 0.042034314
0.05245098 0.05245098 0.05245098
0.16813725 0.16813725 0.16813725
0.2745098 0.2745098 0.2745098
0.29852941 0.29852941 0.29852941
0.31372549 0.31372549 0.31372549
0.01875 0.01875 0.01875
0.026960784 0.026960784 0.026960784
0.040196078 0.040196078 0.040196078
0.017723652 0.017723652 0.017723652
0.084007353 0.084007353 0.084007353
0.20994179 0.20994179 0.20994179
0.29460784 0.29460784 0.29460784
0.31813725 0.31813725 0.31813725
0.39166667 0.39166667 0.39166667
0.080392157 0.080392157 0.080392157
0.074693627 0.074693627 0.074693627
0.13008578 0.13008578 0.13008578
0.12604167 0.12604167 0.12683824
0.16446078 0.16446078 0.16446078
0.21976103 0.21976103 0.21976103
0.29895833 0.29895833 0.29895833
0.309375 0.309375 0.309375
0.3370098 0.3370098 0.3370098
0.54779412 0.54779412 0.54779412
0.57936581 0.57936581 0.57936581
0.62622549 0.62622549 0.62622549
0.70200674 0.70223652 0.70223652
0.68511029 0.6838848 0.68511029
0.78520221 0.7841299 0.78520221
0.79963235 0.79972426 0.79972426
0.77942708 0.77942708 0.77942708
0.82598039 0.82598039 0.82598039
0.97843137 0.97009804 0.97843137
0.95839461 0.95441176 0.95839461
0.9872549 0.97671569 0.9872549
0.97647059 0.96973039 0.97647059
0.9879902 0.98112745 0.9879902
0.984375 0.98167892 0.984375
0.98026961 0.97634804 0.98026961
0.98400735 0.9786152 0.98400735
0.9754902 0.97009804 0.9754902
0.96531863 0.96139706 0.96531863
0.96302083 0.96078431 0.96302083
0.96764706 0.96289828 0.96764706
0.96568627 0.96176471 0.96568627
0.975 0.97248775 0.97530637
0.98390012 0.98238358 0.98390012
0.97647059 0.97316176 0.97647059
0.96813725 0.96518076 0.96813725
0.96531863 0.96139706 0.96531863
0.96004902 0.95686275 0.96004902
0.96078431 0.96041667 0.96078431
0.9591299 0.95729167 0.9591299
0.96470588 0.9609375 0.96470588
0.97254902 0.97254902 0.97254902
0.97227328 0.96951593 0.97227328
0.96525735 0.96170343 0.96525735
0.95349265 0.94996936 0.95349265
0.94828431 0.94583333 0.94901961
0.96078431 0.95821078 0.96078431
0.96481311 0.96449142 0.96481311
0.9729473 0.9729473 0.9729473
0.97677696 0.97647059 0.97677696
0.97647059 0.97457108 0.97647059
0.96531863 0.96470588 0.96531863
0.95750613 0.95585172 0.95759804
0.94606311 0.9444087 0.94606311
0.93823529 0.9372549 0.94080882
0.96862745 0.96862745 0.96862745
0.97340686 0.97254902 0.97340686
0.98431373 0.98431373 0.98431373
0.99215686 0.99154412 0.99215686
0.98039216 0.98039216 0.98039216
0.96752451 0.96531863 0.96752451
0.95612745 0.95367647 0.95612745
0.94473039 0.94203431 0.94509804
0.94117647 0.9372549 0.94117647
0.035294118 0.035294118 0.035294118
0.030882353 0.030882353 0.030882353
0.034926471 0.034926471 0.034926471
0.026531863 0.026531863 0.026531863
0.018137255 0.018137255 0.018137255
0.035968137 0.035968137 0.035968137
0.12254902 0.12254902 0.12254902
0.14705882 0.14705882 0.14705882
0.17352941 0.17352941 0.17352941
0.037745098 0.037745098 0.037745098
0.02745098 0.02745098 0.02745098
0.035431985 0.035431985 0.035431985
0.032291667 0.032291667 0.032291667
0.063051471 0.063051471 0.063051471
0.05122549 0.05122549 0.05122549
0.12991728 0.12991728 0.12991728
0.16799173 0.16799173 0.16799173
0.23590686 0.23590686 0.23590686
0.037745098 0.037745098 0.037745098
0.016038603 0.016038603 0.016038603
0.032996324 0.032996324 0.032996324
0.038082108 0.038082108 0.038082108
0.068811275 0.068811275 0.068811275
0.071890319 0.071890319 0.071890319
0.16865809 0.16865809 0.16865809
0.21976103 0.21976103 0.21976103
0.2439951 0.2439951 0.2439951
0.21164216 0.21164216 0.21164216
0.24334406 0.24286152 0.24334406
0.18340993 0.18340993 0.18340993
0.28351716 0.28351716 0.28351716
0.32129289 0.32129289 0.32129289
0.34727328 0.34727328 0.34727328
0.34414828 0.34414828 0.34414828
0.36335784 0.36335784 0.36335784
0.47683824 0.47683824 0.47683824
0.92132353 0.91862745 0.92132353
0.96078431 0.95759804 0.96078431
0.97107843 0.96256127 0.97107843
0.98474265 0.97521446 0.98474265
0.94669118 0.94313725 0.94669118
0.96427696 0.95870098 0.96427696
0.97009804 0.96341912 0.97009804
0.98661152 0.97778799 0.98661152
0.96593137 0.9620098 0.96593137
0.97892157 0.97107843 0.97892157
0.9631204 0.95889246 0.9631204
0.95870098 0.95477941 0.95870098
0.96464461 0.95945925 0.96464461
0.96127451 0.95735294 0.96127451
0.96975337 0.96191023 0.96975337
0.97415748 0.96803002 0.97415748
0.94327512 0.93854933 0.94327512
0.95931373 0.95294118 0.96023284
0.95686275 0.95012255 0.95686275
0.95252757 0.94888174 0.95252757
0.95 0.94791667 0.95
0.96153493 0.95853248 0.96153493
0.97285539 0.96862745 0.97285539
0.96824449 0.96078431 0.96824449
0.96283701 0.95542279 0.96283701
0.92990196 0.92598039 0.92990196
0.93627451 0.93235294 0.93664216
0.95949755 0.95557598 0.95949755
0.95686275 0.9533701 0.95686275
0.96507353 0.96416973 0.96507353
0.98058364 0.97696078 0.98058364
0.97254902 0.96862745 0.97254902
0.96078431 0.95686275 0.96078431
0.95249694 0.94803922 0.95249694
0.93959865 0.93567708 0.93959865
0.93596814 0.93204657 0.93596814
0.96470588 0.96470588 0.96470588
0.96991422 0.96862745 0.96991422
0.9814951 0.98039216 0.9814951
0.98970588 0.98878676 0.98970588
0.97647059 0.9745098 0.97647059
0.96470588 0.96078431 0.96470588
0.95294118 0.95085784 0.95477941
0.94883578 0.94491422 0.94883578
0.94117647 0.9372549 0.94117647
0.047058824 0.049019608 0.047058824
0.035539216 0.035539216 0.035539216
0.047058824 0.047058824 0.047058824
0.039215686 0.039215686 0.039215686
0.038235294 0.038235294 0.038235294
0.033333333 0.033333333 0.033333333
0.025980392 0.025980392 0.025980392
0.0080882353 0.0080882353 0.0080882353
0.0039215686 0.0078431373 0.0078431373
0.047058824 0.047058824 0.047058824
0.028155637 0.028186275 0.028155637
0.053921569 0.053921569 0.053921569
0.047702206 0.047702206 0.047702206
0.045098039 0.045098039 0.045098039
0.033670343 0.033670343 0.033670343
0.027941176 0.027941176 0.027941176
0.028676471 0.028707108 0.028707108
0.054411765 0.054411765 0.054411765
0.033823529 0.033823529 0.033823529
0.036948529 0.036948529 0.036948529
0.045343137 0.045710784 0.045343137
0.043137255 0.043137255 0.043137255
0.039215686 0.039215686 0.039215686
0.045098039 0.045098039 0.045098039
0.020588235 0.020588235 0.020588235
0.019914216 0.019914216 0.019914216
0.012745098 0.012745098 0.012745098
0.027696078 0.027696078 0.027696078
0.027971814 0.027971814 0.027971814
0.034007353 0.034007353 0.034007353
0.021844363 0.021844363 0.021844363
0.026593137 0.026593137 0.026593137
0.019025735 0.019025735 0.019025735
0.056556373 0.056556373 0.056556373
0.024234069 0.024234069 0.024234069
0.084068627 0.084068627 0.084068627
0.45098039 0.45098039 0.45098039
0.51752451 0.51752451 0.51752451
0.4747549 0.4747549 0.4747549
0.47071078 0.47071078 0.47071078
0.56960784 0.56960784 0.56960784
0.56507353 0.56507353 0.56507353
0.55416667 0.55416667 0.55416667
0.64031863 0.64031863 0.64031863
0.66666667 0.66666667 0.66666667
0.98504902 0.97254902 0.98504902
0.98890931 0.98106618 0.98890931
0.97058824 0.96666667 0.97058824
0.95536152 0.94874387 0.95582108
0.9685049 0.9625 0.9685049
0.97622549 0.96914828 0.97622549
0.95447304 0.94761029 0.95447304
0.94347426 0.93851103 0.94347426
0.97132353 0.96348039 0.97132353
0.9754902 0.96421569 0.9754902
0.96672794 0.96151961 0.96672794
0.95821078 0.95428922 0.95821078
0.98131127 0.97628676 0.98131127
0.98553922 0.97696078 0.98553922
0.96666667 0.95955882 0.96666667
0.95367647 0.94705882 0.95404412
0.95067402 0.94656863 0.95067402
0.9495098 0.94215686 0.9495098
0.94730392 0.94509804 0.94730392
0.95658701 0.9544424 0.95658701
0.97604167 0.97254902 0.97604167
0.97647059 0.97647059 0.97647059
0.96458333 0.96176471 0.96458333
0.96470588 0.96078431 0.96470588
0.96574755 0.96029412 0.96574755
0.9622549 0.95833333 0.9622549
0.95465686 0.94901961 0.95490196
0.96862745 0.96666667 0.96862745
0.96862745 0.96642157 0.96862745
0.97647059 0.9745098 0.97647059
0.97647059 0.9745098 0.97647059
0.96764706 0.96470588 0.96764706
0.96470588 0.96078431 0.96470588
0.96470588 0.95833333 0.96470588
0.9622549 0.95637255 0.9622549
0.95490196 0.94901961 0.95490196
0.050980392 0.050980392 0.050980392
0.048529412 0.048529412 0.048529412
0.057843137 0.057843137 0.057843137
0.05245098 0.05245098 0.05245098
0.054901961 0.054901961 0.054901961
0.050061275 0.050061275 0.050061275
0.039215686 0.039215686 0.039215686
0.019607843 0.019607843 0.019607843
0.011764706 0.015686275 0.015686275
0.047058824 0.047058824 0.047058824
0.050873162 0.051999081 0.051999081
0.052313113 0.052313113 0.052313113
0.055453431 0.055453431 0.055453431
0.050980392 0.050980392 0.050980392
0.043137255 0.043137255 0.043137255
0.031372549 0.031372549 0.031372549
0.02310049 0.02310049 0.02310049
0.034313725 0.034313725 0.034313725
0.03627451 0.03627451 0.03627451
0.052037377 0.052037377 0.052037377
0.049172794 0.049172794 0.049172794
0.04208027 0.042769608 0.042769608
0.051715686 0.051715686 0.051715686
0.039047181 0.039047181 0.039047181
0.021875 0.021875 0.021875
0.018458946 0.018458946 0.018458946
0.012377451 0.012377451 0.012377451
0.039215686 0.040134804 0.040134804
0.034244792 0.034244792 0.034244792
0.029044118 0.029044118 0.029044118
0.036358762 0.036358762 0.036358762
0.041605392 0.041605392 0.041605392
0.035868566 0.035868566 0.035868566
0.019577206 0.019577206 0.019577206
0.015686275 0.015686275 0.015686275
0.019669118 0.019669118 0.019669118
0.025735294 0.025735294 0.025735294
0.026746324 0.026746324 0.026746324
0.011397059 0.011397059 0.011397059
0.032751225 0.032751225 0.032751225
0.046323529 0.046323529 0.046323529
0.035232843 0.035232843 0.035232843
0.040257353 0.040257353 0.040257353
0.046047794 0.046047794 0.046047794
0.0053921569 0.0053921569 0.0053921569
0.65134804 0.65134804 0.65134804
0.64210325 0.64129902 0.64210325
0.61312806 0.61188725 0.61312806
0.66670496 0.66578585 0.66670496
0.64212623 0.64093137 0.64212623
0.71806832 0.71806832 0.71806832
0.72389706 0.72389706 0.72389706
0.71013327 0.71006434 0.71013327
0.7346201 0.7346201 0.7346201
0.93651961 0.93014706 0.93651961
0.959375 0.95704657 0.959375
0.97745098 0.97144608 0.97745098
0.98929228 0.98144914 0.98929228
0.94754902 0.94454657 0.94754902
0.96988358 0.96470588 0.96988358
0.97208946 0.96550245 0.97208946
0.989231 0.97964154 0.989231
0.96360294 0.95870098 0.96360294
0.96292892 0.96060049 0.96292892
0.96309743 0.96256127 0.96309743
0.97647059 0.97634804 0.97647059
0.98046109 0.97432598 0.98046109
0.96829044 0.96461397 0.96829044
0.97941176 0.97310049 0.97941176
0.97328431 0.967019 0.97328431
0.97918964 0.97134651 0.97918964
0.97058824 0.9622549 0.97058824
0.97794118 0.97647059 0.97794118
0.97254902 0.97254902 0.97254902
0.97463235 0.97291667 0.97463235
0.97702206 0.97254902 0.97794118
0.96470588 0.96078431 0.96470588
0.97009804 0.96470588 0.97009804
0.97254902 0.96470588 0.97254902
0.96813725 0.96029412 0.96813725
0.97254902 0.9622549 0.97254902
0.054901961 0.054901961 0.054901961
0.062745098 0.062745098 0.062745098
0.062009804 0.062745098 0.062745098
0.059191176 0.059191176 0.059191176
0.058823529 0.058823529 0.058823529
0.048897059 0.048897059 0.048897059
0.03504902 0.03504902 0.03504902
0.016053922 0.018627451 0.018627451
0.015686275 0.015686275 0.015686275
0.050980392 0.050980392 0.050980392
0.065747549 0.065747549 0.065747549
0.058823529 0.058823529 0.058823529
0.056678922 0.056678922 0.056678922
0.053125 0.053125 0.053125
0.038893995 0.038893995 0.038893995
0.023897059 0.023897059 0.023897059
0.016007966 0.016007966 0.016007966
0.014828431 0.014828431 0.014828431
0.042401961 0.042401961 0.042401961
0.055392157 0.055392157 0.055392157
0.051593137 0.051593137 0.051593137
0.054074755 0.054074755 0.054074755
0.054044118 0.054044118 0.054044118
0.027634804 0.027634804 0.027634804
0.0087622549 0.0087622549 0.0087622549
0.0086090686 0.0086090686 0.0086090686
0.0078431373 0.0078431373 0.0078431373
0.030759804 0.031372549 0.030759804
0.046752451 0.046752451 0.046752451
0.040165441 0.040165441 0.040165441
0.042846201 0.042846201 0.042846201
0.043627451 0.043627451 0.043627451
0.025229779 0.025229779 0.025229779
0.0039215686 0.0039215686 0.0039215686
0.011764706 0.011764706 0.011764706
0.018137255 0.018137255 0.018137255
0.018627451 0.018627451 0.018627451
0.031678922 0.031678922 0.031678922
0.028553922 0.028553922 0.028553922
0.026715686 0.026715686 0.026715686
0.02254902 0.02254902 0.02254902
0.019056373 0.019056373 0.019056373
0.010784314 0.010784314 0.010784314
0.013541667 0.013541667 0.013541667
0.022058824 0.022058824 0.022058824
0.3129902 0.3129902 0.3129902
0.246875 0.246875 0.246875
0.19442402 0.19442402 0.19442402
0.11332721 0.11332721 0.11332721
0.079044118 0.079044118 0.079044118
0.039675245 0.039675245 0.039675245
0.087959559 0.087959559 0.087959559
0.040563725 0.040563725 0.040563725
0.028676471 0.028676471 0.028676471
0.74093137 0.74093137 0.74093137
0.68704044 0.68615196 0.68704044
0.69895833 0.6971201 0.69895833
0.67113971 0.67113971 0.67113971
0.72573529 0.72426471 0.72573529
0.79310662 0.79099265 0.79310662
0.91292892 0.91102941 0.91292892
0.8783701 0.87619485 0.8783701
0.82401961 0.82328431 0.82401961
0.92463235 0.92107843 0.92463235
0.92469363 0.92469363 0.92469363
0.92708333 0.92643995 0.92708333
0.94413297 0.93727022 0.94413297
0.93590686 0.93419118 0.93590686
0.95245098 0.94522059 0.95245098
0.96973039 0.96253064 0.96973039
0.97990196 0.97173713 0.97990196
0.96348039 0.95661765 0.96348039
0.98431373 0.98431373 0.98431373
0.96237745 0.96237745 0.96323529
0.97254902 0.97254902 0.97254902
0.95379902 0.95159314 0.95379902
0.97352941 0.97352941 0.97352941
0.96470588 0.96078431 0.96470588
0.96862745 0.96470588 0.96936275
0.96519608 0.95735294 0.96519608
0.96862745 0.96078431 0.96862745
0.054901961 0.054901961 0.054901961
0.062745098 0.062745098 0.062745098
0.062745098 0.062745098 0.062745098
0.058517157 0.058517157 0.058517157
0.04877451 0.04877451 0.04877451
0.03872549 0.03872549 0.03872549
0.026102941 0.026102941 0.026102941
0.01127451 0.01127451 0.01127451
0.0078431373 0.0078431373 0.0078431373
0.050980392 0.050980392 0.050980392
0.059198836 0.059198836 0.059198836
0.058823529 0.058823529 0.058823529
0.056372549 0.056372549 0.056372549
0.0453125 0.0453125 0.0453125
0.031211703 0.031211703 0.031211703
0.015579044 0.015579044 0.015579044
0.0078431373 0.0078431373 0.0078431373
0.0078431373 0.0078431373 0.0078431373
0.047058824 0.047058824 0.047058824
0.052221201 0.052221201 0.052221201
0.049969363 0.049969363 0.049969363
0.048927696 0.048927696 0.048927696
0.039644608 0.039644608 0.039644608
0.023529412 0.023529412 0.023529412
0.0085784314 0.0085784314 0.0085784314
0.0083333333 0.0083333333 0.0083333333
0.011764706 0.011764706 0.011764706
0.043137255 0.043137255 0.043137255
0.0432981 0.0432981 0.0432981
0.045189951 0.045189951 0.045189951
0.034244792 0.034244792 0.034244792
0.031617647 0.031617647 0.031617647
0.022058824 0.022058824 0.022058824
0.0078431373 0.0078431373 0.0078431373
0.0082720588 0.0082720588 0.0082720588
0.015686275 0.015686275 0.015686275
0.024019608 0.024019608 0.024019608
0.033792892 0.033792892 0.033792892
0.050735294 0.050735294 0.050735294
0.020006127 0.020006127 0.020006127
0.029656863 0.029656863 0.029656863
0.02098652 0.02098652 0.02098652
0.0068627451 0.0068627451 0.0068627451
0.0083333333 0.0083333333 0.0083333333
0.019607843 0.019607843 0.019607843
0.035477941 0.035477941 0.035477941
0.041023284 0.041023284 0.041023284
0.01294424 0.01294424 0.01294424
0.029672181 0.029672181 0.029672181
0.036734069 0.036734069 0.036734069
0.019132966 0.019132966 0.019132966
0.031050858 0.031050858 0.031050858
0.047074142 0.047074142 0.047074142
0.032046569 0.032046569 0.032046569
0.54264706 0.54264706 0.54264706
0.4932598 0.4932598 0.4932598
0.46813725 0.46813725 0.46813725
0.45006127 0.45006127 0.45006127
0.38504902 0.38504902 0.38504902
0.25087316 0.25087316 0.25087316
0.27052696 0.27052696 0.27052696
0.37431066 0.37431066 0.37431066
0.23137255 0.23137255 0.23137255
0.76868873 0.76868873 0.76868873
0.72990962 0.72990962 0.73039216
0.74509804 0.74509804 0.74509804
0.73943781 0.73756127 0.73943781
0.73805147 0.73805147 0.73805147
0.74387255 0.7437117 0.74387255
0.8819087 0.88158701 0.8819087
0.94620864 0.94217218 0.94620864
0.95845588 0.95845588 0.95845588
0.82990196 0.82990196 0.82990196
0.8254902 0.8254902 0.82941176
0.84362745 0.84362745 0.84362745
0.84264706 0.84264706 0.84264706
0.86960784 0.86960784 0.86960784
0.87843137 0.87714461 0.87843137
0.95833333 0.95833333 0.95919118
0.97205882 0.96813725 0.97205882
0.96911765 0.96519608 0.96911765
0.054901961 0.054901961 0.054901961
0.058823529 0.058823529 0.058823529
0.058823529 0.058823529 0.058823529
0.048529412 0.048529412 0.048529412
0.039215686 0.039215686 0.039215686
0.02745098 0.02745098 0.02745098
0.014705882 0.014705882 0.014705882
0 0 0
0 0 0
0.050980392 0.050980392 0.050980392
0.054901961 0.054901961 0.054901961
0.054901961 0.054901961 0.054901961
0.048529412 0.048529412 0.048529412
0.039215686 0.039215686 0.039215686
0.02745098 0.02745098 0.02745098
0.011764706 0.011764706 0.011764706
0.0039215686 0.0039215686 0.0039215686
0.0078431373 0.0078431373 0.0078431373
0.050980392 0.050980392 0.050980392
0.050612745 0.050612745 0.050612745
0.050980392 0.050980392 0.050980392
0.043504902 0.043504902 0.043504902
0.037254902 0.037254902 0.037254902
0.023529412 0.023529412 0.023529412
0.010784314 0.010784314 0.010784314
0.0078431373 0.0078431373 0.0078431373
0.011764706 0.011764706 0.011764706
0.047058824 0.047058824 0.047058824
0.04442402 0.04442402 0.04442402
0.047058824 0.047058824 0.047058824
0.035294118 0.035294118 0.035294118
0.033333333 0.033333333 0.033333333
0.022058824 0.022058824 0.022058824
0.0078431373 0.0078431373 0.0078431373
0.0078431373 0.0078431373 0.0078431373
0.015686275 0.015686275 0.015686275
0.041176471 0.041176471 0.041176471
0.035294118 0.035294118 0.035294118
0.03872549 0.03872549 0.03872549
0.026960784 0.026960784 0.026960784
0.024509804 0.024509804 0.024509804
0.019607843 0.019607843 0.019607843
0.0073529412 0.0073529412 0.0073529412
0.011764706 0.011764706 0.011764706
0.015686275 0.015686275 0.015686275
0.035294118 0.035294118 0.035294118
0.022058824 0.022058824 0.022058824
0.043995098 0.043995098 0.043995098
0.02064951 0.02064951 0.02064951
0.012990196 0.012990196 0.012990196
0.020526961 0.020526961 0.020526961
0.02254902 0.02254902 0.02254902
0.01127451 0.01127451 0.01127451
0.011764706 0.011764706 0.011764706
0.42941176 0.42941176 0.42941176
0.38664216 0.38664216 0.38664216
0.33259804 0.33259804 0.33259804
0.2314951 0.2314951 0.2314951
0.062745098 0.062745098 0.062745098
0.014583333 0.014583333 0.014583333
0.024019608 0.024019608 0.024019608
0.018382353 0.018382353 0.018382353
0.0068627451 0.0068627451 0.0068627451
0.67303922 0.67303922 0.67303922
0.64705882 0.64705882 0.64705882
0.62696078 0.62696078 0.62696078
0.61078431 0.61078431 0.61078431
0.59289216 0.59289216 0.59289216
0.53682598 0.53682598 0.53682598
0.51262255 0.51262255 0.51262255
0.57457108 0.57457108 0.57457108
0.56078431 0.56078431 0.56078431
0.75294118 0.75294118 0.75294118
0.74558824 0.74558824 0.74558824
0.75294118 0.75294118 0.75294118
0.78284314 0.78284314 0.78284314
0.74901961 0.74901961 0.74901961
0.78823529 0.78823529 0.78823529
0.80784314 0.80784314 0.80784314
0.89068627 0.89068627 0.89068627
0.98431373 0.98431373 0.98431373
