site/assets/luts/natron-haldclut--fuji-superia-200-xpro--920036f3e.cube
# LUTr-Project: LUTr — LUTrepository
# LUTr-Schema-Version: 1
# LUTr-ID: natron-haldclut--fuji-superia-200-xpro--920036f3e
# LUTr-Title: fuji superia 200 xpro
# LUTr-Collection: Natron HaldCLUT
# LUTr-Collection-ID: natron-haldclut-presets
# LUTr-Source: https://github.com/NatronGitHub/clut
# LUTr-Source-File: submissions/natron-haldclut-presets/colorslide/fuji_superia_200_xpro.png
# LUTr-Source-Format: PNG
# LUTr-Source-SHA256: ac9d8a82e0d625c0b3795c45f9dbacb6f14e32999a6b7e227585c9581a19f8f9
# LUTr-License: CC-BY-SA-4.0
# LUTr-License-URL: https://github.com/NatronGitHub/clut#license
# LUTr-Tags: creative, film, film-emulation, hald-clut, natron, png, cube
# LUTr-Transform-Class: film-emulation
# LUTr-Input-Color-Space: srgb
# LUTr-Output-Color-Space: srgb
# LUTr-Color-Space-Confidence: assumed-display-referred
# LUTr-Conversion-Method: PNG LUT image decoded at 16-bit and sampled to 25x25x25 3D CUBE
# LUTr-Conversion-Date: 2026-07-27
# LUTr-Conversion-Tool: LUTr scripts/convert-all-to-cube.mjs
# LUTr-Conversion-Grid: 25x25x25
# LUTr-Note: Preserve this metadata and the upstream license notices when redistributing.
TITLE "fuji superia 200 xpro"
LUT_3D_SIZE 5
DOMAIN_MIN 0 0 0
DOMAIN_MAX 1 1 1
0 0 0.019607843
0 0.0039215686 0.07745098
0.011764706 0.021568627 0.16862745
0.13137255 0.02254902 0.22058824
0.36470588 0.062745098 0.24313725
0.0039215686 0.28235294 0.39607843
0.011764706 0.29019608 0.40490196
0.069607843 0.28186275 0.39411765
0.2254902 0.23529412 0.36568627
0.41862745 0.22843137 0.37843137
0.0039215686 0.6254902 0.57843137
0.011764706 0.61813725 0.575
0.055882353 0.5872549 0.56764706
0.32941176 0.49460784 0.51862745
0.5254902 0.41568627 0.48039216
0.092156863 0.99705882 0.76764706
0.16176471 0.99607843 0.78333333
0.27009804 0.98921569 0.76764706
0.4995098 0.88529412 0.70784314
0.71078431 0.7245098 0.61568627
0.96078431 1 0.98823529
0.97254902 1 0.98823529
0.9745098 1 0.99607843
0.97745098 1 0.98921569
1 1 0.81960784
0 0.042156863 0.38921569
0 0.057107843 0.40098039
0.0039215686 0.05 0.39411765
0.084313725 0.034313725 0.37058824
0.3245098 0.097058824 0.3745098
0 0.30196078 0.51764706
0.0068627451 0.30177696 0.51372549
0.03002451 0.27561275 0.5
0.19019608 0.23682598 0.46740196
0.39044118 0.2370098 0.44803922
0.006372549 0.61666667 0.66715686
0.0039215686 0.62169118 0.65894608
0.040686275 0.5872549 0.63578431
0.30122549 0.4872549 0.57794118
0.50784314 0.42892157 0.53970588
0.033088235 0.99779412 0.86053922
0.057904412 0.99632353 0.85392157
0.14007353 0.96372549 0.82757353
0.4627451 0.85238971 0.75073529
0.67328431 0.73333333 0.67058824
0.94803922 1 1
0.92818627 1 0.99607843
0.94117647 1 0.99362745
0.96078431 1 0.99117647
0.99117647 0.99901961 0.87058824
0 0.066666667 0.52941176
0 0.074019608 0.53333333
0.0068627451 0.055882353 0.51078431
0.082352941 0.074509804 0.49019608
0.31372549 0.14509804 0.49019608
0 0.31372549 0.6372549
0 0.30796569 0.64117647
0.033823529 0.27279412 0.60637255
0.17095588 0.25036765 0.57377451
0.38039216 0.26029412 0.54803922
0 0.60686275 0.76764706
0.0022058824 0.59019608 0.75759804
0.033333333 0.53627451 0.72156863
0.27990196 0.47058824 0.67671569
0.49313725 0.44411765 0.63235294
0.00049019608 0.98039216 0.94852941
0.00098039216 0.97401961 0.93431373
0.16078431 0.9254902 0.88921569
0.45539216 0.8185049 0.81862745
0.67058824 0.70343137 0.74166667
0.88235294 1 1
0.90931373 1 1
0.91862745 1 0.99607843
0.93333333 1 0.99313725
0.97254902 0.99607843 0.92352941
0 0.11176471 0.65294118
0.00098039216 0.10171569 0.63897059
0.010784314 0.11666667 0.62941176
0.12058824 0.13897059 0.60980392
0.33823529 0.2245098 0.61470588
0.0039215686 0.32328431 0.74117647
0.0088235294 0.31488971 0.73069853
0.06372549 0.30392157 0.71176471
0.19509804 0.28848039 0.68333333
0.39828431 0.31568627 0.66372549
0.0088235294 0.55784314 0.83970588
0.024509804 0.54276961 0.82855392
0.125 0.51372549 0.80416667
0.31960784 0.48161765 0.76997549
0.47892157 0.47990196 0.74264706
0.059558824 0.90294118 0.9752451
0.15980392 0.88823529 0.96501225
0.33431373 0.83823529 0.93480392
0.48848039 0.77015931 0.88939951
0.66176471 0.70686275 0.83529412
0.85686275 1 1
0.84362745 1 1
0.85392157 1 1
0.87990196 1 0.99681373
0.90686275 0.99607843 0.98823529
0.011764706 0.19607843 0.74901961
0.014705882 0.18039216 0.74509804
0.096078431 0.24313725 0.75686275
0.19117647 0.21666667 0.72843137
0.38823529 0.28235294 0.72156863
0.016666667 0.35490196 0.82254902
0.060784314 0.34705882 0.81789216
0.10294118 0.33333333 0.78333333
0.27965686 0.35980392 0.7872549
0.45 0.39803922 0.77254902
0.17843137 0.54901961 0.90196078
0.22058824 0.54362745 0.89803922
0.30882353 0.5372549 0.8872549
0.41421569 0.53480392 0.86421569
0.55686275 0.52745098 0.83529412
0.41568627 0.79607843 0.99313725
0.43137255 0.79926471 0.98627451
0.48284314 0.78235294 0.96960784
0.58210784 0.7497549 0.94926471
0.7127451 0.72058824 0.91568627
0.84313725 1 1
0.84411765 1 1
0.82156863 0.99215686 1
0.83921569 0.98823529 0.99901961
0.91764706 0.98823529 0.99215686
