site/assets/luts/natron-haldclut--fuji-fp-3000b-negative--1b8c4ad97.cube
# LUTr-Project: LUTr — LUTrepository
# LUTr-Schema-Version: 1
# LUTr-ID: natron-haldclut--fuji-fp-3000b-negative--1b8c4ad97
# LUTr-Title: fuji fp-3000b negative +
# LUTr-Collection: Natron HaldCLUT
# LUTr-Collection-ID: natron-haldclut-presets
# LUTr-Source: https://github.com/NatronGitHub/clut
# LUTr-Source-File: submissions/natron-haldclut-presets/instant_pro/fuji_fp-3000b_negative_+.png
# LUTr-Source-Format: PNG
# LUTr-Source-SHA256: 9f10a070d74e18a7d2a49239ea4a18be430c6e97edea92f7e5e3df548ed13de0
# LUTr-License: CC-BY-SA-4.0
# LUTr-License-URL: https://github.com/NatronGitHub/clut#license
# LUTr-Tags: creative, film, film-emulation, hald-clut, natron, png, cube
# LUTr-Transform-Class: film-emulation
# LUTr-Input-Color-Space: srgb
# LUTr-Output-Color-Space: srgb
# LUTr-Color-Space-Confidence: assumed-display-referred
# LUTr-Conversion-Method: PNG LUT image decoded at 16-bit and sampled to 25x25x25 3D CUBE
# LUTr-Conversion-Date: 2026-07-27
# LUTr-Conversion-Tool: LUTr scripts/convert-all-to-cube.mjs
# LUTr-Conversion-Grid: 25x25x25
# LUTr-Note: Preserve this metadata and the upstream license notices when redistributing.
TITLE "fuji fp-3000b negative +"
LUT_3D_SIZE 5
DOMAIN_MIN 0 0 0
DOMAIN_MAX 1 1 1
0.043137255 0.043137255 0.043137255
0.066666667 0.066666667 0.066666667
0.18431373 0.18431373 0.18431373
0.47058824 0.47058824 0.47058824
0.67058824 0.67058824 0.67058824
0.097058824 0.097058824 0.097058824
0.10392157 0.10392157 0.10392157
0.30392157 0.30392157 0.30392157
0.52034314 0.52034314 0.52034314
0.7127451 0.7127451 0.7127451
0.33921569 0.33921569 0.33921569
0.32696078 0.32696078 0.32696078
0.44803922 0.44803922 0.44803922
0.62009804 0.62009804 0.62009804
0.77843137 0.77843137 0.77843137
0.64705882 0.64705882 0.64705882
0.6254902 0.6254902 0.6254902
0.64460784 0.64460784 0.64460784
0.73333333 0.73333333 0.73333333
0.84509804 0.84509804 0.84509804
0.87058824 0.87058824 0.87058824
0.85098039 0.85098039 0.85098039
0.86470588 0.86470588 0.86470588
0.89411765 0.89411765 0.89411765
0.92156863 0.92156863 0.92156863
0.097058824 0.097058824 0.097058824
0.12058824 0.12058824 0.12058824
0.27794118 0.27794118 0.27794118
0.49607843 0.49607843 0.49607843
0.69117647 0.69117647 0.69117647
0.14215686 0.14215686 0.14215686
0.19142157 0.19142157 0.19142157
0.35441176 0.35441176 0.35441176
0.55790441 0.55790441 0.55790441
0.72769608 0.72769608 0.72769608
0.45588235 0.45588235 0.45588235
0.4254902 0.4254902 0.4254902
0.5002451 0.5002451 0.5002451
0.6504902 0.6504902 0.6504902
0.78039216 0.78039216 0.78039216
0.68063725 0.68063725 0.68063725
0.65857843 0.65857843 0.65857843
0.6747549 0.6747549 0.6747549
0.74411765 0.74411765 0.74411765
0.84803922 0.84803922 0.84803922
0.87058824 0.87058824 0.87058824
0.85980392 0.85980392 0.85980392
0.85980392 0.85980392 0.85980392
0.87941176 0.87941176 0.87941176
0.89117647 0.89117647 0.89117647
0.36078431 0.36078431 0.36078431
0.41568627 0.41568627 0.41568627
0.49803922 0.49803922 0.49803922
0.61813725 0.61813725 0.61813725
0.75490196 0.75490196 0.75490196
0.39313725 0.39313725 0.39313725
0.45098039 0.45098039 0.45098039
0.53480392 0.53480392 0.53480392
0.64705882 0.64705882 0.64705882
0.75931373 0.75931373 0.75931373
0.54705882 0.54705882 0.54705882
0.56985294 0.56985294 0.56985294
0.6 0.6 0.6
0.70294118 0.70294118 0.70294118
0.79019608 0.79019608 0.79019608
0.7495098 0.7495098 0.7495098
0.74215686 0.74215686 0.74215686
0.73897059 0.73897059 0.73897059
0.78431373 0.78431373 0.78431373
0.86421569 0.86421569 0.86421569
0.90980392 0.90980392 0.90980392
0.89117647 0.89117647 0.89117647
0.8872549 0.8872549 0.8872549
0.89803922 0.89803922 0.89803922
0.94705882 0.94705882 0.94705882
0.67745098 0.67745098 0.67745098
0.69387255 0.69387255 0.69387255
0.74460784 0.74460784 0.74460784
0.77941176 0.77941176 0.77941176
0.80882353 0.80882353 0.80882353
0.67843137 0.67843137 0.67843137
0.70919118 0.70919118 0.70919118
0.74901961 0.74901961 0.74901961
0.77420343 0.77420343 0.77420343
0.8245098 0.8245098 0.8245098
0.69558824 0.69558824 0.69558824
0.71813725 0.71813725 0.71813725
0.75759804 0.75759804 0.75759804
0.80416667 0.80416667 0.80416667
0.84607843 0.84607843 0.84607843
0.79191176 0.79191176 0.79191176
0.79172794 0.79172794 0.79172794
0.81078431 0.81078431 0.81078431
0.84215686 0.84215686 0.84215686
0.89926471 0.89926471 0.89926471
0.93333333 0.93333333 0.93333333
0.93651961 0.93651961 0.93651961
0.93823529 0.93823529 0.93823529
0.93823529 0.93823529 0.93823529
0.94411765 0.94411765 0.94411765
0.90588235 0.90588235 0.90588235
0.89803922 0.89803922 0.89803922
0.91764706 0.91764706 0.91764706
0.9254902 0.9254902 0.9254902
0.91764706 0.91764706 0.91764706
0.89411765 0.89411765 0.89411765
0.90196078 0.90196078 0.90196078
0.91568627 0.91568627 0.91568627
0.94044118 0.94044118 0.94044118
0.94509804 0.94509804 0.94509804
0.88431373 0.88431373 0.88431373
0.90196078 0.90196078 0.90196078
0.9127451 0.9127451 0.9127451
0.92598039 0.92598039 0.92598039
0.94901961 0.94901961 0.94901961
0.91078431 0.91078431 0.91078431
0.90588235 0.90588235 0.90588235
0.91617647 0.91617647 0.91617647
0.94926471 0.94926471 0.94926471
0.96470588 0.96470588 0.96470588
0.96078431 0.96078431 0.96078431
0.94901961 0.94901961 0.94901961
0.94901961 0.94901961 0.94901961
0.96078431 0.96078431 0.96078431
0.99607843 0.99607843 0.99607843
