site/assets/luts/natron-haldclut--polaroid-690-cold---422156eb8.cube
# LUTr-Project: LUTr — LUTrepository
# LUTr-Schema-Version: 1
# LUTr-ID: natron-haldclut--polaroid-690-cold---422156eb8
# LUTr-Title: polaroid 690 cold -
# LUTr-Collection: Natron HaldCLUT
# LUTr-Collection-ID: natron-haldclut-presets
# LUTr-Source: https://github.com/NatronGitHub/clut
# LUTr-Source-File: submissions/natron-haldclut-presets/instant_pro/polaroid_690_cold_-.png
# LUTr-Source-Format: PNG
# LUTr-Source-SHA256: 4e8c7ebc0ff54bd4b6fd60b1e86bb688c6be3a3b2844c73a3f36fbaa621fa88d
# LUTr-License: CC-BY-SA-4.0
# LUTr-License-URL: https://github.com/NatronGitHub/clut#license
# LUTr-Tags: creative, film, film-emulation, hald-clut, natron, png, cool, cube
# LUTr-Transform-Class: film-emulation
# LUTr-Input-Color-Space: srgb
# LUTr-Output-Color-Space: srgb
# LUTr-Color-Space-Confidence: assumed-display-referred
# LUTr-Conversion-Method: PNG LUT image decoded at 16-bit and sampled to 25x25x25 3D CUBE
# LUTr-Conversion-Date: 2026-07-27
# LUTr-Conversion-Tool: LUTr scripts/convert-all-to-cube.mjs
# LUTr-Conversion-Grid: 25x25x25
# LUTr-Note: Preserve this metadata and the upstream license notices when redistributing.
TITLE "polaroid 690 cold -"
LUT_3D_SIZE 5
DOMAIN_MIN 0 0 0
DOMAIN_MAX 1 1 1
0 0.078431373 0.070588235
0.15686275 0.083333333 0.07745098
0.46470588 0 0.064705882
0.74509804 0 0.066666667
0.96078431 0 0.08627451
0.0029411765 0.23921569 0.091176471
0.17377451 0.2502451 0.049754902
0.55294118 0.22745098 0.083823529
0.81372549 0.11470588 0.090196078
0.99607843 0.07254902 0.069607843
0 0.49411765 0.10196078
0.13333333 0.48137255 0.10490196
0.51666667 0.52745098 0.023529412
0.82941176 0.57892157 0.051960784
0.99607843 0.58431373 0.16078431
0 0.73235294 0.10980392
0.19411765 0.72843137 0.10122549
0.50196078 0.73235294 0.028921569
0.79215686 0.7627451 0.022794118
0.99215686 0.77843137 0.17254902
0.47843137 0.92941176 0.31764706
0.5245098 0.9254902 0.29901961
0.64313725 0.90980392 0.25882353
0.83039216 0.94117647 0.28529412
0.98431373 0.96078431 0.29019608
0 0.11666667 0.26568627
0.14019608 0.10196078 0.27745098
0.45686275 0.058823529 0.2622549
0.7254902 0 0.23431373
0.96176471 0 0.19803922
0 0.25808824 0.28137255
0.2004902 0.26960784 0.30294118
0.53627451 0.24742647 0.29901961
0.78333333 0.09564951 0.25465686
0.97647059 0.012990196 0.2245098
0 0.5245098 0.30882353
0.18480392 0.50894608 0.29669118
0.54289216 0.54068627 0.29264706
0.83541667 0.58529412 0.3185049
0.98872549 0.56715686 0.32009804
0.00024509804 0.74705882 0.29019608
0.22830882 0.73927696 0.2778799
0.5127451 0.74007353 0.26666667
0.79601716 0.76666667 0.27058824
0.98823529 0.78308824 0.34803922
0.45490196 0.93235294 0.42058824
0.50784314 0.9252451 0.39705882
0.65588235 0.93382353 0.37794118
0.8254902 0.93627451 0.37352941
0.99411765 0.9745098 0.40784314
0 0.12352941 0.56666667
0 0.12745098 0.59362745
0.53823529 0.076470588 0.63039216
0.75588235 0.049019608 0.53431373
0.94901961 0.0039215686 0.50392157
0 0.27058824 0.57990196
0.14522059 0.28627451 0.60183824
0.57205882 0.28946078 0.64705882
0.76605392 0.23088235 0.55968137
0.95735294 0.023529412 0.49901961
0.0029411765 0.54901961 0.61078431
0.24093137 0.55563725 0.61372549
0.55686275 0.5745098 0.63578431
0.79509804 0.50980392 0.57892157
0.97647059 0.40588235 0.50686275
0.1127451 0.77941176 0.60490196
0.29129902 0.77156863 0.59767157
0.52965686 0.76102941 0.56887255
0.79166667 0.7745098 0.58382353
0.98970588 0.7872549 0.64215686
0.43137255 0.94117647 0.64117647
0.48039216 0.93333333 0.62009804
0.61176471 0.9254902 0.59607843
0.79754902 0.93431373 0.58529412
0.96078431 0.94901961 0.61764706
0.0088235294 0.17352941 0.84705882
0.1372549 0.16666667 0.87181373
0.58823529 0.18382353 0.89656863
0.84681373 0.19681373 0.9
0.97745098 0.20784314 0.82843137
0.0078431373 0.29681373 0.85563725
0.22254902 0.29993873 0.86219363
0.58492647 0.3252451 0.89264706
0.84387255 0.38988971 0.89240196
0.96960784 0.3372549 0.82843137
0.0044117647 0.50441176 0.81960784
0.12009804 0.50502451 0.82598039
0.53946078 0.56985294 0.85980392
0.80147059 0.63137255 0.87696078
0.95686275 0.54607843 0.81421569
0.20588235 0.7747549 0.85098039
0.35686275 0.77285539 0.85055147
0.58357843 0.77230392 0.85784314
0.80514706 0.79803922 0.88020833
0.96372549 0.72156863 0.81740196
0.55196078 0.94509804 0.87352941
0.56176471 0.92352941 0.86960784
0.65343137 0.94901961 0.86372549
0.77647059 0.95098039 0.84632353
0.96470588 0.97941176 0.85686275
0.43137255 0.31372549 0.99607843
0.50784314 0.32156863 0.99607843
0.68431373 0.35882353 0.99607843
0.86568627 0.40784314 0.99215686
0.98039216 0.5372549 0.99607843
0.43823529 0.42843137 0.99607843
0.5127451 0.42867647 0.99607843
0.67647059 0.45686275 0.99215686
0.85 0.53137255 0.99313725
0.97647059 0.61470588 0.99607843
0.37254902 0.60980392 0.99215686
0.45392157 0.60980392 0.98823529
0.64509804 0.64313725 0.9872549
0.8372549 0.69117647 0.99215686
0.98039216 0.68823529 0.97647059
0.37647059 0.78333333 0.98039216
0.41960784 0.7747549 0.97745098
0.5872549 0.7754902 0.97647059
0.80294118 0.79730392 0.97328431
0.94411765 0.8372549 0.9754902
0.64705882 0.95686275 0.97647059
0.64215686 0.95196078 0.96470588
0.72352941 0.95490196 0.96862745
0.84509804 0.95490196 0.96960784
0.98431373 0.99607843 0.98431373
