site/assets/luts/natron-haldclut--fuji-fp-3000b-negative---9ab5ef3ae.cube
# LUTr-Project: LUTr — LUTrepository
# LUTr-Schema-Version: 1
# LUTr-ID: natron-haldclut--fuji-fp-3000b-negative---9ab5ef3ae
# LUTr-Title: fuji fp-3000b negative --
# LUTr-Collection: Natron HaldCLUT
# LUTr-Collection-ID: natron-haldclut-presets
# LUTr-Source: https://github.com/NatronGitHub/clut
# LUTr-Source-File: submissions/natron-haldclut-presets/instant_pro/fuji_fp-3000b_negative_--.png
# LUTr-Source-Format: PNG
# LUTr-Source-SHA256: ae09a902c103873814f1ce1d70e55306decf23756a894f9b195dca45be3c832b
# LUTr-License: CC-BY-SA-4.0
# LUTr-License-URL: https://github.com/NatronGitHub/clut#license
# LUTr-Tags: creative, film, film-emulation, hald-clut, natron, png, cube
# LUTr-Transform-Class: film-emulation
# LUTr-Input-Color-Space: srgb
# LUTr-Output-Color-Space: srgb
# LUTr-Color-Space-Confidence: assumed-display-referred
# LUTr-Conversion-Method: PNG LUT image decoded at 16-bit and sampled to 25x25x25 3D CUBE
# LUTr-Conversion-Date: 2026-07-27
# LUTr-Conversion-Tool: LUTr scripts/convert-all-to-cube.mjs
# LUTr-Conversion-Grid: 25x25x25
# LUTr-Note: Preserve this metadata and the upstream license notices when redistributing.
TITLE "fuji fp-3000b negative --"
LUT_3D_SIZE 25
DOMAIN_MIN 0 0 0
DOMAIN_MAX 1 1 1
0.035294118 0.035294118 0.035294118
0.035294118 0.035294118 0.035294118
0.045098039 0.045098039 0.045098039
0.058333333 0.058333333 0.058333333
0.068627451 0.068627451 0.068627451
0.091666667 0.091666667 0.091666667
0.12254902 0.12254902 0.12254902
0.14803922 0.14803922 0.14803922
0.17254902 0.17254902 0.17254902
0.1995098 0.1995098 0.1995098
0.23431373 0.23431373 0.23431373
0.26127451 0.26127451 0.26127451
0.28823529 0.28823529 0.28823529
0.31568627 0.31568627 0.31568627
0.35 0.35 0.35
0.38088235 0.38088235 0.38088235
0.41176471 0.41176471 0.41176471
0.44264706 0.44264706 0.44264706
0.4745098 0.4745098 0.4745098
0.50833333 0.50833333 0.50833333
0.54509804 0.54509804 0.54509804
0.57794118 0.57794118 0.57794118
0.60882353 0.60882353 0.60882353
0.63823529 0.63823529 0.63823529
0.65882353 0.65882353 0.65882353
0.031372549 0.031372549 0.031372549
0.032291667 0.032291667 0.032291667
0.04754902 0.04754902 0.04754902
0.066666667 0.066666667 0.066666667
0.087254902 0.087254902 0.087254902
0.10784314 0.10784314 0.10784314
0.12990196 0.12990196 0.12990196
0.1504902 0.1504902 0.1504902
0.17254902 0.17254902 0.17254902
0.1995098 0.1995098 0.1995098
0.23492647 0.23492647 0.23492647
0.26764706 0.26764706 0.26764706
0.2997549 0.2997549 0.2997549
0.32922794 0.32922794 0.32922794
0.35637255 0.35637255 0.35637255
0.3872549 0.3872549 0.3872549
0.41813725 0.41813725 0.41813725
0.44901961 0.44901961 0.44901961
0.48026961 0.48026961 0.48026961
0.51470588 0.51470588 0.51470588
0.54705882 0.54705882 0.54705882
0.58039216 0.58039216 0.58039216
0.6127451 0.6127451 0.6127451
0.63970588 0.63970588 0.63970588
0.65882353 0.65882353 0.65882353
0.046078431 0.046078431 0.046078431
0.046078431 0.046078431 0.046078431
0.06372549 0.06372549 0.06372549
0.087254902 0.087254902 0.087254902
0.10539216 0.10539216 0.10539216
0.12745098 0.12745098 0.12745098
0.14803922 0.14803922 0.14803922
0.16531863 0.16531863 0.16531863
0.18235294 0.18235294 0.18235294
0.20931373 0.20931373 0.20931373
0.24485294 0.24485294 0.24485294
0.2814951 0.2814951 0.2814951
0.31519608 0.31519608 0.31519608
0.34362745 0.34362745 0.34362745
0.37058824 0.37058824 0.37058824
0.39754902 0.39754902 0.39754902
0.42843137 0.42843137 0.42843137
0.45931373 0.45931373 0.45931373
0.49019608 0.49019608 0.49019608
0.52365196 0.52365196 0.52365196
0.55490196 0.55490196 0.55490196
0.58578431 0.58578431 0.58578431
0.61666667 0.61666667 0.61666667
0.64252451 0.64252451 0.64252451
0.6627451 0.6627451 0.6627451
0.076960784 0.076960784 0.076960784
0.076960784 0.076960784 0.076960784
0.090686275 0.090686275 0.090686275
0.10784314 0.10784314 0.10784314
0.1245098 0.1245098 0.1245098
0.14509804 0.14509804 0.14509804
0.1622549 0.1622549 0.1622549
0.18235294 0.18235294 0.18235294
0.20294118 0.20294118 0.20294118
0.22990196 0.22990196 0.22990196
0.26078431 0.26078431 0.26078431
0.29515931 0.29515931 0.29515931
0.33039216 0.33039216 0.33039216
0.35778186 0.35778186 0.35778186
0.38443627 0.38443627 0.38443627
0.41158088 0.41158088 0.41158088
0.43872549 0.43872549 0.43872549
0.46960784 0.46960784 0.46960784
0.5004902 0.5004902 0.5004902
0.53137255 0.53137255 0.53137255
0.5622549 0.5622549 0.5622549
0.58970588 0.58970588 0.58970588
0.62009804 0.62009804 0.62009804
0.6473652 0.6473652 0.6473652
0.66666667 0.66666667 0.66666667
0.10392157 0.10392157 0.10392157
0.10196078 0.10196078 0.10196078
0.11127451 0.11127451 0.11127451
0.13235294 0.13235294 0.13235294
0.14215686 0.14215686 0.14215686
0.15588235 0.15588235 0.15588235
0.17794118 0.17794118 0.17794118
0.2004902 0.2004902 0.2004902
0.2254902 0.2254902 0.2254902
0.2504902 0.2504902 0.2504902
0.28137255 0.28137255 0.28137255
0.3122549 0.3122549 0.3122549
0.34509804 0.34509804 0.34509804
0.37377451 0.37377451 0.37377451
0.3995098 0.3995098 0.3995098
0.4252451 0.4252451 0.4252451
0.45294118 0.45294118 0.45294118
0.48063725 0.48063725 0.48063725
0.51078431 0.51078431 0.51078431
0.54166667 0.54166667 0.54166667
0.56862745 0.56862745 0.56862745
0.59558824 0.59558824 0.59558824
0.62303922 0.62303922 0.62303922
0.65147059 0.65147059 0.65147059
0.67254902 0.67254902 0.67254902
0.12647059 0.12647059 0.12647059
0.12303922 0.12303922 0.12303922
0.12806373 0.12806373 0.12806373
0.14901961 0.14901961 0.14901961
0.15784314 0.15784314 0.15784314
0.17015931 0.17015931 0.17015931
0.19411765 0.19411765 0.19411765
0.22107843 0.22107843 0.22107843
0.24803922 0.24803922 0.24803922
0.27285539 0.27285539 0.27285539
0.30196078 0.30196078 0.30196078
0.32941176 0.32941176 0.32941176
0.36151961 0.36151961 0.36151961
0.39019608 0.39019608 0.39019608
0.41458333 0.41458333 0.41458333
0.44050245 0.44050245 0.44050245
0.46715686 0.46715686 0.46715686
0.49411765 0.49411765 0.49411765
0.52401961 0.52401961 0.52401961
0.55196078 0.55196078 0.55196078
0.57671569 0.57671569 0.57671569
0.60196078 0.60196078 0.60196078
0.62977941 0.62977941 0.62977941
0.65980392 0.65980392 0.65980392
0.67892157 0.67892157 0.67892157
0.16372549 0.16372549 0.16372549
0.16372549 0.16372549 0.16372549
0.16495098 0.16495098 0.16495098
0.18247549 0.18247549 0.18247549
0.18284314 0.18284314 0.18284314
0.1877451 0.1877451 0.1877451
0.21470588 0.21470588 0.21470588
0.24166667 0.24166667 0.24166667
0.26862745 0.26862745 0.26862745
0.29558824 0.29558824 0.29558824
0.32254902 0.32254902 0.32254902
0.35 0.35 0.35
0.38039216 0.38039216 0.38039216
0.40686275 0.40686275 0.40686275
0.43063725 0.43063725 0.43063725
0.45588235 0.45588235 0.45588235
0.48137255 0.48137255 0.48137255
0.50833333 0.50833333 0.50833333
0.53529412 0.53529412 0.53529412
0.55882353 0.55882353 0.55882353
0.58529412 0.58529412 0.58529412
0.6122549 0.6122549 0.6122549
0.63921569 0.63921569 0.63921569
0.66862745 0.66862745 0.66862745
0.68921569 0.68921569 0.68921569
0.20980392 0.20980392 0.20980392
0.20980392 0.20980392 0.20980392
0.21017157 0.21017157 0.21017157
0.2245098 0.2245098 0.2245098
0.22279412 0.22279412 0.22279412
0.22579657 0.22579657 0.22579657
0.24166667 0.24166667 0.24166667
0.26525735 0.26525735 0.26525735
0.29068627 0.29068627 0.29068627
0.31764706 0.31764706 0.31764706
0.34313725 0.34313725 0.34313725
0.37058824 0.37058824 0.37058824
0.39828431 0.39828431 0.39828431
0.41991422 0.41991422 0.41991422
0.44595588 0.44595588 0.44595588
0.46954657 0.46954657 0.46954657
0.49558824 0.49558824 0.49558824
0.52254902 0.52254902 0.52254902
0.54558824 0.54558824 0.54558824
0.57040441 0.57040441 0.57040441
0.59632353 0.59632353 0.59632353
0.62254902 0.62254902 0.62254902
0.65343137 0.65343137 0.65343137
0.68039216 0.68039216 0.68039216
0.70343137 0.70343137 0.70343137
0.24705882 0.24705882 0.24705882
0.2495098 0.2495098 0.2495098
0.25490196 0.25490196 0.25490196
0.25833333 0.25833333 0.25833333
0.25882353 0.25882353 0.25882353
0.26323529 0.26323529 0.26323529
0.27352941 0.27352941 0.27352941
0.29313725 0.29313725 0.29313725
0.31764706 0.31764706 0.31764706
0.34068627 0.34068627 0.34068627
0.36666667 0.36666667 0.36666667
0.39117647 0.39117647 0.39117647
0.41568627 0.41568627 0.41568627
0.43627451 0.43627451 0.43627451
0.45980392 0.45980392 0.45980392
0.48529412 0.48529412 0.48529412
0.50980392 0.50980392 0.50980392
0.53431373 0.53431373 0.53431373
0.55882353 0.55882353 0.55882353
0.58333333 0.58333333 0.58333333
0.60980392 0.60980392 0.60980392
0.63676471 0.63676471 0.63676471
0.66470588 0.66470588 0.66470588
0.69313725 0.69313725 0.69313725
0.71372549 0.71372549 0.71372549
0.28284314 0.28284314 0.28284314
0.28731618 0.28731618 0.28731618
0.29252451 0.29252451 0.29252451
0.29577206 0.29577206 0.29577206
0.29877451 0.29877451 0.29877451
0.30177696 0.30177696 0.30177696
0.30833333 0.30833333 0.30833333
0.32401961 0.32401961 0.32401961
0.34215686 0.34215686 0.34215686
0.3627451 0.3627451 0.3627451
0.3872549 0.3872549 0.3872549
0.41145833 0.41145833 0.41145833
0.43235294 0.43235294 0.43235294
0.45294118 0.45294118 0.45294118
0.47463235 0.47463235 0.47463235
0.4995098 0.4995098 0.4995098
0.52401961 0.52401961 0.52401961
0.54613971 0.54613971 0.54613971
0.57009804 0.57009804 0.57009804
0.59705882 0.59705882 0.59705882
0.62328431 0.62328431 0.62328431
0.65098039 0.65098039 0.65098039
0.68039216 0.68039216 0.68039216
0.70827206 0.70827206 0.70827206
0.73039216 0.73039216 0.73039216
0.32647059 0.32647059 0.32647059
0.32585784 0.32585784 0.32585784
0.32941176 0.32941176 0.32941176
0.33235294 0.33235294 0.33235294
0.33627451 0.33627451 0.33627451
0.33762255 0.33762255 0.33762255
0.34313725 0.34313725 0.34313725
0.35379902 0.35379902 0.35379902
0.36764706 0.36764706 0.36764706
0.38762255 0.38762255 0.38762255
0.40784314 0.40784314 0.40784314
0.42843137 0.42843137 0.42843137
0.44901961 0.44901961 0.44901961
0.46960784 0.46960784 0.46960784
0.49019608 0.49019608 0.49019608
0.51409314 0.51409314 0.51409314
0.53823529 0.53823529 0.53823529
0.55943627 0.55943627 0.55943627
0.58431373 0.58431373 0.58431373
0.61127451 0.61127451 0.61127451
0.63823529 0.63823529 0.63823529
0.66519608 0.66519608 0.66519608
0.69387255 0.69387255 0.69387255
0.72193627 0.72193627 0.72193627
0.74215686 0.74215686 0.74215686
0.37058824 0.37058824 0.37058824
0.36813725 0.36813725 0.36813725
0.36666667 0.36666667 0.36666667
0.36715686 0.36715686 0.36715686
0.37083333 0.37083333 0.37083333
0.37150735 0.37150735 0.37150735
0.37757353 0.37757353 0.37757353
0.38823529 0.38823529 0.38823529
0.40245098 0.40245098 0.40245098
0.41519608 0.41519608 0.41519608
0.4310049 0.4310049 0.4310049
0.44901961 0.44901961 0.44901961
0.46593137 0.46593137 0.46593137
0.48627451 0.48627451 0.48627451
0.50723039 0.50723039 0.50723039
0.52922794 0.52922794 0.52922794
0.55196078 0.55196078 0.55196078
0.57518382 0.57518382 0.57518382
0.59840686 0.59840686 0.59840686
0.62506127 0.62506127 0.62506127
0.65220588 0.65220588 0.65220588
0.67941176 0.67941176 0.67941176
0.70992647 0.70992647 0.70992647
0.73547794 0.73547794 0.73547794
0.75245098 0.75245098 0.75245098
0.41176471 0.41176471 0.41176471
0.40931373 0.40931373 0.40931373
0.40686275 0.40686275 0.40686275
0.40392157 0.40392157 0.40392157
0.40490196 0.40490196 0.40490196
0.40588235 0.40588235 0.40588235
0.41127451 0.41127451 0.41127451
0.42181373 0.42181373 0.42181373
0.43333333 0.43333333 0.43333333
0.44362745 0.44362745 0.44362745
0.45588235 0.45588235 0.45588235
0.46985294 0.46985294 0.46985294
0.48627451 0.48627451 0.48627451
0.50465686 0.50465686 0.50465686
0.52352941 0.52352941 0.52352941
0.54485294 0.54485294 0.54485294
0.56666667 0.56666667 0.56666667
0.59044118 0.59044118 0.59044118
0.61421569 0.61421569 0.61421569
0.63995098 0.63995098 0.63995098
0.66764706 0.66764706 0.66764706
0.69534314 0.69534314 0.69534314
0.72156863 0.72156863 0.72156863
0.74607843 0.74607843 0.74607843
0.7627451 0.7627451 0.7627451
0.45294118 0.45294118 0.45294118
0.44901961 0.44901961 0.44901961
0.44509804 0.44509804 0.44509804
0.44117647 0.44117647 0.44117647
0.4372549 0.4372549 0.4372549
0.44068627 0.44068627 0.44068627
0.44375 0.44375 0.44375
0.45392157 0.45392157 0.45392157
0.46421569 0.46421569 0.46421569
0.4745098 0.4745098 0.4745098
0.48480392 0.48480392 0.48480392
0.49509804 0.49509804 0.49509804
0.50931373 0.50931373 0.50931373
0.52395833 0.52395833 0.52395833
0.54375 0.54375 0.54375
0.56078431 0.56078431 0.56078431
0.58480392 0.58480392 0.58480392
0.60588235 0.60588235 0.60588235
0.63125 0.63125 0.63125
0.65790441 0.65790441 0.65790441
0.68308824 0.68308824 0.68308824
0.70827206 0.70827206 0.70827206
0.73578431 0.73578431 0.73578431
0.76029412 0.76029412 0.76029412
0.77696078 0.77696078 0.77696078
0.49019608 0.49019608 0.49019608
0.48835784 0.48835784 0.48835784
0.48308824 0.48308824 0.48308824
0.47892157 0.47892157 0.47892157
0.475 0.475 0.475
0.47463235 0.47463235 0.47463235
0.47843137 0.47843137 0.47843137
0.48664216 0.48664216 0.48664216
0.49509804 0.49509804 0.49509804
0.50539216 0.50539216 0.50539216
0.51568627 0.51568627 0.51568627
0.52598039 0.52598039 0.52598039
0.53627451 0.53627451 0.53627451
0.5504902 0.5504902 0.5504902
0.56397059 0.56397059 0.56397059
0.58137255 0.58137255 0.58137255
0.60196078 0.60196078 0.60196078
0.62316176 0.62316176 0.62316176
0.64877451 0.64877451 0.64877451
0.67242647 0.67242647 0.67242647
0.69852941 0.69852941 0.69852941
0.72463235 0.72463235 0.72463235
0.7497549 0.7497549 0.7497549
0.77352941 0.77352941 0.77352941
0.79019608 0.79019608 0.79019608
0.52745098 0.52745098 0.52745098
0.52444853 0.52444853 0.52444853
0.52144608 0.52144608 0.52144608
0.51599265 0.51599265 0.51599265
0.5129902 0.5129902 0.5129902
0.51176471 0.51176471 0.51176471
0.51360294 0.51360294 0.51360294
0.51960784 0.51960784 0.51960784
0.52598039 0.52598039 0.52598039
0.53627451 0.53627451 0.53627451
0.54656863 0.54656863 0.54656863
0.55686275 0.55686275 0.55686275
0.56715686 0.56715686 0.56715686
0.57745098 0.57745098 0.57745098
0.59129902 0.59129902 0.59129902
0.6028799 0.6028799 0.6028799
0.61862745 0.61862745 0.61862745
0.64258578 0.64258578 0.64258578
0.66433824 0.66433824 0.66433824
0.68805147 0.68805147 0.68805147
0.7120098 0.7120098 0.7120098
0.73627451 0.73627451 0.73627451
0.76323529 0.76323529 0.76323529
0.78480392 0.78480392 0.78480392
0.80147059 0.80147059 0.80147059
0.56470588 0.56470588 0.56470588
0.5622549 0.5622549 0.5622549
0.55980392 0.55980392 0.55980392
0.55686275 0.55686275 0.55686275
0.55098039 0.55098039 0.55098039
0.54901961 0.54901961 0.54901961
0.54901961 0.54901961 0.54901961
0.55294118 0.55294118 0.55294118
0.56078431 0.56078431 0.56078431
0.56715686 0.56715686 0.56715686
0.57745098 0.57745098 0.57745098
0.5877451 0.5877451 0.5877451
0.59803922 0.59803922 0.59803922
0.60833333 0.60833333 0.60833333
0.61862745 0.61862745 0.61862745
0.63284314 0.63284314 0.63284314
0.64313725 0.64313725 0.64313725
0.65980392 0.65980392 0.65980392
0.68039216 0.68039216 0.68039216
0.70098039 0.70098039 0.70098039
0.7254902 0.7254902 0.7254902
0.75 0.75 0.75
0.77352941 0.77352941 0.77352941
0.79509804 0.79509804 0.79509804
0.81176471 0.81176471 0.81176471
0.60588235 0.60588235 0.60588235
0.60196078 0.60196078 0.60196078
0.59803922 0.59803922 0.59803922
0.59460784 0.59460784 0.59460784
0.59019608 0.59019608 0.59019608
0.58627451 0.58627451 0.58627451
0.58627451 0.58627451 0.58627451
0.58682598 0.58682598 0.58682598
0.59166667 0.59166667 0.59166667
0.59803922 0.59803922 0.59803922
0.60833333 0.60833333 0.60833333
0.61862745 0.61862745 0.61862745
0.62892157 0.62892157 0.62892157
0.63921569 0.63921569 0.63921569
0.6495098 0.6495098 0.6495098
0.66280637 0.66280637 0.66280637
0.67401961 0.67401961 0.67401961
0.68431373 0.68431373 0.68431373
0.69889706 0.69889706 0.69889706
0.71764706 0.71764706 0.71764706
0.73970588 0.73970588 0.73970588
0.76292892 0.76292892 0.76292892
0.78835784 0.78835784 0.78835784
0.80931373 0.80931373 0.80931373
0.82205882 0.82205882 0.82205882
0.64313725 0.64313725 0.64313725
0.64313725 0.64313725 0.64313725
0.63921569 0.63921569 0.63921569
0.63529412 0.63529412 0.63529412
0.63137255 0.63137255 0.63137255
0.62696078 0.62696078 0.62696078
0.62352941 0.62352941 0.62352941
0.62647059 0.62647059 0.62647059
0.62745098 0.62745098 0.62745098
0.62928922 0.62928922 0.62928922
0.63897059 0.63897059 0.63897059
0.64938725 0.64938725 0.64938725
0.65980392 0.65980392 0.65980392
0.67009804 0.67009804 0.67009804
0.68112745 0.68112745 0.68112745
0.69460784 0.69460784 0.69460784
0.70490196 0.70490196 0.70490196
0.71519608 0.71519608 0.71519608
0.7254902 0.7254902 0.7254902
0.74215686 0.74215686 0.74215686
0.75980392 0.75980392 0.75980392
0.78333333 0.78333333 0.78333333
0.80686275 0.80686275 0.80686275
0.8245098 0.8245098 0.8245098
0.83627451 0.83627451 0.83627451
0.68431373 0.68431373 0.68431373
0.68431373 0.68431373 0.68431373
0.68039216 0.68039216 0.68039216
0.67647059 0.67647059 0.67647059
0.67058824 0.67058824 0.67058824
0.6651348 0.6651348 0.6651348
0.66470588 0.66470588 0.66470588
0.66470588 0.66470588 0.66470588
0.66470588 0.66470588 0.66470588
0.66519608 0.66519608 0.66519608
0.66875 0.66875 0.66875
0.67647059 0.67647059 0.67647059
0.69068627 0.69068627 0.69068627
0.70140931 0.70140931 0.70140931
0.71507353 0.71507353 0.71507353
0.7254902 0.7254902 0.7254902
0.73578431 0.73578431 0.73578431
0.74607843 0.74607843 0.74607843
0.75245098 0.75245098 0.75245098
0.76623775 0.76623775 0.76623775
0.78333333 0.78333333 0.78333333
0.80392157 0.80392157 0.80392157
0.8245098 0.8245098 0.8245098
0.84362745 0.84362745 0.84362745
0.85 0.85 0.85
0.7254902 0.7254902 0.7254902
0.72426471 0.72426471 0.72426471
0.72156863 0.72156863 0.72156863
0.71764706 0.71764706 0.71764706
0.71176471 0.71176471 0.71176471
0.70588235 0.70588235 0.70588235
0.70735294 0.70735294 0.70735294
0.70784314 0.70784314 0.70784314
0.70980392 0.70980392 0.70980392
0.70857843 0.70857843 0.70857843
0.70735294 0.70735294 0.70735294
0.71323529 0.71323529 0.71323529
0.7254902 0.7254902 0.7254902
0.73578431 0.73578431 0.73578431
0.74803922 0.74803922 0.74803922
0.75906863 0.75906863 0.75906863
0.76862745 0.76862745 0.76862745
0.77696078 0.77696078 0.77696078
0.78676471 0.78676471 0.78676471
0.79362745 0.79362745 0.79362745
0.80882353 0.80882353 0.80882353
0.82843137 0.82843137 0.82843137
0.84901961 0.84901961 0.84901961
0.86029412 0.86029412 0.86029412
0.86470588 0.86470588 0.86470588
0.7627451 0.7627451 0.7627451
0.7627451 0.7627451 0.7627451
0.7627451 0.7627451 0.7627451
0.75931373 0.75931373 0.75931373
0.75318627 0.75318627 0.75318627
0.74705882 0.74705882 0.74705882
0.75098039 0.75098039 0.75098039
0.75147059 0.75147059 0.75147059
0.75490196 0.75490196 0.75490196
0.75275735 0.75275735 0.75275735
0.75098039 0.75098039 0.75098039
0.75398284 0.75398284 0.75398284
0.76078431 0.76078431 0.76078431
0.77107843 0.77107843 0.77107843
0.78137255 0.78137255 0.78137255
0.79166667 0.79166667 0.79166667
0.80196078 0.80196078 0.80196078
0.81176471 0.81176471 0.81176471
0.81801471 0.81801471 0.81801471
0.82107843 0.82107843 0.82107843
0.83651961 0.83651961 0.83651961
0.85294118 0.85294118 0.85294118
0.87095588 0.87095588 0.87095588
0.88088235 0.88088235 0.88088235
0.88333333 0.88333333 0.88333333
0.80098039 0.80098039 0.80098039
0.80392157 0.80392157 0.80392157
0.80392157 0.80392157 0.80392157
0.80306373 0.80306373 0.80306373
0.79754902 0.79754902 0.79754902
0.78823529 0.78823529 0.78823529
0.79117647 0.79117647 0.79117647
0.79607843 0.79607843 0.79607843
0.79901961 0.79901961 0.79901961
0.79607843 0.79607843 0.79607843
0.79215686 0.79215686 0.79215686
0.79215686 0.79215686 0.79215686
0.79901961 0.79901961 0.79901961
0.80833333 0.80833333 0.80833333
0.81862745 0.81862745 0.81862745
0.82598039 0.82598039 0.82598039
0.83627451 0.83627451 0.83627451
0.84375 0.84375 0.84375
0.84803922 0.84803922 0.84803922
0.84889706 0.84889706 0.84889706
0.86372549 0.86372549 0.86372549
0.88002451 0.88002451 0.88002451
0.89485294 0.89485294 0.89485294
0.9 0.9 0.9
0.90098039 0.90098039 0.90098039
0.8372549 0.8372549 0.8372549
0.83970588 0.83970588 0.83970588
0.84117647 0.84117647 0.84117647
0.84362745 0.84362745 0.84362745
0.83921569 0.83921569 0.83921569
0.82941176 0.82941176 0.82941176
0.83235294 0.83235294 0.83235294
0.84117647 0.84117647 0.84117647
0.84117647 0.84117647 0.84117647
0.83817402 0.83817402 0.83817402
0.83517157 0.83517157 0.83517157
0.82971814 0.82971814 0.82971814
0.83529412 0.83529412 0.83529412
0.84540441 0.84540441 0.84540441
0.85441176 0.85441176 0.85441176
0.8622549 0.8622549 0.8622549
0.87107843 0.87107843 0.87107843
0.87352941 0.87352941 0.87352941
0.87352941 0.87352941 0.87352941
0.87481618 0.87481618 0.87481618
0.88995098 0.88995098 0.88995098
0.90686275 0.90686275 0.90686275
0.91960784 0.91960784 0.91960784
0.92058824 0.92058824 0.92058824
0.92058824 0.92058824 0.92058824
0.8627451 0.8627451 0.8627451
0.86666667 0.86666667 0.86666667
0.86764706 0.86764706 0.86764706
0.87401961 0.87401961 0.87401961
0.8745098 0.8745098 0.8745098
0.86617647 0.86617647 0.86617647
0.86666667 0.86666667 0.86666667
0.87990196 0.87990196 0.87990196
0.8745098 0.8745098 0.8745098
0.87058824 0.87058824 0.87058824
0.86666667 0.86666667 0.86666667
0.8627451 0.8627451 0.8627451
0.86470588 0.86470588 0.86470588
0.875 0.875 0.875
0.88235294 0.88235294 0.88235294
0.89313725 0.89313725 0.89313725
0.89803922 0.89803922 0.89803922
0.89411765 0.89411765 0.89411765
0.89411765 0.89411765 0.89411765
0.89411765 0.89411765 0.89411765
0.90980392 0.90980392 0.90980392
0.92647059 0.92647059 0.92647059
0.9372549 0.9372549 0.9372549
0.9372549 0.9372549 0.9372549
0.9372549 0.9372549 0.9372549
0.041666667 0.041666667 0.041666667
0.047120098 0.047120098 0.047120098
0.05625 0.05625 0.05625
0.063419118 0.063419118 0.063419118
0.070833333 0.070833333 0.070833333
0.096752451 0.096752451 0.096752451
0.12781863 0.12781863 0.12781863
0.15588235 0.15588235 0.15588235
0.18284314 0.18284314 0.18284314
0.20980392 0.20980392 0.20980392
0.24068627 0.24068627 0.24068627
0.26783088 0.26783088 0.26783088
0.29656863 0.29656863 0.29656863
0.3254902 0.3254902 0.3254902
0.35392157 0.35392157 0.35392157
0.38480392 0.38480392 0.38480392
0.41568627 0.41568627 0.41568627
0.44656863 0.44656863 0.44656863
0.47990196 0.47990196 0.47990196
0.5122549 0.5122549 0.5122549
0.54705882 0.54705882 0.54705882
0.57794118 0.57794118 0.57794118
0.61237745 0.61237745 0.61237745
0.63970588 0.63970588 0.63970588
0.65882353 0.65882353 0.65882353
0.041666667 0.041666667 0.041666667
0.046568627 0.046568627 0.046568627
0.058164828 0.058164828 0.058164828
0.073414522 0.073414522 0.073414522
0.089246324 0.089246324 0.089246324
0.11029412 0.11029412 0.11029412
0.1355239 0.1355239 0.1355239
0.15890778 0.15890778 0.15890778
0.18284314 0.18284314 0.18284314
0.20980392 0.20980392 0.20980392
0.24068627 0.24068627 0.24068627
0.27382813 0.27382813 0.27382813
0.30490196 0.30490196 0.30490196
0.33266697 0.33266697 0.33266697
0.36029412 0.36029412 0.36029412
0.39025735 0.39025735 0.39025735
0.42058824 0.42058824 0.42058824
0.45202206 0.45202206 0.45202206
0.48382353 0.48382353 0.48382353
0.51610754 0.51610754 0.51610754
0.54905025 0.54905025 0.54905025
0.58138021 0.58138021 0.58138021
0.6127451 0.6127451 0.6127451
0.64181219 0.64181219 0.64181219
0.66219363 0.66219363 0.66219363
0.056372549 0.056372549 0.056372549
0.060661765 0.060661765 0.060661765
0.073498775 0.073498775 0.073498775
0.093627451 0.093627451 0.093627451
0.11047794 0.11047794 0.11047794
0.13088235 0.13088235 0.13088235
0.15147059 0.15147059 0.15147059
0.17130821 0.17130821 0.17130821
0.19227941 0.19227941 0.19227941
0.21637561 0.21637561 0.21637561
0.24822304 0.24822304 0.24822304
0.28440564 0.28440564 0.28440564
0.31727941 0.31727941 0.31727941
0.34617034 0.34617034 0.34617034
0.37175245 0.37175245 0.37175245
0.40022978 0.40022978 0.40022978
0.42843137 0.42843137 0.42843137
0.45931373 0.45931373 0.45931373
0.49065564 0.49065564 0.49065564
0.52441789 0.52441789 0.52441789
0.55551471 0.55551471 0.55551471
0.58578431 0.58578431 0.58578431
0.61666667 0.61666667 0.61666667
