site/assets/luts/natron-haldclut--fuji3510-constlclip--1f86a142b.cube
# LUTr-Project: LUTr — LUTrepository
# LUTr-Schema-Version: 1
# LUTr-ID: natron-haldclut--fuji3510-constlclip--1f86a142b
# LUTr-Title: fuji3510 constlclip
# LUTr-Collection: Natron HaldCLUT
# LUTr-Collection-ID: natron-haldclut-presets
# LUTr-Source: https://github.com/NatronGitHub/clut
# LUTr-Source-File: submissions/natron-haldclut-presets/print/fuji3510_constlclip.png
# LUTr-Source-Format: PNG
# LUTr-Source-SHA256: 0227bff18941b40052cc2f471fdf586daf2f0eb4d4471497fd98c3b2430dd35b
# LUTr-License: CC-BY-SA-4.0
# LUTr-License-URL: https://github.com/NatronGitHub/clut#license
# LUTr-Tags: creative, film, film-emulation, hald-clut, natron, png, cube
# LUTr-Transform-Class: film-emulation
# LUTr-Input-Color-Space: srgb
# LUTr-Output-Color-Space: srgb
# LUTr-Color-Space-Confidence: assumed-display-referred
# LUTr-Conversion-Method: PNG LUT image decoded at 16-bit and sampled to 25x25x25 3D CUBE
# LUTr-Conversion-Date: 2026-07-27
# LUTr-Conversion-Tool: LUTr scripts/convert-all-to-cube.mjs
# LUTr-Conversion-Grid: 25x25x25
# LUTr-Note: Preserve this metadata and the upstream license notices when redistributing.
TITLE "fuji3510 constlclip"
LUT_3D_SIZE 25
DOMAIN_MIN 0 0 0
DOMAIN_MAX 1 1 1
0.0078431373 0.0039215686 0.0039215686
0.014215686 0.010294118 0.0078431373
0.020588235 0.016666667 0.011764706
0.026960784 0.023039216 0.015686275
0.035294118 0.025490196 0.015686275
0.055882353 0.031372549 0.019607843
0.073529412 0.035294118 0.019607843
0.089215686 0.035294118 0.019607843
0.12156863 0.039215686 0.019607843
0.16666667 0.043137255 0.0093137255
0.20784314 0.047058824 0.0029411765
0.26372549 0.057843137 0
0.32156863 0.07254902 0
0.36176471 0.078431373 0
0.37843137 0.074509804 0
0.39803922 0.072058824 0.0014705882
0.43921569 0.08627451 0.011764706
0.46764706 0.094117647 0.019607843
0.47941176 0.093137255 0.019607843
0.48578431 0.086764706 0.015686275
0.49803922 0.090196078 0.015686275
0.52254902 0.094607843 0.011764706
0.52647059 0.098039216 0.011764706
0.52156863 0.094117647 0.011764706
0.52941176 0.098039216 0.011764706
0.014215686 0.014215686 0.011764706
0.015686275 0.017585784 0.013296569
0.020588235 0.018504902 0.014215686
0.026960784 0.021752451 0.015686275
0.035294118 0.024264706 0.015686275
0.058333333 0.031372549 0.019607843
0.080759804 0.037132353 0.019607843
0.10435049 0.043137255 0.022058824
0.13578431 0.049509804 0.019607843
0.17849265 0.053431373 0.014767157
0.2254902 0.058333333 0.0074754902
0.27303922 0.064705882 0.0026348039
0.32352941 0.075 0
0.36813725 0.080882353 0
0.39117647 0.080882353 0
0.41715686 0.085723039 0.0063112745
0.44558824 0.092647059 0.018137255
0.47156863 0.096568627 0.022610294
0.48639706 0.096568627 0.019607843
0.50490196 0.098713235 0.016176471
0.51666667 0.1004902 0.015686275
0.53106618 0.10441176 0.015502451
0.53823529 0.10441176 0.014215686
0.54362745 0.10741422 0.014767157
0.55 0.11078431 0.015686275
0.016666667 0.028431373 0.019607843
0.019607843 0.028431373 0.020588235
0.023529412 0.028431373 0.019607843
0.02745098 0.029289216 0.019607843
0.035784314 0.032843137 0.020588235
0.063235294 0.040196078 0.020955882
0.091176471 0.047058824 0.023529412
0.12205882 0.053431373 0.023529412
0.15392157 0.059803922 0.023529412
0.18970588 0.064338235 0.01997549
0.24117647 0.071568627 0.01495098
0.28884804 0.076348039 0.0079656863
0.33431373 0.081372549 0.0044117647
0.3754902 0.087254902 0
0.40906863 0.091911765 0.0029411765
0.4377451 0.099019608 0.0093137255
0.46470588 0.10294118 0.018627451
0.48468137 0.10686275 0.023529412
0.50490196 0.11078431 0.022794118
0.52205882 0.11176471 0.019730392
0.5372549 0.11519608 0.018137255
0.55147059 0.11568627 0.015686275
0.56176471 0.11862745 0.015686275
0.56813725 0.12254902 0.016666667
0.5745098 0.12647059 0.019607843
0.023039216 0.042647059 0.026960784
0.021752451 0.042647059 0.026960784
0.024509804 0.042647059 0.026960784
0.030882353 0.04564951 0.026960784
0.037254902 0.05 0.026960784
0.056801471 0.053982843 0.030882353
0.083823529 0.058210784 0.030882353
0.11991422 0.065870098 0.030882353
0.15686275 0.073529412 0.02745098
0.20373775 0.079901961 0.021078431
0.25526961 0.085416667 0.01127451
0.30294118 0.089644608 0.0048406863
0.34803922 0.095343137 0.0022058824
0.38921569 0.10147059 0
0.42745098 0.10796569 0.00036764706
0.4622549 0.11292892 0.0058823529
0.48529412 0.11715686 0.012254902
0.50343137 0.12107843 0.019914216
0.5189951 0.125 0.027328431
0.53921569 0.12843137 0.023529412
0.55955882 0.13235294 0.017892157
0.5716299 0.13327206 0.015686275
0.57855392 0.13627451 0.018627451
0.58511029 0.14166667 0.023039216
0.59117647 0.14411765 0.023529412
0.023529412 0.054901961 0.033333333
0.022303922 0.054901961 0.033333333
0.025490196 0.055882353 0.033333333
0.029411765 0.062254902 0.033333333
0.03627451 0.066666667 0.034313725
0.055882353 0.070588235 0.037254902
0.083333333 0.074019608 0.037254902
0.11691176 0.081127451 0.037254902
0.15686275 0.088235294 0.033333333
0.21348039 0.094117647 0.018627451
0.26568627 0.1004902 0.0068627451
0.31372549 0.10563725 0.00024509804
0.3627451 0.11568627 0.00098039216
0.40980392 0.12205882 0.0039215686
0.44803922 0.12941176 0.0039215686
0.48284314 0.13088235 0.0019607843
0.51176471 0.1372549 0.0058823529
0.53308824 0.13970588 0.013480392
0.54901961 0.14754902 0.023529412
0.56593137 0.14901961 0.019607843
0.58137255 0.15098039 0.015686275
0.58676471 0.15343137 0.015686275
0.59509804 0.15686275 0.018627451
0.6 0.1622549 0.025
0.60392157 0.16862745 0.029411765
0.015686275 0.075490196 0.043627451
0.015686275 0.075490196 0.043627451
0.015196078 0.075490196 0.039705882
0.015196078 0.07935049 0.039705882
0.02745098 0.083333333 0.041421569
0.05245098 0.087745098 0.043137255
0.083333333 0.094117647 0.043137255
0.11439951 0.096568627 0.043137255
0.16078431 0.10294118 0.035294118
0.22089461 0.11354167 0.020772059
0.27745098 0.12009804 0.0029411765
0.33229167 0.12696078 0
0.38357843 0.13627451 0.0039215686
0.43039216 0.14613971 0.0039215686
0.46727941 0.15036765 0.0044117647
0.4995098 0.15441176 0.0044117647
0.53431373 0.15833333 0.0044117647
0.55882353 0.16439951 0.010294118
0.57892157 0.16973039 0.02254902
0.59264706 0.17009804 0.016605392
0.59901961 0.17352941 0.015686275
0.60447304 0.17444853 0.015686275
0.60870098 0.17781863 0.018259804
0.62242647 0.18547794 0.023223039
0.62107843 0.18970588 0.026960784
0.012745098 0.096078431 0.053921569
0.012132353 0.096078431 0.051470588
0.0071078431 0.096078431 0.049264706
0.00098039216 0.096078431 0.046078431
0.021078431 0.10490196 0.047058824
0.046446078 0.1122549 0.05
0.078676471 0.11862745 0.047058824
0.11678922 0.12401961 0.043137255
0.17156863 0.13039216 0.032352941
0.23627451 0.14068627 0.01752451
0.29730392 0.15416667 0.0039215686
0.35588235 0.16433824 0.0039215686
0.40784314 0.16519608 0.0039215686
0.4504902 0.17009804 0.0044117647
0.48137255 0.17671569 0.011519608
0.51433824 0.18284314 0.013602941
0.55098039 0.18921569 0.010784314
0.57941176 0.19203431 0.015318627
0.59901961 0.19705882 0.023284314
0.60931373 0.19791667 0.019607843
0.61960784 0.20098039 0.014215686
0.62585784 0.20147059 0.012745098
0.63137255 0.20490196 0.015686275
0.64264706 0.21090686 0.019607843
0.64803922 0.21666667 0.020588235
0.010294118 0.1127451 0.064215686
0.0069240196 0.11519608 0.061764706
0.0039215686 0.11875 0.060294118
0.0014705882 0.12420343 0.060294118
0.0075980392 0.12916667 0.056372549
0.030085784 0.13694853 0.056188725
0.073161765 0.14742647 0.048039216
0.1216299 0.15435049 0.041666667
0.18578431 0.16127451 0.025980392
0.25055147 0.17156863 0.0078431373
0.31262255 0.18578431 0.0039215686
0.37107843 0.2 0.0039215686
0.425 0.20392157 0.0053921569
0.46354167 0.20588235 0.011948529
0.49473039 0.20441176 0.018995098
0.52800245 0.21133578 0.021078431
0.56372549 0.21764706 0.019607843
0.59368873 0.22009804 0.020526961
0.61458333 0.22254902 0.026470588
0.62941176 0.22745098 0.020098039
0.64411765 0.23137255 0.0098039216
0.65373775 0.23333333 0.0083333333
0.65183824 0.23578431 0.016789216
0.65784314 0.240625 0.020526961
0.66666667 0.24215686 0.019607843
0.0078431373 0.1372549 0.074509804
0.0078431373 0.14362745 0.074509804
0.0068627451 0.14901961 0.074509804
0.0039215686 0.15294118 0.071078431
0.0019607843 0.15686275 0.068627451
0.017647059 0.16176471 0.062254902
0.064705882 0.1754902 0.051960784
0.12401961 0.18186275 0.040196078
0.19607843 0.19607843 0.019607843
0.26176471 0.20637255 0.0053921569
0.32352941 0.22156863 0.0039215686
0.38186275 0.23480392 0.0039215686
0.4372549 0.24705882 0.0078431373
0.48382353 0.24705882 0.012254902
0.51470588 0.24705882 0.02254902
0.54705882 0.24852941 0.023529412
0.58823529 0.25882353 0.019607843
0.6127451 0.25882353 0.019607843
0.63333333 0.25882353 0.023529412
0.65 0.26617647 0.016176471
0.66470588 0.2745098 0.011764706
0.67058824 0.2745098 0.015686275
0.6745098 0.2745098 0.02254902
0.67598039 0.27598039 0.023529412
0.67843137 0.27843137 0.023529412
0.0078431373 0.1745098 0.091176471
0.0078431373 0.17598039 0.091176471
0.0096813725 0.17990196 0.08872549
0.0078431373 0.18118873 0.087254902
0.006372549 0.1877451 0.084068627
0.0088235294 0.19852941 0.072058824
0.03872549 0.2067402 0.058333333
0.11121324 0.22058824 0.040196078
0.20245098 0.23480392 0.017156863
0.26960784 0.25 0.0087622549
0.33137255 0.26176471 0.0039215686
0.38952206 0.27205882 0.0017769608
0.44632353 0.28382353 0.0058823529
0.50116422 0.29460784 0.013541667
0.53921569 0.29852941 0.017156863
0.57702206 0.30245098 0.016605392
0.61519608 0.30637255 0.013235294
0.63970588 0.30637255 0.0077818627
0.65747549 0.30845588 0.010294118
0.67107843 0.31029412 0.015686275
0.68529412 0.31691176 0.016911765
0.69834559 0.32254902 0.022242647
0.70894608 0.32953431 0.027083333
0.70931373 0.32990196 0.02745098
0.70931373 0.32990196 0.025980392
0.0039215686 0.20686275 0.10392157
0.0078431373 0.21078431 0.1057598
0.011764706 0.21176471 0.10367647
0.011764706 0.21090686 0.10036765
0.011764706 0.21470588 0.097058824
0.0074754902 0.23529412 0.08627451
0.0075980392 0.2375 0.065686275
0.094730392 0.25784314 0.040196078
0.19313725 0.27843137 0.014705882
0.26617647 0.2932598 0.0089460784
0.33039216 0.30686275 0.0068627451
0.39301471 0.31066176 0.0039215686
0.4495098 0.31911765 0.0019607843
0.51041667 0.33627451 0.011887255
0.55784314 0.34509804 0.015931373
0.59178922 0.3439951 0.015686275
0.62843137 0.34901961 0.011764706
0.66237745 0.35784314 0.006004902
0.68333333 0.36176471 0.0049019608
0.69656863 0.36176471 0.011764706
0.70833333 0.36421569 0.015686275
0.72794118 0.37659314 0.019117647
0.73921569 0.38137255 0.023284314
0.73627451 0.38382353 0.026838235
0.73529412 0.38137255 0.031372549
0.0039215686 0.24166667 0.11715686
0.012438725 0.24166667 0.11715686
0.015686275 0.24644608 0.11801471
0.015686275 0.24901961 0.11672794
0.013480392 0.25294118 0.11127451
0.01127451 0.26954657 0.10392157
0.0094362745 0.27806373 0.080392157
0.076470588 0.29901961 0.035294118
0.16568627 0.31960784 0.0083333333
0.24411765 0.3377451 0.0044117647
0.31801471 0.35147059 0.0039215686
0.39522059 0.36176471 0.0039215686
0.47156863 0.37745098 0.0056372549
0.53082108 0.39019608 0.015686275
0.57071078 0.39276961 0.019607843
0.61286765 0.3973652 0.019117647
0.65294118 0.40098039 0.019117647
0.68480392 0.41158088 0.015196078
0.71421569 0.41678922 0.0078431373
0.72745098 0.41715686 0.01127451
0.73602941 0.42083333 0.017401961
0.74852941 0.42205882 0.0083333333
0.75882353 0.42928922 0.011397059
0.76109069 0.43676471 0.021384804
0.76323529 0.43676471 0.031372549
0.015686275 0.27254902 0.13137255
0.020098039 0.27254902 0.13137255
0.023039216 0.27745098 0.13137255
0.019607843 0.2877451 0.13137255
0.016666667 0.29607843 0.12843137
0.017156863 0.30490196 0.11887255
0.021078431 0.32352941 0.095588235
0.076715686 0.34215686 0.040196078
0.14705882 0.3627451 0.0019607843
0.23848039 0.3872549 0.0039215686
0.33186275 0.40735294 0.0058823529
0.41764706 0.42303922 0.0058823529
0.48333333 0.43431373 0.01372549
0.53382353 0.43308824 0.019852941
0.58529412 0.44166667 0.023529412
0.63602941 0.45245098 0.023529412
0.67843137 0.45882353 0.025490196
0.71004902 0.46470588 0.023039216
0.73333333 0.46862745 0.017156863
0.74656863 0.46862745 0.021078431
0.75392157 0.46960784 0.02745098
0.76936275 0.47647059 0.016666667
0.78137255 0.48039216 0.0098039216
0.78357843 0.48823529 0.027696078
0.78431373 0.49215686 0.033333333
0.023529412 0.30735294 0.14558824
0.026960784 0.30520833 0.14215686
0.022058824 0.3122549 0.14301471
0.0091911765 0.32346814 0.14558824
0.025490196 0.32745098 0.14191176
0.02689951 0.33970588 0.13284314
0.016176471 0.35772059 0.11237745
0.057659314 0.38498775 0.045404412
0.12941176 0.40980392 0.0039215686
0.24001225 0.43694853 0.006372549
0.3557598 0.4627451 0.0078431373
0.43627451 0.47990196 0.0074142157
0.49901961 0.48676471 0.0073529412
0.56029412 0.49270833 0.011335784
0.61176471 0.5 0.015563725
0.65784314 0.50980392 0.020894608
0.69901961 0.5127451 0.026960784
0.72959559 0.51881127 0.02745098
0.75098039 0.52107843 0.023529412
0.76648284 0.52487745 0.026102941
0.77598039 0.5245098 0.030637255
0.79411765 0.53327206 0.02745098
0.80539216 0.5432598 0.025735294
0.80539216 0.54411765 0.031188725
0.80539216 0.54411765 0.030392157
0.020588235 0.33823529 0.15588235
0.022426471 0.33823529 0.15588235
0.018627451 0.34705882 0.15588235
0.011764706 0.35735294 0.15588235
0.02254902 0.36323529 0.15392157
0.019607843 0.37732843 0.14313725
0.0026960784 0.39191176 0.12647059
0.052205882 0.4252451 0.054901961
0.13627451 0.45392157 0.0039215686
0.2685049 0.48186275 0.0074754902
0.37156863 0.50686275 0.0078431373
0.44656863 0.52107843 0.0039215686
0.51666667 0.53529412 0.0024509804
0.58088235 0.54460784 0.0040441176
0.63014706 0.55563725 0.010784314
0.6754902 0.56127451 0.016053922
0.71666667 0.56764706 0.016666667
0.74693627 0.57156863 0.022426471
0.76862745 0.57254902 0.026715686
0.79227941 0.58198529 0.020955882
0.80686275 0.58627451 0.015196078
0.81470588 0.5877451 0.014093137
0.83235294 0.5995098 0.026470588
0.83872549 0.60588235 0.025490196
0.83333333 0.60588235 0.01372549
0.018137255 0.36764706 0.16617647
0.019607843 0.37156863 0.16617647
0.018627451 0.37794118 0.16617647
0.011764706 0.3846201 0.16617647
0.011764706 0.40098039 0.16029412
0.0075367647 0.41292892 0.15
0.0039215686 0.42806373 0.13676471
0.059803922 0.46372549 0.062193627
0.1372549 0.49313725 0.0039215686
0.26323529 0.51856618 0.0078431373
0.37352941 0.53970588 0.011764706
0.45667892 0.55814951 0.009620098
0.53284314 0.5745098 0.0066176471
0.60147059 0.59215686 0.0056985294
0.64607843 0.60098039 0.0078431373
0.69117647 0.60735294 0.011764706
0.73627451 0.61764706 0.011764706
0.76954657 0.62303922 0.015134804
0.79448529 0.6247549 0.023161765
0.81372549 0.63284314 0.020098039
0.82720588 0.6379902 0.01127451
0.83529412 0.63792892 0.0037377451
0.85588235 0.65196078 0.021568627
0.86121324 0.65778186 0.020588235
0.85392157 0.65686275 0.0029411765
0.019607843 0.39607843 0.17647059
0.019607843 0.39852941 0.17647059
0.015686275 0.40392157 0.17647059
0.011764706 0.40735294 0.17254902
0.011764706 0.42745098 0.17254902
0.0073529412 0.44411765 0.16372549
0.0029411765 0.46078431 0.14313725
0.060784314 0.49705882 0.066176471
0.13333333 0.51764706 0.0039215686
0.26078431 0.54607843 0.0078431373
0.36960784 0.57058824 0.012745098
0.4627451 0.59117647 0.015686275
0.54509804 0.61568627 0.011764706
0.61813725 0.63578431 0.0078431373
0.66568627 0.64215686 0.0078431373
0.71568627 0.65245098 0.011764706
0.75294118 0.65882353 0.011764706
0.7877451 0.66666667 0.014215686
0.81078431 0.67156863 0.019607843
0.83039216 0.67794118 0.023529412
0.84705882 0.67843137 0.023529412
0.86029412 0.68333333 0.024019608
0.87745098 0.69705882 0.030392157
0.88088235 0.69656863 0.02745098
0.8745098 0.69019608 0.023529412
0.029901961 0.41568627 0.18431373
0.018995098 0.41966912 0.18431373
0.0093137255 0.42267157 0.18223039
0.011458333 0.42794118 0.17910539
0.01495098 0.44681373 0.17647059
0.01372549 0.46599265 0.16764706
0.014583333 0.48137255 0.1495098
0.07689951 0.51519608 0.074938725
0.16519608 0.54215686 0.0088235294
0.29166667 0.5721201 0.0053921569
0.39203431 0.60330882 0.012745098
0.47941176 0.61960784 0.019117647
0.5495098 0.64019608 0.01495098
0.6245098 0.66292892 0.0078431373
0.67928922 0.67634804 0.0039215686
0.72990196 0.68633578 0.0053921569
0.76715686 0.69362745 0.010294118
0.80477941 0.70091912 0.023958333
0.8310049 0.70821078 0.030514706
0.84509804 0.70900735 0.033639706
0.86372549 0.71397059 0.037009804
0.88186275 0.72175245 0.040379902
0.89595588 0.73039216 0.041666667
0.89601716 0.72745098 0.044117647
0.88872549 0.72107843 0.040196078
0.044117647 0.4254902 0.18921569
0.016176471 0.43235294 0.18823529
0.0041666667 0.44044118 0.1875
0.01127451 0.44767157 0.18431373
0.01372549 0.4622549 0.17843137
0.0068627451 0.47647059 0.16678922
0.016666667 0.5 0.15098039
0.10085784 0.52904412 0.081372549
0.20588235 0.5627451 0.032352941
0.31740196 0.59754902 0.0028186275
0.41053922 0.62352941 0.012745098
0.49522059 0.6442402 0.019607843
0.56176471 0.66078431 0.018137255
0.62745098 0.68137255 0.011397059
0.68553922 0.69901961 0.0056372549
0.7372549 0.71323529 0.0039215686
0.77843137 0.72058824 0.020588235
0.81764706 0.72598039 0.034803922
0.86593137 0.75073529 0.054656863
0.85931373 0.73186275 0.044117647
0.8754902 0.7372549 0.048039216
0.89154412 0.7435049 0.051960784
0.89803922 0.74705882 0.055882353
0.90196078 0.74889706 0.055882353
0.89901961 0.74705882 0.055882353
0.017156863 0.43872549 0.19558824
0.014889706 0.44264706 0.19215686
0.012132353 0.45526961 0.19203431
0.014767157 0.46176471 0.18780637
0.01372549 0.47034314 0.18186275
0.0068627451 0.490625 0.16721814
0.0037990196 0.51421569 0.14742647
0.10569853 0.54479167 0.079411765
0.21176471 0.57990196 0.035294118
0.3245098 0.61452206 0.014889706
0.42328431 0.6442402 0.015318627
0.49895833 0.66470588 0.023039216
0.56838235 0.68137255 0.023284314
0.63786765 0.70202206 0.015625
0.6995098 0.71875 0.011397059
0.7526348 0.73382353 0.014215686
0.79313725 0.74117647 0.031862745
0.82285539 0.74803922 0.045098039
0.84889706 0.75245098 0.050980392
0.86911765 0.75545343 0.054411765
0.88578431 0.75612745 0.058333333
0.89761029 0.76072304 0.062254902
0.90183824 0.76666667 0.066176471
0.90716912 0.76764706 0.070098039
0.90931373 0.76764706 0.070098039
0.0098039216 0.44705882 0.19607843
0.015686275 0.4495098 0.19215686
0.018137255 0.46764706 0.19656863
0.019607843 0.47254902 0.19411765
0.018627451 0.48627451 0.18627451
0.01127451 0.50490196 0.17107843
0.0019607843 0.5254902 0.13872549
0.093137255 0.55931373 0.066666667
0.20392157 0.59411765 0.01372549
0.32867647 0.63014706 0.023284314
0.4372549 0.6627451 0.020098039
0.51053922 0.67965686 0.023529412
0.58235294 0.69607843 0.026470588
0.6504902 0.71666667 0.023039216
0.71568627 0.73578431 0.018137255
0.76789216 0.7504902 0.023039216
0.80392157 0.76078431 0.041176471
0.83872549 0.76593137 0.054166667
0.86568627 0.77205882 0.059803922
0.88627451 0.77696078 0.06495098
0.89411765 0.77254902 0.065686275
0.90857843 0.78088235 0.068872549
0.92205882 0.78823529 0.070588235
0.92156863 0.7870098 0.07254902
0.92352941 0.78823529 0.07254902
0.015686275 0.45245098 0.19656863
0.015196078 0.45704657 0.19509804
0.01875 0.47352941 0.20012255
0.030392157 0.48976716 0.19264706
0.032598039 0.50294118 0.18578431
0.01997549 0.52310049 0.16697304
0.011764706 0.53676471 0.13982843
0.084313725 0.565625 0.074264706
0.2254902 0.60441176 0.019607843
0.34185049 0.64313725 0.023039216
0.45281863 0.67352941 0.023039216
0.53045343 0.69368873 0.019607843
0.6002451 0.7120098 0.023529412
0.66666667 0.73088235 0.02310049
0.73235294 0.75183824 0.022671569
0.79117647 0.77107843 0.028247549
0.82843137 0.77745098 0.051470588
0.86078431 0.78137255 0.061764706
0.8817402 0.78615196 0.064093137
0.89460784 0.78872549 0.070159314
0.90514706 0.78921569 0.074509804
0.91960784 0.7966299 0.070588235
0.93713235 0.80343137 0.070220588
0.94393382 0.80490196 0.066666667
0.94607843 0.80441176 0.066176471
0.0088235294 0.47941176 0.20686275
0.0088235294 0.48223039 0.20870098
0.0049019608 0.49338235 0.20710784
0.026102941 0.50735294 0.19963235
0.04754902 0.5245098 0.18137255
0.043872549 0.54791667 0.16593137
0.0073529412 0.56985294 0.10073529
0.096691176 0.60245098 0.040808824
0.25 0.62156863 0.016666667
0.36041667 0.65526961 0.016053922
0.46666667 0.6872549 0.012745098
0.54497549 0.70698529 0.016176471
0.60735294 0.71862745 0.022058824
0.67389706 0.73737745 0.023529412
0.74289216 0.7625 0.026470588
0.80306373 0.78186275 0.03370098
0.84313725 0.78823529 0.054901961
0.87156863 0.79178922 0.06629902
0.89607843 0.8 0.069852941
0.91813725 0.80551471 0.074387255
0.93431373 0.81127451 0.078431373
0.94276961 0.81372549 0.067647059
0.95465686 0.81544118 0.066666667
0.96372549 0.81862745 0.061642157
0.96372549 0.81862745 0.061764706
0.0024509804 0.50490196 0.21862745
0.0024509804 0.50735294 0.21078431
0.0077205882 0.51678922 0.20845588
0.029411765 0.54068627 0.20422794
0.03627451 0.55735294 0.18921569
0.04497549 0.58057598 0.14889706
0.018627451 0.60821078 0.096691176
0.12953431 0.63278186 0.023223039
0.26029412 0.65392157 0.012745098
0.37457108 0.6745098 0.0078431373
0.48125 0.69754902 0.0024509804
0.5627451 0.72028186 0.0098039216
0.6245098 0.73553922 0.018872549
0.68363971 0.74656863 0.027941176
0.75355392 0.77316176 0.036151961
0.80827206 0.78578431 0.041237745
0.84460784 0.79362745 0.054901961
0.87640931 0.79754902 0.068566176
0.90637255 0.80637255 0.072671569
0.93333333 0.81666667 0.078125
0.95098039 0.82230392 0.083088235
0.95931373 0.82371324 0.069117647
0.96446078 0.82389706 0.074019608
0.96917892 0.82591912 0.064705882
0.97401961 0.825 0.07745098
0 0.51764706 0.25882353
0 0.51372549 0.22794118
0.014705882 0.53333333 0.21078431
0.052941176 0.57058824 0.19705882
0.023529412 0.58039216 0.18627451
0.030392157 0.5995098 0.1377451
0.088235294 0.6372549 0.026470588
0.18872549 0.65343137 0.013235294
0.3254902 0.67843137 0
0.40392157 0.69509804 0.0024509804
0.49117647 0.70686275 0
0.57254902 0.73186275 0.0073529412
0.64117647 0.75490196 0.017647059
0.68970588 0.7504902 0.027941176
0.75490196 0.7745098 0.038235294
0.81372549 0.78970588 0.047058824
0.85098039 0.79607843 0.050980392
0.88186275 0.80245098 0.065196078
0.9127451 0.8127451 0.075490196
0.93676471 0.81960784 0.076470588
0.95294118 0.82352941 0.08627451
0.96911765 0.82794118 0.068627451
0.97254902 0.82843137 0.079411765
0.97254902 0.82745098 0.065686275
0.98039216 0.83137255 0.098039216
0.0078431373 0.0024509804 0.006372549
0.014215686 0.010294118 0.011213235
0.022426471 0.018504902 0.015686275
0.02745098 0.023529412 0.01942402
0.037254902 0.02745098 0.022058824
0.055882353 0.031372549 0.022058824
0.07254902 0.03247549 0.020220588
0.088296569 0.035294118 0.019607843
0.11764706 0.039215686 0.015686275
0.17156863 0.044669118 0.011764706
0.21911765 0.047058824 0.0057598039
0.27089461 0.056495098 0.00030637255
0.3247549 0.069362745 0
0.36452206 0.078247549 0
0.39301471 0.079901961 0.0024509804
0.42261029 0.082352941 0.0078431373
0.45196078 0.090196078 0.015686275
0.47640931 0.094117647 0.019607843
0.48970588 0.090196078 0.016789216
0.49852941 0.086764706 0.013541667
0.5127451 0.088235294 0.011764706
0.52892157 0.094607843 0.011764706
0.53468137 0.094117647 0.011764706
0.53970588 0.095588235 0.011764706
0.54852941 0.10196078 0.011764706
0.011764706 0.015747549 0.013296569
0.015686275 0.017930453 0.013871017
0.023115809 0.021599265 0.01606924
0.02745098 0.024869792 0.01942402
0.037254902 0.02745098 0.022058824
0.055882353 0.031678922 0.022058824
0.076700368 0.037515319 0.022748162
0.10098039 0.043137255 0.022977941
0.13431373 0.049509804 0.021139706
0.18186275 0.053431373 0.015916054
0.23125 0.057965686 0.0095435049
0.27745098 0.064820772 0.0036305147
0.32689951 0.073468137 0
0.37002911 0.082352941 0
0.39964767 0.084574142 0.0025275735
0.42687653 0.087806373 0.0093137255
0.45343137 0.093566176 0.019607843
0.47759651 0.096775429 0.020159314
0.49669118 0.096568627 0.018167892
0.51243873 0.096568627 0.015686275
0.52395833 0.09776348 0.014767157
0.53577665 0.10226716 0.012683824
0.54509804 0.10441176 0.012683824
