site/assets/luts/natron-haldclut--polaroid-px-680---52e9af14f.cube
# LUTr-Project: LUTr — LUTrepository
# LUTr-Schema-Version: 1
# LUTr-ID: natron-haldclut--polaroid-px-680---52e9af14f
# LUTr-Title: polaroid px-680 -
# LUTr-Collection: Natron HaldCLUT
# LUTr-Collection-ID: natron-haldclut-presets
# LUTr-Source: https://github.com/NatronGitHub/clut
# LUTr-Source-File: submissions/natron-haldclut-presets/instant_consumer/polaroid_px-680_-.png
# LUTr-Source-Format: PNG
# LUTr-Source-SHA256: 95a36465ecd762344ad023cf43874e3d2e9091c315663338dae524a8e9a78afc
# LUTr-License: CC-BY-SA-4.0
# LUTr-License-URL: https://github.com/NatronGitHub/clut#license
# LUTr-Tags: creative, film, film-emulation, hald-clut, natron, png, cube
# LUTr-Transform-Class: film-emulation
# LUTr-Input-Color-Space: srgb
# LUTr-Output-Color-Space: srgb
# LUTr-Color-Space-Confidence: assumed-display-referred
# LUTr-Conversion-Method: PNG LUT image decoded at 16-bit and sampled to 25x25x25 3D CUBE
# LUTr-Conversion-Date: 2026-07-27
# LUTr-Conversion-Tool: LUTr scripts/convert-all-to-cube.mjs
# LUTr-Conversion-Grid: 25x25x25
# LUTr-Note: Preserve this metadata and the upstream license notices when redistributing.
TITLE "polaroid px-680 -"
LUT_3D_SIZE 25
DOMAIN_MIN 0 0 0
DOMAIN_MAX 1 1 1
0 0.10196078 0.15686275
0 0.10196078 0.15686275
0 0.10098039 0.15588235
0.01372549 0.10147059 0.15294118
0.054901961 0.10392157 0.15686275
0.092156863 0.10637255 0.16078431
0.12647059 0.10980392 0.16372549
0.16813725 0.10980392 0.16617647
0.22745098 0.11372549 0.16470588
0.28921569 0.11372549 0.1622549
0.35098039 0.1127451 0.15980392
0.41960784 0.11666667 0.16029412
0.50196078 0.14117647 0.16470588
0.58039216 0.16176471 0.16862745
0.65882353 0.17941176 0.16862745
0.73039216 0.19362745 0.16470588
0.78823529 0.21960784 0.16862745
0.82303922 0.26715686 0.17892157
0.85882353 0.31078431 0.18921569
0.88921569 0.35147059 0.20294118
0.90980392 0.38627451 0.22745098
0.93039216 0.41666667 0.24803922
0.95098039 0.44411765 0.26862745
0.97156863 0.475 0.28529412
0.99215686 0.50196078 0.29803922
0 0.1122549 0.15931373
0 0.1122549 0.15778186
0.00098039216 0.11115196 0.15686275
0.020588235 0.11096814 0.15686275
0.058088235 0.10906863 0.15686275
0.095588235 0.11011029 0.15686275
0.13039216 0.11335784 0.15796569
0.17297794 0.11372549 0.1622549
0.23382353 0.11764706 0.16078431
0.29705882 0.12009804 0.16078431
0.35882353 0.12463235 0.16078431
0.42990196 0.13382353 0.16078431
0.50833333 0.14754902 0.16666667
0.59050245 0.16813725 0.17107843
0.66617647 0.18578431 0.17107843
0.72947304 0.20539216 0.16862745
0.78186275 0.23480392 0.17107843
0.82303922 0.27107843 0.17892157
0.86176471 0.31372549 0.18639706
0.89136029 0.35147059 0.19901961
0.90980392 0.38627451 0.22426471
0.93039216 0.41715686 0.24803922
0.94914216 0.44656863 0.26862745
0.96856618 0.475 0.28529412
0.98186275 0.49803922 0.29803922
0 0.12254902 0.16078431
0.0006127451 0.12254902 0.16078431
0.0058823529 0.12426471 0.16078431
0.025980392 0.12389706 0.16078431
0.062745098 0.12254902 0.16078431
0.096568627 0.11813725 0.15686275
0.13039216 0.11470588 0.15612745
0.17781863 0.11801471 0.15686275
0.24411765 0.12647059 0.15686275
0.30588235 0.13676471 0.16078431
0.36789216 0.14411765 0.16102941
0.44154412 0.15441176 0.16470588
0.52254902 0.16078431 0.16911765
0.60441176 0.17794118 0.17389706
0.66789216 0.19828431 0.17647059
0.72438725 0.22598039 0.17463235
0.77647059 0.25686275 0.17647059
0.81727941 0.28492647 0.18039216
0.86102941 0.31446078 0.18112745
0.89313725 0.35147059 0.19411765
0.90980392 0.38627451 0.22107843
0.92647059 0.41715686 0.24718137
0.94607843 0.44803922 0.26862745
0.96164216 0.47781863 0.2877451
0.9754902 0.49901961 0.30196078
0 0.13627451 0.16078431
0.0039215686 0.13676471 0.16292892
0.012254902 0.13676471 0.16470588
0.026470588 0.14019608 0.16470588
0.061029412 0.13651961 0.1625
0.096078431 0.13192402 0.16029412
0.12696078 0.12843137 0.1564951
0.18265931 0.13351716 0.15655637
0.2504902 0.14411765 0.15686275
0.3122549 0.15441176 0.16078431
0.37610294 0.16213235 0.16176471
0.45447304 0.17113971 0.1651348
0.53504902 0.18137255 0.17058824
0.61078431 0.19215686 0.17303922
0.66948529 0.21666667 0.17303922
0.72628676 0.24656863 0.17040441
0.77647059 0.27745098 0.17303922
0.81715686 0.30441176 0.17677696
0.85882353 0.33051471 0.18039216
0.89270833 0.35876225 0.1911152
0.90980392 0.39166667 0.21789216
0.92647059 0.4245098 0.24411765
0.94313725 0.45539216 0.26862745
0.95980392 0.48480392 0.2877451
0.97254902 0.50539216 0.30196078
0 0.14705882 0.16078431
0.0051470588 0.14705882 0.16470588
0.012254902 0.15147059 0.16470588
0.017401961 0.15465686 0.16470588
0.046078431 0.15294118 0.16470588
0.082352941 0.15294118 0.1627451
0.12843137 0.15784314 0.1627451
0.1879902 0.1627451 0.1627451
0.25490196 0.16666667 0.16078431
0.31862745 0.17254902 0.15686275
0.38186275 0.18137255 0.15784314
0.46078431 0.18970588 0.1625
0.53921569 0.20294118 0.16568627
0.61078431 0.22254902 0.16666667
0.67254902 0.24313725 0.16323529
0.73553922 0.26715686 0.15955882
0.78039216 0.29411765 0.16470588
0.81642157 0.32254902 0.175
0.85245098 0.35196078 0.18333333
0.88504902 0.38284314 0.20269608
0.90686275 0.40882353 0.21960784
0.92622549 0.43872549 0.24289216
0.94313725 0.46666667 0.26519608
0.96372549 0.49656863 0.28529412
0.97843137 0.51960784 0.30196078
0 0.15735294 0.16078431
0.0039215686 0.16029412 0.16470588
0.0074754902 0.16654412 0.16470588
0.010845588 0.16911765 0.16470588
0.024509804 0.16960784 0.16470588
0.068259804 0.17401961 0.16476716
0.12745098 0.18480392 0.1689951
0.18921569 0.19362745 0.16893382
0.25490196 0.19362745 0.16519608
0.32303922 0.19362745 0.15863971
0.38860294 0.19816176 0.15379902
0.46372549 0.21317402 0.15686275
0.54142157 0.23504902 0.16078431
0.61133578 0.25392157 0.16078431
0.67732843 0.2745098 0.15772059
0.74050245 0.29509804 0.15343137
0.78039216 0.31862745 0.16078431
0.81127451 0.34558824 0.1745098
0.84693627 0.37647059 0.18247549
0.88039216 0.40349265 0.21464461
0.90367647 0.43014706 0.22769608
0.92555147 0.45294118 0.23927696
0.94313725 0.47990196 0.25686275
0.96372549 0.50686275 0.28088235
0.98333333 0.53333333 0.30147059
0 0.17941176 0.16372549
0.0006127451 0.18492647 0.16470588
0.0039215686 0.18921569 0.16764706
0.0039215686 0.18921569 0.16764706
0.0053921569 0.18627451 0.16470588
0.058823529 0.20061275 0.1689951
0.12058824 0.21470588 0.17254902
0.18333333 0.22683824 0.17254902
0.24803922 0.23137255 0.16862745
0.31617647 0.23431373 0.1622549
0.39583333 0.24289216 0.15906863
0.47745098 0.25686275 0.15686275
0.55343137 0.2745098 0.16078431
0.6254902 0.29473039 0.16078431
0.68897059 0.3127451 0.15784314
0.73590686 0.33296569 0.15686275
0.77352941 0.35 0.16176471
0.81127451 0.37058824 0.16568627
0.84607843 0.39705882 0.18014706
0.87401961 0.4245098 0.20747549
0.89901961 0.44901961 0.22647059
0.92254902 0.46973039 0.23578431
0.94313725 0.49411765 0.25294118
0.95870098 0.5185049 0.27242647
0.96666667 0.53039216 0.2872549
0 0.22696078 0.17009804
0 0.23033088 0.17009804
0.0039215686 0.23272059 0.17254902
0.0039215686 0.23088235 0.17254902
0.0058823529 0.23357843 0.17132353
0.033823529 0.24607843 0.17273284
0.096323529 0.26421569 0.17647059
0.16421569 0.27310049 0.17647059
0.23382353 0.27794118 0.17254902
0.31672794 0.28915441 0.17009804
0.40147059 0.30245098 0.16764706
0.48039216 0.3127451 0.15882353
0.56078431 0.32303922 0.15931373
0.63841912 0.33596814 0.16078431
0.69019608 0.35294118 0.16078431
0.72990196 0.36813725 0.15686275
0.76862745 0.38235294 0.15686275
0.80980392 0.39810049 0.15539216
0.84509804 0.42267157 0.16911765
0.86942402 0.44509804 0.19215686
0.89338235 0.46568627 0.21348039
0.91893382 0.48627451 0.23039216
0.94019608 0.50759804 0.2439951
0.94754902 0.51911765 0.25882353
0.95392157 0.52941176 0.26911765
0 0.2745098 0.17647059
0 0.27696078 0.17647059
0 0.27843137 0.17647059
0.0039215686 0.27843137 0.17647059
0.0058823529 0.28823529 0.17647059
0.0088235294 0.29460784 0.17647059
0.073529412 0.31078431 0.17941176
0.14509804 0.31519608 0.17647059
0.23137255 0.32941176 0.17647059
0.32647059 0.35 0.18039216
0.41176471 0.36176471 0.1754902
0.48676471 0.37205882 0.16127451
0.56078431 0.38235294 0.15294118
0.63382353 0.39215686 0.15294118
0.68529412 0.39901961 0.15686275
0.72745098 0.40931373 0.15686275
0.76470588 0.42352941 0.15294118
0.80588235 0.43382353 0.14901961
0.84117647 0.44509804 0.15980392
0.86519608 0.46568627 0.18676471
0.88823529 0.48627451 0.20784314
0.91470588 0.50686275 0.22843137
0.93627451 0.52745098 0.24901961
0.94656863 0.53872549 0.26421569
0.94901961 0.54509804 0.27058824
0 0.31960784 0.17892157
0 0.32113971 0.17738971
0 0.32414216 0.17647059
0.0036151961 0.32941176 0.18020833
0.0039215686 0.33651961 0.18161765
0 0.34166667 0.18284314
0.049877451 0.35845588 0.18284314
0.1283701 0.36421569 0.18039216
0.22009804 0.38480392 0.18284314
0.31029412 0.39993873 0.18431373
0.40294118 0.41531863 0.1754902
0.48615196 0.43118873 0.15784314
0.56397059 0.44411765 0.14460784
0.62726716 0.45177696 0.14313725
0.675 0.45502451 0.15012255
0.72107843 0.45686275 0.14993873
0.7622549 0.46470588 0.14656863
0.80042892 0.47346814 0.14810049
0.83186275 0.475 0.1560049
0.8591299 0.48872549 0.17665441
0.88504902 0.51078431 0.20147059
0.90833333 0.53137255 0.225
0.92892157 0.55085784 0.25196078
0.94895833 0.56807598 0.27689951
0.95931373 0.57990196 0.28872549
0 0.37352941 0.18137255
0 0.3745098 0.18137255
0 0.37352941 0.18455882
0.0034313725 0.37745098 0.18786765
0.0039215686 0.3872549 0.18921569
0.0053921569 0.39362745 0.18921569
0.031862745 0.40612745 0.18921569
0.08002451 0.41629902 0.18713235
0.18039216 0.43235294 0.18431373
0.27585784 0.44656863 0.18370098
0.3747549 0.46004902 0.17941176
0.46715686 0.47745098 0.1627451
0.56029412 0.50147059 0.13970588
0.61801471 0.50686275 0.1435049
0.66715686 0.50759804 0.15294118
0.71507353 0.51078431 0.14852941
0.75686275 0.50686275 0.14117647
0.79460784 0.50980392 0.1442402
0.8254902 0.50980392 0.15759804
0.85379902 0.51237745 0.1620098
0.87990196 0.53137255 0.18529412
0.90196078 0.55196078 0.22009804
0.92328431 0.57254902 0.25171569
0.94522059 0.59313725 0.2807598
0.96372549 0.60980392 0.30196078
0 0.42892157 0.18431373
0 0.42892157 0.18645833
0 0.42879902 0.19264706
0.00042892157 0.42892157 0.19558824
0.0039215686 0.43676471 0.1995098
0.0083333333 0.44509804 0.19601716
0.016053922 0.45539216 0.19301471
0.050183824 0.4658701 0.18823529
0.14313725 0.47990196 0.18431373
0.24166667 0.49068627 0.18186275
0.34460784 0.50232843 0.18026961
0.44362745 0.51862745 0.17598039
0.53088235 0.53578431 0.16348039
0.60520833 0.55232843 0.15943627
0.66862745 0.56127451 0.15686275
0.71194853 0.56354167 0.16053922
0.75294118 0.55833333 0.15588235
0.7877451 0.55441176 0.1596201
0.81862745 0.55098039 0.16421569
0.84607843 0.54754902 0.16378676
0.87279412 0.55367647 0.18186275
0.89558824 0.57254902 0.21372549
0.91617647 0.59313725 0.24803922
0.94019608 0.61372549 0.2776348
0.95343137 0.62696078 0.29460784
0 0.48627451 0.18823529
0 0.48504902 0.19264706
0 0.48382353 0.19901961
0 0.48235294 0.20392157
0.0039215686 0.48431373 0.20392157
0.0078431373 0.49019608 0.1997549
0.0098039216 0.49705882 0.19460784
0.0098039216 0.50343137 0.18823529
0.10196078 0.51960784 0.18627451
0.21593137 0.52990196 0.18946078
0.325 0.54068627 0.19019608
0.41936275 0.55588235 0.19019608
0.50294118 0.57352941 0.18431373
0.58406863 0.59117647 0.17598039
0.66127451 0.60833333 0.16715686
0.70588235 0.61102941 0.17401961
0.74313725 0.60588235 0.18039216
0.77794118 0.60073529 0.18431373
0.80882353 0.59607843 0.18823529
0.83970588 0.58872549 0.19362745
0.86470588 0.59019608 0.20196078
0.8875 0.60465686 0.22867647
0.90980392 0.62009804 0.25441176
0.93161765 0.63284314 0.2754902
0.94509804 0.64705882 0.29019608
0 0.53529412 0.19264706
0 0.53498775 0.19656863
0.00049019608 0.53137255 0.20134804
0 0.52794118 0.20392157
0 0.52745098 0.20392157
0.0039215686 0.53186275 0.2
0.0055147059 0.53872549 0.20122549
0.0019607843 0.54460784 0.19705882
0.054411765 0.55490196 0.2004902
0.20110294 0.56893382 0.2004902
0.31372549 0.58039216 0.20441176
0.39901961 0.5966299 0.20441176
0.48137255 0.60906863 0.20490196
0.55974265 0.62199755 0.20140931
0.63186275 0.63529412 0.19791667
0.68431373 0.64558824 0.20147059
0.73235294 0.64901961 0.20098039
0.77009804 0.64528186 0.20490196
0.80147059 0.64019608 0.20980392
0.82941176 0.63333333 0.22009804
0.85637255 0.63161765 0.22647059
0.87892157 0.64209559 0.24460784
0.90257353 0.65159314 0.26482843
0.9245098 0.65784314 0.27598039
0.94117647 0.66764706 0.29019608
0 0.57352941 0.20686275
0.0035539216 0.57254902 0.20686275
0.0039215686 0.57254902 0.20906863
0.00049019608 0.57254902 0.20686275
0 0.57254902 0.20392157
0.0013480392 0.57647059 0.20392157
0.0039215686 0.58039216 0.21004902
0.006372549 0.58578431 0.21409314
0.031372549 0.59607843 0.21764706
0.18357843 0.60637255 0.21764706
0.29607843 0.61764706 0.21862745
0.37843137 0.625 0.22242647
0.45882353 0.63676471 0.22696078
0.53492647 0.64865196 0.22843137
0.60098039 0.65980392 0.22843137
0.65453431 0.67009804 0.23125
0.70882353 0.67941176 0.22843137
0.75870098 0.68517157 0.22328431
0.78897059 0.68137255 0.23039216
0.81911765 0.67757353 0.24068627
0.84607843 0.67745098 0.24705882
0.87254902 0.68247549 0.25870098
0.89313725 0.68333333 0.27254902
0.91764706 0.6872549 0.28284314
0.94117647 0.69215686 0.29019608
0 0.6122549 0.21715686
0.003370098 0.60980392 0.21715686
0.0039215686 0.60980392 0.22144608
0.0039215686 0.60980392 0.22126225
0.0039215686 0.6122549 0.21740196
0.0039215686 0.61403186 0.21862745
0.0050245098 0.61727941 0.22438725
0.0059436275 0.62401961 0.23039216
0.018627451 0.63039216 0.23284314
0.16709559 0.63823529 0.23431373
0.27585784 0.64460784 0.23823529
0.36176471 0.6536152 0.24215686
0.43970588 0.66372549 0.24803922
0.51421569 0.67401961 0.2504902
0.57585784 0.68431373 0.25539216
0.63241422 0.69068627 0.25931373
0.6872549 0.70098039 0.25686275
0.74019608 0.70735294 0.25931373
0.77585784 0.71029412 0.26421569
0.80490196 0.70882353 0.27107843
0.83431373 0.71029412 0.275
0.8622549 0.71421569 0.28351716
0.88284314 0.71715686 0.29865196
0.90435049 0.71868873 0.31323529
0.91715686 0.72205882 0.31960784
0 0.64705882 0.22745098
0.0024509804 0.64705882 0.22990196
0.0049019608 0.64705882 0.23627451
0.0078431373 0.64705882 0.24264706
0.0098039216 0.64313725 0.24313725
0.0078431373 0.64705882 0.24313725
0.010784314 0.65098039 0.24607843
0.015686275 0.65490196 0.24705882
0.019607843 0.65882353 0.24705882
0.14754902 0.66519608 0.25196078
0.25882353 0.6745098 0.25882353
0.34509804 0.67843137 0.2627451
0.43333333 0.68823529 0.26862745
0.50098039 0.69803922 0.2745098
0.55980392 0.70490196 0.28137255
0.61666667 0.71127451 0.29166667
0.67058824 0.72156863 0.29411765
0.71960784 0.72794118 0.29803922
0.75980392 0.73333333 0.30196078
0.79068627 0.73333333 0.30539216
0.82156863 0.7372549 0.30980392
0.84803922 0.74166667 0.31862745
0.86960784 0.74803922 0.33529412
0.88627451 0.74901961 0.34901961
0.89019608 0.75294118 0.35294118
0 0.68186275 0.24656863
0.0054534314 0.68186275 0.25140931
0.010661765 0.68186275 0.25870098
0.015502451 0.67824755 0.26715686
0.015686275 0.67794118 0.27009804
0.013909314 0.68057598 0.27009804
0.011764706 0.68370098 0.27120098
0.017156863 0.68578431 0.27009804
0.042156863 0.68970588 0.27009804
0.1370098 0.69215686 0.27493873
0.26188725 0.69963235 0.28186275
0.34148284 0.70637255 0.28547794
0.42745098 0.71397059 0.28921569
0.49197304 0.72126225 0.29558824
0.54558824 0.72610294 0.30588235
0.60153186 0.73339461 0.31862745
0.65637255 0.74215686 0.32892157
0.70202206 0.74852941 0.33621324
0.74019608 0.75392157 0.33676471
0.77775735 0.75998775 0.33676471
0.80931373 0.76176471 0.33946078
0.83431373 0.76862745 0.35343137
0.86127451 0.77536765 0.37009804
0.88235294 0.78082108 0.38137255
0.88872549 0.78382353 0.38382353
0 0.71666667 0.27745098
0.0082107843 0.71421569 0.28321078
0.012745098 0.7127451 0.28602941
0.016666667 0.7127451 0.28835784
0.015686275 0.70882353 0.28823529
0.014338235 0.7127451 0.28860294
0.0125 0.7127451 0.29215686
0.038602941 0.71666667 0.29816176
0.11176471 0.72058824 0.30098039
0.19473039 0.72058824 0.30551471
0.29019608 0.72769608 0.30955882
0.36519608 0.73223039 0.3127451
0.4377451 0.73970588 0.31519608
0.48615196 0.74448529 0.32487745
0.54019608 0.75 0.33504902
0.59705882 0.75637255 0.34558824
0.65098039 0.76372549 0.35980392
0.69546569 0.76948529 0.36556373
0.73161765 0.7754902 0.36764706
0.76703431 0.78198529 0.36764706
0.80098039 0.78823529 0.37058824
0.82757353 0.79460784 0.38382353
0.85490196 0.80196078 0.39803922
0.88186275 0.81017157 0.40833333
0.89901961 0.81470588 0.41862745
0 0.74754902 0.30441176
0.0044117647 0.74381127 0.30851716
0.01372549 0.74362745 0.31237745
0.026960784 0.74362745 0.3127451
0.012254902 0.74362745 0.30882353
0.012193627 0.74362745 0.30925245
0.052328431 0.74362745 0.31568627
0.12046569 0.74754902 0.3254902
0.18088235 0.74803922 0.33186275
0.25980392 0.75147059 0.33823529
0.33737745 0.75551471 0.33970588
0.40680147 0.75974265 0.34313725
0.45784314 0.76544118 0.3495098
0.4995098 0.77107843 0.35588235
0.54362745 0.77414216 0.36568627
0.59577206 0.78088235 0.37647059
0.64705882 0.7872549 0.38676471
0.69215686 0.79362745 0.39332108
0.72843137 0.79987745 0.39852941
0.76280637 0.80594363 0.39852941
0.79436275 0.81053922 0.40612745
0.82150735 0.81819853 0.41819853
0.84816176 0.8254902 0.42892157
0.8754902 0.83431373 0.43921569
0.89901961 0.84215686 0.4495098
0.0019607843 0.7745098 0.32941176
0 0.7745098 0.32941176
0.032352941 0.7745098 0.33529412
0.056372549 0.7745098 0.33921569
0.048039216 0.7745098 0.33627451
0.087990196 0.7745098 0.3377451
0.17843137 0.7745098 0.34656863
0.21813725 0.7745098 0.35367647
0.25882353 0.77843137 0.36078431
0.32230392 0.77965686 0.36666667
0.38921569 0.78333333 0.37107843
0.43529412 0.78970588 0.37794118
0.48039216 0.79313725 0.38627451
0.52328431 0.79803922 0.39436275
0.56078431 0.80147059 0.40147059
0.60122549 0.80661765 0.40735294
0.64313725 0.81176471 0.41372549
0.68627451 0.81691176 0.42279412
0.7245098 0.82205882 0.42647059
0.75735294 0.82745098 0.43308824
0.78823529 0.83333333 0.44215686
0.81715686 0.83970588 0.45147059
0.84656863 0.84607843 0.46372549
0.87156863 0.85490196 0.47254902
0.88627451 0.85882353 0.47647059
0.15784314 0.80539216 0.37058824
0.14724265 0.80539216 0.37058824
0.16066176 0.80490196 0.37058824
0.21176471 0.80539216 0.37745098
0.20539216 0.80539216 0.3745098
0.24944853 0.80539216 0.37843137
0.27683824 0.80539216 0.38235294
0.30686275 0.80539216 0.3877451
0.34558824 0.80588235 0.39411765
0.38958333 0.80931373 0.39675245
0.42585784 0.81323529 0.40686275
0.46666667 0.81715686 0.41666667
0.50980392 0.82107843 0.42352941
0.5528799 0.82542892 0.43333333
0.58982843 0.82892157 0.43982843
0.62156863 0.8341299 0.44479167
0.65588235 0.83676471 0.44901961
0.68939951 0.84283088 0.45294118
0.72230392 0.84509804 0.45784314
0.75539216 0.85147059 0.46813725
0.78627451 0.85612745 0.47794118
0.81715686 0.86072304 0.48480392
0.8442402 0.86764706 0.49473039
0.86519608 0.87303922 0.50343137
0.87401961 0.8754902 0.50686275
0.3 0.83627451 0.41470588
0.30232843 0.83627451 0.41507353
0.30245098 0.83455882 0.41176471
0.31997549 0.83235294 0.41470588
0.32892157 0.83578431 0.41715686
0.34509804 0.83627451 0.42267157
0.36568627 0.83627451 0.42647059
0.39595588 0.84019608 0.43247549
0.43137255 0.84019608 0.43823529
0.45539216 0.84019608 0.43921569
0.47647059 0.84044118 0.44411765
0.51090686 0.84497549 0.45441176
0.55245098 0.8504902 0.46470588
0.59362745 0.85330882 0.47107843
0.62230392 0.85661765 0.47769608
0.6495098 0.86017157 0.48272059
0.68039216 0.86470588 0.4872549
0.71127451 0.86764706 0.49264706
0.7375 0.86862745 0.49509804
0.7622549 0.87254902 0.50245098
0.78921569 0.87990196 0.5127451
0.81715686 0.88468137 0.52169118
0.84509804 0.89117647 0.52941176
0.85919118 0.89215686 0.53431373
0.86078431 0.89313725 0.53431373
0.4122549 0.87107843 0.4622549
0.41525735 0.86954657 0.4622549
0.4189951 0.86715686 0.4622549
0.42383578 0.86715686 0.4622549
0.43235294 0.86715686 0.46348039
0.44705882 0.86715686 0.46648284
0.46433824 0.87046569 0.47193627
0.48376225 0.8716299 0.47794118
0.5122549 0.875 0.48039216
0.5216299 0.87107843 0.48039216
0.53627451 0.86813725 0.48382353
0.56292892 0.87322304 0.49411765
0.59681373 0.87892157 0.50441176
0.63302696 0.88284314 0.51176471
0.65343137 0.88137255 0.51176471
0.67493873 0.88284314 0.51568627
0.70490196 0.88921569 0.52598039
0.73333333 0.89313725 0.53082108
0.75392157 0.89313725 0.53198529
0.7745098 0.89675245 0.53872549
0.79754902 0.90171569 0.54754902
0.82107843 0.90667892 0.55753676
0.84509804 0.91213235 0.56421569
0.85189951 0.9127451 0.56519608
0.85343137 0.9127451 0.56519608
0.51372549 0.89803922 0.50588235
0.51519608 0.8995098 0.50588235
0.50882353 0.89705882 0.50196078
0.50931373 0.89411765 0.49803922
0.52156863 0.89411765 0.50196078
0.5372549 0.89803922 0.50588235
0.54019608 0.89411765 0.50882353
0.55588235 0.89803922 0.51519608
0.56862745 0.89803922 0.51764706
0.57647059 0.89411765 0.51372549
0.59019608 0.89411765 0.51862745
0.61421569 0.89754902 0.525
0.64117647 0.90196078 0.5372549
0.66323529 0.90196078 0.54117647
0.67352941 0.89901961 0.5372549
0.69460784 0.8995098 0.54264706
0.7254902 0.90980392 0.55294118
0.75 0.9122549 0.56078431
0.76666667 0.91372549 0.56470588
0.7872549 0.91715686 0.56862745
0.80784314 0.92156863 0.57647059
0.82843137 0.92598039 0.58529412
0.84313725 0.93333333 0.59313725
0.84705882 0.92941176 0.58823529
0.84705882 0.92941176 0.58823529
0 0.10588235 0.16323529
0 0.10588235 0.16323529
0.0034313725 0.10441176 0.16323529
0.020588235 0.10441176 0.16323529
0.052941176 0.10588235 0.16323529
0.089522059 0.10588235 0.16323529
0.12365196 0.10588235 0.16433824
0.16421569 0.10643382 0.16862745
0.22745098 0.11372549 0.16715686
0.29987745 0.12530637 0.16715686
0.36127451 0.11666667 0.16776961
0.42990196 0.12058824 0.17089461
0.50833333 0.14632353 0.17352941
0.59019608 0.16813725 0.175
0.66433824 0.18578431 0.175
0.73094363 0.20147059 0.18045343
0.78578431 0.23235294 0.18529412
0.82640931 0.275 0.19558824
0.86176471 0.31764706 0.2064951
0.88658088 0.35490196 0.22352941
0.90980392 0.38872549 0.24411765
0.93039216 0.42089461 0.26470588
0.95098039 0.4504902 0.28345588
0.97156863 0.48137255 0.29895833
0.98431373 0.50441176 0.31470588
0 0.1122549 0.16715686
0 0.1122549 0.16658241
0.0041207108 0.1122549 0.16530331
0.021882659 0.1122549 0.16335018
0.05658701 0.1122549 0.16323529
0.092041973 0.1122549 0.16323529
0.12872243 0.1122549 0.16323529
0.17240349 0.11338082 0.16378676
0.23627451 0.12009804 0.16470588
0.30506281 0.13165594 0.16715686
0.36764706 0.12970282 0.16776961
0.43676471 0.13382353 0.1710095
0.51470588 0.15101103 0.17153799
0.59656863 0.17286305 0.175
0.66609988 0.19085478 0.17752757
0.72759651 0.21268382 0.18137255
0.78186275 0.24264706 0.1877451
0.82583487 0.27814032 0.19558824
0.86176471 0.31879596 0.20588235
0.88810509 0.35520833 0.22071844
0.90980392 0.38946078 0.24093137
0.93039216 0.42261029 0.26470588
0.95098039 0.45154718 0.28284314
0.96856618 0.48137255 0.29895833
0.98094363 0.50741422 0.31470588
0 0.12254902 0.16752451
0.0028186275 0.12339154 0.16715686
0.0058823529 0.12647059 0.16715686
0.023406863 0.12647059 0.16715686
0.059558824 0.12285539 0.16623775
0.095588235 0.12077206 0.16323529
0.13039216 0.11835172 0.16323529
0.17953431 0.12254902 0.16323529
0.24803922 0.13284314 0.16715686
0.3122549 0.14022672 0.16715686
0.37515319 0.14724265 0.17025123
0.45084252 0.15441176 0.17107843
0.52800245 0.16078431 0.17181373
0.60814951 0.17731311 0.17550551
0.66933211 0.19947917 0.17830882
0.72107843 0.22990196 0.18431373
0.77647059 0.26323529 0.19068627
0.82120098 0.29212623 0.19613971
0.86176471 0.32401961 0.20159314
0.88921569 0.35870098 0.21559436
0.90980392 0.39264706 0.2377451
0.92904412 0.42357537 0.26119792
0.94632353 0.45477941 0.2833027
0.96335784 0.48529412 0.29895833
0.97647059 0.50931373 0.3122549
0 0.13676471 0.17077206
0.0039215686 0.13676471 0.17077206
0.0088235294 0.13762255 0.17077206
0.022977941 0.14019608 0.17077206
0.059558824 0.13667279 0.16780025
0.095626532 0.13282016 0.16682751
