site/assets/luts/natron-haldclut--ilford-delta-3200--71cf0988b.cube
# LUTr-Project: LUTr — LUTrepository
# LUTr-Schema-Version: 1
# LUTr-ID: natron-haldclut--ilford-delta-3200--71cf0988b
# LUTr-Title: ilford delta 3200
# LUTr-Collection: Natron HaldCLUT
# LUTr-Collection-ID: natron-haldclut-presets
# LUTr-Source: https://github.com/NatronGitHub/clut
# LUTr-Source-File: submissions/natron-haldclut-presets/bw/ilford_delta_3200.png
# LUTr-Source-Format: PNG
# LUTr-Source-SHA256: a702d3358842f6bdc59147884b9240532dc34d0efd4858551f4f71bd0376ac69
# LUTr-License: CC-BY-SA-4.0
# LUTr-License-URL: https://github.com/NatronGitHub/clut#license
# LUTr-Tags: creative, film, film-emulation, hald-clut, natron, png, cube
# LUTr-Transform-Class: film-emulation
# LUTr-Input-Color-Space: srgb
# LUTr-Output-Color-Space: srgb
# LUTr-Color-Space-Confidence: assumed-display-referred
# LUTr-Conversion-Method: PNG LUT image decoded at 16-bit and sampled to 25x25x25 3D CUBE
# LUTr-Conversion-Date: 2026-07-27
# LUTr-Conversion-Tool: LUTr scripts/convert-all-to-cube.mjs
# LUTr-Conversion-Grid: 25x25x25
# LUTr-Note: Preserve this metadata and the upstream license notices when redistributing.
TITLE "ilford delta 3200"
LUT_3D_SIZE 25
DOMAIN_MIN 0 0 0
DOMAIN_MAX 1 1 1
0.031372549 0.031372549 0.031372549
0.031372549 0.031372549 0.031372549
0.02745098 0.02745098 0.02745098
0.033823529 0.033823529 0.033823529
0.058823529 0.058823529 0.058823529
0.079411765 0.079411765 0.079411765
0.1 0.1 0.1
0.12058824 0.12058824 0.12058824
0.1372549 0.1372549 0.1372549
0.15 0.15 0.15
0.16176471 0.16176471 0.16176471
0.17205882 0.17205882 0.17205882
0.17843137 0.17843137 0.17843137
0.20588235 0.20588235 0.20588235
0.24019608 0.24019608 0.24019608
0.275 0.275 0.275
0.30980392 0.30980392 0.30980392
0.34705882 0.34705882 0.34705882
0.38333333 0.38333333 0.38333333
0.42156863 0.42156863 0.42156863
0.45686275 0.45686275 0.45686275
0.49215686 0.49215686 0.49215686
0.52941176 0.52941176 0.52941176
0.56127451 0.56127451 0.56127451
0.58431373 0.58431373 0.58431373
0.051960784 0.051960784 0.051960784
0.048039216 0.048039216 0.048039216
0.048039216 0.048039216 0.048039216
0.053921569 0.053921569 0.053921569
0.069117647 0.069117647 0.069117647
0.089705882 0.089705882 0.089705882
0.11029412 0.11029412 0.11029412
0.12696078 0.12696078 0.12696078
0.14362745 0.14362745 0.14362745
0.15784314 0.15784314 0.15784314
0.16875 0.16875 0.16875
0.18088235 0.18088235 0.18088235
0.19509804 0.19509804 0.19509804
0.21813725 0.21813725 0.21813725
0.24901961 0.24901961 0.24901961
0.28137255 0.28137255 0.28137255
0.31617647 0.31617647 0.31617647
0.35098039 0.35098039 0.35098039
0.38676471 0.38676471 0.38676471
0.42420343 0.42420343 0.42420343
0.45882353 0.45882353 0.45882353
0.49558824 0.49558824 0.49558824
0.53002451 0.53002451 0.53002451
0.56127451 0.56127451 0.56127451
0.58676471 0.58676471 0.58676471
0.07254902 0.07254902 0.07254902
0.07254902 0.07254902 0.07254902
0.07254902 0.07254902 0.07254902
0.077328431 0.077328431 0.077328431
0.08872549 0.08872549 0.08872549
0.10477941 0.10477941 0.10477941
0.12230392 0.12230392 0.12230392
0.14007353 0.14007353 0.14007353
0.15784314 0.15784314 0.15784314
0.17095588 0.17095588 0.17095588
0.18406863 0.18406863 0.18406863
0.19742647 0.19742647 0.19742647
0.21323529 0.21323529 0.21323529
0.23345588 0.23345588 0.23345588
0.26397059 0.26397059 0.26397059
0.29558824 0.29558824 0.29558824
0.33039216 0.33039216 0.33039216
0.36409314 0.36409314 0.36409314
0.39926471 0.39926471 0.39926471
0.43088235 0.43088235 0.43088235
0.46323529 0.46323529 0.46323529
0.4995098 0.4995098 0.4995098
0.53357843 0.53357843 0.53357843
0.56580882 0.56580882 0.56580882
0.58921569 0.58921569 0.58921569
0.093137255 0.093137255 0.093137255
0.093137255 0.093137255 0.093137255
0.096691176 0.096691176 0.096691176
0.10091912 0.10091912 0.10091912
0.11078431 0.11078431 0.11078431
0.12199755 0.12199755 0.12199755
0.13835784 0.13835784 0.13835784
0.15520833 0.15520833 0.15520833
0.17156863 0.17156863 0.17156863
0.18609069 0.18609069 0.18609069
0.20012255 0.20012255 0.20012255
0.21464461 0.21464461 0.21464461
0.22867647 0.22867647 0.22867647
0.24797794 0.24797794 0.24797794
0.27843137 0.27843137 0.27843137
0.30949755 0.30949755 0.30949755
0.34068627 0.34068627 0.34068627
0.3754902 0.3754902 0.3754902
0.4064951 0.4064951 0.4064951
0.44074755 0.44074755 0.44074755
0.47205882 0.47205882 0.47205882
0.50300245 0.50300245 0.50300245
0.5377451 0.5377451 0.5377451
0.56911765 0.56911765 0.56911765
0.59558824 0.59558824 0.59558824
0.11764706 0.11764706 0.11764706
0.11764706 0.11764706 0.11764706
0.12009804 0.12009804 0.12009804
0.125 0.125 0.125
0.13137255 0.13137255 0.13137255
0.14166667 0.14166667 0.14166667
0.15539216 0.15539216 0.15539216
0.17156863 0.17156863 0.17156863
0.18823529 0.18823529 0.18823529
0.20171569 0.20171569 0.20171569
0.21715686 0.21715686 0.21715686
0.23063725 0.23063725 0.23063725
0.24607843 0.24607843 0.24607843
0.26397059 0.26397059 0.26397059
0.29313725 0.29313725 0.29313725
0.32401961 0.32401961 0.32401961
0.35490196 0.35490196 0.35490196
0.38578431 0.38578431 0.38578431
0.41666667 0.41666667 0.41666667
0.44754902 0.44754902 0.44754902
0.47843137 0.47843137 0.47843137
0.50955882 0.50955882 0.50955882
0.54215686 0.54215686 0.54215686
0.575 0.575 0.575
0.60196078 0.60196078 0.60196078
0.13823529 0.13823529 0.13823529
0.13823529 0.13823529 0.13823529
0.14215686 0.14215686 0.14215686
0.14607843 0.14607843 0.14607843
0.15171569 0.15171569 0.15171569
0.15833333 0.15833333 0.15833333
0.17120098 0.17120098 0.17120098
0.18805147 0.18805147 0.18805147
0.20441176 0.20441176 0.20441176
0.21893382 0.21893382 0.21893382
0.23333333 0.23333333 0.23333333
0.24754902 0.24754902 0.24754902
0.26348039 0.26348039 0.26348039
0.28039216 0.28039216 0.28039216
0.30735294 0.30735294 0.30735294
0.33480392 0.33480392 0.33480392
0.36568627 0.36568627 0.36568627
0.39656863 0.39656863 0.39656863
0.42745098 0.42745098 0.42745098
0.45833333 0.45833333 0.45833333
0.48897059 0.48897059 0.48897059
0.51960784 0.51960784 0.51960784
0.5504902 0.5504902 0.5504902
0.58137255 0.58137255 0.58137255
0.60833333 0.60833333 0.60833333
0.15882353 0.15882353 0.15882353
0.15882353 0.15882353 0.15882353
0.1627451 0.1627451 0.1627451
0.16666667 0.16666667 0.16666667
0.16911765 0.16911765 0.16911765
0.175 0.175 0.175
0.18602941 0.18602941 0.18602941
0.20196078 0.20196078 0.20196078
0.22156863 0.22156863 0.22156863
0.23823529 0.23823529 0.23823529
0.25392157 0.25392157 0.25392157
0.26776961 0.26776961 0.26776961
0.28088235 0.28088235 0.28088235
0.30098039 0.30098039 0.30098039
0.3245098 0.3245098 0.3245098
0.35147059 0.35147059 0.35147059
0.38235294 0.38235294 0.38235294
0.41323529 0.41323529 0.41323529
0.44117647 0.44117647 0.44117647
0.47205882 0.47205882 0.47205882
0.50294118 0.50294118 0.50294118
0.53382353 0.53382353 0.53382353
0.56372549 0.56372549 0.56372549
0.59166667 0.59166667 0.59166667
0.61470588 0.61470588 0.61470588
0.17941176 0.17941176 0.17941176
0.17941176 0.17941176 0.17941176
0.18333333 0.18333333 0.18333333
0.1872549 0.1872549 0.1872549
0.1872549 0.1872549 0.1872549
0.19019608 0.19019608 0.19019608
0.2004902 0.2004902 0.2004902
0.21764706 0.21764706 0.21764706
0.23676471 0.23676471 0.23676471
0.25398284 0.25398284 0.25398284
0.27058824 0.27058824 0.27058824
0.28480392 0.28480392 0.28480392
0.30098039 0.30098039 0.30098039
0.32156863 0.32156863 0.32156863
0.34215686 0.34215686 0.34215686
0.36966912 0.36966912 0.36966912
0.39901961 0.39901961 0.39901961
0.42843137 0.42843137 0.42843137
0.45931373 0.45931373 0.45931373
0.4877451 0.4877451 0.4877451
0.51715686 0.51715686 0.51715686
0.54540441 0.54540441 0.54540441
0.575 0.575 0.575
0.6004902 0.6004902 0.6004902
0.62107843 0.62107843 0.62107843
0.2 0.2 0.2
0.2 0.2 0.2
0.20392157 0.20392157 0.20392157
0.20735294 0.20735294 0.20735294
0.20784314 0.20784314 0.20784314
0.20784314 0.20784314 0.20784314
0.21372549 0.21372549 0.21372549
0.23431373 0.23431373 0.23431373
0.25490196 0.25490196 0.25490196
0.27156863 0.27156863 0.27156863
0.28823529 0.28823529 0.28823529
0.30539216 0.30539216 0.30539216
0.32352941 0.32352941 0.32352941
0.34215686 0.34215686 0.34215686
0.3627451 0.3627451 0.3627451
0.38872549 0.38872549 0.38872549
0.41568627 0.41568627 0.41568627
0.44656863 0.44656863 0.44656863
0.47352941 0.47352941 0.47352941
0.50098039 0.50098039 0.50098039
0.52941176 0.52941176 0.52941176
0.55784314 0.55784314 0.55784314
0.58235294 0.58235294 0.58235294
0.60833333 0.60833333 0.60833333
0.62745098 0.62745098 0.62745098
0.22058824 0.22058824 0.22058824
0.22058824 0.22058824 0.22058824
0.2245098 0.2245098 0.2245098
0.22824755 0.22824755 0.22824755
0.23088235 0.23088235 0.23088235
0.23480392 0.23480392 0.23480392
0.24166667 0.24166667 0.24166667
0.25643382 0.25643382 0.25643382
0.2754902 0.2754902 0.2754902
0.29215686 0.29215686 0.29215686
0.30882353 0.30882353 0.30882353
0.328125 0.328125 0.328125
0.34607843 0.34607843 0.34607843
0.3627451 0.3627451 0.3627451
0.38333333 0.38333333 0.38333333
0.40931373 0.40931373 0.40931373
0.43627451 0.43627451 0.43627451
0.46170343 0.46170343 0.46170343
0.4877451 0.4877451 0.4877451
0.51470588 0.51470588 0.51470588
0.53970588 0.53970588 0.53970588
0.56470588 0.56470588 0.56470588
0.59203431 0.59203431 0.59203431
0.61715686 0.61715686 0.61715686
0.6377451 0.6377451 0.6377451
0.24607843 0.24607843 0.24607843
0.24607843 0.24607843 0.24607843
0.24901961 0.24901961 0.24901961
0.24987745 0.24987745 0.24987745
0.25588235 0.25588235 0.25588235
0.2622549 0.2622549 0.2622549
0.27254902 0.27254902 0.27254902
0.28284314 0.28284314 0.28284314
0.29705882 0.29705882 0.29705882
0.31421569 0.31421569 0.31421569
0.33259804 0.33259804 0.33259804
0.35 0.35 0.35
0.36715686 0.36715686 0.36715686
0.38688725 0.38688725 0.38688725
0.40392157 0.40392157 0.40392157
0.42781863 0.42781863 0.42781863
0.45196078 0.45196078 0.45196078
0.47536765 0.47536765 0.47536765
0.50098039 0.50098039 0.50098039
0.5254902 0.5254902 0.5254902
0.55 0.55 0.55
0.575 0.575 0.575
0.60196078 0.60196078 0.60196078
0.62745098 0.62745098 0.62745098
0.64803922 0.64803922 0.64803922
0.27303922 0.27303922 0.27303922
0.27089461 0.27089461 0.27089461
0.27303922 0.27303922 0.27303922
0.27647059 0.27647059 0.27647059
0.28284314 0.28284314 0.28284314
0.29313725 0.29313725 0.29313725
0.30085784 0.30085784 0.30085784
0.31029412 0.31029412 0.31029412
0.32401961 0.32401961 0.32401961
0.3372549 0.3372549 0.3372549
0.35392157 0.35392157 0.35392157
0.37107843 0.37107843 0.37107843
0.38921569 0.38921569 0.38921569
0.40435049 0.40435049 0.40435049
0.4245098 0.4245098 0.4245098
0.44509804 0.44509804 0.44509804
0.46568627 0.46568627 0.46568627
0.48890931 0.48890931 0.48890931
0.5122549 0.5122549 0.5122549
0.53578431 0.53578431 0.53578431
0.5620098 0.5620098 0.5620098
0.58829657 0.58829657 0.58829657
0.61323529 0.61323529 0.61323529
0.63921569 0.63921569 0.63921569
0.66176471 0.66176471 0.66176471
0.3 0.3 0.3
0.3 0.3 0.3
0.3 0.3 0.3
0.30735294 0.30735294 0.30735294
0.31372549 0.31372549 0.31372549
0.32009804 0.32009804 0.32009804
0.33039216 0.33039216 0.33039216
0.34068627 0.34068627 0.34068627
0.35098039 0.35098039 0.35098039
0.3625 0.3625 0.3625
0.37794118 0.37794118 0.37794118
0.39509804 0.39509804 0.39509804
0.40980392 0.40980392 0.40980392
0.42426471 0.42426471 0.42426471
0.44117647 0.44117647 0.44117647
0.46176471 0.46176471 0.46176471
0.48235294 0.48235294 0.48235294
0.50416667 0.50416667 0.50416667
0.52598039 0.52598039 0.52598039
0.5497549 0.5497549 0.5497549
0.57352941 0.57352941 0.57352941
0.59926471 0.59926471 0.59926471
0.625 0.625 0.625
0.65196078 0.65196078 0.65196078
0.6745098 0.6745098 0.6745098
0.32696078 0.32696078 0.32696078
0.32696078 0.32696078 0.32696078
0.3310049 0.3310049 0.3310049
0.33823529 0.33823529 0.33823529
0.34460784 0.34460784 0.34460784
0.35098039 0.35098039 0.35098039
0.36127451 0.36127451 0.36127451
0.36764706 0.36764706 0.36764706
0.37794118 0.37794118 0.37794118
0.38823529 0.38823529 0.38823529
0.40196078 0.40196078 0.40196078
0.41617647 0.41617647 0.41617647
0.42843137 0.42843137 0.42843137
0.44117647 0.44117647 0.44117647
0.46139706 0.46139706 0.46139706
0.48186275 0.48186275 0.48186275
0.50245098 0.50245098 0.50245098
0.51960784 0.51960784 0.51960784
0.54105392 0.54105392 0.54105392
0.56464461 0.56464461 0.56464461
0.5870098 0.5870098 0.5870098
0.61023284 0.61023284 0.61023284
0.63688725 0.63688725 0.63688725
0.6622549 0.6622549 0.6622549
0.68578431 0.68578431 0.68578431
0.35784314 0.35784314 0.35784314
0.35784314 0.35784314 0.35784314
0.3627451 0.3627451 0.3627451
0.36948529 0.36948529 0.36948529
0.37696078 0.37696078 0.37696078
0.38529412 0.38529412 0.38529412
0.39215686 0.39215686 0.39215686
0.39852941 0.39852941 0.39852941
0.40882353 0.40882353 0.40882353
0.41911765 0.41911765 0.41911765
0.42647059 0.42647059 0.42647059
0.43676471 0.43676471 0.43676471
0.44901961 0.44901961 0.44901961
0.46176471 0.46176471 0.46176471
0.47843137 0.47843137 0.47843137
0.49901961 0.49901961 0.49901961
0.51960784 0.51960784 0.51960784
0.54019608 0.54019608 0.54019608
0.56078431 0.56078431 0.56078431
0.58137255 0.58137255 0.58137255
0.60441176 0.60441176 0.60441176
0.62659314 0.62659314 0.62659314
0.64803922 0.64803922 0.64803922
0.66421569 0.66421569 0.66421569
0.67843137 0.67843137 0.67843137
0.38872549 0.38872549 0.38872549
0.39117647 0.39117647 0.39117647
0.39656863 0.39656863 0.39656863
0.40392157 0.40392157 0.40392157
0.40906863 0.40906863 0.40906863
0.41636029 0.41636029 0.41636029
0.42303922 0.42303922 0.42303922
0.42941176 0.42941176 0.42941176
0.43970588 0.43970588 0.43970588
0.44754902 0.44754902 0.44754902
0.4560049 0.4560049 0.4560049
0.4627451 0.4627451 0.4627451
0.47156863 0.47156863 0.47156863
0.48363971 0.48363971 0.48363971
0.5 0.5 0.5
0.51960784 0.51960784 0.51960784
0.53627451 0.53627451 0.53627451
0.55686275 0.55686275 0.55686275
0.57745098 0.57745098 0.57745098
0.60177696 0.60177696 0.60177696
0.62254902 0.62254902 0.62254902
0.64344363 0.64344363 0.64344363
0.66372549 0.66372549 0.66372549
0.675 0.675 0.675
0.68382353 0.68382353 0.68382353
0.41960784 0.41960784 0.41960784
0.42352941 0.42352941 0.42352941
0.42843137 0.42843137 0.42843137
0.43480392 0.43480392 0.43480392
0.44117647 0.44117647 0.44117647
0.44754902 0.44754902 0.44754902
0.45392157 0.45392157 0.45392157
0.46029412 0.46029412 0.46029412
0.47058824 0.47058824 0.47058824
0.47696078 0.47696078 0.47696078
0.48333333 0.48333333 0.48333333
0.49019608 0.49019608 0.49019608
0.5 0.5 0.5
0.51029412 0.51029412 0.51029412
0.52352941 0.52352941 0.52352941
0.53872549 0.53872549 0.53872549
0.55686275 0.55686275 0.55686275
0.57745098 0.57745098 0.57745098
0.59803922 0.59803922 0.59803922
0.61862745 0.61862745 0.61862745
0.64313725 0.64313725 0.64313725
0.66372549 0.66372549 0.66372549
0.68137255 0.68137255 0.68137255
0.69411765 0.69411765 0.69411765
0.70196078 0.70196078 0.70196078
0.45294118 0.45294118 0.45294118
0.45594363 0.45594363 0.45594363
0.4622549 0.4622549 0.4622549
0.46832108 0.46832108 0.46832108
0.47328431 0.47328431 0.47328431
0.47843137 0.47843137 0.47843137
0.48517157 0.48517157 0.48517157
0.49117647 0.49117647 0.49117647
0.49754902 0.49754902 0.49754902
0.50539216 0.50539216 0.50539216
0.51360294 0.51360294 0.51360294
0.52058824 0.52058824 0.52058824
0.52769608 0.52769608 0.52769608
0.5372549 0.5372549 0.5372549
0.54754902 0.54754902 0.54754902
0.56078431 0.56078431 0.56078431
0.57745098 0.57745098 0.57745098
0.59803922 0.59803922 0.59803922
0.61862745 0.61862745 0.61862745
0.63921569 0.63921569 0.63921569
0.6625 0.6625 0.6625
0.68039216 0.68039216 0.68039216
0.70098039 0.70098039 0.70098039
0.7122549 0.7122549 0.7122549
0.71862745 0.71862745 0.71862745
0.48529412 0.48529412 0.48529412
0.48921569 0.48921569 0.48921569
0.49411765 0.49411765 0.49411765
0.5004902 0.5004902 0.5004902
0.50490196 0.50490196 0.50490196
0.50931373 0.50931373 0.50931373
0.51568627 0.51568627 0.51568627
0.52205882 0.52205882 0.52205882
0.52843137 0.52843137 0.52843137
0.53480392 0.53480392 0.53480392
0.54117647 0.54117647 0.54117647
0.55147059 0.55147059 0.55147059
0.55784314 0.55784314 0.55784314
0.56801471 0.56801471 0.56801471
0.5745098 0.5745098 0.5745098
0.58590686 0.58590686 0.58590686
0.60196078 0.60196078 0.60196078
0.61960784 0.61960784 0.61960784
0.63921569 0.63921569 0.63921569
0.65980392 0.65980392 0.65980392
0.68039216 0.68039216 0.68039216
0.70098039 0.70098039 0.70098039
0.71862745 0.71862745 0.71862745
0.73284314 0.73284314 0.73284314
0.74313725 0.74313725 0.74313725
0.51617647 0.51617647 0.51617647
0.52224265 0.52224265 0.52224265
0.52757353 0.52757353 0.52757353
0.53186275 0.53186275 0.53186275
0.53578431 0.53578431 0.53578431
0.54019608 0.54019608 0.54019608
0.5439951 0.5439951 0.5439951
0.55147059 0.55147059 0.55147059
0.55588235 0.55588235 0.55588235
0.56568627 0.56568627 0.56568627
0.57205882 0.57205882 0.57205882
0.58235294 0.58235294 0.58235294
0.59240196 0.59240196 0.59240196
0.59852941 0.59852941 0.59852941
0.60539216 0.60539216 0.60539216
0.61568627 0.61568627 0.61568627
0.62990196 0.62990196 0.62990196
0.64656863 0.64656863 0.64656863
0.66372549 0.66372549 0.66372549
0.68382353 0.68382353 0.68382353
0.70098039 0.70098039 0.70098039
0.72156863 0.72156863 0.72156863
0.73823529 0.73823529 0.73823529
0.75490196 0.75490196 0.75490196
0.76372549 0.76372549 0.76372549
0.54509804 0.54509804 0.54509804
0.55343137 0.55343137 0.55343137
0.56127451 0.56127451 0.56127451
0.56642157 0.56642157 0.56642157
0.56960784 0.56960784 0.56960784
0.57083333 0.57083333 0.57083333
0.5745098 0.5745098 0.5745098
0.57916667 0.57916667 0.57916667
0.58627451 0.58627451 0.58627451
0.59656863 0.59656863 0.59656863
0.60686275 0.60686275 0.60686275
0.61715686 0.61715686 0.61715686
0.6245098 0.6245098 0.6245098
0.62990196 0.62990196 0.62990196
0.63627451 0.63627451 0.63627451
0.64411765 0.64411765 0.64411765
0.65686275 0.65686275 0.65686275
0.67352941 0.67352941 0.67352941
0.69019608 0.69019608 0.69019608
0.70710784 0.70710784 0.70710784
0.7245098 0.7245098 0.7245098
0.74215686 0.74215686 0.74215686
0.75980392 0.75980392 0.75980392
0.77794118 0.77794118 0.77794118
0.78823529 0.78823529 0.78823529
0.57352941 0.57352941 0.57352941
0.5841299 0.5841299 0.5841299
0.59473039 0.59473039 0.59473039
0.60539216 0.60539216 0.60539216
0.60980392 0.60980392 0.60980392
0.60980392 0.60980392 0.60980392
0.60931373 0.60931373 0.60931373
0.61109069 0.61109069 0.61109069
0.62107843 0.62107843 0.62107843
0.63186275 0.63186275 0.63186275
0.64473039 0.64473039 0.64473039
0.65202206 0.65202206 0.65202206
0.65661765 0.65661765 0.65661765
0.66121324 0.66121324 0.66121324
0.66813725 0.66813725 0.66813725
0.67598039 0.67598039 0.67598039
0.6877451 0.6877451 0.6877451
0.70196078 0.70196078 0.70196078
0.71715686 0.71715686 0.71715686
0.73382353 0.73382353 0.73382353
0.74828431 0.74828431 0.74828431
0.76623775 0.76623775 0.76623775
0.78333333 0.78333333 0.78333333
0.8 0.8 0.8
0.81323529 0.81323529 0.81323529
0.60098039 0.60098039 0.60098039
0.61372549 0.61372549 0.61372549
0.62941176 0.62941176 0.62941176
0.64264706 0.64264706 0.64264706
0.65098039 0.65098039 0.65098039
0.6504902 0.6504902 0.6504902
0.64705882 0.64705882 0.64705882
0.65098039 0.65098039 0.65098039
0.65882353 0.65882353 0.65882353
0.67009804 0.67009804 0.67009804
0.68014706 0.68014706 0.68014706
0.68676471 0.68676471 0.68676471
0.69068627 0.69068627 0.69068627
0.69546569 0.69546569 0.69546569
0.70122549 0.70122549 0.70122549
0.70833333 0.70833333 0.70833333
0.71862745 0.71862745 0.71862745
0.73284314 0.73284314 0.73284314
0.74705882 0.74705882 0.74705882
0.76090686 0.76090686 0.76090686
0.77598039 0.77598039 0.77598039
0.79068627 0.79068627 0.79068627
0.80710784 0.80710784 0.80710784
0.82303922 0.82303922 0.82303922
0.8372549 0.8372549 0.8372549
0.6372549 0.6372549 0.6372549
0.64607843 0.64607843 0.64607843
0.66029412 0.66029412 0.66029412
0.67794118 0.67794118 0.67794118
0.6875 0.6875 0.6875
0.68823529 0.68823529 0.68823529
0.68823529 0.68823529 0.68823529
0.69307598 0.69307598 0.69307598
0.7 0.7 0.7
0.70882353 0.70882353 0.70882353
0.71519608 0.71519608 0.71519608
0.71813725 0.71813725 0.71813725
0.72205882 0.72205882 0.72205882
0.72628676 0.72628676 0.72628676
0.73284314 0.73284314 0.73284314
0.73921569 0.73921569 0.73921569
0.74803922 0.74803922 0.74803922
0.75833333 0.75833333 0.75833333
0.77254902 0.77254902 0.77254902
0.78284314 0.78284314 0.78284314
0.79558824 0.79558824 0.79558824
0.80980392 0.80980392 0.80980392
0.82193627 0.82193627 0.82193627
0.83284314 0.83284314 0.83284314
0.84313725 0.84313725 0.84313725
0.66666667 0.66666667 0.66666667
0.67303922 0.67303922 0.67303922
0.68431373 0.68431373 0.68431373
0.70098039 0.70098039 0.70098039
0.71568627 0.71568627 0.71568627
0.72156863 0.72156863 0.72156863
0.72156863 0.72156863 0.72156863
0.7254902 0.7254902 0.7254902
0.72941176 0.72941176 0.72941176
0.73970588 0.73970588 0.73970588
0.74117647 0.74117647 0.74117647
0.74460784 0.74460784 0.74460784
0.74509804 0.74509804 0.74509804
0.7495098 0.7495098 0.7495098
0.75588235 0.75588235 0.75588235
0.7622549 0.7622549 0.7622549
0.76862745 0.76862745 0.76862745
0.77892157 0.77892157 0.77892157
0.78823529 0.78823529 0.78823529
0.79558824 0.79558824 0.79558824
0.80196078 0.80196078 0.80196078
0.8122549 0.8122549 0.8122549
0.82254902 0.82254902 0.82254902
0.83431373 0.83431373 0.83431373
0.84313725 0.84313725 0.84313725
0.041666667 0.041666667 0.041666667
0.038296569 0.038296569 0.038296569
0.037745098 0.037745098 0.037745098
0.044914216 0.044914216 0.044914216
0.06127451 0.06127451 0.06127451
0.083333333 0.083333333 0.083333333
0.10281863 0.10281863 0.10281863
0.12058824 0.12058824 0.12058824
0.1372549 0.1372549 0.1372549
0.15147059 0.15147059 0.15147059
0.16421569 0.16421569 0.16421569
0.1745098 0.1745098 0.1745098
0.18995098 0.18995098 0.18995098
0.21176471 0.21176471 0.21176471
0.24264706 0.24264706 0.24264706
0.275 0.275 0.275
0.30980392 0.30980392 0.30980392
0.34460784 0.34460784 0.34460784
0.37977941 0.37977941 0.37977941
0.41550245 0.41550245 0.41550245
0.45245098 0.45245098 0.45245098
0.48921569 0.48921569 0.48921569
0.52401961 0.52401961 0.52401961
0.55735294 0.55735294 0.55735294
0.58186275 0.58186275 0.58186275
0.055882353 0.055882353 0.055882353
0.054411765 0.054411765 0.054411765
0.054411765 0.054411765 0.054411765
0.061282169 0.061282169 0.061282169
0.073253676 0.073253676 0.073253676
0.092961091 0.092961091 0.092961091
0.11067708 0.11067708 0.11067708
0.13033088 0.13033088 0.13033088
0.14607843 0.14607843 0.14607843
0.15994945 0.15994945 0.15994945
0.17244179 0.17244179 0.17244179
0.18560815 0.18560815 0.18560815
0.20052083 0.20052083 0.20052083
0.22286305 0.22286305 0.22286305
0.2504902 0.2504902 0.2504902
0.28137255 0.28137255 0.28137255
0.31617647 0.31617647 0.31617647
0.34875919 0.34875919 0.34875919
0.38394608 0.38394608 0.38394608
0.41882659 0.41882659 0.41882659
0.45490196 0.45490196 0.45490196
0.49097733 0.49097733 0.49097733
0.52693015 0.52693015 0.52693015
0.56035539 0.56035539 0.56035539
0.58431373 0.58431373 0.58431373
0.076470588 0.076470588 0.076470588
0.076470588 0.076470588 0.076470588
0.077083333 0.077083333 0.077083333
0.082797181 0.082797181 0.082797181
0.092830882 0.092830882 0.092830882
0.10824142 0.10824142 0.10824142
0.12521446 0.12521446 0.12521446
0.14316789 0.14316789 0.14316789
0.15845588 0.15845588 0.15845588
0.17290135 0.17290135 0.17290135
0.18697917 0.18697917 0.18697917
0.20088848 0.20088848 0.20088848
0.21727941 0.21727941 0.21727941
0.23814338 0.23814338 0.23814338
0.26531863 0.26531863 0.26531863
0.29558824 0.29558824 0.29558824
0.32683824 0.32683824 0.32683824
0.36127451 0.36127451 0.36127451
0.39362745 0.39362745 0.39362745
0.42688419 0.42688419 0.42688419
0.46023284 0.46023284 0.46023284
0.49448529 0.49448529 0.49448529
0.53020833 0.53020833 0.53020833
0.56335784 0.56335784 0.56335784
0.58823529 0.58823529 0.58823529
0.099509804 0.099509804 0.099509804
0.099203431 0.099203431 0.099203431
0.099831495 0.099831495 0.099831495
0.10686275 0.10686275 0.10686275
0.11577819 0.11577819 0.11577819
0.12559743 0.12559743 0.12559743
