site/assets/luts/natron-haldclut--polaroid-669--dc17b6669.cube
# LUTr-Project: LUTr — LUTrepository
# LUTr-Schema-Version: 1
# LUTr-ID: natron-haldclut--polaroid-669--dc17b6669
# LUTr-Title: polaroid 669
# LUTr-Collection: Natron HaldCLUT
# LUTr-Collection-ID: natron-haldclut-presets
# LUTr-Source: https://github.com/NatronGitHub/clut
# LUTr-Source-File: submissions/natron-haldclut-presets/colorslide/polaroid_669.png
# LUTr-Source-Format: PNG
# LUTr-Source-SHA256: 75850c511afa7879e924ae7b30dca2aa4bdd7c7376e4d7f9194442cdb4a3eeb5
# LUTr-License: CC-BY-SA-4.0
# LUTr-License-URL: https://github.com/NatronGitHub/clut#license
# LUTr-Tags: creative, film, film-emulation, hald-clut, natron, png, cube
# LUTr-Transform-Class: film-emulation
# LUTr-Input-Color-Space: srgb
# LUTr-Output-Color-Space: srgb
# LUTr-Color-Space-Confidence: assumed-display-referred
# LUTr-Conversion-Method: PNG LUT image decoded at 16-bit and sampled to 25x25x25 3D CUBE
# LUTr-Conversion-Date: 2026-07-27
# LUTr-Conversion-Tool: LUTr scripts/convert-all-to-cube.mjs
# LUTr-Conversion-Grid: 25x25x25
# LUTr-Note: Preserve this metadata and the upstream license notices when redistributing.
TITLE "polaroid 669"
LUT_3D_SIZE 9
DOMAIN_MIN 0 0 0
DOMAIN_MAX 1 1 1
0.011764706 0.0039215686 0.0039215686
0.043137255 0.00098039216 0.00098039216
0.11862745 0.0068627451 0.010784314
0.22058824 0.025 0.042156863
0.31764706 0.0058823529 0.0098039216
0.47794118 0.019607843 0.023529412
0.62745098 0.010784314 0.016666667
0.7627451 0.0073529412 0.020098039
0.82745098 0.011764706 0.02745098
0.066176471 0.1004902 0.081372549
0.11568627 0.096568627 0.065686275
0.17389706 0.084803922 0.046568627
0.27156863 0.092647059 0.058333333
0.37745098 0.08872549 0.05245098
0.5127451 0.096568627 0.071078431
0.6622549 0.10784314 0.096568627
0.78229167 0.097487745 0.085784314
0.87745098 0.08872549 0.089215686
0.13529412 0.20392157 0.12843137
0.18835784 0.2 0.11960784
0.24607843 0.19705882 0.10784314
0.31617647 0.19313725 0.10784314
0.44068627 0.20392157 0.1245098
0.56470588 0.20637255 0.14460784
0.68921569 0.20098039 0.13235294
0.80061275 0.20392157 0.15012255
0.89019608 0.19705882 0.1627451
0.2254902 0.32990196 0.18529412
0.26158088 0.33137255 0.18167892
0.30821078 0.3307598 0.17683824
0.39754902 0.33082108 0.19019608
0.50294118 0.33137255 0.18602941
0.615625 0.33682598 0.21029412
0.72156863 0.33382353 0.20196078
0.81746324 0.33743873 0.23265931
0.90588235 0.32352941 0.23872549
0.34313725 0.4745098 0.24901961
0.37598039 0.47647059 0.25857843
0.40833333 0.46862745 0.26029412
0.49166667 0.4745098 0.28039216
0.5745098 0.47254902 0.2754902
0.66715686 0.48039216 0.27965686
0.75 0.4745098 0.27352941
0.83284314 0.47254902 0.3002451
0.90784314 0.46470588 0.31568627
0.47401961 0.59803922 0.34166667
0.49607843 0.60980392 0.35177696
0.53223039 0.60196078 0.34914216
0.58039216 0.60196078 0.37303922
0.65392157 0.60710784 0.38088235
0.71568627 0.60980392 0.36372549
0.7877451 0.60588235 0.37009804
0.85343137 0.60980392 0.39264706
0.92303922 0.60980392 0.39117647
0.6127451 0.70882353 0.45490196
0.62218137 0.7127451 0.44705882
0.64044118 0.7127451 0.44534314
0.67843137 0.7127451 0.45183824
0.7254902 0.72254902 0.46764706
0.77352941 0.71519608 0.45845588
0.81936275 0.7127451 0.45882353
0.88039216 0.71666667 0.48137255
0.92941176 0.72058824 0.48921569
0.72696078 0.80147059 0.57009804
0.73131127 0.80539216 0.57009804
0.74558824 0.80539216 0.55882353
0.76832108 0.80539216 0.55098039
0.79142157 0.80931373 0.56078431
0.82990196 0.80539216 0.57009804
0.86421569 0.80894608 0.56752451
0.89901961 0.81323529 0.57800245
0.93823529 0.81715686 0.60539216
0.81568627 0.88235294 0.66666667
0.81960784 0.88235294 0.66666667
0.83431373 0.88921569 0.6627451
0.84313725 0.88382353 0.65637255
0.85686275 0.88627451 0.66078431
0.87843137 0.88480392 0.66519608
0.89901961 0.88235294 0.65980392
0.9377451 0.89411765 0.68235294
0.97647059 0.89803922 0.69411765
0.0073529412 0.0073529412 0.042156863
0.061335784 0.019117647 0.061335784
0.12647059 0.019607843 0.065686275
0.20520833 0.0083333333 0.056188725
0.34093137 0.027205882 0.077205882
0.48970588 0.035110294 0.085294118
0.63627451 0.027573529 0.089215686
0.7627451 0.031801471 0.10098039
0.85098039 0.034803922 0.10441176
0.053492647 0.096078431 0.092708333
0.11176471 0.096568627 0.10043658
0.17749694 0.096568627 0.10441176
0.26519608 0.10438879 0.11176471
0.37591912 0.10392157 0.11917892
0.52036612 0.10553768 0.12530637
0.66617647 0.1122549 0.139231
0.78143382 0.11176471 0.14405637
0.87058824 0.10441176 0.15098039
0.13786765 0.20392157 0.15392157
0.17815564 0.20392157 0.15752145
0.24227941 0.20735294 0.16176471
0.31119792 0.204856 0.15905331
0.44117647 0.21139706 0.17181373
0.56715686 0.21239277 0.17561275
0.69313725 0.21262255 0.1870098
0.80147059 0.21654412 0.19448529
0.87156863 0.21139706 0.20232843
0.21764706 0.33333333 0.21568627
0.25768229 0.33527114 0.22334559
0.31216299 0.34159007 0.22745098
0.39509804 0.34639246 0.23167892
0.50294118 0.34028799 0.23177083
0.61378676 0.34166667 0.23852635
0.72303922 0.34159007 0.24790135
0.82295496 0.33743873 0.25931373
0.8872549 0.3372549 0.26697304
0.34117647 0.48431373 0.29901961
0.37205882 0.48431373 0.30318627
0.40643382 0.48014706 0.2995098
0.48039216 0.48201593 0.30343137
0.57071078 0.48811275 0.30906863
0.66127451 0.48823529 0.30916054
0.75324755 0.48363971 0.32254902
0.83651961 0.47843137 0.33333333
0.8997549 0.47990196 0.34632353
0.48039216 0.61568627 0.38431373
0.49558824 0.61746324 0.38778339
0.52446385 0.60980392 0.38092831
0.57794118 0.60968903 0.37990962
0.64641544 0.61479779 0.39215686
0.71176471 0.61746324 0.39424786
0.78040748 0.61619179 0.39981618
0.85716912 0.62153033 0.41176471
0.92518382 0.625 0.41960784
0.61176471 0.7127451 0.48480392
0.61600797 0.71617647 0.48206189
0.64117647 0.7127451 0.47659314
0.66844363 0.71666667 0.47401961
0.72058824 0.72432598 0.47567402
0.7692402 0.72401961 0.48449755
0.82156863 0.71752451 0.49414828
0.87647059 0.72101716 0.50441176
0.93333333 0.72843137 0.51311275
0.72352941 0.80539216 0.58137255
0.73056066 0.80539216 0.58137255
0.74569547 0.807644 0.58529412
0.76421569 0.81116728 0.57745098
0.79509804 0.81323529 0.58357843
0.82598039 0.81323529 0.58964461
0.86078431 0.81317402 0.59281556
0.90343137 0.81710325 0.60098039
0.94123775 0.82107843 0.61280637
0.82303922 0.88627451 0.67401961
0.8278799 0.89019608 0.67493873
0.82401961 0.88235294 0.67058824
0.82469363 0.87303922 0.65735294
0.85686275 0.89019608 0.67794118
0.87647059 0.88890931 0.68186275
0.89901961 0.88235294 0.67928922
0.93382353 0.88633578 0.68670343
0.98039216 0.90196078 0.70588235
0.0049019608 0.011764706 0.10392157
0.061764706 0.023529412 0.12303922
0.11887255 0.023529412 0.12745098
0.21127451 0.026470588 0.13137255
0.33137255 0.031372549 0.14117647
0.47855392 0.028431373 0.14411765
0.63235294 0.03504902 0.15490196
0.76666667 0.042647059 0.16973039
0.88529412 0.05 0.18529412
0.065686275 0.11127451 0.16176471
0.11182598 0.11450674 0.16450674
0.17064951 0.11583946 0.17591912
0.25770527 0.11875 0.18342525
0.3754902 0.12132353 0.19093137
0.51706495 0.11617647 0.19313725
0.65857843 0.12325368 0.20033701
0.7845435 0.12647059 0.2092065
0.89154412 0.1127451 0.21666667
0.15098039 0.2125 0.2127451
0.16617647 0.21568627 0.21568627
0.23063725 0.22279412 0.22720588
0.3114277 0.22717525 0.23893995
0.4307598 0.23063725 0.24240196
0.56087623 0.22647059 0.24705882
0.68921569 0.22426471 0.24724265
0.79856005 0.22671569 0.25818015
0.88529412 0.22647059 0.27352941
0.19914216 0.34105392 0.27352941
0.24278493 0.34661458 0.28448223
0.29987745 0.35098039 0.28860294
0.38039216 0.35098039 0.29290748
0.48823529 0.35098039 0.29252451
0.61170343 0.34889706 0.29816176
0.72303922 0.35 0.31191789
0.81992953 0.34889706 0.32095588
0.87316176 0.35453431 0.33419118
0.32990196 0.49117647 0.3495098
0.35723039 0.49166667 0.35490196
0.39546569 0.48970588 0.34705882
0.4661152 0.48939951 0.35563725
0.56519608 0.4877451 0.36691176
0.65447304 0.49215686 0.37224265
0.75392157 0.49129902 0.38468137
0.83651961 0.49191176 0.39368873
0.90147059 0.4995098 0.40735294
0.48578431 0.63296569 0.43382353
0.47745098 0.62794118 0.42696078
0.51862745 0.62110907 0.43382353
0.56764706 0.61948529 0.44281556
0.63449755 0.62340686 0.45343137
0.70784314 0.62904412 0.45412071
0.77907475 0.6254902 0.45735294
0.85214461 0.62732843 0.46783088
0.91764706 0.6254902 0.48272059
0.60784314 0.7245098 0.53063725
0.60747549 0.72352941 0.52745098
0.6372549 0.72818627 0.53045343
0.66421569 0.73137255 0.52791054
0.7127451 0.73235294 0.53382353
0.76568627 0.72843137 0.53823529
0.81488971 0.72689951 0.54607843
0.87254902 0.73170956 0.55199142
0.92647059 0.73553922 0.56960784
0.72046569 0.81323529 0.62401961
0.72348346 0.81323529 0.62267157
0.7388174 0.81580882 0.62303922
0.75686275 0.81876532 0.62303922
0.79166667 0.82095588 0.62316176
0.82205882 0.81973039 0.62732843
0.86078431 0.82107843 0.63844975
0.90735294 0.82757353 0.64382659
0.94914216 0.8314951 0.64754902
0.81568627 0.89019608 0.7
0.82009804 0.89019608 0.70061275
0.82426471 0.89019608 0.69926471
0.84276961 0.89987745 0.70784314
0.85196078 0.89215686 0.70490196
0.86813725 0.88590686 0.70098039
0.89509804 0.88235294 0.70098039
0.93382353 0.88933824 0.70931373
0.96372549 0.89215686 0.71470588
0.031372549 0.076960784 0.21127451
0.061764706 0.05 0.2
0.10281863 0.024877451 0.18664216
0.21127451 0.037745098 0.20735294
0.32279412 0.037745098 0.21053922
0.47898284 0.051593137 0.22561275
0.63419118 0.077328431 0.24901961
0.7627451 0.040992647 0.23284314
0.87058824 0.050980392 0.25588235
0.053921569 0.13039216 0.23823529
0.10177696 0.13167892 0.24328278
0.1596201 0.12775735 0.24189645
0.2547258 0.13460478 0.25735294
0.37181373 0.13416054 0.26136642
0.51207874 0.13560049 0.27303922
0.65441176 0.14607843 0.28488051
0.7776731 0.13576134 0.28921569
0.87843137 0.13431373 0.30441176
0.13578431 0.23026961 0.29203431
0.15749081 0.23198529 0.29558824
0.21323529 0.23811275 0.30661765
0.30094975 0.24375 0.31335784
0.42156863 0.25073529 0.32303922
0.55395221 0.2495098 0.33088235
0.68529412 0.24678309 0.33541667
0.79669118 0.24203431 0.34705882
0.89313725 0.23872549 0.35894608
0.18921569 0.35435049 0.35343137
0.2254902 0.36035539 0.35735294
0.27647059 0.36237745 0.36127451
0.36462163 0.36127451 0.36519608
0.48088235 0.37034314 0.37696078
0.60533088 0.37491575 0.38872549
0.71911765 0.37303922 0.39656863
0.81568627 0.36508119 0.40490196
0.90833333 0.36427696 0.41372549
0.30539216 0.49338235 0.42696078
0.33823529 0.5010723 0.43088235
0.37769608 0.51029412 0.43480392
0.45484069 0.5075674 0.44022672
0.55882353 0.50968137 0.44595588
0.65343137 0.50833333 0.45364583
0.74846814 0.50514706 0.46243873
0.82941176 0.50922181 0.471875
0.90661765 0.51176471 0.48186275
0.46764706 0.6372549 0.50980392
0.47078738 0.63805913 0.5088848
0.5004902 0.6372549 0.51072304
0.55833333 0.63936121 0.51594669
0.62009804 0.63670343 0.51856618
0.70091912 0.64117647 0.52526042
0.77598039 0.64117647 0.53287377
0.84882047 0.63878676 0.542356
0.91219363 0.63878676 0.55202206
0.60392157 0.73872549 0.58823529
0.60392157 0.73627451 0.5845435
0.62447917 0.74019608 0.58615196
0.65637255 0.74411765 0.58924632
0.70428922 0.74411765 0.59791667
0.76245404 0.74587929 0.60392157
0.80713848 0.74411765 0.60968137
0.86470588 0.74315257 0.61766238
0.92156863 0.74656863 0.63039216
0.71960784 0.825 0.66911765
0.71960784 0.825 0.66648284
0.73002451 0.82745098 0.66911765
0.74509804 0.82481618 0.66256127
0.77769608 0.82990196 0.67083333
0.82205882 0.83498775 0.68449755
0.85655637 0.83658088 0.69220282
0.89908088 0.83642004 0.69264706
0.94558824 0.83676471 0.7
0.81960784 0.90196078 0.73970588
0.82775735 0.91011029 0.74785539
0.82745098 0.90441176 0.74215686
0.83474265 0.90441176 0.74215686
0.84901961 0.90441176 0.74289216
0.87598039 0.90533088 0.74754902
0.90294118 0.89987745 0.74607843
0.9377451 0.90618873 0.75410539
0.98284314 0.92401961 0.77352941
0.025490196 0.068627451 0.28823529
0.046323529 0.051470588 0.28235294
0.11176471 0.056862745 0.29558824
0.20661765 0.057598039 0.3
0.31470588 0.044117647 0.28823529
0.4747549 0.062254902 0.31053922
0.6245098 0.078431373 0.33137255
0.75882353 0.076470588 0.34117647
0.87647059 0.060784314 0.34117647
0.061764706 0.14730392 0.32647059
0.08872549 0.14362745 0.33039216
0.15042892 0.14754902 0.34252451
0.24313725 0.15318627 0.35
0.36397059 0.15710784 0.35392157
0.5127451 0.15710784 0.36577819
0.65294118 0.15949755 0.38137255
0.77401961 0.1549326 0.38924632
0.87745098 0.15343137 0.39705882
0.10392157 0.25 0.38431373
0.13676471 0.2495098 0.38431373
0.19473039 0.25441176 0.39166667
0.29503676 0.27107843 0.40692402
0.40710784 0.27058824 0.41568627
0.54754902 0.26770833 0.42444853
0.6810049 0.26470588 0.43541667
0.7939951 0.26121324 0.44705882
0.8872549 0.25735294 0.45490196
0.16372549 0.37892157 0.44607843
0.20851716 0.37956495 0.45
0.27064951 0.38523284 0.45876225
0.34954044 0.38992034 0.46914828
0.47120098 0.39730392 0.47745098
0.58921569 0.39730392 0.48164828
0.70949755 0.39485294 0.48921569
0.80677083 0.3875 0.49724265
0.89411765 0.38357843 0.50367647
0.26568627 0.51666667 0.51960784
0.30294118 0.51666667 0.51764706
0.36029412 0.52818627 0.52352941
0.44105392 0.52843137 0.5310049
0.54901961 0.53235294 0.53529412
0.65147059 0.53492647 0.53995098
0.74166667 0.52941176 0.55098039
0.81887255 0.52941176 0.55906863
0.89607843 0.5254902 0.56666667
0.44068627 0.64779412 0.59387255
0.44813113 0.64966299 0.59004289
0.48302696 0.65042892 0.58995098
0.54338235 0.65539216 0.59313725
0.6245098 0.65882353 0.60036765
0.70091912 0.65689338 0.60713848
0.77598039 0.65882353 0.61685049
0.84430147 0.6627451 0.62671569
0.9125 0.66593137 0.63431373
0.58235294 0.75343137 0.66470588
0.58474265 0.75196078 0.66078431
0.60943627 0.75196078 0.65919118
0.65526961 0.75876225 0.6620098
0.69705882 0.76446078 0.66862745
0.75153186 0.76568627 0.6723652
0.80686275 0.76911765 0.68039216
0.86464461 0.76544118 0.68780637
0.92156863 0.75980392 0.69117647
0.70784314 0.83676471 0.72058824
0.71519608 0.83826593 0.71862745
0.72610294 0.84044118 0.72015931
0.7497549 0.84371936 0.72910539
0.77598039 0.84632353 0.73443627
0.81617647 0.84803922 0.73431373
0.84883578 0.84810049 0.73670343
0.89908088 0.84828431 0.74583333
0.94117647 0.84632353 0.74779412
0.81176471 0.91176471 0.77647059
0.81372549 0.91151961 0.77647059
0.82352941 0.91764706 0.78235294
0.83455882 0.91764706 0.78627451
0.84607843 0.91372549 0.78627451
0.86936275 0.91691176 0.78823529
0.89509804 0.91323529 0.78823529
0.93186275 0.91764706 0.79411765
0.95098039 0.9 0.78431373
0.011764706 0.068137255 0.3745098
0.034313725 0.067830882 0.37794118
0.10637255 0.079901961 0.39411765
0.18474265 0.066605392 0.3911152
0.32745098 0.079901961 0.40514706
0.46764706 0.072610294 0.40680147
0.61666667 0.09620098 0.43223039
0.75490196 0.099509804 0.44362745
0.8745098 0.08627451 0.44509804
0.052634804 0.16685049 0.4245098
0.07287837 0.16685049 0.43057598
0.13443627 0.16862745 0.44203431
0.22961091 0.17549786 0.44968597
0.35833333 0.1786152 0.45726103
0.51016391 0.17609528 0.46464461
0.6504902 0.1810049 0.4819087
0.76960784 0.18284314 0.49250153
0.86372549 0.17647059 0.49411765
0.080882353 0.27598039 0.48480392
0.099417892 0.27990196 0.49001225
0.17830882 0.27990196 0.49430147
0.28340993 0.28627451 0.50441176
0.39852941 0.28272059 0.51243873
0.54362745 0.28682598 0.52401961
0.67352941 0.28664216 0.53210784
0.78907782 0.28664216 0.54036458
0.88590686 0.27990196 0.54362745
0.12052696 0.40343137 0.54803922
0.16109835 0.40343137 0.5504902
0.23860294 0.40735294 0.55441176
0.33907016 0.41280637 0.56112898
0.45879289 0.41568627 0.56813725
0.57941176 0.41799173 0.57401961
0.70343137 0.41228554 0.57938113
0.80147059 0.4088848 0.58677237
0.89019608 0.4028799 0.58970588
0.24436275 0.5379902 0.60294118
0.28268995 0.53872549 0.60833333
0.34313725 0.54191176 0.61017157
0.43091299 0.54705882 0.61770833
0.52965686 0.55441176 0.62401961
0.64090074 0.55833333 0.62794118
0.7341299 0.55367647 0.63639706
0.81234681 0.55352328 0.64690564
0.89411765 0.54852941 0.65147059
0.41911765 0.67009804 0.66862745
0.43069853 0.67009804 0.6716299
0.47594975 0.66770833 0.66862745
0.53180147 0.67199755 0.67015931
0.61393995 0.68039216 0.67693015
0.68653493 0.68523284 0.68601409
0.76311275 0.68578431 0.69215686
0.83558517 0.68523284 0.69852941
0.90196078 0.68131127 0.70091912
0.57205882 0.76519608 0.71862745
0.57513787 0.76519608 0.71862745
0.60686275 0.76372549 0.72156863
0.64849877 0.77156863 0.72369792
0.68921569 0.77659314 0.72647059
0.74552696 0.7759038 0.73039216
0.79901961 0.78051471 0.7375
0.85686275 0.78272059 0.74805453
0.91433824 0.77941176 0.75183824
0.70784314 0.85373775 0.77254902
0.70784314 0.85198376 0.7723652
0.72205882 0.85214461 0.77254902
0.74656863 0.85373775 0.77961091
0.76795343 0.85588235 0.78253676
0.80556832 0.85606618 0.77873009
0.84203431 0.86006434 0.7841299
0.89166667 0.86158088 0.79199602
0.9254902 0.85998775 0.79430147
0.82107843 0.93480392 0.82647059
0.80030637 0.91421569 0.81323529
0.81470588 0.92058824 0.81715686
0.82745098 0.92156863 0.82107843
0.83921569 0.91642157 0.82107843
0.86029412 0.91764706 0.825
0.89178922 0.92647059 0.82928922
0.9254902 0.93039216 0.8341299
0.9254902 0.9127451 0.82401961
0.019607843 0.10294118 0.48921569
0.034681373 0.099019608 0.49276961
0.074264706 0.08995098 0.49705882
0.18382353 0.10686275 0.50490196
0.31960784 0.11862745 0.51911765
0.46911765 0.10147059 0.52058824
0.60784314 0.10612745 0.52843137
0.74754902 0.11372549 0.53627451
0.85392157 0.10686275 0.53627451
0.046568627 0.19166667 0.53627451
0.065670956 0.19031863 0.538894
0.11678922 0.1942402 0.54322917
0.2185815 0.19558824 0.54754902
0.34564951 0.1995098 0.55502451
0.50085784 0.19816176 0.5631587
0.63872549 0.19546569 0.57003676
0.76531863 0.19558824 0.58160233
0.8745098 0.19460784 0.58541667
0.06372549 0.29509804 0.58946078
0.08348652 0.29825368 0.5893076
0.14466912 0.30214461 0.58903186
0.26577819 0.30686275 0.59678309
0.38431373 0.30686275 0.60306373
0.53578431 0.31026348 0.60863971
0.66960784 0.30422794 0.6161152
0.78425245 0.30588235 0.62527574
0.8745098 0.2997549 0.62916667
0.063970588 0.42218137 0.63970588
0.11262255 0.42046569 0.64031863
0.20061275 0.42202819 0.63860294
0.31960784 0.43417586 0.64252451
0.44681373 0.43946078 0.64515931
0.5754902 0.43615196 0.65470282
0.69969363 0.42610294 0.66176471
0.7977788 0.42401961 0.66715686
0.89522059 0.42046569 0.67291667
0.19362745 0.55784314 0.68529412
0.25 0.55931373 0.69019608
0.31470588 0.55735294 0.68713235
0.40974265 0.56531863 0.68964461
0.51715686 0.57303922 0.69436275
0.63425245 0.57677696 0.70269608
0.72634804 0.56862745 0.70747549
0.80539216 0.56666667 0.71715686
0.87892157 0.5622549 0.71960784
0.39460784 0.69105392 0.73713235
0.42602635 0.68788297 0.73823529
0.46001838 0.68146446 0.73446691
0.51703431 0.68284314 0.73390012
0.60245098 0.69172794 0.74068627
0.68500306 0.70281863 0.74460784
0.75563725 0.70226716 0.75245098
0.82621017 0.69607843 0.75752145
0.89914216 0.68823529 0.76139706
0.56078431 0.78333333 0.78259804
0.56525735 0.77950368 0.77941176
0.59883578 0.77941176 0.77941176
0.63609069 0.78333333 0.78014706
0.68578431 0.7879902 0.78333333
0.73743873 0.79044118 0.78651961
0.79136029 0.790625 0.79136029
0.85686275 0.79181985 0.79828431
0.91372549 0.79117647 0.80196078
0.69607843 0.86507353 0.82254902
0.69972426 0.86115196 0.81813725
0.71862745 0.86485907 0.82184436
0.74448529 0.8660386 0.82339154
0.76421569 0.86642157 0.82512255
0.7993413 0.8689951 0.82936581
0.83621324 0.87169118 0.83483456
0.89042586 0.87216605 0.84080882
0.91372549 0.87169118 0.84080882
0.80294118 0.93333333 0.86078431
0.8 0.92941176 0.85723039
0.81936275 0.9379902 0.86372549
0.82941176 0.93566176 0.86311275
0.84362745 0.93431373 0.86372549
0.85882353 0.92941176 0.86372549
0.8872549 0.9372549 0.86936275
0.91813725 0.94117647 0.8754902
0.92254902 0.9372549 0.87156863
0.01127451 0.11421569 0.58970588
0.016911765 0.11801471 0.59099265
0.080392157 0.13382353 0.59754902
0.17420343 0.12959559 0.59754902
0.29754902 0.13137255 0.60710784
0.4622549 0.14019608 0.61323529
0.60919118 0.12598039 0.61323529
0.75539216 0.12506127 0.62064951
0.81960784 0.12598039 0.62058824
0.034313725 0.20686275 0.62401961
0.046017157 0.20686275 0.62751225
0.099831495 0.21410846 0.62841605
0.20900735 0.21862745 0.63627451
0.33060662 0.21443015 0.64341299
0.48921569 0.21856618 0.64405637
0.63480392 0.21453738 0.64754902
0.76623009 0.21066942 0.65501685
0.8692402 0.21029412 0.65931373
0.046568627 0.31115196 0.66703431
0.040027574 0.31352635 0.66971507
0.11295956 0.31776961 0.67095588
0.23181679 0.32420343 0.6745098
0.37205882 0.3254902 0.67843137
0.52352941 0.32452512 0.68181679
0.66348039 0.32092525 0.68924632
0.77708333 0.31764706 0.69411765
0.87193627 0.31507353 0.69803922
0.032352941 0.44166667 0.71176471
0.052435662 0.43643536 0.71323529
0.15945159 0.44162071 0.70931373
0.29276195 0.45324755 0.70931373
0.43210784 0.45701593 0.71642157
0.56372549 0.44846814 0.72419577
0.68566176 0.43988971 0.725
0.79758732 0.43988971 0.73284314
0.88805147 0.43627451 0.73921569
0.12083333 0.57254902 0.75196078
0.19558824 0.57668505 0.75588235
0.2877451 0.57867647 0.75398284
0.38743873 0.58455882 0.75523897
0.4939951 0.59044118 0.75894608
0.61862745 0.58848039 0.76372549
0.71795343 0.57867647 0.76550245
0.8051777 0.58088235 0.77135417
0.88235294 0.58088235 0.77720588
0.36421569 0.7 0.79460784
0.39430147 0.69852941 0.79573376
0.44027267 0.70084252 0.79852941
0.50815717 0.70245098 0.79852941
0.58872549 0.70530025 0.80088848
0.67464001 0.71439951 0.80373775
0.74437806 0.71439951 0.80845588
0.81844363 0.70655637 0.81184896
0.8877451 0.70030637 0.81421569
0.53382353 0.7942402 0.83333333
0.5498315 0.79122243 0.83284314
0.58624387 0.79154412 0.83284314
0.62579657 0.79509804 0.83026961
0.67677696 0.79901961 0.83333333
0.73039216 0.80294118 0.83702512
0.78431373 0.80208333 0.84509804
0.84901961 0.80294118 0.84520527
0.91066176 0.79901961 0.84595588
0.67696078 0.87555147 0.87156863
0.68855699 0.87555147 0.86776195
0.71073836 0.87555147 0.86813725
0.73098958 0.87571232 0.86856618
0.76029412 0.87947304 0.87156863
0.794447 0.88033088 0.87551317
0.83026961 0.88339461 0.87947304
0.88425245 0.88376991 0.88070619
0.92555147 0.88033088 0.88333333
0.79215686 0.94117647 0.90245098
0.79607843 0.94166667 0.90294118
0.80784314 0.94509804 0.90379902
0.82205882 0.94528186 0.90294118
0.84509804 0.95147059 0.90686275
0.86011029 0.94540441 0.90637255
0.88333333 0.94914216 0.91164216
0.91421569 0.95251225 0.91470588
0.94607843 0.9495098 0.92205882
0.0078431373 0.12156863 0.61568627
0.018627451 0.12107843 0.61911765
0.076470588 0.14509804 0.65784314
0.15490196 0.14509804 0.67205882
0.27843137 0.1254902 0.65490196
0.45196078 0.1372549 0.66666667
0.6127451 0.13333333 0.67058824
0.75882353 0.13284314 0.65833333
0.87843137 0.13333333 0.70196078
0.019607843 0.21813725 0.66960784
0.038664216 0.21764706 0.66960784
0.094730392 0.22892157 0.69313725
0.18970588 0.22990196 0.70539216
0.30931373 0.22205882 0.70147059
0.47892157 0.22567402 0.70147059
0.63223039 0.22598039 0.70625
0.76574755 0.2254902 0.70447304
0.8627451 0.22598039 0.70980392
0.023529412 0.32254902 0.73529412
0.050490196 0.32647059 0.72193627
0.083333333 0.32573529 0.73553922
0.20343137 0.32941176 0.72843137
0.35294118 0.33333333 0.73823529
0.5122549 0.33333333 0.73921569
0.65784314 0.32941176 0.74828431
0.77696078 0.32647059 0.74497549
0.87352941 0.32647059 0.72843137
0.019607843 0.45686275 0.75539216
0.028737745 0.45686275 0.75882353
0.10857843 0.45870098 0.75992647
0.26421569 0.46078431 0.76715686
0.4127451 0.46078431 0.77034314
0.55104167 0.45055147 0.78376225
0.67904412 0.45183824 0.77892157
0.79393382 0.44901961 0.7745098
0.88627451 0.44509804 0.76323529
0.070588235 0.59411765 0.80784314
0.13382353 0.58823529 0.80196078
0.24411765 0.59215686 0.79509804
0.36887255 0.58897059 0.80196078
0.47745098 0.59607843 0.80980392
0.59926471 0.59411765 0.81446078
0.71323529 0.58823529 0.81568627
0.80735294 0.59215686 0.81789216
0.89215686 0.59607843 0.82745098
0.31764706 0.70784314 0.84460784
0.37401961 0.70392157 0.83302696
0.42990196 0.70637255 0.825
0.4995098 0.70637255 0.82892157
0.57426471 0.70833333 0.8375
0.65833333 0.71868873 0.85
0.73737745 0.72144608 0.85637255
0.82469363 0.71158088 0.85245098
0.89411765 0.70637255 0.85245098
0.51568627 0.80588235 0.87941176
0.54031863 0.79901961 0.86764706
0.57622549 0.79509804 0.85588235
0.6245098 0.79901961 0.85551471
0.66372549 0.80294118 0.87205882
0.72647059 0.81078431 0.87647059
0.78039216 0.80980392 0.88333333
0.84522059 0.80686275 0.8754902
0.90980392 0.80294118 0.87156863
0.66911765 0.88382353 0.91029412
0.67696078 0.88339461 0.90251225
0.70294118 0.87990196 0.89865196
0.72941176 0.88204657 0.89332108
0.76029412 0.8872549 0.90416667
0.77892157 0.88694853 0.90980392
0.82904412 0.89166667 0.91421569
0.88425245 0.89117647 0.91072304
0.92990196 0.89166667 0.91078431
0.79215686 0.95294118 0.94117647
0.8 0.95686275 0.94852941
0.81176471 0.96078431 0.94509804
0.82745098 0.95833333 0.93088235
0.84117647 0.95294118 0.91764706
0.85098039 0.94509804 0.92156863
0.87941176 0.95392157 0.93823529
0.92598039 0.96862745 0.95686275
0.98823529 0.98431373 0.98431373
